unveil-humanoid-operators/unveil-humanoid-operators.github.io/feature-analysis-animation/data/feature_matrix_instances/height_ankle_rom_walking_A127_crouch_ff_start_180_R_103__A127.csv
Frame,root_translateX,root_translateY,root_translateZ,root_rotateX,root_rotateY,root_rotateZ,left_hip_pitch_joint_dof,left_hip_roll_joint_dof,left_hip_yaw_joint_dof,left_knee_joint_dof,left_ankle_pitch_joint_dof,left_ankle_roll_joint_dof,right_hip_pitch_joint_dof,right_hip_roll_joint_dof,right_hip_yaw_joint_dof,right_knee_joint_dof,right_ankle_pitch_joint_dof,right_ankle_roll_joint_dof,waist_yaw_joint_dof,waist_roll_joint_dof,waist_pitch_joint_dof,left_shoulder_pitch_joint_dof,left_shoulder_roll_joint_dof,left_shoulder_yaw_joint_dof,left_elbow_joint_dof,left_wrist_roll_joint_dof,left_wrist_pitch_joint_dof,left_wrist_yaw_joint_dof,right_shoulder_pitch_joint_dof,right_shoulder_roll_joint_dof,right_shoulder_yaw_joint_dof,right_elbow_joint_dof,right_wrist_roll_joint_dof,right_wrist_pitch_joint_dof,right_wrist_yaw_joint_dof
0,0.15717199444770813,-3.4724206924438477,26.569822311401367,5.180582824171322,-10.417722601125968,89.02483645888465,-90.97579,5.324255,-4.8161173,153.16954,-49.01766,-5.8127427,-99.08106,-5.048916,17.503105,154.4089,-46.735043,4.911401,-11.130607,-13.120517,29.793802,-71.77822,46.62757,-67.68773,49.974148,-5.737719,-16.61958,11.974647,-84.396576,-20.066154,68.87484,49.984634,-10.409183,-15.114455,-15.786503
1,0.16526268422603607,-3.462615966796875,26.614770889282227,5.310018064136351,-10.318448314344794,89.10561659288258,-90.96507,5.3296375,-4.5839915,153.03638,-49.002037,-5.764344,-99.12054,-5.060361,17.707996,154.3915,-46.7845,4.956292,-11.704728,-13.815529,29.793802,-71.79609,47.254185,-67.68105,50.480522,-5.951894,-16.6471,11.957112,-84.77964,-19.458246,68.73363,49.932167,-10.426572,-15.13856,-15.766079
2,0.17369483411312103,-3.451763153076172,26.66122817993164,5.441742313491866,-10.222793389768453,89.1867505485221,-90.94909,5.3344336,-4.3504567,152.9018,-48.987724,-5.7164164,-99.15659,-5.0709634,17.916378,154.3746,-46.83415,5.0025167,-12.287251,-14.522197,29.793802,-71.80234,47.914154,-67.66682,50.9598,-6.157776,-16.679604,11.940651,-85.16851,-18.853664,68.58617,49.869823,-10.44774,-15.162259,-15.743059
3,0.1817021369934082,-3.4403655529022217,26.708837509155273,5.575025335042143,-10.128243568132794,89.26721304041752,-90.92842,5.340736,-4.1144047,152.7676,-48.976624,-5.667321,-99.1897,-5.079214,18.127132,154.35849,-46.88595,5.0506783,-12.885995,-15.251951,29.793802,-71.79417,48.605343,-67.61688,51.429874,-6.341806,-16.699574,11.921302,-85.56976,-18.248314,68.417244,49.785572,-10.461545,-15.186908,-15.724685
4,0.18845343589782715,-3.4279937744140625,26.757829666137695,5.7070841372421155,-10.031738912531164,89.3458363096825,-90.90689,5.3498325,-3.8785794,152.63382,-48.966652,-5.616956,-99.22196,-5.0861006,18.33693,154.3386,-46.939716,5.0997434,-13.498879,-15.996016,29.793802,-71.87144,49.333973,-67.66218,51.91771,-6.633179,-16.69188,11.89132,-85.99207,-17.640379,68.224686,49.6814,-10.456064,-15.213771,-15.717613
5,0.19460158050060272,-3.415093183517456,26.80773162841797,5.844290388624366,-9.936456448325236,89.42382267652854,-90.87954,5.3641253,-3.635517,152.49915,-48.95962,-5.562398,-99.25194,-5.0895915,18.553297,154.31711,-46.99755,5.151205,-14.1507015,-16.806929,29.793802,-71.88593,50.09724,-67.57061,52.42233,-6.8237386,-16.638596,11.849654,-86.43865,-17.021233,67.97645,49.522762,-10.437467,-15.24353,-15.718228
6,0.19987048208713531,-3.4018197059631348,26.858108520507812,5.982887930666807,-9.842752018071215,89.50090009798514,-90.84763,5.381443,-3.390141,152.36327,-48.953125,-5.5061936,-99.27736,-5.091809,18.771225,154.29506,-47.05953,5.203821,-14.8246,-17.641794,29.793802,-71.95356,50.90262,-67.530914,52.939304,-7.0841,-16.555262,11.795266,-86.91015,-16.389719,67.70339,49.34834,-10.407736,-15.274954,-15.725696
7,0.203934445977211,-3.3873989582061768,26.908687591552734,6.121202395240166,-9.748666643953596,89.57496154843011,-90.80861,5.4002514,-3.14317,152.22917,-48.95395,-5.4490514,-99.29967,-5.09001,18.991306,154.27005,-47.12304,5.2603583,-15.520789,-18.509754,29.793802,-72.01394,51.749195,-67.44355,53.44912,-7.3092866,-16.463314,11.745811,-87.407295,-15.7444935,67.39686,49.154827,-10.355979,-15.309902,-15.748282
8,0.20656555891036987,-3.3713419437408447,26.96012306213379,6.255157030472935,-9.650169131781466,89.64286598715822,-90.765205,5.419041,-2.9009798,152.09604,-48.9638,-5.392674,-99.31967,-5.0859323,19.207088,154.24228,-47.187096,5.3211823,-16.223785,-19.380886,29.793802,-72.120125,52.639454,-67.39051,53.937798,-7.5631304,-16.387573,11.712895,-87.93067,-15.088464,67.07335,48.963978,-10.269715,-15.349706,-15.795601
9,0.20752553641796112,-3.353909730911255,27.013439178466797,6.386400305049326,-9.546815538480406,89.70715932378523,-90.71606,5.43302,-2.6594086,151.96503,-48.98421,-5.340088,-99.33786,-5.080711,19.42281,154.21349,-47.253902,5.3871956,-16.940943,-20.268475,29.793802,-72.24307,53.572517,-67.32541,54.41062,-7.803269,-16.328905,11.701261,-88.48122,-14.422797,66.72317,48.7655,-10.134265,-15.399449,-15.877061
10,0.20647716522216797,-3.335214376449585,27.06845474243164,6.5159717862813205,-9.440928983971233,89.76799600038963,-90.66181,5.4446635,-2.4189298,151.83435,-49.012283,-5.2894034,-99.35344,-5.074873,19.638447,154.1817,-47.322193,5.457282,-17.67462,-21.176424,29.793802,-72.37312,54.548206,-67.232315,54.868595,-8.022068,-16.276636,11.703216,-89.0594,-13.747824,66.34368,48.55578,-9.959786,-15.457148,-15.985183
11,0.20173801481723785,-3.3152294158935547,27.124591827392578,6.6365570970015355,-9.330967752888563,89.81980584353008,-90.603874,5.4615507,-2.1892562,151.70844,-49.050644,-5.2365403,-99.3662,-5.0650935,19.842413,154.14423,-47.38863,5.5294695,-18.399809,-22.060843,29.793802,-72.6107,55.570045,-67.28238,55.29455,-8.360515,-16.237123,11.711158,-89.660805,-13.06941,65.96047,48.36211,-9.771885,-15.512574,-16.102943
12,0.1935359686613083,-3.2937142848968506,27.181303024291992,6.750361731930307,-9.219615655841372,89.85719594762644,-90.53809,5.4943814,-1.9689046,151.5887,-49.10095,-5.1716204,-99.37504,-5.0448184,20.033897,154.10133,-47.44993,5.603826,-19.126598,-22.969564,29.793802,-72.76634,56.626343,-67.14542,55.6595,-8.521908,-16.209581,11.731736,-90.288445,-12.386817,65.544624,48.149902,-9.598874,-15.5578,-16.21197
13,0.18255139887332916,-3.2702903747558594,27.23902130126953,6.853967830417955,-9.107201153947084,89.8823939231121,-90.4671,5.540904,-1.7612636,151.47612,-49.159973,-5.094299,-99.37953,-5.0152082,20.211657,154.05151,-47.50407,5.6786294,-19.84272,-23.855688,29.793802,-72.9731,57.72062,-67.05289,55.977104,-8.726676,-16.19683,11.761286,-90.93809,-11.703583,65.12476,47.94976,-9.439686,-15.586586,-16.304222
14,0.16911309957504272,-3.2449512481689453,27.298364639282227,6.949561488361717,-8.99330034755362,89.89692559059807,-90.38995,5.5974455,-1.5634751,151.36932,-49.228622,-5.0085144,-99.379486,-4.979009,20.378973,153.99796,-47.55404,5.7557282,-20.555984,-24.743065,29.793802,-73.187454,58.848824,-66.926056,56.25545,-8.89894,-16.196062,11.802025,-91.610176,-11.021128,64.68237,47.745083,-9.283828,-15.605452,-16.389618
15,0.15194663405418396,-3.2177979946136475,27.359939575195312,7.030681714654127,-8.871522717482573,89.89491052509165,-90.31162,5.669679,-1.3818396,151.27098,-49.31145,-4.915642,-99.38078,-4.936068,20.521757,153.93301,-47.59851,5.83181,-21.243399,-25.59783,29.793802,-73.4432,60.009575,-66.8287,56.461662,-9.068118,-16.211248,11.844696,-92.30292,-10.345168,64.243965,47.552074,-9.134961,-15.619244,-16.48147
16,0.13044239580631256,-3.1886279582977295,27.424072265625,7.092029939211225,-8.736025206132332,89.87007669840256,-90.237495,5.7630424,-1.2232287,151.17986,-49.410748,-4.817504,-99.3882,-4.8833237,20.626987,153.8509,-47.634644,5.9052916,-21.884602,-26.399622,29.793802,-73.74683,61.19834,-66.77477,56.56578,-9.215772,-16.245447,11.881333,-93.01474,-9.684042,63.82713,47.375404,-8.997801,-15.633654,-16.592731
17,0.10481192916631699,-3.1572048664093018,27.491012573242188,7.135717302213983,-8.58791105364135,89.82263426677615,-90.1667,5.8804154,-1.0858266,151.10205,-49.530533,-4.7153664,-99.40311,-4.821765,20.693819,153.75609,-47.66398,5.976855,-22.48183,-27.15606,29.793802,-74.07978,62.408993,-66.73569,56.577656,-9.321544,-16.306345,11.913982,-93.74307,-9.042825,63.43079,47.198578,-8.853967,-15.648333,-16.737526
18,0.0745343565940857,-3.1226463317871094,27.561405181884766,7.161196425173639,-8.428276809404743,89.75573007360916,-90.09925,6.0179358,-0.96828705,151.03413,-49.666992,-4.609466,-99.424576,-4.7516394,20.728949,153.64738,-47.688145,6.047293,-23.039955,-27.871544,29.793802,-74.43856,63.636734,-66.7035,56.509743,-9.387468,-16.38947,11.945918,-94.48441,-8.424203,63.049065,47.018166,-8.70709,-15.660971,-16.90489
19,0.039311282336711884,-3.0854740142822266,27.636554718017578,7.167547235205251,-8.250166904973328,89.66626131266656,-90.03962,6.1729608,-0.87250334,150.97014,-49.816025,-4.495135,-99.45571,-4.6732163,20.727652,153.5194,-47.699436,6.113347,-23.543776,-28.523571,29.793802,-74.8358,64.876854,-66.693855,56.33363,-9.405298,-16.479,11.972627,-95.23039,-7.8337235,62.688313,46.853977,-8.594111,-15.672791,-17.070189
20,-0.0013707461766898632,-3.0465087890625,27.717304229736328,7.1524588684865105,-8.04615892934124,89.55176655777453,-89.99112,6.3427196,-0.8004852,150.90443,-49.97516,-4.3695707,-99.500824,-4.58595,20.687363,153.36243,-47.68918,6.1732674,-23.978956,-29.0936,29.793802,-75.27601,66.123116,-66.70766,56.022427,-9.352421,-16.558645,11.990433,-95.971794,-7.278782,62.35316,46.720943,-8.551677,-15.684926,-17.208376
21,-0.04840086027979851,-3.008808135986328,27.804931640625,7.113143939981424,-7.8144762095661235,89.41419286299227,-90.022446,6.524192,-0.75651884,150.82047,-50.000305,-4.224194,-99.567764,-4.4907413,20.609797,153.17819,-47.655853,6.2251663,-24.344917,-29.578068,29.793802,-75.761505,67.369255,-66.75404,55.581413,-9.24069,-16.627602,12.003878,-96.70414,-6.7644267,62.042995,46.61163,-8.600259,-15.708746,-17.313778
22,-0.10304412245750427,-2.9697952270507812,27.901262283325195,7.009707102937516,-7.525998643151888,89.25229427589944,-90.14352,6.7114882,-0.7976704,150.74869,-50.000305,-4.081391,-99.6848,-4.408952,20.42702,152.95612,-47.589382,6.2426867,-24.566833,-29.793802,29.793802,-76.207504,68.59962,-66.7733,54.88733,-9.129265,-16.684315,12.010897,-97.39984,-6.2960873,61.819286,46.62527,-8.734818,-15.740888,-17.379732
23,-0.1643293797969818,-2.9292047023773193,28.00819206237793,6.866221084442218,-7.191488582086268,89.07463249004529,-90.31478,6.907561,-0.8818236,150.67412,-50.000305,-3.9343948,-99.83385,-4.333899,20.181177,152.69783,-47.49725,6.245121,-24.67115,-29.793802,29.793802,-76.55528,69.77404,-66.64531,53.98835,-8.898261,-16.730316,12.013914,-98.05243,-5.896005,61.73155,46.717533,-8.894457,-15.7502365,-17.440195
24,-0.2306511402130127,-2.8899085521698,28.127473831176758,6.719221512699849,-6.823166158357103,88.90664999658883,-90.50924,7.1035933,-0.94597316,150.57358,-50.000305,-3.768354,-99.99728,-4.2719536,19.937641,152.40828,-47.393288,6.2593803,-24.746908,-29.793802,29.793802,-77.02443,70.899345,-66.57517,53.052902,-8.501836,-16.768381,11.996431,-98.69499,-5.570973,61.64659,46.778175,-9.053778,-15.717175,-17.49105
25,-0.301084965467453,-2.848672389984131,28.260330200195312,6.563452084753198,-6.433652973606725,88.7154873946694,-90.69888,7.3251343,-1.0106579,150.45659,-50.000305,-3.5949404,-100.16205,-4.196166,19.671541,152.08417,-47.268375,6.2758036,-24.75893,-29.793802,29.793802,-77.63749,71.99216,-66.620285,52.06763,-7.9453187,-16.794472,11.948817,-99.31681,-5.3113956,61.56897,46.804417,-9.23015,-15.652235,-17.550251
26,-0.3747566342353821,-2.8042047023773193,28.407108306884766,6.399207628715081,-6.023977687016332,88.5013805440116,-90.88535,7.5692706,-1.0761477,150.32474,-50.000305,-3.412162,-100.328255,-4.10691,19.385996,151.73058,-47.126953,6.295698,-24.714296,-29.793802,29.793802,-78.39934,73.06471,-66.7963,51.02651,-7.255822,-16.810917,11.877681,-99.920586,-5.1091385,61.49407,46.799618,-9.433672,-15.562824,-17.609642
27,-0.4505082964897156,-2.7567331790924072,28.56983757019043,6.232796155977614,-5.591626644310318,88.26844542115731,-91.06672,7.831993,-1.1353565,150.1707,-50.000305,-3.2202375,-100.49375,-4.0107913,19.090466,151.34651,-46.978436,6.3253684,-24.61747,-29.793802,29.793802,-79.28667,74.11948,-67.07031,49.91736,-6.4571233,-16.819813,11.794585,-100.50681,-4.961582,61.416004,46.782127,-9.625394,-15.423555,-17.627462
28,-0.5272637009620667,-2.7058589458465576,28.749656677246094,6.080195449069047,-5.136812151661723,88.02174239804282,-91.23155,8.109693,-1.1702106,149.98734,-50.000305,-3.0175335,-100.65433,-3.9104009,18.804798,150.9332,-46.835003,6.374999,-24.475101,-29.793802,29.793802,-80.23161,75.14121,-67.34743,48.735096,-5.545492,-16.824368,11.713921,-101.07052,-4.8749156,61.343742,46.762394,-9.760018,-15.207149,-17.566626
29,-0.6083200573921204,-2.6490447521209717,28.944561004638672,5.8591874798335635,-4.603458288857852,87.74361299506674,-91.483116,8.400073,-1.2977177,149.799,-50.000305,-2.8320277,-100.86319,-3.8316762,18.397577,150.4632,-46.667885,6.3958583,-24.12343,-29.439661,29.793802,-81.025215,76.0917,-67.446465,47.243862,-4.574289,-16.811832,11.637997,-101.5461,-4.863444,61.440067,46.921017,-9.8521595,-14.901746,-17.43092
30,-0.6942480802536011,-2.5870959758758545,29.154380798339844,5.59928011987927,-4.015221218089974,87.43938832471127,-91.782776,8.705336,-1.4715427,149.598,-50.000305,-2.650647,-101.09873,-3.762788,17.922098,149.94637,-46.486794,6.4075456,-23.6173,-28.863548,29.793802,-81.733025,76.9476,-67.41125,45.56654,-3.4873927,-16.787275,11.563049,-101.9541,-4.9409046,61.64651,47.16838,-9.913401,-14.523432,-17.228758
31,-0.7823205590248108,-2.5191686153411865,29.380878448486328,5.3229356026251935,-3.3900180665070527,87.12081286372351,-92.09796,9.016374,-1.6619244,149.3766,-50.000305,-2.472716,-101.334305,-3.7014577,17.417734,149.39337,-46.30925,6.4239216,-22.999893,-28.1649,29.793802,-82.40796,77.71131,-67.30816,43.786884,-2.3740537,-16.75923,11.483449,-102.30187,-5.105512,61.914597,47.468742,-9.930279,-14.084399,-16.924088
32,-0.8695996403694153,-2.444535970687866,29.624643325805664,5.040312371779932,-2.7361086635328897,86.79896938086497,-92.416214,9.322497,-1.8577538,149.12984,-50.000305,-2.3006597,-101.553825,-3.6525335,16.90356,148.80931,-46.1474,6.450043,-22.288176,-27.368841,29.793802,-83.02215,78.37507,-67.11487,41.935215,-1.3253512,-16.732237,11.395637,-102.58632,-5.3576045,62.226414,47.82644,-9.893679,-13.596796,-16.4728
33,-0.9569548964500427,-2.363496780395508,29.88484764099121,4.746872964682522,-2.047172984159723,86.47217628309704,-92.74334,9.621723,-2.0621388,148.85721,-50.000305,-2.1360917,-101.75868,-3.6179194,16.372875,148.1906,-46.00373,6.4910975,-21.4717,-26.460732,29.793802,-83.585,78.93306,-66.82616,40.000896,-0.34351227,-16.711103,11.295569,-102.811005,-5.699923,62.581726,48.253315,-9.807944,-13.054387,-15.850206
34,-1.0452889204025269,-2.275148868560791,30.162677764892578,4.4353348007808675,-1.3232171027401904,86.13646747966817,-93.08295,9.918117,-2.2798257,148.56119,-50.000305,-1.9778752,-101.952354,-3.5978174,15.818924,147.53362,-45.872597,6.54363,-20.540611,-25.429754,29.793802,-84.10446,79.38036,-66.44673,37.980366,0.61097974,-16.693245,11.186012,-102.98173,-6.1362877,62.99225,48.747993,-9.679819,-12.452464,-15.086468
35,-1.1312873363494873,-2.1795129776000977,30.459026336669922,4.117730830834708,-0.581671791386182,85.7992603208297,-93.4137,10.211681,-2.4985337,148.24326,-50.000305,-1.8247603,-102.11745,-3.5868988,15.260168,146.85225,-45.76339,6.5992517,-19.516598,-24.313204,29.793802,-84.550125,79.7137,-65.969124,35.917843,1.5099062,-16.674023,11.073716,-103.09771,-6.665946,63.453712,49.291615,-9.504322,-11.804673,-14.219503
36,-1.2133793830871582,-2.077176094055176,30.771059036254883,3.803276955480598,0.16057921694449195,85.47020103455434,-93.71621,10.501641,-2.7037807,147.90872,-50.000305,-1.6742142,-102.23652,-3.5783765,14.722935,146.1603,-45.685738,6.657975,-18.425554,-23.14963,29.793802,-84.89265,79.93259,-65.38535,33.85653,2.325524,-16.648453,10.965511,-103.16113,-7.284019,63.960224,49.867226,-9.276175,-11.124681,-13.287097
37,-1.292156457901001,-1.9645241498947144,31.09785270690918,3.488323896731302,0.9068723934050017,85.14558616236955,-93.99092,10.786529,-2.9025383,147.55582,-50.000305,-1.5360298,-102.30994,-3.5709124,14.196075,145.45,-45.64046,6.7183943,-17.2588,-21.93043,29.793802,-85.13928,80.03728,-64.69132,31.786455,3.0700655,-16.609823,10.866748,-103.17639,-7.9879518,64.506226,50.489044,-8.989983,-10.393813,-12.264807
38,-1.3688431978225708,-1.8413788080215454,31.438579559326172,3.1693684805595748,1.6600255694394068,84.82402375323116,-94.24105,11.067013,-3.095812,147.18246,-50.000305,-1.407961,-102.34101,-3.5667677,13.672103,144.72008,-45.623856,6.781339,-16.012123,-20.647648,29.793802,-85.30906,80.02963,-63.893166,29.696337,3.7511554,-16.563362,10.773613,-103.15278,-8.777684,65.09243,51.16268,-8.655188,-9.60957,-11.147051
39,-1.4431049823760986,-1.709267258644104,31.79168701171875,2.861771916801317,2.4030355367246394,84.51968279444122,-94.45152,11.345406,-3.255287,146.79184,-50.000305,-1.2675917,-102.32521,-3.572753,13.173727,143.98593,-45.633858,6.833554,-14.724161,-19.347881,29.793802,-85.38981,79.915726,-63.001728,27.626362,4.3351827,-16.522123,10.679493,-103.097725,-9.648696,65.71846,51.85548,-8.287105,-8.810828,-9.999087
40,-1.5127389430999756,-1.5683009624481201,32.15700149536133,2.5848728388573994,3.119372389461536,84.24671693087828,-94.60322,11.625404,-3.34937,146.38895,-50.000305,-1.0927142,-102.2598,-3.5949423,12.724897,143.26546,-45.670666,6.862464,-13.437254,-18.082127,29.793802,-85.36953,79.70608,-62.031155,25.615873,4.7892566,-16.49862,10.577717,-103.01647,-10.591519,66.380394,52.53385,-7.8981214,-8.037574,-8.884671
41,-1.5761454105377197,-1.4191237688064575,32.53419876098633,2.3431060430079995,3.8108238804258696,84.00572246973972,-94.69438,11.933193,-3.3527956,145.97394,-50.000305,-0.8516677,-102.14561,-3.625468,12.330804,142.55582,-45.72985,6.8671236,-12.156254,-16.857584,29.793802,-85.2558,79.41083,-60.983334,23.651854,5.0701694,-16.49322,10.47105,-102.91734,-11.598125,67.08038,53.203854,-7.4741645,-7.2833624,-7.7957463
42,-1.633684515953064,-1.2609381675720215,32.92076110839844,2.1313840522228342,4.483043686102104,83.79385263518998,-94.72787,12.258864,-3.2765357,145.54366,-50.000305,-0.56227064,-101.984245,-3.665566,11.985016,141.85301,-45.813576,6.8549438,-10.87806,-15.667,29.793802,-85.062805,79.03928,-59.862896,21.717323,5.2091155,-16.499176,10.362136,-102.8042,-12.662651,67.8092,53.875835,-7.0148907,-6.531485,-6.7075944
43,-1.684967041015625,-1.0947750806808472,33.31427001953125,1.9561201669014838,5.1262576486247475,83.62030334795936,-94.69472,12.55335,-3.1447875,145.09444,-50.000305,-0.2751175,-101.77395,-3.721745,11.693889,141.16869,-45.92596,6.8293266,-9.635543,-14.542517,29.793802,-84.79177,78.603874,-58.69709,19.84529,5.2832284,-16.5183,10.243455,-102.673256,-13.775339,68.54279,54.521748,-6.5501423,-5.8089733,-5.657421
44,-1.730004906654358,-0.9225000739097595,33.71314239501953,1.825703325479189,5.731821935976926,83.49395690934722,-94.58825,12.767225,-2.9843085,144.62206,-50.000305,-0.04123836,-101.51424,-3.8023918,11.466991,140.51317,-46.0681,6.7954025,-8.463998,-13.52025,29.793802,-84.450226,78.120125,-57.522156,18.071205,5.3679605,-16.552397,10.10723,-102.51928,-14.922839,69.252655,55.114143,-6.1086173,-5.144351,-4.6816087
45,-1.768048644065857,-0.74079430103302,34.117794036865234,1.7534722195481176,6.303080398576432,83.41679447372718,-94.4014,12.894206,-2.77983,144.11942,-50.000305,0.14000891,-101.2079,-3.895199,11.326633,139.8842,-46.243153,6.756504,-7.38085,-12.630639,29.793802,-84.06344,77.60726,-56.369884,16.386389,5.457927,-16.599459,9.954791,-102.351875,-16.09269,69.94099,55.650993,-5.6761622,-4.5393014,-3.7577798
46,-1.7978755235671997,-0.5482582449913025,34.528202056884766,1.7395266874653512,6.844019455177407,83.38596109229093,-94.13594,12.959173,-2.5161803,143.58965,-50.000305,0.29324165,-100.85975,-3.9993625,11.265656,139.27968,-46.448883,6.709153,-6.3866014,-11.87377,29.793802,-83.63353,77.080505,-55.237995,14.771031,5.518667,-16.657726,9.788188,-102.171165,-17.27435,70.60176,56.141327,-5.243073,-3.982114,-2.877344
47,-1.8205560445785522,-0.34708327054977417,34.941532135009766,1.7647031729780485,7.34712767528667,83.4008683821627,-93.80303,12.959153,-2.226931,143.04077,-50.000305,0.40159568,-100.47187,-4.1397786,11.248232,138.70753,-46.671577,6.6515446,-5.487338,-11.234409,29.793802,-83.12555,76.5469,-54.1035,13.241331,5.5827165,-16.730276,9.600794,-101.95567,-18.456474,71.19535,56.57757,-4.843587,-3.48363,-2.096231
48,-1.837083101272583,-0.13916918635368347,35.35563659667969,1.8077879309409173,7.803977115559932,83.4599314462884,-93.41403,12.891261,-1.9481784,142.48294,-50.000305,0.44827986,-100.0399,-4.3392997,11.238787,138.17741,-46.90904,6.588787,-4.6848307,-10.6907015,29.793802,-82.50214,76.00624,-52.939075,11.815301,5.683378,-16.821167,9.386764,-101.68367,-19.628159,71.68581,56.957367,-4.5106564,-3.0562706,-1.469717
49,-1.8445802927017212,0.07591328769922256,35.769325256347656,1.8875038492317722,8.220724489313032,83.56408292115668,-92.96717,12.745452,-1.6733489,141.904,-50.000305,0.41913754,-99.56364,-4.5999556,11.255134,137.67932,-47.181664,6.5211096,-3.9855466,-10.258655,29.793802,-81.75612,75.45983,-51.73027,10.487061,5.8318768,-16.942387,9.140883,-101.35311,-20.780964,72.08171,57.280643,-4.2623334,-2.7106364,-1.0217266
50,-1.8407557010650635,0.30090612173080444,36.181312561035156,2.006624548078188,8.600411344999788,83.71232984249383,-92.46242,12.525918,-1.3937477,141.30331,-50.000305,0.32581088,-99.04796,-4.911177,11.304404,137.21063,-47.484512,6.447221,-3.3892293,-9.938624,29.793802,-80.89285,74.91044,-50.482304,9.237928,6.0101557,-17.088629,8.867693,-100.96791,-21.908672,72.394196,57.558903,-4.0743313,-2.4408004,-0.7182246
51,-1.8261747360229492,0.5334233641624451,36.58906173706055,2.1249975100323706,8.929876227808066,83.89924551029314,-91.913055,12.251965,-1.1473413,140.70831,-50.000305,0.18810585,-98.499344,-5.2756157,11.332666,136.79626,-47.7604,6.3641024,-2.8834686,-9.683138,29.793802,-79.9006,74.35227,-49.202522,8.072439,6.208614,-17.239069,8.577261,-100.51424,-23.005362,72.59148,57.807728,-3.9143615,-2.2343264,-0.5280391
52,-1.802248477935791,0.7709540724754333,36.99020767211914,2.2040611888906283,9.19588647565571,84.11851262636098,-91.33242,11.944981,-0.97522545,140.14287,-50.000305,0.024543116,-97.92874,-5.699173,11.279586,136.45813,-47.93628,6.2540226,-2.4515738,-9.442647,29.793802,-78.77519,73.772606,-47.906273,7.0009713,6.4172344,-17.372013,8.280044,-99.975876,-24.066116,72.64215,58.04291,-3.7528143,-2.0785434,-0.420762
53,-1.7688251733779907,1.0161393880844116,37.38289260864258,2.251174896819914,9.404988407873306,84.37633483611714,-90.72179,11.590673,-0.87822247,139.59029,-50.000305,-0.17971404,-97.33429,-6.2359705,11.123542,136.19159,-48.042217,6.099711,-2.0969377,-9.225522,29.793802,-77.518364,73.15871,-46.595932,6.026886,6.651124,-17.485996,7.974071,-99.35057,-25.088541,72.549995,58.27021,-3.5939138,-1.9845649,-0.41745907
54,-1.7250491380691528,1.2697311639785767,37.766178131103516,2.2781661581405865,9.561279279706525,84.67167601473216,-90.07838,11.185432,-0.84640515,139.04553,-50.000305,-0.42867696,-96.70787,-6.866907,10.894452,135.98886,-48.100407,5.911956,-1.8167942,-9.040625,29.793802,-76.14605,72.50032,-45.279556,5.149003,6.9113097,-17.591822,7.6577086,-98.633896,-26.071096,72.328926,58.48736,-3.449399,-1.9550167,-0.52494115
55,-1.6709661483764648,1.5334960222244263,38.13852310180664,2.255962473447694,9.648316437987118,84.98892014628504,-89.40746,10.766908,-0.90160435,138.55066,-50.000305,-0.685405,-96.048225,-7.486576,10.617554,135.86542,-48.038116,5.720926,-1.5851809,-8.840901,29.793802,-74.689575,71.785286,-43.995796,4.383847,7.1657653,-17.68929,7.341979,-97.80966,-27.01125,71.96241,58.69986,-3.2989616,-1.9638073,-0.69265115
56,-1.6062732934951782,1.8076903820037842,38.496986389160156,2.151900933395601,9.648671885419654,85.31052701129322,-88.714386,10.3747,-1.0650357,138.15573,-50.000305,-0.9127625,-95.35504,-7.9925513,10.319187,135.84198,-47.781105,5.555862,-1.3747038,-8.58216,29.793802,-73.19281,71.0,-42.797813,3.7585948,7.3821764,-17.778425,7.038413,-96.86192,-27.906227,71.428566,58.91376,-3.1232069,-1.9853154,-0.8709216
57,-1.5316739082336426,2.088773012161255,38.837886810302734,1.9497941873952596,9.549111502918416,85.63908748947864,-87.990944,10.00286,-1.3635843,137.8692,-50.000305,-1.1142911,-94.59947,-8.343592,10.012963,135.93239,-47.307503,5.4338613,-1.1759764,-8.250531,29.793802,-71.644295,70.12401,-41.701477,3.288565,7.562413,-17.852497,6.7462893,-95.76051,-28.753315,70.685936,59.135147,-2.9240746,-2.0160522,-1.0796127
58,-1.4499307870864868,2.375535249710083,39.16188049316406,1.6646996774962797,9.362637996770237,85.9816416446932,-87.23727,9.638609,-1.7842904,137.66959,-50.000305,-1.3057535,-93.78838,-8.597855,9.682436,136.12546,-46.660122,5.336427,-0.9891233,-7.8585224,29.793802,-70.06726,69.14372,-40.72083,2.976412,7.723722,-17.914198,6.461576,-94.51261,-29.552595,69.75418,59.365665,-2.7113442,-2.0697217,-1.3362885
59,-1.363063931465149,2.6661226749420166,39.469730377197266,1.3164152902911639,9.111285929726435,86.32960444928102,-86.46963,9.310081,-2.2870257,137.54903,-50.000305,-1.4688677,-92.98297,-8.811558,9.303315,136.39236,-45.852493,5.2216973,-0.8036162,-7.4034123,29.793802,-68.5609,68.063934,-39.906425,2.8360167,7.8521566,-17.974857,6.1897273,-93.16451,-30.308395,68.70037,59.602726,-2.4748604,-2.1427464,-1.587911
60,-1.2699631452560425,2.962029457092285,39.760257720947266,0.9242990046292097,8.816669138236735,86.67430639563867,-85.702675,9.044164,-2.827893,137.50432,-50.000305,-1.5844873,-92.24187,-9.035883,8.855841,136.70898,-44.902317,5.054489,-0.6149062,-6.8909154,29.793802,-67.2166,66.90304,-39.301456,2.8783872,7.9312005,-18.045347,5.937089,-91.76334,-31.027761,67.5847,59.8379,-2.2064066,-2.2313368,-1.781112
61,-1.173974633216858,3.2597169876098633,40.03192138671875,0.4718869513248888,8.463449806153905,87.02117999409158,-84.92837,8.8492365,-3.42481,137.54881,-50.000305,-1.6400734,-91.55082,-9.28974,8.317656,137.16493,-43.695595,4.7955375,-0.42403868,-6.308544,29.793802,-66.00138,65.66768,-38.895317,3.1156127,7.9421606,-18.126524,5.7005024,-90.284454,-31.713896,66.34967,60.07182,-1.8880955,-2.3427415,-1.9127581
62,-1.0792466402053833,3.5576865673065186,40.28394317626953,-0.04647813386982815,8.048003548575455,87.3739129668216,-84.13995,8.712016,-4.0896573,137.67934,-50.000305,-1.6500065,-90.88888,-9.551355,7.703654,137.74094,-42.260376,4.4663115,-0.2296115,-5.65895,29.793802,-64.8784,64.3609,-38.669186,3.537455,7.8963933,-18.211815,5.475358,-88.71003,-32.367302,64.972404,60.296448,-1.5332263,-2.4757173,-2.0087166
63,-0.9851148128509521,3.8569717407226562,40.517295837402344,-0.584149869552838,7.609956349994854,87.72312815684765,-83.36067,8.624412,-4.767184,137.86438,-50.000305,-1.6334366,-90.307594,-9.809102,7.060581,138.24919,-40.830925,4.1338105,-0.031847674,-4.978293,29.793802,-63.92395,63.008465,-38.637527,4.1187696,7.8172836,-18.300617,5.266876,-87.11643,-32.992756,63.583477,60.49182,-1.1661451,-2.613747,-2.0570245
64,-0.8932156562805176,4.154337406158447,40.733097076416016,-1.0918773606425614,7.1891101786868346,88.05853892179923,-82.61601,8.577146,-5.4003177,138.07153,-50.000305,-1.6079781,-89.85967,-10.0424795,6.436785,138.50363,-39.64141,3.8743353,0.16039504,-4.311389,29.793802,-63.19783,61.649277,-38.79775,4.827796,7.7265096,-18.39267,5.082138,-85.581696,-33.596096,62.311867,60.633793,-0.812519,-2.739815,-2.0449255
65,-0.810139536857605,4.446186542510986,40.92938232421875,-1.5726803980635076,6.789455164982221,88.37549369851584,-81.91195,8.583675,-5.9834385,138.30411,-50.000305,-1.5642197,-89.549866,-10.27357,5.8043838,138.53098,-38.750202,3.6483192,0.331901,-3.670876,29.793802,-62.66487,60.313683,-39.110867,5.657861,7.59977,-18.482925,4.918279,-84.1067,-34.17792,61.129555,60.716415,-0.4634863,-2.8493521,-1.9496989
66,-0.736966609954834,4.728268623352051,41.104305267333984,-2.0427273219695548,6.39348622401082,88.68012415472019,-81.23585,8.64268,-6.53825,138.57446,-50.000305,-1.4969643,-89.35283,-10.493645,5.1607428,138.40822,-38.038868,3.4531922,0.47599298,-3.0492435,29.793802,-62.257225,59.018097,-39.540924,6.598006,7.4286423,-18.572119,4.771524,-82.66103,-34.73359,59.982677,60.737373,-0.11108685,-2.9497392,-1.7826886
67,-0.6706727743148804,4.998692035675049,41.258766174316406,-2.480855788841466,6.009398167931983,88.97693095387204,-80.588875,8.721383,-7.0485325,138.86443,-50.000305,-1.4289626,-89.29469,-10.659366,4.5364513,138.02022,-37.453598,3.354966,0.5919207,-2.461558,29.793802,-61.98964,57.783485,-40.0864,7.606017,7.2485437,-18.666185,4.6490045,-81.28268,-35.262188,58.97297,60.690094,0.22581042,-3.0422728,-1.5812621
68,-0.6108185052871704,5.256012916564941,41.39114761352539,-2.8628822775158222,5.645340870714032,89.2692607057965,-79.972855,8.787501,-7.497873,139.15613,-50.000305,-1.3819418,-89.39657,-10.7199955,3.9757411,137.25319,-36.951267,3.438788,0.6768606,-1.9247097,29.793802,-61.86731,56.628304,-40.736553,8.6363,7.100701,-18.771257,4.5583315,-80.007904,-35.76415,58.198414,60.567574,0.52139825,-3.1284668,-1.3826085
69,-0.557784914970398,5.5059895515441895,41.49895095825195,-3.1892413599880793,5.299271477524352,89.55308918436704,-79.38273,8.84124,-7.8844504,139.44759,-50.000305,-1.3593674,-89.68185,-10.644319,3.4732392,136.02512,-36.581387,3.7524335,0.7221711,-1.4438751,29.793802,-61.887405,55.56859,-41.492725,9.690921,6.9784756,-18.89288,4.501508,-78.844284,-36.23804,57.691395,60.36895,0.77488786,-3.208051,-1.1715018
70,-0.5123196840286255,5.750491619110107,41.581092834472656,-3.467086179132063,4.971158807646781,89.82463644210432,-78.823006,8.898279,-8.213501,139.74554,-50.000305,-1.3493345,-90.121025,-10.46364,3.0333478,134.41435,-36.367638,4.262122,0.7208292,-1.0207174,29.793802,-62.019077,54.612095,-42.32893,10.771141,6.862132,-19.026112,4.475043,-77.78281,-36.68032,57.40266,60.100067,0.9952632,-3.2800002,-0.9349253
71,-0.47356826066970825,5.986002445220947,41.637367248535156,-3.6919419331826915,4.671349285453287,90.08640796489888,-78.30701,8.94739,-8.478928,140.05173,-50.000305,-1.3505157,-90.65956,-10.229266,2.6979415,132.53783,-36.22123,4.907138,0.6750634,-0.662955,29.793802,-62.245403,53.763,-43.208805,11.8384905,6.762604,-19.162663,4.478036,-76.84897,-37.091976,57.332706,59.774944,1.188115,-3.3462057,-0.7129183
72,-0.4400065243244171,6.2083845138549805,41.66602325439453,-3.857107371511528,4.409401309051283,90.3419820036741,-77.84985,8.976505,-8.675318,140.36514,-50.000305,-1.3609653,-91.25172,-9.995848,2.474662,130.51234,-36.040493,5.596478,0.5876718,-0.37706575,29.793802,-62.54502,53.021427,-44.09369,12.852766,6.696568,-19.294281,4.509027,-76.06701,-37.4764,57.48401,59.404057,1.3587539,-3.408504,-0.54536813
73,-0.41092485189437866,6.422389507293701,41.66535568237305,-3.9561570438987568,4.194795524310276,90.58494657183078,-77.46337,8.986346,-8.792336,140.67854,-50.000305,-1.3786035,-91.91179,-9.734911,2.3739862,128.22778,-35.87019,6.3865623,0.4613366,-0.16634469,29.793802,-62.93771,52.39188,-44.995342,13.80806,6.6793246,-19.424147,4.5728765,-75.45684,-37.837997,57.91343,58.980484,1.4979838,-3.4644995,-0.43536708
74,-0.3868657648563385,6.629674911499023,41.633628845214844,-3.993453819241234,4.020625344478494,90.81363693243533,-77.13983,8.981616,-8.834412,140.99261,-50.000305,-1.4031366,-92.643196,-9.442081,2.3777168,125.662964,-35.751003,7.2793446,0.2921809,-0.029613065,29.793802,-63.419914,51.87578,-45.921616,14.717211,6.6989794,-19.554777,4.66925,-75.00602,-38.177586,58.611427,58.499577,1.6089764,-3.5145047,-0.36335707
75,-0.3666679263114929,6.827542781829834,41.5700798034668,-3.979153323429986,3.8711548219828282,91.04049829807555,-76.862915,8.955015,-8.819162,141.32686,-50.000305,-1.4364755,-93.3938,-9.190828,2.4503672,123.07091,-35.557228,8.117152,0.07553383,0.039161526,29.793802,-63.946278,51.464565,-46.836582,15.572795,6.727602,-19.677149,4.7888618,-74.683914,-38.49323,59.471764,57.9762,1.7060387,-3.5645564,-0.3353079
76,-0.34931668639183044,7.013131141662598,41.47242736816406,-3.922376804102584,3.7295734990009524,91.27929744753445,-76.61656,8.89871,-8.765246,141.69711,-50.000305,-1.4804738,-94.121574,-9.038347,2.5590255,120.71213,-35.155556,8.76141,-0.19284263,0.04804389,29.793802,-64.468735,51.143555,-47.702946,16.370253,6.742718,-19.782738,4.921953,-74.45613,-38.782154,60.384327,57.426876,1.8030529,-3.6205678,-0.35742915
77,-0.33392882347106934,7.190009117126465,41.339664459228516,-3.8173386949528454,3.593832518318514,91.53757050822401,-76.40028,8.800337,-8.6629,142.09842,-50.000305,-1.543643,-94.85501,-8.980002,2.7070868,118.44584,-34.38242,9.261174,-0.51569563,-0.0017644253,29.793802,-65.01682,50.906372,-48.55042,17.117634,6.7490697,-19.87063,5.0772424,-74.33756,-39.046764,61.395317,56.84892,1.8950188,-3.6890678,-0.44558153
78,-0.31896454095840454,7.3668437004089355,41.17320251464844,-3.661811022565195,3.4702986607085147,91.80779647211465,-76.22231,8.66648,-8.506185,142.52637,-50.000305,-1.6211965,-95.605835,-8.979246,2.9041533,116.20078,-33.34339,9.67087,-0.88660586,-0.11143857,29.793802,-65.611115,50.7487,-49.39497,17.821308,6.758629,-19.945244,5.2569327,-74.339264,-39.288883,62.5414,56.234997,1.9771644,-3.7656355,-0.59143883
79,-0.29651546478271484,7.553877830505371,40.977508544921875,-3.4723448203065783,3.3554211732587627,92.08510215734906,-76.08125,8.512152,-8.317161,142.99165,-50.000305,-1.6944679,-96.32455,-9.037522,3.137543,114.352356,-32.30658,9.880132,-1.2984067,-0.2728203,29.793802,-66.20174,50.657925,-50.184803,18.48009,6.7550044,-20.006168,5.4410496,-74.42117,-39.504745,63.69672,55.603237,2.0623078,-3.8395414,-0.76543725
80,-0.2639788091182709,7.751412868499756,40.75517654418945,-3.2616631140515158,3.243839065158959,92.36464625421597,-75.9721,8.352746,-8.118148,143.50453,-50.000305,-1.7459171,-96.97176,-9.159303,3.3974166,113.280495,-31.534492,9.776504,-1.7424892,-0.47671494,29.793802,-66.74367,50.618713,-50.872074,19.09815,6.7209578,-20.053497,5.6097693,-74.54666,-39.68986,64.739685,54.977917,2.1658535,-3.900293,-0.9378622
81,-0.2332972139120102,7.934105396270752,40.50288391113281,-3.025405193227934,3.137423735043867,92.64606522543383,-75.903885,8.184621,-7.902005,144.0712,-50.000305,-1.765836,-97.54391,-9.415536,3.6710315,113.26972,-31.127922,9.182935,-2.2172627,-0.725919,29.793802,-67.250885,50.62256,-51.456795,19.686628,6.661914,-20.089987,5.768917,-74.730705,-39.844555,65.682045,54.365776,2.2952902,-3.947847,-1.1166948
82,-0.20776991546154022,8.100568771362305,40.221832275390625,-2.7556094871531855,3.035447643353989,92.93397095267007,-75.875114,8.000546,-7.658023,144.68661,-50.000305,-1.7644751,-98.07743,-9.787696,3.978322,114.06191,-30.934954,8.199726,-2.7244442,-1.0194451,29.793802,-67.75064,50.665836,-51.968685,20.251451,6.5855513,-20.115536,5.9258337,-74.98506,-39.970695,66.57403,53.759407,2.439664,-3.987153,-1.3125873
83,-0.1771973818540573,8.279571533203125,39.9188232421875,-2.4719575065311203,2.9295969386046514,93.23130407830824,-75.86733,7.811146,-7.404866,145.34111,-50.000305,-1.754221,-98.58903,-10.145964,4.3566203,115.22213,-30.832808,7.130372,-3.263017,-1.3453746,29.793802,-68.21993,50.721813,-52.398163,20.810259,6.4911313,-20.126059,6.059594,-75.26833,-40.041668,67.338524,53.188892,2.5738475,-4.016132,-1.4980131
84,-0.1382068395614624,8.477072715759277,39.59658432006836,-2.1905606320157855,2.816755367227501,93.5400150371207,-75.86625,7.627814,-7.163712,146.0287,-50.000305,-1.748838,-99.09726,-10.352272,4.8306723,116.315056,-30.685009,6.2894197,-3.8299444,-1.6807221,29.793802,-68.6226,50.819492,-52.74611,21.32199,6.348119,-20.114565,6.165148,-75.54119,-40.109432,67.948326,52.61507,2.7250242,-4.0288477,-1.6537714
85,-0.09470434486865997,8.674779891967773,39.253780364990234,-1.9172006065426348,2.693275440621523,93.86305712054167,-75.87664,7.481455,-6.9194217,146.76457,-50.000305,-1.7243792,-99.58158,-10.316981,5.441087,117.30404,-30.434088,5.7670603,-4.417609,-2.0199387,29.793802,-68.96523,50.908108,-52.989624,21.826214,6.174553,-20.078583,6.2235456,-75.79383,-40.13944,68.3415,52.079044,2.8417747,-4.0191693,-1.7651455
86,-0.04631510376930237,8.867809295654297,38.89436721801758,-1.6457026595485345,2.5637819535562674,94.19973027463,-75.9064,7.3576064,-6.6710997,147.5472,-50.000305,-1.683517,-100.03418,-10.128974,6.1545205,118.39173,-30.151237,5.3971605,-5.026874,-2.3653762,29.793802,-69.2694,50.99845,-53.14848,22.32014,5.967347,-20.021227,6.250987,-76.04804,-40.144505,68.568146,51.571636,2.9469132,-3.9908803,-1.8497716
87,0.008312704041600227,9.068638801574707,38.52460479736328,-1.3738566632747844,2.4291381073362808,94.5461866989041,-75.93971,7.1977143,-6.4550786,148.34587,-50.000305,-1.6720179,-100.478676,-9.90337,6.8879924,119.51044,-29.903471,5.135647,-5.6631393,-2.7271318,29.793802,-69.530655,51.10469,-53.24385,22.798819,5.735178,-19.949375,6.253534,-76.2917,-40.120644,68.64392,51.088226,3.061017,-3.9582481,-1.9133133
88,0.06780193001031876,9.278069496154785,38.14741516113281,-1.1068117147772676,2.2904103469879464,94.8995290588167,-75.9637,6.942946,-6.3082485,149.1325,-50.000305,-1.735772,-100.944214,-9.76072,7.5618744,120.590164,-29.758347,4.9315624,-6.3150916,-3.0927103,29.793802,-69.76606,51.188618,-53.303795,23.28826,5.4919825,-19.87201,6.237014,-76.50642,-40.080345,68.58687,50.632065,3.2006106,-3.9352505,-1.9621724
89,0.12999755144119263,9.489638328552246,37.76442337036133,-0.8326577510403652,2.1450824002833535,95.27090254269471,-75.97697,6.5677075,-6.22565,149.90085,-50.000305,-1.8819565,-101.44352,-9.7554865,8.170013,121.62793,-29.853775,4.8557415,-7.011106,-3.4962566,29.793802,-69.957214,51.29336,-53.32406,23.771593,5.2095184,-19.788502,6.2009487,-76.69569,-40.000153,68.37187,50.204044,3.3711116,-3.9347754,-1.9729189
90,0.19224800169467926,9.701517105102539,37.37808609008789,-0.5543413531959535,1.9926706788867516,95.65904690512713,-75.988235,6.109492,-6.1853805,150.6679,-50.000305,-2.083108,-101.95957,-9.815229,8.754754,122.65544,-30.116236,4.9084344,-7.73933,-3.9162724,29.793802,-70.10904,51.39399,-53.288013,24.255678,4.8948135,-19.696487,6.1405945,-76.86643,-39.89257,68.00649,49.80895,3.5627172,-3.9460135,-1.9511456
91,0.25299951434135437,9.913267135620117,36.99097442626953,-0.28280279361854305,1.8380000952265885,96.04188885295048,-75.994576,5.6058507,-6.1851754,151.43016,-50.000305,-2.3312771,-102.48833,-9.870882,9.322109,123.66297,-30.29349,4.9289002,-8.478974,-4.346072,29.793802,-70.2417,51.494415,-53.22704,24.740854,4.5945106,-19.594053,6.0672293,-77.01202,-39.7609,67.52532,49.434017,3.7685192,-3.9494696,-1.9451457
92,0.3120386600494385,10.12354850769043,36.6049690246582,-0.027529896167716058,1.6868293767120364,96.39801681923298,-75.99758,5.0915804,-6.2195697,152.19229,-50.000305,-2.6115787,-103.022896,-9.845334,9.886134,124.6383,-30.136879,4.7731233,-9.20943,-4.7753673,29.793802,-70.3701,51.600838,-53.16675,25.221603,4.355255,-19.479822,5.990786,-77.11901,-39.609306,66.954506,49.064632,3.9711149,-3.9258492,-2.0034857
93,0.3696592450141907,10.334476470947266,36.22296905517578,0.20864196407766297,1.5483658784614078,96.7223066150578,-76.0029,4.557691,-6.308522,152.94965,-50.000305,-2.960221,-103.58574,-9.682197,10.4821005,125.56738,-29.392084,4.32826,-9.924793,-5.1995206,29.793802,-70.496254,51.71629,-53.0994,25.698511,4.179547,-19.35392,5.9161863,-77.19927,-39.44208,66.27903,48.698475,4.169048,-3.8645122,-2.1348567
94,0.4267514646053314,10.54492473602295,35.843467712402344,0.4316328451279841,1.4181908690194,97.02625627448283,-76.01526,3.99319,-6.4443846,153.70871,-50.000305,-3.3676686,-104.18287,-9.436618,11.0843115,126.45823,-28.240868,3.692179,-10.636253,-5.624622,29.793802,-70.60635,51.84073,-53.01029,26.166746,4.0494504,-19.216629,5.8370447,-77.2502,-39.261356,65.48606,48.33482,4.36515,-3.7778456,-2.3151693
95,0.48476293683052063,10.75840950012207,35.46915817260742,0.6386723071563641,1.2824947466840757,97.31312445607583,-76.01054,3.4332674,-6.6014276,154.46796,-50.000305,-3.7695847,-104.75542,-9.195167,11.652752,127.32659,-27.1026,3.074971,-11.346727,-6.0514483,29.793802,-70.71565,51.979294,-52.93815,26.620125,3.9603066,-19.067394,5.746489,-77.25513,-39.069237,64.63309,47.971146,4.5735545,-3.6819391,-2.5437071
96,0.5436347126960754,10.977897644042969,35.105106353759766,0.8313014085847574,1.1276954592501387,97.58531598801713,-75.96811,2.9120033,-6.75251,155.2316,-50.000305,-4.1032925,-105.24676,-9.034813,12.161646,128.19505,-26.40547,2.6951978,-12.06174,-6.4872317,29.793802,-70.82621,52.138992,-52.908512,27.048153,3.9200673,-18.905231,5.638081,-77.19412,-38.86546,63.76915,47.60123,4.801944,-3.5925217,-2.8196778
97,0.6016250848770142,11.202676773071289,34.75341033935547,1.016159601933087,0.9331104060428802,97.84409392348127,-75.86223,2.422452,-6.8983145,156.01294,-50.000305,-4.362911,-105.633606,-8.981331,12.612191,129.09035,-26.3295,2.6593053,-12.790407,-6.9490237,29.793802,-70.92246,52.32477,-52.92167,27.451347,3.9134343,-18.727045,5.4998507,-77.05211,-38.644043,62.884727,47.21412,5.05972,-3.5149736,-3.1602314
98,0.6579857468605042,11.426384925842285,34.41563415527344,1.1931767610458948,0.7115574251364167,98.0881923889636,-75.70679,1.9538301,-7.0460443,156.80682,-50.000305,-4.5757666,-105.9488,-8.9934,13.023127,129.99742,-26.632412,2.8362894,-13.534964,-7.43938,29.793802,-70.98594,52.538597,-52.943626,27.825918,3.9609668,-18.533854,5.3387766,-76.846535,-38.400436,61.960705,46.813847,5.3420863,-3.441597,-3.5603127
99,0.7134463787078857,11.647261619567871,34.09609603881836,1.3530495919149854,0.5001793141473322,98.31431099483586,-75.53917,1.5342304,-7.191633,157.58078,-50.000305,-4.733677,-106.212685,-9.033624,13.391635,130.87802,-27.112066,3.091049,-14.277073,-7.924789,29.793802,-71.09722,52.79116,-53.030216,28.17432,4.0458593,-18.332748,5.1755824,-76.609116,-38.14079,61.039894,46.42445,5.624695,-3.367883,-3.9855134
100,0.7690569758415222,11.866894721984863,33.801185607910156,1.4827458359099515,0.33583523458791564,98.5165543793166,-75.39679,1.1896023,-7.338651,158.3027,-50.000305,-4.8339353,-106.44386,-9.063545,13.710831,131.69365,-27.56547,3.290468,-14.9917965,-8.366126,29.793802,-71.35772,53.09758,-53.263004,28.501474,4.1297584,-18.13102,5.0309734,-76.368324,-37.88062,60.16531,46.06691,5.8894486,-3.2885535,-4.40143
101,0.8271632790565491,12.079985618591309,33.53455352783203,1.5769102450603631,0.22025265343062447,98.69651369683874,-75.28578,0.916646,-7.5051174,158.98293,-50.000305,-4.880209,-106.64285,-9.068315,13.984817,132.45259,-27.975063,3.4128366,-15.68298,-8.767245,29.793802,-71.73729,53.462147,-53.62073,28.784723,4.2530994,-17.925644,4.8966627,-76.10554,-37.628708,59.312336,45.717083,6.1380987,-3.2008562,-4.8177476
102,0.8862210512161255,12.285418510437012,33.29807662963867,1.6413807449151405,0.13716855883363713,98.85355869711375,-75.187065,0.7022067,-7.6971984,159.63031,-50.000305,-4.8800783,-106.80067,-9.07249,14.209463,133.167,-28.436638,3.5225823,-16.352266,-9.136111,29.793802,-72.23843,53.888176,-54.1188,29.028944,4.380441,-17.715181,4.7648773,-75.813705,-37.38955,58.47471,45.367336,6.3840723,-3.1083422,-5.246086
103,0.9455816745758057,12.487279891967773,33.09610366821289,1.6950778100623436,0.09716246015904424,98.97882709251478,-75.0967,0.5566362,-7.8797984,160.21559,-50.000305,-4.8308654,-106.93282,-9.0780115,14.384432,133.81187,-28.912828,3.6223726,-17.045815,-9.576332,29.793802,-72.24053,54.318058,-54.118214,29.068314,5.0662823,-17.488014,4.6611624,-75.485565,-37.144184,57.622395,44.935307,6.6006937,-3.009221,-5.647479
104,1.0051796436309814,12.686671257019043,32.932804107666016,1.725032113632377,0.1129522405579701,99.0647706156541,-75.02086,0.48302305,-8.063698,160.71806,-50.000305,-4.7461686,-107.03805,-9.104301,14.4723,134.35272,-29.372461,3.7075768,-17.658669,-9.888119,29.793802,-72.66611,54.814674,-54.51989,29.16767,5.4464016,-17.27628,4.5982356,-75.19372,-36.925655,56.90412,44.60269,6.7749934,-2.9035625,-6.002193
105,1.0634047985076904,12.882770538330078,32.81113052368164,1.7288898176760203,0.189303269328053,99.10915094580673,-74.969154,0.48514932,-8.262235,161.13863,-50.000305,-4.611754,-107.12946,-9.158386,14.460502,134.78183,-29.8044,3.7717557,-18.1992,-10.1213455,29.793802,-73.41506,55.38249,-55.24863,29.278824,5.6510906,-17.070745,4.586244,-74.90334,-36.749504,56.27663,44.310455,6.8994775,-2.7884722,-6.299339
106,1.1192001104354858,13.07522964477539,32.733489990234375,1.7164683861472492,0.31898911323551005,99.11351770499756,-74.93635,0.5548285,-8.469747,161.48735,-50.000305,-4.432072,-107.20659,-9.225791,14.371171,135.11742,-30.223866,3.8188477,-18.724289,-10.380155,29.793802,-73.89337,55.9727,-55.70557,29.239428,6.214515,-16.853884,4.6154118,-74.57392,-36.60023,55.664337,43.954067,6.9824667,-2.662834,-6.5477486
107,1.1716934442520142,13.265010833740234,32.70287322998047,1.6924323046175749,0.4965195981981988,99.0730236023728,-74.89144,0.6799821,-8.678226,161.74307,-50.000305,-4.259358,-107.24714,-9.294304,14.215758,135.36032,-30.638212,3.8563843,-19.187834,-10.569044,29.793802,-74.505455,56.604874,-56.28926,29.186998,6.710299,-16.644732,4.682087,-74.24803,-36.48764,55.131226,43.618107,7.0324445,-2.529065,-6.753656
108,1.2214150428771973,13.452810287475586,32.72068405151367,1.674689604271474,0.7151649386434844,98.98074716442764,-74.7992,0.8520516,-8.860221,161.88246,-50.000305,-4.13945,-107.23578,-9.341377,14.018572,135.50984,-31.05024,3.894137,-19.590921,-10.725586,29.793802,-75.14335,57.268806,-56.89946,29.12484,7.1965156,-16.44501,4.7950354,-73.91715,-36.410583,54.647503,43.26748,7.0499907,-2.3905494,-6.9115067
109,1.2681069374084473,13.6417236328125,32.79014205932617,1.6578716662756565,0.9836149995325442,98.8346007735949,-74.665855,1.0758814,-9.019545,161.89655,-50.000305,-4.088153,-107.17812,-9.374061,13.767465,135.56004,-31.458107,3.9263597,-19.928482,-10.84249,29.793802,-75.84317,57.96364,-57.563698,29.047619,7.6691804,-16.254908,4.9613194,-73.592125,-36.372738,54.239037,42.91571,7.024447,-2.2447658,-7.0104585
110,1.3098429441452026,13.831880569458008,32.91183853149414,1.6373126504233568,1.3008522677062244,98.63606379624034,-74.50146,1.3534759,-9.165664,161.7974,-50.000305,-4.08221,-107.08009,-9.396233,13.456734,135.51419,-31.859695,3.9509337,-20.203505,-10.921869,29.793802,-76.58834,58.68526,-58.26829,28.944927,8.1582775,-16.070839,5.176754,-73.26263,-36.37479,53.897747,42.557613,6.958406,-2.090949,-7.0541515
111,1.3456274271011353,14.022527694702148,33.083778381347656,1.6241658759695101,1.6470070392059817,98.38833192139863,-74.279945,1.6727703,-9.281925,161.59662,-50.000305,-4.105962,-106.92303,-9.387799,13.117922,135.38239,-32.2602,3.982012,-20.4183,-10.961056,29.793802,-77.364876,59.42824,-59.013786,28.853357,8.605504,-15.895292,5.4273505,-72.91486,-36.413124,53.585335,42.179356,6.8805485,-1.9316131,-7.065427
112,1.3736406564712524,14.217376708984375,33.3034553527832,1.628335279675531,2.00293200869722,98.09500254278908,-73.97618,2.0223923,-9.345973,161.30827,-50.000305,-4.1406784,-106.69086,-9.324573,12.785469,135.17723,-32.66384,4.0344763,-20.584406,-10.977052,29.793802,-78.07431,60.179836,-59.712578,28.796438,9.03062,-15.728842,5.7003393,-72.55206,-36.479115,53.275112,41.76289,6.8380437,-1.7702311,-7.0657444
113,1.3926746845245361,14.420732498168945,33.57039260864258,1.648865163362368,2.3747786406600504,97.7551958553176,-73.59051,2.3960228,-9.355473,160.92534,-50.000305,-4.202436,-106.38428,-9.201912,12.458535,134.8964,-33.068157,4.1065755,-20.698767,-10.95974,29.793802,-78.75362,60.937157,-60.39722,28.784204,9.428716,-15.574746,6.007894,-72.181145,-36.5705,52.98711,41.318943,6.824132,-1.6041621,-7.0476427
114,1.4032673835754395,14.632471084594727,33.88368225097656,1.6786454641923398,2.7685670912539444,97.36737126591514,-73.13216,2.804631,-9.313747,160.44318,-50.000305,-4.2897797,-106.01067,-9.029825,12.124105,134.53404,-33.471294,4.191299,-20.759027,-10.909671,29.793802,-79.41016,61.697292,-61.070522,28.805908,9.817605,-15.430725,6.3528285,-71.802124,-36.6862,52.729233,40.855377,6.8238072,-1.4331387,-7.0038185
115,1.4056386947631836,14.853262901306152,34.24135208129883,1.7214783721035047,3.1663582717297296,96.9368606024577,-72.59912,3.2594614,-9.205959,159.88536,-50.000305,-4.354218,-105.56554,-8.816237,11.796429,134.10321,-33.881447,4.294571,-20.770708,-10.83093,29.793802,-79.98052,62.45165,-61.67752,28.86942,10.1699915,-15.29357,6.7062173,-71.39377,-36.817593,52.44544,40.365284,6.846414,-1.2637067,-6.959508
116,1.3974723815917969,15.082764625549316,34.638267517089844,1.78263050639124,3.550171298910269,96.46931494706648,-71.99004,3.7711222,-9.01759,159.27315,-50.000305,-4.3470283,-105.04375,-8.568196,11.489401,133.61533,-34.30605,4.422626,-20.739368,-10.726771,29.793802,-80.38782,63.188793,-62.147766,28.982906,10.466547,-15.16076,7.0390587,-70.92639,-36.950092,52.069305,39.840916,6.887453,-1.1021854,-6.940469
117,1.3790171146392822,15.322043418884277,35.07148742675781,1.8536409184256368,3.9248693750414803,95.9600276914857,-71.31236,4.3564005,-8.735936,158.6079,-50.000305,-4.2363033,-104.435486,-8.287964,11.191497,133.05818,-34.75544,4.587413,-20.660774,-10.585995,29.793802,-80.62959,63.90304,-62.482895,29.160883,10.713717,-15.036562,7.355108,-70.418655,-37.07646,51.61487,39.297546,6.971897,-0.94342166,-6.9478416
118,1.3517875671386719,15.575935363769531,35.54064178466797,1.9320714164018602,4.298192920720633,95.41009744441186,-70.56846,5.006714,-8.357505,157.88135,-50.000305,-4.044639,-103.747375,-7.972807,10.902805,132.43115,-35.22299,4.781382,-20.535545,-10.407901,29.793802,-80.7345,64.592865,-62.70535,29.40459,10.919578,-14.921765,7.6664667,-69.877205,-37.193703,51.10146,38.743,7.0829844,-0.78671,-6.9711404
119,1.3160761594772339,15.8443603515625,36.0416145324707,2.0317115734121383,4.657059165802827,94.83365061541785,-69.74901,5.692803,-7.8820214,157.10098,-50.000305,-3.8055959,-102.99916,-7.619499,10.655663,131.76263,-35.69039,4.9824653,-20.380417,-10.218766,29.793802,-80.66629,65.25435,-62.77121,29.706327,11.071101,-14.808665,7.9566584,-69.296585,-37.29455,50.513733,38.179176,7.205092,-0.6473862,-7.0184655
120,1.2730350494384766,16.126745223999023,36.569400787353516,2.167638932042591,4.988214695362768,94.24408278137817,-68.842094,6.383672,-7.3113203,156.27388,-50.000305,-3.5547931,-102.209435,-7.226215,10.480484,131.08133,-36.140797,5.1685596,-20.210857,-10.041155,29.793802,-80.382835,65.883545,-62.629047,30.056025,11.155534,-14.690025,8.208388,-68.666534,-37.36819,49.832676,37.607788,7.3126373,-0.54058594,-7.097877
121,1.2251734733581543,16.4227294921875,37.121253967285156,2.338898347669391,5.299783656509674,93.64797188340961,-67.85562,7.0763545,-6.6354594,155.38754,-50.000305,-3.2744315,-101.38071,-6.791057,10.38233,130.38434,-36.567852,5.331697,-20.034876,-9.866837,29.793802,-79.868034,66.47968,-62.268787,30.459646,11.19789,-14.555289,8.433341,-67.99786,-37.40748,49.058563,37.03223,7.418599,-0.4688953,-7.2199144
122,1.172214150428772,16.734813690185547,37.69355392456055,2.5365213922068732,5.598704069138514,93.03975445318513,-66.79797,7.7804303,-5.846358,154.44382,-50.000305,-2.9476464,-100.504585,-6.3205194,10.348143,129.66183,-36.98344,5.484153,-19.847124,-9.68605,29.793802,-79.13108,67.0424,-61.700375,30.91783,11.195831,-14.412182,8.634536,-67.2918,-37.40711,48.196377,36.456104,7.520678,-0.42513448,-7.377853
123,1.11232590675354,17.063804626464844,38.281333923339844,2.767629434668286,5.87169242940085,92.4175877526056,-65.66468,8.477274,-4.9582195,153.47859,-50.000305,-2.6165931,-99.5874,-5.820901,10.382336,128.92673,-37.39271,5.6345043,-19.648764,-9.524005,29.793802,-78.17154,67.56841,-60.906406,31.41664,11.096318,-14.280211,8.782084,-66.569534,-37.362316,47.277718,35.904293,7.62107,-0.41163957,-7.5534024
124,1.046274185180664,17.406909942626953,38.88115310668945,3.034757768731099,6.10501419990386,91.7765235725842,-64.45037,9.147783,-3.9935162,152.52748,-50.000305,-2.3288214,-98.63376,-5.2997074,10.485814,128.19325,-37.8027,5.789913,-19.436872,-9.400879,29.793802,-76.982475,68.05174,-59.86187,31.938911,10.848136,-14.179546,8.846193,-65.8347,-37.26614,46.319416,35.396233,7.7021766,-0.43035057,-7.7284603
125,0.9779922962188721,17.761253356933594,39.48729705810547,3.340911362503781,6.3091348965742435,91.11671025042438,-63.159527,9.786792,-2.9433007,151.5656,-50.000305,-2.0896196,-97.64822,-4.7557783,10.66358,127.45351,-38.207184,5.9622374,-19.210627,-9.309569,29.793802,-75.53545,68.48314,-58.526783,32.487904,10.416529,-14.112975,8.810876,-65.091705,-37.112362,45.30359,34.935795,7.765746,-0.48273042,-7.9015765
126,0.9088661670684814,18.127321243286133,40.0955810546875,3.6811643235340217,6.491709707655585,90.44235283441724,-61.803974,10.392522,-1.8050866,150.59274,-50.000305,-1.8780187,-96.63,-4.191022,10.913145,126.70236,-38.60615,6.143055,-18.975359,-9.239748,29.793802,-73.833374,68.8546,-56.912697,33.06758,9.838471,-14.06988,8.694178,-64.34933,-36.897964,44.237335,34.52275,7.820939,-0.5680984,-8.081099
127,0.8382704257965088,18.508258819580078,40.70247268676758,4.043783277514929,6.633578879684208,89.7497498994754,-60.401306,10.954015,-0.6259172,149.67465,-50.000305,-1.7042803,-95.57224,-3.6135561,11.218823,125.967,-39.012108,6.312535,-18.730982,-9.203964,29.793802,-71.929634,69.16032,-55.090187,33.6657,9.163721,-14.049536,8.517501,-63.609604,-36.620716,43.17049,34.1705,7.8590217,-0.6849681,-8.263813
128,0.7642287015914917,18.906139373779297,41.302040100097656,4.4162178965920695,6.7146832850238,89.03359416784197,-58.972717,11.461529,0.54254204,148.88669,-50.000305,-1.5807,-94.471275,-3.0260837,11.5713825,125.272095,-39.43583,6.45627,-18.476562,-9.218012,29.793802,-69.89051,69.39683,-53.14374,34.276474,8.440801,-14.051747,8.302599,-62.889477,-36.2812,42.16512,33.901554,7.8873653,-0.8327618,-8.446445
129,0.6899040341377258,19.317550659179688,41.88776779174805,4.813770077055644,6.737518054524995,88.29718865055366,-57.50338,11.890531,1.7054073,148.22945,-50.000305,-1.4922225,-93.32513,-2.4335918,11.995053,124.61424,-39.886852,6.568493,-18.220964,-9.294526,29.793802,-67.71266,69.553406,-51.052853,34.915436,7.6428804,-14.0750475,8.038989,-62.194496,-35.878437,41.21601,33.717052,7.89527,-1.015033,-8.625348
130,0.6319315433502197,19.6984920501709,42.48934555053711,5.431608139225915,6.979964392243797,88.0244452405644,-57.271145,11.910519,2.8661537,147.48012,-48.431873,-1.1744077,-92.45508,-2.2461376,12.758141,123.965836,-40.337486,6.698531,-18.391146,-9.455909,29.793802,-65.68091,69.67378,-48.786346,35.558876,6.7757063,-14.12236,7.722895,-61.74596,-35.47802,40.19005,33.60679,7.843519,-1.2274983,-8.833453
131,0.5807985663414001,20.078235626220703,43.08483123779297,6.076922691232871,7.195119007866654,87.78174885424734,-57.41389,11.913805,3.9321692,146.73232,-46.077755,-0.8974502,-91.58265,-2.1021621,13.558962,123.33966,-40.777668,6.811429,-18.578411,-9.661518,29.793802,-63.572132,69.74561,-46.44196,36.16407,5.881244,-14.188996,7.377761,-61.297794,-35.06873,39.193596,33.519444,7.7947874,-1.4632676,-9.045628
132,0.533748984336853,20.466106414794922,43.66452407836914,6.716741271488786,7.376034786138875,87.56940808564575,-57.673424,11.913855,4.908095,146.12389,-43.75459,-0.7137456,-90.713135,-2.0076492,14.35421,122.76606,-41.210117,6.923823,-18.777454,-9.892858,29.793802,-61.484158,69.76953,-44.145386,36.724667,5.0265045,-14.277144,7.032882,-60.86235,-34.649452,38.25471,33.478157,7.7714705,-1.7164681,-9.27006
133,0.4929390847682953,20.859878540039062,44.222232818603516,7.359806318065388,7.501383765305947,87.38007553601095,-58.065983,11.909396,5.7907777,145.71376,-41.244003,-0.67028654,-89.82413,-1.9551018,15.166709,122.2543,-41.643326,7.052942,-18.986683,-10.171652,29.793802,-59.4242,69.738914,-41.907906,37.26717,4.177383,-14.397893,6.677095,-60.42968,-34.217083,37.37973,33.494007,7.782097,-2.0007708,-9.501857
134,0.46199342608451843,21.25376319885254,44.746665954589844,8.019065594166884,7.5750871399548,87.21056226927121,-58.583836,11.886071,6.593725,145.46028,-38.54615,-0.7414214,-88.915016,-1.9426783,16.007355,121.79365,-42.078865,7.1892734,-19.204994,-10.500718,29.793802,-57.38252,69.64432,-39.70574,37.80514,3.3139477,-14.546253,6.301409,-60.00109,-33.768467,36.556023,33.56483,7.8131475,-2.3152764,-9.739257
135,0.4423774778842926,21.64505958557129,45.23921585083008,8.663937068992716,7.6341067860964404,87.07522593170985,-59.21685,11.837311,7.301734,145.25897,-36.1278,-0.860329,-88.03345,-1.9903264,16.815317,121.370514,-42.500378,7.304297,-19.424772,-10.835315,29.793802,-55.439846,69.49465,-37.622116,38.314606,2.52165,-14.702023,5.9402504,-59.588615,-33.30974,35.766365,33.679012,7.847665,-2.6321652,-9.994386
136,0.43310514092445374,22.031763076782227,45.7089958190918,9.263078479845168,7.716620509694088,86.98962592586572,-59.952473,11.756718,7.898681,145.00645,-34.463993,-0.9601273,-87.230545,-2.112039,17.528965,120.96913,-42.886444,7.370111,-19.634735,-11.134075,29.793802,-53.69166,69.31018,-35.760258,38.77522,1.8785589,-14.846521,5.629569,-59.19965,-32.854137,34.988358,33.816235,7.8740363,-2.9235525,-10.278154
137,0.4383555054664612,22.403331756591797,46.16105651855469,9.815168442216267,7.84696274126658,86.9726131555223,-60.76773,11.635438,8.3588,144.7694,-33.87377,-0.9732931,-86.53683,-2.3258615,18.132744,120.57248,-43.22688,7.3716407,-19.834644,-11.390077,29.793802,-52.193283,69.11118,-34.163692,39.190434,1.406651,-14.9806595,5.370119,-58.839603,-32.41854,34.204315,33.973404,7.905145,-3.1934388,-10.600919
138,0.4585510492324829,22.757593154907227,46.588619232177734,10.334124684407064,7.999922474031697,87.01118503299112,-61.679813,11.47376,8.696391,144.57196,-34.04097,-0.9538268,-85.92413,-2.6109684,18.65761,120.19265,-43.532806,7.327873,-20.021545,-11.625767,29.793802,-50.90452,68.9035,-32.798107,39.572166,1.055317,-15.115423,5.1463327,-58.48184,-32.008873,33.414665,34.137115,7.942924,-3.452316,-10.952005
139,0.4936981499195099,23.09278106689453,46.98398208618164,10.815275489236013,8.140923246007802,87.0744906573288,-62.725906,11.28375,8.955941,144.24797,-34.49548,-1.0150856,-85.35648,-2.932201,19.113213,119.86143,-43.817978,7.261703,-20.182428,-11.844363,29.793802,-49.76441,68.68734,-31.635212,39.907265,0.7987537,-15.244496,4.9708395,-58.10046,-31.620153,32.635227,34.285885,7.9709463,-3.682491,-11.312055
140,0.538108766078949,23.412403106689453,47.34489822387695,11.25400512279176,8.235477722984466,87.13174107083817,-63.936306,11.08364,9.183744,143.62729,-34.77002,-1.2650415,-84.79718,-3.2564533,19.510477,119.609634,-44.09582,7.194208,-20.307432,-12.051065,29.793802,-48.717056,68.459785,-30.650625,40.1888,0.61112714,-15.362522,4.857109,-57.68184,-31.240505,31.887548,34.40965,7.9733353,-3.8663092,-11.662945
141,0.5813798308372498,23.734172821044922,47.66579055786133,11.65214726213935,8.271219065339285,87.18509230869856,-65.33778,10.786763,9.351761,142.66646,-34.858246,-1.8259735,-84.23566,-3.5937107,19.850073,119.44857,-44.376488,7.1220274,-20.405802,-12.253,29.793802,-47.75494,68.2267,-29.856363,40.416435,0.516852,-15.468395,4.814851,-57.22512,-30.858051,31.175474,34.514874,7.9390965,-3.9933672,-12.013762
142,0.6226277947425842,24.06509017944336,47.94558334350586,12.012417201565782,8.267772347096873,87.24826253171462,-66.888466,10.429995,9.447411,141.45314,-34.985886,-2.5878227,-83.69293,-3.9574316,20.127663,119.36122,-44.6485,7.0343456,-20.484968,-12.450214,29.793802,-46.898304,67.99853,-29.249325,40.597893,0.5209328,-15.56587,4.836322,-56.75735,-30.47147,30.49822,34.622826,7.8824544,-4.075451,-12.371708
143,0.6661895513534546,24.399459838867188,48.18767547607422,12.333764547775814,8.238966265759826,87.31000580610454,-68.49724,10.178317,9.528822,140.01193,-35.073193,-3.3611765,-83.17132,-4.315299,20.357595,119.338264,-44.90843,6.9540205,-20.53563,-12.636994,29.793802,-46.122902,67.77381,-28.769302,40.732174,0.57289064,-15.656774,4.907774,-56.280754,-30.080595,29.850595,34.725685,7.801835,-4.126758,-12.715444
144,0.713910698890686,24.732097625732422,48.39595031738281,12.616376001674071,8.198550918065026,87.36130629713509,-70.07617,10.187738,9.669823,138.36682,-35.030087,-3.9608133,-82.67559,-4.642588,20.55803,119.375145,-45.15302,6.9046235,-20.552046,-12.805694,29.793802,-45.39724,67.54569,-28.345127,40.81516,0.62655747,-15.742904,5.015467,-55.80897,-29.689096,29.23704,34.822987,7.703916,-4.1614904,-13.02421
145,0.7657895088195801,25.05924415588379,48.571903228759766,12.858504199471549,8.140278906025397,87.40288949442059,-71.618324,10.542433,9.930171,136.50366,-34.841812,-4.3365517,-82.19476,-4.9230533,20.74385,119.47356,-45.381767,6.9128304,-20.538647,-12.955159,29.793802,-44.70536,67.315216,-27.971943,40.831818,0.68770653,-15.823242,5.1667414,-55.33981,-29.298132,28.662918,34.90905,7.591026,-4.175824,-13.301476
146,0.8189418315887451,25.381065368652344,48.71626281738281,13.068784226547171,8.060830719308338,87.44390132347344,-73.138664,11.132428,10.287671,134.4117,-34.569794,-4.5907173,-81.731026,-5.1790676,20.911314,119.63908,-45.59756,6.9622264,-20.5053,-13.092202,29.793802,-44.051247,67.08798,-27.662418,40.782993,0.77828646,-15.897325,5.365072,-54.873764,-28.908056,28.126738,34.987133,7.4606,-4.1641,-13.556134
147,0.8706897497177124,25.699106216430664,48.830440521240234,13.255562396586377,7.977772892421934,87.48693747877756,-74.59127,11.818005,10.70016,132.12402,-34.224957,-4.7701316,-81.30829,-5.438268,21.049778,119.863205,-45.805027,7.009236,-20.454298,-13.218202,29.793802,-43.43128,66.8608,-27.369251,40.68592,0.87718236,-15.9670105,5.590728,-54.433548,-28.525213,27.630007,35.07086,7.313863,-4.1381106,-13.774805
148,0.9193551540374756,26.01570701599121,48.915977478027344,13.428724912100417,7.90950304723995,87.53421909832444,-75.94042,12.46228,11.113907,129.67348,-33.81345,-4.919957,-80.95015,-5.726496,21.144835,120.13595,-46.0066,7.0095754,-20.38615,-13.3270445,29.793802,-42.83176,66.6257,-27.034018,40.551563,0.9672447,-16.034212,5.8238926,-54.040657,-28.16066,27.176613,35.17474,7.155754,-4.109303,-13.944984
149,0.9650324583053589,26.330036163330078,48.97404098510742,13.589288395646102,7.855902344915481,87.59226376104633,-77.194214,13.086354,11.547929,127.03449,-33.32051,-4.9887667,-80.65697,-6.042921,21.197,120.46061,-46.196503,6.959258,-20.30486,-13.413445,29.793802,-42.244183,66.377106,-26.642164,40.35907,1.0432566,-16.10034,6.066996,-53.6872,-27.819836,26.755861,35.289963,6.9813757,-4.0713353,-14.056949
150,1.0071617364883423,26.638975143432617,49.0056037902832,13.730646269659584,7.809844879103639,87.65901053053797,-78.35504,13.735594,12.039557,124.1975,-32.757675,-4.977863,-80.41716,-6.378164,21.21175,120.841965,-46.37837,6.8788605,-20.207773,-13.473942,29.793802,-41.671497,66.11462,-26.216105,40.1047,1.1179148,-16.163876,6.32794,-53.359615,-27.504744,26.367489,35.40785,6.7907896,-4.0205564,-14.11956
151,1.0436393022537231,26.942413330078125,49.01156234741211,13.85236910268503,7.779568964994217,87.72242971732373,-79.395615,14.313042,12.540776,121.221085,-32.15857,-5.0065956,-80.23809,-6.738237,21.178234,121.26604,-46.560505,6.759488,-20.083273,-13.503609,29.793802,-41.117836,65.836555,-25.754366,39.82613,1.2022604,-16.22237,6.5953474,-53.084217,-27.227064,26.044483,35.551384,6.607898,-3.9736676,-14.147313
152,1.0724576711654663,27.241172790527344,48.99188995361328,13.949625845167901,7.773571559729927,87.76894603582866,-80.30004,14.729365,12.9845295,118.16164,-31.547323,-5.1912446,-80.1262,-7.1263313,21.08321,121.72,-46.753105,6.5911956,-19.916746,-13.491133,29.793802,-40.580738,65.53897,-25.250948,39.55491,1.3063854,-16.273584,6.8570733,-52.86499,-27.00025,25.808062,35.72641,6.442943,-3.946118,-14.154384
153,1.0938832759857178,27.540597915649414,48.946380615234375,14.01706399549573,7.797815188384811,87.80383918629992,-81.06746,14.981893,13.359464,114.93079,-30.919151,-5.5611095,-80.09024,-7.556138,20.906025,122.20165,-46.9553,6.3510733,-19.705717,-13.426474,29.793802,-40.06601,65.21407,-24.694242,39.27781,1.4339496,-16.31949,7.111194,-52.701233,-26.836233,25.656807,35.931538,6.311299,-3.949814,-14.135807
154,1.1067664623260498,27.841272354125977,48.87480163574219,14.055829181457252,7.847305744300074,87.82983201438743,-81.713165,15.112455,13.683369,111.52503,-30.256292,-6.05232,-80.12225,-8.020988,20.655703,122.71586,-47.162376,6.0491366,-19.449675,-13.306054,29.793802,-39.579376,64.85648,-24.097086,38.982338,1.5803897,-16.359425,7.363972,-52.579597,-26.740107,25.578398,36.15636,6.206196,-3.9731123,-14.086245
155,1.1094053983688354,28.13875961303711,48.77642822265625,14.066877336935445,7.913825019114651,87.82737504097314,-82.2569,15.107632,13.914917,108.135284,-29.555906,-6.6355343,-80.202225,-8.4890585,20.361177,123.26503,-47.383797,5.7242513,-19.136528,-13.132122,29.793802,-39.12195,64.46685,-23.493761,38.70992,1.7450616,-16.390049,7.615727,-52.50351,-26.715446,25.590582,36.40707,6.119136,-3.9970727,-14.018955
156,1.102886438369751,28.432106018066406,48.64991760253906,14.05113721239413,7.98883587275933,87.77626356377837,-82.7253,14.957362,14.006733,104.958244,-28.8128,-7.278927,-80.310745,-8.930023,20.05096,123.8514,-47.62614,5.415699,-18.753723,-12.907977,29.793802,-38.6941,64.04973,-22.919445,38.501072,1.9248185,-16.407543,7.8663883,-52.478138,-26.764147,25.711626,36.691563,6.041896,-4.002856,-13.947389
157,1.0857690572738647,28.725820541381836,48.49482345581055,14.00428532427866,8.08598142170975,87.66998794798502,-83.0666,14.60105,13.917524,101.76006,-28.091013,-8.260724,-80.466194,-9.365317,19.69243,124.46644,-47.897385,5.103773,-18.285322,-12.625705,29.793802,-38.307304,63.60368,-22.369358,38.353333,2.1273158,-16.41317,8.111145,-52.51259,-26.891035,25.94396,37.0158,5.9759846,-3.9755533,-13.870505
158,1.0571807622909546,29.023746490478516,48.31014633178711,13.924053563441332,8.20363557523719,87.51689914124579,-83.29198,14.07744,13.654675,98.52749,-27.36679,-9.48971,-80.66758,-9.799124,19.280323,125.110275,-48.1929,4.7752967,-17.73486,-12.279755,29.793802,-37.965847,63.124146,-21.839113,38.249992,2.349335,-16.408161,8.351334,-52.584267,-27.094938,26.26651,37.36149,5.9124284,-3.9278333,-13.781854
159,1.0175467729568481,29.32387924194336,48.09389877319336,13.817892356505038,8.31042690585917,87.32016566702792,-83.53455,13.517053,13.255363,95.80757,-26.503788,-10.391679,-80.86866,-10.177087,18.885237,125.80578,-48.5004,4.4814157,-17.126694,-11.888895,29.793802,-37.657078,62.617935,-21.360554,38.21728,2.5739949,-16.38869,8.597158,-52.717274,-27.377237,26.711157,37.74948,5.886976,-3.8854175,-13.688162
160,0.9658182859420776,29.626373291015625,47.84282302856445,13.694380086743196,8.375948200684219,87.0849500870496,-83.94703,13.03775,12.773604,94.16377,-25.3504,-10.407137,-81.02796,-10.443861,18.577295,126.57239,-48.807335,4.2732983,-16.480547,-11.467157,29.793802,-37.36839,62.09339,-20.969463,38.274952,2.7796917,-16.35032,8.856769,-52.87004,-27.72443,27.257101,38.15214,5.8778296,-3.8714194,-13.594381
161,0.9025800228118896,29.93410873413086,47.55591583251953,13.556816916068717,8.397728011504267,86.81022886392914,-84.67438,12.614196,12.191199,93.978546,-23.50205,-8.9751625,-81.146416,-10.580232,18.367891,127.41846,-49.102432,4.168491,-15.800777,-11.021995,29.793802,-37.09355,61.557198,-20.667774,38.43739,2.967977,-16.284786,9.142274,-53.067204,-28.13322,27.931839,38.585087,5.890489,-3.8892934,-13.49833
162,0.8307210206985474,30.240663528442383,47.23531723022461,13.39997852933227,8.388274484197703,86.49269040507178,-85.623314,12.24734,11.552145,94.88236,-21.109316,-6.5185523,-81.242065,-10.613105,18.219902,128.33226,-49.39654,4.1410685,-15.073779,-10.544176,29.793802,-36.837658,61.00922,-20.439936,38.686275,3.14309,-16.19639,9.444068,-53.288548,-28.59577,28.707706,39.031696,5.900115,-3.9267375,-13.397772
163,0.7516674995422363,30.546478271484375,46.882198333740234,13.227854571629399,8.340163097822257,86.13568356333869,-86.58556,12.063885,10.9801855,96.30796,-18.88174,-3.9569466,-81.30368,-10.563399,18.128447,129.30643,-49.703194,4.1724563,-14.310655,-10.047328,29.793802,-36.6056,60.458668,-20.290524,39.01406,3.2940288,-16.100716,9.741998,-53.587475,-29.115417,29.617075,39.53185,5.9872355,-3.9901848,-13.301233
164,0.6636231541633606,30.86102294921875,46.49972152709961,13.038920132936036,8.250525724680871,85.74480367038841,-87.35984,12.086279,10.501344,97.70516,-17.59232,-2.2549715,-81.331184,-10.451022,18.084583,130.3266,-50.000305,4.2449503,-13.502656,-9.51937,29.793802,-36.40972,59.906315,-20.238455,39.396614,3.4033895,-16.01268,10.011674,-53.845364,-29.66335,30.53533,40.010048,6.0681834,-4.078977,-13.214274
165,0.5647121071815491,31.176387786865234,46.09010696411133,12.819747112332722,8.148697753432403,85.27353078011024,-87.87452,12.346585,10.019966,99.03994,-17.713335,-1.9246452,-81.43225,-10.184723,18.0938,131.3563,-50.000305,4.356832,-12.610962,-8.962854,29.793802,-36.26221,59.36818,-20.290726,39.858437,3.4612057,-15.925599,10.254418,-54.175854,-30.252579,31.547777,40.537937,6.239079,-4.203845,-13.143128
166,0.4562816619873047,31.48849105834961,45.64960479736328,12.570846623135559,8.04602156938613,84.71793143365925,-88.26284,12.8158455,9.499993,100.5809,-18.772728,-2.3874257,-81.55484,-9.772524,18.137226,132.4444,-50.000305,4.515371,-11.625264,-8.375732,29.793802,-36.153778,58.851673,-20.426178,40.386883,3.4753177,-15.83468,10.478368,-54.59087,-30.893385,32.667065,41.10502,6.497101,-4.3610463,-13.08329
167,0.3420679569244385,31.799654006958008,45.18101119995117,12.310617215098846,7.926418641958729,84.13674772084796,-88.62656,13.381001,8.973063,102.22433,-20.13942,-3.0539052,-81.67632,-9.318496,18.197876,133.56071,-50.000305,4.6964574,-10.594563,-7.7626452,29.793802,-36.087524,58.35015,-20.634329,40.93709,3.457613,-15.759621,10.677312,-54.981106,-31.56205,33.77803,41.640804,6.7323027,-4.536339,-13.031773
168,0.2234766185283661,32.11124038696289,44.69186782836914,12.051366772406555,7.812246900135343,83.55198463445646,-89.09867,13.938577,8.45746,103.86373,-21.1873,-3.3439925,-81.82606,-8.876664,18.257465,134.67468,-50.000305,4.8647842,-9.540601,-7.14231,29.793802,-36.085377,57.867477,-20.890675,41.476727,3.4274743,-15.720922,10.851648,-55.39425,-32.252785,34.879646,42.166626,6.954243,-4.7220216,-12.991761
169,0.10088036209344864,32.422271728515625,44.185726165771484,11.803897284564545,7.707947302755731,82.95637441228669,-89.720955,14.467165,7.959615,105.493256,-21.76718,-3.0653121,-82.0241,-8.465878,18.308947,135.78459,-50.000305,4.994395,-8.475928,-6.538357,29.793802,-36.1323,57.4216,-21.182472,42.0197,3.3885663,-15.736853,10.999769,-55.93951,-32.981228,36.084854,42.740425,7.269554,-4.914468,-12.969033
170,-0.024340258911252022,32.728092193603516,43.66324996948242,11.556088707944758,7.603180315256696,82.34059206525403,-90.42312,15.015903,7.4634295,107.16046,-22.211838,-2.5372074,-82.25678,-8.052356,18.361372,136.90741,-50.000305,5.1070323,-7.3836775,-5.9350705,29.793802,-36.20655,57.011868,-21.511744,42.55966,3.329116,-15.791793,11.118435,-56.504845,-33.729897,37.297462,43.293194,7.5725193,-5.1156063,-12.959759
171,-0.15026073157787323,33.02519607543945,43.12538146972656,11.309067120471775,7.496492709294215,81.72422141452961,-91.16466,15.56662,6.9576044,108.8346,-22.61633,-1.9520423,-82.50407,-7.619903,18.435474,138.03954,-50.000305,5.24119,-6.2786016,-5.335931,29.793802,-36.313786,56.631462,-21.860287,43.06807,3.2504334,-15.8563175,11.21494,-57.104214,-34.490963,38.516956,43.8387,7.8764157,-5.3392005,-12.955972
172,-0.27363070845603943,33.317161560058594,42.57518005371094,11.059448514886643,7.386691236505505,81.12712102714008,-91.90387,16.101254,6.4300356,110.488716,-23.07554,-1.5067515,-82.7445,-7.1511955,18.549738,139.17674,-50.000305,5.435597,-5.1714396,-4.734206,29.793802,-36.457153,56.266357,-22.20646,43.51063,3.155818,-15.901506,11.29594,-57.717686,-35.254482,39.708237,44.372223,8.158356,-5.5971785,-12.949461
173,-0.39312276244163513,33.6081428527832,42.01644515991211,10.806388715468652,7.278112121708182,80.54312070722995,-92.636635,16.628454,5.8820357,112.122635,-23.608452,-1.2627618,-82.98659,-6.6450834,18.706013,140.31491,-50.000305,5.6982923,-4.0618773,-4.133298,29.793802,-36.6404,55.91448,-22.541351,43.896156,3.0455463,-15.913184,11.366536,-58.400253,-36.025635,40.924644,44.92792,8.471043,-5.9003334,-12.945682
174,-0.5093286037445068,33.89636993408203,41.45085144042969,10.550374880420062,7.170511709305801,79.96408923899455,-93.38344,17.156,5.315036,113.75324,-24.167189,-1.1136196,-83.24047,-6.110362,18.891806,141.46323,-50.000305,6.007812,-2.9410348,-3.5291207,29.793802,-36.860077,55.574806,-22.875166,44.23552,2.920995,-15.909164,11.42228,-59.11002,-36.79803,42.1238,45.47997,8.761353,-6.2375574,-12.947607
175,-0.6208711862564087,34.181522369384766,40.880611419677734,10.28970946630421,7.0543260684568985,79.4054573042766,-94.1371,17.65818,4.720373,115.36976,-24.74298,-1.0078189,-83.48187,-5.539512,19.106953,142.62138,-50.000305,6.362288,-1.8189448,-2.9212828,29.793802,-37.117893,55.24057,-23.217005,44.518982,2.7915897,-15.909195,11.461357,-59.828552,-37.563496,43.289413,46.023018,9.010182,-6.597191,-12.943668
176,-0.7243849039077759,34.464149475097656,40.307861328125,10.01864426798105,6.917988640177261,78.88361155947992,-94.88872,18.108665,4.095742,116.96694,-25.327816,-0.890701,-83.681946,-4.9280066,19.351273,143.79483,-50.000305,6.7596836,-0.7091329,-2.309799,29.793802,-37.416813,54.903194,-23.576681,44.74173,2.667483,-15.933164,11.48271,-60.570415,-38.318047,44.447437,46.566536,9.235232,-6.965839,-12.923253
177,-0.8175353407859802,34.74105453491211,39.73430633544922,9.727070257462692,6.748602413678864,78.3998404156338,-95.63836,18.49699,3.4242785,118.55799,-25.930912,-0.75737584,-83.814964,-4.254485,19.637547,144.9966,-50.000305,7.2284203,0.3956407,-1.6760933,29.793802,-37.761024,54.55202,-23.957571,44.905113,2.5533314,-15.994737,11.483539,-61.307835,-39.056564,45.57809,47.114838,9.408627,-7.3494043,-12.895418
178,-0.8991838693618774,35.012081146240234,39.16206741333008,9.415469578450747,6.5550231575279385,77.94399721807808,-96.391075,18.834763,2.7117927,120.1458,-26.552605,-0.63622236,-83.901245,-3.5242565,19.948917,146.22096,-50.000305,7.7514405,1.5041711,-1.0190319,29.793802,-38.158936,54.183834,-24.361248,45.020576,2.4451594,-16.080841,11.467456,-62.050858,-39.779503,46.680576,47.67445,9.5337715,-7.7517595,-12.864031
179,-0.9691511988639832,35.278846740722656,38.59550094604492,9.102213643594169,6.361304927896196,77.51644725426749,-97.14407,19.129328,1.9790941,121.694664,-27.17045,-0.53407115,-83.97294,-2.7865393,20.261692,147.4423,-50.000305,8.28521,2.6096513,-0.3609756,29.793802,-38.613125,53.79969,-24.787355,45.087875,2.342956,-16.17127,11.441214,-62.820435,-40.48643,47.75069,48.23147,9.620919,-8.157498,-12.81024
180,-1.0279810428619385,35.539920806884766,38.03883361816406,8.807412874335393,6.189467712592196,77.12032146838334,-97.89242,19.386011,1.2522439,123.172295,-27.761692,-0.45841265,-84.06503,-2.0875933,20.552647,148.63734,-50.000305,8.776187,3.699167,0.2718637,29.793802,-39.120457,53.40375,-25.234402,45.105534,2.243963,-16.245739,11.410891,-63.61982,-41.172806,48.766792,48.76155,9.665905,-8.547499,-12.715409
181,-1.077562689781189,35.79185485839844,37.49466323852539,8.531847472523506,6.034487446601734,76.754437556924,-98.63518,19.597807,0.534017,124.58406,-28.328663,-0.4118196,-84.18735,-1.4356059,20.826311,149.81885,-50.000305,9.208703,4.772706,0.8754944,29.793802,-39.6729,52.99713,-25.693033,45.065243,2.1441386,-16.300514,11.3745775,-64.44893,-41.833508,49.727062,49.27048,9.661101,-8.929575,-12.572749
182,-1.1179949045181274,36.03297805786133,36.96616744995117,8.268770932081406,5.888300730619984,76.41912985604911,-99.37059,19.764475,-0.18067683,125.94338,-28.880264,-0.39263642,-84.32023,-0.80583215,21.100336,150.99469,-50.000305,9.612979,5.8304563,1.4570212,29.793802,-40.26595,52.580364,-26.159134,44.969154,2.0457413,-16.345734,11.329839,-65.30128,-42.464912,50.63618,49.767513,9.606148,-9.309166,-12.392762
183,-1.1478543281555176,36.26484298706055,36.458309173583984,8.02425045400578,5.769866905047128,76.11930918324664,-100.09497,19.892733,-0.87031853,127.22441,-29.400278,-0.39957687,-84.468,-0.19941553,21.380913,152.13339,-50.000305,10.003116,6.857584,1.9982164,29.793802,-40.902702,52.161488,-26.641045,44.833622,1.9544404,-16.382383,11.28258,-66.19338,-43.06504,51.511555,50.241478,9.528613,-9.665825,-12.181632
184,-1.1670527458190918,36.4878044128418,35.975704193115234,7.810470442716302,5.69819145457294,75.8634718628252,-100.80324,19.992903,-1.5114827,128.40305,-29.873169,-0.4291213,-84.62935,0.38256368,21.677082,153.19997,-50.000305,10.398517,7.8350506,2.477991,29.793802,-41.583122,51.751877,-27.14609,44.67343,1.87528,-16.410904,11.237477,-67.135895,-43.63065,52.364506,50.679173,9.454849,-9.980427,-11.944411
185,-1.1752891540527344,36.70095443725586,35.52149963378906,7.628185040308882,5.6735820665214485,75.64911394156493,-101.51089,20.06838,-2.1057801,129.48541,-30.288097,-0.47820136,-84.81143,0.95814323,22.006035,154.20482,-50.000305,10.810877,8.762089,2.888914,29.793802,-42.29926,51.3579,-27.674265,44.483295,1.7988694,-16.43161,11.192199,-68.13413,-44.154655,53.19276,51.08392,9.393968,-10.253591,-11.674021
186,-1.173116683959961,36.90479278564453,35.10157775878906,7.47525498505415,5.68770340218122,75.47692138332474,-102.209305,20.112295,-2.6521015,130.47989,-30.656128,-0.5486492,-85.00892,1.5226426,22.373167,155.15552,-50.000305,11.2352,9.63707,3.2313778,29.793802,-43.04191,50.98146,-28.215946,44.25505,1.7246667,-16.443863,11.143932,-69.17517,-44.62926,53.986107,51.4597,9.328622,-10.493825,-11.369318
187,-1.1630034446716309,37.09914016723633,34.7220344543457,7.351327641310647,5.745612737856717,75.36041144710101,-102.87186,20.120289,-3.1283853,131.35974,-30.984001,-0.644146,-85.2084,2.0405686,22.75582,156.03305,-50.000305,11.655981,10.438525,3.4970007,29.793802,-43.812603,50.630604,-28.767704,43.997948,1.6674429,-16.446213,11.0969715,-70.25399,-45.051872,54.75922,51.795605,9.256352,-10.69254,-11.044891
188,-1.1449981927871704,37.28647232055664,34.38854217529297,7.258218168215004,5.853075954565413,75.31436837637314,-103.4712,20.09146,-3.5100617,132.10132,-31.280134,-0.7670982,-85.397835,2.471785,23.133942,156.81546,-50.000305,12.056948,11.143463,3.6758432,29.793802,-44.609245,50.31621,-29.32404,43.717243,1.6414995,-16.437386,11.054535,-71.36505,-45.42274,55.527412,52.077084,9.176915,-10.840983,-10.714882
189,-1.1187862157821655,37.46598815917969,34.106163024902344,7.2017048792388385,6.012971922900432,75.34247903173052,-104.01464,20.025618,-3.793971,132.70189,-31.53784,-0.92734456,-85.573494,2.8283317,23.529602,157.50346,-50.000305,12.458953,11.747899,3.7624414,29.793802,-45.430668,50.04541,-29.897768,43.406727,1.6351722,-16.413671,11.011455,-72.51163,-45.73745,56.281567,52.305183,9.104733,-10.931678,-10.37366
190,-1.0858283042907715,37.63637161254883,33.8795051574707,7.179214605752206,6.2212976551085895,75.44100394187933,-104.511055,19.925741,-3.9842575,133.17294,-31.755548,-1.1181722,-85.737404,3.1212952,23.954735,158.10536,-50.000305,12.866988,12.253456,3.7551212,29.793802,-46.269787,49.82017,-30.48427,43.060402,1.6440924,-16.376066,10.96634,-73.686966,-45.989918,57.008873,52.48385,9.034189,-10.971293,-10.01626
191,-1.0486019849777222,37.79890823364258,33.71403121948242,7.18822944769562,6.473829750730168,75.61601432087197,-104.9366,19.790007,-4.0683646,133.50699,-31.94555,-1.3158089,-85.87965,3.3157291,24.372093,158.6056,-50.000305,13.238983,12.64591,3.6534698,29.793802,-47.117325,49.644833,-31.054905,42.681957,1.6916399,-16.330914,10.928076,-74.8767,-46.18065,57.725636,52.60291,8.933724,-10.972222,-9.658674
192,-1.008222222328186,37.95552062988281,33.613548278808594,7.222755212309575,6.765136296846336,75.87386606465294,-105.26547,19.615217,-4.032578,133.69398,-32.12025,-1.4964339,-85.98953,3.371627,24.744743,158.98601,-50.000305,13.532138,12.910152,3.458985,29.793802,-47.95896,49.52525,-31.577417,42.27063,1.8012947,-16.284113,10.904587,-76.05975,-46.313984,58.441677,52.64825,8.767936,-10.946958,-9.316838
193,-0.96379154920578,38.10807418823242,33.58051300048828,7.295423481104191,7.107055938256506,76.2231763891664,-105.50203,19.40871,-3.856053,133.72337,-32.279926,-1.6564031,-86.07954,3.278791,25.07658,159.24277,-50.000305,13.739725,13.026272,3.1462028,29.793802,-48.782055,49.491844,-32.0426,41.81048,1.9802403,-16.238224,10.89825,-77.24953,-46.377407,59.15222,52.61212,8.528844,-10.893076,-8.980649
194,-0.9153713583946228,38.258094787597656,33.6159782409668,7.4061731135957665,7.4958234117384155,76.66096983701598,-105.65506,19.168924,-3.5519726,133.6031,-32.419518,-1.8066698,-86.14489,3.052353,25.38055,159.38206,-50.000305,13.881398,13.01518,2.7376902,29.793802,-49.611446,49.51219,-32.47821,41.312504,2.2206895,-16.189796,10.90453,-78.438805,-46.397522,59.844734,52.493317,8.232909,-10.805964,-8.645458
195,-0.8640177249908447,38.40569305419922,33.719783782958984,7.53617832613298,7.906131926009919,77.17691371111495,-105.71253,18.880606,-3.1554654,133.34871,-32.539257,-1.9444944,-86.15466,2.6988273,25.636099,159.40477,-50.000305,13.955647,12.888539,2.2695565,29.793802,-50.443863,49.580105,-32.891575,40.778866,2.4891841,-16.134642,10.91981,-79.62422,-46.37517,60.56944,52.318665,7.911672,-10.698511,-8.342338
196,-0.8097010850906372,38.55201721191406,33.8912239074707,7.670005692653369,8.315541863492893,77.76152332522231,-105.66105,18.530397,-2.6975396,132.9765,-32.639927,-2.066359,-86.078186,2.2237504,25.824713,159.31226,-50.000305,13.962313,12.642417,1.741616,29.793802,-51.204655,49.709652,-33.19434,40.171898,2.818059,-16.06456,10.924756,-80.73445,-46.29689,61.236893,52.067814,7.503374,-10.578374,-8.082933
197,-0.7528321743011475,38.7018928527832,34.13067626953125,7.811372658187105,8.729208169585041,78.42225043888392,-105.49545,18.116737,-2.1651428,132.47514,-32.719654,-2.165146,-85.91886,1.6103466,25.933958,159.09502,-50.000305,13.890955,12.273934,1.1553911,29.793802,-51.91452,49.901897,-33.400486,39.49097,3.2119043,-15.976344,10.916909,-81.78315,-46.1748,61.88008,51.727013,6.994562,-10.439098,-7.874383
198,-0.6935291886329651,38.85780334472656,34.43629455566406,7.9688476130952495,9.154268591344701,79.16046053536887,-105.22484,17.641422,-1.5549248,131.84082,-32.778397,-2.2458224,-85.68874,0.8593801,25.96344,158.75728,-50.000305,13.741999,11.788134,0.51229537,29.793802,-52.591442,50.15404,-33.53294,38.74273,3.665094,-15.87386,10.902387,-82.78648,-46.01921,62.505993,51.30083,6.4034233,-10.278482,-7.7051606
199,-0.6332561373710632,39.019779205322266,34.80351257324219,8.126250334973102,9.570884791554045,79.95523104148742,-104.86165,17.100681,-0.91555756,131.10349,-32.820633,-2.3223743,-85.37764,0.0038800659,25.91156,158.31813,-50.000305,13.529231,11.206143,-0.1643119,29.793802,-53.200584,50.456635,-33.572243,37.926807,4.1584325,-15.7630205,10.884244,-83.71768,-45.833363,63.073322,50.821957,5.768922,-10.112789,-7.569775
200,-0.5719670057296753,39.18880844116211,35.226295471191406,8.267858031063438,9.959343440567803,80.78564500972425,-104.41706,16.491581,-0.29474,130.29172,-32.851032,-2.4081495,-84.9722,-0.9224896,25.77836,157.79668,-50.000305,13.268133,10.5490465,-0.8499824,29.793802,-53.70691,50.793823,-33.496616,37.047405,4.675237,-15.649894,10.8665495,-84.54697,-45.619884,63.53966,50.326763,5.132698,-9.958315,-7.4629836
201,-0.509562075138092,39.364994049072266,35.70029067993164,8.396578535527592,10.323603750135938,81.65334523772606,-103.88648,15.808339,0.30990422,129.39636,-32.862396,-2.4964597,-84.47468,-1.9300519,25.545403,157.18141,-50.000305,12.941275,9.818346,-1.5474927,29.793802,-54.126366,51.15874,-33.30224,36.10354,5.2352343,-15.539364,10.854769,-85.27802,-45.3852,63.92112,49.802624,4.478306,-9.80869,-7.37933
202,-0.4445396363735199,39.55202865600586,36.22093963623047,8.516650428653655,10.671036862892397,82.56360226217392,-103.27013,15.052314,0.90888107,128.40895,-32.85582,-2.5836303,-83.89318,-3.0257924,25.203293,156.46889,-50.000305,12.54423,9.0143175,-2.2572742,29.793802,-54.477528,51.54922,-33.004227,35.099297,5.8404694,-15.427753,10.846105,-85.92366,-45.1364,64.23702,49.24068,3.7932556,-9.657759,-7.322303
203,-0.3759963810443878,39.75194549560547,36.78178787231445,8.61661147790488,10.990205880156156,83.50119482523598,-102.585884,14.236169,1.4683493,127.359924,-32.848854,-2.686567,-83.22287,-4.169232,24.769941,155.695,-50.000305,12.113994,8.158288,-2.9523358,29.793802,-54.732483,51.951756,-32.6127,34.051556,6.44735,-15.308932,10.833267,-86.47018,-44.87652,64.453865,48.6847,3.122929,-9.521532,-7.300401
204,-0.30486205220222473,39.96231460571289,37.37563705444336,8.682598728183994,11.268896714851607,84.45111611035614,-101.84919,13.375292,1.9570638,126.28076,-32.859955,-2.8215098,-82.45929,-5.3164988,24.267431,154.89543,-50.000305,11.687151,7.2717137,-3.605222,29.793802,-54.87104,52.345394,-32.143127,32.98675,7.0112896,-15.177127,10.810377,-86.90387,-44.606995,64.53839,48.182117,2.5121148,-9.416121,-7.3227186
205,-0.2317659854888916,40.18413162231445,37.99663543701172,8.714480667596268,11.514455885866134,85.41337545032165,-101.05122,12.473431,2.3766537,125.157364,-32.89399,-2.98967,-81.60477,-6.4669757,23.688707,154.05034,-50.000305,11.250073,6.359306,-4.216466,29.793802,-54.907074,52.713898,-31.591505,31.90768,7.5383787,-15.02482,10.773252,-87.21941,-44.33233,64.48848,47.733387,1.9501263,-9.346004,-7.3890724
206,-0.15625154972076416,40.42319107055664,38.63858413696289,8.718330719119518,11.731813082958663,86.39272524925033,-100.188484,11.524834,2.7348042,123.98081,-32.942413,-3.1815526,-80.663445,-7.63235,23.019361,153.15202,-50.000305,10.790105,5.4221196,-4.789749,29.793802,-54.863377,53.047737,-30.965624,30.819334,8.047452,-14.858118,10.7283325,-87.42249,-44.05865,64.32623,47.32061,1.420581,-9.301424,-7.495724
207,-0.0778389722108841,40.67821502685547,39.29214096069336,8.688759917597542,11.907267716647548,87.38233736640811,-99.28751,10.532631,3.0114272,122.79587,-33.00142,-3.396515,-79.639885,-8.785607,22.276535,152.26094,-50.000305,10.344321,4.475162,-5.3042545,29.793802,-54.7369,53.332344,-30.301512,29.757076,8.513399,-14.692261,10.687469,-87.51456,-43.788338,64.05065,46.962795,0.95811254,-9.277194,-7.6468506
208,0.0016832269029691815,40.9465446472168,39.951866149902344,8.622241686526925,12.024540719321793,88.3770898443554,-98.36332,9.497071,3.192558,121.6418,-33.071716,-3.6328318,-78.527855,-9.898607,21.487793,151.43051,-50.000305,9.957216,3.5311947,-5.7428217,29.793802,-54.528763,53.548855,-29.640654,28.764101,8.912719,-14.542503,10.66427,-87.49829,-43.521008,63.6646,46.680267,0.5988028,-9.268905,-7.8464756
209,0.08064273744821548,41.22933578491211,40.61330795288086,8.516484646483807,12.08515900213263,89.3823645701719,-97.40707,8.409381,3.274305,120.51021,-33.155243,-3.8976033,-77.30142,-10.971451,20.660631,150.6392,-50.000305,9.672254,2.5890987,-6.1049566,29.793802,-54.249542,53.678463,-28.99116,27.862778,9.240976,-14.41391,10.673655,-87.35902,-43.256313,63.154724,46.486015,0.3663401,-9.290384,-8.109132
210,0.1594325602054596,41.52959442138672,41.269927978515625,8.376705813733325,12.097403425327101,90.39984880365543,-96.40859,7.2750998,3.265297,119.38446,-33.253906,-4.1854525,-75.97621,-12.005307,19.78624,149.87125,-50.000305,9.458383,1.6520797,-6.395138,29.793802,-53.91735,53.70914,-28.352276,27.049524,9.514029,-14.297481,10.708743,-87.09485,-42.996616,62.528397,46.368538,0.23643912,-9.338903,-8.428637
211,0.23763298988342285,41.84766387939453,41.9159049987793,8.205332479422374,12.054896079936686,91.41988530727444,-95.37867,6.1209126,3.1745493,118.30003,-33.37013,-4.476279,-74.60647,-12.981539,18.874668,149.19002,-50.000305,9.2488365,0.736465,-6.604844,29.793802,-53.5489,53.63438,-27.756807,26.333796,9.736207,-14.190055,10.751215,-86.729744,-42.744553,61.8181,46.314167,0.16856004,-9.387522,-8.777677
212,0.3139651119709015,42.18425369262695,42.547847747802734,8.005779800449732,11.94934472569834,92.4347832398465,-94.327385,4.973963,3.0125296,117.28631,-33.505066,-4.7503843,-73.242744,-13.890351,17.940514,148.65697,-50.000305,8.978526,-0.14508057,-6.725327,29.793802,-53.156902,53.450176,-27.234432,25.722942,9.911046,-14.087761,10.782604,-86.27669,-42.502724,61.042778,46.307053,0.11358899,-9.408351,-9.129184
213,0.38529905676841736,42.52897262573242,43.166114807128906,7.742185265669172,11.87944628172119,93.33411976095555,-93.33457,3.9479272,2.729999,116.34899,-33.6608,-5.016482,-72.0458,-14.605164,16.96754,148.32727,-49.965427,8.610916,-0.8684583,-6.739099,29.793802,-52.784657,53.160576,-26.757483,25.206406,10.034945,-13.989216,10.813098,-85.8137,-42.28903,60.187317,46.3751,0.087160066,-9.393866,-9.489391
214,0.43970927596092224,42.84297561645508,43.79100036621094,7.353405928798947,12.068807045228457,93.89173905975437,-92.57776,3.2771997,2.2688138,115.42055,-33.793114,-5.2783055,-72.333435,-14.666867,16.108545,147.85461,-47.54429,7.971147,-1.213263,-6.6143064,29.793802,-52.522446,52.792583,-26.253563,24.726728,10.121464,-13.891686,10.847758,-85.49384,-42.151375,59.24774,46.537,0.09612896,-9.359442,-9.870112
215,0.48685866594314575,43.169151306152344,44.39345932006836,6.927345427497953,12.232079322017794,94.4180133942315,-91.82063,2.6466885,1.7551345,114.554886,-33.942406,-5.5225863,-72.70346,-14.694659,15.257597,147.44783,-45.163853,7.232837,-1.4937404,-6.3915277,29.793802,-52.254303,52.337597,-25.811575,24.31198,10.173406,-13.797209,10.858541,-85.10575,-42.081757,58.261864,46.688473,0.1120429,-9.310172,-10.247603
216,0.5266168117523193,43.50621795654297,44.97261428833008,6.475390009606141,12.389915922716826,94.89346955019477,-91.08817,2.0847437,1.2126788,113.75684,-34.111847,-5.7402143,-73.18007,-14.680087,14.416649,147.06125,-43.068306,6.335971,-1.693869,-6.07278,29.793802,-52.022453,51.80083,-25.437737,23.953499,10.220081,-13.7046585,10.823712,-84.69898,-42.080727,57.28358,46.816055,0.08918751,-9.252692,-10.601821
217,0.5553930997848511,43.84830856323242,45.52916717529297,5.988775600600946,12.547713002835296,95.31416177840325,-90.38557,1.5953028,0.63283503,113.025055,-34.303898,-5.9355316,-73.80324,-14.638669,13.56457,146.80176,-41.216564,5.0065227,-1.810329,-5.6493087,29.793802,-51.821262,51.182014,-25.118958,23.656118,10.258893,-13.612688,10.737116,-84.280975,-42.149033,56.301495,46.92942,0.019694991,-9.188399,-10.940683
218,0.5706182718276978,44.186363220214844,46.06151580810547,5.467615417697113,12.692160951112172,95.6922882453776,-89.69806,1.1614699,0.012396591,112.35612,-34.514687,-6.112898,-74.55806,-14.589857,12.706038,146.65154,-39.50407,3.3513534,-1.8540498,-5.125025,29.793802,-51.635338,50.479244,-24.856133,23.426043,10.278419,-13.523189,10.6112795,-83.82698,-42.284622,55.29186,47.03335,-0.07627853,-9.113472,-11.270278
219,0.5730235576629639,44.51497268676758,46.56455993652344,4.9294628980314865,12.820495412942764,96.02678396394406,-89.02749,0.78830236,-0.6208694,111.75916,-34.740795,-6.2647486,-75.36349,-14.479277,11.880717,146.38426,-38.09925,1.9088117,-1.8317292,-4.5237184,29.793802,-51.47875,49.70433,-24.656696,23.243328,10.3009,-13.437981,10.449964,-83.3519,-42.486282,54.299377,47.105015,-0.18884856,-9.026208,-11.567154
220,0.563904345035553,44.83470153808594,47.04043197631836,4.386663967353295,12.933432713386958,96.31117282286392,-88.38092,0.48326793,-1.2464639,111.24395,-34.975735,-6.386852,-76.119064,-14.205809,11.141608,145.77228,-37.18849,1.25674,-1.7451609,-3.8644662,29.793802,-51.36162,48.877415,-24.522583,23.078005,10.3438425,-13.359367,10.2557,-82.86412,-42.751442,53.355106,47.11925,-0.32148862,-8.924688,-11.808041
221,0.5445460677146912,45.1539421081543,47.487510681152344,3.830172713823448,13.045552003166112,96.53316890044476,-87.777336,0.25822318,-1.8701425,110.80752,-35.213364,-6.480176,-76.73067,-13.628475,10.521587,144.75273,-37.108906,1.7804539,-1.5910175,-3.1442509,29.793802,-51.275646,48.01415,-24.431122,22.911695,10.405489,-13.28538,10.015513,-82.38522,-43.07937,52.453594,47.07228,-0.47964478,-8.798228,-11.982491
222,0.5149773359298706,45.47990798950195,47.90227127075195,3.262949912024031,13.152509916524826,96.70000468482034,-87.209145,0.106593564,-2.4900658,110.446,-35.45609,-6.5478535,-77.27293,-12.830321,10.036354,143.4496,-37.697803,3.1070616,-1.3812431,-2.3705502,29.793802,-51.202168,47.123062,-24.3675,22.747488,10.476662,-13.215534,9.73066,-81.905495,-43.465855,51.571518,46.96884,-0.6641502,-8.650653,-12.10297
223,0.4773002564907074,45.81330490112305,48.27989196777344,2.711377242475047,13.22977572136417,96.82878817804918,-86.64958,0.0072075166,-3.076657,110.16002,-35.714806,-6.58593,-77.90114,-12.068338,9.602734,141.91565,-38.382507,4.578138,-1.1367329,-1.5789967,29.793802,-51.1375,46.21843,-24.347813,22.586393,10.557595,-13.154295,9.425075,-81.40244,-43.90116,50.73122,46.807453,-0.8545222,-8.50328,-12.180865
224,0.43239808082580566,46.14512252807617,48.619327545166016,2.1871735265638126,13.257248658756662,96.92710535197536,-86.07741,-0.053913593,-3.6219082,109.96288,-36.007725,-6.6017575,-78.73006,-11.526731,9.121237,140.2094,-38.59084,5.613821,-0.8686295,-0.7956232,29.793802,-51.079273,45.315308,-24.387192,22.428398,10.651515,-13.105123,9.12226,-80.86766,-44.373035,49.967014,46.59807,-1.0167977,-8.378236,-12.228969
225,0.37959566712379456,46.471229553222656,48.92070388793945,1.6785818035249187,13.22658696019389,96.98750215789693,-85.48551,-0.06982143,-4.1404243,109.85469,-36.341755,-6.595763,-79.79143,-11.216602,8.531877,138.29399,-38.13259,6.1070623,-0.56989485,-0.006428797,29.793802,-51.018456,44.42579,-24.494148,22.258335,10.748437,-13.069526,8.813516,-80.30057,-44.872192,49.283497,46.350826,-1.1528206,-8.280409,-12.243007
226,0.3189287483692169,46.792945861816406,49.1843147277832,1.1755371133127712,13.15332470066772,97.0017084482585,-84.89248,-0.031090736,-4.639186,109.83348,-36.710144,-6.5708475,-80.98011,-11.03629,7.88369,136.15347,-37.351673,6.3760686,-0.24095269,0.79030377,29.793802,-50.948368,43.5544,-24.644289,22.07121,10.852418,-13.04471,8.489604,-79.7148,-45.391575,48.65953,46.064625,-1.2795366,-8.199289,-12.219464
227,0.2526841461658478,47.11134719848633,49.40990447998047,0.6912763104224894,13.051249037921542,96.97433687976192,-84.3165,0.061128877,-5.1032944,109.902245,-37.097626,-6.528298,-82.19528,-10.976192,7.2140565,133.86867,-36.45441,6.4902177,0.11324957,1.5765729,29.793802,-50.879574,42.712616,-24.82602,21.873531,10.956191,-13.029307,8.173783,-79.12262,-45.92649,48.096386,45.752483,-1.3892071,-8.134214,-12.174751
228,0.18293848633766174,47.4297981262207,49.596256256103516,0.2393269121967444,12.933969799984364,96.912355760515,-83.775375,0.20211817,-5.51403,110.06737,-37.489017,-6.468681,-83.35451,-11.024306,6.561374,131.52077,-35.631767,6.512734,0.4804747,2.3254302,29.793802,-50.816525,41.912277,-25.022243,21.673244,11.059434,-13.021281,7.888768,-78.52972,-46.470226,47.58985,45.41783,-1.4747897,-8.084086,-12.124482
229,0.10965659469366074,47.7498779296875,49.74270248413086,-0.1771029606405181,12.802280359862856,96.81234398544686,-83.26942,0.39685246,-5.864434,110.32801,-37.887814,-6.3868003,-84.480286,-11.210206,5.914331,129.10204,-34.90642,6.3661237,0.8544962,3.0286987,29.793802,-50.748283,41.163338,-25.228249,21.45486,11.163819,-13.016695,7.6341105,-77.93957,-47.015152,47.150383,45.059135,-1.5313877,-8.053912,-12.067984
230,0.033644601702690125,48.07007598876953,49.848575592041016,-0.5671596806852619,12.646668335231006,96.67278394558303,-82.7879,0.6446765,-6.16696,110.68198,-38.301075,-6.285365,-85.58646,-11.524433,5.239689,126.577415,-34.190235,6.0524716,1.2439457,3.7070534,29.793802,-50.664528,40.47972,-25.458792,21.199192,11.245147,-13.017364,7.398673,-77.3585,-47.558914,46.788216,44.692062,-1.5616024,-8.043164,-12.00018
231,-0.041928134858608246,48.3896369934082,49.913482666015625,-0.9254214819577944,12.472712807960923,96.50560358091633,-82.3397,0.93024963,-6.4237514,111.12953,-38.715828,-6.174487,-86.61155,-11.889813,4.5572286,123.98538,-33.488476,5.751327,1.6261703,4.331738,29.793802,-50.56796,39.854225,-25.690857,20.946917,11.330094,-13.0290575,7.188019,-76.766525,-48.08861,46.45953,44.296635,-1.5778579,-8.041575,-11.926197
232,-0.11374052613973618,48.7086181640625,49.936763763427734,-1.2488939351618058,12.278882152238083,96.32372621015557,-81.925,1.237229,-6.6398487,111.67173,-39.12278,-6.0640244,-87.494415,-12.228961,3.8902304,121.36576,-32.79925,5.6375513,2.0000386,4.905319,29.793802,-50.470146,39.288998,-25.931038,20.722094,11.401317,-13.058723,7.0098486,-76.17432,-48.598083,46.162827,43.89765,-1.5789262,-8.040221,-11.854415
233,-0.18094143271446228,49.02595901489258,49.91836166381836,-1.5356465524257434,12.060267592078535,96.12255076159981,-81.54062,1.5748888,-6.8090086,112.31364,-39.519733,-5.9493504,-88.23529,-12.543575,3.2397034,118.68246,-32.10648,5.7687287,2.3764074,5.4334197,29.793802,-50.370872,38.79434,-26.19385,20.513174,11.438304,-13.115371,6.8652377,-75.584984,-49.085266,45.91425,43.506256,-1.5592829,-8.036932,-11.789283
234,-0.2451964020729065,49.3448371887207,49.857784271240234,-1.7841065610314994,11.82147513270523,95.8997755919617,-81.1874,1.9455266,-6.9275255,113.050575,-39.911736,-5.825735,-88.875305,-12.857181,2.5932178,115.92706,-31.40111,6.0473585,2.7356653,5.893931,29.793802,-50.25908,38.361355,-26.459171,20.326216,11.475716,-13.192468,6.749818,-74.98867,-49.539085,45.70358,43.100166,-1.5206532,-8.0374775,-11.725283
235,-0.3070896863937378,49.66434097290039,49.755348205566406,-1.996889772390101,11.56206623151229,95.67257826834556,-80.85953,2.3219028,-7.011588,113.87437,-40.301903,-5.7046256,-89.406624,-13.140098,1.9583592,113.17311,-30.687757,6.4105186,3.0753536,6.3102837,29.793802,-50.134644,37.995106,-26.733519,20.156626,11.490157,-13.274783,6.6649942,-74.40033,-49.95894,45.526176,42.70982,-1.4825145,-8.042348,-11.660646
236,-0.3657311201095581,49.985633850097656,49.61138153076172,-2.1713146878443537,11.290873451952178,95.45805809929297,-80.56043,2.6762886,-7.0699267,114.77837,-40.693665,-5.5956044,-89.83661,-13.363354,1.3534362,110.49589,-29.969069,6.7939835,3.365293,6.663304,29.793802,-49.9926,37.683144,-26.990433,20.031694,11.514686,-13.3461895,6.611485,-73.82466,-50.338245,45.36199,42.324535,-1.4528363,-8.052276,-11.589372
237,-0.4213258624076843,50.311641693115234,49.42601776123047,-2.3027553802431107,11.007007906441393,95.25656894628284,-80.28976,3.0082545,-7.0915103,115.76354,-41.08575,-5.4933004,-90.11098,-13.563559,0.7459977,107.69442,-29.341825,7.400484,3.6171255,6.9718866,29.793802,-49.83991,37.434994,-27.247154,19.940771,11.524518,-13.399257,6.6047497,-73.27642,-50.680706,45.23154,41.974594,-1.437922,-8.071249,-11.510933
238,-0.47345826029777527,50.64269256591797,49.20003890991211,-2.3908540376486105,10.711275916658899,95.06146037496838,-80.04607,3.3270528,-7.073753,116.833206,-41.48171,-5.395494,-90.25837,-13.7352295,0.14359057,104.79524,-28.761812,8.190268,3.8241127,7.216844,29.793802,-49.670143,37.244343,-27.493313,19.889738,11.540882,-13.443404,6.6391153,-72.74168,-50.980824,45.129597,41.636692,-1.4291229,-8.097426,-11.4267
239,-0.5211364030838013,50.9744987487793,48.93442916870117,-2.4473120262118746,10.395684349872448,94.88015323070078,-79.81652,3.6256208,-7.0430546,117.97934,-41.87915,-5.3101015,-90.39488,-13.80248,-0.37065017,102.23271,-28.027618,8.726699,3.989255,7.410147,29.793802,-49.481144,37.104702,-27.735355,19.873945,11.548014,-13.489621,6.6861563,-72.21428,-51.23531,45.042164,41.30885,-1.4322894,-8.123975,-11.341647
240,-0.5611337423324585,51.3061637878418,48.62957000732422,-2.483519913712657,10.051485416367882,94.72001206564202,-79.586494,3.8944016,-7.026339,119.19487,-42.28382,-5.248812,-90.64174,-13.699792,-0.70132434,100.4521,-26.954123,8.5755005,4.1188126,7.566024,29.793802,-49.274437,37.012234,-27.984343,19.88715,11.522933,-13.548788,6.717667,-71.6925,-51.44536,44.961044,40.99279,-1.4475434,-8.144301,-11.260592
