unveil-humanoid-operators/unveil-humanoid-operators.github.io/feature-analysis-animation/data/feature_matrix_instances/height_root_translate_rom_jogging_A040_jog_sideway_045_stop_004__A040.csv
Frame,root_translateX,root_translateY,root_translateZ,root_rotateX,root_rotateY,root_rotateZ,left_hip_pitch_joint_dof,left_hip_roll_joint_dof,left_hip_yaw_joint_dof,left_knee_joint_dof,left_ankle_pitch_joint_dof,left_ankle_roll_joint_dof,right_hip_pitch_joint_dof,right_hip_roll_joint_dof,right_hip_yaw_joint_dof,right_knee_joint_dof,right_ankle_pitch_joint_dof,right_ankle_roll_joint_dof,waist_yaw_joint_dof,waist_roll_joint_dof,waist_pitch_joint_dof,left_shoulder_pitch_joint_dof,left_shoulder_roll_joint_dof,left_shoulder_yaw_joint_dof,left_elbow_joint_dof,left_wrist_roll_joint_dof,left_wrist_pitch_joint_dof,left_wrist_yaw_joint_dof,right_shoulder_pitch_joint_dof,right_shoulder_roll_joint_dof,right_shoulder_yaw_joint_dof,right_elbow_joint_dof,right_wrist_roll_joint_dof,right_wrist_pitch_joint_dof,right_wrist_yaw_joint_dof
0,0.24848300218582153,3.13555645942688,78.43968963623047,-2.9773545350486597,-3.5598299651230776,-93.24828534741792,-0.3462612,10.378954,10.9991255,21.137552,-17.784204,-4.765887,2.2247033,-1.9166634,-16.272642,16.757267,-12.525806,3.5602894,-2.4100552,4.4813848,10.544364,-9.651158,15.853116,-47.091003,61.83337,2.1846936,0.7231956,1.0580883,-8.951616,-15.9370775,48.8622,60.627182,2.4420917,1.4881134,-6.3825417
1,0.242902010679245,3.1876869201660156,78.43519592285156,-2.947360190438397,-3.5196492060133266,-93.30134067458461,-0.4809303,10.365192,11.043682,21.241955,-17.77108,-4.7426414,1.9637661,-1.9896502,-16.232832,17.084087,-12.601479,3.5290015,-2.3833284,4.464462,10.562426,-9.6763525,15.878141,-47.08058,61.827442,2.1655815,0.7275872,1.0666114,-9.022663,-15.94914,48.896126,60.636074,2.4642475,1.4698503,-6.3541512
2,0.24981233477592468,3.245403528213501,78.43081665039062,-2.9162679291847318,-3.4803401470906756,-93.3542691773954,-0.61406124,10.350875,11.08883,21.347609,-17.757835,-4.718572,1.7042612,-2.063505,-16.193464,17.412521,-12.677164,3.4987946,-2.3602061,4.4466195,10.582158,-9.703604,15.90529,-47.06857,61.825066,2.1424944,0.72873336,1.0737796,-9.094644,-15.965168,48.93971,60.643703,2.4951217,1.4491957,-6.3246512
3,0.26059457659721375,3.3130836486816406,78.42733001708984,-2.8859637002341336,-3.438826415506713,-93.40769009570647,-0.7541596,10.338003,11.132558,21.458637,-17.745956,-4.6955357,1.4392345,-2.1360955,-16.152176,17.743015,-12.751886,3.467832,-2.3394115,4.429784,10.601399,-9.725707,15.936217,-47.049736,61.815693,2.1259263,0.730935,1.0805688,-9.164354,-15.985514,48.977764,60.6412,2.5150886,1.4323385,-6.2958407
4,0.26776036620140076,3.378244161605835,78.421630859375,-2.857767088032932,-3.391772752294616,-93.46219058564328,-0.9130336,10.329735,11.172337,21.586151,-17.73921,-4.675275,1.1610662,-2.2049248,-16.106857,18.076792,-12.8272705,3.43431,-2.3229318,4.415005,10.621292,-9.733822,15.983835,-47.01653,61.781906,2.1232703,0.7360388,1.085454,-9.2371855,-16.018599,49.01134,60.617947,2.5204182,1.4247197,-6.26837
5,0.26943984627723694,3.4417054653167725,78.4142074584961,-2.830531376765495,-3.3398317333416014,-93.5188701963281,-1.0841451,10.323197,11.209478,21.718712,-17.734186,-4.659605,0.8695518,-2.2710736,-16.051428,18.415228,-12.90371,3.3998086,-2.2884097,4.402164,10.626151,-9.764459,16.00078,-47.001484,61.79261,2.1381414,0.74390167,1.0922163,-9.323231,-16.03171,49.030815,60.62621,2.5051684,1.4259375,-6.2478437
6,0.26656755805015564,3.508237361907959,78.40682220458984,-2.8032995617399643,-3.28450522120805,-93.576803113229,-1.2651958,10.318163,11.244144,21.856846,-17.731163,-4.6470246,0.5683691,-2.3350656,-15.989041,18.75688,-12.981398,3.3646398,-2.2770076,4.3930697,10.638042,-9.760944,16.044783,-46.948452,61.751484,2.1776543,0.7576369,1.0953178,-9.413508,-16.066565,49.069523,60.60496,2.476322,1.4384501,-6.2311397
7,0.2689581513404846,3.5919439792633057,78.39471435546875,-2.779363897687424,-3.2228901638031773,-93.63470324224868,-1.4698045,10.320564,11.274115,22.020197,-17.73465,-4.634505,0.25105563,-2.3954444,-15.930584,19.109524,-13.058333,3.32493,-2.2623162,4.3847475,10.650536,-9.755088,16.102697,-46.892532,61.69842,2.212705,0.76957923,1.0982417,-9.508253,-16.111877,49.09442,60.562622,2.4488876,1.4542774,-6.209978
8,0.27568933367729187,3.6833724975585938,78.38248443603516,-2.761883096312879,-3.1526650155979854,-93.69092190984377,-1.7118199,10.335888,11.296357,22.228077,-17.748718,-4.6188126,-0.08948205,-2.451425,-15.887058,19.482533,-13.133434,3.2769384,-2.2481337,4.3775663,10.661191,-9.75167,16.162064,-46.829178,61.648705,2.227175,0.7741843,1.1041312,-9.597878,-16.155533,49.0768,60.49171,2.4112236,1.4690545,-6.1775713
9,0.2691480815410614,3.7712528705596924,78.36978912353516,-2.7557900815607774,-3.072967436712792,-93.74366554325574,-1.9962124,10.373096,11.306663,22.488098,-17.776627,-4.600961,-0.449458,-2.4949367,-15.868395,19.86817,-13.200517,3.2167196,-2.2371345,4.3742905,10.671535,-9.7506,16.225636,-46.751785,61.601597,2.2150917,0.76800996,1.1114227,-9.695604,-16.196907,49.03376,60.402973,2.386773,1.4766847,-6.126846
10,0.2576937973499298,3.864013671875,78.35907745361328,-2.759070203119725,-2.985241435659993,-93.79411621093536,-2.3155823,10.426624,11.307345,22.789677,-17.815744,-4.5818706,-0.8271467,-2.5294535,-15.866358,20.265532,-13.262574,3.1470187,-2.2278843,4.3751736,10.675377,-9.759775,16.274567,-46.666595,61.579254,2.1854734,0.75341475,1.121436,-9.80053,-16.224016,48.966507,60.313606,2.3624003,1.4805858,-6.064791
11,0.2574602961540222,3.9718470573425293,78.34243774414062,-2.7588702306542237,-2.890296290486762,-93.84569168070588,-2.6628504,10.480335,11.306227,23.121603,-17.859802,-4.5585637,-1.2331035,-2.5714293,-15.865079,20.694807,-13.332269,3.0743687,-2.2232788,4.3707523,10.68607,-9.749281,16.35702,-46.565777,61.51376,2.1510203,0.73885894,1.1325089,-9.904499,-16.264982,48.867027,60.177536,2.3259706,1.4920688,-6.0004077
12,0.2606056034564972,4.078938007354736,78.31950378417969,-2.745559502033265,-2.789015272083072,-93.90155796323721,-3.0319128,10.519019,11.311245,23.475054,-17.903551,-4.5281262,-1.6785401,-2.637102,-15.847959,21.177925,-13.423814,3.0055857,-2.2127843,4.357049,10.695476,-9.731373,16.440825,-46.4605,61.43825,2.1281457,0.728005,1.1511625,-10.022937,-16.307053,48.744644,60.01507,2.292237,1.5188931,-5.946871
13,0.26884394884109497,4.1963958740234375,78.29426574707031,-2.718816683323341,-2.6800314158423664,-93.96457023623073,-3.4243793,10.54146,11.32544,23.85402,-17.95053,-4.4886165,-2.1636739,-2.726626,-15.807026,21.71147,-13.5393505,2.944328,-2.1974523,4.334922,10.70141,-9.701853,16.527178,-46.348064,61.347286,2.1261184,0.7227992,1.178234,-10.142258,-16.355595,48.571667,59.81235,2.249605,1.5619751,-5.898017
14,0.2719079256057739,4.313477039337158,78.26679992675781,-2.6814961740131,-2.5633852039703777,-94.03227707488283,-3.8419714,10.555,11.344642,24.260832,-18.001667,-4.4418364,-2.68339,-2.8323643,-15.751758,22.286345,-13.671511,2.8870733,-2.1762261,4.3074985,10.704692,-9.669281,16.611523,-46.231728,61.2514,2.1338377,0.7198092,1.2123418,-10.274266,-16.411377,48.369347,59.581562,2.2182121,1.6168169,-5.850552
15,0.2807353734970093,4.443637847900391,78.23788452148438,-2.63417299221338,-2.4420100218355607,-94.10010868227096,-4.281425,10.556438,11.364975,24.688524,-18.05094,-4.390075,-3.238146,-2.9581854,-15.691923,22.910645,-13.816779,2.8298972,-2.151769,4.2723546,10.710943,-9.636119,16.693605,-46.110897,61.153904,2.1386309,0.7170566,1.2521371,-10.40763,-16.474579,48.146904,59.31309,2.1623769,1.6868703,-5.819359
16,0.285992830991745,4.573888301849365,78.20365905761719,-2.5752510681997043,-2.3185696494062515,-94.16323915648039,-4.7375417,10.542262,11.3834505,25.125692,-18.089418,-4.335631,-3.8266282,-3.1075912,-15.637166,23.588024,-13.969422,2.768557,-2.1235259,4.226474,10.7259035,-9.614025,16.770924,-45.995537,61.065857,2.1196682,0.71204174,1.2967112,-10.565241,-16.542671,47.95276,59.024265,2.0943663,1.7741435,-5.81977
17,0.2943045198917389,4.715959548950195,78.16792297363281,-2.5046779119680056,-2.193303336170761,-94.2212712036973,-5.2131624,10.515295,11.398328,25.578651,-18.11983,-4.280855,-4.45204,-3.279046,-15.588743,24.3274,-14.131711,2.7022145,-2.0934253,4.169669,10.750051,-9.601992,16.851706,-45.8935,60.98082,2.059486,0.70485747,1.3421503,-10.73326,-16.61927,47.779484,58.69167,1.9823934,1.8973107,-5.869048
18,0.3079923987388611,4.866790771484375,78.12806701660156,-2.4239300698132844,-2.065034821309209,-94.27648907838675,-5.7077193,10.475531,11.412225,26.046972,-18.143278,-4.223657,-5.1120157,-3.4711556,-15.540944,25.11993,-14.303352,2.6332655,-2.061081,4.10237,10.779889,-9.596779,16.932596,-45.79868,60.899643,1.972468,0.6963828,1.3903929,-10.918969,-16.700779,47.622223,58.328255,1.8466055,2.0488298,-5.9547963
19,0.3220454752445221,5.025784492492676,78.0867919921875,-2.3300974395275085,-1.9338883938006441,-94.32801707778447,-6.218334,10.4169035,11.427372,26.524475,-18.157578,-4.159624,-5.8019032,-3.6888833,-15.493412,25.954107,-14.479975,2.56237,-2.0270138,4.023793,10.819403,-9.591536,17.011925,-45.690964,60.81665,1.8881199,0.68648297,1.4473,-11.119252,-16.78811,47.471527,57.947575,1.7054961,2.1943977,-6.0461254
20,0.34627848863601685,5.194052696228027,78.04161834716797,-2.2171725190725633,-1.799761424024997,-94.37521597949872,-6.73956,10.332586,11.44633,26.999512,-18.157738,-4.084389,-6.513949,-3.936143,-15.445863,26.811453,-14.655152,2.4902933,-1.9898331,3.9333837,10.873668,-9.581046,17.086096,-45.55054,60.727196,1.8374615,0.674989,1.5188756,-11.3477955,-16.883427,47.339096,57.5727,1.6045339,2.299,-6.1125474
21,0.36690419912338257,5.371243476867676,77.99370574951172,-2.0800888740585646,-1.663035059882773,-94.42285185698302,-7.264063,10.215024,11.477441,27.464188,-18.141953,-3.9954953,-7.256094,-4.222654,-15.39142,27.708916,-14.833171,2.4176424,-1.949462,3.8240669,10.940287,-9.557168,17.151892,-45.360283,60.63429,1.8411242,0.66100127,1.6003104,-11.5944805,-16.988213,47.21798,57.19893,1.5426176,2.3488007,-6.144728
22,0.3939477205276489,5.549650192260742,77.94451141357422,-1.9216455830341435,-1.5235222808883229,-94.4694949634999,-7.7948523,10.06907,11.517642,27.92265,-18.112947,-3.8954825,-8.027107,-4.5427547,-15.331056,28.64478,-15.014201,2.3447633,-1.9064204,3.6989954,11.017723,-9.527559,17.208317,-45.13555,60.543053,1.8775918,0.6447363,1.6908141,-11.85874,-17.102991,47.10984,56.817806,1.5042372,2.3641179,-6.159329
23,0.43203970789909363,5.740872383117676,77.89483642578125,-1.7554106737622897,-1.3806434215679573,-94.50521503033244,-8.347861,9.908891,11.552251,28.395422,-18.073812,-3.7874093,-8.813131,-4.880162,-15.275956,29.589231,-15.185772,2.2720928,-1.86288,3.5727353,11.110455,-9.508076,17.255375,-44.901188,60.452,1.9169428,0.6275321,1.8021938,-12.146987,-17.227932,47.014545,56.434868,1.481753,2.3613675,-6.165019
24,0.4744037091732025,5.942699909210205,77.84166717529297,-1.5941650812120693,-1.2338037627794392,-94.51963881807696,-8.934744,9.747231,11.567013,28.89329,-18.027275,-3.6744034,-9.599208,-5.2187943,-15.237921,30.510153,-15.33429,2.1996858,-1.8231324,3.460202,11.2219095,-9.5153675,17.294235,-44.685307,60.360928,1.923708,0.610487,1.9462497,-12.4458,-17.362001,46.90903,56.04312,1.4368359,2.357925,-6.1702647
25,0.5222744941711426,6.157542705535889,77.78626251220703,-1.438099963932064,-1.0869161253621884,-94.51052635125417,-9.550289,9.581697,11.560486,29.408907,-17.971815,-3.5559554,-10.38845,-5.5642643,-15.22264,31.422546,-15.457009,2.1242247,-1.7866242,3.3593113,11.357567,-9.555064,17.326048,-44.502605,60.270706,1.8822669,0.5940248,2.131641,-12.76422,-17.505692,46.79987,55.645855,1.3706852,2.3558383,-6.1721406
26,0.5738900899887085,6.386959552764893,77.72711181640625,-1.2813446997960154,-0.9390247512289002,-94.4831031396132,-10.190354,9.406844,11.539915,29.93951,-17.907185,-3.4305253,-11.185241,-5.922153,-15.2225275,32.333885,-15.560124,2.046943,-1.7506839,3.2644439,11.5139,-9.62034,17.350943,-44.340977,60.182472,1.8088071,0.57717323,2.3502436,-13.099449,-17.65897,46.68919,55.2406,1.293824,2.3468878,-6.167625
27,0.6220610737800598,6.6136794090271,77.66510772705078,-1.1305247021129652,-0.7826810394622414,-94.4389496395116,-10.869777,9.232391,11.504146,30.503063,-17.83636,-3.3004875,-11.9815645,-6.277802,-15.229928,33.20954,-15.64679,1.9743848,-1.7138836,3.1834495,11.680716,-9.702795,17.367424,-44.17812,60.092384,1.7298623,0.559644,2.58876,-13.4475975,-17.822279,46.57395,54.833813,1.2150265,2.3317828,-6.1652045
28,0.6755751371383667,6.859615325927734,77.59898376464844,-0.9925390462710819,-0.6103360804764993,-94.37943072919693,-11.6024475,9.067576,11.451827,31.116318,-17.761965,-3.1684568,-12.768173,-6.61584,-15.2377205,34.012074,-15.71942,1.9130354,-1.6738479,3.1253073,11.848825,-9.798591,17.373278,-43.997345,59.999477,1.6669087,0.5410916,2.834167,-13.808515,-17.99551,46.45647,54.431515,1.1524321,2.3111384,-6.1733656
29,0.7440263032913208,7.11915397644043,77.52876281738281,-0.8634700568202183,-0.41272325410788824,-94.30039653241302,-12.41542,8.899606,11.369843,31.794374,-17.669613,-3.0116532,-13.562284,-6.9462223,-15.241157,34.747906,-15.777314,1.8626416,-1.6334691,3.0864139,12.01388,-9.909929,17.366129,-43.792305,59.90585,1.6229157,0.5221836,3.0800672,-14.183939,-18.178562,46.329468,54.032722,1.1083255,2.2846136,-6.2021527
30,0.808955729007721,7.380873680114746,77.46015167236328,-0.739482776020253,-0.19629804536476614,-94.20254627977397,-13.292391,8.727638,11.263742,32.522057,-17.561306,-2.8387482,-14.362988,-7.2732964,-15.244736,35.433308,-15.820834,1.8207264,-1.5925967,3.0648441,12.181345,-10.039672,17.345104,-43.573017,59.814148,1.5875778,0.5027782,3.3345444,-14.575233,-18.371185,46.197296,53.63583,1.0783244,2.2519953,-6.2443933
31,0.880605161190033,7.645884037017822,77.38636779785156,-0.6367693062248186,0.022268833425039894,-94.09499822967733,-14.187083,8.580848,11.159426,33.279324,-17.46801,-2.696332,-15.134266,-7.573797,-15.256511,36.04618,-15.853102,1.7897806,-1.5466933,3.0704658,12.355232,-10.183299,17.310858,-43.34552,59.72507,1.5620397,0.4812425,3.6062653,-14.980918,-18.574358,46.077015,53.250557,1.0606728,2.2140882,-6.2829685
32,0.9559641480445862,7.920121192932129,77.3050765991211,-0.5707699498390526,0.22664209888746814,-93.98704467237788,-15.053539,8.488186,11.081309,34.044292,-17.42016,-2.6306417,-15.842404,-7.8248873,-15.285449,36.56959,-15.880349,1.7715129,-1.4912909,3.1135404,12.540392,-10.334993,17.265192,-43.11513,59.636265,1.5477995,0.45593095,3.9037902,-15.399544,-18.789158,45.987293,52.884308,1.056909,2.1715446,-6.3007917
33,1.0240155458450317,8.196910858154297,77.21830749511719,-0.5590321569162072,0.4214157410651661,-93.87470791341208,-15.916599,8.45171,10.990754,34.793888,-17.389778,-2.657395,-16.466272,-8.002205,-15.348889,36.95483,-15.903278,1.7684749,-1.4248195,3.2129037,12.740112,-10.495056,17.209475,-42.86869,59.539215,1.5659181,0.43008703,4.22325,-15.825095,-19.016874,45.911102,52.52127,1.0583466,2.122627,-6.286592
34,1.1100226640701294,8.479374885559082,77.1271743774414,-0.5873767081156676,0.612578822335622,-93.75550669855959,-16.789207,8.456978,10.88812,35.5449,-17.372948,-2.7533436,-17.030117,-8.125496,-15.438584,37.22991,-15.921464,1.7777307,-1.34986,3.3575966,12.951766,-10.6655,17.144384,-42.60871,59.43541,1.6077422,0.40364307,4.562005,-16.261246,-19.258205,45.848114,52.161827,1.0705485,2.0675137,-6.251654
35,1.1901060342788696,8.74833869934082,77.03922271728516,-0.6265218953357502,0.7858528014157744,-93.64093098970284,-17.608667,8.510847,10.855164,36.340378,-17.438744,-2.9058545,-17.564417,-8.2372875,-15.526722,37.48429,-15.93436,1.7922988,-1.2693392,3.513086,13.170817,-10.839427,17.070694,-42.358562,59.33534,1.6357179,0.3702731,4.930285,-16.714272,-19.512087,45.833683,51.833492,1.1049916,2.0104477,-6.21291
36,1.2704001665115356,9.020854949951172,76.95179748535156,-0.6454297751980642,0.9270406549752959,-93.54214028497996,-18.313433,8.621682,10.974088,37.226025,-17.656897,-3.0985734,-18.099104,-8.378899,-15.584663,37.80639,-15.940479,1.8054789,-1.1872917,3.6440196,13.392354,-11.007651,16.989027,-42.13856,59.248993,1.614719,0.32305598,5.3380995,-17.193365,-19.776373,45.90531,51.568905,1.1722945,1.9552491,-6.1872296
37,1.3639498949050903,9.288287162780762,76.86598205566406,-0.6454389927260687,1.0325319126015493,-93.4572131879212,-18.890722,8.785145,11.252925,38.18601,-18.075626,-3.403789,-18.637377,-8.55281,-15.61569,38.21085,-15.938339,1.8124937,-1.1057659,3.754005,13.623835,-11.17286,16.899914,-41.958275,59.17232,1.5158815,0.25075284,5.8056397,-17.720856,-20.051962,46.097507,51.373234,1.3129642,1.899569,-6.1835837
38,1.4602349996566772,9.563638687133789,76.77433013916016,-0.6391556394361266,1.1101463153826057,-93.38163967595632,-19.372974,9.002137,11.65356,39.21018,-18.649757,-3.8018723,-19.16418,-8.739292,-15.631706,38.65168,-15.927744,1.8170971,-1.0239916,3.8573492,13.8649845,-11.336897,16.80394,-41.804024,59.1007,1.3645574,0.15885516,6.321426,-18.279087,-20.336996,46.375645,51.224453,1.4986695,1.8427297,-6.1915855
39,1.5700658559799194,9.824206352233887,76.68235778808594,-0.6149288489099308,1.1627265678782874,-93.3222065421334,-19.765074,9.292302,12.187618,40.355568,-19.310724,-4.1376176,-19.68635,-8.945459,-15.615656,39.13258,-15.914142,1.8256619,-0.9381629,3.9347146,14.100189,-11.4911585,16.701454,-41.66282,59.045208,1.208151,0.06638926,6.84855,-18.847723,-20.624176,46.702675,51.13609,1.6774833,1.7896693,-6.1997943
40,1.6814424991607666,10.07158088684082,76.59353637695312,-0.5616673814329101,1.1928458270863294,-93.28634791313348,-20.066303,9.675416,12.860881,41.67042,-19.985638,-4.2572565,-20.210419,-9.177776,-15.55044,39.657444,-15.903237,1.8451078,-0.84517914,3.9674876,14.313311,-11.625907,16.59229,-41.520916,59.016525,1.0945259,-0.0064034844,7.3503275,-19.40102,-20.901415,47.03449,51.12252,1.7889212,1.7455487,-6.1972523
41,1.7949424982070923,10.313806533813477,76.50597381591797,-0.468515876648503,1.1975162848891798,-93.28552196825115,-20.252972,10.189208,13.762439,43.19787,-20.690207,-4.0725374,-20.749197,-9.444162,-15.418806,40.25181,-15.892531,1.8715876,-0.73771375,3.9403286,14.502574,-11.735291,16.474033,-41.37372,59.030045,1.0424304,-0.055450905,7.833978,-19.96312,-21.159922,47.41001,51.232502,1.8240762,1.7029953,-6.180962
42,1.9096040725708008,10.551061630249023,76.4154281616211,-0.3458346626307958,1.1759873697617458,-93.31313304353193,-20.315474,10.819762,14.851646,44.89094,-21.45161,-3.6768816,-21.294237,-9.735768,-15.233973,40.90376,-15.8796425,1.9030325,-0.62241924,3.8673096,14.674493,-11.825131,16.346237,-41.2275,59.07927,1.0231369,-0.09026555,8.313758,-20.534939,-21.394487,47.828384,51.452442,1.7986798,1.6617265,-6.157612
43,2.0303242206573486,10.7816801071167,76.32437133789062,-0.21424110619345452,1.1340991752165466,-93.34981661262137,-20.277872,11.506712,15.9414215,46.66337,-22.2141,-3.1853049,-21.819418,-10.031829,-15.024455,41.555805,-15.867676,1.9494249,-0.5121164,3.7714813,14.826216,-11.904522,16.212816,-41.088196,59.14221,1.0147563,-0.11081635,8.763674,-21.09396,-21.601738,48.22259,51.729195,1.7388011,1.6359577,-6.130807
44,2.155501365661621,11.012868881225586,76.2292709350586,-0.09407132600337922,1.0778422966194077,-93.3756387615029,-20.17529,12.184535,16.849705,48.42985,-22.916346,-2.7187493,-22.297232,-10.313041,-14.819662,42.150047,-15.858908,2.0212448,-0.419685,3.6748683,14.953863,-11.981609,16.081177,-40.96307,59.194195,0.9933834,-0.11725006,9.157436,-21.599676,-21.781265,48.506733,51.999973,1.6468428,1.6401259,-6.103591
45,2.2828209400177,11.232156753540039,76.14069366455078,0.018532082424400957,1.0032366201630352,-93.40293929677736,-20.00559,12.848646,17.570889,50.207577,-23.538515,-2.2826054,-22.725866,-10.574671,-14.6048,42.680305,-15.859869,2.120869,-0.33378926,3.5737233,15.058867,-12.050591,15.956879,-40.853615,59.223644,0.94538915,-0.09897083,9.483989,-22.049656,-21.933397,48.677235,52.267803,1.4908309,1.6918285,-6.0653415
46,2.413679361343384,11.452287673950195,76.04326629638672,0.1309430765494685,0.9086677240546632,-93.43684174470944,-19.753967,13.526382,18.190592,52.022377,-24.110731,-1.8224782,-23.117176,-10.8258505,-14.372635,43.173553,-15.867235,2.2434008,-0.2510294,3.4578586,15.143584,-12.107438,15.842063,-40.75923,59.238575,0.8824267,-0.059028514,9.758463,-22.473114,-22.06044,48.783314,52.567917,1.292562,1.7779711,-6.0176835
47,2.5450387001037598,11.674896240234375,75.94071197509766,0.22897466226681293,0.8038605622057963,-93.44656640502735,-19.449585,14.196771,18.66652,53.80881,-24.644602,-1.3733768,-23.467493,-11.071757,-14.163122,43.629173,-15.872201,2.3885517,-0.19612597,3.3411138,15.206256,-12.159762,15.739139,-40.680717,59.23848,0.822017,-0.018026158,9.993324,-22.838642,-22.16363,48.778374,52.85472,1.0957701,1.8689896,-5.982083
48,2.674515724182129,11.89889907836914,75.83915710449219,0.2988172239091077,0.698821948002097,-93.40065802607621,-19.12612,14.839686,18.955545,55.504967,-25.151514,-0.9710982,-23.773876,-11.318278,-14.016146,44.046917,-15.865915,2.555691,-0.19079684,3.2359102,15.244135,-12.218303,15.650623,-40.624683,59.225304,0.77909786,0.0035129415,10.201253,-23.122974,-22.247452,48.622044,53.088737,0.9535318,1.9353393,-5.980096
49,2.801405906677246,12.108295440673828,75.75021362304688,0.32498717465279253,0.5933154554039869,-93.28549514834378,-18.800838,15.444828,18.991896,57.108963,-25.63539,-0.63894695,-24.01564,-11.5553665,-13.958886,44.40662,-15.845452,2.7447436,-0.2450761,3.1557148,15.256286,-12.2832,15.578884,-40.59405,59.19692,0.7429479,0.0007814989,10.379731,-23.326584,-22.315632,48.296513,53.262302,0.8898385,1.9748323,-6.014941
50,2.943385124206543,12.318649291992188,75.65901184082031,0.3198233906223349,0.4832638102220028,-93.11927739947629,-18.462015,16.022934,18.818481,58.65107,-26.087343,-0.35717267,-24.201168,-11.78533,-13.965246,44.716015,-15.816004,2.9557998,-0.34515807,3.0904312,15.244388,-12.349421,15.525188,-40.587524,59.149967,0.70799524,-0.015381838,10.523511,-23.440376,-22.369923,47.804806,53.380306,0.85116833,2.0025256,-6.075794
51,3.0891354084014893,12.534518241882324,75.5712661743164,0.3087998479941105,0.3728177823929626,-92.91852197566648,-18.095942,16.585386,18.554998,60.109985,-26.504002,-0.095820785,-24.372244,-12.033588,-13.993622,45.018494,-15.782418,3.18863,-0.4716056,3.0164764,15.212089,-12.421341,15.488858,-40.60723,59.084152,0.7015382,-0.04110385,10.642093,-23.489231,-22.416441,47.210255,53.455875,0.8688208,2.0114002,-6.1634355
52,3.233328342437744,12.742635726928711,75.4844970703125,0.31836044356301496,0.265942175824542,-92.69963470389176,-17.686785,17.145212,18.320486,61.465218,-26.88324,0.17784275,-24.569021,-12.324573,-14.002598,45.354355,-15.747913,3.4435027,-0.61020315,2.912042,15.162788,-12.501615,15.468921,-40.65113,58.99887,0.7495895,-0.0730947,10.744477,-23.480207,-22.459026,46.558094,53.48885,0.94754344,1.9957172,-6.2791653
53,3.3977699279785156,12.968140602111816,75.38806915283203,0.3561192368617599,0.17018669827913918,-92.45662025261117,-17.246752,17.688635,18.106909,62.718113,-27.224611,0.4666202,-24.804527,-12.668797,-13.992073,45.733284,-15.711465,3.727067,-0.7558353,2.7718081,15.089359,-12.608521,15.46319,-40.747414,58.91447,0.88061017,-0.117525816,10.831605,-23.402225,-22.505838,45.813732,53.464912,1.1324973,1.9443513,-6.4397097
54,3.559415102005005,13.195493698120117,75.29176330566406,0.406326280573269,0.08112642057920515,-92.18429108527718,-16.780966,18.2176,17.864086,63.879047,-27.530167,0.75579333,-25.056223,-13.051088,-13.979741,46.133095,-15.672117,4.0378847,-0.92042565,2.609602,14.99373,-12.731791,15.471778,-40.88137,58.821026,1.0763774,-0.17381501,10.898798,-23.253883,-22.555616,44.972317,53.38008,1.4083207,1.8637322,-6.638692
55,3.732409715652466,13.423684120178223,75.1921615600586,0.4664862794779043,-0.015241989890328825,-91.9000808379652,-16.264395,18.769554,17.645391,64.94632,-27.804785,1.0519918,-25.311296,-13.457966,-13.951141,46.54984,-15.635538,4.364,-1.0890576,2.4281836,14.890795,-12.855265,15.492418,-41.022125,58.69321,1.2813582,-0.22814074,10.949042,-23.047598,-22.613062,44.10243,53.247795,1.6908566,1.7733395,-6.8403916
56,3.915548324584961,13.644702911376953,75.08844757080078,0.5340807937679525,-0.13310919803893725,-91.62189852568991,-15.66698,19.383121,17.509426,65.914856,-28.053843,1.361743,-25.557177,-13.875145,-13.8911,46.97843,-15.607452,4.693499,-1.2493545,2.2302942,14.796733,-12.960563,15.522057,-41.13299,58.50413,1.4437059,-0.26658502,10.984999,-22.833895,-22.686531,43.319317,53.103565,1.9480972,1.692675,-7.0100837
57,4.110137939453125,13.875116348266602,74.98074340820312,0.6156414583257565,-0.2827127219537319,-91.35356360590791,-14.96341,20.057774,17.476276,66.78482,-28.264257,1.6810149,-25.791206,-14.306964,-13.779911,47.428642,-15.594501,5.0383596,-1.4047161,2.0103548,14.722596,-13.044384,15.55882,-41.207924,58.255173,1.564024,-0.28512257,11.022352,-22.605652,-22.778465,42.60661,52.939533,2.1626198,1.6213328,-7.139149
58,4.311054229736328,14.110311508178711,74.86148834228516,0.7106397517811343,-0.45467728556028025,-91.08621881637964,-14.172969,20.777697,17.517284,67.55863,-28.438635,2.0081074,-26.01868,-14.756647,-13.631027,47.898354,-15.59251,5.4006906,-1.5600767,1.7709333,14.658135,-13.117066,15.602441,-41.26386,57.958763,1.6655853,-0.29143837,11.054509,-22.340801,-22.887806,41.91986,52.736607,2.3577204,1.5517503,-7.24598
59,4.526852130889893,14.347432136535645,74.73430633544922,0.8022959247562715,-0.6335549863161062,-90.81810105710737,-13.3355875,21.553968,17.614075,68.23699,-28.604244,2.3522162,-26.24129,-15.210034,-13.48014,48.366898,-15.589562,5.7523932,-1.7099992,1.5256584,14.586722,-13.174539,15.652614,-41.28858,57.602993,1.7368789,-0.2898823,11.050304,-22.060932,-23.019625,41.32359,52.513447,2.5418224,1.4926242,-7.3369102
60,4.746367931365967,14.59075927734375,74.60017395019531,0.8730864059727597,-0.8038216009093667,-90.54744609586253,-12.491265,22.396858,17.748554,68.820076,-28.787573,2.7217898,-26.462698,-15.654981,-13.362288,48.81724,-15.574683,6.064367,-1.8543062,1.2912606,14.49262,-13.210663,15.709982,-41.26563,57.171757,1.7651099,-0.28487355,10.977778,-21.757223,-23.176607,40.854538,52.263493,2.6887562,1.4543985,-7.4185705
61,4.9673333168029785,14.841224670410156,74.46416473388672,0.9227341956180083,-0.9601091665465931,-90.27933227343608,-11.632796,23.338129,17.95058,69.32155,-29.015001,3.1371293,-26.6992,-16.09169,-13.279469,49.270733,-15.556752,6.3220434,-1.9898976,1.067329,14.369518,-13.224347,15.776756,-41.18865,56.65965,1.7465935,-0.27123633,10.831254,-21.476357,-23.365757,40.579666,52.026043,2.8339028,1.4288958,-7.468279
62,5.208028316497803,15.09713077545166,74.32525634765625,0.9586534842467167,-1.1111608047510713,-90.01241651494698,-10.743152,24.359398,18.22251,69.73844,-29.266228,3.5856416,-26.944626,-16.526775,-13.215347,49.728294,-15.536359,6.5419936,-2.1227777,0.8487445,14.22756,-13.214064,15.854277,-41.061188,56.069485,1.6895992,-0.24843648,10.625894,-21.188284,-23.58663,40.445515,51.773693,2.9566348,1.4156281,-7.49078
63,5.44992733001709,15.363544464111328,74.19265747070312,0.9786767512020518,-1.2617091251732484,-89.73599904007874,-9.845228,25.396803,18.509186,70.04265,-29.497843,4.0258117,-27.168827,-16.95837,-13.175578,50.142673,-15.490081,6.7417192,-2.258008,0.63874334,14.074957,-13.177427,15.940609,-40.88965,55.404152,1.6004757,-0.2274574,10.3627405,-20.848846,-23.835499,40.383453,51.46385,3.0377297,1.4321822,-7.5340405
64,5.697676658630371,15.614749908447266,74.06703186035156,0.9792831296483063,-1.4161550376362166,-89.43878771841305,-8.96975,26.385347,18.74749,70.20977,-29.664848,4.4166,-27.341366,-17.385187,-13.167694,50.466637,-15.393719,6.938274,-2.4010022,0.4413625,13.918861,-13.11368,16.031355,-40.681774,54.67014,1.4840302,-0.21967731,10.042832,-20.390757,-24.104078,40.300175,51.038376,3.032162,1.4968266,-7.6461163
65,5.965912818908691,15.88700008392334,73.9511947631836,0.9606190002977086,-1.5779475840906898,-89.12344014225008,-8.103843,27.345688,18.951591,70.24602,-29.778784,4.752616,-27.467878,-17.809689,-13.191332,50.72037,-15.261557,7.126467,-2.5453248,0.2580342,13.758754,-13.02867,16.124916,-40.441193,53.858627,1.3105123,-0.22436856,9.649863,-19.835558,-24.391056,40.2112,50.516705,2.899534,1.631033,-7.823987
66,6.2422380447387695,16.162307739257812,73.84748840332031,0.9248818712254133,-1.7435000157517007,-88.79380707247223,-7.2408385,28.29814,19.145739,70.162476,-29.85466,5.053041,-27.561464,-18.233051,-13.2436905,50.920612,-15.09971,7.299335,-2.6891491,0.08576952,13.590133,-12.923206,16.22082,-40.166576,52.97514,1.087025,-0.2357032,9.189081,-19.198965,-24.696991,40.140602,49.916107,2.66567,1.8202229,-8.046902
67,6.533024311065674,16.444477081298828,73.75814056396484,0.8687841500064891,-1.907155406754503,-88.4402350258172,-6.421548,29.18021,19.280525,69.94087,-29.852398,5.3149667,-27.59935,-18.650394,-13.328928,51.008926,-14.870168,7.4722443,-2.8405807,-0.07938214,13.414585,-12.79371,16.314,-39.861263,52.052055,0.87375784,-0.25752756,8.695137,-18.434696,-25.016302,40.034378,49.199116,2.420924,2.0278928,-8.336813
68,6.848124980926514,16.73573112487793,73.6944351196289,0.7929769385317907,-2.0629260690719318,-88.05313378800045,-5.6887827,29.930021,19.303051,69.56315,-29.7322,5.5364065,-27.561108,-19.057089,-13.451098,50.931995,-14.53738,7.6610317,-3.0040019,-0.24221791,13.233225,-12.641234,16.395428,-39.531807,51.12759,0.7315959,-0.29538217,8.203496,-17.500137,-25.340994,39.838646,48.33256,2.2599466,2.2165647,-8.7162075
69,7.178968906402588,17.04102897644043,73.66045379638672,0.7042403316863122,-2.2127661845260485,-87.62579464094046,-5.05321,30.544779,19.195063,69.04351,-29.481058,5.7419314,-27.4617,-19.463188,-13.596368,50.725105,-14.1167755,7.868017,-3.175761,-0.4094356,13.040942,-12.473628,16.45785,-39.174076,50.20864,0.67673665,-0.36529568,7.690974,-16.348793,-25.665653,39.511227,47.262985,2.1911936,2.409727,-9.236489
70,7.518148422241211,17.35997772216797,73.6556625366211,0.598806165024377,-2.3579191104447066,-87.16450393118795,-4.495589,31.053501,18.980116,68.38806,-29.122467,5.9258046,-27.306438,-19.86671,-13.76804,50.402653,-13.619851,8.085716,-3.3495631,-0.57797325,12.83784,-12.299845,16.498405,-38.7938,49.29178,0.6752275,-0.46132797,7.15144,-15.025047,-25.990597,39.08994,46.03301,2.184176,2.6155276,-9.871206
71,7.877391815185547,17.700239181518555,73.68759155273438,0.4640146716742421,-2.49171475088547,-86.67924559626782,-4.0146613,31.443386,18.667038,67.56975,-28.67425,6.0418277,-27.056288,-20.242664,-13.997158,49.874374,-13.002718,8.316157,-3.5330694,-0.73419046,12.6313505,-12.114024,16.512938,-38.40235,48.394722,0.71587497,-0.5571449,6.645189,-13.555406,-26.308268,38.589504,44.702568,2.2082431,2.7744608,-10.526539
72,8.266500473022461,18.062667846679688,73.7569580078125,0.28844876169807965,-2.6071416498564624,-86.18009227714448,-3.6074247,31.702,18.264437,66.561165,-28.154741,6.0446167,-26.67304,-20.564816,-14.314942,49.05146,-12.221832,8.561597,-3.7332902,-0.8647753,12.427833,-11.911009,16.495905,-38.012268,47.53705,0.78810513,-0.626301,6.232777,-11.994896,-26.60748,38.051674,43.359318,2.2525327,2.825877,-11.108236
73,8.67154312133789,18.437644958496094,73.87247467041016,0.05513092736845185,-2.7078647424526663,-85.64924971395654,-3.2676144,31.847162,17.756145,65.3369,-27.587315,5.924669,-26.121801,-20.820566,-14.764404,47.90885,-11.290016,8.819627,-3.9709835,-0.957486,12.224482,-11.67525,16.44045,-37.6062,46.711765,0.91384983,-0.6620582,5.929075,-10.312653,-26.877277,37.46343,41.982376,2.3107414,2.720016,-11.61578
74,9.0967435836792,18.82623863220215,74.03280639648438,-0.2271120404492423,-2.7942510492931087,-85.08841530826928,-2.992399,31.882963,17.138517,63.92067,-26.963377,5.7100244,-25.432215,-21.018356,-15.3169,46.497707,-10.224445,9.092181,-4.2382402,-1.0211741,12.016315,-11.418036,16.343452,-37.183487,45.922874,1.0911132,-0.6796675,5.703013,-8.509344,-27.109907,36.827934,40.56014,2.394399,2.4988089,-12.090769
75,9.541389465332031,19.234050750732422,74.22864532470703,-0.5247316327552072,-2.8552076465306544,-84.53616124131119,-2.7870653,31.774237,16.431885,62.361603,-26.253712,5.411769,-24.663677,-21.163258,-15.896867,44.841225,-8.986375,9.388501,-4.506406,-1.0744094,11.803209,-11.166147,16.206587,-36.774284,45.203003,1.2752085,-0.6850808,5.5453796,-6.66445,-27.295952,36.19734,39.18184,2.4870415,2.239871,-12.502956
76,9.992798805236816,19.65985870361328,74.46478271484375,-0.8094745062222618,-2.8805439041067595,-84.0320673789141,-2.6517582,31.487204,15.662897,60.702976,-25.429068,5.03916,-23.878233,-21.261541,-16.42584,42.962948,-7.53756,9.718613,-4.749074,-1.1378388,11.584313,-10.942694,16.03498,-36.404915,44.580814,1.4227649,-0.68359023,5.446661,-4.8722863,-27.425455,35.63154,37.949905,2.5793447,2.0205927,-12.823639
77,10.463685989379883,20.106149673461914,74.72473907470703,-1.0735503080957978,-2.869195249779261,-83.57465956322244,-2.6338422,30.958677,14.742449,58.908302,-24.421467,4.7103667,-23.043629,-21.285784,-16.907269,40.78101,-5.88586,10.079007,-4.966699,-1.2262037,11.360985,-10.744562,15.830491,-36.06462,44.059887,1.5442529,-0.6648787,5.4377513,-3.1380556,-27.485205,35.15879,36.8896,2.7179706,1.8238245,-13.059459
78,10.962150573730469,20.571569442749023,74.99943542480469,-1.336591609028169,-2.825764334383579,-83.14745053053986,-2.707718,30.236883,13.680337,56.979504,-23.276628,4.3870826,-22.150043,-21.231487,-17.369236,38.31515,-4.047509,10.470504,-5.178077,-1.329377,11.127915,-10.557462,15.593801,-35.738533,43.626102,1.6560869,-0.6291574,5.512391,-1.4471753,-27.468006,34.766663,35.979507,2.893967,1.6193559,-13.222479
79,11.458327293395996,21.188501358032227,75.2421875,-1.589589358975664,-2.7505747533277596,-82.76713137057722,-2.7706769,29.441912,12.648583,54.997746,-22.134604,3.840766,-21.295692,-21.144611,-17.770887,35.742683,-1.9959046,10.9075985,-5.3824425,-1.4283986,10.877367,-10.387596,15.3312845,-35.44881,43.27582,1.7218398,-0.5972331,5.6049385,0.15790404,-27.376162,34.43554,35.22769,3.0055795,1.466378,-13.293752
80,12.016094207763672,21.6916561126709,75.52272033691406,-1.8261476122259128,-2.6439503582609962,-82.45033405072436,-2.729887,28.680407,11.819221,53.030518,-21.128891,2.8388908,-20.577543,-21.074997,-18.071444,33.23977,0.29826224,11.401987,-5.5754514,-1.5047671,10.604131,-10.24063,15.05313,-35.220066,43.001583,1.7051917,-0.5899908,5.649798,1.6398748,-27.22137,34.13792,34.63604,2.9518645,1.424598,-13.253687
81,12.588125228881836,22.21287727355957,75.7988510131836,-2.0601462325996227,-2.4974399083942127,-82.20546001068186,-2.526355,27.950335,11.2315,50.958427,-20.200577,1.0988206,-20.00114,-21.023159,-18.305264,30.772886,2.9973757,11.9384985,-5.7511992,-1.5412184,10.2994375,-10.0910225,14.76122,-35.05334,42.79428,1.556789,-0.6199395,5.6562676,3.0159075,-27.012272,33.87527,34.198307,2.712007,1.5538276,-13.0810585
82,13.191032409667969,22.76971435546875,76.04385375976562,-2.2926285219109905,-2.313284363418541,-82.02426029678426,-2.2235982,27.194155,10.794911,48.760983,-19.304565,-1.1818647,-19.54375,-20.955675,-18.465338,28.30425,6.0230656,12.514418,-5.9094825,-1.5472085,9.970622,-9.941576,14.455868,-34.9389,42.6524,1.3091178,-0.6731829,5.6498694,4.304019,-26.753813,33.652817,33.90463,2.3350506,1.8063757,-12.789427
83,13.813233375549316,23.38222312927246,76.23231506347656,-2.5046637185527714,-2.107679673984553,-81.89820692403914,-1.9206766,26.438168,10.495895,46.65504,-18.584534,-3.521629,-19.23863,-20.87993,-18.45222,25.967121,9.062301,13.161061,-6.0520062,-1.5427979,9.640588,-9.8412,14.149197,-34.890644,42.573307,1.0427868,-0.73029804,5.5895624,5.471446,-26.456377,33.445114,33.744728,1.8323243,2.0801373,-12.412365
84,14.434931755065918,24.01115608215332,76.38594055175781,-2.6686688747362366,-1.8984974405296162,-81.81704678783795,-1.7175637,25.711843,10.333113,44.869293,-18.182987,-5.437872,-19.104956,-20.82212,-18.166895,23.881374,11.809615,13.914183,-6.1790843,-1.5545337,9.335574,-9.834751,13.861415,-34.923462,42.544804,0.83722943,-0.77126604,5.4338093,6.484674,-26.134876,33.225273,33.704533,1.2203121,2.2733564,-11.984019
85,15.06531810760498,24.651142120361328,76.49063873291016,-2.7704022826433747,-1.6776304053012026,-81.79749180680703,-1.6496907,25.024008,10.367526,43.486088,-18.156378,-6.784802,-19.106457,-20.822994,-17.637478,21.873487,14.42599,14.849879,-6.2872396,-1.5918028,9.050534,-9.909606,13.60628,-35.045734,42.55149,0.67693716,-0.7992946,5.156228,7.364482,-25.79859,32.95831,33.764633,0.43340975,2.3532658,-11.4539
86,15.691147804260254,25.303442001342773,76.52749633789062,-2.97735531316016,-1.3953759274329993,-81.93179363236911,-1.7314595,24.582342,10.610977,42.44825,-18.433535,-7.88829,-19.15821,-20.669624,-17.307343,19.666935,17.141226,15.000033,-6.2911105,-1.491338,8.751549,-10.035944,13.386478,-35.249622,42.577618,0.52670765,-0.82055974,4.7827,8.129474,-25.453007,32.65936,33.917538,-0.5128209,2.3699977,-10.822886
87,16.321069717407227,25.955455780029297,76.50082397460938,-3.157164654633471,-1.1252438463348509,-82.08701087496665,-1.8902085,24.164692,10.939064,41.637737,-18.920815,-8.832286,-19.323193,-20.525965,-16.780466,17.77661,19.457052,15.000033,-6.284471,-1.402536,8.501938,-10.231717,13.207941,-35.52428,42.610477,0.43937713,-0.81961167,4.3485,8.747489,-25.107672,32.378708,34.161438,-1.4778628,2.352825,-10.204951
88,16.926979064941406,26.643207550048828,76.42528533935547,-3.3113251760377427,-0.8989857971422817,-82.21566449377198,-2.0968463,23.748281,11.245029,40.988792,-19.550375,-9.748493,-19.62833,-20.366411,-15.88098,16.543776,20.958736,15.000033,-6.285059,-1.3367946,8.335817,-10.512646,13.079148,-35.85589,42.6328,0.466909,-0.7822432,3.8883476,9.188135,-24.77477,32.168064,34.493786,-2.324422,2.3373718,-9.71313
89,17.528100967407227,27.343669891357422,76.3003921508789,-3.4446862743802957,-0.7146070377075413,-82.31593066979383,-2.3366587,23.338085,11.520156,40.46922,-20.328611,-10.748165,-20.137722,-20.14324,-14.36339,16.104118,21.417149,15.000033,-6.3016167,-1.2822936,8.256131,-10.884734,13.0101385,-36.261032,42.614178,0.66191477,-0.69851816,3.369589,9.444822,-24.464874,32.022907,34.90175,-3.0740414,2.332855,-9.334972
90,18.156553268432617,28.028038024902344,76.13371276855469,-3.5627814513048754,-0.5604243664991458,-82.40891590345002,-2.635048,22.958126,11.8151,40.13272,-21.29509,-11.735087,-20.827154,-19.866941,-12.372003,16.320578,21.04835,15.000033,-6.3279915,-1.2260903,8.253624,-11.327505,13.003558,-36.738045,42.5508,0.9825345,-0.5804367,2.7852094,9.540069,-24.18225,31.921616,35.376915,-3.7792327,2.3248692,-9.023847
91,18.768272399902344,28.732595443725586,75.92084503173828,-3.6755061275937115,-0.4479035614208901,-82.48855216546482,-3.0206754,22.614481,12.11509,40.038696,-22.424013,-12.533873,-21.62064,-19.59956,-10.351381,17.149708,20.095415,15.000033,-6.356016,-1.1758946,8.337968,-11.820735,13.053607,-37.24329,42.470585,1.3404471,-0.44599092,2.2091837,9.478188,-23.92718,31.899267,35.93256,-4.3407,2.3198984,-8.84074
92,19.389467239379883,29.443342208862305,75.68103790283203,-3.7779464380981085,-0.38788518193389504,-82.54788783984472,-3.515384,22.28865,12.403254,40.238945,-23.676788,-12.972838,-22.450418,-19.431532,-8.734668,18.524054,18.833647,15.000033,-6.3806,-1.1547784,8.513942,-12.348007,13.15087,-37.728806,42.41099,1.648672,-0.31128338,1.7159525,9.262265,-23.69662,31.993013,36.58609,-4.6614556,2.3257139,-8.847696
93,20.002153396606445,30.18437385559082,75.4119873046875,-3.8568235844230134,-0.3890749041492979,-82.60618316411647,-4.116579,21.9709,12.696695,40.78525,-25.129374,-12.958982,-23.332571,-19.360706,-7.546599,20.46593,17.26092,15.000033,-6.386648,-1.1783949,8.791321,-12.925893,13.291506,-38.18324,42.357323,1.9230524,-0.16129906,1.2941791,8.85601,-23.491741,32.250824,37.356827,-4.6635084,2.3561807,-9.134109
94,20.60553741455078,30.91781234741211,75.12687683105469,-3.91551676556662,-0.43866744981165773,-82.66468954232889,-4.8151727,21.65877,12.987995,41.639313,-26.768723,-12.60679,-24.328041,-19.340849,-6.573278,23.029467,15.247941,15.000033,-6.38158,-1.2312334,9.15865,-13.559983,13.475531,-38.62573,42.302963,2.1996117,0.0061150067,0.91474307,8.267204,-23.311897,32.64349,38.23197,-4.4128485,2.4032173,-9.643687
95,21.198637008666992,31.638986587524414,74.83026123046875,-3.9535840401975366,-0.5198374903239251,-82.68277382375835,-5.605677,21.321003,13.225299,42.6987,-28.412369,-12.05378,-25.365648,-19.434761,-5.8954077,26.047926,12.962527,15.000033,-6.39481,-1.3092738,9.590832,-14.223221,13.698055,-39.059917,42.30381,2.4199784,0.15883586,0.62630755,7.569281,-23.147005,33.087345,39.178947,-4.031674,2.4420643,-10.219468
96,21.768280029296875,32.40456771850586,74.52237701416016,-3.965830875139278,-0.6192388591241808,-82.61675399275403,-6.481527,20.926043,13.364486,43.861954,-29.876772,-11.435254,-26.35619,-19.724005,-5.5845385,29.333431,10.578526,15.000033,-6.4555006,-1.4140339,10.063967,-14.8917055,13.950035,-39.492153,42.422977,2.5268707,0.26515782,0.4787488,6.832914,-22.98218,33.498253,40.17337,-3.6432786,2.4510753,-10.704286
97,22.364543914794922,33.1434326171875,74.22464752197266,-3.9437442972610572,-0.7606890304905963,-82.43347005289974,-7.441619,20.457493,13.405148,45.163002,-31.160906,-10.717967,-27.251966,-20.2976,-5.700334,32.903748,8.069128,15.000033,-6.5872397,-1.5633253,10.611674,-15.599878,14.226911,-39.942272,42.68291,2.4677715,0.32255206,0.5124572,6.040646,-22.805841,33.858513,41.2493,-3.257708,2.4107366,-11.091059
98,22.945585250854492,33.885318756103516,73.93966674804688,-3.8829292292360784,-0.9514800490167283,-82.1508429598732,-8.471544,19.914051,13.366054,46.625576,-32.34518,-9.848502,-28.047392,-21.141533,-6.168056,36.76168,5.394382,15.000033,-6.772885,-1.7665262,11.239244,-16.358824,14.525827,-40.40818,43.062096,2.285502,0.34631425,0.6937079,5.167958,-22.613842,34.20097,42.412994,-2.8219118,2.3364835,-11.452218
99,23.49256706237793,34.663265228271484,73.67961120605469,-3.78744018841378,-1.1539258233543537,-81.80070886151533,-9.545163,19.290709,13.244309,48.13509,-33.364536,-8.932599,-28.723345,-22.179934,-6.8530145,40.72424,2.7006357,15.000033,-6.9822593,-2.0112715,11.879391,-17.112776,14.838623,-40.864376,43.565926,2.0630968,0.33135948,0.9608111,4.271441,-22.40605,34.522343,43.606815,-2.365137,2.263342,-11.750481
100,24.022008895874023,35.3934211730957,73.43618774414062,-3.663497449128524,-1.3287345484006912,-81.417668722156,-10.640858,18.587793,13.042469,49.5808,-34.15319,-8.079253,-29.275536,-23.322977,-7.623612,44.628918,0.12150766,15.000033,-7.1822414,-2.2786372,12.463004,-17.80897,15.154133,-41.287308,44.20542,1.8821093,0.27295315,1.2520461,3.4145055,-22.184782,34.818165,44.767418,-1.9186385,2.2274435,-11.948269
101,24.505889892578125,36.10670471191406,73.21308135986328,-3.7148077015621763,-1.4068691643657862,-81.1018134042268,-11.922752,18.109917,12.68566,51.119133,-34.668465,-7.4062366,-29.680279,-24.499275,-9.069482,48.414555,-2.3166537,13.701908,-7.2710986,-2.3601487,12.943519,-18.465374,15.466628,-41.713196,45.033455,1.7446623,0.13522217,1.585438,2.611651,-21.945438,35.06429,45.915756,-1.474551,2.2449548,-12.019159
102,24.993362426757812,36.7930793762207,73.02650451660156,-3.912576614432905,-1.4125621981659908,-80.83616185438258,-13.370811,17.820751,12.204498,52.766167,-34.957577,-6.845761,-29.90376,-25.764381,-11.129607,52.167274,-4.7414627,11.21015,-7.266263,-2.2905915,13.354385,-19.107977,15.772935,-42.144257,46.0416,1.6149151,-0.068090126,1.983076,1.8298485,-21.687529,35.268433,47.079323,-1.0227125,2.2961152,-11.989178
103,25.480228424072266,37.47911071777344,72.84765625,-4.108575960035183,-1.3979118385497546,-80.59490498389256,-14.7861,17.521896,11.753101,54.321156,-35.13624,-6.301685,-29.95226,-27.004187,-13.151835,55.822193,-7.1184134,8.663686,-7.2133136,-2.2132368,13.717818,-19.686462,16.064003,-42.494892,47.14721,1.5231508,-0.26659375,2.3900235,1.0557474,-21.427013,35.48309,48.205425,-0.5880951,2.3624458,-11.899432
104,25.930591583251953,38.17259216308594,72.66775512695312,-4.276836412813832,-1.381650815001884,-80.42620640385854,-16.031763,17.207539,11.476593,55.64407,-35.34788,-5.7210193,-29.87847,-27.986555,-14.810825,59.24738,-9.312473,6.414162,-7.097327,-2.1493576,14.035533,-20.147118,16.32865,-42.671997,48.267815,1.4997848,-0.38968047,2.7516952,0.27312997,-21.192686,35.770985,49.23787,-0.18899891,2.425104,-11.790322
105,26.403823852539062,38.815025329589844,72.50309753417969,-4.422698772736737,-1.3712900566186725,-80.35115218425486,-17.06462,16.902536,11.416145,56.693108,-35.63742,-5.0859265,-29.719852,-28.680342,-16.098553,62.45306,-11.262658,4.462641,-6.9080634,-2.0777302,14.308628,-20.475563,16.554956,-42.652634,49.434345,1.5879552,-0.42856833,3.0396378,-0.5214088,-21.009695,36.17052,50.175125,0.2010371,2.4910014,-11.646864
106,26.87268829345703,39.45774841308594,72.3466567993164,-4.5577971324212045,-1.3553453487846592,-80.34173089131242,-17.965858,16.608807,11.489118,57.54568,-35.926502,-4.4258733,-29.474089,-29.186749,-17.186611,65.50954,-13.029198,2.6438122,-6.6589584,-1.9846842,14.534902,-20.698572,16.739437,-42.476635,50.678963,1.7646171,-0.41765097,3.2867956,-1.3052211,-20.885212,36.650436,51.017868,0.5896641,2.5686388,-11.453537
107,27.32982063293457,40.1223258972168,72.20106506347656,-4.6595484297872245,-1.3243045018544843,-80.37387957229531,-18.786463,16.290792,11.653742,58.242775,-36.16823,-3.7567801,-29.171108,-29.475773,-18.032946,68.37391,-14.6189165,1.0656068,-6.3686576,-1.9043982,14.711986,-20.828014,16.888681,-42.151634,51.92192,1.9522097,-0.35204452,3.5311484,-2.0497677,-20.818747,37.161133,51.70738,0.92220026,2.640212,-11.249411
108,27.789180755615234,40.76824951171875,72.07463073730469,-4.703441989412585,-1.2686785019465132,-80.42338234647342,-19.575903,15.912967,11.871178,58.827057,-36.3199,-3.0948977,-28.847498,-29.510609,-18.597225,71.00632,-16.031221,-0.15704432,-6.0573983,-1.8741349,14.83914,-20.869493,17.017624,-41.682163,53.074482,2.07314,-0.22684751,3.810861,-2.7311044,-20.80557,37.650837,52.18828,1.1401973,2.686818,-11.074059
109,28.244226455688477,41.388633728027344,71.96669006347656,-4.66427703748727,-1.1733407165983119,-80.49723253206484,-20.335638,15.447391,12.172439,59.27675,-36.36775,-2.4296558,-28.57417,-29.242743,-18.793198,73.40362,-17.20144,-0.92431027,-5.7186093,-1.9247453,14.908181,-20.811567,17.136097,-41.029938,54.10193,2.1651485,0.007937963,4.1159477,-3.353891,-20.845343,38.11914,52.43043,1.2179388,2.7048924,-10.937438
110,28.697956085205078,42.025177001953125,71.87389373779297,-4.56167303082179,-1.0472307203940827,-80.6035303351488,-21.042048,14.92174,12.567063,59.579006,-36.338078,-1.7558768,-28.33371,-28.699917,-18.696377,75.59693,-18.128246,-1.3139112,-5.348173,-2.0333772,14.925921,-20.642155,17.24714,-40.20224,55.035664,2.2472801,0.33416882,4.4317245,-3.9321892,-20.939762,38.591656,52.467766,1.1891785,2.703068,-10.818098
111,29.12856101989746,42.648773193359375,71.79959106445312,-4.4397033018650705,-0.9162547659899969,-80.7202171236028,-21.702837,14.380078,12.986477,59.78284,-36.241222,-1.097187,-28.02373,-27.955914,-18.506477,77.580894,-18.900717,-1.4772248,-4.968527,-2.157747,14.914706,-20.365923,17.357754,-39.274734,55.8842,2.2137568,0.65298295,4.7915125,-4.457441,-21.083754,39.05318,52.34168,1.0846641,2.680408,-10.708932
112,29.561492919921875,43.24750900268555,71.7365951538086,-4.345089321434126,-0.8063591765700253,-80.82498338367728,-22.326694,13.865083,13.36117,59.939102,-36.088478,-0.47667983,-27.541672,-27.084942,-18.41052,79.34384,-19.609053,-1.5682302,-4.598355,-2.2563345,14.895588,-19.9922,17.476984,-38.329273,56.657936,1.9570109,0.86420494,5.229981,-4.9232078,-21.26805,39.48747,52.098965,0.9383306,2.6357648,-10.603216
113,29.989665985107422,43.841922760009766,71.68292236328125,-4.281270302435157,-0.7192408404667942,-80.9103422758117,-22.923586,13.378332,13.671196,60.059647,-35.86728,0.08670113,-26.894108,-26.056635,-18.390793,80.89846,-20.258732,-1.5883353,-4.235895,-2.3276575,14.869625,-19.506779,17.6078,-37.328205,57.334812,1.3967782,0.9381067,5.777729,-5.3227577,-21.489092,39.883297,51.725643,0.71708065,2.562949,-10.50781
114,30.407995223999023,44.41935348510742,71.64752197265625,-4.229018680704878,-0.6428370979580766,-80.98829345794857,-23.486366,12.899712,13.954266,60.119076,-35.57871,0.6095274,-26.13139,-24.843355,-18.371365,82.24224,-20.806412,-1.467487,-3.8741143,-2.3939009,14.8269205,-18.90145,17.750261,-36.24695,57.90732,0.6092755,0.9230423,6.40826,-5.6644535,-21.746109,40.25192,51.210506,0.41514686,2.463974,-10.424254
115,30.805158615112305,44.98373794555664,71.63206481933594,-4.18891125692052,-0.5844529548703862,-81.0658084664668,-23.997261,12.437647,14.225349,60.110676,-35.244865,1.1212636,-25.223164,-23.527245,-18.434973,83.34145,-21.2601,-1.2565892,-3.5226862,-2.450173,14.770599,-18.201551,17.911098,-35.192677,58.413525,-0.28226042,0.8364476,7.0709066,-5.9676285,-22.031744,40.609936,50.61173,0.1062882,2.349429,-10.33772
116,31.19894027709961,45.535072326660156,71.6317138671875,-4.167178468082615,-0.550857378466525,-81.14941924479234,-24.439302,12.000804,14.499522,60.030502,-34.891037,1.6514436,-24.137486,-22.191288,-18.659246,84.15564,-21.631512,-1.0091714,-3.1887562,-2.4936938,14.703889,-17.431065,18.099014,-34.269096,58.889053,-1.149167,0.7002585,7.715651,-6.246934,-22.332876,40.964775,49.988316,-0.14348881,2.229254,-10.233211
117,31.591161727905273,46.08519744873047,71.6466064453125,-4.173004741984029,-0.5567126550647441,-81.25032006714551,-24.791454,11.61248,14.7855625,59.88497,-34.53363,2.2014296,-22.826515,-20.841404,-19.098417,84.66932,-21.899963,-0.7556963,-2.8661532,-2.5181577,14.633761,-16.580986,18.32387,-33.466743,59.342354,-2.0475354,0.46151346,8.361408,-6.523811,-22.640575,41.342518,49.367615,-0.32476574,2.09254,-10.097742
118,31.971580505371094,46.62104034423828,71.6774673461914,-4.20014474580689,-0.594440118226765,-81.36123858995138,-25.068085,11.258955,15.073204,59.674397,-34.156734,2.7580614,-21.332106,-19.433002,-19.67925,84.89886,-22.062725,-0.46542135,-2.5575564,-2.532094,14.555602,-15.635887,18.589241,-32.737137,59.745026,-3.014691,0.12638438,9.019565,-6.7905955,-22.950357,41.731045,48.726936,-0.4755185,1.937497,-9.94326
119,32.349090576171875,47.15096664428711,71.7222671508789,-4.22571284895846,-0.6377217610532074,-81.46189636630024,-25.305017,10.892744,15.350721,59.38599,-33.737404,3.3299422,-19.753857,-17.975008,-20.290428,84.853905,-22.151579,-0.09908882,-2.2776606,-2.5552392,14.454754,-14.623619,18.890839,-32.13375,60.09028,-3.8999028,-0.18710473,9.634198,-7.0321846,-23.256092,42.090134,48.06194,-0.58454716,1.7878418,-9.792064
120,32.72679138183594,47.674659729003906,71.78079986572266,-4.226933706418384,-0.6600053173242882,-81.53212596591129,-25.537241,10.466362,15.608079,59.005333,-33.25283,3.9260933,-18.186325,-16.480787,-20.830858,84.547554,-22.20257,0.38208765,-2.034399,-2.6061177,14.314982,-13.589914,19.21796,-31.726858,60.390842,-4.563584,-0.35712612,10.156164,-7.223161,-23.55066,42.36621,47.36564,-0.6482253,1.6673349,-9.666147
121,33.09805679321289,48.192073822021484,71.85601806640625,-4.193197052936397,-0.6540346316464116,-81.5641612202346,-25.772327,9.958528,15.840502,58.527485,-32.696674,4.5561595,-16.599258,-14.980354,-21.34097,83.96053,-22.253952,0.99676913,-1.8337597,-2.6976037,14.118451,-12.558096,19.56686,-31.593267,60.689323,-4.9613996,-0.34006009,10.618384,-7.3659225,-23.828575,42.55368,46.648293,-0.6880656,1.585001,-9.55982
122,33.46833801269531,48.71221923828125,71.94001007080078,-4.133857199847438,-0.6339994868166255,-81.57054228473756,-25.989946,9.391557,16.061785,57.95974,-32.083138,5.2150764,-14.96367,-13.460369,-21.845228,83.094864,-22.279617,1.7195613,-1.6604584,-2.8208919,13.874241,-11.52165,19.937254,-31.68614,60.9925,-5.1744523,-0.20007235,11.037731,-7.4707556,-24.089052,42.670322,45.922165,-0.6994538,1.5268167,-9.465292
123,33.85024642944336,49.23432922363281,72.04116821289062,-4.060941367676263,-0.6052527111827689,-81.56091183419083,-26.182718,8.791465,16.284002,57.305996,-31.42024,5.882113,-13.363491,-11.87352,-22.237106,81.99318,-22.222078,2.5195282,-1.494432,-2.9521174,13.607902,-10.476795,20.319258,-31.88379,61.256413,-5.246051,0.025392666,11.342571,-7.5123,-24.331299,42.690693,45.170452,-0.647844,1.4828826,-9.40182
124,34.23177719116211,49.77090835571289,72.14947509765625,-3.984844113341859,-0.5729440658751039,-81.54555614221763,-26.344227,8.181988,16.520605,56.569546,-30.714167,6.537514,-11.88306,-10.179994,-22.4059,80.70761,-22.026964,3.3696277,-1.3149172,-3.0703857,13.344096,-9.420509,20.696003,-32.066105,61.43985,-5.2175956,0.2978332,11.460685,-7.461615,-24.555408,42.58735,44.374054,-0.50087357,1.4436014,-9.388496
125,34.61922073364258,50.29929733276367,72.26732635498047,-3.894412284077624,-0.5328124092473951,-81.51301796729219,-26.472645,7.542095,16.776253,55.73488,-29.962614,7.1815124,-10.516259,-8.396969,-22.349678,79.24647,-21.719969,4.2134833,-1.1270509,-3.1848536,13.078234,-8.368002,21.057003,-32.25479,61.557625,-5.0051775,0.66930854,11.320319,-7.308862,-24.761337,42.335144,43.525314,-0.22011848,1.4166541,-9.437431
126,35.001014709472656,50.83953094482422,72.3902359008789,-3.786646115173127,-0.48396895832622505,-81.46249881590388,-26.56893,6.865578,17.045008,54.801178,-29.162123,7.8221745,-9.211801,-6.5487185,-22.118834,77.58645,-21.325266,5.075489,-0.9363845,-3.2986205,12.79867,-7.3262153,21.400564,-32.500412,61.64031,-4.6151123,1.1370103,10.976495,-7.0690026,-24.94948,41.95239,42.637363,0.16851869,1.40395,-9.536392
127,35.39599609375,51.37696075439453,72.52139282226562,-3.6914767858564974,-0.4366067320049654,-81.42023780985177,-26.636637,6.200846,17.321491,53.80406,-28.32182,8.452179,-7.974911,-4.610656,-21.684925,75.72699,-20.800606,6.0483627,-0.7245981,-3.3829284,12.520052,-6.2703576,21.71999,-32.716476,61.66125,-4.214076,1.581011,10.548626,-6.756006,-25.120848,41.482803,41.723286,0.60522443,1.3870189,-9.668149
128,35.79848861694336,51.934654235839844,72.65290069580078,-3.6369262744430895,-0.4009198686180413,-81.41255152147336,-26.678186,5.5972757,17.599426,52.773434,-27.448174,9.065016,-6.807918,-2.5566554,-21.01495,73.66688,-20.102886,7.228498,-0.47946095,-3.4082005,12.256654,-5.173955,22.007565,-32.81308,61.592896,-3.9754944,1.8846557,10.15977,-6.39119,-25.275618,40.98165,40.799007,1.0361788,1.347563,-9.816056
129,36.20337677001953,52.503807067871094,72.79334259033203,-3.634494806632247,-0.3788742775284611,-81.45026667799053,-26.699484,5.077063,17.87489,51.73125,-26.552305,9.662073,-5.6900997,-0.30763844,-20.025917,71.336655,-19.199024,8.776137,-0.19222158,-3.36229,12.008063,-4.0209336,22.257133,-32.76821,61.426277,-3.9027903,2.016572,9.812528,-5.9649787,-25.413685,40.44134,39.85085,1.4644917,1.2863268,-9.992587
130,36.607425689697266,53.070594787597656,72.94673156738281,-3.666166281502714,-0.3652045751162766,-81.51804472335914,-26.69721,4.6105638,18.151577,50.654114,-25.625938,10.246823,-4.5867124,2.0849504,-18.738491,68.75542,-18.146255,10.588672,0.12507151,-3.2631712,11.766084,-2.8283248,22.466084,-32.62725,61.180008,-3.9183505,2.0400436,9.453129,-5.4733152,-25.53358,39.84375,38.876728,1.9136714,1.210934,-10.201563
131,37.0277214050293,53.64580154418945,73.10452270507812,-3.718411911779648,-0.35829668776242735,-81.60310229464626,-26.669403,4.1730514,18.43398,49.52391,-24.647116,10.815622,-3.4890776,4.4563465,-17.279333,66.05718,-17.023273,12.376524,0.45305106,-3.128616,11.532727,-1.6157835,22.631372,-32.397133,60.862988,-4.070614,1.9848789,9.120944,-4.9576283,-25.633766,39.237896,37.921917,2.3660386,1.1130358,-10.412774
132,37.4404182434082,54.21814727783203,73.26821899414062,-3.7782476477966527,-0.3567002647630941,-81.69299803610109,-26.613056,3.7405453,18.725632,48.320614,-23.593147,11.364168,-2.4097948,6.6492167,-15.790572,63.37743,-15.880819,13.856302,0.76705843,-2.9751832,11.309421,-0.39802942,22.750433,-32.077286,60.482113,-4.4048915,1.8808959,8.854862,-4.463835,-25.711891,38.680134,37.03826,2.8035588,0.9844025,-10.596436
133,37.85252380371094,54.81425476074219,73.44147491455078,-3.859823604991176,-0.36301713585680684,-81.79316086367658,-26.516905,3.3263073,19.023365,47.031773,-22.477394,11.893183,-1.3536333,8.723182,-14.232542,60.672028,-14.573671,15.000033,1.0658416,-2.7944117,11.094177,0.8432335,22.82101,-31.645641,60.01779,-5.0471315,1.6986568,8.661906,-3.9924388,-25.764221,38.175285,36.22064,3.218477,0.81727576,-10.73836
134,38.2425651550293,55.43189239501953,73.6158447265625,-4.086381859680067,-0.3521693275586526,-81.96718370492516,-26.492311,3.1339104,19.270887,45.836296,-21.37852,12.3635845,-0.30261278,10.830979,-12.759121,57.804153,-13.032418,15.000033,1.4107538,-2.467362,10.853638,2.110473,22.840694,-31.109997,59.473965,-5.93554,1.4362148,8.51831,-3.5300698,-25.788141,37.70518,35.457035,3.6230783,0.6178426,-10.856399
135,38.672882080078125,56.06069564819336,73.79353332519531,-4.2788735643544715,-0.3527917814711872,-82.12095530999731,-26.435463,2.8875284,19.540546,44.569153,-20.182524,12.824221,0.7382734,12.681823,-11.260511,55.006584,-11.601043,15.000033,1.7369831,-2.1616642,10.627097,3.3507836,22.808731,-30.543638,58.90411,-6.8457155,1.1636097,8.421857,-3.08391,-25.780012,37.275444,34.784996,4.0215397,0.39792782,-10.97098
136,39.09461212158203,56.702728271484375,73.9629898071289,-4.389641401669719,-0.35958258176844116,-82.23036375135908,-26.349293,2.5175467,19.850601,43.208717,-18.834867,13.279251,1.7239001,14.097494,-9.904053,52.440994,-10.5528965,15.000033,1.9859654,-1.9211671,10.434913,4.5558853,22.71002,-29.908102,58.327682,-7.4985127,0.94874364,8.367581,-2.7052581,-25.7483,36.931118,34.240116,4.4166055,0.17151389,-11.09455
137,39.532222747802734,57.351417541503906,74.13674926757812,-4.410792906060102,-0.37370188196068166,-82.30397265365896,-26.209322,2.0162148,20.214458,41.712463,-17.333261,13.758195,2.6393704,15.071595,-8.7183,50.107944,-9.983181,15.000033,2.2062407,-1.7573369,10.258745,5.7050548,22.543573,-29.260208,57.762108,-7.870878,0.8103598,8.406069,-2.360222,-25.688368,36.67489,33.831535,4.867513,-0.090690725,-11.256077
138,39.98765563964844,58.03799057006836,74.30705261230469,-4.372323493347485,-0.3924563642623936,-82.35572979018895,-26.021908,1.4224169,20.619064,40.088856,-15.693599,14.247957,3.463226,15.704447,-7.6760387,47.950546,-9.736029,15.000033,2.3960612,-1.640339,10.097253,6.814097,22.30513,-28.567797,57.191223,-8.0769615,0.7094878,8.52345,-2.0512195,-25.600424,36.497032,33.543144,5.3490186,-0.38529724,-11.436564
139,40.462127685546875,58.73164367675781,74.46483612060547,-4.297116189110185,-0.40164746134138934,-82.37827154310142,-25.856855,0.77240777,21.034298,38.427902,-13.906805,14.683515,4.123466,16.011103,-6.8728666,46.03785,-9.712417,15.000033,2.5431871,-1.5326096,9.951425,7.8255463,21.99659,-27.896206,56.6735,-8.156787,0.627946,8.6380825,-1.7942492,-25.485996,36.350212,33.375706,5.754458,-0.65287447,-11.597412
140,40.940643310546875,59.47206497192383,74.60002136230469,-4.271580648037478,-0.38056888997578414,-82.38387042265381,-25.83586,0.19432019,21.399176,36.920074,-12.008828,14.981596,4.5633755,16.07495,-6.454506,44.384686,-9.769643,14.678743,2.6584156,-1.3403125,9.811877,8.679406,21.62523,-27.31596,56.268234,-8.151461,0.54798436,8.668281,-1.5993078,-25.349224,36.178696,33.326157,5.9755745,-0.83235383,-11.700746
141,41.417606353759766,60.224449157714844,74.7237548828125,-4.341396907179029,-0.304722368706388,-82.38880917620985,-26.032337,-0.2063132,21.722021,35.66405,-9.9782915,15.000033,4.736523,15.871008,-6.684734,42.976402,-9.89842,13.217314,2.758194,-1.0231817,9.657131,9.3756695,21.192406,-26.822195,55.975784,-8.052065,0.4706005,8.597158,-1.4520518,-25.19073,35.955936,33.3817,5.9564185,-0.8923085,-11.731899
142,41.885833740234375,61.066650390625,74.81565856933594,-4.4242546572887935,-0.19307123274549212,-82.36281954624017,-26.346237,-0.5825421,22.048182,34.488087,-7.7795806,15.000033,4.65957,15.362474,-7.362532,41.864723,-10.232775,11.421754,2.8185775,-0.659682,9.504334,9.936281,20.699217,-26.390427,55.771324,-7.8451915,0.40278238,8.467909,-1.3483573,-25.012394,35.708866,33.54322,5.763701,-0.86948514,-11.712794
143,42.375633239746094,61.90254592895508,74.8884048461914,-4.524354734097949,-0.0867906851658513,-82.2954101123094,-26.731005,-0.9818975,22.272747,33.38519,-5.5176086,15.000033,4.4301076,14.756412,-8.21954,41.01192,-10.728743,9.468795,2.8289332,-0.24254668,9.390881,10.344444,20.159561,-26.054546,55.667324,-7.562183,0.33587804,8.288128,-1.3055581,-24.822273,35.459904,33.81689,5.4698715,-0.80449337,-11.660771
144,42.893524169921875,62.7314567565918,74.93895721435547,-4.678566392243827,-0.04178451403314691,-82.20595956592447,-27.151604,-1.379084,22.252956,32.42528,-3.342015,14.830961,4.1727314,14.289963,-8.961059,40.33496,-11.281673,7.5066423,2.8113265,0.26676452,9.367214,10.585812,19.595465,-25.851051,55.66874,-7.237833,0.26204023,8.064281,-1.3324168,-24.63206,35.22514,34.198414,5.146663,-0.7375851,-11.592873
145,43.40488815307617,63.58919143676758,74.96011352539062,-4.9002228125124,-0.06035586976391085,-82.09065651183809,-27.61572,-1.7516398,21.986074,31.626053,-1.2691163,14.364362,3.8616936,13.985017,-9.57019,39.858646,-11.784233,5.3466573,2.7597854,0.88812196,9.445304,10.661753,19.016418,-25.8096,55.778694,-6.886296,0.18432577,7.7552133,-1.4248211,-24.449303,34.98754,34.68703,4.774364,-0.66604286,-11.4866
146,43.92684555053711,64.47687530517578,74.94480895996094,-5.171815172481224,-0.1178529524378598,-81.94462476019199,-28.132149,-2.11759,21.530893,30.948029,0.7674686,13.757989,3.4435174,13.712983,-10.177204,39.630604,-12.306098,2.9639652,2.6718066,1.5994773,9.605921,10.59038,18.424292,-25.902534,55.975903,-6.490293,0.10503991,7.3696737,-1.5673554,-24.277555,34.73742,35.265514,4.3280134,-0.5731171,-11.34015
147,44.44378662109375,65.3859634399414,74.89092254638672,-5.48556241122722,-0.23231992624579842,-81.78841069020035,-28.662727,-2.5246406,20.70587,30.375137,2.7308064,12.6343565,3.0142817,13.493166,-10.699542,39.558563,-12.966548,0.74599123,2.5715914,2.3718128,9.854872,10.387438,17.834194,-26.07913,56.221092,-6.040256,0.017126195,6.988143,-1.7555674,-24.12161,34.506927,35.903454,3.877394,-0.47708654,-11.2028265
148,44.94394302368164,66.31551361083984,74.79383087158203,-5.830302827769818,-0.423010316009143,-81.64179297470673,-29.161703,-3.0356357,19.315872,29.892147,4.558191,10.60269,2.6771383,13.355928,-11.047213,39.530907,-13.882859,-0.91204405,2.4812784,3.1705952,10.199767,10.07458,17.269144,-26.286201,56.464134,-5.5270696,-0.08468707,6.6893477,-1.9858642,-23.985878,34.330715,36.568604,3.495003,-0.39522675,-11.124417
149,45.43706512451172,67.25323486328125,74.65494537353516,-6.225376482626113,-0.7053363242484022,-81.50407126440201,-29.591383,-3.7817056,17.041721,29.353289,6.219438,7.2628965,2.4670415,13.347274,-11.146732,39.51002,-15.101191,-1.8149908,2.4045627,4.0149374,10.671076,9.647005,16.742903,-26.528666,56.699047,-4.9019046,-0.21189503,6.4795403,-2.2570393,-23.870667,34.191643,37.251522,3.191836,-0.3312486,-11.12046
150,45.908363342285156,68.2009506225586,74.46363830566406,-6.659523326956151,-1.0666655119795392,-81.36380250057834,-29.94335,-4.7263446,14.0708885,28.854536,7.565795,2.8838058,2.3277295,13.425469,-11.063408,39.549747,-16.543158,-2.2053502,2.3258882,4.8969946,11.261075,9.112184,16.257504,-26.828058,56.92807,-4.1879,-0.35587814,6.3186636,-2.5673192,-23.77533,34.078842,37.96157,2.9351451,-0.2755415,-11.163476
151,46.38890075683594,69.13856506347656,74.22894287109375,-7.071738555804902,-1.4792303300192067,-81.22121631527813,-30.263088,-5.6891403,11.000823,28.776651,8.394486,-1.9038479,2.217579,13.483033,-10.9168415,39.682304,-18.152838,-2.3348927,2.234134,5.736057,11.915286,8.508359,15.819151,-27.154507,57.113323,-3.4841065,-0.4899939,6.2152414,-2.9051101,-23.70043,34.034283,38.688297,2.7278607,-0.22486457,-11.239889
152,46.87032699584961,70.05992889404297,73.96712493896484,-7.394952987240241,-1.910966847159656,-81.07481568622126,-30.667076,-6.5044403,8.440792,29.501522,8.656356,-6.459409,2.089582,13.414155,-10.822097,39.941605,-19.87512,-2.4508464,2.1150177,6.449861,12.576213,7.87731,15.437135,-27.471573,57.209827,-2.8877382,-0.58675647,6.1760464,-3.265089,-23.645756,34.10642,39.422485,2.5785856,-0.17614813,-11.336984
153,47.34177017211914,70.9891357421875,73.66455841064453,-7.62495703635031,-2.3826026072385993,-80.91256016003399,-31.190416,-7.152698,6.5780663,31.145504,8.487179,-11.052589,1.9938965,13.216064,-10.767634,40.28776,-21.763641,-2.5552387,1.9570557,7.0241146,13.263201,7.221906,15.122932,-27.787054,57.19261,-2.3891213,-0.6329959,6.2160497,-3.65689,-23.611382,34.31036,40.154938,2.55018,-0.14001876,-11.463636
154,47.79838562011719,71.90973663330078,73.33291625976562,-7.775422324646756,-2.893177703507059,-80.73134869219012,-31.84823,-7.684042,5.42295,33.590267,7.891386,-15.000033,1.9153506,12.905226,-10.71895,40.745613,-23.84072,-2.5260885,1.7641845,7.4871283,13.990516,6.5319433,14.879063,-28.113007,57.073074,-1.9489609,-0.642647,6.323614,-4.0790977,-23.59416,34.619015,40.886967,2.6198714,-0.11463466,-11.623216
155,48.3170166015625,72.8089599609375,72.95928192138672,-7.466247659461889,-3.3727318058676268,-80.37422758471219,-32.414368,-8.282775,6.005575,36.113182,7.2426615,-15.000033,1.5533046,11.882364,-10.838113,41.937256,-26.32487,-2.2982726,1.3872181,7.4644566,14.719701,5.8479834,14.724726,-28.429409,56.82439,-1.6273912,-0.6259343,6.463861,-4.5000415,-23.607431,35.00257,41.613262,2.6629512,-0.07800035,-11.788979
156,48.80611038208008,73.68416595458984,72.573486328125,-7.210275740771906,-3.7885136798981836,-80.10748202889513,-33.289467,-8.674259,6.298585,39.352398,6.0273523,-15.000033,1.0751344,10.895226,-11.03633,43.172504,-28.596178,-2.1316807,1.0478662,7.457904,15.352036,5.1452303,14.579988,-28.66466,56.557114,-1.4549745,-0.6062743,6.614954,-4.9573135,-23.620375,35.504906,42.416447,2.5647707,-0.007419808,-11.950945
157,49.290443420410156,74.53369140625,72.19580078125,-7.067108832484617,-4.159819101201476,-79.96740269652892,-34.47843,-8.916239,5.9658256,43.371315,4.0535345,-15.000033,0.5266418,10.016446,-11.367559,44.404373,-30.650957,-2.0895245,0.8220578,7.5252604,15.901771,4.426098,14.491062,-28.846405,56.212376,-1.5086691,-0.5824877,6.765549,-5.4361167,-23.644306,36.11851,43.27123,2.28425,0.12756817,-12.09344
158,49.74834442138672,75.37336730957031,71.82598876953125,-7.00727391604431,-4.513193097639763,-79.92674667657072,-35.84295,-9.059154,5.213954,47.978985,1.537011,-15.000033,-0.06080331,9.217017,-11.7896385,45.650757,-32.574947,-2.110922,0.68679714,7.6435447,16.40287,3.6824477,14.459245,-28.9938,55.78978,-1.7445453,-0.54824215,6.9330597,-5.9412932,-23.674809,36.831017,44.169098,1.8859761,0.3080395,-12.228219
159,50.17579650878906,76.22786712646484,71.45995330810547,-6.9855758180095435,-4.820874396338639,-79.97016489725857,-37.18649,-9.093224,4.314493,52.671604,-1.056537,-15.000033,-0.7672095,8.461847,-12.167758,46.970623,-34.296047,-2.1185613,0.5684571,7.7736144,16.8479,2.9513009,14.459769,-29.05045,55.32792,-2.0379446,-0.50752217,7.12048,-6.4651003,-23.709564,37.61851,45.10475,1.408901,0.4849905,-12.372355
160,50.612579345703125,77.09957885742188,71.11198425292969,-6.9381384777831006,-5.054590698894779,-80.07967587043572,-38.360447,-8.951395,3.5652747,57.036285,-3.3123417,-15.000033,-1.6744329,7.7003164,-12.365722,48.423576,-35.739296,-2.0330706,0.45278245,7.8607173,17.224806,2.2324297,14.489894,-29.027514,54.8792,-2.2804754,-0.46145448,7.3326473,-6.946991,-23.737349,38.36765,46.04848,0.8630928,0.60738486,-12.53379
161,51.067100524902344,77.9473648071289,70.78348541259766,-6.8492294072618005,-5.19055619598665,-80.29651438574136,-39.389465,-8.574711,2.980791,61.05853,-5.1803775,-15.000033,-2.8736012,6.925293,-12.312532,50.102245,-36.874767,-1.8398603,0.3892884,7.898805,17.509583,1.4921595,14.535692,-28.938028,54.478424,-2.5106795,-0.4260953,7.5808887,-7.397604,-23.754091,39.089794,47.057037,0.17046174,0.6469332,-12.730828
162,51.50850296020508,78.76811218261719,70.49099731445312,-6.752295665675099,-5.2466600085729596,-80.6144907852978,-40.345673,-8.000888,2.3683171,64.94447,-6.868873,-15.000033,-4.30294,6.17468,-12.09115,51.94472,-37.74076,-1.5845078,0.32905883,7.912065,17.71863,0.7782008,14.609698,-28.724024,54.06458,-2.7540739,-0.39613047,7.8553987,-7.879549,-23.757618,39.888466,48.14772,-0.63163435,0.63791806,-12.958667
163,51.9505729675293,79.59178161621094,70.22148895263672,-6.661020233739186,-5.258851594626964,-80.94840067701486,-41.169147,-7.255095,1.7386411,68.65332,-8.395819,-15.000033,-5.808035,5.453285,-11.79053,53.77356,-38.377895,-1.2734873,0.25853184,7.9029946,17.869118,0.061181027,14.701988,-28.46854,53.694218,-2.9143302,-0.3419528,8.152002,-8.277634,-23.74418,40.585484,49.19224,-1.4297358,0.6181096,-13.1770115
164,52.3864631652832,80.4055404663086,69.9719009399414,-6.591863123660898,-5.264141177150042,-81.2130665109456,-41.802254,-6.35174,1.1146128,72.14533,-9.781258,-15.000033,-7.2331343,4.758347,-11.502265,55.417,-38.820175,-0.90987134,0.11195536,7.866234,17.986555,-0.6422673,14.810233,-28.19635,53.383583,-2.886232,-0.23206802,8.459452,-8.5126295,-23.7144,41.072834,50.077793,-2.0946634,0.6236252,-13.350286
165,52.82071304321289,81.19896697998047,69.74722290039062,-6.529841744260739,-5.2650114985826795,-81.40265188930678,-42.24699,-5.2483406,0.52900594,75.43923,-10.996051,-15.000033,-8.591635,4.0742655,-11.216874,56.906624,-39.037712,-0.45881706,-0.12041956,7.788712,18.068888,-1.329122,14.931375,-27.898169,53.14912,-2.5622168,-0.037582435,8.798658,-8.556265,-23.667387,41.309658,50.80938,-2.6783416,0.6572465,-13.473454
166,53.288970947265625,81.95393371582031,69.55874633789062,-6.313196763746831,-5.2477840739134525,-81.50308112136524,-42.50334,-3.9672909,0.23235366,78.45294,-11.997344,-14.60891,-9.974337,3.1810405,-10.86749,58.44998,-39.120586,0.13065524,-0.45991343,7.515918,18.110186,-2.011035,15.064104,-27.569916,52.984116,-2.0268698,0.2212799,9.16629,-8.456366,-23.607796,41.366993,51.444523,-3.215658,0.69910747,-13.563624
167,53.76665496826172,82.70074462890625,69.39823150634766,-6.063944783508872,-5.222245122053814,-81.53241497416744,-42.599617,-2.2877133,0.36557212,81.22955,-12.941952,-12.758942,-11.284979,2.230047,-10.506188,59.856777,-39.096832,0.77689135,-0.86199844,7.1797767,18.114662,-2.7028763,15.209944,-27.25302,52.872654,-1.4629112,0.5008164,9.514827,-8.219976,-23.544813,41.272346,51.922977,-3.5717218,0.7508782,-13.616926
168,54.25666046142578,83.44169616699219,69.2694091796875,-5.870923157044686,-5.200256274892544,-81.49688387524992,-42.55199,-0.4506227,0.3951583,83.77598,-13.973743,-10.791344,-12.432527,1.3425622,-10.20863,60.962234,-39.014484,1.3789556,-1.2951735,6.860164,18.094322,-3.4216032,15.3718605,-26.994532,52.79585,-1.0531437,0.75459427,9.799641,-7.862811,-23.494137,41.058,52.186443,-3.59655,0.8137185,-13.628998
169,54.73786544799805,84.16703033447266,69.17729187011719,-5.748026379710017,-5.189564238357512,-81.36270113345672,-42.359673,1.559532,0.32443708,86.11194,-15.153551,-8.681258,-13.37793,0.5112076,-10.021244,61.72277,-38.896057,1.9156599,-1.7823076,6.5620704,18.059843,-4.1904345,15.554208,-26.811108,52.77762,-0.8401506,0.98412234,10.005667,-7.3535476,-23.465723,40.65666,52.177616,-3.1528,0.9045471,-13.570946
170,55.215476989746094,84.87869262695312,69.1182632446289,-5.673062038362558,-5.183853443448394,-81.14697886845221,-42.040535,3.7571554,0.1864931,88.244896,-16.443287,-6.4427485,-14.170538,-0.28357193,-9.907869,62.210297,-38.700634,2.4237382,-2.3150444,6.270653,18.00765,-4.9987903,15.756529,-26.685167,52.81192,-0.72883564,1.208015,10.158087,-6.6800866,-23.462694,40.062572,51.91121,-2.3503559,1.0192434,-13.453386
171,55.689109802246094,85.58810424804688,69.09147644042969,-5.632418696362754,-5.173262540647192,-80.91336608170819,-41.627834,6.0539756,-0.044691026,90.1239,-17.774887,-4.185027,-14.865863,-1.031146,-9.808401,62.488037,-38.41263,2.9164584,-2.83735,5.988749,17.929796,-5.812107,15.972285,-26.608078,52.838875,-0.69771457,1.4035772,10.274195,-5.8898234,-23.492826,39.404507,51.44263,-1.4151536,1.1272546,-13.331534
172,56.16969299316406,86.27816009521484,69.10223388671875,-5.6119876256974965,-5.1472722491301255,-80.7252854054938,-41.150063,8.359091,-0.37908506,91.6981,-19.057875,-2.0116057,-15.522055,-1.7172949,-9.6613455,62.616795,-38.01209,3.4065373,-3.29945,5.7197237,17.817616,-6.5918803,16.190931,-26.56168,52.798763,-0.7205036,1.5483627,10.371127,-5.0336657,-23.565695,38.81899,50.833054,-0.5712585,1.195841,-13.259612
173,56.661903381347656,86.96048736572266,69.1458740234375,-5.625687596897858,-5.100303653061273,-80.59350838749884,-40.621834,10.665359,-0.8374123,92.97694,-20.257957,0.08695805,-16.149279,-2.314329,-9.4677305,62.586693,-37.490673,3.8859203,-3.6930392,5.482,17.668585,-7.347754,16.408155,-26.54885,52.699486,-0.84005886,1.6219945,10.452601,-4.1034703,-23.691803,38.30202,50.048332,0.23871708,1.205011,-13.247031
174,57.167633056640625,87.63595581054688,69.22473907470703,-5.6739110243044095,-5.038550588255836,-80.48588940435722,-40.036743,13.000145,-1.379428,93.98321,-21.40572,2.1414852,-16.722446,-2.8381445,-9.258041,62.375797,-36.857456,4.349427,-4.045822,5.269254,17.490211,-8.097113,16.623009,-26.573565,52.568703,-1.0507761,1.6405532,10.51038,-3.0695686,-23.8745,37.790146,49.05803,1.0961516,1.1763632,-13.264016
175,57.668556213378906,88.31214904785156,69.33168029785156,-5.72011751632823,-4.96892569308908,-80.39962010586638,-39.376476,15.325757,-1.9093287,94.68358,-22.500854,4.087884,-17.24792,-3.3370643,-9.013516,62.026432,-36.123795,4.8145866,-4.366076,5.046665,17.285316,-8.811125,16.828077,-26.615294,52.381435,-1.2532356,1.6356977,10.544158,-1.9627956,-24.109644,37.342487,47.947994,1.8193204,1.1366152,-13.307995
176,58.1906623840332,88.96653747558594,69.46865844726562,-5.724767887149256,-4.898535347943671,-80.33226347180316,-38.61281,17.604616,-2.3292396,95.04986,-23.538336,5.8598585,-17.73143,-3.8605754,-8.713336,61.579533,-35.301975,5.299881,-4.671242,4.7795653,17.054224,-9.455007,17.012417,-26.642042,52.113537,-1.3442854,1.6388775,10.55346,-0.8225385,-24.383802,37.026142,46.816036,2.223486,1.1124244,-13.379519
177,58.730552673339844,89.62403869628906,69.63804626464844,-5.671821414904551,-4.820157937177678,-80.29081581028305,-37.71258,19.836891,-2.5982215,95.06251,-24.528313,7.4137526,-18.198406,-4.420638,-8.331373,61.057026,-34.387203,5.814549,-4.964037,4.449379,16.780891,-10.020896,17.16902,-26.634007,51.764038,-1.2774497,1.658138,10.544502,0.3335717,-24.69179,36.888477,45.687508,2.1854615,1.0964873,-13.501089
178,59.284423828125,90.26345825195312,69.82958221435547,-5.582163898871373,-4.7325889974922415,-80.27303164233606,-36.67952,22.032434,-2.7373953,94.75082,-25.448658,8.7859335,-18.64124,-4.9908905,-7.883923,60.434357,-33.3758,6.347704,-5.2436776,4.0756307,16.466003,-10.527371,17.297533,-26.603174,51.353733,-1.1089785,1.6761746,10.516302,1.5172858,-25.032227,36.889927,44.530712,1.8291473,1.07939,-13.668312
179,59.85377883911133,90.89203643798828,70.05042266845703,-5.476243296862479,-4.651921663004057,-80.26237812486052,-35.52829,24.169996,-2.7401872,94.1541,-26.256454,10.033222,-19.01579,-5.5644765,-7.412261,59.683735,-32.281616,6.8884907,-5.5210857,3.680138,16.131205,-10.984832,17.398695,-26.573095,50.89806,-0.8971104,1.6864516,10.459274,2.7231317,-25.39416,36.971653,43.373657,1.340209,1.0834417,-13.842859
180,60.44266891479492,91.51757049560547,70.29432678222656,-5.370123713381984,-4.594580524286272,-80.24276660733655,-34.274796,26.228184,-2.6030178,93.314674,-26.909119,11.216055,-19.276903,-6.137316,-6.9584236,58.779655,-31.120136,7.4260902,-5.806327,3.282454,15.796902,-11.401481,17.473429,-26.565638,50.41192,-0.6978079,1.682457,10.36413,3.9324193,-25.760593,37.08474,42.26043,0.910463,1.128667,-13.986312
181,61.04655456542969,92.13723754882812,70.55586242675781,-5.255474179268614,-4.568784897227844,-80.20762466795696,-32.87705,28.263174,-2.243691,92.22968,-27.425558,12.418373,-19.412207,-6.728444,-6.523393,57.730717,-29.906057,7.9572854,-6.1004496,2.864862,15.458814,-11.771746,17.521818,-26.581459,49.89223,-0.5107496,1.6587126,10.214239,5.147641,-26.119314,37.2479,41.21481,0.5142687,1.2345903,-14.105826
182,61.65178298950195,92.73944091796875,70.83686828613281,-5.124569690352923,-4.564319783239834,-80.1660877321515,-31.313107,30.257975,-1.6565448,90.89298,-27.818256,13.584874,-19.446611,-7.336627,-6.088403,56.546795,-28.62855,8.48873,-6.3997946,2.4208686,15.104677,-12.094052,17.543991,-26.610767,49.337505,-0.31090972,1.6196554,10.020185,6.363502,-26.466303,37.482574,40.23271,0.073777184,1.3840998,-14.2173815
183,62.29154586791992,93.32251739501953,71.1495132446289,-5.008702470173868,-4.568946329159651,-80.12628316965178,-29.638145,32.091965,-0.96832013,89.343575,-28.032204,14.579642,-19.38954,-7.9258494,-5.6681166,55.204384,-27.26397,9.025119,-6.707232,1.9899495,14.743281,-12.383193,17.54153,-26.66162,48.76512,-0.121436514,1.5739539,9.812623,7.554896,-26.79509,37.741264,39.3102,-0.30459413,1.5411941,-14.294973
184,62.93354797363281,93.93273162841797,71.47177124023438,-4.943247621622174,-4.571612608930993,-80.09886765604206,-27.920887,33.64245,-0.39076963,87.61899,-28.000164,15.000033,-19.248867,-8.449999,-5.279892,53.68086,-25.790361,9.5678215,-7.020506,1.6139638,14.38414,-12.655286,17.51568,-26.745476,48.19309,0.035034977,1.5308104,9.6224985,8.697286,-27.098347,37.9742,38.44334,-0.51455873,1.6691625,-14.312744
185,63.596683502197266,94.52716827392578,71.81346130371094,-4.942666840407288,-4.580415287851007,-80.08601902179225,-26.149746,34.93394,0.08197868,85.69986,-27.654531,15.000033,-18.996777,-8.887306,-4.928604,51.945854,-24.202662,10.12001,-7.3344345,1.3049684,14.027988,-12.899195,17.465033,-26.866125,47.61652,0.14375506,1.4956483,9.4533205,9.784649,-27.371933,38.20748,37.64105,-0.4830755,1.7680684,-14.252469
186,64.27024841308594,95.12532043457031,72.16410827636719,-5.003453759569442,-4.602735040281235,-80.09112439063188,-24.298727,36.06404,0.5773826,83.59132,-27.046947,15.000033,-18.626942,-9.239634,-4.610073,50.00456,-22.500582,10.676543,-7.639421,1.0627955,13.677572,-13.110942,17.388775,-27.017118,47.030884,0.22050615,1.4629204,9.290299,10.822323,-27.613901,38.461,36.913334,-0.28326148,1.8537073,-14.132481
187,64.95413970947266,95.73676300048828,72.50961303710938,-5.070897921135657,-4.60478210136804,-80.09180356332088,-22.436125,36.950054,1.0968474,81.34655,-26.286003,15.000033,-18.216347,-9.596388,-4.3082757,47.926388,-20.699553,11.249072,-7.959975,0.83891344,13.317859,-13.32019,17.29062,-27.199883,46.456005,0.28412563,1.4254401,9.136985,11.806786,-27.818357,38.673702,36.253937,-0.027855072,1.9133608,-13.981223
188,65.65248107910156,96.37312316894531,72.84844207763672,-5.113324032508712,-4.5628219853914045,-80.08177539092571,-20.626003,37.550976,1.6223003,79.01593,-25.490187,15.000033,-17.827204,-10.003787,-4.0126743,45.76382,-18.804052,11.840394,-8.301369,0.6138272,12.945516,-13.556554,17.175491,-27.419378,45.90979,0.35345373,1.3762306,8.997239,12.734786,-27.977816,38.78135,35.657135,0.17139997,1.9333013,-13.826399
189,66.36190795898438,97.01948547363281,73.1819839477539,-5.209266500381623,-4.493357357782204,-80.08767724960678,-18.83739,37.966015,2.1287053,76.54255,-24.723392,15.000033,-17.387297,-10.359554,-3.7604873,43.402477,-16.78606,12.436053,-8.641404,0.46053115,12.574978,-13.809813,17.04496,-27.684586,45.396015,0.41328737,1.3058289,8.879142,13.613669,-28.08624,38.78187,35.12752,0.30263734,1.8882158,-13.656932
190,67.09459686279297,97.69540405273438,73.49359893798828,-5.3419001133024695,-4.401816052354066,-80.10446569117016,-17.049662,38.165775,2.4487107,73.911674,-23.925577,14.240986,-16.896315,-10.672022,-3.5434813,40.873405,-14.666044,13.035323,-8.986659,0.3504407,12.198227,-14.069085,16.89875,-27.993446,44.90465,0.45960858,1.2207187,8.778312,14.437877,-28.140076,38.707783,34.67386,0.41895574,1.7921357,-13.463727
191,67.84242248535156,98.37966918945312,73.79163360595703,-5.45332018532691,-4.276498234887254,-80.12387995246651,-15.365283,38.09214,2.6094658,71.2682,-23.04046,13.330161,-16.46052,-11.021972,-3.308198,38.33809,-12.452006,13.643528,-9.326088,0.23739098,11.82805,-14.364951,16.738895,-28.33493,44.432594,0.5236003,1.1386342,8.679612,15.193062,-28.13622,38.541683,34.28816,0.5019766,1.689764,-13.275414
192,68.60176086425781,99.1058578491211,74.05632781982422,-5.482252432422058,-4.107314950106924,-80.13977242167924,-13.887124,37.667564,2.5525422,68.751144,-21.99583,12.4747925,-16.188084,-11.481506,-3.0022466,35.963528,-10.155626,14.262184,-9.648266,0.07475406,11.47667,-14.727596,16.568016,-28.699835,43.974903,0.635841,1.0771543,8.567625,15.867658,-28.072035,38.262417,33.958706,0.5319322,1.6257067,-13.1205435
193,69.36393737792969,99.8536376953125,74.2900161743164,-5.399881424204135,-3.8948893899357806,-80.15437013353079,-12.687681,36.787983,2.1690617,66.44622,-20.584703,12.012756,-16.074001,-12.078834,-2.596748,33.722805,-7.7328997,14.969911,-9.947084,-0.1744506,11.138163,-15.152919,16.385132,-29.089098,43.534775,0.8394001,1.0512689,8.452306,16.480284,-27.939718,37.846027,33.679974,0.49122494,1.6096945,-13.010235
194,70.13340759277344,100.62622833251953,74.49887084960938,-5.358354316522495,-3.634568489426858,-80.21168292921384,-11.729382,35.691826,1.4471658,64.26333,-18.898155,11.70346,-16.044825,-12.593112,-2.2739346,31.444843,-5.1276193,15.000033,-10.189214,-0.36406517,10.816125,-15.628184,16.18857,-29.509329,43.11354,1.1055344,1.0480725,8.337524,17.023336,-27.735592,37.3109,33.46741,0.39303684,1.6175954,-12.927731
195,70.9213638305664,101.41936492919922,74.67998504638672,-5.281773924323154,-3.3288881633222602,-80.26061220668898,-10.877688,34.399677,0.5997683,62.067833,-17.343618,10.9531765,-16.192118,-13.181505,-1.9217701,29.35528,-2.4966226,15.000033,-10.420662,-0.5539392,10.51565,-16.169231,15.982684,-29.958738,42.702984,1.357538,1.0428492,8.197789,17.452763,-27.467201,36.698586,33.333393,0.26455468,1.6439584,-12.860111
196,71.73526000976562,102.28917694091797,74.80975341796875,-5.16799101942189,-2.975581285746529,-80.27971222777101,-10.018959,33.02486,-0.20729177,59.702286,-16.33161,9.155465,-16.603823,-13.868013,-1.520904,27.640436,0.030452857,15.000033,-10.66377,-0.7322923,10.249028,-16.78599,15.774869,-30.430246,42.28469,1.5203336,1.0120336,8.007026,17.726307,-27.1522,36.049644,33.283688,0.13335426,1.6836292,-12.794349
197,72.5772705078125,103.17649841308594,74.89932250976562,-5.026535113870499,-2.5434230207898665,-80.24408538078903,-9.060128,31.52418,-1.045586,56.858955,-15.969608,5.650621,-17.340239,-14.645475,-1.0013283,26.297323,2.5791874,15.000033,-10.950434,-0.8770693,10.013051,-17.48459,15.567834,-30.916597,41.82893,1.5562218,0.94685155,7.7363186,17.848637,-26.801632,35.320984,33.29586,-0.035628222,1.7565974,-12.717423
198,73.44564056396484,104.1065902709961,74.93017578125,-4.851642056803811,-2.0444238820196774,-80.17156931166186,-8.0604725,29.903936,-1.9096344,53.639183,-16.065304,0.9844698,-18.354643,-15.491999,-0.37796816,25.246998,5.1628175,15.000033,-11.260362,-1.000792,9.806484,-18.251846,15.360774,-31.42014,41.34173,1.5102991,0.862079,7.405701,17.842464,-26.420782,34.505623,33.359592,-0.2407324,1.859069,-12.638031
199,74.33504486083984,105.058837890625,74.91844177246094,-4.641943706449166,-1.5372743964033468,-80.11234703224606,-7.17281,28.34873,-2.5345187,50.519455,-16.550127,-3.6585732,-19.57451,-16.384922,0.23797475,24.560204,7.4946494,15.000033,-11.535302,-1.1256676,9.645091,-19.069298,15.158679,-31.946955,40.857082,1.4266158,0.76873916,7.06176,17.698032,-26.023603,33.69825,33.491226,-0.4004363,1.951024,-12.576893
200,75.21849060058594,106.02197265625,74.8731918334961,-4.390774691292041,-1.0800924855594736,-80.11419909049776,-6.5739813,26.976357,-2.7198484,48.020912,-17.32449,-7.161786,-20.92383,-17.317001,0.74017936,24.312431,9.28184,15.000033,-11.724755,-1.2825869,9.544646,-19.912704,14.972107,-32.497803,40.401745,1.3495286,0.6775391,6.7504077,17.405003,-25.630615,32.997986,33.70563,-0.43113124,1.9927238,-12.555867
201,76.1229019165039,106.99227905273438,74.79682159423828,-4.150727602710344,-0.6643434956686279,-80.2298826876797,-6.3690305,25.839739,-2.4179811,46.30637,-18.44017,-9.287626,-22.462732,-18.273138,0.98180455,24.518448,10.538046,14.570555,-11.798149,-1.4144573,9.522053,-20.769796,14.810704,-33.053802,39.92493,1.3043376,0.5952949,6.4751306,16.957367,-25.256443,32.401226,33.980495,-0.29391757,1.9610753,-12.583026
202,76.99714660644531,107.9656753540039,74.68873596191406,-4.13567500009099,-0.25077704399304135,-80.50669297530361,-6.4933553,25.145708,-1.779761,45.1314,-19.896488,-10.747482,-24.118952,-19.064526,0.40445188,24.94938,11.475147,12.234966,-11.72036,-1.3131776,9.594485,-21.641996,14.677205,-33.61042,39.407948,1.2602525,0.5157687,6.213343,16.367414,-24.909204,31.866552,34.299732,-0.035667855,1.8818227,-12.645043
203,77.85550689697266,108.95038604736328,74.54096221923828,-4.132998904258846,0.11315420407720866,-80.81329786058014,-6.8183994,24.576464,-0.87822556,44.399807,-21.501131,-11.711217,-25.743467,-19.854155,-0.3886963,25.652897,11.909915,9.8143,-11.588272,-1.2034445,9.733098,-22.521046,14.571875,-34.186687,38.924828,1.1837988,0.4292002,5.9698043,15.663209,-24.59649,31.440397,34.67351,0.30288455,1.7901692,-12.73297
204,78.67192840576172,109.93391418457031,74.3635025024414,-4.119220761084687,0.38981277999370434,-81.08352744730189,-7.224021,24.081598,0.17727053,44.018814,-23.071095,-12.418005,-27.104347,-20.581732,-1.2168065,26.485683,11.811554,7.951301,-11.441992,-1.1271551,9.934301,-23.400171,14.493696,-34.798813,38.54996,1.0397879,0.3260285,5.7499037,14.865059,-24.325321,31.171701,35.11915,0.681005,1.7210426,-12.838102
205,79.47743225097656,110.91700744628906,74.15536499023438,-4.102499393920611,0.5687662905448622,-81.32353578490982,-7.7281203,23.714922,1.501845,44.113743,-24.605589,-12.853066,-28.12608,-21.17363,-1.9824415,27.348194,11.118529,6.9142923,-11.271534,-1.075211,10.208272,-24.295668,14.44525,-35.45927,38.264465,0.7944067,0.2038038,5.551137,13.971407,-24.099821,31.065065,35.61807,1.1343033,1.6936135,-12.964777
206,80.29966735839844,111.86366271972656,73.93160247802734,-4.094995201087439,0.6696105669100243,-81.56092257776898,-8.373947,23.474852,3.0873663,44.700123,-26.189495,-12.933643,-28.933031,-21.66742,-2.7655504,28.343958,9.886342,6.356322,-11.067398,-1.023674,10.557739,-25.204416,14.42729,-36.151672,38.032955,0.47258475,0.06808028,5.371673,12.978285,-23.91951,31.09635,36.1583,1.6711487,1.685454,-13.1150675
207,81.09881591796875,112.822021484375,73.69355773925781,-4.080353239547798,0.7004537809909445,-81.76110109313596,-9.07749,23.235998,4.6495347,45.51083,-27.76456,-12.790126,-29.593235,-22.158594,-3.6517882,29.625736,8.283778,5.9981356,-10.870104,-0.98771775,10.968404,-26.086056,14.431848,-36.843597,37.906483,0.13650873,-0.07941267,5.2178946,11.8932,-23.781456,31.277405,36.77228,2.214661,1.66992,-13.277822
208,81.88005065917969,113.76802825927734,73.454833984375,-4.042104372599477,0.6687110072131305,-81.88878231281716,-9.755346,22.868532,5.909715,46.269432,-29.26728,-12.549622,-30.155304,-22.757818,-4.7227087,31.32234,6.4819283,5.5595984,-10.71941,-0.9831015,11.424906,-26.909176,14.447338,-37.50639,37.94992,-0.15444429,-0.23804033,5.096691,10.724339,-23.686626,31.619436,37.493996,2.688094,1.6211847,-13.441432
209,82.65440368652344,114.70680236816406,73.21446228027344,-3.966167320954713,0.5429418830231773,-81.91053276003332,-10.333663,22.321106,6.8099513,46.874367,-30.744534,-12.206761,-30.566666,-23.558119,-6.0770707,33.509556,4.36459,5.039373,-10.633658,-1.0363091,11.954212,-27.719936,14.4693775,-38.185913,38.240883,-0.44930002,-0.43197224,5.0133386,9.427242,-23.624123,32.195343,38.3891,3.1174717,1.521209,-13.613316
210,83.4102783203125,115.65019226074219,72.9715576171875,-3.8670893266252735,0.33219906390456755,-81.85516693931193,-10.870576,21.662704,7.4896655,47.47666,-32.2065,-11.706766,-30.815626,-24.506191,-7.631282,36.126457,1.8759446,4.5596905,-10.573959,-1.117903,12.561519,-28.531887,14.488524,-38.881893,38.730946,-0.7523782,-0.6546806,4.9604745,8.0406,-23.61377,32.944344,39.37985,3.5222592,1.3902055,-13.788523
211,84.14868927001953,116.57278442382812,72.74356079101562,-3.767625928021061,0.10187632899667247,-81.77819373393743,-11.480032,20.940668,7.9749627,48.18038,-33.53388,-11.102618,-30.984526,-25.487873,-9.1935835,39.048393,-0.7122475,4.0215173,-10.523385,-1.1962311,13.168843,-29.250933,14.507078,-39.50536,39.327187,-0.94908965,-0.85906225,4.939716,6.604758,-23.614529,33.771603,40.417133,3.8385022,1.2537936,-13.961139
212,84.87894439697266,117.48472595214844,72.52306365966797,-3.6850388860683663,-0.08366711694483922,-81.73289056882614,-12.2710495,20.20413,8.298872,49.090725,-34.609516,-10.447592,-31.161917,-26.374144,-10.576439,42.1411,-3.120829,3.3222513,-10.4720955,-1.2325691,13.705768,-29.779924,14.527204,-39.943405,39.92978,-0.9134841,-0.99841607,4.943296,5.168618,-23.607124,34.569717,41.438297,3.9931614,1.1393301,-14.119099
213,85.60002136230469,118.39046478271484,72.31694030761719,-3.6300554060661976,-0.2107459375239169,-81.71047852737267,-13.335952,19.445211,8.377538,50.348194,-35.375107,-9.727084,-31.39631,-27.150097,-11.737262,45.473938,-5.2935233,2.3673558,-10.3709545,-1.205166,14.183642,-30.149942,14.528252,-40.21991,40.563118,-0.5602725,-1.0442942,4.9369125,3.797705,-23.609526,35.23457,42.397953,3.8608158,1.0554688,-14.229351
214,86.31502532958984,119.28068542480469,72.12335968017578,-3.588935203213971,-0.31371969240458286,-81.68807407519922,-14.578879,18.640781,8.239839,51.85933,-35.9068,-8.91532,-31.62157,-27.878246,-12.766265,49.065773,-7.3735757,1.2222675,-10.236912,-1.1428231,14.627335,-30.40435,14.512177,-40.387745,41.280617,0.022418428,-1.0273247,4.936577,2.4509497,-23.621151,35.845554,43.34367,3.5131743,0.9880803,-14.309232
215,87.02742767333984,120.1446304321289,71.94807434082031,-3.5420805651114415,-0.4004598252388381,-81.69708914097157,-15.833516,17.822788,8.084352,53.383213,-36.289124,-8.051187,-31.763744,-28.529194,-13.688792,52.703857,-9.371924,0.027749667,-10.077172,-1.0666925,15.017446,-30.50878,14.482027,-40.43658,42.02269,0.70779127,-0.9876363,5.0089545,1.1275351,-23.634771,36.41994,44.240974,3.1292577,0.93387944,-14.39401
216,87.73448181152344,120.98990631103516,71.78968048095703,-3.472236124624984,-0.4789634579978177,-81.76936238274213,-16.939325,17.026228,8.102461,54.670982,-36.609196,-7.1805553,-31.756748,-29.072975,-14.535017,56.18882,-11.298398,-1.0695888,-9.877326,-0.99280965,15.341204,-30.448772,14.435563,-40.378063,42.73313,1.3591769,-0.9641592,5.2208724,-0.14763832,-23.646753,36.935757,45.033165,2.8724682,0.88988316,-14.5116005
217,88.4149169921875,121.81205749511719,71.65343475341797,-3.372005533873891,-0.5512068710847455,-81.9170293202242,-17.864967,16.256836,8.336719,55.67206,-36.861366,-6.3138795,-31.599466,-29.521473,-15.324775,59.54727,-13.152601,-2.0477226,-9.5541935,-0.9354299,15.612823,-30.228138,14.396822,-40.29129,43.37262,1.980394,-0.9503847,5.615455,-1.2951189,-23.661846,37.281296,45.64727,2.7279036,0.8645461,-14.668307
218,89.07521057128906,122.61394500732422,71.53001403808594,-3.249378454926667,-0.6129968121709626,-82.12157426015379,-18.693794,15.500591,8.687408,56.50957,-37.012634,-5.4282904,-31.325,-29.877329,-16.045853,62.8627,-14.929693,-2.9801214,-9.163456,-0.8824964,15.828114,-29.834135,14.360018,-40.11848,43.97416,2.6401503,-0.9274665,6.1458,-2.37642,-23.68106,37.53875,46.156006,2.635549,0.8554941,-14.852927
219,89.74945068359375,123.39593505859375,71.41777038574219,-3.1150360315530485,-0.6621338643950538,-82.3705875320409,-19.446651,14.762553,9.125158,57.203327,-37.0904,-4.5253487,-30.93076,-30.094952,-16.681194,66.034035,-16.622768,-3.856058,-8.729993,-0.8272396,15.992599,-29.298265,14.32893,-39.886192,44.523533,3.2183177,-0.9076914,6.7638917,-3.4039516,-23.704094,37.707108,46.56522,2.608313,0.84293234,-15.03191
220,90.42430877685547,124.15895080566406,71.32241821289062,-2.977652950683763,-0.696407556847403,-82.65111241574881,-20.143845,14.046495,9.6207695,57.773563,-37.12557,-3.607026,-30.418175,-30.125093,-17.216124,68.95498,-18.221191,-4.660657,-8.289676,-0.76252824,16.111456,-28.639698,14.305101,-39.599087,45.00284,3.6103148,-0.9073084,7.4204817,-4.399333,-23.733032,37.797974,46.885094,2.6613026,0.8071222,-15.172185
221,91.10880279541016,124.90499877929688,71.23921966552734,-2.8221580973925717,-0.7139458408723065,-82.97549612728038,-20.774332,13.340237,10.202938,58.206398,-37.128113,-2.658557,-29.810102,-29.952894,-17.620026,71.63951,-19.758045,-5.4320908,-7.856177,-0.6875757,16.179142,-27.826721,14.292618,-39.222515,45.373756,3.7735107,-0.9420584,8.135629,-5.3771615,-23.787088,37.812344,47.104286,2.845461,0.7418367,-15.264335
222,91.77973175048828,125.63551330566406,71.17388153076172,-2.6489400308419038,-0.7160481809425728,-83.34464502414657,-21.332058,12.643305,10.87559,58.494045,-37.079758,-1.6851587,-29.110525,-29.597527,-17.916265,74.12882,-21.21473,-6.159729,-7.3773613,-0.6143609,16.201416,-26.86457,14.302424,-38.81275,45.636337,3.7530248,-1.0014592,8.929567,-6.2899685,-23.859066,37.69455,47.19671,3.1187997,0.65677136,-15.320767
223,92.42626190185547,126.35832214355469,71.1225814819336,-2.4902620115623564,-0.7058154171017557,-83.72972415833276,-21.850126,11.982504,11.569555,58.6766,-36.980408,-0.72189075,-28.300682,-29.049244,-18.17444,76.3662,-22.504822,-6.7531714,-6.883103,-0.531556,16.190788,-25.792425,14.335045,-38.379963,45.838673,3.6127934,-1.0712821,9.735994,-7.152815,-23.943048,37.513714,47.19937,3.4125557,0.55998,-15.35294
224,93.0604248046875,127.0634765625,71.08858489990234,-2.3739972094424155,-0.6873443410390869,-84.10185223600446,-22.364128,11.3840475,12.216034,58.799484,-36.826958,0.19820346,-27.362982,-28.3042,-18.465797,78.29456,-23.54275,-7.1258416,-6.387752,-0.4301867,16.161201,-24.662638,14.394085,-37.957516,46.033287,3.40523,-1.1348804,10.491882,-7.9623833,-24.02725,37.310776,47.138367,3.6449327,0.4589989,-15.370737
225,93.67840576171875,127.74996948242188,71.06639862060547,-2.3149414516436355,-0.659532803822352,-84.45435407128669,-22.886425,10.859818,12.79702,58.870007,-36.61244,1.0694667,-26.286453,-27.347368,-18.829367,79.910614,-24.26884,-7.282087,-5.896951,-0.30310154,16.112097,-23.465416,14.483042,-37.537457,46.214245,3.1237974,-1.1880865,11.194523,-8.727887,-24.100492,37.086323,47.020844,3.806928,0.3504494,-15.380507
226,94.29251861572266,128.42942810058594,71.05631256103516,-2.2930448025983923,-0.622025907380233,-84.80173225235485,-23.397892,10.391242,13.350489,58.867306,-36.339912,1.9085071,-25.09709,-26.18339,-19.219894,81.239784,-24.732975,-7.259595,-5.407118,-0.16106954,16.034632,-22.17812,14.603766,-37.103115,46.359802,2.7451468,-1.242563,11.872033,-9.460548,-24.159203,36.827446,46.852894,3.9362934,0.23108196,-15.37714
227,94.88043975830078,129.08900451660156,71.06212615966797,-2.2915183094258738,-0.5801372813540012,-85.14655606654406,-23.885017,9.960654,13.891522,58.789963,-36.01782,2.7145324,-23.829197,-24.839397,-19.584799,82.2636,-25.016815,-7.0225596,-4.9138117,-0.021696575,15.933077,-20.830359,14.755792,-36.670086,46.493614,2.3057818,-1.3020769,12.508191,-10.156045,-24.200207,36.55176,46.650856,4.027112,0.10917064,-15.354009
228,95.44623565673828,129.7427978515625,71.07898712158203,-2.2952415664374786,-0.5384938185443848,-85.49182574461196,-24.33645,9.551597,14.433684,58.638298,-35.656403,3.485715,-22.513893,-23.34332,-19.87347,82.96404,-25.204943,-6.534481,-4.4111614,0.09683755,15.810724,-19.458498,14.937701,-36.258297,46.646572,1.837671,-1.3693584,13.087591,-10.815092,-24.2218,36.28018,46.437675,4.0764647,-0.00732501,-15.303986
229,96.0031509399414,130.3864288330078,71.10660552978516,-2.302179032341368,-0.49773374702949824,-85.8402366335749,-24.75043,9.169938,14.97446,58.40721,-35.258198,4.2029786,-21.133371,-21.655983,-20.076817,83.30123,-25.316086,-5.71487,-3.8909822,0.19052833,15.668287,-18.064745,15.148566,-35.858753,46.848392,1.3823967,-1.4525506,13.589118,-11.446742,-24.220726,36.02094,46.229668,4.0654454,-0.12415505,-15.22069
230,96.55160522460938,131.0220947265625,71.14154052734375,-2.319337525239575,-0.4556139614361002,-86.18957463486177,-25.13573,8.819682,15.507838,58.099506,-34.81461,4.872816,-19.687607,-19.778753,-20.21284,83.295044,-25.312902,-4.6090236,-3.3593078,0.26648998,15.5029335,-16.634817,15.388787,-35.45958,47.078983,0.91065776,-1.5469929,14.027079,-12.05103,-24.194706,35.762688,46.017994,4.0003242,-0.24351606,-15.110131
231,97.09060668945312,131.67430114746094,71.18019104003906,-2.339995352114902,-0.41250405818347996,-86.53503001584255,-25.495646,8.483327,16.042881,57.72396,-34.318554,5.531167,-18.225544,-17.801577,-20.279074,83.0145,-25.191744,-3.3693786,-2.8295789,0.32515728,15.314851,-15.175515,15.657556,-35.07279,47.289425,0.35562965,-1.6364533,14.439289,-12.613449,-24.144556,35.497578,45.78189,3.9214828,-0.3515184,-14.983856
232,97.63301086425781,132.29881286621094,71.22945404052734,-2.353875781817583,-0.3685686383455066,-86.87213826004717,-25.833399,8.14299,16.589375,57.291065,-33.765648,6.2146187,-16.79327,-15.813818,-20.276514,82.532684,-24.946533,-2.145296,-2.3136966,0.36790755,15.104194,-13.696513,15.953272,-34.713585,47.434303,-0.35125706,-1.7064668,14.863834,-13.122519,-24.0743,35.220592,45.501865,3.873982,-0.4339749,-14.853273
233,98.16429901123047,132.92013549804688,71.28585052490234,-2.346703694176438,-0.3170057841196591,-87.20359651347621,-26.15834,7.789087,17.171867,56.811924,-33.15913,6.9493546,-15.395477,-13.841717,-20.198812,81.86578,-24.568727,-0.95247984,-1.8065282,0.37644923,14.864303,-12.215807,16.277159,-34.386913,47.555683,-1.2409383,-1.7750654,15.290822,-13.572337,-23.984072,34.908993,45.170788,3.8604884,-0.48859233,-14.706505
234,98.6934814453125,133.55001831054688,71.34968566894531,-2.3268278210504514,-0.25950070544193093,-87.53053044506551,-26.466133,7.433955,17.778435,56.276478,-32.499153,7.7108893,-14.00126,-11.836312,-20.044756,80.97078,-24.066195,0.2809809,-1.3029246,0.35793808,14.598238,-10.724423,16.6303,-34.08099,47.66084,-2.2732978,-1.845155,15.7071905,-13.968182,-23.874489,34.570312,44.79763,3.858626,-0.5221051,-14.54221
235,99.22819519042969,134.16261291503906,71.42349243164062,-2.321605311135236,-0.20932461928604218,-87.84851022833334,-26.741833,7.088001,18.37272,55.67222,-31.780312,8.458915,-12.605862,-9.787594,-19.81895,79.84971,-23.469965,1.5377357,-0.81283325,0.34526733,14.321638,-9.190214,17.00918,-33.785828,47.649956,-3.4090633,-1.8822126,16.147034,-14.316506,-23.752056,34.248917,44.38159,3.883434,-0.53318703,-14.387505
236,99.75800323486328,134.77398681640625,71.5123519897461,-2.3547804919572393,-0.18031234332025628,-88.15302769864046,-26.97045,6.762629,18.918722,54.98652,-30.995459,9.15208,-11.203381,-7.6880913,-19.526825,78.50428,-22.813145,2.7969344,-0.3470829,0.37223837,14.049474,-7.5810084,17.407265,-33.489437,47.424496,-4.6081157,-1.8523889,16.646112,-14.611968,-23.626385,33.982452,43.91094,3.9412396,-0.5197183,-14.269049
237,100.28688049316406,135.4007110595703,71.61016082763672,-2.441646091185932,-0.17533127424404008,-88.43747889462331,-27.167627,6.473842,19.387827,54.2462,-30.15189,9.770729,-9.780249,-5.4974074,-19.149128,76.910095,-22.126387,4.0158963,0.08772508,0.4557753,13.78432,-5.8832903,17.822985,-33.175564,46.948063,-5.8925385,-1.7202724,17.260607,-14.866336,-23.507902,33.786987,43.37283,4.04487,-0.45811182,-14.193889
238,100.82122039794922,136.0150604248047,71.72428131103516,-2.564819092359354,-0.18753589400333692,-88.70599474693462,-27.335789,6.2117043,19.804564,53.448,-29.247866,10.339423,-8.330921,-3.2432475,-18.680027,75.07152,-21.392859,5.2084756,0.4969052,0.57863075,13.520502,-4.11409,18.25752,-32.845104,46.272972,-7.2730207,-1.5190736,17.960552,-15.07158,-23.399818,33.640507,42.762516,4.1886163,-0.3557477,-14.1477
239,101.3680419921875,136.6225128173828,71.85662078857422,-2.7027099474150758,-0.2158698232378663,-88.96987119997686,-27.442402,5.945949,20.207174,52.53537,-28.265171,10.88706,-6.8638134,-1.0137137,-18.13926,73.0285,-20.568354,6.447798,0.89202714,0.72247,13.2586,-2.2930195,18.705982,-32.52195,45.441998,-8.694432,-1.314628,18.651535,-15.201348,-23.300343,33.528545,42.09043,4.3596663,-0.25764143,-14.125444
