unveil-humanoid-operators/unveil-humanoid-operators.github.io/feature-analysis-animation/data/feature_matrix_instances/height_root_translate_peak_vel_walking_A067_walk_arc_cw_start_003__A067.csv
Frame,root_translateX,root_translateY,root_translateZ,root_rotateX,root_rotateY,root_rotateZ,left_hip_pitch_joint_dof,left_hip_roll_joint_dof,left_hip_yaw_joint_dof,left_knee_joint_dof,left_ankle_pitch_joint_dof,left_ankle_roll_joint_dof,right_hip_pitch_joint_dof,right_hip_roll_joint_dof,right_hip_yaw_joint_dof,right_knee_joint_dof,right_ankle_pitch_joint_dof,right_ankle_roll_joint_dof,waist_yaw_joint_dof,waist_roll_joint_dof,waist_pitch_joint_dof,left_shoulder_pitch_joint_dof,left_shoulder_roll_joint_dof,left_shoulder_yaw_joint_dof,left_elbow_joint_dof,left_wrist_roll_joint_dof,left_wrist_pitch_joint_dof,left_wrist_yaw_joint_dof,right_shoulder_pitch_joint_dof,right_shoulder_roll_joint_dof,right_shoulder_yaw_joint_dof,right_elbow_joint_dof,right_wrist_roll_joint_dof,right_wrist_pitch_joint_dof,right_wrist_yaw_joint_dof
0,0.4799264967441559,1.9295064210891724,78.2464599609375,-2.3374965156859164,-0.030791907348279392,-98.78544533355901,-7.2374654,4.910766,12.350313,23.502798,-15.427018,0.54579985,-8.140161,-1.4556329,-5.761695,14.900802,-6.1492605,4.0071497,-3.637179,-1.2693266,0.6700865,19.97256,17.267134,-11.830005,43.561646,22.585598,7.6566486,7.7732244,19.499758,-10.617325,20.062382,48.36827,-34.59587,8.48828,-22.924797
1,0.4790656864643097,1.9281725883483887,78.24845123291016,-2.337417225164764,-0.028368763927259254,-98.77389085194704,-7.23944,4.906799,12.338354,23.498098,-15.421106,0.55705863,-8.144553,-1.4589789,-5.767683,14.911235,-6.148012,4.0057216,-3.5851097,-1.2812691,0.66816634,19.969454,17.25697,-11.634252,43.54299,21.025063,7.616999,7.3407574,19.564339,-10.605461,20.01391,48.31288,-34.557373,8.507755,-22.99514
2,0.4779827892780304,1.929366946220398,78.24813079833984,-2.337613372474761,-0.026091264219910537,-98.76243114172495,-7.2411075,4.902713,12.326165,23.49325,-15.414924,0.5691784,-8.149019,-1.4620603,-5.7727,14.922074,-6.1464424,4.004377,-3.5577447,-1.2940154,0.66561353,19.979673,17.226349,-11.3966255,43.52343,19.440758,7.588354,6.895059,19.598309,-10.587496,19.987688,48.287098,-34.514668,8.52463,-23.066587
3,0.47829070687294006,1.9252293109893799,78.24738311767578,-2.337564414962866,-0.02402170936663719,-98.75084054105807,-7.2428775,4.8988214,12.314435,23.488386,-15.409249,0.57952684,-8.152304,-1.4654343,-5.7797956,14.930886,-6.144928,4.0028296,-3.5413194,-1.3019954,0.66213024,19.985226,17.180073,-11.16002,43.513527,17.94658,7.570688,6.476203,19.617563,-10.567717,19.9712,48.27763,-34.482513,8.554666,-23.148598
4,0.47578221559524536,1.927675485610962,78.24954223632812,-2.3374181038667836,-0.022347524353615256,-98.73873356957675,-7.2451696,4.8952847,12.3037815,23.48386,-15.404972,0.5855422,-8.154333,-1.4694558,-5.7920504,14.937666,-6.1452575,4.0007005,-3.5385654,-1.3043731,0.6606525,19.987825,17.12229,-10.937664,43.505795,16.667389,7.557866,6.1180654,19.622145,-10.548149,19.965858,48.28097,-34.476818,8.613503,-23.250328
5,0.47449761629104614,1.9279745817184448,78.2521743774414,-2.3370028579476636,-0.020825511293086907,-98.72606186435779,-7.2491183,4.892903,12.295096,23.480392,-15.403173,0.58448094,-8.153533,-1.4744339,-5.816049,14.939069,-6.1470838,3.996968,-3.5377328,-1.3044255,0.66556007,19.990211,17.074398,-10.742527,43.485832,15.60573,7.545589,5.813411,19.630129,-10.533869,19.96078,48.273186,-34.49784,8.70684,-23.374617
6,0.4740521311759949,1.9284950494766235,78.24793243408203,-2.336387079293743,-0.01948999339278436,-98.71295883795636,-7.254565,4.8912096,12.287764,23.478106,-15.403083,0.5784439,-8.151365,-1.4803319,-5.8481817,14.9377575,-6.150468,3.9921467,-3.5511916,-1.3030902,0.6743714,20.000784,17.02452,-10.549694,43.454082,14.710316,7.532445,5.547954,19.626251,-10.519761,19.968914,48.271454,-34.537598,8.826718,-23.517307
7,0.47393491864204407,1.93132483959198,78.25154113769531,-2.3353165318623126,-0.018610709655473383,-98.69974432288939,-7.2587934,4.888787,12.280534,23.474405,-15.402979,0.5718759,-8.148514,-1.4862503,-5.876377,14.935489,-6.154364,3.988144,-3.5714843,-1.3002496,0.68356043,20.010807,16.97372,-10.37855,43.422115,13.991015,7.514626,5.3406787,19.614418,-10.506327,19.98372,48.279037,-34.598217,8.96123,-23.667412
8,0.47159242630004883,1.9314594268798828,78.25151824951172,-2.333692736259537,-0.018426840394257637,-98.68653943673895,-7.2599587,4.8843093,12.271929,23.468048,-15.401393,0.5692657,-8.146841,-1.4917527,-5.8886147,14.936306,-6.1592145,3.9868717,-3.5839717,-1.2967354,0.689939,20.00933,16.932125,-10.256452,43.39859,13.45322,7.48827,5.2091537,19.607527,-10.495973,19.991837,48.288704,-34.68175,9.097025,-23.811478
9,0.4738388955593109,1.933081865310669,78.25104522705078,-2.330696547560273,-0.019505829668782844,-98.67399008361237,-7.2556534,4.876217,12.262131,23.457296,-15.398379,0.5727491,-8.145865,-1.4965457,-5.8728247,14.939781,-6.164566,3.9901173,-3.5780728,-1.294636,0.69307137,19.994745,16.912737,-10.206844,43.380474,13.1272135,7.446591,5.1733885,19.62224,-10.490332,19.987564,48.286163,-34.801205,9.238447,-23.950739
10,0.4695257246494293,1.9355359077453613,78.25306701660156,-2.326684407861337,-0.021764634865280255,-98.66138666424963,-7.2471232,4.8652897,12.251518,23.442417,-15.394068,0.5796707,-8.146175,-1.5014621,-5.83855,14.947108,-6.1719675,3.9964983,-3.5755572,-1.2923269,0.69484943,19.97649,16.896156,-10.191987,43.36582,13.012986,7.3904486,5.2188077,19.627691,-10.483998,19.985224,48.298843,-34.95503,9.39116,-24.092672
11,0.4686507284641266,1.937103033065796,78.25115966796875,-2.322859392788468,-0.02369693427230972,-98.6484750804417,-7.2402973,4.8547664,12.239694,23.430092,-15.389739,0.5871528,-8.146627,-1.5059702,-5.805528,14.9541025,-6.178674,4.0029593,-3.571893,-1.2906457,0.6965786,19.958094,16.888813,-10.203702,43.347614,13.026263,7.330538,5.3079295,19.6344,-10.47981,19.981916,48.31151,-35.109936,9.53922,-24.224401
12,0.4688665270805359,1.935139536857605,78.25359344482422,-2.3205483108122507,-0.024061969405129443,-98.63436790505311,-7.239756,4.8473835,12.226163,23.42393,-15.385244,0.5922591,-8.145946,-1.5100025,-5.7936735,14.956349,-6.181761,4.0065937,-3.5688524,-1.287619,0.6968195,19.931435,16.884615,-10.225697,43.340122,13.094307,7.2755904,5.4053545,19.636906,-10.475017,19.975471,48.331493,-35.23793,9.667211,-24.335964
13,0.46609240770339966,1.9401016235351562,78.25424194335938,-2.3199352643823543,-0.022051684483933194,-98.61791727166458,-7.249333,4.8442583,12.2097,23.428675,-15.380725,0.59502226,-8.143632,-1.5144423,-5.8152695,14.952169,-6.179704,4.0062222,-3.5697594,-1.2846025,0.6962656,19.899261,16.884705,-10.252131,43.33963,13.218275,7.229246,5.5064216,19.63175,-10.469581,19.96669,48.362083,-35.329628,9.769628,-24.422476
14,0.46279245615005493,1.9418885707855225,78.25362396240234,-2.3204924004675527,-0.018516490930697148,-98.59969810877809,-7.264978,4.8437724,12.1908045,23.439373,-15.375461,0.59668744,-8.140463,-1.5188528,-5.8575616,14.944488,-6.1747384,4.0035043,-3.5829718,-1.2821416,0.697028,19.875162,16.888794,-10.277722,43.331585,13.435613,7.1860065,5.6257033,19.616127,-10.4667,19.965513,48.401077,-35.39963,9.854929,-24.489656
15,0.46122556924819946,1.9444806575775146,78.25325012207031,-2.32179704676962,-0.014592516072300504,-98.58209660393369,-7.282951,4.844641,12.171963,23.453241,-15.371434,0.596366,-8.137786,-1.5223327,-5.9021783,14.936288,-6.1689596,3.9999511,-3.5919178,-1.2802553,0.69665635,19.847504,16.900663,-10.322015,43.32642,13.711618,7.144452,5.763284,19.599182,-10.462857,19.961685,48.443314,-35.45777,9.929109,-24.545452
16,0.4590141475200653,1.946648359298706,78.25103759765625,-2.323703886481205,-0.011532710257325829,-98.5675956108355,-7.2965584,4.8459063,12.155984,23.461256,-15.367365,0.5930479,-8.137241,-1.5235333,-5.9306636,14.931392,-6.1648607,3.997049,-3.5989106,-1.2786543,0.698072,19.823647,16.918146,-10.373191,43.316833,14.024291,7.100753,5.9119663,19.582745,-10.460254,19.959782,48.47938,-35.514156,9.997151,-24.59509
17,0.45593953132629395,1.9483579397201538,78.25167846679688,-2.3268000633910955,-0.009179295469354327,-98.55662737128195,-7.311012,4.848614,12.142461,23.473804,-15.370732,0.5842949,-8.143518,-1.5221109,-5.935849,14.938096,-6.16704,3.9950376,-3.618054,-1.2739022,0.70343083,19.814026,16.926134,-10.407689,43.29603,14.360776,7.0509257,6.067986,19.550964,-10.460744,19.96801,48.521656,-35.570213,10.057786,-24.636269
18,0.4548182785511017,1.9523743391036987,78.25223541259766,-2.3307607877976424,-0.006783705056368746,-98.54806826085041,-7.323375,4.8519354,12.130767,23.482376,-15.374694,0.57139885,-8.152361,-1.5185021,-5.928244,14.947192,-6.170139,3.9931524,-3.6153202,-1.2704293,0.7041947,19.796837,16.95947,-10.49154,43.27838,14.703198,7.001411,6.242619,19.538496,-10.463278,19.970154,48.548195,-35.609753,10.110007,-24.668316
19,0.4532579183578491,1.9557194709777832,78.24976348876953,-2.3350439457581302,-0.005733823844942062,-98.54121723931782,-7.3335676,4.8560095,12.120966,23.490334,-15.37874,0.5587953,-8.160504,-1.5139174,-5.9165373,14.956461,-6.173453,3.9915516,-3.6393309,-1.2645032,0.71353304,19.792355,16.96745,-10.528856,43.25375,15.155351,6.9520397,6.4246936,19.49757,-10.465178,19.982191,48.590134,-35.662533,10.156235,-24.695353
20,0.45265331864356995,1.9601610898971558,78.24964904785156,-2.3386398939342823,-0.0059561097192398415,-98.5356378504314,-7.342521,4.860648,12.113286,23.50046,-15.3827,0.55092865,-8.165031,-1.5092881,-5.909345,14.96144,-6.175089,3.9901946,-3.6302624,-1.2619315,0.71442956,19.772799,17.012276,-10.642864,43.237293,15.685099,6.917627,6.635183,19.491762,-10.474097,19.985477,48.60327,-35.70177,10.203051,-24.72756
21,0.4489397704601288,1.96381676197052,78.24321746826172,-2.341030657466092,-0.009258628666139957,-98.53097671508786,-7.348214,4.8657174,12.108487,23.513302,-15.3856325,0.5509514,-8.162225,-1.5049627,-5.9089856,14.958036,-6.173828,3.9892755,-3.6312964,-1.2623895,0.72343415,19.754732,17.051361,-10.737893,43.217373,16.382816,6.8945146,6.8601017,19.477688,-10.481558,19.989332,48.613125,-35.75665,10.245925,-24.761307
22,0.447771281003952,1.967134714126587,78.24479675292969,-2.342832834610305,-0.014697616437268702,-98.52776790826059,-7.351954,4.8716063,12.106183,23.528788,-15.388941,0.55581737,-8.155411,-1.5005138,-5.9107275,14.9507065,-6.1713567,3.9887018,-3.6251466,-1.2657607,0.73498017,19.73227,17.101917,-10.849772,43.197086,17.196255,6.882765,7.1028438,19.47208,-10.490214,19.988949,48.609623,-35.814156,10.284168,-24.794336
23,0.44652512669563293,1.9738577604293823,78.24403381347656,-2.3446323845456845,-0.020329033198135556,-98.52582876856391,-7.3542075,4.87761,12.105089,23.542667,-15.391366,0.5607546,-8.147827,-1.4955155,-5.9131465,14.942237,-6.167842,3.9882498,-3.6249635,-1.2678488,0.744899,19.7109,17.144958,-10.961488,43.181343,18.090612,6.880037,7.36021,19.457182,-10.49739,19.992481,48.614147,-35.877613,10.324876,-24.83148
24,0.44456878304481506,1.9744433164596558,78.24642944335938,-2.3469925869123944,-0.02406716990983533,-98.52523668262991,-7.3579044,4.884025,12.103653,23.554792,-15.39396,0.5610365,-8.144682,-1.4899913,-5.914541,14.938587,-6.1648955,3.9875748,-3.6295056,-1.2675539,0.7505843,19.693312,17.181108,-11.074133,43.169655,19.018843,6.8833966,7.625808,19.43503,-10.503957,19.995712,48.627304,-35.94927,10.372217,-24.873207
25,0.440978080034256,1.9769926071166992,78.24735260009766,-2.35070191028443,-0.024867579078877808,-98.52586024624166,-7.3622775,4.891326,12.101295,23.561874,-15.395862,0.5534215,-8.147538,-1.4833093,-5.914985,14.9416065,-6.1622734,3.9866326,-3.6172402,-1.2686002,0.75195974,19.673746,17.235712,-11.21808,43.155922,20.001322,6.897484,7.909426,19.43014,-10.512718,19.979221,48.62562,-36.035618,10.42867,-24.920261
26,0.4407886862754822,1.9791234731674194,78.24398040771484,-2.355461116019603,-0.02417850516591492,-98.52787233335239,-7.3671203,4.8995395,12.098731,23.566828,-15.397831,0.5411407,-8.153363,-1.4755019,-5.9152327,14.947854,-6.1592946,3.9855142,-3.6239235,-1.2664121,0.7489644,19.664488,17.271025,-11.345855,43.144833,21.072893,6.923147,8.2125025,19.40003,-10.519105,19.976023,48.649612,-36.13391,10.495241,-24.977468
27,0.43925172090530396,1.9836280345916748,78.24574279785156,-2.3593177540011685,-0.022872576308092606,-98.53115935941787,-7.371997,4.906704,12.097188,23.570353,-15.398991,0.5289064,-8.161693,-1.4684571,-5.914476,14.957414,-6.157684,3.9844265,-3.6146405,-1.2651751,0.7447095,19.647547,17.319782,-11.498329,43.13887,22.119148,6.9518275,8.506077,19.389194,-10.5272455,19.956348,48.653694,-36.22999,10.5581045,-25.028563
28,0.4343522787094116,1.9871540069580078,78.24588775634766,-2.360662224288495,-0.021927462593355936,-98.53591792567616,-7.3756137,4.910943,12.097926,23.571426,-15.397442,0.52152896,-8.168317,-1.4636552,-5.911949,14.962533,-6.155438,3.9834707,-3.5935895,-1.2730516,0.7447136,19.637266,17.394861,-11.656764,43.120068,23.051529,6.9701242,8.756756,19.396118,-10.535965,19.924952,48.631363,-36.3102,10.606762,-25.062525
29,0.43497005105018616,1.9875943660736084,78.24597930908203,-2.3584546141331058,-0.021570305571242065,-98.54219020354874,-7.378719,4.9105816,12.100774,23.57026,-15.39166,0.5207165,-8.173298,-1.4620216,-5.907327,14.963055,-6.1529984,3.9830153,-3.5996823,-1.2813758,0.74547637,19.642881,17.45007,-11.779361,43.10154,23.897493,6.9671764,8.967049,19.379498,-10.540956,19.918474,48.623463,-36.364265,10.644879,-25.082268
30,0.4316902756690979,1.9926279783248901,78.24361419677734,-2.3538852355700275,-0.021312338328408485,-98.54984291722847,-7.381245,4.907029,12.105206,23.566654,-15.382669,0.5237403,-8.1782055,-1.4625206,-5.90102,14.961742,-6.150651,3.9828854,-3.6184866,-1.2885971,0.7460223,19.653517,17.491976,-11.887172,43.08895,24.689651,6.950911,9.152079,19.351528,-10.546078,19.920753,48.620777,-36.402966,10.6760235,-25.091894
31,0.42956992983818054,1.9953880310058594,78.2442855834961,-2.348582526188337,-0.02159013870458845,-98.55843914929184,-7.382162,4.903217,12.111656,23.562263,-15.374325,0.52890474,-8.182575,-1.4637116,-5.8938985,14.960639,-6.149178,3.9825366,-3.6437345,-1.2943934,0.7465428,19.66608,17.522182,-11.976794,43.08363,25.397512,6.9362607,9.311784,19.315426,-10.551244,19.926666,48.624474,-36.440193,10.701606,-25.098482
32,0.4278314411640167,1.9984242916107178,78.24275207519531,-2.3440487588745604,-0.022629875769675206,-98.56829861215336,-7.3807817,4.9016566,12.121273,23.558819,-15.37044,0.5345346,-8.186439,-1.4641546,-5.886079,14.961484,-6.1488743,3.9813423,-3.6429558,-1.3033832,0.747402,19.669281,17.56908,-12.079968,43.081394,25.967321,6.9394045,9.44446,19.309595,-10.559108,19.91309,48.60077,-36.48577,10.721146,-25.105839
33,0.4277222752571106,1.9990522861480713,78.24365234375,-2.3405511815767386,-0.025373056410111786,-98.57899671918533,-7.3765492,4.903641,12.134776,23.55956,-15.374806,0.54261506,-8.189836,-1.4641217,-5.8786335,14.968595,-6.152887,3.9786327,-3.640007,-1.3127712,0.7484781,19.671942,17.608162,-12.162906,43.08832,26.408012,6.9649453,9.550043,19.298868,-10.565959,19.89647,48.58499,-36.54867,10.735553,-25.119005
34,0.4264180660247803,2.0020079612731934,78.2449951171875,-2.337191429540742,-0.02941807127751498,-98.5906575929686,-7.3693194,4.9073563,12.151645,23.561228,-15.383822,0.55328006,-8.192501,-1.4640812,-5.870977,14.978549,-6.159164,3.9749393,-3.6425178,-1.3201787,0.74831194,19.67451,17.6304,-12.222857,43.107494,26.740381,7.0036373,9.630622,19.278135,-10.570738,19.884432,48.58161,-36.62018,10.745491,-25.135592
35,0.42630699276924133,2.0033066272735596,78.24510192871094,-2.334019523916675,-0.033333359426860554,-98.60301855986621,-7.3612385,4.9117627,12.169627,23.56183,-15.392852,0.5618744,-8.195467,-1.4634867,-5.861975,14.988586,-6.1648808,3.97147,-3.6275132,-1.3286635,0.74845046,19.668238,17.659634,-12.287756,43.131187,26.963655,7.047565,9.686517,19.276133,-10.577823,19.857327,48.5612,-36.6944,10.7523365,-25.15237
36,0.4236910939216614,2.007077217102051,78.2448959350586,-2.331378143878789,-0.03607291844710877,-98.61583100670948,-7.3533154,4.915516,12.18637,23.557407,-15.396472,0.56375456,-8.199103,-1.4616337,-5.8506985,14.994261,-6.165919,3.9695327,-3.6147032,-1.3374128,0.7488421,19.666916,17.683628,-12.328885,43.14854,27.105436,7.0871577,9.717998,19.273348,-10.583756,19.83412,48.54232,-36.76427,10.761131,-25.172598
37,0.4223463237285614,2.0072522163391113,78.24613189697266,-2.3295215706443035,-0.03685463455609088,-98.62911063681752,-7.3451953,4.9184594,12.202208,23.54475,-15.391443,0.5533972,-8.204549,-1.457959,-5.835977,14.994812,-6.1604395,3.969895,-3.602923,-1.3467696,0.74924165,19.66821,17.70029,-12.340782,43.160664,27.132818,7.1199837,9.713436,19.2702,-10.588203,19.814884,48.523373,-36.82966,10.774591,-25.198599
38,0.42134231328964233,2.0114760398864746,78.24644470214844,-2.328603834688886,-0.036261999784219116,-98.6429136022269,-7.33657,4.921585,12.2178135,23.52602,-15.380919,0.5346151,-8.211315,-1.4526808,-5.8188057,14.991945,-6.150393,3.9716966,-3.592879,-1.3553574,0.7445876,19.667671,17.704735,-12.331871,43.18115,27.048767,7.1522326,9.681535,19.262938,-10.589951,19.804255,48.51454,-36.8886,10.793022,-25.233873
39,0.4196416735649109,2.0156378746032715,78.24697875976562,-2.326955375056787,-0.035956856139736565,-98.65707330264779,-7.328609,4.9240003,12.232436,23.5091,-15.371039,0.51711285,-8.217813,-1.4477215,-5.800584,14.988919,-6.140401,3.973937,-3.5804126,-1.3644862,0.7445346,19.668606,17.707598,-12.311791,43.194515,26.923988,7.1847243,9.639989,19.258768,-10.591751,19.787708,48.50014,-36.951202,10.808896,-25.266186
40,0.4199662208557129,2.0177223682403564,78.24530029296875,-2.3249225734859214,-0.036489532268378054,-98.67081820193681,-7.323385,4.9260583,12.244325,23.500397,-15.366914,0.51044315,-8.223439,-1.4438471,-5.7836967,14.987738,-6.134291,3.975371,-3.5709403,-1.3732053,0.7465506,19.675322,17.709595,-12.286333,43.20254,26.833542,7.2197647,9.617429,19.254744,-10.5942,19.770952,48.486023,-37.011433,10.821309,-25.295086
41,0.4198153614997864,2.017728805541992,78.24566650390625,-2.3214522922550684,-0.0382255756338104,-98.68440212723355,-7.3230886,4.9270287,12.251955,23.506569,-15.373651,0.5224169,-8.227087,-1.4419022,-5.7660913,14.987833,-6.133055,3.9762182,-3.562132,-1.3822356,0.74485135,19.68212,17.708986,-12.268441,43.216797,26.770962,7.2622843,9.625411,19.252218,-10.596102,19.760132,48.47664,-37.05431,10.832591,-25.32188
42,0.4198824465274811,2.0201945304870605,78.24404907226562,-2.3169507629994293,-0.04079473714715346,-98.69782740453986,-7.326142,4.92733,12.2562065,23.522306,-15.386972,0.5461261,-8.229722,-1.4410031,-5.747733,14.989237,-6.135119,3.9769132,-3.5508897,-1.3914466,0.7414057,19.68909,17.70787,-12.256064,43.232693,26.70446,7.31003,9.648487,19.25258,-10.596661,19.752497,48.468502,-37.08491,10.843198,-25.347282
43,0.4180046617984772,2.0230138301849365,78.24436950683594,-2.312819345831263,-0.043764227440951764,-98.71118684108612,-7.3291607,4.9275646,12.26053,23.538376,-15.400102,0.56923336,-8.231519,-1.4402888,-5.7326,14.990366,-6.137855,3.9767785,-3.544435,-1.3991703,0.7447841,19.702375,17.700726,-12.227001,43.238007,26.668598,7.3568406,9.676774,19.251402,-10.59813,19.737654,48.45848,-37.134823,10.850514,-25.370502
44,0.417031854391098,2.0274434089660645,78.24494934082031,-2.309910457314576,-0.046711414845199216,-98.72386543625159,-7.3292837,4.9288607,12.267524,23.546816,-15.406519,0.57931846,-8.232797,-1.4388213,-5.7252655,14.991824,-6.1406193,3.9750473,-3.5387602,-1.4048673,0.746705,19.709694,17.692425,-12.2112255,43.249928,26.669518,7.404298,9.715922,19.247967,-10.599385,19.730429,48.457268,-37.207138,10.862587,-25.40345
45,0.41824546456336975,2.031935930252075,78.24195098876953,-2.3088182728231312,-0.050278247506238195,-98.73621520458825,-7.3236504,4.9312673,12.278716,23.542574,-15.401736,0.56884694,-8.231662,-1.4363691,-5.731205,14.990969,-6.1423783,3.970624,-3.5349357,-1.4081134,0.7523956,19.714775,17.68275,-12.201706,43.258785,26.735683,7.455395,9.7606945,19.24189,-10.600635,19.72465,48.462715,-37.329464,10.881688,-25.444996
46,0.4165671169757843,2.034937858581543,78.24241638183594,-2.3087289058749914,-0.0542251579767117,-98.74836795689804,-7.3166127,4.9344535,12.292538,23.534859,-15.392528,0.5458292,-8.230701,-1.433695,-5.746322,14.992867,-6.146427,3.964176,-3.5301025,-1.4109105,0.7600728,19.717432,17.675198,-12.200432,43.265945,26.844812,7.509948,9.813272,19.239124,-10.601432,19.721258,48.468872,-37.482788,10.90586,-25.4932
47,0.4130961298942566,2.039581060409546,78.24060821533203,-2.3095052273344887,-0.05760624088135279,-98.75974473766092,-7.3087025,4.938263,12.306719,23.523136,-15.381196,0.5211498,-8.229852,-1.4303218,-5.7615967,14.9932785,-6.1483088,3.957774,-3.5254953,-1.4129199,0.76795995,19.719362,17.66842,-12.203161,43.273983,26.962626,7.558095,9.875084,19.23613,-10.602048,19.718159,48.477283,-37.635002,10.925946,-25.544489
48,0.41412353515625,2.03869891166687,78.24057006835938,-2.3106546588841272,-0.05915706570082882,-98.76973326978747,-7.306064,4.9436297,12.319004,23.518791,-15.376787,0.5057623,-8.23304,-1.425921,-5.7676497,14.9958315,-6.1482105,3.9534295,-3.5210018,-1.4095744,0.77360654,19.720102,17.651619,-12.211133,43.2885,27.05276,7.5925975,9.951022,19.234587,-10.603205,19.712963,48.485783,-37.75161,10.93399,-25.596243
49,0.4141826629638672,2.0448901653289795,78.23954010009766,-2.3134825348887134,-0.057747934071068194,-98.7776910549295,-7.3099627,4.9518385,12.328718,23.521564,-15.38114,0.5029384,-8.24285,-1.4191314,-5.760789,15.002037,-6.144487,3.9516835,-3.518595,-1.4057407,0.7754828,19.720354,17.639528,-12.223054,43.31024,27.11748,7.6079125,10.045597,19.234367,-10.603965,19.71249,48.493366,-37.812847,10.919708,-25.648554
50,0.4151124060153961,2.0517261028289795,78.24150085449219,-2.3178027160668564,-0.05423366744914959,-98.78413172623641,-7.318917,4.9625916,12.337081,23.52999,-15.3915,0.5067235,-8.256566,-1.4103488,-5.7463384,15.009362,-6.137714,3.9514866,-3.5159638,-1.3970675,0.77383065,19.715515,17.620886,-12.2445135,43.34287,27.173685,7.612451,10.159982,19.235336,-10.60527,19.712437,48.503075,-37.84184,10.891684,-25.704256
51,0.4155140519142151,2.0492820739746094,78.24183654785156,-2.3210878022132544,-0.05062342807540125,-98.79012010503044,-7.3271446,4.9720182,12.344779,23.536743,-15.400971,0.514134,-8.270295,-1.4026335,-5.7287397,15.015951,-6.130096,3.952334,-3.514826,-1.3922994,0.77346146,19.71881,17.609554,-12.261179,43.36693,27.193308,7.6018944,10.269693,19.238142,-10.606072,19.715204,48.50929,-37.856712,10.862209,-25.757921
52,0.41242340207099915,2.0541296005249023,78.23928833007812,-2.3216752948434776,-0.0487738959021465,-98.7970040714397,-7.334436,4.9781427,12.352009,23.545933,-15.409379,0.52208275,-8.282535,-1.3982782,-5.712561,15.024114,-6.1260324,3.953652,-3.511301,-1.3864187,0.7718485,19.720465,17.592136,-12.279177,43.395206,27.149712,7.580572,10.365947,19.244844,-10.607068,19.717518,48.515278,-37.877285,10.849011,-25.809175
53,0.412539541721344,2.058846950531006,78.23711395263672,-2.3177994003198865,-0.04990585807710505,-98.80567389077542,-7.3360386,4.977778,12.35916,23.550453,-15.411472,0.53304386,-8.289816,-1.3989184,-5.6951084,15.028859,-6.1239004,3.9569077,-3.5074556,-1.3902316,0.7751927,19.732002,17.587143,-12.283509,43.413662,27.014458,7.525417,10.433236,19.252668,-10.607083,19.72019,48.51601,-37.920677,10.863291,-25.849356
54,0.41092294454574585,2.062542200088501,78.23705291748047,-2.3106512124289105,-0.05269097221084625,-98.81541002652224,-7.3356605,4.973391,12.365856,23.554913,-15.41138,0.5475331,-8.294789,-1.4031132,-5.675179,15.032095,-6.1228986,3.9619777,-3.503226,-1.3950341,0.7773148,19.74896,17.578384,-12.289291,43.43159,26.807888,7.4484787,10.490055,19.263575,-10.606598,19.727016,48.5156,-37.97091,10.898269,-25.885532
55,0.4109412431716919,2.065155029296875,78.23587036132812,-2.3036062779799953,-0.05555222528546,-98.82456545582842,-7.3339586,4.9682894,12.372114,23.556646,-15.408841,0.5596767,-8.297972,-1.4079498,-5.659884,15.0336075,-6.1223655,3.9654415,-3.4998095,-1.3990041,0.77733254,19.765099,17.566885,-12.291656,43.449196,26.580456,7.379632,10.538416,19.275715,-10.605411,19.735006,48.518433,-38.00185,10.925608,-25.925896
56,0.41074246168136597,2.0674705505371094,78.23828125,-2.298905524131385,-0.0569823766258753,-98.83147021323894,-7.3321342,4.9653916,12.378065,23.55442,-15.404709,0.5636218,-8.301169,-1.4111172,-5.6561294,15.035796,-6.1223097,3.9641156,-3.497691,-1.3987163,0.7737431,19.776157,17.547678,-12.289948,43.463696,26.382364,7.3507037,10.582008,19.287615,-10.603382,19.740036,48.5289,-37.989555,10.917762,-25.97865
57,0.40779662132263184,2.070852518081665,78.24113464355469,-2.2983253000319412,-0.05572486962758856,-98.83497317431525,-7.33084,4.9665155,12.383848,23.546577,-15.397529,0.55411905,-8.304453,-1.4115705,-5.6714716,15.038053,-6.1224985,3.9537902,-3.4903011,-1.3989018,0.76825297,19.789392,17.5422,-12.287435,43.45464,26.194216,7.372594,10.60883,19.312054,-10.602335,19.736542,48.531803,-37.92531,10.865034,-26.040417
58,0.4070690870285034,2.0691070556640625,78.2431640625,-2.300315627987458,-0.05283092134029785,-98.83628851840139,-7.330079,4.9698753,12.389257,23.535501,-15.388388,0.5356102,-8.307716,-1.410738,-5.7003827,15.041319,-6.123933,3.937312,-3.4794717,-1.3919168,0.75661546,19.796772,17.525105,-12.288491,43.44424,26.006931,7.4318857,10.629472,19.343224,-10.598858,19.725063,48.53909,-37.828083,10.786106,-26.11182
59,0.4071758985519409,2.0726845264434814,78.24388122558594,-2.3021628052528302,-0.05025705642756445,-98.83711743266069,-7.3283257,4.9727964,12.394203,23.523083,-15.378867,0.5163879,-8.309322,-1.40984,-5.7298603,15.0425005,-6.124997,3.921946,-3.4690735,-1.3871706,0.7461706,19.804434,17.51309,-12.286516,43.42767,25.851654,7.508272,10.649669,19.375029,-10.596264,19.714243,48.54605,-37.695374,10.682114,-26.19248
60,0.40590789914131165,2.0748910903930664,78.24232482910156,-2.3016650759364268,-0.04977623230972579,-98.83943770633842,-7.3244195,4.972795,12.398583,23.511927,-15.371264,0.5048092,-8.308425,-1.4101467,-5.7468367,15.039839,-6.124587,3.9148824,-3.4600017,-1.3848251,0.74031085,19.81343,17.50574,-12.283527,43.410103,25.767406,7.5874944,10.684435,19.407763,-10.594454,19.706491,48.54837,-37.532845,10.558245,-26.284775
61,0.40602627396583557,2.0764617919921875,78.2437744140625,-2.2965748810187545,-0.05253433056168027,-98.8447545278113,-7.315985,4.967238,12.40278,23.500666,-15.365665,0.5048117,-8.304038,-1.4133371,-5.7464566,15.032769,-6.123739,3.921141,-3.4554987,-1.381496,0.73930794,19.821943,17.481483,-12.276235,43.397945,25.794415,7.675771,10.744592,19.434143,-10.591326,19.701288,48.556244,-37.31823,10.3978615,-26.399336
62,0.4049510359764099,2.076556444168091,78.24150085449219,-2.2886335816021504,-0.05728032582696705,-98.85174935289945,-7.304596,4.9581456,12.406785,23.489054,-15.361431,0.51136875,-8.296678,-1.4182541,-5.736112,15.021943,-6.122293,3.9357438,-3.45201,-1.3838557,0.7438377,19.839594,17.468521,-12.266369,43.371246,25.892977,7.7752256,10.813986,19.466002,-10.590506,19.70128,48.554493,-37.051304,10.201656,-26.528236
63,0.40411049127578735,2.07808518409729,78.24067687988281,-2.2813912657638755,-0.062430883512175246,-98.85780719504193,-7.2939763,4.949798,12.409613,23.479162,-15.358025,0.51945883,-8.290112,-1.4222347,-5.721231,15.0127125,-6.120944,3.9513094,-3.4569516,-1.3829552,0.749047,19.858362,17.446877,-12.248632,43.347527,26.02098,7.8760962,10.890604,19.489761,-10.591102,19.709032,48.55744,-36.789448,10.011898,-26.659016
64,0.40458548069000244,2.0815186500549316,78.24088287353516,-2.2778149040833733,-0.06630885909372447,-98.86010019430469,-7.2893696,4.9465103,12.410146,23.475807,-15.356651,0.52408224,-8.286301,-1.4228182,-5.7074246,15.006453,-6.118003,3.9603608,-3.4667494,-1.3769841,0.7529929,19.87133,17.423296,-12.231006,43.33332,26.121277,7.965752,10.966523,19.509275,-10.592981,19.721956,48.55923,-36.58431,9.867611,-26.776045
65,0.40273353457450867,2.085496425628662,78.23942565917969,-2.2802995031460704,-0.06804704303740437,-98.85678385586235,-7.292819,4.951182,12.407595,23.47993,-15.357463,0.52391946,-8.287489,-1.4177835,-5.6932416,15.005913,-6.1130495,3.95989,-3.4767601,-1.365698,0.75678694,19.877993,17.403643,-12.219983,43.32478,26.17977,8.043214,11.043399,19.5283,-10.595223,19.735075,48.552467,-36.445965,9.779285,-26.879587
66,0.40196770429611206,2.0861194133758545,78.24018859863281,-2.2866673363779877,-0.06861946632630485,-98.84937071631602,-7.3025255,4.9610705,12.402154,23.491133,-15.36083,0.5216123,-8.291472,-1.4087241,-5.6772223,15.008598,-6.106677,3.9541082,-3.4880962,-1.3515247,0.76009953,19.879286,17.389137,-12.212777,43.3229,26.223837,8.112857,11.123135,19.544312,-10.5967045,19.748907,48.543434,-36.347088,9.724935,-26.976118
67,0.3989008367061615,2.0866498947143555,78.24063110351562,-2.2932263011929677,-0.06926595072289705,-98.8415535414895,-7.3125896,4.971288,12.396631,23.502686,-15.363792,0.5181662,-8.297167,-1.399845,-5.6626186,15.015093,-6.1019044,3.9467623,-3.499263,-1.3372313,0.76385593,19.879345,17.37659,-12.206462,43.321945,26.258762,8.175094,11.198889,19.559679,-10.597775,19.764692,48.533104,-36.287426,9.698028,-27.060913
68,0.39845049381256104,2.0954415798187256,78.24027252197266,-2.2965469445662663,-0.07108425732179129,-98.8364667690653,-7.318101,4.976991,12.393099,23.509935,-15.364352,0.5146879,-8.301389,-1.3951588,-5.6534247,15.022843,-6.1006083,3.9415102,-3.5073574,-1.3262653,0.7675762,19.878868,17.363993,-12.199894,43.321823,26.28747,8.227415,11.262569,19.572487,-10.598627,19.779709,48.529648,-36.26633,9.689043,-27.127752
69,0.39735931158065796,2.0948703289031982,78.24073791503906,-2.29522111876347,-0.07459419959437893,-98.83513092494368,-7.3180976,4.976382,12.392115,23.512743,-15.362045,0.5101075,-8.304901,-1.3964589,-5.6527386,15.034714,-6.1057167,3.9387267,-3.5186994,-1.3200301,0.7693566,19.881552,17.347296,-12.184538,43.323616,26.310555,8.269972,11.314195,19.580587,-10.600012,19.805426,48.536896,-36.312916,9.714051,-27.174099
70,0.39556989073753357,2.097665548324585,78.24018096923828,-2.2910334961668846,-0.07922362372332618,-98.83619180295162,-7.3140044,4.9721217,12.393033,23.511438,-15.357049,0.5042911,-8.308072,-1.4013426,-5.657428,15.049905,-6.1151276,3.9366488,-3.5186284,-1.3183532,0.7734242,19.882544,17.340542,-12.176452,43.320595,26.319689,8.302424,11.35341,19.59251,-10.600641,19.820488,48.5425,-36.42273,9.766645,-27.198423
71,0.3932754099369049,2.103639841079712,78.2383041381836,-2.285792202834639,-0.0840867016369467,-98.83785970016163,-7.308818,4.9663053,12.394296,23.508862,-15.351517,0.499679,-8.311232,-1.4076815,-5.6634464,15.065554,-6.125196,3.9357803,-3.5253985,-1.3176689,0.77664405,19.886196,17.329702,-12.161222,43.319294,26.331085,8.326832,11.385419,19.598372,-10.601581,19.844648,48.553787,-36.526077,9.824985,-27.215437
72,0.3939007520675659,2.1083648204803467,78.23968505859375,-2.280838014033915,-0.08836894969523591,-98.83853163945281,-7.304459,4.961178,12.394614,23.50577,-15.346611,0.4986753,-8.313061,-1.4127498,-5.666747,15.075628,-6.130773,3.9365327,-3.5271919,-1.3158101,0.7811592,19.885075,17.32441,-12.155215,43.31977,26.348053,8.343889,11.409781,19.60748,-10.6017065,19.856808,48.55977,-36.56384,9.857847,-27.230608
73,0.39146965742111206,2.1101410388946533,78.2404556274414,-2.275875548170518,-0.09223823943823917,-98.83798138150557,-7.3005567,4.95652,12.393386,23.501377,-15.341535,0.50220144,-8.314184,-1.4169215,-5.6666865,15.081398,-6.1323533,3.9408298,-3.5338192,-1.3133407,0.7850474,19.882442,17.320292,-12.149751,43.32676,26.36952,8.349542,11.42831,19.613852,-10.601245,19.869284,48.567146,-36.50088,9.85731,-27.25122
74,0.39054960012435913,2.114161968231201,78.241455078125,-2.270259005808849,-0.09605881793808675,-98.8369276156643,-7.295784,4.9511623,12.391647,23.494667,-15.335789,0.5089234,-8.313663,-1.4208635,-5.665104,15.082251,-6.1303573,3.9478467,-3.541261,-1.310871,0.78907573,19.877039,17.31766,-12.146552,43.338364,26.391394,8.344311,11.439505,19.61799,-10.6001835,19.879375,48.576004,-36.377308,9.837417,-27.270267
75,0.3871792256832123,2.115872383117676,78.23934936523438,-2.2650494292748045,-0.0990061374550314,-98.8353591133043,-7.2920976,4.946261,12.389532,23.487728,-15.33109,0.5177484,-8.314417,-1.4244182,-5.662439,15.083145,-6.1277056,3.9539814,-3.5485485,-1.3079064,0.7925751,19.870432,17.316656,-12.146012,43.34986,26.427427,8.338012,11.444116,19.621124,-10.598757,19.886003,48.58359,-36.23505,9.812653,-27.283884
76,0.3865050971508026,2.121274471282959,78.23855590820312,-2.2609681894482105,-0.10032100037483825,-98.83337306239719,-7.2915883,4.9427633,12.387296,23.482943,-15.329427,0.52760744,-8.317006,-1.4267688,-5.6589813,15.084167,-6.1245008,3.9556847,-3.5563018,-1.3039532,0.79516584,19.864895,17.316708,-12.147277,43.3555,26.491121,8.3403425,11.443674,19.624273,-10.596753,19.890903,48.586765,-36.11628,9.797909,-27.287905
77,0.3837217688560486,2.125598669052124,78.23929595947266,-2.257580286051249,-0.09973575385452546,-98.83163289137708,-7.2930512,4.9402966,12.386725,23.477257,-15.329507,0.53965366,-8.323889,-1.427959,-5.652154,15.088708,-6.121038,3.94965,-3.5641418,-1.2993599,0.7948749,19.85803,17.31733,-12.149609,43.359856,26.593088,8.348247,11.432651,19.624792,-10.595366,19.89396,48.58946,-36.021152,9.796756,-27.281633
78,0.38087382912635803,2.127412796020508,78.2380142211914,-2.2546749290695844,-0.09769091706419816,-98.82990765954615,-7.2958336,4.9383817,12.387301,23.470268,-15.330706,0.55394244,-8.333987,-1.4285028,-5.6424565,15.095183,-6.1171145,3.938677,-3.5715609,-1.2956487,0.7920524,19.846937,17.3196,-12.154311,43.36625,26.724337,8.358709,11.412033,19.624311,-10.591845,19.89871,48.590683,-35.92819,9.802649,-27.26816
79,0.3772219717502594,2.130119800567627,78.24314880371094,-2.2530930269492377,-0.09440970588076511,-98.82672061554025,-7.3019757,4.9377537,12.385507,23.467009,-15.3355255,0.56795263,-8.342764,-1.4277395,-5.635583,15.097527,-6.1118617,3.9278982,-3.580546,-1.291475,0.78906035,19.837942,17.323935,-12.1606865,43.367157,26.867432,8.380317,11.393941,19.621748,-10.58627,19.900717,48.590538,-35.85272,9.812577,-27.249071
80,0.37414807081222534,2.1350810527801514,78.24678802490234,-2.253599041518688,-0.09012383683654104,-98.82063656576798,-7.3124156,4.9384575,12.378141,23.470346,-15.345384,0.57924473,-8.346938,-1.4259807,-5.6367393,15.091732,-6.106119,3.9226847,-3.5934422,-1.2853537,0.78759146,19.832235,17.32696,-12.166979,43.3619,27.007515,8.421024,11.389747,19.617798,-10.582844,19.900503,48.586746,-35.804283,9.824175,-27.227259
81,0.3715858459472656,2.137253522872925,78.24624633789062,-2.2562184342518874,-0.08462570738949533,-98.8104809276887,-7.3278832,4.940187,12.363911,23.481459,-15.3605995,0.58551234,-8.343608,-1.4232779,-5.649798,15.073755,-6.0993094,3.9258866,-3.6051786,-1.2798847,0.78636897,19.826233,17.33411,-12.180817,43.35177,27.12567,8.491322,11.407537,19.61599,-10.574193,19.894375,48.577847,-35.794914,9.841871,-27.203035
82,0.3688719868659973,2.141453981399536,78.24317169189453,-2.2602884087438064,-0.07798002930039949,-98.79736841795813,-7.346915,4.9427323,12.344739,23.497662,-15.380164,0.58864784,-8.335486,-1.4200205,-5.670993,15.047175,-6.0914207,3.9343197,-3.6155024,-1.2752464,0.7852872,19.818872,17.344822,-12.200521,43.338314,27.235014,8.583586,11.439487,19.612623,-10.560805,19.879984,48.567947,-35.81846,9.8644705,-27.174793
83,0.3680993914604187,2.1456186771392822,78.24110412597656,-2.2666627437420703,-0.07036384690664392,-98.78271879894243,-7.371163,4.947369,12.321989,23.521906,-15.405764,0.59227186,-8.3270235,-1.4148736,-5.694728,15.018057,-6.083398,3.9436767,-3.6357744,-1.2662864,0.78570765,19.815662,17.349606,-12.212444,43.321594,27.367874,8.681568,11.473238,19.605438,-10.555154,19.873932,48.555008,-35.846577,9.885361,-27.145124
84,0.36578285694122314,2.1480789184570312,78.23770904541016,-2.2761047324144106,-0.062054351382746,-98.76856964462854,-7.4026732,4.9558716,12.297137,23.559345,-15.440335,0.5998707,-8.321393,-1.4063236,-5.714943,14.989474,-6.074323,3.9497747,-3.6481318,-1.2545508,0.7865058,19.807156,17.358927,-12.237795,43.30607,27.543465,8.773418,11.498587,19.597569,-10.545042,19.86133,48.546074,-35.862476,9.896777,-27.118986
85,0.36545124650001526,2.1558830738067627,78.232421875,-2.289148119630286,-0.052575076857901,-98.75454275769549,-7.441811,4.968621,12.268913,23.608356,-15.482784,0.6129683,-8.321271,-1.3931873,-5.729226,14.963747,-6.0642414,3.9511566,-3.6577885,-1.2391042,0.7875565,19.789375,17.370886,-12.270504,43.29626,27.79084,8.858604,11.508341,19.585855,-10.535072,19.849028,48.5435,-35.85039,9.889066,-27.101355
86,0.3660682737827301,2.1556994915008545,78.22859191894531,-2.304896138616186,-0.04213111842847656,-98.73975977661536,-7.487775,4.9841514,12.236947,23.66815,-15.532565,0.629589,-8.32419,-1.3772215,-5.7410693,14.938704,-6.053556,3.9503498,-3.6817997,-1.2189254,0.79166836,19.777943,17.375608,-12.287641,43.28076,28.099,8.940476,11.507855,19.567432,-10.532642,19.849007,48.540203,-35.825043,9.869655,-27.08703
87,0.36662811040878296,2.164656162261963,78.22740936279297,-2.3232681741709316,-0.031269663642266105,-98.7254437300232,-7.53714,5.003004,12.20452,23.73515,-15.58862,0.64766234,-8.325377,-1.3586612,-5.7536807,14.908904,-6.040972,3.9483786,-3.6880984,-1.1973289,0.7931713,19.755976,17.391806,-12.33458,43.272705,28.401548,9.018843,11.50976,19.551504,-10.525335,19.837866,48.540985,-35.799587,9.853744,-27.070742
88,0.36220067739486694,2.1696043014526367,78.22672271728516,-2.3399364746568803,-0.021391008369708753,-98.713743344225,-7.58759,5.022087,12.1769705,23.810715,-15.65348,0.66575944,-8.327718,-1.3425258,-5.767977,14.886308,-6.0348754,3.94694,-3.6948328,-1.1792173,0.79748756,19.74011,17.408564,-12.374961,43.266033,28.667751,9.078579,11.518404,19.537216,-10.518934,19.82687,48.53336,-35.799686,9.858613,-27.04048
89,0.36150825023651123,2.17689847946167,78.22478485107422,-2.355163333321821,-0.01192011731036616,-98.7040804668956,-7.6351786,5.0408845,12.155534,23.886208,-15.724056,0.6821902,-8.328236,-1.3293294,-5.7877593,14.865186,-6.0332303,3.9443443,-3.6924021,-1.1659203,0.8024345,19.726282,17.434536,-12.425968,43.26381,28.896923,9.119226,11.541193,19.526329,-10.509499,19.80745,48.517452,-35.820824,9.889664,-26.997158
90,0.3638076186180115,2.181137800216675,78.21869659423828,-2.3700730275574338,-0.002566678370578321,-98.69585664554495,-7.683194,5.0606613,12.137603,23.96619,-15.801779,0.6982528,-8.327972,-1.3173473,-5.8111005,14.845516,-6.0352993,3.9404922,-3.6957946,-1.1526747,0.80822796,19.71959,17.45619,-12.470504,43.26403,29.116117,9.144895,11.5729685,19.507599,-10.502335,19.793724,48.503067,-35.85366,9.938802,-26.945715
91,0.3622351884841919,2.1802642345428467,78.21516418457031,-2.385178201113955,0.005240973440534848,-98.68966227810074,-7.7308483,5.0812483,12.121496,24.050938,-15.882991,0.71660686,-8.32603,-1.3049216,-5.8322787,14.82582,-6.0374923,3.9391572,-3.700525,-1.1392775,0.8155058,19.71731,17.474234,-12.50859,43.265,29.295504,9.158778,11.604563,19.48413,-10.497288,19.783958,48.492844,-35.910614,9.9991,-26.882713
92,0.3661121129989624,2.1817569732666016,78.20677185058594,-2.401094176478608,0.010103036000049135,-98.68595361206177,-7.77743,5.1027236,12.105508,24.141523,-15.96494,0.7398468,-8.322139,-1.2901958,-5.8456693,14.80607,-6.0377398,3.9440548,-3.7040281,-1.1259006,0.8256054,19.719545,17.489908,-12.537229,43.262848,29.40647,9.16357,11.625931,19.45847,-10.493695,19.779333,48.489388,-36.003452,10.063732,-26.804825
93,0.369960218667984,2.185720682144165,78.19866180419922,-2.418593090660698,0.010112574484416678,-98.68442334393063,-7.821173,5.12567,12.088994,24.237684,-16.045101,0.76586664,-8.312076,-1.2720356,-5.849052,14.780936,-6.0332336,3.959404,-3.7114904,-1.1107962,0.84064835,19.724834,17.494251,-12.5458975,43.26079,29.428251,9.15391,11.635256,19.428095,-10.493401,19.78296,48.49393,-36.16115,10.140867,-26.701406
94,0.3723781704902649,2.1881906986236572,78.19194793701172,-2.437169802790235,0.006648311866288958,-98.68488443699398,-7.864747,5.1506004,12.07255,24.342888,-16.127777,0.794133,-8.299115,-1.2514257,-5.8459215,14.755945,-6.027908,3.9820395,-3.7173555,-1.0982388,0.85903627,19.743969,17.507181,-12.55035,43.244526,29.36859,9.130716,11.63652,19.38826,-10.493473,19.79198,48.51103,-36.36462,10.2283745,-26.576471
95,0.37647244334220886,2.1862478256225586,78.1848373413086,-2.4556790009341927,0.002766736697245981,-98.6883491415065,-7.9073853,5.1747456,12.0576315,24.448633,-16.211523,0.8299196,-8.286886,-1.2304244,-5.8383307,14.7321415,-6.021302,4.0049934,-3.7199006,-1.0851738,0.87733686,19.758417,17.512964,-12.548678,43.23657,29.283638,9.104375,11.632473,19.35317,-10.4944935,19.80245,48.526985,-36.569168,10.312263,-26.452085
96,0.37845367193222046,2.18381404876709,78.18148803710938,-2.472034078972754,0.0015304696233958965,-98.69616982128086,-7.9495773,5.1952453,12.045747,24.549839,-16.297028,0.87851685,-8.282199,-1.2118616,-5.828112,14.717271,-6.015957,4.02129,-3.714199,-1.073605,0.8916851,19.769472,17.514986,-12.548535,43.234108,29.217283,9.086805,11.624607,19.32559,-10.495376,19.810898,48.542152,-36.722145,10.375163,-26.350819
97,0.38348761200904846,2.183603048324585,78.17855072021484,-2.4878851459223856,0.005632428185881222,-98.70872634564563,-7.9998465,5.21426,12.033057,24.656872,-16.387278,0.9481537,-8.287171,-1.1932014,-5.8145785,14.708207,-6.0080733,4.0277376,-3.7106435,-1.0623773,0.89933246,19.796072,17.519194,-12.5451145,43.21997,29.16496,9.082926,11.613487,19.279486,-10.498258,19.832506,48.57914,-36.80087,10.411474,-26.27822
98,0.38887524604797363,2.1807072162628174,78.17655181884766,-2.501655446525624,0.012545238827175795,-98.72598405112893,-8.052502,5.2294226,12.021722,24.763824,-16.478636,1.034158,-8.300655,-1.1765804,-5.7957387,14.708179,-6.0003676,4.0289135,-3.7017238,-1.0549109,0.90291125,19.8231,17.523085,-12.53816,43.208305,29.112726,9.085472,11.596498,19.241905,-10.503052,19.86256,48.612236,-36.83431,10.431376,-26.225262
99,0.39564770460128784,2.1756858825683594,78.17625427246094,-2.5154973046372,0.018814634944910587,-98.7456665976963,-8.098665,5.2443113,12.015192,24.86239,-16.57241,1.1205735,-8.31393,-1.1601331,-5.7778416,14.711104,-5.994571,4.027617,-3.6876168,-1.0467342,0.90577996,19.846989,17.524689,-12.533573,43.202366,29.06542,9.088147,11.576836,19.209166,-10.508085,19.886454,48.645206,-36.847195,10.441363,-26.181236
100,0.4046322703361511,2.172058343887329,78.17385864257812,-2.5311138891964386,0.020952249744822276,-98.76596531255679,-8.127307,5.2605596,12.017733,24.939127,-16.667036,1.1916806,-8.318219,-1.142904,-5.7665443,14.711805,-5.993239,4.0267205,-3.6773827,-1.0361456,0.910528,19.878967,17.524708,-12.528453,43.19291,29.027527,9.085132,11.555999,19.179102,-10.5148115,19.907616,48.678875,-36.855648,10.449283,-26.13798
101,0.41394397616386414,2.1677141189575195,78.16739654541016,-2.5502919448279964,0.016064691668784208,-98.78738065679597,-8.130078,5.281562,12.036594,24.986526,-16.766817,1.2420241,-8.310074,-1.1232269,-5.766906,14.712476,-6.000961,4.0245943,-3.6606538,-1.0239683,0.9199099,19.900946,17.52424,-12.528283,43.197292,29.00762,9.074968,11.534626,19.1621,-10.517276,19.911287,48.707233,-36.866924,10.45616,-26.097158
102,0.42371052503585815,2.159987211227417,78.16512298583984,-2.572787738289921,0.006707554624699195,-98.81065820434213,-8.114425,5.306807,12.066964,25.012266,-16.870272,1.2801547,-8.29315,-1.1007122,-5.775182,14.711472,-6.0132856,4.020267,-3.6487668,-1.0054444,0.9308096,19.941658,17.522144,-12.527031,43.18846,28.99601,9.06224,11.51221,19.135765,-10.523673,19.913431,48.75089,-36.863987,10.455707,-26.060036
103,0.4333782494068146,2.1530513763427734,78.15721130371094,-2.593603375134251,-0.0025502871893748405,-98.83371891932909,-8.095689,5.328134,12.096653,25.032547,-16.971834,1.311999,-8.275194,-1.0811098,-5.7823176,14.710534,-6.026004,4.018475,-3.6391792,-0.9875353,0.941844,19.989027,17.51836,-12.526116,43.173122,28.986662,9.0454235,11.487252,19.112883,-10.532506,19.912077,48.790005,-36.855442,10.451197,-26.0227
104,0.445023775100708,2.140244483947754,78.15524291992188,-2.6093121995648185,-0.007367003618817656,-98.85482023235933,-8.082277,5.3376517,12.113511,25.049526,-17.057617,1.3432807,-8.261057,-1.0682547,-5.7797384,14.7053175,-6.031007,4.023647,-3.631085,-0.97543216,0.9484411,20.031477,17.51393,-12.53043,43.163303,28.967829,9.021793,11.459595,19.09617,-10.541706,19.90974,48.8185,-36.846138,10.446362,-25.980692
105,0.4589498043060303,2.128577709197998,78.1540756225586,-2.617006706465832,-0.004891524412108971,-98.87507095612636,-8.082929,5.3323207,12.114749,25.073095,-17.12315,1.3848118,-8.256271,-1.0648991,-5.760106,14.698055,-6.0249124,4.040273,-3.6249259,-0.97172165,0.9488399,20.071764,17.509424,-12.5417795,43.155,28.93831,8.989802,11.427141,19.081635,-10.551067,19.90829,48.836884,-36.835003,10.441986,-25.929768
106,0.4738418459892273,2.118464469909668,78.15430450439453,-2.6203673318453005,0.002547176828033975,-98.89490501891244,-8.091488,5.3176823,12.106285,25.098612,-17.175682,1.430343,-8.255293,-1.0669461,-5.730235,14.685102,-6.009533,4.0647206,-3.6207564,-0.96014696,0.94416165,20.12631,17.495604,-12.570443,43.13015,28.895731,8.956406,11.396222,19.078741,-10.58284,19.904308,48.83551,-36.814255,10.4333,-25.869072
107,0.4856773316860199,2.1033506393432617,78.1579818725586,-2.62168289197885,0.009784614599036128,-98.91148010328301,-8.092094,5.295208,12.090171,25.106821,-17.219736,1.4607309,-8.25213,-1.0729609,-5.700835,14.670964,-5.9954314,4.089815,-3.6210597,-0.96166104,0.9388787,20.17793,17.490005,-12.58945,43.110634,28.851084,8.916567,11.36102,19.067553,-10.595239,19.902294,48.847115,-36.796814,10.424774,-25.814701
108,0.5013693571090698,2.0855672359466553,78.15738677978516,-2.625763692696602,0.01299916769871524,-98.92131065461497,-8.081646,5.271665,12.067347,25.102602,-17.273129,1.4558059,-8.241149,-1.0788697,-5.6841774,14.656771,-5.9908314,4.108285,-3.6224065,-0.95498323,0.9369875,20.226242,17.479618,-12.613268,43.093422,28.796396,8.878332,11.331189,19.073948,-10.617048,19.89411,48.84395,-36.77987,10.411114,-25.767061
109,0.5135915279388428,2.075486898422241,78.15528869628906,-2.6338658170280094,0.010837321554511954,-98.92312725724113,-8.048974,5.2447042,12.034682,25.063843,-17.330101,1.396862,-8.217532,-1.0831258,-5.68556,14.636261,-5.9943857,4.116335,-3.6309502,-0.9492738,0.94118446,20.275137,17.471495,-12.624632,43.073757,28.733665,8.838655,11.302555,19.083475,-10.630863,19.883234,48.842796,-36.773327,10.394798,-25.73728
110,0.5273838639259338,2.062790632247925,78.15746307373047,-2.6441616808601234,0.0056875148956399176,-98.91876425367745,-8.002092,5.2136793,11.992764,25.001602,-17.387835,1.2987663,-8.186023,-1.087444,-5.698118,14.611138,-6.0025315,4.1184483,-3.644458,-0.93664396,0.9490917,20.322744,17.455887,-12.633785,43.054245,28.662607,8.79762,11.275888,19.10424,-10.652872,19.866604,48.831276,-36.77138,10.373369,-25.715908
111,0.5454404950141907,2.040126085281372,78.15985107421875,-2.6536283636777784,-0.0016469936758725945,-98.91022432488117,-7.9472814,5.1794643,11.948516,24.93002,-17.445845,1.1935496,-8.150467,-1.0946668,-5.714336,14.589388,-6.0190315,4.119765,-3.6617713,-0.92912734,0.9569179,20.3742,17.443644,-12.639953,43.033733,28.59037,8.757665,11.252152,19.123362,-10.666692,19.853369,48.827282,-36.765076,10.350657,-25.696198
112,0.5644046068191528,2.0160348415374756,78.16048431396484,-2.659825147906487,-0.010324663003157767,-98.89981437864591,-7.890732,5.143433,11.908523,24.862976,-17.50379,1.1133553,-8.115922,-1.1070335,-5.7268243,14.581465,-6.048391,4.125392,-3.677223,-0.92431,0.96212995,20.424017,17.429626,-12.6527195,43.02111,28.52411,8.7223215,11.235148,19.148035,-10.680764,19.841856,48.823265,-36.74489,10.326826,-25.66501
113,0.5830674767494202,1.9889451265335083,78.16266632080078,-2.6612934334836544,-0.021428612312432295,-98.88766343277545,-7.8365684,5.1034827,11.870968,24.81076,-17.563766,1.0798748,-8.080124,-1.1267419,-5.732646,14.585573,-6.0892687,4.139369,-3.6926656,-0.9296274,0.966406,20.476498,17.421331,-12.66928,43.012146,28.461632,8.690767,11.22793,19.173822,-10.688192,19.836391,48.82238,-36.705757,10.302581,-25.620499
114,0.6011380553245544,1.964532732963562,78.16664123535156,-2.6595236697756603,-0.03492131316087789,-98.87262165745958,-7.7781215,5.058901,11.833294,24.758345,-17.622671,1.0718398,-8.04018,-1.1520038,-5.7361703,14.594312,-6.138113,4.1582146,-3.706256,-0.9356916,0.9690621,20.529549,17.411757,-12.696223,43.007797,28.39885,8.664142,11.230805,19.20666,-10.696518,19.830269,48.819862,-36.65292,10.276203,-25.56747
115,0.6157978773117065,1.9345966577529907,78.16791534423828,-2.6571152467687082,-0.04831171418913686,-98.85537317771794,-7.716283,5.0167847,11.801591,24.704306,-17.68367,1.0557766,-8.00545,-1.179004,-5.740759,14.62141,-6.2029147,4.1752644,-3.7119749,-0.938118,0.9672588,20.56913,17.396114,-12.737189,43.021114,28.340792,8.641828,11.236425,19.256382,-10.710581,19.819569,48.807457,-36.59375,10.249427,-25.50674
116,0.6325380206108093,1.9030346870422363,78.1699447631836,-2.655777263046509,-0.05925512382321962,-98.83630808759565,-7.6396055,4.979832,11.781517,24.621399,-17.735538,0.9995979,-7.9788294,-1.2044148,-5.7495637,14.666864,-6.284381,4.184067,-3.716101,-0.9422948,0.96065646,20.607883,17.38146,-12.772235,43.036953,28.298183,8.621002,11.22933,19.30888,-10.724272,19.810894,48.799637,-36.536476,10.223272,-25.441368
117,0.6438828110694885,1.8683321475982666,78.17218017578125,-2.6559111822696075,-0.06614637994049832,-98.8145677872692,-7.5448503,4.9505625,11.778689,24.500723,-17.778168,0.8863362,-7.9588494,-1.2257408,-5.762381,14.724567,-6.3815556,4.1864796,-3.7161865,-0.95140165,0.9462279,20.646442,17.373188,-12.800143,43.055946,28.27616,8.602255,11.205303,19.367756,-10.731738,19.806051,48.79578,-36.47684,10.195235,-25.368032
118,0.6564217805862427,1.8313934803009033,78.17076873779297,-2.658013492998449,-0.07067776841201222,-98.78996720103994,-7.4362373,4.927804,11.788044,24.353254,-17.81394,0.7359829,-7.9406905,-1.2437258,-5.778531,14.788319,-6.4902663,4.1845613,-3.718246,-0.96512425,0.9312386,20.68057,17.370855,-12.81313,43.07958,28.271498,8.582423,11.166405,19.415379,-10.733117,19.80525,48.80739,-36.412685,10.162891,-25.286066
119,0.6668898463249207,1.7928004264831543,78.17211151123047,-2.6579298096933384,-0.0749783918921697,-98.76528282401696,-7.3211455,4.904774,11.802997,24.197002,-17.845858,0.57189226,-7.940843,-1.2664437,-5.797486,14.896543,-6.6259456,4.1726975,-3.7113512,-0.9792188,0.9049253,20.72308,17.36774,-12.842892,43.100754,28.268875,8.569024,11.129172,19.494022,-10.735141,19.804417,48.80171,-36.355213,10.140137,-25.205557
120,0.677746057510376,1.7555643320083618,78.17082214355469,-2.659300912314025,-0.08144751869011592,-98.74152970711555,-7.209098,4.8834324,11.812371,24.05358,-17.877178,0.41613847,-7.9633656,-1.2927407,-5.8231463,15.061365,-6.790102,4.1438513,-3.7084928,-0.991015,0.884848,20.75883,17.365732,-12.869204,43.123653,28.260462,8.551973,11.08995,19.563875,-10.736284,19.805567,48.803886,-36.31206,10.127457,-25.132578
121,0.6857686042785645,1.718774676322937,78.16822052001953,-2.661086473430539,-0.08747756954896758,-98.72044143756864,-7.106163,4.8620605,11.814394,23.92765,-17.905571,0.2692938,-8.016822,-1.322845,-5.846642,15.291876,-6.988152,4.0993633,-3.7116113,-1.0012032,0.866431,20.798166,17.364735,-12.890698,43.139095,28.24281,8.528437,11.046419,19.629812,-10.736325,19.814339,48.80991,-36.286037,10.13651,-25.06953
122,0.6928431987762451,1.673724889755249,78.1664047241211,-2.6631988391261667,-0.0928945675440932,-98.70078379247846,-7.005851,4.8414345,11.814022,23.80754,-17.929983,0.12121768,-8.09403,-1.3559271,-5.869599,15.573959,-7.2146688,4.0417075,-3.7232203,-1.0129042,0.847942,20.844368,17.365805,-12.90113,43.14737,28.223118,8.500412,10.996947,19.690199,-10.733889,19.835823,48.822865,-36.270145,10.161701,-25.01326
123,0.6995184421539307,1.6267093420028687,78.16473388671875,-2.664344473357425,-0.10384091743525936,-98.68018749530697,-6.8987775,4.8208904,11.813307,23.690939,-17.956875,-0.021135587,-8.186704,-1.3965884,-5.908381,15.910936,-7.4682455,3.966601,-3.7405388,-1.0272906,0.83499104,20.893913,17.368647,-12.902368,43.151924,28.2083,8.474781,10.948442,19.746061,-10.729041,19.859602,48.8422,-36.266388,10.18384,-24.960405
124,0.7041661739349365,1.5833827257156372,78.15906524658203,-2.662606567899882,-0.1261576778582225,-98.65646185796443,-6.778589,4.7995205,11.814634,23.582115,-17.996582,-0.15087658,-8.288632,-1.4504081,-5.9786835,16.308992,-7.7496133,3.8699179,-3.7611485,-1.0480381,0.8282619,20.949432,17.3732,-12.902731,43.15376,28.201572,8.46252,10.911792,19.808834,-10.722212,19.885155,48.86048,-36.271595,10.189172,-24.91235
125,0.7074897885322571,1.5370372533798218,78.15463256835938,-2.6580219454128935,-0.16234491749057248,-98.62939319101174,-6.6419454,4.777232,11.819451,23.481247,-18.05278,-0.25731173,-8.403955,-1.5128236,-6.058969,16.779818,-8.075614,3.7248814,-3.7790475,-1.0760356,0.83010733,21.004038,17.38122,-12.90978,43.160492,28.207891,8.46846,10.894645,19.881317,-10.711773,19.903387,48.87887,-36.29601,10.164177,-24.871075
126,0.711662769317627,1.4859248399734497,78.14922332763672,-2.650580411406889,-0.20911259251090022,-98.59993422005806,-6.493152,4.753707,11.826446,23.387938,-18.120857,-0.34697723,-8.536171,-1.5838315,-6.1485786,17.321257,-8.441989,3.5424685,-3.793928,-1.1059642,0.8411358,21.049751,17.387373,-12.921724,43.17633,28.22453,8.486133,10.889972,19.961351,-10.703653,19.910383,48.89459,-36.338932,10.117731,-24.832941
127,0.7140759825706482,1.4277008771896362,78.14259338378906,-2.6391273870533687,-0.2635993485610749,-98.56792055269148,-6.330472,4.726075,11.834226,23.28925,-18.188343,-0.4384935,-8.663588,-1.6751385,-6.2951293,17.89091,-8.805961,3.374786,-3.7868476,-1.1579965,0.8508424,21.093338,17.429657,-12.958855,43.187847,28.225828,8.5105915,10.886103,20.05072,-10.6575365,19.902819,48.91932,-36.388725,10.074244,-24.800783
128,0.7124388813972473,1.3665801286697388,78.13743591308594,-2.6252692956828967,-0.32337774049665174,-98.5326687119244,-6.151637,4.6942773,11.839945,23.172314,-18.242748,-0.5504377,-8.76937,-1.7973983,-6.5474205,18.458374,-9.127727,3.2735395,-3.7977364,-1.1964391,0.86715794,21.130743,17.446579,-12.973129,43.205986,28.225807,8.528418,10.871185,20.143515,-10.6383705,19.906914,48.923317,-36.419037,10.044882,-24.752888
129,0.71323162317276,1.307512640953064,78.13179016113281,-2.6057717439920736,-0.38772966633544564,-98.49240521338359,-5.959781,4.6555524,11.843637,23.039745,-18.281256,-0.6970843,-8.846528,-1.9699807,-6.9444647,19.018711,-9.397368,3.2727938,-3.800052,-1.2591496,0.8844822,21.169899,17.502605,-12.987788,43.21015,28.190493,8.539579,10.831899,20.22483,-10.579799,19.909872,48.943737,-36.43344,10.046606,-24.698082
130,0.7070019245147705,1.2454774379730225,78.12692260742188,-2.582656612728648,-0.45800988252570735,-98.447887256898,-5.751108,4.61137,11.8456335,22.888512,-18.306046,-0.86494553,-8.901559,-2.1820107,-7.4520006,19.583527,-9.632882,3.3367977,-3.813729,-1.316497,0.90647906,21.20351,17.545324,-12.989298,43.219963,28.14434,8.548676,10.782299,20.311535,-10.535385,19.92136,48.949207,-36.43327,10.064742,-24.63212
131,0.697403609752655,1.177517056465149,78.12185668945312,-2.561187958274605,-0.5344384264588823,-98.40303007336988,-5.531264,4.5693927,11.846756,22.735163,-18.333002,-1.0337194,-8.9532,-2.4043498,-8.007881,20.176983,-9.855879,3.4124274,-3.8272467,-1.3780689,0.93014944,21.24293,17.598995,-12.986958,43.221424,28.103483,8.555386,10.731492,20.398022,-10.480474,19.936693,48.956493,-36.42656,10.083091,-24.564672
132,0.6886003613471985,1.1024186611175537,78.11404418945312,-2.5466194515402405,-0.6170618635939592,-98.36130013996052,-5.304661,4.537541,11.847582,22.594456,-18.37736,-1.1828254,-9.018025,-2.606238,-8.550057,20.816782,-10.085216,3.4475749,-3.8433723,-1.4255038,0.9540699,21.285114,17.639309,-12.98368,43.225307,28.09589,8.560895,10.69591,20.495718,-10.439147,19.95704,48.951046,-36.41556,10.083414,-24.497545
133,0.6803181171417236,1.0235912799835205,78.10398864746094,-2.5384465894519144,-0.7077415077903055,-98.3226100750814,-5.067933,4.515447,11.848317,22.465363,-18.444065,-1.3053746,-9.093688,-2.796474,-9.115095,21.519794,-10.33109,3.427429,-3.8563447,-1.478177,0.9753653,21.348543,17.699703,-12.981509,43.210903,28.128302,8.562944,10.675023,20.594498,-10.377622,19.98322,48.955616,-36.402477,10.060452,-24.44073
134,0.6708704233169556,0.940929651260376,78.09817504882812,-2.5359252082611503,-0.8058575516357146,-98.28513849363112,-4.822183,4.5004525,11.848392,22.346241,-18.527159,-1.4126669,-9.172889,-2.9859812,-9.718199,22.27256,-10.582173,3.3797836,-3.8752937,-1.5122877,0.99647194,21.409369,17.735987,-12.9790325,43.207718,28.195042,8.563376,10.669637,20.710281,-10.340255,20.014446,48.94009,-36.38155,10.022151,-24.383112
135,0.6554672718048096,0.8554898500442505,78.09666442871094,-2.5369002500679265,-0.9081396491349281,-98.2508055211859,-4.5700636,4.4916205,11.849015,22.232166,-18.615278,-1.5116119,-9.263571,-3.148993,-10.264395,23.041098,-10.822248,3.3180473,-3.8933446,-1.5431309,1.0210277,21.471636,17.772879,-12.972198,43.199623,28.271385,8.563109,10.668439,20.827871,-10.302655,20.049149,48.919422,-36.35839,9.977325,-24.321417
136,0.6391655802726746,0.7673312425613403,78.09656524658203,-2.5421650093072694,-1.0111392318687473,-98.22158447956177,-4.317114,4.489462,11.850862,22.124485,-18.70055,-1.6092087,-9.377601,-3.2580032,-10.659503,23.796673,-11.037885,3.2563865,-3.9051557,-1.5694193,1.0531496,21.52367,17.808788,-12.961476,43.19003,28.337086,8.564168,10.665435,20.94489,-10.265657,20.08133,48.889484,-36.33814,9.93332,-24.247398
137,0.6219796538352966,0.6786285638809204,78.09683990478516,-2.5503036545186726,-1.1161291424227888,-98.19897359410905,-4.0624638,4.495115,11.854587,22.024235,-18.784092,-1.7096777,-9.522475,-3.3087409,-10.890014,24.554241,-11.24274,3.186664,-3.9020147,-1.6053168,1.0955049,21.577105,17.869837,-12.944131,43.15748,28.386547,8.568356,10.652063,21.04315,-10.203746,20.10831,48.87271,-36.329,9.885532,-24.155966
138,0.6070036888122559,0.5861469507217407,78.09844207763672,-2.564054058622571,-1.2242964785379398,-98.18147592711136,-3.8050127,4.509453,11.859185,21.932783,-18.870268,-1.8087021,-9.691013,-3.3110769,-11.003839,25.318808,-11.436265,3.1069148,-3.8905234,-1.623074,1.145992,21.606373,17.91064,-12.928661,43.140587,28.436852,8.575215,10.64168,21.154604,-10.160913,20.127468,48.82955,-36.32457,9.830932,-24.044968
139,0.5901612043380737,0.4832049310207367,78.10206604003906,-2.579221561349019,-1.331491324875912,-98.16700321825259,-3.54642,4.5284452,11.864659,21.844196,-18.951614,-1.9001651,-9.876725,-3.2611527,-10.997775,26.052467,-11.586625,3.0414436,-3.8808005,-1.6393865,1.1991326,21.636492,17.9527,-12.908836,43.118168,28.47955,8.580594,10.634441,21.261412,-10.115734,20.150105,48.787617,-36.31398,9.782814,-23.937845
140,0.5698884129524231,0.38161933422088623,78.09918212890625,-2.59604309749449,-1.4338547979882668,-98.15302658258496,-3.289104,4.548201,11.870776,21.754242,-19.021688,-1.9778988,-10.0727825,-3.154295,-10.8691025,26.716728,-11.663233,3.0150666,-3.8793046,-1.6635296,1.2495347,21.679047,18.006124,-12.885247,43.083324,28.507584,8.581223,10.634002,21.35454,-10.055993,20.180552,48.76431,-36.287987,9.754309,-23.855644
141,0.5470481514930725,0.27428174018859863,78.10067749023438,-2.6144630949656418,-1.5324566406523084,-98.14207450006165,-3.033179,4.572436,11.878215,21.66714,-19.08218,-2.0361326,-10.282152,-2.9760473,-10.594667,27.315863,-11.64944,3.0360286,-3.8913093,-1.6746306,1.2995337,21.723007,18.039833,-12.857312,43.05609,28.51967,8.5735445,10.655337,21.447906,-10.014235,20.226526,48.738796,-36.239975,9.759193,-23.795696
142,0.5268774032592773,0.16556745767593384,78.10323333740234,-2.6369521419811095,-1.6286290446119602,-98.13442563174466,-2.7781098,4.601607,11.886883,21.584978,-19.136305,-2.0794969,-10.505473,-2.729422,-10.185076,27.86349,-11.56483,3.094067,-3.9133105,-1.681152,1.3505001,21.773767,18.06779,-12.820551,43.02531,28.51876,8.559647,10.689797,21.534779,-9.975399,20.287119,48.718697,-36.176685,9.787841,-23.751375
143,0.5031247138977051,0.04648571088910103,78.10441589355469,-2.6576121643665407,-1.7188231087333403,-98.12453430096052,-2.5243912,4.6298285,11.894482,21.497473,-19.178514,-2.117691,-10.738797,-2.4371207,-9.687963,28.348581,-11.431013,3.1857193,-3.947344,-1.687009,1.3973784,21.825987,18.091255,-12.782277,42.990612,28.516212,8.548153,10.720991,21.616652,-9.939602,20.34613,48.700592,-36.100746,9.813423,-23.723719
144,0.4775994122028351,-0.07805676013231277,78.10150909423828,-2.673491644806737,-1.7989907460204522,-98.10690244364899,-2.2749224,4.651219,11.898611,21.398981,-19.205366,-2.1602004,-10.979843,-2.12352,-9.150268,28.763107,-11.271547,3.3058295,-3.9937987,-1.6930296,1.4351054,21.870926,18.10863,-12.75359,42.954605,28.522627,8.547967,10.732557,21.703182,-9.910129,20.3852,48.673546,-36.0148,9.808215,-23.712133
145,0.44875138998031616,-0.20074059069156647,78.10176086425781,-2.6830979099766163,-1.8692430147217391,-98.08094927439934,-2.0270934,4.664006,11.899885,21.28281,-19.208618,-2.2092974,-11.234406,-1.7783587,-8.5475645,29.109978,-11.073842,3.466552,-4.0553613,-1.7059001,1.462059,21.916134,18.126968,-12.730111,42.908207,28.542253,8.568227,10.716708,21.78568,-9.878059,20.406563,48.645798,-35.909405,9.755146,-23.726246
146,0.41588884592056274,-0.33296528458595276,78.0960693359375,-2.6881089701808576,-1.9309693703946471,-98.04947228261106,-1.7816353,4.67204,11.898958,21.156193,-19.193888,-2.2599785,-11.500234,-1.3937014,-7.866976,29.39334,-10.834225,3.6675253,-4.1262894,-1.7153504,1.4817173,21.953392,18.137835,-12.717871,42.861633,28.567268,8.60253,10.68479,21.876072,-9.856963,20.410328,48.603752,-35.78634,9.670292,-23.759518
147,0.3852967321872711,-0.47177961468696594,78.0956802368164,-2.6893007109549893,-1.9838418396322268,-98.01139710393268,-1.5408777,4.675366,11.893803,21.023111,-19.172644,-2.3110502,-11.762745,-1.0012442,-7.171082,29.604433,-10.5869875,3.8819225,-4.2067122,-1.7349975,1.49348,21.98976,18.157354,-12.709795,42.8088,28.593618,8.633904,10.641536,21.954813,-9.820318,20.398901,48.57796,-35.669346,9.583663,-23.802818
148,0.35087695717811584,-0.6125255227088928,78.09650421142578,-2.690321509648547,-2.0272922625432557,-97.96615751192927,-1.3089967,4.675707,11.882209,20.891045,-19.158388,-2.3612137,-12.009015,-0.63336504,-6.5225058,29.736094,-10.365961,4.0803766,-4.2916956,-1.7576565,1.4982556,22.012897,18.180248,-12.715932,42.76168,28.614367,8.646427,10.596163,22.0336,-9.776897,20.364702,48.55898,-35.577984,9.5213785,-23.838684
149,0.31945914030075073,-0.7614002823829651,78.09615325927734,-2.6859621725601657,-2.0598718355606684,-97.91121301202949,-1.0876055,4.67078,11.86274,20.759605,-19.150467,-2.410559,-12.240043,-0.28290093,-5.893764,29.77863,-10.180562,4.2616043,-4.3860846,-1.784632,1.4942337,22.023703,18.205837,-12.735881,42.72164,28.63103,8.631265,10.543333,22.113628,-9.728987,20.301762,48.545494,-35.50999,9.489665,-23.863825
150,0.28140515089035034,-0.9137128591537476,78.09198760986328,-2.6793026061049723,-2.0825817790271253,-97.84772935361217,-0.8756111,4.6607237,11.836716,20.627975,-19.144567,-2.4594207,-12.461634,0.059043273,-5.264993,29.740396,-10.013091,4.43587,-4.486282,-1.817957,1.4813952,22.02303,18.237797,-12.771371,42.685814,28.644207,8.598812,10.4812155,22.193256,-9.669631,20.211119,48.539856,-35.4584,9.474301,-23.88671
151,0.23423056304454803,-1.0677483081817627,78.08956146240234,-2.671144434911445,-2.0971041954304503,-97.78007332013071,-0.66771984,4.648966,11.806317,20.493374,-19.143059,-2.5068784,-12.669771,0.36192358,-4.71019,29.638334,-9.85347,4.590017,-4.603539,-1.8456521,1.4658055,22.020557,18.257484,-12.801894,42.64689,28.656672,8.559869,10.422811,22.274048,-9.631842,20.124262,48.52555,-35.424183,9.472058,-23.904757
152,0.195550337433815,-1.2242321968078613,78.08353424072266,-2.6634010824122814,-2.1056100965215054,-97.71276620170777,-0.45991278,4.638205,11.774002,20.355223,-19.149563,-2.551958,-12.861566,0.59465754,-4.303162,29.489344,-9.691002,4.7112365,-4.704717,-1.874153,1.449405,21.996016,18.283363,-12.852519,42.61604,28.657898,8.528276,10.3824,22.348206,-9.581983,20.025875,48.526012,-35.430904,9.47982,-23.922941
153,0.1516324281692505,-1.386820673942566,78.07979583740234,-2.653366302047739,-2.1081400530373093,-97.64703649163134,-0.24510837,4.625035,11.741866,20.201887,-19.164679,-2.5935788,-13.031973,0.74684596,-4.0592713,29.282043,-9.523542,4.8001356,-4.807677,-1.9028174,1.4332092,21.966776,18.304916,-12.900805,42.582,28.644089,8.503372,10.365678,22.414015,-9.538132,19.93566,48.5333,-35.482018,9.499062,-23.941109
154,0.10606863349676132,-1.5589849948883057,78.07408142089844,-2.6426316662262765,-2.1039927588896776,-97.58041700708078,-0.028145244,4.6090765,11.708141,20.038351,-19.186844,-2.632635,-13.186524,0.8352739,-3.940511,29.014204,-9.356024,4.8610225,-4.910587,-1.9320644,1.4152104,21.926973,18.324001,-12.954545,42.549988,28.618351,8.480091,10.365269,22.474033,-9.496447,19.841549,48.54742,-35.571438,9.530644,-23.958448
155,0.059826433658599854,-1.7324050664901733,78.06829071044922,-2.6360334415286233,-2.0931518334783243,-97.51214362084076,0.17922483,4.5991073,11.669389,19.8862,-19.215672,-2.671166,-13.334629,0.8712686,-3.9410927,28.708302,-9.184779,4.887448,-5.010267,-1.9557564,1.3966689,21.872288,18.341959,-13.018706,42.52043,28.597044,8.461179,10.371015,22.52961,-9.455404,19.749823,48.56812,-35.67889,9.5719185,-23.973156
156,0.016048988327383995,-1.9111064672470093,78.06259155273438,-2.638544166335759,-2.075566757807797,-97.44157577832935,0.3702129,4.602256,11.622505,19.75588,-19.244606,-2.7109125,-13.487169,0.8660628,-4.055409,28.390068,-9.007773,4.8730617,-5.1096992,-1.9660052,1.3795719,21.80407,18.356493,-13.091259,42.48958,28.597519,8.448753,10.372443,22.58413,-9.421891,19.67365,48.589214,-35.781116,9.620054,-23.982304
157,-0.03440936282277107,-2.0926921367645264,78.05754089355469,-2.6576022202114817,-2.0497242258729074,-97.36491373240472,0.52695864,4.630023,11.563456,19.680403,-19.291864,-2.7628138,-13.64619,0.8131765,-4.3150744,28.066181,-8.833453,4.799264,-5.2153215,-1.9551165,1.363734,21.72335,18.365198,-13.172525,42.455997,28.639557,8.4468975,10.369548,22.638607,-9.402679,19.619938,48.607136,-35.87725,9.688738,-23.984413
158,-0.08513542264699936,-2.277583599090576,78.04825592041016,-2.6895233839505703,-2.0163255551255532,-97.28376550295185,0.66761863,4.673026,11.495282,19.624813,-19.343782,-2.8218129,-13.805707,0.7109362,-4.713272,27.723593,-8.660758,4.6756735,-5.3415704,-1.9322606,1.3507749,21.651308,18.368217,-13.236133,42.40203,28.71683,8.450541,10.362685,22.679115,-9.396391,19.598574,48.63134,-35.974716,9.774952,-23.98107
159,-0.13948902487754822,-2.4622435569763184,78.03606414794922,-2.72154803065197,-1.9779104871859257,-97.20561940264321,0.79728603,4.718553,11.424502,19.586842,-19.394907,-2.8683205,-13.964713,0.5791889,-5.1857967,27.35942,-8.474932,4.537815,-5.4147553,-1.897911,1.3349549,21.510832,18.375193,-13.373532,42.39487,28.768686,8.461129,10.36231,22.747654,-9.382206,19.535896,48.644524,-36.078957,9.848466,-23.973358
160,-0.19011914730072021,-2.6589179039001465,78.02507781982422,-2.74189537818313,-1.9375404168145784,-97.138200671783,0.9235695,4.752535,11.357607,19.558668,-19.43672,-2.8824284,-14.125818,0.4360315,-5.6679225,26.976028,-8.262552,4.420763,-5.5037656,-1.8759464,1.3265315,21.395554,18.378826,-13.466058,42.35513,28.794378,8.461177,10.3468895,22.791689,-9.374547,19.507137,48.672836,-36.165184,9.8832445,-23.96295
161,-0.2458018660545349,-2.8556811809539795,78.0125961303711,-2.746609769547045,-1.8959905583783125,-97.08161646027959,1.0420022,4.769185,11.290747,19.545805,-19.455782,-2.8465943,-14.286347,0.2707157,-6.176644,26.568632,-8.012838,4.3306074,-5.596505,-1.8663636,1.3249741,21.286411,18.379274,-13.532531,42.299,28.76945,8.452216,10.315886,22.81821,-9.373013,19.500332,48.713802,-36.23767,9.855926,-23.952892
162,-0.303305447101593,-3.055452585220337,77.99488067626953,-2.7421744499619227,-1.8516293206617322,-97.03269719238844,1.1506697,4.7765927,11.222319,19.550344,-19.460678,-2.7755482,-14.445247,0.07991602,-6.735458,26.1369,-7.7346516,4.249799,-5.683467,-1.8603989,1.3275238,21.167421,18.37641,-13.595734,42.240242,28.708937,8.43955,10.275935,22.838276,-9.377397,19.504528,48.760574,-36.3014,9.786394,-23.941595
163,-0.3601083755493164,-3.2605700492858887,77.97914123535156,-2.733694908900753,-1.8042482354112541,-96.99285616620898,1.2623365,4.7812653,11.161933,19.55457,-19.472187,-2.6980631,-14.608819,-0.10933202,-7.2886014,25.692995,-7.445413,4.177599,-5.769147,-1.8589224,1.3348148,21.059155,18.372103,-13.63906,42.160484,28.646431,8.420406,10.229675,22.845686,-9.384509,19.520506,48.81467,-36.351086,9.711299,-23.923328
164,-0.4191517233848572,-3.4764931201934814,77.96441650390625,-2.7258684302299736,-1.7531891236650368,-96.96410264148145,1.3887675,4.7904963,11.119101,19.543005,-19.512783,-2.642853,-14.7822895,-0.26952192,-7.7801785,25.243979,-7.159704,4.1131387,-5.82753,-1.8490934,1.338529,20.922468,18.35931,-13.704226,42.104305,28.594141,8.396643,10.194479,22.87661,-9.401937,19.528917,48.845776,-36.373657,9.669249,-23.892227
165,-0.4850141108036041,-3.69645094871521,77.94779968261719,-2.719776753772791,-1.6984057272404176,-96.9464862798655,1.5341855,4.80591,11.096433,19.510313,-19.593002,-2.6198828,-14.966454,-0.39703354,-8.196396,24.785685,-6.871584,4.058846,-5.86701,-1.8365308,1.3453718,20.78936,18.343418,-13.76574,42.030067,28.577179,8.3646755,10.161791,22.90853,-9.42024,19.53398,48.871548,-36.3654,9.675393,-23.842754
166,-0.5444837808609009,-3.9119787216186523,77.9271240234375,-2.712972406302317,-1.6401897378608337,-96.93910442321913,1.6913948,4.8243575,11.088695,19.466228,-19.699821,-2.6132598,-15.160799,-0.5059218,-8.566371,24.318901,-6.5760818,4.014047,-5.882521,-1.8155694,1.3531315,20.633692,18.314491,-13.839983,41.96734,28.57496,8.326745,10.134494,22.954136,-9.449832,19.53081,48.881233,-36.331192,9.70845,-23.77844
167,-0.6076724529266357,-4.1425886154174805,77.90369415283203,-2.7039485334894846,-1.5786960601082978,-96.94173780208071,1.8583387,4.8424053,11.093605,19.411108,-19.817686,-2.6123896,-15.362276,-0.5979587,-8.89757,23.846292,-6.2889247,3.9735694,-5.8940105,-1.8024606,1.3607261,20.49139,18.291103,-13.899637,41.88958,28.572882,8.2850485,10.108209,22.987116,-9.471194,19.532146,48.903973,-36.292137,9.746259,-23.711063
168,-0.6744592785835266,-4.376846790313721,77.88136291503906,-2.690348637657952,-1.5140914618558015,-96.95408149546094,2.031199,4.858607,11.108592,19.349075,-19.93303,-2.606708,-15.570929,-0.6744018,-9.197997,23.377758,-6.024683,3.9321942,-5.903516,-1.7916325,1.3647476,20.354834,18.265497,-13.952441,41.815445,28.552353,8.24491,10.089071,23.01489,-9.491766,19.527502,48.934425,-36.26949,9.764761,-23.64682
169,-0.7471612691879272,-4.616130352020264,77.86066436767578,-2.672846984673496,-1.4455565073756922,-96.9810905448576,2.211653,4.87344,11.140755,19.275778,-20.04253,-2.5955408,-15.795177,-0.73312116,-9.463421,22.920595,-5.7877445,3.8813303,-5.9068985,-1.7852719,1.3629676,20.225449,18.238298,-13.99367,41.745083,28.50636,8.203318,10.078558,23.034155,-9.511203,19.517374,48.97901,-36.27117,9.751513,-23.583153
170,-0.8192003965377808,-4.857880115509033,77.83528137207031,-2.6535885691777557,-1.37334181502712,-97.02118311705942,2.3996606,4.8885546,11.188531,19.193398,-20.154776,-2.583925,-16.031572,-0.77475995,-9.691664,22.466763,-5.568393,3.8260245,-5.9001245,-1.7675259,1.3554747,20.074728,18.182816,-14.035708,41.709038,28.449438,8.160122,10.081374,23.061407,-9.546913,19.496622,49.018017,-36.28529,9.720966,-23.514366
171,-0.8979175090789795,-5.1081366539001465,77.80685424804688,-2.6290330270303968,-1.2992575049594755,-97.06423405284289,2.5935545,4.8988037,11.2372,19.10642,-20.268448,-2.5692368,-16.266277,-0.8073157,-9.892192,22.009413,-5.366501,3.7816112,-5.9055934,-1.765249,1.3500732,19.957851,18.147415,-14.057462,41.641018,28.384724,8.120197,10.081795,23.067514,-9.567719,19.482851,49.075394,-36.30166,9.691119,-23.455048
172,-0.9708480834960938,-5.367910385131836,77.77488708496094,-2.5991588878868392,-1.2251221611511223,-97.10015681052619,2.7892506,4.9013696,11.271546,19.024664,-20.385517,-2.5488927,-16.484192,-0.8367242,-10.075306,21.540142,-5.1806235,3.7636154,-5.9336257,-1.7648867,1.3497614,19.85922,18.110966,-14.073268,41.56104,28.324121,8.092495,10.083023,23.06188,-9.586824,19.467098,49.135147,-36.313522,9.678522,-23.411509
173,-1.055037498474121,-5.631638526916504,77.73880004882812,-2.563916583521521,-1.1536898398978137,-97.12768190489544,2.9831672,4.8928623,11.28523,18.960182,-20.508965,-2.5120554,-16.678719,-0.8595895,-10.2256775,21.044353,-5.0083013,3.7888513,-5.996358,-1.7659998,1.3616337,19.783033,18.06597,-14.073821,41.46375,28.267225,8.083491,10.08977,23.036104,-9.608253,19.456562,49.198845,-36.3184,9.695538,-23.390635
174,-1.138617992401123,-5.901402473449707,77.70515441894531,-2.522949242737894,-1.0833112726363427,-97.15153568079127,3.1780217,4.8757887,11.286694,18.905783,-20.637787,-2.4634829,-16.85783,-0.8745463,-10.343723,20.52923,-4.849906,3.844832,-6.0901594,-1.7657137,1.3809807,19.72546,18.004488,-14.054313,41.3572,28.21469,8.08802,10.10279,22.990805,-9.636305,19.454597,49.269398,-36.3195,9.730899,-23.386343
175,-1.221112847328186,-6.174842834472656,77.66564178466797,-2.479414598356044,-1.0097045336702835,-97.1707772988875,3.3809571,4.854503,11.283482,18.837553,-20.764528,-2.4236276,-17.028467,-0.89071333,-10.463159,20.017653,-4.708242,3.9033854,-6.1912637,-1.7706182,1.396087,19.68283,17.955038,-14.036867,41.24309,28.16583,8.094277,10.1096325,22.945189,-9.658024,19.444635,49.33939,-36.318245,9.765376,-23.387787
176,-1.3111554384231567,-6.4614033699035645,77.62631225585938,-2.436570575230655,-0.9280954271684726,-97.18483749729265,3.5989814,4.834738,11.283116,18.732113,-20.882118,-2.4132464,-17.196836,-0.91575116,-10.6182785,19.531923,-4.585654,3.9363923,-6.285855,-1.7703992,1.3928614,19.634668,17.908457,-14.037712,41.151524,28.131433,8.0926075,10.10519,22.917646,-9.676578,19.414719,49.400814,-36.31552,9.78029,-23.383873
177,-1.401114583015442,-6.750926971435547,77.58824920654297,-2.3969666968297267,-0.8353789831816049,-97.19645894608013,3.8346183,4.8156433,11.290518,18.576548,-20.98655,-2.4427514,-17.371138,-0.94894654,-10.809195,19.07395,-4.483152,3.9369874,-6.3606796,-1.7596756,1.363443,19.561962,17.852736,-14.06992,41.104797,28.125885,8.082739,10.08926,22.920183,-9.695422,19.351137,49.447678,-36.30737,9.762264,-23.37128
178,-1.4952044486999512,-7.053605556488037,77.54830932617188,-2.3555964648002083,-0.7341981989981483,-97.20490967282856,4.0850277,4.795251,11.300916,18.382767,-21.080858,-2.4996424,-17.546705,-0.9865245,-11.021013,18.635336,-4.400514,3.920063,-6.42584,-1.751126,1.3176675,19.490461,17.810802,-14.119617,41.0683,28.135323,8.068113,10.060864,22.93918,-9.705812,19.26664,49.486393,-36.293617,9.723861,-23.356518
179,-1.5925284624099731,-7.367949962615967,77.50123596191406,-2.3169415681157335,-0.630026246220656,-97.20483721254996,4.3445563,4.777919,11.3071375,18.174923,-21.173508,-2.5701396,-17.708391,-1.0306978,-11.265391,18.215866,-4.334743,3.890569,-6.5038257,-1.7421715,1.2650694,19.439394,17.78288,-14.169889,41.023808,28.140665,8.047676,10.0233345,22.958897,-9.709745,19.181189,49.52619,-36.283394,9.686202,-23.341658
180,-1.6912920475006104,-7.68432092666626,77.4570083618164,-2.281116583190873,-0.5278819107044407,-97.1906444498719,4.6076627,4.768892,11.30213,17.977913,-21.274086,-2.6405532,-17.840117,-1.0824102,-11.554349,17.81385,-4.2817397,3.853473,-6.5964117,-1.7196482,1.2127856,19.385681,17.75331,-14.23123,40.997715,28.122675,8.021298,9.987092,22.978367,-9.711907,19.085447,49.56772,-36.29541,9.668811,-23.326202
181,-1.7948375940322876,-8.00245475769043,77.40861511230469,-2.2526630325293286,-0.4286173377860527,-97.16123843529603,4.8716917,4.7722487,11.28545,17.798306,-21.383438,-2.7076416,-17.94259,-1.1415951,-11.897255,17.428999,-4.2315965,3.8151116,-6.7266097,-1.6828408,1.165031,19.356052,17.724669,-14.2844715,40.96374,28.067549,7.985839,9.948043,22.980047,-9.713239,18.995127,49.6215,-36.339157,9.682538,-23.309286
182,-1.9022884368896484,-8.339475631713867,77.36006164550781,-2.2277786680743596,-0.32932719003838673,-97.11954457436612,5.14234,4.7844124,11.260936,17.617907,-21.497309,-2.7785215,-18.022795,-1.206806,-12.285783,17.06218,-4.18954,3.7715697,-6.887683,-1.6365657,1.1169505,19.350082,17.700287,-14.32865,40.922924,27.990217,7.941861,9.903077,22.970173,-9.714245,18.910814,49.68265,-36.402813,9.715138,-23.290873
183,-2.0186607837677,-8.684050559997559,77.30915069580078,-2.2034577721027038,-0.23037950951082312,-97.06638568000727,5.420023,4.7989655,11.227112,17.436361,-21.61403,-2.8551195,-18.075914,-1.277609,-12.705458,16.718328,-4.1769404,3.7124898,-7.0564938,-1.5846442,1.0653892,19.351707,17.679987,-14.377998,40.88794,27.912636,7.8961344,9.858085,22.96765,-9.714779,18.82801,49.738796,-36.46326,9.753493,-23.275671
184,-2.1317713260650635,-9.030820846557617,77.2568588256836,-2.174768278012606,-0.13203604621918635,-97.00267459355588,5.7072673,4.809335,11.1825075,17.248358,-21.731123,-2.9392457,-18.096182,-1.3539706,-13.141371,16.398909,-4.213368,3.6278424,-7.2063007,-1.5295155,1.0065669,19.340006,17.660173,-14.452152,40.8773,27.857405,7.8567758,9.8209505,22.990665,-9.715357,18.736012,49.780266,-36.499825,9.784622,-23.268803
185,-2.2542688846588135,-9.389403343200684,77.19950103759766,-2.118279458198013,-0.038019024274045736,-96.92577277434808,6.026219,4.7823625,11.126983,17.015396,-21.831738,-3.026089,-18.054792,-1.466201,-13.617467,16.053444,-4.356104,3.564381,-7.344877,-1.5013167,0.9410133,19.331217,17.648167,-14.539616,40.87683,27.829899,7.8212,9.7913065,23.042553,-9.715287,18.64791,49.8021,-36.495647,9.806723,-23.276953
186,-2.3773207664489746,-9.758477210998535,77.1370620727539,-2.0440319393969686,0.053024404829353264,-96.83607379345804,6.3683944,4.7329288,11.060948,16.752197,-21.921934,-3.1167765,-17.96285,-1.6028657,-14.132595,15.695312,-4.575506,3.5128646,-7.471595,-1.4854206,0.8694773,19.315714,17.640255,-14.649608,40.895252,27.816061,7.787911,9.768159,23.120695,-9.714192,18.551035,49.806667,-36.46932,9.825447,-23.29476
187,-2.500910758972168,-10.140130996704102,77.07318878173828,-1.997630532346086,0.14899839594120734,-96.73933640511406,6.6889496,4.725244,10.984975,16.536726,-22.035898,-3.2219098,-17.87837,-1.7039125,-14.6330805,15.433084,-4.769595,3.3760755,-7.600447,-1.4365984,0.7923399,19.312796,17.63722,-14.756937,40.911865,27.81952,7.7599654,9.744295,23.197506,-9.713555,18.466864,49.815567,-36.43274,9.842589,-23.314003
188,-2.6304304599761963,-10.531062126159668,77.00870513916016,-2.0258395111697967,0.2579917483549163,-96.64204085644103,6.944226,4.824813,10.901318,16.443743,-22.206999,-3.3522425,-17.861256,-1.7108232,-15.06438,15.378638,-4.839081,3.0532997,-7.6937833,-1.2965305,0.707921,19.272802,17.637148,-14.905215,40.96541,27.827456,7.743204,9.721796,23.29239,-9.714279,18.358145,49.813377,-36.411377,9.856234,-23.320156
189,-2.75437068939209,-10.926582336425781,76.9438247680664,-2.1536430745702826,0.38687790969695096,-96.54788535464583,7.122884,5.0643005,10.816006,16.484802,-22.4522,-3.517426,-17.950342,-1.5974654,-15.413609,15.609595,-4.7290425,2.446334,-7.775717,-1.0446827,0.6133164,19.233501,17.641773,-15.063698,41.026123,27.855398,7.7425003,9.696815,23.383064,-9.717677,18.254147,49.81837,-36.400997,9.869011,-23.311329
190,-2.894141674041748,-11.320846557617188,76.89686584472656,-2.35140802610553,0.5295384055701454,-96.45308332613955,7.250021,5.40295,10.726912,16.619276,-22.749382,-3.7093809,-18.106846,-1.4035344,-15.714699,16.050205,-4.4998837,1.6306425,-7.859592,-0.71545184,0.51136035,19.205273,17.649479,-15.215449,41.08796,27.90678,7.7524805,9.669439,23.46515,-9.724417,18.167429,49.83234,-36.390686,9.882265,-23.295456
191,-3.0402796268463135,-11.71622085571289,76.85254669189453,-2.5836143687477926,0.674479492819617,-96.35186865370318,7.3365097,5.79394,10.622956,16.843328,-23.074202,-3.91209,-18.273102,-1.1702245,-15.981925,16.581997,-4.226785,0.7654775,-7.9421477,-0.34192222,0.41239846,19.178358,17.658348,-15.3625765,41.149967,27.962933,7.76364,9.63696,23.539362,-9.733924,18.092234,49.854004,-36.3816,9.892783,-23.27682
192,-3.1774532794952393,-12.136516571044922,76.78929901123047,-2.8163021988077,0.8108213343530655,-96.23879156432992,7.3894224,6.1935015,10.4926405,17.160114,-23.405405,-4.1097174,-18.392584,-0.93468934,-16.222979,17.08988,-3.9900973,0.0086629065,-8.006091,0.047213458,0.32574454,19.131971,17.670855,-15.527148,41.216297,27.997602,7.767586,9.598617,23.619455,-9.750972,18.006838,49.86892,-36.376442,9.895206,-23.256613
193,-3.310715675354004,-12.562030792236328,76.71746826171875,-3.051241326827499,0.9393295324117862,-96.10060770838538,7.4091396,6.604033,10.31885,17.566196,-23.754877,-4.29835,-18.46267,-0.6942964,-16.424128,17.582006,-3.7516396,-0.6553001,-8.080286,0.45431006,0.24371415,19.082064,17.686625,-15.697364,41.274223,28.011747,7.7642374,9.539164,23.705118,-9.774873,17.929295,49.880077,-36.382504,9.8933935,-23.239496
194,-3.4517879486083984,-12.983285903930664,76.65168762207031,-3.3030356112301713,1.0646222993819394,-95.94348755219146,7.3922653,7.0441113,10.110621,18.060062,-24.127037,-4.4863634,-18.507092,-0.43308744,-16.586422,18.10314,-3.4873343,-1.2923738,-8.175145,0.88774204,0.16500676,19.040613,17.700344,-15.849747,41.3232,28.02457,7.7568583,9.463304,23.77263,-9.797192,17.875816,49.91122,-36.395706,9.891034,-23.227104
195,-3.6057937145233154,-13.396598815917969,76.60226440429688,-3.5598194528455096,1.1823485649675638,-95.79250636933617,7.3430243,7.496693,9.896907,18.64157,-24.488148,-4.6765637,-18.512451,-0.162295,-16.732147,18.602434,-3.3069396,-1.8207572,-8.23948,1.3365947,0.109387495,18.98655,17.715994,-16.00038,41.37248,28.025278,7.740682,9.397982,23.829922,-9.832377,17.818281,49.94131,-36.39599,9.87815,-23.208881
196,-3.7589774131774902,-13.802425384521484,76.56267547607422,-3.8099517862510512,1.2881497664572985,-95.67338328285395,7.2598343,7.9458957,9.706478,19.323458,-24.805986,-4.871689,-18.466967,0.10830544,-16.879597,19.029488,-3.319026,-2.1570432,-8.286788,1.773231,0.096842155,18.954689,17.721176,-16.069597,41.4004,28.039803,7.706041,9.362351,23.807608,-9.870762,17.800428,50.024586,-36.356697,9.855545,-23.189747
197,-3.9017417430877686,-14.198324203491211,76.52147674560547,-4.065719461093588,1.3822296356580381,-95.59881000064674,7.147211,8.404065,9.556641,20.103275,-25.094236,-5.0672774,-18.363386,0.39473173,-17.032667,19.370281,-3.605121,-2.227892,-8.314396,2.2265997,0.13771167,18.94806,17.697746,-16.04026,41.40614,28.076525,7.630221,9.364187,23.71281,-9.9544525,17.839712,50.138027,-36.235325,9.805899,-23.162142
198,-4.039403915405273,-14.594724655151367,76.48550415039062,-4.329963701196119,1.4669731077401327,-95.55409751658313,7.002205,8.877055,9.428259,20.978914,-25.363081,-5.2633214,-18.214552,0.6986237,-17.179235,19.65973,-4.093419,-2.0943737,-8.338875,2.6948428,0.215676,18.954952,17.63973,-15.921438,41.409744,28.13998,7.5249667,9.393902,23.53266,-10.052492,17.933151,50.31242,-36.060123,9.741491,-23.137026
199,-4.160271644592285,-14.997300148010254,76.46168518066406,-4.578285347141565,1.5418503995195678,-95.52388496845109,6.814378,9.339106,9.296174,21.959814,-25.577686,-5.469045,-18.036322,0.9930214,-17.3136,19.914213,-4.658682,-1.8742095,-8.364542,3.14976,0.31915724,18.968885,17.555923,-15.747997,41.41057,28.205793,7.431953,9.445684,23.30155,-10.164276,18.049,50.51231,-35.89016,9.685036,-23.106985
200,-4.283623695373535,-15.390348434448242,76.44247436523438,-4.7845326217271085,1.6058176944316997,-95.4917794374026,6.573946,9.761606,9.134838,23.056265,-25.703636,-5.6944084,-17.842525,1.2495594,-17.428513,20.147318,-5.174632,-1.6845967,-8.400623,3.5562572,0.4381667,18.992067,17.46049,-15.546235,41.400043,28.251373,7.392263,9.511944,23.04495,-10.281381,18.161745,50.712402,-35.784958,9.660715,-23.067032
201,-4.415019989013672,-15.77605152130127,76.4271011352539,-4.936019046804375,1.6537403787002658,-95.4583193596921,6.3026657,10.128865,8.965788,24.248432,-25.745127,-5.9523864,-17.631874,1.4545861,-17.513844,20.364597,-5.6222296,-1.5221603,-8.447701,3.8927615,0.57935077,19.038876,17.359646,-15.296256,41.36713,28.257612,7.4295864,9.604273,22.752169,-10.397769,18.279625,50.9283,-35.76685,9.679013,-23.013693
202,-4.550868511199951,-16.159923553466797,76.40752410888672,-5.047370635602441,1.687442669887253,-95.43018106845174,5.999483,10.4548235,8.794257,25.537777,-25.716488,-6.234981,-17.399319,1.6247376,-17.576908,20.559237,-6.0650015,-1.3362406,-8.4983225,4.17636,0.7452902,19.105595,17.254099,-14.995572,41.313232,28.237642,7.517603,9.720536,22.415562,-10.511659,18.409773,51.16764,-35.80298,9.725514,-22.950796
203,-4.692513465881348,-16.540525436401367,76.3990707397461,-5.132991005471858,1.7161580263390324,-95.40022882325222,5.6229353,10.752485,8.569301,26.96002,-25.595263,-6.5253105,-17.144197,1.7791338,-17.634481,20.71114,-6.4928646,-1.1727427,-8.545385,4.427863,0.92019665,19.1672,17.153631,-14.69883,41.247387,28.217602,7.622699,9.832507,22.062536,-10.620294,18.519855,51.39672,-35.871708,9.787407,-22.885502
204,-4.843531608581543,-16.91470718383789,76.3958969116211,-5.207433363285471,1.7492211291220514,-95.36084003056136,5.133464,11.033908,8.239626,28.545414,-25.358044,-6.803614,-16.86589,1.9363545,-17.702135,20.800356,-6.8953867,-1.0772469,-8.577993,4.6674585,1.0882199,19.200193,17.07391,-14.465886,41.17594,28.220716,7.7112846,9.911253,21.725365,-10.717977,18.574095,51.578728,-35.95241,9.851644,-22.82444
205,-4.999804496765137,-17.281829833984375,76.40027618408203,-5.2696649081964715,1.7900570495630157,-95.30207277930516,4.509831,11.295067,7.7763886,30.32705,-24.998936,-7.066689,-16.56671,2.0922084,-17.791904,20.831137,-7.277823,-1.0799978,-8.593178,4.889445,1.2427408,19.199053,17.029417,-14.322174,41.096786,28.261526,7.7938967,9.9485035,21.415539,-10.796948,18.5516,51.704063,-36.057472,9.921386,-22.759048
206,-5.158961772918701,-17.649559020996094,76.41275024414062,-5.312555737332008,1.833239604344405,-95.23029320138546,3.782945,11.522701,7.213819,32.2672,-24.525377,-7.330298,-16.243868,2.2396617,-17.89101,20.8072,-7.6409354,-1.1507002,-8.582852,5.073983,1.3887132,19.172565,17.028103,-14.246483,41.009476,28.318811,7.8834534,9.960253,21.105707,-10.832375,18.46514,51.81476,-36.197903,10.003718,-22.695612
207,-5.321145534515381,-18.011192321777344,76.43746948242188,-5.343200206713027,1.8752009575247774,-95.16276783324312,2.9775403,11.71853,6.590848,34.318184,-23.93744,-7.603332,-15.895189,2.3903637,-17.978516,20.719152,-7.972103,-1.243616,-8.55446,5.243919,1.5413506,19.142881,17.050743,-14.198722,40.895306,28.37167,7.944286,9.946535,20.801394,-10.865024,18.343714,51.884605,-36.339767,10.082902,-22.644547
208,-5.482532501220703,-18.366134643554688,76.47112274169922,-5.36838806644756,1.912359702284308,-95.1169817354766,2.1175518,11.886617,5.945433,36.43524,-23.236122,-7.8910384,-15.518172,2.5553286,-18.033285,20.55684,-8.258342,-1.312549,-8.487772,5.406299,1.7060801,19.112413,17.107723,-14.17546,40.750538,28.3814,7.9445596,9.911404,20.502008,-10.897572,18.198635,51.913815,-36.45285,10.14574,-22.62545
209,-5.641578197479248,-18.71142578125,76.50398254394531,-5.395693851122768,1.943838714222692,-95.09956304926175,1.2125459,12.03835,5.2780848,38.606964,-22.365044,-8.286559,-15.09565,2.7509966,-18.04948,20.279884,-8.478644,-1.3493791,-8.383968,5.5708113,1.8846377,19.077866,17.195911,-14.178428,40.571728,28.33823,7.861058,9.840883,20.193626,-10.920981,18.025972,51.918755,-36.543343,10.195321,-22.657614
210,-5.798264503479004,-19.061487197875977,76.55072784423828,-5.418311415473073,1.9714576877423078,-95.10058142447207,0.24739027,12.162388,4.568948,40.861835,-21.34546,-8.755965,-14.633915,2.9642098,-18.036943,19.906607,-8.645944,-1.3757461,-8.250691,5.73051,2.0715709,19.03311,17.307436,-14.210255,40.370495,28.26381,7.7167754,9.739693,19.877153,-10.933109,17.821672,51.901405,-36.623135,10.237455,-22.728107
211,-5.94731330871582,-19.41404151916504,76.59542846679688,-5.421929584564571,1.995695289390277,-95.1131975061964,-0.79067624,12.23479,3.8299844,43.21412,-20.291822,-9.11369,-14.162906,3.1627417,-17.998838,19.510643,-8.796849,-1.3900626,-8.095257,5.865508,2.263534,18.989431,17.436068,-14.244963,40.159267,28.177135,7.547676,9.639816,19.553518,-10.940633,17.615067,51.857822,-36.670532,10.267659,-22.812178
212,-6.090204238891602,-19.75925064086914,76.6434097290039,-5.393698253563513,2.01724013281194,-95.130421224042,-1.9092542,12.235942,3.0813484,45.666023,-19.308638,-9.176913,-13.714029,3.3156052,-17.940355,19.1676,-8.968865,-1.3921622,-7.9301353,5.959275,2.4576652,18.960598,17.569748,-14.250426,39.951057,28.101034,7.389828,9.573906,19.222914,-10.952616,17.441153,51.78457,-36.662567,10.281361,-22.884882
213,-6.232626438140869,-20.10371208190918,76.69414520263672,-5.325313744260116,2.029454584147637,-95.14735268164237,-3.1401086,12.155877,2.3202634,48.307507,-18.358809,-8.821511,-13.2832155,3.4109273,-17.859966,18.886742,-9.16967,-1.3797514,-7.7630677,6.0071363,2.6627326,18.947315,17.699738,-14.220057,39.74593,28.060116,7.241221,9.5500345,18.885881,-10.975547,17.306124,51.67496,-36.565247,10.273587,-22.94981
214,-6.373135566711426,-20.443262100219727,76.74049377441406,-5.226725308208879,2.0344885298862994,-95.16834634014587,-4.4629683,12.009969,1.555433,51.093468,-17.392185,-8.17376,-12.853189,3.468781,-17.757849,18.620615,-9.374174,-1.3539522,-7.5916104,6.0244813,2.8777723,18.942701,17.823946,-14.165179,39.542183,28.039667,7.0864205,9.55222,18.54343,-11.012377,17.197319,51.529114,-36.39824,10.247736,-23.0154
215,-6.5032219886779785,-20.78494644165039,76.78649139404297,-5.113113535729044,2.0460386909731842,-95.20020245904708,-5.8108816,11.819447,0.82089883,53.83289,-16.499062,-7.4242897,-12.451809,3.502102,-17.642223,18.39399,-9.58974,-1.320847,-7.4133844,6.025044,3.085832,18.949112,17.939627,-14.081747,39.34951,28.002506,6.941125,9.577109,18.194933,-11.066245,17.121777,51.353203,-36.218052,10.211789,-23.064575
216,-6.629644870758057,-21.127288818359375,76.83367919921875,-4.999546099812568,2.077628367830813,-95.24967732520705,-7.1233354,11.604871,0.13885665,56.350834,-15.782058,-6.7609634,-12.101056,3.5263488,-17.520592,18.220062,-9.816941,-1.2871779,-7.227151,6.022203,3.2700639,18.970232,18.043417,-13.964065,39.177776,27.911661,6.8209567,9.621218,17.839216,-11.14065,17.087845,51.153667,-36.081062,10.173911,-23.080276
217,-6.752904415130615,-21.470760345458984,76.8724136352539,-4.892192684970164,2.1335715982221135,-95.3118377149457,-8.413441,11.387074,-0.49452066,58.7022,-15.266741,-6.1589236,-11.807982,3.5449321,-17.40303,18.105198,-10.056416,-1.2553496,-7.0382524,6.025025,3.4247537,19.008184,18.132267,-13.805965,39.02542,27.73889,6.730573,9.685419,17.477552,-11.238705,17.098097,50.92538,-36.008713,10.14279,-23.046997
218,-6.873486042022705,-21.81000328063965,76.90634155273438,-4.782655443605635,2.2062836084298305,-95.3853738898031,-9.708423,11.152222,-1.0932474,60.960083,-14.904882,-5.5375614,-11.560139,3.5510695,-17.283209,18.040834,-10.307303,-1.2226267,-6.8471894,6.026113,3.5595582,19.060413,18.205004,-13.610681,38.890205,27.511307,6.661272,9.771432,17.110157,-11.362014,17.149578,50.66585,-35.968132,10.1118965,-22.976698
219,-6.994580268859863,-22.153141021728516,76.93797302246094,-4.664031957697469,2.2914269629912223,-95.48231317619997,-10.965946,10.865869,-1.6568621,62.973576,-14.701049,-5.0037255,-11.3525715,3.5435135,-17.144072,18.023052,-10.57123,-1.1880888,-6.6453633,6.014513,3.6809788,19.12296,18.26121,-13.386425,38.780136,27.273905,6.608181,9.875846,16.736126,-11.50878,17.243776,50.384235,-35.93295,10.066674,-22.8941
220,-7.113306999206543,-22.4937686920166,76.96515655517578,-4.529718547861818,2.3845288007257173,-95.61451331931664,-12.143536,10.492812,-2.1846406,64.59295,-14.6612,-4.6671963,-11.179387,3.5207574,-16.96819,18.045965,-10.848612,-1.1503628,-6.4229574,5.9778113,3.7957096,19.190617,18.301687,-13.142008,38.703808,27.072044,6.5670037,9.996117,16.350903,-11.677158,17.380081,50.0926,-35.878117,9.993373,-22.824965
221,-7.225897312164307,-22.832475662231445,76.9881820678711,-4.375150192768696,2.484467877438591,-95.79363579874793,-13.212707,10.001939,-2.6895986,65.75849,-14.877974,-4.5984297,-11.051268,3.4780974,-16.742476,18.13005,-11.147681,-1.1082134,-6.1666403,5.907104,3.903785,19.265654,18.32555,-12.869052,38.66107,26.917429,6.5412383,10.141106,15.953181,-11.86742,17.574467,49.788055,-35.793682,9.876192,-22.769762
222,-7.339016914367676,-23.178382873535156,77.01199340820312,-4.205348073791624,2.5935789560217155,-96.01076891181854,-14.203739,9.424887,-3.1695323,66.56447,-15.325033,-4.72165,-10.966565,3.4192538,-16.479044,18.271393,-11.465684,-1.0629075,-5.8852844,5.811246,4.0033417,19.349537,18.332148,-12.565637,38.647945,26.786331,6.5317006,10.309414,15.543519,-12.079915,17.822342,49.46709,-35.69424,9.726958,-22.717129
223,-7.451266288757324,-23.516490936279297,77.03654479980469,-4.0293765517334075,2.7125704550558574,-96.24672546339043,-15.161734,8.822569,-3.6016972,67.08757,-15.827363,-4.9279785,-10.900646,3.3552046,-16.198414,18.424137,-11.785125,-1.0167922,-5.6012096,5.7055593,4.098262,19.435625,18.324142,-12.253249,38.66812,26.669874,6.5298386,10.481924,15.124692,-12.30927,18.092403,49.137943,-35.590744,9.571779,-22.673697
224,-7.563201427459717,-23.85894775390625,77.0589370727539,-3.8557238023767586,2.8422059504655417,-96.48261085160998,-16.130447,8.252967,-3.9655094,67.39946,-16.205042,-5.1121097,-10.833041,3.2949185,-15.921237,18.551363,-12.093336,-0.97189575,-5.3341217,5.603899,4.1912303,19.516747,18.306814,-11.955945,38.725048,26.558159,6.527335,10.639234,14.700921,-12.545961,18.350193,48.809807,-35.496048,9.436963,-22.646908
225,-7.670975685119629,-24.20206642150879,77.08182525634766,-3.680974277991881,2.982604500920833,-96.72556196991991,-17.115515,7.713372,-4.255769,67.48771,-16.41573,-5.2757416,-10.763549,3.236829,-15.642489,18.648857,-12.388205,-0.92566925,-5.0749235,5.4994574,4.281271,19.591776,18.284727,-11.674495,38.823406,26.437906,6.5181465,10.782194,14.266265,-12.784775,18.596285,48.485306,-35.408127,9.328453,-22.644299
226,-7.783923149108887,-24.550119400024414,77.10206604003906,-3.5031442783277136,3.133422841162025,-96.98203475769614,-18.095154,7.1864243,-4.487274,67.319,-16.551317,-5.461664,-10.700701,3.1778445,-15.354457,18.73341,-12.67567,-0.8779432,-4.813989,5.3854766,4.367304,19.664085,18.259676,-11.400974,38.95896,26.31637,6.508237,10.918893,13.819267,-13.024878,18.842243,48.163048,-35.323948,9.232835,-22.661283
227,-7.898545265197754,-24.90235137939453,77.12020111083984,-3.3320492454242965,3.2942582523029995,-97.23086674409875,-19.073563,6.7031755,-4.670819,66.93783,-16.6345,-5.630455,-10.63828,3.1232648,-15.073602,18.801832,-12.955645,-0.8345387,-4.569298,5.275062,4.4507375,19.732403,18.23335,-11.147813,39.122417,26.214207,6.5077333,11.041122,13.370379,-13.263095,19.069386,47.848377,-35.25546,9.147528,-22.68777
228,-8.006501197814941,-25.253305435180664,77.1396255493164,-3.1770371345494355,3.464717064793587,-97.45135254940044,-20.054056,6.2914753,-4.8160186,66.38808,-16.686447,-5.743511,-10.570046,3.0781655,-14.816679,18.851185,-13.228334,-0.80117154,-4.356952,5.180511,4.5322247,19.793077,18.208456,-10.929833,39.306488,26.151287,6.5274014,11.141421,12.929257,-13.496045,19.255844,47.54826,-35.21575,9.070145,-22.713915
229,-8.108668327331543,-25.608692169189453,77.15765380859375,-3.0443427011615567,3.6476424120389925,-97.63470400253503,-21.047735,5.96651,-4.9197397,65.66312,-16.718674,-5.788028,-10.495063,3.048232,-14.587788,18.871826,-13.485706,-0.78075314,-4.1852107,5.1071925,4.6121864,19.84505,18.188503,-10.749556,39.51117,26.13491,6.5744734,11.218233,12.493243,-13.721491,19.39403,47.266666,-35.225235,9.004147,-22.744934
230,-8.218159675598145,-25.969621658325195,77.17125701904297,-2.9273856936063187,3.8419511142347305,-97.79328216078487,-22.046677,5.709505,-4.9788804,64.741714,-16.71606,-5.7858863,-10.416277,3.0291042,-14.377862,18.867682,-13.729859,-0.76949394,-4.0416245,5.0454545,4.6892405,19.890097,18.1751,-10.601597,39.739246,26.152378,6.6421747,11.27534,12.058332,-13.939445,19.493532,47.001835,-35.27261,8.94958,-22.784082
231,-8.323891639709473,-26.332246780395508,77.1803970336914,-2.8170366292892637,4.041102810596761,-97.93783745109347,-23.0236,5.4958286,-5.0012994,63.644787,-16.66066,-5.7514277,-10.333291,3.0100734,-14.183345,18.857122,-13.977026,-0.7628949,-3.9120874,4.9865575,4.7617316,19.926493,18.166807,-10.488773,39.98882,26.194468,6.7197227,11.313054,11.633802,-14.148648,19.55988,46.750298,-35.322086,8.898634,-22.818377
232,-8.428427696228027,-26.69762420654297,77.18799591064453,-2.7040841625781056,4.238765840109811,-98.07881107672033,-23.952616,5.301046,-4.9952707,62.39508,-16.534718,-5.6988263,-10.244178,2.9816866,-14.000636,18.854742,-14.241429,-0.7567358,-3.7820792,4.9213505,4.8276463,19.952085,18.161253,-10.414016,40.25956,26.252913,6.7966824,11.33233,11.225593,-14.349528,19.597584,46.511864,-35.338406,8.843692,-22.83532
233,-8.526930809020996,-27.07248306274414,77.19526672363281,-2.587617371533406,4.433356271038147,-98.21190304236839,-24.831375,5.124798,-4.9559007,60.981037,-16.341667,-5.619898,-10.14372,2.9413724,-13.841163,18.859453,-14.530623,-0.7548256,-3.6532912,4.850645,4.8872128,19.961777,18.157747,-10.386026,40.561157,26.329914,6.871272,11.329675,10.837325,-14.541882,19.598671,46.284405,-35.31076,8.777514,-22.827724
234,-8.627266883850098,-27.45438575744629,77.19695281982422,-2.471958375340934,4.628147347151315,-98.33400851202033,-25.668259,4.9754295,-4.8789864,59.392105,-16.087791,-5.5131717,-10.033264,2.8944721,-13.702583,18.862307,-14.834573,-0.7574929,-3.5313535,4.778688,4.940953,19.957323,18.156685,-10.401024,40.891815,26.428665,6.9489646,11.306034,10.465324,-14.725551,19.563383,46.069794,-35.258495,8.70593,-22.80364
235,-8.725667953491211,-27.836483001708984,77.19554138183594,-2.355409154745615,4.824059182833664,-98.45733236912726,-26.454659,4.8435583,-4.774473,57.65303,-15.75991,-5.402343,-9.925113,2.8414054,-13.560781,18.875854,-15.145211,-0.7550047,-3.4090707,4.700804,4.987878,19.946745,18.156824,-10.441697,41.23352,26.543137,7.029475,11.269241,10.103091,-14.903006,19.509119,45.873234,-35.19216,8.64118,-22.77315
236,-8.8214111328125,-28.22321319580078,77.19261932373047,-2.2361818238007367,5.022087119758368,-98.59420465514306,-27.181997,4.7202625,-4.652723,55.78714,-15.344161,-5.3103495,-9.828635,2.7830398,-13.391879,18.905958,-15.451304,-0.7379974,-3.2808824,4.6139607,5.0274167,19.939663,18.1547,-10.48913,41.56703,26.667501,7.1122894,11.226741,9.746793,-15.076281,19.456236,45.697105,-35.120884,8.595322,-22.746105
237,-8.911412239074707,-28.620681762695312,77.18897247314453,-2.113034655680999,5.221100006002894,-98.74472876658524,-27.843317,4.5924945,-4.5265546,53.768597,-14.835919,-5.2429934,-9.743703,2.7183392,-13.189533,18.953142,-15.75178,-0.701018,-3.1499112,4.5172844,5.0603857,19.936241,18.14906,-10.545196,41.896687,26.802345,7.198031,11.179803,9.391321,-15.247825,19.410347,45.546112,-35.037773,8.577334,-22.72178
238,-9.001797676086426,-29.017534255981445,77.18659973144531,-1.9875731983281495,5.420937510201729,-98.90379581946172,-28.439827,4.467213,-4.3857937,51.587616,-14.242068,-5.189562,-9.666314,2.647601,-12.966694,19.015545,-16.05249,-0.65043825,-3.0192106,4.4141917,5.087437,19.933182,18.139206,-10.6157255,42.229034,26.951132,7.2865033,11.124585,9.04084,-15.417843,19.363052,45.41587,-34.939693,8.578896,-22.695938
239,-9.093729019165039,-29.420557022094727,77.17955780029297,-1.8631600660012362,5.62370100598271,-99.07535713093228,-28.977968,4.365124,-4.2067213,49.29553,-13.560285,-5.1484303,-9.5975065,2.5756052,-12.727744,19.092161,-16.351423,-0.5947896,-2.883876,4.3071527,5.1080456,19.933493,18.122215,-10.687688,42.550625,27.112507,7.376328,11.061791,8.700604,-15.586023,19.312008,45.299183,-34.8437,8.586272,-22.672926
