unveil-humanoid-operators/unveil-humanoid-operators.github.io/feature-analysis-animation/data/feature_matrix_instances/height_ankle_rom_walking_A162_lift_crate_walk_ff_start_315_002__A162.csv
Frame,root_translateX,root_translateY,root_translateZ,root_rotateX,root_rotateY,root_rotateZ,left_hip_pitch_joint_dof,left_hip_roll_joint_dof,left_hip_yaw_joint_dof,left_knee_joint_dof,left_ankle_pitch_joint_dof,left_ankle_roll_joint_dof,right_hip_pitch_joint_dof,right_hip_roll_joint_dof,right_hip_yaw_joint_dof,right_knee_joint_dof,right_ankle_pitch_joint_dof,right_ankle_roll_joint_dof,waist_yaw_joint_dof,waist_roll_joint_dof,waist_pitch_joint_dof,left_shoulder_pitch_joint_dof,left_shoulder_roll_joint_dof,left_shoulder_yaw_joint_dof,left_elbow_joint_dof,left_wrist_roll_joint_dof,left_wrist_pitch_joint_dof,left_wrist_yaw_joint_dof,right_shoulder_pitch_joint_dof,right_shoulder_roll_joint_dof,right_shoulder_yaw_joint_dof,right_elbow_joint_dof,right_wrist_roll_joint_dof,right_wrist_pitch_joint_dof,right_wrist_yaw_joint_dof
0,1.781324863433838,-0.529951810836792,77.93242645263672,1.162180554784304,-6.434396359773033,173.04256613320226,8.892972,5.318187,17.443491,6.858142,-8.7012615,-6.25396,4.1639657,-9.519004,-6.222896,10.860058,-9.178699,10.156491,1.85233,-4.3439054,7.7081714,-19.712286,20.526564,1.4458563,54.26063,-6.131899,-0.8780085,-6.419563,-27.203888,-17.153236,11.184952,59.787914,16.871458,3.1269944,-3.7691731
1,1.8162729740142822,-0.5019072890281677,77.93534088134766,1.1662031193357627,-6.388482200002578,173.09065227920357,8.784983,5.3445787,17.360588,6.854099,-8.613148,-6.2977853,3.9877126,-9.509363,-6.265647,11.091461,-9.3364525,10.178298,1.7622683,-4.463637,7.7244706,-19.796837,20.578747,1.4105517,54.299232,-6.2270184,-0.8489557,-6.3811393,-27.233864,-17.126795,11.206807,59.710598,16.873709,3.120535,-3.8247387
2,1.8577277660369873,-0.4646398723125458,77.93907928466797,1.165483794232383,-6.345268422794573,173.14027583901807,8.680081,5.37545,17.274626,6.851373,-8.526121,-6.345083,3.8208985,-9.491662,-6.3065367,11.308853,-9.479856,10.186145,1.65425,-4.618628,7.739778,-19.883587,20.69893,1.3730966,54.342773,-6.3435974,-0.8208322,-6.3570137,-27.26849,-17.059708,11.232017,59.636715,16.879333,3.1127243,-3.8756063
3,1.9148794412612915,-0.41784006357192993,77.94207763671875,1.1733895328397197,-6.297561017992757,173.18806797239617,8.568133,5.39823,17.192936,6.8476386,-8.43688,-6.3858423,3.6326823,-9.487721,-6.3523808,11.560899,-9.656387,10.222031,1.5289627,-4.806782,7.7523274,-19.968103,20.868256,1.3373687,54.395004,-6.4827,-0.78400594,-6.3453536,-27.32262,-16.951681,11.255162,59.57462,16.86744,3.099674,-3.9355316
4,1.9805196523666382,-0.36946552991867065,77.94538116455078,1.2018945196124315,-6.238650043691482,173.23104994956907,8.43785,5.4021497,17.122566,6.8427415,-8.342423,-6.4100957,3.3943532,-9.517649,-6.4109254,11.894161,-9.913134,10.327801,1.4067951,-5.0158525,7.759352,-20.07031,21.049143,1.2848976,54.48142,-6.645051,-0.73138833,-6.3377023,-27.393547,-16.826508,11.263611,59.521557,16.826605,3.079062,-4.015959
5,2.0505857467651367,-0.319763720035553,77.94335174560547,1.26282245086052,-6.159279894663389,173.2734351008675,8.27354,5.3714223,17.06439,6.8371267,-8.240953,-6.405341,3.0827525,-9.57715,-6.434483,12.303217,-10.285484,10.533355,1.2898194,-5.261591,7.7614613,-20.212072,21.24564,1.2048416,54.611485,-6.8428817,-0.6533618,-6.3240333,-27.478506,-16.684032,11.234646,59.47299,16.74264,3.0414839,-4.116003
6,2.1268298625946045,-0.2592128813266754,77.93858337402344,1.3437226577792314,-6.066745482951499,173.3160293081442,8.086344,5.3190484,17.014856,6.8309526,-8.134385,-6.3803716,2.7190409,-9.654769,-6.4385066,12.771533,-10.743283,10.809566,1.1754106,-5.5331078,7.760358,-20.382042,21.457159,1.104161,54.773937,-7.066653,-0.5572141,-6.307044,-27.572388,-16.526617,11.178052,59.424522,16.626595,2.9940891,-4.231049
7,2.2057363986968994,-0.1948309987783432,77.93353271484375,1.4208775806309768,-5.97872256361665,173.3502462410626,7.904696,5.2756453,16.97295,6.825287,-8.026887,-6.356912,2.333754,-9.762331,-6.5227876,13.34135,-11.240217,11.110123,1.0680995,-5.7982516,7.7583323,-20.551567,21.68057,0.9875054,54.962856,-7.3041945,-0.459174,-6.3082705,-27.675121,-16.359993,11.128053,59.380474,16.50302,2.952204,-4.362254
8,2.2839431762695312,-0.12317043542861938,77.93396759033203,1.472141049301921,-5.91173946381134,173.36721535808888,7.75537,5.2713504,16.937935,6.820642,-7.921441,-6.3568864,1.9598336,-9.914157,-6.7852564,14.048783,-11.726263,11.388496,0.9715175,-6.025625,7.7570095,-20.690163,21.91178,0.8611269,55.171417,-7.543063,-0.3752109,-6.348916,-27.78915,-16.194092,11.125389,59.346603,16.401615,2.9321728,-4.511444
9,2.3651881217956543,-0.04306872561573982,77.93560791015625,1.491883916417049,-5.869590681475008,173.3581354563728,7.6456203,5.317095,16.91157,6.8169847,-7.8175044,-6.388642,1.6067876,-10.10435,-7.2728424,14.881938,-12.16373,11.702475,0.8961718,-6.2062182,7.759484,-20.793787,22.14812,0.7330718,55.40597,-7.758023,-0.31245378,-6.4510245,-27.910728,-16.033638,11.178593,59.317616,16.335459,2.9355383,-4.691496
10,2.4386544227600098,0.03347441554069519,77.94007110595703,1.4916626709975025,-5.8431214019959095,173.32962107384327,7.5598664,5.3962364,16.893337,6.8146653,-7.7139,-6.439842,1.2590365,-10.331457,-7.925788,15.826698,-12.586704,12.051799,0.83777744,-6.352978,7.765252,-20.876806,22.388563,0.5983545,55.666,-7.9629226,-0.26115045,-6.597808,-28.037046,-15.8782015,11.266012,59.289387,16.286352,2.9551308,-4.8964
11,2.5076651573181152,0.10787580162286758,77.94577026367188,1.4795121204254704,-5.828878758426899,173.29490762909742,7.4909678,5.4944286,16.879871,6.8125997,-7.6114626,-6.5011115,0.9032724,-10.624624,-8.67457,16.932587,-13.053364,12.30235,0.780976,-6.4727225,7.769092,-20.93484,22.629,0.44796604,55.932114,-8.197782,-0.21178937,-6.753175,-28.172264,-15.730593,11.387023,59.26916,16.245512,2.9946432,-5.099109
12,2.5808029174804688,0.19416548311710358,77.95539855957031,1.4663070033282983,-5.8225748587762585,173.26695529759124,7.43039,5.5937676,16.868479,6.812795,-7.5133705,-6.5622945,0.53841954,-11.016752,-9.448716,18.224228,-13.612201,12.320384,0.70955783,-6.5740547,7.763953,-20.964842,22.86544,0.27077335,56.187428,-8.504806,-0.15499058,-6.880209,-28.323835,-15.598021,11.545737,59.268185,16.206608,3.0575924,-5.2728896
13,2.6558613777160645,0.2819371223449707,77.96147155761719,1.4523733368692051,-5.8199753924736255,173.24708541147754,7.374701,5.6939416,16.861494,6.8118596,-7.4149237,-6.6212263,0.15343757,-11.535547,-10.261401,19.745861,-14.302713,12.013922,0.62044233,-6.653698,7.7458663,-20.96654,23.098236,0.051528968,56.43451,-8.922063,-0.08665892,-6.9729114,-28.4963,-15.485141,11.746246,59.288498,16.160814,3.1584759,-5.4174547
14,2.7243824005126953,0.36867010593414307,77.9655990600586,1.4405200512038208,-5.8232148298374335,173.2284662205583,7.326599,5.794373,16.860487,6.812928,-7.318474,-6.681695,-0.2298555,-12.174674,-11.130515,21.441532,-15.080517,11.469155,0.5260984,-6.714658,7.718767,-20.94497,23.326773,-0.20300062,56.68214,-9.418624,-0.012232622,-7.049454,-28.680355,-15.39128,11.981098,59.32039,16.113068,3.29191,-5.5432363
15,2.7836263179779053,0.44538313150405884,77.9693374633789,1.443978149021713,-5.8374845821568275,173.2126565582571,7.2939963,5.8775883,16.860998,6.813055,-7.2291417,-6.742911,-0.5625001,-12.910234,-11.994272,23.184017,-15.867891,10.821404,0.4326326,-6.772787,7.6877394,-20.902695,23.543444,-0.4684256,56.920605,-9.930506,0.06304731,-7.108854,-28.862831,-15.31606,12.239659,59.357674,16.079763,3.4309144,-5.639854
16,2.8504836559295654,0.5374006032943726,77.96562194824219,1.4732160813758188,-5.869114403425855,173.20132922826036,7.2849445,5.92906,16.85847,6.811418,-7.153818,-6.804505,-0.80241424,-13.709146,-12.797373,24.85577,-16.586344,10.208401,0.34629542,-6.840391,7.658298,-20.839005,23.736298,-0.71587396,57.137234,-10.389093,0.13369074,-7.1493654,-29.034473,-15.2613125,12.517863,59.397274,16.084259,3.5481153,-5.697783
17,2.902097702026367,0.6227639317512512,77.95530700683594,1.5303474246619153,-5.926684262604437,173.20318497114604,7.306673,5.9426317,16.84405,6.810157,-7.0959606,-6.863448,-0.92311174,-14.589367,-13.578348,26.456652,-17.260979,9.652287,0.26354232,-6.9127784,7.6343794,-20.754791,23.895369,-0.9608429,57.334175,-10.786941,0.2059286,-7.16352,-29.19115,-15.232544,12.823472,59.443905,16.137268,3.6246865,-5.7051387
18,2.9541263580322266,0.7092477083206177,77.93553161621094,1.6098238297098637,-6.005243546824168,173.21479569843027,7.3559637,5.9262943,16.822857,6.8043017,-7.049392,-6.9208946,-0.9487408,-15.558062,-14.351431,28.034967,-17.916868,9.084642,0.18198425,-6.98816,7.612989,-20.647354,24.03224,-1.2081355,57.513638,-11.1558275,0.280257,-7.156122,-29.340094,-15.229902,13.1625805,59.497353,16.232857,3.6789625,-5.66963
19,3.003251314163208,0.7991078495979309,77.90985870361328,1.7079912050535822,-6.0897414214587835,173.22005635718097,7.416383,5.893019,16.80945,6.8002005,-7.0143104,-6.983313,-0.9206778,-16.555752,-15.031613,29.553444,-18.47502,8.510063,0.11897025,-7.056078,7.5877447,-20.523045,24.128855,-1.425944,57.67605,-11.483525,0.33798817,-7.130967,-29.477354,-15.24827,13.495202,59.54531,16.329653,3.740336,-5.6143913
20,3.0561792850494385,0.8965948820114136,77.87969970703125,1.8214881922354038,-6.1650450879348035,173.20247268474367,7.4760957,5.8534765,16.81977,6.7932053,-6.9852214,-7.0572147,-0.89042133,-17.521603,-15.532729,30.988068,-18.855852,7.934004,0.08836013,-7.1169157,7.5503697,-20.384304,24.179146,-1.5788263,57.820335,-11.75653,0.36157596,-7.094386,-29.606092,-15.274723,13.786764,59.582584,16.391714,3.8367326,-5.5633836
21,3.1098387241363525,0.9963371753692627,77.83805084228516,1.950098242681194,-6.235353453890168,173.15352421947094,7.5410166,5.8069897,16.86235,6.785936,-6.9698677,-7.149559,-0.9263477,-18.497108,-15.861727,32.528603,-19.095125,7.0899835,0.08429056,-7.1705155,7.5078735,-20.215845,24.201498,-1.6604357,57.942444,-12.001022,0.34735703,-7.0567684,-29.731215,-15.306221,14.039577,59.592037,16.403715,3.994383,-5.509614
22,3.1529898643493652,1.0932880640029907,77.79911804199219,2.0962006410419374,-6.3056696931886504,173.0834061971987,7.614357,5.746186,16.927635,6.7759156,-6.966163,-7.2557683,-0.9829551,-19.488543,-16.060863,34.11125,-19.206314,6.0669246,0.09224978,-7.2167597,7.46095,-20.00762,24.195229,-1.6735778,58.033398,-12.212002,0.30516398,-7.015282,-29.85828,-15.351018,14.287379,59.58497,16.396854,4.192003,-5.4459677
23,3.200831651687622,1.2012749910354614,77.75546264648438,2.257242438589315,-6.362283536330721,173.0040788729984,7.6755185,5.6763577,17.003641,6.765278,-6.96306,-7.366469,-0.9548608,-20.380787,-16.09644,35.3566,-19.08923,5.4077907,0.12769325,-7.270449,7.397664,-19.803705,24.158346,-1.6374717,58.107887,-12.355591,0.23930228,-6.9618874,-29.965025,-15.394427,14.4910755,59.574688,16.375393,4.3873067,-5.3892827
24,3.256411075592041,1.3284424543380737,77.71122741699219,2.427561233160358,-6.391824022661854,172.92700191654765,7.7062654,5.6072044,17.078793,6.753008,-6.9470778,-7.4730206,-0.7437907,-21.052866,-15.931457,35.902397,-18.652887,5.6571927,0.18213812,-7.311261,7.307951,-19.600964,24.05693,-1.5152098,58.14082,-12.378317,0.15374285,-6.8918114,-30.040377,-15.457146,14.670025,59.568645,16.37185,4.541225,-5.3593745
25,3.2998948097229004,1.4620031118392944,77.6617202758789,2.6297812260346434,-6.389831102699948,172.84378254047814,7.6919904,5.5162373,17.164782,6.774247,-6.94572,-7.573058,-0.28776118,-21.495316,-15.49458,35.58191,-17.738346,7.316209,0.28631294,-7.3967733,7.180214,-19.435947,23.927258,-1.3494695,58.171154,-12.296584,0.038833153,-6.8010755,-30.064955,-15.506385,14.774304,59.56833,16.376131,4.643005,-5.3567533
26,3.351822853088379,1.6114888191223145,77.5995101928711,2.854688331603856,-6.362236393555193,172.7527255900217,7.6188407,5.418151,17.260546,6.8723674,-6.9845905,-7.673541,0.33904627,-21.748848,-14.803716,34.634872,-16.474485,9.978446,0.4203114,-7.5090995,7.0212083,-19.280638,23.77072,-1.1224046,58.1834,-12.124256,-0.10323634,-6.6955223,-30.06059,-15.545712,14.832778,59.574547,16.38618,4.713424,-5.37455
27,3.4059810638427734,1.7584747076034546,77.52261352539062,3.029263494507122,-6.313299284023832,172.6777194591104,7.1959777,5.4870687,17.304396,7.671169,-7.36872,-7.783166,1.0277649,-21.770576,-13.96771,33.335693,-15.217657,12.824541,0.55515385,-7.553832,6.842718,-19.139034,23.554958,-0.8322503,58.162506,-11.845602,-0.25166824,-6.572397,-30.04085,-15.586668,14.859561,59.599216,16.38459,4.754765,-5.417232
28,3.4694883823394775,1.913095474243164,77.4502182006836,3.0639958315198608,-6.245049744651458,172.6454868146317,6.54059,5.7863836,17.269384,8.889581,-7.928351,-7.9121165,1.6660023,-21.51841,-13.130759,31.961288,-14.301023,15.000033,0.66683,-7.4679065,6.66117,-19.042686,23.330862,-0.5195081,58.107887,-11.485874,-0.37893677,-6.4490294,-29.992104,-15.621383,14.838416,59.618786,16.357407,4.7704062,-5.478072
29,3.5452234745025635,2.1009135246276855,77.411376953125,2.73685615729103,-6.0822050067066264,172.56031876311954,5.3510547,6.707729,17.194422,11.073477,-8.930313,-8.141534,2.1442432,-20.505465,-12.196287,30.312487,-13.7096405,15.000033,0.83536154,-7.036959,6.4188304,-18.976574,23.101934,-0.1635715,57.986385,-11.025704,-0.48377705,-6.3204627,-29.907263,-15.647409,14.770658,59.61412,16.28729,4.7527003,-5.572085
30,3.6218364238739014,2.298203468322754,77.37699890136719,2.3137800284950414,-5.903307346250449,172.56410714124507,4.0463424,7.74269,16.99054,13.404328,-9.971251,-8.378269,2.6496742,-19.299587,-11.13716,28.44762,-13.378349,15.000033,0.9309668,-6.515314,6.1668653,-18.942081,22.863504,0.2381236,57.823654,-10.471842,-0.5746498,-6.18848,-29.798084,-15.661498,14.656965,59.608524,16.183128,4.705329,-5.690992
31,3.6993298530578613,2.4865288734436035,77.33120727539062,1.8128856523380092,-5.7451649054252165,172.63664130537174,2.7268834,8.84709,16.665865,15.74547,-10.983054,-8.617084,3.238093,-18.04928,-10.226581,26.505407,-13.178027,15.000033,0.97037303,-5.923062,5.932618,-18.940914,22.618654,0.66539615,57.64497,-9.857561,-0.6464472,-6.0653396,-29.682384,-15.668222,14.514959,59.628532,16.082943,4.6408615,-5.810046
32,3.790527105331421,2.6944403648376465,77.27540588378906,1.2452905998940371,-5.641372368906861,172.75670443282013,1.4742041,9.994285,16.23186,17.995085,-11.916131,-8.853011,3.9568875,-16.863989,-9.757597,24.604235,-12.96446,15.000033,0.97495353,-5.2728553,5.7434154,-18.981041,22.373348,1.0919183,57.477234,-9.221028,-0.6945218,-5.9650126,-29.564428,-15.67194,14.345018,59.685234,16.011927,4.572697,-5.9021597
33,3.877335786819458,2.8891592025756836,77.21512603759766,0.5471760925514394,-5.565844897956323,172.9192727202929,0.17736971,11.28551,15.659241,20.30851,-12.821417,-9.089732,4.746967,-15.660079,-9.878866,22.83679,-12.741563,15.000033,0.95696014,-4.5040274,5.580613,-19.084547,22.128521,1.5302048,57.33237,-8.557936,-0.71096724,-5.8953595,-29.440374,-15.673774,14.132403,59.783344,15.962136,4.492504,-5.967095
34,3.9646189212799072,3.0874462127685547,77.149169921875,-0.25710381078811073,-5.507118445171225,173.12619770519123,-1.1705103,12.683439,14.957702,22.678991,-13.706171,-9.328723,5.594134,-14.391843,-10.416343,21.100864,-12.550709,15.000033,0.91437757,-3.6391354,5.439478,-19.244228,21.883722,1.9861733,57.194473,-7.852851,-0.7010599,-5.8486996,-29.303593,-15.672348,13.876112,59.90848,15.9239435,4.3973384,-6.0162454
35,4.053854942321777,3.2922263145446777,77.08026123046875,-1.035906122210263,-5.52046163032499,173.37248548579598,-2.3665464,13.987596,14.202048,24.843895,-14.491881,-9.559952,6.614602,-13.182678,-11.1936865,19.230034,-12.312745,15.000033,0.84043854,-2.80805,5.365631,-19.423681,21.646002,2.4231722,57.049686,-7.1284785,-0.6797244,-5.8153334,-29.162178,-15.6729555,13.61075,60.051086,15.931405,4.3083653,-6.040604
36,4.132883071899414,3.5204951763153076,77.0150146484375,-1.6626333797576083,-5.662048145133542,173.65574666159793,-3.2137225,15.016293,13.47907,26.568316,-15.112419,-9.771294,7.930598,-12.152933,-12.040421,17.060476,-11.954431,15.000033,0.7282112,-2.1380193,5.404988,-19.5868,21.424274,2.8038995,56.883602,-6.4074554,-0.66125125,-5.786915,-29.018156,-15.683266,13.36602,60.19377,16.016485,4.2473955,-6.0294013
37,4.188068866729736,3.7445261478424072,76.954345703125,-2.151815735537233,-5.994677792482097,174.01192182009467,-3.6370203,15.781921,12.766522,27.833845,-15.560857,-9.957097,9.782363,-11.239556,-13.075732,14.263535,-11.368614,15.000033,0.5512588,-1.6278329,5.6153626,-19.731888,21.21484,3.1498559,56.697468,-5.638437,-0.65736413,-5.76684,-28.855793,-15.706616,13.122548,60.31498,16.189451,4.221121,-5.9566607
38,4.228607654571533,3.950270652770996,76.8902587890625,-2.5800050534244887,-6.4685179540634365,174.4277836229039,-3.773475,16.41033,12.042798,28.807838,-15.897227,-10.127736,12.085657,-10.288223,-14.372942,10.92291,-10.61565,14.995087,0.3263142,-1.2009703,5.9547873,-19.879213,21.015,3.4690812,56.499313,-4.828562,-0.6582317,-5.7581515,-28.674816,-15.742757,12.868789,60.42375,16.429958,4.21881,-5.8345957
39,4.270020484924316,4.1545796394348145,76.81527709960938,-2.9947000450303967,-6.928245525508161,174.7566435482738,-3.8315072,17.048706,11.411652,29.647783,-16.199062,-10.331636,14.44092,-9.088328,-15.529204,7.3085957,-9.73037,14.089517,0.17596897,-0.7926277,6.2709627,-20.026014,20.840006,3.6998458,56.287025,-4.091668,-0.6448233,-5.7546415,-28.502718,-15.793113,12.653969,60.5508,16.737148,4.236213,-5.708981
40,4.298454284667969,4.34849739074707,76.7269515991211,-3.155066050764974,-7.319126556542956,175.01092404168313,-3.7790294,17.369482,10.982913,30.191235,-16.403982,-10.502172,15.297274,-8.553269,-16.25755,6.749047,-10.348281,13.452739,0.07333635,-0.62371737,6.5182257,-20.165434,20.719582,3.782083,56.054203,-3.5474362,-0.5975745,-5.754795,-28.362793,-15.854106,12.525855,60.719185,17.108093,4.267966,-5.6242194
41,4.336918354034424,4.544668197631836,76.6167221069336,-3.0232371730126237,-7.6957858428189425,175.2267221954804,-3.5768569,17.329302,10.728529,30.472584,-16.555878,-10.65196,15.859296,-8.4939,-16.749224,6.788587,-11.150946,13.030343,-0.006426484,-0.7301826,6.744102,-20.29996,20.652111,3.6870875,55.78505,-3.2132926,-0.49778318,-5.7608852,-28.257027,-15.941216,12.510769,60.93347,17.584112,4.327089,-5.56573
42,4.36298131942749,4.730525493621826,76.52293395996094,-2.697613119163615,-8.085203145643165,175.43162612683997,-3.168003,17.016775,10.598192,30.407093,-16.59701,-10.777578,16.415758,-8.715697,-17.13394,6.833547,-11.87222,12.71498,-0.10831741,-1.0371119,6.969325,-20.416363,20.648504,3.4688265,55.483612,-3.0328867,-0.35955185,-5.7799478,-28.197662,-16.017147,12.591319,61.205894,18.147997,4.4079785,-5.523615
43,4.394881248474121,4.901594638824463,76.43742370605469,-2.326573892200987,-8.416583164717096,175.5740151407323,-2.7327454,16.643612,10.55731,30.194796,-16.577343,-10.889295,16.856321,-9.029398,-17.390396,6.871801,-12.469329,12.518808,-0.15140022,-1.3611546,7.157474,-20.550337,20.686693,3.1075697,55.190067,-3.0281773,-0.2169013,-5.800998,-28.095516,-16.148907,12.687811,61.42408,18.728216,4.4941435,-5.5187144
44,4.432232856750488,5.016839027404785,76.35395050048828,-2.0540310952011236,-8.615913357521121,175.6036405973734,-2.4555213,16.41738,10.577563,30.038275,-16.548256,-10.996518,17.084997,-9.238118,-17.49986,6.8970375,-12.900967,12.4505825,-0.15939395,-1.5367417,7.248066,-20.616518,20.743708,2.7098813,54.874084,-3.176423,-0.1019354,-5.803431,-28.021704,-16.256609,12.810617,61.65884,19.224543,4.5403247,-5.614803
45,4.468344211578369,5.092446327209473,76.28839874267578,-1.8958876621011622,-8.655233979056359,175.51473870200198,-2.3900988,16.359444,10.651808,29.98113,-16.522543,-11.096287,17.07676,-9.334658,-17.434986,6.9040685,-13.123821,12.5596,-0.10555215,-1.5365031,7.224006,-20.649551,20.835894,2.1930733,54.556652,-3.5695004,-0.0048380117,-5.790077,-27.953102,-16.366932,12.954253,61.90366,19.646965,4.544914,-5.8222303
46,4.521029949188232,5.170680046081543,76.25375366210938,-1.7853626719183942,-8.577916712875103,175.3348547980717,-2.438772,16.372597,10.792468,29.924725,-16.476357,-11.186027,16.88822,-9.409388,-17.213661,6.900476,-13.170016,12.799569,-0.02014543,-1.4404312,7.110339,-20.645279,20.958862,1.5754911,54.226818,-4.168929,0.08487852,-5.7612534,-27.914827,-16.466099,13.144639,62.18717,20.027649,4.518857,-6.123808
47,4.598777770996094,5.256109237670898,76.24909210205078,-1.742546271744401,-8.415251545152529,175.0639434967663,-2.5556145,16.484802,11.005776,29.850164,-16.401062,-11.27484,16.558105,-9.402416,-16.885899,6.8906174,-13.108126,13.044583,0.09490458,-1.2454985,6.934226,-20.591848,21.092775,0.96960324,53.885406,-4.821123,0.13512439,-5.7086406,-27.878296,-16.548807,13.334747,62.436417,20.324627,4.4642797,-6.4938045
48,4.712978839874268,5.339740753173828,76.27079772949219,-1.7807349274241533,-8.200048360265587,174.69940159329488,-2.6996157,16.720963,11.29897,29.752695,-16.295755,-11.372542,16.121666,-9.264928,-16.495695,6.8798404,-13.004549,13.166486,0.23518245,-0.9493444,6.722106,-20.459347,21.20437,0.49716377,53.521057,-5.3659973,0.11418223,-5.62138,-27.822191,-16.604006,13.482199,62.584618,20.491684,4.385895,-6.911381
49,4.840680122375488,5.411987781524658,76.31315612792969,-1.9733413778096907,-7.884930089710136,174.18247469053748,-2.9452806,17.200788,11.697455,29.69999,-16.181004,-11.494757,15.49185,-8.901128,-15.995566,6.869644,-12.838064,13.104524,0.42638427,-0.44407248,6.4332232,-20.191933,21.252779,0.20050836,53.11051,-5.7719107,-0.022387784,-5.4598193,-27.784857,-16.619051,13.616709,62.670902,20.47989,4.2729573,-7.438383
50,4.955223560333252,5.436062335968018,76.37733459472656,-2.300315735367062,-7.476781842959391,173.53536740931477,-3.2768998,17.884682,12.182739,29.66855,-16.048954,-11.633376,14.674259,-8.386978,-15.383706,6.855137,-12.580592,12.930757,0.6771827,0.23497976,6.072258,-19.841106,21.273605,-0.013042586,52.678493,-6.1309814,-0.24610323,-5.244319,-27.740076,-16.614668,13.729394,62.686005,20.325706,4.133137,-8.058349
51,5.067441463470459,5.445037841796875,76.45333099365234,-2.6248625663219496,-7.084653531987585,172.8748926113965,-3.5326023,18.550337,12.700218,29.535423,-15.865163,-11.762401,13.848349,-7.922599,-14.76793,6.8412566,-12.29378,12.71454,0.90940857,0.9032941,5.7152047,-19.455246,21.272718,-0.13920982,52.244022,-6.4137273,-0.48126534,-5.033382,-27.670755,-16.59565,13.800152,62.613605,20.115149,3.9813495,-8.661395
52,5.16337776184082,5.441388130187988,76.53523254394531,-2.7894886897962086,-6.810089843188561,172.31424492779627,-3.5639315,18.953802,13.209674,29.187271,-15.59922,-11.85329,13.202885,-7.6810946,-14.247622,6.8354306,-12.04593,12.53684,1.0420669,1.3664811,5.4431443,-19.060966,21.244474,-0.15157378,51.803238,-6.5755205,-0.6501534,-4.8856378,-27.569092,-16.561562,13.812014,62.44397,19.935238,3.8297846,-9.137723
53,5.256901264190674,5.455114364624023,76.61430358886719,-2.717892792036377,-6.6667612177939235,171.86099308940854,-3.312405,18.988146,13.7467575,28.547531,-15.223841,-11.897103,12.779305,-7.7113824,-13.827067,6.836983,-11.847943,12.418417,1.0603032,1.5490974,5.2690926,-18.627491,21.164576,0.028159898,51.32096,-6.5465455,-0.7339029,-4.82496,-27.40331,-16.51172,13.735903,62.14368,19.80044,3.6333826,-9.461487
54,5.348211288452148,5.469878673553467,76.69215393066406,-2.497093118046749,-6.599547623409556,171.46058922416324,-2.870279,18.78367,14.322378,27.691814,-14.760622,-11.909172,12.482217,-7.9051614,-13.457112,6.8452334,-11.6692095,12.320901,1.0136268,1.5584799,5.1581,-18.159885,21.048435,0.35636696,50.808758,-6.377074,-0.7718276,-4.8208046,-27.169214,-16.463621,13.5789175,61.70493,19.670639,3.4031527,-9.683202
55,5.426416397094727,5.4695940017700195,76.76819610595703,-2.203780640774088,-6.6042407829627505,171.1314161061124,-2.3155093,18.441746,14.866342,26.729252,-14.254949,-11.896718,12.303771,-8.185215,-13.153512,6.85571,-11.514161,12.239677,0.8996133,1.480816,5.11353,-17.71,20.919674,0.7135029,50.319405,-6.175595,-0.7751427,-4.8426538,-26.93557,-16.427952,13.403686,61.19352,19.546974,3.2351885,-9.820674
56,5.494123935699463,5.463817119598389,76.83928680419922,-1.9166846360474907,-6.678965379987009,170.89267646319269,-1.731236,18.070648,15.305987,25.784447,-13.755254,-11.866377,12.237923,-8.4750805,-12.933573,6.8665733,-11.387651,12.171354,0.71537805,1.4061525,5.1418843,-17.324333,20.799437,0.97901523,49.899616,-6.0513887,-0.75455534,-4.861525,-26.771778,-16.420946,13.270979,60.67849,19.428276,3.2209744,-9.887579
57,5.569729328155518,5.460267543792725,76.8985595703125,-1.621908163953371,-6.8515798325922495,170.78118442726785,-1.0907571,17.637625,15.606899,24.835604,-13.247209,-11.8033,12.329757,-8.797108,-12.833465,6.8800535,-11.3005295,12.120237,0.43714005,1.2759235,5.271982,-17.03874,20.760971,1.1078056,49.56209,-6.037732,-0.6937944,-4.8915124,-26.649252,-16.438503,13.157921,60.086216,19.303974,3.4309118,-9.857754
58,5.647907733917236,5.469017028808594,76.953857421875,-1.2919831488585976,-7.116142628463205,170.77602161496404,-0.3581907,17.106127,15.810294,23.822456,-12.708325,-11.710788,12.56877,-9.175388,-12.83863,6.8957715,-11.247805,12.084568,0.06658316,1.0893838,5.498512,-16.792908,20.736403,1.2061936,49.24826,-6.046722,-0.59286183,-4.94154,-26.560347,-16.487598,13.049329,59.41591,19.168953,3.801004,-9.731323
59,5.722487926483154,5.481215000152588,77.00355529785156,-0.9689293494689212,-7.420495735058916,170.80737958065848,0.3860017,16.572935,15.962877,22.84217,-12.1904,-11.621808,12.866073,-9.55075,-12.88522,6.9121842,-11.212102,12.055236,-0.30432492,0.9099919,5.780065,-16.622366,20.73907,1.2037262,49.01734,-6.15148,-0.48352107,-5.006387,-26.460497,-16.613111,12.951566,58.688335,19.073448,4.241595,-9.532423
60,5.797181129455566,5.492123603820801,77.040771484375,-0.708006844451985,-7.710259959662566,170.809083211406,1.0598518,16.146488,16.109947,21.98579,-11.741698,-11.567275,13.132843,-9.847594,-12.9084,6.9263844,-11.175376,12.024033,-0.64541805,0.79375136,6.0503693,-16.50385,20.783463,1.083787,48.914066,-6.3992887,-0.397867,-5.064775,-26.420645,-16.72544,12.907696,58.076515,19.029953,4.6394525,-9.320882
61,5.879127502441406,5.5016398429870605,77.06422424316406,-0.5280361755894549,-8.018721544755753,170.79030858109667,1.6898903,15.854348,16.240051,21.269022,-11.376462,-11.557675,13.352932,-10.058133,-12.907227,7.0634212,-11.20879,11.996119,-0.928185,0.7581208,6.360286,-16.488647,20.902454,0.77387464,48.975563,-6.8506804,-0.33480594,-5.1265793,-26.388306,-16.891138,12.895291,57.518925,19.0873,5.0048394,-9.048764
62,5.97554349899292,5.5221052169799805,77.0743179321289,-0.4001475620762456,-8.35874179817905,170.77865928890063,2.3003194,15.643478,16.336653,20.651344,-11.0696,-11.574245,13.448408,-10.240723,-12.887548,7.5465255,-11.436273,11.973164,-1.2064527,0.76235217,6.708624,-16.544065,21.077938,0.32712972,49.168423,-7.4539285,-0.28101322,-5.1891103,-26.404379,-17.065506,12.926975,57.034138,19.209118,5.373735,-8.724409
63,6.072503566741943,5.549241065979004,77.08226776123047,-0.3127533646926934,-8.641065836772192,170.73514364541577,2.809761,15.5055685,16.442366,20.121082,-10.803362,-11.602518,13.51321,-10.353607,-12.840986,7.917682,-11.597609,11.944612,-1.4555247,0.8067756,7.017587,-16.62952,21.29289,-0.1833651,49.433067,-8.148388,-0.24388985,-5.265022,-26.438318,-17.238508,12.979909,56.582996,19.33487,5.72209,-8.408505
64,6.166751384735107,5.568553447723389,77.09188842773438,-0.2482062362167201,-8.77371979932839,170.61758594145584,3.1277652,15.42803,16.60213,19.681847,-10.563158,-11.627657,13.371179,-10.4246025,-12.7091675,8.289719,-11.73391,11.901644,-1.6514722,0.8922272,7.20427,-16.694715,21.519604,-0.6740646,49.70452,-8.864405,-0.23120917,-5.363307,-26.475075,-17.393578,13.042214,56.14472,19.407188,6.022621,-8.165598
65,6.276771545410156,5.582158088684082,77.10350036621094,-0.22130683277268315,-8.702780732893554,170.40971276133914,3.1854422,15.436666,16.827646,19.359537,-10.357851,-11.645705,12.955685,-10.435796,-12.471109,8.651951,-11.832785,11.839517,-1.7917442,1.0523654,7.220687,-16.727207,21.74987,-1.1431785,49.99176,-9.6204815,-0.25333282,-5.4980917,-26.53665,-17.523489,13.128829,55.742596,19.413326,6.264878,-7.9990654
66,6.390830039978027,5.5877366065979,77.11632537841797,-0.23876912073127612,-8.487564227722606,170.13762552105,3.0440674,15.534196,17.093452,19.150051,-10.193262,-11.664278,12.373873,-10.377844,-12.162182,8.9435625,-11.875009,11.763491,-1.8927156,1.2846661,7.1177263,-16.747189,21.989096,-1.6193938,50.318386,-10.4341755,-0.30316934,-5.657339,-26.638945,-17.63188,13.251662,55.397446,19.38608,6.461639,-7.8833747
67,6.503691673278809,5.583288669586182,77.13001251220703,-0.2684078611246153,-8.205609865114337,169.82127245329715,2.812974,15.669199,17.391235,19.0012,-10.047608,-11.685847,11.689353,-10.29784,-11.802299,9.246086,-11.907192,11.679745,-1.956739,1.5366522,6.960421,-16.753208,22.226347,-2.0634668,50.640514,-11.23393,-0.36263254,-5.8104954,-26.7491,-17.71488,13.380619,55.077,19.320011,6.620452,-7.8393416
68,6.623555660247803,5.585567951202393,77.14208221435547,-0.27639114405887294,-7.933650643360777,169.48021201156791,2.6004615,15.787706,17.71394,18.860382,-9.899189,-11.712834,10.96866,-10.2425165,-11.411522,9.631258,-11.971507,11.59494,-1.990169,1.7569498,6.8112464,-16.737604,22.44314,-2.4317744,50.911716,-11.942939,-0.41518986,-5.924402,-26.839771,-17.765985,13.489969,54.75659,19.209684,6.7483087,-7.889768
69,6.745995044708252,5.591261863708496,77.15415954589844,-0.2542279790909294,-7.655316860408917,169.10436717956253,2.397949,15.879144,18.074913,18.717178,-9.74005,-11.747862,10.178869,-10.220886,-10.974928,10.122303,-12.075197,11.507878,-1.9823961,1.9424741,6.6519556,-16.696932,22.629253,-2.7298748,51.135204,-12.565586,-0.46909314,-5.9903097,-26.90438,-17.781261,13.58633,54.440987,19.05864,6.825161,-8.073569
70,6.85606575012207,5.583086013793945,77.16679382324219,-0.22069437410719264,-7.3420320553440135,168.6890847251064,2.160518,15.971469,18.472775,18.598436,-9.582615,-11.789025,9.304474,-10.205391,-10.489199,10.674151,-12.194232,11.415837,-1.9352221,2.1201825,6.4584064,-16.634283,22.786562,-2.9728115,51.333195,-13.129341,-0.53110254,-6.0227714,-26.962326,-17.762777,13.680688,54.147892,18.865824,6.8545094,-8.369911
71,6.974652290344238,5.5817060470581055,77.17627716064453,-0.1813553926715513,-7.051383808804399,168.26097563083772,1.9417362,16.065845,18.87892,18.506142,-9.43447,-11.831821,8.431597,-10.189973,-9.989067,11.266693,-12.329794,11.323451,-1.8749417,2.2837203,6.283382,-16.5517,22.91528,-3.133444,51.48774,-13.594754,-0.5831554,-6.023461,-27.026009,-17.714018,13.758209,53.872337,18.62356,6.8787518,-8.711676
72,7.1000800132751465,5.58487606048584,77.1792984008789,-0.1414266611039832,-6.840895486172562,167.84680061677022,1.7940891,16.164091,19.265018,18.443981,-9.303919,-11.871689,7.6450944,-10.1698265,-9.509155,11.881394,-12.483698,11.235725,-1.8174973,2.4470518,6.1799164,-16.459469,22.983593,-3.186871,51.586704,-13.910784,-0.6099069,-5.9881225,-27.097965,-17.66487,13.803042,53.59943,18.329517,6.942291,-9.030532
73,7.232729911804199,5.590768337249756,77.17777252197266,-0.10712132302790514,-6.7366927082391985,167.44897898564483,1.7389315,16.275257,19.624842,18.429516,-9.200918,-11.907194,6.987454,-10.136226,-9.057869,12.495971,-12.648561,11.157449,-1.7710832,2.589638,6.1771064,-16.35774,23.034286,-3.1226764,51.606316,-14.057738,-0.59239537,-5.9079294,-27.173437,-17.592228,13.801657,53.3128,17.96582,7.0547986,-9.3337755
74,7.362519264221191,5.603902816772461,77.17308807373047,-0.07262402525145646,-6.704252847549641,167.0544316646336,1.7457402,16.394892,19.973543,18.455446,-9.118479,-11.940584,6.403998,-10.095141,-8.61669,13.130742,-12.828272,11.085444,-1.7579784,2.704899,6.2380395,-16.208303,23.07568,-2.9176679,51.542828,-14.055573,-0.54274017,-5.7888937,-27.29666,-17.447184,13.7894125,53.072117,17.528002,7.188217,-9.657696
75,7.495526313781738,5.62375020980835,77.16449737548828,-0.024042168111170974,-6.7097555538543,166.6660800920019,1.7898854,16.50122,20.315975,18.484898,-9.037456,-11.972454,5.8363748,-10.066017,-8.180078,13.825819,-13.038791,11.013424,-1.7481906,2.8014445,6.328476,-16.047462,23.084318,-2.63682,51.451714,-13.974616,-0.48742825,-5.6608367,-27.432268,-17.286705,13.754774,52.851395,17.062119,7.3424444,-9.951513
76,7.637330055236816,5.655263423919678,77.15301513671875,0.05282945144359315,-6.719007940449213,166.2870736357007,1.847904,16.571173,20.656858,18.479553,-8.938055,-12.003457,5.225884,-10.067904,-7.74189,14.622345,-13.297199,10.93504,-1.7440962,2.8637779,6.4158597,-15.874784,23.078192,-2.3145564,51.36239,-13.8913,-0.44864362,-5.562497,-27.583225,-17.119074,13.705241,52.660614,16.604538,7.5109825,-10.169881
77,7.780716419219971,5.688686847686768,77.13660430908203,0.1612284827476413,-6.741375756515406,165.9131868716314,1.9356996,16.6011,21.001589,18.431797,-8.818295,-12.035144,4.572061,-10.102284,-7.2937274,15.540461,-13.613199,10.853782,-1.7430239,2.8832977,6.5120845,-15.684743,23.060574,-1.9239496,51.269382,-13.798782,-0.4321207,-5.5053864,-27.743359,-16.942648,13.623252,52.484676,16.13893,7.7081275,-10.301945
78,7.93172550201416,5.720398426055908,77.11688995361328,0.2945495624942933,-6.788608180997176,165.5441113600238,2.0590246,16.601656,21.346546,18.360003,-8.687042,-12.06651,3.904158,-10.158131,-6.8409348,16.547974,-13.973738,10.772368,-1.7454684,2.8659792,6.6294994,-15.4800205,23.029696,-1.4580895,51.15879,-13.668168,-0.42499745,-5.4708123,-27.913145,-16.75499,13.511696,52.32098,15.657617,7.9310436,-10.369641
79,8.092275619506836,5.765425205230713,77.09424591064453,0.4520510285767271,-6.829552055728768,165.18965172492003,2.1779244,16.570118,21.682812,18.265205,-8.540923,-12.094569,3.202596,-10.237205,-6.3964453,17.618782,-14.361947,10.682878,-1.7542562,2.8180218,6.7370286,-15.273301,22.997465,-0.9864225,51.045963,-13.545683,-0.4216968,-5.452987,-28.091766,-16.564314,13.39617,52.18387,15.198404,8.14846,-10.375379
80,8.250470161437988,5.812477111816406,77.06981658935547,0.6326470603126879,-6.833452948727115,164.85982581468107,2.2564583,16.50239,22.0031,18.140287,-8.371771,-12.116161,2.450055,-10.341593,-5.9731426,18.722036,-14.75981,10.577647,-1.766695,2.7441475,6.8060837,-15.078382,22.980211,-0.5837765,50.944027,-13.480402,-0.41582978,-5.4484777,-28.265827,-16.382137,13.291731,52.07272,14.7965355,8.330558,-10.319312
81,8.410984992980957,5.866914749145508,77.0405044555664,0.8470926199017235,-6.780119209519356,164.55462647003847,2.2758403,16.381844,22.312078,17.975325,-8.1730585,-12.126084,1.6067042,-10.487586,-5.566796,19.8918,-15.177747,10.451898,-1.7755091,2.6305304,6.8179617,-14.895057,22.984976,-0.25674692,50.850094,-13.479655,-0.40617806,-5.4682245,-28.42096,-16.216429,13.182976,51.974934,14.461593,8.475407,-10.163387
82,8.569204330444336,5.923020839691162,77.011962890625,1.0918714585556464,-6.689821959905877,164.26975656054677,2.2622259,16.213705,22.612999,17.769003,-7.9465027,-12.1273775,0.69589967,-10.667109,-5.1715407,21.124413,-15.616766,10.3120985,-1.7745857,2.478588,6.795062,-14.724924,23.007719,0.019794436,50.76062,-13.524292,-0.39509323,-5.5130134,-28.550993,-16.07155,13.058074,51.87378,14.176527,8.598292,-9.916156
83,8.737375259399414,5.978187084197998,76.97760772705078,1.3436442722961026,-6.592326754671363,164.00990760805416,2.232789,16.032993,22.891315,17.555218,-7.712009,-12.1299,-0.20815185,-10.848067,-4.798449,22.340609,-16.048618,10.166153,-1.7484043,2.329014,6.770687,-14.600725,23.03326,0.1981379,50.69945,-13.625751,-0.38341275,-5.5600734,-28.639227,-15.990787,12.940179,51.74615,13.955514,8.697845,-9.644914
84,8.904302597045898,6.039627552032471,76.93971252441406,1.5814816979188915,-6.518262106399527,163.7789366780776,2.2082186,15.87195,23.13392,17.359829,-7.4850955,-12.143244,-1.0347086,-11.002365,-4.459214,23.468348,-16.449308,10.020383,-1.7724396,2.1653137,6.7710156,-14.458665,23.1145,0.32980877,50.635914,-13.785226,-0.36506295,-5.5980115,-28.787924,-15.852038,12.891262,51.698368,13.764357,8.757294,-9.440037
85,9.08115005493164,6.1090874671936035,76.89875030517578,1.8131730834971467,-6.462966048123437,163.57055786839723,2.1874945,15.723436,23.348217,17.177038,-7.2649918,-12.16868,-1.7990792,-11.139488,-4.14419,24.519747,-16.822504,9.870822,-1.7983853,2.0052066,6.795403,-14.3512,23.23467,0.3319776,50.599586,-14.037587,-0.34150147,-5.6103144,-28.93771,-15.737674,12.906894,51.668617,13.643137,8.770191,-9.294107
86,9.258942604064941,6.189948081970215,76.85433197021484,2.045963925996108,-6.414589654680362,163.38489280915167,2.159973,15.576165,23.537064,16.999958,-7.046486,-12.201501,-2.5297241,-11.271413,-3.8511665,25.526882,-17.179518,9.714692,-1.8263835,1.8368824,6.8332596,-14.26908,23.393286,0.23027523,50.580574,-14.369021,-0.31283206,-5.6121964,-29.083952,-15.643649,12.965774,51.65078,13.5838585,8.744322,-9.172066
87,9.431530952453613,6.281393051147461,76.80973052978516,2.256311930201032,-6.392743873286747,163.23513930984205,2.132378,15.459668,23.680641,16.851976,-6.8373065,-12.243454,-3.176615,-11.374684,-3.604947,26.45084,-17.510296,9.558452,-1.8606697,1.6790257,6.8984294,-14.221577,23.579123,0.06325223,50.594563,-14.74049,-0.28235903,-5.620293,-29.22411,-15.563473,13.051261,51.640347,13.566655,8.707393,-9.091921
88,9.61646556854248,6.38262414932251,76.76237487792969,2.420989138850544,-6.417098084437858,163.1342529414006,2.1073425,15.404526,23.757982,16.76453,-6.6492133,-12.296195,-3.6912303,-11.427275,-3.4309201,27.2554,-17.805931,9.408096,-1.9072677,1.5521436,7.00402,-14.21581,23.776573,-0.12844874,50.65671,-15.110829,-0.25373945,-5.6497245,-29.360704,-15.491768,13.15148,51.638958,13.572328,8.686973,-9.073243
89,9.794059753417969,6.495654582977295,76.71649932861328,2.5385822556108475,-6.506796939740431,163.08556556887993,2.0986633,15.415132,23.763823,16.754524,-6.4930396,-12.357002,-4.0438404,-11.429598,-3.3347902,27.928719,-18.06936,9.26927,-1.970353,1.4601077,7.166665,-14.252388,23.980406,-0.3509567,50.767876,-15.486162,-0.22487143,-5.698281,-29.49919,-15.426075,13.282948,51.65597,13.608587,8.684026,-9.151935
90,9.971940994262695,6.623540878295898,76.67132568359375,2.620131789275393,-6.647032943364185,163.08173595360907,2.1001115,15.476759,23.709078,16.803408,-6.360854,-12.426566,-4.270368,-11.396309,-3.3031723,28.500734,-18.306543,9.135516,-2.0485153,1.395001,7.373388,-14.325433,24.192595,-0.6171663,50.920628,-15.879465,-0.19542873,-5.7577105,-29.644125,-15.367348,13.451641,51.696808,13.682372,8.6853075,-9.309635
91,10.15591812133789,6.750798225402832,76.62828063964844,2.6604364847708255,-6.806643115775961,163.12052536841662,2.0854337,15.590627,23.597555,16.888102,-6.2349415,-12.510996,-4.411255,-11.3204365,-3.3353016,28.975702,-18.510164,8.994631,-2.137243,1.360497,7.5933294,-14.429554,24.404633,-0.89472866,51.1146,-16.256935,-0.1712619,-5.834469,-29.788635,-15.314144,13.620646,51.74994,13.764916,8.696773,-9.483314
92,10.34609603881836,6.89152193069458,76.58683013916016,2.6545966804429253,-6.954556655041661,163.1999894554313,2.0287073,15.758268,23.432568,16.984503,-6.0974946,-12.6164665,-4.5098505,-11.193588,-3.4300272,29.363474,-18.674559,8.834647,-2.233367,1.3624858,7.7950373,-14.557514,24.60374,-1.1494249,51.348602,-16.582764,-0.15872687,-5.9335904,-29.93073,-15.2656975,13.756932,51.809376,13.828859,8.72459,-9.611166
93,10.534908294677734,7.053349018096924,76.55062866210938,2.5912557048557043,-7.089008754426591,163.3307471568503,1.9137504,15.995336,23.19744,17.112566,-5.9555144,-12.753632,-4.559147,-11.005474,-3.6013725,29.655455,-18.79844,8.6503525,-2.3436353,1.4134562,7.973372,-14.713287,24.78506,-1.3865712,51.64017,-16.847637,-0.16855879,-6.069005,-30.070467,-15.222308,13.857273,51.877327,13.867741,8.76938,-9.685938
94,10.723581314086914,7.219866752624512,76.51951599121094,2.4759163591835462,-7.224000311209437,163.51057876467462,1.7602582,16.294226,22.89587,17.269474,-5.8114557,-12.916796,-4.542756,-10.76314,-3.844901,29.850435,-18.885208,8.448435,-2.4671686,1.5099365,8.14346,-14.898949,24.949543,-1.6195753,51.985207,-17.068565,-0.19492865,-6.2322693,-30.208736,-15.18512,13.935334,51.95763,13.8904085,8.828318,-9.738108
95,10.913651466369629,7.392330646514893,76.49372863769531,2.3279875503703953,-7.35225596385492,163.71783544142906,1.5858122,16.626192,22.558395,17.418045,-5.6511917,-13.08682,-4.48757,-10.484523,-4.1318655,29.96483,-18.93435,8.234976,-2.589176,1.637258,8.304105,-15.100557,25.087626,-1.8230171,52.34782,-17.244335,-0.22046101,-6.3937354,-30.351604,-15.157198,13.995882,52.050587,13.910823,8.901986,-9.763828
96,11.105451583862305,7.573615074157715,76.4753189086914,2.166617695340663,-7.466285788751136,163.93081428291043,1.4089609,16.962988,22.21662,17.520176,-5.4602566,-13.244185,-4.4208255,-10.187471,-4.4342895,30.01599,-18.945793,8.016257,-2.699898,1.8010775,8.452971,-15.29152,25.154388,-1.9518992,52.684788,-17.35576,-0.2312656,-6.5170927,-30.515268,-15.147909,14.048961,52.168613,13.930741,8.9915495,-9.762177
97,11.307924270629883,7.761257171630859,76.45899963378906,1.9877856795657718,-7.56130388416746,164.14843858204452,1.2227567,17.312372,21.871653,17.57599,-5.235033,-13.388509,-4.34549,-9.864594,-4.754174,29.996393,-18.912947,7.790869,-2.7787936,1.9663172,8.58793,-15.516174,25.222927,-2.047179,53.024265,-17.45403,-0.2065807,-6.6174335,-30.669819,-15.1416445,14.052739,52.28009,13.941053,9.106205,-9.713318
98,11.503691673278809,7.952818393707275,76.44828796386719,1.7839246786030178,-7.641661171491805,164.38082046880862,1.0201457,17.684538,21.507973,17.602802,-4.98334,-13.528266,-4.2477956,-9.509472,-5.103569,29.898731,-18.837334,7.556658,-2.8482406,2.1577058,8.713801,-15.746761,25.262688,-2.0841458,53.355057,-17.511253,-0.16120869,-6.703356,-30.835196,-15.141222,14.027009,52.40285,13.937648,9.242954,-9.625783
99,11.698281288146973,8.144057273864746,76.44378662109375,1.5728461040939297,-7.714620964060832,164.6226004330644,0.8194976,18.05215,21.133184,17.589193,-4.706686,-13.656992,-4.132486,-9.145078,-5.4679394,29.746737,-18.733597,7.318865,-2.914613,2.3555229,8.830034,-15.962225,25.274742,-2.0776856,53.665203,-17.513308,-0.11893498,-6.757142,-31.010212,-15.146542,14.00929,52.543575,13.957172,9.381239,-9.527239
100,11.903151512145996,8.339893341064453,76.44187927246094,1.3730130875767224,-7.787796033400327,164.8682439315891,0.6422274,18.38659,20.756927,17.519318,-4.4049416,-13.768129,-4.0028114,-8.794883,-5.832672,29.56248,-18.616117,7.0827246,-2.9765368,2.5325105,8.940062,-16.150373,25.27313,-2.0516417,53.94353,-17.452036,-0.10195173,-6.765087,-31.181664,-15.157333,14.018627,52.692818,14.03045,9.502032,-9.439898
101,12.103260040283203,8.532426834106445,76.44400024414062,1.1787729134513933,-7.867576465897638,165.1213792037312,0.49560118,18.6919,20.366339,17.37773,-4.0487695,-13.87392,-3.841141,-8.452314,-6.2061353,29.326853,-18.479074,6.849934,-3.0545588,2.7127383,9.060768,-16.310146,25.235521,-1.9585891,54.19419,-17.28518,-0.112155825,-6.7283583,-31.38649,-15.196127,14.101627,52.86944,14.192059,9.608468,-9.377309
102,12.30240535736084,8.722969055175781,76.44822692871094,0.9836328701591645,-7.947621957064396,165.38339138466563,0.3593956,18.981937,19.959103,17.192028,-3.6540608,-13.972692,-3.6519504,-8.108312,-6.592338,29.036362,-18.318748,6.618063,-3.1417315,2.9162421,9.182643,-16.416193,25.133772,-1.7925282,54.38823,-17.017878,-0.13982706,-6.642899,-31.603346,-15.271966,14.241374,53.055023,14.415991,9.710272,-9.328162
103,12.498534202575684,8.911018371582031,76.4595718383789,0.8053018560918968,-8.019583618195002,165.64500838621595,0.23597433,19.237734,19.56834,16.974115,-3.2757275,-14.037889,-3.4672759,-7.7831836,-6.970245,28.734816,-18.150484,6.385884,-3.21609,3.1051524,9.284649,-16.504602,25.006876,-1.6260433,54.561085,-16.724463,-0.19144991,-6.5184073,-31.816355,-15.361822,14.40322,53.258186,14.685085,9.793118,-9.272055
104,12.690536499023438,9.100680351257324,76.47207641601562,0.6596770876169457,-8.07491495424584,165.89717017491907,0.12133985,19.44501,19.225378,16.75009,-2.9751744,-14.042689,-3.3216722,-7.4967256,-7.31973,28.47,-17.991823,6.151796,-3.2743683,3.2823315,9.351986,-16.55373,24.84021,-1.4764705,54.692566,-16.450186,-0.27468494,-6.360707,-32.01959,-15.4871855,14.606235,53.479717,15.009956,9.846559,-9.192578
105,12.870311737060547,9.278091430664062,76.48978424072266,0.5622473068746177,-8.10744145209627,166.1433656524178,-0.0049248794,19.587738,18.888535,16.484661,-2.7251456,-13.885485,-3.230246,-7.2692113,-7.6376367,28.261929,-17.850931,5.913043,-3.3150096,3.4052958,9.375511,-16.562353,24.670837,-1.3647225,54.78289,-16.215382,-0.4020299,-6.1584334,-32.202816,-15.63138,14.839712,53.71441,15.415977,9.858948,-9.069252
106,13.050216674804688,9.461620330810547,76.51005554199219,0.5023393492145546,-8.12346799660205,166.38649589304404,-0.13991962,19.678959,18.558321,16.192669,-2.51528,-13.611097,-3.1740541,-7.0871572,-7.9343915,28.086636,-17.719826,5.671255,-3.344247,3.4872892,9.368132,-16.530983,24.495207,-1.2663102,54.829865,-15.991998,-0.5641644,-5.915767,-32.371334,-15.793072,15.102873,53.956898,15.890985,9.84068,-8.915059
107,13.226262092590332,9.635396003723145,76.53118896484375,0.45629147526887404,-8.133101508902133,166.61548200739188,-0.23228365,19.74218,18.334286,15.931195,-2.4073648,-13.413159,-3.1350422,-6.919955,-8.210155,27.923162,-17.58839,5.430966,-3.353962,3.5601206,9.340195,-16.484308,24.316492,-1.1894386,54.85124,-15.791968,-0.7321052,-5.668694,-32.527863,-15.965549,15.378444,54.20882,16.369974,9.809051,-8.758425
108,13.399187088012695,9.806344032287598,76.55699157714844,0.3974221735991377,-8.146795486843791,166.81900337558213,-0.23003763,19.805012,18.313726,15.757026,-2.4641786,-13.48661,-3.0940578,-6.7330875,-8.465659,27.748772,-17.445763,5.196122,-3.3363268,3.655914,9.302506,-16.448496,24.14207,-1.1440332,54.8663,-15.629699,-0.8769209,-5.4538755,-32.676193,-16.140373,15.651173,54.473927,16.791292,9.780898,-8.628242
109,13.570073127746582,9.969673156738281,76.58781433105469,0.3247451664805645,-8.162279238578412,166.9907455518373,-0.051004887,19.860874,18.652176,15.545351,-2.635488,-14.07901,-3.062262,-6.522907,-8.693057,27.57352,-17.293377,4.963432,-3.2868764,3.7729118,9.251777,-16.421415,23.976713,-1.1351779,54.872658,-15.510589,-0.9991231,-5.270406,-32.822266,-16.312025,15.931507,54.762825,17.139582,9.759839,-8.521962
110,13.73782730102539,10.125687599182129,76.60745239257812,0.25554162355770543,-8.173543851539385,167.14092430621088,0.24312732,19.889147,19.260593,15.323446,-2.9148808,-15.000033,-3.0497844,-6.313955,-8.895748,27.410389,-17.138498,4.733432,-3.2217522,3.8633845,9.179036,-16.391924,23.857883,-1.162608,54.867207,-15.440977,-1.1086277,-5.1081653,-32.975452,-16.447033,16.215517,55.08913,17.441814,9.732852,-8.428521
111,13.907185554504395,10.260344505310059,76.6251449584961,0.31143598932368943,-8.14186624647836,167.3508601599319,0.49967736,19.62724,19.907446,15.141412,-3.3069253,-15.000033,-3.1538577,-6.311031,-9.101999,27.409315,-17.060884,4.5609217,-3.2089038,3.8682103,9.047646,-16.352797,23.700829,-1.1889801,54.837868,-15.385082,-1.201372,-4.9731345,-33.10893,-16.616114,16.504534,55.40373,17.71734,9.7025385,-8.365575
112,14.078636169433594,10.400154113769531,76.64066314697266,0.28084923416136026,-8.154216246474038,167.50917484802528,0.5663527,19.56129,20.235828,15.658083,-4.151432,-15.000033,-3.1431413,-6.1743116,-9.302992,27.25625,-16.91316,4.3776965,-3.138643,3.9576013,8.948435,-16.3447,23.562687,-1.2438217,54.822475,-15.363069,-1.2628593,-4.8865986,-33.195107,-16.76241,16.697594,55.687824,17.91751,9.6630745,-8.34232
113,14.239452362060547,10.547185897827148,76.65613555908203,0.1280396931910649,-8.229719721234632,167.5906806940239,0.3687971,19.781374,20.072271,17.10037,-5.6418395,-15.000033,-2.974443,-5.845252,-9.493357,26.897776,-16.667727,4.173703,-2.9958365,4.1694727,8.898417,-16.362492,23.445553,-1.321597,54.820625,-15.393111,-1.2845643,-4.8650613,-33.24753,-16.883389,16.809475,55.964096,18.047953,9.599602,-8.378387
114,14.395358085632324,10.692593574523926,76.67595672607422,-0.08946791597118568,-8.340010396461654,167.62791204798785,0.0256409,20.11558,19.617538,19.1073,-7.559712,-14.87096,-2.7182212,-5.416535,-9.673185,26.420519,-16.36376,3.9655461,-2.827197,4.4294534,8.867076,-16.381954,23.376564,-1.4089153,54.814945,-15.476533,-1.2708505,-4.903136,-33.292034,-16.950798,16.867085,56.2582,18.111015,9.514732,-8.463631
115,14.548723220825195,10.810470581054688,76.70246124267578,-0.19685353336240421,-8.41794535849836,167.72614979635105,-0.32309654,20.134228,19.142653,21.069504,-9.417654,-13.839767,-2.5490353,-5.172492,-9.86239,26.071812,-16.125505,3.8140721,-2.6997807,4.601505,8.786067,-16.422714,23.28674,-1.5137676,54.81484,-15.55753,-1.2421917,-4.9594636,-33.28944,-17.02834,16.860518,56.508095,18.12256,9.439625,-8.567506
116,14.702606201171875,10.930476188659668,76.72681427001953,-0.3244841165475847,-8.512165680283832,167.81430471222723,-0.5163537,20.135725,18.897066,22.925203,-11.049818,-13.095575,-2.3357637,-4.8966365,-10.042107,25.663204,-15.860282,3.6687505,-2.5921342,4.784371,8.717114,-16.44168,23.227879,-1.589329,54.788155,-15.610651,-1.2040862,-5.0239244,-33.275696,-17.067724,16.812109,56.72058,18.096224,9.395736,-8.662579
117,14.846819877624512,11.038199424743652,76.75340270996094,-0.4770748366679396,-8.630822597309457,167.88824107483595,-0.499089,20.17099,19.015652,24.65339,-12.421275,-12.745828,-2.0559528,-4.578441,-10.208506,25.165365,-15.555811,3.5348022,-2.497827,4.99878,8.665361,-16.437729,23.183378,-1.6294394,54.733463,-15.620024,-1.1553409,-5.0987387,-33.238953,-17.08087,16.701738,56.88047,18.014528,9.393032,-8.738113
118,14.987617492675781,11.147584915161133,76.77763366699219,-0.6495876012841483,-8.769497835387112,167.94988176073355,-0.35955393,20.239294,19.337944,26.4069,-13.690685,-12.578559,-1.7210512,-4.228287,-10.363679,24.593904,-15.218335,3.413271,-2.3956919,5.2464433,8.619727,-16.441029,23.131231,-1.666008,54.677658,-15.600114,-1.0954837,-5.183456,-33.171196,-17.077473,16.515789,57.000755,17.871428,9.417779,-8.81027
119,15.13245677947998,11.257176399230957,76.80559539794922,-0.8287832623115237,-8.91284499052076,168.0095977808192,-0.16011046,20.291914,19.704477,28.179901,-14.879684,-12.508022,-1.3721619,-3.868876,-10.512263,23.998726,-14.869109,3.2939062,-2.301301,5.4982347,8.571165,-16.446287,23.081755,-1.7011698,54.61592,-15.564289,-1.0328903,-5.262437,-33.09271,-17.058414,16.306553,57.096893,17.710962,9.460306,-8.892178
120,15.27390193939209,11.354212760925293,76.83134460449219,-1.003386013941611,-9.042674561193643,168.07729811902908,0.03672502,20.266361,19.95717,29.953234,-16.00382,-12.452423,-1.0502297,-3.521508,-10.660085,23.430256,-14.529514,3.1662319,-2.2314982,5.727408,8.513892,-16.446081,23.048038,-1.7346373,54.539062,-15.527943,-0.97511,-5.3222847,-33.019566,-17.033808,16.133478,57.175266,17.584604,9.512202,-8.995549
121,15.414859771728516,11.455087661743164,76.85226440429688,-1.1712203945324837,-9.158680999369974,168.14914093628803,0.21735944,20.161972,20.108208,31.771788,-17.073427,-12.381232,-0.7601141,-3.186192,-10.80178,22.891628,-14.197581,3.021123,-2.174639,5.9323125,8.44528,-16.453117,23.025267,-1.7763147,54.45685,-15.489109,-0.92758405,-5.3580503,-32.945843,-17.003206,15.983316,57.225216,17.485447,9.5902405,-9.134791
122,15.551956176757812,11.551898002624512,76.87479400634766,-1.3391313315689626,-9.267039076740213,168.22206922730797,0.4136153,20.004196,20.22667,33.62817,-18.078997,-12.342282,-0.48084322,-2.8525443,-10.93742,22.35796,-13.863883,2.8663797,-2.137286,6.1279454,8.375451,-16.449856,23.017324,-1.8067828,54.35188,-15.444239,-0.88246405,-5.3846517,-32.865833,-16.974255,15.852269,57.235004,17.404396,9.694712,-9.29832
123,15.70303726196289,11.652396202087402,76.89005279541016,-1.5072875822682603,-9.36725161763064,168.30626708187,0.62013817,19.758268,20.241117,35.43443,-18.999836,-12.376321,-0.2176173,-2.5262172,-11.080698,21.842714,-13.541409,2.7164707,-2.1146126,6.3074703,8.299014,-16.455486,23.020172,-1.8500347,54.24327,-15.39779,-0.8366253,-5.394184,-32.774548,-16.942253,15.73466,57.227215,17.350565,9.787719,-9.459438
124,15.85039234161377,11.7479829788208,76.90421295166016,-1.6758571316271176,-9.458654503105945,168.41223457622542,0.8274852,19.38554,20.0828,37.106266,-19.818192,-12.526776,0.025407119,-2.213189,-11.245548,21.35648,-13.2414665,2.5857239,-2.1141229,6.4617662,8.211459,-16.476,23.038733,-1.9175138,54.1412,-15.357121,-0.7854139,-5.382672,-32.680557,-16.907015,15.653199,57.233276,17.350786,9.8305645,-9.593463
125,15.995696067810059,11.84139633178711,76.9099349975586,-1.8489530631015632,-9.538544903675632,168.54974162403002,1.021758,18.852034,19.696629,38.63948,-20.546925,-12.83343,0.25817272,-1.9118309,-11.444165,20.880934,-12.958527,2.4785295,-2.152071,6.60099,8.117309,-16.502409,23.066536,-2.000167,54.031555,-15.315872,-0.72124934,-5.3455343,-32.583668,-16.885914,15.636614,57.252037,17.43895,9.808549,-9.679964
126,16.141353607177734,11.930242538452148,76.9111557006836,-2.0244309696009104,-9.608436009005764,168.71099177364368,1.208743,18.172838,19.14382,40.07463,-21.196344,-13.27174,0.47878814,-1.6204729,-11.665726,20.417194,-12.689091,2.386851,-2.215258,6.7225566,8.014569,-16.544048,23.104965,-2.104525,53.924065,-15.274874,-0.6494471,-5.2846,-32.47916,-16.875153,15.664589,57.272865,17.595428,9.742717,-9.736195
127,16.289878845214844,12.0156888961792,76.9048843383789,-2.1958655915871033,-9.669599640495306,168.87975338898937,1.4093393,17.387064,18.527056,41.392857,-21.743519,-13.787395,0.6658045,-1.3431293,-11.891667,20.003635,-12.44659,2.306403,-2.2855134,6.825219,7.907221,-16.591112,23.15795,-2.2200115,53.812355,-15.244715,-0.5804104,-5.218279,-32.356823,-16.870762,15.709065,57.26931,17.772978,9.655886,-9.7910185
128,16.437416076660156,12.10590934753418,76.89122772216797,-2.356318340578962,-9.723296095027237,169.039743355625,1.6448156,16.540417,17.941553,42.57248,-22.159777,-14.322678,0.7952131,-1.0849334,-12.102833,19.683847,-12.247253,2.2326152,-2.348935,6.9001827,7.8009815,-16.62915,23.241192,-2.331664,53.68561,-15.237685,-0.52344435,-5.168204,-32.21283,-16.86911,15.748425,57.218494,17.92985,9.570261,-9.871275
129,16.588884353637695,12.19679069519043,76.86962127685547,-2.5060452284167574,-9.768185146624527,169.19790925116789,1.9153006,15.599255,17.333849,43.608566,-22.388645,-15.000033,0.8653617,-0.84832495,-12.30488,19.46189,-12.094447,2.1699069,-2.419816,6.958237,7.6956,-16.646236,23.330511,-2.414631,53.540264,-15.241915,-0.49004295,-5.1290197,-32.063797,-16.867338,15.806274,57.141895,18.064722,9.477425,-9.996353
130,16.742578506469727,12.255721092224121,76.84681701660156,-2.53200224977084,-9.762906281957985,169.42257711401754,2.15492,14.298134,16.678902,44.424896,-22.40747,-15.000033,0.73526275,-0.83281285,-12.533896,19.571932,-12.109182,2.161085,-2.5575275,6.8837037,7.547029,-16.648588,23.425682,-2.4811256,53.3795,-15.254306,-0.47341964,-5.0910935,-31.908384,-16.864183,15.886866,57.045727,18.195095,9.368643,-10.150305
131,16.897939682006836,12.319297790527344,76.81626892089844,-2.565319924775619,-9.756680332389179,169.62130730865272,2.4464421,13.031267,16.108902,45.114532,-22.37668,-15.000033,0.5707735,-0.8065889,-12.739198,19.73945,-12.147193,2.147596,-2.6725762,6.834064,7.3937597,-16.638803,23.47885,-2.5338876,53.210373,-15.2470255,-0.46352607,-5.047945,-31.761177,-16.861296,15.955425,56.94796,18.290905,9.265321,-10.31503
132,17.058395385742188,12.3896484375,76.7764663696289,-2.637816632389513,-9.759628071614065,169.7610743140439,2.812245,11.96556,15.727792,45.67997,-22.382057,-15.000033,0.40747213,-0.70992076,-12.900178,19.89808,-12.16923,2.106942,-2.7435868,6.819396,7.254024,-16.601557,23.549091,-2.5817752,53.006214,-15.2451315,-0.43714342,-5.0235476,-31.60879,-16.854002,15.986733,56.808006,18.350859,9.191365,-10.46407
133,17.2077693939209,12.465859413146973,76.73469543457031,-2.7528348890746015,-9.76669535919041,169.8291115224413,3.2316902,11.090937,15.505517,46.19746,-22.36012,-15.000033,0.23546147,-0.5300491,-13.002791,20.047222,-12.171989,2.0314357,-2.7551305,6.8290133,7.1270943,-16.538599,23.66086,-2.6241148,52.764114,-15.233117,-0.39111614,-5.036111,-31.439524,-16.8269,15.947523,56.611317,18.349632,9.157184,-10.590671
134,17.358827590942383,12.545268058776855,76.68511962890625,-2.897424499687636,-9.774087651117842,169.8458761716476,3.6960025,10.340722,15.385203,46.634785,-22.276596,-15.000033,0.043490954,-0.29454902,-13.064204,20.21128,-12.170984,1.9336766,-2.7227576,6.8879156,6.9965224,-16.457325,23.731676,-2.6505034,52.507954,-15.186739,-0.34276858,-5.0556617,-31.279928,-16.798185,15.884029,56.406666,18.308096,9.147194,-10.716708
135,17.50889015197754,12.610641479492188,76.630126953125,-2.995551826199301,-9.767530663931002,169.87059298002896,4.209141,9.63579,15.440113,46.780586,-22.218826,-14.465772,-0.23637742,-0.1450714,-13.126702,20.5352,-12.244526,1.8504038,-2.7051032,6.8825645,6.8548727,-16.352404,23.831747,-2.68218,52.217304,-15.173228,-0.2802507,-5.0760884,-31.118671,-16.743893,15.76816,56.172802,18.216148,9.149563,-10.831288
136,17.668611526489258,12.657364845275879,76.56918334960938,-2.9953738523334437,-9.73844592633042,169.94914233902568,4.7882366,8.950362,15.742354,46.4447,-22.297594,-13.042269,-0.64102584,-0.18205667,-13.225625,21.109245,-12.442706,1.80999,-2.7463923,6.7874575,6.6913805,-16.212744,23.913206,-2.7118227,51.881813,-15.20906,-0.20392862,-5.0660596,-30.970734,-16.68802,15.618617,55.92514,18.082083,9.153038,-10.934666
137,17.81600570678711,12.700613975524902,76.50731658935547,-2.995761134736526,-9.716738343199708,170.03045895264023,5.493501,8.547884,16.402706,45.63596,-22.684021,-11.081711,-1.0632066,-0.23899668,-13.34699,21.748825,-12.669228,1.7749728,-2.806172,6.684449,6.5337563,-16.040148,24.01328,-2.7493007,51.502323,-15.330062,-0.11408215,-5.027413,-30.82866,-16.604965,15.400843,55.649754,17.888214,9.151077,-11.029725
138,17.96146011352539,12.736187934875488,76.43804931640625,-2.984064115917039,-9.69646657062791,170.10900432624618,6.2979584,8.326945,17.349913,44.46022,-23.327332,-8.653633,-1.521109,-0.3289151,-13.476276,22.475557,-12.933823,1.746767,-2.8781238,6.572708,6.3776817,-15.8319845,24.110968,-2.781529,51.079834,-15.503369,-0.013272582,-4.968629,-30.693298,-16.507837,15.132145,55.3491,17.640781,9.1517,-11.117933
139,18.1151065826416,12.770641326904297,76.36747741699219,-2.946237341193979,-9.692542229692823,170.1917064644488,7.1748495,8.132043,18.351364,43.0124,-24.103666,-6.2751327,-1.9753523,-0.46147957,-13.604315,23.23983,-13.218366,1.7366047,-2.9578621,6.4220324,6.2382107,-15.602328,24.219547,-2.8264449,50.621746,-15.710259,0.1089362,-4.8928013,-30.57251,-16.3964,14.839373,55.04776,17.357433,9.162605,-11.184369
140,18.26050567626953,12.803025245666504,76.29918670654297,-2.874624912234914,-9.720019552259306,170.28644422742312,8.098752,7.837495,19.175014,41.362835,-24.83721,-4.451745,-2.3896246,-0.6402762,-13.724861,23.9969,-13.506861,1.7539123,-3.0406163,6.22037,6.1325293,-15.362842,24.336878,-2.895646,50.13091,-15.926735,0.26239303,-4.8029547,-30.465149,-16.284933,14.547576,54.757313,17.052336,9.193588,-11.212847
141,18.40918731689453,12.823896408081055,76.23517608642578,-2.7699362721223246,-9.790136410106705,170.39660518785018,9.122614,7.4374447,19.817074,39.3683,-25.489382,-3.3989925,-2.7419558,-0.8648989,-13.840499,24.735523,-13.797366,1.8056223,-3.1276844,5.96474,6.073332,-15.118893,24.465849,-3.0021813,49.598053,-16.155712,0.45983306,-4.689042,-30.367682,-16.18181,14.255801,54.465763,16.709496,9.255083,-11.183274
142,18.561450958251953,12.850753784179688,76.17119598388672,-2.637591896498411,-9.89242691726956,170.5182553889263,10.249826,6.9876337,20.386908,37.005447,-26.111032,-2.8336198,-3.0558481,-1.1310177,-13.954796,25.47884,-14.097637,1.8849039,-3.2175384,5.6653523,6.048739,-14.866671,24.605251,-3.139537,49.02421,-16.407795,0.69270986,-4.553665,-30.272322,-16.088072,13.949772,54.160007,16.329779,9.340311,-11.106784
143,18.719377517700195,12.875920295715332,76.104736328125,-2.482141136412493,-10.004021558425022,170.65006419951658,11.380809,6.482885,20.82481,34.515347,-26.635366,-2.4983,-3.354449,-1.4301937,-14.064752,26.215368,-14.399267,1.9787556,-3.3027608,5.331162,6.0381856,-14.606952,24.75106,-3.2934709,48.431152,-16.672024,0.93876165,-4.418038,-30.17634,-16.001738,13.636166,53.857296,15.952177,9.432637,-11.014976
144,18.873226165771484,12.897974014282227,76.0423583984375,-2.306009913361889,-10.105519444289099,170.79002453886073,12.411374,5.9212823,21.06876,32.158142,-27.016073,-2.134311,-3.6666844,-1.7570505,-14.165919,26.946438,-14.69495,2.0741544,-3.376519,4.970599,6.021186,-14.337611,24.897318,-3.4465046,47.839344,-16.935083,1.175976,-4.303436,-30.079601,-15.91809,13.321337,53.57777,15.613034,9.515294,-10.940322
145,19.03447151184082,12.914182662963867,75.98733520507812,-2.1179552722403674,-10.185398778089205,170.9544933271858,13.312601,5.2989917,21.04428,29.964643,-27.249416,-1.7074087,-4.0024247,-2.109722,-14.270897,27.67245,-14.987044,2.1669784,-3.4537754,4.589701,5.991506,-14.063081,25.043873,-3.6013224,47.25137,-17.189636,1.4143656,-4.2185073,-29.997107,-15.835276,12.997849,53.343643,15.328859,9.58709,-10.887847
146,19.208959579467773,12.929311752319336,75.93095397949219,-1.9169612233683466,-10.25771233294284,171.13987198904417,14.1490965,4.622578,20.81129,27.79078,-27.346504,-1.3554821,-4.3447857,-2.4880593,-14.378886,28.389679,-15.275755,2.2631538,-3.5341594,4.1869884,5.958968,-13.781678,25.19099,-3.7631404,46.656918,-17.442347,1.6604502,-4.150506,-29.924416,-15.751846,12.661273,53.139877,15.071657,9.655811,-10.841944
147,19.374906539916992,12.942115783691406,75.88007354736328,-1.6896576504253806,-10.332936864110385,171.31342160901983,14.947993,3.909844,20.505777,25.667349,-27.306538,-1.065627,-4.681489,-2.8918161,-14.462266,29.092636,-15.554232,2.3650284,-3.5929556,3.7560842,5.9281454,-13.479976,25.335249,-3.915862,46.05907,-17.70166,1.8865278,-4.0873632,-29.851515,-15.670326,12.348708,52.94904,14.836254,9.717198,-10.807234
148,19.541784286499023,12.959586143493652,75.83113098144531,-1.4220380401585162,-10.423054088724145,171.44187398568528,15.739404,3.1795056,20.258974,23.62324,-27.13374,-0.81355554,-4.999145,-3.320628,-14.493385,29.773329,-15.81488,2.4753428,-3.6066914,3.2919035,5.904719,-13.140843,25.469929,-4.039275,45.457893,-17.973902,2.0648122,-4.017502,-29.767828,-15.594351,12.097097,52.753376,14.614536,9.766902,-10.788441
149,19.7160587310791,12.979142189025879,75.78482818603516,-1.091807530293326,-10.549418673167267,171.5255870879449,16.563581,2.4127228,20.059786,21.628374,-26.794785,-0.55340046,-5.287677,-3.8069458,-14.465824,30.465405,-16.075634,2.5987961,-3.5760179,2.7779164,5.912044,-12.750769,25.585585,-4.1257753,44.846127,-18.27208,2.1878722,-3.9472804,-29.670483,-15.527554,11.901389,52.531662,14.40257,9.822739,-10.782722
150,19.87760353088379,13.000598907470703,75.75284576416016,-0.7160664885093553,-10.697837542157115,171.57952366557018,17.399323,1.6140219,19.850874,19.682962,-26.300257,-0.30217063,-5.5541177,-4.3350916,-14.395668,31.154785,-16.33113,2.7319014,-3.5122194,2.2236302,5.940931,-12.321876,25.69126,-4.187538,44.226383,-18.590565,2.2708719,-3.8804715,-29.564987,-15.464736,11.744819,52.299065,14.203429,9.880769,-10.788841
151,20.036779403686523,13.004833221435547,75.73687744140625,-0.3370744899330878,-10.831080613734178,171.59152025710702,18.161657,0.85151577,19.68898,17.907057,-25.732841,-0.10743481,-5.8144827,-4.835307,-14.288021,31.769005,-16.540506,2.8657362,-3.406215,1.6776967,5.947875,-11.873041,25.778122,-4.2257967,43.614277,-18.89378,2.3165696,-3.7985497,-29.45543,-15.41265,11.658582,52.09402,14.026994,9.905124,-10.815912
152,20.182830810546875,13.011052131652832,75.73426055908203,0.006381005493812604,-10.910162979959303,171.54893757069132,18.748932,0.20089662,19.630001,16.44512,-25.185886,-0.0028991173,-6.0861206,-5.242995,-14.145866,32.241146,-16.666306,2.9919527,-3.2367597,1.1929718,5.888988,-11.441218,25.8199,-4.2554746,43.041645,-19.140802,2.3246002,-3.6791623,-29.33688,-15.388743,11.667445,51.950027,13.885028,9.860873,-10.87262
153,20.319547653198242,13.022560119628906,75.74634552001953,0.33902141304192035,-10.929016907238005,171.41450520832464,19.09981,-0.31924176,19.724756,15.416399,-24.670464,0.006332828,-6.3938355,-5.5660267,-13.923924,32.586594,-16.708664,3.1097724,-2.9909613,0.7162898,5.756991,-10.971641,25.880894,-4.276206,42.46923,-19.370003,2.2771492,-3.5154033,-29.20546,-15.358098,11.802348,51.877823,13.746824,9.712427,-10.9767685
154,20.45986557006836,13.048197746276855,75.76898956298828,0.6789804169727118,-10.9086136458526,171.20340232865166,19.252434,-0.7371416,19.931532,14.759503,-24.163246,-0.04048053,-6.7240863,-5.8404913,-13.6292,32.840153,-16.689547,3.2247314,-2.6575232,0.24485634,5.5740895,-10.503498,25.917082,-4.3086457,41.931236,-19.573551,2.1738079,-3.3115418,-29.048424,-15.341806,12.0208845,51.853165,13.610405,9.488555,-11.117375
155,20.624004364013672,13.079473495483398,75.79300689697266,0.9814801052630422,-10.852902362852955,170.98177184698739,19.255873,-1.0528136,20.16819,14.342327,-23.703392,-0.111844,-7.0405545,-6.0504756,-13.341868,32.972202,-16.606735,3.3380125,-2.3250198,-0.18939953,5.3646812,-10.038126,25.950283,-4.285713,41.397472,-19.721592,2.0745971,-3.1081936,-28.909914,-15.326382,12.311514,51.8709,13.548944,9.242993,-11.26474
156,20.803115844726562,13.113929748535156,75.82015228271484,1.2001120492005848,-10.770396159280962,170.8162681068697,19.168112,-1.2667086,20.350769,14.032444,-23.326735,-0.17429523,-7.3060617,-6.17914,-13.144414,32.95205,-16.45789,3.4501545,-2.0313444,-0.54615533,5.14676,-9.649205,25.965528,-4.19943,40.894318,-19.768639,2.032725,-2.931348,-28.799074,-15.315911,12.58855,51.909843,13.601438,9.032092,-11.37778
157,20.976886749267578,13.143404960632324,75.86170959472656,1.3055230946681053,-10.622645891831732,170.72034147533392,18.920944,-1.338329,20.471914,13.89286,-23.073814,-0.23255698,-7.5378537,-6.195052,-13.065443,32.727467,-16.218103,3.5644276,-1.8160076,-0.78799176,4.883259,-9.304234,25.959194,-3.9963844,40.39286,-19.700441,2.070995,-2.7787898,-28.74673,-15.304795,12.894533,51.99631,13.8245325,8.848944,-11.454223
158,21.139434814453125,13.1607084274292,75.91116333007812,1.3301403179256253,-10.420652513681153,170.6589719444313,18.512985,-1.280231,20.572803,13.967816,-22.918415,-0.30262578,-7.746239,-6.119858,-13.057996,32.330505,-15.897122,3.6795533,-1.6380181,-0.94153494,4.5737624,-8.999342,25.916393,-3.7073352,39.910168,-19.529554,2.1551874,-2.634623,-28.733696,-15.2925625,13.235205,52.134647,14.167617,8.670501,-11.511326
159,21.307382583618164,13.178632736206055,75.96204376220703,1.3182756024498083,-10.242370045952432,170.6271208239168,18.11417,-1.1791699,20.640081,14.076789,-22.785488,-0.36021844,-7.884361,-6.0134172,-13.09295,31.85568,-15.543505,3.7886028,-1.4548167,-1.0643419,4.295114,-8.787641,25.849243,-3.4085352,39.48489,-19.277617,2.2614138,-2.5162845,-28.720186,-15.296064,13.547236,52.2764,14.562337,8.527771,-11.546369
160,21.486061096191406,13.195793151855469,76.00794219970703,1.3145079632657086,-10.166656158037487,170.6194727548261,17.886042,-1.1232855,20.662788,14.053292,-22.60733,-0.3776717,-7.906677,-5.9352303,-13.140922,31.400936,-15.207368,3.8846636,-1.282887,-1.1903816,4.134572,-8.626258,25.74941,-3.070551,39.077705,-18.941235,2.3704991,-2.455861,-28.724602,-15.325649,13.848296,52.40175,14.964856,8.450469,-11.566226
161,21.664243698120117,13.207226753234863,76.05081176757812,1.3189845078702818,-10.230956865630095,170.64572900252202,17.8876,-1.1330514,20.624329,13.854437,-22.36899,-0.3318208,-7.7662005,-5.8936925,-13.210237,30.966082,-14.893425,3.979536,-1.1160328,-1.3179384,4.136354,-8.538304,25.606787,-2.6819425,38.696476,-18.489944,2.486509,-2.477863,-28.74463,-15.397677,14.117548,52.481544,15.349853,8.480441,-11.574095
162,21.830202102661133,13.209795951843262,76.09695434570312,1.311901305201936,-10.38906437547129,170.70477933420239,18.02683,-1.1665365,20.536674,13.567185,-22.105156,-0.2415698,-7.499146,-5.8587375,-13.311016,30.508268,-14.578258,4.072138,-0.9437102,-1.4284261,4.250017,-8.535875,25.430073,-2.2595587,38.351627,-17.936094,2.6162517,-2.5623565,-28.765648,-15.511518,14.351881,52.52122,15.750014,8.592251,-11.564598
163,22.00080680847168,13.213567733764648,76.14189910888672,1.3054636876718435,-10.588828543918474,170.77540627697425,18.237238,-1.2175747,20.432688,13.223556,-21.824032,-0.14141299,-7.1858983,-5.8302174,-13.416908,30.06375,-14.270001,4.136342,-0.76117194,-1.5284739,4.416789,-8.58709,25.228237,-1.8411793,38.035988,-17.339853,2.7412088,-2.6675591,-28.78445,-15.664379,14.583913,52.560257,16.200262,8.715076,-11.530986
164,22.148094177246094,13.210556983947754,76.1894760131836,1.3126960884639416,-10.779902477524063,170.8362460634159,18.458359,-1.2814476,20.343609,12.844504,-21.525719,-0.06452806,-6.9056363,-5.809334,-13.501814,29.66562,-13.975373,4.1464677,-0.5580923,-1.6294973,4.5780916,-8.666244,25.015997,-1.4733049,37.744377,-16.764856,2.844339,-2.750929,-28.787954,-15.846989,14.832396,52.630074,16.728107,8.778556,-11.464349
165,22.30570411682129,13.215814590454102,76.23262023925781,1.3390058050203255,-10.977564732486492,170.87478815442165,18.729244,-1.3680506,20.279682,12.386799,-21.192307,-0.013475864,-6.652238,-5.795191,-13.552571,29.328709,-13.699207,4.089799,-0.3237483,-1.7387626,4.7459164,-8.779329,24.802103,-1.1596025,37.489094,-16.22185,2.9124446,-2.8137786,-28.77998,-16.056883,15.1075325,52.74162,17.370762,8.765061,-11.342925
166,22.4612979888916,13.226851463317871,76.26943969726562,1.3760473483316094,-11.197595723733611,170.90486190137912,19.065018,-1.4754215,20.222717,11.854339,-20.828503,0.027069364,-6.392586,-5.7873883,-13.586195,29.032606,-13.437041,3.9822695,-0.06758415,-1.8526943,4.9426503,-8.933894,24.587088,-0.8769094,37.265465,-15.682745,2.9586635,-2.8752875,-28.765774,-16.293293,15.39542,52.87679,18.101364,8.713032,-11.17673
167,22.618478775024414,13.235675811767578,76.30194091796875,1.4188273930655615,-11.395485851537641,170.9441687061589,19.365469,-1.579984,20.161444,11.3467,-20.47247,0.0527052,-6.168768,-5.788303,-13.621969,28.764275,-13.18486,3.8411548,0.18927509,-1.9696361,5.1255274,-9.107356,24.375315,-0.63350797,37.045105,-15.154666,3.0065444,-2.9192677,-28.737408,-16.54651,15.683135,53.027393,18.856585,8.63446,-11.004617
168,22.77585792541504,13.262120246887207,76.33335876464844,1.4622174693885104,-11.527824656697653,171.0106330071346,19.534313,-1.6595343,20.084724,10.954741,-20.159836,0.059595272,-6.0224566,-5.799882,-13.679218,28.510164,-12.938205,3.6836116,0.42394045,-2.091493,5.2510285,-9.27818,24.173992,-0.43905336,36.80153,-14.646368,3.080161,-2.9296825,-28.688148,-16.801456,15.957572,53.187996,19.572466,8.53933,-10.866356
169,22.933950424194336,13.295495986938477,76.3665771484375,1.5079393969612904,-11.565551348868182,171.10471181061686,19.52377,-1.7052728,19.99767,10.716901,-19.901415,0.038706467,-5.983239,-5.82024,-13.757514,28.266739,-12.6930275,3.5000372,0.6303272,-2.2322435,5.29409,-9.445832,23.99003,-0.29426116,36.529747,-14.155239,3.1951263,-2.8929079,-28.626244,-17.050665,16.24138,53.38085,20.257292,8.423457,-10.76282
170,23.08586311340332,13.331836700439453,76.40060424804688,1.5582723985224751,-11.539249208658346,171.2184914862592,19.39485,-1.7293794,19.903046,10.574672,-19.67601,-0.0052118045,-6.0225186,-5.8479013,-13.849775,28.040302,-12.453202,3.2858124,0.8148658,-2.3926995,5.2814527,-9.616485,23.824736,-0.19180173,36.242092,-13.680737,3.3370345,-2.8217297,-28.558636,-17.291811,16.535734,53.608818,20.936417,8.281718,-10.676643
171,23.24837303161621,13.37324047088623,76.42948913574219,1.6102424171705891,-11.486448984429737,171.35635610466346,19.199148,-1.7402414,19.787561,10.510248,-19.483356,-0.055385042,-6.094894,-5.888652,-13.961996,27.834284,-12.226892,3.06608,0.9733402,-2.5584998,5.2454777,-9.776254,23.676569,-0.12918553,35.938396,-13.234109,3.4842186,-2.739356,-28.476057,-17.517456,16.791077,53.84082,21.561459,8.121542,-10.621449
172,23.409311294555664,13.413355827331543,76.45565032958984,1.6605073760252305,-11.445498161253292,171.52279600807762,18.98875,-1.7474463,19.63827,10.505211,-19.3228,-0.09447653,-6.1558886,-5.9489713,-14.099946,27.654816,-12.0207815,2.865844,1.1025245,-2.7147338,5.217692,-9.912371,23.543575,-0.105145104,35.620205,-12.825929,3.6144018,-2.6678162,-28.370375,-17.718792,16.959267,54.048767,22.086756,7.9497275,-10.6117115
173,23.561742782592773,13.451600074768066,76.4830093383789,1.7084785795671829,-11.40855691408726,171.73417905502814,18.74369,-1.752445,19.43746,10.57537,-19.199549,-0.121891804,-6.208322,-6.0384693,-14.277105,27.494629,-11.832968,2.6841724,1.1890332,-2.862403,5.189096,-10.020477,23.425333,-0.12758043,35.279003,-12.448915,3.7247765,-2.6084726,-28.23645,-17.888123,17.030622,54.237175,22.497875,7.7496576,-10.670937
174,23.70681381225586,13.488289833068848,76.50696563720703,1.755536597485746,-11.361083740593966,171.98314248509854,18.445948,-1.7515378,19.196907,10.726297,-19.11316,-0.14529024,-6.272217,-6.152061,-14.485951,27.356918,-11.660979,2.5100663,1.2363807,-3.0093021,5.146223,-10.107572,23.323864,-0.19422616,34.919563,-12.100641,3.8258727,-2.5498486,-28.086784,-18.025362,17.033323,54.42752,22.820421,7.521439,-10.786245
175,23.851465225219727,13.530068397521973,76.52339935302734,1.8017313320594528,-11.332848228168091,172.23850185148888,18.156569,-1.7493314,18.948725,10.91185,-19.048056,-0.15902835,-6.3197494,-6.2731624,-14.700467,27.24273,-11.507649,2.3535848,1.2689703,-3.1488438,5.115255,-10.177761,23.239504,-0.28896078,34.560616,-11.799399,3.9154127,-2.4954283,-27.928207,-18.131529,16.962112,54.605793,23.05487,7.2990694,-10.917142
176,23.9906063079834,13.56676197052002,76.53644561767578,1.8472146821085007,-11.352925185791053,172.4690404939151,17.93094,-1.7480716,18.724926,11.098439,-18.995287,-0.15787104,-6.3244233,-6.3865614,-14.894056,27.156317,-11.377997,2.2249873,1.3033664,-3.2797198,5.1221375,-10.226098,23.18087,-0.3872773,34.215023,-11.5657215,3.9917886,-2.4504023,-27.77885,-18.197815,16.820036,54.768143,23.203579,7.115271,-11.024655
177,24.119762420654297,13.59579086303711,76.54468536376953,1.8859399511978734,-11.440454099386242,172.6753534498107,17.790154,-1.7412232,18.525082,11.291384,-18.959711,-0.13267912,-6.2568364,-6.4857507,-15.068983,27.086288,-11.2697,2.1374562,1.3477808,-3.3847136,5.185246,-10.252916,23.138563,-0.50743127,33.878162,-11.416119,4.0490913,-2.4035594,-27.626154,-18.237597,16.57407,54.895756,23.25211,6.987609,-11.109333
178,24.244691848754883,13.629980087280273,76.54981994628906,1.9194810387299108,-11.5752569234676,172.8711088663717,17.698967,-1.7281269,18.335224,11.511838,-18.948195,-0.08885446,-6.1400623,-6.5808244,-15.235318,27.038279,-11.182772,2.0820947,1.4045751,-3.4689565,5.28758,-10.275648,23.108017,-0.66948986,33.55675,-11.336225,4.088963,-2.3533142,-27.453714,-18.256973,16.218904,54.98618,23.201206,6.8974643,-11.187145
179,24.367029190063477,13.668654441833496,76.54964447021484,1.9583474430715548,-11.730328152959522,173.0450407799766,17.640923,-1.7225448,18.166506,11.722189,-18.938921,-0.043199886,-6.0181007,-6.6773834,-15.3807335,27.022524,-11.114632,2.0358891,1.4639482,-3.5504928,5.404252,-10.287192,23.091644,-0.82165515,33.256985,-11.292518,4.1217337,-2.3245811,-27.289576,-18.256056,15.836983,55.063408,23.095882,6.824322,-11.243621
180,24.492210388183594,13.698970794677734,76.5469741821289,2.0140217536230285,-11.874628463289968,173.18552220926108,17.58926,-1.7353727,18.030771,11.908262,-18.92143,-0.012697336,-5.9385676,-6.783065,-15.491612,27.056206,-11.065806,1.9758999,1.5354127,-3.6469572,5.5098124,-10.30469,23.083094,-0.9367364,33.00415,-11.249178,4.1561527,-2.33652,-27.143047,-18.244291,15.487415,55.140347,22.975573,6.7484403,-11.262376
181,24.608604431152344,13.732102394104004,76.54248809814453,2.0899988734131028,-12.009587586664123,173.28165816435055,17.562527,-1.7742981,17.93827,12.034632,-18.883623,-0.0035407005,-5.9077644,-6.897568,-15.557353,27.147705,-11.038983,1.8943638,1.650464,-3.7613397,5.6031017,-10.35865,23.077135,-1.0342464,32.82404,-11.199421,4.194354,-2.401827,-26.988705,-18.221308,15.129635,55.204296,22.804968,6.668483,-11.234043
182,24.730581283569336,13.763284683227539,76.53473663330078,2.1803840047896825,-12.147371299722376,173.34187922409424,17.56158,-1.8304236,17.880981,12.129788,-18.838312,-0.006374559,-5.9029536,-7.0177855,-15.586986,27.286972,-11.032724,1.8041797,1.7485713,-3.8683815,5.701296,-10.36462,23.071407,-1.0495543,32.640656,-11.155552,4.2345853,-2.522844,-26.867489,-18.194242,14.823296,55.26301,22.60924,6.593892,-11.173478
183,24.85210609436035,13.794389724731445,76.52406311035156,2.2824364820361396,-12.277636028218673,173.38392234854072,17.56177,-1.8996252,17.840918,12.2130575,-18.788588,-0.014483517,-5.924136,-7.146557,-15.5976715,27.458046,-11.040295,1.7132773,1.8568338,-3.9873352,5.7913814,-10.387389,23.06739,-1.0573621,32.509754,-11.119001,4.2690997,-2.6524758,-26.76116,-18.159967,14.537145,55.32244,22.414291,6.5212665,-11.085864
184,24.96729850769043,13.82160758972168,76.51237487792969,2.393243512171466,-12.392144239512392,173.42556846449543,17.537638,-1.9766608,17.800287,12.306873,-18.738848,-0.021061536,-5.9722867,-7.28643,-15.606847,27.646261,-11.055075,1.62951,1.9505572,-4.1196527,5.866921,-10.419714,23.067661,-1.0577574,32.426544,-11.093957,4.2936435,-2.761538,-26.684216,-18.128414,14.322443,55.388554,22.284922,6.4488096,-10.980876
185,25.08099937438965,13.856167793273926,76.50052642822266,2.514448965680485,-12.478478539159894,173.46385528451216,17.4717,-2.0620823,17.762138,12.42021,-18.690775,-0.02579458,-6.061564,-7.437731,-15.612164,27.850945,-11.074647,1.5549567,2.0481584,-4.278149,5.915273,-10.483226,23.075153,-1.0726581,32.40947,-11.081307,4.307316,-2.8432982,-26.627844,-18.092274,14.1519165,55.464767,22.217888,6.3726387,-10.841833
186,25.201412200927734,13.88831901550293,76.48548126220703,2.6470985015810315,-12.545448851715088,173.49179418997764,17.380228,-2.1575956,17.733738,12.542176,-18.642736,-0.031792954,-6.186616,-7.5989375,-15.606558,28.078402,-11.102387,1.4856439,2.142461,-4.451901,5.944655,-10.559426,23.089247,-1.0796919,32.443333,-11.08371,4.312741,-2.9171283,-26.59234,-18.058134,14.036667,55.542263,22.20112,6.295816,-10.6711445
187,25.31903648376465,13.929852485656738,76.46849060058594,2.7867967433597944,-12.612168402220936,173.52134944367214,17.291592,-2.261329,17.702354,12.658044,-18.591139,-0.037130784,-6.3186746,-7.7705383,-15.599673,28.324003,-11.140591,1.420314,2.2225013,-4.6387734,5.977271,-10.644733,23.112808,-1.0797818,32.519722,-11.094466,4.3101397,-2.9768298,-26.58265,-18.024618,13.979723,55.620377,22.224192,6.22452,-10.499906
188,25.435155868530273,13.971048355102539,76.45038604736328,2.929085978090019,-12.698753298714532,173.56396803698073,17.234098,-2.370725,17.65616,12.75268,-18.532026,-0.039997987,-6.429165,-7.952078,-15.601188,28.583738,-11.191827,1.3575145,2.2799222,-4.825413,6.0371447,-10.735137,23.135576,-1.0714421,32.62801,-11.102245,4.298729,-3.016777,-26.593573,-18.003363,13.985233,55.684395,22.27877,6.167394,-10.358705
189,25.550195693969727,14.016985893249512,76.42910766601562,3.073817725934868,-12.815259166727728,173.6235761764942,17.218287,-2.4871929,17.589203,12.826186,-18.467325,-0.036824938,-6.5069633,-8.14716,-15.615051,28.86039,-11.260971,1.3003985,2.299244,-5.024085,6.1295156,-10.82918,23.179106,-1.0540416,32.774784,-11.113218,4.2760534,-3.0221128,-26.649933,-17.975937,14.078663,55.756657,22.382732,6.119027,-10.252752
190,25.662220001220703,14.064494132995605,76.40617370605469,3.222270217333418,-12.94930900984201,173.6930015006039,17.229197,-2.6107821,17.509289,12.884034,-18.397976,-0.029580584,-6.5682316,-8.353717,-15.635585,29.155094,-11.345314,1.2484609,2.2840362,-5.2327642,6.244141,-10.915476,23.240902,-1.0165921,32.94801,-11.127839,4.24391,-3.0034366,-26.743973,-17.946041,14.259336,55.827328,22.538664,6.0793886,-10.167301
191,25.772735595703125,14.115249633789062,76.38360595703125,3.3762678801790855,-13.088467585609129,173.77035782953558,17.253502,-2.7405689,17.421465,12.923024,-18.31828,-0.023938071,-6.6259313,-8.568195,-15.659232,29.459831,-11.435917,1.1952854,2.230507,-5.4682436,6.3694515,-10.981305,23.34454,-0.94841814,33.13045,-11.165874,4.211731,-2.9947038,-26.8714,-17.891869,14.490924,55.901325,22.701847,6.0511475,-10.104276
192,25.880834579467773,14.169235229492188,76.36235809326172,3.536153744065146,-13.220578746693631,173.85350855382617,17.277555,-2.8744571,17.33105,12.941399,-18.224253,-0.025861159,-6.692261,-8.786026,-15.682343,29.765423,-11.524775,1.1341367,2.1932738,-5.7189355,6.489602,-11.08779,23.444134,-0.90616906,33.368793,-11.218864,4.180807,-3.0073898,-26.985289,-17.83654,14.684421,55.96628,22.813797,6.040243,-10.0637
193,25.996536254882812,14.232648849487305,76.34156036376953,3.70724050589824,-13.345155534577694,173.9407036837371,17.302603,-3.0179064,17.241856,12.93502,-18.11307,-0.036869016,-6.778049,-9.014425,-15.701513,30.090929,-11.615216,1.0585192,2.1594224,-6.0066257,6.6075106,-11.22327,23.571922,-0.8703526,33.658066,-11.298764,4.151411,-3.0600154,-27.103926,-17.757431,14.855174,56.036095,22.862719,6.0592127,-10.068371
194,26.106285095214844,14.300847053527832,76.32311248779297,3.8870989058772647,-13.46847088546367,174.03347071013852,17.335726,-3.1701837,17.150219,12.902336,-17.985838,-0.05409921,-6.8725877,-9.252528,-15.719642,30.430082,-11.709021,0.97321874,2.128286,-6.321343,6.7265964,-11.390791,23.71572,-0.846243,34.00292,-11.396666,4.120142,-3.133254,-27.231508,-17.66444,15.02167,56.11088,22.875267,6.1013827,-10.110562
195,26.22161865234375,14.37502384185791,76.30645751953125,4.066653324131496,-13.586133917892594,174.1348346773066,17.366467,-3.3202002,17.050203,12.856615,-17.848888,-0.07679058,-6.966695,-9.4880295,-15.740807,30.758059,-11.798609,0.8884843,2.084918,-6.6498065,6.8398914,-11.56042,23.877048,-0.8271157,34.36466,-11.519912,4.0958242,-3.2165184,-27.355028,-17.555107,15.170387,56.17294,22.863894,6.139836,-10.147589
196,26.340103149414062,14.457027435302734,76.28791046142578,4.236178351683351,-13.693540665141237,174.24797861242922,17.386204,-3.457372,16.9362,12.806618,-17.706179,-0.10421412,-7.050132,-9.707889,-15.770004,31.047283,-11.875133,0.8144959,2.0149014,-6.9795694,6.9378514,-11.704515,24.056581,-0.8089964,34.70846,-11.674622,4.086902,-3.297814,-27.466215,-17.429626,15.293621,56.21154,22.84648,6.146613,-10.137223
197,26.451047897338867,14.535806655883789,76.2730941772461,4.401250102475742,-13.78565128059319,174.37593526640603,17.395609,-3.590132,16.803606,12.739465,-17.549911,-0.13562672,-7.1269565,-9.919349,-15.805514,31.297955,-11.942256,0.7515674,1.9092345,-7.315657,7.0147076,-11.81871,24.255274,-0.7863069,35.035957,-11.863585,4.0994864,-3.373602,-27.561214,-17.283943,15.381269,56.227898,22.828997,6.1004963,-10.04586
198,26.562637329101562,14.631052017211914,76.26166534423828,4.564171385767569,-13.86718400548722,174.51633659996696,17.399023,-3.72028,16.656612,12.654293,-17.380342,-0.17165722,-7.2017264,-10.126129,-15.845837,31.524239,-12.003683,0.69475377,1.7754809,-7.6631193,7.075071,-11.915774,24.474379,-0.76180786,35.361794,-12.083532,4.128072,-3.4503725,-27.648016,-17.116627,15.442613,56.22973,22.803183,6.0203753,-9.903997
199,26.669771194458008,14.729748725891113,76.2560806274414,4.71108217375083,-13.944589765569551,174.66428110719812,17.39111,-3.8268378,16.502132,12.584112,-17.216688,-0.21318376,-7.2608995,-10.309385,-15.895801,31.71372,-12.04821,0.64702874,1.6269689,-8.008032,7.127492,-11.995565,24.713104,-0.7445828,35.671085,-12.331863,4.1632895,-3.5312154,-27.729078,-16.934097,15.490457,56.208225,22.757133,5.939494,-9.764513
200,26.77589988708496,14.832165718078613,76.25139617919922,4.827826592828532,-14.025558264681141,174.81483917644667,17.369534,-3.8898668,16.347422,12.5568695,-17.076069,-0.2611485,-7.2914824,-10.450244,-15.960707,31.855877,-12.065561,0.6113197,1.4815016,-8.333082,7.183319,-12.061811,24.967813,-0.7473392,35.94894,-12.606224,4.1958694,-3.6196969,-27.795729,-16.743391,15.5254545,56.142166,22.672953,5.8927693,-9.678983
201,26.8822021484375,14.935718536376953,76.24726104736328,4.908038440691909,-14.108375955086272,174.97300463060245,17.327726,-3.9005497,16.189476,12.585608,-16.965195,-0.3160947,-7.2894773,-10.543124,-16.05188,31.945137,-12.053858,0.57087624,1.3383225,-8.633073,7.2433624,-12.114032,25.237986,-0.7732726,36.193363,-12.910215,4.2197056,-3.7261083,-27.837917,-16.54794,15.536144,56.01059,22.528528,5.9017496,-9.669309
202,26.982540130615234,15.047504425048828,76.24980926513672,4.960038757285713,-14.191664410787602,175.13937356120513,17.269487,-3.871079,16.026176,12.652479,-16.873835,-0.37726676,-7.2616644,-10.597927,-16.163836,31.987745,-12.018184,0.52999675,1.1926398,-8.915829,7.3035293,-12.1539755,25.52362,-0.818613,36.412533,-13.243516,4.2411585,-3.845293,-27.859379,-16.349756,15.526532,55.825058,22.343752,5.9446383,-9.704197
203,27.085308074951172,15.16301441192627,76.25287628173828,4.99181682436695,-14.276907632753835,175.30247381075262,17.204002,-3.811899,15.865591,12.746011,-16.796284,-0.44353765,-7.211623,-10.619436,-16.27489,31.992214,-11.959078,0.5236654,1.0563015,-9.183492,7.367746,-12.189032,25.81991,-0.88507587,36.60886,-13.597309,4.2691207,-3.9574366,-27.871624,-16.15484,15.516259,55.61315,22.15445,5.991583,-9.755498
204,27.18490982055664,15.28332233428955,76.26081848144531,5.011626054318618,-14.368645374920524,175.45058540993892,17.14046,-3.7333393,15.716265,12.855288,-16.727613,-0.51382035,-7.143722,-10.612259,-16.363428,31.96822,-11.877285,0.5868198,0.9420527,-9.436634,7.44058,-12.225818,26.118937,-0.9738162,36.78398,-13.961152,4.3121614,-4.0422907,-27.88573,-15.972373,15.526481,55.401955,21.997204,6.0129285,-9.795203
205,27.288612365722656,15.40262508392334,76.26998138427734,5.011026785869826,-14.469264289999611,175.58729702462338,17.069565,-3.6220036,15.572475,13.004647,-16.67668,-0.59027076,-7.051078,-10.56907,-16.446165,31.909748,-11.755478,0.7008759,0.85527277,-9.668939,7.530598,-12.277858,26.41911,-1.0966598,36.94272,-14.337196,4.3798003,-4.0904946,-27.89563,-15.810869,15.553549,55.18199,21.874416,5.9937286,-9.818089
206,27.391170501708984,15.522754669189453,76.28153228759766,4.988732205028358,-14.576874461104225,175.71676439229154,16.991024,-3.4776065,15.432238,13.1887665,-16.641575,-0.6726032,-6.9343653,-10.489096,-16.527016,31.81447,-11.599092,0.8565409,0.79411054,-9.877514,7.635999,-12.3424835,26.71892,-1.2533797,37.083645,-14.728529,4.464571,-4.1138186,-27.887125,-15.670091,15.579842,54.931644,21.7638,5.9541225,-9.836849
207,27.493106842041016,15.641288757324219,76.29109954833984,4.964033738297899,-14.685400765705849,175.82813603650573,16.923437,-3.329551,15.309416,13.361109,-16.605988,-0.75627065,-6.8078113,-10.388592,-16.564968,31.694265,-11.442226,1.1029563,0.7526867,-10.071375,7.740852,-12.394533,27.010859,-1.4200712,37.198917,-15.1233225,4.5484867,-4.1224427,-27.884296,-15.554421,15.641846,54.68662,21.696955,5.9130173,-9.852827
208,27.59160041809082,15.761086463928223,76.30098724365234,4.956479809692131,-14.786949508838859,175.91015301460135,16.887241,-3.207917,15.218566,13.472347,-16.551983,-0.836672,-6.6861,-10.283881,-16.518948,31.562677,-11.320765,1.489282,0.7249118,-10.255718,7.8302994,-12.405056,27.282251,-1.5685058,37.27615,-15.507195,4.613975,-4.127478,-27.906357,-15.4657755,15.770173,54.476337,21.69889,5.8903294,-9.867301
209,27.685075759887695,15.874566078186035,76.30921936035156,4.966759400653333,-14.881742806997428,175.95957945936527,16.878815,-3.1109478,15.167229,13.532118,-16.48833,-0.9114392,-6.5593767,-10.152399,-16.358772,31.371944,-11.225528,2.0834887,0.7023997,-10.422893,7.8985868,-12.357415,27.528498,-1.6929651,37.309765,-15.893576,4.654306,-4.134607,-27.967075,-15.407721,15.995996,54.31011,21.788284,5.892746,-9.892468
210,27.77150535583496,15.984715461730957,76.31629943847656,4.9865567139197235,-14.973219688788229,175.9822760774091,16.891972,-3.0266764,15.146683,13.556095,-16.418451,-0.9832775,-6.423714,-9.994899,-16.113981,31.1321,-11.14991,2.8404517,0.6889494,-10.568567,7.954606,-12.264427,27.74891,-1.8017172,37.302578,-16.279697,4.679242,-4.137171,-28.054733,-15.380293,16.299646,54.17194,21.95062,5.9093227,-9.924192
211,27.850675582885742,16.08607292175293,76.32095336914062,5.021254788779166,-15.060478488030608,175.98053178223304,16.937313,-2.967012,15.147291,13.517187,-16.32345,-1.0554132,-6.3031383,-9.863207,-15.8346195,30.945496,-11.132019,3.640121,0.69589627,-10.703248,8.002963,-12.145232,27.936499,-1.8900306,37.262493,-16.628607,4.6948905,-4.1263986,-28.154467,-15.380296,16.632809,54.062057,22.151728,5.932687,-9.9401045
212,27.936290740966797,16.18681526184082,76.32085418701172,5.075801321505087,-15.145762565733502,175.95659688342087,17.022041,-2.942526,15.159764,13.395979,-16.18905,-1.1310166,-6.2220435,-9.807572,-15.570636,30.913902,-11.204402,4.3636084,0.7472043,-10.81971,8.039395,-12.041832,28.034332,-1.9688781,37.227715,-16.877804,4.7004385,-4.080103,-28.266415,-15.400812,16.937204,54.017174,22.34438,5.952362,-9.922927
213,28.014835357666016,16.282424926757812,76.32344055175781,5.1591929327471195,-15.229379988750326,175.90173264821172,17.164782,-2.9684594,15.18764,13.154619,-15.9956255,-1.2139192,-6.191097,-9.790101,-15.244706,31.004519,-11.367417,5.079844,0.8182517,-10.963671,8.085546,-11.888362,28.15262,-1.9974238,37.11176,-17.076136,4.7162805,-4.011391,-28.369535,-15.458042,17.26791,53.971508,22.5788,5.9622955,-9.85191
214,28.087175369262695,16.363813400268555,76.32526397705078,5.264545539472503,-15.30996561234338,175.8179604953383,17.35427,-3.033021,15.233787,12.818656,-15.758419,-1.3017076,-6.1959014,-9.798723,-14.864318,31.18531,-11.609034,5.818921,0.9391494,-11.10076,8.118371,-11.749141,28.20084,-2.031856,36.9988,-17.19304,4.7230616,-3.899125,-28.49619,-15.525556,17.587606,54.005604,22.81654,5.962496,-9.748539
215,28.159305572509766,16.450613021850586,76.32455444335938,5.375449859257994,-15.386705682837734,175.7238427223658,17.561216,-3.110559,15.286591,12.443383,-15.503244,-1.3883088,-6.226992,-9.923559,-14.602271,31.559584,-11.931707,6.4053974,1.0678889,-11.218282,8.146147,-11.590559,28.210522,-2.025315,36.85933,-17.25165,4.7207866,-3.7924142,-28.614702,-15.62288,17.893251,54.041344,23.066067,5.9817314,-9.62568
216,28.23444938659668,16.540691375732422,76.32789611816406,5.4767867191569275,-15.458117271266357,175.6376560250133,17.75809,-3.176917,15.3347845,12.080681,-15.254003,-1.4674209,-6.2741055,-10.25758,-14.625458,32.226097,-12.328153,6.6639214,1.193668,-11.302457,8.164303,-11.437665,28.174942,-1.9817994,36.72801,-17.25394,4.701106,-3.720896,-28.706266,-15.735541,18.12938,54.056313,23.295061,6.042453,-9.499763
217,28.29594612121582,16.62224006652832,76.33535766601562,5.568226726195522,-15.524792470995346,175.55778512389858,17.946815,-3.2319932,15.381145,11.729167,-15.010117,-1.5362018,-6.3427944,-10.871948,-15.046129,33.258278,-12.796502,6.476912,1.3149338,-11.349637,8.171214,-11.285635,28.085045,-1.8889664,36.606625,-17.191801,4.6502213,-3.693453,-28.778055,-15.866566,18.287062,54.056355,23.517302,6.1676583,-9.360578
218,28.365703582763672,16.704992294311523,76.33831787109375,5.659227279463077,-15.585855238363038,175.47729155871215,18.142565,-3.291001,15.428691,11.359247,-14.7576065,-1.597917,-6.4242773,-11.716591,-15.741808,34.575867,-13.338216,5.954303,1.438171,-11.377009,8.1634445,-11.134963,27.950312,-1.7596439,36.493584,-17.067316,4.5754056,-3.6902835,-28.84543,-15.9994335,18.383247,54.071583,23.730051,6.3367786,-9.206793
219,28.43617820739746,16.790386199951172,76.34294891357422,5.748397979638458,-15.642673407878902,175.40628685202404,18.334284,-3.3504713,15.467466,10.985634,-14.504973,-1.6551684,-6.4841566,-12.701167,-16.527817,36.03919,-13.946938,5.26308,1.5532459,-11.385186,8.141611,-10.992579,27.779064,-1.6068498,36.38864,-16.893978,4.501513,-3.7045565,-28.894953,-16.132914,18.435312,54.08519,23.903719,6.5109744,-9.066399
220,28.498342514038086,16.87335968017578,76.3463134765625,5.833545701457802,-15.692753975769826,175.3542971490271,18.500986,-3.4029872,15.488582,10.645798,-14.267488,-1.7111423,-6.499086,-13.726452,-17.22264,37.517048,-14.611078,4.57685,1.655012,-11.376487,8.106772,-10.870582,27.58247,-1.4500554,36.295883,-16.686855,4.4531784,-3.7288365,-28.908102,-16.262707,18.451025,54.078106,24.002445,6.651146,-8.966498
221,28.55558967590332,16.952219009399414,76.35350036621094,5.91638250009577,-15.735336157613627,175.32224409081917,18.640587,-3.451168,15.490508,10.337622,-14.0455675,-1.7590866,-6.4692774,-14.82485,-17.857967,39.035515,-15.369642,3.884074,1.740252,-11.3551,8.055805,-10.766947,27.363642,-1.285359,36.2102,-16.443695,4.44362,-3.7602756,-28.884434,-16.383234,18.420078,54.056908,23.995703,6.7490354,-8.899534
222,28.61631202697754,17.038806915283203,76.35786437988281,5.997893617139778,-15.77182871962037,175.30573931372118,18.761322,-3.497392,15.477245,10.049411,-13.833788,-1.8012835,-6.401559,-16.035326,-18.499115,40.637146,-16.219303,3.1097457,1.8109938,-11.322561,7.98941,-10.675952,27.12267,-1.1050783,36.1305,-16.161299,4.4578557,-3.8040152,-28.832565,-16.491808,18.338984,54.02866,23.906242,6.823905,-8.855537
223,28.680017471313477,17.13200569152832,76.3591079711914,6.073396292961054,-15.805403548806542,175.30573516980397,18.869766,-3.5351617,15.44966,9.778104,-13.629969,-1.8496237,-6.297908,-17.25539,-19.021563,42.225716,-17.073593,2.3403776,1.8690187,-11.277335,7.912349,-10.601574,26.86834,-0.9220965,36.064785,-15.853177,4.478612,-3.86494,-28.750395,-16.591404,18.232235,53.978554,23.783775,6.878145,-8.858015
224,28.73363494873047,17.226486206054688,76.36521911621094,6.137603472965173,-15.841243840501813,175.3231957693123,18.970203,-3.5570393,15.408364,9.526191,-13.435366,-1.9158065,-6.1664705,-18.373785,-19.306156,43.708214,-17.837461,1.6652951,1.9177772,-11.218461,7.8319163,-10.549795,26.613516,-0.7515671,36.02093,-15.535505,4.4889026,-3.9483678,-28.630978,-16.687626,18.123158,53.884106,23.681671,6.914772,-8.929636
225,28.786760330200195,17.320369720458984,76.37118530273438,6.185962443544059,-15.883319440561463,175.36341026712054,19.075163,-3.561759,15.3492565,9.276821,-13.241292,-2.005591,-6.011407,-19.364649,-19.317308,45.08821,-18.482323,1.1109632,1.9620849,-11.145713,7.7528415,-10.529357,26.362514,-0.5962853,36.00783,-15.199366,4.483635,-4.0716686,-28.457005,-16.784534,18.008121,53.72976,23.61119,6.9237404,-9.088533
226,28.834566116333008,17.412879943847656,76.37611389160156,6.221843447896236,-15.930582704760944,175.42412180651988,19.176773,-3.5517395,15.273459,9.038602,-13.052313,-2.111771,-5.8343377,-20.272278,-19.12708,46.404694,-19.049345,0.6336941,2.0009758,-11.061046,7.672572,-10.536058,26.11404,-0.4507241,36.017742,-14.84393,4.472127,-4.2276516,-28.230715,-16.881886,17.87443,53.521828,23.545547,6.9083757,-9.317215
227,28.88579750061035,17.517995834350586,76.3792724609375,6.251693513833743,-15.972027874367647,175.49450038635305,19.255112,-3.5271213,15.190249,8.837168,-12.881563,-2.2279627,-5.645457,-21.097805,-18.777233,47.632458,-19.55042,0.22017957,2.030424,-10.967277,7.587128,-10.555726,25.873814,-0.317322,36.033207,-14.498032,4.4597425,-4.3854485,-27.972095,-16.976528,17.728693,53.26835,23.478174,6.8915753,-9.584799
228,28.935914993286133,17.62759017944336,76.38063049316406,6.281768987447039,-15.999512795475276,175.5640305722784,19.284027,-3.485234,15.109079,8.711921,-12.749479,-2.3479688,-5.4538517,-21.838228,-18.310373,48.74265,-19.99741,-0.14483745,2.0435407,-10.869129,7.4915876,-10.571251,25.650976,-0.19671287,36.034397,-14.19156,4.452714,-4.514867,-27.704475,-17.063597,17.578964,52.980743,23.40293,6.895915,-9.860496
229,28.98285675048828,17.73779296875,76.38212585449219,6.315437793597055,-16.0139151157976,175.63016073895423,19.269003,-3.4313707,15.031428,8.65331,-12.653147,-2.4692101,-5.276965,-22.480873,-17.686459,49.760086,-20.40652,-0.4559825,2.0357206,-10.768375,7.383897,-10.576228,25.44977,-0.083378255,36.02024,-13.939897,4.45105,-4.6106653,-27.43058,-17.13814,17.43969,52.657764,23.320253,6.9246454,-10.160885
230,29.034597396850586,17.860445022583008,76.37982940673828,6.348400108361443,-16.018281114699064,175.69830300400253,19.217216,-3.3634806,14.952967,8.652353,-12.587163,-2.5956461,-5.1040754,-23.026218,-16.904419,50.690422,-20.7649,-0.7052864,2.0080647,-10.665154,7.2658815,-10.576054,25.2702,0.024493577,35.997334,-13.7261915,4.452924,-4.68903,-27.14274,-17.197496,17.303658,52.29903,23.230915,6.9659634,-10.494502
231,29.08745765686035,17.991342544555664,76.375,6.376915292408989,-16.009967686759506,175.76965693560282,19.118683,-3.2745028,14.873317,8.721843,-12.554832,-2.7303333,-4.908835,-23.496607,-16.06018,51.488285,-21.049475,-0.9061599,1.9627035,-10.569972,7.140367,-10.5735445,25.130241,0.11803144,35.958115,-13.540456,4.46337,-4.7542143,-26.847286,-17.234316,17.145678,51.913143,23.131163,7.020415,-10.817562
232,29.142417907714844,18.13559913635254,76.37041473388672,6.396845104485803,-15.987332086675606,175.84521477394378,18.96095,-3.156321,14.792488,8.878515,-12.561195,-2.8764498,-4.662441,-23.92263,-15.248391,52.10527,-21.236,-1.0731153,1.912084,-10.470171,7.0090623,-10.578855,25.000837,0.18436861,35.902756,-13.35048,4.4831953,-4.8022776,-26.545832,-17.259985,16.93561,51.510704,23.011518,7.08961,-11.08816
233,29.202123641967773,18.28388786315918,76.36664581298828,6.407549885480913,-15.94758272492222,175.92633208716688,18.741356,-3.0076764,14.70895,9.12414,-12.605823,-3.0375366,-4.38859,-24.355747,-14.515472,52.637905,-21.317152,-1.3993798,1.8415133,-10.388194,6.874404,-10.582871,24.935667,0.22690797,35.816315,-13.167462,4.519688,-4.840245,-26.233212,-17.258905,16.667343,51.073627,22.872316,7.1739173,-11.292348
234,29.25865936279297,18.45016860961914,76.36001586914062,6.4104704447746155,-15.892756349692952,176.01227396087407,18.464596,-2.8320212,14.62304,9.453946,-12.688678,-3.2117128,-4.0923142,-24.767433,-13.804861,53.07735,-21.306526,-1.8153622,1.7642365,-10.30529,6.733536,-10.59821,24.892471,0.23828594,35.716755,-12.984474,4.566513,-4.8589506,-25.906477,-17.242573,16.345959,50.608147,22.71145,7.2729087,-11.454067
235,29.31653594970703,18.618751525878906,76.35414123535156,6.406169096544771,-15.825037177158551,176.1013741674492,18.136349,-2.631095,14.535743,9.862542,-12.809106,-3.393987,-3.7208366,-25.071175,-13.056185,53.227146,-21.217854,-1.94227,1.6896155,-10.224067,6.58839,-10.626862,24.866655,0.21955305,35.611134,-12.822424,4.6198735,-4.86613,-25.568274,-17.211527,15.979692,50.125748,22.53363,7.386463,-11.579962
236,29.374691009521484,18.801584243774414,76.34443664550781,6.395310026412612,-15.746284635720759,176.1920815852011,17.761003,-2.4060566,14.447999,10.346703,-12.967769,-3.5793054,-3.2165375,-25.184834,-12.208737,52.893562,-21.070791,-1.4016649,1.6028783,-10.144622,6.43919,-10.638592,24.863771,0.20056948,35.481205,-12.710136,4.6783304,-4.8763075,-25.23623,-17.168222,15.616129,49.638313,22.366653,7.5129867,-11.681107
237,29.435453414916992,18.993257522583008,76.32898712158203,6.381961152045173,-15.654224448367822,176.28991512776037,17.33103,-2.1612136,14.355259,10.914472,-13.16977,-3.7668571,-2.513308,-25.116995,-11.2665205,51.99056,-20.870455,0.050141018,1.5039998,-10.082926,6.280642,-10.6432705,24.893368,0.17542699,35.33608,-12.656099,4.7436843,-4.896489,-24.90825,-17.098007,15.230213,49.155777,22.203836,7.653691,-11.741545
238,29.496612548828125,19.19019317626953,76.31026458740234,6.363407920209477,-15.54853168960945,176.3941399956541,16.84567,-1.8938578,14.257689,11.5656185,-13.412492,-3.959534,-1.6451496,-24.91615,-10.260317,50.6306,-20.628136,2.1512089,1.3572004,-10.009074,6.113739,-10.590165,24.934412,0.19615263,35.131638,-12.640804,4.817984,-4.9300494,-24.60084,-17.033602,14.886226,48.664192,22.075127,7.809353,-11.769321
239,29.556570053100586,19.401235580444336,76.28758239746094,6.331868543274064,-15.434290727815435,176.49454893052342,16.327883,-1.5989043,14.1623335,12.266401,-13.679839,-4.157639,-0.70139366,-24.549023,-9.1701355,48.91507,-20.377533,4.516929,1.2249211,-9.966003,5.9466577,-10.557138,25.04698,0.16947772,34.93006,-12.679753,4.8976545,-4.9509664,-24.29232,-16.905386,14.4890995,48.173107,21.906187,7.972779,-11.782418
