unveil-humanoid-operators/unveil-humanoid-operators.github.io/feature-analysis-animation/data/feature_matrix_instances/height_root_translate_rom_walking_A197_crouch_ff_stop_315_R_003__A197.csv
Frame,root_translateX,root_translateY,root_translateZ,root_rotateX,root_rotateY,root_rotateZ,left_hip_pitch_joint_dof,left_hip_roll_joint_dof,left_hip_yaw_joint_dof,left_knee_joint_dof,left_ankle_pitch_joint_dof,left_ankle_roll_joint_dof,right_hip_pitch_joint_dof,right_hip_roll_joint_dof,right_hip_yaw_joint_dof,right_knee_joint_dof,right_ankle_pitch_joint_dof,right_ankle_roll_joint_dof,waist_yaw_joint_dof,waist_roll_joint_dof,waist_pitch_joint_dof,left_shoulder_pitch_joint_dof,left_shoulder_roll_joint_dof,left_shoulder_yaw_joint_dof,left_elbow_joint_dof,left_wrist_roll_joint_dof,left_wrist_pitch_joint_dof,left_wrist_yaw_joint_dof,right_shoulder_pitch_joint_dof,right_shoulder_roll_joint_dof,right_shoulder_yaw_joint_dof,right_elbow_joint_dof,right_wrist_roll_joint_dof,right_wrist_pitch_joint_dof,right_wrist_yaw_joint_dof
0,0.15392152965068817,0.7397909164428711,65.19577026367188,0.7579202233028236,16.04515281674644,178.66547095614936,-47.707653,2.350001,19.426428,73.94931,-42.384956,7.4525785,-68.06086,9.840023,-8.650568,39.91718,19.410696,15.000033,-5.9349966,-5.0761137,29.793802,-38.808296,32.850986,-35.68763,-16.6,24.849451,-24.36928,42.694145,-56.31239,-18.317879,39.058937,-17.654192,-29.483763,-16.954802,-47.830383
1,0.5817495584487915,1.0212280750274658,65.31262969970703,0.415395829158605,16.316319016373967,178.7703727902649,-48.46987,2.8500018,18.922432,73.77959,-41.92192,7.207562,-69.80701,9.015504,-7.538975,44.059937,16.621212,15.000033,-5.9880257,-4.697632,29.793802,-38.84775,32.949333,-35.512356,-16.716436,24.785408,-24.362152,42.73123,-56.565437,-18.308298,38.97031,-17.658579,-29.565962,-17.029774,-47.766647
2,1.0076563358306885,1.3139917850494385,65.41890716552734,0.14435610986624564,16.565839619921235,178.9136205412829,-49.188133,3.2597215,18.458239,73.56931,-41.459347,6.9803305,-71.50363,8.225728,-6.229117,48.08055,13.827178,15.000033,-6.072836,-4.3589134,29.793802,-38.874157,33.042038,-35.33954,-16.848755,24.707876,-24.359417,42.769817,-56.7592,-18.390078,38.89451,-17.746918,-29.612564,-17.10003,-47.713066
3,1.4281928539276123,1.6107131242752075,65.52392578125,-0.09379263438915059,16.81779904520821,179.05455166498544,-49.90627,3.643834,18.015997,73.3589,-40.97504,6.756512,-73.097275,7.4391165,-4.94099,51.93841,11.215321,15.000033,-6.146828,-4.048241,29.793802,-38.911457,33.125656,-35.17823,-16.96987,24.636114,-24.350233,42.81126,-56.901676,-18.539736,38.8062,-17.892,-29.670269,-17.162586,-47.670033
4,1.8530884981155396,1.9252654314041138,65.62761688232422,-0.3480134946416037,17.091505916429824,179.15590520257123,-50.66973,4.068683,17.561476,73.19219,-40.446377,6.519456,-74.52446,6.606426,-3.8874366,55.587616,8.956786,15.000033,-6.165108,-3.7413085,29.793802,-38.997883,33.197975,-35.044693,-17.04558,24.576647,-24.324314,42.857124,-56.995914,-18.729738,38.673412,-18.060625,-29.789278,-17.21554,-47.636364
5,2.2762932777404785,2.244452476501465,65.72936248779297,-0.6581879245383329,17.401256031778363,179.20626078752906,-51.515934,4.5728903,17.05806,73.098335,-39.855354,6.263293,-75.77236,5.593681,-3.286229,59.05321,7.094825,15.000033,-6.107005,-3.4046357,29.793802,-39.15615,33.26401,-34.94641,-17.060303,24.538656,-24.27293,42.907337,-57.046,-18.946249,38.4823,-18.230852,-30.01736,-17.27299,-47.6354
6,2.6974611282348633,2.575343132019043,65.83316040039062,-1.0081099636760766,17.733917415260798,179.22422328709206,-52.42045,5.1226563,16.512589,73.05273,-39.219166,5.9945664,-76.888054,4.422194,-2.964308,62.38638,5.4916115,15.000033,-6.0019717,-3.0501955,29.793802,-39.354126,33.322563,-34.873634,-17.034864,24.527027,-24.202892,42.962696,-57.061085,-19.179277,38.24857,-18.406109,-30.322657,-17.333597,-47.657303
7,3.1134533882141113,2.912813186645508,65.93757629394531,-1.3659242641703517,18.067483178496538,179.21603573994125,-53.335728,5.6841564,15.952355,73.02271,-38.569935,5.7137747,-77.90208,3.2881737,-2.5717413,65.580826,4.065172,15.000033,-5.8641186,-2.7046561,29.793802,-39.595394,33.376225,-34.822308,-16.974234,24.491987,-24.1287,43.021664,-57.054573,-19.421429,37.98472,-18.579302,-30.633684,-17.371109,-47.64885
8,3.528181552886963,3.2616517543792725,66.02638244628906,-1.6948497485827896,18.38286955321741,179.18539177719697,-54.213917,6.225056,15.413185,72.973,-37.937763,5.421043,-78.85092,2.4304361,-1.7784157,68.62125,2.7567523,15.000033,-5.711562,-2.406507,29.793802,-39.85741,33.424904,-34.78378,-16.898682,24.406906,-24.0639,43.084557,-57.04121,-19.664244,37.70688,-18.748337,-30.876778,-17.360054,-47.55821
9,3.9395511150360107,3.615952968597412,66.10578155517578,-1.9887963803920508,18.68601005424088,179.11938607765012,-55.05575,6.74775,14.9088745,72.892586,-37.32253,5.1129155,-79.76685,1.9677576,-0.5082997,71.53863,1.6284655,15.000033,-5.538427,-2.1728823,29.793802,-40.145622,33.473846,-34.75366,-16.806175,24.243216,-24.013952,43.153133,-57.031567,-19.899712,37.409748,-18.911821,-31.039728,-17.283983,-47.353687
10,4.34204626083374,3.9911322593688965,66.17898559570312,-2.4184548405718975,18.990972608422915,178.95868947626366,-55.953403,7.4154496,14.286883,72.89589,-36.749702,4.7516923,-80.58797,1.7820181,0.8014165,74.26388,0.7408811,15.000033,-5.2277794,-1.8426269,29.793802,-40.497524,33.518955,-34.788673,-16.690434,24.009861,-23.97126,43.228683,-57.000877,-20.134974,37.045666,-19.05434,-31.172394,-17.161098,-47.062374
11,4.740284442901611,4.374950408935547,66.23915100097656,-2.8535852097366186,19.282327865599164,178.77168005936133,-56.84218,8.092191,13.646239,72.90501,-36.188274,4.371252,-81.30345,1.6544862,2.0564365,76.8245,-0.04484017,14.508328,-4.888942,-1.5227585,29.793802,-40.874012,33.554,-34.843716,-16.55958,23.768797,-23.928907,43.305534,-56.9621,-20.371002,36.668938,-19.185488,-31.265835,-17.015337,-46.733257
12,5.13484525680542,4.760015964508057,66.28874206542969,-3.268386442376384,19.546355929350018,178.58649811220909,-57.697254,8.7453375,13.004306,72.91272,-35.638977,3.985541,-81.872894,1.5400864,3.2759395,79.18259,-0.85541236,13.764739,-4.5510464,-1.2126663,29.793802,-41.27188,33.578094,-34.906193,-16.414963,23.547226,-23.882782,43.374474,-56.916153,-20.607086,36.305904,-19.29727,-31.32303,-16.870272,-46.411858
13,5.521788597106934,5.153231143951416,66.33499145507812,-3.6620882464576208,19.7778061292071,178.40687930493107,-58.511127,9.363963,12.364508,72.9158,-35.104496,3.5987728,-82.25804,1.670811,4.73357,81.33018,-1.7125013,13.498054,-4.2117896,-0.90352225,29.793802,-41.6944,33.588165,-34.981865,-16.245777,23.34043,-23.834017,43.436123,-56.856785,-20.842812,35.95639,-19.383112,-31.339287,-16.721037,-46.07529
14,5.9062628746032715,5.542263031005859,66.37174224853516,-4.039154942114028,19.98538459692809,178.22197236105123,-59.29397,9.95841,11.7284975,72.91123,-34.580757,3.20823,-82.468864,2.0660794,6.415593,83.308205,-2.5654652,13.6454315,-3.8639958,-0.6029951,29.793802,-42.136574,33.58156,-35.07002,-16.057703,23.144083,-23.784054,43.493534,-56.788624,-21.076609,35.611767,-19.44904,-31.315266,-16.557907,-45.71185
15,6.285213470458984,5.926456928253174,66.3982162475586,-4.395724214918318,20.177082497971575,178.03259907894724,-60.05563,10.535136,11.105377,72.90408,-34.062153,2.8207383,-82.528435,2.5636714,8.173065,85.13531,-3.4349475,13.985532,-3.5115669,-0.3154778,29.793802,-42.599834,33.562252,-35.160065,-15.862359,22.970177,-23.729694,43.542004,-56.72675,-21.309301,35.28038,-19.496529,-31.263075,-16.397865,-45.382095
16,6.6623687744140625,6.315446853637695,66.41593170166016,-4.725160729657902,20.362035036960794,177.83968560050255,-60.804924,11.097044,10.507039,72.89725,-33.54546,2.4438703,-82.479866,2.995614,9.872994,86.82393,-4.3331823,14.292808,-3.1649768,-0.0538148,29.793802,-43.06375,33.53505,-35.23687,-15.687274,22.847443,-23.666342,43.578392,-56.686646,-21.540192,34.972153,-19.531097,-31.190857,-16.257814,-45.147682
17,7.02752161026001,6.709903717041016,66.42385864257812,-5.026716790604163,20.5426714951852,177.63839339603024,-61.54438,11.650845,9.939604,72.8951,-33.030037,2.080966,-82.32306,3.3831365,11.543328,88.3714,-5.2765174,14.600493,-2.820349,0.17771521,29.793802,-43.528065,33.505928,-35.294407,-15.533248,22.798859,-23.582048,43.59799,-56.67273,-21.768616,34.69142,-19.551443,-31.084381,-16.143564,-45.051712
18,7.402891635894775,7.100301742553711,66.41805267333984,-5.302307481126783,20.71493548852187,177.43028383649258,-62.268604,12.196428,9.397463,72.89614,-32.518917,1.727567,-82.038765,3.7793758,13.234975,89.777214,-6.2584543,14.993963,-2.4769928,0.38304895,29.793802,-43.997116,33.47884,-35.337822,-15.394055,22.800936,-23.482409,43.603893,-56.678402,-21.993279,34.434544,-19.555922,-30.943413,-16.045837,-45.052982
19,7.765483856201172,7.511773586273193,66.41632080078125,-5.552070233757719,20.877504708408612,177.2248918099387,-62.974342,12.722107,8.871533,72.88957,-32.00785,1.3755265,-81.69137,3.9697351,14.742199,91.04875,-7.2338896,15.000033,-2.1480036,0.5629725,29.793802,-44.467693,33.45703,-35.36962,-15.278453,22.804731,-23.389843,43.603775,-56.701107,-22.211943,34.197704,-19.546173,-30.799305,-15.959346,-45.085358
20,8.122199058532715,7.9206438064575195,66.40677642822266,-5.767266761244404,21.02985293863614,177.03328931569712,-63.658207,13.206514,8.368155,72.86809,-31.495012,1.0268341,-81.2934,4.0032525,16.17986,92.199936,-8.173668,15.000033,-1.8496228,0.7144346,29.793802,-44.921795,33.439972,-35.390503,-15.20137,22.775549,-23.326298,43.606598,-56.73896,-22.419985,33.97871,-19.52443,-30.682909,-15.878197,-45.08345
21,8.485743522644043,8.311729431152344,66.38642883300781,-5.942902166179007,21.17031597000986,176.8626977272799,-64.31293,13.6412945,7.891112,72.82293,-30.978117,0.68212503,-80.850105,3.8657887,17.572104,93.23705,-9.09797,15.000033,-1.587572,0.8386847,29.793802,-45.373844,33.43075,-35.396942,-15.160006,22.686878,-23.306303,43.609398,-56.79564,-22.615328,33.777767,-19.477945,-30.606731,-15.809973,-45.03828
22,8.848669052124023,8.697181701660156,66.35250854492188,-6.08199081832467,21.30044240363281,176.7063041930085,-64.94127,14.038093,7.4414105,72.76164,-30.459661,0.3414346,-80.36588,3.5650237,18.90434,94.15177,-10.011911,14.921846,-1.3573493,0.93119264,29.793802,-45.8134,33.429886,-35.38674,-15.155005,22.573406,-23.314661,43.610115,-56.873672,-22.79563,33.598938,-19.410334,-30.55278,-15.754914,-44.982143
23,9.20053482055664,9.084210395812988,66.32498168945312,-6.194386108518717,21.422638761928123,176.5532794070132,-65.55257,14.418329,7.010106,72.699295,-29.943377,-0.00088858366,-79.89461,3.027436,20.025738,94.924805,-10.846149,14.472643,-1.1481595,0.9944775,29.793802,-46.240685,33.440205,-35.369946,-15.178597,22.441357,-23.331232,43.61351,-56.967964,-22.958752,33.437256,-19.332966,-30.509737,-15.696472,-44.908802
24,9.554648399353027,9.492422103881836,66.27447509765625,-6.283415579466538,21.539213077998028,176.39420643214166,-66.15492,14.794378,6.59986,72.652275,-29.435242,-0.34226975,-79.421585,2.3732858,21.025042,95.54645,-11.550718,14.020977,-0.9474138,1.0322576,29.793802,-46.663,33.46765,-35.35798,-15.220353,22.289894,-23.33589,43.62434,-57.074722,-23.104038,33.290386,-19.261703,-30.466713,-15.618195,-44.81154
25,9.917037963867188,9.889930725097656,66.20269775390625,-6.351581612660812,21.656470280023477,176.2280195239718,-66.759125,15.166968,6.207517,72.626015,-28.934559,-0.68185204,-78.97374,1.5305681,21.84935,96.016594,-12.102011,13.535528,-0.7573844,1.0457028,29.793802,-47.07741,33.51689,-35.34997,-15.293329,22.098856,-23.32535,43.647545,-57.199593,-23.2306,33.15616,-19.197004,-30.418564,-15.50704,-44.676014
26,10.25672435760498,10.288407325744629,66.1329116821289,-6.394314303232131,21.771515301666533,176.06034478453336,-67.35736,15.528986,5.8364778,72.6135,-28.440334,-1.0193263,-78.547874,0.50668603,22.52424,96.341934,-12.536411,12.985438,-0.5843258,1.0309283,29.793802,-47.483986,33.59122,-35.34056,-15.399602,21.86824,-23.30964,43.679424,-57.34311,-23.337502,33.036854,-19.13226,-30.371902,-15.374891,-44.50994
27,10.592164039611816,10.699919700622559,66.05867767333984,-6.407716458273259,21.87300666622859,175.89030580360745,-67.9334,15.885751,5.49216,72.61276,-27.956892,-1.3573213,-78.10461,-0.5409373,23.150352,96.523254,-12.884079,12.462366,-0.4244144,0.9806029,29.793802,-47.87688,33.691624,-35.331642,-15.518385,21.644747,-23.287714,43.7131,-57.491093,-23.422796,32.93575,-19.070652,-30.333479,-15.242237,-44.34068
28,10.92194938659668,11.110000610351562,65.9738540649414,-6.387922222428656,21.9507059761479,175.7165509723544,-68.46973,16.243214,5.1808176,72.61878,-27.487276,-1.6983227,-77.59765,-1.4577506,23.82348,96.55875,-13.169787,12.056001,-0.2759811,0.8855918,29.793802,-48.240078,33.814674,-35.324314,-15.632933,21.48674,-23.258392,43.742596,-57.62818,-23.482939,32.853107,-19.014826,-30.3089,-15.12981,-44.195915
29,11.255617141723633,11.522416114807129,65.87700653076172,-6.328512598448787,22.000924590734236,175.53938632853774,-68.95567,16.601791,4.9150176,72.6272,-27.032333,-2.0424135,-77.02699,-2.2741127,24.53224,96.44722,-13.395408,11.737967,-0.141287,0.73640686,29.793802,-48.57121,33.958454,-35.32271,-15.742173,21.41504,-23.213007,43.761208,-57.756016,-23.515905,32.79188,-18.963594,-30.311363,-15.041127,-44.079014
30,11.590084075927734,11.94253158569336,65.7703857421875,-6.233878889249627,22.02930790205499,175.35918372888108,-69.401535,16.96065,4.6882935,72.64107,-26.590073,-2.3885982,-76.407555,-3.0513587,25.23128,96.19023,-13.5465355,11.475393,-0.017945947,0.5432034,29.793802,-48.893238,34.126404,-35.326813,-15.844349,21.384394,-23.15569,43.77258,-57.88253,-23.522434,32.748962,-18.91112,-30.33488,-14.966231,-43.975548
31,11.923460960388184,12.37564468383789,65.65811920166016,-6.115270755862586,22.04084372256381,175.17432669900202,-69.81927,17.321442,4.481846,72.66084,-26.155918,-2.7355056,-75.708954,-3.6814325,25.967564,95.790184,-13.620592,11.352286,0.09528788,0.31774485,29.793802,-49.18699,34.314938,-35.327267,-15.947543,21.392305,-23.102047,43.78917,-58.00214,-23.499947,32.723442,-18.862686,-30.356293,-14.905308,-43.8878
32,12.256115913391113,12.814775466918945,65.53564453125,-5.98422754341734,22.039089739281415,174.9833728772156,-70.21903,17.685886,4.276651,72.68557,-25.724667,-3.081646,-74.89598,-4.0593677,26.785294,95.24933,-13.614241,11.447441,0.20507278,0.0776678,29.793802,-49.459587,34.520992,-35.318096,-16.042116,21.414873,-23.068937,43.821415,-58.111794,-23.446293,32.713375,-18.818499,-30.354288,-14.858519,-43.81645
33,12.576037406921387,13.259737014770508,65.4167709350586,-5.841761519317009,22.02036662343588,174.78566884348737,-70.60009,18.053257,4.0703473,72.71943,-25.295748,-3.42175,-73.90877,-4.105497,27.747213,94.54673,-13.518289,11.872265,0.30723536,-0.17922729,29.793802,-49.686695,34.73574,-35.295628,-16.13254,21.491894,-23.062906,43.87966,-58.207012,-23.35671,32.719563,-18.781427,-30.323917,-14.834349,-43.776154
34,12.909380912780762,13.698143005371094,65.28443908691406,-5.682689107411529,21.98274643065479,174.58283973472237,-70.95715,18.422834,3.871797,72.76269,-24.87192,-3.7578769,-72.76664,-3.9092457,28.817404,93.69284,-13.348812,12.544687,0.40838814,-0.45093754,29.793802,-49.918736,34.964226,-35.26978,-16.192575,21.584425,-23.076292,43.952145,-58.29378,-23.233774,32.74153,-18.740185,-30.280184,-14.830184,-43.759346
35,13.247818946838379,14.153888702392578,65.14138793945312,-5.505247292810234,21.937594992144913,174.3756550942558,-71.295616,18.794127,3.6848023,72.80291,-24.450464,-4.0984592,-71.56216,-3.6125305,29.897957,92.734055,-13.135247,13.25427,0.49734047,-0.7494658,29.793802,-50.101196,35.201286,-35.234245,-16.262802,21.703743,-23.09752,44.02844,-58.378723,-23.076025,32.78213,-18.700563,-30.22006,-14.82935,-43.741413
36,13.580986976623535,14.613175392150879,64.99160766601562,-5.311370024624043,21.893290607702813,174.16416621750906,-71.622734,19.168533,3.5077972,72.83403,-24.031021,-4.4526424,-70.39499,-3.3490896,30.881739,91.71618,-12.895382,13.79345,0.5844155,-1.0650209,29.793802,-50.281445,35.455193,-35.194656,-16.33126,21.771364,-23.11951,44.09104,-58.470165,-22.888653,32.83619,-18.65287,-30.14659,-14.815396,-43.693726
37,13.91164779663086,15.082462310791016,64.83869934082031,-5.122750409198571,21.846741908528287,173.9227625876718,-71.94284,19.574451,3.3278117,72.86812,-23.62484,-4.827306,-69.263725,-2.9804857,31.829407,90.678925,-12.459978,14.052952,0.6868305,-1.3926164,29.793802,-50.418995,35.723343,-35.152393,-16.419277,21.811249,-23.146484,44.1483,-58.56057,-22.67071,32.90516,-18.611198,-30.037329,-14.780519,-43.60867
38,14.241454124450684,15.560397148132324,64.68013763427734,-4.931378411093107,21.795251724977305,173.65992394349666,-72.253624,20.00146,3.148729,72.90648,-23.227102,-5.2155795,-68.12717,-2.4941547,32.77629,89.59286,-11.872456,14.160866,0.79380655,-1.7384894,29.793802,-50.499626,36.00013,-35.10344,-16.528133,21.857307,-23.179996,44.205753,-58.64883,-22.420197,32.991344,-18.577002,-29.89864,-14.734502,-43.501488
39,14.575284957885742,16.036880493164062,64.51861572265625,-4.694832230727905,21.750516212844207,173.42509466262996,-72.54658,20.395014,3.0001369,72.91788,-22.816626,-5.6060076,-67.03986,-2.1940866,33.563286,88.38856,-11.458526,14.263502,0.87076783,-2.1157465,29.793802,-50.589226,36.296104,-35.043312,-16.632051,21.857924,-23.208021,44.243298,-58.747234,-22.144285,33.090252,-18.52963,-29.77338,-14.686824,-43.380203
40,14.908811569213867,16.527629852294922,64.34984588623047,-4.366637708203849,21.72799255665658,173.2666703659634,-72.815895,20.70049,2.916976,72.87463,-22.368692,-5.9864836,-66.06888,-2.3717785,34.023968,86.99764,-11.54693,14.506922,0.85944873,-2.5627258,29.793802,-50.632336,36.61055,-34.94958,-16.771837,21.864508,-23.212858,44.24889,-58.867165,-21.845316,33.205585,-18.476395,-29.696486,-14.646225,-43.257473
41,15.254189491271973,17.007957458496094,64.16941833496094,-3.9310447568786873,21.742065003207202,173.20298576387242,-73.069824,20.896282,2.9132226,72.766754,-21.873482,-6.3482785,-65.24295,-3.1494777,34.049213,85.34419,-12.116394,14.962157,0.74673223,-3.0791843,29.793802,-50.666454,36.95105,-34.81977,-16.943209,21.832884,-23.18721,44.197872,-59.01649,-21.529202,33.333138,-18.415388,-29.69066,-14.613361,-43.123394
42,15.593616485595703,17.517793655395508,63.98670196533203,-3.427260527499048,21.779278789637125,173.20512826940717,-73.30792,21.021618,2.9514096,72.60417,-21.342453,-6.7074594,-64.58015,-4.4236593,33.541336,83.46764,-13.000402,15.000033,0.563634,-3.6433737,29.793802,-50.6894,37.32101,-34.663128,-17.145395,21.761303,-23.140617,44.105686,-59.18408,-21.199116,33.47122,-18.35227,-29.73099,-14.583887,-42.97657
43,15.926313400268555,18.05356216430664,63.80940628051758,-2.878482783309604,21.811854092816468,173.2524339839316,-73.51599,21.103476,3.0104268,72.409676,-20.789045,-7.0749817,-63.96178,-5.9139132,32.767723,81.4767,-14.344435,15.000033,0.33029294,-4.2466683,29.793802,-50.645073,37.71167,-34.482376,-17.38869,21.719759,-23.083277,44.015316,-59.353813,-20.852453,33.620502,-18.28719,-29.787294,-14.559145,-42.83899
44,16.264041900634766,18.596115112304688,63.62613296508789,-2.402121051288842,21.810931773306308,173.29663401740368,-73.73131,21.215622,2.9554658,72.22347,-20.230135,-7.4844737,-63.318924,-7.380679,31.776371,79.45546,-16.268854,15.000033,0.13403527,-4.7804728,29.793802,-50.57723,38.11522,-34.317425,-17.638222,21.704239,-23.029692,43.96708,-59.50012,-20.497541,33.754322,-18.204733,-29.841146,-14.541667,-42.72686
45,16.599369049072266,19.16486167907715,63.44449996948242,-2.059091141256174,21.773768922966113,173.30844497617778,-73.98802,21.398718,2.711782,72.07109,-19.675333,-7.963659,-62.57582,-8.819692,30.464664,77.27436,-19.166689,15.000033,0.022959976,-5.1935816,29.793802,-50.474148,38.513233,-34.20554,-17.90572,21.750704,-22.969315,44.003002,-59.605766,-20.145884,33.86124,-18.117046,-29.882526,-14.537885,-42.659355
46,16.940338134765625,19.74776268005371,63.2578239440918,-1.732214113907872,21.71316965314251,173.3300143905367,-74.227875,21.585133,2.419833,71.90932,-19.111286,-8.477665,-61.747208,-10.302362,28.906288,74.938576,-22.83891,15.000033,-0.06362921,-5.580213,29.793802,-50.379395,38.90709,-34.12164,-18.15982,21.807718,-22.902262,44.086033,-59.6855,-19.802856,33.95941,-18.026451,-29.92105,-14.543698,-42.622852
47,17.27764320373535,20.339345932006836,63.06565475463867,-1.4413268845263032,21.633313196138992,173.3639432246011,-74.462494,21.767895,2.0619237,71.72466,-18.526741,-9.007211,-60.901882,-11.6374235,27.237997,72.70187,-26.540617,15.000033,-0.13882032,-5.9267726,29.793802,-50.246887,39.2848,-34.027916,-18.41831,21.90768,-22.848858,44.1577,-59.746872,-19.469444,34.04431,-17.927425,-29.96766,-14.546344,-42.58407
48,17.611988067626953,20.94768524169922,62.87240982055664,-1.1887479235751521,21.535579913647318,173.419021017582,-74.693275,21.931889,1.6405472,71.50351,-17.91119,-9.529122,-60.148254,-12.697405,25.616339,70.835304,-29.547987,15.000033,-0.2030425,-6.2146173,29.793802,-50.143517,39.647175,-33.901337,-18.640062,21.98443,-22.835024,44.15099,-59.79652,-19.152582,34.10571,-17.79804,-30.039536,-14.533279,-42.506557
49,17.95816421508789,21.560632705688477,62.681846618652344,-0.9659035298729156,21.41221532494451,173.5226602277592,-74.92297,22.054693,1.1483203,71.25596,-17.26406,-10.052268,-59.45462,-13.597063,23.94472,69.270805,-31.817202,15.000033,-0.28830183,-6.4587164,29.793802,-49.987637,39.9802,-33.73803,-18.865198,22.07198,-22.877737,44.025593,-59.821346,-18.850359,34.14521,-17.648571,-30.160269,-14.509406,-42.388847
50,18.305618286132812,22.197038650512695,62.50215148925781,-0.7638143181384,21.26465477879719,173.66213453613946,-75.143875,22.147102,0.6003641,70.98439,-16.590595,-10.582187,-58.804867,-14.385148,22.202784,67.92144,-33.700706,15.000033,-0.374131,-6.660208,29.793802,-49.83672,40.286083,-33.55779,-19.06429,22.142462,-22.963316,43.81896,-59.821983,-18.565487,34.163605,-17.477282,-30.317886,-14.478426,-42.24608
51,18.687301635742188,22.79996109008789,62.33112335205078,-0.5612620147169924,21.11464109100085,173.7962826193895,-75.332664,22.230696,0.061020646,70.6536,-15.885788,-11.08498,-58.39005,-14.927296,20.667093,67.04131,-35.096542,15.000033,-0.44620425,-6.846028,29.793802,-49.71044,40.568623,-33.327263,-19.217356,22.251865,-23.059635,43.600708,-59.834824,-18.29979,34.176933,-17.286415,-30.45593,-14.4259815,-42.076096
52,19.03599739074707,23.408493041992188,62.17325973510742,-0.3328275467870428,20.982568721858826,173.88927510793502,-75.46593,22.322721,-0.40233305,70.22898,-15.143985,-11.525772,-58.41954,-15.124439,19.609364,66.88595,-35.90824,15.000033,-0.5059191,-7.0534716,29.793802,-49.57609,40.826073,-33.000572,-19.331135,22.497221,-23.133627,43.44261,-59.89419,-18.04871,34.206806,-17.08741,-30.516499,-14.337082,-41.878555
53,19.41206932067871,24.015321731567383,62.045310974121094,-0.0376603889259812,20.859787698389617,173.9290386802706,-75.50255,22.41846,-0.72283334,69.69579,-14.359613,-11.905099,-59.1376,-14.891548,19.260153,67.82351,-35.887497,15.000033,-0.5524117,-7.3136353,29.793802,-49.46058,41.064896,-32.558414,-19.366352,22.923231,-23.181952,43.362137,-60.010612,-17.80619,34.265686,-16.871386,-30.47875,-14.190681,-41.62778
54,19.82744598388672,24.602157592773438,61.93587875366211,0.303788850717907,20.737969078496743,173.94129116449244,-75.46537,22.505983,-0.94684774,69.07417,-13.535863,-12.23654,-60.385105,-14.337765,19.40471,69.61727,-35.173027,15.000033,-0.597254,-7.6061606,29.793802,-49.34914,41.290348,-32.01799,-19.345472,23.479118,-23.220268,43.32162,-60.166245,-17.567596,34.34514,-16.635674,-30.3765,-14.000184,-41.33352
55,20.263431549072266,25.161203384399414,61.839111328125,0.6216037339195596,20.636318374805516,173.94779502181817,-75.4254,22.591385,-1.1805184,68.38082,-12.682185,-12.505907,-61.762905,-13.656466,19.649212,71.61274,-34.24347,15.000033,-0.6437966,-7.8732944,29.793802,-49.23243,41.506435,-31.405266,-19.312563,24.04624,-23.24717,43.304382,-60.3578,-17.335588,34.42704,-16.380266,-30.23629,-13.80225,-41.046665
56,20.68012809753418,25.714862823486328,61.77422332763672,0.8506827366842712,20.574882904292988,173.97129075094512,-75.45139,22.681026,-1.526174,67.631256,-11.809856,-12.699248,-62.894775,-13.074917,19.612408,73.16453,-33.580624,15.000033,-0.69501275,-8.059483,29.793802,-49.10437,41.7154,-30.747595,-19.31054,24.504421,-23.261425,43.29382,-60.578297,-17.118732,34.493267,-16.106468,-30.082775,-13.633529,-40.817944
57,21.103538513183594,26.285537719726562,61.71803283691406,0.95990648893666,20.592275544197136,173.98482793419424,-75.59269,22.819492,-1.9963434,66.83178,-10.903457,-12.823869,-63.757946,-12.644685,19.197441,74.1272,-33.268345,15.000033,-0.7297205,-8.13117,29.793802,-49.001167,41.927914,-30.01995,-19.347502,24.837162,-23.262106,43.29235,-60.875717,-16.939112,34.54795,-15.831818,-29.890856,-13.489767,-40.64009
58,21.510494232177734,26.869308471679688,61.67374801635742,0.9881812480526787,20.667887829667855,173.98802219919384,-75.80477,22.988972,-2.542831,65.97325,-9.964688,-12.883971,-64.53451,-12.25252,18.612274,74.8399,-33.064655,15.000033,-0.7508339,-8.121145,29.793802,-48.90533,42.146675,-29.216755,-19.413294,25.099232,-23.249454,43.30774,-61.22689,-16.804285,34.59681,-15.565112,-29.653425,-13.354106,-40.4953
59,21.923742294311523,27.47598648071289,61.63768005371094,0.9794869229144072,20.731807343196,174.04512371377498,-76.00728,23.105701,-3.1730335,65.04716,-9.0317545,-12.860785,-65.16505,-11.903336,17.93704,75.38211,-32.968067,15.000033,-0.7954394,-8.074915,29.793802,-48.759773,42.35511,-28.40312,-19.505129,25.265083,-23.224825,43.329758,-61.52242,-16.692812,34.61795,-15.289664,-29.424644,-13.246844,-40.416195
60,22.3271541595459,28.127002716064453,61.61579895019531,0.9785031754610742,20.713110624493492,174.21997449918356,-76.11357,23.09134,-3.893085,64.04485,-8.142606,-12.735241,-65.588234,-11.601219,17.25201,75.83392,-32.977325,15.000033,-0.8988694,-8.039049,29.793802,-48.535397,42.523685,-27.65794,-19.594362,25.307997,-23.190256,43.347645,-61.662296,-16.565563,34.588654,-14.967375,-29.263882,-13.190319,-40.430447
61,22.738264083862305,28.799625396728516,61.59566116333008,0.9632026957575,20.549631232198173,174.5477315969127,-76.09095,22.941889,-4.77084,62.99617,-7.242276,-12.44516,-65.66782,-11.335266,16.533789,76.15178,-33.177063,15.000033,-1.0699348,-8.002645,29.793802,-48.230995,42.62038,-27.03552,-19.6314,25.196115,-23.1496,43.367886,-61.60247,-16.385975,34.501514,-14.540216,-29.213055,-13.232556,-40.623005
62,23.121803283691406,29.528453826904297,61.61534881591797,0.9198234177380402,20.29110796223356,174.98751558351796,-75.977806,22.708635,-5.7811065,61.902916,-6.332159,-12.015731,-65.475716,-11.106871,15.755644,76.31945,-33.53895,15.000033,-1.2864728,-7.9470315,29.793802,-47.907913,42.6372,-26.506239,-19.594595,24.956663,-23.102718,43.389526,-61.426216,-16.147995,34.36546,-13.997707,-29.243767,-13.350737,-40.945755
63,23.509119033813477,30.231914520263672,61.63166809082031,0.907718028139809,20.034718851090943,175.4894894006993,-75.78996,22.397327,-6.7888002,60.7054,-5.5320873,-11.556216,-65.25534,-10.928797,14.992794,76.44365,-33.89566,15.000033,-1.5483687,-7.9175935,29.793802,-47.58268,42.581123,-26.009161,-19.527193,24.68162,-23.043274,43.393753,-61.21793,-15.860146,34.193855,-13.398371,-29.306988,-13.462105,-41.22985
64,23.908287048339844,30.936643600463867,61.64423370361328,0.9864275243172469,19.877001602797918,176.00364994194922,-75.55195,22.009745,-7.665806,59.343372,-4.964791,-11.174029,-65.25284,-10.822745,14.315439,76.63383,-34.07534,15.000033,-1.8523679,-7.9544396,29.793802,-47.276207,42.47362,-25.478386,-19.4786,24.442701,-22.965214,43.362076,-61.05626,-15.540547,33.99852,-12.806456,-29.348888,-13.483684,-41.30759
65,24.303869247436523,31.63343048095703,61.685760498046875,1.2057064546761123,19.843904084508985,176.54640204713675,-75.247536,21.43213,-8.457027,57.750774,-4.6648912,-10.948016,-65.56077,-10.818298,13.771675,76.969185,-34.044014,15.000033,-2.2222183,-8.092476,29.793802,-46.980316,42.33152,-24.866995,-19.477156,24.235563,-22.864407,43.27487,-60.93932,-15.196036,33.769604,-12.253985,-29.387707,-13.375627,-41.09696
66,24.700517654418945,32.316341400146484,61.75413131713867,1.5227090548218027,19.88174099856006,177.133362929004,-74.87377,20.717493,-9.216758,55.971798,-4.563452,-10.78417,-66.04086,-10.9018,13.310014,77.37518,-33.87868,15.000033,-2.6587656,-8.307454,29.793802,-46.653683,42.156513,-24.204142,-19.52307,24.035109,-22.74305,43.14969,-60.827858,-14.821528,33.509655,-11.71894,-29.436913,-13.1877775,-40.702827
67,25.12872314453125,32.96536636352539,61.823970794677734,1.8579881870389885,19.966206873248655,177.71521115368955,-74.47539,20.096422,-9.83399,54.102016,-4.63057,-10.549624,-66.57503,-10.99993,12.872063,77.73276,-33.622334,15.000033,-3.1108599,-8.535367,29.793802,-46.320404,41.95943,-23.549257,-19.599726,23.8324,-22.606855,43.020733,-60.740475,-14.427066,33.24618,-11.174953,-29.439665,-12.9716015,-40.236713
68,25.550981521606445,33.611915588378906,61.93429946899414,2.1329314717608687,20.07763095348824,178.2432818613779,-74.10087,19.778479,-10.185499,52.240284,-4.8371754,-10.130549,-67.052414,-11.044456,12.39543,77.92404,-33.31322,15.000033,-3.5299559,-8.717457,29.793802,-45.987328,41.751915,-22.958378,-19.700155,23.631887,-22.460611,42.924923,-60.68702,-14.031612,33.006725,-10.614883,-29.33417,-12.776124,-39.811718
69,25.95098304748535,34.239295959472656,62.08689880371094,2.3346353273135683,20.246330281162987,178.70241925122863,-73.748535,19.800964,-10.209377,50.317696,-5.2273436,-9.570996,-67.48298,-11.023789,11.869922,77.89401,-32.927387,15.000033,-3.8964827,-8.834001,29.793802,-45.678955,41.546257,-22.440048,-19.83875,23.410383,-22.281805,42.896667,-60.678967,-13.65566,32.792076,-10.051864,-29.061176,-12.608254,-39.437645
70,26.322599411010742,34.86911392211914,62.277286529541016,2.503422689123917,20.473608848934294,179.1194043049507,-73.39271,20.02943,-9.972628,48.302322,-5.8005686,-8.933506,-67.91888,-10.975527,11.327312,77.71384,-32.453434,15.000033,-4.236073,-8.919674,29.793802,-45.37068,41.34048,-21.967638,-20.027979,23.177174,-22.074291,42.913445,-60.68988,-13.30438,32.58732,-9.510905,-28.661549,-12.440126,-39.064495
71,26.732200622558594,35.500282287597656,62.440765380859375,2.6412585541432594,20.699305518900534,179.50978052353656,-73.04795,20.401505,-9.538743,46.35801,-6.467861,-8.144225,-68.313934,-10.910632,10.763374,77.449814,-31.944475,15.000033,-4.560279,-8.987,29.793802,-45.034397,41.1275,-21.549868,-20.241573,22.954947,-21.884846,42.920887,-60.683453,-12.974095,32.397465,-8.993352,-28.223085,-12.270215,-38.71498
72,27.156845092773438,36.1135139465332,62.59322738647461,2.748397513028398,20.862658946233363,179.89028265440197,-72.73456,20.861193,-8.976176,44.658016,-7.1479945,-7.120767,-68.62013,-10.840969,10.17159,77.16844,-31.45595,15.000033,-4.87655,-9.041639,29.793802,-44.668568,40.903374,-21.19939,-20.430798,22.745546,-21.761423,42.860554,-60.62438,-12.658995,32.22166,-8.485779,-27.838362,-12.098179,-38.409042
73,27.518957138061523,36.79777908325195,62.80368423461914,2.806823367495548,20.95339064220932,-179.71825676304974,-72.47338,21.426214,-8.299124,43.174572,-7.8844686,-5.574227,-68.80733,-10.775871,9.510635,76.860596,-30.999447,15.000033,-5.201282,-9.07434,29.793802,-44.24613,40.65708,-20.937801,-20.604517,22.559223,-21.735287,42.708954,-60.500957,-12.349804,32.056503,-7.990671,-27.51414,-11.932547,-38.19697
74,27.953153610229492,37.36256790161133,62.95254135131836,2.759808346322353,21.013174644633864,-179.35734622775857,-72.28855,22.13716,-7.5439143,41.869408,-8.736391,-3.6707308,-68.894684,-10.665265,8.72292,76.47253,-30.532034,14.943356,-5.478808,-9.026996,29.793802,-43.808712,40.383434,-20.776228,-20.763546,22.385471,-21.775429,42.49807,-60.333546,-12.052237,31.886503,-7.4983563,-27.216549,-11.771956,-38.04945
75,28.3664608001709,37.941158294677734,63.11211395263672,2.6324832876583324,21.049002991700497,-179.0664909848407,-72.160805,22.94526,-6.719719,40.87775,-9.612432,-1.9748709,-68.92922,-10.471305,7.7903,76.03761,-30.03916,14.3035,-5.686153,-8.930084,29.793802,-43.36605,40.07807,-20.677004,-20.896656,22.267725,-21.830446,42.259933,-60.14225,-11.777295,31.718004,-7.0094914,-26.958113,-11.602229,-37.8716
76,28.753366470336914,38.53777313232422,63.27980041503906,2.5509498119242955,21.050259821954697,-178.8389415779818,-72.010605,23.742699,-5.71781,40.327396,-10.400605,-1.0070727,-68.976585,-10.247924,6.978779,75.63058,-29.540266,13.702578,-5.8734875,-8.898149,29.793802,-42.87884,39.737972,-20.565624,-21.010035,22.271793,-21.849646,42.025814,-59.94613,-11.525912,31.585285,-6.5404983,-26.745226,-11.408,-37.572113
77,29.147418975830078,39.1133918762207,63.431697845458984,2.5227728629428317,20.998255082888384,-178.70019808773884,-71.74276,24.665806,-4.303532,40.08266,-10.950791,-1.104215,-69.02457,-9.976163,6.317255,75.25269,-29.035402,13.149921,-6.026581,-8.953157,29.793802,-42.330036,39.36761,-20.443167,-21.102367,22.422617,-21.809746,41.804153,-59.740234,-11.293573,31.496866,-6.0846143,-26.599543,-11.170717,-37.134453
78,29.556074142456055,39.67395782470703,63.56397247314453,2.5259367954249656,20.897855525721468,-178.62833126688292,-71.39182,25.71007,-2.5464852,40.135784,-11.327988,-1.8941123,-69.05654,-9.667543,5.7572803,74.8866,-28.526094,12.632083,-6.158833,-9.072372,29.793802,-41.71323,38.966698,-20.324783,-21.184757,22.699707,-21.741438,41.57757,-59.51987,-11.074859,31.446615,-5.6424093,-26.50862,-10.903165,-36.606464
79,29.958877563476562,40.20722198486328,63.67789077758789,2.5556918113982547,20.784209799362237,-178.5859197564733,-71.135605,26.646849,-0.9008039,40.798115,-11.735785,-2.8375306,-69.10617,-9.353193,5.2661314,74.5358,-28.01328,12.138145,-6.290211,-9.215023,29.793802,-41.07146,38.535336,-20.18243,-21.258324,23.040205,-21.679176,41.333313,-59.310825,-10.877633,31.424097,-5.211145,-26.437962,-10.63674,-35.990833
80,30.364953994750977,40.723846435546875,63.77896499633789,2.6068419775407135,20.691732283504734,-178.53815777483024,-71.161194,27.259916,0.16610181,42.35206,-12.405525,-3.40249,-69.20795,-9.062916,4.8128314,74.20684,-27.499744,11.657658,-6.4443913,-9.34849,29.793802,-40.42385,38.06311,-19.989735,-21.336786,23.409325,-21.655628,41.062946,-59.130672,-10.713752,31.42109,-4.802027,-26.347246,-10.401278,-35.292675
81,30.775827407836914,41.2206916809082,63.866580963134766,2.6872776496241153,20.622506831145465,-178.48677223105443,-71.593185,27.435177,0.40183005,45.03601,-13.443741,-3.3981895,-69.374214,-8.800335,4.406162,73.91353,-26.988585,11.185497,-6.6182175,-9.468064,29.793802,-39.779686,37.54338,-19.7391,-21.407612,23.790735,-21.70118,40.74982,-58.98484,-10.597062,31.439308,-4.4147077,-26.226362,-10.196247,-34.47042
82,31.187057495117188,41.69699478149414,63.94320297241211,2.7929066709113255,20.554527393046797,-178.4564714677019,-72.27634,27.290005,0.11922085,48.575336,-14.688585,-3.1414468,-69.57846,-8.542467,4.0575686,73.64948,-26.478466,10.727704,-6.7900386,-9.587629,29.793802,-39.123997,36.96849,-19.45698,-21.467678,24.214758,-21.792675,40.405865,-58.846497,-10.530692,31.481737,-4.058334,-26.092005,-10.006624,-33.537544
83,31.599557876586914,42.162330627441406,63.99449157714844,2.900722690635506,20.486875713702712,-178.44516350470806,-72.98585,26.960733,-0.30696937,52.47984,-15.99051,-2.868965,-69.79611,-8.279799,3.7382524,73.38989,-25.966755,10.290471,-6.948073,-9.690134,29.793802,-38.47895,36.32767,-19.174417,-21.522324,24.689621,-21.88367,40.06063,-58.698322,-10.512038,31.542635,-3.7367198,-25.946953,-9.840796,-32.57959
84,32.029624938964844,42.61834716796875,64.01439666748047,2.9857975037716957,20.4200984066111,-178.44447607247307,-73.53834,26.62599,-0.543762,56.32978,-17.235285,-2.7892563,-70.00298,-8.00762,3.4133067,73.11016,-25.451342,9.87904,-7.0649276,-9.730837,29.793802,-37.899742,35.63103,-18.915232,-21.572432,25.161348,-21.932306,39.733307,-58.523457,-10.546293,31.607813,-3.4348717,-25.80357,-9.707412,-31.679703
85,32.45564651489258,43.04785919189453,64.02702331542969,3.04351946367463,20.354850673696696,-178.45810945892603,-73.93788,26.320374,-0.59542835,60.168777,-18.430101,-3.0184886,-70.19969,-7.721145,3.0802214,72.81091,-24.934832,9.508418,-7.14518,-9.714333,29.793802,-37.352932,34.867886,-18.664425,-21.622175,25.663202,-21.902128,39.431625,-58.320263,-10.633311,31.681465,-3.167807,-25.647463,-9.625058,-30.84051
86,32.87485885620117,43.482154846191406,64.04753112792969,3.0879166205154323,20.291654137276733,-178.4854622139207,-74.26542,25.9593,-0.60447204,64.18661,-19.637386,-3.41955,-70.39549,-7.426672,2.7548428,72.50047,-24.416895,9.1713295,-7.1965575,-9.651837,29.793802,-36.839436,34.03304,-18.419859,-21.666502,26.199198,-21.825457,39.140675,-58.096077,-10.774693,31.764442,-2.9312348,-25.478514,-9.583116,-30.023079
87,33.292964935302734,43.88650894165039,64.08086395263672,3.124845963253536,20.236894851741244,-178.50908671484936,-74.47974,25.582136,-0.47936502,68.21711,-20.845108,-3.7920537,-70.58756,-7.137845,2.4330337,72.166534,-23.891357,8.840756,-7.2218404,-9.541399,29.793802,-36.42117,33.146618,-18.222488,-21.69699,26.730558,-21.75532,38.858837,-57.85191,-10.973535,31.845984,-2.7169623,-25.315613,-9.547741,-29.249601
88,33.71055603027344,44.295875549316406,64.1178207397461,3.1606857927747734,20.197330043278832,-178.5119636616338,-74.543785,25.228361,-0.13916449,72.09171,-22.034157,-3.9341543,-70.77385,-6.868785,2.110306,71.79723,-23.35202,8.489192,-7.2252126,-9.386916,29.793802,-36.150703,32.245224,-18.107487,-21.718098,27.213827,-21.742088,38.589043,-57.589767,-11.232071,31.911148,-2.5161266,-25.173779,-9.485856,-28.54336
89,34.13377380371094,44.698184967041016,64.15567016601562,3.1967363874103243,20.17524341630312,-178.49295250262725,-74.45456,24.961424,0.46665493,75.8379,-23.246153,-3.7371109,-70.95171,-6.618972,1.7869725,71.38669,-22.799328,8.099804,-7.2133555,-9.200563,29.793802,-36.025795,31.35694,-18.058403,-21.751137,27.642433,-21.804276,38.316296,-57.30943,-11.552338,31.96209,-2.3428998,-25.054245,-9.389631,-27.906742
90,34.53196716308594,45.0673713684082,64.2207260131836,3.2310392532993384,20.169054889454156,-178.45924862916186,-74.22983,24.753004,1.262713,79.532166,-24.481436,-3.3139298,-71.12495,-6.383158,1.4650358,70.94351,-22.234705,7.6903067,-7.1908097,-8.990394,29.793802,-36.002747,30.48999,-18.050024,-21.80833,28.028776,-21.90916,38.050827,-57.009045,-11.930431,32.00487,-2.208185,-24.943392,-9.277605,-27.32924
91,34.95320510864258,45.4576530456543,64.2505874633789,3.2658098235309025,20.179026774346376,-178.40585343862594,-73.86968,24.493351,2.1447256,83.07708,-25.652811,-2.8032997,-71.29915,-6.1674476,1.1428592,70.47508,-21.661919,7.285285,-7.1615796,-8.755974,29.793802,-36.068275,29.652912,-18.099958,-21.883966,28.358212,-22.02924,37.83299,-56.675903,-12.355591,32.029606,-2.111407,-24.842058,-9.156852,-26.813822
92,35.37192916870117,45.83738327026367,64.28439331054688,3.3032239363683966,20.205752574749294,-178.32767447797247,-73.38501,24.06096,3.0211384,86.37241,-26.667095,-2.3525732,-71.47982,-5.9781904,0.8190068,69.98875,-21.083096,6.909445,-7.1296053,-8.498307,29.793802,-36.209385,28.85397,-18.227938,-21.971369,28.617422,-22.136675,37.703545,-56.306957,-12.813609,32.02525,-2.041316,-24.749737,-9.035148,-26.362612
93,35.78863525390625,46.195709228515625,64.32427978515625,3.347962106038322,20.257504926606327,-178.2305003678688,-72.78809,23.469103,3.9250495,89.43372,-27.54689,-1.9067168,-71.67612,-5.8064594,0.50181323,69.48072,-20.486269,6.5655403,-7.090911,-8.22529,29.793802,-36.434784,28.106026,-18.439766,-22.084555,28.800594,-22.230667,37.70531,-55.9134,-13.295296,31.990227,-1.9863435,-24.681307,-8.914142,-26.007645
94,36.19919204711914,46.57390594482422,64.35828399658203,3.399644461929764,20.33122975778861,-178.11382854199132,-72.085815,22.751778,4.886794,92.30849,-28.324986,-1.4235348,-71.88313,-5.6528,0.19024473,68.95113,-19.875774,6.2422085,-7.0536776,-7.9439955,29.793802,-36.735706,27.416271,-18.7143,-22.231243,28.913498,-22.321384,37.806915,-55.50121,-13.795494,31.931086,-1.949563,-24.633547,-8.791708,-25.73618
95,36.60515594482422,46.92747116088867,64.40409851074219,3.4533201738584696,20.410624773139016,-177.96314745599037,-71.30024,21.810852,5.823603,94.94807,-28.919153,-1.0768362,-72.087975,-5.5361795,-0.12943533,68.41638,-19.2796,5.942989,-7.0402684,-7.653037,29.793802,-37.073627,26.779068,-19.03144,-22.385607,28.961552,-22.397194,37.936825,-55.05586,-14.304324,31.846233,-1.9430655,-24.58,-8.669426,-25.48428
96,37.016197204589844,47.281986236572266,64.43780517578125,3.5044525849855623,20.47944883256692,-177.76337130369194,-70.45573,20.54567,6.6579514,97.29193,-29.241991,-1.0461807,-72.27175,-5.475804,-0.4722042,67.88331,-18.721083,5.6703057,-7.0769434,-7.353148,29.793802,-37.40231,26.174881,-19.376307,-22.52411,28.968283,-22.446533,38.024315,-54.564312,-14.80744,31.735346,-1.9768169,-24.494759,-8.548678,-25.18826
97,37.42180633544922,47.63908386230469,64.47631072998047,3.552504434077801,20.524814755970723,-177.4897324554397,-69.54913,18.890644,7.382009,99.31973,-29.300697,-1.418566,-72.41136,-5.4986315,-0.8510024,67.34492,-18.208225,5.44549,-7.178503,-7.0176473,29.793802,-37.75965,25.608988,-19.747107,-22.612904,28.855574,-22.470652,38.050507,-54.031876,-15.303227,31.601645,-2.0192182,-24.371828,-8.427824,-24.83489
98,37.838504791259766,47.92021560668945,64.51567840576172,3.6037111712620145,20.560497644376092,-177.1570372287352,-68.60236,16.894186,8.039502,101.064095,-29.134335,-2.0991795,-72.524254,-5.585671,-1.2507789,66.79933,-17.72622,5.261,-7.3530807,-6.68263,29.793802,-38.10364,25.060194,-20.160948,-22.693146,28.715706,-22.467993,38.062748,-53.47323,-15.779826,31.454044,-2.083033,-24.216974,-8.307576,-24.458338
99,38.26466751098633,48.298194885253906,64.52043151855469,3.649533470993267,20.595758799410127,-176.81168743106622,-67.669426,14.631955,8.613003,102.55213,-28.713015,-3.0079076,-72.6365,-5.6847196,-1.6570432,66.26364,-17.270306,5.075558,-7.5244365,-6.3309417,29.793802,-38.477097,24.543139,-20.582174,-22.744263,28.527937,-22.454529,38.039703,-52.881584,-16.240204,31.26313,-2.160758,-24.067242,-8.189241,-24.060354
100,38.679176330566406,48.59733200073242,64.54217529296875,3.686844359259008,20.645256783951485,-176.49936012501064,-66.79857,12.177588,9.093272,103.80539,-28.002958,-4.068333,-72.780556,-5.7453265,-2.050665,65.75395,-16.83407,4.848195,-7.6473584,-5.9846,29.793802,-38.8511,24.06169,-20.989977,-22.787264,28.363565,-22.434652,37.9782,-52.25222,-16.680685,31.01194,-2.2757592,-23.941051,-8.075511,-23.645512
101,39.09488296508789,48.96854019165039,64.53035736083984,3.719395083268865,20.72416787746262,-176.24057717893592,-66.019775,9.442123,9.450634,104.826164,-26.870369,-5.352817,-72.97319,-5.748411,-2.4237394,65.26599,-16.42311,4.5842333,-7.7113266,-5.6652036,29.793802,-39.21404,23.607635,-21.387688,-22.82952,28.293653,-22.398651,37.86715,-51.58702,-17.090519,30.693403,-2.4436727,-23.83525,-7.966583,-23.195436
102,39.500999450683594,49.302734375,64.52429962158203,3.7479761722614064,20.81763046135277,-176.01003984568723,-65.31033,6.3929734,9.699828,105.597626,-25.401508,-6.9154987,-73.191414,-5.720312,-2.787383,64.79586,-16.040071,4.300763,-7.7352033,-5.3532367,29.793802,-39.587585,23.18957,-21.778164,-22.85508,28.245186,-22.349363,37.708466,-50.88331,-17.469109,30.31481,-2.6452992,-23.748592,-7.861526,-22.713913
103,39.910831451416016,49.62849426269531,64.50608825683594,3.767584196076765,20.90235959766144,-175.7847033081088,-64.635284,3.2021449,9.900175,106.11693,-23.878122,-8.6294775,-73.41676,-5.6822076,-3.1475704,64.359924,-15.67465,3.9729915,-7.7571673,-5.0490794,29.793802,-39.934284,22.799648,-22.164862,-22.87463,28.194862,-22.298697,37.539543,-50.144363,-17.812777,29.900654,-2.8769338,-23.681002,-7.762938,-22.241009
104,40.317378997802734,49.9393424987793,64.48170471191406,3.769000179890236,20.95491374025729,-175.54104565777658,-63.949295,0.07775632,10.099936,106.38526,-22.560299,-10.330593,-73.62864,-5.6560225,-3.5152547,63.971794,-15.31537,3.5747197,-7.8049173,-4.7380633,29.793802,-40.235886,22.428251,-22.549257,-22.88881,28.09806,-22.261883,37.392216,-49.380997,-18.121002,29.472425,-3.1178455,-23.635504,-7.673288,-21.815817
105,40.724056243896484,50.25952911376953,64.44403839111328,3.754189263069321,20.977321330837697,-175.25743643892784,-63.257126,-3.0793746,10.263296,106.37346,-21.386374,-12.137919,-73.83224,-5.6629395,-3.8927426,63.643063,-14.974604,3.0797524,-7.8959203,-4.4084334,29.793802,-40.50399,22.071283,-22.940481,-22.890295,27.932821,-22.247406,37.27914,-48.58854,-18.396076,29.029125,-3.3736508,-23.624094,-7.5900884,-21.438353
106,41.13174819946289,50.57634735107422,64.38838958740234,3.720321255878392,20.980106041223287,-174.95360236574902,-62.568512,-6.309499,10.359329,106.09614,-20.273338,-14.069599,-74.03395,-5.684697,-4.281154,63.362022,-14.653704,2.5059426,-8.005264,-4.0616446,29.793802,-40.748394,21.724785,-23.341604,-22.875586,27.730253,-22.246162,37.181515,-47.774464,-18.637455,28.562023,-3.6379576,-23.638054,-7.5136967,-21.091402
107,41.53955078125,50.88808059692383,64.32952117919922,3.656287338873943,20.95328543967706,-174.66254560234657,-61.798286,-9.067396,10.684482,105.62529,-19.371,-15.000033,-74.22111,-5.695159,-4.678387,63.11324,-14.325489,1.9011338,-8.099513,-3.699787,29.793802,-40.954384,21.38181,-23.739183,-22.846737,27.515867,-22.248476,37.081154,-46.938137,-18.842293,28.07586,-3.9004633,-23.663279,-7.4496007,-20.787336
108,41.93581008911133,51.19526290893555,64.26370239257812,3.547150455891063,20.88622577511748,-174.4166180224347,-60.906536,-11.137789,11.151081,105.03363,-18.805922,-15.000033,-74.373,-5.659196,-5.099149,62.872803,-13.961056,1.2984083,-8.162898,-3.3374457,29.793802,-41.10231,21.037725,-24.108358,-22.806551,27.321024,-22.244751,36.957146,-46.03115,-19.013666,27.58599,-4.2100577,-23.695873,-7.4016657,-20.53527
109,42.33693313598633,51.510005950927734,64.18479919433594,3.367763259451347,20.780879049205783,-174.2275712153814,-59.89084,-12.70648,11.486581,104.32376,-18.710968,-15.000033,-74.47626,-5.553942,-5.5726795,62.617977,-13.55096,0.68675214,-8.166176,-2.9462185,29.793802,-41.19533,20.683872,-24.45747,-22.756628,27.139194,-22.233225,36.792294,-45.131454,-19.14673,27.08884,-4.4742994,-23.709063,-7.3759713,-20.358692
110,42.7409782409668,51.83152389526367,64.09320831298828,3.1381833735333355,20.642954457726805,-174.07132224385907,-58.76185,-13.904251,11.702459,103.46341,-18.955742,-15.000033,-74.54499,-5.407273,-6.083217,62.36369,-13.110195,0.04920085,-8.139253,-2.5378973,29.793802,-41.243492,20.31641,-24.790592,-22.688375,26.969942,-22.219086,36.599415,-44.215134,-19.241785,26.587002,-4.7290177,-23.721195,-7.367845,-20.243742
111,43.144962310791016,52.16191864013672,63.988800048828125,2.903849095924347,20.48219032499388,-173.92640554238744,-57.591545,-14.817473,11.7282295,102.481155,-19.301153,-15.000033,-74.60046,-5.2470765,-6.5982637,62.11578,-12.634642,-0.6009381,-8.103834,-2.1497722,29.793802,-41.259567,19.93847,-25.106527,-22.609072,26.820295,-22.203459,36.40719,-43.28968,-19.297087,26.072666,-4.981354,-23.746178,-7.3690248,-20.156382
112,43.532997131347656,52.50564956665039,63.8843879699707,2.7090798508481657,20.307811274215634,-173.77248951714085,-56.444958,-15.469817,11.566588,101.41086,-19.514103,-14.810311,-74.66515,-5.1016693,-7.0837965,61.883224,-12.120415,-1.24856,-8.083477,-1.8206378,29.793802,-41.250927,19.5572,-25.40296,-22.52659,26.697918,-22.187078,36.24584,-42.363144,-19.307938,25.539528,-5.2392898,-23.797482,-7.371482,-20.062824
113,43.92763137817383,52.82756042480469,63.76460266113281,2.590674070277063,20.119983276120305,-173.6015003492497,-55.215443,-15.13788,12.021368,100.25434,-19.315645,-11.835502,-74.77683,-5.0003633,-7.4765596,61.719486,-11.579984,-1.8810624,-8.087425,-1.5741354,29.793802,-41.202354,19.172438,-25.666105,-22.45651,26.63284,-22.171803,36.12513,-41.45234,-19.260303,24.987257,-5.482821,-23.894934,-7.3824863,-19.959795
114,44.32701873779297,53.156654357910156,63.63347625732422,2.5143374939677576,19.910034439651092,-173.42859468374195,-53.93356,-14.2512665,12.663913,99.01913,-19.06475,-7.763372,-74.90288,-4.9137335,-7.8215027,61.59358,-11.007376,-2.5191674,-8.119279,-1.403971,29.793802,-41.111298,18.795002,-25.883686,-22.382277,26.607384,-22.157713,36.02374,-40.535297,-19.164303,24.429586,-5.7430606,-24.011488,-7.4041467,-19.858461
115,44.73358917236328,53.47932052612305,63.49543762207031,2.4497561944744075,19.679109655153756,-173.25962686797598,-52.601974,-13.244642,13.26984,97.73681,-19.359324,-3.4090881,-75.020836,-4.838185,-8.159831,61.470963,-10.395618,-3.132666,-8.156445,-1.2700356,29.793802,-40.992863,18.427174,-26.100847,-22.305897,26.577517,-22.13814,35.94312,-39.6311,-19.018417,23.870493,-5.994743,-24.133032,-7.4195156,-19.762264
116,45.146602630615234,53.8134651184082,63.34568786621094,2.369741879520299,19.426118552090827,-173.096516987384,-51.254475,-12.604207,13.54719,96.413536,-20.643362,0.37081152,-75.10991,-4.7736893,-8.529378,61.322815,-9.740229,-3.689717,-8.174295,-1.129493,29.793802,-40.875656,18.071793,-26.358932,-22.218916,26.483885,-22.10778,35.88009,-38.73588,-18.815403,23.307213,-6.2268195,-24.26188,-7.411163,-19.672413
117,45.5670166015625,54.127830505371094,63.18668746948242,2.3042330964073496,19.140726947514327,-172.93764323129122,-49.856705,-12.536491,13.327092,94.93708,-23.20298,3.5278423,-75.181595,-4.731102,-8.897369,61.17962,-9.046273,-4.166265,-8.190334,-1.0229825,29.793802,-40.74012,17.733492,-26.645086,-22.134926,26.296368,-22.059046,35.83915,-37.852055,-18.563889,22.74149,-6.454139,-24.393158,-7.3684163,-19.551414
118,45.99114227294922,54.4571533203125,63.01875686645508,2.253758144173767,18.828799272362712,-172.77940528915656,-48.440414,-12.838169,12.729707,93.33384,-26.685604,6.412162,-75.247604,-4.710294,-9.258878,61.049812,-8.313658,-4.583957,-8.208672,-0.9499464,29.793802,-40.577118,17.409977,-26.950125,-22.058683,26.052338,-21.995865,35.822655,-36.977947,-18.262,22.173565,-6.6764684,-24.5371,-7.3020363,-19.41237
119,46.41378402709961,54.78260040283203,62.8443489074707,2.1617146743990916,18.503633111482763,-172.62002094162017,-47.11061,-13.315703,11.875197,91.77557,-30.44306,8.795641,-75.27084,-4.696007,-9.67783,60.865833,-7.533333,-4.9766965,-8.225483,-0.85638684,29.793802,-40.433304,17.11127,-27.283447,-21.946314,25.792244,-21.932028,35.814175,-36.12552,-17.917696,21.614595,-6.883161,-24.645351,-7.2305794,-19.319511
120,46.83390808105469,55.106903076171875,62.66096115112305,1.958995067789898,18.18333845837034,-172.45969168004345,-45.97716,-13.69507,10.928927,90.449265,-33.834667,10.473966,-75.21792,-4.667329,-10.233491,60.55921,-6.694795,-5.3817945,-8.217194,-0.66091645,29.793802,-40.34748,16.842571,-27.672268,-21.770023,25.558638,-21.879614,35.80364,-35.272404,-17.520731,21.06998,-7.078836,-24.712408,-7.1696353,-19.343466
121,47.256839752197266,55.44111251831055,62.478519439697266,1.5809818895090757,17.85617274333307,-172.31984895301665,-45.010475,-13.820032,9.90016,89.34144,-36.86528,11.268109,-75.056244,-4.598559,-11.001382,60.112137,-5.777584,-5.8041644,-8.169316,-0.32049423,29.793802,-40.302197,16.607758,-28.122952,-21.52914,25.332153,-21.833776,35.793255,-34.436977,-17.08189,20.526608,-7.247258,-24.715498,-7.126081,-19.462378
122,47.691341400146484,55.76545715332031,62.31039810180664,1.073230370042304,17.520599085862628,-172.1941154594356,-44.172752,-13.749906,8.760464,88.36898,-39.779697,11.371054,-74.80898,-4.4994783,-11.930449,59.55687,-4.7922735,-6.2287188,-8.084954,0.12893623,29.793802,-40.280834,16.402306,-28.631851,-21.249653,25.100374,-21.789875,35.79107,-33.60508,-16.598577,19.983427,-7.401872,-24.683546,-7.0891767,-19.655172
123,48.13529586791992,56.090450286865234,62.17342758178711,0.5338974694816203,17.200364488034666,-172.04241349085387,-43.55519,-13.547185,7.6467705,87.62095,-42.317356,11.135132,-74.520515,-4.402159,-12.90467,58.908405,-3.7796733,-6.6580667,-8.005713,0.6036064,29.793802,-40.336544,16.238089,-29.174284,-20.901035,24.911026,-21.761879,35.78246,-32.790676,-16.070873,19.473846,-7.5504184,-24.581932,-7.05669,-19.977375
124,48.599002838134766,56.43416213989258,62.06251525878906,0.06280658897001173,16.922090447513558,-171.8251154863014,-43.243504,-13.313353,6.6706104,87.19156,-44.2334,10.91767,-74.2392,-4.3424997,-13.805804,58.18209,-2.7796388,-7.093336,-7.981751,1.0150864,29.793802,-40.50387,16.132425,-29.725042,-20.470196,24.822166,-21.762236,35.757893,-32.005768,-15.49045,19.044456,-7.702524,-24.385946,-7.0263543,-20.487381
125,49.067630767822266,56.78398132324219,61.98041534423828,-0.3554899148500063,16.703282023471086,-171.50561803077122,-43.32641,-13.045477,5.834737,87.2189,-45.401077,10.790149,-73.975975,-4.3517613,-14.67054,57.37914,-1.8241451,-7.5849876,-8.056533,1.3741593,29.793802,-40.797924,16.107094,-30.274883,-19.960276,24.86329,-21.795914,35.703377,-31.279127,-14.857358,18.705881,-7.8599386,-24.039804,-6.982378,-21.267136
126,49.54882049560547,57.15628433227539,61.898155212402344,-0.7602265129877656,16.529322763805034,-171.11467246407258,-43.737137,-12.70669,5.0881577,87.62254,-45.98054,10.591537,-73.70697,-4.4034605,-15.540469,56.491817,-0.88411075,-8.114894,-8.203179,1.7092689,29.793802,-41.17981,16.170525,-30.833996,-19.402563,24.994715,-21.854218,35.633007,-30.601982,-14.168108,18.44656,-8.015537,-23.574858,-6.9367905,-22.26487
127,50.047969818115234,57.525611877441406,61.85477828979492,-1.0861530207412118,16.37327167408707,-170.7150865457767,-44.318264,-12.377139,4.4486723,88.17041,-46.152004,10.3315,-73.4339,-4.4516044,-16.301516,55.531593,0.09146592,-8.582298,-8.380488,1.9413742,29.793802,-41.607113,16.320793,-31.395164,-18.809757,25.175928,-21.92938,35.576263,-29.960777,-13.416052,18.28022,-8.141104,-23.064482,-6.9311156,-23.333567
128,50.53862762451172,57.88397979736328,61.862117767333984,-1.2675091205112372,16.204508146499666,-170.36895097029898,-44.90618,-12.132004,3.9370987,88.63151,-46.094196,10.012772,-73.15713,-4.4518614,-16.835047,54.507378,1.1555741,-8.884666,-8.551885,1.9857208,29.793802,-42.04454,16.555197,-31.944742,-18.183567,25.363697,-22.014345,35.558353,-29.357712,-12.602565,18.2214,-8.196276,-22.566916,-7.0036616,-24.322285
129,51.02637481689453,58.25771713256836,61.899288177490234,-1.2491365111901267,16.004060251658622,-170.07324101087397,-45.524303,-12.008922,3.591943,89.05081,-45.668213,9.600908,-72.854324,-4.454819,-17.149675,53.428535,2.2781882,-9.075264,-8.71999,1.7798575,29.793802,-42.50601,16.879305,-32.4857,-17.506779,25.556238,-22.119778,35.58527,-28.777908,-11.716026,18.290236,-8.158735,-22.041286,-7.184988,-25.283154
130,51.52661895751953,58.64543151855469,61.94682312011719,-1.076516806197458,15.787932927660439,-169.8020306253094,-46.22853,-11.967769,3.3892512,89.515434,-44.845097,9.107814,-72.53187,-4.4663887,-17.28753,52.28723,3.447601,-9.179374,-8.918091,1.3660309,29.793802,-42.997116,17.297367,-33.014046,-16.784452,25.784157,-22.244108,35.64591,-28.239693,-10.751845,18.487104,-8.042209,-21.475277,-7.4506464,-26.262236
131,52.02593231201172,59.024776458740234,62.02143859863281,-0.8378906870953183,15.577790052531848,-169.58306039041526,-46.905563,-11.957344,3.2592835,89.86062,-43.9653,8.598372,-72.23396,-4.376433,-17.17389,51.064293,4.745092,-9.050782,-9.127848,0.8429673,29.793802,-43.48093,17.804749,-33.514652,-16.060871,26.027409,-22.363716,35.73591,-27.756311,-9.728957,18.773834,-7.8721147,-20.98751,-7.7451406,-27.104597
132,52.52692794799805,59.39920425415039,62.11387634277344,-0.621684472897355,15.397661028243462,-169.4428065275479,-47.445244,-11.922686,3.134226,89.92309,-43.37027,8.138947,-72.00187,-4.073143,-16.726227,49.73659,6.2496686,-8.5382805,-9.326749,0.3150396,29.793802,-43.922718,18.383759,-33.979534,-15.367853,26.27547,-22.455034,35.850494,-27.336752,-8.68632,19.108023,-7.684461,-20.677462,-8.007172,-27.657822
133,53.03227233886719,59.752254486083984,62.20983123779297,-0.4297559734444175,15.258802702182418,-169.4164646643197,-47.814552,-11.854176,3.005471,89.62314,-43.144047,7.7388496,-71.8377,-3.5475707,-15.962299,48.284737,8.000337,-7.6750646,-9.4633875,-0.19799227,29.793802,-44.338913,19.017593,-34.441082,-14.699126,26.520878,-22.492685,36.02708,-26.947363,-7.648517,19.471125,-7.515012,-20.583794,-8.201009,-27.879063
134,53.535438537597656,60.09719467163086,62.305946350097656,-0.22315771889045827,15.147751872654805,-169.4787590166393,-48.073334,-11.771039,2.9017591,89.062,-43.10885,7.368283,-71.70257,-2.8497887,-14.8857975,46.71073,9.933277,-6.497609,-9.552924,-0.7314447,29.793802,-44.758854,19.693027,-34.90219,-14.018102,26.774467,-22.49676,36.255234,-26.570726,-6.6242986,19.878038,-7.357521,-20.63337,-8.359002,-27.854347
135,54.033111572265625,60.433189392089844,62.398033142089844,-0.03338697548186114,15.051473657574608,-169.5632423515397,-48.252823,-11.66121,2.8087165,88.35231,-43.218445,7.0380116,-71.56307,-1.951245,-13.380352,45.01613,11.961784,-4.8455343,-9.64663,-1.2347775,29.793802,-45.153236,20.39455,-35.324604,-13.348095,27.039602,-22.512907,36.451935,-26.205929,-5.6260085,20.313707,-7.205511,-20.782015,-8.5187645,-27.630108
136,54.53291702270508,60.7529411315918,62.48057556152344,0.10883878376508721,14.9562765585257,-169.6028419326613,-48.382885,-11.514668,2.7132561,87.605125,-43.42196,6.7558436,-71.369705,-0.8208776,-11.31575,43.195457,13.980752,-2.5479727,-9.801626,-1.6618079,29.793802,-45.514168,21.103159,-35.667507,-12.680515,27.313267,-22.588644,36.53569,-25.859177,-4.6702647,20.768427,-7.04963,-20.978458,-8.718735,-27.251595
137,55.024314880371094,61.06865310668945,62.556243896484375,0.1761939676177707,14.850799504894834,-169.59656866985932,-48.40174,-11.302172,2.615304,86.764854,-43.832684,6.548673,-71.04861,0.73235714,-8.323882,41.05618,16.084593,0.67393917,-10.001678,-1.9581465,29.793802,-45.781796,21.801064,-35.937065,-12.045114,27.620468,-22.759676,36.47119,-25.492863,-3.7663386,21.222216,-6.9031196,-21.215155,-8.986222,-26.653225
138,55.49789810180664,61.38275146484375,62.62577819824219,0.19163505214239793,14.738481680100957,-169.56312080515428,-48.310505,-11.04399,2.5134082,85.8025,-44.43427,6.408286,-70.5229,2.5898206,-4.5062757,38.657757,18.12063,4.6911435,-10.2317505,-2.1541853,29.793802,-46.025127,22.475262,-36.15435,-11.374659,27.938738,-22.997486,36.306065,-25.106953,-2.9205368,21.679607,-6.77,-21.502975,-9.297947,-25.83785
139,55.96611404418945,61.68406677246094,62.690555572509766,0.19469934245044337,14.62892569791469,-169.47330584711025,-48.234634,-10.798814,2.3955662,84.86741,-44.981247,6.282629,-69.82491,4.3246794,-0.5220292,36.420155,19.674158,9.002723,-10.506963,-2.3016853,29.793802,-46.245922,23.121773,-36.324596,-10.711897,28.272472,-23.247953,36.075676,-24.737736,-2.1429565,22.139885,-6.6420374,-21.850552,-9.613167,-24.957188
140,56.42410659790039,61.98818588256836,62.764442443847656,0.22238210282449883,14.543030570875617,-169.3136709281204,-48.311436,-10.614436,2.2577164,84.109085,-45.23199,6.1157064,-69.128426,5.581029,2.8767574,34.774567,20.489231,13.074861,-10.832613,-2.456569,29.793802,-46.469257,23.74576,-36.447304,-10.091625,28.617056,-23.456282,35.81564,-24.435246,-1.4511024,22.604607,-6.5177526,-22.257793,-9.889535,-24.162027
141,56.88065719604492,62.309329986572266,62.84162521362305,0.27014089790217827,14.492203254703487,-169.05221391802212,-48.588043,-10.493861,2.0640635,83.58467,-45.113914,5.8653593,-68.51112,6.0645247,4.638056,33.625748,20.820667,15.000033,-11.238139,-2.6126878,29.793802,-46.68639,24.349174,-36.505466,-9.537189,29.01192,-23.614765,35.5003,-24.203728,-0.85869306,23.063246,-6.4107013,-22.79174,-10.126166,-23.44234
142,57.32954025268555,62.67192459106445,62.92805099487305,-0.010598858787432023,14.469644012278335,-168.79990797076184,-49.029766,-10.113421,1.5450782,83.42954,-44.906574,5.4677224,-67.85324,6.0671935,4.544848,32.490116,21.044666,15.000033,-11.468153,-2.3872797,29.793802,-46.9241,24.83385,-36.63928,-8.994278,29.420198,-23.760424,35.128094,-23.872803,-0.45030624,23.4118,-6.417531,-23.406754,-10.339946,-22.74566
143,57.79216384887695,63.035064697265625,63.02396011352539,-0.334633321016632,14.483961088320216,-168.58705557057968,-49.585014,-9.690751,1.0029699,83.395134,-44.5543,5.034103,-67.44358,5.938049,4.0545015,32.020676,20.750502,15.000033,-11.642909,-2.1472201,29.793802,-47.169624,25.335976,-36.76154,-8.498938,29.787098,-23.874964,34.760666,-23.634457,-0.050484974,23.763264,-6.3972025,-24.024235,-10.525814,-22.127836
144,58.2661018371582,63.35750198364258,63.12668991088867,-0.5400956821333194,14.546613585332263,-168.46055412380016,-50.20984,-9.327158,0.6185828,83.319626,-44.06154,4.6298003,-67.516235,5.703669,3.6087294,32.7316,19.57947,15.000033,-11.74094,-2.0191474,29.793802,-47.457283,25.807947,-36.851086,-8.053663,30.065798,-23.95765,34.45064,-23.466345,0.23587203,24.172674,-6.438802,-24.49426,-10.655027,-21.676416
145,58.74929428100586,63.664310455322266,63.22712707519531,-0.5570985704651316,14.660356595105888,-168.39672534242635,-50.92504,-9.093807,0.439485,83.20451,-43.339924,4.261796,-68.191124,5.2765064,3.3199327,34.93226,17.166422,15.000033,-11.805099,-2.078389,29.793802,-47.771557,26.279621,-36.887386,-7.6969185,30.249708,-23.995302,34.205822,-23.39889,0.41049698,24.68089,-6.5371904,-24.792603,-10.708732,-21.45809
146,59.236083984375,63.94681167602539,63.31896209716797,-0.40817886477044873,14.797294584395189,-168.33618142754315,-51.706566,-8.99995,0.41303498,83.08367,-42.395588,3.9116457,-69.277336,4.579111,3.049645,38.254684,13.79924,15.000033,-11.898483,-2.2968159,29.793802,-48.0777,26.768547,-36.855663,-7.4267325,30.357922,-23.993874,33.997753,-23.413057,0.4842939,25.28277,-6.674829,-24.982649,-10.697996,-21.418335
147,59.719520568847656,64.22388458251953,63.41082000732422,-0.17517123661319633,14.9144550826869,-168.29587511767957,-52.444195,-8.959547,0.48210102,82.91497,-41.42787,3.5840862,-70.473114,3.6604002,2.7129567,42.085636,10.100978,15.000033,-12.011018,-2.6071613,29.793802,-48.314575,27.277225,-36.768574,-7.227436,30.393517,-23.971231,33.835186,-23.467417,0.47956538,25.948471,-6.8262267,-25.063457,-10.648472,-21.44684
148,60.19666290283203,64.49030303955078,63.49654769897461,0.03265577426616595,14.989952167312618,-168.3210948288367,-53.055172,-8.853241,0.579188,82.66782,-40.634766,3.2836087,-71.52966,2.6193535,2.2161183,45.88393,6.6539454,15.000033,-12.090456,-2.913755,29.793802,-48.469635,27.796804,-36.652317,-7.056251,30.347605,-23.945398,33.727085,-23.52211,0.42169368,26.632212,-6.9782133,-25.044823,-10.58641,-21.43205
149,60.664939880371094,64.75196838378906,63.57057571411133,0.1917872805426381,15.016929476792463,-168.44816667197287,-53.50465,-8.637279,0.71812993,82.31407,-40.090584,3.0288286,-72.423454,1.3918585,1.429412,49.66904,3.4027033,15.000033,-12.102238,-3.2047517,29.793802,-48.53276,28.316587,-36.514782,-6.90395,30.21345,-23.928991,33.723225,-23.583858,0.32478613,27.337555,-7.111838,-24.877745,-10.515922,-21.35868
150,61.1346435546875,65.01331329345703,63.628623962402344,0.3183378670094811,15.004412107666012,-168.65108277836487,-53.842365,-8.34951,0.88831425,81.903824,-39.6967,2.8054304,-73.22282,-0.092236154,0.43607095,53.63588,0.06970707,15.000033,-12.060469,-3.4920282,29.793802,-48.525795,28.831799,-36.358982,-6.770239,29.993668,-23.910954,33.803944,-23.66914,0.1939508,28.067158,-7.225112,-24.580671,-10.425801,-21.278675
151,61.59260940551758,65.28925323486328,63.677467346191406,0.19517654219471292,14.993559806520475,-168.97589610709724,-54.18263,-7.8150015,0.8544669,81.62325,-39.456295,2.51324,-73.83075,-1.7764709,-1.1901077,57.45694,-3.0307732,13.581413,-11.840101,-3.5681093,29.793802,-48.498554,29.323776,-36.255966,-6.649025,29.697996,-23.872515,33.875175,-23.719667,0.03666995,28.728188,-7.360369,-24.28274,-10.318523,-21.181791
152,62.03755569458008,65.58934020996094,63.7230110168457,0.04663586594548818,14.987129499924489,-169.30056427422926,-54.53911,-7.2687473,0.76520497,81.380165,-39.198128,2.1915476,-74.32189,-3.4603772,-2.6922297,61.149445,-5.7392483,11.248454,-11.618872,-3.6283748,29.793802,-48.463573,29.793686,-36.13884,-6.525546,29.384975,-23.790499,33.836136,-23.787794,-0.14042929,29.335514,-7.5070467,-24.090414,-10.197054,-21.053339
153,62.47884750366211,65.88093566894531,63.760929107666016,-0.1316773109834357,14.984822845985937,-169.62676113335166,-54.91375,-6.7189803,0.62695915,81.1765,-38.921738,1.8496672,-74.74681,-5.01904,-3.8048847,64.78762,-7.8791103,8.8654375,-11.396743,-3.657426,29.793802,-48.41805,30.243994,-36.00036,-6.3941946,29.048647,-23.64786,33.67754,-23.876053,-0.33276588,29.884525,-7.6565137,-24.04567,-10.050732,-20.871098
154,62.917972564697266,66.16875457763672,63.80166244506836,-0.3383616338430856,14.980312373689536,-169.9751981866416,-55.283585,-6.1491385,0.46250603,80.98806,-38.661137,1.4994348,-75.111595,-6.545586,-4.690565,68.427505,-9.632822,6.351567,-11.15678,-3.6638157,29.793802,-48.34341,30.674955,-35.840195,-6.2704515,28.684689,-23.458109,33.446945,-23.983992,-0.53547597,30.394651,-7.8025737,-24.0937,-9.882329,-20.64807
155,63.3535041809082,66.47418212890625,63.84471130371094,-0.5412573385822468,14.985933873318698,-170.3301832620987,-55.667404,-5.583181,0.2856101,80.80353,-38.374447,1.1400523,-75.40991,-7.9253983,-5.248994,71.90286,-11.226373,3.992435,-10.913565,-3.6883676,29.793802,-48.284912,31.098328,-35.66597,-6.142395,28.293373,-23.246778,33.12932,-24.123007,-0.7455497,30.867863,-7.957286,-24.19189,-9.7150345,-20.42274
156,63.788414001464844,66.78800964355469,63.8864860534668,-0.711853025889517,15.016577104009707,-170.67874874079044,-56.087246,-5.041259,0.1068232,80.61417,-38.02046,0.76942575,-75.64379,-9.003985,-5.3848786,75.048904,-12.855015,2.1191702,-10.676856,-3.7663164,29.793802,-48.283047,31.53202,-35.48551,-6.0132747,27.87224,-23.038378,32.709885,-24.292711,-0.9548133,31.3092,-8.139537,-24.310017,-9.571076,-20.235931
157,64.22122955322266,67.10517120361328,63.928932189941406,-0.8448814042734214,15.08696478041173,-171.0070968974106,-56.57529,-4.538848,-0.087025814,80.4333,-37.562344,0.37444314,-75.84318,-9.686423,-5.065593,77.85825,-14.526133,0.821463,-10.462695,-3.909875,29.793802,-48.31569,31.991806,-35.282402,-5.918399,27.41922,-22.811687,32.114334,-24.518215,-1.1597586,31.711632,-8.347685,-24.475111,-9.449896,-20.083294
158,64.65316009521484,67.42866516113281,63.97897720336914,-0.958029038213127,15.189745627133814,-171.33032143178337,-57.115902,-4.058384,-0.29840016,80.2618,-37.029686,-0.04128837,-76.02115,-10.027721,-4.4032364,80.42749,-16.103996,-0.058048546,-10.262012,-4.100711,29.793802,-48.363724,32.485638,-35.05209,-5.859661,26.93066,-22.558228,31.376587,-24.789705,-1.3542236,32.081177,-8.571899,-24.701414,-9.341891,-19.948994
159,65.08016204833984,67.76604461669922,64.02639770507812,-1.0569782474684715,15.303957572855543,-171.67960949932223,-57.65324,-3.5686352,-0.49951956,80.07011,-36.4883,-0.4529603,-76.14947,-10.087818,-3.5208173,82.75836,-17.557549,-0.539324,-10.057463,-4.343643,29.793802,-48.442856,33.021458,-34.812454,-5.8046374,26.42251,-22.321861,30.641521,-25.094809,-1.53653,32.44067,-8.800361,-24.899473,-9.2571125,-19.850418
160,65.51130676269531,68.10994720458984,64.07463836669922,-1.1471905961077902,15.410283950393893,-172.08580091088626,-58.134586,-3.036999,-0.6602073,79.82977,-36.000446,-0.8353776,-76.198265,-9.936399,-2.534377,84.84807,-18.863512,-0.6464693,-9.832437,-4.6405263,29.793802,-48.51456,33.596443,-34.57022,-5.758203,25.946434,-22.147745,30.053684,-25.400818,-1.6963781,32.821796,-9.029865,-25.000998,-9.204198,-19.809597
161,65.9361343383789,68.44598388671875,64.12913513183594,-1.2168320520292237,15.500992777702672,-172.56737783056974,-58.53159,-2.4548485,-0.7545583,79.51212,-35.59027,-1.1785982,-76.15099,-9.479232,-1.3913937,86.67948,-20.00624,-0.25141996,-9.573408,-5.018244,29.793802,-48.61606,34.22026,-34.337276,-5.6849422,25.463558,-22.07559,29.630865,-25.72265,-1.8313255,33.228054,-9.246969,-24.962603,-9.202477,-19.851393
162,66.35733032226562,68.7864990234375,64.17314910888672,-1.2681969365125845,15.58861145371516,-173.1049560381868,-58.879166,-1.838731,-0.8031766,79.1395,-35.220413,-1.4966474,-76.00685,-8.716773,-0.09832131,88.27483,-21.024189,0.61448354,-9.298133,-5.470461,29.793802,-48.71769,34.895687,-34.09632,-5.6173472,24.979845,-22.072474,29.30157,-26.068518,-1.9371111,33.652077,-9.45672,-24.835724,-9.241556,-19.958868
163,66.77967071533203,69.12863159179688,64.22652435302734,-1.3295904103260066,15.680451767732029,-173.67266031689272,-59.215736,-1.189094,-0.8435477,78.76011,-34.860558,-1.8004773,-75.769295,-7.872832,1.1615583,89.68243,-21.96855,1.6812204,-9.01743,-5.939707,29.793802,-48.865597,35.6245,-33.861122,-5.5393715,24.487692,-22.083796,29.070253,-26.419641,-2.0132134,34.073044,-9.665739,-24.668211,-9.287149,-20.084267
164,67.19401550292969,69.45965576171875,64.28138732910156,-1.4259379655065607,15.783935812218845,-174.24436496428606,-59.580223,-0.51155096,-0.91269773,78.419716,-34.47867,-2.1006114,-75.46238,-7.1721377,2.2306495,90.9442,-22.868105,2.68072,-8.760203,-6.3832383,29.793802,-48.99193,36.3854,-33.61029,-5.493008,24.07249,-22.05148,28.946047,-26.754066,-2.0539527,34.488224,-9.887115,-24.507154,-9.304556,-20.182232
165,67.61712646484375,69.79031372070312,64.32331848144531,-1.575949273037315,15.903881410963166,-174.82552775436577,-59.99071,0.21030298,-1.0181545,78.138504,-34.071068,-2.3898118,-75.090996,-6.610308,3.0929327,92.03636,-23.689407,3.626832,-8.50478,-6.7726235,29.793802,-49.186203,37.176357,-33.383987,-5.4247193,23.733715,-21.969662,28.984459,-27.071722,-2.0614011,34.88183,-10.123995,-24.342821,-9.276582,-20.25465
166,68.02901458740234,70.12586975097656,64.37692260742188,-1.762180091151223,16.034396157382496,-175.4262671084311,-60.42676,0.97058,-1.1402414,77.88885,-33.650284,-2.6653173,-74.654144,-6.0953536,3.8346179,92.949646,-24.431808,4.6309476,-8.245629,-7.1381145,29.793802,-49.42732,37.993416,-33.1773,-5.3385043,23.458124,-21.867697,29.164062,-27.37811,-2.0357,35.259953,-10.370669,-24.158451,-9.224548,-20.321377
167,68.44208526611328,70.4590835571289,64.4289779663086,-1.9605104961933095,16.164606154465794,-176.0283291206403,-60.867725,1.7353507,-1.2802087,77.64616,-33.214897,-2.94414,-74.17497,-5.720324,4.4559727,93.735695,-25.142208,5.565529,-7.9928904,-7.4915442,29.793802,-49.70942,38.832584,-32.976646,-5.2393055,23.14494,-21.749166,29.370792,-27.667154,-1.9783562,35.61383,-10.610455,-23.997164,-9.170795,-20.359703
168,68.86202239990234,70.79414367675781,64.46782684326172,-2.1424610227142926,16.285267927926373,-176.61316872540866,-61.29285,2.4700487,-1.434517,77.385506,-32.762253,-3.2431686,-73.68154,-5.5784607,4.9665327,94.448875,-25.860622,6.306899,-7.788358,-7.869649,29.793802,-49.883564,39.662277,-32.707508,-5.2016163,22.809895,-21.611677,29.495218,-27.938822,-1.8838948,35.964275,-10.835989,-23.894516,-9.137817,-20.347874
169,69.2837142944336,71.13291931152344,64.50921630859375,-2.3197601288865726,16.391546142061554,-177.17764547377894,-61.69908,3.174097,-1.6222031,77.10685,-32.292625,-3.5754514,-73.16832,-5.7061005,5.336105,95.07759,-26.591976,6.84748,-7.586492,-8.228503,29.793802,-50.155884,40.49873,-32.450954,-5.1036983,22.290146,-21.468674,29.501867,-28.185709,-1.7602062,36.257812,-11.026377,-23.879154,-9.126242,-20.256113
170,69.7005844116211,71.48973083496094,64.5603256225586,-2.495923883344455,16.49057174772343,-177.7309623431468,-62.09813,3.860657,-1.832914,76.820435,-31.804682,-3.9282217,-72.63789,-6.0514774,5.588121,95.60148,-27.30329,7.2474756,-7.419977,-8.596743,29.793802,-50.353416,41.315166,-32.143333,-5.038003,21.774857,-21.309658,29.458399,-28.413414,-1.6016562,36.53721,-11.207623,-23.915787,-9.126414,-20.105495
171,70.12187194824219,71.81884765625,64.59645080566406,-2.6529894009211437,16.583457201056962,-178.27312964150556,-62.486275,4.5265493,-2.044334,76.52543,-31.305023,-4.2844687,-72.10859,-6.572212,5.7850313,96.05295,-27.975056,7.481355,-7.271649,-8.971098,29.793802,-50.54186,42.110474,-31.81241,-4.9812865,21.208488,-21.125338,29.380262,-28.624132,-1.4127779,36.798084,-11.368906,-23.989025,-9.143081,-19.942923
172,70.53683471679688,72.1696548461914,64.631103515625,-2.7716888593246694,16.673007967687973,-178.80413718927252,-62.860336,5.167262,-2.2331417,76.223495,-30.796812,-4.6268725,-71.598236,-7.223904,5.9923954,96.46336,-28.593172,7.5273914,-7.1314316,-9.356179,29.793802,-50.749306,42.889694,-31.474586,-4.9364448,20.557772,-20.904799,29.286894,-28.815353,-1.2011678,37.043785,-11.508662,-24.081322,-9.180854,-19.816069
173,70.94844818115234,72.52440643310547,64.65906524658203,-2.8378053532979215,16.763095589079068,-179.32553872021347,-63.218594,5.777292,-2.3830345,75.91227,-30.276278,-4.9448175,-71.125435,-8.069621,6.20166,96.849174,-29.154074,7.324721,-7.0159492,-9.775383,29.793802,-50.9129,43.643658,-31.096928,-4.938198,19.831245,-20.635668,29.173887,-28.984732,-0.9692754,37.28952,-11.640206,-24.196075,-9.253568,-19.74018
174,71.36336517333984,72.88783264160156,64.67871856689453,-2.8650601031548617,16.85150873562331,-179.83627666202523,-63.561817,6.3607645,-2.510388,75.59354,-29.743673,-5.2498617,-70.68107,-9.1047535,6.3929996,97.18933,-29.66937,6.908672,-6.916733,-10.21159,29.793802,-51.06925,44.37313,-30.694345,-4.9578676,19.021446,-20.32728,29.035122,-29.131048,-0.720862,37.521896,-11.760863,-24.339577,-9.354147,-19.689238
175,71.7645263671875,73.24413299560547,64.6976089477539,-2.872141270030802,16.934275378140814,179.6676712401816,-63.891224,6.9286075,-2.6330638,75.268715,-29.204453,-5.556275,-70.24614,-10.193014,6.6133337,97.45834,-30.138832,6.391838,-6.8280406,-10.644343,29.793802,-51.21941,45.077114,-30.276003,-4.998049,18.20509,-19.995064,28.893478,-29.255163,-0.4581761,37.741077,-11.865522,-24.488869,-9.455852,-19.651562
176,72.1727523803711,73.61698913574219,64.70759582519531,-2.877340574076777,17.00716092505475,179.18957788839094,-64.208336,7.4922023,-2.7692082,74.93917,-28.663782,-5.8788533,-69.80079,-11.196723,6.9070263,97.63225,-30.558176,5.8853283,-6.747281,-11.056387,29.793802,-51.348087,45.751137,-29.843212,-5.067233,17.470415,-19.654503,28.770565,-29.358057,-0.18164834,37.949104,-11.952565,-24.619137,-9.532152,-19.615477
177,72.5826644897461,74.01097869873047,64.71195220947266,-2.8878077906025035,17.069619263443794,178.72433786758754,-64.51413,8.062349,-2.9242437,74.608475,-28.125332,-6.221497,-69.35599,-12.146338,7.252149,97.72572,-30.932829,5.3220005,-6.66502,-11.438844,29.793802,-51.45933,46.38923,-29.397474,-5.1676583,16.803534,-19.283432,28.643024,-29.43223,0.108613,38.146526,-12.025406,-24.719881,-9.567217,-19.577675
178,72.9903564453125,74.400390625,64.71442413330078,-2.893512865633176,17.123726589135394,178.27209131624514,-64.806984,8.631167,-3.0893946,74.27337,-27.584644,-6.5768847,-68.92,-13.093911,7.6349773,97.74412,-31.265312,4.674602,-6.581773,-11.799258,29.793802,-51.56736,46.98936,-28.943779,-5.2873087,16.169643,-18.882666,28.50918,-29.478302,0.41112903,38.328552,-12.086381,-24.806223,-9.577917,-19.544462
179,73.3896484375,74.8030776977539,64.71479034423828,-2.8860063746794244,17.16964265526137,177.84412067690926,-65.087715,9.181361,-3.2619648,73.93294,-27.040007,-6.9433126,-68.46617,-13.924997,8.108928,97.654945,-31.540514,4.1131196,-6.512813,-12.1476755,29.793802,-51.662243,47.552456,-28.48403,-5.4194865,15.629921,-18.503786,28.419977,-29.512959,0.7231559,38.496666,-12.116759,-24.890036,-9.587298,-19.517122
180,73.80157470703125,75.20368194580078,64.70035552978516,-2.8571328422464592,17.207566499626864,177.45166908486146,-65.35847,9.69583,-3.4400413,73.58667,-26.489191,-7.3200235,-67.9646,-14.53108,8.726432,97.428505,-31.738474,3.8052125,-6.477223,-12.497377,29.793802,-51.720314,48.07976,-28.011683,-5.5647726,15.253377,-18.199303,28.4251,-29.55406,1.0416656,38.65609,-12.105299,-24.982529,-9.61833,-19.497456
181,74.2071533203125,75.62041473388672,64.67521667480469,-2.801018739079813,17.240279973055177,177.10101733699167,-65.61806,10.163923,-3.6201866,73.2281,-25.9301,-7.7073293,-67.411316,-14.901886,9.515336,97.05935,-31.887327,3.7997057,-6.481089,-12.846666,29.793802,-51.747036,48.573814,-27.52289,-5.723726,15.066726,-17.988348,28.530968,-29.595158,1.3650028,38.80566,-12.049562,-25.086123,-9.685768,-19.484552
182,74.6079330444336,76.05535125732422,64.65009307861328,-2.722918770521592,17.26734822954739,176.7849880691631,-65.86534,10.596984,-3.8042953,72.85923,-25.364548,-8.106024,-66.81244,-15.094984,10.441629,96.565125,-31.984442,4.001545,-6.5166755,-13.192744,29.793802,-51.740154,49.033463,-27.014956,-5.903429,15.035445,-17.841515,28.71061,-29.629478,1.6931753,38.946686,-11.961617,-25.194077,-9.774328,-19.478567
183,75.01060485839844,76.47489929199219,64.62033081054688,-2.6317078742476485,17.283945851369065,176.4941815110287,-66.09593,11.010837,-3.9953508,72.48255,-24.79456,-8.513426,-66.1416,-15.104049,11.464472,95.9403,-31.95945,4.3631296,-6.5727153,-13.537709,29.793802,-51.703148,49.46077,-26.502775,-6.0952873,15.10461,-17.739206,28.961605,-29.672485,2.0237844,39.079975,-11.839407,-25.306469,-9.861575,-19.482702
184,75.41549682617188,76.91422271728516,64.57389831542969,-2.5360066879511947,17.28562098055248,176.21904415546345,-66.30839,11.421266,-4.1964464,72.10513,-24.218277,-8.926283,-65.37238,-14.925054,12.543052,95.17943,-31.743801,4.8352895,-6.6381836,-13.884822,29.793802,-51.637154,49.85872,-26.00058,-6.296003,15.221335,-17.661724,29.282692,-29.738913,2.3534408,39.206833,-11.68437,-25.423302,-9.924971,-19.50026
185,75.81724548339844,77.37215423583984,64.52713775634766,-2.4353363558238748,17.273005526140313,175.9529533086229,-66.503105,11.835931,-4.402495,71.732574,-23.639515,-9.343464,-64.51147,-14.508156,13.717844,94.31541,-31.296349,5.3538237,-6.702362,-14.232991,29.793802,-51.570198,50.23628,-25.52771,-6.490679,15.394388,-17.616772,29.73536,-29.828926,2.6786258,39.324135,-11.493027,-25.524174,-9.955356,-19.549082
186,76.21012878417969,77.83607482910156,64.4736557006836,-2.3251960735769996,17.248219082597938,175.70252990211142,-66.68011,12.245145,-4.6129513,71.35855,-23.055925,-9.766612,-63.54966,-13.881905,15.00129,93.34174,-30.67209,5.9600687,-6.781577,-14.589855,29.793802,-51.45983,50.58831,-25.055416,-6.7071495,15.667237,-17.606514,30.302557,-29.934843,2.9998875,39.44037,-11.275782,-25.612135,-9.965648,-19.62217
187,76.60401153564453,78.3062973022461,64.41963958740234,-2.212840300049583,17.20804951268788,175.4777097458556,-66.83964,12.638757,-4.8432527,70.97568,-22.46486,-10.198122,-62.44277,-13.141727,16.3093,92.19812,-29.948988,6.764483,-6.8727117,-14.935309,29.793802,-51.34429,50.919388,-24.598478,-6.9239006,15.930007,-17.611805,30.85704,-30.054094,3.3151295,39.541443,-11.032985,-25.734747,-9.966208,-19.685253
188,77.00093078613281,78.7901611328125,64.35924530029297,-2.103007191790326,17.15014063750413,175.2885765436491,-66.97988,13.005943,-5.1049914,70.571465,-21.860138,-10.639439,-61.157143,-12.388867,17.562944,90.821266,-29.203217,7.875609,-6.9865556,-15.267037,29.793802,-51.19893,51.223267,-24.142168,-7.153461,16.122677,-17.612709,31.276398,-30.18352,3.624773,39.62819,-10.779091,-25.934446,-9.967526,-19.704567
189,77.40703582763672,79.28236389160156,64.29119110107422,-2.0123605670538,17.06783594326005,175.1320918089589,-67.104675,13.353057,-5.417778,70.15578,-21.24679,-11.093984,-59.63959,-11.550868,18.828167,89.23512,-28.11089,9.309418,-7.1215506,-15.571512,29.793802,-51.020584,51.49459,-23.685768,-7.393425,16.216843,-17.612545,31.518583,-30.323603,3.92909,39.70023,-10.4993,-26.241411,-9.96548,-19.669832
190,77.80516052246094,79.78734588623047,64.23081970214844,-1.933917221076971,16.963900617362217,175.00492071436707,-67.213234,13.682503,-5.770445,69.72947,-20.625105,-11.559859,-57.913452,-10.607342,20.14305,87.46207,-26.767073,11.016551,-7.27131,-15.851743,29.793802,-50.826927,51.733997,-23.240423,-7.6367583,16.249123,-17.620998,31.651993,-30.475643,4.226757,39.75461,-10.191828,-26.626093,-9.957302,-19.599396
191,78.2080078125,80.29536437988281,64.16542053222656,-1.832421270518497,16.850164872769327,174.91626168930347,-67.296234,13.97623,-6.122671,69.26999,-19.98446,-12.030016,-56.087105,-9.742381,21.370745,85.42698,-25.86885,12.980849,-7.4436398,-16.13729,29.793802,-50.60917,51.939045,-22.798075,-7.88794,16.26898,-17.6276,31.719772,-30.639793,4.517391,39.794693,-9.887486,-27.043076,-9.955577,-19.502592
192,78.6102066040039,80.82148742675781,64.0830307006836,-1.6724848896823994,16.738708689976296,174.8741566937703,-67.3438,14.218133,-6.4339995,68.75475,-19.315111,-12.498748,-54.30476,-9.1742735,22.303648,83.04516,-26.083784,15.000033,-7.638543,-16.450878,29.793802,-50.395374,52.115944,-22.366299,-8.137427,16.294996,-17.62365,31.761631,-30.815514,4.799235,39.81404,-9.612752,-27.449718,-9.972486,-19.389187
193,79.0032730102539,81.40351867675781,64.02911376953125,-2.0108207474921933,16.65052852671007,174.72569396775685,-67.61208,14.738077,-7.362203,68.31123,-18.64957,-13.1385355,-52.42493,-8.657062,21.792099,79.74383,-27.777288,15.000033,-7.5866127,-16.303337,29.793802,-50.20175,52.21374,-22.084572,-8.395295,16.338892,-17.607643,31.789331,-30.912102,5.0609493,39.710617,-9.393988,-27.870743,-10.023105,-19.233316
194,79.3934555053711,82.02619934082031,63.97488784790039,-2.535824541499316,16.55234081462144,174.57746703506714,-67.95222,15.322019,-8.550563,67.87732,-17.975288,-13.845288,-50.34568,-7.9570727,20.89366,75.752014,-30.534454,15.000033,-7.4270225,-15.942637,29.793802,-50.082516,52.208286,-21.946314,-8.59685,16.387133,-17.585388,31.782818,-30.958214,5.2963076,39.518944,-9.207038,-28.315138,-10.097449,-19.038427
195,79.78565979003906,82.64260864257812,63.91547393798828,-2.9375032287733487,16.440753393019026,174.49846306364827,-68.20668,15.804693,-9.616295,67.35075,-17.261768,-14.51973,-48.426888,-7.178634,20.174744,71.95893,-33.55126,15.000033,-7.3023467,-15.649641,29.793802,-50.021637,52.12267,-21.864313,-8.740422,16.454033,-17.557817,31.754347,-31.02005,5.506703,39.31125,-9.034079,-28.718365,-10.176539,-18.85813
196,80.17979431152344,83.25529479980469,63.85610580444336,-3.0573481113999175,16.336489507754447,174.49232699980556,-68.31026,16.13694,-10.314562,66.68221,-16.491705,-15.000033,-47.0954,-6.5786934,19.807104,69.22722,-35.99306,15.000033,-7.2716527,-15.579271,29.793802,-49.991875,51.999958,-21.765284,-8.859439,16.547194,-17.523537,31.720728,-31.154594,5.6953263,39.14203,-8.870288,-29.01651,-10.24161,-18.745096
197,80.58609008789062,83.82447052001953,63.78350067138672,-2.7881496180174103,16.240727378360496,174.5728331868041,-68.22513,16.29927,-10.442357,65.87246,-15.663025,-15.000033,-46.558044,-6.4993734,19.6605,67.86078,-37.81341,15.000033,-7.383213,-15.845612,29.793802,-49.920277,51.87957,-21.576868,-9.012512,16.682083,-17.460955,31.68193,-31.365084,5.8720527,39.05034,-8.735154,-29.183437,-10.29184,-18.715136
198,81.00489044189453,84.37542724609375,63.72043991088867,-2.189551216161485,16.167694448575066,174.750441964092,-67.98548,16.28707,-10.177295,64.91648,-14.768401,-15.000033,-46.635506,-6.9206023,19.53909,67.410355,-39.41573,15.000033,-7.655071,-16.402412,29.793802,-49.785557,51.791077,-21.277672,-9.2322035,16.842218,-17.375118,31.625458,-31.658714,6.0418987,39.026165,-8.631391,-29.259306,-10.333614,-18.740736
199,81.42837524414062,84.92073822021484,63.68320083618164,-1.5491754648135767,16.131857389790937,174.90968066867404,-67.71858,16.266817,-9.855314,63.862354,-13.830104,-15.000033,-47.129723,-7.427399,19.327673,67.53321,-40.581623,15.000033,-7.9373293,-16.995804,29.793802,-49.6375,51.74641,-20.93726,-9.494493,16.982883,-17.305021,31.559195,-32.03939,6.201523,39.02249,-8.537021,-29.272598,-10.36058,-18.809605
200,81.86943817138672,85.47234344482422,63.680015563964844,-1.0757498306201054,16.168514667292484,174.97393738254615,-67.53452,16.359936,-9.714871,62.719772,-12.848186,-15.000033,-47.85482,-7.647419,18.999754,67.890785,-41.087852,15.000033,-8.1229105,-17.431992,29.793802,-49.565536,51.746113,-20.633814,-9.75383,17.062357,-17.289068,31.491419,-32.524952,6.3386374,38.990936,-8.43615,-29.255236,-10.365886,-18.909155
201,82.34336853027344,86.02456665039062,63.71044921875,-0.8036733244763673,16.320292713131032,174.8825904636219,-67.47315,16.631739,-9.749468,61.463898,-11.779435,-15.000033,-48.97571,-7.447231,18.563337,68.66927,-40.58928,15.000033,-8.1651745,-17.693085,29.793802,-49.557583,51.765198,-20.355268,-10.0394335,17.119738,-17.334547,31.413313,-33.14249,6.443487,38.9278,-8.348186,-29.202496,-10.327816,-19.047106
202,82.83598327636719,86.57273864746094,63.76789855957031,-0.6271741856798232,16.559088464394144,174.69117835296188,-67.47304,17.001394,-9.847545,60.095375,-10.636818,-15.000033,-50.514782,-7.0308027,18.04777,69.95735,-39.298374,15.000033,-8.091534,-17.842667,29.793802,-49.712257,51.80851,-20.151815,-10.278997,17.089245,-17.426764,31.321457,-33.857742,6.4953537,38.828213,-8.280404,-29.103575,-10.255858,-19.226467
203,83.33815002441406,87.13179016113281,63.84458541870117,-0.5361876176147679,16.8206690809307,174.48910957032803,-67.49332,17.382607,-10.077799,58.66105,-9.504734,-15.000033,-52.081387,-6.5237265,17.460981,71.25869,-37.81058,15.000033,-8.019984,-17.932026,29.793802,-49.786224,51.866177,-19.93053,-10.562674,17.10589,-17.548595,31.256382,-34.61729,6.5284705,38.746483,-8.233734,-28.960724,-10.193101,-19.430035
204,83.84281921386719,87.68132019042969,63.939266204833984,-0.5318924110421321,17.040051148482128,174.36563800154747,-67.50187,17.700659,-10.531459,57.21796,-8.47174,-15.000033,-53.277317,-6.036206,16.808558,72.064445,-36.720478,15.000033,-7.999818,-17.94694,29.793802,-49.789604,51.919296,-19.754288,-10.826325,17.177385,-17.691658,31.254862,-35.346157,6.5398564,38.682213,-8.202768,-28.789202,-10.179845,-19.641756
205,84.3272705078125,88.26426696777344,64.0473403930664,-0.691205272496454,17.21654764280629,174.3123703256633,-67.54511,17.967417,-11.373535,55.809437,-7.472113,-15.000033,-53.975426,-5.53438,16.031994,72.142715,-36.18504,15.000033,-8.003977,-17.799149,29.793802,-49.78178,51.994144,-19.65943,-11.039575,17.25798,-17.855064,31.32776,-36.06469,6.529989,38.609715,-8.169667,-28.558475,-10.233696,-19.849693
206,84.80323028564453,88.84911346435547,64.15190124511719,-0.9820765554580416,17.38253976583284,174.29721645540823,-67.62446,18.221321,-12.509105,54.401123,-6.48345,-15.000033,-54.406208,-4.993415,15.147151,71.792915,-35.885086,15.000033,-8.0342455,-17.54754,29.793802,-49.69203,52.07196,-19.598413,-11.266073,17.41777,-18.037153,31.466055,-36.793587,6.501199,38.542953,-8.163274,-28.270264,-10.331275,-20.065628
207,85.2702865600586,89.45067596435547,64.26319122314453,-1.1449742970781112,17.534845940596952,174.43021294581004,-67.6086,18.387356,-13.457237,52.880077,-5.6290407,-14.748294,-54.732147,-4.6221676,14.347323,71.32779,-35.714382,15.000033,-8.209347,-17.392906,29.793802,-49.59137,52.163235,-19.543558,-11.462543,17.579031,-18.250261,31.629498,-37.53126,6.45806,38.48869,-8.15181,-28.015745,-10.451065,-20.302849
208,85.7132568359375,90.09156799316406,64.38459777832031,-1.1694972324898445,17.62986293974175,174.68157909997768,-67.4487,18.542948,-14.036959,51.25883,-5.1107616,-13.98755,-55.025703,-4.3776226,13.652493,70.990875,-35.51961,15.000033,-8.489571,-17.370377,29.793802,-49.40971,52.24145,-19.482595,-11.631915,17.750963,-18.501213,31.799454,-38.204926,6.424338,38.46388,-8.113248,-27.864176,-10.575577,-20.574177
209,86.15152740478516,90.76477813720703,64.49746704101562,-1.0165841806102827,17.610477427539525,175.1030482499269,-67.029465,18.578585,-14.40346,49.46679,-5.0375013,-13.412306,-55.229485,-4.2880993,13.080523,70.85869,-35.32953,15.000033,-8.922354,-17.530695,29.793802,-49.112705,52.30797,-19.418034,-11.749632,17.927588,-18.825397,31.985296,-38.782852,6.4211802,38.4897,-8.024328,-27.842375,-10.72049,-20.909958
210,86.58454132080078,91.41993713378906,64.62503051757812,-0.7527248135077977,17.50181788954555,175.66167279770593,-66.418465,18.526783,-14.652025,47.53987,-5.2949295,-12.906183,-55.307735,-4.3094172,12.585133,70.78666,-35.19465,15.000033,-9.479889,-17.812693,29.793802,-48.72408,52.359436,-19.356932,-11.819537,18.12606,-19.207632,32.193623,-39.313274,6.4594855,38.547043,-7.8737,-27.913652,-10.889057,-21.29281
211,87.02167510986328,92.06977081298828,64.75468444824219,-0.42752500923922737,17.399822653405987,176.25795316695815,-65.76923,18.51236,-14.701546,45.5674,-5.7217436,-12.269475,-55.401093,-4.3796887,12.154262,70.727455,-35.019363,15.000033,-10.078863,-18.150213,29.793802,-48.33031,52.39964,-19.283775,-11.875059,18.323065,-19.582615,32.39221,-39.863438,6.526156,38.59357,-7.6700134,-28.05752,-11.043023,-21.665316
212,87.47090148925781,92.69497680664062,64.89981079101562,-0.08462955638420465,17.404541224307593,176.7952246955058,-65.237335,18.64309,-14.4632,43.650555,-6.1639214,-11.322188,-55.656727,-4.4426994,11.7803335,70.63674,-34.712036,15.000033,-10.657814,-18.499437,29.793802,-47.907417,52.405495,-19.135256,-12.012736,18.579338,-19.879715,32.555706,-40.488735,6.6025634,38.6094,-7.4516377,-28.24156,-11.144358,-21.971779
213,87.92679595947266,93.30557250976562,65.05545043945312,0.31186146132291603,17.557291782814076,177.26877978699446,-64.81602,18.901848,-13.867157,41.70942,-6.6556525,-9.997617,-56.15387,-4.522953,11.501786,70.52896,-34.22856,15.000033,-11.183082,-18.840805,29.793802,-47.595848,52.379417,-18.948898,-12.173247,18.835941,-20.078953,32.66007,-41.213905,6.656106,38.563377,-7.1998525,-28.519068,-11.172905,-22.210506
214,88.38642883300781,93.90658569335938,65.23689270019531,0.6868948735510005,17.807196489993803,177.69543435943464,-64.46693,19.275103,-13.063626,39.733963,-7.2802024,-8.459989,-56.78078,-4.5386205,11.199843,70.38253,-33.597813,14.598167,-11.652949,-19.138588,29.793802,-47.28809,52.29065,-18.74359,-12.378572,19.15643,-20.213755,32.735744,-41.968884,6.6813474,38.47794,-6.947157,-28.873947,-11.151729,-22.409107
215,88.8652114868164,94.49919891357422,65.41930389404297,0.9943181948100833,18.107641972305228,178.07263257167358,-64.22285,19.757172,-12.109392,37.91805,-7.9609003,-6.824921,-57.441635,-4.485926,10.842182,70.16117,-32.878365,14.014901,-12.043399,-19.331356,29.793802,-47.05463,52.15008,-18.586834,-12.572744,19.42683,-20.323828,32.791286,-42.717995,6.664516,38.354645,-6.6992087,-29.204302,-11.105269,-22.550386
216,89.34772491455078,95.06546020507812,65.60356903076172,1.1906302229894772,18.41431613661265,178.39818664804315,-64.12629,20.356241,-11.061854,36.461807,-8.614573,-5.1896963,-58.043076,-4.3577466,10.401308,69.82969,-32.129753,13.447646,-12.369956,-19.407463,29.793802,-46.808678,51.95778,-18.475151,-12.794956,19.64499,-20.437443,32.851112,-43.413967,6.60066,38.225655,-6.5072107,-29.395496,-11.058898,-22.61947
217,89.8124008178711,95.62432861328125,65.7894058227539,1.2131112459603843,18.760442883618683,178.6627671085443,-64.26575,21.16716,-9.938956,35.331184,-9.242657,-3.2834918,-58.577477,-4.1215186,9.814517,69.31236,-31.32326,12.898625,-12.602399,-19.284,29.793802,-46.61153,51.726818,-18.437504,-13.0306015,19.723648,-20.567045,32.90524,-44.05243,6.476084,38.0642,-6.381601,-29.420458,-11.00224,-22.561867
218,90.26128387451172,96.17814636230469,65.97441101074219,1.1214948924803332,19.15859599538489,178.8785638299645,-64.589066,22.139671,-8.689337,34.462616,-9.917726,-1.1505489,-59.100155,-3.8213177,9.13873,68.65368,-30.444996,12.356935,-12.766076,-19.024672,29.793802,-46.43005,51.44778,-18.445143,-13.299446,19.734123,-20.691235,32.95319,-44.645355,6.286984,37.881374,-6.3252826,-29.331596,-10.92689,-22.40377
219,90.69340515136719,96.71453094482422,66.1454849243164,1.0086326080315988,19.53392189028078,179.05948859395824,-64.95817,23.128756,-7.3194056,34.011055,-10.617635,0.65344393,-59.598698,-3.5067434,8.468474,67.98371,-29.567574,11.824893,-12.900427,-18.7446,29.793802,-46.20947,51.11691,-18.476254,-13.591713,19.763699,-20.803484,33.01177,-45.183197,6.041514,37.727753,-6.316834,-29.150976,-10.861697,-22.249842
220,91.13666534423828,97.2322006225586,66.31546783447266,0.9609048543557038,19.808116675298304,179.2173049612065,-65.22998,24.0143,-5.8378525,34.111546,-11.264938,1.5874605,-60.05289,-3.2159116,7.8926983,67.432884,-28.764853,11.303673,-13.006442,-18.51354,29.793802,-46.06387,50.783722,-18.57244,-13.804585,19.74787,-20.907774,33.08314,-45.663494,5.7437954,37.62379,-6.2956367,-28.913296,-10.835745,-22.203062
221,91.57909393310547,97.74811553955078,66.44547271728516,1.0024900889384485,19.95851970996829,179.34897645053056,-65.315216,24.871225,-4.0062246,34.71799,-11.703772,1.2701039,-60.452457,-2.948374,7.437034,67.03575,-28.059542,10.785938,-13.130716,-18.420544,29.793802,-45.807537,50.443596,-18.66287,-14.043513,19.79108,-20.97651,33.183506,-46.07503,5.415591,37.620777,-6.3056674,-28.559345,-10.870706,-22.306705
222,92.00807189941406,98.26065063476562,66.53358459472656,1.0832242090099184,20.025826144683826,179.44922276140898,-65.30725,25.75857,-1.8983109,35.805653,-11.9765215,0.10570152,-60.80584,-2.6783493,7.049037,66.72344,-27.41237,10.27168,-13.249174,-18.386202,29.793802,-45.51728,50.11691,-18.760798,-14.286887,19.804373,-21.02367,33.29476,-46.439426,5.0613413,37.682114,-6.325063,-28.102571,-10.948073,-22.498846
223,92.44961547851562,98.77108001708984,66.60503387451172,1.1947592723391072,20.02675635444175,179.52436844354293,-65.33498,26.536316,0.027596131,37.514896,-12.297735,-1.264468,-61.127834,-2.4095993,6.719655,66.47971,-26.80549,9.775905,-13.379011,-18.410995,29.793802,-45.143604,49.793392,-18.835917,-14.555295,19.896715,-21.070845,33.432747,-46.769318,4.6929107,37.793682,-6.3512664,-27.637354,-11.03968,-22.730738
224,92.89473724365234,99.2735595703125,66.64957427978516,1.3223270675565941,19.973125968029294,179.5752044145414,-65.5195,27.070044,1.3112032,39.931835,-12.891223,-2.2267187,-61.428123,-2.1403973,6.4373784,66.289,-26.22248,9.31358,-13.500439,-18.448872,29.793802,-44.78021,49.484467,-18.908848,-14.783433,20.057686,-21.150925,33.59667,-47.078617,4.312531,37.91732,-6.3402376,-27.26846,-11.115375,-22.952051
225,93.34838104248047,99.75865936279297,66.67083740234375,1.4837484642451302,19.833475275579378,179.58332266638564,-65.91322,27.24926,1.7123891,43.223476,-13.846249,-2.6608717,-61.69392,-1.8627272,6.2361474,66.18414,-25.678345,8.899639,-13.619238,-18.547197,29.793802,-44.363197,49.183674,-18.957664,-14.985996,20.347313,-21.272621,33.807148,-47.36715,3.9301803,38.083126,-6.2881837,-26.992718,-11.17266,-23.185953
226,93.80748748779297,100.22132110595703,66.67475891113281,1.6741325076113116,19.604123754783966,179.5439128312785,-66.40413,27.128017,1.5580453,47.20485,-15.007697,-2.924392,-61.91523,-1.566306,6.1105022,66.16195,-25.176199,8.521872,-13.715317,-18.68587,29.793802,-43.964386,48.913334,-19.008875,-15.128467,20.66317,-21.424658,34.0478,-47.63374,3.5459292,38.285183,-6.1819844,-26.772505,-11.226153,-23.445553
227,94.26073455810547,100.67892456054688,66.66111755371094,1.8591819985842675,19.34438960677099,179.48079653756054,-66.867355,26.82751,1.2444156,51.429653,-16.238613,-3.1186457,-62.116802,-1.2553542,6.0051527,66.160034,-24.684954,8.157871,-13.817919,-18.842512,29.793802,-43.487083,48.648605,-19.028849,-15.301812,21.09004,-21.579975,34.308712,-47.8732,3.1685734,38.49702,-6.072928,-26.62649,-11.270558,-23.670292
228,94.71011352539062,101.12757873535156,66.64140319824219,1.9969893551305886,19.115020184712783,179.42294375659648,-67.220055,26.529325,1.1082654,55.515804,-17.431032,-3.3050911,-62.32184,-0.9367731,5.852932,66.11158,-24.172487,7.7827363,-13.910251,-18.922808,29.793802,-43.051487,48.39188,-19.059658,-15.466213,21.544258,-21.728098,34.55561,-48.08661,2.7894776,38.654953,-5.961752,-26.592253,-11.299304,-23.796478
229,95.15487670898438,101.55415344238281,66.6143569946289,2.0686992037730816,18.920255958903926,179.3729779923387,-67.48452,26.295893,1.1310486,59.50978,-18.584385,-3.4797785,-62.52619,-0.607538,5.63055,66.00533,-23.635191,7.3885202,-13.9908695,-18.908796,29.793802,-42.63847,48.12861,-19.10687,-15.628366,22.101795,-21.86211,34.80035,-48.265,2.404397,38.744503,-5.854824,-26.718885,-11.304061,-23.77512
230,95.5971908569336,101.98654174804688,66.5833511352539,2.098449627877507,18.733417415236293,179.32039497566763,-67.69733,26.043335,1.1525272,63.589073,-19.756742,-3.602127,-62.72105,-0.26771775,5.3721232,65.87334,-23.08964,6.9874287,-14.053796,-18.828356,29.793802,-42.25938,47.85547,-19.176998,-15.767656,22.74409,-21.991684,35.04948,-48.410046,2.008908,38.787174,-5.7392225,-26.977615,-11.290288,-23.649647
231,96.04216003417969,102.39787292480469,66.56745910644531,2.113517011940028,18.57282013044733,179.27655237714137,-67.81633,25.77369,1.2664951,67.60272,-20.937279,-3.643822,-62.923634,0.06509096,5.101065,65.70673,-22.530443,6.5866175,-14.102775,-18.701548,29.793802,-41.95115,47.57972,-19.279633,-15.884311,23.351334,-22.121206,35.280552,-48.53081,1.5977122,38.789665,-5.6253295,-27.276093,-11.272031,-23.49882
232,96.48419189453125,102.79558563232422,66.56076049804688,2.1441045085954515,18.458135485876788,179.2528709231332,-67.80418,25.48258,1.5699375,71.3994,-22.114353,-3.5788972,-63.15681,0.37302777,4.844486,65.502045,-21.953514,6.1938777,-14.165986,-18.581276,29.793802,-41.63969,47.284897,-19.389551,-16.046934,23.898825,-22.247252,35.481342,-48.641006,1.1765498,38.77471,-5.544872,-27.513647,-11.262932,-23.40252
233,96.91969299316406,103.19828033447266,66.55288696289062,2.19373287701774,18.406067785645472,179.2576397888503,-67.67696,25.19362,2.0905385,74.98964,-23.31161,-3.3629892,-63.43186,0.6494044,4.6024637,65.248825,-21.354286,5.81053,-14.22015,-18.428856,29.793802,-41.468792,47.002018,-19.548347,-16.187027,24.236063,-22.391184,35.622982,-48.750614,0.7332236,38.71591,-5.467425,-27.698801,-11.273491,-23.369253
234,97.34896087646484,103.58648681640625,66.53988647460938,2.2506775948403055,18.404336034072426,179.2843075301469,-67.451515,24.908247,2.7598789,78.45366,-24.533749,-3.0117645,-63.737667,0.90242845,4.364846,64.95402,-20.737545,5.4328628,-14.282038,-18.263483,29.793802,-41.33539,46.72247,-19.726286,-16.35092,24.49286,-22.54055,35.73115,-48.84105,0.26810446,38.625877,-5.4244742,-27.864267,-11.293935,-23.36149
235,97.7773666381836,103.96595001220703,66.5302505493164,2.308404486726551,18.424833400602466,179.3212334207682,-67.10459,24.581213,3.518355,81.74831,-25.740126,-2.599127,-64.05078,1.1411878,4.1281133,64.62989,-20.10936,5.0596905,-14.33798,-18.080488,29.793802,-41.239082,46.441727,-19.925106,-16.516077,24.691383,-22.68016,35.823513,-48.91005,-0.21078034,38.516834,-5.3980293,-27.984482,-11.305394,-23.38655
236,98.20659637451172,104.35160064697266,66.52517700195312,2.3608600086426326,18.43707699089251,179.3568565044602,-66.61896,24.157862,4.314371,84.83185,-26.883137,-2.2053676,-64.34686,1.3744087,3.8900251,64.29107,-19.47726,4.6899967,-14.381921,-17.88203,29.793802,-41.1755,46.158062,-20.141726,-16.653303,24.856775,-22.794018,35.91899,-48.942184,-0.6963768,38.411983,-5.3864913,-28.036188,-11.28913,-23.44819
237,98.63429260253906,104.72657775878906,66.51544189453125,2.4079692709691116,18.441916462181634,179.39242831252307,-66.0027,23.63637,5.162426,87.7176,-27.996908,-1.7837528,-64.628265,1.6014484,3.652773,63.93959,-18.84091,4.3214517,-14.405085,-17.653685,29.793802,-41.18888,45.883156,-20.392517,-16.745419,24.93701,-22.879242,36.018658,-48.948574,-1.1864502,38.307495,-5.3645053,-28.001087,-11.233749,-23.571901
238,99.05748748779297,105.0998306274414,66.51133728027344,2.4531586340374627,18.453551945864895,179.43319987874818,-65.274765,23.027485,6.077798,90.42743,-29.089626,-1.31767,-64.90617,1.8175043,3.4171019,63.569244,-18.197233,3.9545646,-14.412581,-17.400675,29.793802,-41.272476,45.621387,-20.673977,-16.806997,24.929434,-22.944012,36.113785,-48.943676,-1.6768616,38.18999,-5.32861,-27.894833,-11.152494,-23.747906
239,99.48845672607422,105.46249389648438,66.49832916259766,2.4957120193630526,18.45717249403856,179.47264825673483,-64.43403,22.289955,7.0225587,92.92241,-30.075808,-0.9362748,-65.16809,2.0276437,3.1802623,63.185272,-17.55144,3.59601,-14.430269,-17.159782,29.793802,-41.320904,45.3537,-20.936396,-16.875778,24.948748,-22.988678,36.20676,-48.88837,-2.163114,38.081852,-5.3380647,-27.753101,-11.06174,-23.92445
