unveil-humanoid-operators/unveil-humanoid-operators.github.io/feature-analysis-animation/data/feature_matrix_instances/height_ankle_rom_jogging_A071_jog_ff_stop_360_002__A071.csv
Frame,root_translateX,root_translateY,root_translateZ,root_rotateX,root_rotateY,root_rotateZ,left_hip_pitch_joint_dof,left_hip_roll_joint_dof,left_hip_yaw_joint_dof,left_knee_joint_dof,left_ankle_pitch_joint_dof,left_ankle_roll_joint_dof,right_hip_pitch_joint_dof,right_hip_roll_joint_dof,right_hip_yaw_joint_dof,right_knee_joint_dof,right_ankle_pitch_joint_dof,right_ankle_roll_joint_dof,waist_yaw_joint_dof,waist_roll_joint_dof,waist_pitch_joint_dof,left_shoulder_pitch_joint_dof,left_shoulder_roll_joint_dof,left_shoulder_yaw_joint_dof,left_elbow_joint_dof,left_wrist_roll_joint_dof,left_wrist_pitch_joint_dof,left_wrist_yaw_joint_dof,right_shoulder_pitch_joint_dof,right_shoulder_roll_joint_dof,right_shoulder_yaw_joint_dof,right_elbow_joint_dof,right_wrist_roll_joint_dof,right_wrist_pitch_joint_dof,right_wrist_yaw_joint_dof
0,-0.08887562155723572,-2.1220407485961914,78.42485046386719,0.714008487999161,-2.0395660537906113,88.1924858372695,-3.589742,2.8913932,5.241364,55.849907,-3.1109524,-5.812904,-22.752066,-1.419591,0.51422125,18.425425,12.4995165,13.991843,-11.195375,-2.871709,16.314781,-9.984859,29.487724,-29.189949,-19.755901,-1.1099572,1.5388356,8.465537,5.810071,-24.808174,28.024645,-22.790304,-4.7861075,0.29233953,-14.940604
1,-0.30763736367225647,-3.524616003036499,78.3525390625,0.8158363969250673,-1.998875041707435,87.70310879399783,-2.4535165,2.4536948,5.597817,52.50197,-4.8565135,-4.5154133,-23.597767,-1.4366885,1.100956,20.43323,10.658117,14.249584,-10.970997,-2.8953948,16.541676,-9.986133,29.584448,-29.074028,-19.62959,-1.0211912,1.3488017,8.5686865,4.836875,-24.877151,28.212809,-22.727028,-4.7727165,-0.05388443,-14.468343
2,-0.5296812653541565,-4.932133197784424,78.23664855957031,0.9492480175143558,-1.9501262499656145,87.21096997951923,-1.2293675,1.9312478,5.919455,48.997265,-6.569146,-3.1308913,-24.425661,-1.4483013,1.7370402,22.308184,8.853727,14.558313,-10.777522,-2.9510283,16.757149,-9.959625,29.701824,-28.933311,-19.560518,-0.95145726,1.1367184,8.653632,3.8775597,-24.95002,28.408976,-22.703058,-4.7315974,-0.4058381,-13.975654
3,-0.7443802356719971,-6.330340385437012,78.06403350830078,1.0508521439355398,-1.9152490321320375,86.724629527176,-0.17845449,1.4583964,6.20235,45.82081,-8.386932,-1.9145343,-25.286745,-1.4517746,2.2540152,24.470272,6.9453225,14.765465,-10.565882,-2.9771063,17.013088,-9.886939,29.83116,-28.76138,-19.479267,-0.8466786,0.96864134,8.769722,2.865353,-25.026289,28.623524,-22.624588,-4.7377343,-0.7448418,-13.53963
4,-0.9577845931053162,-7.744760990142822,77.85002899169922,1.060466286119126,-1.9201685606207612,86.2571199765864,0.4480282,1.1658136,6.459965,43.434593,-10.428975,-1.1281954,-26.221054,-1.4546875,2.491168,27.323307,4.799869,14.725368,-10.308964,-2.9172928,17.35974,-9.728898,29.958645,-28.528915,-19.326416,-0.6478199,0.911236,8.959724,1.713567,-25.107527,28.888752,-22.387321,-4.866314,-1.052139,-13.243277
5,-1.1679275035858154,-9.160261154174805,77.58598327636719,0.9457512596553799,-1.98136754820715,85.78401204693552,0.61031175,1.1227704,6.7449055,41.941063,-12.861049,-0.9848716,-27.256897,-1.4356796,2.437193,31.049194,2.2912261,14.381082,-9.993766,-2.7420847,17.822628,-9.483538,30.073967,-28.211683,-19.097359,-0.38237095,0.9418936,9.218616,0.3305239,-25.200405,29.244648,-21.938723,-5.1199684,-1.3657353,-13.108745
6,-1.3718304634094238,-10.605813980102539,77.26334381103516,0.7562138276808693,-2.0901511017738406,85.3146467442076,0.4457093,1.2562484,7.0705886,41.07205,-15.554717,-1.3015981,-28.328268,-1.4289358,2.1874428,35.34785,-0.45116034,13.821742,-9.648154,-2.4927876,18.372635,-9.171186,30.173927,-27.82821,-18.814283,-0.065123014,1.0398055,9.524871,-1.2129029,-25.304867,29.66465,-21.345425,-5.4660206,-1.6806499,-13.096068
7,-1.5623213052749634,-12.101844787597656,76.89599609375,0.5510063320249919,-2.235149350316246,84.91514252800303,-0.030994976,1.478248,7.3865514,40.73715,-18.188305,-1.744278,-29.319517,-1.5399452,1.749636,39.879086,-3.1634867,13.118818,-9.303305,-2.2208028,18.975956,-8.7944565,30.255407,-27.420765,-18.442114,0.37852234,1.2756858,9.896176,-2.7565567,-25.408037,30.08151,-20.684977,-5.925448,-1.9139708,-13.193337
8,-1.7279645204544067,-13.611931800842285,76.48883056640625,0.38460096376504876,-2.401868236630798,84.64914145757913,-0.8084852,1.6905136,7.6104164,40.85429,-20.451056,-1.9730486,-30.12832,-1.8725945,1.1298218,44.333702,-5.5965095,12.337257,-8.9834795,-1.9748093,19.593946,-8.365949,30.314867,-27.038424,-17.93568,1.0210499,1.7219613,10.3484745,-4.145714,-25.488178,30.433252,-20.016384,-6.5193057,-1.9823284,-13.383794
9,-1.8584128618240356,-15.123340606689453,76.06597900390625,0.25112022868194356,-2.643100981784796,84.52275567858045,-1.9466288,1.9101031,7.7081056,41.63288,-22.347654,-1.8993186,-30.735197,-2.489061,0.27717438,48.8205,-7.722705,11.412646,-8.667615,-1.7553588,20.291082,-7.9523616,30.348171,-26.71073,-17.173199,1.8535637,2.4917,10.859584,-5.401627,-25.523092,30.731771,-19.228598,-7.360624,-1.8061551,-13.723385
10,-1.9723713397979736,-16.65053939819336,75.6463851928711,0.12916423872395555,-2.9473339539422985,84.50601720944475,-3.4334135,2.169109,7.710701,43.05295,-24.02812,-1.6998821,-31.171066,-3.3657546,-0.76214236,53.439857,-9.675693,10.311118,-8.346537,-1.5414153,21.053995,-7.5513406,30.350426,-26.421804,-16.18521,2.842427,3.5214348,11.416537,-6.6061316,-25.501242,31.015656,-18.290567,-8.40152,-1.4417913,-14.186844
11,-2.0608222484588623,-18.15771484375,75.26229858398438,0.03776600369593797,-3.201920922346368,84.60557124455593,-5.141873,2.3868988,7.6205525,44.66305,-25.388432,-1.4308913,-31.423485,-4.4514003,-1.8595048,57.88932,-11.453302,9.149275,-8.060738,-1.3473692,21.726864,-7.059613,30.318184,-26.145311,-15.170631,4.0259857,4.6224213,12.049773,-7.6977024,-25.421335,31.26008,-17.387154,-9.423329,-1.0153463,-14.638287
12,-2.1394684314727783,-19.643796920776367,74.940185546875,-0.007588151577174218,-3.2933109346213825,84.82664818416377,-6.9504623,2.4907668,7.449578,46.020115,-26.326616,-1.1495278,-31.503212,-5.6599646,-2.908523,61.889973,-13.04877,8.064514,-7.845365,-1.1882026,22.157234,-6.367079,30.25126,-25.853909,-14.335028,5.4436965,5.6088343,12.798519,-8.602651,-25.297886,31.421803,-16.716955,-10.211528,-0.66223806,-14.952154
13,-2.1992108821868896,-21.116783142089844,74.67603302001953,0.007159626631394616,-3.112459686339541,85.24335562793691,-8.998877,2.435981,7.1551166,47.106968,-26.75883,-0.83778954,-31.494833,-7.085948,-4.020817,65.45444,-14.436976,7.0412197,-7.76514,-1.0872972,22.24563,-5.386924,30.14675,-25.525843,-13.751268,7.4502206,6.5156364,13.739065,-9.245156,-25.141624,31.43548,-16.390728,-10.780003,-0.3929349,-15.061073
14,-2.2345283031463623,-22.508869171142578,74.48200225830078,0.07135320458556249,-2.746648478332356,85.82763102138419,-11.2894335,2.2649672,6.757308,48.11632,-26.752983,-0.47965983,-31.363174,-8.721783,-5.2221537,68.73143,-15.64129,6.025521,-7.778622,-1.0285,22.097198,-4.194034,30.00481,-25.18155,-13.308623,9.909383,7.441758,14.815837,-9.673502,-24.960907,31.328094,-16.298695,-11.220726,-0.1491256,-15.048214
15,-2.234771251678467,-23.825069427490234,74.33997344970703,0.1573086263608703,-2.376024748792946,86.43008892860834,-13.498493,2.0502703,6.3650227,48.927025,-26.436758,-0.13435467,-30.965174,-10.294076,-6.306038,71.64294,-16.708488,5.120152,-7.7618446,-0.9667473,21.867105,-2.9024415,29.83478,-24.850266,-12.963013,12.12581,8.276942,15.898891,-9.988677,-24.77692,31.190845,-16.327188,-11.437777,0.033625722,-15.0232
16,-2.2208914756774902,-25.09453582763672,74.2326889038086,0.23229836788074754,-2.178427448347418,86.90060830312683,-15.309839,1.876455,6.0776467,49.427185,-25.943428,0.14055984,-30.179876,-11.514609,-7.0746427,74.103645,-17.675182,4.4404874,-7.5923266,-0.8585379,21.712423,-1.6168543,29.652967,-24.552921,-12.683534,13.405033,8.875304,16.886284,-10.288047,-24.618334,31.119648,-16.37707,-11.331659,0.12143756,-15.097384
17,-2.2174322605133057,-26.31296157836914,74.18865966796875,0.2831368160441864,-2.2505111576132246,87.20074041367472,-16.589401,1.7808303,5.9276495,49.613796,-25.30936,0.3360424,-28.89001,-12.283785,-7.483434,76.08878,-18.557285,4.048621,-7.223892,-0.68918955,21.710367,-0.32023367,29.470137,-24.291586,-12.50426,13.365301,9.087318,17.847736,-10.543594,-24.511124,31.126038,-16.516497,-10.691827,0.0684966,-15.358284
18,-2.209965229034424,-27.54001235961914,74.19066619873047,0.3221710462896869,-2.4796035377397705,87.41015907480978,-17.529446,1.7258703,5.856225,49.546677,-24.467915,0.4804586,-27.212463,-12.739073,-7.664286,77.65023,-19.320538,3.8867304,-6.72579,-0.4792178,21.77245,1.0428882,29.288458,-24.053286,-12.455428,12.446976,8.988155,18.827198,-10.693114,-24.466276,31.156954,-16.816458,-9.626626,-0.099544026,-15.729617
19,-2.18800687789917,-28.77134132385254,74.23934173583984,0.3606068035303041,-2.7273918695347676,87.55464567062575,-18.305964,1.6885253,5.8198147,49.20951,-23.399372,0.5733607,-25.390835,-12.951283,-7.6791325,78.81646,-19.922928,3.8882782,-6.1490765,-0.23888277,21.806517,2.425495,29.111979,-23.83168,-12.5000725,11.188157,8.763078,19.691769,-10.78923,-24.483446,31.214472,-17.16893,-8.512298,-0.30521947,-16.077467
20,-2.164638042449951,-29.995759963989258,74.33698272705078,0.40971891617393896,-2.855484251287947,87.65955245255013,-19.093515,1.6435044,5.7761617,48.585155,-22.083868,0.6144201,-23.667488,-12.995626,-7.581921,79.61388,-20.327202,3.984377,-5.5481243,0.015275359,21.719227,3.78958,28.9445,-23.611172,-12.604233,10.120439,8.620196,20.315058,-10.900744,-24.551975,31.309042,-17.450012,-7.7257757,-0.4621702,-16.272179
21,-2.1448140144348145,-31.228164672851562,74.48814392089844,0.4880796281214792,-2.829471925086679,87.68620769476018,-19.911785,1.5796163,5.745682,47.637634,-20.517582,0.60499674,-22.102741,-12.839745,-7.2826896,80.038994,-20.511042,4.231914,-4.8967915,0.2696266,21.476404,5.141465,28.787361,-23.391445,-12.78017,9.220981,8.649509,20.632187,-11.076497,-24.666586,31.471952,-17.595146,-7.407274,-0.5337776,-16.283823
22,-2.1200625896453857,-32.46558380126953,74.6901626586914,0.5860330216640263,-2.721663891118734,87.6358981899423,-20.675436,1.5130347,5.73873,46.385895,-18.71194,0.54512924,-20.575912,-12.466879,-6.7819905,80.09003,-20.503382,4.6399045,-4.182188,0.52807564,21.129284,6.5041533,28.63844,-23.173834,-13.045315,8.258198,8.73741,20.723024,-11.282129,-24.824953,31.6949,-17.666742,-7.342522,-0.56725657,-16.181257
23,-2.072648048400879,-33.718048095703125,74.93386840820312,0.6677740462781571,-2.5536637103575117,87.59362971849849,-21.397394,1.4575744,5.6983185,44.885963,-16.663937,0.43194667,-19.063946,-11.977165,-6.261539,79.805695,-20.338802,5.066415,-3.4760673,0.79942477,20.712894,7.864146,28.49656,-22.943457,-13.372277,7.446416,8.799246,20.685432,-11.457776,-25.01305,31.927341,-17.736935,-7.3800626,-0.5981468,-15.985941
24,-2.0028235912323,-34.97350311279297,75.21348571777344,0.7010412666184898,-2.347755758065893,87.64367532049727,-22.091639,1.4244177,5.56669,43.194466,-14.369531,0.26233664,-17.549557,-11.466344,-5.901266,79.22294,-20.045319,5.3697023,-2.849698,1.0931156,20.260256,9.206444,28.36249,-22.686266,-13.729242,7.0013056,8.747091,20.613792,-11.550546,-25.209175,32.118958,-17.866861,-7.368954,-0.66188014,-15.718088
25,-1.904583215713501,-36.23860549926758,75.53235626220703,0.678790714461924,-2.0612936767744015,87.80489020795716,-22.795223,1.4098576,5.32762,41.275475,-11.78232,0.042497013,-16.049711,-10.957325,-5.7473164,78.29926,-19.674347,5.5170107,-2.311692,1.4135665,19.72183,10.547153,28.237228,-22.38503,-14.123226,7.1142664,8.546303,20.49692,-11.546307,-25.392206,32.256306,-18.049442,-7.3051353,-0.7644807,-15.308261
26,-1.7741469144821167,-37.50291442871094,75.8726577758789,0.6216068800526053,-1.6983505008440178,88.03213555120809,-23.48694,1.4063156,5.006869,39.11143,-8.917809,-0.22971864,-14.573622,-10.399361,-5.6929617,77.03788,-19.194529,5.5787935,-1.8267655,1.7480574,19.093811,11.889573,28.121805,-22.050356,-14.559886,7.6236005,8.247313,20.29822,-11.494637,-25.554142,32.37335,-18.228048,-7.2612805,-0.8886305,-14.767584
27,-1.6258213520050049,-38.766578674316406,76.22663879394531,0.5278322885519827,-1.3507912730092626,88.31454729611926,-24.095322,1.4159812,4.6082706,36.78548,-5.8610654,-0.5708119,-13.091447,-9.774245,-5.6905994,75.5334,-18.50969,5.5716205,-1.4021994,2.08699,18.479116,13.197887,28.019388,-21.708036,-15.004128,8.217108,7.88782,20.072842,-11.435639,-25.695602,32.48929,-18.392294,-7.2010784,-1.0336014,-14.2371645
28,-1.4489961862564087,-40.04304122924805,76.56885528564453,0.397705862494667,-1.1104070575225586,88.64163343114521,-24.552877,1.439251,4.1343083,34.385433,-2.6964905,-0.9979593,-11.572884,-9.064867,-5.6931543,73.880356,-17.52303,5.5130033,-1.0454379,2.4265957,17.982885,14.435102,27.935078,-21.385118,-15.42347,8.583636,7.50844,19.871967,-11.398345,-25.824072,32.61731,-18.54522,-7.0878663,-1.1980829,-13.858626
29,-1.277589201927185,-41.32744598388672,76.90093231201172,0.23350323420525945,-0.9808338848377307,89.03253950232084,-24.856245,1.4429116,3.5419073,31.81486,0.80477357,-1.4243429,-10.008737,-8.268658,-5.7069016,72.05374,-16.21205,5.432024,-0.76929456,2.7645228,17.615753,15.591074,27.874483,-21.082335,-15.8056,8.640142,7.075317,19.704382,-11.397156,-25.947054,32.767467,-18.689531,-6.869342,-1.3958116,-13.685722
30,-1.0803793668746948,-42.61927795410156,77.2025146484375,0.03589238773218562,-0.9182229021066645,89.48682158681613,-25.045246,1.433845,2.8362656,29.07693,4.6034827,-1.8760258,-8.417862,-7.3963857,-5.745164,70.02248,-14.630261,5.3125796,-0.56820995,3.107603,17.33075,16.690851,27.840334,-20.782381,-16.176683,8.552174,6.583103,19.542822,-11.407481,-26.065908,32.92781,-18.836004,-6.5790787,-1.6228422,-13.637604
31,-0.8757697343826294,-43.90787124633789,77.46467590332031,-0.2060565685232549,-0.944522631708054,89.96409812131394,-25.112652,1.4680167,2.0809462,26.399239,8.217948,-2.5412645,-6.8088355,-6.4519167,-5.775022,67.87124,-12.792456,5.1010394,-0.4221685,3.4707892,17.148144,17.748318,27.83379,-20.484835,-16.561493,8.383476,6.1168427,19.380754,-11.40134,-26.180725,33.077374,-18.992514,-6.3072424,-1.8517193,-13.653893
32,-0.6650165915489197,-45.21589279174805,77.67245483398438,-0.5059270080599917,-1.0842223210365372,90.4206986248521,-25.031567,1.5994349,1.3307728,23.973366,11.178328,-3.610182,-5.1859813,-5.435784,-5.7653685,65.68196,-10.710777,4.7444,-0.30758625,3.8712094,17.08919,18.777344,27.85476,-20.190727,-16.983591,8.198448,5.761412,19.213745,-11.352722,-26.292555,33.195366,-19.166224,-6.143518,-2.0544133,-13.6742735
33,-0.44760721921920776,-46.500892639160156,77.8039779663086,-0.9374052228587298,-1.3908303814784404,90.8535247989002,-24.631489,1.914335,0.5609748,21.530882,13.532785,-5.44103,-3.524357,-4.2172394,-5.676604,63.475567,-7.829741,4.1449895,-0.22500627,4.378013,17.198614,19.826036,27.906147,-19.891705,-17.46901,7.9967895,5.5682592,19.061142,-11.237817,-26.403494,33.278725,-19.379723,-6.124495,-2.2201092,-13.710884
34,-0.22695623338222504,-47.76011276245117,77.85758209228516,-1.4870667214510496,-1.8407627364457044,91.2808748882051,-23.956284,2.375488,-0.26248828,19.026249,15.499827,-7.8394117,-1.8203532,-2.8470414,-5.554818,61.206024,-4.321953,3.3436134,-0.18403801,4.976277,17.461737,20.88326,27.99072,-19.58253,-18.01095,7.75069,5.483051,18.919565,-11.073854,-26.516163,33.336647,-19.62733,-6.197723,-2.3648193,-13.786723
35,-0.01678779534995556,-49.03168487548828,77.84931945800781,-2.0343874016611063,-2.3388589564151028,91.69683684269323,-23.33136,2.8520224,-1.0653563,17.043514,16.846647,-10.145548,-0.10763445,-1.5778322,-5.4898806,58.84793,-1.3015658,2.50447,-0.1785759,5.5542088,17.804735,21.864017,28.105446,-19.275694,-18.573427,7.4834247,5.431569,18.751614,-10.891169,-26.631666,33.364883,-19.87757,-6.320753,-2.5001538,-13.858706
36,0.17914462089538574,-50.3046989440918,77.77667999267578,-2.432276060460366,-2.7811696306792326,92.0992404537498,-23.113794,3.1822343,-1.7458869,16.22431,17.314806,-11.683336,1.5705893,-0.6434675,-5.5360107,56.376297,0.10756653,1.8274734,-0.20306271,5.9766426,18.140665,22.663881,28.243425,-18.99458,-19.100323,7.218812,5.33944,18.517899,-10.720773,-26.748587,33.357677,-20.094135,-6.449788,-2.6383834,-13.884181
37,0.35226714611053467,-51.60675811767578,77.63259887695312,-2.610744478691939,-3.139679642500669,92.49726105272198,-23.464201,3.278679,-2.276328,16.90316,16.647121,-12.1409235,3.3731391,-0.10289198,-5.686226,53.457928,-0.6461526,1.4220607,-0.26346755,6.1807733,18.433655,23.278137,28.399797,-18.741812,-19.576279,6.946243,5.1736374,18.152588,-10.566172,-26.866629,33.312214,-20.280819,-6.6063123,-2.8017545,-13.854814
38,0.5105261206626892,-52.948814392089844,77.43814086914062,-2.652105729610221,-3.4653805546234606,92.89042997393743,-24.196407,3.2351599,-2.6898992,18.731339,15.024001,-11.912811,5.276163,0.21882777,-5.901825,50.163456,-2.8551896,1.2279271,-0.36122856,6.242207,18.72557,23.738516,28.574005,-18.51467,-20.013382,6.660075,4.9792385,17.693398,-10.416254,-26.985947,33.232845,-20.445,-6.8011484,-2.9775903,-13.792548
39,0.6712355017662048,-54.31621551513672,77.19254302978516,-2.6277031686129684,-3.770556724681692,93.26285340632829,-25.133053,3.1474109,-2.985744,21.293076,12.853946,-11.3850355,6.9456377,0.42485106,-6.187511,47.102135,-5.754102,1.1818496,-0.48308468,6.2269826,19.042328,23.98853,28.76474,-18.334179,-20.389803,6.3922133,4.7982125,17.25715,-10.270285,-27.101915,33.12241,-20.5597,-6.9798064,-3.126143,-13.701077
40,0.8261968493461609,-55.69855499267578,76.90641021728516,-2.5983711834761554,-4.065409155490439,93.60099026137729,-26.115078,3.110039,-3.1424913,24.208067,10.531188,-10.930191,8.027021,0.5705985,-6.552229,44.945488,-8.6175,1.1664444,-0.6168277,6.189805,19.407461,23.968306,28.968884,-18.223577,-20.679241,6.1758847,4.670951,16.961655,-10.13273,-27.20697,32.983574,-20.589598,-7.0868993,-3.2076414,-13.582768
41,0.9754116535186768,-57.09578323364258,76.59469604492188,-2.5450181716388833,-4.333683988691179,93.91484847664032,-27.155327,3.106875,-3.1584692,27.486567,8.010777,-10.631286,8.364517,0.5875985,-7.066707,43.96096,-11.577364,1.1387198,-0.76150614,6.1196117,19.804855,23.609585,29.188799,-18.206753,-20.844013,5.9869127,4.5830836,16.815075,-10.03094,-27.297651,32.807297,-20.526373,-7.0719204,-3.2328238,-13.399189
42,1.1101949214935303,-58.536224365234375,76.23336029052734,-2.4484001860067353,-4.579498200344432,94.20489135145839,-28.313776,3.1256864,-3.055741,31.292656,5.131117,-10.291714,8.153809,0.4503591,-7.71745,43.79411,-14.929296,1.1378651,-0.9186892,5.9979997,20.230167,22.95796,29.424006,-18.269066,-20.906485,5.8199134,4.5206194,16.76402,-9.954156,-27.372963,32.593536,-20.38168,-6.9783397,-3.2151945,-13.1605
43,1.238847017288208,-60.03308868408203,75.82867431640625,-2.368191924316793,-4.842107149242569,94.44711723331478,-29.490847,3.2666934,-2.8352234,35.452713,2.1204643,-9.856347,7.5473886,0.2580095,-8.376773,44.24434,-18.239523,1.1359899,-1.0880948,5.8623333,20.724012,22.128916,29.663353,-18.371122,-20.92886,5.7377505,4.52311,16.833221,-9.858869,-27.427008,32.365467,-20.146603,-6.891273,-3.1195924,-12.94212
44,1.3501238822937012,-61.575836181640625,75.38146209716797,-2.3613001716683395,-5.16098446062931,94.61610949445766,-30.57563,3.6285887,-2.5013947,39.779438,-0.7849983,-9.267718,6.70574,0.11821963,-8.913026,45.093933,-21.065512,1.1042706,-1.2738768,5.7502794,21.324133,21.241146,29.889322,-18.472868,-20.969082,5.8053145,4.631186,17.044506,-9.711981,-27.45051,32.15656,-19.80403,-6.8980856,-2.9116595,-12.818779
45,1.441161036491394,-63.142066955566406,74.90355682373047,-2.465868378845584,-5.6129694907003564,94.71792255257711,-31.546423,4.253778,-2.0856664,44.392,-3.6389146,-8.467972,5.639102,0.06023118,-9.315433,46.46494,-23.351614,1.0210633,-1.5099803,5.6768937,22.143276,20.280134,30.091728,-18.563414,-20.997606,6.0953135,4.8591623,17.50253,-9.566457,-27.42594,31.97011,-19.228485,-7.010581,-2.570041,-12.751053
46,1.519146203994751,-64.69380950927734,74.4173583984375,-2.6462468740112715,-6.157631234659754,94.76158902325912,-32.427406,5.106543,-1.6116368,49.296024,-6.5227523,-7.4921246,4.27423,0.030473791,-9.642654,48.42035,-25.325018,0.89714783,-1.7916294,5.6205215,23.123503,19.194323,30.267868,-18.666105,-20.982866,6.556571,5.189269,18.15604,-9.448189,-27.343676,31.809599,-18.434484,-7.189398,-2.1169267,-12.715209
47,1.601544976234436,-66.22021484375,73.94677734375,-2.848004779653386,-6.656657107943566,94.72556987304466,-33.18485,6.156383,-1.0599141,54.153538,-9.247401,-6.4286647,2.6502745,0.015094345,-9.868624,50.63535,-26.956009,0.7573459,-2.06448,5.565512,24.04566,18.041054,30.408888,-18.792887,-20.97001,7.067948,5.6078734,18.793568,-9.278783,-27.21261,31.70352,-17.619719,-7.438942,-1.5832602,-12.810861
48,1.671127200126648,-67.69878387451172,73.52225494384766,-3.014638800117393,-6.970901306041482,94.5873346456474,-33.7945,7.363279,-0.38889474,58.644115,-11.628626,-5.367653,0.80633867,-0.0052281157,-9.967403,52.784496,-28.209942,0.6265553,-2.276905,5.499698,24.69449,16.886621,30.501844,-18.944038,-21.014961,7.5128245,6.0940814,19.204548,-8.963444,-27.057493,31.676275,-17.00512,-7.760732,-0.99859774,-13.141652
49,1.7284365892410278,-69.15499877929688,73.15299224853516,-3.1457956134726413,-6.996687664738258,94.27581570593445,-34.333992,8.842988,0.5450768,62.776783,-13.587751,-4.257709,-1.4101462,-0.012566838,-9.8777075,54.890682,-29.004482,0.5034798,-2.3587186,5.473875,24.979374,15.749922,30.524227,-19.113817,-21.166578,7.9656453,6.7592783,19.324102,-8.4183,-26.901623,31.726036,-16.683289,-8.309784,-0.2623376,-13.843852
50,1.7559852600097656,-70.56563568115234,72.83186340332031,-3.2680514298720125,-6.831255132170235,93.82448952857087,-34.774033,10.584301,1.6801599,66.71726,-15.252544,-3.0629973,-3.9586067,0.0069316556,-9.634149,57.074757,-29.37529,0.386088,-2.3566415,5.488799,25.030245,14.584451,30.46762,-19.29949,-21.372543,8.46419,7.5704293,19.260096,-7.6906457,-26.755136,31.834993,-16.553009,-9.019231,0.6153257,-14.823472
51,1.7519209384918213,-71.90509796142578,72.54341888427734,-3.3598234518747754,-6.634661410536599,93.36455408356369,-34.94555,12.331364,2.7866983,70.389725,-16.731573,-1.9104317,-6.513237,0.014088535,-9.347997,59.166615,-29.459827,0.2917831,-2.3915627,5.4509425,24.963852,13.370865,30.349977,-19.50121,-21.552454,8.834177,8.286687,19.072206,-6.876394,-26.626421,31.999619,-16.565105,-9.562767,1.42876,-15.849695
52,1.7380144596099854,-73.16763305664062,72.29305267333984,-3.398607129934233,-6.564984808698774,93.03041996749106,-34.705837,13.802317,3.6487744,73.712425,-18.11724,-0.94361365,-8.755998,-0.04268194,-9.129783,61.00902,-29.404669,0.23155898,-2.587457,5.2633886,24.896292,12.098615,30.207613,-19.721275,-21.64166,8.890645,8.670051,18.83018,-6.072751,-26.522245,32.21529,-16.667332,-9.625051,1.956654,-16.70392
53,1.7453383207321167,-74.3785171508789,72.07284545898438,-3.3380808662305106,-6.674483844157833,92.83640896700271,-33.9629,14.930137,4.330373,76.68021,-19.411604,-0.17597133,-10.62968,-0.21674424,-8.968794,62.633186,-29.191448,0.21367466,-2.9625273,4.843651,24.850601,10.824934,30.058487,-19.92554,-21.703402,8.444118,8.569868,18.527655,-5.2611837,-26.450747,32.50973,-16.939919,-8.914644,2.0888782,-17.447426
54,1.7765145301818848,-75.55130767822266,71.89351654052734,-3.199080039168797,-6.873994689975751,92.71637221609166,-32.8203,15.830515,4.947213,79.334854,-20.556635,0.44745737,-12.2983465,-0.4733625,-8.812447,64.09959,-28.759851,0.22835079,-3.454133,4.255236,24.767101,9.561606,29.906654,-20.11459,-21.782608,7.62751,8.146901,18.139324,-4.4028406,-26.415537,32.87674,-17.394547,-7.674377,1.9421155,-18.159716
55,1.8148092031478882,-76.70805358886719,71.7549057006836,-3.060475087122112,-7.108712537955621,92.68942865574533,-31.460672,16.48793,5.3596835,81.676315,-21.555698,0.87531805,-13.782094,-0.74382526,-8.714166,65.31521,-28.208591,0.25372577,-4.06095,3.6224926,24.635757,8.216861,29.774961,-20.360271,-21.776844,6.7323823,7.6315074,17.713972,-3.5544825,-26.411303,33.24665,-17.879496,-6.3955746,1.6425817,-18.65171
56,1.8635896444320679,-77.83720397949219,71.65301513671875,-3.000590615128304,-7.323201924905277,92.7760145732035,-30.074455,16.894749,5.424261,83.70491,-22.413204,1.0586056,-15.10159,-0.96352226,-8.732378,66.18821,-27.637222,0.26596746,-4.769939,3.0667553,24.44942,6.692151,29.696602,-20.747393,-21.58487,6.04706,7.2499857,17.314535,-2.749761,-26.426394,33.53144,-18.259657,-5.5676455,1.3334545,-18.741604
57,1.9180394411087036,-78.97594451904297,71.57782745361328,-3.039940968465192,-7.534459282594141,93.02630639991233,-28.674076,16.99442,5.0436187,85.42444,-23.10987,0.94622225,-16.216473,-1.136243,-8.9241905,66.69632,-27.06502,0.25160766,-5.6143017,2.5999746,24.216242,4.891399,29.711515,-21.349829,-21.139965,5.5860796,7.062926,16.959585,-2.0010931,-26.450075,33.70801,-18.485836,-5.3294168,1.0081645,-18.265312
58,1.9701400995254517,-80.11804962158203,71.52229309082031,-3.1373407692080777,-7.760532391923156,93.41574465331864,-27.177898,16.808233,4.334069,86.840866,-23.65157,0.57155734,-17.133512,-1.2990228,-9.248035,66.89493,-26.444916,0.22150145,-6.565679,2.1523423,23.939705,2.8937283,29.825495,-22.130442,-20.53938,5.198971,6.9492235,16.631063,-1.2633942,-26.476128,33.794994,-18.657701,-5.413543,0.6101998,-17.357073
59,2.017171621322632,-81.2538833618164,71.49937438964844,-3.2748985641160377,-7.947532489426669,93.8526994057725,-25.636086,16.452833,3.464393,87.95858,-24.081867,0.011976883,-17.940664,-1.4354339,-9.617632,66.8029,-25.774984,0.1883377,-7.532904,1.726623,23.611473,0.8682682,30.007523,-22.992956,-19.92225,4.934109,6.8565693,16.336355,-0.4936337,-26.501781,33.77872,-18.85504,-5.701045,0.21039739,-16.292871
60,2.060342788696289,-82.39301300048828,71.5179214477539,-3.433485859579219,-8.042213775134222,94.24497902185709,-24.104612,16.045893,2.595215,88.780525,-24.441723,-0.6510498,-18.725504,-1.5255735,-9.947244,66.43847,-25.052786,0.16585511,-8.437847,1.3371726,23.222185,-1.0224612,30.206577,-23.829515,-19.408735,4.8508825,6.731831,16.075605,0.3396674,-26.52818,33.657166,-19.14557,-6.077577,-0.1164621,-15.347952
61,2.0906760692596436,-83.52350616455078,71.5760726928711,-3.6431851150888686,-8.021573155689675,94.60790254718265,-22.610367,15.642212,1.6996611,89.31803,-24.748466,-1.4074819,-19.482935,-1.5416552,-10.264348,65.75746,-24.306368,0.15240943,-9.31579,1.0185612,22.745455,-2.7690086,30.390184,-24.627289,-18.981728,5.0783257,6.570075,15.847759,1.2363467,-26.560946,33.43601,-19.524134,-6.6672573,-0.359042,-14.492571
62,2.0960497856140137,-84.65625762939453,71.6740951538086,-3.900739322797696,-7.916582984255113,94.97622875560519,-21.116747,15.184052,0.7118206,89.57267,-24.98724,-2.2890792,-20.172104,-1.4963794,-10.603399,64.7627,-23.527142,0.14373623,-10.204256,0.77131224,22.195345,-4.4642,30.55212,-25.433655,-18.557976,5.561496,6.392721,15.644811,2.1734903,-26.602411,33.126892,-19.951242,-7.4800224,-0.5618751,-13.618319
63,2.0672526359558105,-85.78803253173828,71.80741119384766,-4.144819806092551,-7.755976893370311,95.28782543048368,-19.593664,14.614874,-0.27419162,89.5301,-25.147217,-3.274036,-20.826239,-1.4283658,-10.888963,63.53835,-22.656057,0.14943378,-11.032902,0.55883235,21.61954,-6.0922785,30.680788,-26.220207,-18.166466,6.0897374,6.18816,15.454685,3.139297,-26.647709,32.74275,-20.432554,-8.23569,-0.71962,-12.877513
64,2.0317559242248535,-86.92264556884766,71.98039245605469,-4.317474730801695,-7.569292871825953,95.4817004779632,-18.015676,13.872812,-1.1696305,89.17534,-25.21646,-4.3399596,-21.47875,-1.3751073,-11.044828,62.16701,-21.632095,0.17782865,-11.736662,0.33831906,21.061182,-7.633127,30.765282,-26.949354,-17.828438,6.4532895,5.9456477,15.261593,4.111079,-26.687603,32.3068,-20.964336,-8.656474,-0.8155715,-12.42129
65,1.9716358184814453,-88.06941986083984,72.18627166748047,-4.405345691135654,-7.358676676658409,95.53562962343999,-16.34596,12.864843,-2.0360038,88.44805,-25.225277,-5.544202,-22.128532,-1.3333094,-11.052512,60.641598,-20.480473,0.22413503,-12.295067,0.09868808,20.513971,-9.083775,30.796371,-27.60383,-17.5544,6.637473,5.6486783,15.036843,5.106031,-26.715334,31.80955,-21.556898,-8.590495,-0.8260425,-12.343851
66,1.8948538303375244,-89.23550415039062,72.42668151855469,-4.443815532701848,-7.111248506660632,95.4835514185952,-14.611458,11.663551,-2.914907,87.38171,-25.190697,-6.856843,-22.759329,-1.2739786,-10.957574,58.921032,-19.216496,0.28679582,-12.745348,-0.13467711,19.956861,-10.461483,30.771923,-28.200888,-17.313019,6.7452326,5.3082805,14.793918,6.119515,-26.72872,31.249819,-22.194914,-8.214827,-0.7607161,-12.545113
67,1.8042689561843872,-90.4208755493164,72.69852447509766,-4.439031332344493,-6.834934196591243,95.35092608631687,-12.89352,10.4394865,-3.6914754,86.09311,-25.061728,-8.1348915,-23.38402,-1.2023418,-10.774968,57.041744,-17.76748,0.37759188,-13.111883,-0.35876784,19.405823,-11.775448,30.696535,-28.752968,-17.066883,6.742837,4.956374,14.578113,7.0868907,-26.723976,30.667936,-22.817202,-7.744758,-0.6498119,-12.884863
68,1.7076466083526611,-91.63802337646484,72.99575805664062,-4.397479772456875,-6.536282075120522,95.16437421135615,-11.283439,9.34532,-4.2468085,84.69657,-24.76569,-9.254972,-24.016537,-1.1313763,-10.514656,55.040665,-16.060507,0.5075509,-13.422748,-0.5746469,18.875853,-13.026274,30.580433,-29.269459,-16.784777,6.5963016,4.625162,14.434139,7.936751,-26.694931,30.109182,-23.359682,-7.396771,-0.5205457,-13.222368
69,1.6016323566436768,-92.88634490966797,73.30845642089844,-4.310760424462638,-6.215384839353863,94.92128185456912,-9.768971,8.33333,-4.575892,83.15259,-24.253078,-10.31806,-24.662817,-1.0677422,-10.153872,52.92832,-14.097669,0.67948467,-13.679987,-0.79733557,18.364395,-14.209724,30.429775,-29.746492,-16.458416,6.2364383,4.3138204,14.370477,8.661177,-26.634949,29.575613,-23.800175,-7.1999087,-0.34776014,-13.569051
70,1.4675214290618896,-94.1633529663086,73.6390609741211,-4.179601264676983,-5.867721797958423,94.61307700648052,-8.328103,7.336233,-4.7508755,81.420166,-23.558151,-11.356683,-25.31244,-1.0050176,-9.688612,50.679836,-11.911122,0.88760656,-13.872983,-1.0298299,17.86271,-15.322658,30.247787,-30.178394,-16.103975,5.700762,4.008883,14.361879,9.282467,-26.540394,29.052488,-24.161503,-7.0499372,-0.12745178,-13.98289
71,1.314024567604065,-95.47233581542969,73.98080444335938,-4.016827129951195,-5.4936629739069405,94.25707489553486,-7.0395045,6.4631944,-4.751625,79.609055,-22.712236,-12.163635,-25.963436,-0.9434849,-9.152671,48.29439,-9.473362,1.1301693,-14.010358,-1.2577597,17.376308,-16.363415,30.04351,-30.573147,-15.742128,5.116443,3.7230253,14.403487,9.771568,-26.411236,28.560244,-24.438866,-6.963794,0.08515572,-14.391605
72,1.1373684406280518,-96.82575225830078,74.32323455810547,-3.835456749171112,-5.09406809004862,93.87042678315258,-5.9791903,5.8230915,-4.541062,77.83394,-21.737738,-12.5347595,-26.610107,-0.88244873,-8.579656,45.762993,-6.7557573,1.4063054,-14.101046,-1.4687176,16.911318,-17.331726,29.830917,-30.937227,-15.391353,4.606513,3.468858,14.492342,10.097757,-26.250107,28.119814,-24.628162,-6.9602094,0.23538455,-14.722492
73,0.9544436931610107,-98.21539306640625,74.66231536865234,-3.635871735010474,-4.634848079919466,93.43923031380713,-5.227334,5.4931192,-4.003041,76.18862,-20.652405,-12.379137,-27.319223,-0.8158052,-7.9543424,43.08687,-3.6458025,1.6669887,-14.138168,-1.6514567,16.451385,-18.220177,29.621101,-31.270031,-15.068418,4.1791906,3.2613115,14.678082,10.246501,-26.054008,27.72777,-24.718588,-7.0935335,0.31299362,-14.965361
74,0.7631113529205322,-99.63551330566406,74.98822784423828,-3.4133354975786245,-4.127260732693049,92.96156423680677,-4.710359,5.3892884,-3.153786,74.59376,-19.442654,-11.827545,-28.066967,-0.74669033,-7.2583237,40.26412,-0.19102134,1.931854,-14.119928,-1.822678,16.001883,-19.023624,29.420116,-31.567175,-14.7714815,3.7742083,3.0887287,14.947899,10.231441,-25.82187,27.376724,-24.710785,-7.3398995,0.34676984,-15.154572
75,0.5601577758789062,-101.0814437866211,75.29159545898438,-3.170117151943085,-3.6398471545550937,92.47123991585657,-4.2725916,5.381961,-2.1486135,72.90456,-18.089598,-11.00501,-28.713734,-0.6893078,-6.51419,37.28002,3.4006035,2.3056922,-14.06404,-2.0108993,15.6038,-19.737482,29.23413,-31.828001,-14.501567,3.4137275,2.925272,15.206053,10.069382,-25.5643,27.080229,-24.632454,-7.599139,0.3395802,-15.286147
76,0.3521888554096222,-102.547607421875,75.55998229980469,-2.905106600044785,-3.241809839953365,92.00239848384419,-3.767957,5.342493,-1.1548045,70.97464,-16.566427,-10.035662,-29.118488,-0.65832865,-5.734713,34.112514,6.9264035,2.896657,-13.990472,-2.2436228,15.299065,-20.355375,29.069643,-32.05013,-14.26452,3.1188257,2.7464287,15.356232,9.7828045,-25.299978,26.850616,-24.521984,-7.768778,0.2938207,-15.357645
77,0.1395810842514038,-104.02772521972656,75.78752899169922,-2.5946559061334336,-2.941207534464871,91.55377031666086,-3.2031555,5.277111,-0.14347842,68.75468,-14.397027,-8.812482,-29.176985,-0.6690145,-4.863037,30.433958,10.730843,3.8093565,-13.899252,-2.5373707,15.101145,-20.857275,28.931593,-32.219208,-14.081694,2.8962047,2.548726,15.371007,9.38578,-25.041079,26.687197,-24.414759,-7.8028827,0.20813528,-15.360053
78,-0.07975377142429352,-105.50397491455078,75.96388244628906,-2.2401364331593836,-2.708583361863555,91.11341953047531,-2.6310363,5.247794,1.0049255,66.339264,-11.7851515,-7.289927,-28.96926,-0.7154311,-3.867734,26.328506,14.80725,4.9814806,-13.786607,-2.8797717,14.9944515,-21.244095,28.824507,-32.336792,-13.956452,2.7317266,2.3455122,15.302649,8.876639,-24.791983,26.58173,-24.301493,-7.7578225,0.08164661,-15.300791
79,-0.3002835214138031,-106.95112609863281,76.0696792602539,-1.8667992836453142,-2.5564386777365913,90.70156867201928,-1.9866391,5.1694517,2.1892204,63.78816,-9.695992,-5.730225,-28.650278,-0.806063,-2.822216,22.43513,18.402103,6.257966,-13.669955,-3.258678,14.975785,-21.537262,28.753176,-32.4244,-13.875305,2.6172693,2.1381617,15.1754465,8.257614,-24.563177,26.53545,-24.161322,-7.6847377,-0.08263661,-15.201029
80,-0.5379533171653748,-108.36869812011719,76.09282684326172,-1.4990648786141443,-2.4931284128214686,90.3333080310441,-1.2032508,4.9149666,3.2297,61.116325,-9.041658,-4.454965,-28.384933,-0.9603869,-1.845719,19.40855,20.751057,7.4556866,-13.563008,-3.6586418,15.038403,-21.75539,28.721445,-32.50121,-13.830121,2.5460343,1.9276154,15.013774,7.5360827,-24.367645,26.548695,-23.98192,-7.632997,-0.2820475,-15.083746
81,-0.7671807408332825,-109.79537963867188,76.04582977294922,-1.1301323373149545,-2.544163115855679,90.00988301964246,-0.10517454,4.3653617,3.9988203,58.00467,-10.358846,-3.549838,-28.158434,-1.2172297,-1.026531,17.33507,21.538721,8.578278,-13.481011,-4.0970488,15.188168,-21.858112,28.730997,-32.56256,-13.854592,2.5195315,1.7118096,14.816651,6.710966,-24.22095,26.636236,-23.788618,-7.5906405,-0.52241087,-14.934278
82,-0.9803210496902466,-111.24293518066406,75.94876861572266,-0.7537289218676424,-2.6915715095801267,89.71727482494741,1.2153187,3.5974762,4.534986,54.497746,-13.011673,-2.871822,-27.922674,-1.5653152,-0.34759572,15.919782,21.19491,9.662637,-13.409875,-4.5614395,15.426437,-21.843376,28.783533,-32.594337,-13.953347,2.5391612,1.4906712,14.574443,5.791943,-24.128927,26.791618,-23.60223,-7.534481,-0.8025905,-14.750433
83,-1.1894983053207397,-112.66549682617188,75.81573486328125,-0.43111231007122,-2.870485195626831,89.44131882399027,2.3971586,2.820659,4.8995724,51.175842,-16.13215,-2.4074135,-27.808178,-1.906651,0.20007817,15.252404,20.082706,10.569312,-13.311276,-4.96504,15.736709,-21.78972,28.880981,-32.605206,-14.071898,2.5989668,1.2678146,14.29948,4.7960086,-24.085785,26.981253,-23.389296,-7.498965,-1.110658,-14.571725
84,-1.3860623836517334,-114.08287048339844,75.64363098144531,-0.2239793178928474,-3.015785084885598,89.1677691646323,3.0739157,2.2495768,5.20207,48.659496,-18.887587,-2.162403,-27.954689,-2.127764,0.6584413,15.443354,18.558823,11.185615,-13.142566,-5.221987,16.101896,-21.787066,29.02379,-32.611336,-14.144946,2.6900244,1.0467914,14.005173,3.7392461,-24.077772,27.168036,-23.108488,-7.5226865,-1.435589,-14.436032
85,-1.5662484169006348,-115.51314544677734,75.42938232421875,-0.16694004253675912,-3.0894301513813085,88.8820016852478,3.1094277,1.9729751,5.4751096,47.147938,-21.238386,-2.2611692,-28.515501,-2.1328228,1.0953391,16.72391,16.515793,11.428455,-12.886822,-5.2905574,16.49896,-21.871393,29.216215,-32.610416,-14.203518,2.7708986,0.79209054,13.646744,2.5935745,-24.09689,27.34287,-22.76168,-7.6175003,-1.8364725,-14.336719
86,-1.7499990463256836,-116.99962615966797,75.18351745605469,-0.2256168060359867,-3.131072892032079,88.59179506661047,2.6927376,1.9066861,5.703449,46.328743,-23.579147,-2.6466374,-29.403618,-1.9647638,1.474239,19.011253,13.816131,11.389487,-12.563506,-5.218437,16.940756,-21.99412,29.459015,-32.599453,-14.263736,2.8579042,0.5141295,13.234893,1.3583941,-24.14184,27.521263,-22.36081,-7.7668586,-2.2994404,-14.2578745
87,-1.9241999387741089,-118.51874542236328,74.89751434326172,-0.34509799864250457,-3.1976926257345424,88.32124980507928,1.9494764,1.975506,5.927398,46.07686,-25.753916,-3.073704,-30.388664,-1.7415023,1.7066492,21.93799,10.772812,11.236643,-12.187738,-5.0666366,17.46257,-22.118837,29.741722,-32.598965,-14.232054,3.034264,0.28451014,12.866047,0.08726613,-24.205734,27.70553,-21.8732,-7.965278,-2.70368,-14.223686
88,-2.086273670196533,-120.05017852783203,74.58969116210938,-0.4704063569066164,-3.345371444911217,88.09459765480649,1.0098329,2.0959466,6.165068,46.260376,-27.605944,-3.2956927,-31.23091,-1.5994594,1.6980609,25.122875,7.7053604,11.130125,-11.77211,-4.891034,18.096998,-22.215508,30.043245,-32.63739,-14.0027275,3.3892674,0.17363557,12.636713,-1.168804,-24.277431,27.901491,-21.256166,-8.207183,-2.9283412,-14.255257
89,-2.2343690395355225,-121.608642578125,74.27735900878906,-0.5943384095895335,-3.6521080882709684,87.90656188632116,-0.13507052,2.2677858,6.414102,47.044212,-29.137726,-3.22997,-31.8433,-1.56167,1.465397,28.565016,4.5319033,11.173263,-11.275265,-4.6979003,18.94268,-22.398424,30.349045,-32.779446,-13.438763,3.8647625,0.19430381,12.593783,-2.4510343,-24.340378,28.11147,-20.400558,-8.51246,-2.9043365,-14.375927
90,-2.3720924854278564,-123.16119384765625,73.97419738769531,-0.7319433737011019,-4.074374061984654,87.75608817882764,-1.5295968,2.5114791,6.646173,48.42987,-30.42209,-3.0063846,-32.330338,-1.5998347,1.0463558,32.39476,1.1540468,11.262991,-10.707049,-4.4661527,19.94441,-22.66904,30.649172,-33.013344,-12.5948305,4.4444184,0.31197932,12.675809,-3.7793398,-24.384542,28.341496,-19.333895,-8.877735,-2.7071273,-14.561367
91,-2.5052759647369385,-124.68806457519531,73.71949005126953,-0.8763876562914132,-4.481008553813389,87.67109589110747,-3.100718,2.7810266,6.835858,50.039074,-31.405642,-2.6995263,-32.728615,-1.78016,0.3892974,36.40707,-2.1241121,11.244744,-10.155765,-4.2014613,20.90492,-22.82799,30.927603,-33.243896,-11.663491,5.2788773,0.52582943,12.81294,-5.070051,-24.411407,28.604681,-18.22069,-9.259802,-2.4334903,-14.765744
92,-2.614879846572876,-126.19650268554688,73.5242691040039,-1.024655049869116,-4.740053863984693,87.67718783651655,-4.779816,3.0346684,6.9647284,51.497295,-32.034653,-2.3851964,-33.071697,-2.1633766,-0.535572,40.397465,-4.9978504,10.964578,-9.707789,-3.9153361,21.629728,-22.67292,31.169374,-33.36387,-10.837509,6.5203385,0.8344685,12.9324255,-6.230728,-24.43485,28.906353,-17.239807,-9.61615,-2.1806843,-14.948612
93,-2.705599546432495,-127.64500427246094,73.39533233642578,-1.1941105205004015,-4.763862459479519,87.82670240532849,-6.7051387,3.2944658,7.013874,52.86002,-32.23162,-2.050598,-33.429108,-2.8424313,-1.8393035,44.426888,-7.3576255,10.296445,-9.419107,-3.597877,22.036854,-22.15446,31.366522,-33.367897,-10.096505,8.463472,1.3262622,12.994832,-7.228891,-24.468075,29.246164,-16.409788,-9.992628,-1.926757,-15.110188
94,-2.782845973968506,-129.0393524169922,73.30352783203125,-1.3789017806380914,-4.640257916015984,88.0896569000471,-8.855104,3.5706847,6.9977655,54.264263,-32.043297,-1.6727047,-33.723564,-3.8009915,-3.424819,48.549206,-9.385093,9.328408,-9.227911,-3.251751,22.244888,-21.379547,31.517311,-33.299076,-9.359366,10.949843,1.9741424,13.0222435,-8.104322,-24.514847,29.61638,-15.661822,-10.389864,-1.6348691,-15.272319
95,-2.838649272918701,-130.3721923828125,73.23651885986328,-1.5453950887646275,-4.49926347218016,88.3701616417065,-10.935,3.8121486,6.9518943,55.4741,-31.597208,-1.3085554,-33.7814,-4.9023924,-5.0257936,52.552204,-11.206921,8.237657,-9.045155,-2.9069746,22.358227,-20.386421,31.620005,-33.121197,-8.71867,13.445942,2.5993423,13.050372,-8.873429,-24.582964,30.005539,-15.049882,-10.699383,-1.3816466,-15.429436
96,-2.8947856426239014,-131.6575927734375,73.20543670654297,-1.663949203918499,-4.470542072387969,88.57030054114767,-12.653334,3.9736364,6.9174323,56.263435,-31.03107,-1.0115637,-33.456715,-5.9689236,-6.400492,56.234417,-12.944282,7.2254596,-8.78595,-2.5880046,22.479765,-19.201653,31.67562,-32.7903,-8.280321,15.416603,3.0264292,13.1399145,-9.553161,-24.684368,30.407194,-14.629202,-10.813388,-1.2440355,-15.579222
97,-2.9568564891815186,-132.8982696533203,73.21501159667969,-1.731584277810082,-4.626918404122696,88.66421316749391,-13.898184,4.0492654,6.8964777,56.594833,-30.376516,-0.80320466,-32.66869,-6.9886117,-7.588479,59.63537,-14.636142,6.2940555,-8.426829,-2.3006244,22.660597,-17.78989,31.678228,-32.254704,-8.093064,16.84903,3.1453934,13.324178,-10.124933,-24.836386,30.820097,-14.482493,-10.624018,-1.2660322,-15.7462
98,-3.0174360275268555,-134.1174774169922,73.27752685546875,-1.7659018475487078,-4.885870709526287,88.70398118222239,-14.839582,4.0667853,6.8748584,56.587177,-29.566105,-0.65193766,-31.512619,-8.020225,-8.70162,62.842087,-16.222057,5.358666,-8.015361,-2.0270655,22.841606,-16.14121,31.622814,-31.54914,-8.112019,17.984512,3.0733123,13.583238,-10.576983,-25.048946,31.24318,-14.580093,-10.212647,-1.3998154,-15.926011
99,-3.079789400100708,-135.33074951171875,73.3867416381836,-1.7677981603984447,-5.143198273065858,88.7060042899938,-15.614768,4.036521,6.8709383,56.26136,-28.597095,-0.5271711,-30.145727,-8.960539,-9.629105,65.736336,-17.652605,4.511704,-7.570892,-1.7548169,22.957344,-14.330856,31.514986,-30.764198,-8.297048,18.661032,2.9760034,13.908117,-10.940106,-25.318174,31.669977,-14.802606,-9.754638,-1.5840619,-16.0716
100,-3.138605833053589,-136.53189086914062,73.53675079345703,-1.7383028256417579,-5.293269077894788,88.68541824657149,-16.358694,3.97041,6.903747,55.634464,-27.465153,-0.39804858,-28.743681,-9.700713,-10.2659025,68.206856,-18.872297,3.84981,-7.1106277,-1.4736382,22.94144,-12.433138,31.368643,-29.98797,-8.608028,18.714756,3.015765,14.285456,-11.247755,-25.628387,32.095177,-15.021282,-9.428328,-1.7567521,-16.135948
101,-3.1929771900177,-137.72164916992188,73.73088836669922,-1.6669398776791213,-5.3223835012177165,88.61132804549894,-17.05922,3.8656478,7.018936,54.675056,-26.209547,-0.2389202,-27.349764,-10.200088,-10.5441065,70.262245,-19.855572,3.4040468,-6.6190443,-1.1968713,22.771929,-10.395835,31.18694,-29.212496,-9.105739,17.797218,3.2482502,14.742026,-11.544026,-25.975424,32.550365,-15.1948185,-9.310937,-1.9137896,-16.09878
102,-3.2466936111450195,-138.90052795410156,73.97232055664062,-1.5578537959766332,-5.280745982223931,88.48583786351644,-17.659842,3.7225776,7.196456,53.38695,-24.822033,-0.06984467,-25.899178,-10.504011,-10.555692,71.964294,-20.627172,3.1322842,-6.094049,-0.9336903,22.48849,-8.193185,30.965261,-28.401043,-9.807402,16.089039,3.5667832,15.286737,-11.808551,-26.358164,33.03024,-15.386573,-9.29928,-2.0841115,-15.986538
103,-3.289808988571167,-140.0739288330078,74.26034545898438,-1.4356737580588688,-5.1579623816370255,88.37310116170104,-18.228281,3.55556,7.357284,51.83531,-23.225855,0.070717625,-24.413519,-10.634769,-10.433812,73.288124,-21.208525,3.015785,-5.569896,-0.6701272,22.113272,-5.936708,30.711388,-27.596651,-10.600691,14.225764,3.8966632,15.873183,-11.980079,-26.757298,33.47238,-15.621328,-9.304971,-2.2548056,-15.821511
104,-3.3193204402923584,-141.25506591796875,74.59369659423828,-1.328713883233655,-4.945045631364172,88.33741088602082,-18.835133,3.3755562,7.4219537,50.090424,-21.340109,0.14359823,-22.91266,-10.616834,-10.304232,74.207756,-21.622309,3.0338528,-5.075609,-0.39324602,21.66329,-3.744421,30.440771,-26.849554,-11.359525,12.84619,4.1794314,16.443714,-12.001268,-27.142273,33.80961,-15.905892,-9.243118,-2.413262,-15.622093
105,-3.321805477142334,-142.4356231689453,74.96708679199219,-1.230378985564121,-4.592262115984112,88.38694690004576,-19.524624,3.1614542,7.378961,48.111145,-19.131777,0.15483959,-21.42997,-10.433544,-10.145349,74.68521,-21.855873,3.211912,-4.6106296,-0.10427497,21.084534,-1.6059889,30.164907,-26.166029,-12.084474,12.0842,4.444531,17.020306,-11.851408,-27.484564,34.012207,-16.215322,-9.117997,-2.564324,-15.328589
106,-3.2991738319396973,-143.6193389892578,75.37908935546875,-1.1311892499991296,-4.120700439830681,88.48996089075341,-20.245365,2.9060357,7.2723165,45.872707,-16.645037,0.119603276,-19.953897,-10.079298,-9.9051695,74.75444,-21.907482,3.5476737,-4.1598663,0.17933118,20.381222,0.5331121,29.88599,-25.525381,-12.829109,11.607211,4.7158384,17.619463,-11.58569,-27.773533,34.124516,-16.51477,-8.972492,-2.712656,-14.947325
107,-3.2529375553131104,-144.82244873046875,75.81633758544922,-1.0461196534350954,-3.626904981735351,88.64997029852847,-20.920439,2.638445,7.1012235,43.458878,-13.912858,0.012187226,-18.435387,-9.596198,-9.656828,74.49225,-21.813334,3.9763536,-3.7341008,0.45380655,19.655722,2.6197524,29.609217,-24.929539,-13.538845,11.357932,4.939154,18.16528,-11.26135,-28.007635,34.194717,-16.799217,-8.778748,-2.8447778,-14.596634
108,-3.188946485519409,-146.0337371826172,76.26994323730469,-0.993677749644639,-3.2073155441443304,88.87055843783762,-21.480087,2.3907747,6.857545,40.95968,-10.966843,-0.19378032,-16.82652,-9.02612,-9.471016,73.975105,-21.607265,4.4344807,-3.3435256,0.7203989,19.011494,4.598171,29.341455,-24.379782,-14.159683,11.282165,5.0600524,18.58256,-10.9278145,-28.192844,34.265533,-17.071486,-8.509475,-2.9475734,-14.394893
109,-3.0994021892547607,-147.24801635742188,76.72564697265625,-0.95885119215086,-2.861608896895604,89.16622330685362,-21.943562,2.136942,6.529251,38.36711,-7.665317,-0.38108882,-15.092075,-8.376797,-9.344387,73.142494,-21.341963,4.9904704,-2.999047,0.96692616,18.456112,6.4768705,29.089159,-23.855433,-14.683584,11.499229,5.052088,18.826317,-10.580684,-28.329962,34.346203,-17.344141,-8.075093,-3.0041337,-14.416177
110,-2.997954845428467,-148.47256469726562,77.1697998046875,-0.9370216619732865,-2.5464902062922734,89.53006044924655,-22.340086,1.8675209,6.1199684,35.64725,-4.0401683,-0.57810414,-13.268722,-7.630115,-9.231064,71.97998,-20.985098,5.645587,-2.6979375,1.1990056,17.941463,8.290133,28.856998,-23.348972,-15.145848,11.995489,4.952314,18.943882,-10.204494,-28.41575,34.421272,-17.61056,-7.5173807,-3.0278077,-14.584248
111,-2.886451482772827,-149.70191955566406,77.59115600585938,-0.9571579805372957,-2.2932812971681997,89.93192835066948,-22.613403,1.6320919,5.621645,32.846096,-0.3777936,-1.0346496,-11.416912,-6.7852974,-9.1356735,70.63356,-20.44014,6.2409487,-2.427831,1.4482546,17.489073,10.016691,28.651102,-22.879139,-15.554912,12.517617,4.7994156,18.998558,-9.826734,-28.456352,34.492107,-17.847929,-7.005747,-3.0496988,-14.7911
112,-2.7625327110290527,-150.94061279296875,77.97184753417969,-1.056693380636094,-2.134979277621624,90.34000588980496,-22.69732,1.4761604,4.9991083,29.988125,3.0479987,-2.0080438,-9.59463,-5.8332205,-9.065447,69.24847,-19.606842,6.6222844,-2.1733203,1.7531186,17.1227,11.635518,28.478436,-22.464575,-15.921076,12.814453,4.6322064,19.05223,-9.466659,-28.465395,34.555935,-18.04555,-6.709913,-3.0977216,-14.928421
113,-2.62959361076355,-152.1923065185547,78.29700469970703,-1.2854094977167878,-2.0847560041875433,90.75561878147992,-22.457975,1.4251456,4.141387,26.704464,6.479941,-3.8190067,-7.775686,-4.682484,-9.018572,67.80929,-18.48913,6.819644,-1.9283773,2.1654203,16.852531,13.154707,28.352133,-22.110825,-16.238262,12.81764,4.4514136,19.132082,-9.109046,-28.455263,34.61874,-18.218466,-6.7065024,-3.16997,-15.00062
114,-2.475341796875,-153.43771362304688,78.55757141113281,-1.63208164585532,-2.1291639516591663,91.18680363941101,-21.93537,1.4583243,3.0198104,23.040184,9.991615,-6.276355,-5.93273,-3.3438911,-8.981035,66.24513,-17.120089,6.890842,-1.6960251,2.6752844,16.677124,14.596925,28.280083,-21.794647,-16.524395,12.6614485,4.2398562,19.202108,-8.734035,-28.431889,34.67154,-18.393661,-6.892896,-3.253181,-15.055275
115,-2.3071000576019287,-154.65646362304688,78.7423095703125,-2.041090893993526,-2.259538242336847,91.61449414755388,-21.33196,1.5702587,1.7685156,19.666655,13.037837,-8.851457,-4.115889,-1.9668825,-8.959613,64.61079,-15.438422,6.721887,-1.4763845,3.2305543,16.600409,15.951655,28.257504,-21.496326,-16.814978,12.398296,4.009694,19.226585,-8.357912,-28.400957,34.687855,-18.565033,-7.1669545,-3.3574417,-15.04868
116,-2.125042676925659,-155.86097717285156,78.8446273803711,-2.4247929456652018,-2.45753934391072,92.03099709723762,-20.903936,1.7320995,0.6127321,17.34449,15.041285,-10.977262,-2.3920355,-0.7433995,-8.981452,62.982304,-13.392996,6.201284,-1.2754362,3.7519648,16.612778,17.185184,28.269724,-21.210564,-17.120796,12.082034,3.7731369,19.169363,-7.9900336,-28.366993,34.63755,-18.734282,-7.4270835,-3.4938455,-14.9378
117,-1.9445501565933228,-157.0665283203125,78.88983154296875,-2.769782614562013,-2.745602080081808,92.45668787144439,-20.72174,1.9492413,-0.32339025,16.341597,15.704322,-12.548729,-0.80919224,0.28405935,-9.093975,61.50257,-10.627519,5.117409,-1.1061494,4.2242913,16.725279,18.300322,28.31216,-20.940573,-17.420881,11.685651,3.5052464,18.988268,-7.6227374,-28.329124,34.507378,-18.904247,-7.6861506,-3.690356,-14.672077
118,-1.7945574522018433,-158.30844116210938,78.88589477539062,-3.0935428903334383,-3.114568036702946,92.90164534830464,-20.69199,2.2117083,-1.0942708,16.294603,15.360381,-13.818925,0.66053534,1.1360503,-9.343383,60.12573,-7.3026314,3.5611277,-0.9679445,4.6656823,16.926922,19.283693,28.384642,-20.701881,-17.687973,11.196716,3.2106802,18.711649,-7.2439175,-28.290297,34.30785,-19.080963,-7.983666,-3.9345303,-14.288393
119,-1.6665055751800537,-159.57644653320312,78.83980560302734,-3.3389076606233945,-3.4911411359867217,93.34999018561061,-20.862099,2.4298089,-1.7195488,17.071648,14.364947,-14.747871,2.052158,1.7233988,-9.735144,58.65941,-4.166072,1.8974783,-0.87205535,5.0191593,17.171705,20.108444,28.482649,-20.481874,-17.949034,10.690794,2.9431565,18.404589,-6.885549,-28.251692,34.069736,-19.24037,-8.256309,-4.1757207,-13.879072
120,-1.557732105255127,-160.8661346435547,78.7358169555664,-3.4508230441355194,-3.806070327620744,93.77457895541563,-21.259642,2.5260086,-2.1536431,18.516998,13.082261,-15.000033,3.4107034,2.0294375,-10.191516,56.89063,-1.957289,0.5488723,-0.81909746,5.236597,17.41512,20.744965,28.596994,-20.269693,-18.227592,10.245315,2.7543867,18.132544,-6.5785093,-28.212622,33.824917,-19.360706,-8.443278,-4.361527,-13.535707
121,-1.4559816122055054,-162.18426513671875,78.5706787109375,-3.391753499546369,-4.036510470801639,94.17559769308608,-21.919151,2.4255056,-2.6012635,20.672525,11.505881,-15.000033,4.817367,2.027243,-10.717679,54.529747,-0.6639076,-0.3419551,-0.82100743,5.2791996,17.642836,21.196272,28.719137,-20.05211,-18.533422,9.862587,2.6508002,17.871948,-6.3504653,-28.173876,33.575924,-19.436794,-8.522736,-4.492797,-13.255685
122,-1.3553426265716553,-163.52349853515625,78.34432220458984,-3.270115920130675,-4.223882295923437,94.54424572406728,-22.847086,2.2571907,-3.138133,23.664574,9.435174,-15.000033,6.2392974,1.893443,-11.333265,51.71128,0.06858379,-0.9728963,-0.85756963,5.2532744,17.879347,21.46824,28.84632,-19.8405,-18.842741,9.51155,2.6066692,17.600561,-6.1820984,-28.135323,33.312725,-19.475103,-8.529679,-4.590837,-12.999011
123,-1.2712453603744507,-164.90928649902344,78.02476501464844,-3.086691344014341,-4.40736661580453,94.87946277323155,-23.868511,2.0940154,-3.4914272,27.160639,7.1065793,-14.692283,7.5416946,1.7343704,-11.899381,48.950405,-0.03591171,-1.3519882,-0.9219022,5.165171,18.148537,21.540527,28.977486,-19.662659,-19.13232,9.219749,2.623588,17.38721,-6.0383897,-28.094345,33.048244,-19.462381,-8.488877,-4.6330166,-12.799773
124,-1.1959567070007324,-166.32400512695312,77.65345764160156,-2.9058569515748673,-4.617878937509164,95.16144495356889,-24.875313,2.0889506,-3.5164292,30.949757,4.6876774,-13.998478,8.596985,1.6864461,-12.279528,46.70511,-1.2060665,-1.5581865,-0.9890444,5.0827403,18.465858,21.392326,29.112942,-19.545101,-19.37783,9.014778,2.702127,17.300938,-5.8890705,-28.046133,32.798183,-19.38147,-8.425403,-4.5972815,-12.6922455
125,-1.1245415210723877,-167.7494354248047,77.2389144897461,-2.7026386385245216,-4.860168766567893,95.39930564730373,-25.865904,2.245586,-3.241161,35.082966,2.1436431,-13.058851,9.437437,1.7365165,-12.426176,44.97986,-3.8936903,-1.6209952,-1.0644395,4.9892488,18.827934,20.969305,29.258753,-19.518652,-19.531607,8.917841,2.835912,17.396711,-5.7419314,-27.984646,32.57052,-19.203478,-8.293777,-4.481924,-12.705191
126,-1.061790108680725,-169.178955078125,76.77777862548828,-2.463821605400073,-5.120491241540108,95.59496651568766,-26.858881,2.535125,-2.7645876,39.587868,-0.57963306,-11.844485,10.114007,1.7931831,-12.419299,43.541916,-7.8172116,-1.5603172,-1.1514214,4.8658867,19.228397,20.29984,29.415495,-19.562778,-19.62199,8.90829,3.026476,17.62702,-5.61064,-27.907707,32.35472,-18.940136,-8.099279,-4.297866,-12.812504
127,-1.0184431076049805,-170.6081085205078,76.26239013671875,-2.2427865362584005,-5.399399310183123,95.7197678663599,-27.771269,3.0344687,-2.14547,44.223835,-3.3474236,-10.5040245,10.510927,1.8307045,-12.307781,42.54272,-12.14181,-1.4511578,-1.229286,4.7468886,19.677492,19.489008,29.572006,-19.623735,-19.736794,8.951614,3.2855628,17.904795,-5.480691,-27.818521,32.143997,-18.627575,-7.942831,-4.0419536,-12.967068
128,-0.9957179427146912,-172.0458221435547,75.68518829345703,-2.0965912673504197,-5.696301899291551,95.74730625011263,-28.538412,3.8183308,-1.4324653,48.78713,-6.035133,-9.185439,10.513587,1.8505301,-12.127933,42.137512,-16.047445,-1.3160383,-1.2831138,4.6732583,20.184633,18.639198,29.709658,-19.647537,-19.958298,9.015839,3.6245413,18.141129,-5.3393893,-27.723711,31.934137,-18.303036,-7.923347,-3.7099109,-13.122421
129,-0.9908796548843384,-173.51121520996094,75.07245635986328,-2.0201948702727344,-6.098661328813071,95.67260983120589,-29.094633,4.95841,-0.5250566,53.382603,-8.727845,-7.874588,10.120912,1.8299044,-11.829954,42.513176,-19.562002,-1.0484132,-1.3103117,4.637415,20.842773,17.715378,29.823046,-19.632809,-20.285402,9.145527,4.095387,18.356815,-5.2157803,-27.627375,31.723082,-17.915483,-8.096882,-3.2599037,-13.283492
130,-0.9856502413749695,-174.98971557617188,74.43154907226562,-1.9896123945509656,-6.578659512536172,95.51159705717916,-29.470516,6.425342,0.53209424,58.07997,-11.483263,-6.4971213,9.37415,1.7814189,-11.429749,43.57142,-23.074621,-0.66746897,-1.3230747,4.628386,21.615686,16.671864,29.910742,-19.609993,-20.664452,9.341797,4.674732,18.58068,-5.112688,-27.530188,31.516325,-17.45923,-8.397176,-2.7061553,-13.467557
131,-0.9858248829841614,-176.4766845703125,73.79219055175781,-2.039525276370704,-6.960459084007579,95.27003298125526,-29.776068,8.115139,1.5069944,62.654476,-14.122299,-5.1183424,8.230486,1.7774627,-11.033629,45.02017,-26.308323,-0.3358602,-1.3332264,4.686061,22.319805,15.595464,29.954634,-19.56826,-21.101418,9.512612,5.262531,18.734676,-4.9693694,-27.433252,31.323095,-17.054714,-8.744781,-2.1285915,-13.648525
132,-0.9654843211174011,-177.9432830810547,73.20829772949219,-2.2023313693588356,-7.067509016730013,94.95290100599844,-30.146154,9.892276,2.2001193,66.88397,-16.44825,-3.8143346,6.6546326,1.8892384,-10.727954,46.54308,-28.959755,-0.21090916,-1.359729,4.8474274,22.771374,14.579885,29.928165,-19.482534,-21.603039,9.5729065,5.756522,18.741018,-4.729416,-27.34041,31.160664,-16.82212,-9.06062,-1.6077584,-13.804057
133,-0.9456631541252136,-179.42221069335938,72.69525146484375,-2.566268834064672,-6.753469297736331,94.51270438246148,-30.793213,11.864987,2.5939243,70.82628,-18.386068,-2.543639,4.4574475,2.2234497,-10.528772,48.12091,-30.919828,-0.38016132,-1.3797231,5.221094,22.857986,13.691153,29.796408,-19.291937,-22.249592,9.5173645,6.169357,18.530502,-4.351851,-27.258812,31.019289,-16.826023,-9.4081135,-1.1200948,-13.920685
134,-0.9670539498329163,-180.8759765625,72.25391387939453,-3.0900699086716847,-6.149711629023695,93.95879869670598,-31.603373,14.031846,2.8045678,74.57561,-20.039179,-1.2909297,1.7313306,2.7253456,-10.389166,49.873367,-32.34906,-0.7304648,-1.3971658,5.76337,22.695593,12.853846,29.552273,-19.014238,-22.98451,9.402235,6.5402513,18.154688,-3.8827446,-27.192472,30.90753,-16.988483,-9.800102,-0.6368707,-14.015353
135,-1.048161506652832,-182.22671508789062,71.881591796875,-3.611458135437865,-5.492308267635222,93.38225265556974,-32.237244,16.072073,2.8774002,77.96571,-21.458248,-0.18458785,-1.1374038,3.2101512,-10.286384,51.688282,-33.33688,-1.1206102,-1.4682432,6.273941,22.445072,11.960639,29.223715,-18.742079,-23.628283,9.228256,6.8077784,17.720663,-3.387822,-27.13931,30.863516,-17.207304,-10.083976,-0.23239392,-14.1133375
136,-1.1435365676879883,-183.49293518066406,71.57757568359375,-3.9602347833480853,-5.010812915235993,92.8799352994091,-32.351006,17.667168,2.886757,80.832214,-22.69478,0.64359117,-3.7747588,3.486387,-10.179893,53.468925,-33.9753,-1.4091442,-1.6539646,6.5443997,22.270872,10.916345,28.858244,-18.574959,-24.020369,8.984146,6.9121614,17.340786,-2.9260466,-27.091599,30.91589,-17.389774,-10.106089,0.018037962,-14.241424
137,-1.2146681547164917,-184.72116088867188,71.33021545410156,-4.061445308325582,-4.7544375996653265,92.44085228240803,-31.79545,18.739378,2.9315553,83.11267,-23.723381,1.1315303,-6.1527286,3.4776912,-10.01696,55.292297,-34.214207,-1.5619627,-1.942041,6.4767704,22.199774,9.752079,28.471636,-18.51133,-24.187023,8.600408,6.7621775,17.02642,-2.4920034,-27.042213,31.090746,-17.551378,-9.698855,0.03733772,-14.466705
138,-1.2684108018875122,-185.9422607421875,71.14912414550781,-4.010395226308878,-4.600078818514001,92.02693818108415,-30.775288,19.446526,2.999712,84.91302,-24.52096,1.3539293,-8.449427,3.291663,-9.816731,57.17293,-34.025562,-1.6523243,-2.3076377,6.183874,22.14986,8.52451,28.063251,-18.501408,-24.220615,8.091951,6.4175973,16.728342,-2.0619588,-26.987003,31.362892,-17.728306,-8.988293,-0.119633906,-14.752928
139,-1.309914231300354,-187.16046142578125,71.0323486328125,-3.8860239511036188,-4.5163040689689185,91.69891940880139,-29.485813,19.824465,2.9953144,86.32943,-25.140854,1.3814902,-10.605759,3.008651,-9.63725,58.92517,-33.544098,-1.6971387,-2.788667,5.7685623,22.120409,7.1714873,27.66751,-18.586056,-24.069408,7.567249,6.0445404,16.473291,-1.65399,-26.923521,31.673283,-17.869497,-8.264713,-0.32735342,-14.971031
140,-1.335681438446045,-188.35279846191406,70.97228240966797,-3.7679589861935203,-4.473093926927885,91.51782325536769,-28.123846,19.913965,2.8114316,87.45428,-25.64115,1.284726,-12.564261,2.7037268,-9.544241,60.37247,-32.91057,-1.7139299,-3.4071865,5.3317876,22.11287,5.6251574,27.33909,-18.824257,-23.69096,7.1265182,5.809033,16.299099,-1.2585849,-26.849356,31.940798,-17.947676,-7.816651,-0.45619872,-14.995726
141,-1.3595399856567383,-189.53958129882812,70.9548568725586,-3.653930806954394,-4.510142762642347,91.52970292995523,-26.657215,19.638311,2.372046,88.26873,-26.016853,1.0349717,-14.281379,2.3531384,-9.568101,61.513268,-32.114063,-1.6899884,-4.1942463,4.8447914,22.17324,3.8124163,27.128145,-19.276209,-23.039381,6.7612267,5.773993,16.251583,-0.8895983,-26.76314,32.157692,-17.94212,-7.7615843,-0.4720838,-14.723589
142,-1.3721531629562378,-190.73452758789062,70.97605895996094,-3.5086564049282245,-4.628073691497045,91.69108664592937,-25.012558,19.010445,1.7480404,88.742226,-26.246927,0.6137082,-15.801334,1.9237818,-9.664519,62.433163,-31.098297,-1.6214904,-5.100778,4.2516255,22.28455,1.7997857,27.040691,-19.922375,-22.189596,6.403555,5.844554,16.318598,-0.5142153,-26.661394,32.333427,-17.910284,-7.931559,-0.44565976,-14.243753
143,-1.3835760354995728,-191.92372131347656,71.03656768798828,-3.3623121350019085,-4.738169638045537,91.92916179913092,-23.327934,18.212597,1.0487344,88.95229,-26.369154,0.110012844,-17.196741,1.474263,-9.795144,63.086082,-29.935925,-1.5397757,-6.03786,3.619552,22.357292,-0.27163622,27.054062,-20.700583,-21.277386,6.070587,5.9493566,16.449324,-0.05840796,-26.54047,32.417393,-17.928247,-8.185828,-0.4023186,-13.721476
144,-1.4000732898712158,-193.09852600097656,71.14444732666016,-3.2455982381410036,-4.751366317739058,92.17241587711193,-21.745089,17.42332,0.3825518,88.97403,-26.41563,-0.38953426,-18.540192,1.0632656,-9.925852,63.42674,-28.700586,-1.4760116,-6.9302335,3.029829,22.30734,-2.266022,27.131245,-21.538837,-20.422451,5.7884126,6.017685,16.586042,0.54442096,-26.399584,32.36636,-18.065853,-8.383551,-0.36362916,-13.322694
145,-1.4310455322265625,-194.25857543945312,71.29011535644531,-3.174560540968857,-4.633201651541362,92.43409551983837,-20.315786,16.674942,-0.27161556,88.841415,-26.404842,-0.82330775,-19.854195,0.69446975,-10.080707,63.436882,-27.40817,-1.4500396,-7.8036647,2.5210178,22.099134,-4.178273,27.251074,-22.445004,-19.622578,5.5996866,6.059594,16.734,1.3392708,-26.237116,32.158607,-18.348974,-8.5131,-0.33202034,-13.075451
146,-1.466363549232483,-195.39866638183594,71.4769515991211,-3.130880712560844,-4.434263485458153,92.74188485726616,-18.961523,15.883729,-0.9646548,88.51432,-26.317572,-1.2475436,-21.09928,0.33490658,-10.269119,63.145382,-26.022326,-1.4407738,-8.694122,2.060083,21.784477,-6.081842,27.406218,-23.454739,-18.809334,5.48526,6.1024823,16.911863,2.2759936,-26.053444,31.828007,-18.736492,-8.640334,-0.29632735,-12.89703
147,-1.5145820379257202,-196.5315399169922,71.70819091796875,-3.0943426158159806,-4.1926200760054835,93.0471296721881,-17.63655,15.049071,-1.6315883,87.95716,-26.128828,-1.7524865,-22.254116,-0.007239243,-10.43803,62.574352,-24.536705,-1.4195694,-9.55351,1.6275709,21.415388,-7.9478073,27.578922,-24.519339,-18.014885,5.3874474,6.102309,17.076189,3.2705162,-25.852707,31.424011,-19.18415,-8.741004,-0.2546283,-12.788275
148,-1.5665829181671143,-197.6492156982422,71.9770736694336,-3.046603022351371,-3.946663038419645,93.3017300788692,-16.297703,14.166602,-2.2102034,87.13455,-25.81704,-2.4285839,-23.296843,-0.31702265,-10.537534,61.743343,-22.943892,-1.3595214,-10.338201,1.2014248,21.041618,-9.742459,27.750187,-25.578737,-17.269653,5.25471,6.0146704,17.179825,4.231194,-25.64252,31.004229,-19.642118,-8.790095,-0.20412216,-12.75171
149,-1.6256177425384521,-198.76951599121094,72.28929138183594,-2.9895911989096606,-3.7016540802014264,93.50857903291728,-14.913234,13.238026,-2.7021782,86.01228,-25.387302,-3.3119557,-24.202885,-0.5786055,-10.578313,60.623615,-21.27728,-1.2508622,-11.051977,0.7843299,20.664728,-11.4804735,27.911024,-26.627626,-16.563234,5.0858846,5.803498,17.20471,5.1644297,-25.430096,30.574087,-20.118597,-8.731324,-0.13851121,-12.840567
150,-1.6960926055908203,-199.90797424316406,72.64326477050781,-2.9324630195095245,-3.4382082275000796,93.68872109232588,-13.516691,12.264765,-3.1490796,84.617905,-24.85816,-4.3447566,-24.989162,-0.7974465,-10.58504,59.21396,-19.529922,-1.1110234,-11.718911,0.39226046,20.262934,-13.176368,28.060404,-27.686258,-15.876707,4.911759,5.5005407,17.172434,6.109017,-25.217236,30.112534,-20.634695,-8.592439,-0.060661342,-13.038366
151,-1.776185393333435,-201.04933166503906,73.03502655029297,-2.864308450612087,-3.1581596590832226,93.8212184555084,-12.165541,11.240322,-3.5502427,83.004524,-24.225391,-5.4773765,-25.698507,-0.98378474,-10.53191,57.57623,-17.632986,-0.9545701,-12.325019,0.018995535,19.847328,-14.801541,28.195772,-28.728634,-15.218391,4.7291255,5.1627593,17.0936,7.016638,-25.00302,29.637661,-21.147299,-8.475234,0.019604115,-13.24309
152,-1.8716223239898682,-202.19772338867188,73.45820617675781,-2.776081696829556,-2.8630011094097925,93.88522012965451,-10.915792,10.155638,-3.9035199,81.22071,-23.484283,-6.6638517,-26.37546,-1.1463512,-10.392911,55.771156,-15.515419,-0.79573435,-12.861097,-0.34451377,19.426846,-16.323446,28.315977,-29.721857,-14.597897,4.534963,4.847135,16.977251,7.830048,-24.783394,29.17441,-21.605995,-8.483337,0.09377163,-13.353598
153,-1.9780867099761963,-203.37393188476562,73.90157318115234,-2.6525983087483382,-2.5564296444673555,93.87686279725345,-9.748718,8.958634,-4.2180934,79.217636,-22.601665,-8.018383,-27.032446,-1.279974,-10.156892,53.81671,-13.174926,-0.6597503,-13.326868,-0.7179527,18.990688,-17.762001,28.423723,-30.675344,-13.9858465,4.3267255,4.5645275,16.819021,8.547499,-24.555899,28.706112,-21.998009,-8.707916,0.17355375,-13.314255
154,-2.092170238494873,-204.5605010986328,74.36752319335938,-2.5049477595440752,-2.2360318521593303,93.80768513919382,-8.644985,7.668562,-4.510189,76.98056,-21.600922,-9.523222,-27.645405,-1.3705695,-9.848221,51.6741,-10.643219,-0.5330619,-13.726385,-1.0927734,18.537155,-19.129944,28.521746,-31.598322,-13.381949,4.107937,4.286824,16.615875,9.19293,-24.319708,28.227081,-22.344854,-9.0741415,0.25864217,-13.1879835
155,-2.214676856994629,-205.77149963378906,74.84954833984375,-2.3577134641435564,-1.8946221150924327,93.67965751939009,-7.666611,6.383355,-4.7792163,74.62462,-20.533758,-10.939483,-28.206905,-1.4131703,-9.49102,49.323223,-7.895958,-0.37010333,-14.058672,-1.4398386,18.085833,-20.386309,28.611149,-32.45667,-12.833381,3.883303,4.012049,16.377373,9.736374,-24.07479,27.782288,-22.62823,-9.438659,0.32426032,-13.052068
156,-2.3459599018096924,-207.03353881835938,75.33354187011719,-2.236661029761828,-1.5255075700618217,93.49463904310103,-6.8731933,5.2025647,-5.008252,72.26283,-19.443672,-12.030051,-28.70521,-1.4037219,-9.104611,46.73434,-4.905654,-0.12420864,-14.326346,-1.7313597,17.656206,-21.484638,28.694763,-33.21068,-12.387413,3.6590717,3.7380903,16.111258,10.142111,-23.820875,27.421812,-22.828363,-9.657963,0.34738088,-12.985374
157,-2.4918136596679688,-208.3203125,75.81652069091797,-2.154692771864125,-1.0935895202528596,93.23449673443025,-6.332095,4.1072097,-5.209447,69.9074,-18.38721,-12.784973,-29.2065,-1.3251934,-8.717072,43.877003,-1.4646842,0.07059384,-14.520404,-1.9494663,17.234436,-22.415003,28.779049,-33.837887,-12.052059,3.4591136,3.4637997,15.793408,10.398764,-23.550545,27.14714,-22.929146,-9.659068,0.31830135,-13.017926
158,-2.643909215927124,-209.61093139648438,76.29549407958984,-2.097950177249655,-0.6141117618822651,92.90451139283824,-5.9909215,3.0629735,-5.37181,67.49864,-17.31248,-13.315144,-29.69009,-1.1736962,-8.317781,40.766342,2.3509939,0.23671041,-14.644247,-2.1194398,16.815825,-23.19977,28.870893,-34.360165,-11.799894,3.272464,3.191058,15.427565,10.515574,-23.262377,26.938665,-22.930014,-9.532356,0.25100926,-13.104437
159,-2.800480365753174,-210.91893005371094,76.74610137939453,-2.0425980063616245,-0.15726194627149104,92.54262264098743,-5.7317038,2.136901,-5.431129,65.05002,-16.095533,-13.57173,-30.01278,-0.9651275,-7.829985,37.43683,6.151243,0.6719021,-14.7185135,-2.2804286,16.435024,-23.842108,28.973438,-34.80717,-11.630522,3.052015,2.9227107,15.063727,10.495502,-22.97099,26.81287,-22.847788,-9.377477,0.15888527,-13.212615
160,-2.962848424911499,-212.24484252929688,77.15481567382812,-1.963471438256825,0.20539309759603464,92.18888159606509,-5.436924,1.3871496,-5.3193774,62.576702,-14.612714,-13.509499,-30.016125,-0.7187702,-7.1355147,33.890446,9.567135,1.6927558,-14.767116,-2.470806,16.128819,-24.343782,29.087599,-35.206005,-11.545478,2.7505853,2.661283,14.750569,10.3477545,-22.702326,26.784847,-22.709286,-9.290674,0.055986606,-13.31232
161,-3.133049249649048,-213.57090759277344,77.5057601928711,-1.8297065807569783,0.45533350828379826,91.84564085472721,-5.0917745,0.80920696,-4.9553,60.05027,-12.4877825,-13.137538,-29.485693,-0.47297674,-6.109693,29.628696,12.835268,3.6769621,-14.7954,-2.7205162,15.908737,-24.67988,29.213633,-35.551956,-11.567845,2.316942,2.410083,14.511262,10.092499,-22.475931,26.868126,-22.536108,-9.290223,-0.046237115,-13.438058
162,-3.314805746078491,-214.8815155029297,77.78888702392578,-1.6278493338414899,0.6164091569342282,91.51012895713923,-4.7354727,0.33434084,-4.351876,57.471184,-9.900316,-12.463485,-28.486994,-0.2522363,-4.7493696,24.686584,16.10656,6.3982415,-14.805174,-3.036206,15.762759,-24.855742,29.354868,-35.832054,-11.694541,1.7882398,2.167341,14.31392,9.742322,-22.297512,27.046328,-22.33802,-9.320645,-0.15677367,-13.596422
163,-3.5155184268951416,-216.14065551757812,77.98686981201172,-1.3641264308563295,0.6833836975838078,91.21079709154915,-4.3311477,-0.07540387,-3.5886674,54.894955,-7.564136,-11.44346,-27.314955,-0.108286686,-3.169363,19.951763,18.827896,9.232626,-14.812704,-3.4147947,15.691951,-24.913519,29.515623,-36.060406,-11.891657,1.2523222,1.9278402,14.125874,9.298185,-22.171354,27.290686,-22.13667,-9.366062,-0.29156676,-13.715544
164,-3.7266645431518555,-217.40078735351562,78.10572052001953,-1.099767741744558,0.6727929754139786,90.95148836863254,-3.8703337,-0.40696245,-2.7791126,52.39447,-6.206654,-10.0641575,-26.368973,-0.046043437,-1.5967019,16.482777,20.35669,11.502392,-14.811454,-3.7939491,15.691686,-24.896715,29.697927,-36.250896,-12.124459,0.7983893,1.6858543,13.917065,8.75403,-22.102116,27.57033,-21.945839,-9.411411,-0.4679308,-13.722121
165,-3.928070545196533,-218.66419982910156,78.1544418334961,-0.897092043474408,0.6012434192666642,90.71063289120983,-3.3367646,-0.57892245,-1.9187022,49.910362,-6.138218,-8.042769,-25.832901,0.014150876,-0.0940597,14.690203,20.255264,12.9672785,-14.785383,-4.102511,15.7555895,-24.788963,29.900255,-36.410374,-12.41529,0.40991855,1.4363127,13.706298,8.107344,-22.098791,27.894035,-21.786009,-9.453097,-0.699062,-13.56768
166,-4.117451190948486,-219.93763732910156,78.15528869628906,-0.7548762822786078,0.4796597858464085,90.46701477425647,-2.7752347,-0.614037,-0.9925088,47.47892,-6.9884987,-5.5289345,-25.557184,0.09647295,1.3466932,14.094338,18.8857,13.93719,-14.719362,-4.33225,15.881766,-24.575405,30.120811,-36.525745,-12.772391,0.054349747,1.182173,13.503134,7.360263,-22.165434,28.272257,-21.650251,-9.49469,-0.9737648,-13.301797
167,-4.300641059875488,-221.21913146972656,78.0926284790039,-0.7074946630419418,0.3369206020246021,90.20395373846708,-2.3067963,-0.5705715,-0.13226987,45.331593,-8.43418,-3.169692,-25.514246,0.2326613,2.5684521,14.510748,16.779346,14.568163,-14.589678,-4.448134,16.070038,-24.3078,30.358501,-36.580692,-13.144899,-0.20749536,0.92900836,13.265189,6.505256,-22.295734,28.676146,-21.504953,-9.5336275,-1.2740957,-12.996775
168,-4.4785966873168945,-222.5048370361328,77.9788818359375,-0.7718976199508218,0.19235005561069382,89.91422161572135,-2.034325,-0.47230238,0.55995107,43.653175,-10.094255,-1.5753822,-25.641087,0.43024936,3.4261222,15.700442,14.495162,15.000033,-14.377951,-4.432663,16.323177,-24.04331,30.611916,-36.565834,-13.473749,-0.31653434,0.6826333,12.950665,5.5351353,-22.477009,29.07415,-21.313408,-9.570636,-1.5820136,-12.723129
169,-4.659520149230957,-223.78778076171875,77.81417083740234,-0.9671811398611215,0.04186704658232828,89.59806350638283,-1.9300619,-0.275085,1.0642494,42.419083,-11.99591,-1.010415,-25.933054,0.7427529,3.8665226,17.68915,12.018755,15.000033,-14.077172,-4.2716656,16.646692,-23.804783,30.881453,-36.46999,-13.77863,-0.24773335,0.40654606,12.484092,4.4229865,-22.7042,29.464407,-21.07722,-9.584817,-1.9352548,-12.4510145
170,-4.828186511993408,-225.10943603515625,77.6053695678711,-1.2934960996124503,-0.13477851048980646,89.26172214247725,-1.9522184,0.0726262,1.4464815,41.54147,-14.266997,-1.0973809,-26.36998,1.1949031,4.0576253,20.488361,9.153444,15.000033,-13.698152,-3.9609683,17.051064,-23.558218,31.166496,-36.30347,-14.075454,-0.036763452,0.10869889,11.910647,3.1792402,-22.976011,29.860643,-20.811295,-9.585685,-2.329115,-12.158125
171,-4.993805885314941,-226.45928955078125,77.34241485595703,-1.6533182324856361,-0.3346644887054062,88.93152424656712,-2.1581297,0.4649469,1.7652234,41.015194,-16.609913,-1.443272,-26.962065,1.6138283,3.972189,24.024857,6.095674,15.000033,-13.276935,-3.6012468,17.511225,-23.281965,31.461643,-36.092747,-14.298182,0.28418902,-0.138563,11.370321,1.8556377,-23.280622,30.254353,-20.494923,-9.622735,-2.6824203,-11.92571
172,-5.15347957611084,-227.82852172851562,77.0254135131836,-1.9825701372180162,-0.5616001994460135,88.62680218760315,-2.6049407,0.8231096,2.0431821,40.875523,-18.762762,-1.6716,-27.63747,1.8361812,3.5693378,28.085516,3.1156442,15.000033,-12.836324,-3.2623007,18.015154,-22.964344,31.757519,-35.871735,-14.372085,0.68329334,-0.26140243,11.001554,0.5026234,-23.598307,30.638592,-20.09175,-9.7473345,-2.9143453,-11.833874
173,-5.317327499389648,-229.224853515625,76.6721420288086,-2.3327743069649727,-0.8733301172768687,88.32421505412948,-3.3305018,1.2065597,2.2334177,41.31783,-20.773727,-1.7679862,-28.35224,1.8483208,2.7814398,32.748108,0.22678809,15.000033,-12.349704,-2.913368,18.629555,-22.633886,32.044914,-35.649986,-14.250175,1.14066,-0.23432738,10.843781,-0.95746845,-23.914524,31.053099,-19.496296,-9.967145,-2.9926202,-11.95685
174,-5.458174705505371,-230.6226043701172,76.28654479980469,-2.7338349290125965,-1.2651013610792283,88.02340764274525,-4.2912717,1.6683104,2.3249125,42.2998,-22.773697,-1.9129242,-29.03869,1.674194,1.525766,37.90779,-2.6110623,14.295937,-11.813023,-2.5202136,19.345753,-22.30195,32.320084,-35.41949,-13.957348,1.6772935,-0.097271815,10.818639,-2.5292158,-24.219292,31.498158,-18.736328,-10.259554,-2.962495,-12.23127
175,-5.593632698059082,-232.01895141601562,75.86901092529297,-3.0685820661231564,-1.6341517063145965,87.78453683686747,-5.4252605,2.05369,2.3825772,43.4712,-24.605999,-2.004114,-29.63774,1.1888043,0.07706278,43.17838,-5.265907,13.25355,-11.2832575,-2.1677027,20.028484,-21.921562,32.580547,-35.191162,-13.538827,2.3341455,0.12684907,10.887723,-4.0606403,-24.501204,31.905973,-17.963686,-10.631481,-2.8612173,-12.526915
176,-5.712390899658203,-233.3965606689453,75.44522094726562,-3.2544225537719855,-1.8758363014042931,87.65250944248243,-6.676187,2.2566328,2.469825,44.49921,-26.125254,-1.9519262,-30.096972,0.34305963,-1.3594031,48.18118,-7.5998864,12.140788,-10.796413,-1.9125118,20.552134,-21.447977,32.823463,-34.980495,-13.035215,3.152508,0.4152067,11.014422,-5.3958,-24.75118,32.19636,-17.336927,-11.091424,-2.7275028,-12.713869
177,-5.826422691345215,-234.76876831054688,75.04145812988281,-3.246845404912276,-1.9390133472410236,87.64965417810342,-8.123696,2.2265687,2.6151903,45.391712,-27.273056,-1.7030371,-30.484184,-0.99947286,-2.8641872,53.01554,-9.558386,10.871552,-10.351613,-1.794244,20.878193,-20.91008,33.04645,-34.82531,-12.392206,4.1879807,0.8388412,11.182423,-6.495958,-24.961096,32.319176,-16.850533,-11.744559,-2.5172956,-12.72511
178,-5.92978572845459,-236.1389923095703,74.69418334960938,-3.1018594849842356,-1.8838528907307246,87.74496965182689,-9.765734,2.0307753,2.7843077,46.285667,-28.130535,-1.3162503,-30.775465,-2.7960782,-4.460115,57.833675,-11.2540655,9.385468,-9.920115,-1.7768134,21.073273,-20.328932,33.2448,-34.719433,-11.594986,5.404991,1.3883109,11.407714,-7.45144,-25.129915,32.319794,-16.417446,-12.554753,-2.2306674,-12.633442
179,-6.032486915588379,-237.47109985351562,74.38645935058594,-2.8996771624965287,-1.7704469080427505,87.90034192077238,-11.433131,1.7537858,2.9465199,47.05904,-28.768261,-0.873481,-30.832777,-4.756514,-5.9382124,62.387417,-12.794508,7.878663,-9.497976,-1.7960782,21.169548,-19.650602,33.41377,-34.603474,-10.747885,6.7007766,1.9192528,11.705499,-8.296117,-25.26522,32.258133,-16.078957,-13.320726,-1.9726708,-12.526763
180,-6.141613483428955,-238.74127197265625,74.11805725097656,-2.7236638591909723,-1.6572959996154646,88.07513363022454,-12.960121,1.4843442,3.067934,47.593895,-29.257998,-0.45738295,-30.55278,-6.5378556,-7.1248884,66.4351,-14.266401,6.585013,-9.082358,-1.7811742,21.19922,-18.812794,33.551407,-34.41105,-9.96429,7.9735155,2.2888339,12.098636,-9.056509,-25.383234,32.1927,-15.884391,-13.839236,-1.8451194,-12.499003
181,-6.231553077697754,-239.95623779296875,73.87238311767578,-2.588344473761045,-1.5252971847930494,88.28109671701642,-14.31038,1.2291187,3.142546,47.80139,-29.628588,-0.062687434,-29.941742,-8.074597,-8.051734,69.97172,-15.682112,5.5512834,-8.689326,-1.7149957,21.13186,-17.749374,33.65611,-34.121178,-9.2861805,9.3569145,2.4383118,12.647073,-9.669203,-25.495779,32.10657,-15.9322605,-14.038576,-1.9110031,-12.589601
182,-6.2977118492126465,-241.11434936523438,73.66825866699219,-2.4589138037694,-1.3535803886278424,88.53013340843174,-15.5708885,0.95198625,3.1911213,47.764957,-29.840391,0.34460983,-29.07318,-9.485749,-8.834256,73.13589,-16.991179,4.68695,-8.315422,-1.6293571,20.964886,-16.501379,33.728275,-33.764866,-8.659575,10.853111,2.4600203,13.327562,-10.131988,-25.609207,31.973658,-16.185863,-14.030796,-2.1026669,-12.74935
183,-6.355870723724365,-242.24856567382812,73.49844360351562,-2.342312718388694,-1.1957122445513284,88.77985352486701,-16.76014,0.68108803,3.2163014,47.622726,-29.861961,0.7193294,-27.971636,-10.681554,-9.445256,75.90385,-18.170002,4.0356126,-7.9280467,-1.5221971,20.771933,-15.163164,33.770386,-33.35083,-8.05814,12.163387,2.4273167,14.043146,-10.554018,-25.732935,31.838972,-16.505104,-13.88911,-2.3246183,-12.941904
184,-6.406357288360596,-243.37429809570312,73.3597183227539,-2.2486015185951875,-1.1051049165407851,88.98761664049493,-17.89995,0.44618437,3.219133,47.517372,-29.662256,1.0173925,-26.668474,-11.580182,-9.850986,78.249954,-19.1953,3.638244,-7.5011497,-1.3897513,20.62711,-13.821348,33.78845,-32.87527,-7.4618325,12.987266,2.4012368,14.691236,-11.055163,-25.87621,31.75715,-16.746376,-13.68469,-2.4804852,-13.132273
185,-6.452807903289795,-244.5071258544922,73.2514419555664,-2.178614277576391,-1.1256407074795225,89.1416476990324,-18.975037,0.24808131,3.1929216,47.520077,-29.228144,1.2222862,-25.128498,-12.119673,-9.987124,80.16115,-20.034449,3.5858305,-7.0321927,-1.2343922,20.579222,-12.4724045,33.783978,-32.310444,-6.8704624,13.092583,2.3243465,15.262907,-11.691253,-26.049671,31.75236,-16.901157,-13.343697,-2.5471034,-13.341269
186,-6.513943672180176,-245.65208435058594,73.17172241210938,-2.1293818593227183,-1.2179982029558483,89.26412631099942,-19.98442,0.07525454,3.1388116,47.54798,-28.578281,1.3595922,-23.371687,-12.346137,-9.911908,81.66636,-20.705252,3.8359804,-6.5390353,-1.05268,20.582762,-11.063934,33.75538,-31.655428,-6.3143687,12.690234,2.1742852,15.806227,-12.387441,-26.256115,31.796465,-17.04993,-12.856173,-2.5759587,-13.579404
187,-6.574611186981201,-246.8028106689453,73.12252807617188,-2.105836402263917,-1.3106082236227585,89.36375269263807,-20.97111,-0.06107344,3.0674787,47.51187,-27.73073,1.4481615,-21.509129,-12.349967,-9.760476,82.79286,-21.262478,4.223653,-6.0249877,-0.8344192,20.569317,-9.609529,33.70602,-30.945974,-5.8168755,12.143735,2.063137,16.303057,-13.0725355,-26.488226,31.866516,-17.176525,-12.390368,-2.5814054,-13.7967005
188,-6.626931667327881,-247.95730590820312,73.09626770019531,-2.108989803007006,-1.3315752425228031,89.44886332506843,-21.97448,-0.1480818,2.9895482,47.31585,-26.700174,1.5048544,-19.655846,-12.225987,-9.655529,83.57371,-21.755297,4.5809374,-5.4916186,-0.57408637,20.46857,-8.121276,33.642193,-30.218449,-5.399356,11.817235,2.1105452,16.739082,-13.680665,-26.73107,31.940737,-17.252369,-12.117462,-2.5762718,-13.941038
189,-6.662031173706055,-249.09951782226562,73.11685943603516,-2.13719250967699,-1.2479982809046644,89.51440134650412,-23.04694,-0.17406665,2.9094968,46.97561,-25.467197,1.520233,-17.850998,-11.9794445,-9.583601,84.01855,-22.214201,4.862873,-4.925955,-0.27354515,20.245169,-6.6235375,33.57127,-29.498663,-5.044123,11.759237,2.407217,17.113392,-14.217375,-26.972698,32.01722,-17.230537,-12.147186,-2.555231,-13.982772
190,-6.671223163604736,-250.2440948486328,73.17406463623047,-2.18821957562226,-1.1023751789508656,89.55805654793863,-24.152868,-0.14564188,2.815427,46.5253,-24.029566,1.4863392,-16.043013,-11.5747595,-9.479349,84.11894,-22.606478,5.152083,-4.329949,0.056941785,19.939587,-5.099,33.49323,-28.760487,-4.7527633,11.787022,2.8730006,17.435465,-14.718529,-27.209196,32.10728,-17.126038,-12.370715,-2.5142415,-13.952079
191,-6.6573872566223145,-251.3904571533203,73.26490020751953,-2.2664316958729884,-0.9360239558047511,89.59191844733888,-25.20093,-0.07758588,2.6947134,45.90069,-22.43006,1.4225559,-14.2104645,-11.045345,-9.381506,83.873886,-22.88287,5.471679,-3.7290637,0.4091659,19.594254,-3.4993088,33.40257,-27.96008,-4.5711927,11.91698,3.375047,17.704557,-15.171467,-27.437202,32.211666,-16.997475,-12.628831,-2.4670205,-13.8866415
192,-6.636938571929932,-252.53253173828125,73.3911361694336,-2.3763801822936417,-0.7902407008482736,89.62798645883373,-26.10048,0.014252964,2.5375311,45.04001,-20.713129,1.3508565,-12.329148,-10.421605,-9.327776,83.27971,-22.994263,5.846804,-3.1480103,0.77726305,19.252432,-1.7788348,33.289677,-27.056786,-4.5438895,12.166528,3.7803118,17.919403,-15.557327,-27.653652,32.328827,-16.908278,-12.76465,-2.4265258,-13.825524
193,-6.607073783874512,-253.6507568359375,73.54963684082031,-2.526141994016182,-0.6741892132801556,89.6702354789178,-26.831112,0.13215578,2.3307748,43.930996,-18.894985,1.2835925,-10.358341,-9.721164,-9.354314,82.3098,-22.947723,6.255954,-2.5913124,1.1698239,18.92234,0.09997694,33.142895,-26.007885,-4.6970153,12.641232,4.070433,18.019064,-15.877556,-27.855589,32.45334,-16.853468,-12.7257185,-2.3974257,-13.7468
194,-6.572760105133057,-254.7728271484375,73.72894287109375,-2.7084955794035546,-0.5655510153051406,89.71131115874644,-27.445408,0.28156677,2.0837193,42.612495,-16.952381,1.207709,-8.332058,-8.929601,-9.410694,80.98493,-22.766924,6.6940446,-2.047935,1.5806564,18.58064,2.1052225,32.956623,-24.843016,-5.0035696,13.300629,4.309716,18.020777,-16.145304,-28.0404,32.591545,-16.803108,-12.600413,-2.37187,-13.641485
195,-6.5314226150512695,-255.90145874023438,73.93197631835938,-2.906590143670222,-0.4581033631868797,89.74704258023175,-27.953564,0.45556772,1.8194178,41.086193,-14.865163,1.1089584,-6.327266,-8.020368,-9.414044,79.35098,-22.419329,7.208746,-1.516692,1.9909647,18.22138,4.1685386,32.73073,-23.641031,-5.417163,13.941515,4.4901323,18.044128,-16.363466,-28.208363,32.75625,-16.773169,-12.439582,-2.344143,-13.567025
196,-6.491958141326904,-257.0327453613281,74.15377807617188,-3.100866165702357,-0.3460759670916878,89.77057191602346,-28.366585,0.6413851,1.566396,39.35331,-12.612803,0.973551,-4.421327,-6.9756174,-9.277417,77.46293,-21.878542,7.8468275,-0.991777,2.3786223,17.838575,6.2189445,32.469658,-22.485985,-5.887826,14.3608885,4.606149,18.211107,-16.531319,-28.362434,32.956596,-16.778559,-12.293408,-2.3092334,-13.5801525
197,-6.444854259490967,-258.16351318359375,74.38655090332031,-3.2859834264960215,-0.2241562334451641,89.77073097496917,-28.666634,0.82929087,1.3326646,37.37331,-10.206255,0.8356942,-2.59264,-5.7741814,-8.959849,75.2576,-21.193874,8.720898,-0.459836,2.7371783,17.41743,8.274432,32.17402,-21.385128,-6.4383082,14.476204,4.636814,18.59935,-16.650055,-28.509748,33.218777,-16.833384,-12.154071,-2.238792,-13.742931
198,-6.3954057693481445,-259.3111267089844,74.623046875,-3.4708132203141755,-0.09662044789862359,89.75316675526933,-28.855228,1.0246648,1.1075759,35.158756,-7.6518126,0.6917806,-0.8011239,-4.441871,-8.494397,72.727844,-20.371504,9.764089,0.07785972,3.0780025,16.964695,10.351896,31.84098,-20.310896,-7.0767465,14.404779,4.5905547,19.131004,-16.71373,-28.652918,33.52458,-16.928385,-12.000818,-2.145113,-14.009562
199,-6.337432384490967,-260.4601745605469,74.85779571533203,-3.6636014184941317,0.02850698729056502,89.7376740068916,-28.973368,1.2348212,0.8852644,32.786507,-4.915523,0.4695815,0.9029897,-3.0304782,-7.910686,70.01434,-19.318964,10.759828,0.60467,3.4100301,16.50629,12.373217,31.475452,-19.298271,-7.7228346,14.245079,4.507128,19.695099,-16.704655,-28.7854,33.812916,-17.06152,-11.865407,-2.0840635,-14.273653
200,-6.277543067932129,-261.6263427734375,75.09739685058594,-3.8745070343094747,0.14214022463026735,89.74391968561716,-29.060585,1.469064,0.6500997,30.331202,-1.959969,0.093829766,2.4653256,-1.5844245,-7.2457266,67.25885,-17.93409,11.503715,1.1066861,3.7439795,16.066359,14.25402,31.088785,-18.386381,-8.287982,14.093648,4.42904,20.182467,-16.605274,-28.896603,34.02101,-17.21876,-11.783844,-2.1110947,-14.426171
201,-6.199545860290527,-262.8021545410156,75.32400512695312,-4.096822271934763,0.2703994531680605,89.76998301275565,-29.15269,1.7145588,0.37274522,27.786114,1.3175616,-0.34096396,3.8341422,-0.04129112,-6.4161634,64.44943,-16.083271,12.008958,1.5936737,4.0762587,15.615205,15.994526,30.689598,-17.583748,-8.768523,13.947424,4.3690295,20.605202,-16.401358,-28.97875,34.132164,-17.400646,-11.780204,-2.2681942,-14.426223
202,-6.113255977630615,-263.9875793457031,75.53665161132812,-4.330128597405235,0.40774222785546177,89.80773503781903,-29.222324,1.9726956,0.056285985,25.12573,4.8647966,-0.839409,5.0654635,1.589365,-5.4299474,61.52744,-13.852842,12.373253,2.069385,4.403322,15.150112,17.631784,30.284508,-16.872406,-9.199617,13.763457,4.3044105,21.009047,-16.110426,-29.030796,34.181442,-17.601418,-11.833304,-2.516913,-14.333345
203,-6.017430782318115,-265.1896057128906,75.72205352783203,-4.592795479033178,0.4964580275248347,89.86595551061436,-29.19922,2.2734263,-0.29200476,22.366695,8.499176,-1.6336781,6.253278,3.1677785,-4.4833884,58.564594,-11.459022,12.5174675,2.5092494,4.746277,14.7417965,19.145987,29.886341,-16.241009,-9.563177,13.579099,4.2272196,21.335518,-15.758525,-29.049534,34.181065,-17.80497,-11.907831,-2.7917316,-14.190692
204,-5.909851551055908,-266.4107971191406,75.86651611328125,-4.908878623588695,0.4748273649438911,89.94998925031219,-28.999367,2.6455498,-0.6858058,19.508371,12.051151,-2.9643564,7.4822497,4.5711,-3.7849507,55.628662,-9.113095,12.356016,2.892153,5.133162,14.465218,20.52198,29.512259,-15.673598,-9.847234,13.43012,4.1309185,21.527458,-15.372206,-29.032227,34.141335,-17.999588,-11.968462,-3.027389,-14.039388
205,-5.795779705047607,-267.6543884277344,75.95645141601562,-5.3310499551672486,0.3249340263067863,90.04749433327373,-28.546906,3.1426117,-1.1972455,16.322037,15.758253,-4.9463964,8.747698,5.841953,-3.387905,52.698036,-6.5810356,11.895827,3.2357855,5.612562,14.33498,21.797827,29.172422,-15.144574,-10.060762,13.326089,4.01053,21.535963,-14.922578,-28.970577,34.035385,-18.203806,-12.007154,-3.2122307,-13.858141
206,-5.670129299163818,-268.897705078125,75.98651123046875,-5.857518891933037,0.06264097584958415,90.1479441346969,-27.86092,3.763232,-1.8727261,12.834829,19.622269,-7.4769964,10.031967,7.0609503,-3.213602,49.729042,-3.838674,11.161614,3.550933,6.1845093,14.330175,22.994053,28.87371,-14.650351,-10.231217,13.244298,3.8729577,21.40434,-14.411104,-28.861778,33.871803,-18.415897,-12.043921,-3.379226,-13.634032
207,-5.522709846496582,-270.12640380859375,75.93108367919922,-6.4362359727746,-0.3232981076281949,90.26001977861233,-26.985111,4.454414,-2.6658864,9.396316,23.13863,-10.46315,11.393849,8.182054,-3.2639468,46.754623,-1.4161574,10.099807,3.8058684,6.808383,14.475409,24.07417,28.629356,-14.206246,-10.38172,13.17271,3.7294338,21.213507,-13.907666,-28.716555,33.709183,-18.598732,-12.08342,-3.529641,-13.421347
208,-5.36253023147583,-271.34197998046875,75.79134368896484,-6.996657866848242,-0.8276113241248755,90.40442475941028,-25.958658,5.133485,-3.4540691,6.3065834,25.846668,-13.772021,12.872533,9.142612,-3.5251527,43.817326,0.1448096,8.676942,3.9588783,7.4160953,14.785282,24.99622,28.455286,-13.830373,-10.532374,13.098734,3.590456,21.044226,-13.475885,-28.554585,33.601597,-18.71997,-12.130101,-3.6647289,-13.276317
209,-5.253623962402344,-272.5879211425781,75.57007598876953,-7.395267511943886,-1.5184188534882728,90.6477525402043,-25.47271,5.650798,-2.8081489,5.2614,26.685595,-15.000033,14.580552,9.74316,-4.0646358,40.88694,0.64056605,6.710231,3.9389591,7.8922386,15.3433895,25.810122,28.366667,-13.515863,-10.710251,13.003547,3.4517705,20.879751,-13.098639,-28.39152,33.55263,-18.818897,-12.189335,-3.7805202,-13.231569
210,-5.19886589050293,-273.854736328125,75.25762939453125,-7.592196921102992,-2.3605306774684798,91.03869484701295,-25.145382,5.923178,-1.04879,5.22023,26.51969,-15.000033,16.39655,9.985902,-4.916793,38.124825,0.22344287,4.364503,3.719635,8.18003,16.129528,26.522585,28.365694,-13.267424,-10.91437,12.8942,3.3122625,20.693804,-12.707414,-28.258804,33.511093,-18.954498,-12.25084,-3.8762474,-13.252915
211,-5.151813507080078,-275.14678955078125,74.90531158447266,-7.709411744427343,-3.168343004118672,91.51478102651697,-24.772146,5.9929643,0.36689097,5.215431,26.179548,-15.000033,18.011337,10.141707,-5.902225,35.725742,-0.9754076,2.1277492,3.3780954,8.376813,16.960823,26.981298,28.414436,-13.119487,-11.058895,12.812016,3.1809316,20.544527,-12.323275,-28.172653,33.476444,-19.07963,-12.303417,-3.9591587,-13.30268
212,-5.09895658493042,-276.47344970703125,74.54096221923828,-7.620342350846491,-3.8552515040830855,92.01752610592821,-24.435472,5.690766,0.6912552,5.2337456,25.853577,-15.000033,19.176018,10.133665,-6.8069344,34.049805,-2.920278,0.5269335,2.9670506,8.329833,17.771955,27.146315,28.523188,-13.037556,-11.168824,12.782288,3.0665824,20.481806,-12.014381,-28.08436,33.46454,-19.10585,-12.3446245,-4.040063,-13.329689
213,-5.013944625854492,-277.83349609375,74.17784881591797,-7.2667730138117115,-4.4189670873539,92.49081562114817,-24.16931,4.9318523,-0.7151544,5.380484,25.423552,-15.000033,19.87462,9.874852,-7.571896,33.16845,-5.8615417,-0.27854678,2.5557399,8.001413,18.545559,26.895432,28.66566,-13.085201,-11.144251,12.838429,2.940458,20.528679,-11.800484,-28.016909,33.47776,-19.027431,-12.362083,-4.142076,-13.336412
214,-4.943247318267822,-279.2281494140625,73.8232192993164,-6.691372879097314,-4.913878786655167,92.96170315644295,-23.888077,3.8115053,-3.2882442,5.6494603,24.78493,-15.000033,20.2214,9.357233,-8.313356,32.904552,-9.70527,-0.6117194,2.2012722,7.4061904,19.304316,26.285316,29.012268,-13.313015,-11.054696,12.884089,2.8221405,20.693453,-11.605195,-27.911907,33.42569,-18.867407,-12.377866,-4.2590723,-13.3322
215,-4.873612880706787,-280.68255615234375,73.4562759399414,-6.02190704190107,-5.370349167581419,93.46093783703681,-23.539787,2.568853,-6.0129433,6.002241,24.040941,-15.000033,20.223232,8.700346,-9.056665,33.17079,-13.840879,-0.7051326,1.7935947,6.704541,20.08621,25.410156,29.395264,-13.626217,-10.934104,12.9503975,2.7610292,20.919456,-11.410986,-27.840021,33.369713,-18.645868,-12.390365,-4.336764,-13.313937
216,-4.827279090881348,-282.1819152832031,73.05549621582031,-5.386829602735634,-5.840887268889565,94.00583241156228,-24.991293,1.172831,-7.9055867,10.522491,21.064693,-15.000033,19.928774,8.039332,-9.776284,33.8498,-17.653866,-0.76144564,1.3129656,6.033147,20.924494,24.364443,29.812685,-13.996157,-10.851948,12.990935,2.8222165,21.19415,-11.172461,-27.788525,33.30014,-18.341845,-12.41742,-4.3262415,-13.268196
217,-4.799892902374268,-283.701904296875,72.6365966796875,-4.806232232275958,-6.446384761324789,94.61555260485207,-26.359331,-0.11566894,-8.583718,15.442753,17.732698,-15.000033,19.424282,7.3899474,-10.394147,35.010593,-21.136427,-0.7268262,0.7347923,5.4191494,21.953964,23.087778,30.282854,-14.467337,-10.799031,12.980335,3.0945108,21.594017,-10.916597,-27.74488,33.219704,-17.859781,-12.451367,-4.1963897,-13.163294
218,-4.786654472351074,-285.21954345703125,72.19641876220703,-4.294342807676048,-7.167759233985716,95.24115605704218,-27.683458,-1.2304277,-8.63609,20.788534,14.049941,-15.000033,18.738682,6.7537713,-10.904874,36.619766,-24.538832,-0.53731316,0.11927685,4.864977,23.1451,21.568888,30.80828,-15.055457,-10.764832,12.93511,3.5220623,22.104242,-10.656015,-27.706406,33.12363,-17.22875,-12.488743,-3.9788852,-13.010967
219,-4.75432825088501,-286.7084045410156,71.75361633300781,-3.9623154215186083,-7.8446199439263955,95.7904698680584,-29.062208,-1.9267269,-8.3051405,26.407112,10.267841,-15.000033,17.846226,6.258305,-11.348922,38.38915,-27.637262,-0.36735126,-0.44635952,4.466008,24.293104,19.986996,31.346216,-15.663325,-10.812277,12.8859005,3.9504917,22.566515,-10.335663,-27.679728,33.01278,-16.613455,-12.558265,-3.7192917,-12.862687
220,-4.687979221343994,-288.15789794921875,71.35316467285156,-3.8860591227723384,-8.296352987765983,96.18688836494458,-30.552698,-2.0538647,-7.8464227,32.035034,6.686523,-15.000033,16.687597,6.00758,-11.774491,40.05379,-30.215427,-0.3890405,-0.9159471,4.298774,25.184195,18.53089,31.830538,-16.16519,-10.995854,12.883587,4.223389,22.814617,-9.919666,-27.677301,32.911526,-16.168928,-12.6832485,-3.4623642,-12.774311
221,-4.655018329620361,-289.5908508300781,71.01775360107422,-4.150541160366434,-8.423801088344005,96.40507220041661,-32.30668,-1.4821497,-7.2954025,37.772537,3.27749,-15.000033,15.141615,6.1036587,-12.226922,41.59228,-32.2058,-0.7142003,-1.3164167,4.472884,25.753292,17.268518,32.204975,-16.47577,-11.35098,12.995504,4.28989,22.775185,-9.425124,-27.714254,32.85311,-15.906342,-12.920613,-3.1639879,-12.77342
222,-4.6627302169799805,-290.9977722167969,70.74077606201172,-4.679551777588676,-8.337551578335297,96.48125260204296,-34.20321,-0.2943338,-6.654334,43.629242,-0.08391265,-15.000033,13.280508,6.4713173,-12.669532,43.11621,-33.730324,-1.2394142,-1.6921322,4.930829,26.124245,16.084639,32.4595,-16.654234,-11.802071,13.207065,4.2305527,22.534378,-8.888562,-27.794708,32.852528,-15.737026,-13.2360935,-2.816288,-12.831125
223,-4.684765815734863,-292.3115539550781,70.50193786621094,-5.287233785367913,-8.160921602318552,96.44482132871845,-35.930664,1.233954,-6.0681276,49.258453,-3.2396164,-15.000033,11.313091,6.925661,-13.040764,44.57746,-34.858547,-1.808993,-2.0288641,5.4735117,26.352207,14.889839,32.60999,-16.79127,-12.235189,13.443203,4.0873938,22.168348,-8.293962,-27.91049,32.90003,-15.675507,-13.519974,-2.5195107,-12.918297
224,-4.734529495239258,-293.53192138671875,70.3260726928711,-5.7780094930124815,-8.007221300094166,96.33909372796998,-37.21118,2.7852302,-5.5980763,54.356956,-6.0338516,-15.000033,9.422464,7.263793,-13.281297,45.951244,-35.663822,-2.2571156,-2.3169856,5.8822017,26.48108,13.60785,32.687828,-16.97836,-12.55598,13.621168,3.9048407,21.756094,-7.625735,-28.045645,32.978973,-15.730958,-13.662562,-2.3753786,-13.0061455
225,-4.777162551879883,-294.6830749511719,70.21709442138672,-6.094996219744713,-7.85346265619976,96.14204708987046,-38.047108,4.375676,-5.0905952,58.96166,-8.432313,-15.000033,7.5660467,7.428797,-13.346032,47.280556,-36.109417,-2.540073,-2.5102713,6.0925236,26.438614,12.241989,32.69994,-17.212534,-12.786369,13.699311,3.6557684,21.233461,-6.827031,-28.188477,33.08291,-15.95208,-13.593656,-2.4633286,-13.123345
226,-4.840076446533203,-295.78253173828125,70.19005584716797,-6.028453832048654,-7.639730804650803,95.9600300890153,-38.50132,5.9812775,-3.7722654,63.06775,-10.434546,-13.195302,5.5731936,7.071008,-13.344118,48.866318,-36.368435,-2.6325805,-2.7319887,5.906408,26.2067,10.829761,32.644394,-17.449677,-12.966096,13.719237,3.3302367,20.592436,-5.934956,-28.333246,33.220463,-16.301136,-13.387873,-2.7142792,-13.271287
227,-4.89411735534668,-296.83673095703125,70.22744750976562,-5.880250139075726,-7.428831907400869,95.77775297146064,-38.63304,7.5157886,-2.5111923,66.834816,-12.223388,-11.083271,3.6271696,6.612833,-13.293023,50.360695,-36.356136,-2.6542468,-2.9873543,5.6196747,25.916754,9.359625,32.55179,-17.722322,-13.047462,13.719791,3.0023122,19.993671,-5.066265,-28.471954,33.392193,-16.668352,-13.155526,-3.005979,-13.378267
228,-4.947571754455566,-297.8822021484375,70.31507873535156,-5.731354986306397,-7.290200441912419,95.65060581502277,-38.448204,8.730095,-1.7144912,70.24278,-13.836009,-9.308869,1.856943,6.1552854,-13.267906,51.64153,-36.135475,-2.6477008,-3.3341768,5.3022237,25.704962,7.805775,32.471443,-18.083773,-12.98345,13.732914,2.7473354,19.602215,-4.312348,-28.59494,33.576557,-16.963707,-13.009079,-3.2163408,-13.374145
229,-4.987884998321533,-298.918212890625,70.43616485595703,-5.565319512253572,-7.284322613538828,95.601698924379,-37.900784,9.514415,-1.4232348,73.30074,-15.228215,-7.9146776,0.32112697,5.6695423,-13.285703,52.73143,-35.705894,-2.6022754,-3.7887259,4.9110312,25.638535,6.122901,32.44927,-18.584074,-12.729013,13.749829,2.5785823,19.53708,-3.7114239,-28.69318,33.779423,-17.154354,-12.985789,-3.3187735,-13.194145
230,-5.02528715133667,-299.951416015625,70.59184265136719,-5.3614489971007675,-7.358690127430461,95.59621565279618,-37.03655,9.97278,-1.4449096,76.04495,-16.374794,-6.8048863,-1.0594448,5.133766,-13.305744,53.6759,-35.03766,-2.5028644,-4.2978525,4.4218245,25.630657,4.3469734,32.493362,-19.199972,-12.350207,13.73919,2.4615688,19.693592,-3.1938288,-28.759695,33.98851,-17.305439,-13.025289,-3.3782341,-12.889133
231,-5.082090377807617,-300.986328125,70.80038452148438,-5.161646980565795,-7.41299620773247,95.6111850937811,-35.99875,10.184376,-1.6952275,78.46189,-17.312733,-5.99028,-2.3670826,4.6097364,-13.325297,54.40124,-34.16324,-2.3734865,-4.825065,3.910115,25.588688,2.5658975,32.58695,-19.877117,-11.959156,13.7027025,2.398953,19.898632,-2.6817834,-28.790451,34.152214,-17.472431,-13.09402,-3.4096987,-12.564872
232,-5.1442718505859375,-301.99591064453125,71.05681610107422,-5.0117992765047985,-7.3465968515371705,95.62664991495711,-34.93134,10.233014,-2.1023114,80.53969,-18.090984,-5.4808116,-3.6836646,4.159276,-13.345367,54.83729,-33.11998,-2.2386696,-5.3464127,3.4601114,25.42329,0.8665384,32.69976,-20.551924,-11.660944,13.649443,2.3929322,19.97681,-2.1052847,-28.78621,34.226025,-17.707651,-13.15821,-3.4269,-12.326445
233,-5.221258640289307,-302.992919921875,71.36300659179688,-4.941218252985459,-7.121917693985632,95.66231173594493,-33.87071,10.035007,-2.7818246,82.29029,-18.683386,-5.3938127,-5.0312057,3.8061683,-13.391422,54.94044,-31.901114,-2.0977051,-5.8956194,3.1161382,25.103096,-0.74846834,32.812496,-21.217081,-11.464591,13.623551,2.4930124,19.862255,-1.4457892,-28.748955,34.202244,-18.027882,-13.22952,-3.4318762,-12.196163
234,-5.31618070602417,-303.9845886230469,71.71247863769531,-4.9198216026009405,-6.796110402388928,95.72097479780174,-32.736515,9.577287,-3.707196,83.726074,-19.085316,-5.6933756,-6.3673096,3.5066326,-13.453119,54.7604,-30.49528,-1.9351468,-6.48088,2.8356345,24.679005,-2.3273306,32.921635,-21.903067,-11.306068,13.615546,2.680386,19.651342,-0.7456823,-28.680485,34.109577,-18.40264,-13.318388,-3.417147,-12.120297
235,-5.411450386047363,-304.9393615722656,72.09992218017578,-4.9028851218674205,-6.410597626281791,95.7576226075692,-31.513313,9.057957,-4.612145,84.84936,-19.367077,-6.149956,-7.675977,3.2267888,-13.480917,54.364563,-28.930986,-1.7570474,-7.0466704,2.5785253,24.190813,-3.8560574,33.02045,-22.592505,-11.182875,13.554808,2.855373,19.411737,-0.027660355,-28.582417,33.961426,-18.80176,-13.389694,-3.3813586,-12.091493
236,-5.495061874389648,-305.8761291503906,72.52067565917969,-4.845449807683788,-6.0069207202388135,95.72812585226153,-30.197775,8.677527,-5.241218,85.65045,-19.588854,-6.5273623,-8.941088,2.941538,-13.4286585,53.818516,-27.234955,-1.5729467,-7.5404906,2.303823,23.676126,-5.3171024,33.103233,-23.263332,-11.093218,13.370733,2.9183369,19.209747,0.6813034,-28.4565,33.77497,-19.199074,-13.405832,-3.3227959,-12.102894
237,-5.593116283416748,-306.8023986816406,72.97323608398438,-4.746904228266642,-5.5907544883999725,95.63083984379804,-28.770357,8.503894,-5.5358562,86.13405,-19.739815,-6.796157,-10.145185,2.6600938,-13.296599,53.10689,-25.414797,-1.3779197,-7.953027,2.0085566,23.134205,-6.7311096,33.168587,-23.905224,-11.026202,12.9847,2.789046,19.026014,1.407569,-28.302132,33.53916,-19.612309,-13.321212,-3.2296495,-12.17575
