unveil-humanoid-operators/unveil-humanoid-operators.github.io/feature-analysis-animation/data/feature_matrix_instances/height_root_translate_rom_walking_A021_walk_sideway_135_loop_004__A021.csv
Frame,root_translateX,root_translateY,root_translateZ,root_rotateX,root_rotateY,root_rotateZ,left_hip_pitch_joint_dof,left_hip_roll_joint_dof,left_hip_yaw_joint_dof,left_knee_joint_dof,left_ankle_pitch_joint_dof,left_ankle_roll_joint_dof,right_hip_pitch_joint_dof,right_hip_roll_joint_dof,right_hip_yaw_joint_dof,right_knee_joint_dof,right_ankle_pitch_joint_dof,right_ankle_roll_joint_dof,waist_yaw_joint_dof,waist_roll_joint_dof,waist_pitch_joint_dof,left_shoulder_pitch_joint_dof,left_shoulder_roll_joint_dof,left_shoulder_yaw_joint_dof,left_elbow_joint_dof,left_wrist_roll_joint_dof,left_wrist_pitch_joint_dof,left_wrist_yaw_joint_dof,right_shoulder_pitch_joint_dof,right_shoulder_roll_joint_dof,right_shoulder_yaw_joint_dof,right_elbow_joint_dof,right_wrist_roll_joint_dof,right_wrist_pitch_joint_dof,right_wrist_yaw_joint_dof
0,2.342381477355957,0.14297400414943695,77.23959350585938,0.4348277285761124,-2.3893867961773694,-176.8441268707411,8.699,3.7339036,12.305009,8.018736,-16.16893,-1.2755388,10.015946,-3.9941509,-21.383389,6.9247994,-12.464165,5.3753185,-1.950105,-1.0636141,11.124874,2.1114109,10.1997595,-12.133069,64.75519,-3.1420336,2.5431683,15.482187,-2.4952798,-6.342299,6.120193,69.45162,-8.739562,0.5528857,-6.201949
1,2.3516621589660645,0.15663985908031464,77.24104309082031,0.448400903882147,-2.3722964013524015,-176.7991446836451,8.65407,3.7288947,12.271528,8.024229,-16.136635,-1.2805341,9.9964075,-3.9990196,-21.421581,6.92534,-12.474403,5.351671,-1.9437313,-1.0773101,11.156546,2.0679708,10.207327,-12.144367,64.73924,-3.152944,2.5332773,15.470391,-2.5024745,-6.335666,6.136258,69.47014,-8.750004,0.5480377,-6.2099643
2,2.3644111156463623,0.17254890501499176,77.24296569824219,0.4629900075919717,-2.3579106284536477,-176.75490962062966,8.613433,3.7221606,12.238376,8.028083,-16.103848,-1.2865694,9.980175,-4.005642,-21.459373,6.926008,-12.485453,5.3279786,-1.9402393,-1.0915407,11.189935,2.0319743,10.216315,-12.15751,64.716286,-3.1640797,2.5228739,15.458068,-2.506865,-6.32761,6.15363,69.48566,-8.760345,0.5436937,-6.2183127
3,2.3770413398742676,0.18893586099147797,77.24524688720703,0.4764500886176238,-2.3379725256731376,-176.7091992800051,8.565059,3.7175868,12.204843,8.032329,-16.070187,-1.2910595,9.956969,-4.0100837,-21.497742,6.926483,-12.49453,5.304218,-1.933993,-1.1165186,11.215163,1.9827145,10.236137,-12.176216,64.70975,-3.1892846,2.5135555,15.448503,-2.5146358,-6.3088593,6.189531,69.50881,-8.756927,0.5400207,-6.2342253
4,2.389728546142578,0.20761539041996002,77.24769592285156,0.48470441888193483,-2.305390317818529,-176.66123911842791,8.496552,3.721357,12.171628,8.045005,-16.040165,-1.2918777,9.916884,-4.007081,-21.536049,6.9278173,-12.498798,5.280291,-1.9176837,-1.1276547,11.239305,1.9349732,10.244151,-12.176557,64.687195,-3.189194,2.5110018,15.44422,-2.5222423,-6.3002744,6.2180424,69.522446,-8.772893,0.53581595,-6.2423906
5,2.408264636993408,0.22479155659675598,77.25252532958984,0.4888413950843728,-2.25848235608465,-176.60711179943092,8.409186,3.7308946,12.137282,8.056557,-16.010986,-1.284636,9.859488,-3.997527,-21.577791,6.9276567,-12.494872,5.2578325,-1.9037921,-1.138644,11.254093,1.884326,10.249696,-12.1537075,64.66255,-3.172362,2.5185838,15.447896,-2.5336602,-6.2904973,6.270951,69.53577,-8.787369,0.53285676,-6.2506876
6,2.4253761768341064,0.24679741263389587,77.25544738769531,0.4892190043770396,-2.2010149599522455,-176.54845333441514,8.30347,3.746108,12.10179,8.077727,-15.9876175,-1.272189,9.789836,-3.98214,-21.62218,6.9270086,-12.485886,5.2362223,-1.877218,-1.140708,11.265222,1.8284466,10.249481,-12.129547,64.632355,-3.1426818,2.534701,15.458442,-2.5426068,-6.2865834,6.315318,69.54331,-8.81169,0.529417,-6.253804
7,2.440768241882324,0.2666187584400177,77.25782775878906,0.48074155279998254,-2.1331230691663294,-176.4919049350592,8.172774,3.7756736,12.067648,8.125082,-15.973121,-1.2633855,9.705627,-3.9549255,-21.662968,6.925837,-12.474546,5.2119174,-1.850754,-1.1354238,11.272269,1.7719862,10.244821,-12.086128,64.597206,-3.1076632,2.5494237,15.471137,-2.5551481,-6.2825522,6.379659,69.54838,-8.839779,0.5263995,-6.259788
8,2.4624879360198975,0.29121723771095276,77.25668334960938,0.43784026254661534,-2.043883562700984,-176.42988171167218,7.70714,3.9145033,12.002617,8.838164,-16.29475,-1.271175,9.596541,-3.886126,-21.708363,6.9207087,-12.462966,5.178613,-1.88045,-1.0996357,11.261017,1.746024,10.229108,-11.975273,64.54217,-3.0607936,2.5504525,15.479827,-2.612293,-6.2797136,6.515133,69.589935,-8.856046,0.52467906,-6.277856
9,2.4841177463531494,0.31510239839553833,77.2546615600586,0.38590010662201235,-1.944511546133916,-176.3839886953,7.2536364,4.064693,11.951519,9.504877,-16.585403,-1.29693,9.470082,-3.8035843,-21.737825,6.9176993,-12.452429,5.1383777,-1.8565809,-1.0490128,11.249578,1.7022178,10.216278,-11.902197,64.488396,-3.0350304,2.5365674,15.485445,-2.6556742,-6.2817397,6.614758,69.61688,-8.899921,0.52061075,-6.2939053
10,2.508857011795044,0.3375634551048279,77.24858093261719,0.3252228518592756,-1.8342355047241214,-176.34724726857078,6.782353,4.2304635,11.906664,10.184384,-16.880188,-1.3350334,9.327767,-3.7080903,-21.757858,6.9139967,-12.440272,5.093046,-1.848448,-0.98905724,11.232465,1.6787221,10.195258,-11.789939,64.41538,-3.004008,2.5116215,15.488694,-2.724337,-6.289136,6.758538,69.663155,-8.943659,0.51666695,-6.315619
11,2.5390288829803467,0.3637116849422455,77.2405776977539,0.2546004978124347,-1.715589320289702,-176.30997411884326,6.257078,4.415152,11.851711,10.9530735,-17.204268,-1.3748541,9.174711,-3.5995834,-21.775705,6.908064,-12.430871,5.0433683,-1.8327535,-0.9176585,11.216241,1.6501395,10.172107,-11.676922,64.33533,-2.9764276,2.4845634,15.49179,-2.794971,-6.3004875,6.89786,69.70263,-8.991051,0.5111388,-6.3378305
12,2.5768916606903076,0.39096391201019287,77.22940063476562,0.1736056092659554,-1.591579880351633,-176.26226793839,5.651905,4.619442,11.770369,11.865046,-17.573746,-1.4047959,9.013562,-3.4799151,-21.79895,6.904349,-12.431943,4.990311,-1.8257146,-0.8350617,11.205474,1.6213323,10.146275,-11.55587,64.23985,-2.9490166,2.4639237,15.496435,-2.8730545,-6.314915,7.031903,69.73541,-9.032503,0.503027,-6.3602753
13,2.6155037879943848,0.4151221811771393,77.21571350097656,0.0818153088631906,-1.4527108821166907,-176.20431239718852,4.9581094,4.844474,11.654765,12.915566,-18.010105,-1.4162005,8.835147,-3.3473155,-21.826006,6.89981,-12.445642,4.9290576,-1.833467,-0.7406843,11.191401,1.5943396,10.113414,-11.4150095,64.12415,-2.917651,2.4539917,15.501781,-2.9622269,-6.3335614,7.1654487,69.765,-9.059597,0.48684305,-6.384972
14,2.653719902038574,0.4406898319721222,77.19880676269531,-0.01966965472589627,-1.3015937624150722,-176.14083469422624,4.1914754,5.0894203,11.512795,14.079533,-18.498278,-1.4139808,8.641583,-3.202994,-21.853615,6.894834,-12.468416,4.8609114,-1.8412879,-0.6361915,11.175442,1.5645113,10.077734,-11.268472,63.994305,-2.8877373,2.4497325,15.507913,-3.0578885,-6.3535733,7.291066,69.79069,-9.081046,0.46452814,-6.411504
15,2.697033166885376,0.46724849939346313,77.17963409423828,-0.12911154411905437,-1.1586687359565673,-176.0689112186858,3.3596425,5.3529525,11.351799,15.38611,-19.002487,-1.4064585,8.45695,-3.0506215,-21.886528,6.8912687,-12.496627,4.795896,-1.8651799,-0.518929,11.176388,1.533881,10.030784,-11.105536,63.860256,-2.852989,2.443994,15.518208,-3.1633878,-6.38256,7.4282026,69.81126,-9.102622,0.448036,-6.4382105
16,2.747730255126953,0.49506285786628723,77.15283203125,-0.24526130321600403,-1.044056701673014,-175.98544405305623,2.4703786,5.6339846,11.179332,16.864525,-19.48611,-1.402576,8.307641,-2.8925364,-21.929842,6.884935,-12.523324,4.744029,-1.8771831,-0.3959677,11.214916,1.4893243,9.993553,-10.97123,63.73342,-2.8278532,2.4317324,15.533533,-3.2595813,-6.4101963,7.5419765,69.80824,-9.14547,0.44712967,-6.459793
17,2.8001551628112793,0.5236828923225403,77.1231460571289,-0.3724126601318698,-0.9545332037381676,-175.88630207537807,1.5095645,5.9385858,10.996208,18.540197,-19.981522,-1.380116,8.188203,-2.724004,-21.985083,6.8771567,-12.548023,4.7100616,-1.901362,-0.26056606,11.291218,1.4399439,9.95811,-10.836594,63.602936,-2.8044095,2.4101846,15.556679,-3.357416,-6.4426904,7.649564,69.780914,-9.21393,0.47593904,-6.4736314
18,2.8507277965545654,0.5478318929672241,77.09051513671875,-0.5095032192186378,-0.8821268539988734,-175.7743778742228,0.47745043,6.2664843,10.79624,20.392656,-20.494888,-1.3391439,8.08899,-2.545572,-22.04935,6.8691955,-12.574273,4.6881485,-1.9308096,-0.11485731,11.39678,1.3852592,9.925845,-10.705222,63.466846,-2.78449,2.3831716,15.585437,-3.4558272,-6.47736,7.747158,69.732956,-9.300877,0.52494156,-6.4817047
19,2.8986103534698486,0.5697119235992432,77.05945587158203,-0.6471014309894056,-0.8389856616748155,-175.6567296285536,-0.59240794,6.6046953,10.578893,22.374636,-20.947697,-1.3233835,8.026153,-2.3686574,-22.120903,6.859482,-12.600572,4.672575,-1.9786454,0.04175891,11.536803,1.3311943,9.878081,-10.5621395,63.34025,-2.7576015,2.3513541,15.614341,-3.5582309,-6.535403,7.87785,69.680305,-9.37653,0.5716316,-6.4883184
20,2.950995445251465,0.5885515809059143,77.02951049804688,-0.7725323726516506,-0.837728992213736,-175.54083833058763,-1.6690055,6.9374366,10.346131,24.446774,-21.263971,-1.3781472,8.014088,-2.2087986,-22.1971,6.8507743,-12.627904,4.6576805,-2.002991,0.18801361,11.715069,1.2609485,9.832576,-10.46129,63.248558,-2.73845,2.3179708,15.639607,-3.6483731,-6.6003957,8.017955,69.630226,-9.433024,0.5920596,-6.5020857
21,3.0026707649230957,0.6072631478309631,76.99706268310547,-0.8926959120956586,-0.8941462801704972,-175.42529316945146,-2.7491033,7.274925,10.10843,26.654514,-21.45981,-1.513916,8.057138,-2.064852,-22.280336,6.8796043,-12.678128,4.639661,-2.009716,0.3269512,11.94609,1.1773242,9.792793,-10.4025545,63.191566,-2.7292395,2.282004,15.658416,-3.731462,-6.671518,8.189822,69.58812,-9.457421,0.57392395,-6.531367
22,3.0521011352539062,0.6263682246208191,76.9652099609375,-1.0089763662837303,-0.9960031030575015,-175.30747108047103,-3.8405814,7.616078,9.863527,28.984394,-21.556757,-1.7052728,8.158697,-1.9272624,-22.370722,6.900598,-12.72536,4.6227913,-2.011543,0.46768758,12.22257,1.0862764,9.749908,-10.368205,63.156715,-2.7257667,2.2424672,15.671942,-3.8069222,-6.760427,8.393446,69.542076,-9.456308,0.53157383,-6.5665565
23,3.0875775814056396,0.6443761587142944,76.93415832519531,-1.1145331552352968,-1.1179379324640595,-175.19006932720964,-4.9518867,7.947146,9.586708,31.368366,-21.511515,-1.9526131,8.287333,-1.802774,-22.464813,6.9170475,-12.769928,4.611044,-2.0023522,0.595364,12.518973,0.98928124,9.711508,-10.350515,63.143887,-2.720424,2.2029338,15.683855,-3.8779519,-6.850515,8.595667,69.50137,-9.45182,0.48253524,-6.600516
24,3.1165475845336914,0.6630315184593201,76.90758514404297,-1.2023884040088684,-1.2344356668119956,-175.07589613067876,-6.0870605,8.250375,9.255067,33.729324,-21.280159,-2.2598,8.411314,-1.6983879,-22.559202,6.931103,-12.8108225,4.6084094,-1.9885508,0.705652,12.811801,0.8945722,9.673884,-10.329155,63.14683,-2.7029328,2.166377,15.695217,-3.9445753,-6.9446464,8.779897,69.467094,-9.458326,0.4443871,-6.620262
25,3.154108762741089,0.6801896095275879,76.89019012451172,-1.2671859285061842,-1.3414219349321284,-174.95943881361202,-7.2478004,8.510223,8.870623,36.062397,-20.82741,-2.660855,8.525678,-1.6200029,-22.659796,6.942822,-12.846931,4.615375,-1.9660109,0.7835143,13.096056,0.79376715,9.645615,-10.308692,63.176666,-2.6651382,2.1386933,15.706722,-4.0139017,-7.020809,8.933384,69.45485,-9.493986,0.41945702,-6.627354
26,3.1888701915740967,0.6989948153495789,76.87488555908203,-1.3138270560899088,-1.4514162793097856,-174.84114886351168,-8.430615,8.730601,8.444109,38.403454,-20.185715,-3.1515305,8.646582,-1.5624658,-22.766533,6.9504623,-12.878709,4.6300316,-1.9469353,0.8499292,13.386525,0.69350564,9.610605,-10.281527,63.224907,-2.609356,2.1158884,15.714576,-4.077835,-7.115596,9.086275,69.44553,-9.53633,0.39903483,-6.6184554
27,3.2216343879699707,0.7191331386566162,76.86180877685547,-1.3505306069649707,-1.5644358177114708,-174.73279370480097,-9.6281395,8.91895,7.968035,40.729885,-19.40678,-3.6879458,8.773286,-1.5169841,-22.866999,6.9559474,-12.908946,4.6525664,-1.9127479,0.90007126,13.677486,0.59659445,9.582888,-10.261955,63.2865,-2.5569916,2.0886989,15.726178,-4.139328,-7.200733,9.219296,69.44416,-9.576462,0.38485044,-6.608442
28,3.246032476425171,0.7339327931404114,76.84867095947266,-1.3862919250776171,-1.680582856371659,-174.64613294465275,-10.831746,9.082855,7.435259,43.014603,-18.53939,-4.2275457,8.905266,-1.4738036,-22.949068,6.961398,-12.940997,4.6832027,-1.8655264,0.9483142,13.96883,0.5202149,9.560647,-10.241668,63.339695,-2.5238192,2.0470579,15.742614,-4.1919184,-7.2923956,9.340422,69.43306,-9.591098,0.37819707,-6.5982733
29,3.26983642578125,0.7487761974334717,76.83560180664062,-1.4231448422748114,-1.7993389195662755,-174.5857589732883,-12.061711,9.222568,6.8467526,45.30053,-17.521477,-4.799789,9.039169,-1.4288806,-23.00948,6.966556,-12.973534,4.721018,-1.795438,0.9916815,14.262832,0.45932594,9.550409,-10.224527,63.38732,-2.5112119,1.9844518,15.760405,-4.2373176,-7.379003,9.437525,69.40887,-9.567875,0.38222572,-6.5902977
30,3.2870213985443115,0.7630089521408081,76.82051849365234,-1.456184985767478,-1.9207310179760728,-174.5444598132668,-13.310023,9.320222,6.20485,47.578075,-16.350199,-5.43385,9.175897,-1.3881382,-23.05536,6.9715533,-13.006189,4.7662807,-1.708423,1.0260632,14.5598755,0.4113275,9.551714,-10.210469,63.433903,-2.5125937,1.907437,15.7785845,-4.2773952,-7.4621844,9.515911,69.377495,-9.518232,0.3950718,-6.581401
31,3.2891459465026855,0.7717758417129517,76.8060073852539,-1.4830936942595678,-2.045660500738999,-174.5163024212484,-14.526188,9.360213,5.506597,49.743572,-15.163743,-6.083618,9.323644,-1.3559738,-23.089607,6.9735894,-13.040888,4.8209887,-1.6163547,1.0522907,14.854153,0.39057502,9.561816,-10.195768,63.466373,-2.5311043,1.8269016,15.804398,-4.3077626,-7.5515175,9.589617,69.34549,-9.466409,0.41134584,-6.5713835
32,3.2784621715545654,0.7725580334663391,76.79238891601562,-1.5027101543194181,-2.175224978970036,-174.4952691160889,-15.6621475,9.334604,4.7511563,51.697823,-14.100414,-6.6946115,9.490544,-1.3362585,-23.115303,6.97034,-13.079713,4.8871465,-1.529525,1.0659186,15.136072,0.40613863,9.577274,-10.1775055,63.482883,-2.5684168,1.7530259,15.849956,-4.334382,-7.638148,9.668156,69.33601,-9.442454,0.42599517,-6.5684648
33,3.259944438934326,0.7652339339256287,76.77433776855469,-1.5145939077769979,-2.3206187571408092,-174.47690822256624,-16.72473,9.184213,3.8422513,53.484364,-13.137646,-7.2548747,9.691357,-1.3299943,-23.134472,6.9624424,-13.124942,4.9680376,-1.452635,1.0689421,15.4159,0.45977986,9.597304,-10.161071,63.477577,-2.6432233,1.687452,15.926928,-4.353306,-7.72588,9.753482,69.346634,-9.457669,0.43829152,-6.57165
34,3.225151538848877,0.7520043253898621,76.76024627685547,-1.5193220953245423,-2.4779943159858866,-174.46504027137547,-17.726648,8.92472,2.8170483,55.133446,-12.221226,-7.8037,9.918927,-1.3354384,-23.146156,6.9493966,-13.17454,5.0622563,-1.3807402,1.0647261,15.696199,0.548478,9.623126,-10.145268,63.450153,-2.7489054,1.6248535,16.024622,-4.3603573,-7.824963,9.841366,69.36198,-9.494223,0.45049605,-6.5750875
35,3.1709752082824707,0.7334848642349243,76.74633026123047,-1.5183946600411298,-2.6252068928791537,-174.46678051322004,-18.635181,8.68527,1.8712376,56.52539,-11.442988,-8.335224,10.145006,-1.3504409,-23.145243,6.9317656,-13.225497,5.1618524,-1.3091959,1.0523522,15.953014,0.6706217,9.650315,-10.117178,63.413643,-2.8477564,1.5653502,16.124706,-4.36494,-7.924707,9.93647,69.3957,-9.534714,0.4628119,-6.5831113
36,3.1081080436706543,0.7119724750518799,76.73240661621094,-1.513488009796613,-2.740042212381789,-174.48976321343858,-19.43181,8.615624,1.1947663,57.550175,-10.891249,-8.8189125,10.341804,-1.3722202,-23.126345,6.9067836,-13.272382,5.258837,-1.2352778,1.0310894,16.162964,0.8274394,9.675532,-10.061166,63.37736,-2.9021058,1.5091136,16.20794,-4.3763123,-8.018564,10.045693,69.45859,-9.561627,0.47561887,-6.598798
37,3.031588077545166,0.6831653118133545,76.72180938720703,-1.5085881268508101,-2.813586886522568,-174.53864938443135,-20.112232,8.795185,0.85877246,58.174152,-10.650032,-9.251421,10.49946,-1.3961047,-23.085777,6.873191,-13.315415,5.3508406,-1.1606925,1.0073346,16.317793,1.0340787,9.698691,-9.962279,63.323044,-2.87907,1.452042,16.27097,-4.394371,-8.123078,10.197928,69.54994,-9.56601,0.4878876,-6.6215925
38,2.9454498291015625,0.6419399976730347,76.70989990234375,-1.5017775547174244,-2.858802848347298,-174.6095782255011,-20.698643,9.158784,0.7516489,58.467808,-10.648739,-9.616851,10.633766,-1.4244823,-23.02625,6.8307757,-13.35553,5.441801,-1.0844911,0.9790768,16.428305,1.280652,9.716549,-9.833118,63.2606,-2.8052812,1.3950391,16.327059,-4.4190154,-8.228727,10.377801,69.67222,-9.561784,0.5002404,-6.6539264
39,2.8557090759277344,0.5965781211853027,76.69766998291016,-1.4843890794697825,-2.885340646961037,-174.6974094220133,-21.216467,9.642255,0.7875148,58.479504,-10.743647,-9.861201,10.753368,-1.4675293,-22.951044,6.7885046,-13.396235,5.532751,-1.0104163,0.93787885,16.509853,1.5518715,9.731274,-9.688867,63.20748,-2.734664,1.3476818,16.366137,-4.443038,-8.332774,10.547536,69.80665,-9.546907,0.51392347,-6.68514
40,2.7510855197906494,0.5458143949508667,76.68833923339844,-1.4581571611243946,-2.902240354866534,-174.79515943970216,-21.684544,10.182629,0.8747701,58.241875,-10.785009,-9.935767,10.870541,-1.5238683,-22.865452,6.740537,-13.431175,5.624737,-0.94147086,0.8849427,16.576841,1.8305019,9.746531,-9.547557,63.182888,-2.722669,1.319242,16.378765,-4.4581738,-8.4290905,10.664982,69.9345,-9.522199,0.5302272,-6.705273
41,2.6348133087158203,0.4905342161655426,76.67964935302734,-1.4274301084849323,-2.913169458591949,-174.89613530012528,-22.113672,10.808304,1.0390532,57.761616,-10.764548,-9.772791,10.966196,-1.5977132,-22.773426,6.7437477,-13.489062,5.7130485,-0.88172317,0.8214202,16.636106,2.1138513,9.764793,-9.400477,63.185318,-2.7947187,1.3183346,16.35307,-4.466607,-8.514235,10.717901,70.05782,-9.481877,0.5496849,-6.712034
42,2.5090792179107666,0.43346425890922546,76.67398071289062,-1.3880093274374228,-2.91123019936157,-175.00644001455655,-22.488853,11.531408,1.3200188,57.01558,-10.750132,-9.418602,11.053897,-1.6851865,-22.670654,6.7475924,-13.544641,5.799206,-0.82578886,0.74206775,16.67681,2.410697,9.78699,-9.244436,63.20627,-2.918746,1.3382772,16.296898,-4.4706445,-8.587533,10.725923,70.18506,-9.4295635,0.57150596,-6.7112994
43,2.371739149093628,0.3686232566833496,76.66621398925781,-1.3478751259695316,-2.8967654983134987,-175.131609582627,-22.799818,12.280331,1.6225035,56.016846,-10.719728,-9.003217,11.134006,-1.7783232,-22.554724,6.7520866,-13.603268,5.8908587,-0.7678615,0.65585494,16.693672,2.716305,9.8120165,-9.107089,63.260517,-3.0636947,1.3649272,16.23416,-4.4712334,-8.643755,10.695366,70.31881,-9.379848,0.5952112,-6.7097716
44,2.2220020294189453,0.2912953495979309,76.65530395507812,-1.3157389072756258,-2.8705870183182953,-175.27714024610194,-23.036676,12.986758,1.8493124,54.77556,-10.648563,-8.654198,11.207179,-1.8684075,-22.423737,6.7568383,-13.670977,5.9954824,-0.70716625,0.577156,16.688622,3.0374808,9.846859,-9.011381,63.342243,-3.2019863,1.3851556,16.178392,-4.4532213,-8.700226,10.638963,70.43334,-9.340495,0.6195408,-6.701001
45,2.056074857711792,0.20638658106327057,76.64044952392578,-1.289523754504393,-2.8298416311838213,-175.44464666514725,-23.194508,13.640773,1.9901822,53.25853,-10.534557,-8.38516,11.272185,-1.956194,-22.277555,6.761918,-13.752229,6.116631,-0.6411118,0.50344604,16.648956,3.3648236,9.881625,-8.978428,63.47966,-3.3320684,1.394689,16.147589,-4.4222517,-8.737719,10.530219,70.54744,-9.329881,0.64834785,-6.6926694
46,1.881134271621704,0.11675827205181122,76.62457275390625,-1.2656184683846636,-2.775038222309338,-175.63105132986905,-23.278835,14.271007,2.0961862,51.470936,-10.390749,-8.138732,11.327916,-2.0464714,-22.117424,6.7670593,-13.841583,6.2498913,-0.5615497,0.43033397,16.586046,3.7044964,9.93659,-9.002161,63.64587,-3.4757729,1.4025565,16.117346,-4.360663,-8.77669,10.363931,70.63235,-9.3338375,0.67938113,-6.6705604
47,1.684162974357605,0.016784997656941414,76.60308837890625,-1.2500049721480282,-2.711793579187468,-175.83475621938925,-23.301374,14.871418,2.1583474,49.486065,-10.207683,-7.9300857,11.3801775,-2.1345294,-21.943031,6.7726746,-13.935586,6.390505,-0.48973367,0.3625017,16.502062,4.0523105,9.981552,-9.029197,63.844727,-3.6051786,1.407755,16.09255,-4.310841,-8.800991,10.208945,70.7347,-9.333221,0.70833397,-6.6576476
48,1.4921128749847412,-0.0872875303030014,76.5779800415039,-1.2483883269733094,-2.6456939279715526,-176.05437799994937,-23.275038,15.438735,2.1660135,47.378014,-9.9762125,-7.7721877,11.432725,-2.217159,-21.75408,6.778921,-14.028421,6.5340424,-0.39255995,0.3050759,16.418667,4.4036713,10.051309,-9.069695,64.039406,-3.7255213,1.4150739,16.04689,-4.2456775,-8.836148,10.073392,70.81091,-9.311604,0.7257275,-6.64113
49,1.2848901748657227,-0.20418663322925568,76.55033111572266,-1.261847982210015,-2.576678681504206,-176.29296550677876,-23.191174,15.964265,2.0955617,45.108063,-9.687994,-7.691229,11.485482,-2.2927306,-21.548508,6.7850547,-14.117267,6.680007,-0.30894884,0.26048192,16.323006,4.7600465,10.096839,-9.07674,64.25845,-3.7867377,1.423089,16.000885,-4.2148037,-8.865391,10.022302,70.92048,-9.251603,0.73167926,-6.647572
50,1.0689870119094849,-0.33425822854042053,76.51786041259766,-1.2865431799065778,-2.502365738225428,-176.5503489367386,-23.046955,16.454342,1.9599591,42.65535,-9.349367,-7.670517,11.536594,-2.3641741,-21.327303,6.790574,-14.204929,6.830773,-0.21989292,0.22625998,16.220472,5.1283913,10.150988,-9.0872755,64.482185,-3.819509,1.433512,15.941668,-4.17762,-8.907664,10.008218,71.014,-9.164443,0.7278104,-6.6537166
51,0.844274640083313,-0.4839155375957489,76.48063659667969,-1.3226809229311116,-2.4247566669745595,-176.8202315575097,-22.863867,16.930359,1.801372,40.116898,-8.972185,-7.6576858,11.587877,-2.433223,-21.095146,6.7974534,-14.295847,6.9863153,-0.13252196,0.20327665,16.114014,5.508744,10.208421,-9.082927,64.70589,-3.86516,1.4389268,15.866368,-4.137656,-8.963397,10.017698,71.09526,-9.0646515,0.71922326,-6.654343
52,0.6115264892578125,-0.6366623044013977,76.4375,-1.3695231973808477,-2.3458209066366202,-177.09599900478722,-22.666025,17.411127,1.6621972,37.593445,-8.570276,-7.6014633,11.644518,-2.5004954,-20.857145,6.8026223,-14.39262,7.1463046,-0.05472008,0.19214691,15.998025,5.887339,10.241356,-9.04547,64.946846,-3.957609,1.4342215,15.789182,-4.1201234,-9.007214,10.032384,71.204445,-8.9768095,0.7123426,-6.661463
53,0.37070170044898987,-0.8035703301429749,76.39161682128906,-1.4293000067675645,-2.261538434000553,-177.38458332270702,-22.456133,17.90383,1.5495026,35.06834,-8.118389,-7.470586,11.697315,-2.5641115,-20.60795,6.8101764,-14.497429,7.305027,0.017680211,0.19414729,15.876016,6.279161,10.268528,-8.9759445,65.1809,-4.1188965,1.4162064,15.692798,-4.1137085,-9.060682,10.076707,71.31831,-8.89406,0.70620406,-6.6592793
54,0.12160275131464005,-0.9813345074653625,76.33869934082031,-1.5008896796417501,-2.172086340392602,-177.68600392882436,-22.22901,18.396551,1.4411324,32.511024,-7.6245985,-7.2978196,11.7484,-2.6243773,-20.348059,6.81708,-14.607303,7.4646306,0.08263846,0.21017806,15.747105,6.683319,10.28642,-8.879141,65.41364,-4.32345,1.3885132,15.580504,-4.1151137,-9.126285,10.153552,71.43335,-8.808485,0.69850034,-6.650595
55,-0.1429164707660675,-1.1745513677597046,76.28280639648438,-1.5801848637143232,-2.0850862056187576,-177.9830107426094,-21.996655,18.879772,1.3348055,29.999596,-7.151685,-7.1298356,11.810891,-2.6876287,-20.091667,6.822298,-14.720732,7.6369743,0.13722049,0.23486808,15.614756,7.085455,10.290819,-8.75696,65.65887,-4.5542626,1.3572656,15.464891,-4.1205215,-9.184989,10.204553,71.55269,-8.730246,0.6913687,-6.64561
56,-0.41095736622810364,-1.3723340034484863,76.22138214111328,-1.6622557491235468,-2.0086989225054777,-178.25961821428172,-21.766493,19.343023,1.2301847,27.6037,-6.757105,-7.013815,11.897994,-2.7614117,-19.851738,6.8289056,-14.83997,7.8338876,0.16410416,0.26698998,15.490979,7.490538,10.283134,-8.594379,65.90381,-4.794582,1.3295488,15.345332,-4.113599,-9.245267,10.193965,71.65215,-8.655568,0.68605745,-6.639383
57,-0.686089277267456,-1.581199288368225,76.15481567382812,-1.7515042391092903,-1.9425970837666457,-178.51594073375358,-21.529352,19.790535,1.1166769,25.288643,-6.4423604,-6.945004,12.010755,-2.8396103,-19.627897,6.832824,-14.965294,8.056633,0.1727538,0.30396363,15.3697,7.889201,10.271289,-8.421541,66.17029,-5.0572786,1.3032823,15.22724,-4.0968547,-9.281388,10.087044,71.74598,-8.605344,0.68178654,-6.6455035
58,-0.9757285714149475,-1.7997815608978271,76.08407592773438,-1.8486419464026398,-1.8832757728359297,-178.7592493471413,-21.283087,20.223928,0.99858767,23.02586,-6.175499,-6.905599,12.143006,-2.9212656,-19.4148,6.8343773,-15.095619,8.299688,0.15877226,0.34929124,15.252212,8.291634,10.253651,-8.2216215,66.443405,-5.3424497,1.2767993,15.101768,-4.073711,-9.311638,9.924244,71.82852,-8.566694,0.6778488,-6.65388
59,-1.2725155353546143,-2.0346713066101074,76.01104736328125,-1.9434020467733115,-1.835451824034623,-178.9852515456439,-21.028902,20.632578,0.9019199,20.868032,-5.9540124,-6.9226017,12.299408,-3.0196514,-19.216993,6.837382,-15.228222,8.564454,0.12718613,0.4035222,15.147117,8.687591,10.210239,-7.961322,66.711784,-5.621362,1.255169,14.97579,-4.0430007,-9.353028,9.714234,71.89469,-8.526495,0.6764577,-6.65436
60,-1.5808724164962769,-2.284919500350952,75.93695831298828,-2.0261080160438816,-1.8041016563355463,-179.19005385067913,-20.761728,21.009712,0.8541154,18.859188,-5.7698226,-7.020755,12.487138,-3.1470532,-19.038746,6.8378286,-15.354532,8.852339,0.10744948,0.43725047,15.049806,9.08635,10.176467,-7.6544876,66.94753,-5.9029217,1.247332,14.855284,-3.99178,-9.372653,9.4693,71.94648,-8.458229,0.6818803,-6.6535134
61,-1.8999444246292114,-2.5431323051452637,75.85830688476562,-2.1007233531747387,-1.7953528671555963,-179.36869400969175,-20.443022,21.360247,0.8464823,16.924294,-5.612489,-7.2508936,12.716014,-3.2993326,-18.883537,6.8373613,-15.480379,9.161348,0.056126717,0.4737554,14.978205,9.481343,10.08845,-7.1994066,67.158,-6.1227455,1.2571806,14.744694,-3.9505548,-9.400872,9.190551,71.9943,-8.361628,0.6961573,-6.6358957
62,-2.2231316566467285,-2.81496262550354,75.78056335449219,-2.172918874560381,-1.8069154686364421,-179.52727140251392,-20.068443,21.694204,0.8767089,15.035238,-5.46988,-7.5835843,12.980833,-3.4699042,-18.745726,6.8354073,-15.60521,9.491369,0.0006056031,0.50929916,14.919483,9.879485,9.98463,-6.673418,67.34527,-6.332199,1.2819703,14.641049,-3.892863,-9.4223,8.870324,72.026405,-8.235972,0.71836954,-6.6122723
63,-2.5576844215393066,-3.104837417602539,75.7014389038086,-2.237041673737107,-1.8314895838377163,-179.6773826550957,-19.688473,22.014656,0.9766959,13.321752,-5.34491,-7.9201126,13.2679205,-3.665087,-18.616724,6.8330417,-15.720145,9.846149,-0.053821776,0.5420021,14.871621,10.270069,9.8676195,-6.1076784,67.51525,-6.546477,1.305998,14.541082,-3.8328066,-9.441267,8.541595,72.05619,-8.10555,0.74172044,-6.5905523
64,-2.887432098388672,-3.403823137283325,75.62115478515625,-2.284358317850161,-1.8593330869555458,-179.827885007347,-19.370937,22.31944,1.170506,11.943077,-5.2555757,-8.159216,13.560997,-3.8950803,-18.490925,6.8289056,-15.813494,10.230207,-0.09987433,0.5666584,14.826648,10.644487,9.745234,-5.549637,67.67257,-6.792075,1.3138252,14.443074,-3.7759998,-9.462662,8.237742,72.09215,-7.99075,0.7600824,-6.580498
65,-3.2218761444091797,-3.7127091884613037,75.5484390258789,-2.3032643795801713,-1.887994033170912,-179.9728428327414,-19.136873,22.600164,1.4806336,10.946307,-5.210972,-8.290387,13.858878,-4.172382,-18.378334,6.823573,-15.888168,10.65052,-0.13477577,0.57083046,14.785014,11.001748,9.619695,-4.9797306,67.81414,-7.1013684,1.2985469,14.345068,-3.7152982,-9.485746,7.9532137,72.12846,-7.8926,0.7704067,-6.5835795
66,-3.5683133602142334,-4.0342230796813965,75.4749984741211,-2.2995170863820924,-1.9203682968553153,179.89205446848845,-18.971079,22.85948,1.8778816,10.285403,-5.2207513,-8.357415,14.1667,-4.4913597,-18.281105,6.817203,-15.947007,11.103361,-0.16463098,0.5576972,14.748864,11.344651,9.489436,-4.3833094,67.93803,-7.4528503,1.2696301,14.247369,-3.6491563,-9.50934,7.6734815,72.161,-7.802862,0.77631783,-6.594186
67,-3.9158244132995605,-4.377372741699219,75.40511322021484,-2.2856313266152433,-1.9531412663782568,179.7568712292496,-18.89104,23.105032,2.3081782,9.984563,-5.3119726,-8.341751,14.477417,-4.83842,-18.183222,6.8099422,-15.982015,11.577101,-0.19092166,0.5414179,14.712439,11.671822,9.362987,-3.8191884,68.04831,-7.792705,1.2369113,14.148747,-3.587684,-9.53664,7.419692,72.19651,-7.7201796,0.78106743,-6.6096587
68,-4.2744526863098145,-4.740177154541016,75.33631134033203,-2.2778817325442384,-1.9848526472348538,179.61020298517522,-18.93797,23.349888,2.7069979,10.116165,-5.5364447,-8.226856,14.78448,-5.19721,-18.067116,6.802288,-15.984529,12.059716,-0.21307938,0.54079336,14.672099,11.983366,9.248985,-3.3476822,68.14799,-8.067857,1.2102585,14.047768,-3.5379202,-9.57108,7.2109427,72.23846,-7.6445923,0.7879974,-6.6260467
69,-4.633614540100098,-5.117040634155273,75.2651138305664,-2.278130895572339,-2.011615276704213,179.44646253989373,-19.141123,23.604593,3.0522487,10.741198,-5.9050665,-7.976529,15.080519,-5.5665345,-17.926207,6.795324,-15.959061,12.544993,-0.24118859,0.56771475,14.625104,12.283098,9.131008,-2.9732597,68.23601,-8.252537,1.192064,13.939031,-3.5136237,-9.624674,7.068683,72.29796,-7.574066,0.7988286,-6.646854
70,-4.998456001281738,-5.515710830688477,75.19852447509766,-2.281303311206714,-2.037101496419181,179.27137627144882,-19.437685,23.86523,3.3895004,11.742471,-6.357249,-7.610808,15.372919,-5.9514847,-17.769512,6.7872834,-15.907438,13.039411,-0.25580055,0.60819334,14.575758,12.56759,9.031422,-2.6833706,68.309944,-8.386872,1.1788518,13.818425,-3.4941764,-9.690088,6.9628625,72.35814,-7.510452,0.8108555,-6.668558
71,-5.368373394012451,-5.9303507804870605,75.13526916503906,-2.291978805913519,-2.0703702251852545,179.08996177090103,-19.732714,24.123507,3.7561386,12.9259615,-6.843342,-7.197601,15.67229,-6.3480496,-17.60115,6.7799277,-15.818324,13.550698,-0.26656374,0.66825044,14.531208,12.839218,8.937213,-2.4604747,68.37314,-8.488252,1.1640937,13.709315,-3.4761453,-9.770852,6.886585,72.41304,-7.453038,0.82244205,-6.683983
72,-5.739585876464844,-6.371181488037109,75.06671905517578,-2.3172556030600564,-2.121400875736047,178.91038437643368,-19.96824,24.372976,4.1713805,14.169688,-7.3441553,-6.805175,15.988388,-6.7491255,-17.427147,6.785699,-15.688149,14.08598,-0.27607998,0.7520713,14.499308,13.097145,8.8482,-2.2975101,68.429924,-8.579325,1.1421086,13.632685,-3.4492636,-9.8619585,6.8202267,72.45259,-7.4062757,0.8316035,-6.685896
73,-6.125547885894775,-6.8228325843811035,74.99623107910156,-2.3581073000764428,-2.201222422350246,178.7259240038095,-20.130014,24.61973,4.630225,15.497388,-7.8979473,-6.432577,16.32961,-7.154885,-17.244606,6.8082385,-15.524396,14.646686,-0.28471118,0.8601857,14.489322,13.350499,8.763102,-2.2079353,68.47381,-8.657288,1.1041404,13.602703,-3.4192708,-9.96563,6.777917,72.482315,-7.373373,0.8392318,-6.6679993
74,-6.517916202545166,-7.294267654418945,74.9273681640625,-2.4203836097369145,-2.2957671703691616,178.52357473375247,-20.264818,24.888466,5.1217155,16.977266,-8.509773,-6.0538607,16.678165,-7.5230637,-17.000662,6.8199377,-15.314136,15.000033,-0.28055093,0.99816966,14.488486,13.596861,8.682799,-2.1915612,68.50572,-8.713445,1.0552012,13.605611,-3.3891988,-10.082637,6.7633853,72.50553,-7.351467,0.84573865,-6.635709
75,-6.910382270812988,-7.778036594390869,74.8604965209961,-2.5443824430074833,-2.3618689940120756,178.28980773970255,-20.436245,25.234507,5.6468525,18.571177,-9.118536,-5.706469,16.9718,-7.778818,-16.636276,6.812987,-15.031495,15.000033,-0.23897688,1.2055638,14.454613,13.820464,8.605217,-2.2133205,68.5392,-8.757047,1.0105975,13.622204,-3.3479702,-10.210219,6.746775,72.51124,-7.3348126,0.8494982,-6.601066
76,-7.3212385177612305,-8.277486801147461,74.79218292236328,-2.6638873670509087,-2.408375518818545,178.08103121459985,-20.606768,25.54394,6.236646,20.170609,-9.637389,-5.3896117,17.251669,-8.052271,-16.274479,6.8009744,-14.676131,15.000033,-0.20237088,1.4187003,14.4001875,14.002686,8.526424,-2.2391078,68.59051,-8.7981415,0.98533285,13.634146,-3.28588,-10.344472,6.69711,72.489815,-7.31869,0.8485368,-6.577101
77,-7.743764877319336,-8.794404029846191,74.72836303710938,-2.7770053656826152,-2.4342801919133885,177.89893421133755,-20.77507,25.832825,6.9682674,21.829935,-10.077875,-5.1194534,17.513317,-8.3472595,-15.919777,6.7848663,-14.2484455,15.000033,-0.17087173,1.634621,14.325974,14.138258,8.446113,-2.2623115,68.6634,-8.835913,0.98623806,13.64683,-3.2032344,-10.48345,6.60961,72.439896,-7.295154,0.8390082,-6.5697765
78,-8.165831565856934,-9.329782485961914,74.67630767822266,-2.888196265500888,-2.4478147367449283,177.73701868753852,-20.941233,26.108234,7.8031945,23.579279,-10.476313,-4.8758874,17.76499,-8.659352,-15.570126,6.765908,-13.754697,15.000033,-0.14411828,1.8577379,14.238656,14.236479,8.3649845,-2.2993288,68.75014,-8.865454,1.0041426,13.667343,-3.105292,-10.626398,6.49915,72.36758,-7.2698274,0.8229598,-6.572257
79,-8.583094596862793,-9.883462905883789,74.64559936523438,-2.9958995759639597,-2.442594210031621,177.59968894834898,-21.12817,26.330095,8.58946,25.312815,-10.803996,-4.628003,18.00381,-8.98876,-15.224124,6.7452426,-13.190908,15.000033,-0.12756535,2.0853336,14.129117,14.302905,8.2820015,-2.3491693,68.848366,-8.891235,1.0300938,13.6805525,-2.9916155,-10.774708,6.369209,72.27731,-7.2561917,0.807835,-6.5797524
80,-9.017148971557617,-10.455047607421875,74.61343383789062,-3.1005702837703737,-2.4136096541877317,177.4917876089425,-21.361477,26.455727,9.174743,26.923437,-11.028833,-4.349109,18.227024,-9.334626,-14.880903,6.7290416,-12.551367,15.000033,-0.12706746,2.3174684,13.989321,14.34291,8.1945715,-2.4097922,68.956314,-8.916067,1.054918,13.671532,-2.8625185,-10.930929,6.2249866,72.173744,-7.2655077,0.80078864,-6.5872507
81,-9.467899322509766,-11.047316551208496,74.58541870117188,-3.2055718059883795,-2.3471473453086085,177.41571933663414,-21.672743,26.476244,9.509201,28.376251,-11.076945,-4.0259595,18.418669,-9.695471,-14.531195,6.713186,-11.835366,15.000033,-0.14972912,2.5572503,13.806748,14.359931,8.098789,-2.4705553,69.07243,-8.937008,1.0744064,13.635519,-2.7190337,-11.09789,6.069488,72.05223,-7.31351,0.8085521,-6.590082
82,-9.926610946655273,-11.66161823272705,74.56674194335938,-3.310178260085548,-2.251093495912756,177.36933077987055,-22.043653,26.409868,9.679631,29.733345,-10.98718,-3.6774402,18.582262,-10.072384,-14.180969,6.700735,-11.045559,15.000033,-0.1922883,2.806732,13.590252,14.350503,7.9934716,-2.5347638,69.19835,-8.952981,1.0938742,13.581471,-2.5606818,-11.275217,5.900896,71.91253,-7.389297,0.8257122,-6.5915275
83,-10.394485473632812,-12.29128646850586,74.54904174804688,-3.408574469421731,-2.152278485713911,177.3506261513075,-22.420662,26.250612,9.740042,31.024296,-10.893188,-3.3287332,18.74946,-10.473786,-13.8540745,6.6953187,-10.173089,15.000033,-0.24564968,3.062452,13.364855,14.3102,7.8823137,-2.6225755,69.33529,-8.971132,1.1184952,13.514485,-2.3847158,-11.461201,5.7150054,71.765175,-7.4673753,0.8412825,-6.598943
84,-10.87181282043457,-12.93752384185791,74.53365325927734,-3.4926037950029234,-2.076867959106914,177.35715997979352,-22.750425,25.991335,9.743827,32.281487,-10.931062,-3.004119,18.950483,-10.9088955,-13.574802,6.7020288,-9.211056,15.000033,-0.29899758,3.3177223,13.154188,14.233733,7.7715125,-2.755281,69.48492,-8.999448,1.1536355,13.438817,-2.1876595,-11.652658,5.504533,71.61936,-7.523391,0.84402335,-6.619205
85,-11.358925819396973,-13.609427452087402,74.52608489990234,-3.5572090001332546,-2.019101919422556,177.38507032883277,-23.062277,25.593958,9.636577,33.536884,-11.121411,-2.6990612,19.178186,-11.389031,-13.334237,6.720334,-8.162104,15.000033,-0.34163216,3.5659513,12.951849,14.114916,7.6634846,-2.9329937,69.65701,-9.0528,1.2010263,13.344359,-1.9659821,-11.849807,5.256572,71.47433,-7.543443,0.8265534,-6.658937
86,-11.849544525146484,-14.292299270629883,74.52796173095703,-3.6038411576377194,-1.9685846400860607,177.43611488635256,-23.371803,25.068113,9.414665,34.77723,-11.400264,-2.4064574,19.41855,-11.912551,-13.128573,6.7501745,-7.0284915,15.000033,-0.379177,3.807464,12.74817,13.957603,7.5579486,-3.1474862,69.847786,-9.123079,1.2580281,13.231359,-1.7196193,-12.051862,4.975326,71.32439,-7.5441184,0.7960419,-6.71232
87,-12.348564147949219,-14.994547843933105,74.5352783203125,-3.6319398926468294,-1.9430113286300785,177.51557993418717,-23.602055,24.478947,9.207486,35.955425,-11.78005,-2.1450899,19.68542,-12.479342,-12.986299,6.8071766,-5.807027,15.000033,-0.4251759,4.040914,12.560173,13.772678,7.459151,-3.410077,70.037865,-9.187115,1.3238751,13.119915,-1.4524388,-12.2540865,4.682882,71.17402,-7.544048,0.7639452,-6.768705
88,-12.858284950256348,-15.717106819152832,74.54820251464844,-3.6367279134535484,-1.9580226897488493,177.62524179195947,-23.676184,23.89209,9.14781,37.018642,-12.269692,-1.9321246,19.345098,-13.23088,-12.782497,8.273269,-5.2160387,15.000033,-0.48900652,4.2577763,12.40269,13.571619,7.3743677,-3.7323234,70.20748,-9.222014,1.3977062,13.029897,-1.1700542,-12.450533,4.400915,71.02876,-7.561433,0.7417117,-6.8182445
89,-13.37129020690918,-16.448076248168945,74.56343841552734,-3.605191972713729,-2.013769826029204,177.75549334011168,-23.58373,23.325842,9.300258,37.9831,-12.914677,-1.7711655,18.981892,-14.056408,-12.598956,9.909834,-4.6122537,15.000033,-0.5534688,4.4463987,12.266345,13.354023,7.3093257,-4.139969,70.36455,-9.235072,1.4899424,12.95803,-0.85952985,-12.636223,4.1221356,70.88563,-7.6017046,0.73478144,-6.870755
90,-13.900418281555176,-17.186283111572266,74.5793685913086,-3.526456196540637,-2.0962090446510504,177.89928434952355,-23.360428,22.735239,9.599104,38.860348,-13.693889,-1.6513486,18.571781,-14.974643,-12.424302,11.721641,-3.9967046,15.000033,-0.60777813,4.592296,12.138678,13.116237,7.265252,-4.6218877,70.51502,-9.235155,1.5979255,12.894978,-0.52237415,-12.809681,3.836071,70.74301,-7.655015,0.7363421,-6.9281464
91,-14.42839241027832,-17.933589935302734,74.6082534790039,-3.384883863173459,-2.1951827812572136,178.05645915426436,-23.002546,22.076412,9.99764,39.587173,-14.514614,-1.5646524,18.025187,-16.02334,-12.291244,13.848132,-3.4216893,15.000033,-0.68566686,4.653564,12.024355,12.876269,7.246121,-5.102657,70.62895,-9.193317,1.7003275,12.852781,-0.20712098,-12.942417,3.586073,70.62572,-7.71707,0.74097556,-6.980434
92,-14.952876091003418,-18.691347122192383,74.63998413085938,-3.1578955609018142,-2.2967279849303264,178.2228611926791,-22.506657,21.295189,10.460372,40.090145,-15.278006,-1.501212,17.254414,-17.2489,-12.214209,16.412165,-2.9267454,15.000033,-0.7539269,4.63691,11.923436,12.612123,7.2437253,-5.6032486,70.70051,-9.108311,1.7774141,12.838819,0.10893138,-13.0837,3.3320794,70.49732,-7.7891397,0.73876435,-6.98103
93,-15.479914665222168,-19.45842742919922,74.6707534790039,-2.838045854152966,-2.3854018040995264,178.38943082424205,-21.870493,20.373657,10.99779,40.32125,-15.968291,-1.4958345,16.269726,-18.670938,-12.188643,19.365614,-2.504403,15.000033,-0.8400516,4.512736,11.817211,12.350678,7.2585764,-6.072321,70.709625,-8.949646,1.8195785,12.8584,0.38707018,-13.211133,3.1500885,70.39982,-7.8663893,0.7291096,-6.9266896
94,-15.999052047729492,-20.22269058227539,74.70094299316406,-2.4220735095474986,-2.4697624323187646,178.55896663804225,-21.09948,19.313969,11.629541,40.304283,-16.62058,-1.5374588,15.158516,-20.270958,-12.16489,22.544672,-2.091492,15.000033,-0.9528613,4.2700353,11.70742,12.094145,7.2893815,-6.509378,70.66643,-8.724246,1.8378617,12.911087,0.6235577,-13.303811,3.041275,70.34159,-7.9495587,0.71738476,-6.8447003
95,-16.523509979248047,-20.993955612182617,74.74264526367188,-1.8879945755323146,-2.5716097786426535,178.74502073486164,-20.202269,18.0829,12.3346615,40.06775,-17.208824,-1.5455382,13.946672,-22.045052,-12.067276,25.898502,-1.6405444,15.000033,-1.0895306,3.8979974,11.625494,11.825334,7.34216,-6.926748,70.57775,-8.465863,1.8448728,12.985501,0.8383342,-13.370852,2.9291558,70.280716,-8.037422,0.70425886,-6.7492304
96,-17.03455352783203,-21.759042739868164,74.78544616699219,-1.2120751042379467,-2.7131397218421816,178.96052651485027,-19.183031,16.646748,13.0890045,39.635113,-17.70387,-1.4411042,12.65272,-23.978779,-11.810423,29.380121,-1.1100508,15.000033,-1.3095334,3.3658938,11.602329,11.551961,7.396041,-7.251053,70.44261,-8.177156,1.84921,13.0802765,0.9917706,-13.392556,2.81529,70.22476,-8.1177635,0.6938332,-6.6757793
97,-17.54261589050293,-22.524879455566406,74.83072662353516,-0.3473851042429031,-2.910495395626749,179.2130199348728,-17.993942,14.931952,13.907965,38.939014,-18.074902,-1.1857202,11.23931,-26.159912,-11.35845,33.085308,-0.44104636,15.000033,-1.482208,2.635907,11.6517725,11.233241,7.5423675,-7.6608706,70.25322,-7.9238105,1.8629681,13.165853,1.2005262,-13.377644,2.5167394,70.07982,-8.219064,0.6781213,-6.5842857
98,-18.041542053222656,-23.28997802734375,74.87642669677734,0.6850176667238888,-3.157363837656185,179.5046628507238,-16.637955,12.946423,14.758103,37.933266,-18.31263,-0.82533413,9.716578,-28.520271,-10.651214,36.944923,0.33734024,15.000033,-1.7450812,1.700557,11.759635,10.922492,7.7144847,-7.9813375,69.998055,-7.630576,1.8722427,13.266781,1.3418279,-13.2979145,2.2294967,69.9552,-8.318181,0.66320336,-6.5041423
99,-18.528459548950195,-24.013980865478516,74.94076538085938,1.491228623035757,-3.392347441366589,179.76715934888932,-15.371424,11.226357,15.408448,36.92637,-18.521542,-0.50376946,8.091502,-30.564852,-10.264422,40.676716,1.1315513,12.728183,-1.9894462,0.9436922,11.876662,10.587717,7.9174147,-8.270683,69.71078,-7.327734,1.8795314,13.389985,1.4641237,-13.166422,1.912902,69.808945,-8.4199705,0.6515798,-6.4485216
100,-19.002445220947266,-24.696945190429688,75.01741027832031,1.9336413123872638,-3.5869555623500067,179.98412101470947,-14.32462,9.976522,15.805696,36.15488,-18.806902,-0.27502832,6.414208,-32.083256,-10.022896,44.13242,1.7820193,9.573479,-2.1782813,0.5313431,11.982478,10.213367,8.150971,-8.542498,69.41523,-7.0306783,1.8864522,13.539438,1.5877331,-12.988992,1.5688671,69.61937,-8.517472,0.64639837,-6.433545
101,-19.453813552856445,-25.356521606445312,75.08679962158203,2.3881876450856963,-3.7926040565338606,-179.7684068572143,-13.269908,8.688562,16.134167,35.299526,-19.03395,-0.03421572,4.6882687,-33.531254,-9.6803055,47.52464,2.2617047,6.278601,-2.388525,0.08843556,12.116518,9.798594,8.423173,-8.796503,69.10835,-6.7402143,1.892478,13.720808,1.7116272,-12.758282,1.1693877,69.37507,-8.607742,0.6560727,-6.474242
102,-19.894855499267578,-25.998138427734375,75.14754486083984,2.85373414079913,-4.015366633607816,-179.49298614483843,-12.183563,7.3614607,16.399284,34.341988,-19.200294,0.22941375,2.884634,-34.948914,-9.271933,50.926235,2.5948849,2.7478075,-2.619054,-0.38929668,12.283243,9.34941,8.737056,-9.0326185,68.780235,-6.45079,1.898016,13.927995,1.8285779,-12.471544,0.71808517,69.08729,-8.695083,0.6761822,-6.5574336
103,-20.334251403808594,-26.620813369750977,75.2029800415039,3.2785479006231197,-4.256087800044396,-179.1782876390854,-11.090824,6.06634,16.565548,33.3437,-19.324291,0.4891551,1.1107911,-36.095177,-8.667453,54.14793,2.6877909,-0.47404167,-2.8702357,-0.8535277,12.473436,8.870518,9.092705,-9.255716,68.44202,-6.1655354,1.9049523,14.14753,1.9505886,-12.136682,0.27714372,68.7698,-8.78113,0.69203496,-6.658342
104,-20.779592514038086,-27.222854614257812,75.26581573486328,3.6081853726812056,-4.513340289429433,-178.81596047121585,-10.024293,4.883182,16.604279,32.38071,-19.431316,0.7188371,-0.5249207,-36.67935,-7.7241273,57.028275,2.4846296,-2.782901,-3.1425922,-1.2494564,12.6769905,8.367537,9.486198,-9.468262,68.10428,-5.8871317,1.9150311,14.365207,2.0900493,-11.765796,-0.0890511,68.43581,-8.866759,0.68869615,-6.750334
105,-21.213970184326172,-27.799209594726562,75.33221435546875,3.8127616071733907,-4.790302136254816,-178.40604077189442,-9.004852,3.8580794,16.504879,31.5101,-19.544111,0.9113081,-1.9734716,-36.43241,-6.248687,59.562443,1.8997308,-3.7232952,-3.4389172,-1.5430815,12.898626,7.834826,9.9171505,-9.671314,67.77371,-5.6150613,1.9320797,14.577171,2.2493007,-11.362967,-0.37040848,68.08011,-8.936921,0.6566167,-6.844401
106,-21.63377571105957,-28.346935272216797,75.39478302001953,3.9221567806401745,-5.083825702250456,-177.956535144179,-8.015616,2.9549036,16.296766,30.70109,-19.655611,1.0810162,-3.273744,-35.49042,-4.395012,61.901638,1.0062548,-3.6275735,-3.7559545,-1.764206,13.140779,7.272162,10.383649,-9.863395,67.44297,-5.347637,1.954037,14.790023,2.420989,-10.926864,-0.5959988,67.69882,-8.994534,0.6054417,-6.9468
107,-22.05392837524414,-28.87091636657715,75.4560317993164,3.9720107070757305,-5.382702667939376,-177.47079351008932,-7.0357866,2.1288836,16.013123,29.902266,-19.748642,1.2358954,-4.454192,-34.188942,-2.5331445,64.10677,-0.0014547001,-3.0741456,-4.0860057,-1.9531721,13.390391,6.6917295,10.877245,-10.042408,67.10351,-5.085846,1.9733175,15.006813,2.6041632,-10.46588,-0.7564145,67.30648,-9.065239,0.5489292,-7.0243673
108,-22.46779441833496,-29.374629974365234,75.52745056152344,3.9975092909826406,-5.674492164784733,-176.95205859689693,-6.0456624,1.3358916,15.683084,29.05939,-19.803926,1.3831813,-5.569547,-32.882572,-0.9901091,66.19172,-0.8976426,-2.6564927,-4.425107,-2.145502,13.632363,6.1068993,11.384349,-10.202801,66.747086,-4.829515,1.9818151,15.2308655,2.796406,-9.99218,-0.8384258,66.91939,-9.172454,0.5004033,-7.042217
109,-22.901159286499023,-29.876195907592773,75.60755157470703,3.9939861287589844,-5.9642437501927965,-176.3976389809968,-5.0340815,0.5814455,15.308325,28.16331,-19.816675,1.5227988,-6.620219,-31.593178,0.20260853,68.13807,-1.6037301,-2.4722157,-4.7816806,-2.3341472,13.870076,5.517745,11.89814,-10.334383,66.37457,-4.5796633,1.9737228,15.481116,2.9962907,-9.513744,-0.81549245,66.53886,-9.306234,0.4616466,-6.9815145
110,-23.319499969482422,-30.365324020385742,75.6831283569336,3.9488558427672453,-6.2548830676247125,-175.80641772278784,-4.0130754,-0.116000675,14.879145,27.244287,-19.799099,1.6537355,-7.5794673,-30.175037,1.1975312,69.928795,-2.2400815,-2.2328799,-5.1594076,-2.502106,14.107869,4.9179482,12.417786,-10.439889,65.99237,-4.333537,1.9541038,15.751013,3.2022603,-9.032449,-0.69815457,66.16509,-9.457521,0.42250597,-6.863042
111,-23.730609893798828,-30.844152450561523,75.75494384765625,3.884942201172704,-6.529975997503552,-175.1840510607883,-3.0004408,-0.78179806,14.402997,26.306335,-19.755224,1.7812021,-8.491054,-28.73431,1.9885858,71.561325,-2.847497,-1.9546201,-5.545934,-2.6683362,14.330484,4.3095226,12.938493,-10.534976,65.6014,-4.086683,1.932364,16.007853,3.418797,-8.551843,-0.52901983,65.79652,-9.6513195,0.38868183,-6.709905
112,-24.15123176574707,-31.29955291748047,75.83009338378906,3.8251163787260287,-6.7738721555851695,-174.53644403521318,-2.0133097,-1.4410608,13.886391,25.351646,-19.688274,1.9096301,-9.400148,-27.37652,2.571818,73.03152,-3.4658182,-1.6562115,-5.9275055,-2.8491738,14.522525,3.6905212,13.452683,-10.635476,65.21115,-3.8333786,1.9127709,16.218615,3.6492236,-8.07633,-0.35284597,65.43439,-9.912728,0.36340213,-6.5450687
113,-24.57235336303711,-31.746980667114258,75.90193939208984,3.78033405185961,-6.983634021988845,-173.8504698884868,-1.0457741,-2.1152961,13.316316,24.353245,-19.582062,2.052049,-10.309554,-26.165228,2.897248,74.33338,-4.104694,-1.3429852,-6.3095474,-3.0508096,14.678609,3.0478373,13.960339,-10.770992,64.8311,-3.562327,1.9008112,16.376884,3.8990765,-7.6104183,-0.16523337,65.07487,-10.282222,0.34794608,-6.351533
114,-24.992321014404297,-32.18752670288086,75.96453857421875,3.7375904618268665,-7.167259774330732,-173.12750483283935,-0.08758378,-2.7847428,12.693749,23.313793,-19.440598,2.2025442,-11.206739,-25.046505,2.9925644,75.46033,-4.738294,-1.0146005,-6.6954293,-3.2602103,14.806273,2.3832488,14.460734,-10.927835,64.45799,-3.279618,1.8914849,16.499624,4.166634,-7.1533666,0.04973178,64.71848,-10.73557,0.3390524,-6.123302
115,-25.41314697265625,-32.62860107421875,76.02188873291016,3.681043516235069,-7.32460327321883,-172.39603080357278,0.845021,-3.411532,12.047177,22.290997,-19.295267,2.337545,-12.109209,-23.945135,2.9664137,76.40374,-5.3526564,-0.6803714,-7.0685015,-3.4626281,14.909996,1.7185415,14.944574,-11.057265,64.075455,-3.0078588,1.8794153,16.59184,4.4421535,-6.705248,0.26655447,64.37474,-11.200599,0.33454993,-5.9022765
116,-25.834476470947266,-33.061866760253906,76.07122802734375,3.595796480587802,-7.45581465838349,-171.68479119758302,1.7330741,-3.9599159,11.4074135,21.345108,-19.1814,2.4343715,-13.032158,-22.778902,2.9265418,77.15575,-5.931987,-0.3430475,-7.4122243,-3.6410813,14.994149,1.0746957,15.398469,-11.107152,63.669537,-2.7660081,1.859146,16.660225,4.715833,-6.2658033,0.45834002,64.05295,-11.606374,0.33344933,-5.730123
117,-26.2758731842041,-33.474910736083984,76.1187744140625,3.4708440483626157,-7.556543696305409,-170.99829807373,2.5687084,-4.408363,10.782157,20.4901,-19.106867,2.4663007,-13.977805,-21.508112,2.8788395,77.703636,-6.4875107,0.013580311,-7.7241783,-3.7816663,15.052776,0.45261085,15.818174,-11.060409,63.24523,-2.5574675,1.8217078,16.692081,4.9930615,-5.834724,0.63028556,63.747574,-11.95496,0.34126937,-5.6241183
118,-26.714012145996094,-33.8824348449707,76.16032409667969,3.3188629361680917,-7.627927254427243,-170.32220647926252,3.3607607,-4.7835717,10.158885,19.69691,-19.05603,2.4547126,-14.937493,-20.18537,2.7741697,78.046906,-7.0169916,0.38618168,-8.014287,-3.8946958,15.085685,-0.1603393,16.206402,-10.943037,62.81351,-2.3708737,1.7716023,16.69159,5.275456,-5.4147706,0.79373443,63.457855,-12.277421,0.3578986,-5.5607963
119,-27.149253845214844,-34.293701171875,76.19244384765625,3.1601760554956697,-7.678131979671254,-169.65680732651202,4.1170125,-5.1233573,9.537688,18.955729,-19.025524,2.4479551,-15.906868,-18.86198,2.6324418,78.19744,-7.4866133,0.7409812,-8.285601,-3.9981227,15.106569,-0.7634748,16.558334,-10.766659,62.36903,-2.2022035,1.7239453,16.690908,5.5482125,-5.009748,0.9309752,63.200325,-12.544654,0.3739193,-5.5203066
120,-27.568042755126953,-34.703670501708984,76.21057891845703,3.014737368689727,-7.715463333188601,-169.002787453252,4.8471537,-5.4647903,8.917802,18.252796,-19.008194,2.4924152,-16.879501,-17.589468,2.4748673,78.16488,-7.8614345,1.0445296,-8.540301,-4.108324,15.1287985,-1.3609166,16.864994,-10.543146,61.91509,-2.0470486,1.690318,16.723381,5.796365,-4.6255817,1.0239638,62.99149,-12.726825,0.3799866,-5.483179
121,-28.00379753112793,-35.11166000366211,76.2253189086914,2.887919741159074,-7.735428710022246,-168.36813146152835,5.5382023,-5.8147397,8.300523,17.601576,-19.00514,2.5983343,-17.876944,-16.344229,2.3418891,77.946236,-8.124026,1.304275,-8.771012,-4.2248406,15.150832,-1.954167,17.116251,-10.241722,61.43863,-1.9122494,1.6858565,16.802687,6.018549,-4.2653956,1.0525677,62.8267,-12.801589,0.36951005,-5.445119
122,-28.440269470214844,-35.521629333496094,76.24310302734375,2.770316083868602,-7.736331569304376,-167.75022510581908,6.19032,-6.156448,7.6864715,17.003698,-19.018202,2.740146,-18.890442,-15.110816,2.213226,77.53213,-8.293263,1.5342412,-8.979736,-4.335841,15.166581,-2.5490537,17.31106,-9.86572,60.95634,-1.795771,1.6963043,16.912022,6.222596,-3.929596,1.0308222,62.700047,-12.788261,0.34892404,-5.415713
123,-28.867918014526367,-35.93320846557617,76.2503433227539,2.6586212603597663,-7.730898082666945,-167.1329563488817,6.8308206,-6.4901237,7.0728383,16.431536,-19.041859,2.9088929,-19.87177,-13.94777,2.0218976,76.93046,-8.394328,1.7122183,-9.181425,-4.4410577,15.182067,-3.1454167,17.458109,-9.482039,60.488895,-1.6817653,1.7054086,17.038897,6.408961,-3.6217363,0.9874136,62.6245,-12.723614,0.3284235,-5.39635
124,-29.290693283081055,-36.34062957763672,76.2478256225586,2.549175464426835,-7.731621776435164,-166.50023238872336,7.488929,-6.814475,6.456528,15.854948,-19.070482,3.094601,-20.774155,-12.912437,1.7018791,76.14954,-8.452487,1.8164947,-9.390118,-4.541244,15.20383,-3.7412338,17.569206,-9.158484,60.056503,-1.5557832,1.6936079,17.16872,6.5777435,-3.3439424,0.9510043,62.612762,-12.643099,0.3177387,-5.3871355
125,-29.72574806213379,-36.74620819091797,76.23784637451172,2.441501245544783,-7.741513359604827,-165.84416420584088,8.17556,-7.1279626,5.845039,15.255631,-19.099113,3.2855625,-21.594505,-12.036441,1.2236928,75.18537,-8.4679575,1.8238833,-9.613243,-4.640937,15.237048,-4.3340077,17.649975,-8.900886,59.652615,-1.4143025,1.6549828,17.302446,6.7267394,-3.0934243,0.914624,62.669044,-12.542314,0.31812727,-5.3922806
126,-30.15727996826172,-37.15222930908203,76.2233657836914,2.3365888924774745,-7.75387568850081,-165.17457104625313,8.87298,-7.4296856,5.2378683,14.655512,-19.133663,3.485758,-22.352016,-11.276872,0.6290855,74.03477,-8.431156,1.7562962,-9.840523,-4.740672,15.278138,-4.921531,17.699366,-8.676914,59.264687,-1.2668958,1.6002916,17.444138,6.8568764,-2.86737,0.8665797,62.784893,-12.407068,0.32458284,-5.409602
127,-30.610885620117188,-37.561744689941406,76.20662689208984,2.232477305491437,-7.76552439982852,-164.50254075060857,9.571669,-7.7196493,4.6186934,14.076119,-19.182055,3.7095296,-23.032982,-10.579825,-0.039878882,72.70489,-8.351392,1.6599139,-10.060406,-4.8352456,15.32121,-5.501356,17.719316,-8.498034,58.901424,-1.1199015,1.5358244,17.584436,6.972211,-2.6694205,0.82884777,62.95452,-12.258076,0.33721066,-5.429466
128,-31.053617477416992,-37.96736145019531,76.18463897705078,2.12802823512815,-7.773616244077304,-163.83927575751417,10.259803,-7.999022,3.971611,13.543044,-19.252949,3.973544,-23.626915,-9.896072,-0.7392668,71.20471,-8.239222,1.57638,-10.262075,-4.9195266,15.360446,-6.0692415,17.71233,-8.375578,58.56988,-0.9804147,1.4677224,17.712784,7.0769434,-2.506082,0.82322204,63.171856,-12.115877,0.35608858,-5.4411335
129,-31.49185562133789,-38.37909698486328,76.15216827392578,2.0228113810050288,-7.782684342259707,-163.178430711191,10.930793,-8.272359,3.2730744,13.083036,-19.361942,4.307456,-24.128231,-9.257245,-1.4941747,69.52841,-8.104231,1.4686003,-10.451797,-4.993372,15.401895,-6.6261168,17.67842,-8.312552,58.268974,-0.85436296,1.3875915,17.824394,7.169634,-2.3802154,0.8500312,63.442734,-11.986567,0.3807632,-5.4306464
130,-31.953367233276367,-38.78778076171875,76.1144790649414,1.918558075854212,-7.792617618329629,-162.518029452695,11.591767,-8.539053,2.5390174,12.677388,-19.500458,4.694269,-24.543327,-8.670685,-2.310818,67.67442,-7.940949,1.332984,-10.639072,-5.0588517,15.448231,-7.1569257,17.626213,-8.296511,57.976994,-0.744182,1.2958226,17.917892,7.2452755,-2.306425,0.9059957,63.768295,-11.852126,0.4092498,-5.39755
131,-32.420047760009766,-39.20034408569336,76.075927734375,1.8187738309702366,-7.79371761907174,-161.8755558496313,12.254221,-8.794889,1.8120708,12.277475,-19.64031,5.0831895,-24.881369,-8.057972,-3.1120098,65.651375,-7.7314124,1.2583052,-10.795513,-5.1182294,15.483002,-7.684462,17.529013,-8.328677,57.731174,-0.62147695,1.2101659,18.015604,7.3148456,-2.244991,0.987934,64.13379,-11.719477,0.4474666,-5.388037
132,-32.886444091796875,-39.61506652832031,76.03248596191406,1.7271904684767256,-7.776710838378139,-161.26766923625115,12.922552,-9.034918,1.1353284,11.849187,-19.754835,5.421699,-25.15525,-7.347995,-3.8168905,63.465656,-7.4563823,1.3285434,-10.917659,-5.169191,15.497068,-8.172683,17.407053,-8.393664,57.49713,-0.49024993,1.1510909,18.106709,7.376359,-2.2222037,1.1124188,64.52598,-11.570571,0.49082682,-5.40449
133,-33.36484146118164,-40.03129196166992,75.98272705078125,1.643185948433771,-7.740488862430732,-160.69785448508262,13.608136,-9.254474,0.5156399,11.3641615,-19.834557,5.6966295,-25.379921,-6.5146885,-4.3686395,61.112446,-7.1270337,1.5527604,-10.995639,-5.211206,15.488491,-8.630807,17.257755,-8.501844,57.28417,-0.3488886,1.127317,18.197062,7.427732,-2.235385,1.3008511,64.96075,-11.392187,0.5376641,-5.469091
134,-33.83763885498047,-40.4528694152832,75.92434692382812,1.5658753419674418,-7.690133753289819,-160.15638558881864,14.305746,-9.458514,-0.06977737,10.844593,-19.891811,5.9351945,-25.545696,-5.6112485,-4.812588,58.5819,-6.7471247,1.8801371,-11.040355,-5.2454796,15.46315,-9.05944,17.07974,-8.651143,57.090866,-0.2002577,1.1273013,18.283583,7.4698224,-2.2829697,1.5428473,65.43459,-11.192739,0.5913676,-5.5659313
135,-34.31999206542969,-40.873779296875,75.85950469970703,1.5007384576049132,-7.625468576172648,-159.6395984243272,15.000361,-9.658612,-0.62259775,10.321044,-19.933184,6.1543736,-25.62798,-4.6892977,-5.219499,55.868675,-6.2847567,2.3023014,-11.071503,-5.2772202,15.419836,-9.438961,16.873634,-8.814474,56.90351,-0.040402096,1.1397448,18.360424,7.502685,-2.3620875,1.8024068,65.92274,-10.997085,0.65101993,-5.6675367
136,-34.807647705078125,-41.30476760864258,75.78666687011719,1.452098873556047,-7.546334183841069,-159.14422884774157,15.673111,-9.865815,-1.1437223,9.831686,-19.969093,6.370616,-25.601624,-3.7940836,-5.66134,52.960857,-5.706532,2.813994,-11.108925,-5.3111153,15.357671,-9.748212,16.640434,-8.962634,56.706123,0.13613035,1.1534603,18.421299,7.528086,-2.467306,2.0441206,66.39668,-10.830671,0.7174156,-5.745653
137,-35.30607986450195,-41.74513626098633,75.71156311035156,1.421585309109365,-7.450400949680383,-158.67603511068293,16.331652,-10.082171,-1.6299876,9.349674,-19.982838,6.5776434,-25.469486,-2.9141538,-6.0998607,49.815052,-4.9588065,3.4339592,-11.149299,-5.3488755,15.274878,-9.986975,16.380772,-9.097514,56.493874,0.33801043,1.1706458,18.46388,7.5382113,-2.599608,2.278507,66.8682,-10.70271,0.79202336,-5.7888827
138,-35.80271530151367,-42.19172286987305,75.62812805175781,1.40812706931351,-7.339281134253601,-158.23228517922595,16.983181,-10.304572,-2.0847962,8.863924,-19.973278,6.7715216,-25.233425,-2.0399354,-6.5053697,46.425697,-4.068067,4.1519103,-11.187134,-5.3894587,15.172515,-10.164362,16.095116,-9.231191,56.27474,0.55993533,1.1954709,18.491518,7.535131,-2.7591805,2.5177991,67.34535,-10.599108,0.8742513,-5.813535
139,-36.3068962097168,-42.6441535949707,75.53717803955078,1.41306866389155,-7.218547436582936,-157.79784962467903,17.614384,-10.538479,-2.519465,8.421419,-19.964773,6.971878,-24.87902,-1.2140113,-6.96538,42.851974,-3.1173482,4.9233513,-11.23569,-5.4362116,15.053722,-10.27738,15.786028,-9.353604,56.05525,0.78639114,1.2197313,18.507145,7.536017,-2.9400742,2.727041,67.79501,-10.511211,0.9620303,-5.8348465
140,-36.815147399902344,-43.10197448730469,75.43647766113281,1.4394715703469703,-7.094017830119769,-157.3577102206355,18.21448,-10.791775,-2.9457211,8.064689,-19.9792,7.19798,-24.396498,-0.47577938,-7.5716596,39.1549,-2.1881387,5.705532,-11.307314,-5.4947505,14.921265,-10.323,15.456255,-9.454056,55.84226,1.0033945,1.2350636,18.51351,7.5587626,-3.1296494,2.870337,68.183975,-10.431409,1.0529927,-5.8681803
141,-37.332069396972656,-43.56848907470703,75.3281021118164,1.4919600847626713,-6.963705772203429,-156.91118633796893,18.779606,-11.070999,-3.3664327,7.7976885,-20.021576,7.450445,-23.762117,0.15230206,-8.380922,35.268787,-1.2811458,6.4967794,-11.404255,-5.5730057,14.769889,-10.295225,15.107107,-9.526282,55.628273,1.2022747,1.2378436,18.50066,7.602817,-3.3216035,2.94052,68.51506,-10.369732,1.1553087,-5.923018
142,-37.864158630371094,-44.04949951171875,75.21084594726562,1.576502472378578,-6.828038544521277,-156.4580929403924,19.332926,-11.382536,-3.7870638,7.5688977,-20.06101,7.7218084,-22.97206,0.695694,-9.334401,31.138618,-0.3347139,7.316051,-11.525191,-5.6779594,14.599109,-10.19951,14.739916,-9.580949,55.414825,1.3916533,1.2329887,18.47053,7.6627545,-3.514707,2.9538147,68.80156,-10.328652,1.2674532,-5.990834
143,-38.403778076171875,-44.5371208190918,75.08602142333984,1.7034384461321967,-6.696709063963619,-155.9824424221206,19.83729,-11.742655,-4.2113414,7.4785213,-20.141739,8.017851,-22.056513,1.1800793,-10.353432,26.856916,0.6555176,8.150899,-11.673699,-5.822601,14.418073,-10.052291,14.360111,-9.635997,55.224186,1.5840074,1.225643,18.445238,7.7496195,-3.7095447,2.9086661,69.02658,-10.28814,1.3736275,-6.0628443
144,-38.948570251464844,-45.02842330932617,74.94168853759766,1.886396715603362,-6.57936732102551,-155.4670069173423,20.33429,-12.165433,-4.661207,7.465187,-20.222958,8.344979,-21.053669,1.6158028,-11.359818,22.537752,1.6801637,8.985421,-11.855879,-6.0232306,14.234761,-9.867404,13.9740925,-9.708941,55.076332,1.7914132,1.2211778,18.44567,7.8749967,-3.9049013,2.8026607,69.17255,-10.229326,1.4576963,-6.1292977
145,-39.49680709838867,-45.53426742553711,74.78514099121094,2.155763402476977,-6.48453423708088,-154.88650714230283,20.871296,-12.680853,-5.1688933,7.454123,-20.264463,8.71877,-19.946901,1.9738699,-12.38068,18.15083,2.7538433,9.849865,-12.093978,-6.3151364,14.049577,-9.646427,13.585489,-9.815735,54.97184,2.0035267,1.2174675,18.496534,8.048723,-4.098052,2.6154318,69.22444,-10.149961,1.5178391,-6.1821404
146,-40.050777435302734,-46.04924011230469,74.61404418945312,2.5287270926305125,-6.410707609782412,-154.23538745511232,21.449446,-13.30608,-5.750618,7.441494,-20.262884,9.13671,-18.724566,2.206351,-13.449428,13.648548,3.86967,10.734037,-12.398062,-6.7174087,13.850671,-9.380385,13.195497,-9.947483,54.901394,2.216685,1.2137449,18.57907,8.268229,-4.2863607,2.353798,69.19258,-10.060379,1.5617856,-6.228362
147,-40.625511169433594,-46.569969177246094,74.42790985107422,2.9773053453190026,-6.348291775165268,-153.53993687631572,22.059788,-14.00673,-6.392496,7.4229107,-20.209455,9.571713,-17.398544,2.3388011,-14.50358,9.049221,5.0396137,11.565441,-12.744848,-7.1978374,13.631626,-9.065852,12.806547,-10.079784,54.86653,2.4543314,1.2169172,18.648598,8.522485,-4.468888,2.0599813,69.09906,-9.958404,1.58824,-6.280606
148,-41.200111389160156,-47.10057067871094,74.232421875,3.4374225530650118,-6.282111436763392,-152.84774477424136,22.683405,-14.707717,-7.048529,7.3987465,-20.104548,9.989607,-17.002855,2.1716585,-15.517279,6.615706,5.09974,12.289027,-13.091997,-7.686779,13.394764,-8.699195,12.421383,-10.18545,54.86599,2.7394876,1.2332797,18.660854,8.794197,-4.6485696,1.7765809,68.96876,-9.842296,1.5957816,-6.3516083
149,-41.776947021484375,-47.63814163208008,74.04332733154297,3.8812810918054153,-6.201054646397579,-152.17439862003397,23.305807,-15.375023,-7.693809,7.373497,-19.956734,10.388066,-17.611221,1.7108595,-16.44283,6.4852166,3.9692264,12.933348,-13.420392,-8.152791,13.145462,-8.284033,12.0400715,-10.264291,54.900597,3.097865,1.2574079,18.589874,9.082842,-4.8278112,1.5050429,68.79225,-9.697963,1.5766318,-6.444134
150,-42.37134552001953,-48.17876052856445,73.8573226928711,4.2992912215315195,-6.107356184920787,-151.5268327434018,23.927742,-15.996232,-8.312849,7.3516283,-19.776192,10.772839,-18.18559,1.2629536,-17.291702,6.3953795,2.838514,13.513223,-13.736205,-8.626685,12.89704,-7.7767196,11.736754,-10.317329,54.909252,3.49167,1.2895752,18.445826,9.373136,-4.968385,1.2513465,68.57186,-9.530406,1.5341344,-6.5535803
151,-42.9710693359375,-48.72538375854492,73.68633270263672,4.649491557594302,-6.001144071904431,-150.94651598171484,24.544775,-16.523617,-8.861583,7.333872,-19.566706,11.1208725,-18.68418,0.8762198,-18.129429,6.341427,1.7553451,13.972495,-13.999922,-9.040819,12.654179,-7.1940765,11.470375,-10.341093,54.915493,3.8855677,1.3388993,18.276953,9.656191,-5.090795,1.0130302,68.33531,-9.366626,1.4827396,-6.677019
152,-43.586177825927734,-49.272953033447266,73.52971649169922,4.888034143719509,-5.886606240229195,-150.4691437179754,25.155518,-16.912996,-9.2992,7.3227496,-19.331875,11.409273,-19.042582,0.60529417,-19.026463,6.2840214,0.78417474,14.258204,-14.180679,-9.33385,12.42705,-6.548914,11.211254,-10.32918,54.93788,4.240244,1.4155085,18.127436,9.921804,-5.211338,0.7938166,68.11071,-9.231897,1.436624,-6.810161
153,-44.20921325683594,-49.82971954345703,73.38670349121094,5.025407167497741,-5.772333216194323,-150.1027432372818,25.776894,-17.180998,-9.618478,7.3101907,-19.084972,11.642049,-19.229046,0.451321,-20.08785,6.200785,-0.101441875,14.402635,-14.272157,-9.505982,12.218375,-5.824902,10.927048,-10.261229,54.960735,4.56556,1.5320336,18.01476,10.170288,-5.348938,0.6100718,67.90633,-9.125355,1.393347,-6.9666657
154,-44.848060607910156,-50.397499084472656,73.2547836303711,5.0984960693802845,-5.6445433811279715,-149.82939240009426,26.394154,-17.372147,-9.840616,7.2954025,-18.817816,11.834294,-19.30464,0.387757,-21.239218,6.149673,-0.936289,14.441311,-14.29159,-9.569827,12.000643,-5.081861,10.575759,-10.131095,55.06748,4.9013143,1.6688446,17.921173,10.4165125,-5.5295477,0.44798467,67.705734,-9.032973,1.3468287,-7.1383095
155,-45.49897766113281,-50.985557556152344,73.130615234375,5.097857821621584,-5.480852792634493,-149.63847493690093,26.967773,-17.479698,-9.973867,7.287125,-18.498892,11.976481,-19.314083,0.43086508,-22.288837,6.1626678,-1.6452835,14.313817,-14.262381,-9.557335,11.767183,-4.2636867,10.264137,-9.984266,55.17505,5.190405,1.8239484,17.81933,10.639075,-5.7002296,0.30111673,67.510284,-8.960264,1.3076352,-7.3023477
156,-46.15821075439453,-51.58916091918945,73.03115844726562,4.979352107789396,-5.28249762467785,-149.51131515857395,27.478104,-17.457884,-10.02438,7.3020115,-18.102468,12.052573,-19.16039,0.673065,-23.065948,6.0083003,-2.0273442,13.940335,-14.203566,-9.404609,11.5283375,-3.4127636,9.97199,-9.852002,55.338615,5.422304,1.9790418,17.705143,10.83447,-5.875222,0.12624416,67.318535,-8.917666,1.2854958,-7.4278584
157,-46.8250617980957,-52.20189666748047,72.95661926269531,4.766602428006462,-5.018649043278463,-149.46279918119515,27.899965,-17.349169,-9.97989,7.332883,-17.63044,12.077105,-18.983664,1.0467912,-23.450321,6.032419,-2.2640743,13.306877,-14.112521,-9.04469,11.230716,-2.5563107,9.567163,-9.720306,55.61686,5.6137867,2.130674,17.619902,11.013928,-6.1477118,-0.117685944,67.13276,-8.931423,1.2880411,-7.482313
158,-47.5028076171875,-52.81720733642578,72.90853881835938,4.459418246151718,-4.706688688095546,-149.49008445269249,28.257143,-17.152243,-9.843007,7.375347,-17.093525,12.047,-18.744629,1.5551686,-23.56092,6.158958,-2.3552394,12.441792,-13.9713955,-8.624774,10.91165,-1.6045617,9.278482,-9.613207,55.8689,5.7092338,2.2952864,17.519527,11.173983,-6.3596625,-0.36878085,66.944595,-8.989604,1.3122177,-7.5075393
159,-48.17858123779297,-53.45310592651367,72.87963104248047,4.030496766099741,-4.376590483665751,-149.56530991761252,28.56246,-16.823685,-9.636826,7.4413176,-16.46936,11.9317255,-18.416376,2.220502,-23.546421,6.167345,-2.1438036,11.34254,-13.803271,-7.977245,10.590267,-0.711357,8.879512,-9.527735,56.291496,5.799214,2.4545627,17.40543,11.317913,-6.6819077,-0.6736476,66.76698,-9.042653,1.3323685,-7.4916906
160,-48.85697555541992,-54.110198974609375,72.85070037841797,3.506999530391781,-4.025105538124445,-149.66546779001678,28.500357,-16.42223,-9.309802,8.143384,-16.044334,11.703591,-18.194796,2.928939,-23.537455,6.2529845,-1.6778038,10.013533,-13.617905,-7.279037,10.288109,0.17377211,8.606658,-9.498487,56.773746,5.855521,2.617118,17.204763,11.4351845,-6.9286017,-0.954877,66.58235,-9.039387,1.3400844,-7.5035095
161,-49.543418884277344,-54.762142181396484,72.84993743896484,2.8292210482712026,-3.6263037383767007,-149.78932393629995,27.847149,-15.9084,-8.774317,9.910909,-16.083258,11.395897,-18.09765,3.7347972,-23.588287,6.323029,-0.7183334,8.285595,-13.406591,-6.4225283,9.99532,1.0166994,8.400229,-9.525294,57.355835,5.9308286,2.7775686,16.91347,11.5390215,-7.14513,-1.2556199,66.361916,-8.980036,1.3372233,-7.5221314
162,-50.23918914794922,-55.39540100097656,72.90544891357422,1.975423501195303,-3.187931725845953,-149.9274089754079,27.010376,-15.200739,-8.16572,11.954553,-16.17711,10.995196,-18.043634,4.679609,-23.686628,6.332924,0.6738295,6.2085185,-13.172886,-5.3178287,9.700473,1.7948248,8.168545,-9.62565,58.086857,6.003953,2.9349735,16.5657,11.64371,-7.4270763,-1.6212503,66.12056,-8.888835,1.3238281,-7.5070305
163,-50.94312286376953,-56.02544403076172,72.97135162353516,1.0393462171533716,-2.75190649504186,-150.04072751191515,26.096113,-14.384837,-7.627885,14.128778,-16.167343,10.403214,-17.99671,5.6603312,-23.84756,6.3505774,2.0871098,4.109801,-12.997018,-4.0707836,9.412745,2.531305,7.908666,-9.778299,58.94462,6.0110016,3.096501,16.176722,11.712536,-7.786667,-1.9675529,65.92796,-8.736195,1.2857311,-7.4901047
164,-51.64311981201172,-56.67593002319336,73.03807830810547,0.12696148748590422,-2.3761767965522727,-150.10646810128378,25.235077,-13.569132,-7.2881556,16.258003,-15.889434,9.525324,-17.878004,6.586178,-24.021746,6.4088955,3.1123798,2.3119524,-12.906016,-2.8985004,9.168468,3.2438107,7.736147,-9.968773,59.897415,5.8835354,3.2688658,15.748218,11.723135,-8.089685,-2.221743,65.83207,-8.524197,1.2157482,-7.5374703
165,-52.33001708984375,-57.322025299072266,73.12401580810547,-0.763254149572767,-2.082967111277125,-150.15477935443857,24.469679,-12.772089,-7.1265774,18.304913,-15.304153,8.369867,-17.632858,7.473783,-24.12604,6.4868374,3.6234028,0.97035694,-12.873336,-1.7768358,8.9924755,3.922413,7.6319623,-10.226125,61.005814,5.579567,3.4364898,15.278936,11.667128,-8.366707,-2.3913536,65.85345,-8.200692,1.0756073,-7.671789
166,-53.01329040527344,-57.979942321777344,73.2247543334961,-1.6693378166651451,-1.8406421990520954,-150.20143830697953,23.743761,-11.96574,-7.096418,20.331438,-14.5006275,6.9694176,-17.306957,8.342053,-24.154192,6.5937667,3.820111,-0.11968256,-12.880316,-0.63878846,8.864822,4.572226,7.572795,-10.54108,62.24733,5.1417165,3.6053114,14.764683,11.551839,-8.653599,-2.5027232,65.962944,-7.7834597,0.8805685,-7.856586
167,-53.693199157714844,-58.64900207519531,73.31654357910156,-2.5607660790081024,-1.6436280018384948,-150.21063928329866,23.021559,-11.180554,-7.256874,22.385687,-13.54722,5.2600665,-16.91192,9.160303,-24.152452,6.7128553,3.8285491,-1.1667656,-12.929075,0.46635836,8.778798,5.18588,7.563466,-10.888245,63.524815,4.628189,3.8073556,14.224816,11.399397,-8.919864,-2.581024,66.12107,-7.3812733,0.6971392,-8.038376
168,-54.36442565917969,-59.31219482421875,73.40824890136719,-3.394076389544468,-1.4887764411904048,-150.14056592979532,22.28241,-10.468036,-7.6761923,24.499224,-12.511788,3.1714375,-16.466293,9.902873,-24.180948,6.827198,3.7802563,-2.3712347,-13.0210085,1.4748946,8.729221,5.7616014,7.6149015,-11.252543,64.72912,4.091958,4.0801053,13.677288,11.236795,-9.131604,-2.6587448,66.286736,-7.103703,0.5926043,-8.163009
169,-55.02944564819336,-59.94578552246094,73.50841522216797,-4.145671609500791,-1.3938607944035026,-149.99952531759,21.497705,-9.930391,-8.468471,26.822104,-11.557333,0.8128752,-16.76139,10.203568,-24.354519,8.763515,2.7579222,-3.8226693,-13.154599,2.344582,8.733318,6.303159,7.7324796,-11.617905,65.874176,3.5299685,4.4618673,13.101533,11.054754,-9.259648,-2.741463,66.47339,-6.994712,0.5996918,-8.238908
170,-55.68925857543945,-60.55036926269531,73.61659240722656,-4.821216052503495,-1.3618317818894137,-149.8061282284336,20.71289,-9.5772295,-9.561901,29.291668,-10.657535,-1.854677,-16.876211,10.493006,-24.497814,10.438702,1.7966512,-5.407181,-13.315931,3.085905,8.79638,6.8260136,7.9383435,-12.007887,66.979546,2.9108047,4.926445,12.490327,10.845892,-9.320581,-2.8235993,66.69209,-6.992274,0.6769495,-8.281992
171,-56.34223175048828,-61.14403533935547,73.72047424316406,-5.418919543781883,-1.366666371105544,-149.53642972978957,19.981499,-9.323877,-10.759436,31.697937,-9.626579,-5.11807,-16.833246,10.74677,-24.656868,11.861417,0.8755539,-6.951711,-13.493811,3.6986582,8.894317,7.294512,8.226253,-12.429927,68.020386,2.2764235,5.40319,11.911444,10.64501,-9.302854,-2.9046962,66.888664,-7.058836,0.7880549,-8.290162
172,-56.996978759765625,-61.71481704711914,73.82685852050781,-5.940925584290521,-1.3802454786189062,-149.17010720225352,19.328327,-9.076521,-11.895711,33.87522,-8.2857275,-9.252388,-16.644436,10.943202,-24.875168,13.018986,-0.020646742,-8.283886,-13.665123,4.1913705,9.000739,7.682902,8.603805,-12.913347,68.94856,1.654182,5.8258615,11.420862,10.489807,-9.211886,-2.998544,67.00917,-7.1551085,0.89422613,-8.2478
173,-57.6523551940918,-62.269187927246094,73.94012451171875,-6.386532960776919,-1.387174328018122,-148.6785753933138,18.802206,-8.862531,-13.103041,35.724644,-6.2250643,-15.000033,-16.307629,11.072919,-25.183327,13.888502,-0.9088669,-9.393251,-13.848597,4.560151,9.099598,7.9648285,9.084348,-13.542132,69.78559,0.984158,6.2016473,11.00704,10.394756,-9.038733,-3.1211567,67.03232,-7.3015494,1.0099299,-8.124854
174,-58.23980712890625,-62.90681457519531,74.0341567993164,-6.153964324607804,-1.460376069515828,-148.20416528515662,18.52109,-9.38314,-12.84138,36.944874,-3.2507904,-15.000033,-16.74805,9.992514,-25.27691,16.85253,-2.9225235,-10.166745,-13.961898,4.320407,9.107864,8.110118,9.545991,-14.224886,70.619835,0.29872286,6.5515428,10.676052,10.300761,-8.850664,-3.2288866,67.01834,-7.4984775,1.1487169,-7.941784
175,-58.81361389160156,-63.51343536376953,74.10816955566406,-5.71059011156464,-1.5612763297586365,-147.65574595712263,17.928425,-9.793597,-11.935151,38.551765,-0.5632647,-15.000033,-17.10322,8.672,-25.318455,19.76723,-4.9866157,-10.728282,-13.949426,3.7748413,9.119205,8.232275,10.242749,-14.992457,71.22507,-0.36522016,6.847192,10.3882885,10.28278,-8.517338,-3.433936,66.91258,-7.722406,1.2600173,-7.7281394
176,-59.37107849121094,-64.07304382324219,74.18342590332031,-5.3096193364716635,-1.6783798901400828,-147.05078903004224,16.849625,-9.854488,-10.731947,40.906506,0.9638216,-15.000033,-17.10726,7.536041,-25.391079,21.93785,-6.720916,-11.096677,-13.945903,3.2214284,9.179896,8.349884,10.970334,-15.508219,71.644875,-0.8048578,7.0312176,10.227287,10.252384,-8.138186,-3.5563622,66.80276,-7.8831334,1.309179,-7.5655756
177,-59.9449462890625,-64.58412170410156,74.26600646972656,-5.096696100227143,-1.8279785150832562,-146.3830483575511,15.386504,-9.540649,-9.656859,43.99837,0.91549695,-15.000033,-16.65825,6.780792,-25.598715,23.161877,-8.045102,-11.241739,-13.92378,2.8141923,9.335216,8.445818,11.723673,-15.804661,71.89496,-0.9489541,7.070972,10.197081,10.235703,-7.7312016,-3.6257968,66.67271,-7.9495687,1.2668868,-7.447025
178,-60.518951416015625,-65.07710266113281,74.37833404541016,-5.024050379346069,-2.005131957708689,-145.65949935637147,13.704365,-8.94134,-8.7305765,47.49876,-0.14164314,-15.000033,-15.876951,6.2988973,-25.936617,23.70883,-9.097486,-11.182187,-13.879666,2.515513,9.566448,8.50415,12.502534,-15.953603,71.999596,-0.88135844,6.995717,10.279801,10.23284,-7.3016844,-3.6563153,66.517456,-7.9567747,1.160942,-7.3441877
179,-61.101783752441406,-65.5498275756836,74.51203155517578,-5.050747544039877,-2.1909636752098076,-144.95273098708896,11.8723135,-8.067899,-7.8398967,51.11339,-1.6421828,-15.000033,-14.892325,6.0347633,-26.316525,23.78947,-9.927517,-11.012156,-13.778688,2.2990186,9.847776,8.562053,13.287667,-15.906323,71.91656,-0.72971725,6.8545437,10.472943,10.205701,-6.866166,-3.6334863,66.370125,-7.9478946,1.0329144,-7.263848
180,-61.67442321777344,-66.01493835449219,74.6468505859375,-5.120182592537853,-2.3648339064175836,-144.32855433848243,9.924109,-6.9091005,-6.81869,54.593857,-3.0108871,-15.000033,-13.833671,5.911643,-26.641378,23.61103,-10.584851,-10.824661,-13.600674,2.1285958,10.1462345,8.657762,14.04924,-15.604309,71.61016,-0.61841244,6.695229,10.775488,10.1118355,-6.4497833,-3.5339382,66.269646,-7.962229,0.9243488,-7.212622
181,-62.2474479675293,-66.46932220458984,74.78321075439453,-5.2632941955867985,-2.53235236203812,-143.803066968667,7.8268056,-5.353759,-5.634314,58.00891,-4.260202,-15.000033,-12.666346,5.995514,-26.901928,23.087467,-11.014823,-10.6209135,-13.333115,2.047703,10.474026,8.791227,14.764041,-14.982134,71.06475,-0.5150613,6.536967,11.242111,9.940334,-6.0722423,-3.33867,66.23051,-7.990331,0.83040226,-7.201425
182,-62.80999755859375,-66.91586303710938,74.92342376708984,-5.520523367657129,-2.7130078510064912,-143.36131114872464,5.627382,-3.4346526,-4.4835424,61.438034,-5.7017083,-15.000033,-11.309662,6.3609033,-27.126804,22.088129,-11.179514,-10.369971,-12.982439,2.0969677,10.847686,8.951038,15.424045,-14.077761,70.319786,-0.36983252,6.35145,11.858466,9.708725,-5.7375846,-3.0541592,66.242,-8.011776,0.73376626,-7.219262
183,-63.36786651611328,-67.35148620605469,75.0540771484375,-5.828890357366049,-2.9030355646748904,-143.0135873371559,3.436123,-1.3530757,-3.4629798,64.68728,-7.179144,-15.000033,-9.838775,6.902892,-27.27559,20.786692,-11.169699,-10.112862,-12.56,2.2154777,11.233702,9.149065,16.025373,-12.995832,69.42755,-0.2857675,6.112673,12.519885,9.421934,-5.448312,-2.703127,66.30073,-8.0538845,0.65729594,-7.2420816
184,-63.91926956176758,-67.79173278808594,75.18177795410156,-6.112908851164967,-3.0919242524202804,-142.7606297333443,1.3316944,0.6785344,-2.608125,67.56775,-8.502349,-15.000033,-8.346388,7.4843407,-27.319284,19.387388,-11.096334,-9.88631,-12.083686,2.3303697,11.593469,9.392038,16.567152,-11.84374,68.43734,-0.3666234,5.792397,13.120671,9.0854,-5.203945,-2.311858,66.401436,-8.145512,0.62357336,-7.246043
185,-64.46820068359375,-68.23441314697266,75.30523681640625,-6.352826231122388,-3.2672694839151766,-142.6199661141977,-0.71844506,2.6542702,-1.8443304,70.07788,-9.6228075,-15.000033,-6.871251,8.077158,-27.234697,17.942013,-10.979058,-9.705927,-11.526371,2.4284563,11.905653,9.681789,17.04588,-10.582023,67.319626,-0.67648447,5.355177,13.6415205,8.698447,-5.0016284,-1.8783766,66.555725,-8.3070135,0.64661473,-7.222954
186,-65.0323715209961,-68.678955078125,75.42474365234375,-6.571941519775319,-3.4427384233094895,-142.59487046975912,-2.7438807,4.647476,-1.136931,72.31265,-10.650125,-15.000033,-5.3497324,8.729886,-27.018133,16.337626,-10.759141,-9.549069,-10.876826,2.5321515,12.189604,10.010192,17.459898,-9.179862,66.06794,-1.1473109,4.8224893,14.132701,8.262504,-4.840773,-1.3929498,66.76295,-8.519372,0.7117172,-7.18647
187,-65.58915710449219,-69.12886810302734,75.53607177734375,-6.753259717061204,-3.6376327404269246,-142.65293810581065,-4.691596,6.553952,-0.5380171,74.237045,-11.612468,-15.000033,-3.7853215,9.375581,-26.698195,14.663901,-10.485865,-9.390043,-10.186716,2.6177146,12.465076,10.365262,17.813953,-7.7609115,64.76287,-1.6873766,4.24976,14.593624,7.785395,-4.7200117,-0.8729826,66.99774,-8.753862,0.7980079,-7.144627
188,-66.13905334472656,-69.58374786376953,75.63693237304688,-6.882594716803753,-3.865930597260717,-142.75604419802207,-6.5215015,8.272165,-0.09021012,75.81429,-12.52116,-15.000033,-2.182577,9.953432,-26.315016,12.99938,-10.204807,-9.2049885,-9.506806,2.6651568,12.751479,10.731246,18.117563,-6.458136,63.480465,-2.208673,3.6966343,15.0267315,7.2761173,-4.6361017,-0.34393317,67.23207,-8.982968,0.88476455,-7.1052675
189,-66.6972885131836,-70.0440444946289,75.73692321777344,-6.9553868076845715,-4.13608676691961,-142.8900068995321,-8.245807,9.767347,0.20296848,77.045135,-13.365754,-15.000033,-0.5127475,10.461975,-25.883299,11.320582,-9.915459,-8.999209,-8.844835,2.666127,13.059387,11.112236,18.37846,-5.298297,62.196438,-2.755243,3.1508033,15.433086,6.7367353,-4.5827136,0.18885641,67.467766,-9.227003,0.97710335,-7.067442
190,-67.23461151123047,-70.53109741210938,75.83732604980469,-6.864864135108604,-4.408743135245146,-143.011421487297,-9.928114,11.137356,0.7462698,77.91329,-14.083432,-14.025089,0.9821761,10.647416,-25.462523,10.100994,-9.85266,-8.738241,-8.230436,2.529447,13.346971,11.49988,18.595694,-4.223968,60.888256,-3.355341,2.5896628,15.81077,6.159551,-4.5578294,0.72960955,67.71771,-9.493638,1.0820595,-7.027631
191,-67.74757385253906,-71.04314422607422,75.934326171875,-6.627109661866356,-4.656323959056666,-143.10412421071453,-11.563951,12.450402,1.6681029,78.41898,-14.697728,-11.789299,2.208972,10.485854,-25.098593,9.459239,-10.063867,-8.402661,-7.688023,2.279344,13.603213,11.873609,18.767237,-3.2364185,59.623634,-3.8964021,2.0595934,16.161129,5.5443354,-4.5637317,1.271279,67.96587,-9.737674,1.18188,-6.9897413
192,-68.26922607421875,-71.5674057006836,76.03211212158203,-6.385169334048917,-4.885421930585937,-143.25046699859374,-13.107445,13.6181135,2.5046113,78.603134,-15.26261,-9.904583,3.3700917,10.290899,-24.710602,8.885898,-10.279571,-8.037717,-7.14828,2.0464435,13.846528,12.2226715,18.895742,-2.3364365,58.4644,-4.2662406,1.6077187,16.486046,4.8980217,-4.603271,1.807738,68.191925,-9.914858,1.259321,-6.957463
193,-68.75756072998047,-72.08297729492188,76.11922454833984,-6.134739312377706,-5.090437291124731,-143.445354079133,-14.564679,14.637515,3.287209,78.4398,-15.760234,-8.451284,4.4436154,10.046371,-24.30629,8.417751,-10.510442,-7.6270046,-6.617716,1.8294827,14.075397,12.53912,18.982082,-1.5378594,57.412334,-4.4285617,1.2457386,16.780994,4.2086177,-4.6796374,2.3478086,68.40491,-9.985054,1.3117507,-6.927185
194,-69.25352478027344,-72.61077117919922,76.19831085205078,-5.870530952108154,-5.281122814282173,-143.6825856078318,-15.941387,15.492084,4.0220747,77.934944,-16.16719,-7.344047,5.461068,9.759801,-23.887754,8.023986,-10.754517,-7.1822295,-6.1000204,1.6195395,14.296669,12.833999,19.027803,-0.8343874,56.43415,-4.446013,0.951081,17.049612,3.477493,-4.7934117,2.8950212,68.6102,-9.981084,1.3478822,-6.897889
195,-69.75389862060547,-73.15403747558594,76.26831817626953,-5.606319955105095,-5.460837396481145,-143.975475183934,-17.229685,16.182795,4.6757092,77.131645,-16.456165,-6.4856195,6.4364405,9.459836,-23.441616,7.678984,-11.005223,-6.732505,-5.5833435,1.4272852,14.509484,13.1145525,19.033619,-0.20140412,55.54791,-4.356857,0.7198712,17.307024,2.7277455,-4.936834,3.4320655,68.78432,-9.966338,1.3661754,-6.875622
196,-70.24372863769531,-73.68748474121094,76.32442474365234,-5.356310779534487,-5.632804797999667,-144.33741393441466,-18.426245,16.717115,5.205062,76.07586,-16.604853,-5.773699,7.3673124,9.1665535,-22.955387,7.3899093,-11.27205,-6.3043666,-5.05452,1.2619916,14.712715,13.387412,19.001362,0.38541308,54.772087,-4.1991754,0.54784685,17.568264,1.9820502,-5.100722,3.940117,68.90352,-10.00515,1.365326,-6.8685904
197,-70.70761108398438,-74.22198486328125,76.37210845947266,-5.120752437085153,-5.798036116276884,-144.79127156652697,-19.547209,17.091946,5.5881205,74.78142,-16.587738,-5.166652,8.149908,8.843646,-22.423626,7.370817,-11.653271,-5.911455,-4.490449,1.1214292,14.909293,13.643674,18.934004,0.9220657,54.113747,-3.933568,0.45286325,17.853767,1.2361083,-5.285461,4.4310465,68.966774,-10.122497,1.3255266,-6.8785276
198,-71.20008850097656,-74.75819396972656,76.40711975097656,-4.893924835342035,-5.954047099894374,-145.32280839308538,-20.594215,17.317429,5.846589,73.22417,-16.411459,-4.714413,8.902939,8.531759,-21.83937,7.3526626,-12.008237,-5.536516,-3.9048984,1.000693,15.09853,13.882176,18.832617,1.3993914,53.56171,-3.557009,0.43214718,18.149696,0.47964498,-5.492007,4.9096437,68.98518,-10.282256,1.2539277,-6.9021873
199,-71.6978759765625,-75.29920959472656,76.43424987792969,-4.68155673578215,-6.0986927596515,-145.8907135025916,-21.54452,17.423769,5.9949346,71.394806,-16.106112,-4.4516325,9.639058,8.225299,-21.235622,7.3374257,-12.362267,-5.1534066,-3.3381984,0.9047604,15.274006,14.120034,18.696203,1.8326093,53.107365,-3.1614237,0.45006275,18.420359,-0.27194265,-5.7099953,5.3439283,68.95097,-10.4576845,1.1910938,-6.941381
200,-72.20785522460938,-75.86075592041016,76.44921875,-4.488143888267956,-6.230383034515997,-146.4540558342236,-22.371283,17.43817,6.049796,69.27742,-15.701846,-4.413949,10.377925,7.9208913,-20.645264,7.3148284,-12.735445,-4.7362323,-2.8292916,0.83417696,15.428777,14.375214,18.524765,2.237451,52.741535,-2.8377268,0.4694868,18.631186,-1.0042124,-5.9255676,5.6992626,68.85731,-10.625187,1.177985,-7.0002813
201,-72.7239990234375,-76.43120574951172,76.45394897460938,-4.3138237424340184,-6.350069108403601,-147.00088095028255,-23.076134,17.330757,5.9652786,66.84287,-15.172124,-4.6365633,11.126445,7.6183114,-20.080269,7.282769,-13.136128,-4.2814975,-2.3933032,0.7851609,15.56099,14.652343,18.32055,2.6128204,52.46879,-2.5817122,0.49110198,18.772232,-1.7172786,-6.1306534,5.94062,68.69234,-10.799386,1.2574366,-7.091421
202,-73.2436752319336,-77.01510620117188,76.444091796875,-4.156324502852593,-6.458531157874387,-147.55478366264637,-23.663847,17.115204,5.7368226,64.10099,-14.513306,-5.0797086,11.873199,7.318684,-19.520714,7.2457247,-13.551619,-3.801464,-2.0043957,0.7531398,15.673038,14.941196,18.087181,2.9510272,52.29178,-2.3544192,0.53037167,18.86256,-2.419999,-6.327065,6.0915823,68.46576,-10.988112,1.3976997,-7.2117753
203,-73.76481628417969,-77.60709381103516,76.41969299316406,-4.018072597071257,-6.55361910016401,-148.12770816100303,-24.11655,16.879618,5.446064,61.095177,-13.790512,-5.671129,12.609856,7.0221853,-18.95185,7.206777,-13.973919,-3.2959726,-1.6415316,0.73812497,15.76454,15.238486,17.827024,3.2604194,52.19685,-2.1938498,0.5716254,18.911177,-3.112219,-6.518199,6.2070584,68.202156,-11.156855,1.5279146,-7.3423223
204,-74.29438018798828,-78.19895935058594,76.38034057617188,-3.9006176635846654,-6.632789073634146,-148.7313206950722,-24.41899,16.70417,5.181697,57.863316,-13.06378,-6.3434668,13.327214,6.7284617,-18.359278,7.171291,-14.397703,-2.7658095,-1.285763,0.73989785,15.835277,15.54301,17.54085,3.5512123,52.16898,-2.1370454,0.5992647,18.926813,-3.7939398,-6.707365,6.3471766,67.92672,-11.267422,1.5767908,-7.4642897
205,-74.83781433105469,-78.80955505371094,76.32678985595703,-3.8004209246562124,-6.691201674556573,-149.36935467946282,-24.545729,16.599464,4.9707704,54.324093,-12.321736,-7.177175,14.0211115,6.4344687,-17.740938,7.138091,-14.826706,-2.201345,-0.9348724,0.75426525,15.880221,15.857186,17.22552,3.8417575,52.20018,-2.2156475,0.610264,18.900972,-4.464543,-6.896622,6.523933,67.63797,-11.288915,1.5039222,-7.5809007
206,-75.3779525756836,-79.4193115234375,76.26025390625,-3.7183029954112152,-6.732079155060746,-150.03699509616953,-24.504921,16.53317,4.7627425,50.46947,-11.533968,-8.169514,14.699483,6.1433387,-17.102451,7.1036706,-15.266548,-1.6082516,-0.59955853,0.7833564,15.900797,16.183939,16.87884,4.124403,52.297096,-2.401163,0.6126942,18.832241,-5.124879,-7.08577,6.710074,67.32493,-11.247353,1.3542384,-7.6993227
207,-75.9233627319336,-80.04473114013672,76.18147277832031,-3.6648758458521598,-6.766037220621964,-150.73131182144587,-24.335497,16.519337,4.53466,46.44279,-10.734668,-9.134143,15.368041,5.865659,-16.442383,7.075603,-15.709869,-1.0103309,-0.28017423,0.83947015,15.907067,16.51988,16.504337,4.368242,52.469177,-2.6418636,0.60737664,18.740294,-5.776657,-7.273024,6.9036217,66.997536,-11.191921,1.1842158,-7.806209
208,-76.47823333740234,-80.67900848388672,76.08680725097656,-3.6437684489836157,-6.803739501868881,-151.45012853376815,-24.08409,16.56889,4.269185,42.403286,-9.964449,-9.8838415,16.034283,5.6050267,-15.759592,7.057584,-16.150204,-0.42960027,0.025159573,0.9283298,15.908801,16.86023,16.10795,4.5410995,52.72644,-2.8869452,0.5952089,18.643927,-6.4186363,-7.4538455,7.1019654,66.66223,-11.170601,1.0518141,-7.8878403
209,-77.02798461914062,-81.31420135498047,75.96726989746094,-3.6607815218593287,-6.850742455597488,-152.19331623991783,-23.750484,16.689257,3.9484212,38.321114,-9.230161,-10.319525,16.70272,5.369355,-15.05261,7.0516853,-16.58819,0.1278495,0.3154808,1.0527066,15.910822,17.202751,15.696243,4.6249914,53.084343,-3.1502886,0.56103796,18.564348,-7.05659,-7.624299,7.3007727,66.320114,-11.195818,0.9682846,-7.938742
210,-77.59073638916016,-81.96073150634766,75.8306884765625,-3.7148269116733257,-6.9009721783036815,-152.96160388403723,-23.313961,16.889801,3.5886176,34.13187,-8.510592,-10.547415,17.371042,5.158076,-14.322332,7.049351,-17.023745,0.6740531,0.5937565,1.2096131,15.904784,17.547531,15.271303,4.6370044,53.53553,-3.4522207,0.5100666,18.485046,-7.6863623,-7.784349,7.4982514,65.965256,-11.243759,0.90566283,-7.9667373
211,-78.1766128540039,-82.6273422241211,75.6811294555664,-3.8047648232792772,-6.951872802009061,-153.75156863353348,-22.805166,17.180748,3.2179885,29.966576,-7.8130317,-10.698038,18.029528,4.964467,-13.574341,7.067764,-17.466143,1.2148796,0.8640553,1.4024789,15.88643,17.89295,14.830428,4.598297,54.055912,-3.7509544,0.47335792,18.368645,-8.298219,-7.934491,7.6972785,65.608086,-11.305599,0.85420215,-7.979877
212,-78.77487182617188,-83.29859161376953,75.51573181152344,-3.920014531257707,-6.997266312576136,-154.56671558740385,-22.2444,17.553259,2.8823934,25.929565,-7.1296244,-10.910239,18.680212,4.7730556,-12.807135,7.0854573,-17.901058,1.7589825,1.1351283,1.6244104,15.847146,18.241096,14.369062,4.53274,54.618294,-4.00305,0.4822226,18.178516,-8.885819,-8.077914,7.9045005,65.26268,-11.371225,0.80413634,-7.986889
213,-79.3829116821289,-83.9894027709961,75.33670043945312,-4.080904954195869,-7.042286008487603,-155.4236334351311,-21.597734,18.023647,2.5882125,21.915012,-6.4096484,-11.226648,19.328741,4.6040645,-12.000604,7.101091,-18.336407,2.3105173,1.4190682,1.8992918,15.781494,18.604317,13.881593,4.447975,55.22457,-4.19352,0.54860747,17.890985,-9.444712,-8.216109,8.125521,64.92833,-11.443048,0.75718105,-7.982334
214,-79.99469757080078,-84.69770812988281,75.14418029785156,-4.29303919785141,-7.093100739776673,-156.32088851208104,-20.849897,18.593924,2.3280253,17.869501,-5.6489544,-11.581562,19.978848,4.464003,-11.154251,7.1164303,-18.769922,2.8652086,1.7100638,2.2321358,15.696535,18.98343,13.3664255,4.3331842,55.88146,-4.3441715,0.65498376,17.531456,-9.982481,-8.350054,8.361596,64.60227,-11.521753,0.7172274,-7.964263
215,-80.6037368774414,-85.4120101928711,74.9404296875,-4.52697891250004,-7.148523643925521,-157.23728996357977,-20.021439,19.223879,2.136626,13.931334,-4.8978844,-11.96589,20.627054,4.3176694,-10.294382,7.1296825,-19.179836,3.4189484,1.9932903,2.5936615,15.60817,19.361467,12.824263,4.18189,56.570423,-4.468463,0.7883447,17.136772,-10.504321,-8.480416,8.600357,64.28857,-11.605218,0.6776375,-7.9447613
216,-81.20913696289062,-86.12615966796875,74.73347473144531,-4.7523297914392355,-7.203532096908442,-158.1475039934982,-19.13141,19.861504,2.0492623,10.231437,-4.1993074,-12.37432,21.268652,4.129378,-9.451557,7.1378803,-19.545134,3.9682226,2.250563,2.9526503,15.531462,19.720041,12.257799,3.986516,57.27509,-4.580811,0.9356555,16.743076,-11.014296,-8.607173,8.829858,63.989506,-11.689232,0.63197714,-7.936111
217,-81.81732940673828,-86.86140441894531,74.52574920654297,-4.980761703353068,-7.247131300208674,-159.06123868421278,-18.242678,20.519278,2.0658839,6.845005,-3.6454322,-12.904473,21.885595,3.909351,-8.614718,7.144425,-19.881266,4.501502,2.4846556,3.3190725,15.465404,20.057743,11.666423,3.7542748,58.003433,-4.6688676,1.105581,16.353132,-11.529054,-8.732117,9.062174,63.7124,-11.77275,0.5744926,-7.939616
218,-82.41970825195312,-87.6147689819336,74.32991790771484,-5.223197842018012,-7.284504047910683,-159.98020922493828,-18.812162,21.214546,1.6447527,6.6259456,-4.740354,-13.519422,22.481506,3.6659455,-7.7800164,7.1559653,-20.1949,5.027952,2.696238,3.7047389,15.405499,20.385324,11.049379,3.485156,58.75995,-4.730161,1.3008099,15.950021,-12.040306,-8.85671,9.2974825,63.451183,-11.859353,0.51114064,-7.949176
219,-83.036865234375,-88.39507293701172,74.14141082763672,-5.424548716463223,-7.313852585935326,-160.84474692945483,-19.275478,21.801317,1.2959331,6.523016,-5.742869,-14.055412,23.067995,3.3385355,-7.019492,7.1787496,-20.459818,5.5793123,2.846065,4.04807,15.350856,20.686615,10.41537,3.161684,59.53304,-4.7933598,1.4993824,15.539989,-12.518541,-8.976189,9.503839,63.193905,-11.946293,0.4470564,-7.96877
220,-83.65681457519531,-89.1656265258789,73.97320556640625,-5.5018195417447116,-7.333427287237601,-161.61148360680903,-19.575247,22.161528,1.0442595,6.533817,-6.5309944,-14.318166,23.656315,2.843226,-6.3965364,7.203725,-20.634483,6.1836014,2.913935,4.261105,15.300054,20.946188,9.7797985,2.764388,60.313286,-4.8908095,1.6790929,15.128213,-12.9287195,-9.083359,9.645898,62.92205,-12.032121,0.3910176,-8.001699
221,-84.27034759521484,-89.94467163085938,73.8310317993164,-5.463108180070097,-7.365828101712845,-162.27649236019005,-19.593493,22.308842,0.85798115,6.560473,-7.1076503,-14.179635,24.276615,2.1925375,-5.921512,7.2299237,-20.737726,6.8321595,2.8948789,4.3484035,15.270262,21.182661,9.150919,2.2821832,61.092236,-5.0556345,1.8250244,14.6965,-13.271656,-9.174391,9.718259,62.6429,-12.125804,0.34269696,-8.04043
222,-84.8809814453125,-90.7389907836914,73.71766662597656,-5.330798825924441,-7.39819442996048,-162.86039911952705,-19.371994,22.288994,0.75263375,6.5965014,-7.506942,-13.762616,24.909315,1.4114319,-5.570271,7.259948,-20.776339,7.5153337,2.805345,4.3322654,15.252771,21.392994,8.531045,1.7250404,61.88257,-5.2664123,1.9530959,14.246344,-13.558588,-9.249301,9.732055,62.359303,-12.224744,0.2987913,-8.086824
223,-85.50776672363281,-91.54792785644531,73.62258911132812,-5.108778701751163,-7.388524369864072,-163.37160826641752,-19.00742,22.110983,0.83168197,6.628162,-7.580468,-13.256697,25.500717,0.51023114,-5.3212767,7.293379,-20.69787,8.246607,2.6706848,4.2216525,15.2077265,21.545895,7.924455,1.1041746,62.692997,-5.4736447,2.0904284,13.811277,-13.7723875,-9.31349,9.673763,62.058296,-12.319164,0.26120743,-8.15658
224,-86.15089416503906,-92.38056182861328,73.55078887939453,-4.800451765292112,-7.294376814216177,-163.8162169658996,-18.597445,21.779173,1.2009445,6.6407127,-7.1781025,-12.849681,25.995045,-0.5016639,-5.151551,7.333685,-20.445751,9.038487,2.5166674,4.025365,15.0954,21.606842,7.3369,0.4280439,63.533356,-5.6288123,2.2633784,13.424294,-13.892967,-9.375194,9.530467,61.723705,-12.395852,0.2318032,-8.264127
225,-86.79163360595703,-93.21656799316406,73.52259826660156,-4.347695796733634,-7.077866891471885,-164.18497428350935,-18.132067,21.243101,2.0619419,6.6606445,-6.17855,-12.554876,26.350086,-1.6936963,-5.091241,7.3826904,-20.030602,9.927118,2.3472092,3.6810653,14.899405,21.537254,6.7720532,-0.31401068,64.4247,-5.7277904,2.476198,13.087431,-13.903148,-9.433352,9.270113,61.314392,-12.449546,0.21577443,-8.423074
226,-87.3760986328125,-94.04419708251953,73.56735229492188,-3.7611375940391185,-6.766741132566728,-164.47693892595433,-17.639399,20.506256,3.2712092,6.8157773,-4.7620554,-12.255189,26.607609,-3.060148,-5.1385527,7.449214,-19.483576,10.902439,2.155101,3.1970177,14.639894,21.356909,6.2322087,-1.1229209,65.357285,-5.7954593,2.717061,12.782452,-13.808201,-9.483952,8.90208,60.843697,-12.4895115,0.20988451,-8.621389
227,-87.99156188964844,-94.90097045898438,73.60746765136719,-3.154690281470492,-6.427555672268394,-164.72440792213902,-18.04425,19.720945,4.1729326,8.809415,-4.058002,-11.950513,26.810987,-4.4607925,-5.2010264,7.581857,-18.785576,11.88881,1.9590757,2.702895,14.337007,21.128435,5.714859,-1.9777147,66.29541,-5.8271723,2.9809158,12.5120735,-13.625309,-9.535852,8.485269,60.380978,-12.514748,0.20388763,-8.83213
228,-88.62213134765625,-95.78092193603516,73.64237976074219,-2.6305886304279325,-6.117324953946824,-164.95337816196283,-18.83518,18.96308,4.630833,11.464993,-3.6587126,-11.690427,26.397762,-5.820941,-5.1376095,9.092337,-18.589361,12.810735,1.7697583,2.3125796,14.006617,20.907385,5.214821,-2.8548968,67.208786,-5.8158565,3.2629297,12.2799225,-13.372147,-9.604087,8.078771,59.991302,-12.525658,0.18763421,-9.028994
229,-89.24613952636719,-96.68743133544922,73.68533325195312,-2.209420380965414,-5.817011754627113,-165.18250063690064,-19.62245,18.16836,4.6533766,13.852605,-2.8889823,-11.620392,25.952026,-7.077516,-4.9236093,10.684297,-18.225166,13.721799,1.5920429,2.056189,13.607729,20.710032,4.7168207,-3.7895885,68.11374,-5.735541,3.5783312,12.08806,-13.047585,-9.702227,7.7080183,59.680107,-12.519736,0.1633494,-9.203914
230,-89.91172790527344,-97.62615966796875,73.71590423583984,-1.8315276967302812,-5.501632805959113,-165.39764846596307,-20.453722,17.28557,4.427797,16.173708,-1.8148646,-11.707722,25.426714,-8.296547,-4.6026897,12.390488,-17.722078,14.6338825,1.4206456,1.8739688,13.141972,20.504686,4.214996,-4.778311,69.019066,-5.5947833,3.923005,11.934846,-12.64277,-9.831096,7.3442836,59.413242,-12.493722,0.13480009,-9.36864
231,-90.58370971679688,-98.54942321777344,73.75713348388672,-1.484596427640604,-5.210792347932005,-165.57786373658362,-21.233738,16.364048,4.141314,18.419249,-0.85182244,-11.74682,24.78518,-9.406924,-4.198729,14.352157,-17.107452,15.000033,1.2549194,1.741739,12.680877,20.272257,3.7247026,-5.74415,69.88739,-5.442773,4.263548,11.818225,-12.163441,-9.979054,6.9608164,59.194473,-12.447196,0.09370512,-9.52771
232,-91.232666015625,-99.46849822998047,73.82380676269531,-1.19654511523463,-4.9770334545359765,-165.71276400176717,-21.903309,15.5201235,3.9560173,20.627506,-0.4386145,-11.5109,24.018784,-10.395315,-3.8341458,16.635412,-16.360088,15.000033,1.1065919,1.6786572,12.2860155,19.996382,3.271218,-6.60933,70.68085,-5.329784,4.5670233,11.735046,-11.6162615,-10.124279,6.527646,59.029476,-12.380937,0.031824697,-9.687278
233,-91.88916015625,-100.37625885009766,73.90003967285156,-0.8175158439807269,-4.827683582303652,-165.77371858804207,-22.356348,14.580739,3.9892673,22.71495,-0.69204956,-10.800208,23.12423,-11.506537,-3.6165776,19.408298,-15.553672,15.000033,0.9710319,1.5299454,11.985065,19.662292,2.8695326,-7.367964,71.42579,-5.2657976,4.827226,11.67032,-10.982361,-10.248024,5.998603,58.921185,-12.293714,-0.070560984,-9.87672
234,-92.53652954101562,-101.27079772949219,73.98778533935547,-0.3656741411366012,-4.735378231766502,-165.77871325517043,-22.660643,13.532443,4.1308565,24.690899,-1.375121,-9.76926,22.128002,-12.72934,-3.4763288,22.52638,-14.641732,15.000033,0.8530659,1.307741,11.734683,19.287209,2.5212235,-8.057811,72.12753,-5.2279696,5.0616393,11.628317,-10.267167,-10.344397,5.391873,58.86815,-12.190019,-0.20333622,-10.086883
235,-93.16336822509766,-102.17141723632812,74.08843231201172,0.141246691441234,-4.68981437910618,-165.7500305237263,-22.77952,12.420355,4.3928056,26.43455,-2.262872,-8.627689,21.011648,-14.056601,-3.3825035,25.91811,-13.620557,15.000033,0.7385683,1.0166763,11.536105,18.9043,2.2331417,-8.66321,72.71502,-5.2154584,5.27314,11.636164,-9.520339,-10.415365,4.7783375,58.87493,-12.078492,-0.32929766,-10.266979
236,-93.78520965576172,-103.0619888305664,74.18965911865234,0.6852709849545626,-4.679891708776818,-165.7087721553957,-22.673294,11.294,4.791311,27.820322,-3.1343582,-7.5842295,19.761116,-15.465451,-3.2912395,29.507994,-12.484344,15.000033,0.61116,0.6628299,11.391299,18.545984,2.0121403,-9.165996,73.11556,-5.2270527,5.4641514,11.7198515,-8.789039,-10.4635935,4.2324224,58.94358,-11.965672,-0.410972,-10.365537
237,-94.40406799316406,-103.93814086914062,74.28729248046875,1.188759248338708,-4.699742326793009,-165.63158901833918,-22.373465,10.247862,5.275512,28.87866,-4.038771,-6.6828294,18.37765,-16.823164,-3.2277532,33.295845,-11.172852,14.533848,0.45965686,0.31380203,11.292568,18.210398,1.8628004,-9.549151,73.3112,-5.2978053,5.649714,11.883554,-8.04942,-10.489503,3.7440085,59.055607,-11.854909,-0.43047976,-10.366077
238,-95.0263671875,-104.78309631347656,74.38716888427734,1.519352891522138,-4.747634924663826,-165.526616607979,-21.99857,9.418304,5.713676,29.823538,-5.1418686,-5.861765,16.88693,-17.949732,-3.2888741,37.20215,-9.640448,13.040108,0.2997264,0.099446826,11.233,17.888931,1.7854347,-9.823557,73.32693,-5.415513,5.8287625,12.112574,-7.290183,-10.490883,3.288154,59.21452,-11.738939,-0.41035515,-10.2973385
239,-95.64613342285156,-105.60536193847656,74.48395538330078,1.835158055196849,-4.8329404500717965,-165.43990504211484,-21.48273,8.621634,6.1936684,30.575102,-6.2855706,-5.0975776,15.292669,-19.101162,-3.4025984,41.19137,-7.9996743,11.213672,0.14478189,-0.12284883,11.231247,17.584276,1.7692755,-10.026803,73.18767,-5.513687,5.9652987,12.412043,-6.572369,-10.475463,2.9028149,59.454384,-11.618159,-0.3730561,-10.175811
240,-96.26457214355469,-106.42117309570312,74.57686614990234,2.1661806895591544,-4.9564081782144225,-165.4285383183693,-20.843914,7.828892,6.7105474,31.17324,-7.3661656,-4.4056,13.589419,-20.316664,-3.5015275,45.16798,-6.3257804,9.1288,-0.009289388,-0.3795153,11.296294,17.308775,1.8014826,-10.1616125,72.91427,-5.5169277,6.01898,12.779015,-5.9737005,-10.45447,2.6672113,59.82268,-11.478739,-0.340565,-10.019426
