unveil-humanoid-operators/unveil-humanoid-operators.github.io/feature-analysis-animation/data/feature_matrix_instances/height_ankle_rom_jogging_A047_jog_arc_cw_loop_001__A047.csv
Frame,root_translateX,root_translateY,root_translateZ,root_rotateX,root_rotateY,root_rotateZ,left_hip_pitch_joint_dof,left_hip_roll_joint_dof,left_hip_yaw_joint_dof,left_knee_joint_dof,left_ankle_pitch_joint_dof,left_ankle_roll_joint_dof,right_hip_pitch_joint_dof,right_hip_roll_joint_dof,right_hip_yaw_joint_dof,right_knee_joint_dof,right_ankle_pitch_joint_dof,right_ankle_roll_joint_dof,waist_yaw_joint_dof,waist_roll_joint_dof,waist_pitch_joint_dof,left_shoulder_pitch_joint_dof,left_shoulder_roll_joint_dof,left_shoulder_yaw_joint_dof,left_elbow_joint_dof,left_wrist_roll_joint_dof,left_wrist_pitch_joint_dof,left_wrist_yaw_joint_dof,right_shoulder_pitch_joint_dof,right_shoulder_roll_joint_dof,right_shoulder_yaw_joint_dof,right_elbow_joint_dof,right_wrist_roll_joint_dof,right_wrist_pitch_joint_dof,right_wrist_yaw_joint_dof
0,-0.1883876770734787,-2.1737091541290283,78.51152801513672,2.3742068123886266,1.6069855785477065,75.13449889855058,2.7456937,-1.0714068,7.9500394,6.944025,-10.7487335,-3.1702554,-2.139132,-16.132395,-13.049391,7.9917135,-4.916551,12.948488,-3.2349503,-3.7672603,5.3663363,2.781669,18.200623,-31.913382,54.093388,0.11741563,-8.456915,0.37202367,-3.1181185,-11.999382,22.599876,54.02342,-10.179975,-5.9245024,-40.197536
1,-0.2026025652885437,-2.1635050773620605,78.50865936279297,2.3593101907625837,1.649264627685166,75.16569471649815,2.6896663,-1.0818104,7.902458,6.955404,-10.7578535,-3.0800729,-2.1613307,-16.134533,-13.078548,7.96754,-4.9061804,12.969525,-3.2503104,-3.7508354,5.350262,2.7962465,18.207722,-31.910795,54.03354,0.13616051,-8.455309,0.37483686,-3.1157978,-11.997481,22.593637,54.02543,-10.1611805,-5.9448967,-40.205734
2,-0.21819765865802765,-2.156118392944336,78.50291442871094,2.344934927384684,1.6919157236651807,75.19513124226856,2.633368,-1.0917612,7.856627,6.9663186,-10.765881,-2.9912684,-2.1815228,-16.135847,-13.106744,7.936513,-4.8911343,12.989681,-3.2636647,-3.7340872,5.334467,2.8129587,18.212278,-31.90781,53.97148,0.1599175,-8.453768,0.37738043,-3.1137786,-11.996415,22.584688,54.027145,-10.142974,-5.966505,-40.21357
3,-0.23672091960906982,-2.1505932807922363,78.49414825439453,2.3291626737592024,1.7338134838249426,75.22808457440779,2.5762632,-1.1022122,7.8069663,6.980281,-10.777659,-2.899397,-2.2024407,-16.138643,-13.137605,7.912675,-4.8819156,13.01153,-3.2786293,-3.7141674,5.3210073,2.8293324,18.215302,-31.904,53.905617,0.17877148,-8.450588,0.38043833,-3.1127825,-11.996453,22.572426,54.029537,-10.1291065,-5.9867444,-40.218628
4,-0.2592616379261017,-2.142000913619995,78.48668670654297,2.310821904317143,1.7732911692272153,75.26944689195119,2.5186808,-1.1150055,7.7482643,7.000489,-10.797516,-2.7998817,-2.2162044,-16.143656,-13.176448,7.888306,-4.8776684,13.037541,-3.2993622,-3.691332,5.310528,2.8379006,18.21513,-31.90215,53.843445,0.17717166,-8.446605,0.38383928,-3.110377,-11.997036,22.566166,54.02999,-10.114165,-6.0020857,-40.220787
5,-0.2845872640609741,-2.132476568222046,78.47689056396484,2.2849026787542215,1.8129238921323902,75.32331250211041,2.4541476,-1.1255602,7.67555,7.0330105,-10.826934,-2.6904461,-2.2252011,-16.14773,-13.228046,7.865287,-4.8803496,13.067303,-3.327259,-3.6517992,5.3078547,2.8522785,18.20942,-31.89265,53.75896,0.16636333,-8.43581,0.38727292,-3.113519,-12.005772,22.546114,54.030277,-10.113896,-6.013864,-40.20736
6,-0.3171420991420746,-2.1216821670532227,78.465087890625,2.2544298915130714,1.8507843073682526,75.38536529263347,2.388178,-1.1356715,7.593726,7.071343,-10.864748,-2.573993,-2.2210712,-16.148895,-13.290161,7.826861,-4.879971,13.099866,-3.3621805,-3.6049335,5.3076453,2.8609557,18.19773,-31.883232,53.67663,0.14066875,-8.422639,0.3915877,-3.1135,-12.01965,22.533186,54.025677,-10.113494,-6.0209513,-40.189007
7,-0.3507631719112396,-2.104694366455078,78.45234680175781,2.224764450849526,1.8871071051641326,75.45191217945244,2.3227613,-1.149763,7.5067735,7.114492,-10.909194,-2.454084,-2.2193878,-16.15634,-13.354158,7.803127,-4.8902197,13.136425,-3.4001281,-3.56182,5.3084064,2.8703563,18.189604,-31.877192,53.589756,0.09556895,-8.410384,0.3965075,-3.1162977,-12.028334,22.523226,54.026592,-10.111602,-6.0255427,-40.174446
8,-0.3857002854347229,-2.0882210731506348,78.43870544433594,2.1994248389304647,1.920679625976705,75.51913694847497,2.2623093,-1.1704147,7.418554,7.157829,-10.958347,-2.3342564,-2.2036831,-16.168886,-13.420641,7.76246,-4.893636,13.177837,-3.4279425,-3.504443,5.318599,2.8522933,18.146374,-31.87794,53.53014,0.042042054,-8.406577,0.40223405,-3.0979266,-12.075605,22.498472,53.99552,-10.102381,-6.0292397,-40.15715
9,-0.41970112919807434,-2.0735509395599365,78.42220306396484,2.180857194524775,1.9547846247319078,75.5883845102471,2.0114233,-1.1734275,7.3332944,7.610859,-11.224963,-2.218208,-2.1884353,-16.19264,-13.487452,7.728648,-4.9047194,13.228508,-3.4505649,-3.4658015,5.3270226,2.836032,18.118095,-31.889257,53.464283,-0.042036798,-8.410108,0.41222966,-3.087563,-12.105507,22.471954,53.980503,-10.088415,-6.0312934,-40.16016
10,-0.4543667137622833,-2.0530295372009277,78.40489959716797,2.165965958582876,1.988665554248565,75.66098372315226,1.7307855,-1.1784109,7.245784,8.13099,-11.529017,-2.1026063,-2.1672196,-16.223269,-13.557813,7.6896944,-4.9167027,13.286601,-3.4627433,-3.427612,5.3385596,2.8033266,18.079443,-31.914135,53.410713,-0.14730301,-8.420081,0.42593536,-3.0656798,-12.146707,22.433325,53.95346,-10.071294,-6.0310974,-40.16996
11,-0.4930838942527771,-2.0285122394561768,78.38887023925781,2.1548787669544462,2.016069814944829,75.73259458766621,1.4703773,-1.1929808,7.1566825,8.62914,-11.831289,-1.9828802,-2.1446934,-16.26103,-13.624256,7.667336,-4.9368615,13.343692,-3.472437,-3.3877795,5.356514,2.7636747,18.032381,-31.947361,53.362434,-0.26570603,-8.431802,0.4352639,-3.0382395,-12.197125,22.390617,53.92035,-10.048866,-6.0317726,-40.176243
12,-0.5328533053398132,-2.000466823577881,78.37195587158203,2.150785633337581,2.0310517448807124,75.79839493298667,1.2554001,-1.2237536,7.067714,9.069911,-12.121412,-1.8542641,-2.1671746,-16.321815,-13.666063,7.76862,-5.01599,13.392211,-3.488297,-3.3490496,5.384144,2.7291212,17.983677,-31.982544,53.308746,-0.39057198,-8.440723,0.43133545,-3.0115235,-12.249166,22.350622,53.88795,-10.021701,-6.036634,-40.168762
13,-0.5712953209877014,-1.9723104238510132,78.35035705566406,2.1496135888743906,2.0303450767704136,75.86121407579067,1.0910833,-1.2671007,6.9747996,9.450804,-12.402669,-1.7125242,-2.2106469,-16.397652,-13.692044,7.9555836,-5.137607,13.4271,-3.519875,-3.3092887,5.4233146,2.7112055,17.941263,-32.01336,53.23873,-0.5348912,-8.444127,0.40678945,-2.9922569,-12.29443,22.316938,53.867516,-9.982968,-6.0511293,-40.14264
14,-0.6162139177322388,-1.936724066734314,78.32816314697266,2.149830793866934,2.017361368665115,75.92250943214549,0.96599555,-1.3195487,6.8779783,9.786397,-12.677724,-1.5612085,-2.2397678,-16.478167,-13.715045,8.146805,-5.2601547,13.453213,-3.5600653,-3.2662551,5.472512,2.7000532,17.899174,-32.04544,53.16117,-0.6977425,-8.444974,0.36804706,-2.9735796,-12.340044,22.283703,53.850395,-9.936323,-6.071912,-40.103786
15,-0.6577871441841125,-1.9008979797363281,78.30680847167969,2.1630060429939837,1.9963201970733828,75.97462217600233,0.87225807,-1.3919023,6.7865944,10.081927,-12.9428,-1.4072509,-2.3024702,-16.581816,-13.714178,8.421392,-5.4172163,13.477457,-3.6024752,-3.243322,5.52814,2.7030618,17.873964,-32.074944,53.0637,-0.85089326,-8.444259,0.32423547,-2.972187,-12.369015,22.258055,53.848797,-9.896241,-6.0902004,-40.064487
16,-0.697455883026123,-1.858744740486145,78.2809829711914,2.1992578046214346,1.9712226576319072,76.01028934495045,0.8048552,-1.4945127,6.709468,10.336497,-13.190354,-1.2579647,-2.4359145,-16.724712,-13.671897,8.835904,-5.6304913,13.506599,-3.6232405,-3.2435985,5.589338,2.69302,17.846148,-32.120457,52.970745,-0.96608794,-8.445983,0.2878888,-2.9683454,-12.404605,22.22891,53.831806,-9.873062,-6.0962496,-40.0289
17,-0.7395265102386475,-1.816821813583374,78.25281524658203,2.259653068909982,1.9411844110295253,76.02843752972238,0.76263094,-1.6277826,6.648475,10.553582,-13.422655,-1.1151947,-2.6360042,-16.91003,-13.588878,9.381702,-5.896056,13.539134,-3.6224995,-3.27181,5.6568923,2.674902,17.82168,-32.18086,52.88009,-1.0269136,-8.449882,0.2571366,-2.9721787,-12.439968,22.20295,53.81563,-9.879755,-6.079755,-40.004704
18,-0.7836087346076965,-1.7836275100708008,78.2195053100586,2.3391557481837273,1.9045928145866031,76.03266107031442,0.75022507,-1.7874132,6.5982795,10.728636,-13.640455,-0.9761625,-2.8782358,-17.1297,-13.4743595,10.015947,-6.197222,13.571543,-3.6081176,-3.3225102,5.731515,2.6539726,17.80182,-32.2512,52.787495,-1.0508022,-8.454806,0.22763191,-2.9836378,-12.472966,22.180544,53.80221,-9.90657,-6.0483313,-39.986137
19,-0.8316580057144165,-1.7370392084121704,78.18220520019531,2.4420565249097,1.8643183390835263,76.02317588936644,0.7632585,-1.9762666,6.5594296,10.867276,-13.843567,-0.83634263,-3.194322,-17.38812,-13.315683,10.795546,-6.5563264,13.606834,-3.5946238,-3.3986313,5.808464,2.645199,17.788515,-32.311943,52.6736,-1.0568166,-8.460206,0.20431283,-3.0151544,-12.4993,22.16687,53.792454,-9.932424,-6.0214744,-39.964962
20,-0.8762054443359375,-1.6886005401611328,78.14368438720703,2.570384733648813,1.8235186183591854,75.99863942100126,0.79812896,-2.1957192,6.533601,10.971564,-14.0296335,-0.6918109,-3.6080725,-17.687332,-13.100293,11.759492,-6.987583,13.647383,-3.5425546,-3.4966114,5.8901863,2.5977325,17.765991,-32.40945,52.573345,-1.0823902,-8.469664,0.19660148,-2.9890115,-12.554447,22.119448,53.687603,-9.932381,-6.0117106,-39.925385
21,-0.9173335433006287,-1.639623761177063,78.09764862060547,2.7332129322555625,1.785877386560034,75.95634871639031,0.8574068,-2.458457,6.5194364,11.0293,-14.192081,-0.53580886,-4.1484575,-18.043318,-12.813878,12.955418,-7.5318975,13.690388,-3.507756,-3.636725,5.9625316,2.5836744,17.755991,-32.467148,52.432713,-1.1054357,-8.479595,0.20729244,-2.9989593,-12.590369,22.09877,53.595963,-9.909795,-6.0345984,-39.872856
22,-0.9571654796600342,-1.5886061191558838,78.04317474365234,2.92560897111036,1.7487163576727294,75.8976477061702,0.9408771,-2.7581077,6.5160065,11.04648,-14.33566,-0.3725975,-4.7967668,-18.449202,-12.46337,14.348558,-8.169196,13.732823,-3.480168,-3.815703,6.028737,2.5860167,17.754305,-32.499634,52.27228,-1.117896,-8.490925,0.23184521,-3.0365913,-12.60583,22.094074,53.516037,-9.878202,-6.0778894,-39.813324
23,-0.9913605451583862,-1.5405851602554321,77.98531341552734,3.129632554996688,1.704980132467182,75.83023250124855,1.0442193,-3.0704997,6.5229445,11.044107,-14.470093,-0.2145957,-5.504513,-18.8751,-12.071414,15.859353,-8.824308,13.777392,-3.43284,-4.004295,6.1083236,2.5728548,17.758633,-32.558113,52.095867,-1.1503228,-8.503221,0.26025185,-3.0426774,-12.635521,22.06702,53.363544,-9.818986,-6.1246157,-39.745625
24,-1.0286495685577393,-1.4874776601791382,77.92767333984375,3.3304606927374705,1.6472756695499018,75.7624078250243,1.1649063,-3.3736072,6.539393,11.041292,-14.60455,-0.07398223,-6.2191544,-19.290854,-11.664659,17.404228,-9.422693,13.828589,-3.390239,-4.1906586,6.2110605,2.5501785,17.772356,-32.619144,51.89663,-1.202641,-8.516422,0.27418825,-3.0422084,-12.665796,22.021662,53.151405,-9.726297,-6.1619325,-39.678898
25,-1.0622758865356445,-1.428208589553833,77.86471557617188,3.5324141800847237,1.569737941512346,75.6924429258987,1.3153338,-3.670802,6.5730495,11.024499,-14.73102,0.039140277,-6.928417,-19.7041,-11.252288,18.976362,-9.962922,13.902162,-3.3380888,-4.3817105,6.346599,2.5154002,17.807922,-32.701298,51.660538,-1.2866304,-8.5305195,0.26638055,-3.0164993,-12.700513,21.937504,52.85381,-9.5857935,-6.184354,-39.616455
26,-1.0949662923812866,-1.3685709238052368,77.80067443847656,3.741631104286751,1.4776776386467263,75.61730455399638,1.4931309,-3.9710875,6.621115,10.989814,-14.848439,0.13347928,-7.6603565,-20.122751,-10.819657,20.61574,-10.4798765,13.99026,-3.2993662,-4.5859985,6.4951463,2.4748712,17.842718,-32.772156,51.415974,-1.3828753,-8.547159,0.24737997,-3.0057151,-12.715211,21.852482,52.531483,-9.406766,-6.199703,-39.562702
27,-1.1270802021026611,-1.3134413957595825,77.74259185791016,3.94355726393778,1.380848917189973,75.5424332558007,1.6716042,-4.260226,6.6687994,10.970582,-14.974883,0.22524706,-8.428551,-20.529202,-10.35354,22.323175,-10.953759,14.063315,-3.2490127,-4.7891555,6.6628747,2.429114,17.91039,-32.865944,51.13191,-1.50555,-8.560893,0.22553603,-2.9777818,-12.727831,21.737955,52.145546,-9.22022,-6.2139373,-39.499847
28,-1.1548247337341309,-1.2546911239624023,77.68487548828125,4.124069747143852,1.2885271626143169,75.47342103911045,1.8224212,-4.5247135,6.701776,11.003764,-15.130944,0.33096904,-9.244882,-20.901909,-9.841783,24.097582,-11.363905,14.092121,-3.2290766,-4.969116,6.8287654,2.3799112,17.971447,-32.936474,50.848114,-1.6333896,-8.57273,0.21238932,-2.9720933,-12.730879,21.652222,51.7441,-9.044089,-6.230392,-39.426918
29,-1.185288429260254,-1.1925652027130127,77.62854766845703,4.2842949774292505,1.200329885134531,75.41301144255267,1.9405988,-4.7685547,6.7116036,11.09681,-15.322171,0.45565715,-10.1134,-21.23948,-9.270646,25.947691,-11.697382,14.094908,-3.2233968,-5.132694,7.0048766,2.334445,18.060694,-33.007195,50.52885,-1.7878665,-8.580746,0.20454347,-2.9709644,-12.730061,21.566229,51.296402,-8.880208,-6.2555494,-39.34048
30,-1.2151681184768677,-1.1275370121002197,77.5714340209961,4.429932913326781,1.1120351478329327,75.35786137506534,2.0441828,-4.9967427,6.7073536,11.222066,-15.535507,0.59050876,-11.022468,-21.546864,-8.652702,27.863007,-11.96504,14.079789,-3.2403657,-5.2815804,7.1874495,2.2859967,18.154224,-33.0653,50.196747,-1.9592284,-8.587718,0.19919926,-2.9813762,-12.724555,21.492088,50.81354,-8.714849,-6.284532,-39.246582
31,-1.2385809421539307,-1.0616158246994019,77.51937866210938,4.557476386937247,1.0272292894800894,75.30442697584971,2.128725,-5.200022,6.7031,11.388029,-15.768501,0.7316073,-11.967061,-21.817398,-8.010727,29.826609,-12.183846,14.002032,-3.2667813,-5.4125524,7.3707657,2.231113,18.251528,-33.119312,49.855648,-2.1308472,-8.590995,0.20324476,-2.9944966,-12.71558,21.42967,50.30205,-8.562661,-6.308236,-39.13762
32,-1.2613542079925537,-0.9846664071083069,77.46987915039062,4.663565100890365,0.9495891969842398,75.24900807483853,2.1937735,-5.3693256,6.7124767,11.59432,-16.01529,0.8750272,-12.935698,-22.045033,-7.3699417,31.809637,-12.368182,13.815892,-3.294539,-5.5211444,7.5486617,2.168877,18.351347,-33.172638,49.508457,-2.2858295,-8.588034,0.22316097,-3.0039027,-12.703072,21.38402,49.769512,-8.437576,-6.317484,-39.006374
33,-1.2842109203338623,-0.9013620018959045,77.42961120605469,4.748767345786796,0.8777839308204164,75.18662921436187,2.243264,-5.505353,6.7434554,11.837373,-16.27175,1.0283362,-13.938723,-22.222982,-6.70644,33.83187,-12.501045,13.506335,-3.318195,-5.608201,7.722274,2.0990047,18.453062,-33.226402,49.160484,-2.4148161,-8.5798025,0.26477572,-3.008337,-12.686983,21.357677,49.216885,-8.355944,-6.3044834,-38.84939
34,-1.2985299825668335,-0.8166199326515198,77.38409423828125,4.814790564806039,0.8105223998518447,75.12063648282981,2.2749956,-5.611931,6.7875495,12.119894,-16.54248,1.1909386,-14.97259,-22.354933,-6.0208654,35.892384,-12.578602,13.098117,-3.3432128,-5.6752605,7.8939533,2.0212433,18.556475,-33.279243,48.809853,-2.5286126,-8.567277,0.32338873,-3.0104122,-12.667359,21.34744,48.639477,-8.305593,-6.2759185,-38.670975
35,-1.3102871179580688,-0.7264140844345093,77.34439849853516,4.858549876587857,0.7513322198368266,75.0601155183954,2.2859657,-5.685758,6.8332725,12.438467,-16.828674,1.3467033,-16.009283,-22.452648,-5.373924,37.94174,-12.63849,12.604999,-3.3786578,-5.719263,8.058688,1.9350749,18.660423,-33.329582,48.44905,-2.639056,-8.54788,0.38970453,-3.0108035,-12.644786,21.350262,48.0396,-8.259801,-6.24428,-38.476177
36,-1.3166813850402832,-0.6240379810333252,77.30525970458984,4.877109494979663,0.7037893856272579,75.01413787818402,2.271662,-5.723436,6.8695245,12.79246,-17.132965,1.4794695,-17.021318,-22.52928,-4.8253093,39.932472,-12.7199135,12.040734,-3.433263,-5.7361097,8.211968,1.8402157,18.762783,-33.375378,48.070457,-2.7576296,-8.51921,0.4544589,-3.0086489,-12.618603,21.362858,47.416615,-8.190692,-6.221909,-38.270084
37,-1.3211402893066406,-0.5150080919265747,77.26837158203125,4.8626556468324,0.6722495770441772,74.98239039561867,2.2257006,-5.716259,6.8959928,13.183846,-17.457619,1.587073,-18.020655,-22.602045,-4.415527,41.902412,-12.833665,11.338104,-3.5101316,-5.7176967,8.348791,1.7384212,18.86111,-33.41633,47.67806,-2.8851988,-8.471394,0.5246275,-3.0062068,-12.589012,21.389523,46.77263,-8.089887,-6.217532,-38.062534
38,-1.3203942775726318,-0.4033298194408417,77.23155975341797,4.818787950625047,0.6535903638161512,74.96101477125971,2.1538763,-5.6690607,6.917675,13.609013,-17.79902,1.6774313,-19.013197,-22.663336,-4.106523,43.85954,-12.959798,10.511282,-3.6047482,-5.6676226,8.472479,1.6271908,18.954739,-33.453827,47.277332,-3.0163178,-8.409088,0.6024245,-3.003029,-12.556239,21.430796,46.107353,-7.9718504,-6.2224593,-37.848206
39,-1.318501353263855,-0.29395607113838196,77.19518280029297,4.758383665033948,0.6403526109741001,74.95402170456069,2.063328,-5.596332,6.931947,14.07053,-18.155527,1.7492118,-19.965902,-22.688404,-3.8383765,45.718536,-13.09307,9.700421,-3.7140625,-5.6003,8.590337,1.501821,19.044556,-33.487488,46.861797,-3.1515229,-8.351148,0.6711461,-2.9954963,-12.520871,21.476599,45.420067,-7.845389,-6.2229023,-37.60878
40,-1.3073738813400269,-0.17545148730278015,77.16366577148438,4.694229406328786,0.6251577080165188,74.96497651188628,1.9668145,-5.513372,6.9360514,14.56016,-18.518875,1.8009449,-20.848074,-22.644932,-3.5518973,47.39839,-13.2270565,9.051016,-3.8334208,-5.521964,8.706883,1.3393016,19.10631,-33.520576,46.453606,-3.2874582,-8.318531,0.7157153,-2.9737258,-12.493369,21.516363,44.705517,-7.7178197,-6.2044716,-37.325653
41,-1.2879753112792969,-0.04548415541648865,77.12516784667969,4.629867514383348,0.6059877470073338,74.99327868742559,1.8703594,-5.4237037,6.934661,15.072541,-18.888979,1.8308054,-21.652,-22.516445,-3.2246377,48.88837,-13.3671255,8.604707,-3.9620285,-5.4542484,8.82826,1.1818979,19.201937,-33.551655,45.989113,-3.441686,-8.322167,0.7204867,-2.9434857,-12.450003,21.54816,43.966213,-7.5957856,-6.1651344,-37.01356
42,-1.2647310495376587,0.09900763630867004,77.08245086669922,4.557749620211536,0.5869993617476819,75.03724763167423,1.7634768,-5.3186936,6.928217,15.619296,-19.26944,1.839691,-22.395643,-22.316835,-2.893104,50.234512,-13.513803,8.290909,-4.1027493,-5.3789945,8.947605,1.0104232,19.296497,-33.579357,45.506718,-3.6041706,-8.351058,0.6983884,-2.9032936,-12.405011,21.579685,43.20095,-7.4719133,-6.111069,-36.67541
43,-1.2334718704223633,0.23904700577259064,77.03416442871094,4.473795553533007,0.5704231005351285,75.09922862254851,1.6424,-5.19535,6.906234,16.198702,-19.663174,1.8301636,-23.086105,-22.058546,-2.5869384,51.440086,-13.652411,8.086991,-4.2559457,-5.292891,9.07011,0.8196053,19.390469,-33.602257,44.992176,-3.7650673,-8.37881,0.66743296,-2.8594356,-12.359094,21.6049,42.413795,-7.345552,-6.0442367,-36.277428
44,-1.2079318761825562,0.3919072449207306,76.98457336425781,4.37470037810161,0.5585644776641873,75.18155043977178,1.4907318,-5.050734,6.85954,16.83539,-20.076458,1.8048704,-23.731194,-21.756508,-2.3340435,52.50613,-13.767518,7.968837,-4.4230986,-5.1938596,9.200603,0.60515106,19.483593,-33.61751,44.431355,-3.9134216,-8.379062,0.6454666,-2.8194165,-12.3142185,21.619104,41.610195,-7.2165837,-5.9662795,-35.78621
45,-1.1712076663970947,0.5416574478149414,76.93370819091797,4.256392888506503,0.5551151210199151,75.29022508124325,1.3015387,-4.8805943,6.781199,17.53392,-20.505209,1.7618164,-24.326654,-21.373629,-2.1008642,53.40778,-13.852994,7.9862194,-4.6071663,-5.077337,9.336139,0.36675143,19.575071,-33.622715,43.82443,-4.053248,-8.34337,0.6315694,-2.7808807,-12.271753,21.61927,40.782513,-7.08935,-5.859982,-35.188595
46,-1.1270229816436768,0.698317289352417,76.8769302368164,4.12061969790177,0.5580474401862398,75.4221666273209,1.0830604,-4.6878777,6.677634,18.285112,-20.94838,1.6997659,-24.870846,-20.916445,-1.88752,54.152016,-13.919037,8.1347,-4.8063917,-4.944617,9.47589,0.10606654,19.664766,-33.620743,43.177593,-4.1879945,-8.286065,0.6182196,-2.7395298,-12.231801,21.60839,39.928455,-6.963218,-5.729548,-34.50374
47,-1.083928108215332,0.8686441779136658,76.81290435791016,3.9744979251042483,0.5611110205429044,75.56663433639933,0.8525352,-4.48097,6.5590615,19.070751,-21.412195,1.6223457,-25.380312,-20.467249,-1.7704726,54.79504,-13.979495,8.304335,-5.0152087,-4.8020663,9.627413,-0.1799506,19.750381,-33.61641,42.489494,-4.305627,-8.21582,0.6137114,-2.7005684,-12.196039,21.59114,39.063126,-6.82844,-5.6085224,-33.745922
48,-1.0281928777694702,1.0317966938018799,76.73880767822266,3.8253631027798805,0.557861044918649,75.7129991600259,0.6247023,-4.2673135,6.4370117,19.877659,-21.904898,1.5323832,-25.868946,-20.109165,-1.8271583,55.38952,-14.04507,8.381133,-5.228078,-4.6591644,9.799677,-0.48777708,19.840908,-33.614597,41.746216,-4.3968663,-8.140456,0.6256018,-2.6696026,-12.161989,21.571014,38.200855,-6.6754646,-5.530577,-32.92887
49,-0.9704470634460449,1.1961939334869385,76.66233825683594,3.6716247680395786,0.5458685472210753,75.86198951271328,0.40287617,-4.045651,6.3100543,20.704645,-22.436016,1.4347854,-26.333073,-19.862867,-2.0826967,55.93817,-14.1050415,8.346681,-5.4480615,-4.512848,9.995914,-0.8175039,19.932827,-33.618015,40.953083,-4.451679,-8.055627,0.6677213,-2.6466002,-12.1309395,21.54713,37.346054,-6.475196,-5.5157948,-32.027645
50,-0.9069684147834778,1.3711416721343994,76.57675170898438,3.5106206657171555,0.5287747413339949,76.01836811191491,0.17875598,-3.8135083,6.17414,21.55975,-22.99971,1.3263457,-26.765034,-19.688566,-2.4931684,56.4123,-14.158641,8.253307,-5.676588,-4.361249,10.211356,-1.1690414,20.02638,-33.62481,40.110775,-4.478855,-7.958992,0.73187864,-2.6287189,-12.102644,21.517567,36.490395,-6.2404103,-5.5406485,-31.04384
51,-0.84162437915802,1.555472493171692,76.489990234375,3.349563134670013,0.5093936334725498,76.17670695751332,-0.044707686,-3.577857,6.0349565,22.430279,-23.574636,1.200084,-27.179955,-19.58439,-3.024437,56.83171,-14.227241,8.09519,-5.906354,-4.2131176,10.4404,-1.5441641,20.123053,-33.629864,39.212513,-4.492353,-7.8621182,0.7927491,-2.6182022,-12.078129,21.487255,35.63095,-6.022286,-5.574373,-30.031097
52,-0.7730221152305603,1.737369418144226,76.3905258178711,3.1953320221488175,0.4904712756199477,76.33180800555462,-0.26652983,-3.3452713,5.8984623,23.307348,-24.14142,1.0491368,-27.591457,-19.546604,-3.6432824,57.213444,-14.332902,7.8673787,-6.13018,-4.076412,10.677932,-1.9428219,20.22493,-33.627453,38.247948,-4.505629,-7.776455,0.82493883,-2.6150079,-12.057681,21.46145,34.76147,-5.872391,-5.588336,-29.04326
53,-0.6952834129333496,1.9224878549575806,76.2819595336914,3.0480028341149956,0.4717774237637345,76.48200282932348,-0.49435064,-3.1131568,5.767959,24.205854,-24.696573,0.86257386,-27.99725,-19.591896,-4.37519,57.561348,-14.499375,7.5467668,-6.347292,-3.95154,10.92499,-2.360532,20.332775,-33.60691,37.20843,-4.5118537,-7.708797,0.8197138,-2.6211386,-12.040336,21.437319,33.89454,-5.809363,-5.5917764,-28.086542
54,-0.6192767024040222,2.103792428970337,76.16117095947266,2.904912816804017,0.45203197068498446,76.6302433472232,-0.72298294,-2.879602,5.640004,25.117899,-25.248058,0.6473919,-28.387354,-19.717775,-5.2256927,57.866936,-14.712117,7.1437917,-6.56174,-3.8357859,11.182985,-2.7959518,20.447023,-33.573547,36.098232,-4.5071373,-7.651392,0.7909457,-2.6366408,-12.026063,21.414515,33.02988,-5.803737,-5.5968647,-27.134872
55,-0.5293891429901123,2.3034844398498535,76.04438018798828,2.7692083479734104,0.4324074741071824,76.77770301682432,-0.94560295,-2.650638,5.5114207,26.030064,-25.804176,0.42279905,-28.765083,-19.88927,-6.133114,58.128307,-14.934046,6.7031565,-6.7727995,-3.7325864,11.447642,-3.256894,20.570274,-33.547604,34.926888,-4.5117197,-7.593901,0.7473384,-2.6568656,-12.016878,21.401125,32.13877,-5.837074,-5.580651,-26.194016
56,-0.4283621311187744,2.506406307220459,75.91777801513672,2.643710548131713,0.41406839886323965,76.92567836454366,-1.149997,-2.4332407,5.378573,26.917036,-26.371386,0.2081935,-29.136314,-20.069473,-7.0363603,58.343445,-15.126477,6.2689705,-6.9795327,-3.6452649,11.715088,-3.7490287,20.70618,-33.54918,33.701538,-4.5454707,-7.525873,0.6973791,-2.675065,-12.016272,21.404392,31.190306,-5.8920293,-5.5192685,-25.269167
57,-0.32820987701416016,2.707566976547241,75.77922058105469,2.5234607453612217,0.3926741011403305,77.07134172482901,-1.3375306,-2.2209842,5.2433662,27.792892,-26.963184,0.0069185668,-29.498789,-20.259415,-7.943571,58.51506,-15.282484,5.8238163,-7.1783814,-3.5685792,11.992362,-4.27823,20.858774,-33.58838,32.41325,-4.6253037,-7.4505653,0.6340499,-2.6935303,-12.027989,21.432169,30.17877,-5.99043,-5.396299,-24.372433
58,-0.2233613282442093,2.907789945602417,75.6392593383789,2.4088990081384165,0.36916519888594507,77.2148930131605,-1.5127801,-2.0127082,5.1069407,28.663528,-27.572248,-0.19057128,-29.849735,-20.474628,-8.879951,58.64422,-15.4230585,5.35449,-7.3701706,-3.5027788,12.279706,-4.835684,21.029028,-33.653793,31.053816,-4.737719,-7.370811,0.5555167,-2.7105925,-12.052947,21.477976,29.113659,-6.133239,-5.229057,-23.496218
59,-0.10842128098011017,3.126478910446167,75.49578857421875,2.3117443506088935,0.3523683524180569,77.36227261559648,-1.6697534,-1.8243876,4.9651194,29.493626,-28.174416,-0.38464123,-30.195543,-20.701994,-9.80989,58.72289,-15.546978,4.910836,-7.559991,-3.459642,12.562791,-5.407258,21.214947,-33.73516,29.632416,-4.857942,-7.275818,0.47852868,-2.7134838,-12.088909,21.528446,27.987013,-6.271456,-5.042784,-22.61717
60,0.008375938981771469,3.35003924369812,75.35103607177734,2.2435412808462107,0.35107056869069386,77.51915921640247,-1.7994537,-1.6724019,4.813339,30.241367,-28.741446,-0.57519263,-30.544235,-20.927967,-10.696864,58.74233,-15.649913,4.5433283,-7.7526546,-3.4512007,12.82625,-5.981666,21.412636,-33.822556,28.163221,-4.9605446,-7.1551604,0.42033845,-2.6925862,-12.132981,21.570215,26.795246,-6.355418,-4.861325,-21.712149
61,0.13588832318782806,3.5826363563537598,75.20576477050781,2.206655060366617,0.36278849725795337,77.695986070536,-1.9159638,-1.5628687,4.6396847,30.933556,-29.284042,-0.7600356,-30.895426,-21.165459,-11.547423,58.702213,-15.725046,4.269341,-7.953512,-3.480686,13.074998,-6.572582,21.619467,-33.92058,26.643496,-5.029583,-7.0025654,0.39605728,-2.6533847,-12.184871,21.597961,25.536337,-6.3403296,-4.6814914,-20.76793
62,0.26839062571525574,3.8073458671569824,75.0570068359375,2.1953653059205163,0.38421488093156086,77.88673394354839,-2.01871,-1.4869301,4.4503117,31.580034,-29.811045,-0.9396511,-31.247698,-21.415262,-12.375281,58.606613,-15.774169,4.061146,-8.157292,-3.5419478,13.312541,-7.183371,21.834429,-34.034492,25.072159,-5.0815215,-6.8249454,0.39335296,-2.597864,-12.245102,21.618513,24.21379,-6.264678,-4.4913864,-19.799448
63,0.41456952691078186,4.056643962860107,74.91511535644531,2.2093372094567916,0.4228891550950906,78.0724704503824,-2.0793839,-1.4376199,4.2681,32.119102,-30.294863,-1.1183999,-31.606539,-21.649017,-13.155015,58.449944,-15.804797,3.900892,-8.35338,-3.6327658,13.521395,-7.7871885,22.055698,-34.153778,23.465292,-5.139598,-6.631568,0.3886303,-2.5122702,-12.310836,21.637827,22.831013,-6.2016306,-4.3010964,-18.826473
64,0.5723215937614441,4.322430610656738,74.78032684326172,2.248421112827267,0.486344158981633,78.23449418437896,-2.0703657,-1.4070265,4.115476,32.48996,-30.708002,-1.3004049,-31.979452,-21.838377,-13.860799,58.228397,-15.825537,3.770593,-8.5322695,-3.7510257,13.684072,-8.358515,22.28162,-34.267067,21.842354,-5.227116,-6.433218,0.35813305,-2.3863626,-12.37721,21.662462,21.398552,-6.2250414,-4.126059,-17.868862
65,0.7407174706459045,4.593741416931152,74.65644073486328,2.330160594156479,0.5736817488322528,78.36309711214132,-1.9807398,-1.4109637,4.006412,32.673573,-31.044994,-1.4876817,-32.38621,-21.98943,-14.465671,57.9492,-15.845184,3.6735988,-8.681235,-3.9180741,13.799496,-8.911837,22.514206,-34.376755,20.202328,-5.353322,-6.2229996,0.2909306,-2.2165253,-12.440351,21.691898,19.902086,-6.364511,-3.9756927,-16.930695
66,0.9324955940246582,4.890748023986816,74.54771423339844,2.449278647580705,0.6816267240753975,78.4702798360495,-1.8272223,-1.4472343,3.92556,32.704407,-31.32021,-1.6770697,-32.819183,-22.112873,-14.989341,57.61045,-15.855641,3.616792,-8.80947,-4.1286187,13.874838,-9.452514,22.754404,-34.486355,18.536772,-5.504038,-5.998698,0.20174696,-2.0111663,-12.499726,21.724152,18.346815,-6.5786,-3.844085,-16.001348
67,1.1273859739303589,5.208144187927246,74.45902252197266,2.5693560367182418,0.8141452083687384,78.56918277628576,-1.6213816,-1.4801531,3.8511918,32.597893,-31.534115,-1.8651993,-33.24235,-22.18606,-15.476868,57.192806,-15.840058,3.5877206,-8.941279,-4.3386207,13.905457,-9.943078,22.997833,-34.58451,16.852715,-5.667775,-5.775477,0.10592728,-1.7765421,-12.554899,21.763714,16.762596,-6.8318973,-3.7198236,-15.078243
68,1.3293876647949219,5.542510032653809,74.3934097290039,2.6549024070566443,0.975399822796637,78.67298924980501,-1.3759717,-1.4741812,3.761937,32.372185,-31.688524,-2.0488954,-33.620037,-22.186703,-15.973602,56.676697,-15.781631,3.573905,-9.101946,-4.503793,13.88591,-10.347458,23.237043,-34.657856,15.161899,-5.8319325,-5.5688977,0.018649703,-1.5192889,-12.606253,21.8161,15.180945,-7.091078,-3.5902417,-14.159531
69,1.5391883850097656,5.898191452026367,74.34498596191406,2.707477289084904,1.1809842695833574,78.78923490670915,-1.1071918,-1.4331958,3.6488533,32.02208,-31.779314,-2.227512,-33.970154,-22.11011,-16.469334,56.050186,-15.679115,3.5768764,-9.302012,-4.6241627,13.796814,-10.662251,23.46633,-34.70339,13.462728,-6.001463,-5.375148,-0.046371467,-1.2318814,-12.65414,21.87773,13.590435,-7.388756,-3.45531,-13.241507
70,1.7494850158691406,6.278233051300049,74.32125854492188,2.7426912167495403,1.4238972521397857,78.90993630009032,-0.80323845,-1.3711656,3.5240006,31.539568,-31.806112,-2.4028373,-34.302464,-21.968374,-16.947033,55.322548,-15.538804,3.6013196,-9.52694,-4.7168455,13.646753,-10.909951,23.684275,-34.726906,11.759151,-6.1783175,-5.1892967,-0.100239,-0.91287214,-12.6985,21.946852,11.980368,-7.7292466,-3.322228,-12.326135
71,1.9760427474975586,6.684985637664795,74.31949615478516,2.744894824376824,1.6742054883366502,79.02357045701434,-0.43530273,-1.2678427,3.3980865,30.93927,-31.775497,-2.5757296,-34.570995,-21.762802,-17.440962,54.510933,-15.358142,3.6401312,-9.764436,-4.763937,13.472978,-11.092962,23.890059,-34.727215,10.071618,-6.3445153,-5.0256224,-0.16545774,-0.58052826,-12.740074,22.031994,10.386004,-8.03553,-3.1863058,-11.420813
72,2.2183921337127686,7.118134021759033,74.33726501464844,2.698239664041887,1.9020784573409337,79.11863400254185,0.027395211,-1.102975,3.2824976,30.23092,-31.692835,-2.7472184,-34.728626,-21.493052,-17.985651,53.629772,-15.133108,3.6865957,-10.002933,-4.747564,13.313562,-11.210488,24.083178,-34.700737,8.417259,-6.480755,-4.8982472,-0.26512325,-0.251951,-12.778617,22.142029,8.84041,-8.23058,-3.0403605,-10.5342
73,2.4558489322662354,7.568878173828125,74.37416076660156,2.590561730857678,2.0980988348204614,79.18687867456384,0.6077721,-0.8639841,3.1794636,29.39438,-31.55494,-2.9122226,-34.74721,-21.14647,-18.609125,52.649933,-14.851646,3.7440922,-10.23986,-4.6562166,13.177941,-11.257968,24.26296,-34.638107,6.7999954,-6.5875173,-4.8232617,-0.42602327,0.07894015,-12.812408,22.276602,7.3408537,-8.316505,-2.8702173,-9.658819
74,2.695336103439331,8.03372859954834,74.42662811279297,2.4330670720791594,2.27867903705498,79.23594595983941,1.283819,-0.5646676,3.085668,28.431349,-31.361156,-3.0735068,-34.65985,-20.72461,-19.284052,51.57387,-14.516448,3.8148892,-10.481616,-4.5028067,13.0470705,-11.237153,24.429392,-34.542015,5.2102876,-6.6723814,-4.7880735,-0.6295471,0.41645333,-12.841765,22.431606,5.875353,-8.327976,-2.680543,-8.794479
75,2.9381723403930664,8.520421981811523,74.4913558959961,2.2448494411871387,2.452890218048387,79.27741112439361,2.0183392,-0.22470291,3.0042243,27.386173,-31.115734,-3.2435873,-34.50808,-20.247429,-19.96338,50.456997,-14.151675,3.8908632,-10.729921,-4.3052177,12.917626,-11.15915,24.583183,-34.427837,3.6504247,-6.727952,-4.7677107,-0.8310809,0.7439242,-12.868639,22.610216,4.457996,-8.23499,-2.48956,-7.9616694
76,3.1894705295562744,9.017677307128906,74.55650329589844,2.045331701600394,2.629919425951065,79.32353103334658,2.7752154,0.13659416,2.9369943,26.301779,-30.822578,-3.4339583,-34.334637,-19.737722,-20.599937,49.35921,-13.781552,3.9632225,-10.986018,-4.0812125,12.785445,-11.034978,24.725706,-34.311535,2.120555,-6.746815,-4.7356343,-0.9857797,1.0443237,-12.896769,22.815802,3.1047037,-8.007505,-2.3147445,-7.180598
77,3.440855026245117,9.537284851074219,74.62848663330078,1.8205818168060295,2.8129491698555356,79.37329898234465,3.5792353,0.5365042,2.8967383,25.12118,-30.475008,-3.6541433,-34.136986,-19.183197,-21.202963,48.269924,-13.3939295,4.029516,-11.25594,-3.814103,12.649822,-10.853766,24.85632,-34.18988,0.60745454,-6.7073298,-4.6787944,-1.0702257,1.316232,-12.928598,23.053217,1.8137833,-7.5855684,-2.1559083,-6.4563947
78,3.695136308670044,10.058423042297363,74.70111083984375,1.5669585018133239,2.996883399851785,79.42166794443922,4.4365044,0.9765006,2.880161,23.847412,-30.073143,-3.8962777,-33.89931,-18.578466,-21.787691,47.166252,-12.982185,4.0936265,-11.537146,-3.501535,12.514556,-10.6138,24.974518,-34.05623,-0.8864239,-6.6197724,-4.6133723,-1.1125932,1.5701306,-12.964887,23.319115,0.5759042,-7.0012026,-2.0003605,-5.7801375
79,3.960888147354126,10.577840805053711,74.76898193359375,1.318519680656898,3.178472089680695,79.47386584787847,5.288727,1.4149349,2.8622355,22.602695,-29.633156,-4.1441765,-33.64113,-17.958714,-22.318789,46.086464,-12.57815,4.155243,-11.817707,-3.181529,12.382251,-10.339873,25.082716,-33.921898,-2.3384783,-6.5254054,-4.557057,-1.1452199,1.80638,-13.005499,23.603905,-0.6058736,-6.360334,-1.8488182,-5.1502194
80,4.227936744689941,11.117513656616211,74.83383178710938,1.1098755762068202,3.354475352215089,79.53553474488709,6.071302,1.8112551,2.8153994,21.523888,-29.173506,-4.3798776,-33.381916,-17.35993,-22.76141,45.07183,-12.215164,4.214189,-12.084723,-2.8932753,12.25461,-10.056862,25.184841,-33.79927,-3.7253928,-6.465634,-4.5274625,-1.1998543,2.0240722,-13.050276,23.897547,-1.7263252,-5.769745,-1.7047098,-4.563448
81,4.510187149047852,11.658123970031738,74.8852767944336,0.9424154597122018,3.5222653963885575,79.60396271586477,6.80631,2.161993,2.7299504,20.576448,-28.679993,-4.5965147,-33.123955,-16.778486,-23.10425,44.130836,-11.895116,4.271331,-12.340665,-2.6395812,12.132212,-9.758936,25.284578,-33.68554,-5.0543513,-6.4682636,-4.527602,-1.2892066,2.223921,-13.098019,24.20147,-2.7916982,-5.245551,-1.5642183,-4.017394
82,4.791529178619385,12.215947151184082,74.93347930908203,0.8004263238231367,3.6839757682651006,79.67737169427019,7.5141273,2.486558,2.618945,19.714863,-28.15102,-4.8023205,-32.85843,-16.202583,-23.366081,43.247414,-11.605281,4.3256207,-12.590479,-2.4042,12.013857,-9.434652,25.38326,-33.575424,-6.3372,-6.506731,-4.5483975,-1.3945502,2.4032588,-13.148948,24.520334,-3.798934,-4.735133,-1.4287838,-3.5133858
83,5.079959869384766,12.770745277404785,74.97138214111328,0.6948699098554241,3.843515103965929,79.76241879176257,8.129162,2.7796767,2.486908,19.057907,-27.625164,-5.001847,-32.583775,-15.654344,-23.559488,42.420807,-11.3530655,4.373213,-12.82419,-2.1945403,11.89927,-9.10034,25.480303,-33.478355,-7.5602317,-6.540511,-4.58954,-1.5004449,2.5588791,-13.202384,24.84888,-4.7362456,-4.239498,-1.3117633,-3.0538728
84,5.37567663192749,13.32829475402832,75.00439453125,0.6326529302191068,4.00501924488166,79.86552684812396,8.586484,3.0355453,2.3380888,18.722702,-27.140417,-5.200085,-32.30073,-15.156643,-23.697088,41.656666,-11.149139,4.410548,-13.030045,-2.0172884,11.787395,-8.776534,25.572966,-33.40651,-8.704721,-6.529117,-4.650963,-1.5911267,2.6877415,-13.256894,25.179996,-5.590941,-3.759212,-1.2265334,-2.640844
85,5.675915241241455,13.899739265441895,75.02542114257812,0.6250674839397309,4.169505982446761,80.00201971929751,8.894629,3.2412524,2.1623857,18.680538,-26.688225,-5.42018,-32.00937,-14.729557,-23.777117,40.96444,-10.978248,4.520152,-13.217455,-1.8831002,11.673475,-8.475823,25.659086,-33.36946,-9.768405,-6.446503,-4.7297845,-1.6547824,2.7998142,-13.311263,25.50842,-6.3759837,-3.265978,-1.186467,-2.2746127
86,5.991703033447266,14.460470199584961,75.03511047363281,0.6643110358610926,4.335115352574481,80.16426398024868,9.081104,3.404014,1.9594113,18.88573,-26.253239,-5.6532526,-31.70841,-14.356,-23.797207,40.341305,-10.842453,4.6755357,-13.386734,-1.7835017,11.55771,-8.190689,25.737103,-33.362392,-10.753619,-6.3191195,-4.827124,-1.7021624,2.8917916,-13.364935,25.837507,-7.090398,-2.76848,-1.1823279,-1.9527708
87,6.305318355560303,15.030031204223633,75.03622436523438,0.7259799697142943,4.50159614513899,80.32533763257001,9.111455,3.5493827,1.7484835,19.423882,-25.85959,-5.857311,-31.395382,-14.0004635,-23.771795,39.77115,-10.776062,4.7093782,-13.513269,-1.6946903,11.446265,-7.9123254,25.804253,-33.375874,-11.64675,-6.184766,-4.948855,-1.7517623,2.9388657,-13.41741,26.174978,-7.697978,-2.3233302,-1.1942337,-1.6733063
88,6.62816858291626,15.601582527160645,75.03125,0.7859041177003968,4.66921205202926,80.45877610306,8.946425,3.7051857,1.5488938,20.389145,-25.535412,-5.991198,-31.068098,-13.626681,-23.716852,39.238358,-10.811955,4.4530487,-13.573125,-1.5909631,11.345216,-7.631986,25.856903,-33.40009,-12.433598,-6.0815115,-5.1009417,-1.8223165,2.9156256,-13.467718,26.528297,-8.162242,-1.9867408,-1.2028409,-1.4346265
89,6.95089864730835,16.17659568786621,75.01045227050781,0.8537475186000434,4.849822402564765,80.57310185441102,8.579057,3.8569016,1.3535022,21.7762,-25.30934,-6.062254,-30.726828,-13.220748,-23.594921,38.68367,-10.89082,3.8190618,-13.56613,-1.4806639,11.238498,-7.356946,25.892996,-33.44699,-13.103416,-6.024433,-5.3082814,-1.9263878,2.837196,-13.5127125,26.887953,-8.49089,-1.8261353,-1.2075869,-1.2348179
90,7.289070129394531,16.75872802734375,74.9789810180664,0.931833982739479,5.040761469677114,80.67869742691806,8.032991,4.002204,1.1557574,23.533335,-25.152754,-6.0893035,-30.375387,-12.80074,-23.41635,38.14271,-11.017675,2.9073749,-13.484898,-1.3687489,11.125106,-7.1196,25.903336,-33.544693,-13.636138,-5.992159,-5.560996,-2.0480602,2.7153935,-13.538726,27.229895,-8.692709,-1.798171,-1.2196423,-1.0667417
91,7.6323628425598145,17.337791442871094,74.93761444091797,0.9786251635374854,5.22147595906877,80.75167587901407,7.331435,4.188728,0.97514284,25.649378,-24.988016,-6.049004,-30.014715,-12.369555,-23.268219,37.72949,-11.317049,1.8326513,-13.375679,-1.2124623,11.039193,-6.8412347,25.899874,-33.5994,-14.095905,-5.9641223,-5.808333,-2.1794987,2.4828713,-13.574882,27.641922,-8.731328,-1.7790288,-1.2341719,-0.9553212
92,7.976987838745117,17.922700881958008,74.89972686767578,0.9503359771609048,5.370755756361989,80.76874250761912,6.5027056,4.464756,0.8300056,28.105627,-24.734966,-5.919609,-29.64291,-11.924141,-23.234306,37.548077,-11.913799,0.71352905,-13.175655,-0.9793419,11.015487,-6.571431,25.877523,-33.65893,-14.459236,-5.927808,-6.001282,-2.288727,2.1378295,-13.603731,28.071196,-8.599435,-1.6605297,-1.2491238,-0.8791232
93,8.31666374206543,18.504117965698242,74.85176086425781,0.8234210047992053,5.493064766709567,80.73443846239367,5.54447,4.855069,0.721622,30.93044,-24.407423,-5.70249,-29.243801,-11.465711,-23.382017,37.66251,-12.9974985,-0.572094,-12.949513,-0.62770146,11.042854,-6.2526274,25.817911,-33.649067,-14.742585,-5.8821144,-6.1179824,-2.3994906,1.6439804,-13.643306,28.600397,-8.254175,-1.3798655,-1.2594937,-0.8858948
94,8.667143821716309,19.089672088623047,74.8001480102539,0.6205238627031427,5.596216625042283,80.65834878551108,4.4655657,5.332603,0.6382471,34.081745,-24.015781,-5.412794,-28.822372,-10.976451,-23.634865,37.991245,-14.448803,-2.0321863,-12.651116,-0.18637761,11.111258,-5.939613,25.729584,-33.642994,-14.921643,-5.838829,-6.188118,-2.5039735,1.055007,-13.681532,29.15756,-7.7434483,-1.0107878,-1.2698004,-0.94852847
95,9.014175415039062,19.672698974609375,74.73251342773438,0.3714086542519588,5.664190460149695,80.5246590194366,3.299782,5.8676877,0.5788619,37.46027,-23.474514,-5.0504627,-28.40327,-10.43367,-23.870716,38.41678,-15.933557,-3.3721583,-12.289524,0.30267262,11.240237,-5.62027,25.610315,-33.606503,-15.010156,-5.772701,-6.237036,-2.5915916,0.338799,-13.721894,29.761154,-7.086527,-0.62213427,-1.2847427,-1.0284903
96,9.358741760253906,20.243392944335938,74.65601348876953,0.10652264861231024,5.681344102701828,80.31698140373601,2.0758018,6.430547,0.5460127,40.97883,-22.701336,-4.6151514,-28.00418,-9.832371,-23.987799,38.82296,-17.117416,-4.2966766,-11.864003,0.797183,11.451491,-5.2910423,25.459352,-33.51701,-15.016488,-5.659674,-6.29045,-2.6490648,-0.52616864,-13.769473,30.417376,-6.314419,-0.28285664,-1.308613,-1.0838507
97,9.712882041931152,20.8004150390625,74.57069396972656,-0.16964458216339862,5.639055207247687,80.0328646306509,0.7693517,7.0193977,0.5522908,44.700363,-21.61161,-4.0605354,-27.636452,-9.1951685,-23.97143,39.2124,-17.858042,-4.6192355,-11.366982,1.2950191,11.76159,-4.9637628,25.275764,-33.37268,-14.921046,-5.454381,-6.3543577,-2.6787279,-1.5448668,-13.82143,31.114931,-5.410116,0.052158568,-1.3351316,-1.1003829
98,10.065937995910645,21.34304428100586,74.47774505615234,-0.470302989192111,5.546771647497949,79.67971066463957,-0.6188873,7.6493216,0.5994913,48.631752,-20.259598,-3.407997,-27.279606,-8.543415,-23.878422,39.64857,-18.354927,-4.5344405,-10.80272,1.8196901,12.153881,-4.6385646,25.058708,-33.184578,-14.726989,-5.1825976,-6.415371,-2.6860216,-2.7038891,-13.8745985,31.854805,-4.373836,0.3996622,-1.3644482,-1.1018156
99,10.413668632507324,21.89278793334961,74.38472747802734,-0.7888019801566568,5.415592743374958,79.2565955324236,-2.0286517,8.312981,0.6721152,52.61872,-18.77867,-2.7548656,-26.90209,-7.870523,-23.724487,40.096935,-18.781239,-4.318205,-10.189109,2.3671103,12.603081,-4.2907286,24.808546,-32.9483,-14.4880495,-4.9278,-6.470533,-2.6621308,-3.997937,-13.936771,32.663074,-3.265239,0.65164167,-1.410068,-1.1039762
100,10.74673843383789,22.428707122802734,74.27803039550781,-1.120264631098981,5.256120186291658,78.76420020053494,-3.4106085,8.999307,0.7449702,56.53781,-17.321098,-2.1957211,-26.482037,-7.1563673,-23.527496,40.523266,-19.319597,-4.2384515,-9.547182,2.934221,13.086539,-3.8904376,24.527813,-32.655167,-14.266782,-4.774022,-6.5152216,-2.599028,-5.4180284,-14.02265,33.570915,-2.152263,0.7017803,-1.4854195,-1.1244177
101,11.057729721069336,22.97030258178711,74.1622085571289,-1.4843060930071927,5.054298051924121,78.1700827909309,-4.7636495,9.739064,0.83565044,60.45931,-15.755627,-1.8051634,-25.993484,-6.3401346,-23.282347,40.87406,-20.001787,-4.367105,-8.865076,3.5458286,13.631101,-3.4161575,24.213614,-32.27513,-14.064233,-4.7450213,-6.5591183,-2.50251,-6.9927416,-14.145402,34.611584,-1.0209587,0.44413212,-1.6014979,-1.1735897
102,11.354182243347168,23.508806228637695,74.02716827392578,-1.870602696610957,4.807923956945967,77.48590946621944,-6.1127787,10.519007,0.9416137,64.43407,-14.070535,-1.5162826,-25.460497,-5.4438906,-22.982197,41.181282,-20.735067,-4.5614624,-8.141197,4.2023745,14.243299,-2.8860145,23.86479,-31.819801,-13.865748,-4.79596,-6.6012807,-2.375883,-8.705156,-14.303777,35.766354,0.12039219,-0.031518508,-1.7479458,-1.2441715
103,11.645369529724121,24.051639556884766,73.88480377197266,-2.235252152739153,4.5457204349954505,76.77593360302076,-7.443856,11.256756,1.0149221,68.30061,-12.586183,-1.2093983,-24.92492,-4.55595,-22.642262,41.500782,-21.50158,-4.7624793,-7.4049063,4.856069,14.870902,-2.3304703,23.490751,-31.346273,-13.706131,-4.9089737,-6.623759,-2.2058747,-10.481075,-14.488384,36.986294,1.1777116,-0.5382923,-1.9065729,-1.3244978
104,11.945823669433594,24.581865310668945,73.72614288330078,-2.537710907287972,4.29835001617526,76.10345621975462,-8.74839,11.87394,1.0138512,71.90351,-11.627262,-0.7633375,-24.429562,-3.7702262,-22.28166,41.896698,-22.289474,-4.908785,-6.6822166,5.454443,15.462274,-1.7747781,23.108751,-30.912079,-13.622777,-5.0671105,-6.6084695,-1.9769902,-12.248996,-14.68723,38.219448,2.0678723,-0.89310473,-2.0599189,-1.3999885
105,12.250497817993164,25.115093231201172,73.5581283569336,-2.784314940485117,4.047463947899271,75.4851096424069,-10.019615,12.430337,0.95607,75.32245,-11.310354,0.011146985,-23.959908,-3.0933268,-21.919012,42.395058,-23.106855,-4.981876,-5.9779935,5.9941854,16.040672,-1.2215859,22.731728,-30.529995,-13.628125,-5.2706175,-6.537145,-1.652688,-14.013939,-14.895264,39.47091,2.7859938,-1.0637368,-2.2108777,-1.4688685
106,12.548931121826172,25.65721893310547,73.38552856445312,-2.9915206552091087,3.787026789475326,74.8870496856746,-11.270551,12.937134,0.85405886,78.61859,-11.458013,1.0002203,-23.504665,-2.4786415,-21.545816,42.96114,-23.957485,-5.0159717,-5.276489,6.495935,16.625654,-0.6490167,22.364609,-30.171492,-13.715902,-5.5301514,-6.4250636,-1.2486641,-15.810143,-15.110283,40.759487,3.37061,-1.1431966,-2.3670287,-1.5357057
107,12.857343673706055,26.184999465942383,73.21664428710938,-3.1334483259297494,3.5676047603131344,74.29580422810348,-12.526743,13.238265,0.66738605,81.611404,-11.954667,1.8646866,-23.106892,-1.9417907,-21.137968,43.561382,-24.819794,-5.028305,-4.5719185,6.9364676,17.159752,-0.040406052,22.014732,-29.82935,-13.896407,-5.8441296,-6.304156,-0.82748544,-17.60887,-15.324634,42.05536,3.8148627,-1.1428719,-2.5183737,-1.5943283
108,13.158069610595703,26.719778060913086,73.0500717163086,-3.1861914842930816,3.439936964514699,73.69575012089703,-13.819318,13.181105,0.36635005,84.12759,-12.689437,2.2628725,-22.810854,-1.4977226,-20.6696,44.163002,-25.670216,-5.037008,-3.853105,7.2904778,17.585047,0.62069297,21.690737,-29.498524,-14.17925,-6.210301,-6.205976,-0.45110494,-19.3819,-15.528287,43.325928,4.1180034,-1.0718522,-2.655071,-1.6380429
109,13.460368156433105,27.274141311645508,72.90033721923828,-3.1165601270053194,3.4309585739568034,73.07961819816451,-15.126604,12.592355,-0.119756915,86.06887,-13.837825,1.9561533,-22.660166,-1.1839434,-20.119953,44.798542,-26.524048,-5.0384445,-3.1110747,7.5136704,17.878357,1.3502709,21.401123,-29.17612,-14.576527,-6.701407,-6.1518455,-0.118818216,-21.139547,-15.71525,44.594463,4.2846165,-0.8517393,-2.7766316,-1.6855615
110,13.770881652832031,27.8283748626709,72.76556396484375,-2.953475531376639,3.5101182795775947,72.45452958737118,-16.44319,11.620078,-0.7235644,87.564575,-15.410051,1.1952436,-22.615623,-0.9734856,-19.510427,45.463783,-27.383244,-5.0268307,-2.3528,7.625409,18.079683,2.1499472,21.150913,-28.859043,-15.092499,-7.2961597,-6.1216245,0.19726473,-22.895592,-15.882509,45.872257,4.3243537,-0.5045237,-2.8882992,-1.7331102
111,14.08065128326416,28.390880584716797,72.6415023803711,-2.7575974568146107,3.641885703669277,71.83151016696141,-17.81887,10.586101,-1.282253,88.75679,-17.032103,0.36290383,-22.593718,-0.7976658,-18.881216,46.078007,-28.213158,-5.011681,-1.5944284,7.6898985,18.221579,3.0137596,20.941126,-28.54431,-15.723627,-7.850222,-6.0822034,0.4769015,-24.618914,-16.024525,47.10775,4.245715,-0.19847222,-2.9879653,-1.740331
112,14.379067420959473,28.961610794067383,72.532958984375,-2.5842237556004495,3.7909767682847613,71.22326301646088,-19.309544,9.7799015,-1.6625296,89.7787,-18.308134,-0.18678266,-22.513712,-0.5961527,-18.270105,46.565353,-28.98117,-5.0024133,-0.85372734,7.7683854,18.330284,3.9308922,20.769228,-28.231335,-16.459404,-8.220312,-5.998756,0.7009309,-26.285543,-16.137299,48.250076,4.070075,-0.100945964,-3.0736089,-1.6661257
113,14.678777694702148,29.55105209350586,72.44932556152344,-2.4282709877271014,3.9713778760360094,70.62646207690871,-20.975906,9.208456,-1.8621185,90.65392,-19.050669,-0.40092927,-22.400969,-0.37936926,-17.674625,46.94666,-29.69262,-5.001139,-0.13541925,7.8543954,18.388153,4.9215026,20.633654,-27.91282,-17.325304,-8.333737,-5.835173,0.8730599,-27.908068,-16.217646,49.293846,3.801739,-0.32349858,-3.1372747,-1.4780236
114,14.985860824584961,30.146249771118164,72.38253021240234,-2.2668711191162245,4.194168302514564,70.03664370201369,-22.77457,8.740271,-1.955162,91.30625,-19.481998,-0.45741844,-22.283955,-0.17113443,-17.07696,47.250034,-30.3608,-5.0044336,0.56775147,7.9180245,18.387499,5.987355,20.533707,-27.589102,-18.31627,-8.279414,-5.6181555,1.0002145,-29.495317,-16.264929,50.26893,3.4459555,-0.7570199,-3.184916,-1.2048763
115,15.30809211730957,30.77031898498535,72.33313751220703,-2.125034622614503,4.418962155228355,69.4664882061924,-24.602335,8.427901,-1.9449208,91.70989,-19.817146,-0.3750428,-22.085703,0.057740923,-16.495695,47.41458,-30.96656,-5.0078387,1.2613144,7.9871197,18.364405,7.0831685,20.46738,-27.278938,-19.374178,-8.155718,-5.4034123,1.0707903,-31.014685,-16.281618,51.16374,3.0204015,-1.233888,-3.2349467,-0.8976219
116,15.638526916503906,31.403684616088867,72.30804443359375,-2.023929299597084,4.605357462006335,68.92815794838585,-26.35714,8.325756,-1.8310887,91.84148,-20.271029,-0.16706222,-21.732128,0.33678466,-15.945264,47.382233,-31.491665,-5.0094895,1.9344912,8.092761,18.356915,8.174475,20.422888,-26.980576,-20.447784,-8.058305,-5.247207,1.0663642,-32.44709,-16.273031,51.98687,2.545537,-1.5817952,-3.302605,-0.61250293
117,15.969659805297852,32.05418395996094,72.30642700195312,-1.9954749231361568,4.735157859357996,68.42096559383168,-28.02429,8.5328665,-1.5809773,91.70121,-20.964384,0.20405374,-21.192297,0.70416147,-15.43615,47.129425,-31.928335,-5.0124106,2.6048915,8.277462,18.369658,9.242257,20.398283,-26.714472,-21.521502,-7.9684653,-5.1671486,0.96984756,-33.772816,-16.24423,52.701134,2.006677,-1.7812783,-3.4023733,-0.33373657
118,16.302045822143555,32.720176696777344,72.33265686035156,-2.0165410832101434,4.831355835442386,67.9387533954098,-29.644997,8.975398,-1.2001814,91.292206,-21.766317,0.72030014,-20.508587,1.1282656,-14.951348,46.69035,-32.28754,-5.0163517,3.2672572,8.513697,18.380756,10.307266,20.39061,-26.469784,-22.618727,-7.84826,-5.1326184,0.79265994,-35.015472,-16.200474,53.32069,1.4059036,-1.9099648,-3.5215242,-0.043356672
119,16.64427947998047,33.39905548095703,72.39154815673828,-2.023869211190486,4.915539664588332,67.48784169220515,-31.200474,9.442562,-0.7481255,90.598595,-22.52203,1.2769881,-19.717901,1.5286232,-14.471101,46.096222,-32.5806,-5.0085692,3.9295938,8.731584,18.376059,11.330846,20.394384,-26.26799,-23.688974,-7.764481,-5.12847,0.5786351,-36.16461,-16.155926,53.86472,0.76811945,-1.9732143,-3.6322367,0.21957327
120,17.002065658569336,34.09294509887695,72.47956085205078,-1.9573000218652736,5.010465225338534,67.0744950966286,-32.67511,9.737121,-0.2841247,89.60656,-23.070873,1.7799424,-18.856958,1.8261129,-13.98098,45.376186,-32.817524,-4.9755077,4.567714,8.860159,18.35517,12.317617,20.405907,-26.086536,-24.7239,-7.785255,-5.1380897,0.35929802,-37.221416,-16.10299,54.389393,0.1252771,-1.9864031,-3.7061818,0.40550253
121,17.3574275970459,34.80377960205078,72.59844970703125,-1.8124541565869299,5.115215326125996,66.70288099596944,-34.084682,9.843859,0.18726546,88.31195,-23.366955,2.2473128,-17.925602,2.018019,-13.47756,44.534336,-33.001312,-4.9250607,5.188922,8.9004755,18.321316,13.251582,20.423502,-25.942955,-25.716043,-7.9479084,-5.1698985,0.13703743,-38.19238,-16.041391,54.88892,-0.5169149,-1.9354511,-3.730618,0.50476044
122,17.724197387695312,35.52657699584961,72.74822235107422,-1.6177261166343857,5.220849084340885,66.36924742264925,-35.420666,9.8505125,0.7087815,86.7179,-23.500845,2.7097065,-16.91024,2.1360855,-12.971151,43.558987,-33.1281,-4.857849,5.7955356,8.883016,18.261663,14.124021,20.435791,-25.85058,-26.640556,-8.205254,-5.228148,-0.0961491,-39.15839,-16.017746,55.333607,-1.1521194,-1.716186,-3.7227902,0.5562933
123,18.096357345581055,36.270286560058594,72.92213439941406,-1.3611841606252164,5.3390080250118,66.06814795277221,-36.63508,9.733011,1.285663,84.81719,-23.505695,3.105685,-15.822672,2.162989,-12.46945,42.44088,-33.190624,-4.754418,6.3693113,8.789833,18.197763,14.978126,20.455904,-25.74924,-27.543446,-8.510368,-5.287052,-0.34948328,-39.976467,-15.989583,55.771976,-1.8212805,-1.5243144,-3.6948035,0.53893465
124,18.472026824951172,37.036067962646484,73.12553405761719,-1.0286585158309123,5.4809676853176255,65.79410511729421,-37.683125,9.470222,1.9178166,82.60285,-23.409971,3.3757179,-14.6767435,2.0798125,-11.980444,41.175217,-33.184826,-4.596857,6.982365,8.6087,18.083055,15.699993,20.466238,-25.737385,-28.28234,-8.795803,-5.3258705,-0.57805115,-40.62667,-15.981645,56.11661,-2.4803684,-1.3620733,-3.6635933,0.49940515
125,18.86040687561035,37.81578063964844,73.34912872314453,-0.6108264619724344,5.654592845758745,65.55132897918553,-38.567673,9.050273,2.59614,80.02945,-23.234365,3.514708,-13.475199,1.8668427,-11.514132,39.751595,-33.12386,-4.3696966,7.5701704,8.319573,17.940493,16.378271,20.476305,-25.726124,-28.935972,-9.079684,-5.333277,-0.8121152,-41.145466,-15.9810295,56.451797,-3.1315079,-1.2345934,-3.6267214,0.387077
126,19.259077072143555,38.61715316772461,73.59229278564453,-0.11673213920416668,5.852480540178947,65.34155936004115,-39.30316,8.489649,3.3190727,77.1057,-22.951805,3.550702,-12.213139,1.5392846,-11.069994,38.17452,-33.00473,-4.086284,8.155535,7.9385805,17.768879,16.981586,20.484015,-25.751226,-29.484867,-9.378742,-5.322884,-1.0471662,-41.53606,-15.99129,56.74271,-3.7720058,-1.1190745,-3.5783381,0.21740507
127,19.670108795166016,39.430015563964844,73.8530044555664,0.43053161884357044,6.063933463254732,65.15569619614052,-39.865536,7.81808,4.0865064,73.896736,-22.530079,3.4798787,-10.893678,1.1326574,-10.640089,36.467327,-32.803123,-3.7745967,8.749775,7.489971,17.57426,17.500278,20.487072,-25.820423,-29.931318,-9.655356,-5.3079176,-1.2598777,-41.7604,-16.004086,56.97033,-4.405409,-1.0408769,-3.5269113,0.042221088
128,20.085697174072266,40.260581970214844,74.12601470947266,1.0122929883626777,6.2785010993563475,64.98365353935671,-40.233692,7.0667152,4.896134,70.46233,-21.932291,3.302221,-9.516346,0.6806829,-10.211371,34.64869,-32.493256,-3.4662235,9.302097,6.9865527,17.364103,18.00347,20.484976,-25.880678,-30.335712,-9.878566,-5.3034954,-1.4298328,-41.900745,-16.02925,57.164894,-5.017564,-0.9063428,-3.481981,-0.09251724
129,20.511995315551758,41.113128662109375,74.40184020996094,1.6540735025662936,6.506986834686074,64.840130725797,-40.397034,6.2570887,5.8204765,66.732056,-21.116623,3.0903099,-8.04714,0.15625003,-9.791463,32.632687,-32.08045,-3.180002,9.842125,6.405458,17.134205,18.45287,20.474981,-25.963734,-30.665232,-10.0523815,-5.3112864,-1.5433433,-41.856575,-16.063763,57.29398,-5.6331573,-0.81245434,-3.443467,-0.1745302
130,20.954805374145508,41.98587417602539,74.67626953125,2.3544661680836767,6.749572597890885,64.72460685916198,-40.369488,5.3733063,6.816834,62.6833,-20.105974,2.827871,-6.5004597,-0.44935566,-9.384065,30.45363,-31.584942,-2.9041374,10.345693,5.7455683,16.876692,18.864443,20.448957,-26.054893,-30.91309,-10.189635,-5.3258967,-1.6119804,-41.72981,-16.13315,57.36853,-6.233196,-0.65225786,-3.4071457,-0.21994089
131,21.40739631652832,42.87684631347656,74.93955993652344,3.0395355312781698,6.978731243241119,64.60139797051275,-40.17832,4.4082875,7.693056,58.45973,-18.965534,2.3904557,-4.946838,-1.0613906,-8.967892,28.311153,-31.004135,-2.6233158,10.8425665,5.087851,16.617033,19.222244,20.414639,-26.15677,-31.103006,-10.2633,-5.3461094,-1.6635156,-41.48816,-16.219616,57.401493,-6.8333,-0.46744424,-3.3746338,-0.24820693
132,21.850555419921875,43.79616165161133,75.185302734375,3.647913073542821,7.166798311831158,64.43447585551783,-39.839287,3.3560023,8.262019,54.1832,-17.7487,1.6626257,-3.4507537,-1.6133476,-8.514877,26.387655,-30.324625,-2.3165016,11.34678,4.4971833,16.379677,19.52712,20.380318,-26.259565,-31.26136,-10.247635,-5.371448,-1.7239826,-41.13798,-16.310019,57.41555,-7.4392395,-0.26018512,-3.346311,-0.2757813
133,22.30550193786621,44.71965026855469,75.41461944580078,4.19800405844485,7.303365816116542,64.22365798766943,-39.28714,2.1715598,8.483916,49.70716,-16.394457,0.567821,-1.9342042,-2.1130526,-8.000245,24.547312,-29.485031,-1.93656,11.853395,3.9551046,16.16809,19.799236,20.353128,-26.357855,-31.397459,-10.114605,-5.403429,-1.7919267,-40.6849,-16.398811,57.407936,-8.043156,0.03290489,-3.3198686,-0.30075505
134,22.771636962890625,45.65074920654297,75.62625122070312,4.701020032385407,7.40005050622107,63.97867857598319,-38.51173,0.9141327,8.411802,44.978428,-14.889349,-0.78805816,-0.38233203,-2.5751143,-7.434342,22.74074,-28.51035,-1.5106229,12.359598,3.4469802,15.9729595,20.04239,20.335201,-26.453016,-31.50733,-9.887107,-5.4423923,-1.8547331,-40.127674,-16.48301,57.371952,-8.636708,0.38817304,-3.2957706,-0.3170502
135,23.254289627075195,46.58720016479492,75.80400848388672,5.086739962498422,7.463436862786313,63.67742602609682,-37.613293,-0.26062274,8.01444,40.286697,-13.374456,-2.250078,1.047194,-2.9345574,-6.838199,21.266989,-27.49567,-1.1241295,12.858137,3.0388303,15.790534,20.258772,20.323639,-26.526043,-31.619038,-9.617956,-5.486437,-1.9209733,-39.531918,-16.560999,57.328712,-9.21234,0.74863505,-3.2796662,-0.32878685
136,23.74237060546875,47.530025482177734,75.9555892944336,5.292945499297404,7.502267255331099,63.30105738868341,-36.711067,-1.2130919,7.291019,35.963882,-11.999322,-3.6779675,2.1922596,-3.1318717,-6.237692,20.425358,-26.535131,-0.85394466,13.338585,2.7882576,15.614368,20.448584,20.311901,-26.557312,-31.75626,-9.35905,-5.5335217,-2.0005043,-38.964058,-16.631258,57.302505,-9.758377,1.057707,-3.2772684,-0.34012917
137,24.218643188476562,48.47062683105469,76.07376861572266,5.288525933947742,7.519784099456175,62.8256680354537,-35.83174,-1.9367183,6.1328773,32.036064,-10.757074,-5.1758375,3.041187,-3.123151,-5.6253242,20.229406,-25.614532,-0.68662584,13.8401785,2.7294495,15.430899,20.601263,20.301989,-26.550352,-31.930918,-9.1082945,-5.5783854,-2.106943,-38.380825,-16.65852,57.307823,-10.265555,1.2514973,-3.291916,-0.36595488
138,24.6968994140625,49.39985656738281,76.15959167480469,5.11244760402692,7.508467431848066,62.26426519429599,-34.91268,-2.4666507,4.5930653,28.380514,-9.613299,-6.7687817,3.6797152,-2.9426112,-4.9896607,20.519032,-24.681007,-0.58562076,14.332053,2.8213353,15.235169,20.743143,20.286816,-26.49391,-32.132446,-8.843153,-5.624351,-2.230774,-37.86277,-16.682173,57.330254,-10.723182,1.4834303,-3.319813,-0.39215577
139,25.170433044433594,50.31575393676758,76.21952819824219,4.8247921146954615,7.4667241442538455,61.66493682736263,-33.98864,-2.780022,2.9507961,25.163784,-8.675702,-8.216974,4.0760527,-2.6645992,-4.3654065,21.350248,-23.77709,-0.58596724,14.759724,3.002148,15.052167,20.863571,20.265278,-26.399382,-32.336315,-8.584345,-5.680052,-2.350055,-37.39202,-16.700941,57.3562,-11.14285,1.7037817,-3.3562891,-0.39933103
140,25.63297462463379,51.214332580566406,76.25774383544922,4.498921262534505,7.400105067816123,61.081021179799244,-33.118057,-2.8992562,1.5008833,22.561838,-8.034731,-9.2914295,4.196191,-2.375014,-3.7962496,22.771345,-22.941465,-0.7164607,15.074944,3.1977348,14.9028845,20.942657,20.24443,-26.29651,-32.50956,-8.352323,-5.755495,-2.4330997,-36.949184,-16.707355,57.36368,-11.528914,1.8614562,-3.3968008,-0.36705467
141,26.09492301940918,52.1012077331543,76.2710189819336,4.151976124675136,7.331028086279577,60.53465173898503,-32.406403,-2.8457286,0.3403175,20.753574,-7.8184643,-9.878403,3.979069,-2.084011,-3.326213,24.861782,-22.181065,-0.966875,15.218352,3.3824558,14.797218,20.986712,20.176779,-26.118378,-32.669724,-8.1260605,-5.851355,-2.5119934,-36.52311,-16.703093,57.393078,-11.925295,1.9273804,-3.441615,-0.27561042
142,26.53658103942871,52.98809814453125,76.25867462158203,3.785653562397131,7.263046037157558,60.01199756526231,-31.849314,-2.6887565,-0.65535665,19.648035,-7.9458013,-10.135511,3.4499297,-1.7883116,-2.947259,27.561962,-21.467743,-1.3095373,15.244924,3.5575356,14.701034,20.98661,20.109022,-25.930141,-32.81082,-7.9033556,-5.968651,-2.5524366,-36.1796,-16.682701,57.40099,-12.2625065,1.9928821,-3.4926121,-0.13285328
143,26.97693634033203,53.86782455444336,76.21857452392578,3.448479350261875,7.173097365466222,59.51364573217729,-31.341503,-2.5307236,-1.5304669,19.017906,-8.185554,-10.243572,2.7130868,-1.5470613,-2.6264858,30.697481,-20.780525,-1.7412716,15.145421,3.6978514,14.636407,20.925085,19.99952,-25.716738,-32.85824,-7.723462,-6.0921416,-2.5904748,-35.843884,-16.625,57.41381,-12.537644,1.9709567,-3.549774,0.012814903
144,27.414344787597656,54.740447998046875,76.13874816894531,3.181190353396937,7.03660932353486,59.036425568089,-30.762924,-2.4534485,-2.3339028,18.623627,-8.304706,-10.379825,1.872943,-1.4081386,-2.3252087,34.106102,-20.095453,-2.2575538,14.951632,3.778512,14.608445,20.78912,19.874134,-25.526346,-32.757896,-7.631049,-6.213375,-2.6146967,-35.505424,-16.528704,57.393818,-12.715368,1.8634745,-3.61232,0.12754093
145,27.854999542236328,55.61857986450195,76.02164459228516,2.9448211155832142,6.839000037357851,58.58461705859409,-29.986544,-2.4243374,-3.1405926,18.3169,-8.229316,-10.667739,0.9362026,-1.3131369,-2.0609057,37.839127,-19.372921,-2.9637759,14.660732,3.8347263,14.62238,20.605661,19.755835,-25.366669,-32.517754,-7.6402016,-6.352961,-2.598062,-35.11057,-16.397514,57.33307,-12.818942,1.5944438,-3.680967,0.20991886
146,28.30127716064453,56.50837326049805,75.86475372314453,2.7395284710841725,6.597337877258735,58.1590727601534,-29.109718,-2.4240706,-3.904393,18.255903,-8.088849,-10.990199,-0.12791933,-1.2516254,-1.8549248,41.914795,-18.606743,-3.8018944,14.262097,3.8566692,14.673662,20.381817,19.64538,-25.216734,-32.17441,-7.72984,-6.509024,-2.5479147,-34.69544,-16.230131,57.242104,-12.850192,1.2024812,-3.756241,0.27736565
147,28.752370834350586,57.401527404785156,75.66859436035156,2.6577136642235946,6.333504429128505,57.749120966246124,-28.344736,-2.5472393,-4.496807,18.668613,-7.9595547,-11.16184,-1.2670134,-1.3338537,-1.6559385,46.135117,-17.84129,-4.5307407,13.789548,3.755835,14.766789,20.0753,19.550406,-25.074356,-31.736864,-7.897405,-6.6376925,-2.5142066,-34.28876,-16.032465,57.118492,-12.8125,0.77615803,-3.836711,0.31428018
148,29.18137550354004,58.27386474609375,75.49562072753906,2.784227823366111,6.066798282611203,57.33968988187358,-27.89313,-2.8851542,-4.7888026,19.769032,-7.910208,-10.99751,-2.4285989,-1.6634982,-1.3904476,50.327446,-17.145214,-4.9235063,13.289249,3.451075,14.907568,19.640419,19.483736,-24.94542,-31.211681,-8.140207,-6.695036,-2.545496,-33.89314,-15.813137,56.95772,-12.717607,0.38009,-3.9207537,0.3041928
149,29.633089065551758,59.14550018310547,75.28328704833984,3.168687521967564,5.797456051318898,56.90949695836111,-27.866373,-3.5067606,-4.711889,21.784813,-7.799688,-10.335849,-3.6252239,-2.2906053,-0.9752724,54.592937,-16.466103,-4.942875,12.781659,2.8860183,15.099124,19.07615,19.450748,-24.81966,-30.588812,-8.480108,-6.6662226,-2.6879256,-33.511528,-15.581844,56.753212,-12.574198,0.036295656,-4.0086823,0.24144533
150,30.085601806640625,60.00825881958008,75.02505493164062,3.7219610694665812,5.504086612142747,56.454836645107385,-28.099041,-4.3001723,-4.3390975,24.48531,-7.61272,-9.317579,-4.844842,-3.087817,-0.4386351,58.97479,-15.803784,-4.697324,12.2630005,2.149856,15.340227,18.408443,19.45355,-24.70359,-29.878162,-8.911933,-6.574467,-2.901609,-33.122124,-15.343224,56.50745,-12.391329,-0.30383438,-4.099944,0.13454404
151,30.510784149169922,60.844276428222656,74.72691345214844,4.332783979088382,5.180280338764705,55.99360050151006,-28.39176,-5.101726,-3.7646284,27.416452,-7.6187015,-8.204945,-6.024027,-3.9269915,0.12740688,63.26155,-15.340817,-4.2050323,11.725456,1.3632202,15.623809,17.643623,19.502203,-24.619091,-29.130632,-9.394787,-6.4337726,-3.1041791,-32.739716,-15.1064005,56.222248,-12.179749,-0.62749344,-4.1917877,-0.008552054
152,30.935230255126953,61.66548156738281,74.37971496582031,4.916270907211337,4.830084385692705,55.55398838146195,-28.570799,-5.7893095,-3.1014655,30.178244,-8.120685,-7.252789,-7.131538,-4.7395043,0.6225447,67.27577,-15.268595,-3.5043576,11.161701,0.6171518,15.942335,16.77752,19.612875,-24.595564,-28.396437,-9.889423,-6.2599273,-3.2123637,-32.350517,-14.879095,55.896214,-11.95886,-0.9510259,-4.2819257,-0.18199025
153,31.36437225341797,62.47429275512695,73.99620056152344,5.5126129198754015,4.4241298923985015,55.12980642040208,-28.638376,-6.37191,-2.2961292,32.854355,-9.365566,-6.496108,-8.124975,-5.6275573,1.0419027,71.0584,-15.735283,-2.441622,10.575392,-0.13833301,16.337914,15.7960205,19.799473,-24.64165,-27.681183,-10.411346,-6.039751,-3.1908152,-31.975079,-14.670733,55.512722,-11.741634,-1.2713611,-4.3725786,-0.39244956
154,31.792903900146484,63.26073455810547,73.60723114013672,6.158818340289848,3.9774533169349198,54.71384291299919,-28.678898,-6.9027042,-1.3408822,35.61609,-11.15444,-5.8051734,-9.059175,-6.643409,1.4237698,74.73291,-16.639387,-1.0895891,9.980632,-0.9491099,16.797539,14.699384,20.065552,-24.754381,-26.970522,-10.978634,-5.7733946,-3.0821981,-31.59211,-14.487336,55.067215,-11.5419655,-1.5949618,-4.463951,-0.64125645
155,32.20981216430664,64.0254898071289,73.23123931884766,6.78189623299448,3.563876499220731,54.342984660025124,-28.671127,-7.3708134,-0.41159275,38.242283,-13.139648,-5.1922364,-10.064791,-7.671072,1.7366819,78.24537,-17.78817,0.17412268,9.360908,-1.7369238,17.228073,13.515531,20.408083,-24.937225,-26.280981,-11.556175,-5.4979377,-2.921719,-31.175331,-14.336573,54.57649,-11.347927,-1.9047158,-4.551023,-0.91163
156,32.618690490722656,64.77845764160156,72.87066650390625,7.305990728419023,3.255470934158237,54.05606698446096,-28.59828,-7.785623,0.3354148,40.503857,-14.963519,-4.6706142,-11.268333,-8.571768,1.9608966,81.51821,-18.972494,0.98663795,8.69084,-2.4185963,17.53787,12.274847,20.819698,-25.191132,-25.625452,-12.106761,-5.2492437,-2.7469363,-30.699608,-14.227898,54.06023,-11.149327,-2.1812232,-4.628987,-1.186387
157,33.03562927246094,65.52852630615234,72.52767944335938,7.730740384834607,3.0813110329456914,53.91164748844087,-28.473286,-8.2001705,0.8660488,42.317387,-16.565205,-4.2745376,-12.732695,-9.316095,2.10559,84.57792,-20.24977,1.1767111,7.9273314,-2.9860551,17.70345,10.923925,21.302467,-25.558266,-24.964012,-12.6670065,-5.0465665,-2.5385761,-30.1485,-14.168701,53.509113,-10.962581,-2.4240944,-4.698937,-1.476552
158,33.460227966308594,66.2867431640625,72.21013641357422,8.094402350257058,2.999686468137749,53.87760578608467,-28.317875,-8.623833,1.2831824,43.82789,-18.12487,-3.9893386,-14.389015,-9.977008,2.1905031,87.44907,-21.677885,0.96553564,7.091992,-3.484263,17.774982,9.4600725,21.853687,-26.038176,-24.303782,-13.243051,-4.8689837,-2.2853024,-29.529673,-14.166447,52.913067,-10.80036,-2.6405406,-4.76293,-1.785625
159,33.882442474365234,67.04922485351562,71.91801452636719,8.377149896055723,2.97520695745214,53.857554437496205,-28.119776,-8.999325,1.6367294,45.13837,-19.64069,-3.7534218,-16.165228,-10.55954,2.2146327,90.03728,-23.046322,0.5873755,6.252596,-3.8992498,17.777271,7.990426,22.452847,-26.560911,-23.731676,-13.748026,-4.6887593,-2.0421276,-28.839575,-14.227431,52.29695,-10.654808,-2.836377,-4.8179855,-2.0871334
160,34.29814529418945,67.8242416381836,71.65945434570312,8.559509496204978,2.9728661031745633,53.754223182432064,-27.860306,-9.258989,1.9676664,46.353477,-21.114246,-3.5068378,-17.990522,-11.078576,2.1697621,92.24659,-24.145735,0.2699018,5.4751277,-4.211661,17.737047,6.618313,23.071812,-27.047546,-23.316854,-14.089904,-4.4752073,-1.8694578,-28.070414,-14.352146,51.692627,-10.514377,-3.0262878,-4.86054,-2.356572
161,34.707061767578125,68.6114501953125,71.43186950683594,8.623615977509454,3.011684020915692,53.54141576361225,-27.553701,-9.363664,2.2745726,47.491505,-22.555258,-3.245119,-19.914162,-11.537104,2.0626166,94.06339,-24.870602,0.06318959,4.771413,-4.389481,17.636194,5.350365,23.691256,-27.481373,-23.054977,-14.233111,-4.203284,-1.7931675,-27.204712,-14.537943,51.105717,-10.338824,-3.20422,-4.8857384,-2.5932431
162,35.11503219604492,69.4168472290039,71.2397232055664,8.585841368375933,3.0988980651012135,53.272296439986896,-27.199688,-9.350615,2.536754,48.504616,-23.964157,-2.9974291,-21.954977,-11.936155,1.8876734,95.53336,-25.340971,-0.15799059,4.103007,-4.4424443,17.47338,4.1247873,24.307148,-27.90045,-22.889454,-14.22315,-3.8918638,-1.7861137,-26.248175,-14.7818365,50.523796,-10.140858,-3.3702505,-4.8966217,-2.8100164
163,35.530494689941406,70.22527313232422,71.07244873046875,8.47825406534467,3.182108655852749,52.9687002893809,-26.7497,-9.264319,2.7565095,49.387962,-25.322405,-2.7568827,-23.996004,-12.302529,1.6146519,96.6499,-25.690783,-0.42923912,3.4587452,-4.4151945,17.297745,2.9477122,24.91794,-28.300253,-22.812792,-14.085813,-3.5757587,-1.8298498,-25.248133,-15.082162,49.94738,-9.98372,-3.5260897,-4.90158,-3.0018768
164,35.9603271484375,71.03179931640625,70.92681884765625,8.332198213847319,3.2092706210910396,52.65200034010745,-26.153757,-9.148525,2.9362624,50.131638,-26.613693,-2.516948,-25.918161,-12.655206,1.2138702,97.404785,-26.055027,-0.7810565,2.827726,-4.3539577,17.158533,1.8272996,25.525026,-28.675526,-22.820803,-13.848533,-3.290131,-1.9060464,-24.237112,-15.435067,49.383003,-9.935298,-3.6877275,-4.9088163,-3.1648169
165,36.40275192260742,71.84475708007812,70.80420684814453,8.128632785098878,3.1571511672492147,52.306228163655035,-25.400997,-8.98133,3.076311,50.780212,-27.862347,-2.2698941,-27.704672,-12.991206,0.6504282,97.7827,-26.487114,-1.2294625,2.2170208,-4.235986,17.072508,0.7714096,26.129625,-29.017729,-22.931284,-13.423556,-3.0348153,-2.0229287,-23.221521,-15.83818,48.83414,-9.996659,-3.9122953,-4.9191413,-3.2811825
166,36.85431671142578,72.64522552490234,70.7166519165039,7.860036296260669,3.0543991275832854,51.928021203883816,-24.515673,-8.741432,3.1719387,51.321083,-29.06993,-2.0266106,-29.402288,-13.29965,-0.06450755,97.78813,-26.911968,-1.7456795,1.6277243,-4.0490932,17.014389,-0.22386037,26.733118,-29.32994,-23.137905,-12.826566,-2.795862,-2.1886668,-22.183413,-16.289328,48.294937,-10.1321,-4.1740546,-4.928577,-3.3587592
167,37.32421875,73.43872833251953,70.66322326660156,7.574556104536579,2.92848775537874,51.557796980147224,-23.51208,-8.483255,3.2234356,51.67621,-30.186255,-1.8067186,-30.98969,-13.592071,-0.88635373,97.443054,-27.272108,-2.2894406,1.040274,-3.854972,16.967522,-1.1699905,27.33866,-29.623478,-23.404463,-12.243812,-2.5869045,-2.3816745,-21.11901,-16.782934,47.759552,-10.359718,-4.3622413,-4.9384565,-3.4311604
168,37.819969177246094,74.23200988769531,70.64979553222656,7.319782005407948,2.8083132691654566,51.23549387628344,-22.401094,-8.265507,3.2335353,51.76399,-31.15767,-1.6268893,-32.44996,-13.8783045,-1.767838,96.771,-27.508986,-2.824553,0.43448132,-3.7149253,16.913778,-2.0740979,27.94987,-29.90868,-23.700764,-11.860337,-2.420075,-2.5776062,-20.02903,-17.311079,47.2235,-10.690627,-4.363418,-4.950512,-3.531882
169,38.343135833740234,75.02559661865234,70.67387390136719,7.1149522941547545,2.6806368056105647,50.980218950101566,-21.157892,-8.121519,3.1994255,51.556335,-31.974976,-1.4917169,-33.769,-14.17929,-2.7126212,95.76273,-27.611906,-3.359552,-0.20094103,-3.6542065,16.862558,-2.9544485,28.570938,-30.183887,-24.023115,-11.722451,-2.3107142,-2.7809958,-18.919851,-17.86801,46.68985,-11.123744,-4.086654,-4.9723196,-3.6758752
170,38.88478088378906,75.81658172607422,70.72959899902344,6.931000445553542,2.5384058570112202,50.76755510876346,-19.786425,-8.014759,3.1239495,51.09881,-32.664436,-1.392102,-34.951168,-14.477815,-3.7493522,94.40949,-27.616535,-3.901712,-0.85459733,-3.6366417,16.816345,-3.7969294,29.203487,-30.441536,-24.393024,-11.7332735,-2.2475898,-2.9981728,-17.79182,-18.449848,46.161964,-11.646036,-3.6126094,-5.002127,-3.8422852
171,39.439090728759766,76.60874938964844,70.81779479980469,6.744126087602462,2.4215794691824617,50.57196784602908,-18.34396,-7.90346,3.0223892,50.428078,-33.225296,-1.321047,-36.01267,-14.731513,-4.860651,92.73693,-27.527338,-4.4112334,-1.5132554,-3.6289954,16.746424,-4.562456,29.84593,-30.680593,-24.814337,-11.865499,-2.2014637,-3.207216,-16.63504,-19.049423,45.637344,-12.246928,-3.0869272,-5.027258,-4.0114393
172,40.01443862915039,77.39567565917969,70.93856811523438,6.530435062624991,2.36933847280081,50.36778532855147,-16.888435,-7.7469673,2.9110837,49.581867,-33.65997,-1.270217,-36.96783,-14.897836,-6.031369,90.763985,-27.352224,-4.8505416,-2.1638873,-3.5962832,16.624702,-5.212376,30.494608,-30.898834,-25.28914,-12.090569,-2.1433141,-3.38669,-15.44045,-19.65702,45.113132,-12.918687,-2.657808,-5.0339365,-4.1639185
173,40.60477066040039,78.1986083984375,71.08863830566406,6.278849362543516,2.3975341052966117,50.150282743080496,-15.417657,-7.531626,2.7954307,48.53004,-33.987404,-1.2327001,-37.843,-14.959192,-7.266597,88.476974,-27.092705,-5.2170324,-2.8074849,-3.5251126,16.431057,-5.7430906,31.150627,-31.095602,-25.811317,-12.436389,-2.0666265,-3.5308025,-14.2182455,-20.265951,44.603485,-13.647981,-2.3590846,-5.0074077,-4.309416
174,41.21828079223633,79.01110076904297,71.26237487792969,6.002728585819004,2.4839893079105884,49.9316083582484,-13.909846,-7.2804084,2.671139,47.27216,-34.199966,-1.21007,-38.615772,-14.929051,-8.578332,85.86383,-26.746683,-5.520293,-3.4528928,-3.4310193,16.182907,-6.167993,31.815556,-31.263239,-26.383154,-12.905772,-1.9857297,-3.650665,-12.979291,-20.871864,44.108807,-14.428694,-2.114118,-4.9585,-4.4532247
175,41.840614318847656,79.80758666992188,71.46708679199219,5.714185742230846,2.6101644160560955,49.71112426291629,-12.384738,-7.008961,2.5387595,45.87232,-34.261288,-1.2070669,-39.23518,-14.81234,-9.957006,82.948044,-26.302649,-5.742671,-4.098877,-3.3221335,15.90892,-6.4745975,32.483864,-31.388256,-27.010483,-13.430597,-1.9032553,-3.7504442,-11.716248,-21.467295,43.604248,-15.253176,-1.90484,-4.9107685,-4.56955
176,42.481689453125,80.59729766845703,71.69499206542969,5.42598431286738,2.757466373225827,49.488559335575886,-10.863217,-6.733222,2.3981616,44.395805,-34.13308,-1.2303696,-39.65521,-14.615651,-11.387431,79.75111,-25.746902,-5.869209,-4.74352,-3.20711,15.636819,-6.65489,33.14509,-31.458433,-27.696213,-13.94237,-1.8219477,-3.835219,-10.419608,-22.041706,43.06427,-16.11795,-1.7140113,-4.887825,-4.632444
177,43.13238525390625,81.39423370361328,71.94869232177734,5.121972728776917,2.941552275999553,49.25561752456162,-9.344312,-6.4355226,2.2399297,42.80501,-33.825863,-1.2809601,-39.88204,-14.343678,-12.903152,76.22839,-25.113838,-5.9416256,-5.3910017,-3.0693662,15.357362,-6.700073,33.792057,-31.459738,-28.430626,-14.453781,-1.7391597,-3.9024456,-9.108877,-22.585823,42.48723,-17.005152,-1.5578052,-4.9074616,-4.6184807
178,43.79548263549805,82.20169830322266,72.22396850585938,4.8023156436091545,3.1651898198986306,49.01487441637888,-7.8191743,-6.1148295,2.068049,41.084095,-33.35503,-1.3531866,-39.936028,-13.9785,-14.495173,72.37187,-24.39231,-5.9491386,-6.042507,-2.9090984,15.058181,-6.619406,34.423096,-31.397148,-29.205282,-14.989666,-1.6544782,-3.952013,-7.788658,-23.09309,41.889576,-17.90872,-1.4403304,-4.9527793,-4.5470924
179,44.47200012207031,83.01240539550781,72.51815032958984,4.5057376407638525,3.3910722418279104,48.78280470476664,-6.2962356,-5.8134694,1.9007798,39.33027,-32.683346,-1.4469457,-39.80156,-13.502899,-16.069954,68.25234,-23.496246,-5.8072667,-6.6921663,-2.7641642,14.760581,-6.4300437,35.034008,-31.289122,-30.013182,-15.496204,-1.5744003,-3.9924881,-6.436791,-23.558474,41.27342,-18.82818,-1.3210737,-4.995426,-4.4556923
180,45.16545867919922,83.82372283935547,72.82634735107422,4.272153939887924,3.581933917823736,48.57677864388021,-4.7822337,-5.577346,1.7544945,37.638145,-31.772932,-1.5622152,-39.470818,-12.912268,-17.522022,63.939453,-22.338644,-5.4449754,-7.332929,-2.673647,14.48479,-6.1540284,35.618225,-31.159567,-30.847963,-15.918754,-1.5053781,-4.032657,-5.03177,-23.979227,40.637856,-19.766926,-1.1565894,-5.0070543,-4.38132
181,45.87381362915039,84.63783264160156,73.1446533203125,4.103372893265515,3.734849179211163,48.39861947711307,-3.258622,-5.41121,1.6296555,35.977276,-30.59292,-1.6995806,-38.92279,-12.200166,-18.82093,59.32644,-20.839838,-4.8418617,-7.9648128,-2.6412942,14.239421,-5.797648,36.17023,-31.013453,-31.705101,-16.233364,-1.4419198,-4.0684943,-3.5755155,-24.351952,39.979378,-20.731705,-0.94754195,-4.972704,-4.3262973
182,46.60182189941406,85.46563720703125,73.46980285644531,3.985418934329182,3.86614733923269,48.24208176956232,-1.7248338,-5.300225,1.5126808,34.312256,-29.16923,-1.8580705,-38.173157,-11.380121,-19.98724,54.389915,-19.056192,-4.0560536,-8.591427,-2.6529636,14.009949,-5.3575673,36.686558,-30.843557,-32.57915,-16.47119,-1.3828533,-4.098325,-2.0816567,-24.673836,39.300755,-21.712004,-0.7125417,-4.9100065,-4.273312
183,47.34469223022461,86.29286193847656,73.79447937011719,3.9363636357390863,3.966732991057619,48.113931233019976,-0.21489863,-5.262725,1.3955793,32.73228,-27.546904,-2.0356603,-37.267544,-10.494211,-20.98835,49.32352,-17.11009,-3.1411982,-9.210335,-2.72092,13.782813,-4.845364,37.16305,-30.657616,-33.45234,-16.66066,-1.3410234,-4.1346784,-0.5337231,-24.943361,38.608112,-22.699114,-0.43990576,-4.8396244,-4.2311897
184,48.099422454833984,87.13148498535156,74.12159729003906,3.9740800242552585,4.027403427972768,48.021167471548985,1.2382405,-5.3164444,1.2692399,31.324413,-25.769234,-2.230873,-36.255276,-9.595466,-21.799679,44.33707,-15.126192,-2.151514,-9.817785,-2.857199,13.543376,-4.27401,37.59443,-30.467157,-34.309677,-16.828493,-1.3292174,-4.189914,1.0870013,-25.161135,37.906128,-23.68192,-0.11977255,-4.7822394,-4.2080107
185,48.869564056396484,87.985107421875,74.43991088867188,4.116562588838417,4.043366164412723,47.97898513331267,2.6639042,-5.4810185,1.1379095,30.047077,-23.800987,-2.4361084,-35.107365,-8.669614,-22.362862,39.340313,-13.030455,-1.0692722,-10.430339,-3.0783105,13.2859955,-3.6307695,37.97493,-30.26963,-35.14478,-16.967157,-1.3605497,-4.27641,2.7999923,-25.327997,37.188473,-24.662441,0.26102573,-4.750754,-4.225719
186,49.665504455566406,88.85350036621094,74.74295043945312,4.362135628609642,4.014402565416652,47.98488674752265,4.0800047,-5.757908,0.9914957,28.859228,-21.62555,-2.6560307,-33.78843,-7.743555,-22.680544,34.239136,-10.794458,0.102081634,-11.048776,-3.3846424,13.017804,-2.9222732,38.301895,-30.067652,-35.958275,-17.066236,-1.4242299,-4.3860135,4.593152,-25.443428,36.454754,-25.648258,0.6929256,-4.7319665,-4.2739477
187,50.47750473022461,89.7432861328125,75.02362823486328,4.700216180002117,3.9391809027150027,48.01812272708689,5.435782,-6.13927,0.8003247,27.849333,-19.312862,-2.9097602,-32.343327,-6.9231367,-22.847567,29.254873,-8.61265,1.2885191,-11.645244,-3.7653348,12.742478,-2.193599,38.575928,-29.881786,-36.74131,-17.148928,-1.4971603,-4.499885,6.435997,-25.50719,35.716625,-26.639404,1.1537553,-4.7068744,-4.3120503
188,51.30246353149414,90.6353759765625,75.28343963623047,5.117287450958584,3.8187151339884986,48.05551535770258,6.677086,-6.6138697,0.5373223,27.108418,-16.932783,-3.2190704,-30.840006,-6.293231,-22.983461,24.646305,-6.6820016,2.4300969,-12.18847,-4.2073503,12.463026,-1.4908304,38.7992,-29.734035,-37.483803,-17.238934,-1.556237,-4.5986032,8.298734,-25.519577,34.985115,-27.631128,1.6209294,-4.6556935,-4.2990828
189,52.137351989746094,91.5327377319336,75.51838684082031,5.643565777765554,3.6455468374443845,48.10023425174974,7.846643,-7.2225556,0.20275989,26.571892,-14.4140415,-3.5972693,-29.252268,-5.8547797,-23.147842,20.38189,-4.9552693,3.6990519,-12.678086,-4.742966,12.166128,-0.81238663,38.97356,-29.640072,-38.187134,-17.353975,-1.5919338,-4.673906,10.224414,-25.481718,34.24857,-28.644829,2.1395533,-4.5664062,-4.224764
190,52.98676300048828,92.437744140625,75.7228775024414,6.2881983782237825,3.419387206205904,48.1630221378353,8.968499,-7.977691,-0.20376015,26.19288,-11.733718,-4.0436387,-27.579027,-5.5841484,-23.288656,16.401968,-3.3820057,5.0747004,-13.128865,-5.382485,11.851894,-0.1430459,39.09928,-29.592632,-38.854088,-17.476643,-1.6174359,-4.7367687,12.218475,-25.394594,33.50252,-29.684124,2.7037747,-4.4506745,-4.111189
191,53.8315544128418,93.33985900878906,75.90380096435547,6.972482373499041,3.1675996856836632,48.21696279987447,9.925389,-8.790406,-0.6876051,26.135292,-9.059178,-4.565877,-25.940899,-5.4669013,-23.395836,12.917845,-2.12728,6.217806,-13.517682,-6.046185,11.539002,0.49013087,39.175884,-29.576496,-39.47861,-17.58094,-1.643928,-4.7965283,14.1848755,-25.258585,32.77379,-30.706097,3.2123873,-4.324256,-3.965421
192,54.670692443847656,94.23249816894531,76.06619262695312,7.584949704501091,2.9305900428835083,48.223111255098246,10.571593,-9.538811,-1.2304714,26.600355,-6.580829,-5.177288,-24.47257,-5.444409,-23.470457,10.149271,-1.3397181,6.789687,-13.813461,-6.6194897,11.245336,1.0674971,39.19872,-29.568123,-40.056286,-17.639732,-1.6828415,-4.863623,16.014519,-25.078417,32.098713,-31.660042,3.5661678,-4.2041216,-3.7951064
193,55.5074577331543,95.1153793334961,76.21581268310547,8.069848495726411,2.739892431271078,48.16559161857854,10.812437,-10.178486,-1.8029376,27.72563,-4.3447123,-5.901392,-23.252348,-5.5049424,-23.609386,8.272945,-1.2063389,6.6431174,-13.983371,-7.039149,10.960276,1.5627477,39.16661,-29.591099,-40.567863,-17.677746,-1.7369672,-4.929812,17.73757,-24.838926,31.458097,-32.52918,3.7018957,-4.1078706,-3.602107
194,56.33977127075195,95.98503875732422,76.35269927978516,8.444104912537556,2.587111328313259,48.050810425491285,10.715068,-10.746219,-2.4009545,29.406513,-2.2774825,-6.7580786,-22.27058,-5.620891,-23.796526,7.254865,-1.6551453,5.991894,-14.04057,-7.3230867,10.677934,1.993154,39.0733,-29.643679,-41.014633,-17.697765,-1.8001306,-4.995463,19.371994,-24.546766,30.855146,-33.323967,3.6848974,-4.023243,-3.383934
195,57.16106414794922,96.84748840332031,76.47065734863281,8.704288336246691,2.45094380915502,47.875307618336166,10.376755,-11.244466,-3.0420732,31.492188,-0.39881384,-7.7546325,-21.601257,-5.7513127,-23.847311,7.1765184,-2.5391083,5.0359015,-13.990955,-7.483065,10.42681,2.3581347,38.915695,-29.713827,-41.398052,-17.64337,-1.8730724,-5.073427,20.799995,-24.205845,30.327265,-34.01568,3.6034877,-3.9218433,-3.1259031
196,57.969642639160156,97.70201110839844,76.55895233154297,8.854912178072496,2.3073969341973988,47.63616034475849,9.901912,-11.683523,-3.7462993,33.82685,1.2725794,-8.896763,-20.969831,-5.7132497,-23.618156,7.3241763,-3.2858424,3.9596663,-13.846746,-7.539814,10.233547,2.6668398,38.692513,-29.778296,-41.723644,-17.459799,-1.9560965,-5.1784444,21.897955,-23.824005,29.91965,-34.56777,3.5452287,-3.7741988,-2.814476
197,58.772300720214844,98.5531234741211,76.61482238769531,8.917167012118984,2.1431049173782672,47.32150901539164,9.289674,-12.143217,-4.583588,36.46379,2.8024533,-10.21739,-20.5468,-5.6098375,-22.966774,8.168408,-4.086109,2.7537894,-13.590179,-7.5150356,10.097736,2.9236026,38.401447,-29.836782,-41.992752,-17.117018,-2.0492725,-5.3176327,22.67921,-23.408102,29.627378,-34.9804,3.5083568,-3.5490587,-2.425338
198,59.56686019897461,99.3886947631836,76.65156555175781,8.892450350458793,1.961630295248156,46.946753505080125,8.541821,-12.651658,-5.5488563,39.41369,4.17136,-11.749434,-20.245173,-5.4373035,-22.020432,9.535494,-4.9571075,1.3364437,-13.232178,-7.404226,10.012819,3.1224551,38.041874,-29.898485,-42.200096,-16.650091,-2.1525862,-5.48296,23.196669,-22.963955,29.430532,-35.270428,3.4530694,-3.2693243,-1.9717717
199,60.34905242919922,100.19755554199219,76.67049407958984,8.764939261592527,1.764452784451206,46.54766199886195,7.7476068,-13.123628,-6.530382,42.490852,5.2222967,-13.459994,-20.066298,-5.1640205,-20.972334,11.278408,-5.862503,-0.211839,-12.827461,-7.1985264,9.993513,3.2699924,37.61841,-29.949429,-42.353004,-16.098377,-2.26604,-5.666401,23.387415,-22.501343,29.35232,-35.417233,3.4083738,-2.985952,-1.4973869
200,61.1248664855957,101.02559661865234,76.63175201416016,8.522819899679368,1.5558122035795925,46.157331018863346,6.9661283,-13.404908,-7.3044105,45.536167,5.809783,-15.000033,-20.03766,-4.77877,-20.00774,13.315264,-6.799584,-1.807965,-12.432894,-6.8923965,10.051768,3.384758,37.140984,-29.964062,-42.469666,-15.502875,-2.3892598,-5.8611794,23.187431,-22.032688,29.418411,-35.40701,3.404342,-2.7492092,-1.0466809
201,61.867523193359375,101.86418151855469,76.53821563720703,8.226521403878776,1.3304808526149787,45.795895361259845,6.215592,-13.32724,-7.344637,48.462734,6.07172,-15.000033,-20.356934,-4.4022098,-19.017878,16.0584,-7.8791494,-3.546444,-12.072101,-6.530891,10.167819,3.4640925,36.618813,-29.932243,-42.5715,-14.840981,-2.5267904,-6.0611897,22.578444,-21.563135,29.630589,-35.26705,3.4327853,-2.5565581,-0.5970493
202,62.57600021362305,102.67219543457031,76.40840148925781,8.008290884239367,1.0733944270229077,45.46000564221626,5.4863324,-13.165658,-7.1220264,51.30064,6.1066837,-15.000033,-21.00815,-4.1689157,-17.889381,19.561333,-9.136343,-5.409194,-11.738669,-6.254641,10.324867,3.5233073,36.05764,-29.851624,-42.669796,-14.104207,-2.6781673,-6.270572,21.612143,-21.095785,29.967255,-35.01952,3.4848049,-2.3859496,-0.13822655
203,63.26480484008789,103.43901062011719,76.23223114013672,7.7429124677478125,0.7950098396774268,45.12603753470174,4.661571,-12.761143,-6.712766,54.230316,5.666335,-15.000033,-21.563417,-3.8479,-16.899366,22.912773,-10.316859,-7.17197,-11.420204,-5.9482756,10.571915,3.6125927,35.463642,-29.70375,-42.765755,-13.353933,-2.8362813,-6.497876,20.324602,-20.63829,30.422255,-34.630474,3.5938947,-2.259561,0.26296425
204,63.9504508972168,104.17115783691406,76.00798797607422,7.358087042624346,0.5231269815688295,44.75250388675995,3.650548,-11.984634,-6.151165,57.312183,4.5779157,-15.000033,-21.80822,-3.3666332,-16.25366,25.632036,-11.385533,-8.595471,-11.093923,-5.53819,10.932384,3.7823865,34.839348,-29.467705,-42.862934,-12.651442,-2.9951568,-6.7504525,18.743563,-20.201994,30.991873,-34.06676,3.7966604,-2.2000332,0.5391071
205,64.6267318725586,104.86852264404297,75.75062561035156,6.748831160343191,0.24289610833909275,44.31859505665542,2.4499838,-10.644566,-5.432452,60.673134,2.505502,-15.000033,-21.72334,-2.6788394,-16.109402,27.747387,-12.386972,-9.607542,-10.761002,-4.916795,11.476879,4.037617,34.185555,-29.10063,-43.003048,-11.965109,-3.1764107,-7.0469894,16.819105,-19.790989,31.687151,-33.34398,4.1859584,-2.2442462,0.6600649
206,65.2896728515625,105.55001831054688,75.47158813476562,5.921633030796717,-0.04133200167842684,43.83296597454183,1.1094793,-8.778864,-4.6390185,64.24629,-0.36786422,-15.000033,-21.45417,-1.8190069,-16.31328,29.56373,-13.385565,-10.362815,-10.429651,-4.0791016,12.173917,4.363179,33.50329,-28.610554,-43.190372,-11.27993,-3.3777578,-7.3773136,14.563325,-19.401356,32.497494,-32.50054,4.7210884,-2.373026,0.66165173
207,65.94852447509766,106.21617126464844,75.19957733154297,4.975972726471233,-0.2754940571369243,43.29122147019064,-0.37739205,-6.6243553,-3.938845,67.785614,-3.431288,-15.000033,-21.064264,-0.8308308,-16.606352,31.065153,-14.387879,-10.9465885,-10.075133,-3.1124206,12.893061,4.769179,32.79137,-28.062027,-43.360073,-10.682683,-3.5557187,-7.705657,12.09984,-19.031252,33.389317,-31.524597,5.2392936,-2.5253165,0.5753287
208,66.61424255371094,106.86791229248047,74.9412841796875,4.019784846030595,-0.4055234968660305,42.69468446914421,-2.0432355,-4.4610505,-3.4806445,71.061066,-6.0746365,-15.000033,-20.609558,0.2690249,-16.75243,32.18053,-15.363903,-11.427489,-9.666924,-2.117303,13.501269,5.2606993,32.04564,-27.530117,-43.44134,-10.258583,-3.6652317,-7.9966145,9.555933,-18.681873,34.33258,-30.40675,5.577192,-2.6383061,0.43184832
209,67.290771484375,107.51859283447266,74.69945526123047,3.0062750623509618,-0.39625138848963876,41.99897490759499,-3.9856703,-2.2692728,-3.3068867,74.14933,-8.17252,-15.000033,-20.08809,1.6239022,-16.730011,32.760654,-16.280985,-11.77304,-9.163053,-1.0587635,13.97625,5.8819003,31.249151,-27.011295,-43.408096,-10.150099,-3.7014728,-8.304092,6.879615,-18.356596,35.36229,-29.083302,5.7817883,-2.683895,0.19452587
210,67.97004699707031,108.16996002197266,74.4730453491211,1.935128592096774,-0.2885409556907021,41.215652745718245,-6.170481,0.014802273,-3.3583999,77.10562,-10.027473,-15.000033,-19.512905,3.181312,-16.639994,32.92124,-17.161644,-11.945706,-8.583858,0.06580691,14.376636,6.5990567,30.3932,-26.484604,-43.288128,-10.268536,-3.682815,-8.629407,4.0495067,-18.046215,36.47506,-27.613394,5.915559,-2.70088,-0.143367
211,68.63140106201172,108.83856201171875,74.2697982788086,1.18381025026805,-0.1265618415809586,40.47933639269561,-8.488292,2.1908557,-3.1110787,79.62054,-11.58971,-13.8351145,-19.100533,4.347666,-16.382133,33.296467,-18.214546,-11.948374,-8.02327,0.91533667,14.655833,7.2974873,29.494825,-26.008467,-43.084164,-10.354178,-3.6003172,-8.855483,1.2326814,-17.72886,37.58715,-26.15022,5.8360476,-2.7231243,-0.5030562
212,69.29319763183594,109.50239562988281,74.10347747802734,0.5903763384981554,0.03478386312954537,39.82687879248845,-10.787957,4.2325115,-2.820498,81.618904,-13.060234,-11.937015,-18.66489,5.2879753,-16.07908,33.653126,-19.220789,-11.9236145,-7.473145,1.6635932,14.86637,7.871201,28.588568,-25.649284,-42.80856,-10.148056,-3.4471548,-8.85817,-1.4129485,-17.38444,38.61088,-24.819302,5.3954706,-2.779812,-0.79723054
213,69.9737319946289,110.16226959228516,73.98383331298828,0.1680530638790401,0.2259113381458239,39.296916338113284,-13.125265,5.8972154,-2.8040478,83.09301,-14.474046,-10.256728,-18.22201,5.970705,-15.764236,33.991882,-20.16971,-11.895359,-6.953558,2.2863488,14.9767475,8.323938,27.700214,-25.428709,-42.453278,-9.478021,-3.1465225,-8.558067,-3.901754,-17.001501,39.556152,-23.560633,4.3406014,-2.884214,-1.0220574
214,70.66696166992188,110.82754516601562,73.9021987915039,-0.12520617976715998,0.46310980722834055,38.84150707204979,-15.557344,7.270485,-2.9781377,84.134254,-15.780241,-8.662089,-17.762224,6.485745,-15.427062,34.233578,-21.07452,-11.823138,-6.432051,2.8049424,14.998845,8.722497,26.838161,-25.313807,-42.03763,-8.523213,-2.7219942,-8.032778,-6.3114047,-16.577398,40.458115,-22.31137,2.8156598,-3.0129693,-1.2126994
215,71.36741638183594,111.49339294433594,73.85186767578125,-0.3008029351583161,0.6767647551041628,38.40809924737616,-17.916115,8.396487,-3.2149506,84.70578,-16.93025,-7.2401843,-17.220613,6.865462,-15.022602,34.393135,-21.93697,-11.704291,-5.872406,3.217584,15.001165,9.063052,26.01508,-25.280106,-41.61943,-7.5530014,-2.3211017,-7.389677,-8.597114,-16.118654,41.281647,-21.16416,1.2698393,-3.1443408,-1.3370043
216,72.06676483154297,112.16852569580078,73.82750701904297,-0.3702465372188738,0.7967811649413984,37.9447211555886,-20.026375,9.337956,-3.3865905,84.775406,-17.8778,-6.0785522,-16.534971,7.139364,-14.505414,34.49184,-22.762407,-11.535007,-5.2381144,3.5267158,15.052387,9.338582,25.24599,-25.30495,-41.252728,-6.8323774,-2.100334,-6.7248673,-10.707378,-15.641022,41.99156,-20.219147,0.15319291,-3.262035,-1.3597251
217,72.76112365722656,112.8448715209961,73.8369140625,-0.3083790731942599,0.769507003196165,37.45247756894847,-21.812363,10.081006,-3.4404001,84.29803,-18.5955,-5.2710295,-15.661055,7.276972,-13.852792,34.568478,-23.569696,-11.291512,-4.5169187,3.7131941,15.21234,9.524197,24.54746,-25.414888,-40.957436,-6.227496,-2.0971825,-6.0144067,-12.633591,-15.159526,42.570854,-19.531378,-0.3067697,-3.374107,-1.2570217
218,73.46192169189453,113.53336334228516,73.8768310546875,-0.11531011206562013,0.6462625160272123,36.955124019646874,-23.358246,10.612653,-3.4073339,83.30291,-19.10545,-4.753091,-14.643173,7.263211,-13.097869,34.606747,-24.355444,-10.980862,-3.7297053,3.7840645,15.437517,9.647936,23.926153,-25.605776,-40.720665,-5.666341,-2.2313023,-5.212309,-14.399071,-14.685172,43.05309,-19.044235,-0.3833385,-3.4888952,-1.0500891
219,74.17933654785156,114.23287200927734,73.9498062133789,0.1604051776668702,0.514846086261269,36.4332433161361,-24.727226,11.009001,-3.2895315,81.86661,-19.432837,-4.367324,-13.542896,7.155456,-12.271194,34.523937,-25.077887,-10.648156,-2.8948796,3.7807899,15.64118,9.783247,23.377161,-25.803593,-40.555584,-5.50138,-2.4964843,-4.380894,-16.00135,-14.229481,43.483166,-18.69477,-0.3767147,-3.5916274,-0.7729605
220,74.90959930419922,114.94607543945312,74.0493392944336,0.4679317380471848,0.46228339580345684,35.86865532503307,-25.985102,11.342484,-3.1001754,80.06632,-19.609852,-3.9577947,-12.423744,7.012654,-11.402338,34.243656,-25.698164,-10.338487,-2.0342195,3.7407086,15.73546,10.003217,22.889065,-25.932444,-40.475082,-6.083645,-2.8967392,-3.5906324,-17.436375,-13.802799,43.90574,-18.428326,-0.5871356,-3.6692078,-0.4623668
221,75.66265106201172,115.67719268798828,74.18404388427734,0.8008772511782776,0.4979556562213161,35.22927980479713,-27.12058,11.641291,-2.7965572,77.88422,-19.620127,-3.4994435,-11.287295,6.851152,-10.467726,33.73826,-26.205515,-10.060503,-1.1299295,3.6630337,15.7132435,10.3197775,22.455217,-25.996685,-40.48944,-7.745779,-3.5492895,-2.8013017,-18.712706,-13.415661,44.334286,-18.270113,-1.1142025,-3.7228947,-0.10048399
222,76.4330062866211,116.42345428466797,74.33551025390625,1.1830693106147234,0.5824075098229574,34.5349651149726,-28.09471,11.866493,-2.3758564,75.29112,-19.459131,-3.0741234,-10.110158,6.6323023,-9.463409,33.05703,-26.623695,-9.79039,-0.18118387,3.5279713,15.617881,10.692813,22.073988,-26.029297,-40.584538,-10.215557,-4.4402094,-2.028547,-19.826792,-13.074785,44.752987,-18.244183,-1.790218,-3.7607527,0.32066053
223,77.223388671875,117.17732238769531,74.50298309326172,1.6068552595191268,0.7293777189024261,33.8464740413569,-28.935347,11.987767,-1.9186974,72.33906,-19.183115,-2.685502,-8.918911,6.3376617,-8.446866,32.2395,-26.96687,-9.523276,0.76356,3.339414,15.435527,11.115892,21.739407,-25.995556,-40.73111,-12.943543,-5.3623385,-1.4166846,-20.761183,-12.782178,45.161743,-18.28732,-2.5145814,-3.780417,0.7504439
224,78.04239654541016,117.95358276367188,74.68865203857422,2.0655497881701836,0.9510381130755375,33.2244627230273,-29.67205,11.971768,-1.5067222,69.07262,-18.843935,-2.3361337,-7.7394423,5.9509015,-7.4752564,31.323221,-27.247707,-9.25419,1.6503977,3.0986316,15.152033,11.589534,21.444052,-25.853518,-40.90077,-15.387596,-6.084418,-1.076243,-21.504852,-12.535408,45.564667,-18.327251,-3.1870024,-3.7765958,1.1381189
225,78.88388061523438,118.73136901855469,74.87682342529297,2.5715569719140303,1.278019976184571,32.68090469629158,-30.342136,11.8232765,-1.1122597,65.46162,-18.461353,-1.964694,-6.590442,5.455832,-6.5491724,30.275661,-27.466524,-8.993032,2.4720647,2.7869756,14.732121,12.13091,21.181326,-25.570719,-41.101044,-17.60129,-6.5235257,-1.0670682,-22.046995,-12.335173,45.96959,-18.339594,-3.8661528,-3.7371182,1.4838195
226,79.75786590576172,119.521240234375,75.06780242919922,3.120765772363701,1.6943540370716033,32.1870817318837,-30.905443,11.550305,-0.70364803,61.476994,-18.001513,-1.5965977,-5.4600945,4.869096,-5.6472483,29.092014,-27.61726,-8.735847,3.2479856,2.4050272,14.195401,12.738785,20.94879,-25.173027,-41.34211,-19.815895,-6.7830935,-1.3057085,-22.401598,-12.183171,46.37639,-18.356575,-4.57796,-3.6675818,1.810676
227,80.65211486816406,120.32839965820312,75.2526626586914,3.6805221875584704,2.1403884403346045,31.742206518250615,-31.283224,11.134782,-0.3695231,57.15406,-17.427742,-1.3533152,-4.325509,4.226502,-4.793639,27.850359,-27.7029,-8.457259,3.9661565,1.9858291,13.608388,13.385014,20.746885,-24.706192,-41.60067,-21.754938,-6.9094725,-1.6590996,-22.594559,-12.07543,46.777332,-18.388033,-5.1774735,-3.5855963,2.102714
228,81.5618896484375,121.15203094482422,75.42730712890625,4.217246684890786,2.5555212486644217,31.342680707805627,-31.404055,10.578035,-0.21433586,52.521275,-16.700026,-1.3421702,-3.161599,3.566209,-4.0108724,26.630972,-27.726187,-8.134386,4.6178794,1.5681443,13.035249,14.03887,20.577538,-24.216736,-41.851376,-23.139063,-6.963025,-1.9965925,-22.653357,-12.003427,47.16278,-18.44043,-5.5197616,-3.5073164,2.343404
229,82.49905395507812,121.9802017211914,75.59259796142578,4.757467277023946,2.948747723933279,31.005757317408705,-31.229593,9.850156,-0.26126245,47.400974,-15.778243,-1.4798354,-1.9175541,2.856481,-3.3016648,25.316128,-27.670837,-7.743136,5.1953325,1.1214693,12.459536,14.715012,20.441692,-23.675392,-42.09833,-23.875395,-6.9204836,-2.3439317,-22.558344,-11.9605,47.526302,-18.505491,-5.587464,-3.4337132,2.5292163
230,83.45289611816406,122.80574798583984,75.73320770263672,5.299405196078242,3.3388067504576857,30.72340467880173,-30.780437,9.010807,-0.48983905,41.781006,-14.669064,-1.7162583,-0.616218,2.1041188,-2.6550372,23.905672,-27.536314,-7.3030334,5.704202,0.64790434,11.858805,15.427288,20.338821,-23.068373,-42.353092,-24.117388,-6.769105,-2.742931,-22.31202,-11.945141,47.87421,-18.571222,-5.4537315,-3.3544192,2.6691618
231,84.43002319335938,123.63691711425781,75.84144592285156,5.764352937280995,3.67786232277024,30.448651129437835,-30.07894,8.206882,-0.94608486,35.935646,-13.388654,-2.2032263,0.679294,1.4101583,-2.0632114,22.627522,-27.34703,-6.8622913,6.165085,0.24400228,11.286829,16.135998,20.268791,-22.468897,-42.598354,-23.954725,-6.5946145,-3.0928197,-21.972786,-11.954905,48.209473,-18.641651,-5.1038556,-3.2684216,2.7641308
232,85.41435241699219,124.47760009765625,75.91272735595703,6.0692946724908285,3.916734098072299,30.12966162382334,-29.146708,7.5812354,-1.6669863,30.13521,-11.949939,-3.103662,1.9176251,0.8799226,-1.5093622,21.699394,-27.12335,-6.4732294,6.610305,0.011309153,10.794398,16.791447,20.232351,-21.959522,-42.80369,-23.47604,-6.4812274,-3.2911417,-21.600039,-11.987853,48.530624,-18.713583,-4.522407,-3.1747558,2.817635
233,86.39933776855469,125.33344268798828,75.94207763671875,6.136685142080059,4.027108382672845,29.746209757373684,-27.834526,7.230239,-2.7473884,24.059454,-10.175946,-4.706454,3.2190897,0.60582244,-0.9837071,20.969116,-26.810606,-6.1354337,7.0606074,0.04332085,10.376276,17.41393,20.230396,-21.540047,-42.974743,-22.531551,-6.435873,-3.2909212,-21.17211,-12.0481415,48.855667,-18.79605,-3.5889401,-3.0614753,2.8051932
234,87.38990783691406,126.19611358642578,75.9249267578125,5.949145882591393,4.004797922200295,29.2799963377547,-26.052708,7.2244625,-4.1617794,17.48579,-8.037678,-6.8423886,4.6575193,0.61003184,-0.45076203,20.295248,-26.369135,-5.846866,7.5455794,0.35499346,10.028666,18.017315,20.264645,-21.185879,-43.122337,-21.129543,-6.417282,-3.1492984,-20.668562,-12.138265,49.16954,-18.883816,-2.3493826,-2.93242,2.7359934
235,88.37445068359375,127.05049133300781,75.86127471923828,5.537162580023084,3.8478272600544,28.69537585088553,-23.96238,7.618641,-5.723746,10.902365,-5.7911525,-9.005195,6.0848413,0.86533046,0.13856122,19.93748,-25.854158,-5.651181,8.068685,0.90807104,9.801979,18.578037,20.327078,-20.898584,-43.2576,-19.602518,-6.4296184,-2.932016,-20.15685,-12.259533,49.461376,-18.96993,-1.0372527,-2.8096054,2.6539917
236,89.34601593017578,127.89076232910156,75.76832580566406,5.083573019730048,3.6166518232669675,28.038831290957578,-22.815945,8.089811,-7.331603,6.953848,-4.789138,-10.6575575,7.205808,1.1626923,0.7604101,20.318146,-25.40976,-5.556167,8.573471,1.5043414,9.696453,19.018608,20.394938,-20.697899,-43.32695,-18.276585,-6.482444,-2.7064385,-19.709444,-12.382859,49.70673,-19.014345,0.10837806,-2.716532,2.6066895
237,90.29660034179688,128.7056884765625,75.66960144042969,4.7731956993264,3.379857554769828,27.390817918744304,-23.21223,8.244115,-9.052753,6.7500196,-5.5925827,-11.587891,7.8164783,1.2962586,1.3364774,21.719368,-25.189928,-5.5217395,8.979413,1.9387,9.697455,19.321774,20.490128,-20.560162,-43.34297,-17.167732,-6.607938,-2.4532094,-19.33077,-12.545115,49.921917,-19.081842,1.1140646,-2.6613958,2.6011403
238,91.221435546875,129.4971160888672,75.56926727294922,4.594808204250554,3.142034834497752,26.7720073506827,-23.45928,8.267363,-10.734543,6.6201363,-6.2630396,-12.109678,8.011979,1.2817408,1.8393517,23.953753,-25.132334,-5.529508,9.296551,2.2337897,9.762018,19.460917,20.594263,-20.512747,-43.247013,-16.115421,-6.790135,-2.1466796,-19.000847,-12.70386,50.092655,-19.117521,2.0728743,-2.6329231,2.6211357
