unveil-humanoid-operators/unveil-humanoid-operators.github.io/feature-analysis-animation/data/feature_matrix_instances/height_root_translate_rom_jogging_A309_jog_ff_stop_180_R_004__A309.csv
Frame,root_translateX,root_translateY,root_translateZ,root_rotateX,root_rotateY,root_rotateZ,left_hip_pitch_joint_dof,left_hip_roll_joint_dof,left_hip_yaw_joint_dof,left_knee_joint_dof,left_ankle_pitch_joint_dof,left_ankle_roll_joint_dof,right_hip_pitch_joint_dof,right_hip_roll_joint_dof,right_hip_yaw_joint_dof,right_knee_joint_dof,right_ankle_pitch_joint_dof,right_ankle_roll_joint_dof,waist_yaw_joint_dof,waist_roll_joint_dof,waist_pitch_joint_dof,left_shoulder_pitch_joint_dof,left_shoulder_roll_joint_dof,left_shoulder_yaw_joint_dof,left_elbow_joint_dof,left_wrist_roll_joint_dof,left_wrist_pitch_joint_dof,left_wrist_yaw_joint_dof,right_shoulder_pitch_joint_dof,right_shoulder_roll_joint_dof,right_shoulder_yaw_joint_dof,right_elbow_joint_dof,right_wrist_roll_joint_dof,right_wrist_pitch_joint_dof,right_wrist_yaw_joint_dof
0,0.21235188841819763,1.962494134902954,76.5595932006836,-1.4689159416588744,4.136450353157437,-92.84674281294517,-33.20835,9.363778,11.350172,48.188904,-16.658806,0.8961359,11.758201,1.5245827,-4.474007,24.194883,-15.401879,2.1116142,8.598957,4.058811,5.421887,46.244656,29.731415,-14.3168125,-39.88344,3.9179556,13.022136,4.09782,1.8037215,-31.036972,29.010172,-17.113338,-4.5301347,5.3210754,-13.649816
1,0.30995866656303406,0.4305053949356079,76.85842895507812,-1.4138093371538394,4.28443996286836,-92.74855500930592,-31.938332,8.110032,11.391474,41.938023,-15.234566,-0.5930048,12.247998,1.2980559,-4.4007435,24.835018,-13.461745,1.9812391,9.11625,3.8012,4.9058537,46.392727,29.70224,-14.200863,-39.881493,4.6465125,12.6854515,4.16232,2.2565029,-31.3474,29.670593,-17.159153,-5.0954967,4.7052097,-12.959381
2,0.3965097963809967,-1.108757495880127,77.11000061035156,-1.3995705528391613,4.419127463674175,-92.66259788779061,-30.51266,6.948632,11.368013,35.256397,-13.692372,-2.044686,12.834471,1.1210004,-4.308631,25.305569,-11.427658,1.8115894,9.633743,3.62482,4.411135,46.545982,29.600187,-14.085552,-39.88743,5.3954887,12.342835,4.2057543,2.7916632,-31.83211,30.322443,-17.348595,-5.6726093,4.067343,-12.280521
3,0.4598119854927063,-2.6438279151916504,77.30889892578125,-1.4362108008779564,4.516808705569019,-92.62647095279343,-28.976578,5.9579186,11.217546,28.666777,-12.154003,-3.338605,13.363072,0.9992211,-4.189743,25.9302,-9.463938,1.709653,10.155435,3.5285707,3.9830382,46.638054,29.446173,-13.993705,-39.855335,6.1563706,12.002055,4.241583,3.4384468,-32.437958,30.937292,-17.705517,-6.0676217,3.4698963,-11.668876
4,0.5049546957015991,-4.169657230377197,77.45425415039062,-1.5209219216319738,4.562350303115946,-92.67104485463166,-27.438913,5.188604,10.902036,22.822681,-10.791876,-4.377001,13.671256,0.92543095,-4.037587,27.033232,-7.7378483,1.7767725,10.660593,3.4971447,3.6629138,46.632885,29.256058,-13.922483,-39.758434,6.915042,11.670129,4.2799745,4.191783,-33.11584,31.51865,-18.232271,-6.077776,2.9810405,-11.185601
5,0.5450975894927979,-5.6682233810424805,77.54419708251953,-1.689060306327562,4.567232634865079,-92.83721401681828,-25.92843,4.664652,10.400865,17.776022,-9.727953,-5.256961,13.675176,0.943929,-3.7907658,28.748852,-6.316119,2.0350416,11.177895,3.5482578,3.4281018,46.537827,29.040648,-13.857939,-39.590168,7.723763,11.33288,4.311413,5.010743,-33.83366,32.11432,-18.902708,-5.5834694,2.6598713,-10.869361
6,0.5904391407966614,-7.147762298583984,77.57918548583984,-1.9406120080362594,4.536690891898561,-93.08972717091288,-24.437202,4.352497,9.766287,13.307443,-8.878733,-6.020693,13.457391,1.0419716,-3.4797952,30.921528,-5.121355,2.4047747,11.699357,3.6817048,3.252742,46.38755,28.805727,-13.79422,-39.37594,8.565838,10.99301,4.3403883,5.8665476,-34.573914,32.721462,-19.661047,-4.7353473,2.460237,-10.668637
7,0.6386529207229614,-8.601577758789062,77.56877899169922,-2.1318712169612524,4.481200559225531,-93.30734131887436,-23.106178,4.0766706,9.093142,9.774919,-8.143682,-6.503957,13.043793,1.0287426,-3.2680664,33.51323,-4.142589,2.853079,12.111436,3.7678044,3.1619616,46.163815,28.555407,-13.74246,-39.116005,9.322341,10.682054,4.395813,6.7772374,-35.310528,33.27049,-20.48086,-3.7322927,2.2923129,-10.512849
8,0.6930405497550964,-10.015501976013184,77.5333023071289,-2.0861641877916473,4.421539562190364,-93.36434217265898,-22.140589,3.611534,8.468809,7.6576514,-7.4821057,-6.548864,12.470354,0.6849175,-3.311997,36.455788,-3.3589482,3.3679073,12.297225,3.6413777,3.1816173,45.838573,28.295515,-13.715599,-38.799053,9.873546,10.431879,4.5052724,7.761743,-36.01119,33.69151,-21.33259,-2.7733943,2.0661108,-10.329319
9,0.7533112168312073,-11.401052474975586,77.47091674804688,-1.6699202244033227,4.388517184004396,-93.21601649866014,-21.942265,2.8350277,7.925799,7.9162946,-7.116599,-6.010594,11.701227,-0.13114393,-3.6626375,39.825504,-2.6691656,4.0977764,12.20721,3.1606708,3.3116314,45.39363,28.029524,-13.712374,-38.40465,10.184886,10.2511635,4.690716,8.800705,-36.642925,33.98559,-22.19881,-1.8257997,1.7466781,-10.101229
10,0.8020575046539307,-12.786738395690918,77.36604309082031,-0.9582633594302029,4.367482602854764,-92.92271987091394,-22.302542,1.8093588,7.460224,10.037895,-7.0042553,-5.0125556,10.746027,-1.3404855,-4.2047963,43.629124,-2.123064,5.006511,11.898797,2.3895154,3.5334604,44.85495,27.761236,-13.720846,-37.945168,10.319944,10.123293,4.9324565,9.861942,-37.187256,34.205112,-23.054403,-0.82213837,1.3857144,-9.859665
11,0.8276025056838989,-14.160318374633789,77.19648742675781,-0.1137402436518662,4.3038323337914655,-92.53114228403672,-22.7807,0.6605914,7.0586867,12.88827,-7.0059385,-3.8044689,9.737108,-2.792611,-4.841829,47.658707,-1.9064169,5.8182096,11.43048,1.497656,3.8480904,44.255123,27.49851,-13.739201,-37.454487,10.302431,10.042119,5.19552,10.932454,-37.638126,34.354435,-23.848375,0.10834395,1.0233688,-9.6065445
12,0.8291370272636414,-15.550498962402344,76.94379425048828,0.7095871402012761,4.1554376470778385,-92.08004479156759,-23.14422,-0.4976396,6.664647,15.741603,-7.1910663,-2.6586218,8.786365,-4.33909,-5.512677,51.722435,-2.2133162,6.265318,10.858652,0.6451884,4.252872,43.619427,27.252884,-13.773749,-36.966377,10.15696,10.001073,5.4471564,12.016253,-37.999874,34.423542,-24.546783,0.83878064,0.69789034,-9.347818
13,0.8265081644058228,-16.919414520263672,76.61925506591797,1.4980406403192046,3.8942697457964073,-91.54694604399269,-23.454771,-1.6991357,6.2049327,18.755688,-7.5315776,-1.5794591,7.9644656,-5.982621,-6.29463,55.854397,-3.2625673,6.266646,10.164765,-0.16002092,4.771141,42.96582,27.03116,-13.821291,-36.489998,9.848083,10.00365,5.681795,13.140974,-38.274307,34.39113,-25.18903,1.3522749,0.3908724,-9.078463
14,0.8528867959976196,-18.26716423034668,76.26583862304688,2.285051504433354,3.534166797290513,-90.93935283781606,-23.790045,-2.9634514,5.7261863,22.196533,-7.9931593,-0.47123164,7.242815,-7.7301073,-7.1795316,60.108578,-4.8868375,5.9787993,9.351669,-0.96213317,5.391348,42.274055,26.83577,-13.884879,-36.009842,9.369986,10.050476,5.91918,14.313036,-38.45922,34.262444,-25.789352,1.7103984,0.08961293,-8.799682
15,0.9048599004745483,-19.6048641204834,75.87471771240234,3.0533928497021074,3.125586881364651,-90.31385785548153,-24.039074,-4.2405386,5.3277225,25.650686,-8.706704,0.55080026,6.5270867,-9.507931,-8.007891,64.36819,-6.7269588,5.508054,8.48554,-1.7489696,6.052433,41.518703,26.670052,-13.985572,-35.53016,8.801276,10.13216,6.166086,15.501428,-38.555977,34.063164,-26.278536,1.9067876,-0.16065346,-8.531056
16,0.9676494598388672,-20.939537048339844,75.44300079345703,3.817176194949989,2.7289769172343683,-89.71476192900685,-24.119003,-5.483062,5.0925546,28.761734,-9.8485775,1.4009527,5.692391,-11.287112,-8.626238,68.53069,-8.426306,4.9618897,7.6213365,-2.5355995,6.692029,40.66236,26.536945,-14.141973,-35.0433,8.215774,10.239357,6.429469,16.685068,-38.565853,33.819782,-26.59372,1.9281068,-0.31510508,-8.293386
17,1.01249098777771,-22.270294189453125,74.9675064086914,4.630877880354692,2.340939346304015,-89.09714615000757,-24.072386,-6.721354,5.0508304,31.643728,-11.715561,2.067766,4.723223,-13.144848,-9.027689,72.66625,-9.956701,4.3149962,6.7296576,-3.3761609,7.3199115,39.699635,26.441063,-14.360682,-34.532547,7.5021343,10.358937,6.740606,17.906317,-38.486492,33.519093,-26.768524,1.6689043,-0.37322742,-8.066106
18,1.0477629899978638,-23.593170166015625,74.47093963623047,5.494404230191015,1.9434172330299861,-88.44709016273956,-23.957422,-7.9684525,5.1258526,34.490055,-14.177985,2.6072483,3.6643403,-15.074146,-9.27842,76.807205,-11.48592,3.5488443,5.79446,-4.277534,7.949225,38.63694,26.381685,-14.636702,-33.99902,6.6595426,10.497158,7.0907297,19.155659,-38.313435,33.155083,-26.817507,1.1731205,-0.35788107,-7.8484855
19,1.0947109460830688,-24.90580940246582,73.98857116699219,6.348561855898419,1.5789473157968292,-87.85059130834217,-23.7308,-9.14847,5.242982,37.09443,-16.789585,3.0443203,2.4536033,-16.947044,-9.335596,80.79936,-12.95182,2.7738173,4.8800693,-5.1814647,8.528001,37.460133,26.347778,-14.965318,-33.464294,5.9295263,10.676566,7.423701,20.344164,-38.042397,32.770966,-26.662546,0.6439548,-0.25730887,-7.6905084
20,1.1501314640045166,-26.200441360473633,73.53533935546875,7.1321979439029,1.292167951087757,-87.39253721547672,-23.343763,-10.203501,5.345455,39.22215,-19.086245,3.4050345,1.0123113,-18.646694,-9.15928,84.49536,-14.296672,2.085233,4.042095,-6.0204115,9.01105,36.17152,26.320726,-15.335222,-32.96318,5.5613046,10.923866,7.67878,21.370161,-37.670773,32.417118,-26.210806,0.28594136,-0.05697154,-7.6411514
21,1.2068850994110107,-27.495973587036133,73.11627197265625,7.85869135758899,1.1303625127878034,-87.10622918865639,-22.797394,-11.148856,5.4748106,40.76143,-20.966345,3.6784425,-0.7689418,-20.221832,-8.689214,87.934235,-15.507163,1.4835947,3.2926395,-6.7953954,9.373771,34.742413,26.280525,-15.750349,-32.467163,5.6578135,11.299842,7.855304,22.20759,-37.18735,32.0849,-25.339157,0.1941982,0.21864697,-7.5471478
22,1.251891016960144,-28.806007385253906,72.74877166748047,8.555709079753528,1.0639657579658628,-86.93884300033336,-22.120085,-12.019364,5.6558213,41.850468,-22.665808,3.856964,-2.8600981,-21.707615,-7.9466558,91.18144,-16.608898,0.9193824,2.590451,-7.531876,9.646142,33.188213,26.219238,-16.203627,-31.97088,6.083058,11.775703,7.9709635,22.892662,-36.58858,31.767311,-24.109016,0.24244407,0.57306087,-7.4340816
23,1.2702891826629639,-30.07390785217285,72.42454528808594,9.176789583150587,1.0232365312116087,-86.85349516282783,-21.28236,-12.792412,5.814297,42.5979,-24.218609,3.97399,-5.1166472,-22.973488,-7.0366917,94.105354,-17.606344,0.3982049,1.9146215,-8.189706,9.872029,31.57345,26.141562,-16.666363,-31.531467,6.726494,12.243705,7.990181,23.425203,-35.893837,31.51397,-22.712626,0.30811942,1.0636164,-7.6227612
24,1.2828094959259033,-31.346282958984375,72.16683197021484,9.67445555411493,0.9373406324887004,-86.81557329454648,-20.250435,-13.434089,5.8715196,43.1155,-25.661438,4.061009,-7.384466,-23.889896,-6.0792055,96.572945,-18.492065,-0.06348036,1.2446542,-8.730039,10.0987,29.9506,26.06111,-17.113749,-31.19662,7.471609,12.593764,7.8806524,23.81028,-35.138462,31.372604,-21.356937,0.28057903,1.7481028,-8.438171
25,1.2955318689346313,-32.63182830810547,71.95893859863281,10.039907866476597,0.7596221248391605,-86.86300281365818,-18.964256,-13.921049,5.8379974,43.42155,-27.018705,4.1145196,-9.664036,-24.405958,-5.0304933,98.594025,-19.255829,-0.5114054,0.61046183,-9.138442,10.395751,28.296255,25.979126,-17.562292,-30.973455,8.446137,12.810321,7.618139,24.029778,-34.343834,31.369844,-20.007809,-0.06434142,2.7298353,-10.13433
26,1.309607982635498,-33.9158821105957,71.81159973144531,10.298190351771295,0.5378853405446999,-86.99907874719308,-17.452719,-14.268569,5.74825,43.457348,-28.265982,4.1199923,-12.021898,-24.59191,-3.8821986,100.23095,-19.891308,-0.94111013,0.008736704,-9.434723,10.729774,26.594372,25.8934,-18.019173,-30.83879,9.658318,12.940061,7.2239475,24.107464,-33.51791,31.464006,-18.613205,-0.55736643,3.9657714,-12.48205
27,1.3044630289077759,-35.21588897705078,71.7110595703125,10.451588191159338,0.3405388257940847,-87.13690172828599,-15.812945,-14.4995775,5.5592422,43.220066,-29.366472,4.090808,-14.389609,-24.527758,-2.8217242,101.42903,-20.405682,-1.2664192,-0.6271292,-9.626233,10.994033,24.908457,25.820448,-18.460962,-30.800415,10.808799,12.968744,6.7425814,24.136251,-32.678932,31.594055,-17.371658,-0.72647905,5.2671304,-15.101305
28,1.291304111480713,-36.53009033203125,71.661376953125,10.502736265969318,0.23544212610711307,-87.18865706467061,-14.142279,-14.637388,5.228012,42.70715,-30.283316,4.0422354,-16.700829,-24.31227,-2.0307736,102.132,-20.812145,-1.4039571,-1.359694,-9.718404,11.082603,23.308784,25.789202,-18.868881,-30.876343,11.591506,12.888819,6.223652,24.212835,-31.854593,31.693764,-16.488928,-0.12723376,6.399263,-17.636446
29,1.2617602348327637,-37.866939544677734,71.67520141601562,10.445559915848579,0.231145353076845,-87.11926277045526,-12.442104,-14.688934,4.7195945,41.891323,-31.040606,3.9808326,-18.95441,-23.956156,-1.5604502,102.3118,-21.122633,-1.2788203,-2.2073853,-9.69711,10.981869,21.79012,25.824041,-19.254347,-31.116722,11.884406,12.688535,5.6506233,24.416342,-31.06945,31.755854,-16.138641,1.5838987,7.32131,-20.287823
30,1.2211337089538574,-39.22570037841797,71.74439239501953,10.283141878554938,0.2929422712560861,-86.97774055050225,-10.66945,-14.633774,4.072289,40.784447,-31.648174,3.8992321,-21.16746,-23.443382,-1.3258493,101.99757,-21.329863,-0.9558164,-3.1305382,-9.554954,10.755268,20.334305,25.930016,-19.638386,-31.51861,11.845836,12.38184,5.0176625,24.712181,-30.3346,31.797592,-16.212996,4.1040883,8.04851,-23.181953
31,1.1693086624145508,-40.5928955078125,71.86681365966797,10.028208534203248,0.4239629610359486,-86.80129810322539,-8.860639,-14.454961,3.3531559,39.451626,-32.05229,3.7909918,-23.302677,-22.83348,-1.3028027,101.21522,-21.424257,-0.5669886,-4.1045456,-9.30528,10.411722,18.98536,26.104235,-20.012054,-32.013847,11.591679,12.004227,4.388198,25.024187,-29.654268,31.79154,-16.499008,6.857912,8.472433,-25.833473
32,1.1118278503417969,-41.992610931396484,72.04914855957031,9.697011019855434,0.6277966968417569,-86.62852775405716,-7.053458,-14.137921,2.6304061,37.9571,-32.200203,3.6464124,-25.32366,-22.172058,-1.46065,99.99096,-21.391003,-0.23316157,-5.1045837,-8.96398,9.9614525,17.792704,26.341002,-20.36016,-32.54154,11.247006,11.588364,3.8238018,25.272547,-29.026653,31.710098,-16.78286,9.251048,8.583264,-27.735413
33,1.054433822631836,-43.40875244140625,72.27833557128906,9.263153364705168,0.9198718273253037,-86.45348780334385,-5.224721,-13.659167,1.8819038,36.22122,-32.100903,3.4624877,-27.228716,-21.447565,-1.8498,98.2974,-21.226568,0.05528474,-6.14372,-8.503411,9.38738,16.767324,26.639332,-20.665737,-33.100933,10.748171,11.106214,3.3266108,25.441633,-28.451324,31.531734,-17.070976,11.2925825,8.456289,-28.730434
34,0.999283492565155,-44.839168548583984,72.55084991455078,8.730378793956843,1.2943748133608584,-86.2631525573101,-3.3762121,-13.027786,1.0965947,34.244785,-31.777145,3.2380316,-29.014301,-20.645523,-2.4750595,96.11917,-20.947025,0.35945353,-7.2245502,-7.9158044,8.702483,15.887641,27.002272,-20.9372,-33.722427,10.064432,10.555578,2.8630962,25.569248,-27.928928,31.278057,-17.459719,13.224301,8.144748,-29.073101
35,0.9339433312416077,-46.30305862426758,72.8763427734375,8.148577383304579,1.7235126478910634,-86.08624762915349,-1.5850372,-12.289083,0.35611853,32.221737,-31.198448,2.9698348,-30.644558,-19.805647,-3.232927,93.5051,-20.567394,0.63831085,-8.307951,-7.2525387,7.960042,15.150383,27.430183,-21.18816,-34.386086,9.372228,10.002554,2.4437754,25.6511,-27.453915,30.98665,-17.868917,14.81191,7.665908,-28.877836
36,0.8583504557609558,-47.758785247802734,73.23438262939453,7.56831996906425,2.178733339225209,-85.95077592024427,0.07732934,-11.494047,-0.26635808,30.349066,-30.335598,2.6614914,-32.085506,-18.959364,-4.020151,90.50244,-20.105536,0.84685326,-9.356938,-6.5713515,7.2074165,14.548273,27.921581,-21.430708,-35.07175,8.848945,9.510258,2.0817251,25.679552,-27.016432,30.695744,-18.209002,15.818507,7.0212984,-28.263905
37,0.7734559774398804,-49.236976623535156,73.62738037109375,6.9912352308587,2.669530947847353,-85.86150309561152,1.62876,-10.645346,-0.7764835,28.594522,-29.140928,2.2983148,-33.345043,-18.116493,-4.8605237,87.097626,-19.556364,0.9403325,-10.382845,-5.8753757,6.424878,14.089743,28.479685,-21.654871,-35.78707,8.518827,9.094749,1.8000277,25.630919,-26.609768,30.40388,-18.424618,16.203253,6.077514,-27.084557
38,0.6818873882293701,-50.73174285888672,74.04137420654297,6.395484267088201,3.2052939573669126,-85.80805248062111,3.0914574,-9.729821,-1.2109678,26.894455,-27.650877,1.8890439,-34.41838,-17.239515,-5.7992225,83.262566,-18.922373,0.96579415,-11.394486,-5.140053,5.6005,13.779434,29.107792,-21.847918,-36.544456,8.297445,8.719769,1.5862606,25.50918,-26.232143,30.09601,-18.56138,16.111063,4.879386,-25.34715
39,0.5830065011978149,-52.23609924316406,74.4797592163086,5.797337057621187,3.7562688985758137,-85.79504003761907,4.4102497,-8.787125,-1.5511161,25.400436,-25.96839,1.4771429,-35.266884,-16.288826,-6.7482142,79.0229,-18.21946,1.0167396,-12.356345,-4.387167,4.7871547,13.607784,29.80017,-22.017736,-37.331085,8.201511,8.368416,1.4031591,25.342707,-25.878569,29.792997,-18.677027,15.574798,3.6699424,-23.410183
40,0.4774583876132965,-53.74991226196289,74.92672729492188,5.212708130550729,4.291763135243723,-85.8256595572523,5.5382776,-7.8548117,-1.7803146,24.259409,-24.19085,1.1024725,-35.856922,-15.234659,-7.612026,74.39091,-17.458302,1.174773,-13.2354355,-3.6411157,4.032855,13.56156,30.544628,-22.17503,-38.131863,8.250418,8.024261,1.2118216,25.159927,-25.542093,29.516357,-18.823347,14.594519,2.6902213,-21.62636
41,0.36043745279312134,-55.269168853759766,75.37247467041016,4.626159736148275,4.834553491159758,-85.90916653853711,6.461654,-6.914886,-1.8672949,23.471004,-22.26636,0.7541934,-36.196377,-14.056369,-8.402545,69.25657,-16.63146,1.4057996,-14.029639,-2.887654,3.313786,13.632416,31.337326,-22.318926,-38.92654,8.50487,7.679124,1.0100272,24.947098,-25.216417,29.272846,-18.99629,13.024983,1.9684775,-20.022236
42,0.2484387904405594,-56.802581787109375,75.80924987792969,4.035478637191273,5.387268009346563,-86.04047755532797,7.2306366,-5.9616213,-1.8448582,22.960106,-20.163605,0.40135235,-36.28172,-12.766553,-9.148228,63.61078,-15.722555,1.6813275,-14.756577,-2.1249666,2.61139,13.826777,32.177578,-22.442118,-39.720394,8.940133,7.3415456,0.8161897,24.693316,-24.900555,29.050816,-19.16119,10.897505,1.3468722,-18.443365
43,0.1369093805551529,-58.35335159301758,76.23397827148438,3.473806702187983,5.889665442205954,-86.19595360289573,7.905656,-5.0509005,-1.7910262,22.728754,-18.000702,0.05278256,-36.06778,-11.39943,-9.767641,57.597275,-14.717387,2.0793684,-15.41771,-1.3952941,1.9798062,14.141132,33.05356,-22.546452,-40.5251,9.444308,7.020479,0.6204784,24.418688,-24.59727,28.843586,-19.318378,8.464555,0.8073953,-16.95547
44,0.02052217908203602,-59.91608428955078,76.63074493408203,2.9762661107687127,6.281490748587008,-86.34882858499782,8.539298,-4.2417,-1.7798856,22.773619,-15.888735,-0.27130926,-35.512714,-10.00328,-10.173696,51.3458,-13.598084,2.6667802,-16.018057,-0.7407595,1.4716758,14.566276,33.94586,-22.636429,-41.345783,9.908375,6.725402,0.41009873,24.147427,-24.312551,28.643295,-19.474321,5.9749303,0.3518758,-15.616602
45,-0.08914943039417267,-61.492164611816406,77.00149536132812,2.558177579368033,6.545502128680242,-86.49646010879493,9.176608,-3.5509245,-1.8104929,23.01188,-13.760415,-0.55622125,-34.512486,-8.566323,-10.293214,44.556164,-12.232,3.525196,-16.56535,-0.17668079,1.0921558,15.114651,34.839527,-22.711136,-42.16807,10.338693,6.443401,0.16810954,23.885122,-24.054186,28.441835,-19.637367,3.3182364,0.006440945,-14.39095
46,-0.19244708120822906,-63.08249282836914,77.32466125488281,2.219801409533676,6.702979170807085,-86.63270546488498,9.814626,-2.9759562,-1.8640481,23.41476,-11.55301,-0.82126284,-33.047974,-7.1243954,-10.155207,37.122173,-10.607472,4.5709167,-17.075615,0.29922152,0.81379586,15.778252,35.730415,-22.767328,-42.982162,10.788413,6.1739435,-0.09940458,23.61814,-23.826183,28.24248,-19.802505,0.4128829,-0.24087459,-13.254331
47,-0.2833723723888397,-64.67581176757812,77.60018157958984,1.986206898647413,6.749075203874605,-86.71815973868972,10.424314,-2.5600188,-1.9890217,24.055004,-9.3772335,-1.0748997,-31.219368,-5.8191104,-9.836515,29.491356,-8.886965,5.6272583,-17.574108,0.65620434,0.64028114,16.511887,36.61755,-22.805588,-43.79131,11.217416,5.9460187,-0.37335438,23.357773,-23.6269,28.05682,-19.9827,-2.4553568,-0.4160904,-12.276426
48,-0.36066046357154846,-66.2725601196289,77.8158187866211,1.8931058802424803,6.679510914597926,-86.71512469587576,10.972018,-2.354799,-2.2313738,25.009867,-7.347838,-1.3091081,-29.193176,-4.796182,-9.43233,22.242432,-7.289604,6.5350766,-18.084497,0.85059834,0.57108706,17.279753,37.502533,-22.827892,-44.607918,11.590779,5.789417,-0.63528275,23.11351,-23.450172,27.898151,-20.188522,-4.9984455,-0.5272243,-11.527296
49,-0.4372686743736267,-67.856689453125,77.97396850585938,2.0192623126700417,6.469408435939692,-86.58715258888259,11.455228,-2.4499269,-2.6526377,26.332287,-5.5141106,-1.4469388,-26.955643,-4.1485476,-8.887382,15.355321,-5.9238644,7.290507,-18.641542,0.80115885,0.60054404,18.083202,38.3938,-22.826794,-45.44511,11.912444,5.736684,-0.9243554,22.886406,-23.292435,27.772238,-20.428955,-7.257913,-0.51201725,-11.032201
50,-0.5070363879203796,-69.43547058105469,78.06118774414062,2.388069327163504,6.1164723238147225,-86.35079623013696,11.895318,-2.843966,-3.2113621,27.957321,-3.7888954,-1.4663904,-24.326769,-3.874081,-8.207517,8.334361,-4.527204,7.973654,-19.239607,0.4783404,0.7118924,18.953749,39.298203,-22.790894,-46.30545,12.197515,5.7642665,-1.2393368,22.673796,-23.151573,27.677395,-20.699944,-9.355932,-0.35789543,-10.736189
51,-0.5714260339736938,-70.99984741210938,78.09066772460938,2.7935556061266924,5.710527805449531,-86.11459757246722,12.169498,-3.2813725,-3.7420661,29.941133,-2.1767619,-1.4761444,-24.056889,-4.094853,-7.436486,6.945008,-5.854197,8.551541,-19.768229,0.08599964,0.8871794,19.874407,40.205833,-22.736618,-47.169815,12.427344,5.818274,-1.495012,22.45283,-23.0216,27.60768,-20.970825,-11.111831,-0.14154151,-10.59615
52,-0.6409688591957092,-72.54017639160156,78.08644104003906,3.0303727872160144,5.345701331203369,-85.98144363954817,12.186817,-3.5283132,-4.087274,32.27557,-0.65498745,-1.603898,-24.154146,-4.21115,-6.909419,6.828307,-7.3047357,9.006935,-20.114017,-0.1627523,1.112905,20.788399,41.09273,-22.701593,-47.9836,12.580271,5.8461123,-1.6074611,22.197268,-22.895178,27.551182,-21.199669,-12.342504,0.05645232,-10.577328
53,-0.7094763517379761,-74.06262969970703,78.05064392089844,3.0237945011457574,5.041060330971826,-85.95133360197636,11.883452,-3.5555573,-4.301205,35.049717,0.8852081,-1.9186568,-24.03489,-4.063776,-6.741397,6.763151,-8.223524,9.411552,-20.30815,-0.11776381,1.3648188,21.46291,41.694023,-22.817892,-48.47321,12.693611,5.837425,-1.6131927,21.86395,-22.812244,27.54149,-21.316559,-12.952879,0.2550717,-10.7098
54,-0.7733996510505676,-75.56574249267578,77.96907043457031,2.810001019118932,4.762872483127991,-85.99580927189432,11.303143,-3.3933609,-4.4341054,38.269222,2.3702877,-2.3589194,-23.65122,-3.6942353,-6.8419237,6.654504,-8.69783,9.754229,-20.349045,0.13332628,1.6916741,22.033478,42.21133,-23.024542,-48.83455,12.734177,5.824453,-1.5005395,21.50243,-22.742882,27.549198,-21.3905,-13.057685,0.48513454,-10.998929
55,-0.8334042429924011,-77.04315185546875,77.82866668701172,2.5073056994127416,4.5096662537398835,-86.1475648436687,10.570803,-3.0785756,-4.33588,41.709232,3.6180398,-2.8315716,-23.135134,-3.2291446,-7.0666356,6.6951895,-8.735872,9.931133,-20.17268,0.43037754,2.065447,22.605242,42.77427,-23.268196,-49.16575,12.7211075,5.802921,-1.2770311,21.125746,-22.6611,27.538118,-21.435915,-12.7803335,0.6984784,-11.393929
56,-0.9285287857055664,-78.47588348388672,77.67539978027344,1.9750139708475662,4.2710387271925025,-86.44963873671583,9.77201,-2.3384056,-3.884529,45.29914,4.3428802,-3.2907178,-22.411993,-2.4939518,-7.425344,6.7130613,-8.181749,9.775974,-19.760557,0.9102051,2.5421154,23.223816,43.312176,-23.487362,-49.437,12.720289,5.752008,-1.0252336,20.698261,-22.57401,27.50019,-21.412453,-12.264545,0.8457684,-11.829615
57,-1.029931664466858,-79.894775390625,77.5167236328125,1.0819257823434452,4.0364798111706754,-86.93306912564694,8.94873,-0.9388968,-2.9666517,49.100513,4.4800963,-3.7877986,-21.393118,-1.3515568,-8.047799,6.6897783,-6.652519,9.286534,-19.00471,1.6385143,3.1940923,24.026218,44.088898,-23.630219,-49.873726,12.653438,5.65456,-0.6510945,20.265133,-22.41648,27.374443,-21.364008,-11.404132,0.8830374,-12.326997
58,-1.1016098260879517,-81.2866439819336,77.29765319824219,0.023925072084132942,3.7884987417823295,-87.54721684805929,8.114219,0.86788845,-1.7130654,53.077698,4.213479,-4.283158,-20.204292,-0.03352651,-8.829648,6.8504095,-4.4167376,8.53438,-18.077927,2.541068,3.9015853,24.811754,44.675896,-23.76266,-50.14007,12.610239,5.5052357,-0.28784704,19.72894,-22.267527,27.276508,-21.19005,-10.183164,0.8492408,-12.908522
59,-1.1478452682495117,-82.69526672363281,77.00424194335938,-1.2081727294119666,3.5181877215394177,-88.24119679651669,7.261984,3.0094588,-0.43230578,57.16039,3.5171483,-4.7067757,-18.909243,1.5117872,-9.612111,7.022633,-2.1352093,7.4088902,-17.044472,3.6285834,4.6546082,25.575941,45.094257,-23.90219,-50.21967,12.633274,5.3610835,0.049404338,19.101242,-22.137558,27.20055,-20.900316,-8.857854,0.78971976,-13.503374
60,-1.2120860815048218,-84.11720275878906,76.6518783569336,-2.3004050193022154,3.2239815817695505,-88.94615596875197,6.393183,5.0205755,0.6589244,61.15342,2.455967,-4.9258842,-20.155771,2.5119174,-10.181008,12.567461,-3.348369,5.90952,-16.008831,4.5868335,5.354873,26.380781,45.367905,-23.987001,-50.138775,12.756821,5.276424,0.32323617,18.379084,-22.032127,27.173965,-20.511,-7.681711,0.7616477,-14.045175
61,-1.287661075592041,-85.52923583984375,76.2384033203125,-3.147987205429686,2.8966739272678783,-89.69196828044795,5.528079,6.7684007,1.6306843,65.081795,0.85038155,-4.8704295,-21.514545,3.3436255,-10.319616,18.198647,-5.3847127,3.7029762,-14.946497,5.303544,5.997674,27.29679,45.519127,-23.966557,-49.982964,13.034274,5.2614045,0.49974334,17.57653,-21.950222,27.194647,-20.054337,-6.725488,0.75224394,-14.517258
62,-1.3826323747634888,-86.8954849243164,75.7757339477539,-3.7446819957212996,2.522189607202646,-90.4657744924805,4.689544,8.274356,2.5921795,68.98671,-1.2413043,-4.601293,-23.061966,4.0248857,-10.119442,24.277176,-8.030896,0.9686274,-13.852127,5.7666907,6.6116714,28.334482,45.563534,-23.845686,-49.769245,13.426285,5.2893667,0.6094148,16.700628,-21.8885,27.263222,-19.535112,-5.848561,0.74475574,-14.958619
63,-1.4791055917739868,-88.22577667236328,75.27545166015625,-4.156795072748643,2.1426346934472686,-91.19217384699431,3.7918942,9.536506,3.397836,72.76927,-3.4556978,-4.248129,-24.374083,4.6686535,-9.754517,29.877192,-10.750189,-1.6080315,-12.803866,6.046628,7.1862345,29.449577,45.504677,-23.657984,-49.40215,13.828253,5.3572984,0.7170489,15.717583,-21.846697,27.405296,-18.900513,-4.98676,0.79163843,-15.390816
64,-1.5865490436553955,-89.5623779296875,74.7743148803711,-4.538554903661911,1.8138059466931025,-91.81858045756556,2.7216659,10.657374,3.8916473,76.34739,-5.440131,-3.9589577,-25.107937,5.361318,-9.463897,34.240017,-13.161127,-3.3852212,-11.858245,6.3048735,7.707395,30.590702,45.332363,-23.456852,-48.777378,14.148756,5.4620285,0.8870911,14.60007,-21.826347,27.639978,-18.10524,-4.078015,0.9429874,-15.835969
65,-1.693198323249817,-90.91075897216797,74.3000717163086,-5.007435964967852,1.5781262752097942,-92.39621942295405,1.4058418,11.746509,4.029306,79.777756,-7.147708,-3.793171,-25.240635,6.15448,-9.314461,37.277626,-15.380721,-4.0974803,-10.993277,6.6520214,8.158739,31.78782,45.023346,-23.255764,-47.832542,14.493914,5.4963336,1.1706784,13.284107,-21.832512,27.984913,-17.084131,-3.0134778,1.1999714,-16.239809
66,-1.783501386642456,-92.27847290039062,73.8685073852539,-5.539709327223328,1.4167095730373975,-92.9576782311802,-0.122340076,12.78754,3.898623,83.105255,-8.764467,-3.7009404,-25.02326,7.001725,-9.204413,39.544865,-17.666351,-4.150503,-10.166185,7.0699773,8.548916,33.01934,44.565174,-23.055576,-46.609627,14.872176,5.4972296,1.5190158,11.803263,-21.863092,28.416128,-15.885993,-1.8523606,1.5383983,-16.61721
67,-1.8647100925445557,-93.63307189941406,73.48963928222656,-6.062839838745121,1.2900474785340732,-93.41851078666387,-1.8156879,13.692182,3.5399137,86.210976,-10.273195,-3.6516647,-24.537043,7.7751694,-9.136573,41.295403,-19.899612,-3.9221134,-9.40377,7.506935,8.898401,34.137703,43.969883,-22.896381,-45.143456,15.036348,5.6754417,1.8460968,10.27342,-21.907337,28.887276,-14.624939,-0.7841795,1.9680231,-17.09291
68,-1.9427359104156494,-94.96795654296875,73.16226196289062,-6.4990152463998365,1.1580766162280467,-93.6924442508944,-3.6290963,14.37921,2.994109,88.981255,-11.658256,-3.6026864,-23.850851,8.379292,-9.108437,42.73279,-21.93977,-3.7901447,-8.728709,7.899115,9.2351465,35.00211,43.26755,-22.815184,-43.480843,14.735241,6.240081,2.074474,8.794899,-21.951965,29.350998,-13.394875,0.009007745,2.497666,-17.785183
69,-2.0242438316345215,-96.28425598144531,72.90267944335938,-6.82563448701282,1.0283793459429427,-93.70290799807029,-5.6315126,14.789429,2.1651657,91.426575,-12.852273,-3.545213,-22.948105,8.775586,-9.164737,43.83373,-23.762747,-3.819123,-8.181594,8.217088,9.570719,35.536293,42.46972,-22.859182,-41.463646,13.661664,7.4060163,2.1910849,7.3480325,-21.981592,29.843441,-12.088216,0.46858215,3.186576,-18.82556
70,-2.087131977081299,-97.61925506591797,72.70338439941406,-7.0859540519191695,0.91926081168078,-93.51315679481236,-7.826995,14.964858,1.0743327,93.59371,-13.872459,-3.4948113,-21.797874,9.031831,-9.302804,44.49873,-25.431059,-3.8197238,-7.731252,8.48611,9.896762,35.826687,41.57792,-22.99165,-39.123405,12.016657,9.0086355,2.2763655,5.876262,-21.990921,30.36851,-10.678165,0.70973754,4.0146604,-20.110949
71,-2.1414785385131836,-98.9828109741211,72.55746459960938,-7.293896256812955,0.8056912207973097,-93.24270259675714,-10.074555,14.989397,-0.06185744,95.4135,-14.818446,-3.434446,-20.441605,9.225048,-9.439095,44.793972,-26.927155,-3.7935479,-7.3036942,8.714301,10.211357,36.011974,40.622272,-23.10493,-36.821354,10.316664,10.688381,2.3836281,4.499838,-21.990387,30.844463,-9.431627,0.7686816,4.875017,-21.403307
72,-2.173750638961792,-100.36176300048828,72.46365356445312,-7.464448316591039,0.6618050083533167,-93.01055979629746,-12.238139,14.965659,-1.0335028,96.81576,-15.792662,-3.3472202,-18.919678,9.424511,-9.485647,44.786716,-28.234058,-3.7393353,-6.8161664,8.915075,10.513232,36.24892,39.65793,-23.090506,-34.95091,9.084396,12.087328,2.5281336,3.2884743,-22.002201,31.183018,-8.581638,0.7078983,5.65975,-22.468227
73,-2.2103681564331055,-101.70343017578125,72.40785217285156,-7.623139738710291,0.4346263731737637,-92.80339932381764,-14.282582,14.899618,-1.8720448,97.79389,-16.865644,-3.231911,-17.157385,9.655012,-9.450673,44.44817,-29.351274,-3.644456,-6.261917,9.1088915,10.866195,36.591072,38.7331,-22.89697,-33.64923,8.539666,13.212199,2.7058926,2.3499012,-22.04511,31.327238,-8.318985,0.3985851,6.4292426,-23.307793
74,-2.2374846935272217,-103.05482482910156,72.405029296875,-7.756714349266013,0.15234331719729674,-92.57356111390327,-16.280752,14.752768,-2.6555438,98.37902,-17.962406,-3.0942273,-15.158928,9.871901,-9.3711,43.75679,-30.286003,-3.5111501,-5.663418,9.280503,11.256565,36.99931,37.87082,-22.570946,-32.766796,8.366551,14.223313,2.901823,1.6290876,-22.127277,31.321074,-8.502728,-0.13509984,7.218733,-24.019674
75,-2.2415664196014404,-104.43182373046875,72.46066284179688,-7.820488809397796,-0.09002337685581645,-92.39069998922395,-18.261011,14.5824175,-3.2464578,98.55475,-18.968225,-2.9228373,-13.08103,10.034298,-9.196241,42.789604,-31.031084,-3.3600674,-4.985061,9.389542,11.561219,37.492485,37.086678,-22.154785,-32.263645,8.288523,14.995019,3.0898056,1.0403831,-22.254787,31.23183,-8.93827,-0.6637399,7.872185,-24.516495
76,-2.252589225769043,-105.79312896728516,72.54413604736328,-7.764020693991325,-0.1975377789603532,-92.32451405835177,-20.250116,14.448848,-3.5070426,98.30204,-19.771338,-2.7111626,-11.084027,10.097345,-8.879958,41.63171,-31.58362,-3.2104425,-4.195322,9.388138,11.65645,38.095097,36.388996,-21.687002,-32.098557,8.030637,15.399717,3.2499561,0.57370204,-22.431072,31.128548,-9.494285,-0.997508,8.22803,-24.717392
77,-2.2583301067352295,-107.18247985839844,72.6809310913086,-7.550561207068441,-0.13818123839256005,-92.43012958905763,-22.266932,14.369658,-3.3281705,97.59363,-20.345648,-2.4831204,-9.181487,10.037494,-8.35562,40.21785,-31.98211,-3.0711825,-3.2397401,9.230069,11.494725,38.868404,35.786522,-21.148012,-32.39144,7.5126953,15.31177,3.4055684,0.22590452,-22.657883,30.988745,-10.192108,-1.0252204,8.190087,-24.55926
78,-2.263427495956421,-108.57522583007812,72.86714935302734,-7.208426727412308,0.03525112071001221,-92.65876798616617,-24.271526,14.325232,-2.7883878,96.43612,-20.756907,-2.2448516,-7.3028684,9.867186,-7.672921,38.53984,-32.21888,-2.9253728,-2.14631,8.935625,11.156106,39.796364,35.282837,-20.527058,-33.143253,6.8825064,14.829458,3.5492687,0.03861594,-22.9358,30.780636,-11.117661,-0.881886,7.8588552,-24.1032
79,-2.2695350646972656,-109.97645568847656,73.0852279663086,-6.805440633401841,0.2894682547754733,-92.9245568781397,-26.199812,14.316705,-2.0300083,94.861855,-21.034824,-1.9644489,-5.483823,9.60227,-6.959091,36.769424,-32.225006,-2.7567215,-1.0046384,8.557657,10.711874,40.76745,34.868477,-19.882662,-34.114586,6.20727,14.161553,3.6203108,-0.057037614,-23.265627,30.560915,-12.12788,-0.6835232,7.368919,-23.458538
80,-2.2665371894836426,-111.3931884765625,73.35110473632812,-6.404223531970533,0.5904925366549154,-93.14137046143786,-27.994108,14.334611,-1.1995884,92.90543,-21.209776,-1.6091828,-3.7596114,9.267921,-6.3383327,35.07951,-31.930473,-2.5542076,0.090971634,8.157369,10.22527,41.65614,34.522247,-19.276407,-35.046616,5.5556016,13.518693,3.5634782,-0.11168095,-23.647501,30.393278,-13.093603,-0.56218743,6.8523817,-22.7347
81,-2.252241611480713,-112.83441925048828,73.6572265625,-6.014252778312589,0.9570914313294754,-93.30307918896122,-29.679995,14.40398,-0.28228834,90.5658,-21.306757,-1.1758429,-2.139542,8.878198,-5.8155947,33.458504,-31.301247,-2.321532,1.1312486,7.7456126,9.668096,42.430378,34.230415,-18.71431,-35.904446,4.936053,12.911154,3.3207142,-0.11849705,-24.085655,30.283964,-14.006119,-0.52637374,6.2897234,-21.896988
82,-2.243234157562256,-114.27336120605469,73.99808502197266,-5.603387558617845,1.3983370043255454,-93.44739209043979,-31.248114,14.499524,0.8044515,87.82004,-21.317656,-0.70162374,-0.61196476,8.422806,-5.3338146,31.84386,-30.38458,-2.0652504,2.1524403,7.2880344,9.022779,43.142624,33.986362,-18.172598,-36.794544,4.319109,12.246008,2.9315233,-0.06065807,-24.582472,30.203686,-14.920725,-0.50647104,5.6285224,-20.909388
83,-2.2336671352386475,-115.72911834716797,74.37342071533203,-5.170561829175607,1.8646283344283436,-93.55373834984908,-32.6039,14.532224,2.0045586,84.6684,-21.219837,-0.20862703,0.8231353,7.8991866,-4.920183,30.332165,-29.238386,-1.7848861,3.1259732,6.789563,8.361401,43.780964,33.77576,-17.668592,-37.6449,3.7160988,11.577172,2.4929104,0.050180078,-25.132687,30.168797,-15.814221,-0.54188627,4.9476476,-19.879034
84,-2.2098686695098877,-117.20133972167969,74.7724380493164,-4.71641342108915,2.306083432721173,-93.60215409954124,-33.66347,14.418549,3.2516937,81.10702,-20.987236,0.28859493,2.1680684,7.305044,-4.602684,29.02093,-27.920086,-1.4790903,4.0211997,6.2622223,7.7531233,44.331257,33.577152,-17.222486,-38.38179,3.14617,10.956386,2.1018252,0.19531552,-25.724808,30.201542,-16.651674,-0.67920846,4.324304,-18.913574
85,-2.1739089488983154,-118.67048645019531,75.19187927246094,-4.221038483797054,2.7283717437105564,-93.57442081448075,-34.434937,14.163931,4.586673,77.08613,-20.626446,0.89417243,3.421536,6.6164885,-4.3892894,27.915518,-26.40258,-1.1235042,4.816117,5.691402,7.198385,44.769226,33.372475,-16.836912,-38.972893,2.5865633,10.382467,1.7506751,0.333493,-26.354883,30.332418,-17.383968,-0.97035265,3.7507005,-18.038857
86,-2.1295394897460938,-120.15802764892578,75.62232971191406,-3.6921636892103376,3.150630223987668,-93.48107327538342,-34.945656,13.774799,6.031582,72.61687,-20.157444,1.5624983,4.5850425,5.8522058,-4.260406,26.983456,-24.680658,-0.7263267,5.515583,5.086418,6.663981,45.101337,33.155014,-16.501951,-39.44245,2.0460446,9.832316,1.3940909,0.46792445,-27.022495,30.55704,-18.01943,-1.382831,3.1907594,-17.200304
87,-2.0704877376556396,-121.6556396484375,76.05809020996094,-3.169885500826161,3.5426169430621814,-93.35042504973516,-35.157192,13.194012,7.4654493,67.76087,-19.548367,2.0753918,5.6805673,5.075529,-4.1965194,26.23209,-22.825369,-0.33827585,6.136524,4.4951115,6.1666913,45.360577,32.92364,-16.218456,-39.797894,1.5933233,9.321227,1.0750924,0.64135164,-27.717457,30.843384,-18.605993,-1.8397274,2.679599,-16.383
88,-2.0044820308685303,-123.1725845336914,76.49357604980469,-2.697663664638896,3.874061865684063,-93.21328935339423,-35.048878,12.397733,8.739516,62.568027,-18.752413,2.2467017,6.724867,4.3510566,-4.181317,25.674204,-20.904375,-0.01083758,6.700126,3.9651995,5.721044,45.580433,32.68225,-15.986168,-40.04607,1.2962488,8.86356,0.8395147,0.8996442,-28.423786,31.15595,-19.190243,-2.2690465,2.2539406,-15.569154
89,-1.9286986589431763,-124.7054443359375,76.90921783447266,-2.2635009477937844,4.1326898139548645,-93.05771237230377,-34.571438,11.366691,9.798741,56.833736,-17.664497,2.0978513,7.7717834,3.666807,-4.2342153,25.23021,-18.837164,0.2416686,7.1997547,3.486176,5.334165,45.770576,32.432888,-15.808495,-40.174458,1.1407102,8.448339,0.7116003,1.2731787,-29.131086,31.486685,-19.776266,-2.6951318,1.9250664,-14.729031
90,-1.864469289779663,-126.2518539428711,77.30585479736328,-1.8588281748738638,4.332391465439598,-92.8777759089161,-33.752853,10.156161,10.671954,50.54741,-16.313755,1.7482342,8.807282,3.0104098,-4.3534317,24.910963,-16.609081,0.45664197,7.630792,3.0467124,4.9941916,45.9144,32.17815,-15.678357,-40.18325,1.1009326,8.071108,0.66635585,1.7152467,-29.837626,31.854282,-20.322756,-3.1449525,1.6715561,-13.87669
91,-1.8082982301712036,-127.81507110595703,77.67364501953125,-1.5323040103538834,4.48263922946677,-92.71962222616365,-32.692814,8.890213,11.325389,44.042,-14.84066,1.1793104,9.758872,2.4453192,-4.4866576,24.825907,-14.374374,0.65191805,8.025499,2.6886022,4.685811,46.026585,31.925297,-15.578582,-40.122955,1.233423,7.7562413,0.677702,2.1981492,-30.539534,32.25983,-20.84033,-3.5712152,1.4846543,-13.059122
92,-1.7506592273712158,-129.40078735351562,77.99543762207031,-1.3368102179847794,4.594010875899389,-92.63185910797033,-31.492525,7.7032485,11.736076,37.650932,-13.386694,0.3709819,10.553933,2.0373638,-4.5794015,25.07274,-12.279152,0.83371115,8.419865,2.4552414,4.3931293,46.11675,31.685974,-15.490532,-40.037933,1.5886211,7.5286193,0.7206769,2.69753,-31.23254,32.703506,-21.345284,-3.929093,1.3579782,-12.322089
93,-1.6958009004592896,-130.99111938476562,78.26445770263672,-1.3458020216717612,4.655075378566877,-92.65669353368556,-30.043457,6.6525335,11.853328,31.097044,-11.869289,-0.8646664,11.216292,1.8658596,-4.5934978,25.609825,-10.299159,0.937935,8.856945,2.4169207,4.0994368,46.21544,31.473528,-15.412664,-39.940914,2.2382593,7.400591,0.79960656,3.2138,-31.914566,33.200157,-21.817736,-4.2534885,1.3193667,-11.664634
94,-1.6509758234024048,-132.57669067382812,78.47799682617188,-1.5690435528289821,4.643723746979417,-92.78929832018044,-28.250042,5.800394,11.664014,24.17634,-10.208858,-2.4000967,11.814042,1.9315875,-4.5419874,26.342121,-8.335323,0.95388615,9.341104,2.5862758,3.8244653,46.32465,31.291885,-15.347594,-39.826675,3.131316,7.3590784,0.92779267,3.7714403,-32.586952,33.73749,-22.266739,-4.5625453,1.3650874,-11.062208
95,-1.6159799098968506,-134.15383911132812,78.63020324707031,-1.9645415600193428,4.556928515139403,-93.00448364390584,-26.296675,5.259722,11.249798,17.47484,-8.591811,-3.8288531,12.335088,2.1819992,-4.447322,27.295408,-6.428128,0.9601717,9.849423,2.9250622,3.604793,46.417473,31.135143,-15.287819,-39.728703,4.139898,7.3909407,1.0920438,4.345893,-33.252533,34.27757,-22.728497,-4.7634573,1.4440753,-10.52696
96,-1.5905770063400269,-135.71017456054688,78.72281646728516,-2.4144607330192933,4.42403547623643,-93.23944689226836,-24.469826,4.990059,10.743566,11.718791,-7.233666,-4.7945447,12.703975,2.4819026,-4.364013,28.572271,-4.663118,1.0563148,10.32047,3.319166,3.4610538,46.452003,30.990814,-15.229296,-39.661915,5.1373835,7.4816685,1.2780099,4.918093,-33.91081,34.787045,-23.241018,-4.76773,1.5059003,-10.075262
97,-1.578192949295044,-137.23904418945312,78.78130340576172,-2.78956192039105,4.318489420890361,-93.44861291719853,-22.976053,4.8209586,10.1787615,7.2033076,-6.256299,-5.1373553,12.742987,2.6841311,-4.327606,30.395027,-3.0924492,1.304499,10.702097,3.6292272,3.3478658,46.397224,30.846966,-15.170251,-39.606037,6.185315,7.661455,1.4832716,5.4371963,-34.560734,35.30371,-23.791248,-4.499679,1.5708507,-9.732049
98,-1.5497853755950928,-138.74508666992188,78.79411315917969,-3.0666384523689003,4.251125645702113,-93.61701093302354,-23.333403,4.907502,9.399473,7.054832,-7.373959,-5.099896,12.439034,2.747935,-4.358806,32.785225,-1.7385433,1.6449811,10.977186,3.8321753,3.247895,46.25694,30.698868,-15.115618,-39.530064,7.321772,7.927153,1.7082448,5.9063516,-35.196438,35.846275,-24.347332,-4.0231137,1.6567198,-9.486642
99,-1.5204883813858032,-140.2361602783203,78.76304626464844,-3.211776527916351,4.187429861557182,-93.69794089763181,-23.506474,4.792524,8.651413,6.9741983,-8.275447,-4.9354687,11.924482,2.620043,-4.5124907,35.57766,-0.6720861,2.0221398,11.108544,3.9073863,3.2118158,46.02158,30.547457,-15.073325,-39.410095,8.382722,8.211659,1.9465686,6.3774314,-35.80235,36.355,-24.911175,-3.4542527,1.7077401,-9.303267
100,-1.4975714683532715,-141.70176696777344,78.68069458007812,-3.225709730242379,4.080305608150755,-93.66016180449675,-23.429985,4.4625874,7.999223,6.9382167,-8.902184,-4.9056473,11.361516,2.291842,-4.82657,38.574917,0.05654902,2.3854408,11.079118,3.8700793,3.2930472,45.6915,30.400774,-15.053335,-39.232624,9.204887,8.446648,2.197802,6.9138603,-36.360096,36.76169,-25.484741,-2.9121687,1.6677556,-9.1420145
101,-1.4851726293563843,-143.15379333496094,78.53094482421875,-3.142673362492555,3.9080474525563025,-93.50182688725715,-23.03229,3.9594822,7.4812627,6.9497895,-9.338892,-5.188934,10.806402,1.8289396,-5.3024855,41.7506,0.50633293,2.816086,10.886977,3.7514555,3.5089796,45.280357,30.268423,-15.052958,-39.014233,9.731768,8.61313,2.4835103,7.5223107,-36.85599,37.053802,-26.084291,-2.3775556,1.5063071,-8.992548
102,-1.4857969284057617,-144.59591674804688,78.33139038085938,-2.9399222927086597,3.7009526715689276,-93.23432433392804,-22.354553,3.2838535,7.0475287,7.0013266,-9.569148,-5.6156054,10.178221,1.1881254,-5.913442,45.206867,0.6724689,3.3098395,10.54057,3.5164628,3.8247273,44.77793,30.155558,-15.068541,-38.74896,10.047736,8.74675,2.802885,8.165679,-37.28319,37.269115,-26.684877,-1.8079523,1.2577163,-8.871027
103,-1.5158170461654663,-146.0265350341797,78.07596588134766,-2.544260641930029,3.4824847978736804,-92.85592442240637,-21.507898,2.3754866,6.625203,7.081992,-9.406016,-5.9171543,9.456706,0.22188388,-6.642201,48.915264,0.42085242,3.704884,10.050479,3.0918913,4.2162623,44.17855,30.061806,-15.1118965,-38.427364,10.21401,8.860796,3.124627,8.84411,-37.631386,37.410595,-27.231928,-1.2791487,0.9623736,-8.779147
104,-1.5195955038070679,-147.42849731445312,77.80785369873047,-1.9002886474318246,3.265491189637528,-92.37579565426503,-20.593504,1.1718029,6.1405387,7.168599,-8.667458,-5.8353477,8.6515,-1.1840634,-7.4567757,52.811306,-0.36111632,3.8477757,9.437951,2.4236157,4.6617594,43.461887,29.985735,-15.193219,-38.0252,10.284929,8.968757,3.4162157,9.554973,-37.89131,37.48133,-27.66818,-0.86797386,0.661038,-8.718056
105,-1.5211774110794067,-148.8274383544922,77.50566864013672,-0.9497888587994184,3.022338424127436,-91.77185399383727,-19.577393,-0.42408964,5.501761,7.250208,-6.9366717,-5.327302,7.843328,-3.0977569,-8.386234,56.91518,-1.8874298,3.694319,8.685573,1.4501561,5.1851754,42.624996,29.926605,-15.311025,-37.53458,10.224306,9.05293,3.6733892,10.293881,-38.051903,37.48992,-27.987282,-0.5783774,0.32296565,-8.716281
106,-1.5317773818969727,-150.2227783203125,77.14112854003906,0.2172554284655206,2.721393469380734,-91.07815438424613,-20.211473,-2.1580894,4.832239,11.165767,-6.4429493,-4.5849614,7.0919933,-5.3649497,-9.380859,61.185112,-4.0041847,3.3509974,7.8115444,0.2469184,5.785603,41.715397,29.893353,-15.43945,-36.998837,10.014443,9.111434,3.9116957,11.036729,-38.093296,37.459892,-28.189247,-0.38128516,-0.059338517,-8.763267
107,-1.5207586288452148,-151.60850524902344,76.73865509033203,1.4312531368715695,2.378504226692412,-90.38289638557572,-20.737162,-3.9961088,4.3215837,14.985117,-5.849684,-3.6653888,6.349582,-7.759867,-10.303672,65.476425,-6.267719,2.8851745,6.9129443,-1.0013934,6.407188,40.71134,29.867634,-15.618289,-36.415714,9.758689,9.185434,4.1298594,11.809437,-38.057945,37.350647,-28.283272,-0.2810896,-0.40965626,-8.7997055
108,-1.4805169105529785,-152.9976043701172,76.2964859008789,2.5627291963890695,2.0339703375308686,-89.75191868323084,-21.266346,-5.711996,4.0796213,18.769545,-5.9472346,-2.5451994,5.5145698,-10.125137,-11.036218,69.677505,-8.25714,2.358902,6.0618,-2.1633224,6.987912,39.615723,29.848,-15.865801,-35.796673,9.555403,9.3159,4.3270698,12.592834,-37.927166,37.14808,-28.221285,-0.29131326,-0.6522126,-8.762477
109,-1.4337949752807617,-154.38186645507812,75.80412292480469,3.639529849620641,1.69473662361167,-89.16077418908903,-22.01735,-7.279126,4.136138,22.970875,-7.168639,-0.93665856,4.559449,-12.572963,-11.612792,73.88067,-9.899274,1.7550032,5.2158656,-3.2692978,7.534857,38.49358,29.837318,-16.133125,-35.205467,9.432458,9.525217,4.4653654,13.383559,-37.71886,36.85814,-28.06036,-0.4847902,-0.7696497,-8.596329
110,-1.3866627216339111,-155.73841857910156,75.28131866455078,4.6975433398379725,1.3452065054452063,-88.58645076454818,-22.940939,-8.740016,4.3624625,27.594305,-9.13964,1.1031666,3.5280523,-15.11823,-12.069223,78.10924,-11.406801,1.0508177,4.3642707,-4.3544807,8.070263,37.304752,29.83182,-16.440008,-34.603916,9.336855,9.788236,4.5596747,14.200676,-37.4361,36.47458,-27.811909,-0.82962626,-0.8028549,-8.346751
111,-1.3357301950454712,-157.08119201660156,74.72291564941406,5.693676913169546,1.0174807837166218,-88.07062623968122,-23.724134,-10.059545,4.6236286,31.950954,-11.406769,3.1112044,2.3591192,-17.561089,-12.297426,82.18831,-12.8109455,0.3034296,3.544985,-5.378928,8.56177,36.003517,29.826887,-16.812338,-33.94696,9.223603,10.070005,4.6806335,15.010269,-37.077023,36.042294,-27.37667,-1.1654961,-0.7640914,-8.133535
112,-1.2703148126602173,-158.42068481445312,74.181396484375,6.609912365061717,0.7499499674435344,-87.64829050651639,-24.094145,-11.261275,4.8425055,35.400333,-13.507506,4.6056004,0.96019596,-19.72644,-12.189606,85.95674,-14.146732,-0.42221245,2.784337,-6.3267336,8.975059,34.551643,29.815441,-17.269993,-33.1892,9.048181,10.334429,4.8985114,15.770115,-36.633514,35.613106,-26.645357,-1.331587,-0.66346693,-8.0764475
113,-1.2053453922271729,-159.76197814941406,73.6961441040039,7.499376549875926,0.5958913925651269,-87.31223698427148,-24.034306,-12.418,5.077736,37.787952,-15.426703,5.385064,-0.8099116,-21.658564,-11.6565075,89.47699,-15.428379,-1.161146,2.0720236,-7.2467313,9.274443,32.893536,29.786774,-17.843672,-32.243786,8.677372,10.573651,5.3158345,16.489868,-36.087868,35.16646,-25.517164,-1.2645926,-0.5649773,-8.037415
114,-1.1560012102127075,-161.09519958496094,73.26422119140625,8.382816336540536,0.5324631304391644,-87.03692401474589,-23.717182,-13.54349,5.363759,39.514656,-17.396507,5.723743,-2.9268413,-23.432919,-10.757344,92.81898,-16.633669,-1.9212369,1.3853419,-8.1578865,9.480023,31.067451,29.732273,-18.507668,-31.157415,8.175035,10.802492,5.868927,17.173409,-35.432487,34.692028,-24.054518,-1.0602994,-0.44247475,-8.005063
115,-1.1308786869049072,-162.41708374023438,72.88687896728516,9.188526349699462,0.484833466382337,-86.83735859211323,-23.149118,-14.564269,5.623053,40.77448,-19.316803,5.847713,-5.228279,-24.922794,-9.62863,95.82167,-17.735626,-2.6029968,0.73169875,-8.991996,9.646143,29.176668,29.650742,-19.189835,-30.089214,7.7899337,11.023211,6.374051,17.765913,-34.681114,34.26315,-22.388668,-0.79464877,-0.17055292,-8.292689
116,-1.1277986764907837,-163.7266387939453,72.58030700683594,9.84016686317994,0.3769284209905757,-86.73239400571303,-22.322533,-15.403727,5.7683916,41.744118,-21.080982,5.983638,-7.534103,-26.016195,-8.432337,98.32807,-18.710915,-3.1131148,0.11787888,-9.676992,9.833714,27.327253,29.547886,-19.816898,-29.198948,7.7748466,11.244131,6.642653,18.225292,-33.86152,33.95696,-20.670813,-0.5425476,0.37425596,-9.220439
117,-1.1177797317504883,-165.05833435058594,72.35246276855469,10.328715067924227,0.1550364347923008,-86.78636993887342,-21.140675,-16.028502,5.816786,42.39837,-22.680304,6.161841,-9.838612,-26.641584,-7.0967455,100.329315,-19.531738,-3.4280372,-0.40921807,-10.194451,10.124676,25.493492,29.423138,-20.396015,-28.477304,8.284242,11.516301,6.6104875,18.499441,-32.984085,33.8096,-18.765665,-0.38328248,1.225162,-10.979338
118,-1.0992985963821411,-166.38807678222656,72.18055725097656,10.690650195327205,-0.1272884220606302,-86.97043000274932,-19.630013,-16.48645,5.8074102,42.65719,-24.161116,6.2761884,-12.216833,-26.874317,-5.6146445,101.91109,-20.2126,-3.608133,-0.8747851,-10.579426,10.47571,23.645414,29.274868,-20.947678,-27.861225,9.159569,11.817622,6.3740425,18.633509,-32.051277,33.775997,-16.665192,-0.22281052,2.31315,-13.368848
119,-1.0927858352661133,-167.7283172607422,72.06021881103516,10.922456800357859,-0.38781638029322774,-87.16414919987676,-17.960615,-16.81496,5.679202,42.612183,-25.500662,6.345684,-14.595586,-26.84358,-4.2571626,103.05076,-20.793411,-3.6926916,-1.3725322,-10.838318,10.762442,21.863226,29.118317,-21.437622,-27.415182,10.181873,12.047672,5.9883623,18.728989,-31.092388,33.80192,-14.715857,0.1452291,3.5978968,-16.137215
120,-1.093573808670044,-169.08082580566406,71.99166107177734,11.019765601066524,-0.5452798203129267,-87.24541106279072,-16.303507,-17.03971,5.3677773,42.36119,-26.678389,6.3842745,-16.910097,-26.701979,-3.2827685,103.72279,-21.316885,-3.7216444,-1.996423,-10.975333,10.862832,20.24026,28.97958,-21.834217,-27.225811,11.126317,12.108575,5.5164976,18.89835,-30.155684,33.828197,-13.285123,0.9256398,5.017947,-19.056145
121,-1.1009018421173096,-170.4475555419922,71.97959899902344,10.96509245935465,-0.5919240435212356,-87.18192702602853,-14.676682,-17.154493,4.8373137,41.916695,-27.714157,6.3774147,-19.157307,-26.470366,-2.7586548,103.9001,-21.816038,-3.6645453,-2.7673159,-10.970535,10.768129,18.783323,28.880846,-22.130976,-27.371695,12.057789,11.94805,4.9099016,19.219883,-29.285578,33.867603,-12.61107,2.2759964,6.7383566,-22.478567
122,-1.1232105493545532,-171.8331298828125,72.03111267089844,10.77036449345907,-0.5682209276237596,-87.03641639637696,-12.999941,-17.132214,4.1356087,41.235928,-28.61405,6.317321,-21.352568,-26.107767,-2.5646648,103.59742,-22.261686,-3.5164733,-3.6335814,-10.818301,10.55458,17.460413,28.828459,-22.353039,-27.816528,13.038454,11.619382,4.1692896,19.663513,-28.50246,33.92499,-12.518765,4.1420574,8.647226,-26.455967
123,-1.1425551176071167,-173.22572326660156,72.13780975341797,10.46253217120677,-0.4642906409785979,-86.82948168621712,-11.299933,-16.968777,3.3226008,40.337395,-29.337969,6.225815,-23.465797,-25.672005,-2.666963,102.84718,-22.60503,-3.3520896,-4.57822,-10.540222,10.225775,16.28378,28.823717,-22.522512,-28.458368,13.830598,11.194854,3.4321656,20.177698,-27.814001,33.930252,-12.756386,6.3253837,10.295145,-30.27951
124,-1.1822808980941772,-174.63356018066406,72.29359436035156,10.06805597673682,-0.26965438050661533,-86.58284452438204,-9.604687,-16.669163,2.4587626,39.23997,-29.846914,6.1282454,-25.467081,-25.216515,-3.029045,101.68257,-22.799059,-3.2428772,-5.581073,-10.158986,9.782485,15.266222,28.866577,-22.66233,-29.188562,14.205604,10.757496,2.8304415,20.710846,-27.217234,33.811565,-13.069541,8.520991,11.319235,-33.178215
125,-1.2209209203720093,-176.0636444091797,72.49512481689453,9.57360859979602,0.04069190648686905,-86.26705472800394,-7.9027967,-16.225084,1.5002208,37.86196,-30.156301,6.0423303,-27.356298,-24.780558,-3.7352467,100.08816,-22.844229,-3.1989024,-6.6633387,-9.653489,9.194748,14.411078,28.960379,-22.772902,-30.022087,13.992139,10.300732,2.3751585,21.285168,-26.710587,33.53606,-13.501033,10.815779,11.716618,-34.958115
126,-1.258310317993164,-177.51275634765625,72.74444580078125,8.972310082710752,0.45673738490698246,-85.88558969153058,-6.201136,-15.628671,0.44702736,36.232693,-30.284655,5.9486237,-29.122627,-24.32859,-4.7862372,98.0428,-22.77033,-3.1662009,-7.814781,-9.006656,8.485148,13.71238,29.108656,-22.852169,-31.003645,13.351475,9.800784,1.9999647,21.927397,-26.29417,33.14346,-14.163601,13.241446,11.714439,-35.98062
127,-1.3096821308135986,-178.97708129882812,73.03973388671875,8.303815729136545,0.9356624111788164,-85.50981655227241,-4.548963,-14.893419,-0.57824373,34.530342,-30.194271,5.8207207,-30.725218,-23.78998,-6.0163827,95.57245,-22.57423,-3.123052,-8.971392,-8.256206,7.7282963,13.1666565,29.311451,-22.911224,-32.06377,12.55981,9.314677,1.7163538,22.57841,-25.959564,32.67445,-14.894738,15.373158,11.383224,-36.272522
128,-1.361704707145691,-180.4486846923828,73.37134552001953,7.606353447800113,1.4326681101026253,-85.20992200229021,-2.9910355,-14.039251,-1.4569496,32.93298,-29.846724,5.634052,-32.13235,-23.092785,-7.251135,92.70221,-22.252493,-3.052971,-10.072204,-7.4504724,6.992239,12.768453,29.56659,-22.958338,-33.131832,11.896816,8.8953905,1.5390567,23.171764,-25.692266,32.170918,-15.515081,16.792828,10.786895,-35.870266
129,-1.4270273447036743,-181.93182373046875,73.73385620117188,6.859076850717296,1.9590097018154,-85.0004197070581,-1.5209384,-13.038575,-2.1759584,31.423998,-29.222939,5.3817954,-33.358654,-22.222113,-8.520788,89.41413,-21.809784,-3.0309749,-11.123307,-6.5701923,6.262254,12.530257,29.873764,-22.977947,-34.212875,11.372572,8.571217,1.5147644,23.672493,-25.48227,31.624313,-15.944087,17.41641,9.795324,-34.56445
130,-1.4943684339523315,-183.42877197265625,74.12641143798828,6.053277841694859,2.5302764740756496,-84.84969242105966,-0.12903634,-11.905448,-2.7890155,29.936852,-28.349401,5.077749,-34.402718,-21.198147,-9.891567,85.6895,-21.252434,-3.0266523,-12.147079,-5.6068926,5.516583,12.456285,30.235664,-22.960003,-35.33858,10.864646,8.305829,1.6205226,24.111935,-25.325338,31.023415,-16.269995,17.495792,8.44565,-32.41609
131,-1.567628264427185,-184.93162536621094,74.54322814941406,5.246584045634874,3.1054676960134007,-84.75564312179482,1.15564,-10.7293215,-3.289034,28.582535,-27.261707,4.735801,-35.22647,-20.004292,-11.223953,81.54964,-20.57309,-2.8793828,-13.115559,-4.6325226,4.803459,12.530154,30.652962,-22.919327,-36.482346,10.453329,8.05522,1.7695241,24.51347,-25.21304,30.408554,-16.561995,17.110874,7.018722,-29.884396
132,-1.6543142795562744,-186.44444274902344,74.97209930419922,4.4971989966337,3.642860184270665,-84.71228957933118,2.3199885,-9.599389,-3.6778646,27.466402,-25.993828,4.3727107,-35.80021,-18.637197,-12.364308,77.005775,-19.75757,-2.4426634,-14.005546,-3.7214684,4.1639023,12.730998,31.12374,-22.871708,-37.612988,10.217136,7.777094,1.874435,24.894625,-25.132526,29.82273,-16.881449,16.298807,5.788564,-27.419708
133,-1.7537400722503662,-187.9764862060547,75.40353393554688,3.794013328028227,4.147195443502167,-84.73105007687147,3.3885252,-8.499047,-3.9393344,26.569977,-24.507616,3.977006,-36.11378,-17.069052,-13.297734,71.93313,-18.784761,-1.7104815,-14.817292,-2.870429,3.5891685,13.056126,31.652143,-22.819544,-38.72019,10.196246,7.4574227,1.9582953,25.223852,-25.077896,29.281494,-17.202963,14.914789,4.75369,-24.990559
134,-1.857429027557373,-189.50819396972656,75.83126831054688,3.1172945437877826,4.630578681530822,-84.80726259206581,4.3899055,-7.4044666,-4.0976243,25.845535,-22.801258,3.5396144,-36.172215,-15.32081,-14.062905,66.32505,-17.655924,-0.77050114,-15.568147,-2.0575464,3.056595,13.521523,32.239388,-22.746561,-39.822483,10.341112,7.120415,2.0541563,25.49414,-25.047606,28.765005,-17.4888,12.986225,3.7249806,-22.427795
135,-1.9585109949111938,-191.05218505859375,76.24810028076172,2.510890964321869,5.062539140649426,-84.9070631011777,5.327837,-6.39135,-4.2181787,25.331913,-20.955004,3.0770516,-35.970516,-13.482523,-14.580942,60.36284,-16.390306,0.3631545,-16.262955,-1.3299938,2.5810678,14.128463,32.873745,-22.645718,-40.928917,10.597927,6.7820754,2.0885284,25.75488,-25.034964,28.26154,-17.77047,10.764256,2.723552,-19.952225
136,-2.065141201019287,-192.614990234375,76.6494369506836,2.019315240386739,5.413954336554343,-84.99397576675344,6.198424,-5.5368314,-4.364375,25.06096,-19.035011,2.6078036,-35.50477,-11.653059,-14.775288,54.22125,-15.005534,1.674133,-16.905088,-0.7334399,2.1752112,14.865208,33.535202,-22.51682,-42.034176,10.915487,6.457683,1.9853114,26.045507,-25.031267,27.755707,-18.073782,8.4901285,1.8075559,-17.769539
137,-2.169475793838501,-194.19573974609375,77.02236938476562,1.666833287172378,5.671873192939296,-85.05528812957367,7.0517297,-4.872229,-4.551834,24.92635,-16.92458,2.1246579,-34.683437,-9.811638,-14.541238,47.63709,-13.366949,3.2737312,-17.504107,-0.30071667,1.8314133,15.742122,34.209335,-22.352238,-43.122913,11.341827,6.121405,1.6717547,26.365215,-25.033693,27.234,-18.384325,6.0446477,0.96732813,-15.874342
138,-2.267953634262085,-195.79002380371094,77.35330200195312,1.4451810934811609,5.844224047385382,-85.09493226631888,7.909203,-4.3844886,-4.7658076,24.894527,-14.603437,1.6002128,-33.460865,-7.9969044,-13.90017,40.503723,-11.480587,5.0861773,-18.070318,-0.02184911,1.5386723,16.748026,34.89243,-22.157007,-44.18468,11.88792,5.771413,1.2030377,26.69592,-25.043266,26.704569,-18.688292,3.3350902,0.17637354,-14.172573
139,-2.359290599822998,-197.38784790039062,77.6370849609375,1.3547441922719323,5.93391169194385,-85.09884147443107,8.717464,-4.0897393,-5.021928,25.093168,-12.27121,1.0400751,-31.923592,-6.3925943,-13.000691,33.26309,-9.579936,6.834165,-18.609463,0.116778515,1.302453,17.824535,35.58121,-21.953617,-45.207344,12.444039,5.4599576,0.69179976,27.051138,-25.054216,26.18345,-19.023489,0.6354175,-0.48579872,-12.715813
140,-2.435734272003174,-198.98529052734375,77.86951446533203,1.394075434006141,5.945870644011693,-85.05162920953337,9.406192,-3.9997249,-5.3335767,25.662128,-10.125348,0.4706112,-30.21279,-5.1496997,-12.040235,26.430271,-7.902483,8.274936,-19.124924,0.13071066,1.1283046,18.90847,36.27326,-21.771646,-46.178818,12.904475,5.243306,0.24795929,27.384066,-25.055725,25.684568,-19.373512,-1.7528827,-0.91919595,-11.543217
141,-2.50540828704834,-200.57452392578125,78.04076385498047,1.6308854992105004,5.873593468176504,-84.92171369772934,9.936627,-4.186634,-5.7477913,26.685078,-8.206992,-0.021666745,-28.33408,-4.3258777,-10.990513,19.97917,-6.521314,9.460686,-19.649418,-0.042082664,0.9875735,19.99648,36.973545,-21.616915,-47.1096,13.258204,5.164249,-0.15501834,27.808966,-25.03364,25.202265,-19.844654,-3.9090557,-1.0115894,-10.631426
142,-2.5676510334014893,-202.1585693359375,78.14518737792969,2.1126994217457686,5.696293526271702,-84.70550335304034,10.370722,-4.688409,-6.2535453,28.051115,-6.384639,-0.43667847,-26.236269,-3.9383526,-9.804418,13.729108,-5.3144255,10.505392,-20.188875,-0.46666786,0.8752078,21.113766,37.68853,-21.477016,-48.00159,13.5595455,5.1855607,-0.56294423,28.240614,-24.983126,24.730394,-20.350084,-5.9298754,-0.81166977,-9.938055
143,-2.61908221244812,-203.7273712158203,78.18093872070312,2.697317367635512,5.44294765754578,-84.48291764801137,10.693412,-5.339877,-6.729953,29.729425,-4.668749,-0.883167,-23.943356,-3.8459191,-8.716503,7.745457,-4.0784245,11.291521,-20.664762,-1.0170219,0.82171947,22.247164,38.40994,-21.353107,-48.82376,13.803776,5.246459,-0.89239323,28.637491,-24.902021,24.294231,-20.84742,-7.686108,-0.44738114,-9.472042
144,-2.6667497158050537,-205.26708984375,78.17547607421875,3.146312458594821,5.180069026008771,-84.3677284552001,10.834604,-5.877228,-7.032331,31.739853,-3.111307,-1.4978604,-23.826328,-4.0569754,-7.7940497,7.032496,-5.2024994,11.703601,-20.958021,-1.4605885,0.8641824,23.354538,39.11322,-21.266148,-49.515575,13.987593,5.285875,-1.0573545,28.949032,-24.79153,23.914202,-21.280365,-9.040179,-0.0468675,-9.256014
145,-2.7002313137054443,-206.782958984375,78.12776947021484,3.3723198363066094,4.951346880846275,-84.39306413404803,10.696735,-6.2398863,-7.1653266,34.198544,-1.6500686,-2.3966792,-23.729275,-4.0917397,-7.2899194,6.9296327,-6.217039,11.670223,-21.020266,-1.6877323,0.99825513,24.371956,39.78023,-21.271917,-50.026077,14.089593,5.2882314,-1.0016439,29.154804,-24.651627,23.586838,-21.617598,-9.965761,0.42815143,-9.342435
146,-2.7354953289031982,-208.2736053466797,78.04943084716797,3.4166131090911187,4.75202801722885,-84.53867366867577,10.262107,-6.445511,-7.161054,37.16277,-0.3388395,-3.4645388,-23.428574,-3.949531,-7.101447,6.893045,-6.940755,11.290593,-20.869835,-1.7300066,1.2066113,25.281202,40.40129,-21.382765,-50.347073,14.123635,5.2866282,-0.7847393,29.275959,-24.48195,23.298141,-21.87891,-10.530849,1.0385869,-9.704127
147,-2.7638251781463623,-209.75323486328125,77.91570281982422,3.255141462715675,4.5652949019186195,-84.81766625432634,9.615419,-6.377595,-6.9335694,40.515152,0.6272543,-4.500811,-22.93373,-3.5672743,-7.1037927,6.8932824,-7.2828913,10.699215,-20.506786,-1.5821531,1.5135509,26.111763,40.958214,-21.552647,-50.48028,14.139736,5.2929015,-0.49638274,29.280329,-24.286604,23.054947,-22.04271,-10.714339,1.6842104,-10.25921
148,-2.7740960121154785,-211.21807861328125,77.72711944580078,2.871756251057182,4.371897007961096,-85.23857933435109,8.860675,-5.9287663,-6.396224,44.10376,1.0669563,-5.3191223,-22.26345,-2.893136,-7.170673,6.919586,-7.152783,10.018725,-19.940798,-1.243874,1.9392041,26.902733,41.42805,-21.724758,-50.43362,14.186442,5.318408,-0.22968157,29.117659,-24.076149,22.866669,-22.076464,-10.490268,2.2595646,-10.929027
149,-2.7713215351104736,-212.6675567626953,77.49798583984375,2.2019815868211987,4.145854272832792,-85.82920741457156,8.062066,-4.992695,-5.456043,47.944935,0.934152,-5.9152055,-21.340685,-1.8537493,-7.3468933,6.9755526,-6.316734,9.3396635,-19.14156,-0.64589536,2.5258946,27.66291,41.784492,-21.899796,-50.202232,14.248064,5.3409524,0.0092329625,28.773493,-23.859129,22.735533,-21.954977,-9.711132,2.7209988,-11.781494
150,-2.795473575592041,-214.0763702392578,77.28461456298828,1.2725185351482593,3.8792752227680944,-86.55743739702027,7.2130303,-3.605555,-4.231657,52.064938,0.33820903,-6.3647733,-20.16738,-0.508211,-7.66266,7.062684,-4.892727,8.560646,-18.145689,0.20975146,3.2460573,28.363634,42.018364,-22.108788,-49.76754,14.312788,5.36146,0.25301287,28.280367,-23.642708,22.660545,-21.707695,-8.436535,3.1106613,-12.83906
151,-2.81300950050354,-215.4797821044922,77.0141830444336,0.21696135126201646,3.5819688768953646,-87.341836009845,6.3176546,-1.9117905,-2.9440544,56.313095,-0.6655,-6.6283803,-19.807074,0.8612224,-7.984732,9.148296,-4.3573217,7.5295377,-17.06374,1.1996527,4.016964,29.013784,42.141953,-22.329716,-49.14374,14.439419,5.4263763,0.47026235,27.63772,-23.43914,22.644062,-21.364168,-6.9410887,3.456749,-13.953336
152,-2.8244831562042236,-216.90093994140625,76.66204833984375,-0.8074643488126197,3.2748179394138357,-88.10556003698109,5.3630524,-0.114286885,-1.7886395,60.529057,-2.0176384,-6.67778,-20.458536,2.0607905,-8.227741,13.340597,-5.1982346,6.1115046,-16.0049,2.1653912,4.7587843,29.646305,42.183098,-22.518066,-48.367134,14.680231,5.5826,0.63303626,26.855412,-23.260847,22.696327,-20.968256,-5.502593,3.8041809,-14.976379
153,-2.8640215396881104,-218.31690979003906,76.26153564453125,-1.774986194130549,2.934689299950835,-88.86047098515368,4.3929853,1.7539519,-0.7396597,64.75172,-3.8972511,-6.477103,-21.343237,3.2187595,-8.305323,17.962173,-6.4798856,3.9902859,-14.967668,3.069235,5.493396,30.308666,42.16656,-22.634867,-47.501312,15.121545,5.859637,0.7005325,25.943241,-23.11124,22.821754,-20.55124,-4.027689,4.129371,-15.887719
154,-2.9131808280944824,-219.70372009277344,75.8051528930664,-2.654544981274912,2.540723562422068,-89.60997793915782,3.4458623,3.6369905,0.28072622,68.99824,-6.2478433,-6.058674,-22.437824,4.317582,-8.271061,23.12747,-8.06204,1.3683013,-13.936783,3.8784795,6.2460904,31.024155,42.1027,-22.675257,-46.562878,15.703195,6.226873,0.7018012,24.906858,-22.98713,23.024931,-20.106253,-2.4196677,4.4184933,-16.764595
155,-2.976306438446045,-221.04971313476562,75.29597473144531,-3.3931376057857645,2.1575614798854286,-90.30489809884918,2.4170635,5.406345,1.1794763,73.14127,-8.688932,-5.521205,-23.437462,5.318716,-8.191981,28.070023,-9.753944,-1.1445916,-12.955596,4.5496626,6.952883,31.774448,41.993294,-22.659264,-45.49424,16.259113,6.6409826,0.72026056,23.727985,-22.889452,23.307877,-19.604572,-0.942237,4.7494226,-17.60732
156,-3.047063112258911,-222.3829345703125,74.76516723632812,-4.019850927082947,1.8682232031819443,-90.91942613638693,1.1632555,7.039795,1.8572003,77.079636,-10.856593,-4.970729,-24.101997,6.2238064,-8.149459,32.149597,-11.468384,-2.9697447,-12.04379,5.122863,7.551821,32.520786,41.829887,-22.621569,-44.226242,16.621662,7.0597367,0.8427868,22.38607,-22.82051,23.665531,-19.01226,0.1451241,5.206524,-18.416874
157,-3.129261016845703,-223.71502685546875,74.25287628173828,-4.597865643288869,1.7340384722253952,-91.49439549405831,-0.42500785,8.633376,2.3095016,80.89028,-12.702541,-4.4198203,-24.492277,7.064745,-8.167855,35.390614,-13.389934,-3.8785756,-11.174532,5.6570334,8.017417,33.264008,41.59478,-22.57461,-42.66264,16.83903,7.4387503,1.1198075,20.842957,-22.781975,24.07932,-18.335041,0.78387344,5.881012,-19.11562
158,-3.1825649738311768,-225.05056762695312,73.77101135253906,-5.161590993175595,1.718054540184234,-92.05192013708222,-2.2908235,10.223961,2.5732887,84.62443,-14.421751,-3.8374243,-24.772678,7.87221,-8.209399,38.217823,-15.589763,-4.224972,-10.325068,6.184167,8.386059,33.99506,41.27837,-22.51376,-40.84394,16.968597,7.8106666,1.4966438,19.120794,-22.767736,24.54809,-17.593721,1.1173853,6.717594,-19.729956
159,-3.2289867401123047,-226.37503051757812,73.31781768798828,-5.697893012842918,1.7555237137028827,-92.53845863378632,-4.3427987,11.715281,2.616146,88.137886,-16.007338,-3.2530386,-24.875374,8.619253,-8.266041,40.641216,-17.850397,-4.3128304,-9.518724,6.7000384,8.689389,34.655537,40.8886,-22.448042,-38.89869,16.853695,8.247052,1.9056555,17.286177,-22.768192,25.091267,-16.776129,1.1879088,7.5841513,-20.411327
160,-3.2874298095703125,-227.67193603515625,72.9105224609375,-6.180589209117569,1.7803771848851024,-92.89469438932584,-6.49444,12.99988,2.41685,91.277824,-17.443115,-2.6907892,-24.70997,9.28545,-8.31673,42.618385,-19.926542,-4.4422636,-8.781276,7.184973,8.963351,35.195732,40.446514,-22.384619,-36.969143,16.334814,8.818287,2.2858925,15.408437,-22.772188,25.729696,-15.874398,1.0369815,8.347499,-21.308811
161,-3.3565566539764404,-228.9503173828125,72.55699920654297,-6.616489004474301,1.8052065423170682,-93.07415827397256,-8.835575,14.047273,1.8838038,94.07715,-18.690155,-2.117348,-24.23954,9.871483,-8.384526,44.065968,-21.783928,-4.6582966,-8.133042,7.639028,9.20588,35.551094,39.95757,-22.347965,-34.913853,15.126976,9.654457,2.6525753,13.42949,-22.768528,26.518007,-14.768335,0.56374305,8.985872,-22.5942
162,-3.409924030303955,-230.26109313964844,72.25923156738281,-7.014781074297785,1.8588094447401766,-93.11738935895067,-11.399401,14.891956,1.0648091,96.589134,-19.750103,-1.5307288,-23.511375,10.387309,-8.4734,45.024258,-23.540466,-4.8121986,-7.5523405,8.060942,9.410077,35.768364,39.421898,-22.32079,-32.722687,13.386312,10.672569,3.0521328,11.346204,-22.747805,27.420206,-13.517893,-0.21646042,9.58539,-24.135895
163,-3.4642105102539062,-231.59950256347656,72.01669311523438,-7.355006799553056,1.8962068490116633,-93.09887317294546,-14.013629,15.543809,0.16440465,98.706825,-20.676928,-1.0003276,-22.563467,10.840064,-8.524312,45.627872,-25.16975,-4.913333,-6.995845,8.430742,9.606929,35.978016,38.86745,-22.248234,-30.744978,11.622601,11.62987,3.4621937,9.288702,-22.708906,28.331272,-12.341441,-1.087041,10.163717,-25.628338
164,-3.5206942558288574,-232.93850708007812,71.83192443847656,-7.6162944551343905,1.8707967504768794,-93.09326467229495,-16.497986,16.035145,-0.605716,100.322685,-21.527964,-0.5937577,-21.431059,11.233576,-8.4769745,46.009636,-26.644941,-4.9701915,-6.4183745,8.7281065,9.823484,36.330185,38.343983,-22.074368,-29.352812,10.349432,12.294733,3.8381925,7.415117,-22.66182,29.157093,-11.473901,-1.8520648,10.71834,-26.766174
165,-3.551750898361206,-234.27200317382812,71.69137573242188,-7.804989381744122,1.7230151414556356,-93.09001802438385,-18.797039,16.36261,-1.2428644,101.41359,-22.331472,-0.36602795,-20.044495,11.5719595,-8.333332,46.166992,-27.972397,-4.969821,-5.8218603,8.9541445,10.132045,36.90932,37.90115,-21.757069,-28.743296,9.763653,12.605342,4.193142,5.6870165,-22.617603,29.905869,-10.906943,-2.4929812,11.316815,-27.530031
166,-3.5740838050842285,-235.59933471679688,71.592041015625,-7.928794177425403,1.4918341057672304,-93.0600375351645,-21.002724,16.528008,-1.8184993,102.035484,-23.048489,-0.26607683,-18.40458,11.843469,-8.120655,46.038223,-29.161013,-4.9092555,-5.214991,9.109018,10.500792,37.67304,37.55741,-21.318945,-28.750488,9.560369,12.694713,4.5364056,4.1107554,-22.580091,30.6232,-10.59053,-3.1318967,11.928455,-28.058228
167,-3.5879948139190674,-236.93966674804688,71.54816436767578,-7.9683368828718395,1.2777466071696089,-93.05122093879794,-23.154505,16.588703,-2.2350717,102.20265,-23.638994,-0.20203519,-16.660484,12.026092,-7.8177915,45.67741,-30.190964,-4.8135962,-4.5529685,9.178879,10.8057165,38.558247,37.30884,-20.818218,-29.20126,9.504327,12.628672,4.8063464,2.6876993,-22.55424,31.270561,-10.495071,-3.6872556,12.38691,-28.293085
168,-3.594388484954834,-238.29685974121094,71.55318450927734,-7.904123711513241,1.1812893285097203,-93.11162906564033,-25.28819,16.602737,-2.3961282,101.92683,-24.066511,-0.08398904,-14.962406,12.099285,-7.406404,45.139637,-31.04384,-4.7090197,-3.7901742,9.148526,10.919669,39.48392,37.136616,-20.322506,-29.898024,9.364456,12.470982,4.9432044,1.4669644,-22.549408,31.80053,-10.633191,-4.100945,12.52515,-28.178879
169,-3.5892157554626465,-239.67926025390625,71.60875701904297,-7.712712405612718,1.2357980133038655,-93.28927993149456,-27.426481,16.587015,-2.2190592,101.189064,-24.337526,0.08437131,-13.34836,12.054,-6.8416367,44.417534,-31.753473,-4.6098127,-2.8745751,8.997591,10.79073,40.46713,37.029312,-19.83847,-30.91376,9.133139,12.203616,4.915494,0.45487666,-22.581556,32.17475,-11.066305,-4.250345,12.25293,-27.647669
170,-3.5842511653900146,-241.07525634765625,71.71094512939453,-7.410148598637136,1.3856060498128877,-93.54725827818284,-29.522545,16.525677,-1.7556577,99.98183,-24.47489,0.25614658,-11.7431965,11.892735,-6.1551104,43.493664,-32.320404,-4.49745,-1.8408142,8.733318,10.498435,41.527626,36.984158,-19.34218,-32.299473,8.917253,11.805425,4.7582307,-0.35372537,-22.662281,32.420948,-11.789772,-4.199659,11.672978,-26.751364
171,-3.5750324726104736,-242.47190856933594,71.86743927001953,-7.035125710262419,1.5978916502520222,-93.80588299233125,-31.504597,16.421074,-1.1087209,98.333786,-24.469261,0.4539317,-10.13158,11.619261,-5.442229,42.41364,-32.676796,-4.3527923,-0.77414924,8.384914,10.114109,42.567802,36.98858,-18.86338,-33.808487,8.659066,11.335043,4.5104513,-0.97971886,-22.789732,32.585804,-12.670544,-4.1408043,10.907278,-25.619455
172,-3.558882713317871,-243.89208984375,72.0701904296875,-6.6256835861031815,1.83913442429986,-93.98502218377455,-33.304634,16.266003,-0.38663787,96.27358,-24.311775,0.69886667,-8.4965105,11.240777,-4.798895,41.220802,-32.756413,-4.155459,0.23893327,7.9880543,9.703929,43.472652,37.023693,-18.441528,-35.17823,8.307144,10.851794,4.210298,-1.4807287,-22.953997,32.718033,-13.538927,-4.259713,10.070688,-24.381876
173,-3.542174816131592,-245.33546447753906,72.32764434814453,-6.171324215988101,2.1233460159617863,-94.0788837530517,-34.937565,16.053268,0.4368608,93.79037,-24.009003,0.9986768,-6.8373585,10.741055,-4.2197185,39.886574,-32.552517,-3.8893447,1.1888599,7.5355406,9.247478,44.204258,37.078243,-18.085789,-36.36141,7.806532,10.33148,3.8128316,-1.8597016,-23.14989,32.799076,-14.374236,-4.6306868,9.10168,-22.957159
174,-3.523923873901367,-246.78958129882812,72.6257553100586,-5.656376057927335,2.461085323119321,-94.12225080439084,-36.40333,15.773065,1.4224,90.865654,-23.57591,1.3246125,-5.1708426,10.1220455,-3.6714296,38.407185,-32.099106,-3.5666378,2.1070426,7.0120325,8.723277,44.81038,37.148575,-17.783245,-37.468613,7.204567,9.759287,3.3098977,-2.1116126,-23.378338,32.815964,-15.23548,-5.1259813,7.958775,-21.323112
175,-3.4977574348449707,-248.26986694335938,72.96785736083984,-5.111123372017669,2.81242202401245,-94.09635262139031,-37.626495,15.407022,2.5059543,87.51785,-23.012339,1.6471301,-3.5008552,9.425593,-3.2038233,36.860485,-31.390772,-3.2145042,2.9652715,6.4480243,8.189387,45.29969,37.22503,-17.541311,-38.463577,6.607198,9.206261,2.7959874,-2.2454946,-23.635025,32.832577,-16.092653,-5.6713214,6.7844396,-19.696201
176,-3.4560248851776123,-249.76657104492188,73.34202575683594,-4.566580895135001,3.13680175270986,-93.98308543762116,-38.541054,14.937118,3.6127033,83.75931,-22.313114,1.9407936,-1.8254616,8.697543,-2.861396,35.324345,-30.423132,-2.8656104,3.7333722,5.877741,7.700237,45.68761,37.2906,-17.3663,-39.313705,6.1290545,8.739611,2.367562,-2.2843478,-23.911293,32.91908,-16.899132,-6.2073793,5.72842,-18.285345
177,-3.4143784046173096,-251.27305603027344,73.74296569824219,-4.016377997595764,3.4271315169108147,-93.74644563688061,-39.145737,14.353778,4.7457466,79.5442,-21.45356,2.282081,-0.11047627,7.930808,-2.6675706,33.766838,-29.16199,-2.5299864,4.368554,5.299583,7.2685385,45.954178,37.329742,-17.265081,-39.985138,5.7606397,8.36535,2.0369232,-2.242477,-24.201109,33.11059,-17.633322,-6.771506,4.813236,-17.139488
178,-3.3734853267669678,-252.79766845703125,74.1594467163086,-3.44995333465236,3.700925824925626,-93.40349379125541,-39.462593,13.641296,5.9376836,74.86835,-20.449018,2.642988,1.6340829,7.1193995,-2.593999,32.17631,-27.63165,-2.1948283,4.8830023,4.7073693,6.862227,46.089725,37.335896,-17.230972,-40.485626,5.459877,8.048979,1.7537423,-2.1278965,-24.502754,33.378872,-18.298784,-7.390782,3.9657917,-16.14706
179,-3.3138554096221924,-254.33712768554688,74.57831573486328,-2.89500963733493,3.9549154741884935,-93.01854637795914,-39.48004,12.789565,7.1324987,69.797874,-19.337772,2.857607,3.3510911,6.3125334,-2.6032746,30.653423,-25.90895,-1.8574147,5.3354445,4.1296406,6.4676623,46.149708,37.304993,-17.251635,-40.862457,5.3079076,7.792812,1.5248009,-1.9240509,-24.810524,33.69432,-18.908869,-8.012503,3.1983116,-15.270396
180,-3.2580137252807617,-255.90257263183594,74.99494171142578,-2.379536796553669,4.186815705962744,-92.66001424890345,-39.19342,11.810728,8.256902,64.3711,-18.14278,2.7782686,4.9844756,5.557241,-2.6521642,29.291037,-24.06273,-1.5126456,5.7855787,3.5905278,6.072185,46.17508,37.236843,-17.309055,-41.150547,5.3731046,7.5991144,1.3569031,-1.6212462,-25.11692,34.03045,-19.470673,-8.582463,2.524578,-14.470401
181,-3.1993682384490967,-257.4846496582031,75.39302825927734,-1.8849225398265648,4.399051598389844,-92.31523709021269,-38.55614,10.69751,9.291843,58.39038,-16.774467,2.4203587,6.574935,4.8387747,-2.751426,28.00728,-22.0065,-1.1248873,6.2285495,3.070991,5.672899,46.162945,37.13253,-17.41042,-41.335747,5.7254214,7.477992,1.2656633,-1.1885947,-25.415068,34.38192,-19.992886,-9.1361685,1.9691741,-13.747662
182,-3.1384408473968506,-259.0833740234375,75.76998138427734,-1.4152140579081758,4.586983236718684,-91.96012834091913,-37.579464,9.464036,10.225605,51.834126,-15.218192,1.8678114,8.144488,4.159308,-2.9050753,26.785131,-19.73531,-0.70313627,6.639164,2.575097,5.2767243,46.10247,36.992573,-17.55682,-41.411224,6.312414,7.4245963,1.2439599,-0.64735365,-25.70391,34.76216,-20.460484,-9.694081,1.5203514,-13.114139
183,-3.0773446559906006,-260.69500732421875,76.11382293701172,-1.0321169517692155,4.73963243514407,-91.65502895406219,-36.34505,8.195214,10.986306,44.99194,-13.602079,1.0995083,9.6280575,3.589558,-3.0504475,25.770803,-17.419672,-0.3119331,7.0550413,2.159405,4.886836,46.023716,36.817413,-17.718454,-41.420174,7.0165777,7.4188604,1.2636242,-0.04778575,-25.984022,35.173042,-20.856487,-10.1839,1.1388738,-12.548279
184,-3.0183088779449463,-262.32763671875,76.41693115234375,-0.7987012545653357,4.846495743296061,-91.46373936877293,-34.93366,7.0025663,11.5101385,38.14985,-12.056291,0.10860535,10.9536915,3.1970727,-3.1273856,25.115095,-15.220614,-0.021085326,7.5162582,1.8806406,4.507206,45.954323,36.608547,-17.862135,-41.403378,7.7163043,7.4402776,1.2962236,0.5543878,-26.25733,35.618435,-21.16499,-10.528724,0.78672194,-12.028515
185,-2.960770845413208,-263.97833251953125,76.67384338378906,-0.7982683198694821,4.883975941379755,-91.43869841423718,-33.19984,5.9638906,11.749862,30.967247,-10.52229,-1.2929592,12.171154,3.0748997,-3.0849671,24.749973,-13.074587,0.04512613,8.074895,1.819798,4.131391,45.952435,36.36793,-17.976189,-41.38826,8.467224,7.5037804,1.3307161,1.1761109,-26.526726,36.107548,-21.38095,-10.711382,0.47494364,-11.536899
186,-2.912198781967163,-265.6400451660156,76.8791275024414,-1.0540816226762062,4.8309164919800685,-91.5814009119996,-31.035978,5.1868095,11.712025,23.234512,-8.897982,-2.9692767,13.366985,3.2395632,-2.9242656,24.540098,-10.870903,-0.06244181,8.739932,2.0048182,3.7766697,46.001606,36.096886,-18.070213,-41.36352,9.30141,7.6150227,1.3808675,1.8398211,-26.79649,36.635437,-21.520721,-10.774585,0.22167307,-11.0841675
187,-2.8737313747406006,-267.296875,77.01297760009766,-1.5421840479889628,4.682368007524659,-91.87938174522364,-28.651365,4.814115,11.462856,15.603687,-7.302786,-4.4921165,14.535057,3.6485941,-2.6564884,24.500225,-8.680292,-0.15956786,9.492838,2.4201949,3.4775753,46.04768,35.79424,-18.150145,-41.342846,10.080527,7.738829,1.4578161,2.5018368,-27.071358,37.181896,-21.601067,-10.72862,0.00013678892,-10.691955
188,-2.8480591773986816,-268.94793701171875,77.08634185791016,-2.1140679027352793,4.490251370886085,-92.25386895709315,-26.30102,4.7473006,11.138055,8.688928,-5.786268,-5.4881506,15.553257,4.125716,-2.3526523,24.782024,-6.654315,-0.036361292,10.251742,2.9207363,3.2357512,46.023693,35.45661,-18.226398,-41.32436,10.669382,7.838457,1.57471,3.114288,-27.350712,37.730957,-21.63472,-10.583028,-0.21866222,-10.386326
189,-2.830044984817505,-270.5726013183594,77.12931060791016,-2.5814483984435923,4.36350828255016,-92.63294129424013,-26.217192,5.107598,10.587128,7.0464272,-6.7563615,-5.7653713,16.169865,4.4591856,-2.0930014,25.68289,-4.8861184,0.42102447,10.946855,3.3016627,2.9786425,45.887268,35.076218,-18.296463,-41.272194,11.041918,7.91166,1.7312639,3.642208,-27.626936,38.316597,-21.60575,-10.284405,-0.4283611,-10.18978
190,-2.800474166870117,-272.16180419921875,77.15174865722656,-2.908619295673346,4.317472338873104,-92.98719196247626,-26.72204,5.4213843,9.930669,6.9164133,-8.326499,-5.5670443,16.359737,4.6119933,-1.9149384,27.236248,-3.3881369,1.095775,11.549664,3.521411,2.6894405,45.65776,34.64814,-18.36066,-41.16663,11.269532,7.973314,1.9223604,4.0988097,-27.889757,38.94677,-21.492655,-9.846762,-0.61983705,-10.086872
191,-2.7587459087371826,-273.7235412597656,77.14297485351562,-3.01167384676204,4.321573944683463,-93.2357056815357,-27.06436,5.424657,9.352853,6.7933626,-9.552166,-5.2096806,16.225594,4.4922867,-1.895551,29.338816,-2.2803807,1.8962365,12.0141325,3.4875507,2.4366322,45.334354,34.265495,-18.433277,-41.028282,11.32074,8.0153475,2.1791713,4.5174537,-28.082146,39.529697,-21.281593,-9.38481,-0.82460546,-10.043845
192,-2.7247262001037598,-275.2679138183594,77.08352661132812,-2.9845023385547873,4.312349244736533,-93.34858787169986,-27.204102,5.222312,8.908905,6.7574363,-10.317336,-5.0482497,15.968406,4.209749,-2.0565696,31.734516,-1.5877126,2.7054439,12.299901,3.3208246,2.2868862,44.914604,33.92105,-18.52279,-40.85384,11.19363,8.025369,2.5052369,4.928524,-28.21775,40.016132,-20.999481,-9.001429,-1.0675097,-10.03633
193,-2.7112274169921875,-276.79248046875,76.95811462402344,-2.8033773077727013,4.279709518020041,-93.32095215722114,-27.051573,4.779464,8.663788,6.7513247,-10.659631,-5.2387385,15.62497,3.767711,-2.3926594,34.41248,-1.3085344,3.6434011,12.389959,3.005522,2.2624762,44.40071,33.60674,-18.625341,-40.65434,10.82217,7.982289,2.9334333,5.330664,-28.30892,40.405056,-20.668814,-8.677099,-1.3784467,-10.044492
194,-2.7160658836364746,-278.2917175292969,76.7668228149414,-2.497519000744214,4.244524969577265,-93.17939425959563,-26.657013,4.1432757,8.532209,6.7923822,-10.630594,-5.5953174,15.1329155,3.176531,-2.8870072,37.44583,-1.4081963,4.705418,12.250521,2.6085613,2.3182921,43.723606,33.146755,-18.762365,-40.307137,10.285998,7.889183,3.413751,5.658545,-28.398909,40.80148,-20.254932,-8.36288,-1.7296706,-10.099433
195,-2.7296409606933594,-279.7727966308594,76.5490951538086,-2.0052035502992314,4.206704162741198,-92.90659127087127,-26.062395,3.2741368,8.466803,6.8073664,-10.015909,-5.897786,14.481657,2.2935739,-3.5732496,40.848553,-1.9609506,5.653841,11.932827,2.0348036,2.4651058,42.920414,32.665012,-18.916111,-39.868763,9.683872,7.7796817,3.8984437,5.9742055,-28.448294,41.12611,-19.75965,-8.132962,-2.0775583,-10.221085
196,-2.7044897079467773,-281.1834716796875,76.367919921875,-1.2844612799229291,4.16639721360231,-92.49088391976741,-25.35916,2.145304,8.412405,6.789849,-8.638734,-5.9369655,13.694442,1.0055704,-4.463329,44.573208,-3.0057397,6.257768,11.460409,1.2269988,2.7015295,42.015457,32.22449,-19.0855,-39.3612,9.132077,7.690626,4.3389196,6.314937,-28.450127,41.3546,-19.179762,-8.05497,-2.372288,-10.4526415
197,-2.6919825077056885,-282.5898742675781,76.12178802490234,-0.34825930303016134,4.100014872083544,-91.91046591903574,-24.566545,0.76958805,8.345175,6.8340216,-6.0002127,-5.7996964,12.865226,-0.6784441,-5.5885572,48.596302,-4.7159967,6.4365435,10.713771,0.2732039,3.0005417,40.807922,31.492456,-19.34488,-38.472702,8.6998205,7.5855446,4.679198,6.543773,-28.37997,41.609272,-18.369255,-8.195153,-2.5970268,-10.799122
198,-2.6951844692230225,-284.0033874511719,75.81684875488281,0.8614652106553833,3.998458621413519,-91.18721941113822,-23.626059,-0.9385801,8.339444,6.866922,-2.3214746,-5.5786333,12.023409,-2.7833045,-6.871386,52.91831,-7.00828,6.3633323,9.8066225,-0.98050207,3.393696,39.537537,30.826668,-19.586843,-37.551548,8.220707,7.4652886,5.016045,6.781611,-28.233227,41.781933,-17.471867,-8.500796,-2.7829082,-11.248215
199,-2.694288969039917,-285.40386962890625,75.46257019042969,2.157307204503311,3.846476685407014,-90.42356412595844,-23.878222,-2.5804303,8.390904,9.6049,-0.054612707,-5.1368594,11.181531,-5.0910983,-8.148978,57.35491,-9.418968,6.1089087,8.854359,-2.335213,3.8471982,38.19508,30.212992,-19.833206,-36.60828,7.8255515,7.4107985,5.2998304,7.040566,-28.012989,41.84693,-16.45471,-8.877302,-2.9244072,-11.784878
200,-2.6857638359069824,-286.7908020019531,75.0442123413086,3.3560175487567623,3.647125083997757,-89.71168391325419,-25.242939,-3.9453266,8.52129,14.742505,-0.05420123,-4.2698054,10.307769,-7.4041986,-9.286734,61.745617,-11.50329,5.72734,7.952114,-3.598331,4.335569,36.784664,29.64126,-20.081625,-35.664845,7.635751,7.502609,5.477904,7.3278046,-27.729137,41.78559,-15.295416,-9.226214,-3.0183184,-12.395212
201,-2.6693577766418457,-288.1385498046875,74.59757995605469,4.441698335754803,3.400488875153132,-89.02166793941073,-26.75257,-5.18962,8.611744,20.17509,-1.4755536,-2.585841,9.3922205,-9.785058,-10.358079,66.17711,-13.16349,5.180708,7.0900774,-4.7588015,4.884892,35.287735,29.099388,-20.325079,-34.721226,7.7460403,7.788138,5.488942,7.6572094,-27.387793,41.564354,-13.9962845,-9.530936,-3.1093278,-13.056678
202,-2.637514591217041,-289.447509765625,74.13199615478516,5.412019036769483,3.09072558454612,-88.3475736031346,-28.430716,-6.3121147,8.629621,26.084867,-3.8709714,-0.29747778,8.481614,-12.206687,-11.385649,70.66932,-14.621868,4.4243593,6.255066,-5.8154545,5.506446,33.69359,28.577843,-20.58119,-33.75664,8.074972,8.217449,5.374308,8.021426,-26.995363,41.19894,-12.573778,-9.83798,-3.182919,-13.78127
203,-2.6168694496154785,-290.77032470703125,73.661865234375,6.242108175490046,2.746304113522175,-87.764681443948,-29.850557,-7.302609,8.603925,31.596668,-6.5887456,1.9707167,7.520102,-14.503725,-12.195785,75.05289,-15.962568,3.5280325,5.4842978,-6.731524,6.141707,32.00425,28.074017,-20.876402,-32.74742,8.472779,8.724292,5.237403,8.402405,-26.56184,40.74679,-11.037932,-10.143679,-3.1485631,-14.610091
204,-2.591543674468994,-292.0975341796875,73.21621704101562,6.959749651012801,2.410710834620306,-87.33018629919987,-30.656492,-8.168907,8.639556,35.954773,-9.038783,3.6022215,6.4065385,-16.556482,-12.618723,79.17675,-17.273401,2.5890265,4.7935967,-7.5189714,6.7255354,30.227913,27.590544,-21.22915,-31.675865,8.784767,9.243298,5.1845384,8.787246,-26.09671,40.26573,-9.398095,-10.440446,-2.917248,-15.585154
205,-2.5761830806732178,-293.4208984375,72.80487060546875,7.622951891789626,2.1110414352739233,-87.03049076968448,-30.770857,-8.931812,8.822725,39.000824,-11.2448845,4.3792424,5.0526853,-18.423552,-12.609415,83.11039,-18.59658,1.5589964,4.1723347,-8.223204,7.2579064,28.300917,27.123125,-21.6777,-30.454319,8.968012,9.823486,5.26928,9.202541,-25.591425,39.704266,-7.5515223,-10.710882,-2.4821892,-16.659681
206,-2.5593156814575195,-294.72064208984375,72.42308807373047,8.26030668184675,1.8416419401059738,-86.82173905502734,-30.450754,-9.63213,9.106061,41.24201,-13.526999,4.664507,3.4624295,-20.185457,-12.254039,86.93076,-19.890526,0.433921,3.5948193,-8.881466,7.759564,26.235811,26.665253,-22.19837,-29.114452,9.099105,10.477945,5.4288607,9.647221,-25.0418,39.04991,-5.525802,-10.9560375,-1.8851842,-17.826813
207,-2.5299975872039795,-295.989990234375,72.08468627929688,8.841741783111853,1.5953314037004531,-86.71715960437263,-29.849916,-10.253564,9.424702,42.96206,-15.763688,4.715041,1.6615832,-21.73508,-11.593423,90.49255,-21.101835,-0.6214029,3.050696,-9.477022,8.1973915,24.179619,26.22229,-22.713652,-27.834429,9.212748,11.088257,5.5954113,10.068283,-24.474985,38.424854,-3.5300956,-11.190088,-1.1072874,-19.193047
208,-2.5034263134002686,-297.26568603515625,71.81434631347656,9.334215469743631,1.3624001681772262,-86.73042423382293,-29.113014,-10.778733,9.699685,44.424618,-17.81967,4.7820067,-0.32101905,-22.969093,-10.683108,93.65774,-22.17842,-1.4454153,2.5267818,-9.988019,8.544618,22.285326,25.809402,-23.145039,-26.80056,9.347644,11.534683,5.697991,10.4295025,-23.938457,37.955605,-1.8048612,-11.41691,-0.12720884,-20.873224
209,-2.473334550857544,-298.5472412109375,71.6009521484375,9.744956251123032,1.1323878785751327,-86.94793390171915,-28.189537,-11.172944,9.966836,45.603256,-19.6793,4.884425,-2.5585387,-23.840517,-9.390645,96.44454,-23.09596,-2.0046465,2.0798445,-10.41747,8.831102,20.557032,25.435287,-23.487705,-26.050365,9.512973,11.775855,5.7393317,10.712624,-23.472794,37.71618,-0.39930528,-11.83985,1.2402216,-23.13927
210,-2.4349422454833984,-299.8196716308594,71.44234466552734,10.088401431605936,0.916812454966537,-87.33445271887835,-27.027916,-11.441011,10.245669,46.395462,-21.412178,4.899425,-5.05567,-24.38336,-7.7580724,98.91749,-23.872229,-2.3821852,1.6902254,-10.766965,9.072915,18.939774,25.101934,-23.771145,-25.514412,9.689217,11.876753,5.7481866,10.967805,-23.090912,37.63091,0.7526392,-12.328388,2.9409616,-25.85249
211,-2.3959827423095703,-301.093994140625,71.3241195678711,10.338119999005983,0.7359656871070127,-87.72468008017523,-25.75461,-11.628417,10.426256,46.927113,-23.004421,4.862778,-7.6607065,-24.64619,-6.1144614,100.9989,-24.518476,-2.597617,1.2429671,-11.01147,9.222459,17.469643,24.824036,-23.986544,-25.198807,9.867283,11.878039,5.693015,11.265076,-22.800373,37.592136,1.5852985,-12.419782,4.600325,-28.532793
212,-2.3726933002471924,-302.362548828125,71.255859375,10.467385847927972,0.6076431961499021,-87.95271444202714,-24.498558,-11.780446,10.400666,47.324783,-24.442547,4.8148155,-10.224055,-24.709242,-4.785002,102.60867,-25.047657,-2.674574,0.62493473,-11.12923,9.232036,16.186243,24.625784,-24.130318,-25.116869,10.033761,11.820559,5.543515,11.678118,-22.606417,37.48587,2.0298154,-11.711969,5.802545,-30.721598
213,-2.366837978363037,-303.6385803222656,71.23872375488281,10.452753558194834,0.5314333167441735,-87.9587217946308,-23.288416,-11.903807,10.121765,47.61704,-25.742659,4.763304,-12.731507,-24.578554,-3.8664367,103.72488,-25.459661,-2.575368,-0.21302174,-11.096203,9.087275,15.098752,24.53595,-24.196012,-25.344429,10.218653,11.702002,5.2508183,12.271009,-22.519089,37.284203,1.9414713,-9.861948,6.4047017,-32.395042
214,-2.3792049884796143,-304.9008483886719,71.26033020019531,10.315556161093694,0.4966197535405488,-87.83455557871045,-22.057526,-11.971564,9.65938,47.738194,-26.905758,4.6859937,-15.243572,-24.251148,-3.203377,104.390366,-25.746765,-2.3097851,-1.2114127,-10.932421,8.825146,14.207172,24.559614,-24.184162,-25.881641,10.408741,11.503792,4.8446584,12.9941435,-22.535591,37.051723,1.3865291,-7.2028275,6.589228,-33.77433
215,-2.408724546432495,-306.1866149902344,71.33492279052734,10.097492159822524,0.5055298265619774,-87.64201969406193,-20.796429,-11.975924,9.081759,47.679665,-27.898766,4.584234,-17.730955,-23.813528,-2.7346165,104.619736,-25.912073,-1.9781715,-2.249539,-10.674473,8.492139,13.464107,24.70586,-24.187618,-26.588299,10.513806,11.248909,4.4368043,13.845353,-22.672096,36.7208,0.5237527,-4.3876047,6.455192,-34.741524
216,-2.457634210586548,-307.4634094238281,71.4525375366211,9.839858204867278,0.5602518886646526,-87.44308468684248,-19.492933,-11.91736,8.457559,47.428925,-28.686779,4.46184,-20.162659,-23.341997,-2.3951392,104.426,-25.959303,-1.6812149,-3.3008049,-10.367912,8.10477,12.907036,24.943375,-24.183855,-27.353638,10.465875,10.955395,4.107477,14.689371,-22.900166,36.348293,-0.3607352,-2.0526195,6.143852,-35.206093
217,-2.4997026920318604,-308.7543640136719,71.6235122680664,9.528654621270285,0.6810758366493844,-87.21045421045821,-18.17758,-11.791578,7.760083,47.00493,-29.282791,4.3403006,-22.565971,-22.840107,-2.2126708,103.79712,-25.883343,-1.4195743,-4.3911824,-9.994102,7.6272464,12.531363,25.264305,-24.188784,-28.160284,10.178496,10.604911,3.8900812,15.510433,-23.213486,35.934742,-1.2449565,-0.22426276,5.66651,-35.048584
218,-2.5341439247131348,-310.06475830078125,71.85032653808594,9.150499947129973,0.8601209463597087,-86.92538500666383,-16.847002,-11.600285,6.972129,46.40988,-29.701155,4.2140656,-24.930683,-22.29104,-2.2085302,102.72212,-25.69091,-1.1464214,-5.540153,-9.532136,7.0654945,12.334012,25.668955,-24.182896,-29.060572,9.719116,10.195962,3.7284737,16.348917,-23.607777,35.47862,-2.2316363,1.3950121,5.0127406,-34.33526
219,-2.572660446166992,-311.38824462890625,72.12705993652344,8.747688009308531,1.0568558053880506,-86.6633731444005,-15.438713,-11.351736,6.175919,45.60625,-29.906668,4.047908,-27.1714,-21.715355,-2.3077667,101.21788,-25.40078,-0.8901875,-6.6574373,-9.021959,6.5014124,12.294199,26.142675,-24.160702,-30.00295,9.250901,9.775318,3.5860136,17.206797,-24.062775,34.96438,-3.2550771,2.6527143,4.285093,-33.261833
220,-2.6150131225585938,-312.7182922363281,72.4497299194336,8.359028510801892,1.2302097270941754,-86.49951630241237,-13.889656,-11.05312,5.453139,44.55517,-29.86394,3.80584,-29.201971,-21.126524,-2.436335,99.30291,-25.032549,-0.67714953,-7.6540737,-8.507979,6.005756,12.378277,26.660126,-24.121141,-30.918594,8.939441,9.389681,3.4267428,18.076872,-24.54643,34.379234,-4.228734,3.3859837,3.5634108,-32.033173
221,-2.6675381660461426,-314.05792236328125,72.82191467285156,7.990351439128708,1.382892652195791,-86.45437946225556,-12.163046,-10.701366,4.8127794,43.182636,-29.563946,3.4539459,-31.028229,-20.52729,-2.6001606,96.963646,-24.601833,-0.53057706,-8.51408,-7.9969983,5.567035,12.572273,27.206873,-24.064287,-31.7731,8.800201,9.030972,3.2473645,18.932734,-25.034412,33.71188,-5.0796914,3.4985654,2.7512662,-30.588745
222,-2.730344533920288,-315.40838623046875,73.2301254272461,7.6198636189855975,1.532200012583372,-86.48808410075121,-10.302117,-10.290991,4.2173543,41.53394,-29.028538,3.0215683,-32.6666,-19.899126,-2.840568,94.190346,-24.105848,-0.42203277,-9.283078,-7.468652,5.1440487,12.879023,27.779026,-23.992434,-32.576485,8.761818,8.680463,3.0624628,19.765657,-25.516241,32.9819,-5.8214355,3.102442,1.8197062,-28.873446
223,-2.7988524436950684,-316.7688293457031,73.67371368408203,7.246632139252283,1.6582065386452212,-86.5852621019933,-8.361193,-9.834882,3.6788707,39.749577,-28.269379,2.56847,-34.051945,-19.216629,-3.1322434,91.00817,-23.536415,-0.30143657,-9.966897,-6.931773,4.75815,13.289034,28.362352,-23.910767,-33.323128,8.863957,8.368094,2.8646996,20.575197,-25.981659,32.224594,-6.4796066,2.3338854,0.9364429,-27.103899
224,-2.8759560585021973,-318.1512451171875,74.14057159423828,6.870626522332082,1.7409447040546946,-86.73056122472973,-6.3926897,-9.3479,3.2087424,37.972164,-27.299774,2.1546142,-35.126247,-18.461626,-3.43948,87.438126,-22.882181,-0.121895015,-10.572398,-6.394773,4.430311,13.786946,28.935104,-23.824717,-34.002945,9.147943,8.12319,2.6450036,21.363308,-26.419353,31.473114,-7.084538,1.3106759,0.27914637,-25.488888
225,-2.963955879211426,-319.5327453613281,74.61576843261719,6.487296761859558,1.7478938695410502,-86.96085918985221,-4.304315,-8.825862,2.8289356,36.111202,-26.062784,1.8098605,-35.85083,-17.570433,-3.7148309,83.440475,-22.1234,0.09937487,-11.069444,-5.8583565,4.1903505,14.3912945,29.475447,-23.722824,-34.59877,9.697231,7.955803,2.387207,22.103537,-26.818674,30.72126,-7.5955706,-0.08981529,-0.12862553,-24.015512
226,-3.0422708988189697,-320.924072265625,75.10296630859375,6.101933257472904,1.6972766924759004,-87.2714503205235,-2.1031427,-8.271164,2.5300317,34.143402,-24.579075,1.500741,-36.258404,-16.571453,-3.974266,79.011925,-21.27573,0.3493957,-11.465303,-5.3229823,4.008415,15.081728,29.975466,-23.61385,-35.088795,10.474505,7.8465676,2.0955408,22.787806,-27.175608,29.961317,-7.9845223,-1.8974711,-0.39899132,-22.596153
227,-3.1233294010162354,-322.3251037597656,75.5886459350586,5.728573335741368,1.645797490479796,-87.58430710403465,0.012813996,-7.7121525,2.2717981,32.303593,-22.97191,1.1880987,-36.404316,-15.583486,-4.282702,74.21097,-20.375444,0.673352,-11.822084,-4.793118,3.8188212,15.785946,30.439047,-23.533,-35.454765,11.337418,7.781314,1.7918282,23.444244,-27.49073,29.221434,-8.309021,-3.8616662,-0.53317475,-21.313025
228,-3.2044057846069336,-323.7469177246094,76.05514526367188,5.377880434022401,1.6517239339309069,-87.82113425100962,1.8478886,-7.175354,2.0068417,30.820015,-21.361078,0.8288221,-36.346416,-14.715447,-4.715102,69.07524,-19.447538,1.1240691,-12.201027,-4.2693806,3.5608509,16.442263,30.878403,-23.513111,-35.69292,12.144159,7.747659,1.498814,24.096815,-27.768822,28.528214,-8.629241,-5.7278495,-0.51378673,-20.244421
229,-3.2946996688842773,-325.1781921386719,76.4992446899414,5.024716461904116,1.7391507596698919,-87.98631163509198,3.3955317,-6.641454,1.7373827,29.63998,-19.667244,0.3871561,-36.04599,-13.94897,-5.3398004,63.42891,-18.44301,1.7727385,-12.598202,-3.7245238,3.2148397,17.06413,31.298634,-23.55076,-35.794456,12.889166,7.753796,1.2075021,24.74383,-28.010866,27.894236,-8.954147,-7.580042,-0.25108266,-19.419134
230,-3.3835577964782715,-326.60101318359375,76.90201568603516,4.67284434982949,1.8730342793234722,-88.11194498447625,4.7565403,-6.1131973,1.4705306,28.66755,-17.858864,-0.11435466,-35.471813,-13.208107,-6.1095376,57.249043,-17.328527,2.5942926,-12.988036,-3.1678445,2.8179383,17.680786,31.700392,-23.630253,-35.77401,13.6365795,7.802618,0.9098021,25.366726,-28.216084,27.304129,-9.253216,-9.508883,0.23162603,-18.773546
231,-3.478799819946289,-328.0121154785156,77.25237274169922,4.3738788321034,2.0246009371313636,-88.15958954061773,5.898447,-5.6487246,1.1633172,28.04919,-16.115318,-0.6331047,-34.70056,-12.527116,-6.9313164,50.785297,-16.14797,3.4833796,-13.401112,-2.6518037,2.396643,18.25907,32.094864,-23.764572,-35.669037,14.348399,7.876169,0.6315947,25.976406,-28.390583,26.739597,-9.541754,-11.267602,0.7958477,-18.254732
232,-3.584995746612549,-329.41644287109375,77.54103088378906,4.179350618157469,2.165632674667501,-88.08894589117448,6.786137,-5.305687,0.7764484,27.930086,-14.613375,-1.1236434,-33.825424,-11.971786,-7.7081866,44.307514,-14.960644,4.312811,-13.870388,-2.2285502,1.9786435,18.77045,32.49944,-23.963987,-35.52362,14.982804,7.95784,0.40192336,26.64042,-28.54246,26.172205,-9.888336,-12.626006,1.3040882,-17.82271
233,-3.690244197845459,-330.8177795410156,77.75472259521484,4.107779942466424,2.315733416426863,-87.86139342246945,7.3534136,-5.119097,0.23888075,28.382154,-13.3982935,-1.5421817,-32.804928,-11.601965,-8.455923,37.59701,-13.732245,5.0410028,-14.434566,-1.9056177,1.5416965,19.21551,32.93032,-24.248358,-35.335495,15.507973,8.052163,0.26107004,27.333147,-28.679184,25.594236,-10.278858,-13.531268,1.7736113,-17.48514
234,-3.781520128250122,-332.2195739746094,77.89501953125,4.153770696994589,2.4662051431790357,-87.48892117133802,7.667593,-5.08256,-0.42412108,29.28129,-12.3540945,-1.9215714,-31.553549,-11.407963,-9.222868,30.470804,-12.386526,5.7295747,-15.085089,-1.6825842,1.0910287,19.629984,33.39417,-24.597198,-35.113346,15.949349,8.168009,0.18614747,28.07256,-28.800564,25.010378,-10.734626,-14.109294,2.2727203,-17.26302
235,-3.86307692527771,-333.6214294433594,77.96100616455078,4.344477040360236,2.5394585624315185,-86.99881523231379,7.9070363,-5.2033057,-1.111569,30.450068,-11.391638,-2.3243394,-30.111143,-11.3979645,-9.954402,23.297152,-10.942941,6.3927436,-15.787375,-1.6151446,0.69873166,20.025156,33.895317,-24.966902,-34.918488,16.349596,8.294689,0.11114755,28.82969,-28.908262,24.42721,-11.236509,-14.320842,2.7385702,-17.149038
236,-3.9401094913482666,-335.0217590332031,77.95201873779297,4.709005624105707,2.457068410321397,-86.42038206547454,8.24403,-5.4899735,-1.7224796,31.726603,-10.432297,-2.8113446,-28.568125,-11.601147,-10.587674,16.569092,-9.47942,7.0437784,-16.515078,-1.7652674,0.43110046,20.418686,34.435963,-25.306879,-34.811825,16.751652,8.420039,-0.03102041,29.678957,-29.001156,23.846466,-11.857076,-14.173371,3.106853,-17.13639
237,-4.012049198150635,-336.40765380859375,77.87354278564453,5.2742270298468465,2.2058690376768038,-85.73123953210475,8.660872,-5.9852824,-2.276709,33.167282,-9.478796,-3.3725183,-26.946905,-12.087291,-11.186909,10.3266535,-8.009568,7.6106753,-17.281841,-2.1615963,0.295975,20.783384,35.023674,-25.63195,-34.811966,17.163773,8.551076,-0.2767022,30.521408,-29.085949,23.266478,-12.510791,-13.480982,3.3319752,-17.262886
238,-4.091115474700928,-337.8059997558594,77.7344970703125,5.973537981468083,1.838068166291123,-84.95015414601532,9.039673,-6.6199245,-2.7925599,34.898945,-8.606157,-3.992233,-26.562288,-13.053006,-11.502822,7.165658,-7.9895296,8.092367,-18.081629,-2.7258067,0.2466791,21.130894,35.659912,-25.951834,-34.892,17.561285,8.6895275,-0.58160424,31.447521,-29.161993,22.679722,-13.275978,-12.339032,3.454194,-17.523504
239,-4.175625324249268,-339.18756103515625,77.55081176757812,6.651003681283969,1.4083162917510434,-84.19504910620739,9.36464,-7.180295,-3.1457586,36.87869,-7.856208,-4.7252674,-27.370363,-14.254304,-11.399352,6.960542,-9.308209,8.591036,-18.80027,-3.3072686,0.2665531,21.49051,36.331356,-26.243732,-35.033867,17.938616,8.814929,-0.8894777,32.362164,-29.228628,22.115303,-14.064382,-10.9794235,3.535431,-17.847979
