unveil-humanoid-operators/unveil-humanoid-operators.github.io/feature-analysis-animation/data/feature_matrix_instances/height_root_translate_rom_jogging_A067_exercise_2_002__A067.csv
Frame,root_translateX,root_translateY,root_translateZ,root_rotateX,root_rotateY,root_rotateZ,left_hip_pitch_joint_dof,left_hip_roll_joint_dof,left_hip_yaw_joint_dof,left_knee_joint_dof,left_ankle_pitch_joint_dof,left_ankle_roll_joint_dof,right_hip_pitch_joint_dof,right_hip_roll_joint_dof,right_hip_yaw_joint_dof,right_knee_joint_dof,right_ankle_pitch_joint_dof,right_ankle_roll_joint_dof,waist_yaw_joint_dof,waist_roll_joint_dof,waist_pitch_joint_dof,left_shoulder_pitch_joint_dof,left_shoulder_roll_joint_dof,left_shoulder_yaw_joint_dof,left_elbow_joint_dof,left_wrist_roll_joint_dof,left_wrist_pitch_joint_dof,left_wrist_yaw_joint_dof,right_shoulder_pitch_joint_dof,right_shoulder_roll_joint_dof,right_shoulder_yaw_joint_dof,right_elbow_joint_dof,right_wrist_roll_joint_dof,right_wrist_pitch_joint_dof,right_wrist_yaw_joint_dof
0,0.1966181844472885,1.867574691772461,78.84822845458984,-1.0475247620258816,2.174298324188191,-92.87409575957864,-7.9209332,1.5641536,5.4774823,19.734295,-12.260973,-1.2577653,-6.346811,0.1343932,-8.76987,12.4068365,-8.723162,1.1804457,-2.906744,-0.35714328,-0.45909786,14.208988,13.879976,-10.502029,45.715748,23.21927,7.0353928,11.3916235,14.201301,-9.118173,17.863268,52.415386,-31.02239,9.520096,-21.233677
1,0.19986297190189362,1.867241621017456,78.84779357910156,-1.0468185659731208,2.1718553631768387,-92.88466539450836,-7.9056644,1.563469,5.492288,19.719257,-12.267181,-1.2613755,-6.3247223,0.13618127,-8.770351,12.364401,-8.712517,1.1992644,-2.8761702,-0.37049493,-0.4432639,14.149928,13.89054,-10.458598,45.667435,23.127527,7.029174,11.421655,14.1419935,-9.118836,17.883461,52.29732,-30.980127,9.4773,-21.215418
2,0.2030797004699707,1.8656190633773804,78.84809112548828,-1.0454479909438619,2.168929156973942,-92.89454619073345,-7.8891797,1.5622423,5.5069003,19.703087,-12.27388,-1.2657524,-6.3005023,0.1375049,-8.77229,12.319359,-8.702303,1.2197638,-2.8636696,-0.38562086,-0.4255286,14.109309,13.9025135,-10.390461,45.60277,23.035755,7.020992,11.450285,14.074792,-9.124064,17.926521,52.18121,-30.930376,9.434361,-21.19588
3,0.2080996334552765,1.864371418952942,78.84581756591797,-1.0452508607607345,2.167015596301074,-92.90542082069163,-7.8759847,1.5622264,5.5215597,19.690538,-12.280182,-1.2686594,-6.2800913,0.1398345,-8.771679,12.278907,-8.69104,1.2368842,-2.8452275,-0.39657542,-0.40845934,14.060501,13.909086,-10.333493,45.545914,22.953007,7.013448,11.47517,14.010212,-9.130857,17.958746,52.06339,-30.88497,9.3925,-21.177807
4,0.21292534470558167,1.8626151084899902,78.84525299072266,-1.0470838499983441,2.167653247671866,-92.91835935307537,-7.8713245,1.5650029,5.5361176,19.68727,-12.285491,-1.2677898,-6.2695193,0.14393322,-8.764797,12.250832,-8.677844,1.2457577,-2.8366654,-0.4040945,-0.38770762,14.026792,13.914193,-10.271081,45.471844,22.896736,7.0040984,11.479888,13.941825,-9.141207,17.992636,51.942722,-30.842352,9.35314,-21.161997
5,0.21621116995811462,1.864456057548523,78.84760284423828,-1.052798591686424,2.1718406888020567,-92.934605586844,-7.8798413,1.5728064,5.5505185,19.699139,-12.2894945,-1.2604475,-6.2723274,0.1519424,-8.748486,12.238761,-8.659259,1.2415882,-2.8264108,-0.4055741,-0.36470172,13.996158,13.916243,-10.217284,45.39076,22.88365,6.994556,11.460907,13.872804,-9.151352,18.01045,51.818184,-30.808851,9.317099,-21.14835
6,0.22101467847824097,1.866566777229309,78.84849548339844,-1.0611786998380557,2.1784951927831213,-92.95278336798027,-7.8979063,1.5838908,5.5646014,19.72214,-12.292852,-1.2484694,-6.284519,0.16236334,-8.725652,12.238153,-8.637069,1.2282127,-2.8213212,-0.4029922,-0.33845678,13.974781,13.916146,-10.161609,45.297764,22.903126,6.9838357,11.422965,13.80134,-9.163373,18.022995,51.690075,-30.780102,9.283389,-21.135538
7,0.2276081144809723,1.8657865524291992,78.8505859375,-1.0696322289713998,2.18627340061567,-92.97181559782746,-7.9179406,1.5949941,5.5789256,19.746143,-12.295621,-1.2366823,-6.301444,0.17230648,-8.701064,12.244344,-8.617531,1.2134148,-2.8064783,-0.3996276,-0.31459522,13.9473715,13.915609,-10.130469,45.209763,22.914045,6.9752564,11.383318,13.7331705,-9.169162,18.025005,51.565304,-30.755531,9.252084,-21.129557
8,0.2345155030488968,1.8640886545181274,78.85138702392578,-1.0756441052804744,2.193693450446223,-92.99038757365884,-7.9318395,1.6028155,5.5942473,19.759947,-12.29751,-1.2298099,-6.317909,0.17877315,-8.679459,12.25099,-8.605583,1.2049078,-2.7949216,-0.3979283,-0.28886038,13.919769,13.914692,-10.101215,45.121563,22.890419,6.964186,11.345246,13.662237,-9.176823,18.032867,51.44533,-30.73187,9.219227,-21.12896
9,0.24063868820667267,1.8626611232757568,78.85188293457031,-1.0785189156030965,2.2003149120614816,-93.00758672130428,-7.9384665,1.6061316,5.6098065,19.762356,-12.300398,-1.2308534,-6.333335,0.18000959,-8.663003,12.259661,-8.6063385,1.2056637,-2.804582,-0.3969139,-0.2575685,13.910824,13.911537,-10.055843,45.011036,22.813108,6.9489765,11.308504,13.580861,-9.1963825,18.071032,51.32673,-30.700497,9.183313,-21.134075
10,0.24584631621837616,1.8632909059524536,78.85166931152344,-1.0795261655664126,2.2071620795488807,-93.0248970197039,-7.9413385,1.6067871,5.626269,19.7579,-12.3034935,-1.2367439,-6.3508444,0.17817593,-8.648289,12.272767,-8.615631,1.2111789,-2.802614,-0.39582235,-0.2295007,13.891814,13.908184,-10.038456,44.908527,22.691721,6.935856,11.278877,13.508781,-9.214079,18.104645,51.206905,-30.670645,9.147518,-21.147972
11,0.2523036301136017,1.864606499671936,78.84785461425781,-1.0793477933415587,2.214228202698814,-93.04209475073668,-7.9428196,1.6059386,5.643249,19.750298,-12.305418,-1.242867,-6.369683,0.17482693,-8.63429,12.2882395,-8.627553,1.2183802,-2.7970233,-0.39538574,-0.20211335,13.866869,13.905564,-10.036737,44.815964,22.565166,6.921466,11.247329,13.437887,-9.228278,18.133488,51.09382,-30.641254,9.113028,-21.1656
12,0.25858640670776367,1.8682218790054321,78.84573364257812,-1.0787360907266565,2.2218108091392774,-93.05868519681678,-7.9464374,1.6047549,5.660259,19.745796,-12.306723,-1.2446826,-6.388892,0.17111668,-8.620067,12.302995,-8.63555,1.2243893,-2.7954319,-0.3961021,-0.17448612,13.845324,13.90407,-10.044156,44.73033,22.468586,6.905491,11.209107,13.367292,-9.240099,18.16273,50.987106,-30.607296,9.085065,-21.184351
13,0.2648393213748932,1.8685334920883179,78.84410858154297,-1.0775884568090373,2.2304363636545284,-93.07557986180971,-7.9540586,1.6032288,5.67848,19.746864,-12.306598,-1.23984,-6.409708,0.16731596,-8.604848,12.31806,-8.638167,1.2284905,-2.7981293,-0.3961501,-0.1463145,13.824168,13.903233,-10.064907,44.65656,22.411392,6.882798,11.164717,13.300328,-9.255419,18.193449,50.881824,-30.568485,9.067554,-21.204706
14,0.26969146728515625,1.867164134979248,78.8451156616211,-1.0752762793851904,2.2396020761128916,-93.0925050017046,-7.9632053,1.6010638,5.697709,19.749737,-12.305377,-1.2312933,-6.432289,0.16248001,-8.589246,12.334661,-8.638491,1.2322555,-2.8011048,-0.39939186,-0.11602894,13.799697,13.903551,-10.093481,44.593227,22.382067,6.8545527,11.113818,13.227861,-9.260695,18.214901,50.78946,-30.536545,9.056399,-21.227833
15,0.27698782086372375,1.8679616451263428,78.8469467163086,-1.0730058955479447,2.248698045574389,-93.108280146366,-7.9714956,1.5981566,5.715897,19.75106,-12.303495,-1.2218999,-6.4539747,0.15752615,-8.574313,12.350611,-8.638651,1.2359022,-2.8034108,-0.40129998,-0.09065278,13.773836,13.905476,-10.141553,44.542454,22.354088,6.8317947,11.059621,13.161997,-9.269117,18.241993,50.70227,-30.488491,9.0447445,-21.251581
16,0.28252676129341125,1.8644534349441528,78.84705352783203,-1.071104978149808,2.256605165004948,-93.12173084094258,-7.9758196,1.5946612,5.730997,19.747383,-12.301752,-1.2147217,-6.473084,0.15255275,-8.561009,12.36635,-8.642069,1.2396275,-2.8090196,-0.40348685,-0.06495256,13.750665,13.906985,-10.180596,44.495754,22.332272,6.818657,10.989454,13.096893,-9.273813,18.262474,50.62548,-30.43337,9.019033,-21.266357
17,0.2881973087787628,1.8615955114364624,78.8476791381836,-1.069982004175956,2.2636798897421877,-93.1323569868579,-7.974523,1.5903739,5.7421575,19.73371,-12.298263,-1.2102585,-6.4884243,0.14858729,-8.549513,12.378963,-8.648433,1.2433367,-2.814485,-0.40407214,-0.044953745,13.726955,13.908648,-10.224293,44.46061,22.302425,6.824653,10.904516,13.037066,-9.278448,18.284184,50.55989,-30.354279,8.977058,-21.273352
18,0.29494577646255493,1.8604050874710083,78.846435546875,-1.0695263703934477,2.27013803270115,-93.14071873499326,-7.9705014,1.5855663,5.750377,19.715977,-12.295138,-1.2070342,-6.5015864,0.14492537,-8.539378,12.390261,-8.656784,1.2470129,-2.819674,-0.40323016,-0.02791636,13.702702,13.910701,-10.274003,44.43493,22.273106,6.843265,10.806365,12.983709,-9.284542,18.304293,50.50018,-30.259085,8.923892,-21.273907
19,0.30261391401290894,1.857359528541565,78.84727478027344,-1.068774655836466,2.2753761516262747,-93.14762254677143,-7.9634743,1.5800658,5.757184,19.695448,-12.291381,-1.2049513,-6.5117693,0.14069499,-8.530414,12.400043,-8.665366,1.250841,-2.8321762,-0.40287235,-0.009715839,13.683172,13.911121,-10.315037,44.412075,22.254816,6.861915,10.700771,12.927468,-9.286891,18.323807,50.452034,-30.162981,8.865213,-21.270395
20,0.3086020350456238,1.8555419445037842,78.84713745117188,-1.0676035195743097,2.2789877791154685,-93.15394130412649,-7.9523973,1.5735141,5.7641582,19.670841,-12.2846365,-1.2040068,-6.5186605,0.13498056,-8.522189,12.409261,-8.672968,1.2550466,-2.8454123,-0.40335572,0.0059936293,13.661017,13.910973,-10.366214,44.401314,22.240198,6.8724895,10.603972,12.875894,-9.287831,18.34306,50.41067,-30.070572,8.810268,-21.270205
21,0.31530898809432983,1.8538497686386108,78.84759521484375,-1.0653028298374425,2.2800355700672874,-93.16068060486448,-7.9401627,1.5665177,5.7722836,19.651752,-12.280956,-1.2054014,-6.5211782,0.12722388,-8.513808,12.417982,-8.678106,1.2594103,-2.864291,-0.40501982,0.023468161,13.639947,13.9105,-10.420091,44.397354,22.229652,6.867584,10.509662,12.8247385,-9.286738,18.36063,50.37786,-29.989925,8.755068,-21.27354
22,0.3216933012008667,1.8492162227630615,78.85040283203125,-1.062215513829909,2.2791617879391297,-93.16725950079868,-7.9222803,1.5583946,5.780694,19.626434,-12.274145,-1.2086793,-6.5197005,0.117812395,-8.505527,12.425105,-8.681538,1.2639195,-2.8797262,-0.40696144,0.037265494,13.612205,13.909801,-10.493379,44.41048,22.215546,6.8566184,10.420491,12.779989,-9.282434,18.374327,50.354206,-29.911177,8.699195,-21.28092
23,0.3267280161380768,1.844564437866211,78.85106658935547,-1.059286153648849,2.2777292487275314,-93.17136183522689,-7.90524,1.5497491,5.7874274,19.604126,-12.267655,-1.2115542,-6.5153594,0.10796774,-8.499631,12.4292555,-8.684601,1.2691833,-2.8924427,-0.40940288,0.04933651,13.580396,13.908812,-10.571124,44.43336,22.215494,6.8449674,10.3385,12.741847,-9.273537,18.380934,50.333958,-29.835016,8.647423,-21.28484
24,0.3319064974784851,1.8383121490478516,78.85049438476562,-1.0568579184045592,2.2772147746636966,-93.17079091312361,-7.8928885,1.5410848,5.7904763,19.58803,-12.261942,-1.2117864,-6.5088897,0.098847106,-8.498408,12.427958,-8.688146,1.2757834,-2.9118588,-0.4122749,0.06147799,13.558687,13.907321,-10.632391,44.4495,22.245163,6.838721,10.266762,12.706278,-9.265344,18.391685,50.312515,-29.754143,8.605988,-21.27947
25,0.33920982480049133,1.831754446029663,78.85184478759766,-1.0554009710265904,2.278665655040592,-93.16381180935902,-7.886521,1.5325004,5.788816,19.578213,-12.2554,-1.2084048,-6.4986057,0.09131018,-8.503874,12.415308,-8.690711,1.284353,-2.9298728,-0.41407055,0.069348484,13.53728,13.904423,-10.691761,44.470856,22.312252,6.841855,10.212188,12.680341,-9.255023,18.400066,50.2867,-29.66261,8.581401,-21.262018
26,0.3459746837615967,1.8261069059371948,78.85105895996094,-1.054777159623166,2.280963234578263,-93.15182698940053,-7.886837,1.5241882,5.7835474,19.579039,-12.251827,-1.2028707,-6.48574,0.08435059,-8.5143385,12.397036,-8.694128,1.2944078,-2.94455,-0.41534418,0.07278677,13.511778,13.898616,-10.755136,44.5037,22.407692,6.850994,10.172599,12.660542,-9.238232,18.40247,50.26467,-29.566648,8.569361,-21.237389
27,0.34959670901298523,1.8185291290283203,78.8511962890625,-1.0541344414974414,2.282948938427138,-93.1380748414374,-7.8856773,1.5149527,5.7763762,19.577143,-12.246062,-1.1959853,-6.4725204,0.07701738,-8.526483,12.379504,-8.698345,1.304896,-2.9625678,-0.41692227,0.076293185,13.492877,13.891653,-10.808088,44.532143,22.513159,6.8621817,10.140347,12.6453495,-9.221476,18.408283,50.243343,-29.473475,8.559854,-21.210413
28,0.35453101992607117,1.8119748830795288,78.85140991210938,-1.0529395592098922,2.283388704619255,-93.12542744121768,-7.8855195,1.5053163,5.7687945,19.581968,-12.245971,-1.1888491,-6.4606094,0.06846606,-8.537194,12.369012,-8.704201,1.3147972,-2.9779642,-0.41999325,0.07893769,13.475368,13.882627,-10.857733,44.55903,22.604929,6.8745785,10.115258,12.6331005,-9.203152,18.415176,50.229378,-29.393488,8.5446615,-21.1901
29,0.3589438199996948,1.8045220375061035,78.85083770751953,-1.050133638544922,2.2813829143678106,-93.11406719664635,-7.8787336,1.4930924,5.7606063,19.579632,-12.244466,-1.1813383,-6.450436,0.05719969,-8.54635,12.369314,-8.713592,1.3250369,-2.993669,-0.4255058,0.08369316,13.466829,13.87454,-10.896563,44.573685,22.681757,6.8878984,10.093993,12.629846,-9.190027,18.426262,50.212257,-29.32461,8.518894,-21.175987
30,0.3636557161808014,1.7972724437713623,78.84979248046875,-1.0464804227325972,2.2776716698349304,-93.10250939694026,-7.8692355,1.4791883,5.751176,19.57589,-12.243433,-1.1730639,-6.4403973,0.04417563,-8.555378,12.374639,-8.724839,1.3358043,-3.003557,-0.4318898,0.084001414,13.451642,13.85853,-10.938404,44.599236,22.754057,6.9058137,10.085854,12.629152,-9.167922,18.434635,50.208965,-29.266321,8.490348,-21.169827
31,0.3725886046886444,1.791662335395813,78.8492202758789,-1.0437541387601093,2.2738070762203275,-93.09163082886349,-7.860637,1.466333,5.741465,19.574785,-12.244588,-1.164399,-6.4336605,0.03153479,-8.563286,12.387622,-8.738071,1.3447154,-3.0149298,-0.4374776,0.08554185,13.443761,13.843104,-10.9724,44.616543,22.817343,6.922632,10.081582,12.631267,-9.149854,18.446924,50.206963,-29.219007,8.460989,-21.163979
32,0.37960541248321533,1.7837677001953125,78.8479995727539,-1.0433585360174564,2.271196501273707,-93.08239659034761,-7.8554378,1.4568266,5.732545,19.578558,-12.249142,-1.1557357,-6.4328947,0.021486918,-8.56897,12.409314,-8.752573,1.349482,-3.0257163,-0.4390705,0.0875466,13.439566,13.828179,-11.005945,44.62971,22.86521,6.9362426,10.081071,12.634687,-9.134576,18.463577,50.208714,-29.185263,8.435438,-21.156906
33,0.3856252133846283,1.7775622606277466,78.84609985351562,-1.0468459947936626,2.270705222627009,-93.07545465553517,-7.8552055,1.4523569,5.7245717,19.588554,-12.257792,-1.1458173,-6.440624,0.0154116275,-8.570772,12.442906,-8.768338,1.3478162,-3.036422,-0.43516797,0.09071698,13.442256,13.816728,-11.040154,44.63389,22.89296,6.9466734,10.083586,12.639625,-9.124055,18.48516,50.2125,-29.169956,8.412483,-21.14779
34,0.39333587884902954,1.7702738046646118,78.84733581542969,-1.0531321250218895,2.271416040748096,-93.07030093290177,-7.8582764,1.4512508,5.7169924,19.603088,-12.269809,-1.1349219,-6.455138,0.011907866,-8.569731,12.487226,-8.785666,1.3414993,-3.0445755,-0.42655396,0.09072591,13.442529,13.799983,-11.078645,44.643906,22.905832,6.9570565,10.095137,12.640825,-9.110342,18.509264,50.23133,-29.172054,8.392512,-21.142046
35,0.40069228410720825,1.7626285552978516,78.8476333618164,-1.0596687009205346,2.271991635829186,-93.06544570252629,-7.8628016,1.4511592,5.7098994,19.621193,-12.283925,-1.1255828,-6.4717555,0.008812231,-8.568815,12.535986,-8.804797,1.3343576,-3.0512078,-0.4179318,0.092244945,13.446402,13.785191,-11.112948,44.648758,22.90919,6.9635234,10.108788,12.6456785,-9.0996,18.534723,50.25002,-29.181206,8.376405,-21.134323
36,0.40563318133354187,1.7574005126953125,78.8465347290039,-1.064476824312371,2.2712454560865396,-93.05961523181482,-7.865626,1.4498475,5.703372,19.63854,-12.29738,-1.1202992,-6.4880137,0.0034367933,-8.570943,12.587253,-8.826151,1.3303026,-3.0546231,-0.41261053,0.096103944,13.452616,13.773713,-11.141525,44.64907,22.907358,6.9640613,10.122113,12.660144,-9.091631,18.559967,50.261528,-29.186981,8.366472,-21.122585
37,0.41171252727508545,1.7518421411514282,78.8448715209961,-1.0667264354171435,2.268406198852496,-93.05197268437428,-7.866096,1.4462783,5.697343,19.655756,-12.311651,-1.1214571,-6.4975348,-0.0045204274,-8.577937,12.629645,-8.848365,1.331358,-3.0528436,-0.41155437,0.09941069,13.454852,13.757927,-11.164761,44.656853,22.900015,6.9573627,10.141521,12.680111,-9.08117,18.58447,50.27433,-29.189762,8.368664,-21.109993
38,0.41635698080062866,1.7464038133621216,78.84440612792969,-1.067500425149862,2.2642897722662325,-93.04345706085006,-7.865462,1.441977,5.6917515,19.673805,-12.327211,-1.1271923,-6.505989,-0.014033375,-8.587944,12.673256,-8.87359,1.3351586,-3.0477862,-0.41263205,0.10272868,13.454072,13.7394,-11.181636,44.67004,22.885805,6.9440756,10.165659,12.702478,-9.069213,18.608955,50.29117,-29.193937,8.379092,-21.095974
39,0.4205567240715027,1.7409216165542603,78.84144592285156,-1.0679104682259326,2.2597400375802272,-93.03499257032868,-7.8652434,1.4375185,5.686986,19.693007,-12.341409,-1.1334964,-6.5136476,-0.023736697,-8.598173,12.71535,-8.898231,1.3387809,-3.0414078,-0.41538814,0.10775519,13.456764,13.724282,-11.1966,44.676273,22.869942,6.9296136,10.187215,12.727985,-9.059667,18.633463,50.307945,-29.19865,8.3910885,-21.07993
40,0.42646774649620056,1.7341619729995728,78.8395004272461,-1.068927968971941,2.2556137008640715,-93.02764132773656,-7.867408,1.4339452,5.6833425,19.714842,-12.351949,-1.1363996,-6.52278,-0.03226468,-8.60595,12.757648,-8.9215555,1.3391422,-3.0385616,-0.41569445,0.11092837,13.459744,13.70352,-11.2121725,44.68188,22.863132,6.9208813,10.205334,12.745316,-9.046925,18.661242,50.34202,-29.204384,8.40009,-21.066793
41,0.4327940344810486,1.7296059131622314,78.83687591552734,-1.070905511774327,2.252110935980804,-93.02152822848103,-7.874067,1.4315721,5.6812787,19.742762,-12.357187,-1.133908,-6.533821,-0.038999077,-8.610563,12.800448,-8.943189,1.3325378,-3.0351505,-0.41666365,0.11954299,13.471733,13.694381,-11.229678,44.664852,22.861807,6.9182158,10.210735,12.767725,-9.041209,18.685877,50.369755,-29.211502,8.401409,-21.048414
42,0.4364651143550873,1.72440767288208,78.83531951904297,-1.0732757068333638,2.2488769261660564,-93.01604412927051,-7.8846326,1.4299853,5.680423,19.776442,-12.359433,-1.128407,-6.5473404,-0.04506654,-8.613538,12.846199,-8.965395,1.321495,-3.0333316,-0.4167383,0.12598197,13.483038,13.682478,-11.248162,44.648174,22.866058,6.9206576,10.214125,12.78499,-9.033876,18.713644,50.411835,-29.219097,8.402008,-21.032114
43,0.443108469247818,1.7195929288864136,78.83409881591797,-1.0755497281469573,2.2458058447561275,-93.01146322958563,-7.8921185,1.4279969,5.6801314,19.803,-12.357864,-1.1226482,-6.558572,-0.050518226,-8.615111,12.885574,-8.983409,1.3126632,-3.0339477,-0.41651976,0.12988903,13.497888,13.671959,-11.270361,44.628883,22.869808,6.9237404,10.21495,12.797403,-9.027272,18.747217,50.465645,-29.222233,8.400581,-21.018538
44,0.44760066270828247,1.7154512405395508,78.83256530761719,-1.0775196211057045,2.242420415233235,-93.00797981012686,-7.8991055,1.4256561,5.6797976,19.829685,-12.363357,-1.1195863,-6.565355,-0.055737354,-8.615864,12.914869,-8.995631,1.312755,-3.034364,-0.41561475,0.13443436,13.513872,13.661543,-11.295868,44.608105,22.875557,6.923402,10.21253,12.811722,-9.020492,18.77862,50.520386,-29.22541,8.397398,-21.006685
45,0.45121443271636963,1.7114413976669312,78.8316879272461,-1.0784562767219827,2.238625765824054,-93.00585858050653,-7.8990655,1.4219317,5.67939,19.84315,-12.372154,-1.1220837,-6.5648165,-0.06059281,-8.615228,12.927915,-8.998767,1.3274713,-3.0338266,-0.41366425,0.13618848,13.52816,13.652244,-11.329749,44.59362,22.88198,6.9178243,10.206627,12.825881,-9.013642,18.809479,50.582325,-29.222239,8.389249,-20.996946
46,0.45563554763793945,1.7090516090393066,78.83133697509766,-1.078821485237633,2.2344705526145487,-93.00495951843057,-7.894406,1.4172032,5.679335,19.848003,-12.382536,-1.1279603,-6.5578327,-0.06514022,-8.613106,12.926151,-8.993381,1.3520513,-3.0321956,-0.4118405,0.13923442,13.544506,13.647097,-11.36766,44.575455,22.890533,6.908512,10.194135,12.842596,-9.008935,18.837143,50.644455,-29.216768,8.376044,-20.986221
47,0.46161478757858276,1.705379605293274,78.83413696289062,-1.0792800736045802,2.2304842542367926,-93.00469213499477,-7.888657,1.4124256,5.6790333,19.850435,-12.3926,-1.132087,-6.5499873,-0.069232464,-8.61069,12.92188,-8.985947,1.3769758,-3.0312335,-0.4096092,0.14412825,13.5637,13.644128,-11.405058,44.5504,22.89884,6.897348,10.178819,12.860649,-9.005185,18.862574,50.705585,-29.21545,8.363542,-20.977097
48,0.4682091474533081,1.700617790222168,78.83573913574219,-1.0803089179847698,2.2274524473319017,-93.00461940889299,-7.885045,1.4084891,5.6778903,19.855255,-12.398864,-1.129364,-6.5447516,-0.07303855,-8.609009,12.922291,-8.980655,1.3928298,-3.0276814,-0.40648875,0.14272858,13.583763,13.641581,-11.45691,44.52523,22.893007,6.891318,10.174416,12.881455,-8.999627,18.893127,50.772606,-29.216478,8.362024,-20.98
49,0.47379904985427856,1.6951507329940796,78.83799743652344,-1.0827845593717722,2.2248582175106413,-93.0049372197265,-7.883274,1.4062275,5.6748443,19.863655,-12.398679,-1.1158515,-6.542526,-0.07598372,-8.60803,12.930853,-8.978224,1.3950273,-3.0283616,-0.40194803,0.14672531,13.610643,13.640931,-11.499105,44.4839,22.88721,6.886122,10.168571,12.902052,-8.995104,18.919132,50.837124,-29.237488,8.369359,-20.988792
50,0.477841317653656,1.6922963857650757,78.83917999267578,-1.0861904072007296,2.2229608123299514,-93.00574887851862,-7.8823853,1.4048074,5.67064,19.87286,-12.394417,-1.0951369,-6.541679,-0.07819243,-8.607117,12.941924,-8.9757395,1.3893011,-3.0293126,-0.39676747,0.14730291,13.640841,13.6421585,-11.549193,44.438354,22.872663,6.884285,10.1683,12.92334,-8.989586,18.948221,50.907642,-29.265285,8.385612,-21.008276
51,0.483992338180542,1.689595341682434,78.83819580078125,-1.0891632564977538,2.221699793582033,-93.00664996115614,-7.8813353,1.4029034,5.6670876,19.87986,-12.389063,-1.0734354,-6.540932,-0.08082412,-8.607049,12.951353,-8.973647,1.3817304,-3.0321326,-0.39221078,0.15205772,13.672631,13.643845,-11.588025,44.38497,22.858578,6.878589,10.1656275,12.942071,-8.986195,18.972939,50.97534,-29.296421,8.40167,-21.025183
52,0.4882168471813202,1.6860809326171875,78.83785247802734,-1.0901070832392243,2.2216616404267886,-93.0072236317925,-7.880281,1.3990024,5.6662045,19.883013,-12.386456,-1.0569632,-6.5397835,-0.08539055,-8.608227,12.955075,-8.972413,1.3785758,-3.031164,-0.39062417,0.15449369,13.702466,13.646286,-11.627655,44.332134,22.834885,6.868996,10.1671915,12.961553,-8.982988,18.998962,51.04024,-29.312946,8.414712,-21.037342
53,0.49226656556129456,1.6842180490493774,78.83663177490234,-1.0883373817914852,2.222149060515855,-93.0073437749989,-7.8756466,1.3922025,5.6692677,19.876806,-12.38741,-1.0492504,-6.537108,-0.09265811,-8.611975,12.95271,-8.975212,1.3802394,-3.0247483,-0.39342326,0.15497588,13.729615,13.650614,-11.668023,44.280235,22.793106,6.852273,10.174504,12.981082,-8.979368,19.025827,51.1023,-29.305191,8.421261,-21.044767
54,0.4961108863353729,1.681382417678833,78.8370590209961,-1.0848818417755726,2.223116707292152,-93.0072950706718,-7.869659,1.3836694,5.674988,19.866543,-12.391294,-1.0463502,-6.5331054,-0.10167732,-8.617615,12.945355,-8.980345,1.3838475,-3.0164928,-0.39861453,0.15702237,13.754836,13.654999,-11.700712,44.226086,22.742422,6.8288383,10.183157,12.998919,-8.9768305,19.049793,51.16151,-29.285664,8.423082,-21.04776
55,0.5028250813484192,1.6804149150848389,78.83840942382812,-1.0807395548917562,2.226344594058836,-93.00729419376054,-7.865706,1.3741095,5.681521,19.853632,-12.393374,-1.0433742,-6.530454,-0.11123691,-8.6227,12.933639,-8.982424,1.3904691,-3.0062308,-0.40650344,0.15711805,13.780241,13.663106,-11.734278,44.16961,22.692308,6.805791,10.19294,13.018016,-8.973697,19.074429,51.217693,-29.265959,8.426927,-21.04653
56,0.5090563297271729,1.6807924509048462,78.84029388427734,-1.0769628191856997,2.233573385674017,-93.00800675656873,-7.8691726,1.3646497,5.6870694,19.844526,-12.391799,-1.0353937,-6.5328584,-0.12021331,-8.62472,12.91998,-8.976505,1.4012098,-2.9974105,-0.4138225,0.15810145,13.802134,13.668864,-11.758896,44.113827,22.66658,6.7865424,10.197984,13.032724,-8.972124,19.092676,51.27318,-29.268007,8.435819,-21.036467
57,0.5149197578430176,1.6806423664093018,78.84143829345703,-1.0737365127322382,2.2459930904044123,-93.01070901275817,-7.880524,1.355658,5.6927743,19.837484,-12.382819,-1.0195944,-6.5411716,-0.12774244,-8.621607,12.902135,-8.958274,1.4180057,-2.9895513,-0.4207489,0.15735227,13.819764,13.67204,-11.776583,44.060635,22.67668,6.7730494,10.196195,13.043906,-8.971732,19.10502,51.328518,-29.303228,8.45382,-21.012201
58,0.5199931859970093,1.678560733795166,78.8421401977539,-1.070502489951959,2.262567662131064,-93.01470316822555,-7.8988085,1.3467566,5.6990304,19.83316,-12.369934,-0.9990788,-6.5546455,-0.13478969,-8.615076,12.882181,-8.9326515,1.4397181,-2.9810617,-0.42814043,0.15360564,13.838088,13.675463,-11.794179,44.004993,22.706299,6.764444,10.192568,13.0538645,-8.971854,19.116072,51.383286,-29.35667,8.478716,-20.97866
59,0.5271533131599426,1.679763913154602,78.84351348876953,-1.067437308979688,2.2807144384957936,-93.01741549428344,-7.919134,1.3367946,5.703111,19.82743,-12.3552,-0.97791123,-6.568844,-0.1421591,-8.608558,12.85893,-8.903615,1.4628195,-2.9713652,-0.4366571,0.152462,13.842196,13.677717,-11.80627,43.962334,22.739313,6.75521,10.189353,13.063647,-8.972414,19.122805,51.433933,-29.410946,8.504183,-20.946177
60,0.5345691442489624,1.6860113143920898,78.84390258789062,-1.0654189664927294,2.300313244011456,-93.01636410836751,-7.942292,1.3259393,5.7019553,19.821445,-12.342681,-0.96038795,-6.581993,-0.14974226,-8.605591,12.830612,-8.874978,1.4836454,-2.9619322,-0.442809,0.15036656,13.857034,13.681598,-11.822585,43.90634,22.748615,6.7523727,10.196068,13.070825,-8.974013,19.129204,51.486153,-29.443653,8.527068,-20.92714
61,0.5428377389907837,1.6907936334609985,78.84466552734375,-1.0636538075364044,2.319472970076411,-93.00977500034988,-7.9639807,1.312302,5.6934633,19.810661,-12.332265,-0.94978863,-6.592111,-0.15916537,-8.607515,12.799388,-8.850194,1.501078,-2.953212,-0.45022058,0.15481873,13.854502,13.682537,-11.828283,43.865936,22.73645,6.7484245,10.210447,13.079522,-8.974786,19.130945,51.532127,-29.44938,8.544706,-20.92764
62,0.5520825982093811,1.6933715343475342,78.84679412841797,-1.062575309939012,2.3400371309532586,-92.99924560311018,-7.9875474,1.296977,5.6791635,19.79793,-12.322834,-0.9432078,-6.6015186,-0.16930431,-8.612841,12.764246,-8.825719,1.5170676,-2.9398534,-0.45584676,0.15906319,13.8480015,13.686549,-11.845366,43.827213,22.701593,6.749275,10.23507,13.087981,-8.979589,19.128605,51.578228,-29.433357,8.559833,-20.941208
63,0.5614241361618042,1.6969631910324097,78.84854125976562,-1.0621998553268288,2.3609460480609608,-92.98761773756556,-8.013901,1.281751,5.663812,19.788025,-12.3145895,-0.93513685,-6.6112347,-0.17937694,-8.618556,12.727685,-8.800314,1.5328414,-2.9300978,-0.46297166,0.16725287,13.836517,13.687165,-11.847834,43.79251,22.66676,6.7481875,10.260101,13.094232,-8.981155,19.127075,51.619217,-29.416746,8.574573,-20.957954
64,0.5720886588096619,1.7047802209854126,78.85110473632812,-1.0637854959667747,2.3819228728347324,-92.9769885015025,-8.046234,1.2690207,5.6509585,19.787855,-12.308525,-0.9202427,-6.622376,-0.18759267,-8.622808,12.689864,-8.771453,1.5494388,-2.9174988,-0.46827203,0.17877729,13.820534,13.687609,-11.852005,43.758663,22.6288,6.744848,10.285331,13.09359,-8.983783,19.124893,51.658257,-29.406712,8.587853,-20.968506
65,0.5847797393798828,1.7125258445739746,78.85147857666016,-1.0682017949245763,2.4029859247351797,-92.9677835517448,-8.087387,1.2608885,5.64159,19.802813,-12.306216,-0.8947207,-6.632451,-0.19182687,-8.624147,12.64544,-8.736037,1.5680405,-2.8984537,-0.47061905,0.19446251,13.79514,13.687734,-11.859099,43.729214,22.584946,6.737599,10.312325,13.084797,-8.989708,19.119051,51.694195,-29.406343,8.600067,-20.968683
66,0.5961008667945862,1.7223339080810547,78.85034942626953,-1.074625929075679,2.4245254363153297,-92.95896144314789,-8.135245,1.2551205,5.6338925,19.82822,-12.30655,-0.8621229,-6.6439023,-0.1940843,-8.623781,12.599544,-8.697853,1.5877956,-2.8781102,-0.47315043,0.21115586,13.769782,13.687339,-11.861857,43.698704,22.538527,6.727783,10.341097,13.077424,-8.9944105,19.114662,51.721783,-29.411633,8.612911,-20.965128
67,0.6092987060546875,1.7328038215637207,78.85037994384766,-1.08196818418578,2.445547336571602,-92.95057666581287,-8.184886,1.2498238,5.6270604,19.856249,-12.307773,-0.82838935,-6.656161,-0.19617397,-8.62414,12.553893,-8.658058,1.6066538,-2.852002,-0.46994933,0.23554568,13.726929,13.68419,-11.871523,43.67887,22.487707,6.716241,10.367718,13.066809,-9.011902,19.10159,51.740055,-29.417534,8.620301,-20.956415
68,0.6240816116333008,1.744570016860962,78.8516616821289,-1.0878496642997364,2.466019173164557,-92.94319653198163,-8.230784,1.2412137,5.621273,19.87684,-12.30661,-0.7991638,-6.6751976,-0.20260006,-8.626619,12.522214,-8.623384,1.622733,-2.8307345,-0.46524477,0.2644822,13.690948,13.677591,-11.88166,43.64979,22.44202,6.707575,10.3889065,13.059898,-9.038283,19.09428,51.744896,-29.42168,8.625152,-20.950249
69,0.6409767866134644,1.7567062377929688,78.85266876220703,-1.0923041298533933,2.4850395285134455,-92.93663772758842,-8.269983,1.2279079,5.6163435,19.885876,-12.302688,-0.7767913,-6.701335,-0.21421555,-8.633034,12.507465,-8.595348,1.6337979,-2.815543,-0.4610983,0.299941,13.656798,13.669343,-11.891447,43.61674,22.403366,6.7015305,10.404516,13.0424595,-9.06715,19.092197,51.752777,-29.423904,8.624605,-20.949112
70,0.6606472730636597,1.7672251462936401,78.85272979736328,-1.0963159775674354,2.503092208079683,-92.93069866032084,-8.306226,1.2124662,5.6121736,19.889729,-12.297451,-0.7587633,-6.7328334,-0.22911842,-8.642038,12.504197,-8.571157,1.6414591,-2.803355,-0.45153663,0.3428194,13.62131,13.654998,-11.902483,43.581394,22.368414,6.696641,10.416371,13.026452,-9.111895,19.093119,51.74677,-29.42315,8.618958,-20.947437
71,0.6845732927322388,1.7823143005371094,78.85350799560547,-1.0996759611141176,2.5213655449033134,-92.92591806228388,-8.34258,1.1954448,5.60929,19.891773,-12.290628,-0.7409263,-6.7691383,-0.24610603,-8.650838,12.508441,-8.5492525,1.6494195,-2.79387,-0.44477513,0.38604343,13.585674,13.64149,-11.913578,43.545097,22.333723,6.6933,10.423336,13.001984,-9.153195,19.096394,51.744644,-29.424006,8.613332,-20.94928
72,0.7045058608055115,1.7994648218154907,78.85345458984375,-1.1025360668861337,2.5408279553293758,-92.92240071826896,-8.383731,1.1782335,5.607864,19.898851,-12.28338,-0.7197736,-6.8087573,-0.26387537,-8.656765,12.513723,-8.526731,1.6614397,-2.7861238,-0.44102147,0.42531252,13.550688,13.629784,-11.925646,43.50799,22.294851,6.6914415,10.423941,12.974852,-9.191632,19.101187,51.742073,-29.42693,8.611348,-20.953524
73,0.7264021039009094,1.8153741359710693,78.85254669189453,-1.1043284543292373,2.563117847702352,-92.92103002241723,-8.432964,1.1610744,5.608446,19.914545,-12.276544,-0.69367987,-6.854578,-0.28234726,-8.659049,12.522078,-8.50436,1.6803747,-2.777474,-0.44085443,0.4578678,13.514233,13.619888,-11.939872,43.47374,22.254992,6.6898727,10.41998,12.944017,-9.230101,19.108366,51.73966,-29.431026,8.616326,-20.960062
74,0.7496927976608276,1.8324146270751953,78.85102844238281,-1.1054176007214094,2.5872425151744176,-92.92131105782148,-8.488896,1.1436138,5.610723,19.937618,-12.270686,-0.6647527,-6.905985,-0.30202463,-8.659229,12.534576,-8.482393,1.7036815,-2.7694669,-0.43886995,0.48836726,13.477677,13.608241,-11.95608,43.438694,22.214106,6.68835,10.410756,12.918895,-9.280048,19.119236,51.722984,-29.432745,8.624443,-20.965622
75,0.774974524974823,1.8503199815750122,78.85173034667969,-1.1066928038280026,2.610616652990861,-92.92204328224294,-8.543522,1.1255101,5.6136723,19.958363,-12.262552,-0.6349801,-6.9582553,-0.32259327,-8.657798,12.549179,-8.461016,1.7266382,-2.766608,-0.43739104,0.5198832,13.443853,13.597589,-11.972199,43.396637,22.164976,6.6900187,10.393071,12.892822,-9.331647,19.130148,51.700172,-29.43696,8.630931,-20.973042
76,0.7980730533599854,1.8703831434249878,78.85189819335938,-1.1093689596036664,2.6304006890144693,-92.92168448238621,-8.591282,1.1070442,5.616296,19.971498,-12.250818,-0.60636866,-7.0073724,-0.34300622,-8.655426,12.565337,-8.4409275,1.7442503,-2.7723312,-0.43815288,0.55577356,13.415015,13.590778,-11.987107,43.34206,22.10024,6.697637,10.36381,12.861458,-9.375883,19.13678,51.67713,-29.448202,8.630866,-20.984394
77,0.8226292133331299,1.8906607627868652,78.85236358642578,-1.1140882371946694,2.645227410358366,-92.91856884051525,-8.631365,1.0874252,5.6162167,19.977892,-12.235642,-0.57784355,-7.04991,-0.36379305,-8.653016,12.580744,-8.422228,1.7518854,-2.7918196,-0.43587103,0.6005442,13.393971,13.585833,-12.000552,43.268192,22.016754,6.716322,10.318389,12.829199,-9.423211,19.139578,51.643932,-29.466053,8.618729,-20.999647
78,0.8513379096984863,1.9122451543807983,78.85345458984375,-1.120201857817289,2.6567084625295037,-92.91394451484848,-8.666398,1.0667768,5.615116,19.97967,-12.21775,-0.54742986,-7.089599,-0.3850002,-8.649994,12.598351,-8.405576,1.7531002,-2.8215375,-0.43584412,0.64906263,13.377529,13.584185,-12.012729,43.183464,21.920177,6.7436223,10.260689,12.786898,-9.459714,19.139973,51.61677,-29.491465,8.59968,-21.021315
79,0.883710503578186,1.9351961612701416,78.85540008544922,-1.1265985894327424,2.6671694081826693,-92.91073836106519,-8.697773,1.04697,5.6165233,19.97554,-12.197212,-0.5204409,-7.129177,-0.4058457,-8.644773,12.615994,-8.387768,1.756086,-2.8526738,-0.43292388,0.7014852,13.365845,13.583813,-12.026623,43.085117,21.808863,6.7685614,10.195121,12.762699,-9.515313,19.13735,51.556896,-29.515343,8.578557,-21.03662
80,0.9148052930831909,1.9533690214157104,78.85613250732422,-1.1321042399914492,2.6786695031643513,-92.91222562450164,-8.724004,1.0287449,5.624516,19.959097,-12.171519,-0.5012622,-7.1729193,-0.42565995,-8.635557,12.635648,-8.367885,1.7686408,-2.8780706,-0.44229713,0.7458922,13.351846,13.585961,-12.038779,42.991905,21.690954,6.7831283,10.131901,12.732002,-9.546799,19.13021,51.509827,-29.544487,8.566627,-21.051968
81,0.9444652795791626,1.974635362625122,78.85691833496094,-1.1360873475674316,2.6908450794271457,-92.91943124562525,-8.745557,1.0128217,5.6412725,19.932228,-12.14156,-0.49154457,-7.2181087,-0.44376153,-8.621193,12.650941,-8.343914,1.7972889,-2.8884578,-0.4562173,0.78806597,13.337975,13.592704,-12.055797,42.892773,21.555758,6.7814593,10.065591,12.73095,-9.59059,19.114595,51.42405,-29.573658,8.562313,-21.053835
82,0.9749263525009155,1.9970483779907227,78.85678100585938,-1.1389835433987896,2.7028887811862816,-92.93075688793613,-8.761564,0.99833083,5.6643457,19.894596,-12.106721,-0.4887906,-7.2637324,-0.46097687,-8.6026945,12.663465,-8.3171015,1.836281,-2.8923764,-0.47783804,0.82683563,13.324124,13.602225,-12.072346,42.79157,21.408007,6.770375,9.995926,12.736432,-9.627584,19.093546,51.329746,-29.607481,8.563918,-21.051422
83,1.002461314201355,2.019005537033081,78.8572998046875,-1.1425078501802948,2.716173940526612,-92.94457112693442,-8.775016,0.9853196,5.69023,19.848417,-12.068644,-0.49137077,-7.3150587,-0.4773093,-8.582261,12.682573,-8.289171,1.875474,-2.9011505,-0.50590026,0.8598387,13.311141,13.610714,-12.085667,42.69213,21.258608,6.755349,9.930172,12.730093,-9.64798,19.073606,51.24992,-29.640823,8.570619,-21.05234
84,1.0298266410827637,2.0412678718566895,78.85839080810547,-1.1480440657213975,2.7325077579121713,-92.95927936589693,-8.787189,0.97390276,5.715362,19.791866,-12.026698,-0.4976394,-7.3778625,-0.49311465,-8.562116,12.718457,-8.262232,1.9048009,-2.9101515,-0.5314333,0.8954415,13.304801,13.633243,-12.114092,42.573742,21.100927,6.739426,9.868119,12.745709,-9.685833,19.04593,51.134045,-29.659794,8.574536,-21.047274
85,1.0593420267105103,2.060950517654419,78.86258697509766,-1.1562952601324572,2.7542122117830807,-92.9744512209137,-8.801796,0.96410817,5.738429,19.727337,-11.982583,-0.50899994,-7.4542375,-0.5085193,-8.54334,12.7702055,-8.231735,1.922083,-2.936054,-0.5584472,0.92403626,13.307083,13.657734,-12.1410885,42.446815,20.944714,6.7247725,9.814448,12.747455,-9.715612,19.025818,51.028954,-29.671713,8.583831,-21.050764
86,1.090383529663086,2.0836844444274902,78.86547088623047,-1.1661315020296643,2.7796720148736536,-92.99083666296787,-8.816768,0.9559161,5.761495,19.654074,-11.935619,-0.5256044,-7.5409937,-0.52338815,-8.524527,12.8336525,-8.198086,1.9326563,-2.9725971,-0.5878485,0.9458734,13.312059,13.680444,-12.167225,42.31832,20.78894,6.7092624,9.767655,12.736613,-9.735287,19.008482,50.93536,-29.680262,8.598657,-21.060688
87,1.1182454824447632,2.1129562854766846,78.86953735351562,-1.1769094506031197,2.8045634763718326,-93.00909507017003,-8.826354,0.9490979,5.7858953,19.570269,-11.883875,-0.5443565,-7.634795,-0.53756076,-8.504243,12.913067,-8.17125,1.9373457,-3.0120168,-0.61937916,0.9694881,13.319617,13.708493,-12.197041,42.184658,20.634514,6.692148,9.726679,12.728507,-9.75218,18.989168,50.83654,-29.67484,8.609687,-21.066475
88,1.1483618021011353,2.1446046829223633,78.87565612792969,-1.1873833701659664,2.824363031540571,-93.02963911851512,-8.823661,0.94307095,5.813159,19.471973,-11.824884,-0.5621122,-7.7314024,-0.5508844,-8.480916,13.010244,-8.159564,1.937052,-3.0494196,-0.6553253,1.0020895,13.329072,13.746336,-12.230621,42.04607,20.485804,6.673055,9.691518,12.726465,-9.766517,18.965672,50.73,-29.645922,8.609097,-21.06126
89,1.1773401498794556,2.1691625118255615,78.8819808959961,-1.1982977541461213,2.8339317029910536,-93.05151983658484,-8.803906,0.93874145,5.842771,19.360195,-11.758676,-0.5788643,-7.8218436,-0.5625787,-8.4574585,13.120552,-8.162642,1.9334495,-3.086443,-0.6963206,1.047045,13.336424,13.790106,-12.266663,41.90815,20.344982,6.650175,9.664121,12.728691,-9.773679,18.934557,50.62053,-29.593426,8.596001,-21.04143
90,1.2063548564910889,2.191173553466797,78.88699340820312,-1.2098650804483029,2.836988750532523,-93.07481063252295,-8.77067,0.9359392,5.8746123,19.234121,-11.685306,-0.59504503,-7.9103627,-0.5729587,-8.433503,13.242828,-8.175664,1.9256121,-3.1244535,-0.74194294,1.0997496,13.342252,13.838583,-12.305527,41.770622,20.210037,6.624332,9.64418,12.730934,-9.773531,18.897247,50.511375,-29.522367,8.5745535,-21.012339
91,1.2305598258972168,2.2197742462158203,78.8920669555664,-1.2202002966610306,2.84232860611236,-93.10188627082555,-8.735646,0.9329275,5.9094114,19.099516,-11.607995,-0.6113794,-8.01482,-0.5836149,-8.402916,13.391666,-8.204965,1.9105141,-3.1614206,-0.7925139,1.1533009,13.353492,13.897288,-12.345911,41.62693,20.081202,6.599497,9.629417,12.731511,-9.765307,18.862617,50.404816,-29.432325,8.544952,-20.980751
92,1.2578848600387573,2.250883102416992,78.89877319335938,-1.2279563047611468,2.8586526073996756,-93.13489086540707,-8.709945,0.92806995,5.948742,18.96051,-11.528766,-0.62580734,-8.153484,-0.59631896,-8.359459,13.581794,-8.256718,1.885226,-3.202,-0.84309816,1.1988839,13.372134,13.954893,-12.378513,41.48145,19.966202,6.5800004,9.620239,12.718761,-9.752234,18.844637,50.312653,-29.323223,8.508975,-20.95586
93,1.2812483310699463,2.2770142555236816,78.90685272216797,-1.2333491085786896,2.8915520756497632,-93.17697474861936,-8.699493,0.92251056,5.9947147,18.816923,-11.448718,-0.6404497,-8.342369,-0.6077827,-8.288096,13.825128,-8.337234,1.83534,-3.2502637,-0.89595526,1.2343415,13.405521,14.018444,-12.400355,41.326244,19.859114,6.566021,9.620585,12.6892395,-9.733912,18.846762,50.23255,-29.177628,8.459991,-20.939674
94,1.303112506866455,2.302407741546631,78.91596984863281,-1.2370556295144295,2.935262294911654,-93.22609930541334,-8.697834,0.91643566,6.046084,18.66761,-11.366746,-0.6550904,-8.567049,-0.61799204,-8.196483,14.109152,-8.440626,1.7671094,-3.306176,-0.9494318,1.2634995,13.448524,14.082253,-12.412756,41.166656,19.761572,6.5555787,9.630082,12.647166,-9.7123,18.864378,50.161953,-29.001204,8.400001,-20.927807
95,1.3258447647094727,2.330549716949463,78.92306518554688,-1.2376278370012572,2.981590293565421,-93.27680077059529,-8.694048,0.9067462,6.0991526,18.509394,-11.279291,-0.66525,-8.802432,-0.63403165,-8.112483,14.416406,-8.556655,1.7082511,-3.3575788,-1.0027272,1.2902372,13.4934635,14.145894,-12.424706,41.007412,19.681581,6.549247,9.638233,12.603229,-9.688651,18.891716,50.099335,-28.826935,8.341331,-20.91702
96,1.3515077829360962,2.357170820236206,78.92930603027344,-1.2337675313522147,3.0223998717695153,-93.3236005384375,-8.684214,0.8911447,6.150296,18.352945,-11.1903105,-0.6665916,-9.022708,-0.66319823,-8.064222,14.728179,-8.674502,1.686645,-3.3927026,-1.0538088,1.3183767,13.530982,14.206005,-12.444808,40.856133,19.627514,6.547667,9.634834,12.568787,-9.665287,18.922892,50.042713,-28.688292,8.296466,-20.904182
97,1.3765166997909546,2.3839316368103027,78.93717193603516,-1.2254579587020287,3.05768953396728,-93.3686256187466,-8.666919,0.87006474,6.201834,18.195412,-11.097284,-0.6560116,-9.230911,-0.7078196,-8.060225,15.041526,-8.789903,1.7093498,-3.4041333,-1.1032681,1.3497981,13.555276,14.267163,-12.481425,40.714466,19.611437,6.5555606,9.609465,12.546068,-9.64258,18.954763,49.990948,-28.595566,8.268903,-20.891798
98,1.4004544019699097,2.4068288803100586,78.94659423828125,-1.2135682201371307,3.0911045362494964,-93.41364859537886,-8.642789,0.84416664,6.2544913,18.028921,-10.996569,-0.63648623,-9.437491,-0.76406544,-8.08516,15.366291,-8.909606,1.7616898,-3.399186,-1.1493028,1.3822262,13.570125,14.326133,-12.528798,40.5811,19.626022,6.5710845,9.570418,12.531963,-9.621694,18.990389,49.94245,-28.530233,8.251795,-20.880053
99,1.4207024574279785,2.425692319869995,78.95393371582031,-1.1974922223489348,3.1199045210478555,-93.45246097754728,-8.614454,0.8123834,6.302368,17.867102,-10.896182,-0.612856,-9.627635,-0.8294128,-8.131635,15.700797,-9.037769,1.8388097,-3.3871024,-1.1943713,1.4141818,13.588574,14.381762,-12.574798,40.448162,19.647453,6.5849,9.534422,12.523602,-9.601847,19.032585,49.899994,-28.482918,8.2419,-20.862831
100,1.4380362033843994,2.440429449081421,78.9603271484375,-1.1768540318240572,3.141388816255938,-93.47901705899335,-8.577655,0.77306,6.3394403,17.70825,-10.800818,-0.5899244,-9.787128,-0.901414,-8.192232,16.045557,-9.180314,1.9358572,-3.3774052,-1.239863,1.4435806,13.62334,14.430468,-12.606735,40.309475,19.652952,6.5878153,9.518735,12.518553,-9.582526,19.084211,49.866474,-28.444866,8.23605,-20.833885
101,1.4521735906600952,2.4560883045196533,78.96959686279297,-1.146580688536273,3.154495041422,-93.49449408168252,-8.526778,0.7198899,6.367495,17.543684,-10.703002,-0.5658082,-9.907938,-0.99124277,-8.288618,16.392555,-9.340851,2.0878975,-3.3733518,-1.2922419,1.4713138,13.680833,14.473868,-12.619876,40.158882,19.635424,6.5748253,9.533401,12.512831,-9.561915,19.148106,49.84375,-28.417274,8.238246,-20.783697
102,1.4681326150894165,2.4652419090270996,78.97535705566406,-1.1089014596098201,3.1608625773412378,-93.50121261086575,-8.46759,0.6562541,6.388939,17.380941,-10.606253,-0.53745484,-9.998316,-1.0960013,-8.417442,16.742908,-9.516151,2.285558,-3.3688898,-1.3441927,1.4972686,13.746682,14.503535,-12.622755,40.010002,19.610287,6.5519843,9.569515,12.509529,-9.545348,19.219673,49.829464,-28.404686,8.24882,-20.717993
103,1.4804195165634155,2.4724090099334717,78.98238372802734,-1.0729509624355873,3.161566404021488,-93.494798560552,-8.409695,0.5936605,6.397531,17.237045,-10.520768,-0.51300454,-10.070463,-1.1917664,-8.533257,17.115276,-9.700616,2.4570916,-3.3664165,-1.3951427,1.5202142,13.830496,14.536935,-12.612446,39.851025,19.578753,6.525339,9.607201,12.509442,-9.522398,19.304476,49.827457,-28.39884,8.258625,-20.655716
104,1.492185354232788,2.475796699523926,78.9857177734375,-1.0478174674723217,3.1576476884186597,-93.47078855844624,-8.366138,0.54333067,6.387335,17.136457,-10.460844,-0.4993741,-10.1317425,-1.2544568,-8.590098,17.51695,-9.883623,2.5310717,-3.3518302,-1.4225233,1.5373744,13.902515,14.552952,-12.60871,39.714115,19.54968,6.5027447,9.636596,12.530434,-9.50702,19.381905,49.826183,-28.397943,8.257169,-20.611586
105,1.4998364448547363,2.4708805084228516,78.98823547363281,-1.0378731862027286,3.1461127917454923,-93.42832858165747,-8.333214,0.51124346,6.357876,17.07867,-10.428166,-0.50163513,-10.197865,-1.2745224,-8.565173,18.009008,-10.066959,2.471612,-3.3433304,-1.4374516,1.5491846,13.990249,14.572956,-12.588017,39.573845,19.51897,6.484494,9.642237,12.552494,-9.481061,19.485262,49.85384,-28.39769,8.241087,-20.602232
106,1.5075899362564087,2.4681878089904785,78.98693084716797,-1.0367143575103335,3.1271905227030223,-93.3694279832649,-8.306235,0.48892382,6.3122015,17.053534,-10.416257,-0.5146254,-10.256824,-1.2656754,-8.486275,18.560423,-10.250123,2.3231428,-3.3185189,-1.4317566,1.5579944,14.064966,14.579579,-12.57801,39.45401,19.484165,6.4682794,9.639928,12.598822,-9.463557,19.580786,49.88183,-28.406878,8.213043,-20.608686
107,1.5094797611236572,2.46439266204834,78.98391723632812,-1.0365532391163286,3.107035563572309,-93.29430327982908,-8.2937,0.4662684,6.249765,17.063084,-10.422891,-0.5305551,-10.283969,-1.2413989,-8.382011,19.059835,-10.429578,2.13348,-3.2946074,-1.4211122,1.5600507,14.149462,14.5804,-12.559259,39.33443,19.454044,6.452737,9.639799,12.652605,-9.445723,19.67692,49.91102,-28.416039,8.184213,-20.619953
108,1.5107741355895996,2.4564461708068848,78.97897338867188,-1.0312595406223295,3.0919701082917186,-93.20341139956562,-8.305294,0.43482956,6.169742,17.111391,-10.446741,-0.5417319,-10.255098,-1.2147183,-8.281095,19.39793,-10.60405,1.9494144,-3.2787466,-1.4143873,1.5512947,14.252374,14.573958,-12.524357,39.20922,19.438305,6.437328,9.655496,12.70438,-9.420127,19.768028,49.93835,-28.420147,8.164684,-20.623236
109,1.5090358257293701,2.446007251739502,78.96974182128906,-1.0159634232729666,3.082062546260735,-93.0949502233938,-8.33855,0.38747463,6.0703254,17.194,-10.4879465,-0.55088586,-10.167028,-1.1842314,-8.156148,19.57162,-10.796739,1.7502611,-3.2540941,-1.4105577,1.5295596,14.359899,14.560646,-12.497546,39.086555,19.43557,6.426633,9.693287,12.778237,-9.395199,19.826323,49.93981,-28.427773,8.158463,-20.607386
110,1.5077823400497437,2.4263734817504883,78.96011352539062,-0.9960024560004446,3.074422108283095,-92.96933875492562,-8.395039,0.33187687,5.9517426,17.321154,-10.5490675,-0.56226254,-10.034439,-1.1449183,-8.003129,19.63695,-11.004332,1.5214676,-3.2286272,-1.4068596,1.4952872,14.474314,14.537268,-12.467204,38.96923,19.445835,6.419561,9.746083,12.858542,-9.364391,19.869604,49.939762,-28.439144,8.161189,-20.585203
111,1.5015465021133423,2.405341625213623,78.94406127929688,-0.9807816012893196,3.0716820531341016,-92.8307376017183,-8.477376,0.28085548,5.817661,17.490696,-10.628886,-0.56554997,-9.854593,-1.1034437,-7.886124,19.559572,-11.178417,1.318961,-3.1990485,-1.394383,1.4566033,14.59318,14.50519,-12.429925,38.855145,19.462269,6.407779,9.808107,12.940306,-9.331581,19.902449,49.93427,-28.442392,8.161657,-20.561646
112,1.497118592262268,2.3865976333618164,78.92599487304688,-0.9799151243682792,3.0764449883261182,-92.68324643903381,-8.595947,0.2480732,5.671421,17.716259,-10.729718,-0.5513043,-9.626155,-1.0670255,-7.869536,19.307705,-11.271873,1.1993014,-3.163803,-1.366857,1.4225836,14.718478,14.471369,-12.380311,38.73644,19.476053,6.382682,9.872137,13.016394,-9.304421,19.932022,49.918335,-28.42461,8.148751,-20.541576
113,1.4930888414382935,2.3678622245788574,78.9063949584961,-0.9966686044562565,3.0901028851899133,-92.51909518665643,-8.761883,0.23710528,5.5054975,18.015978,-10.857767,-0.5058267,-9.317261,-1.0399673,-8.001167,18.791916,-11.246032,1.2089988,-3.1408238,-1.3200586,1.387031,14.849732,14.422488,-12.301864,38.619453,19.501495,6.33994,9.938123,13.072857,-9.272952,19.97095,49.91049,-28.371424,8.114062,-20.530201
114,1.4806020259857178,2.347097635269165,78.88978576660156,-1.0245271143891514,3.111160744197689,-92.33919350313863,-8.968299,0.23905224,5.3211217,18.380724,-11.008655,-0.4383866,-8.9361,-1.0153025,-8.237061,18.049484,-11.130406,1.3102131,-3.1268008,-1.257789,1.3475465,14.985439,14.355228,-12.200309,38.50815,19.539938,6.2849216,10.009798,13.115714,-9.23833,20.013498,49.908875,-28.293032,8.0657015,-20.524048
115,1.4673175811767578,2.3290374279022217,78.8761215209961,-1.0579161559185462,3.137609315681229,-92.16013833307883,-9.189348,0.24787961,5.1354723,18.763409,-11.168559,-0.37117168,-8.541694,-0.98465616,-8.503727,17.241076,-10.982225,1.4320459,-3.0986283,-1.1874876,1.3147393,15.127354,14.282384,-12.090176,38.39776,19.5714,6.2235484,10.087587,13.149114,-9.208806,20.050539,49.903038,-28.215633,8.019735,-20.52069
116,1.45451021194458,2.3085644245147705,78.85519409179688,-1.0938348217811051,3.167503138114079,-91.99888781051239,-9.402074,0.26051006,4.964324,19.123272,-11.3259325,-0.32932523,-8.197648,-0.9410854,-8.727625,16.536867,-10.864969,1.500722,-3.0433655,-1.1122818,1.2956483,15.275572,14.200436,-11.972918,38.294666,19.585947,6.162045,10.174497,13.159789,-9.182667,20.082552,49.905937,-28.166525,7.9947343,-20.5233
117,1.4442285299301147,2.286318778991699,78.83399200439453,-1.131126035400667,3.198289464707277,-91.85452618652678,-9.599436,0.27538234,4.807665,19.452282,-11.47964,-0.32994476,-7.9173098,-0.8864904,-8.896558,15.983263,-10.810137,1.4811835,-2.9559257,-1.0316001,1.2931982,15.426547,14.107575,-11.85429,38.195625,19.583006,6.1045704,10.278526,13.152423,-9.158192,20.104904,49.915947,-28.162746,8.002638,-20.538635
118,1.4348734617233276,2.270408868789673,78.81434631347656,-1.1716949922600766,3.23157245626624,-91.71979510615812,-9.795726,0.29517868,4.658319,19.774733,-11.637038,-0.35638672,-7.6651144,-0.8237196,-9.04709,15.483167,-10.780163,1.4167956,-2.8445635,-0.94393146,1.302682,15.580343,14.003601,-11.730775,38.10168,19.568691,6.046955,10.396214,13.127537,-9.135664,20.119024,49.93243,-28.187363,8.03163,-20.56407
119,1.4252246618270874,2.2579104900360107,78.79425048828125,-1.2201179742668153,3.2721223417023135,-91.60234428205658,-9.997241,0.3263512,4.5201797,20.092178,-11.795319,-0.38293302,-7.4461694,-0.75013214,-9.17869,15.023025,-10.73987,1.348996,-2.7152,-0.84679145,1.318708,15.741671,13.887523,-11.592132,38.024155,19.542013,5.9831123,10.513229,13.072264,-9.115471,20.134743,49.964237,-28.21502,8.063944,-20.587236
120,1.4198672771453857,2.248807430267334,78.7789077758789,-1.2797001124386385,3.3244015771375186,-91.50954335310415,-10.21151,0.37440485,4.397383,20.409052,-11.953341,-0.38362047,-7.2601123,-0.66323614,-9.290769,14.578015,-10.653291,1.3195297,-2.5743947,-0.7391144,1.3362857,15.915301,13.758386,-11.4271345,37.974686,19.502094,5.906822,10.615207,12.972175,-9.09928,20.16128,50.021053,-28.221394,8.082011,-20.596066
121,1.4143800735473633,2.24558162689209,78.76727294921875,-1.3604676255141932,3.3913328219252943,-91.44277429271844,-10.447889,0.45152906,4.2879014,20.73598,-12.113329,-0.3541421,-7.101115,-0.5515202,-9.385202,14.123374,-10.492006,1.341689,-2.4177155,-0.61036146,1.3527225,16.09789,13.614229,-11.22885,37.9523,19.444769,5.8069777,10.686594,12.827548,-9.088479,20.199669,50.10401,-28.192816,8.0788765,-20.58543
122,1.4109402894973755,2.2457680702209473,78.7591781616211,-1.4574242537435806,3.469908761673605,-91.39835755933261,-10.700295,0.5507934,4.1904044,21.067928,-12.275539,-0.3072462,-6.971479,-0.42110023,-9.461254,13.679136,-10.282305,1.391888,-2.244825,-0.4640678,1.3710188,16.288536,13.454325,-11.003286,37.95253,19.3727,5.6899505,10.738813,12.644038,-9.083871,20.246256,50.208378,-28.14441,8.064817,-20.562412
123,1.4112112522125244,2.2458183765411377,78.75404357910156,-1.5520444430389608,3.5557294114116966,-91.37621554554435,-10.949978,0.6495386,4.109902,21.378428,-12.431615,-0.24289216,-6.879556,-0.2937269,-9.514897,13.279038,-10.06396,1.4561101,-2.0682802,-0.31914493,1.3945327,16.495039,13.280162,-10.759413,37.981598,19.294704,5.5757446,10.798149,12.41755,-9.085005,20.30382,50.332153,-28.093845,8.047816,-20.532602
124,1.4147309064865112,2.243640184402466,78.75348663330078,-1.6265228075908293,3.6444712377854147,-91.37624694897424,-11.179555,0.72558254,4.051648,21.643919,-12.575046,-0.16143459,-6.8341966,-0.19164518,-9.542187,12.958494,-9.877977,1.5204303,-1.9000205,-0.19531311,1.427122,16.72623,13.094353,-10.506393,38.04442,19.2195,5.484371,10.8908825,12.14248,-9.091328,20.375242,50.47565,-28.058582,8.035696,-20.501984
125,1.4196301698684692,2.24665904045105,78.75276947021484,-1.6770242183680089,3.7377058175949314,-91.4054004735529,-11.382984,0.7745569,4.0224557,21.850294,-12.702153,-0.057944115,-6.847702,-0.12053116,-9.5352125,12.734941,-9.731329,1.5875561,-1.7407346,-0.09748789,1.470572,16.989855,12.893804,-10.230209,38.142918,19.137823,5.4159317,11.037179,11.809006,-9.102094,20.469866,50.65207,-28.03468,8.020433,-20.468216
126,1.4258860349655151,2.250706195831299,78.7509765625,-1.713367624419034,3.8366959493856116,-91.46129858746812,-11.570412,0.8086305,4.0176616,22.01456,-12.818568,0.065790184,-6.9114723,-0.0684636,-9.498617,12.586167,-9.603619,1.6626569,-1.5855656,-0.014552284,1.5227946,17.279045,12.676887,-9.9308405,38.274334,19.049278,5.3612514,11.218719,11.422482,-9.116737,20.58421,50.85751,-28.015497,8.001279,-20.429516
127,1.4335962533950806,2.2557919025421143,78.74877166748047,-1.7391518048242498,3.9368738841049664,-91.52997360775657,-11.747283,0.8304706,4.024966,22.155367,-12.928191,0.19952881,-7.008712,-0.031771857,-9.4478245,12.496505,-9.498054,1.7352971,-1.4365723,0.057336193,1.582862,17.580475,12.452143,-9.640575,38.434296,18.974146,5.326835,11.403438,11.000681,-9.134751,20.699858,51.064346,-28.015182,7.9966025,-20.392176
128,1.4463117122650146,2.2644765377044678,78.74457550048828,-1.7574548616186512,4.03399944366476,-91.59764207458986,-11.918473,0.8426189,4.0321255,22.290941,-13.034764,0.33308008,-7.1196904,-0.0059809424,-9.398187,12.444843,-9.415095,1.7949263,-1.2930914,0.1199508,1.649948,17.883009,12.23449,-9.394329,38.61528,18.929869,5.319269,11.558693,10.564696,-9.154587,20.79621,51.24234,-28.048292,8.024442,-20.361807
129,1.460459589958191,2.2700257301330566,78.74198913574219,-1.7639540438861685,4.128203152616096,-91.66571867174439,-12.080574,0.8412768,4.0428295,22.413244,-13.129598,0.46891573,-7.2532625,0.0033206756,-9.349263,12.448204,-9.363191,1.8360548,-1.1473805,0.16541325,1.727828,18.185072,12.033449,-9.200986,38.81135,18.916756,5.3530664,11.679143,10.115255,-9.173292,20.873665,51.39186,-28.129488,8.107269,-20.340595
130,1.4672908782958984,2.2755510807037354,78.73667907714844,-1.7586778176768278,4.221554185931274,-91.73994040143384,-12.232486,0.8267437,4.061447,22.517046,-13.213954,0.61054784,-7.4138684,-0.003323415,-9.294342,12.507277,-9.337472,1.8653206,-0.9977641,0.19103895,1.8161372,18.494719,11.8503475,-9.046036,39.022793,18.92249,5.4205976,11.779817,9.644545,-9.189466,20.937147,51.524685,-28.248281,8.229127,-20.325006
131,1.4756132364273071,2.2841405868530273,78.73028564453125,-1.7513928264855758,4.3121649708354175,-91.81257032061403,-12.38159,0.8077406,4.076381,22.62217,-13.304868,0.7496885,-7.5823145,-0.013930359,-9.239783,12.591615,-9.326663,1.8900131,-0.8534212,0.20791693,1.9084905,18.815767,11.687878,-8.929472,39.25112,18.944464,5.4952,11.858653,9.166275,-9.201916,20.97375,51.62327,-28.380484,8.349741,-20.31058
132,1.4839518070220947,2.2915894985198975,78.72450256347656,-1.7519595296499633,4.397805513588862,-91.87582312038231,-12.536773,0.7930961,4.0759406,22.75082,-13.420495,0.87810075,-7.737849,-0.01604628,-9.191934,12.667257,-9.317375,1.9173491,-0.72236997,0.2271123,1.9983652,19.151789,11.549576,-8.852946,39.49775,18.979593,5.550134,11.913156,8.696091,-9.20922,20.968962,51.668697,-28.502346,8.428636,-20.293432
133,1.4891066551208496,2.2958943843841553,78.71672821044922,-1.760159590151747,4.478141520111595,-91.92841988546782,-12.693584,0.7837552,4.061057,22.896101,-13.565421,0.98954827,-7.874466,-0.008268168,-9.149427,12.7229805,-9.305952,1.9538053,-0.6044652,0.24683918,2.0827785,19.500841,11.440495,-8.8206835,39.77328,19.031246,5.574483,11.934687,8.234982,-9.211099,20.91902,51.661987,-28.618898,8.450034,-20.268797
134,1.4954767227172852,2.3009376525878906,78.70752716064453,-1.7715088872332219,4.55424526630619,-91.9742395264991,-12.850579,0.7753297,4.036576,23.052025,-13.730735,1.0897849,-8.003191,0.0034626871,-9.109927,12.777244,-9.299313,1.9939381,-0.49443695,0.26104173,2.165444,19.863123,11.362082,-8.831968,40.072144,19.098238,5.5836825,11.926606,7.7772074,-9.207328,20.829739,51.610703,-28.739157,8.436921,-20.240196
135,1.5045194625854492,2.2996628284454346,78.6980209350586,-1.789443002457311,4.626512554636274,-92.01348058688053,-13.016175,0.7691553,3.996422,23.233232,-13.9090805,1.1882962,-8.130086,0.020080857,-9.078307,12.842812,-9.301284,2.027121,-0.39609194,0.26828635,2.2522228,20.256416,11.327549,-8.874538,40.356647,19.164642,5.5890994,11.899437,7.3318644,-9.200765,20.709925,51.494617,-28.839912,8.406859,-20.214266
136,1.5159136056900024,2.3018088340759277,78.68855285644531,-1.8175060017842528,4.6946530188719,-92.04607220733746,-13.199595,0.7662884,3.9344654,23.45695,-14.094754,1.2947096,-8.258308,0.0426115,-9.059392,12.927005,-9.312758,2.0430279,-0.30374116,0.28891757,2.3417957,20.657412,11.296491,-8.952131,40.643078,19.235409,5.6073127,11.882899,6.885219,-9.184363,20.541378,51.334896,-28.917253,8.378889,-20.202576
137,1.5268765687942505,2.303936719894409,78.67485809326172,-1.8588483436844334,4.760371944419506,-92.0684855822609,-13.413705,0.764274,3.8336427,23.741371,-14.293124,1.4189723,-8.391634,0.07331992,-9.060173,13.035273,-9.335226,2.0309627,-0.24730873,0.3175098,2.4406364,21.098206,11.284665,-9.039466,40.896885,19.306965,5.639046,11.8707285,6.434958,-9.169005,20.358301,51.11105,-28.948372,8.358708,-20.207676
138,1.544562578201294,2.3022208213806152,78.66020965576172,-1.9110905647153897,4.822635069854998,-92.0818253102604,-13.649031,0.7630177,3.702253,24.071348,-14.504006,1.553512,-8.525272,0.111321546,-9.076243,13.158734,-9.365778,1.9990808,-0.18777254,0.35870966,2.5426047,21.535778,11.285515,-9.180754,41.166943,19.382986,5.681728,11.866683,5.984481,-9.141381,20.106567,50.841858,-28.966028,8.334233,-20.224075
139,1.558502435684204,2.305349826812744,78.642822265625,-1.9688264150576087,4.879540598471504,-92.09368560172886,-13.884223,0.7676647,3.572409,24.416672,-14.714653,1.6813722,-8.657192,0.152259,-9.095273,13.297098,-9.406205,1.9649552,-0.122435965,0.39746746,2.6422222,21.98973,11.312889,-9.355213,41.42991,19.454943,5.7290545,11.860449,5.5418243,-9.096637,19.811611,50.533363,-28.968235,8.303727,-20.24973
140,1.5745183229446411,2.305957078933716,78.62259674072266,-2.0273349779597902,4.928767822018119,-92.11150243756019,-14.098851,0.78434473,3.4760902,24.748867,-14.913879,1.7856678,-8.784977,0.1920609,-9.105058,13.449179,-9.457865,1.9462314,-0.076200224,0.4333691,2.7369287,22.490246,11.346942,-9.511594,41.659637,19.529911,5.7728515,11.84047,5.1124454,-9.057984,19.531267,50.180588,-28.941261,8.266678,-20.279602
141,1.6025036573410034,2.2993128299713135,78.60209655761719,-2.086630579125293,4.968558152925795,-92.13382537217328,-14.289134,0.8150586,3.4208274,25.066462,-15.104104,1.8632872,-8.89913,0.23057164,-9.104909,13.601395,-9.5196495,1.9502347,-0.021687683,0.47018453,2.8235383,23.01813,11.396903,-9.6936655,41.87224,19.591555,5.8152986,11.813508,4.703558,-9.009864,19.214119,49.79682,-28.890087,8.211359,-20.316416
142,1.6323158740997314,2.2880659103393555,78.57923889160156,-2.149160057115484,5.00050670335903,-92.15777126466915,-14.465001,0.8569468,3.3897634,25.381948,-15.289463,1.9228245,-9.002432,0.2701752,-9.100663,13.755482,-9.589563,1.9666635,0.01919514,0.5117181,2.9053853,23.580984,11.452318,-9.883095,42.065155,19.650803,5.8575306,11.779711,4.3035254,-8.962299,18.882298,49.376995,-28.808699,8.143674,-20.361372
143,1.6605172157287598,2.270897626876831,78.55667114257812,-2.212871144872058,5.027268601851532,-92.1887963262375,-14.628443,0.9088056,3.3788662,25.690908,-15.461626,1.9650925,-9.1162195,0.30884674,-9.0892935,13.94597,-9.674615,1.9867979,0.06548238,0.5496066,2.981755,24.15993,11.51311,-10.069747,42.251026,19.723337,5.90021,11.73899,3.9190304,-8.915033,18.546785,48.907024,-28.7235,8.081025,-20.406063
144,1.685140609741211,2.253394842147827,78.53343200683594,-2.275350159810127,5.051708449767609,-92.23246959524245,-14.781242,0.9685595,3.3842232,25.989206,-15.61258,1.9907936,-9.25895,0.34537888,-9.067912,14.200195,-9.777608,2.001859,0.13100572,0.57356745,3.0521905,24.741457,11.579185,-10.236579,42.43781,19.825893,5.9434433,11.690224,3.5525098,-8.868402,18.225428,48.374676,-28.658813,8.041455,-20.44304
145,1.7100367546081543,2.232071876525879,78.50767517089844,-2.3366145169837784,5.075288112185233,-92.29416300243568,-14.92205,1.0383365,3.4108055,26.272387,-15.734767,2.0048587,-9.434546,0.38165212,-9.030451,14.520874,-9.898481,2.0076718,0.22247021,0.5811818,3.1147804,25.327845,11.6499,-10.383451,42.630283,19.985481,5.9882936,11.632048,3.2028248,-8.8218565,17.918814,47.78402,-28.587172,8.033312,-20.467318
146,1.7312179803848267,2.217586040496826,78.48081970214844,-2.397577510504359,5.0964137813907895,-92.36970863610634,-15.051335,1.1181407,3.4588175,26.54559,-15.835024,2.0051336,-9.631621,0.4180318,-8.980271,14.890756,-10.034741,2.009603,0.3308363,0.5780366,3.1702855,25.925203,11.724349,-10.516943,42.822647,20.186026,6.0341296,11.565435,2.869805,-8.774437,17.619682,47.138565,-28.506542,8.045942,-20.483942
147,1.758671522140503,2.1983022689819336,78.45539855957031,-2.457773748986428,5.112635634274293,-92.45007022709112,-15.1672945,1.2028406,3.5176327,26.806606,-15.9226885,1.9816017,-9.853226,0.44927418,-8.928505,15.3247,-10.190521,2.0135033,0.4457016,0.56468874,3.222447,26.526762,11.802404,-10.628265,43.006702,20.379843,6.07881,11.4923525,2.555024,-8.728411,17.33471,46.42719,-28.4802,8.069226,-20.500628
148,1.793566346168518,2.1731841564178467,78.42189025878906,-2.5161017901059375,5.121426047971087,-92.52609670782859,-15.27188,1.2868215,3.5767245,27.061337,-16.006195,1.924241,-10.094574,0.47112498,-8.886081,15.820179,-10.368051,2.0253217,0.55620944,0.54236,3.275451,27.125647,11.882937,-10.709274,43.17353,20.519476,6.120088,11.414672,2.2643554,-8.68568,17.071617,45.634186,-28.570152,8.092777,-20.524487
149,1.826876163482666,2.149686813354492,78.38819122314453,-2.5714298446188146,5.12083044978978,-92.59805049855461,-15.35429,1.3683234,3.6366427,27.293722,-16.07886,1.8209486,-10.346963,0.48394677,-8.853798,16.365952,-10.569873,2.0532005,0.66656655,0.5091108,3.3268585,27.727076,11.964765,-10.753247,43.32039,20.59199,6.153271,11.333242,2.0034208,-8.6487875,16.83495,44.76258,-28.833908,8.13038,-20.552391
150,1.858528733253479,2.1249399185180664,78.35546112060547,-2.6241658989745718,5.11257976675972,-92.6698998248524,-15.417814,1.4493865,3.7024195,27.507545,-16.139421,1.6800845,-10.611579,0.48995456,-8.826489,16.958391,-10.791617,2.0921943,0.77956486,0.46567276,3.3762393,28.332039,12.046751,-10.765541,43.45182,20.623215,6.180859,11.246981,1.7703001,-8.617936,16.620943,43.81453,-29.22394,8.182154,-20.58143
151,1.8860704898834229,2.0997753143310547,78.31916809082031,-2.6763718971576593,5.100240226604593,-92.7381905795704,-15.481272,1.5316689,3.7699175,27.730087,-16.205023,1.5221962,-10.919138,0.48501453,-8.806671,17.651934,-11.036387,2.1286273,0.8821248,0.41723546,3.4294846,28.928411,12.128507,-10.755482,43.571083,20.623425,6.2119,11.154944,1.5572846,-8.59162,16.424719,42.776405,-29.645723,8.217723,-20.619356
152,1.9160544872283936,2.080336570739746,78.28045654296875,-2.729348371521006,5.087252648573164,-92.79956910781522,-15.563354,1.6156951,3.8353589,27.988564,-16.29343,1.3678877,-11.297931,0.46488398,-8.796433,18.4966,-11.3046055,2.1491153,0.9614668,0.36816114,3.4924912,29.503925,12.210194,-10.732301,43.681026,20.603058,6.2553387,11.055898,1.3571514,-8.566839,16.240698,41.63378,-30.004469,8.206815,-20.67464
153,1.9453225135803223,2.0648839473724365,78.23724365234375,-2.7818688237846283,5.077193134765061,-92.85718954180146,-15.664202,1.7007648,3.9040573,28.275562,-16.400665,1.2127954,-11.748849,0.4351784,-8.767044,19.477015,-11.605684,2.138587,1.0185513,0.31609643,3.5619152,30.061388,12.291268,-10.691755,43.785027,20.569319,6.313021,10.9470215,1.1705642,-8.541598,16.066305,40.392704,-30.27767,8.136517,-20.743954
154,1.981218934059143,2.0466628074645996,78.18803405761719,-2.8318283715421284,5.067213973697123,-92.91141030070173,-15.77378,1.7842157,3.9770923,28.578304,-16.519207,1.0490817,-12.256915,0.39538077,-8.726456,20.571795,-11.933784,2.1094527,1.0585374,0.25729573,3.6360567,30.605734,12.371688,-10.630785,43.880516,20.515205,6.380655,10.830078,1.000855,-8.515946,15.904663,39.05726,-30.515583,8.025189,-20.825169
155,2.0149810314178467,2.0334768295288086,78.13755798339844,-2.87986513799103,5.051048498119964,-92.95470890877573,-15.896485,1.8637327,4.0444913,28.917542,-16.660685,0.8923268,-12.827627,0.33048803,-8.731596,21.824215,-12.267812,2.089096,1.075317,0.19325489,3.7231026,31.127285,12.453435,-10.560724,43.962135,20.429771,6.457589,10.710422,0.84433526,-8.489525,15.758772,37.609608,-30.732414,7.889062,-20.928509
156,2.049938678741455,2.019700527191162,78.08090209960938,-2.9256558412122398,5.022059138195156,-92.97926284446483,-16.035242,1.9360663,4.096394,29.311247,-16.834545,0.7583156,-13.4677305,0.22201522,-8.838433,23.281704,-12.58913,2.103902,1.0636253,0.12550825,3.831421,31.616148,12.539786,-10.493957,44.02354,20.301466,6.543398,10.593552,0.7006275,-8.461307,15.630671,36.029346,-30.942213,7.7444572,-21.064077
157,2.086635112762451,2.008941650390625,78.01836395263672,-2.9602045154348513,4.983639423152529,-92.97858430180635,-16.1936,1.9871472,4.1325536,29.756807,-17.039143,0.6580626,-14.168296,0.05272223,-9.060057,24.896452,-12.898961,2.1749773,1.0208774,0.043413244,3.9578335,32.074295,12.633598,-10.429785,44.061172,20.107315,6.6470046,10.4810915,0.57927495,-8.432711,15.521877,34.311394,-31.150589,7.589267,-21.254324
158,2.1233792304992676,2.0060882568359375,77.94964599609375,-2.985760766784033,4.937598463555035,-92.95830022549258,-16.36801,2.0213485,4.158071,30.24506,-17.269135,0.58076257,-14.930225,-0.1698533,-9.364411,26.669088,-13.206027,2.2807658,0.9519016,-0.051827308,4.0999107,32.50605,12.7352495,-10.3641815,44.07712,19.859095,6.76571,10.3696,0.48162195,-8.40407,15.429649,32.46197,-31.3493,7.4165974,-21.487091
159,2.1553328037261963,2.0122084617614746,77.86786651611328,-3.0176018785432546,4.874720505529703,-92.9285345279578,-16.550964,2.061007,4.172144,30.783768,-17.52946,0.5098307,-15.761158,-0.4287741,-9.738717,28.693527,-13.497903,2.3828263,0.8613597,-0.14435288,4.2668514,32.9055,12.844862,-10.3028755,44.07604,19.597784,6.881919,10.257844,0.39399534,-8.372265,15.350836,30.472849,-31.532629,7.239119,-21.71886
160,2.192110061645508,2.0166361331939697,77.78457641601562,-3.06954578489885,4.785734033365478,-92.89929777481709,-16.734234,2.1265345,4.174485,31.380472,-17.824753,0.42898872,-16.667978,-0.7082156,-10.170093,31.064163,-13.760297,2.4435215,0.7537051,-0.21980667,4.4678698,33.26636,12.962538,-10.25126,44.062103,19.36396,6.9777393,10.143755,0.30246812,-8.331449,15.281905,28.338007,-31.694876,7.06759,-21.906986
161,2.2304887771606445,2.0226452350616455,77.69464111328125,-3.143392633128878,4.676251995250774,-92.87480231072114,-16.920773,2.2206595,4.171568,32.03059,-18.15696,0.33071014,-17.673258,-1.0593756,-10.7638035,33.851944,-13.920042,2.4400654,0.6306825,-0.2789524,4.6980047,33.59879,13.088553,-10.200828,44.02119,19.156837,7.04774,10.015795,0.21224168,-8.279015,15.224144,26.038435,-31.826883,6.911595,-22.040184
162,2.271855115890503,2.0289297103881836,77.60044860839844,-3.2288769758636127,4.54781549160626,-92.84836811129072,-17.109804,2.3277402,4.1632833,32.72734,-18.520857,0.22526139,-18.75214,-1.4880365,-11.483199,36.97648,-14.001121,2.3876235,0.48826388,-0.33372846,4.9549413,33.90345,13.223515,-10.150388,43.955704,18.958775,7.101865,9.878543,0.12856537,-8.215841,15.179546,23.581612,-31.93532,6.76353,-22.141375
163,2.299203634262085,2.0498414039611816,77.4954833984375,-3.32294864511036,4.385122866448811,-92.81348564637486,-17.285168,2.4421735,4.1389456,33.472466,-18.910557,0.12244135,-19.843122,-1.8937074,-12.109916,40.30302,-14.132796,2.3178074,0.32216007,-0.38419944,5.251535,34.159355,13.368916,-10.118752,43.896107,18.785416,7.145034,9.754239,0.04029078,-8.139672,15.145539,20.998352,-32.03803,6.6085434,-22.219604
164,2.330756425857544,2.068282127380371,77.38526153564453,-3.4264283522250967,4.173537255600454,-92.76456604251344,-17.43275,2.5619676,4.0868425,34.271343,-19.321241,0.031325847,-20.89521,-2.1507795,-12.435862,43.702824,-14.445363,2.2795432,0.12975049,-0.4285072,5.5998063,34.345493,13.5270195,-10.125047,43.873554,18.652132,7.1820436,9.665084,-0.06684897,-8.047418,15.118262,18.322102,-32.153763,6.431893,-22.284605
165,2.3640031814575195,2.088028907775879,77.26185607910156,-3.5428665779020774,3.910165301044999,-92.70565487037005,-17.555391,2.6904655,4.004108,35.13865,-19.7594,-0.049491286,-21.92605,-2.1833959,-12.387597,47.211163,-15.032186,2.2857347,-0.0897552,-0.46598125,5.999386,34.4689,13.69933,-10.172735,43.89075,18.585033,7.2051764,9.628544,-0.18850225,-7.936663,15.094157,15.518488,-32.286823,6.23625,-22.326643
166,2.3875622749328613,2.1085619926452637,77.13736724853516,-3.675083814205171,3.602945276596807,-92.6383864498638,-17.65843,2.830282,3.8969011,36.06799,-20.225056,-0.12393348,-22.958384,-2.031192,-12.103078,50.87401,-15.805243,2.3371577,-0.33286962,-0.4960777,6.4439435,34.536266,13.886429,-10.253902,43.933846,18.568048,7.2145934,9.628452,-0.31712505,-7.807932,15.075146,12.580661,-32.42841,6.027284,-22.345114
167,2.409728527069092,2.127209186553955,77.00987243652344,-3.8233925659794896,3.253748828490946,-92.55366301781986,-17.733377,2.9808152,3.76443,37.0344,-20.706425,-0.19185852,-23.95701,-1.7369798,-11.697128,54.597073,-16.630173,2.4690354,-0.59551007,-0.5159873,6.936181,34.52529,14.089251,-10.371449,44.0092,18.552006,7.2272053,9.637428,-0.4649889,-7.663545,15.065488,9.585192,-32.578533,5.7940845,-22.363861
168,2.427077054977417,2.1451451778411865,76.87915802001953,-3.986865654667064,2.864337296829565,-92.44211059477861,-17.773556,3.1409671,3.606565,38.0163,-21.19288,-0.2478798,-24.884476,-1.3602061,-11.275976,58.29028,-17.378021,2.7065349,-0.8732495,-0.52376777,7.479167,34.41306,14.308891,-10.528955,44.123684,18.488085,7.260098,9.628202,-0.6465537,-7.507064,15.068938,6.6100335,-32.736996,5.525628,-22.406527
169,2.442241907119751,2.1677567958831787,76.74725341796875,-4.169132080682903,2.420333355757403,-92.30099178636203,-17.769398,3.3171759,3.4221494,39.025208,-21.689604,-0.28489447,-25.736414,-0.84478766,-10.781573,61.978603,-18.026783,3.1134973,-1.1681507,-0.5184787,8.095351,34.196865,14.546557,-10.737549,44.27502,18.375721,7.3184943,9.5937395,-0.88092804,-7.3397193,15.091552,3.6252823,-32.88977,5.219325,-22.478445
170,2.4491231441497803,2.195514440536499,76.60684967041016,-4.372180549266739,1.926180861055098,-92.13529753500639,-17.726803,3.5114424,3.2106757,40.066406,-22.198826,-0.3071677,-26.528368,-0.16826983,-10.203476,65.707466,-18.655897,3.667516,-1.478832,-0.49972293,8.776103,33.885876,14.800956,-10.996216,44.462326,18.235903,7.393062,9.5483465,-1.1509674,-7.1604214,15.129028,0.6009922,-33.040276,4.8807473,-22.568365
171,2.454413652420044,2.2232046127319336,76.4630355834961,-4.589903029244595,1.4119052857771532,-91.94728914469059,-17.663776,3.7127292,2.9736955,41.11205,-22.708715,-0.32823384,-27.25711,0.5280755,-9.696975,69.42662,-19.282032,4.245009,-1.7972018,-0.47157395,9.478107,33.47424,15.06866,-11.289299,44.69301,18.051802,7.478863,9.495883,-1.429954,-6.9724326,15.1698065,-2.3759513,-33.217163,4.5108976,-22.674877
172,2.456739664077759,2.2477779388427734,76.3206558227539,-4.813373885108698,0.90762392411259,-91.73949009504794,-17.599089,3.907767,2.7138872,42.135693,-23.207767,-0.36112243,-27.923544,1.0848365,-9.398462,73.08357,-19.912601,4.709716,-2.115862,-0.4375017,10.158665,32.955437,15.34454,-11.601407,44.97453,17.806923,7.5708666,9.4409485,-1.6886387,-6.779428,15.202392,-5.220718,-33.447266,4.110875,-22.796846
173,2.4549171924591064,2.256222724914551,76.17848205566406,-5.044948188719099,0.39820481934303315,-91.50943285379779,-17.514036,4.095019,2.4271433,43.13417,-23.69858,-0.41483006,-28.50122,1.4342393,-9.346882,76.70314,-20.547552,5.001047,-2.4432046,-0.39661077,10.835604,32.329926,15.627115,-11.933731,45.30668,17.447672,7.6791277,9.3651705,-1.9610735,-6.5823936,15.235202,-7.952739,-33.720207,3.6335742,-22.939001
174,2.451766014099121,2.2714004516601562,76.03744506835938,-5.28515434582972,-0.12424707515546848,-91.25642001313804,-17.40577,4.2808547,2.1141336,44.119213,-24.184675,-0.479906,-28.99427,1.6450889,-9.447282,80.30605,-21.181902,5.178054,-2.7804205,-0.34835365,11.523297,31.599052,15.914439,-12.294429,45.685406,16.999306,7.802835,9.273381,-2.253438,-6.380548,15.270629,-10.601888,-34.02659,3.093702,-23.102818
175,2.444007158279419,2.279660940170288,75.89389038085938,-5.529903357956421,-0.6190371229345027,-90.98590748757363,-17.321247,4.4616437,1.7849684,45.09257,-24.660154,-0.5418124,-29.452293,1.7536528,-9.627304,83.83463,-21.808174,5.276392,-3.110486,-0.2954625,12.17434,30.757727,16.19921,-12.675585,46.111675,16.565037,7.920351,9.204601,-2.4912593,-6.1750793,15.288046,-13.102716,-34.395943,2.5881803,-23.279907
176,2.437208890914917,2.27868390083313,75.7509994506836,-5.7724088972193766,-1.0456266857209795,-90.70388071211696,-17.30632,4.632711,1.4496163,46.05485,-25.117847,-0.58655083,-29.92692,1.8046975,-9.821046,87.22643,-22.41899,5.3389816,-3.4179964,-0.23871027,12.741497,29.801193,16.471836,-13.06801,46.58733,16.249119,8.009345,9.197834,-2.6031904,-5.9697275,15.268162,-15.388655,-34.857105,2.2132978,-23.460585
177,2.424520254135132,2.2699875831604004,75.60649871826172,-6.010273023200645,-1.3885402098078652,-90.41131707234341,-17.378635,4.790802,1.1087099,47.00678,-25.55382,-0.60281557,-30.432241,1.7733798,-10.040686,90.49444,-23.013525,5.3490033,-3.702536,-0.17120352,13.206544,28.706167,16.730495,-13.511687,47.167107,16.0728,8.049851,9.287363,-2.591206,-5.767256,15.210108,-17.499075,-35.57303,2.0189655,-23.648886
178,2.4144766330718994,2.250401020050049,75.46401977539062,-6.248541336938377,-1.6705089337108925,-90.10594025123872,-17.512629,4.937119,0.7575227,47.948956,-25.972677,-0.60105187,-30.938194,1.6411389,-10.301973,93.66864,-23.59706,5.2857723,-3.9710765,-0.09190686,13.598536,27.481514,16.974285,-13.998152,47.8304,15.982852,8.058201,9.444381,-2.4876192,-5.5689516,15.122562,-19.453833,-36.47506,1.9469148,-23.845371
179,2.40210223197937,2.228914976119995,75.31705474853516,-6.483938751646388,-1.9087758931209236,-89.7891480697745,-17.68854,5.0735626,0.39770314,48.880436,-26.379211,-0.6005065,-31.436398,1.4716276,-10.553444,96.711494,-24.16998,5.1971436,-4.2242565,-0.008413019,13.941023,26.17082,17.192755,-14.440503,48.468323,15.974413,8.066025,9.613841,-2.2704086,-5.375101,15.005569,-21.149311,-37.243233,1.9302083,-24.035885
180,2.3816137313842773,2.207017660140991,75.16464233398438,-6.7166710261090845,-2.1206266139611487,-89.46231468598289,-17.887316,5.202925,0.031110384,49.80147,-26.779772,-0.62019104,-31.922476,1.3334419,-10.749984,99.58419,-24.7315,5.135876,-4.4690566,0.07257638,14.255966,24.818768,17.371254,-14.745879,48.977318,16.045635,8.105376,9.742859,-1.9260511,-5.184825,14.864893,-22.468857,-37.558727,1.8999746,-24.207802
181,2.3537163734436035,2.180927276611328,75.01020812988281,-6.947368259070676,-2.2990826304786247,-89.12171672680091,-18.122066,5.3265295,-0.3456097,50.7221,-27.17873,-0.6654693,-32.409542,1.2307104,-10.8972435,102.29843,-25.284534,5.098861,-4.71424,0.15780465,14.534102,23.412823,17.49989,-14.883884,49.39462,16.296736,8.204077,9.80038,-1.4364023,-4.990226,14.708064,-23.40617,-37.256428,1.8223063,-24.360233
182,2.323302984237671,2.1438210010528564,74.85873413085938,-7.1754715166151914,-2.4387957274684076,-88.76844329242437,-18.397396,5.4421344,-0.73206365,51.640244,-27.572796,-0.7267375,-32.898605,1.1360952,-11.0173,104.87148,-25.826845,5.0669513,-4.9657907,0.25000405,14.766549,21.93875,17.579264,-14.892257,49.762787,16.701183,8.338879,9.823503,-0.83225167,-4.7884808,14.540527,-23.995602,-36.535515,1.7362001,-24.497358
183,2.288473606109619,2.0994651317596436,74.70581817626953,-7.398854039077613,-2.559544702667208,-88.41126405407074,-18.680286,5.549378,-1.1213319,52.536926,-27.95694,-0.79991764,-33.37091,1.0734426,-11.092651,107.26917,-26.348064,5.074997,-5.2242107,0.3379334,14.974967,20.435438,17.614449,-14.783027,49.990887,17.066505,8.464583,9.862367,-0.16874114,-4.5910378,14.362394,-24.180258,-35.623005,1.6827784,-24.616144
184,2.247288227081299,2.053475856781006,74.5572280883789,-7.616483432153557,-2.681126087656174,-88.05845367625946,-18.938086,5.6481996,-1.5068213,53.393993,-28.326344,-0.8799656,-33.80999,1.0663499,-11.105667,109.45754,-26.836693,5.1589317,-5.4874496,0.41193697,15.182171,18.941092,17.612263,-14.571939,49.985355,17.198818,8.536143,9.967228,0.50841665,-4.417254,14.171772,-23.91775,-34.741898,1.705596,-24.717688
185,2.2068591117858887,2.004152774810791,74.41106414794922,-7.833223189012425,-2.8106714979777903,-87.70243738295207,-19.168676,5.740534,-1.8957872,54.22072,-28.681198,-0.967737,-34.212246,1.1427294,-11.041793,111.432816,-27.299757,5.3639984,-5.7575264,0.47266528,15.3965435,17.466604,17.574163,-14.221187,49.730633,17.020517,8.546138,10.1714525,1.2376803,-4.279797,13.955468,-23.193413,-33.848923,1.8257438,-24.775185
186,2.156322956085205,1.95066499710083,74.26615905761719,-8.045312367232317,-2.937306211418713,-87.3417928867006,-19.388357,5.8265986,-2.2895374,55.025196,-29.023518,-1.0643834,-34.591793,1.2844845,-10.917631,113.214615,-27.73679,5.6631074,-6.0332117,0.5302607,15.604876,15.989596,17.502508,-13.737782,49.27487,16.643301,8.515327,10.441458,2.0390036,-4.180311,13.718396,-22.045872,-32.853466,2.0200357,-24.804546
187,2.1082804203033447,1.8942607641220093,74.12435150146484,-8.248199180625537,-3.054602937841907,-86.9932831302334,-19.589132,5.9048333,-2.672989,55.779675,-29.352657,-1.1648552,-34.956085,1.4440309,-10.759149,114.799835,-28.125902,5.981536,-6.3028316,0.58761114,15.797522,14.496966,17.408625,-13.209668,48.618874,16.155575,8.440938,10.725328,2.8412445,-4.125068,13.479951,-20.505568,-31.90822,2.2647486,-24.870256
188,2.060624599456787,1.8319294452667236,73.99288940429688,-8.430748986811608,-3.156051623869671,-86.67364134711504,-19.76628,5.973326,-3.0312417,56.462585,-29.665726,-1.2633811,-35.313873,1.5712105,-10.587886,116.181076,-28.440975,6.242217,-6.549669,0.6470931,15.966017,12.97636,17.30702,-12.730548,47.75663,15.642804,8.321659,10.968679,3.5803428,-4.1229854,13.254604,-18.61558,-31.163618,2.5345695,-25.0358
189,2.0063138008117676,1.7666267156600952,73.8662109375,-8.592320772779276,-3.2466252390367014,-86.39099418238368,-19.918818,6.036284,-3.3595903,57.082737,-29.966558,-1.3582953,-35.676945,1.6735749,-10.38118,117.36801,-28.678406,6.44077,-6.7621765,0.70810723,16.114742,11.4320345,17.207407,-12.31867,46.674282,15.040677,8.132037,11.164384,4.27145,-4.1792903,13.012213,-16.34836,-30.830465,2.8834128,-25.353165
190,1.9520729780197144,1.6954654455184937,73.75370025634766,-8.736176964823938,-3.3284009361861364,-86.13432830794123,-20.050377,6.0933213,-3.6671033,57.64921,-30.255135,-1.4512311,-36.043804,1.7670318,-10.131125,118.360016,-28.843016,6.611851,-6.9441433,0.77084136,16.244923,9.871782,17.110758,-11.934884,45.370136,14.327472,7.8808646,11.332879,4.957539,-4.2943506,12.750049,-13.712014,-30.765448,3.3058853,-25.778757
191,1.8918719291687012,1.632387399673462,73.6444320678711,-8.859349711575618,-3.390316024227044,-85.89253367733427,-20.160885,6.1360517,-3.959176,58.13476,-30.520655,-1.541124,-36.40183,1.812302,-9.878779,119.14203,-28.922045,6.736194,-7.1028914,0.83745307,16.343504,8.290174,17.01492,-11.58499,43.85493,13.653032,7.6208496,11.4634285,5.6113944,-4.47317,12.524839,-10.788083,-30.590832,3.6846747,-26.23274
192,1.8350837230682373,1.5447180271148682,73.56112670898438,-8.961609949123307,-3.4214699819963705,-85.65428039811388,-20.25124,6.1554627,-4.2408414,58.515182,-30.753838,-1.6267829,-36.740067,1.7686882,-9.664407,119.69859,-28.902927,6.794069,-7.2465615,0.9109613,16.397423,6.680991,16.915312,-11.274117,42.13852,13.166908,7.405504,11.547967,6.2048426,-4.7251124,12.392903,-7.6578064,-29.931257,3.8975763,-26.63815
193,1.7668266296386719,1.4675812721252441,73.4867172241211,-9.04992220876315,-3.4202926293600187,-85.41602214795208,-20.329874,6.1554136,-4.5193686,58.803684,-30.96489,-1.7090312,-37.066147,1.611687,-9.500643,120.03469,-28.765705,6.7652593,-7.3850374,0.99935526,16.400896,5.033824,16.814125,-11.013272,40.23726,12.89027,7.2516155,11.568665,6.736409,-5.0679555,12.35764,-4.3060937,-28.448824,3.8461652,-27.001305
194,1.7061187028884888,1.3795243501663208,73.43269348144531,-9.11958354715687,-3.3925853385828804,-85.1835254957965,-20.394121,6.13832,-4.7904983,59.007935,-31.154762,-1.7871244,-37.386482,1.3634924,-9.362062,120.15462,-28.518944,6.6632476,-7.5127954,1.102592,16.359766,3.3625505,16.709332,-10.795192,38.13329,12.74687,7.131411,11.535566,7.23401,-5.508681,12.394826,-0.7175,-26.420052,3.6105568,-27.347849
195,1.6524606943130493,1.2718291282653809,73.4087142944336,-9.159036160719548,-3.337868914072015,-84.95950773313191,-20.427748,6.094302,-5.0426445,59.091877,-31.297974,-1.8582082,-37.686405,1.055246,-9.233924,120.0452,-28.194435,6.51836,-7.6184983,1.2122217,16.277308,1.6946908,16.585213,-10.593837,35.789246,12.741848,7.0313897,11.4858,7.712184,-6.0308867,12.521698,3.038692,-24.393154,3.3437502,-27.632704
196,1.5945888757705688,1.1640688180923462,73.404541015625,-9.156698865223985,-3.2557006791399052,-84.74700460066617,-20.413637,6.0135713,-5.2641134,59.01783,-31.368216,-1.9193475,-37.950413,0.7189692,-9.102157,119.69048,-27.824423,6.361688,-7.6931095,1.3163408,16.153742,0.05363902,16.421593,-10.379609,33.17285,12.885008,6.938664,11.459631,8.16993,-6.6070037,12.75525,6.9158297,-22.920475,3.2076366,-27.824755
197,1.5362834930419922,1.059171438217163,73.42914581298828,-9.103244582304116,-3.1390285805510802,-84.54019882441972,-20.362812,5.88162,-5.4551535,58.78782,-31.37508,-1.9690402,-38.185886,0.3144636,-8.97745,119.10027,-27.414719,6.1753273,-7.7367325,1.4009216,15.975031,-1.5674138,16.213665,-10.151383,30.23228,13.306092,6.8766723,11.508072,8.572551,-7.230066,13.095569,11.024828,-22.148136,3.2341523,-27.947222
198,1.4779921770095825,0.9411831498146057,73.49462890625,-9.005865371678867,-2.990962891335238,-84.33996225195193,-20.278673,5.708293,-5.6210275,58.416756,-31.326197,-2.0099342,-38.394016,-0.15910785,-8.867775,118.27887,-26.953009,5.949427,-7.7509665,1.4741346,15.737616,-3.1750793,15.964518,-9.921393,27.001385,13.961807,6.8460608,11.600118,8.932016,-7.904189,13.53173,15.36242,-21.785482,3.3491552,-28.01057
199,1.4149633646011353,0.8180460929870605,73.59346771240234,-8.881028184750122,-2.825494765101674,-84.15840848614704,-20.134369,5.5195394,-5.7584934,57.8892,-31.194746,-2.0446885,-38.548218,-0.6055531,-8.7533245,117.2003,-26.448608,5.732416,-7.730208,1.5564024,15.458005,-4.752265,15.666198,-9.677689,23.579119,14.602824,6.798464,11.654795,9.312904,-8.61112,14.063512,19.718538,-21.730963,3.5589404,-27.967443
200,1.3574376106262207,0.6842496991157532,73.73389434814453,-8.73883366726482,-2.6566769199126945,-84.0084972677192,-19.90314,5.343612,-5.8624096,57.18832,-30.953077,-2.0775797,-38.62101,-0.93306065,-8.613058,115.8385,-25.906757,5.5677447,-7.6689916,1.6657507,15.151285,-6.290477,15.308131,-9.407792,20.071775,14.984297,6.6834936,11.59464,9.762053,-9.322078,14.688227,23.906883,-21.89263,3.865814,-27.76754
201,1.298788070678711,0.5278886556625366,73.92276763916016,-8.581178914374812,-2.4901533664749653,-83.90346009169161,-19.57376,5.1848226,-5.9160633,56.31116,-30.60302,-2.1118026,-38.601074,-1.1164238,-8.436377,114.17878,-25.353085,5.4535995,-7.5483294,1.7965318,14.819543,-7.800461,14.879229,-9.105313,16.41752,15.01769,6.4938464,11.390084,10.257967,-10.027478,15.44609,27.986273,-22.438816,4.296249,-27.381977
202,1.2421027421951294,0.3662191927433014,74.14785766601562,-8.402449771158732,-2.317272296276414,-83.83437008516546,-19.16201,5.0291395,-5.925821,55.2647,-30.156094,-2.1468525,-38.493885,-1.2028745,-8.237988,112.2383,-24.785816,5.3693714,-7.371524,1.9388398,14.449476,-9.292226,14.382923,-8.779938,12.597408,14.846387,6.2554145,11.0897255,10.778144,-10.731853,16.31868,32.04438,-23.365564,4.8340087,-26.83292
203,1.1842824220657349,0.19127249717712402,74.41764831542969,-8.210038824070335,-2.1295837019880985,-83.78065649636795,-18.680803,4.873945,-5.9220896,54.047176,-29.60142,-2.18079,-38.296707,-1.2070482,-8.030445,110.03259,-24.170849,5.333092,-7.164254,2.1003308,14.035428,-10.762098,13.835662,-8.448789,8.783001,14.570464,5.967449,10.731966,11.368278,-11.420622,17.21035,35.941444,-24.328487,5.4138527,-26.147821
204,1.1287403106689453,0.008426099084317684,74.72779083251953,-8.006563014185943,-1.9191240936133214,-83.72171268309131,-18.144484,4.7157803,-5.9347615,52.65964,-28.924788,-2.211414,-38.00659,-1.145006,-7.8245945,107.57811,-23.473913,5.362336,-6.9487896,2.2830093,13.573056,-12.213648,13.260599,-8.135757,5.153792,14.28715,5.6271596,10.355227,12.072752,-12.06564,18.022263,39.537678,-24.988329,5.9778314,-25.361134
205,1.0738632678985596,-0.18806417286396027,75.07388305664062,-7.783729959902483,-1.6881767540768169,-83.66645516104268,-17.53332,4.5441976,-5.94688,51.067554,-28.131449,-2.2284799,-37.627617,-0.9513489,-7.570308,104.862915,-22.686563,5.508471,-6.702838,2.4733653,13.062355,-13.704361,12.662591,-7.860943,1.7224851,13.967902,5.2015133,9.935868,12.902182,-12.643921,18.792778,42.834618,-25.191006,6.5002036,-24.388859
206,1.0097357034683228,-0.3955206871032715,75.4508285522461,-7.5424841293808,-1.4390790978555625,-83.62142484709224,-16.845608,4.358228,-5.9465055,49.27955,-27.225168,-2.2401948,-37.148636,-0.64630824,-7.2693095,101.882,-21.83564,5.7392325,-6.417271,2.6592247,12.504302,-15.2282715,12.04158,-7.619994,-1.5858988,13.574252,4.703894,9.465727,13.821806,-13.1516285,19.548025,45.923206,-25.153357,7.01892,-23.251118
207,0.9418658018112183,-0.608707070350647,75.85951232910156,-7.302171924404536,-1.1641794194139337,-83.56240297045578,-16.124105,4.171418,-5.971865,47.360832,-26.194584,-2.27015,-36.55321,-0.37074843,-7.018573,98.65948,-20.93282,5.9510713,-6.133889,2.8450332,11.899621,-16.694582,11.417758,-7.4016657,-4.724636,13.184632,4.1994386,9.004683,14.804362,-13.587424,20.170105,48.795574,-25.091091,7.572597,-22.141623
208,0.8723192811012268,-0.8418984413146973,76.29691314697266,-7.081819749660418,-0.8560267746905369,-83.46527238448402,-15.413714,4.0016866,-6.0636077,45.37782,-25.028173,-2.339068,-35.829903,-0.25429276,-6.926748,95.213936,-19.985672,6.0521517,-5.894169,3.0360281,11.251852,-18.004486,10.819053,-7.19627,-7.657448,12.872708,3.7537146,8.613449,15.823951,-13.945672,20.541693,51.4351,-25.217136,8.191756,-21.2481
209,0.7986478805541992,-1.0845474004745483,76.75450134277344,-6.894197642400696,-0.5043846910560881,-83.3308963347719,-14.681863,3.8671603,-6.2446322,43.243523,-23.723185,-2.4461267,-34.96812,-0.31919405,-7.051115,91.511795,-19.043537,6.01546,-5.7128406,3.248036,10.552503,-19.157154,10.259297,-6.9876757,-10.403685,12.720468,3.379125,8.313558,16.89091,-14.201943,20.612938,53.849056,-25.58214,8.932198,-20.591085
210,0.7237634658813477,-1.3337244987487793,77.23111724853516,-6.727008013353479,-0.1161255080002685,-83.17039138993434,-13.921499,3.7523627,-6.4886866,40.959793,-22.28735,-2.5833123,-33.97359,-0.47724167,-7.346611,87.54872,-18.08881,5.905562,-5.5693927,3.4672964,9.805652,-20.196508,9.735813,-6.7888446,-12.979626,12.66047,3.042196,8.074551,17.993378,-14.339988,20.462769,56.068016,-26.07763,9.758284,-20.078032
211,0.6348139047622681,-1.5962169170379639,77.71752166748047,-6.5651531268953525,0.29032512642112757,-82.97494124453112,-13.21749,3.632391,-6.768085,38.727684,-20.722544,-2.7534554,-32.86275,-0.688833,-7.7704744,83.377785,-17.023811,5.7775764,-5.4563117,3.6589308,9.037863,-21.082369,9.251561,-6.6283793,-15.350841,12.544454,2.7352693,7.876811,19.06985,-14.374824,20.170305,58.100025,-26.668827,10.561202,-19.725958
212,0.5334703326225281,-1.8678642511367798,78.2097396850586,-6.395229042461072,0.6967706051130177,-82.73509227364256,-12.654956,3.4890087,-7.060034,36.751102,-19.031685,-2.9536183,-31.655483,-0.9213681,-8.273332,79.04788,-15.748546,5.681625,-5.3710084,3.7926638,8.281149,-21.763563,8.812128,-6.5297093,-17.497341,12.22012,2.4517932,7.6980224,20.071827,-14.341291,19.81568,59.9284,-27.312708,11.234065,-19.551949
213,0.42233216762542725,-2.1309823989868164,78.69833374023438,-6.22753146748022,1.1163721475311734,-82.44982081373689,-12.243916,3.3298323,-7.4266367,35.004734,-17.177702,-3.0626507,-30.342558,-1.2032807,-8.913009,74.48573,-14.1988735,5.5771947,-5.346624,3.8823502,7.5248556,-22.211449,8.427207,-6.4716725,-19.482021,11.552042,2.212395,7.522878,21.00722,-14.26033,19.387478,61.53078,-28.099041,11.766063,-19.65265
214,0.30738431215286255,-2.405809164047241,79.18201446533203,-6.062749083706904,1.5530570983007486,-82.1230967362478,-11.950425,3.1719024,-7.862292,33.41845,-15.177926,-3.118546,-28.916977,-1.5151794,-9.707198,69.68303,-12.439988,5.4704013,-5.3882084,3.9464276,6.7675476,-22.43894,8.098886,-6.436444,-21.322779,10.646976,2.0152133,7.363837,21.891903,-14.131747,18.866686,62.90776,-29.003885,12.215504,-19.985178
215,0.18731629848480225,-2.6645357608795166,79.6528549194336,-5.874487444641587,1.973906502829771,-81.75236379877059,-11.787282,3.008984,-8.253529,32.11532,-13.109082,-3.3580773,-27.407217,-1.7713711,-10.52651,64.77675,-10.557633,5.4673743,-5.450074,3.9638894,6.0560217,-22.459555,7.8178606,-6.452385,-22.935144,9.71837,1.8194565,7.2371078,22.696035,-13.965499,18.31702,64.0697,-29.814491,12.575045,-20.364746
216,0.06598875671625137,-2.9091105461120605,80.10016632080078,-5.638642903639144,2.344848785791011,-81.3353700154253,-11.754391,2.8264005,-8.498172,31.195097,-11.03757,-4.0212846,-25.845617,-1.9076827,-11.222715,59.895203,-8.627452,5.6579676,-5.485997,3.9167192,5.4379115,-22.293192,7.569713,-6.5450697,-24.225838,8.979906,1.5825334,7.1568737,23.39674,-13.779126,17.799156,65.018456,-30.319027,12.829564,-20.607754
217,-0.0709802582859993,-3.1411004066467285,80.511474609375,-5.335533271755187,2.665170286363821,-80.85511811986572,-11.791789,2.5790524,-8.618498,30.457287,-8.820285,-5.374196,-24.21226,-1.8945706,-11.700587,54.89096,-6.5599403,6.1465197,-5.5036335,3.7811246,4.909779,-21.938503,7.345949,-6.7235665,-25.188356,8.463806,1.256499,7.103066,24.012493,-13.582373,17.337286,65.726074,-30.43009,12.959065,-20.668661
218,-0.20902389287948608,-3.3647921085357666,80.87823486328125,-4.980030080562394,2.9471504823929706,-80.31730038141008,-11.907308,2.265268,-8.689711,29.90575,-6.4883976,-7.2455606,-22.497671,-1.7943064,-12.020355,49.723606,-4.33574,6.841423,-5.5260143,3.5800278,4.4537387,-21.391563,7.146403,-6.967916,-25.863512,8.067162,0.87495774,7.0711994,24.551964,-13.376728,16.896936,66.19422,-30.269184,12.973623,-20.646076
219,-0.3451705574989319,-3.5749406814575195,81.1914291381836,-4.59820439168558,3.1772923704381584,-79.75340378252848,-12.223898,1.925363,-8.666051,29.991045,-4.3802934,-9.208006,-20.7632,-1.6891996,-12.270002,44.70341,-2.1353436,7.543088,-5.527136,3.3591645,4.0951505,-20.66527,6.9667563,-7.2659745,-26.234512,7.8056655,0.5166992,7.1015434,24.978895,-13.172449,16.446007,66.46434,-29.939867,12.900574,-20.571676
220,-0.4756682217121124,-3.759951591491699,81.44222259521484,-4.21749716584613,3.34474359393487,-79.19543382239948,-12.878633,1.6136879,-8.459897,31.186974,-2.8105667,-10.808142,-19.083427,-1.6457366,-12.565535,40.163773,-0.1463253,8.064709,-5.4812455,3.1666946,3.8590221,-19.765528,6.799705,-7.603595,-26.287899,7.6975203,0.26006505,7.23511,25.26294,-12.983679,15.952758,66.57155,-29.544497,12.767053,-20.475334
221,-0.599307119846344,-3.920604705810547,81.64165496826172,-3.8221597559060108,3.4407657029661314,-78.6142779444014,-13.947378,1.3850281,-7.881372,33.74214,-1.807586,-11.953519,-17.445505,-1.6994437,-12.9630575,36.090103,1.7833833,8.446565,-5.393095,3.0041125,3.773581,-18.663881,6.6409965,-7.997632,-25.998198,7.817179,0.13494541,7.4866843,25.434425,-12.8144245,15.33162,66.46968,-29.037704,12.557723,-20.294722
222,-0.7219734787940979,-4.058733940124512,81.7871322631836,-3.4103538835170237,3.4739137954124164,-78.00590752161797,-15.359519,1.2420627,-7.0055685,37.38983,-1.210522,-12.828578,-15.837024,-1.7960188,-13.41006,32.341316,3.6860821,8.766796,-5.2687335,2.856969,3.8164926,-17.369514,6.488143,-8.455716,-25.377243,8.136916,0.09674338,7.8334546,25.503283,-12.663928,14.619666,66.15046,-28.388857,12.2672205,-20.032013
223,-0.8554403781890869,-4.170086860656738,81.89208984375,-3.0352414359541147,3.461655516246141,-77.44030211857947,-17.014622,1.1781759,-6.12489,41.8053,-1.0207192,-13.390786,-14.332945,-1.8623186,-13.879106,29.075312,5.1911054,8.898072,-5.08475,2.7546415,3.9383109,-15.944843,6.3406577,-8.941384,-24.46059,8.516512,0.11165981,8.258477,25.411505,-12.548002,13.970012,65.70309,-27.722898,11.935139,-19.81621
224,-0.9873588681221008,-4.262052536010742,81.93347930908203,-2.7457356945374904,3.4229113790521204,-76.98758671749687,-18.804415,1.1400814,-5.5285683,46.667362,-1.2454526,-13.636108,-13.003379,-1.8426106,-14.33791,26.460352,5.9210486,8.711317,-4.827863,2.7242458,4.0912666,-14.438823,6.2010703,-9.405985,-23.300034,8.812571,0.14450622,8.745202,25.10669,-12.494609,13.544825,65.20972,-27.164158,11.595826,-19.775475
225,-1.114803433418274,-4.333374500274658,81.8922119140625,-2.5592852931647685,3.372054936017471,-76.64043190784945,-20.788172,1.0928947,-5.2833753,52.178482,-2.0573838,-13.430723,-11.887214,-1.7548798,-14.847369,24.707312,5.585068,8.016846,-4.5032177,2.7846835,4.2584777,-12.825187,6.0705595,-9.881745,-21.857258,9.01292,0.20401305,9.355652,24.596743,-12.533952,13.44945,64.66576,-26.760757,11.225564,-19.96093
226,-1.240591287612915,-4.383951187133789,81.76493835449219,-2.4550753204091778,3.298216066902477,-76.37141616284568,-22.961395,1.0723232,-5.24837,58.378967,-3.3870401,-12.825041,-10.939378,-1.6218133,-15.381088,23.673286,4.4256845,6.9489546,-4.134759,2.930083,4.4683475,-11.062904,5.953479,-10.358583,-20.148705,9.179918,0.30120632,10.076535,23.907827,-12.671245,13.596687,64.021515,-26.438362,10.810379,-20.289083
227,-1.3616597652435303,-4.421825885772705,81.58027648925781,-2.4149899822476715,3.1834534589007553,-76.21920637976623,-25.131798,1.0688305,-5.384711,64.74127,-4.890487,-12.132888,-10.106783,-1.419081,-15.77686,23.013216,2.880555,5.85039,-3.7364094,3.1383448,4.7402315,-9.178246,5.8552737,-10.730271,-18.304108,9.282493,0.40235543,10.781349,23.014599,-12.88882,13.859784,63.294456,-26.138693,10.397959,-20.689238
228,-1.4748839139938354,-4.455715179443359,81.34285736083984,-2.416516091544466,3.0095102454662155,-76.22174621712924,-27.121008,1.0655646,-5.6305957,70.77378,-6.2291183,-11.674991,-9.341999,-1.1373917,-15.9009495,22.393078,1.3992321,5.038678,-3.3177726,3.377378,5.0924897,-7.2094283,5.7786055,-10.899052,-16.436253,9.288347,0.47338575,11.344651,21.890583,-13.159474,14.107229,62.50585,-25.80316,10.038169,-21.0951
229,-1.5740530490875244,-4.4797773361206055,81.05960845947266,-2.469647223353183,2.7360662441743755,-76.39845673657805,-28.854956,1.0098846,-6.0030394,76.4817,-7.3597813,-11.57945,-8.604142,-0.76213956,-15.694556,21.741379,0.06304713,4.586599,-2.8541317,3.646961,5.550247,-5.1471987,5.7162027,-10.856146,-14.539916,9.156788,0.51322716,11.684215,20.511557,-13.47361,14.340877,61.697533,-25.435663,9.782103,-21.548908
230,-1.6625752449035645,-4.485154628753662,80.74006652832031,-2.5718594206267626,2.3847879603504603,-76.72371752091371,-30.423878,0.8829527,-6.491618,82.11413,-8.466614,-11.691056,-7.935337,-0.33009428,-15.24293,21.251734,-1.3541156,4.3040247,-2.344701,3.9497428,6.090064,-2.987964,5.6571336,-10.664505,-12.546707,8.91063,0.5356749,11.885285,18.901262,-13.827216,14.612804,60.84468,-25.06097,9.589753,-22.07023
231,-1.7412664890289307,-4.474348068237305,80.38933563232422,-2.682234197837927,2.030025100205867,-77.1674487076255,-31.912964,0.7368463,-6.989,87.5665,-9.551907,-11.895841,-7.417413,0.09011765,-14.654161,20.994505,-2.860264,4.0992336,-1.8255908,4.253167,6.6580405,-0.7859018,5.5953217,-10.343901,-10.470601,8.615604,0.53001386,12.073524,17.109446,-14.198527,14.856581,59.87254,-24.653347,9.377159,-22.562595
232,-1.8098820447921753,-4.4568939208984375,80.0107421875,-2.7645203379244223,1.7464771575344957,-77.70074585004073,-33.419846,0.64326,-7.4086084,92.72527,-10.607745,-12.064505,-7.1340513,0.44227126,-14.036217,21.036484,-4.4631133,3.8830712,-1.3237284,4.522243,7.2001863,1.3980753,5.5296206,-9.916529,-8.317851,8.339785,0.4851323,12.375184,15.1812935,-14.559445,14.999011,58.71823,-24.192183,9.06276,-22.931961
233,-1.8641128540039062,-4.434213161468506,79.61053466796875,-2.8094625366162593,1.5530910347335156,-78.33390923581484,-34.980637,0.66650796,-7.702051,97.60304,-11.6315975,-12.140831,-7.1460443,0.7164755,-13.377825,21.452763,-6.212433,3.6508029,-0.8386989,4.7427726,7.700465,3.5915651,5.4572535,-9.356431,-6.105229,8.087321,0.3713302,12.823602,13.104695,-14.887037,14.952126,57.39271,-23.566454,8.61115,-23.12093
234,-1.912754774093628,-4.403610706329346,79.19204711914062,-2.8373532868392517,1.4106275768891097,-79.07449749058269,-36.546543,0.76561105,-7.909229,102.26952,-12.631198,-12.170366,-7.406023,0.9550093,-12.644799,22.201508,-8.093301,3.4313393,-0.34063622,4.926581,8.178605,5.7991266,5.3726745,-8.682309,-3.7989244,7.828421,0.20408735,13.35155,10.870521,-15.181272,14.755271,55.93589,-22.82883,8.074602,-23.195894
235,-1.9446972608566284,-4.363060474395752,78.76170349121094,-2.8582648982203263,1.3067296801676234,-79.89053029339772,-38.089893,0.8507381,-8.134415,106.6829,-13.609199,-12.227443,-7.8297696,1.1821573,-11.902887,23.159199,-10.008472,3.1959262,0.17921956,5.0808287,8.6388,7.937191,5.2797704,-7.9658527,-1.3336997,7.5836306,0.03769125,13.935357,8.521214,-15.456644,14.53976,54.3267,-22.202385,7.503112,-23.248318
236,-1.9682904481887817,-4.320356845855713,78.33060455322266,-2.880518845278759,1.2283740938276688,-80.75081292924243,-39.58547,0.8191823,-8.455854,110.78827,-14.563381,-12.382943,-8.329778,1.412133,-11.212671,24.199717,-11.860598,2.9232059,0.72023165,5.214914,9.090675,9.935114,5.192108,-7.2657714,1.3350757,7.37157,-0.07210821,14.552516,6.0957475,-15.731342,14.449524,52.530563,-21.906502,6.944305,-23.37048
237,-1.9793946743011475,-4.274907112121582,77.89122772216797,-2.9062734618267294,1.1876719924344483,-81.66519275104751,-41.06528,0.5970835,-8.912137,114.60647,-15.49777,-12.684423,-8.882303,1.6429567,-10.62219,25.262875,-13.702139,2.5843506,1.2871718,5.328474,9.530796,11.794721,5.12403,-6.545494,4.2095585,7.3501635,-0.025853839,15.249201,3.6006882,-16.016201,14.546808,50.48185,-22.05065,6.3949957,-23.610655
238,-1.9818947315216064,-4.228604793548584,77.45861053466797,-2.928156700466955,1.184882367059006,-82.64415862859674,-42.52669,0.23652661,-9.431152,118.16169,-16.415789,-13.098902,-9.535616,1.8649694,-10.083079,26.427057,-15.5583725,2.2056017,1.8674232,5.4157424,9.959983,13.572551,5.0772367,-5.7726274,7.240722,7.450304,0.122938864,16.020836,1.0235847,-16.304855,14.761715,48.19262,-22.493124,5.8361683,-23.913214
239,-1.9675601720809937,-4.179569721221924,77.04444885253906,-2.9406047141200875,1.1890277354555971,-83.65912105529917,-43.90382,-0.17011417,-9.928612,121.406715,-17.299034,-13.569543,-10.295403,2.076905,-9.51209,27.749565,-17.290596,1.8560101,2.4357288,5.4807825,10.396041,15.279656,5.0500827,-5.0114355,10.395229,7.355945,0.19514479,16.769503,-1.6278499,-16.582127,15.038647,45.744377,-23.080206,5.29063,-24.216393
