unveil-humanoid-operators/unveil-humanoid-operators.github.io/feature-analysis-animation/data/feature_matrix_instances/height_root_translate_peak_vel_walking_A060_walk_ff_loop_360_004__A060.csv
Frame,root_translateX,root_translateY,root_translateZ,root_rotateX,root_rotateY,root_rotateZ,left_hip_pitch_joint_dof,left_hip_roll_joint_dof,left_hip_yaw_joint_dof,left_knee_joint_dof,left_ankle_pitch_joint_dof,left_ankle_roll_joint_dof,right_hip_pitch_joint_dof,right_hip_roll_joint_dof,right_hip_yaw_joint_dof,right_knee_joint_dof,right_ankle_pitch_joint_dof,right_ankle_roll_joint_dof,waist_yaw_joint_dof,waist_roll_joint_dof,waist_pitch_joint_dof,left_shoulder_pitch_joint_dof,left_shoulder_roll_joint_dof,left_shoulder_yaw_joint_dof,left_elbow_joint_dof,left_wrist_roll_joint_dof,left_wrist_pitch_joint_dof,left_wrist_yaw_joint_dof,right_shoulder_pitch_joint_dof,right_shoulder_roll_joint_dof,right_shoulder_yaw_joint_dof,right_elbow_joint_dof,right_wrist_roll_joint_dof,right_wrist_pitch_joint_dof,right_wrist_yaw_joint_dof
0,-0.20127590000629425,2.493271589279175,77.23275756835938,2.221861936370597,-5.974133905066265,-92.43996785668382,5.334941,0.6722815,11.94789,22.132557,-20.716316,-3.8044395,-31.45529,-12.008998,-3.2029557,53.569126,-1.3227056,7.4894233,-8.246791,-4.405743,18.107958,-18.00808,28.893133,-17.009415,48.769886,-3.0869198,0.6356457,3.9200408,13.267186,-8.768664,17.7221,74.03673,-0.25875232,3.273373,11.1443815
1,-0.18431255221366882,3.0883772373199463,77.31607818603516,2.236402754879035,-5.980538748832313,-92.5611431322202,4.878544,0.6872669,12.054702,22.000204,-20.215996,-3.735274,-31.356031,-12.854003,-3.709318,56.452953,-2.4208167,6.324207,-8.2868395,-4.3267174,17.79221,-18.33271,29.119184,-17.182892,48.043247,-2.488058,0.6263084,4.0749335,13.801085,-8.828209,17.36596,73.88371,-0.13973582,3.3143096,11.414278
2,-0.17604713141918182,3.686115264892578,77.38815307617188,2.2562922921593924,-5.991290960759728,-92.68841602070074,4.4421053,0.69269466,12.169063,21.838867,-19.704588,-3.6640604,-31.24496,-13.7691,-4.225071,59.3474,-3.5498443,5.0885468,-8.345492,-4.2742004,17.4973,-18.585232,29.439276,-17.338978,47.203056,-1.909178,0.6272319,4.20747,14.3546715,-8.906919,17.041142,73.68991,-0.028412675,3.360861,11.729543
3,-0.1641695201396942,4.281947612762451,77.4521484375,2.2749436364003626,-5.99935982542907,-92.7956602413863,3.9804142,0.7030639,12.263808,21.717035,-19.206612,-3.5934904,-31.072065,-14.641847,-4.622799,62.131714,-4.655908,3.9450462,-8.43554,-4.2411737,17.217594,-18.756527,29.808184,-17.439377,46.290733,-1.3722143,0.63114715,4.3308654,14.885342,-8.988056,16.723372,73.46824,0.101121336,3.4036772,12.002029
4,-0.1711193323135376,4.8783369064331055,77.50296020507812,2.2831316151891325,-5.997334556013426,-92.8573215696191,3.446163,0.73370975,12.311835,21.706663,-18.74874,-3.5262861,-30.792482,-15.346868,-4.788059,64.683044,-5.673104,3.0642588,-8.558357,-4.2164345,16.952148,-18.860504,30.192152,-17.476156,45.356308,-0.9242427,0.63093877,4.457612,15.369882,-9.064341,16.373432,73.205574,0.27031687,3.4343343,12.150825
5,-0.18562182784080505,5.48021936416626,77.54488372802734,2.2722471624540854,-5.984499903313419,-92.8573842761588,2.8219867,0.7950987,12.297113,21.837086,-18.344664,-3.4639552,-30.398714,-15.832392,-4.698265,66.991035,-6.5764894,2.512395,-8.717308,-4.187372,16.69952,-18.915545,30.570118,-17.451195,44.423214,-0.5523761,0.6261242,4.6007667,15.816334,-9.130684,15.957626,72.8833,0.49046555,3.4491057,12.138874
6,-0.20024093985557556,6.088598251342773,77.57575225830078,2.24806010999014,-5.963319141049539,-92.81376353064417,2.13292,0.8787327,12.237093,22.06783,-17.978376,-3.405219,-29.921114,-16.14977,-4.433412,69.12341,-7.393851,2.203401,-8.896841,-4.1510205,16.453732,-18.949741,30.933779,-17.39142,43.50783,-0.23645428,0.6172835,4.7580194,16.236317,-9.187855,15.489859,72.522415,0.7465525,3.4514513,12.00971
7,-0.22359077632427216,6.691078186035156,77.60120391845703,2.2190402608830357,-5.931396422094909,-92.75163678301843,1.3953925,0.97199565,12.154319,22.365643,-17.631935,-3.3487866,-29.375399,-16.32459,-4.039182,71.07773,-8.136158,2.081821,-9.074888,-4.112906,16.209457,-18.949356,31.27069,-17.293173,42.61108,0.008253363,0.59962386,4.915666,16.61571,-9.236732,15.010205,72.15874,1.0224285,3.4442883,11.808536
8,-0.24766016006469727,7.297516822814941,77.6199722290039,2.19784152200057,-5.886293103144919,-92.69621822519115,0.62688583,1.0628362,12.071512,22.696033,-17.286213,-3.293384,-28.776514,-16.385632,-3.5578673,72.84994,-8.815998,2.0900426,-9.23062,-4.077447,15.961605,-18.914522,31.570534,-17.161774,41.745872,0.15675385,0.56805646,5.060325,16.939127,-9.281831,14.5602255,71.82853,1.3041257,3.4306731,11.580092
9,-0.27972593903541565,7.90840482711792,77.6282730102539,2.1768238474531962,-5.827132849524593,-92.6446676283708,-0.18709828,1.1593951,11.980528,23.08625,-16.946726,-3.2418535,-28.11738,-16.306204,-2.983986,74.432915,-9.432914,2.260212,-9.36806,-4.0394526,15.708286,-18.844326,31.82691,-16.985954,40.91817,0.20608117,0.51322144,5.1898475,17.207506,-9.325786,14.130403,71.53313,1.6009212,3.4107974,11.314409
10,-0.3120269775390625,8.507085800170898,77.62969207763672,2.1518034968751434,-5.755558397616487,-92.58667940905812,-1.0483932,1.2652286,11.8728895,23.540358,-16.618471,-3.1945589,-27.390026,-16.075472,-2.313317,75.83575,-9.985639,2.6118703,-9.4939575,-3.994384,15.451545,-18.73519,32.035835,-16.76097,40.119793,0.17775974,0.4394875,5.3118725,17.42997,-9.369139,13.703956,71.254005,1.9168519,3.3823638,10.995564
11,-0.3410921096801758,9.115809440612793,77.61713409423828,2.1385831423510764,-5.672509715516894,-92.53634805317928,-1.925664,1.3611218,11.772313,23.99919,-16.2886,-3.1452193,-26.609636,-15.754449,-1.5849589,77.075584,-10.484536,3.0604587,-9.591116,-3.9480007,15.193669,-18.621193,32.197857,-16.529272,39.37347,0.059049215,0.36184117,5.4282765,17.60311,-9.419068,13.306323,70.99511,2.227256,3.3460255,10.657557
12,-0.36728936433792114,9.720657348632812,77.59735870361328,2.1507702480802537,-5.5792259813340515,-92.50770577748624,-2.7837496,1.4263617,11.70391,24.396503,-15.940311,-3.0862238,-25.79211,-15.406012,-0.83254844,78.16539,-10.935208,3.521832,-9.643869,-3.9088821,14.936161,-18.492012,32.308357,-16.303036,38.66343,-0.1372927,0.29610097,5.539804,17.725855,-9.480113,12.966779,70.75858,2.5079932,3.3033152,10.336572
13,-0.39128032326698303,10.323431015014648,77.56999969482422,2.1935899429540235,-5.479055727602117,-92.50362643682227,-3.6104677,1.4520692,11.672448,24.717361,-15.573437,-3.0096197,-24.929214,-15.034444,-0.047427863,79.10311,-11.342642,3.9993732,-9.649524,-3.8772788,14.680326,-18.360193,32.361965,-16.09196,37.999012,-0.45533293,0.24825256,5.6449723,17.798336,-9.555734,12.686767,70.54593,2.7541125,3.247484,10.022761
14,-0.4189789295196533,10.934675216674805,77.53450012207031,2.256431023321757,-5.370722194066927,-92.516443933377,-4.4251733,1.4493836,11.6666975,24.997791,-15.196888,-2.9191513,-24.013025,-14.613194,0.7808969,79.88382,-11.704936,4.5266733,-9.620197,-3.8472106,14.426737,-18.215773,32.36088,-15.877875,37.37371,-0.8832474,0.20886032,5.7428775,17.824627,-9.652493,12.45427,70.34769,2.9786463,3.1811388,9.707054
15,-0.44655153155326843,11.550261497497559,77.49237060546875,2.34076284157471,-5.2485042930110986,-92.54478028417957,-5.2402234,1.4277104,11.68825,25.247671,-14.807091,-2.8249125,-23.064754,-14.166359,1.6288239,80.51937,-12.015193,5.0650415,-9.5510845,-3.820837,14.170552,-18.062574,32.304916,-15.667999,36.79571,-1.335201,0.16937265,5.8396406,17.804552,-9.764422,12.272377,70.166985,3.1843202,3.118624,9.41733
16,-0.47186464071273804,12.16419792175293,77.44084167480469,2.4442835676493533,-5.106568438625721,-92.5873932074435,-6.0682597,1.3975344,11.738026,25.476765,-14.40179,-2.7384417,-22.107315,-13.71335,2.4736388,81.0204,-12.262751,5.5753994,-9.440461,-3.799923,13.90905,-17.9089,32.201115,-15.4714155,36.27402,-1.7346175,0.121691205,5.940047,17.737385,-9.887643,12.1466465,70.0041,3.3746686,3.074598,9.182845
17,-0.5072438716888428,12.783101081848145,77.37956237792969,2.5745604578766805,-4.9445149074331125,-92.6459458909701,-6.906904,1.3545198,11.824394,25.679747,-13.974914,-2.6634924,-21.142262,-13.2561455,3.3317928,81.39117,-12.45872,6.0343947,-9.283169,-3.7932887,13.6428,-17.751581,32.05127,-15.2836485,35.801823,-2.0611358,0.06562934,6.0473,17.620777,-10.018595,12.081592,69.85824,3.5567136,3.057806,9.010921
18,-0.5530932545661926,13.405593872070312,77.31307983398438,2.728872681553774,-4.765319238975923,-92.72000050326425,-7.750691,1.2965935,11.944299,25.852482,-13.529575,-2.5947356,-20.159689,-12.790703,4.2125998,81.628136,-12.602619,6.4644856,-9.081578,-3.8013697,13.373418,-17.590738,31.856092,-15.105351,35.377895,-2.3581388,0.00510615,6.1577067,17.453402,-10.15846,12.073876,69.7324,3.7266738,3.0588856,8.884765
19,-0.6017768979072571,14.044750213623047,77.23907470703125,2.895012751793633,-4.56730720659706,-92.80543059860342,-8.612952,1.2388526,12.080765,26.016901,-13.073955,-2.5308783,-19.164145,-12.327222,5.0843887,81.72294,-12.668639,6.8967113,-8.847297,-3.8142514,13.099392,-17.416788,31.619963,-14.938528,35.000137,-2.6350863,-0.061497554,6.2646747,17.23688,-10.3053055,12.120044,69.62967,3.87044,3.0663645,8.799732
20,-0.6474864482879639,14.683130264282227,77.15943145751953,3.060887531882114,-4.3488407133979345,-92.8982168222994,-9.509207,1.1966925,12.216693,26.199007,-12.61819,-2.4705093,-18.162745,-11.873768,5.916843,81.669205,-12.632232,7.362715,-8.59001,-3.8241382,12.819237,-17.221422,31.350311,-14.787277,34.666656,-2.901884,-0.13533859,6.361634,16.97126,-10.458342,12.214787,69.55579,3.973389,3.068155,8.750152
21,-0.7021722197532654,15.319917678833008,77.07022857666016,3.2273128118220957,-4.103598096200446,-93.00284534646474,-10.441387,1.1694179,12.350883,26.391436,-12.161613,-2.4129028,-17.160955,-11.40842,6.7397995,81.45635,-12.451822,7.884051,-8.308153,-3.8340049,12.527191,-16.994247,31.050127,-14.645072,34.370052,-3.1607122,-0.22209701,6.4457912,16.653131,-10.615063,12.361346,69.516846,4.019285,3.0643435,8.752789
22,-0.7629172801971436,15.964277267456055,76.97408294677734,3.399933944714598,-3.834240844916947,-93.11957544491744,-11.402058,1.1514271,12.49093,26.584381,-11.699423,-2.3598042,-16.155327,-10.935898,7.563933,81.09188,-12.153208,8.439049,-7.998904,-3.8501441,12.226563,-16.73532,30.719181,-14.509011,34.105415,-3.4052687,-0.31881997,6.520128,16.281551,-10.773655,12.563211,69.509346,4.019968,3.0602818,8.804748
23,-0.8340266346931458,16.615564346313477,76.8652114868164,3.571822656824347,-3.552416337164222,-93.23834455756803,-12.392259,1.1492841,12.632763,26.799177,-11.235033,-2.3127778,-15.144179,-10.508934,8.330843,80.59536,-11.813137,8.994068,-7.6699886,-3.8679214,11.9297,-16.465664,30.363611,-14.39679,33.887703,-3.6437037,-0.41411737,6.586828,15.860096,-10.935964,12.81469,69.5229,4.003507,3.0520277,8.870522
24,-0.9150420427322388,17.275129318237305,76.74112701416016,3.7376803008881785,-3.269922676524321,-93.34991464983007,-13.411244,1.1678389,12.773096,27.053465,-10.770249,-2.2724009,-14.130704,-10.18144,8.980781,79.98813,-11.503256,9.513854,-7.329285,-3.8853793,11.648502,-16.179409,29.987432,-14.311177,33.707405,-3.8703191,-0.49606663,6.647493,15.39266,-11.103029,13.111532,69.5467,3.9976497,3.0359807,8.916062
25,-0.9998558759689331,17.943784713745117,76.60730743408203,3.9014888941231347,-2.9782523390284803,-93.45588624419396,-14.474314,1.2068537,12.915298,27.359991,-10.308244,-2.2413845,-13.129078,-9.989643,9.482808,79.26453,-11.195304,10.014782,-6.975181,-3.9048343,11.373277,-15.884321,29.594393,-14.259972,33.56799,-4.11829,-0.56318974,6.7043896,14.877242,-11.274175,13.468187,69.58454,3.999147,3.0047896,8.936915
26,-1.092296838760376,18.613515853881836,76.46281433105469,4.063752712695808,-2.674723559145035,-93.56059475610502,-15.576814,1.2636329,13.060069,27.706596,-9.847567,-2.2177145,-12.14112,-9.897864,9.876527,78.41803,-10.862597,10.506926,-6.6051903,-3.9290297,11.102174,-15.568888,29.184238,-14.233789,33.46123,-4.3758416,-0.62072706,6.755526,14.311766,-11.446904,13.884005,69.63917,3.9972663,2.9627113,8.9504795
27,-1.1835285425186157,19.297822952270508,76.31116485595703,4.218041192873161,-2.379205764896586,-93.65846416746659,-16.6887,1.3397568,13.200065,28.073496,-9.381287,-2.1942406,-11.149651,-9.844058,10.202003,77.4643,-10.578869,10.94178,-6.2262883,-3.9506025,10.858818,-15.2395735,28.76059,-14.232233,33.39833,-4.593941,-0.6680463,6.797001,13.700293,-11.622484,14.329538,69.69871,4.0075297,2.9229233,8.954684
28,-1.2841541767120361,19.99112892150879,76.14924621582031,4.356465244307165,-2.1118161039261265,-93.7441852069199,-17.781511,1.4358329,13.327912,28.444109,-8.904773,-2.163849,-10.137122,-9.773503,10.499961,76.41983,-10.419682,11.268745,-5.8460507,-3.9618194,10.666641,-14.898592,28.327206,-14.25287,33.38573,-4.721858,-0.704193,6.8247743,13.0481825,-11.802184,14.776233,69.74916,4.0454745,2.8992498,8.9485035
29,-1.3849469423294067,20.70077896118164,75.97871398925781,4.47883943050631,-1.8766469660183522,-93.81006948382715,-18.857916,1.5511367,13.443911,28.82996,-8.417613,-2.1154373,-9.095483,-9.6715,10.780373,75.29252,-10.351873,11.4621935,-5.4662895,-3.963188,10.530149,-14.548269,27.88586,-14.299051,33.4219,-4.727453,-0.7236814,6.833185,12.358997,-11.984076,15.223137,69.78742,4.1270204,2.8951733,8.936294
30,-1.4932762384414673,21.4123592376709,75.80497741699219,4.590439504158501,-1.663266159760126,-93.86022775161999,-19.931723,1.6841874,13.550493,29.23503,-7.921057,-2.0550265,-8.039395,-9.570923,11.021498,74.07807,-10.354287,11.549918,-5.083584,-3.9585052,10.436739,-14.187577,27.43687,-14.373086,33.504936,-4.645702,-0.7284939,6.8259892,11.629307,-12.167114,15.683148,69.82061,4.239374,2.903513,8.917067
31,-1.5995804071426392,22.129743576049805,75.62960052490234,4.686797674545562,-1.4700924602568137,-93.90959517210582,-20.98795,1.8365383,13.644285,29.630398,-7.414834,-2.0011234,-6.9780664,-9.477788,11.215291,72.76323,-10.515218,11.559698,-4.6964273,-3.9416647,10.384412,-13.808343,26.980694,-14.4661455,33.6364,-4.523557,-0.72880054,6.8133297,10.853877,-12.353898,16.152683,69.850334,4.357731,2.9215002,8.882621
32,-1.7175167798995972,22.853404998779297,75.44985961914062,4.766751364175641,-1.2950151820602338,-93.9723444125474,-22.011486,2.0087616,13.721405,29.98429,-6.8965836,-1.9727863,-5.922222,-9.402448,11.353632,71.3353,-10.923284,11.518648,-4.3046346,-3.9065614,10.371133,-13.400263,26.517212,-14.568002,33.81594,-4.4073324,-0.73479867,6.804981,10.02821,-12.549138,16.62797,69.87686,4.4559197,2.9466233,8.825487
33,-1.8299216032028198,23.60308074951172,75.25823974609375,4.82530465417653,-1.143429462662073,-94.04645101914564,-22.99894,2.2002075,13.769671,30.299154,-6.3728466,-1.9838877,-4.8390703,-9.303207,11.469162,69.773994,-11.642968,11.458878,-3.9152238,-3.846673,10.401334,-12.948159,26.044752,-14.674376,34.031628,-4.306696,-0.7551095,6.805508,9.149714,-12.754081,17.107056,69.90395,4.5110784,2.9900777,8.739579
34,-1.9406301975250244,24.353046417236328,75.06745147705078,4.865201876772081,-1.0141419961092577,-94.12671637461025,-23.958708,2.4100714,13.793923,30.587347,-5.841968,-2.0210636,-3.7346468,-9.183911,11.555987,68.089455,-12.611301,11.356818,-3.5266724,-3.7632809,10.47314,-12.465696,25.56423,-14.794319,34.291985,-4.201118,-0.7824903,6.8091307,8.222508,-12.968144,17.595308,69.92912,4.54303,3.0495527,8.631066
35,-2.052753448486328,25.101699829101562,74.87076568603516,4.890982646333688,-0.8958977382027774,-94.22262725656145,-24.894619,2.6409273,13.814781,30.83779,-5.2921715,-2.0636578,-2.676682,-9.118757,11.54911,66.31498,-13.728205,11.170334,-3.126409,-3.6639266,10.575759,-11.962352,25.075174,-14.922639,34.6065,-4.076475,-0.8027574,6.8091187,7.2512655,-13.192737,18.101599,69.9428,4.591105,3.1025512,8.51232
36,-2.1599373817443848,25.866191864013672,74.67137908935547,4.909025464226942,-0.7775234236500533,-94.34326877148891,-25.810562,2.8974714,13.852258,31.040298,-4.712203,-2.091154,-1.7294843,-9.172723,11.380593,64.482506,-14.896051,10.869898,-2.7027817,-3.5545862,10.698699,-11.457132,24.579239,-15.059334,34.99293,-3.9263327,-0.8018918,6.7992225,6.238218,-13.433533,18.634766,69.936844,4.695099,3.1262467,8.395112
37,-2.274282932281494,26.644149780273438,74.46443176269531,4.917356943934022,-0.6590051306388985,-94.4887144360226,-26.723845,3.1842928,13.907197,31.229982,-4.0982447,-2.0848854,-0.8606463,-9.357948,11.012477,62.50148,-16.036617,10.43568,-2.2584095,-3.432053,10.83815,-10.940462,24.075989,-15.209625,35.447014,-3.7603583,-0.78097683,6.7873173,5.1875095,-13.691142,19.19227,69.904945,4.875192,3.1083057,8.290706
38,-2.3954174518585205,27.435470581054688,74.25723266601562,4.912916730159032,-0.5459431411716601,-94.65454463236881,-27.62783,3.5012608,13.966804,31.401691,-3.4574637,-2.0608332,-0.03825974,-9.612718,10.480791,60.379673,-17.223974,9.920467,-1.7984924,-3.2894788,10.999827,-10.408425,23.565008,-15.372934,35.96368,-3.5801153,-0.7459426,6.773555,4.097766,-13.963786,19.772564,69.85044,5.1068487,3.0630403,8.191372
39,-2.52150559425354,28.23597526550293,74.05034637451172,4.888787362814283,-0.4355886929347214,-94.84329795768225,-28.493021,3.8476899,14.031238,31.491247,-2.7989464,-2.0510657,0.67125493,-9.890274,9.828486,58.29967,-18.590803,9.405645,-1.3172538,-3.1275663,11.189091,-9.874036,23.045923,-15.531155,36.544064,-3.3594656,-0.6896449,6.7387323,2.9634252,-14.25237,20.390165,69.77498,5.36559,3.0080068,8.082009
40,-2.6514227390289307,29.059356689453125,73.84075164794922,4.84425793675772,-0.32496975332582345,-95.05766392562612,-29.28731,4.2194934,14.099793,31.428196,-2.1276348,-2.0892684,1.1985906,-10.15662,9.100674,56.43705,-20.2609,8.961162,-0.8104274,-2.9481444,11.41125,-9.347808,22.518633,-15.663006,37.186718,-3.0714498,-0.6048953,6.6630964,1.7780682,-14.560281,21.05964,69.67992,5.6253834,2.960554,7.947391
41,-2.786860466003418,29.898998260498047,73.64666748046875,4.781448463025038,-0.21652617197732713,-95.30498074247932,-30.008411,4.625091,14.188138,31.207033,-1.3766747,-2.2089639,1.536362,-10.458333,8.257485,54.79249,-22.441725,8.613967,-0.2669207,-2.7536914,11.6726055,-8.836998,21.984306,-15.77235,37.89498,-2.7112544,-0.48961276,6.534328,0.5373294,-14.887751,21.798203,69.55598,5.880302,2.9260209,7.7882643
42,-2.9294416904449463,30.754289627075195,73.46892547607422,4.701668394867268,-0.11107869687299717,-95.58175475117886,-30.67223,5.0637627,14.287729,30.862013,-0.566044,-2.3857515,1.7268178,-10.7915535,7.287836,53.272797,-25.000856,8.348727,0.30571222,-2.539091,11.968294,-8.331,21.442642,-15.86474,38.66375,-2.2917206,-0.3481066,6.3640585,-0.7553578,-15.23217,22.597273,69.401764,6.1448135,2.895126,7.6120167
43,-3.0595908164978027,31.62563705444336,73.30139923095703,4.591479546854868,-0.0035815493662048666,-95.87471876486451,-31.272833,5.516946,14.36593,30.380905,0.16906126,-2.5663373,1.7604413,-11.065341,6.287183,51.92876,-27.55026,8.142577,0.8838886,-2.2952485,12.287516,-7.8166194,20.890495,-15.923366,39.48096,-1.8162482,-0.18344583,6.168183,-2.0927012,-15.59148,23.43356,69.22697,6.4249754,2.8631356,7.4147196
44,-3.198719024658203,32.504417419433594,73.14520263671875,4.443421613652003,0.1109938909148672,-96.17074404329169,-31.801533,5.965034,14.393927,29.746954,0.6954015,-2.697477,1.6200614,-11.202417,5.3575997,50.821766,-29.711061,7.944393,1.4432942,-2.0160055,12.6187315,-7.2823915,20.323559,-15.932042,40.337486,-1.288409,0.001294143,5.962704,-3.468242,-15.965906,24.284058,69.0417,6.725966,2.8265758,7.1920853
45,-3.331214189529419,33.39582443237305,73.01261138916016,4.243574106380465,0.23723800726430305,-96.48946719721002,-32.283627,6.428794,14.341856,28.989729,0.95737594,-2.7580428,1.2394351,-11.19769,4.483388,50.037518,-31.409512,7.6937,1.9975647,-1.6834353,12.977054,-6.7361856,19.737257,-15.882149,41.220757,-0.6732149,0.21849401,5.730428,-4.919492,-16.360678,25.172026,68.86846,7.080023,2.7814004,6.934681
46,-3.4534432888031006,34.29210662841797,72.90411376953125,4.002556699344012,0.37006282037365507,-96.83082377329548,-32.71045,6.9120846,14.234488,28.102625,1.0346999,-2.7776704,0.64318615,-11.105144,3.6274989,49.52837,-32.847816,7.404418,2.5513918,-1.3044277,13.361515,-6.182459,19.129822,-15.785038,42.140594,0.0194261,0.4637994,5.4683485,-6.434884,-16.774513,26.10342,68.68745,7.4742193,2.7316794,6.648793
47,-3.571375846862793,35.20121765136719,72.81426239013672,3.749756874754777,0.5002872436426479,-97.15158630570944,-33.022217,7.3704014,14.131508,27.015678,0.99535465,-2.7766466,-0.05673247,-10.93811,2.8645878,49.164707,-34.06724,7.1211,3.0717351,-0.9151899,13.737857,-5.6015,18.501076,-15.654769,43.11911,0.7231249,0.7109142,5.2149067,-7.9421573,-17.19736,27.028372,68.46753,7.8493624,2.676903,6.353308
48,-3.6937248706817627,36.103694915771484,72.7412338256836,3.514251919514026,0.618910618383354,-97.40947631863217,-33.156536,7.7571025,14.093774,25.651237,0.9113364,-2.778639,-0.74818146,-10.704289,2.2694223,48.812084,-35.101654,6.891957,3.5290565,-0.5540498,14.072315,-4.9757786,17.852966,-15.509602,44.18231,1.3693576,0.9350714,5.010482,-9.369303,-17.616737,27.890966,68.185165,8.14245,2.6166582,6.0650935
49,-3.816067695617676,36.98668670654297,72.68839263916016,3.310654859916227,0.7423220116053867,-97.60611529378282,-33.102345,8.033388,14.101577,23.920855,0.74924546,-2.715591,-1.4817455,-10.38947,1.9271386,48.503536,-35.928185,6.7158647,3.922303,-0.24427713,14.356625,-4.3012576,17.184725,-15.335737,45.341896,1.9642153,1.1235799,4.8671904,-10.741962,-18.033358,28.715576,67.87009,8.344698,2.5386877,5.7732325
50,-3.9402012825012207,37.85072326660156,72.65042877197266,3.1167280687127645,0.8659778191633517,-97.76348877527603,-32.87943,8.238989,14.137418,21.874199,0.49657288,-2.599707,-2.2905521,-9.99134,1.7771069,48.287865,-36.536514,6.5570827,4.2689757,0.04107106,14.6117115,-3.5838132,16.495405,-15.131088,46.58133,2.5363388,1.2935375,4.7635665,-12.086137,-18.44959,29.51734,67.53123,8.483467,2.4472234,5.4725137
51,-4.072879791259766,38.69200897216797,72.62739562988281,2.90423463686468,0.948977780885465,-97.87089575563776,-32.467587,8.438436,14.270392,19.626596,0.2598756,-2.5828066,-3.0375412,-9.531159,1.6783684,48.057674,-36.983128,6.4179187,4.5714974,0.33786044,14.845926,-2.8267014,15.791953,-14.937237,47.89295,3.0463107,1.4661441,4.692312,-13.341885,-18.858807,30.232803,67.13406,8.557891,2.3658776,5.1854696
52,-4.205349445343018,39.49502182006836,72.62423706054688,2.6450655400956045,0.9507621051766583,-97.91731634469674,-31.851707,8.690315,14.57319,17.29847,0.14931554,-2.824695,-3.5881355,-9.033044,1.493434,47.706985,-37.322323,6.303333,4.835382,0.67954624,15.065849,-2.0331316,15.086943,-14.798916,49.269463,3.4531147,1.6628791,4.6469107,-14.44608,-19.251112,30.786858,66.64684,8.559245,2.3178947,4.933766
53,-4.345518112182617,40.262168884277344,72.62960815429688,2.298424166661923,0.8264326462251895,-97.91488744935953,-30.829618,8.984818,15.055889,14.480977,0.29086274,-3.5102248,-3.8606157,-8.455309,1.21333,47.183167,-37.54396,6.2277827,5.0752077,1.1068996,15.292425,-1.1757492,14.384723,-14.727605,50.722694,3.705972,1.8796964,4.662209,-15.37601,-19.623417,31.147242,66.06448,8.446209,2.326256,4.70761
54,-4.492554664611816,40.992374420166016,72.6395034790039,1.8565809495967613,0.5936118463293849,-97.88093113147569,-29.421394,9.304878,15.696068,11.155337,0.66314304,-4.5363264,-3.924353,-7.759484,0.9132514,46.53635,-37.617878,6.172711,5.300508,1.6244708,15.524403,-0.25207436,13.68558,-14.701302,52.246086,3.8373628,2.1101873,4.7304454,-16.1699,-19.981833,31.352434,65.41715,8.2309885,2.3728373,4.500522
55,-4.623978137969971,41.70225143432617,72.66046905517578,1.3841999071232944,0.3279069613754698,-97.78760559774702,-27.960352,9.645443,16.524227,8.019753,1.1499622,-5.608511,-3.8989232,-7.0331936,0.57491803,45.82664,-37.57989,6.107078,5.4857483,2.1636171,15.721214,0.69213045,13.002106,-14.713629,53.807068,3.9265807,2.371518,4.7806435,-16.860628,-20.329153,31.442402,64.72302,7.998225,2.4198766,4.3370953
56,-4.753530979156494,42.40974044799805,72.70048522949219,1.002055951970547,0.13073627170516983,-97.5809904612724,-27.27991,10.100063,17.483486,6.829751,1.0585245,-6.3984814,-3.9398053,-6.4378324,0.16875271,45.142,-37.4805,6.014298,5.583394,2.5893059,15.829461,1.6067129,12.356001,-14.756338,55.371243,4.0529647,2.6803007,4.7396693,-17.483992,-20.663767,31.452183,64.0023,7.831152,2.424018,4.240364
57,-4.896970272064209,43.1174430847168,72.7734603881836,0.7574220574731391,0.0568859333291096,-97.21104165209348,-27.0624,10.529855,18.81514,6.864098,0.89045155,-6.82697,-4.1016316,-6.042046,-0.34486732,44.49017,-37.345818,5.8906646,5.545553,2.8348434,15.810454,2.491022,11.762171,-14.803565,56.92928,4.2141995,3.0589137,4.6102223,-18.043797,-20.980476,31.361403,63.241184,7.744808,2.3731048,4.2413597
58,-5.039908409118652,43.81734848022461,72.87776947021484,0.6081508204013715,0.05933207717763634,-96.70403194587911,-27.026278,10.912869,20.463497,7.552222,0.78944665,-7.038998,-4.322127,-5.7908835,-0.9436404,43.845562,-37.15272,5.7502546,5.395467,2.943802,15.695267,3.3739507,11.223289,-14.860667,58.488033,4.3742604,3.4924471,4.4195766,-18.527966,-21.27724,31.160297,62.43895,7.7003217,2.2875009,4.317788
59,-5.191622734069824,44.5168342590332,73.00093841552734,0.5437673725196379,0.08555598763169288,-96.1242969891251,-27.55978,11.446598,21.984333,9.83321,0.06053397,-7.0337605,-4.584109,-5.6613526,-1.5658752,43.26358,-36.885525,5.6053786,5.1940074,2.9430282,15.536462,4.2448897,10.743336,-14.968126,60.042393,4.5575356,3.941326,4.1313233,-18.93437,-21.555824,30.88706,61.6118,7.6848574,2.1830368,4.4113245
60,-5.334608554840088,45.20780563354492,73.14492797851562,0.5438239753341031,0.07594506304948827,-95.54194782128123,-28.045036,11.953803,23.12841,12.391539,-0.799419,-6.8111286,-4.855674,-5.614359,-2.1492832,42.789963,-36.524887,5.4673505,5.0080214,2.868655,15.392012,5.094106,10.32661,-15.165277,61.586376,4.7893186,4.3653026,3.709011,-19.264015,-21.820612,30.588482,60.776127,7.69602,2.0755804,4.464288
61,-5.482651233673096,45.893245697021484,73.30687713623047,0.5995962928286316,0.005722502011478515,-94.95653811114914,-28.526455,12.4658785,23.801245,15.383969,-1.8875321,-6.2597623,-5.1332674,-5.6337185,-2.693822,42.479965,-36.043777,5.3357806,4.8403163,2.7268498,15.286171,5.910983,9.978888,-15.475971,63.14974,5.0360813,4.7545676,3.136569,-19.520771,-22.076881,30.281181,59.930958,7.7774796,1.954085,4.472682
62,-5.62455415725708,46.55954360961914,73.49141693115234,0.6684969968753798,-0.1199057305996294,-94.36902708508893,-29.04589,13.043686,24.162128,18.909948,-3.1630306,-5.431609,-5.388459,-5.6676693,-3.2169025,42.269917,-35.447342,5.19171,4.6908073,2.5553606,15.207597,6.710649,9.699361,-15.873574,64.71937,5.297862,5.1297197,2.4340596,-19.695204,-22.327562,29.936075,59.06237,7.9146247,1.8156196,4.466252
63,-5.763768196105957,47.19932556152344,73.69195556640625,0.7180653409930318,-0.300133360113773,-93.83365211312365,-29.46718,13.644907,24.267683,22.564547,-4.4446597,-4.571121,-5.5754247,-5.666771,-3.6894367,42.046047,-34.7764,5.0279455,4.6053314,2.4005797,15.151087,7.5161676,9.479132,-16.3177,66.23377,5.6540146,5.4892325,1.6190541,-19.7725,-22.572712,29.53264,58.16705,8.018661,1.6882621,4.436758
64,-5.898055553436279,47.83050537109375,73.90762329101562,0.7497634170673844,-0.5149553082275096,-93.38275173946283,-29.693945,14.190428,24.188133,25.992989,-5.5809765,-3.9140065,-5.6758547,-5.630914,-4.09065,41.712364,-34.08136,4.848761,4.6091256,2.273192,15.096602,8.349583,9.306261,-16.767614,67.62364,6.1855345,5.836555,0.70816964,-19.735483,-22.806759,29.042786,57.238937,7.9936595,1.6005541,4.373826
65,-6.030999183654785,48.442901611328125,74.1312484741211,0.7997707259355777,-0.7608085789390334,-93.0168270052449,-29.726164,14.633386,23.925556,29.20418,-6.5682564,-3.5154412,-5.6933413,-5.601615,-4.4100513,41.266926,-33.373455,4.662125,4.7080846,2.1434836,15.035448,9.204594,9.175585,-17.234545,68.90953,6.964461,6.161166,-0.34009597,-19.57143,-23.022453,28.437862,56.283123,7.7904162,1.5617579,4.255726
66,-6.16130256652832,49.03980255126953,74.35830688476562,0.8764764928674549,-1.0380801737687677,-92.70956333188754,-29.631456,14.982584,23.460836,32.366104,-7.4831276,-3.254678,-5.6507206,-5.593202,-4.665938,40.765617,-32.632324,4.469721,4.876429,1.9952666,14.971897,10.071935,9.0895405,-17.728785,70.11863,7.9335384,6.4540825,-1.5199889,-19.304144,-23.219118,27.74444,55.310802,7.471554,1.5564971,4.0924325
67,-6.273365020751953,49.61653518676758,74.5880126953125,0.9559099469955239,-1.3248378388037405,-92.44436752030391,-29.45161,15.246827,22.829735,35.437,-8.322925,-3.1007998,-5.566996,-5.5795937,-4.883133,40.20014,-31.865852,4.269917,5.081728,1.8470588,14.900117,10.964932,9.045693,-18.20362,71.2001,8.982845,6.7165637,-2.7432811,-18.961828,-23.397352,27.005068,54.31546,7.0959473,1.5761739,3.9206862
68,-6.39116096496582,50.17222213745117,74.82225799560547,1.008378599203143,-1.599703678265892,-92.20532228919748,-29.225979,15.441363,22.069523,38.3792,-9.088565,-3.020945,-5.4606013,-5.5336843,-5.087307,39.562897,-31.081842,4.0629783,5.289292,1.7192762,14.813685,11.894492,9.038267,-18.610018,72.105804,10.002431,6.956947,-3.9202735,-18.577013,-23.558641,26.270027,53.295315,6.725472,1.6115234,3.7769938
69,-6.498363018035889,50.72432327270508,75.05848693847656,1.0276886569373915,-1.8716599407879286,-91.9960961109266,-28.963675,15.5576935,21.127014,41.2241,-9.777778,-3.041183,-5.3029933,-5.441484,-5.2817764,38.81924,-30.27337,3.841562,5.49947,1.6210654,14.716614,12.868453,9.060841,-18.923147,72.820656,11.046086,7.18423,-5.0549855,-18.139048,-23.699953,25.524622,52.23631,6.346273,1.6738585,3.6753762
70,-6.5998406410217285,51.274967193603516,75.2903823852539,1.0364670922814008,-2.1439164236402224,-91.81876971640717,-28.655548,15.57984,20.01144,44.003593,-10.406853,-3.174476,-5.1002116,-5.325933,-5.4568615,37.987865,-29.441488,3.6113198,5.719438,1.5351301,14.608087,13.876859,9.111565,-19.166357,73.374146,12.146312,7.38911,-6.1841936,-17.644403,-23.817938,24.756878,51.148624,5.9367433,1.7632284,3.5944192
71,-6.6900954246521,51.815521240234375,75.51959991455078,1.0421865014572662,-2.3868573150504737,-91.65539597804984,-28.311426,15.520412,18.846014,46.676586,-10.9991,-3.364101,-4.9173512,-5.21195,-5.616691,37.133583,-28.601322,3.3880942,5.9254837,1.4429398,14.47433,14.898346,9.191235,-19.365374,73.79182,13.157382,7.5606785,-7.2643867,-17.135878,-23.915733,24.02377,50.066563,5.5498753,1.8529606,3.5170448
72,-6.773674488067627,52.35498046875,75.73969268798828,1.060476636348718,-2.5713158023109757,-91.48889450956884,-27.94293,15.403035,17.748903,49.20356,-11.576301,-3.5466707,-4.820641,-5.123665,-5.764604,36.32188,-27.768044,3.1864367,6.0935984,1.3280262,14.301743,15.91488,9.300837,-19.545652,74.08821,13.934905,7.7023926,-8.252895,-16.64895,-23.998106,23.379723,49.0181,5.2348533,1.9167678,3.4261413
73,-6.8523077964782715,52.89262390136719,75.95513153076172,1.0924951008506893,-2.679712530700489,-91.31593482976514,-27.569221,15.231164,16.71705,51.590225,-12.145891,-3.723013,-4.82983,-5.06372,-5.897552,35.548798,-26.933804,3.011645,6.214885,1.1861312,14.074785,16.924603,9.44164,-19.706295,74.25114,14.444558,7.8381257,-9.164998,-16.192802,-24.068504,22.84684,48.008644,5.0125933,1.9433057,3.3088973
74,-6.922704696655273,53.43305969238281,76.15919494628906,1.132308927594038,-2.7302215729119577,-91.14440431936032,-27.183693,15.003368,15.696917,53.871063,-12.705105,-3.9154902,-4.9111595,-5.0211596,-6.0159316,34.788593,-26.094877,2.855623,6.301481,1.0251112,13.804831,17.93435,9.611376,-19.834806,74.27653,14.762536,7.9702334,-10.013635,-15.7415085,-24.125614,22.390766,47.015755,4.8514633,1.9483008,3.1772852
75,-6.986181259155273,53.97502136230469,76.3541259765625,1.1822912252187,-2.7476531895717344,-90.97477782335696,-26.760872,14.741991,14.724168,56.04516,-13.254282,-4.089074,-5.047782,-4.9993334,-6.124964,34.0691,-25.27,2.7104907,6.3623023,0.84573025,13.51887,18.931377,9.805927,-19.944336,74.20765,14.903344,8.066314,-10.7486725,-15.297838,-24.171337,21.997326,46.043415,4.73821,1.9450876,3.0510128
76,-7.048426628112793,54.5185432434082,76.53853607177734,1.2426183961952604,-2.756611456821176,-90.80717844985543,-26.27497,14.470409,13.832625,58.106457,-13.7935705,-4.208308,-5.2238884,-5.00228,-6.2303042,33.420578,-24.479242,2.5679128,6.4066224,0.65108824,13.243569,19.903816,10.019776,-20.048515,74.08588,14.881048,8.0946,-11.319741,-14.864094,-24.210089,21.652582,45.09555,4.6601114,1.9472485,2.949941
77,-7.095588684082031,55.05804443359375,76.71542358398438,1.3193211729919787,-2.7545563595239284,-90.64039709720599,-25.726551,14.198144,13.0402,60.061615,-14.323229,-4.247063,-5.4493003,-5.0440083,-6.330441,32.857475,-23.724895,2.4222836,6.434202,0.43567613,12.978063,20.8452,10.2520485,-20.163652,73.92099,14.645586,8.028482,-11.698554,-14.43899,-24.245905,21.367435,44.169205,4.6441607,1.9547234,2.8695927
78,-7.138490676879883,55.60059356689453,76.87681579589844,1.4091329137872188,-2.731233913287675,-90.47492994328648,-25.129448,13.920736,12.319384,61.915028,-14.842825,-4.2252717,-5.727563,-5.118812,-6.420374,32.359257,-22.995893,2.277161,6.441898,0.20250009,12.710282,21.760279,10.503232,-20.281187,73.69211,14.205721,7.8970437,-11.91723,-14.020729,-24.281591,21.145117,43.262093,4.688261,1.9616594,2.8033104
79,-7.172820091247559,56.146705627441406,77.02128601074219,1.5004595529750386,-2.7010372106602873,-90.31359399191543,-24.47854,13.641232,11.63843,63.6582,-15.349709,-4.173355,-6.038967,-5.207337,-6.5055275,31.916027,-22.297207,2.1453037,6.437328,-0.030001057,12.452289,22.645365,10.766485,-20.375248,73.415375,13.665932,7.734874,-12.013192,-13.595986,-24.315454,20.949345,42.362846,4.731921,1.9729613,2.7685046
80,-7.193884372711182,56.69647979736328,77.14468383789062,1.5764855555680368,-2.6779775810059454,-90.15932355296354,-23.768702,13.361175,10.9657755,65.28246,-15.84148,-4.1240396,-6.3607526,-5.2874217,-6.589064,31.511728,-21.631237,2.0362797,6.4270024,-0.24441275,12.214753,23.495335,11.031749,-20.419977,73.11208,13.130045,7.575802,-12.02102,-13.159002,-24.345915,20.748056,41.46945,4.7147303,1.9932781,2.7819805
81,-7.203699111938477,57.24052810668945,77.25521850585938,1.6361786734755155,-2.671547867258139,-90.00747009046994,-22.988026,13.086699,10.29468,66.79216,-16.326675,-4.076309,-6.6748405,-5.3590674,-6.6798124,31.136194,-21.001778,1.9585481,6.405344,-0.4369128,12.005875,24.311146,11.293018,-20.408936,72.78308,12.592522,7.4180894,-11.931184,-12.710598,-24.371593,20.538683,40.582874,4.6180935,2.0181043,2.8557503
82,-7.214616775512695,57.791866302490234,77.34564971923828,1.6866315912410343,-2.6725110158898646,-89.85848288727735,-22.14399,12.820785,9.637808,68.19144,-16.80358,-4.013802,-6.994772,-5.431818,-6.7716293,30.794655,-20.40346,1.903846,6.3697324,-0.61509776,11.816589,25.09191,11.54975,-20.355667,72.42533,12.0102005,7.2448616,-11.730225,-12.259254,-24.393389,20.340532,39.710842,4.4757347,2.0463893,2.9778674
83,-7.2140069007873535,58.3503303527832,77.42062377929688,1.727619362070287,-2.6664595267839037,-89.72257105911588,-21.259626,12.558736,8.996707,69.472946,-17.25598,-3.9450774,-7.3536077,-5.5016294,-6.8487897,30.511656,-19.833675,1.8620098,6.332397,-0.77720803,11.632748,25.829014,11.798823,-20.266304,72.05394,11.430007,7.0674915,-11.446293,-11.797833,-24.410604,20.146933,38.848236,4.301029,2.088908,3.1298358
84,-7.2053751945495605,58.901512145996094,77.47421264648438,1.7598616837883376,-2.639331807982363,-89.60989036836291,-20.35771,12.293982,8.373929,70.62848,-17.667765,-3.8795626,-7.782095,-5.5636816,-6.896587,30.307474,-19.288115,1.8223279,6.305,-0.9223133,11.439451,26.512938,12.0365305,-20.147139,71.68576,10.898265,6.8985496,-11.106411,-11.322213,-24.423687,19.952662,37.99381,4.106719,2.1563535,3.293109
85,-7.192178726196289,59.45774459838867,77.51626586914062,1.7794093058353333,-2.586254653869679,-89.52700185702346,-19.443811,12.0417,7.775812,71.6722,-18.036537,-3.810097,-8.290213,-5.610646,-6.9073787,30.188093,-18.767065,1.7872463,6.2937136,-1.0439925,11.231804,27.144007,12.259779,-19.99989,71.321144,10.4189,6.7362328,-10.687905,-10.8259735,-24.432312,19.745802,37.126705,3.8575916,2.2739673,3.4875822
86,-7.175235271453857,60.02333068847656,77.542236328125,1.787459090506475,-2.515338555847193,-89.46720687336146,-18.507566,11.800859,7.1984053,72.60495,-18.370403,-3.7339604,-8.85877,-5.6465926,-6.890035,30.137884,-18.269712,1.7603531,6.2909408,-1.1444077,11.017294,27.724155,12.468369,-19.823248,70.95692,9.97019,6.574051,-10.185059,-10.31349,-24.437412,19.53315,36.255447,3.5582943,2.427898,3.7154856
87,-7.144430160522461,60.584510803222656,77.55474853515625,1.7935521155410938,-2.431523245284281,-89.42055855745146,-17.547182,11.538173,6.630257,73.397156,-18.667387,-3.6670809,-9.481188,-5.6859293,-6.8552527,30.158428,-17.797684,1.7343413,6.288993,-1.2338192,10.801279,28.2457,12.662519,-19.619856,70.60331,9.5606,6.4197545,-9.650437,-9.79191,-24.439102,19.335382,35.417267,3.2849731,2.5714283,3.9315195
88,-7.1140265464782715,61.14968490600586,77.55651092529297,1.8049381537633233,-2.3397722107827463,-89.3773985239125,-16.56055,11.220446,6.0595202,74.01885,-18.924753,-3.6256127,-10.148051,-5.7406106,-6.8113356,30.24412,-17.348843,1.6999171,6.279516,-1.3224391,10.588426,28.701921,12.842144,-19.391912,70.26993,9.198292,6.2822137,-9.136955,-9.268041,-24.436556,19.172396,34.64992,3.1125333,2.6588097,4.0894833
89,-7.076233863830566,61.718631744384766,77.54541778564453,1.824512134569261,-2.2367435201855295,-89.33659890303635,-15.549736,10.8441725,5.479554,74.47574,-19.151009,-3.5975287,-10.866914,-5.8119583,-6.7592397,30.40334,-16.92902,1.6492591,6.2613564,-1.4096234,10.373124,29.092157,13.007304,-19.145905,69.95837,8.879898,6.1636105,-8.639122,-8.741553,-24.429464,19.051765,33.957035,3.0673048,2.6740339,4.176907
90,-7.027509689331055,62.286746978759766,77.52275848388672,1.8459769331399587,-2.121162513649566,-89.30272498431707,-14.51542,10.426398,4.896286,74.78064,-19.343975,-3.577903,-11.6393385,-5.8938184,-6.6944604,30.634861,-16.536646,1.5888668,6.237801,-1.4913951,10.154514,29.419767,13.157581,-18.879112,69.66482,8.602745,6.0601797,-8.1346855,-8.213993,-24.41826,18.964743,33.325245,3.1086826,2.6433747,4.217807
91,-6.976670265197754,62.86311721801758,77.48793029785156,1.8734672536453414,-2.0019659451765786,-89.27480605581552,-13.455215,9.965911,4.3153524,74.91804,-19.488646,-3.5932689,-12.4458885,-5.9868374,-6.6188617,30.916862,-16.157139,1.5317299,6.2073565,-1.5710711,9.944407,29.682707,13.291205,-18.58104,69.393234,8.374759,5.9720974,-7.6503973,-7.6853504,-24.3998,18.90268,32.758633,3.207447,2.5842896,4.220751
92,-6.913509845733643,63.437686920166016,77.44539642333984,1.9073088916252559,-1.8879939736938014,-89.25167713544398,-12.365602,9.46139,3.7420576,74.870605,-19.569252,-3.670061,-13.26726,-6.092118,-6.534185,31.227715,-15.776227,1.4908588,6.166919,-1.6535782,9.753934,29.879017,13.406229,-18.239746,69.14842,8.203363,5.8997974,-7.212507,-7.1640296,-24.370434,18.861744,32.269684,3.335514,2.514097,4.1938143
93,-6.852385997772217,64.01740264892578,77.39226531982422,1.9517488384109085,-1.7811296690347813,-89.23779299349444,-11.238472,8.896158,3.162927,74.63496,-19.58536,-3.8102396,-14.105708,-6.2113132,-6.437277,31.576138,-15.397011,1.4716479,6.1199303,-1.739091,9.58307,30.005617,13.497372,-17.84498,68.943146,8.106155,5.8434916,-6.822423,-6.653824,-24.3308,18.855808,31.868298,3.52195,2.418209,4.1158276
94,-6.781710624694824,64.60310363769531,77.3297119140625,2.004756159394997,-1.6769481960832475,-89.2320785836542,-10.077599,8.278674,2.5759137,74.220726,-19.545193,-3.9987843,-14.969178,-6.342765,-6.3280873,31.96819,-15.024317,1.4663551,6.0639105,-1.8287079,9.425919,30.069315,13.570806,-17.4008,68.76717,8.074246,5.8042755,-6.468895,-6.1570487,-24.276762,18.886923,31.553354,3.769446,2.292794,3.9898245
95,-6.705583572387695,65.19156646728516,77.2616195678711,2.0597764690043494,-1.5738069295397794,-89.225187439584,-8.899984,7.6463785,2.0024989,73.63393,-19.449764,-4.237067,-15.849462,-6.4820395,-6.2125916,32.383827,-14.649565,1.4685464,5.98899,-1.917805,9.283725,30.066181,13.623284,-16.927095,68.611855,8.074508,5.7833276,-6.1527085,-5.6707697,-24.206085,18.927668,31.313068,4.0080156,2.172383,3.8607633
96,-6.630463123321533,65.79215240478516,77.18612670898438,2.11537547004327,-1.4701640853547875,-89.20801070672779,-7.723461,7.0358195,1.4649599,72.880005,-19.299742,-4.527151,-16.739264,-6.6257634,-6.096979,32.805107,-14.265208,1.4717408,5.8852735,-2.0051591,9.15842,29.998178,13.658993,-16.440474,68.45991,8.074094,5.7817,-5.8770456,-5.192536,-24.111732,18.950674,31.136116,4.1678967,2.0919232,3.772812
97,-6.550929546356201,66.39433288574219,77.10305786132812,2.168883132681854,-1.361918826703824,-89.18675167533391,-6.5482965,6.4378395,0.95744616,71.949524,-19.088453,-4.902296,-17.647367,-6.7671795,-5.973673,33.23591,-13.868559,1.4738468,5.7612443,-2.0898142,9.048229,29.867296,13.678753,-15.916266,68.30165,8.099717,5.808232,-5.654474,-4.720426,-23.987413,18.943521,31.020784,4.2246017,2.0657587,3.7384593
98,-6.4745283126831055,67.00115966796875,77.01013946533203,2.222812776548457,-1.2509449105331543,-89.16316371876621,-5.3669877,5.839809,0.46791217,70.84261,-18.819126,-5.348828,-18.574724,-6.9102564,-5.8425364,33.683334,-13.464142,1.4788011,5.61783,-2.1753187,8.9516945,29.674004,13.684251,-15.353802,68.14652,8.156197,5.8598857,-5.479422,-4.260558,-23.832317,18.923676,30.979233,4.214684,2.0733502,3.733405
99,-6.389477729797363,67.61402130126953,76.91036224365234,2.278383120987369,-1.144436752148539,-89.12136195413457,-4.187027,5.2725267,0.010813271,69.58039,-18.506935,-5.8001575,-19.501656,-7.06764,-5.7203875,34.133793,-13.054348,1.4892199,5.437236,-2.2664025,8.872111,29.41845,13.683412,-14.807361,68.003235,8.179765,5.919251,-5.328708,-3.8188744,-23.648075,18.905844,31.01531,4.163674,2.0977178,3.746627
100,-6.302895545959473,68.22882843017578,76.80376434326172,2.3410662013996673,-1.0494593718486822,-89.04567552130689,-3.0166273,4.765399,-0.39708644,68.1826,-18.165178,-6.190283,-20.40931,-7.2524447,-5.623004,34.574955,-12.6420965,1.5072681,5.205253,-2.3682256,8.813621,29.10068,13.688666,-14.335449,67.877426,8.104604,5.968875,-5.1804137,-3.3978014,-23.439146,18.900444,31.129519,4.0982804,2.1218352,3.7677763
101,-6.216823577880859,68.84925842285156,76.68892669677734,2.4106971788266214,-0.9600238146666203,-88.92883212843343,-1.8687426,4.3128304,-0.76037115,66.64625,-17.74834,-6.5185184,-21.303917,-7.4725184,-5.558854,35.010845,-12.232317,1.5344836,4.9195952,-2.4861207,8.771215,28.722265,13.707569,-13.941339,67.76591,7.901,6.0088887,-5.0406594,-2.9887545,-23.208782,18.905739,31.31481,4.0164948,2.1436632,3.8095608
102,-6.127901554107666,69.47432708740234,76.56761169433594,2.4879134422216667,-0.8750039890545913,-88.78020446680944,-0.7360183,3.901274,-1.0838861,64.96311,-17.264736,-6.8150682,-22.191706,-7.7203956,-5.5153775,35.444775,-11.821043,1.5694815,4.5932174,-2.6173468,8.745451,28.284182,13.740983,-13.60258,67.66112,7.606794,6.046666,-4.9200025,-2.5848079,-22.957163,18.911081,31.564693,3.9087133,2.1715093,3.8734286
103,-6.036697864532471,70.10525512695312,76.44052124023438,2.5683637354252085,-0.8085157461348277,-88.60851752243796,0.40237758,3.5463555,-1.3515947,63.1475,-16.810762,-7.0634613,-23.05748,-7.988607,-5.482936,35.87182,-11.404841,1.609332,4.2351537,-2.7543457,8.749111,27.784653,13.791635,-13.340507,67.56201,7.2563505,6.0749803,-4.80297,-2.1879714,-22.684322,18.912445,31.877361,3.7891304,2.2041385,3.9320095
104,-5.94259786605835,70.73880004882812,76.30854034423828,2.6498027543563705,-0.7746941283470618,-88.4226449983023,1.566397,3.2628498,-1.5454605,61.21336,-16.482014,-7.247846,-23.885458,-8.2694,-5.451323,36.28519,-10.979098,1.6510686,3.8561761,-2.8909502,8.795156,27.223166,13.863572,-13.176962,67.46672,6.884406,6.086621,-4.6745367,-1.7968577,-22.391489,18.902874,32.248703,3.670017,2.2404416,3.9581857
105,-5.851500988006592,71.38578033447266,76.17050170898438,2.7350765974265587,-0.77511864401801,-88.21780880569372,2.7658465,3.0613089,-1.645233,59.160587,-16.27151,-7.355794,-24.675236,-8.56894,-5.4208393,36.68985,-10.547334,1.6924667,3.455405,-3.0321712,8.886777,26.596186,13.958729,-13.130656,67.37259,6.460615,6.082212,-4.5248513,-1.4039276,-22.076471,18.873466,32.676186,3.5452719,2.2863615,3.940274
106,-5.74854850769043,72.03986358642578,76.027099609375,2.8274380451562418,-0.8031257029309974,-87.9919134094864,3.9895475,2.9221354,-1.6605582,56.980244,-16.138386,-7.405529,-25.434443,-8.89059,-5.3957067,37.08791,-10.111787,1.7348907,3.0321877,-3.1822674,9.01715,25.904287,14.076786,-13.18992,67.28019,5.978094,6.064138,-4.36551,-1.0073934,-21.738472,18.826218,33.158615,3.4102616,2.3405967,3.8947585
107,-5.650780200958252,72.70368194580078,75.87875366210938,2.9177278118599057,-0.8605714436125874,-87.75861849541836,5.230701,2.8149612,-1.6151289,54.662342,-16.123072,-7.4250555,-26.158709,-9.219417,-5.367324,37.464996,-9.661193,1.7812608,2.5986283,-3.3350236,9.185323,25.153059,14.217269,-13.329356,67.19063,5.509,6.028484,-4.214144,-0.61864454,-21.383083,18.773106,33.696117,3.2852645,2.3911934,3.8366277
108,-5.546844959259033,73.37676239013672,75.7277603149414,3.000337433586109,-0.949295635212191,-87.53114480947984,6.4801435,2.7126615,-1.5358218,52.19932,-16.263906,-7.43992,-26.843903,-9.541473,-5.3293457,37.808823,-9.18674,1.8342376,2.165991,-3.4824193,9.391207,24.346794,14.3787,-13.524653,67.10559,5.124004,5.971978,-4.0885377,-0.24449763,-21.01868,18.725122,34.282898,3.1900208,2.4264498,3.7809155
109,-5.434478282928467,74.05573272705078,75.56990051269531,3.074345070096975,-1.0759646007430073,-87.31057969314749,7.769688,2.6047611,-1.4445338,49.486904,-16.541056,-7.4504347,-27.490103,-9.854419,-5.280246,38.1366,-8.703026,1.8903598,1.7357025,-3.6223109,9.639297,23.490242,14.557024,-13.773959,67.01591,4.8613195,5.8927765,-4.007166,0.12034095,-20.650965,18.685846,34.91859,3.144217,2.4424314,3.7279353
110,-5.316711902618408,74.74958038330078,75.4066390991211,3.1427589416649777,-1.2374242852875914,-87.0909878963604,9.097156,2.5017319,-1.3211181,46.553707,-16.940325,-7.4488683,-28.098799,-10.165459,-5.2235312,38.44741,-8.209277,1.9491848,1.3016694,-3.7586951,9.929169,22.576809,14.748292,-14.090175,66.92804,4.6763144,5.7911186,-3.95616,0.48247996,-20.280228,18.649231,35.598164,3.1339386,2.4461324,3.67122
111,-5.1903767585754395,75.45292663574219,75.2435302734375,3.206229181959276,-1.4208306461289968,-86.87481876412807,10.404484,2.4103298,-1.1299897,43.585144,-17.507347,-7.4460454,-28.669739,-10.473415,-5.160656,38.703632,-7.6732144,2.0178015,0.8644599,-3.8924708,10.252935,21.599405,14.953079,-14.468209,66.853004,4.519002,5.67497,-3.905155,0.82971394,-19.908758,18.61424,36.317158,3.1327596,2.4420733,3.6151924
112,-5.067201614379883,76.17192077636719,75.07846069335938,3.2667510263565536,-1.6128452473914607,-86.66440056021972,11.630618,2.3384771,-0.8350292,40.769176,-18.288046,-7.452967,-29.201614,-10.776354,-5.0936174,38.864655,-7.0612426,2.1038194,0.4246052,-4.0244994,10.6028595,20.551456,15.17374,-14.902604,66.80216,4.3392043,5.5505867,-3.824338,1.1529094,-19.539827,18.577782,37.068253,3.1119413,2.4347477,3.5645845
113,-4.935251712799072,76.89613342285156,74.91860961914062,3.30922100643242,-1.824951128934914,-86.4599986368541,12.807299,2.3190258,-0.38476443,38.09022,-19.39851,-7.4643626,-29.681503,-11.06439,-5.0411882,38.93859,-6.3781176,2.2098174,-0.021354683,-4.140038,10.987856,19.436617,15.409517,-15.401639,66.76329,4.1395817,5.4155116,-3.7186425,1.4503841,-19.17659,18.548925,37.852066,3.0638185,2.424475,3.5244157
114,-4.792669773101807,77.63675689697266,74.76113891601562,3.3357982802386945,-2.0582085474118306,-86.25947224185558,13.954955,2.3336213,0.19067605,35.45408,-20.770079,-7.483289,-30.114418,-11.340358,-4.9980216,38.940067,-5.636727,2.3316033,-0.4729163,-4.242781,11.408987,18.256485,15.657016,-15.965225,66.73141,3.9414241,5.2678223,-3.6006792,1.7303369,-18.81994,18.524479,38.66675,3.004286,2.4094872,3.4913652
115,-4.649996757507324,78.39403533935547,74.60942077636719,3.373235067431747,-2.2839129774363562,-86.06132796269463,14.992867,2.319317,0.8035987,32.93567,-22.173273,-7.530717,-30.525398,-11.618883,-4.931381,38.838295,-4.8153405,2.4665458,-0.9228154,-4.357856,11.847019,16.999487,15.915144,-16.57678,66.72891,3.7214026,5.1135254,-3.4527996,1.9974941,-18.46656,18.483662,39.500942,2.9430869,2.3913553,3.457439
116,-4.503969669342041,79.17823028564453,74.45999908447266,3.446212834334374,-2.4737261160864286,-85.86438847042231,15.838871,2.219294,1.3639653,30.61386,-23.381645,-7.623855,-30.938986,-11.913937,-4.8072453,38.60042,-3.890703,2.61282,-1.362786,-4.5104456,12.282218,15.653992,16.18451,-17.219898,66.777695,3.4563074,4.958534,-3.2578342,2.256355,-18.109749,18.404976,40.34456,2.8898528,2.371338,3.4148653
117,-4.354366302490234,79.9795150756836,74.32380676269531,3.564220122214024,-2.62185305452668,-85.66010124828871,16.464834,2.0262916,1.8638456,28.506052,-24.362455,-7.810929,-31.366306,-12.245551,-4.6397595,38.22948,-2.8880537,2.7495432,-1.8019327,-4.7116117,12.7139845,14.198293,16.467617,-17.926414,66.8983,3.1031919,4.794949,-3.0017602,2.4966636,-17.747047,18.293222,41.19019,2.8371544,2.360782,3.3641741
118,-4.202986717224121,80.79650115966797,74.20639038085938,3.709252870100469,-2.742275956595746,-85.45073568282906,16.914967,1.7772897,2.347086,26.57053,-25.226791,-8.068747,-31.791725,-12.596733,-4.441066,37.73596,-1.8078502,2.8852994,-2.2395818,-4.944154,13.150656,12.644014,16.76217,-18.692898,67.06879,2.6865454,4.6219006,-2.6982427,2.7204762,-17.378222,18.153444,42.044598,2.7814572,2.3551824,3.3088083
119,-4.0508294105529785,81.62451171875,74.11306762695312,3.868220278338894,-2.8370602506742517,-85.25271476459726,17.209448,1.4839199,2.7969098,24.81599,-25.974257,-8.300072,-32.20675,-12.925941,-4.1687202,37.110348,-0.595231,3.062448,-2.654905,-5.190946,13.585591,11.028167,17.062027,-19.449833,67.25236,2.282827,4.455575,-2.3700051,2.9434085,-16.999046,17.970596,42.926804,2.7378674,2.3320017,3.2440388
120,-3.8943402767181396,82.45320129394531,74.04642486572266,4.031303699240237,-2.908901727032883,-85.0836489150594,17.365196,1.1564676,3.1927674,23.26184,-26.61022,-8.402886,-32.60166,-13.191875,-3.7756464,36.344048,0.80433315,3.325438,-3.0291674,-5.4362154,14.011305,9.3900795,17.361275,-20.1255,67.41607,1.9702852,4.3132524,-2.037895,3.1784708,-16.602062,17.732874,43.859787,2.7199821,2.268716,3.1643882
121,-3.746722936630249,83.29107666015625,74.00230407714844,4.215693708364039,-2.929159332615046,-84.94099164209172,17.323181,0.7719391,3.5153496,21.944973,-27.140972,-8.316402,-33.00636,-13.387645,-3.171596,35.400795,2.4396033,3.7286017,-3.3597846,-5.693223,14.406919,7.69837,17.66338,-20.737402,67.59678,1.7688279,4.1879053,-1.7002732,3.4264777,-16.177685,17.423403,44.855297,2.7296991,2.1446238,3.0614111
122,-3.6057240962982178,84.133544921875,73.97914123535156,4.4229577622593865,-2.908160714891506,-84.82063886472558,17.089176,0.33475763,3.7780268,20.864878,-27.57465,-8.096703,-33.412636,-13.530918,-2.389557,34.297684,4.268339,4.2412853,-3.6534493,-5.9680505,14.783027,5.9440885,17.971111,-21.311018,67.80382,1.6383698,4.073134,-1.3469241,3.6759474,-15.723452,17.055325,45.907272,2.7574394,1.9762808,2.9393325
123,-3.4722111225128174,84.97571563720703,73.96827697753906,4.621313543808364,-2.9063717392685366,-84.73767235130227,16.77895,-0.10472842,4.007464,19.979954,-27.925486,-7.8154025,-33.752,-13.619495,-1.5717423,33.103683,6.2067833,4.778152,-3.9095707,-6.23426,15.177453,4.203101,18.278315,-21.787132,67.96268,1.5649483,3.9941237,-0.9835381,3.9185216,-15.247287,16.66798,47.015213,2.8011458,1.7972593,2.8106673
124,-3.343104839324951,85.82051849365234,73.97496032714844,4.7769062969804965,-2.983041726050414,-84.70793876205012,16.508621,-0.496231,4.230678,19.24359,-28.203144,-7.5452676,-33.960552,-13.659476,-0.863262,31.890554,8.174866,5.2554398,-4.13386,-6.463309,15.626962,2.5514376,18.574594,-22.099752,68.00982,1.5377417,3.9703767,-0.61471254,4.1451716,-14.763327,16.306488,48.177174,2.8624542,1.6415292,2.687531
125,-3.2165210247039795,86.65949249267578,73.99571228027344,4.875776928514205,-3.1716515123743525,-84.7408711564726,16.332834,-0.82503194,4.4468045,18.62927,-28.41804,-7.2818265,-34.016605,-13.688043,-0.3851468,30.616236,10.339564,5.508047,-4.328046,-6.6338153,16.165632,0.9913782,18.854422,-22.228361,67.95068,1.591474,4.0290527,-0.2331848,4.3580575,-14.282815,15.964135,49.39533,2.9309008,1.5108105,2.5576658
126,-3.0853986740112305,87.48699951171875,74.03787994384766,4.938580026453787,-3.4330528698975415,-84.82981002652268,16.173615,-1.1178346,4.646908,18.179377,-28.567648,-6.990714,-33.97119,-13.697827,-0.027640302,29.286077,12.6734085,5.629319,-4.4908175,-6.7621827,16.763895,-0.51411223,19.120264,-22.206789,67.8235,1.7219508,4.1521387,0.16196048,4.5664477,-13.807294,15.627885,50.66173,3.0138834,1.3904566,2.4203978
127,-2.953712224960327,88.26195526123047,74.10120391845703,4.993309280638018,-3.7195687514166864,-84.96416130292137,15.948658,-1.3878897,4.8442087,17.951612,-28.643122,-6.7026687,-33.853004,-13.63382,0.40897182,28.018787,14.805438,5.926008,-4.62447,-6.879949,17.362387,-1.9501265,19.376917,-22.0557,67.618126,1.8568549,4.2920456,0.5573355,4.7681007,-13.341072,15.3323345,51.968082,3.139711,1.2892596,2.303799
128,-2.8234310150146484,88.99462127685547,74.18318939208984,5.066466464750161,-3.9865176275718595,-85.12959491696226,15.581078,-1.6504793,5.049724,18.001614,-28.636118,-6.449957,-33.66857,-13.445711,1.1318493,26.905886,16.370821,6.712393,-4.737145,-7.0197425,17.905333,-3.2945871,19.62964,-21.78708,67.3152,1.929447,4.40067,0.93890166,4.961997,-12.887061,15.115983,53.302658,3.3396983,1.2163439,2.2363482
129,-2.704808235168457,89.74317932128906,74.28965759277344,5.186851686294408,-4.23473883902227,-85.33022612159229,15.017714,-1.9350975,5.263309,18.437235,-28.521486,-6.2488384,-33.360188,-13.0607395,2.3776412,25.824192,17.342354,8.261524,-4.8225646,-7.2154055,18.405321,-4.555437,19.884119,-21.36742,66.89498,1.9496427,4.4935718,1.3045317,5.1374288,-12.445596,14.979583,54.672695,3.6673486,1.1766264,2.220428
130,-2.6052606105804443,90.50276184082031,74.41012573242188,5.337523009673219,-4.487943922957374,-85.56535982424236,14.3162775,-2.2292607,5.478476,19.194563,-28.309732,-6.08146,-32.9119,-12.557744,3.9547894,24.753275,17.834103,10.325824,-4.885544,-7.44673,18.886251,-5.7374616,20.144236,-20.800093,66.37323,1.9458245,4.584606,1.6599237,5.3009562,-12.017044,14.906948,56.07957,4.0925994,1.1649612,2.2427585
131,-2.5275321006774902,91.24658966064453,74.53254699707031,5.475338257166309,-4.734946800288651,-85.81452149099407,13.571212,-2.4866903,5.6959524,20.05688,-28.037706,-5.927403,-32.400265,-12.085139,5.4029303,23.933039,17.726395,12.424704,-4.948694,-7.663989,19.306847,-6.815875,20.412153,-20.162785,65.77712,1.8713025,4.629436,2.0033755,5.476082,-11.605465,14.909324,57.50668,4.5209265,1.1749799,2.30835
132,-2.4632837772369385,91.95201873779297,74.65955352783203,5.551906934573472,-4.959496218777966,-86.06256216305054,12.869846,-2.657128,5.919793,20.815178,-27.746553,-5.7648883,-31.938828,-11.753331,6.276267,23.617668,16.972563,14.095149,-5.028202,-7.813253,19.622734,-7.7668304,20.686325,-19.530714,65.134964,1.683393,4.581479,2.3332973,5.6868773,-11.217061,14.995715,58.93572,4.857426,1.2004548,2.4226527
133,-2.410274028778076,92.63446044921875,74.79534149169922,5.512507814809125,-5.155471735341229,-86.32382759891179,12.177132,-2.660336,6.167711,21.55508,-27.48913,-5.6063247,-31.519413,-11.530615,6.275069,23.821327,15.312734,15.000033,-5.1012626,-7.8412333,19.812622,-8.585224,20.962902,-18.906246,64.46536,1.3426423,4.406403,2.6542447,5.948183,-10.85148,15.197,60.405075,5.14493,1.2266127,2.567958
134,-2.3732552528381348,93.2901840209961,74.95082092285156,5.358608970617278,-5.323908561127752,-86.62000014514257,11.438236,-2.4846046,6.448751,22.395294,-27.261053,-5.4711685,-31.129282,-11.312738,5.526456,24.440971,12.900335,15.000033,-5.149505,-7.7499332,19.90091,-9.287551,21.24011,-18.251457,63.752148,0.8869129,4.1351266,2.9647143,6.2461066,-10.507844,15.495735,61.91037,5.410793,1.2616687,2.7478676
135,-2.333460569381714,93.93229675292969,75.11688995361328,5.174995519758213,-5.4640507377172165,-86.92353191593993,10.7455635,-2.274828,6.7322755,23.097248,-26.974236,-5.3202004,-30.8754,-11.117358,4.6181097,25.566769,10.330782,15.000033,-5.215588,-7.6168466,19.909542,-9.892515,21.52151,-17.60318,62.978424,0.36694944,3.8184,3.2550416,6.560807,-10.195964,15.827656,63.369495,5.538704,1.3316923,3.0009348
136,-2.2821571826934814,94.56109619140625,75.3015365600586,4.9634739372423695,-5.586131592568637,-87.23833240838019,10.148856,-2.0479636,7.0229197,23.569746,-26.624273,-5.1494727,-30.775608,-10.95334,3.7093384,27.150122,8.268763,15.000033,-5.3083353,-7.4399147,19.884632,-10.412493,21.81114,-16.995874,62.118885,-0.16361202,3.5075939,3.5155387,6.8770523,-9.928252,16.122536,64.68972,5.409349,1.4638786,3.3683667
137,-2.2170345783233643,95.18576049804688,75.5025405883789,4.708076884033374,-5.704736602756473,-87.56315389303563,9.685501,-1.795336,7.3210053,23.768503,-26.211102,-4.943337,-30.811184,-10.850915,2.75498,29.21993,6.992901,15.000033,-5.442163,-7.1991515,19.842878,-10.820819,22.106518,-16.421509,61.147156,-0.74506956,3.1930547,3.7440891,7.187136,-9.713315,16.369106,65.85741,4.9178815,1.692676,3.8997083
138,-2.1377041339874268,95.8084945678711,75.70573425292969,4.419524753546881,-5.824432846241406,-87.88685454474931,9.334036,-1.5282373,7.617212,23.74743,-25.737862,-4.705512,-30.92204,-10.843017,1.6965518,31.716976,6.1487017,15.000033,-5.6169143,-6.9087915,19.772602,-11.115688,22.404833,-15.866334,60.075375,-1.3916187,2.8550816,3.9435945,7.5070853,-9.5502205,16.597404,66.909035,4.1489973,1.9868202,4.5668783
139,-2.0591282844543457,96.4084243774414,75.9128189086914,4.148563651856356,-5.9408297770144145,-88.19837949901512,9.061506,-1.2949923,7.90092,23.553106,-25.20413,-4.4622164,-31.054663,-10.942459,0.6731815,34.44832,5.4476113,15.000033,-5.818077,-6.622342,19.677961,-11.338684,22.709734,-15.347769,58.928364,-2.0001915,2.5314715,4.1135907,7.8516417,-9.435942,16.803589,67.82836,3.274949,2.2786975,5.291912
140,-1.9795726537704468,96.99779510498047,76.11921691894531,3.9402533071684407,-6.043382596768755,-88.49276557361661,8.831467,-1.1348273,8.1661,23.233505,-24.61521,-4.2421355,-31.180023,-11.141832,-0.18086317,37.252907,4.588065,15.000033,-6.023946,-6.3868003,19.558935,-11.534968,23.0284,-14.891782,57.732716,-2.4741542,2.2603667,4.2552586,8.235061,-9.362787,16.980532,68.60155,2.4676328,2.5039442,5.9941597
141,-1.9121155738830566,97.58367919921875,76.3156967163086,3.7503913115881433,-6.129487626852107,-88.80518951774125,8.641194,-0.9796866,8.439698,22.811588,-23.986795,-4.0742273,-31.279974,-11.434658,-1.0390245,40.11072,3.519721,14.42338,-6.201546,-6.1636086,19.42233,-11.700493,23.365696,-14.505928,56.47316,-2.8052943,2.0568461,4.3634176,8.652303,-9.32881,17.13559,69.22354,1.701482,2.6530313,6.6697745
142,-1.8541690111160278,98.16187286376953,76.50769805908203,3.517119699646643,-6.1963285571844855,-89.15868190395527,8.466128,-0.7455057,8.7431555,22.351357,-23.365028,-3.959736,-31.33972,-11.790998,-2.0222585,43.030396,2.4205468,13.187773,-6.3392105,-5.887902,19.2684,-11.808872,23.72117,-14.173058,55.133587,-3.039388,1.900395,4.4401693,9.093621,-9.332431,17.269867,69.70559,0.9089138,2.756071,7.3540983
143,-1.807723045349121,98.7474365234375,76.68423461914062,3.3095613631049767,-6.237964348458959,-89.49515072095384,8.27509,-0.534998,9.030444,21.866299,-22.733456,-3.8649101,-31.374859,-12.223988,-2.9152253,45.96961,1.3007861,11.87534,-6.4811544,-5.6336403,19.081242,-11.881618,24.096056,-13.893782,53.749523,-3.166948,1.775497,4.499108,9.563192,-9.367458,17.362701,70.063774,0.19765745,2.816147,8.02048
144,-1.766849160194397,99.32061004638672,76.84980010986328,3.1332949204217555,-6.239876160574883,-89.79149322874486,7.992109,-0.34657246,9.285219,21.470758,-22.134787,-3.7812335,-31.383823,-12.684623,-3.6876357,48.832817,0.21073666,10.661056,-6.636119,-5.407191,18.847248,-11.94188,24.491743,-13.6696615,52.357132,-3.1774955,1.6664716,4.5543604,10.063634,-9.422732,17.393751,70.3159,-0.32362884,2.8391085,8.641627
145,-1.7384897470474243,99.87818908691406,77.00453186035156,2.9908211270649603,-6.1873058818864815,-90.04854590702439,7.6064577,-0.18470536,9.509668,21.155144,-21.561337,-3.71455,-31.397715,-13.19395,-4.3593416,51.659107,-0.85829425,9.547108,-6.8001957,-5.216029,18.546011,-11.994161,24.914206,-13.521593,50.952507,-3.0362895,1.5819899,4.606376,10.600182,-9.493313,17.356709,70.456345,-0.6170503,2.8230693,9.235971
146,-1.7186874151229858,100.4469985961914,77.13949584960938,2.8789799321638374,-6.089755069800645,-90.2775841577542,7.157302,-0.045801282,9.709936,20.865795,-20.992989,-3.667032,-31.415651,-13.765886,-4.933177,54.491364,-1.933034,8.4529915,-6.9677467,-5.05564,18.189121,-12.024696,25.363653,-13.443247,49.517323,-2.7589753,1.5266386,4.649057,11.166933,-9.576688,17.261873,70.48388,-0.7446387,2.7708676,9.807684
147,-1.7117924690246582,101.01400756835938,77.25637817382812,2.7829080917987046,-5.968391380637573,-90.47111469428931,6.6322002,0.087751955,9.876361,20.671936,-20.466179,-3.625314,-31.391861,-14.327877,-5.3691173,57.240665,-2.9801173,7.433793,-7.143927,-4.913146,17.809155,-12.039359,25.832153,-13.402394,48.077995,-2.4146862,1.4778744,4.6877604,11.745426,-9.667269,17.114176,70.430664,-0.746473,2.6959624,10.305573
148,-1.7104377746582031,101.57635498046875,77.35954284667969,2.686976936518588,-5.844324087674385,-90.62227778162861,6.029235,0.23029228,9.999587,20.620386,-20.004461,-3.5748906,-31.280947,-14.793897,-5.6320233,59.812523,-3.9564555,6.5549145,-7.3339972,-4.773859,17.438055,-12.046709,26.3075,-13.366767,46.665688,-2.0714138,1.4125595,4.7291026,12.317537,-9.757508,16.915949,70.33014,-0.66518354,2.6105506,10.67818
149,-1.715241551399231,102.13902282714844,77.45024871826172,2.590388094109279,-5.719734501764515,-90.7200953343271,5.336554,0.38334748,10.068684,20.73497,-19.624224,-3.5127094,-31.08617,-15.138533,-5.7164264,62.21923,-4.8510413,5.8237705,-7.5451345,-4.6346445,17.0761,-12.058285,26.787945,-13.346385,45.29049,-1.7131441,1.3226382,4.776351,12.888282,-9.844569,16.65825,70.178505,-0.46789744,2.4967704,10.906814
150,-1.7246031761169434,102.70506286621094,77.52611541748047,2.4979603918481756,-5.583326933598602,-90.77221063077987,4.5604377,0.54035234,10.091448,20.981441,-19.306187,-3.4458609,-30.834679,-15.389286,-5.6528096,64.50548,-5.679019,5.2191606,-7.7708416,-4.499691,16.707212,-12.073777,27.275066,-13.356156,43.943367,-1.314561,1.2204859,4.827448,13.463401,-9.9285965,16.341146,69.966354,-0.14822029,2.3559039,11.019739
151,-1.744218111038208,103.2684326171875,77.58462524414062,2.40730988686862,-5.436610477332072,-90.79921711132386,3.7161005,0.7044538,10.087108,21.339361,-19.032831,-3.375336,-30.518797,-15.536733,-5.468011,66.63034,-6.434018,4.7639184,-7.9952655,-4.3658414,16.33822,-12.078114,27.757677,-13.364005,42.623363,-0.9219951,1.1139694,4.881524,14.024514,-10.006873,15.982927,69.7197,0.2139792,2.2276967,11.035283
152,-1.7721338272094727,103.82766723632812,77.6269760131836,2.31481686505987,-5.281094841825653,-90.82198942561763,2.8190813,0.88006425,10.07452,21.788656,-18.786375,-3.3025353,-30.131166,-15.573512,-5.188199,68.55355,-7.1111403,4.480013,-8.203303,-4.2277594,15.975229,-12.064984,28.220856,-13.340718,41.34048,-0.58373547,1.0101382,4.938828,14.552178,-10.078396,15.599081,69.46632,0.5368703,2.1516254,10.969401
153,-1.7995880842208862,104.39586639404297,77.65741729736328,2.214077717440688,-5.117798379348212,-90.83591451487654,1.8573121,1.076507,10.046771,22.355932,-18.574617,-3.2261724,-29.661242,-15.475783,-4.812992,70.26527,-7.694813,4.421996,-8.399822,-4.080382,15.620845,-12.036969,28.658865,-13.2749,40.09636,-0.28119433,0.9077651,5.0028157,15.046752,-10.144522,15.172534,69.19408,0.7882331,2.1484962,10.796325
154,-1.8283705711364746,104.95855712890625,77.67444610595703,2.10819607543139,-4.945373114077346,-90.8336751383267,0.8282469,1.2901772,9.996167,23.039831,-18.40189,-3.1464655,-29.116198,-15.246412,-4.3435545,71.7928,-8.19404,4.566532,-8.589624,-3.9227486,15.270787,-12.001302,29.071873,-13.183207,38.89291,0.004384899,0.8033892,5.0735745,15.518018,-10.206598,14.7005005,68.89413,1.015329,2.192679,10.516286
155,-1.8631260395050049,105.51622772216797,77.68557739257812,2.0060501213285753,-4.762401693075459,-90.83111616507809,-0.23885807,1.5052006,9.941113,23.778784,-18.245659,-3.06693,-28.512976,-14.923736,-3.8052394,73.14722,-8.642008,4.815721,-8.7546425,-3.7574124,14.920401,-11.961116,29.45279,-13.080242,37.74359,0.22600561,0.70111597,5.1469464,15.958283,-10.267781,14.216856,68.60184,1.2563744,2.254377,10.183306
156,-1.896252155303955,106.07791900634766,77.682861328125,1.9191084147613195,-4.567125668661485,-90.8441325402648,-1.3165696,1.7059661,9.900924,24.51542,-18.08606,-2.990586,-27.869446,-14.5471735,-3.2185855,74.33955,-9.069687,5.072577,-8.877887,-3.5859516,14.564512,-11.919177,29.79083,-12.978568,36.66255,0.3388786,0.6045848,5.2190647,16.360369,-10.33205,13.757061,68.35179,1.5506927,2.3035052,9.851721
157,-1.9279311895370483,106.63736724853516,77.6690673828125,1.8437078078229148,-4.350608576889984,-90.86856595935241,-2.4275246,1.894356,9.871712,25.273186,-17.930456,-2.9151006,-27.192917,-14.113763,-2.5801613,75.37254,-9.486649,5.326477,-8.960077,-3.4014354,14.193165,-11.882159,30.079548,-12.882992,35.649815,0.31804794,0.5179807,5.292901,16.732029,-10.402943,13.305371,68.1361,1.922559,2.3445415,9.513862
158,-1.953525424003601,107.19263458251953,77.6474380493164,1.7759887605219953,-4.1168865605221665,-90.89852007509958,-3.5751817,2.0763488,9.8459835,26.067997,-17.78604,-2.8392904,-26.470192,-13.60816,-1.8843285,76.24273,-9.878037,5.6229553,-9.007153,-3.2024183,13.811476,-11.854366,30.317804,-12.788757,34.707386,0.19402409,0.43739772,5.370177,17.077085,-10.48181,12.847872,67.9369,2.3468332,2.3896403,9.148196
159,-1.9767264127731323,107.75473022460938,77.61248016357422,1.7248373741345047,-3.884792251332715,-90.94687735177243,-4.706912,2.243467,9.838582,26.84012,-17.631674,-2.7675672,-25.689709,-13.05694,-1.1458473,76.94872,-10.236013,5.9444866,-9.011422,-3.0001166,13.436925,-11.830759,30.502827,-12.691219,33.848804,0.006439368,0.3543036,5.4444547,17.379053,-10.569159,12.423841,67.7819,2.7877884,2.4166152,8.788992
160,-1.9989142417907715,108.31671142578125,77.570068359375,1.7005292307942674,-3.673186554032922,-91.02665356825675,-5.766901,2.386959,9.865383,27.52264,-17.446774,-2.70447,-24.84111,-12.488498,-0.3770201,77.49024,-10.552668,6.2731133,-8.965605,-2.8076386,13.086369,-11.803847,30.632103,-12.583658,33.086903,-0.20302607,0.26036555,5.5093393,17.622107,-10.668322,12.072579,67.69408,3.2087927,2.4084818,8.469361
161,-2.0197336673736572,108.87799072265625,77.52457427978516,1.7058755175065652,-3.4920405942062755,-91.14672594660634,-6.7308817,2.5012732,9.938248,28.096577,-17.231878,-2.6548061,-23.910383,-11.924733,0.4217113,77.873215,-10.830835,6.5922575,-8.866181,-2.627589,12.767341,-11.776919,30.70371,-12.4603195,32.427547,-0.44493556,0.15448241,5.558788,17.807526,-10.783643,11.794819,67.67954,3.623148,2.3435874,8.180697
162,-2.03741717338562,109.43067169189453,77.47290802001953,1.7372010800743518,-3.3298834831671753,-91.2977994839473,-7.631946,2.5921812,10.047531,28.599354,-16.997295,-2.6142755,-22.905014,-11.353436,1.2591412,78.09743,-11.073688,6.91098,-8.72007,-2.4546459,12.469088,-11.745659,30.716387,-12.320354,31.858303,-0.72988886,0.040526006,5.5969086,17.94227,-10.916787,11.574713,67.7242,4.043135,2.2380204,7.912141
163,-2.052701711654663,109.9879379272461,77.41694641113281,1.7871727059654818,-3.1726655228500835,-91.46537137962541,-8.501194,2.6684039,10.177033,29.051085,-16.737022,-2.574142,-21.84687,-10.75339,2.1380782,78.15204,-11.274642,7.249563,-8.537993,-2.28739,12.181786,-11.712424,30.673159,-12.174889,31.383024,-1.0294182,-0.082836166,5.6324883,18.01935,-11.065385,11.429007,67.82236,4.430804,2.1303585,7.69405
164,-2.078760862350464,110.55525207519531,77.35853576660156,1.85166774322394,-3.006546010602173,-91.63473149952368,-9.370451,2.738626,10.31006,29.473644,-16.446146,-2.5261073,-20.757935,-10.103995,3.0623267,78.0274,-11.427779,7.6279335,-8.329776,-2.1268353,11.895981,-11.678962,30.580528,-12.035954,31.003819,-1.3155729,-0.21667022,5.674124,18.029583,-11.226595,11.375408,67.970955,4.7493024,2.0598319,7.5545363
165,-2.1148805618286133,111.11598205566406,77.29678344726562,1.9357699656776466,-2.826590168077409,-91.80552199859032,-10.239851,2.794156,10.4475765,29.855124,-16.115147,-2.465407,-19.639925,-9.398661,4.055818,77.722496,-11.518691,8.033322,-8.094478,-1.9823904,11.605478,-11.643331,30.441687,-11.905543,30.726543,-1.5957543,-0.3777493,5.72175,17.96686,-11.398301,11.424017,68.18241,4.9948316,2.0384834,7.5141244
166,-2.1553921699523926,111.6856460571289,77.23352813720703,2.0425131726648336,-2.6405363713402634,-91.98368214233437,-11.094264,2.8330667,10.597255,30.188164,-15.748624,-2.3976061,-18.478575,-8.658378,5.11411,77.244225,-11.557806,8.454601,-7.8287063,-1.8546916,11.316788,-11.603105,30.256914,-11.777284,30.544827,-1.8808312,-0.55986005,5.770641,17.83397,-11.580186,11.566098,68.45945,5.1859655,2.043939,7.5525904
167,-2.1983253955841064,112.25764465332031,77.17169189453125,2.1553888585892547,-2.4536583230465716,-92.16494696658991,-11.944064,2.8749502,10.752869,30.502308,-15.362721,-2.3299644,-17.274029,-7.9034243,6.200441,76.59727,-11.581374,8.914451,-7.5398703,-1.7306207,11.039529,-11.556012,30.028593,-11.647446,30.439384,-2.1480272,-0.7293976,5.8223047,17.639414,-11.769619,11.790518,68.771576,5.3165154,2.0702405,7.6380215
168,-2.2536942958831787,112.83074951171875,77.10696411132812,2.261404639525787,-2.271291081517275,-92.34522811845973,-12.793725,2.9371083,10.907051,30.814598,-14.966655,-2.2693324,-16.028625,-7.1545124,7.2766976,75.78275,-11.621775,9.432781,-7.233872,-1.5985059,10.783056,-11.490247,29.758545,-11.508198,30.382175,-2.3700035,-0.8526491,5.8783875,17.388126,-11.962118,12.085919,69.09746,5.3810124,2.10607,7.738859
169,-2.3105216026306152,113.41353607177734,77.03765869140625,2.3620684570731263,-2.092855593401584,-92.52670467410364,-13.646962,3.0216498,11.063711,31.13647,-14.566595,-2.2147658,-14.729966,-6.382491,8.381482,74.774124,-11.6447935,10.08782,-6.905532,-1.4587086,10.544172,-11.407464,29.44475,-11.360468,30.37694,-2.5557148,-0.9190777,5.938983,17.079752,-12.154726,12.461262,69.439926,5.344794,2.1599782,7.863967
170,-2.3722987174987793,114.00809478759766,76.96151733398438,2.461386002248299,-1.9159680137794795,-92.71054711965655,-14.497597,3.1181366,11.224855,31.449059,-14.151952,-2.163279,-13.380518,-5.6004534,9.525892,73.57903,-11.651808,10.834227,-6.5529847,-1.3180681,10.3191395,-11.314721,29.087248,-11.209213,30.436043,-2.714606,-0.94718,6.00366,16.71051,-12.346854,12.91822,69.80938,5.2215114,2.2329438,8.024138
171,-2.4497995376586914,114.6124496459961,76.87769317626953,2.55812250279918,-1.742623700468197,-92.89230886039583,-15.34857,3.229261,11.38161,31.752045,-13.723199,-2.1185646,-12.015759,-4.8838816,10.631497,72.25753,-11.728002,11.513879,-6.186382,-1.1742605,10.116583,-11.209434,28.693148,-11.05489,30.544167,-2.822226,-0.94625807,6.0738373,16.28058,-12.538341,13.435206,70.19369,5.0783362,2.3037994,8.190266
172,-2.5358541011810303,115.22542572021484,76.78955078125,2.6467979741317205,-1.5747735719648448,-93.06778355240981,-16.202772,3.3573992,11.525209,32.04381,-13.279543,-2.083907,-10.676642,-4.3025417,11.615877,70.86793,-11.949461,11.973482,-5.8161144,-1.0261292,9.945407,-11.079575,28.272,-10.893456,30.677376,-2.8515925,-0.9253559,6.150154,15.790413,-12.727694,13.991567,70.58054,4.982339,2.351787,8.333918
173,-2.6222848892211914,115.84939575195312,76.69476318359375,2.721529416811289,-1.4127951457926544,-93.23768686665991,-17.06269,3.507122,11.6544895,32.329315,-12.825142,-2.0629263,-9.358798,-3.823368,12.496146,69.399605,-12.3919115,12.183663,-5.441975,-0.86979765,9.806604,-10.926225,27.827253,-10.721136,30.837555,-2.7861679,-0.87463504,6.2367654,15.234555,-12.91163,14.604684,70.98693,4.9477463,2.3631108,8.4506855
174,-2.709746837615967,116.49273681640625,76.5951156616211,2.787615360210942,-1.2551052561106226,-93.40466723463099,-17.92736,3.6760237,11.773917,32.60788,-12.359147,-2.0522885,-8.054451,-3.4209306,13.303761,67.8306,-12.987679,12.223596,-5.059876,-0.70876,9.696107,-10.746968,27.358152,-10.538401,31.025873,-2.6439335,-0.7925626,6.330919,14.613545,-13.087457,15.280362,71.4126,4.9399056,2.3519819,8.555173
175,-2.8117380142211914,117.1502685546875,76.49156188964844,2.848680715300429,-1.1013518778991904,-93.56720147427829,-18.794548,3.856875,11.882582,32.871677,-11.873631,-2.044814,-6.803945,-3.1538289,13.968583,66.201965,-13.592368,12.110421,-4.673559,-0.5502558,9.61581,-10.545703,26.873486,-10.359163,31.23733,-2.461403,-0.7009982,6.424118,13.934335,-13.257635,15.980825,71.82166,4.9540734,2.3390543,8.645715
176,-2.926523208618164,117.81914520263672,76.38031768798828,2.908412811797337,-0.9514333788291727,-93.72374180031579,-19.664173,4.0441275,11.979397,33.11724,-11.363528,-2.0335832,-5.6451826,-3.0730474,14.417956,64.550415,-14.063891,11.873454,-4.287788,-0.40052673,9.569042,-10.327686,26.386627,-10.198974,31.466919,-2.2810533,-0.6218654,6.507769,13.206264,-13.424761,16.668425,72.17465,4.9844456,2.3456464,8.722037
177,-3.0441503524780273,118.5048828125,76.2627182006836,2.9661320821508625,-0.8056235552909388,-93.87422353350664,-20.538725,4.240277,12.062672,33.35201,-10.832706,-2.0163972,-4.5769143,-3.1932135,14.618353,62.8751,-14.27089,11.512833,-3.9035885,-0.260139,9.556109,-10.079914,25.903345,-10.05471,31.703281,-2.095289,-0.55465645,6.5833774,12.429484,-13.587225,17.351133,72.46305,5.0407133,2.3859036,8.793898
178,-3.1707069873809814,119.19434356689453,76.14344024658203,3.017922497671485,-0.6646564474651115,-94.019402783416,-21.41863,4.4481936,12.1317835,33.577793,-10.283853,-1.9966577,-3.5805023,-3.4622366,14.602094,61.157703,-14.326446,11.039932,-3.5195255,-0.12595278,9.577452,-9.802734,25.424068,-9.922176,31.948997,-1.893047,-0.4893539,6.653721,11.599597,-13.743122,18.043245,72.70555,5.1212273,2.4459026,8.858978
179,-3.3063132762908936,119.894287109375,76.01873016357422,3.0652245857224787,-0.528453670296818,-94.15913928193525,-22.29438,4.663272,12.188844,33.7737,-9.706194,-1.9760722,-2.6604235,-3.8283947,14.396399,59.399094,-14.453146,10.505647,-3.1359231,0.002011869,9.637266,-9.509356,24.951565,-9.808347,32.21048,-1.7048215,-0.43352136,6.711586,10.720349,-13.891512,18.720932,72.90063,5.207056,2.5050337,8.900275
180,-3.445683717727661,120.62310028076172,75.88711547851562,3.110072460988281,-0.39703121505935335,-94.29350628597169,-23.157698,4.881791,12.235863,33.92156,-9.090438,-1.9569528,-1.8193401,-4.242109,14.034621,57.597828,-14.870643,9.962945,-2.7505925,0.123170845,9.739182,-9.219522,24.491121,-9.725433,32.499454,-1.5637857,-0.39485583,6.7506685,9.794805,-14.034958,19.356524,73.04925,5.27772,2.5422466,8.900216
181,-3.59202241897583,121.36448669433594,75.74696350097656,3.155294359382946,-0.2778667996300766,-94.421215466035,-24.006918,5.1015277,12.273311,34.033726,-8.439089,-1.9502949,-1.0007424,-4.7055287,13.512639,55.66039,-15.61673,9.419216,-2.3639216,0.23397169,9.890794,-8.929796,24.045279,-9.670406,32.805897,-1.4849497,-0.37513733,6.764292,8.827397,-14.169833,19.931356,73.15361,5.304067,2.5464602,8.857524
182,-3.7443020343780518,122.114990234375,75.60130310058594,3.199401835088036,-0.16903657872077305,-94.54209951076191,-24.847692,5.3265877,12.297827,34.11723,-7.75699,-1.9517971,-0.2049385,-5.2146087,12.812712,53.607647,-16.581665,8.881921,-1.9755545,0.33760488,10.088443,-8.634481,23.614193,-9.642398,33.1299,-1.4499663,-0.3703531,6.7579727,7.8155537,-14.294421,20.461788,73.21369,5.3039026,2.5305078,8.780399
183,-3.899674415588379,122.88616943359375,75.45491790771484,3.227820176252272,-0.057097429190314006,-94.6587752034034,-25.68066,5.5621777,12.30629,34.142605,-7.036584,-1.9419317,0.48184395,-5.7170544,11.952998,51.597923,-17.75807,8.395317,-1.5846094,0.44412318,10.319029,-8.341434,23.19756,-9.6508,33.490803,-1.4399431,-0.37933668,6.7429304,6.754029,-14.415269,20.977427,73.22294,5.3286905,2.50978,8.666782
184,-4.065881252288818,123.68253326416016,75.30668640136719,3.2342584530373193,0.07219084690701061,-94.77398788283715,-26.505713,5.8119636,12.296591,34.07746,-6.268738,-1.9016898,0.9665064,-6.177757,10.955301,49.79303,-19.134119,7.9863434,-1.1909558,0.5635898,10.569444,-8.057019,22.79392,-9.70296,33.90622,-1.4360629,-0.40117592,6.7301044,5.640099,-14.54265,21.508251,73.16895,5.430412,2.499931,8.516196
185,-4.226252555847168,124.48414611816406,75.16980743408203,3.219520897042511,0.20845323881022024,-94.88759227134298,-27.31698,6.0798717,12.272861,33.92408,-5.4396462,-1.8598621,1.2304584,-6.642699,9.741987,48.213783,-20.854324,7.6549673,-0.7946452,0.70236534,10.860848,-7.788885,22.405878,-9.810391,34.367153,-1.4671636,-0.4455543,6.7249126,4.4715905,-14.680854,22.046095,73.033134,5.6404,2.509193,8.3205805
186,-4.3926310539245605,125.31587219238281,75.0327377319336,3.1865037338569775,0.34883404649813066,-94.99836177249738,-28.116089,6.361472,12.232994,33.69337,-4.555695,-1.8165439,1.3336514,-7.1170588,8.326974,46.767685,-22.864344,7.4003944,-0.3965867,0.85643375,11.191836,-7.530004,22.033241,-9.964684,34.867065,-1.5321604,-0.509616,6.720353,3.2551336,-14.828633,22.580772,72.81908,5.925306,2.5278444,8.084784
187,-4.5621256828308105,126.13941192626953,74.90909576416016,3.1305837131340524,0.519312927499497,-95.10873410389478,-28.91794,6.6510954,12.171438,33.37557,-3.6472208,-1.708696,1.2794294,-7.521176,6.8764205,45.46709,-24.863197,7.217704,0.0002848048,1.0191294,11.514994,-7.265563,21.668137,-10.141021,35.42864,-1.567662,-0.5736905,6.7087255,1.9983653,-14.989209,23.143206,72.549385,6.2425456,2.5442743,7.828419
188,-4.740549087524414,126.97594451904297,74.79440307617188,3.049867331911507,0.7460633578121056,-95.22076026757328,-29.735886,6.943199,12.084072,32.95944,-2.74315,-1.4738475,1.0605564,-7.78401,5.5596986,44.330193,-26.554361,7.0797048,0.3906194,1.1832169,11.783107,-6.975675,21.297543,-10.309975,36.071415,-1.5072474,-0.61825264,6.682027,0.70923936,-15.167845,23.766245,72.24423,6.549289,2.5480065,7.571597
189,-4.92352294921875,127.82476043701172,74.69378662109375,2.934717730397331,1.0648261760023507,-95.3354810315402,-30.641172,7.260869,11.956,32.48032,-1.7474219,-1.0064558,0.5980159,-7.9039626,4.357572,43.406384,-27.873251,6.952894,0.7748988,1.3630084,11.973874,-6.666606,20.913048,-10.464879,36.798645,-1.3217294,-0.6491834,6.6361303,-0.63420206,-15.370273,24.474066,71.90418,6.856846,2.538973,7.313407
190,-5.097965717315674,128.68019104003906,74.60404968261719,2.792352060988807,1.4524220936682979,-95.45120966988101,-31.605658,7.604046,11.796528,31.937204,-0.6799469,-0.36899233,-0.09045908,-7.9340377,3.203055,42.680286,-28.97946,6.831402,1.1517851,1.5583868,12.114977,-6.3453937,20.513964,-10.617586,37.6026,-1.0474991,-0.6738456,6.5761375,-2.027138,-15.595718,25.248629,71.51372,7.1823297,2.5225253,7.0468016
191,-5.266850471496582,129.52647399902344,74.5245361328125,2.6452158996742203,1.8463044291312547,-95.56636544208251,-32.4895,7.932318,11.635119,31.25658,0.25905633,0.24802494,-0.8764391,-7.884813,2.199187,42.079624,-29.916855,6.7165213,1.5161749,1.7391305,12.234654,-5.988116,20.097462,-10.76621,38.48073,-0.71113193,-0.6745556,6.5083413,-3.420762,-15.837492,26.056065,71.06984,7.4892516,2.4968429,6.782214
192,-5.439217567443848,130.3665313720703,74.4554672241211,2.515670134720242,2.1834309656292175,-95.67995583749996,-33.150536,8.202619,11.497121,30.362204,0.86842865,0.6536861,-1.6337367,-7.7616696,1.4523463,41.532608,-30.727636,6.6121745,1.864004,1.8755654,12.360843,-5.5751166,19.661766,-10.911719,39.436928,-0.3413298,-0.6338069,6.4393187,-4.7707624,-16.088846,26.863798,70.57927,7.7416854,2.4597986,6.528064
193,-5.616201400756836,131.18519592285156,74.3931655883789,2.413728777959857,2.4635234680825873,-95.79732913822286,-33.556305,8.383522,11.351118,29.184662,1.0124056,0.8452628,-2.3933718,-7.547919,1.0679858,41.070316,-31.410143,6.508506,2.2013006,1.9507654,12.487683,-5.0975842,19.20406,-11.051402,40.487362,0.08035589,-0.5600925,6.378193,-6.0888076,-16.351482,27.709787,70.05926,7.9488072,2.4074543,6.289284
194,-5.800787925720215,131.985595703125,74.33988189697266,2.325131576159648,2.712960958773536,-95.91856297344435,-33.77301,8.514064,11.194619,27.773344,0.82799816,0.91793555,-3.2083611,-7.2486787,0.9695664,40.720234,-31.94861,6.3918676,2.5292065,1.9861723,12.606144,-4.56623,18.723978,-11.186771,41.626373,0.5608604,-0.4584769,6.31844,-7.391783,-16.625895,28.596737,69.50403,8.121357,2.3426077,6.0599885
195,-5.9742560386657715,132.75576782226562,74.30455017089844,2.2359087074485804,2.908309034737843,-96.03510713731742,-33.799126,8.648372,11.100036,26.212643,0.5287392,0.8229299,-3.9859219,-6.9005527,0.9935549,40.40689,-32.363266,6.264542,2.8404126,2.006678,12.737783,-3.9901152,18.225477,-11.327572,42.824963,1.05672,-0.30591998,6.244017,-8.647654,-16.905333,29.440058,68.895905,8.231197,2.2728238,5.8304353
196,-6.14697265625,133.50086975097656,74.29235076904297,2.1330149526895816,3.026609024333804,-96.13798097273113,-33.63403,8.831452,11.142103,24.583202,0.33151114,0.50121427,-4.633408,-6.5436916,0.97730386,40.051624,-32.67273,6.1308327,3.1301355,2.0350244,12.902118,-3.3850133,17.71702,-11.49041,44.06149,1.519794,-0.079274215,6.139975,-9.826467,-17.181274,30.14999,68.2271,8.247076,2.2022347,5.590264
197,-6.316668510437012,134.227783203125,74.29531860351562,2.0163050276450725,3.0456196063817256,-96.24184276050244,-33.151703,9.03457,11.33283,22.616568,0.31466892,-0.19860376,-5.1226754,-6.1859055,0.923803,39.64483,-32.882706,5.98828,3.4107146,2.0669978,13.116192,-2.7374816,17.201534,-11.668517,45.32666,1.9712505,0.25264397,6.0181932,-10.923267,-17.452328,30.703413,67.494385,8.119219,2.130761,5.32345
198,-6.49017333984375,134.9331512451172,74.30734252929688,1.8800819841581315,2.977172892735829,-96.35250526858565,-32.372932,9.250933,11.644439,20.326708,0.37687638,-1.2051876,-5.5000973,-5.7971454,0.911659,39.22121,-32.979664,5.8289027,3.6889977,2.1043715,13.367929,-2.0441592,16.679977,-11.861609,46.635056,2.4220362,0.66941017,5.880056,-11.956061,-17.72272,31.147041,66.71352,7.8774004,2.0563893,5.038956
199,-6.655578136444092,135.632568359375,74.3374252319336,1.714626774103568,2.8558284469867377,-96.44024036850433,-31.536661,9.537462,12.091146,18.248148,0.44371352,-2.2514014,-5.79807,-5.3763304,0.8882787,38.782364,-32.961437,5.6550994,3.944753,2.1645157,13.627476,-1.3309089,16.159061,-12.091349,47.996414,2.8128598,1.1166865,5.695788,-12.9222975,-17.991013,31.48766,65.895,7.60263,1.9845649,4.7624283
200,-6.825973033905029,136.32142639160156,74.37693786621094,1.5313423266113524,2.727040257372669,-96.46361919550434,-30.916063,9.929308,12.681053,16.970102,0.41229162,-3.0698085,-6.0621963,-4.9479256,0.7946789,38.336014,-32.83008,5.476957,4.1485386,2.239291,13.856662,-0.6283522,15.651339,-12.38349,49.423244,3.0807986,1.5402192,5.4375744,-13.822793,-18.252737,31.731821,65.05187,7.379078,1.9197599,4.518816
201,-6.999898910522461,137.00384521484375,74.43486785888672,1.3287728054892556,2.6025782013325656,-96.39382902096635,-30.575043,10.455779,13.548362,16.651617,0.28487957,-3.6615553,-6.294625,-4.5104613,0.59563166,37.874138,-32.57635,5.300377,4.2756157,2.3217306,14.04767,0.06193678,15.165951,-12.737402,50.926132,3.1744854,1.9357554,5.1148086,-14.66021,-18.503454,31.862038,64.18054,7.2195888,1.8613799,4.3104196
202,-7.17325496673584,137.66983032226562,74.51886749267578,1.1144056573371457,2.4658114706207988,-96.25135145177796,-30.383976,11.074288,14.641717,17.010263,0.09091077,-4.1483436,-6.485838,-4.068715,0.3254565,37.400276,-32.20483,5.124381,4.3402543,2.3991938,14.214295,0.7577358,14.705848,-13.141216,52.493034,3.1359985,2.3303645,4.7377057,-15.437463,-18.743835,31.879429,63.282696,7.081356,1.8072865,4.124198
203,-7.345118999481201,138.3355255126953,74.62069702148438,0.920445470433137,2.323447234933783,-96.06423373866821,-30.339893,11.713639,15.685073,17.993246,-0.24537264,-4.439914,-6.668236,-3.6643848,0.026108285,36.946323,-31.742855,4.951006,4.369081,2.4467204,14.350208,1.4593248,14.27321,-13.600477,54.09831,3.0462542,2.7169752,4.2791805,-16.149305,-18.974302,31.812332,62.37451,6.963219,1.755314,3.9628837
204,-7.514617443084717,138.98291015625,74.74638366699219,0.7748044471748664,2.17853394976456,-95.86388064985665,-30.438938,12.30918,16.400352,19.531395,-0.7904559,-4.445785,-6.866488,-3.331679,-0.2599179,36.54126,-31.21634,4.7804956,4.391632,2.4451492,14.451347,2.1672447,13.869574,-14.120401,55.717175,2.9860518,3.087482,3.711073,-16.793488,-19.195513,31.692684,61.47417,6.8666325,1.7033648,3.8293266
205,-7.674912929534912,139.61453247070312,74.88919067382812,0.6683615886648506,2.034504081888035,-95.64513378374322,-30.749569,12.894974,16.71899,21.76547,-1.6120154,-4.0195723,-7.102062,-3.0609894,-0.5414397,36.2239,-30.602148,4.605726,4.399096,2.4021688,14.514522,2.8774903,13.496765,-14.714141,57.37879,2.9037845,3.4299917,3.0154836,-17.38058,-19.408457,31.525133,60.595463,6.8199253,1.6431723,3.730959
206,-7.833062648773193,140.2448272705078,75.04090881347656,0.56764671902095,1.875612799473207,-95.41096030446099,-31.208658,13.513853,16.774632,24.603039,-2.6198983,-3.2535899,-7.3344555,-2.8052087,-0.8313751,35.95658,-29.89115,4.422345,4.394519,2.3490834,14.5533905,3.5961828,13.154547,-15.3729925,59.08221,2.7809632,3.7536366,2.2104843,-17.909147,-19.614515,31.295446,59.728302,6.8138423,1.577963,3.6646225
207,-7.977658271789551,140.85841369628906,75.19776916503906,0.47640102027114567,1.6819409034427368,-95.19769360768011,-31.633684,14.089699,16.602066,27.63646,-3.6515222,-2.415454,-7.505149,-2.560302,-1.0949173,35.663002,-29.136019,4.2380285,4.4174604,2.2885473,14.584185,4.338969,12.839821,-16.066519,60.758484,2.7509696,4.0779667,1.3202491,-18.357203,-19.814634,31.004168,58.852013,6.7880816,1.5238135,3.6170256
208,-8.119182586669922,141.44058227539062,75.3666763305664,0.4150942112590599,1.4420114182252182,-95.03226673072,-31.881184,14.53039,16.24617,30.529919,-4.5709066,-1.7742151,-7.5709357,-2.3436217,-1.2992586,35.27931,-28.395815,4.0657115,4.4973307,2.2071218,14.6169405,5.1189003,12.548818,-16.764286,62.340534,2.9468544,4.417735,0.36745247,-18.705109,-20.0084,30.653048,57.946953,6.68293,1.4966404,3.5739954
209,-8.253095626831055,142.01136779785156,75.53316497802734,0.41066478426384967,1.1418543090381585,-94.92397403072427,-31.932322,14.78795,15.687277,33.304203,-5.3731513,-1.3667256,-7.512641,-2.1839046,-1.4245076,34.800545,-27.687887,3.913974,4.6472483,2.0796587,14.656228,5.942143,12.27815,-17.475548,63.842438,3.4094253,4.7624846,-0.66440266,-18.938175,-20.19324,30.228907,57.013844,6.4727373,1.5002171,3.5318172
210,-8.385320663452148,142.5625,75.7041015625,0.45391250778681574,0.7948816668586195,-94.85338229778826,-31.870184,14.895248,14.922606,36.11746,-6.1255007,-1.0687572,-7.362215,-2.0739653,-1.492586,34.26336,-26.983719,3.776513,4.844987,1.9137254,14.693752,6.8010473,12.028589,-18.20816,65.29391,4.0683303,5.0971465,-1.7823714,-19.07318,-20.368546,29.733738,56.06355,6.190773,1.5262189,3.4972885
211,-8.511259078979492,143.09657287597656,75.88037872314453,0.516911215364071,0.4348277432001629,-94.79960342480291,-31.718256,14.87972,14.029879,38.87381,-6.8225884,-0.90802836,-7.161867,-1.9875674,-1.534688,33.671673,-26.275143,3.647124,5.0625987,1.7370586,14.717664,7.6918025,11.803117,-18.925714,66.639206,4.894653,5.432092,-2.952185,-19.140364,-20.536732,29.198507,55.090023,5.8739967,1.5727654,3.471933
212,-8.626203536987305,143.60586547851562,76.05968475341797,0.5701015055656877,0.09551009259996718,-94.74116555125777,-31.501476,14.773261,13.084628,41.484177,-7.4636316,-0.91210395,-6.952024,-1.8970969,-1.5825542,33.026512,-25.552128,3.5190835,5.2694836,1.5758444,14.7165365,8.608296,11.604827,-19.590021,67.82453,5.8595176,5.7768855,-4.140404,-19.17104,-20.701406,28.658607,54.086708,5.5625377,1.637932,3.4572518
213,-8.748851776123047,144.11903381347656,76.23710632324219,0.6167761032022689,-0.22845399744063802,-94.6723626943333,-31.213911,14.534597,12.03281,43.940907,-8.04694,-1.1513438,-6.7142386,-1.8022537,-1.6417239,32.30882,-24.811651,3.389129,5.460536,1.4277179,14.696466,9.555788,11.433989,-20.188065,68.83072,7.0654197,6.1461244,-5.3808618,-19.153833,-20.862019,28.09663,53.03062,5.2373695,1.7440449,3.4636989
214,-8.859823226928711,144.62997436523438,76.40760040283203,0.6695511153312342,-0.5484569907566053,-94.60246723955525,-30.85186,14.153489,10.869542,46.312668,-8.594314,-1.5977057,-6.440265,-1.719004,-1.6975323,31.528261,-24.060982,3.26254,5.646917,1.2764769,14.660413,10.535456,11.290605,-20.738972,69.6856,8.493562,6.516328,-6.682278,-19.079578,-21.017342,27.504507,51.9301,4.8891187,1.88442,3.4873734
215,-8.967007637023926,145.13833618164062,76.57539367675781,0.7231454827450657,-0.8392449522628289,-94.53217560023155,-30.447147,13.721852,9.735129,48.623615,-9.137242,-2.1195378,-6.183468,-1.6423763,-1.751895,30.724379,-23.304821,3.145139,5.822169,1.1290683,14.5927105,11.533691,11.175672,-21.249174,70.40375,9.934385,6.851564,-7.970982,-18.975962,-21.170424,26.927483,50.81914,4.565447,2.0140276,3.508311
216,-9.069210052490234,145.64620971679688,76.73389434814453,0.7690831492021195,-1.0763079724543898,-94.46256761655088,-30.034492,13.342562,8.761495,50.8921,-9.697186,-2.5767698,-5.998087,-1.5655981,-1.8064702,29.939835,-22.549097,3.0417094,5.9779806,0.9934574,14.477834,12.535223,11.089377,-21.725796,71.00125,11.173324,7.1285634,-9.168702,-18.872843,-21.326672,26.414171,49.73247,4.3139176,2.0881248,3.5060205
217,-9.16617202758789,146.15927124023438,76.88819885253906,0.8019517018341148,-1.2470157102694128,-94.39187414236594,-29.63334,13.032613,7.9494476,53.126778,-10.275145,-2.965917,-5.8924565,-1.4855863,-1.8637513,29.15982,-21.78487,2.9567807,6.107806,0.8738094,14.303481,13.542097,11.030356,-22.1753,71.4612,12.207635,7.3621545,-10.288192,-18.774536,-21.489822,25.981201,48.67211,4.157305,2.0816357,3.475047
218,-9.255656242370605,146.6604766845703,77.03559875488281,0.8276110660890122,-1.366458839274165,-94.32014073448201,-29.226326,12.7538805,7.2332315,55.324406,-10.861418,-3.3419495,-5.8386736,-1.4051925,-1.9220943,28.36789,-21.010872,2.8864138,6.216546,0.7651437,14.081721,14.555752,10.996356,-22.593119,71.78383,13.130857,7.5667725,-11.357056,-18.663397,-21.659952,25.601877,47.6165,4.0669575,2.0232098,3.4264617
219,-9.332806587219238,147.1661376953125,77.16949462890625,0.8504475854637933,-1.4517872385151174,-94.25154719512467,-28.79319,12.532668,6.638425,57.472164,-11.453531,-3.6475096,-5.835885,-1.3273648,-1.9764026,27.603218,-20.24464,2.8225095,6.315612,0.66290474,13.834851,15.5580435,10.98486,-22.968838,72.01172,13.873926,7.730384,-12.31531,-18.533838,-21.835752,25.257938,46.56259,4.016888,1.9487827,3.3640063
220,-9.403650283813477,147.66696166992188,77.29295349121094,0.8745986925276252,-1.520392733332572,-94.19067337467563,-28.316074,12.395556,6.188782,59.559505,-12.044835,-3.825426,-5.8844767,-1.2558618,-2.0211802,26.906897,-19.50471,2.756746,6.415336,0.5621537,13.584595,16.531336,10.993073,-23.291239,72.18779,14.365876,7.8442497,-13.101785,-18.385597,-22.015997,24.934574,45.5135,3.9809222,1.8941998,3.2913995
221,-9.467519760131836,148.17369079589844,77.40611267089844,0.8991206916771743,-1.5692966164071522,-94.14080728556053,-27.800894,12.372568,5.9144683,61.60762,-12.636338,-3.8265326,-5.994809,-1.19326,-2.05264,26.291025,-18.79062,2.682613,6.5183525,0.46181926,13.327834,17.470531,11.019525,-23.568197,72.31488,14.532601,7.909705,-13.699201,-18.224775,-22.201355,24.64206,44.470352,3.9735644,1.8626537,3.1969225
222,-9.523336410522461,148.6839599609375,77.50390625,0.9247328604466177,-1.5919193753698477,-94.0991637161847,-27.25525,12.451873,5.7854395,63.613716,-13.227112,-3.6855814,-6.1604233,-1.1375237,-2.0738883,25.727493,-18.094095,2.6056664,6.6195016,0.36494616,13.055955,18.382011,11.062627,-23.803034,72.37578,14.427773,7.9412174,-14.13788,-18.049778,-22.39225,24.383278,43.432014,4.0008187,1.8370411,3.0830994
223,-9.568771362304688,149.18716430664062,77.59416961669922,0.9470829462508048,-1.600631339467373,-94.06130595902624,-26.66147,12.593578,5.737449,65.52678,-13.808021,-3.4729342,-6.3653536,-1.0850017,-2.0896993,25.214512,-17.421144,2.5352223,6.7183957,0.2739706,12.782792,19.26521,11.118676,-23.977884,72.38291,14.173064,7.947681,-14.429257,-17.846874,-22.584667,24.13025,42.394848,4.0261474,1.8228403,2.9743416
224,-9.608362197875977,149.6905517578125,77.67636108398438,0.9643505496235601,-1.607741011397531,-94.02235473581787,-26.00377,12.754729,5.7094464,67.297775,-14.370024,-3.2613976,-6.5911965,-1.0322868,-2.104716,24.74578,-16.777687,2.48096,6.8134704,0.1900152,12.521221,20.12081,11.183559,-24.073263,72.34898,13.891029,7.935879,-14.584338,-17.608788,-22.773233,23.85809,41.36327,4.0140705,1.8253158,2.894625
225,-9.636929512023926,150.1929931640625,77.74629974365234,0.9758702295829534,-1.6192291101569778,-93.98334347062509,-25.267313,12.95424,5.7195625,68.926956,-14.919735,-3.0535345,-6.823391,-0.97585994,-2.117152,24.308132,-16.162075,2.4506285,6.905506,0.11484685,12.276399,20.954498,11.25497,-24.0764,72.26878,13.591578,7.9040685,-14.590144,-17.336004,-22.954292,23.55756,40.336296,3.9440007,1.8496588,2.847609
226,-9.672703742980957,150.6964111328125,77.8030776977539,0.9821237466786454,-1.6279280329971615,-93.94597770946652,-24.464699,13.206308,5.787563,70.438095,-15.459601,-2.8148484,-7.074096,-0.918808,-2.1249232,23.906952,-15.571093,2.4373424,6.9935946,0.04663659,12.039737,21.76403,11.332293,-23.998535,72.14055,13.217915,7.84845,-14.446005,-17.035746,-23.126812,23.24386,39.318283,3.8368602,1.8913698,2.8209968
227,-9.699262619018555,151.2029571533203,77.84597778320312,0.9877761426087879,-1.6256715735187854,-93.90691941616883,-23.621431,13.457798,5.857955,71.81562,-15.9730625,-2.5659137,-7.367239,-0.8662838,-2.1329207,23.568989,-15.010853,2.4283528,7.0732074,-0.018189164,11.803469,22.537046,11.413899,-23.858646,71.982605,12.79019,7.7720113,-14.180432,-16.713526,-23.289705,22.930857,38.323826,3.7211893,1.9415452,2.8143513
228,-9.7247314453125,151.7180633544922,77.87562561035156,0.993512142732088,-1.6047101864114959,-93.86281502262379,-22.765429,13.653585,5.876495,73.04583,-16.443453,-2.3282096,-7.725793,-0.8241243,-2.1459446,23.318338,-14.485801,2.4109592,7.139243,-0.08368386,11.558828,23.261395,11.497738,-23.673851,71.8145,12.329909,7.6777706,-13.821734,-16.373283,-23.442955,22.631239,37.36735,3.6216543,1.9910784,2.8274422
229,-9.737381935119629,152.22129821777344,77.89463806152344,1.002323561220331,-1.5608246727559447,-93.81649285541589,-21.905777,13.791551,5.840338,74.13969,-16.87889,-2.0834353,-8.166945,-0.79564387,-2.161976,23.179033,-14.008893,2.3792708,7.194688,-0.1510415,11.301519,23.940733,11.582413,-23.436522,71.628555,11.816763,7.5591106,-13.339115,-16.015722,-23.586555,22.344366,36.44494,3.523918,2.0429683,2.876422
230,-9.748750686645508,152.7333221435547,77.90233612060547,1.0122851873254501,-1.4990958393350018,-93.7686526210033,-21.029106,13.894516,5.77587,75.10027,-17.282091,-1.8296862,-8.67073,-0.7778541,-2.1787848,23.12336,-13.568185,2.3411355,7.240054,-0.21823573,11.035928,24.579664,11.667058,-23.141203,71.42023,11.24962,7.4130054,-12.7307205,-15.640893,-23.720785,22.066183,35.55418,3.4209907,2.1000159,2.9561384
231,-9.753729820251465,153.24913024902344,77.8996810913086,1.0216129699397232,-1.424569319890064,-93.71150440642366,-20.132702,13.945467,5.6734242,75.90685,-17.63161,-1.6125045,-9.223055,-0.76986486,-2.203239,23.136415,-13.154091,2.306094,7.268452,-0.2819137,10.768156,25.163881,11.749873,-22.813803,71.214645,10.675518,7.2505307,-12.068238,-15.245797,-23.84376,21.800205,34.70404,3.3513174,2.1531606,3.0338106
232,-9.753175735473633,153.76141357421875,77.89169311523438,1.0262504021634236,-1.342442461402373,-93.63731505375134,-19.212624,13.927711,5.5232,76.5361,-17.90414,-1.4777544,-9.802509,-0.7696315,-2.2411335,23.18831,-12.748199,2.28313,7.272322,-0.33927068,10.503645,25.678543,11.828829,-22.480316,71.03884,10.140317,7.084862,-11.422128,-14.832284,-23.95398,21.552685,33.908955,3.3543634,2.1933498,3.0767217
233,-9.743245124816895,154.27447509765625,77.87642669677734,1.0235554452015687,-1.2495886360499695,-93.54379530055493,-18.268867,13.839148,5.318707,76.98312,-18.080908,-1.4453968,-10.412648,-0.77481216,-2.2943144,23.279446,-12.348685,2.2753406,7.250685,-0.3868037,10.237658,26.119991,11.903477,-22.142166,70.904205,9.641651,6.911095,-10.793998,-14.399325,-24.05189,21.324032,33.167217,3.4538195,2.223981,3.0752678
234,-9.730694770812988,154.7899627685547,77.85286712646484,1.0172208882024256,-1.1445733296847298,-93.43485221297682,-17.304873,13.688785,5.0663667,77.26147,-18.177845,-1.4882846,-11.061234,-0.7877384,-2.3590486,23.421482,-11.963279,2.2786071,7.207531,-0.42565006,9.968978,26.495064,11.973722,-21.788282,70.797226,9.160604,6.7251115,-10.151656,-13.945692,-24.137188,21.110834,32.472828,3.6243286,2.2477381,3.0471437
235,-9.71250057220459,155.30931091308594,77.81812286376953,1.009751208985701,-1.0355616792263993,-93.31311100928453,-16.3213,13.476428,4.775336,77.37711,-18.226013,-1.5813525,-11.736526,-0.8137462,-2.4333744,23.607891,-11.591849,2.2909238,7.141334,-0.4612369,9.707891,26.803135,12.038629,-21.424782,70.708824,8.715917,6.5436783,-9.51316,-13.479852,-24.208214,20.917818,31.839441,3.8316689,2.2551177,3.0004857
236,-9.6920166015625,155.83331298828125,77.77758026123047,1.0073729954816417,-0.9302949012540457,-93.18094982193554,-15.319078,13.202603,4.4545965,77.33498,-18.255402,-1.6990267,-12.42558,-0.8568618,-2.515707,23.829748,-11.233065,2.3093162,7.049573,-0.4983327,9.463749,27.042648,12.09422,-21.056005,70.6331,8.327461,6.3840313,-8.89527,-13.007076,-24.259794,20.748337,31.279816,4.036805,2.236217,2.943268
237,-9.66512680053711,156.35667419433594,77.72978210449219,1.0082594778757705,-0.8313900930673295,-93.03643244342857,-14.295016,12.858109,4.094239,77.13627,-18.261402,-1.8377477,-13.129341,-0.91774154,-2.6084998,24.097445,-10.891125,2.3324664,6.930375,-0.5339261,9.235151,27.209011,12.132923,-20.675236,70.57997,8.002616,6.245607,-8.277144,-12.536258,-24.28715,20.613346,30.813011,4.251612,2.170285,2.8642225
238,-9.63692569732666,156.88702392578125,77.68096160888672,1.0125704158240436,-0.734221729522686,-92.87920038587352,-13.248966,12.447675,3.691686,76.7785,-18.23258,-2.0079582,-13.853229,-0.9936977,-2.7114446,24.410698,-10.564495,2.3612769,6.7852774,-0.5685327,9.021647,27.30957,12.16576,-20.27602,70.53878,7.7340183,6.122305,-7.66078,-12.055508,-24.29957,20.506136,30.415064,4.4907565,2.068602,2.7651234
239,-9.604131698608398,157.42010498046875,77.61936950683594,1.0197805643183637,-0.6367027260361184,-92.71401207825856,-12.187536,11.992257,3.2664137,76.266685,-18.192396,-2.2049658,-14.592113,-1.0840133,-2.8187568,24.749456,-10.246584,2.3957508,6.61268,-0.60793096,8.824892,27.347586,12.198389,-19.875727,70.49939,7.507751,6.023996,-7.0883813,-11.567607,-24.293991,20.416208,30.074442,4.719306,1.9685383,2.669625
240,-9.565364837646484,157.95408630371094,77.55180358886719,1.0309050676800438,-0.5366223364689395,-92.5456567214063,-11.116724,11.513154,2.83785,75.60315,-18.162579,-2.4238846,-15.339364,-1.1876476,-2.9247591,25.090517,-9.928752,2.43596,6.419322,-0.6481664,8.639469,27.309498,12.22338,-19.51618,70.47699,7.29812,5.960855,-6.5945697,-11.074557,-24.268723,20.328604,29.790773,4.8992276,1.9080037,2.5993083
241,-9.52622127532959,158.49591064453125,77.4747543334961,1.0475391581077522,-0.4325927410284467,-92.37911176851017,-10.032214,11.007782,2.4098334,74.78357,-18.15862,-2.653438,-16.100792,-1.3055,-3.0259101,25.440514,-9.614396,2.482195,6.20228,-0.7056852,8.468414,27.21258,12.251845,-19.159338,70.449165,7.1240516,5.94937,-6.1940813,-10.59042,-24.210941,20.253927,29.567871,5.0255327,1.9035683,2.56338
