unveil-humanoid-operators/unveil-humanoid-operators.github.io/feature-analysis-animation/data/feature_matrix_instances/height_ankle_rom_jogging_A048_jog_arc_cw_start_001__A048.csv
Frame,root_translateX,root_translateY,root_translateZ,root_rotateX,root_rotateY,root_rotateZ,left_hip_pitch_joint_dof,left_hip_roll_joint_dof,left_hip_yaw_joint_dof,left_knee_joint_dof,left_ankle_pitch_joint_dof,left_ankle_roll_joint_dof,right_hip_pitch_joint_dof,right_hip_roll_joint_dof,right_hip_yaw_joint_dof,right_knee_joint_dof,right_ankle_pitch_joint_dof,right_ankle_roll_joint_dof,waist_yaw_joint_dof,waist_roll_joint_dof,waist_pitch_joint_dof,left_shoulder_pitch_joint_dof,left_shoulder_roll_joint_dof,left_shoulder_yaw_joint_dof,left_elbow_joint_dof,left_wrist_roll_joint_dof,left_wrist_pitch_joint_dof,left_wrist_yaw_joint_dof,right_shoulder_pitch_joint_dof,right_shoulder_roll_joint_dof,right_shoulder_yaw_joint_dof,right_elbow_joint_dof,right_wrist_roll_joint_dof,right_wrist_pitch_joint_dof,right_wrist_yaw_joint_dof
0,0.11350274085998535,2.102112293243408,78.20206451416016,-2.6292703287351187,-0.5184337748684666,-93.12633145780966,7.2802105,6.7444205,15.581295,8.086018,-14.952735,-4.869714,0.6179342,-2.9013326,-6.355039,13.912739,-12.6131735,4.799125,-3.2635605,-0.09167616,8.424414,3.3595085,11.851316,-25.358055,60.06489,24.157412,-5.129952,1.8724439,14.325996,-12.675697,14.950443,50.087368,-1.8090496,-10.101255,6.943741
1,0.11623036116361618,2.107966423034668,78.20526885986328,-2.6175944004270115,-0.45478664998963353,-93.12269634277227,7.103138,6.7507553,15.548017,8.297092,-15.068588,-4.830718,0.52843183,-2.9201856,-6.3424582,13.928259,-12.612215,4.808134,-3.2656913,-0.09103743,8.390495,3.3411274,11.852734,-25.354607,60.060078,24.16276,-5.1541905,1.8660825,14.31056,-12.679976,14.954943,50.077156,-1.7971418,-10.092796,6.935386
2,0.12188448011875153,2.1151463985443115,78.20704650878906,-2.6074581104439623,-0.3917621142363987,-93.11810272194163,6.9426446,6.752561,15.515181,8.472792,-15.16807,-4.792799,0.4424209,-2.9383907,-6.330636,13.937848,-12.60785,4.81694,-3.2706492,-0.09056569,8.356323,3.3205957,11.853583,-25.348892,60.059906,24.16948,-5.1816545,1.8582995,14.290499,-12.683571,14.962326,50.07185,-1.7840673,-10.08502,6.9273534
3,0.12857666611671448,2.1245083808898926,78.2059097290039,-2.5988616310837807,-0.3260205878544719,-93.11437382516371,6.7490463,6.765225,15.480355,8.714597,-15.301262,-4.7537074,0.35021168,-2.9544196,-6.319092,13.954127,-12.607509,4.825528,-3.2751708,-0.088617414,8.319282,3.3009138,11.853717,-25.342386,60.05886,24.17454,-5.20428,1.8532552,14.269183,-12.686079,14.969508,50.069984,-1.7722836,-10.077252,6.9178567
4,0.1343851387500763,2.1379952430725098,78.20489501953125,-2.5978738466623295,-0.25195755370270095,-93.11169586936823,6.463688,6.8086257,15.43859,9.1366825,-15.526407,-4.711789,0.24033022,-2.963139,-6.309105,13.988586,-12.617914,4.833341,-3.2790134,-0.07926446,8.274621,3.2837732,11.852954,-25.336008,60.053177,24.173191,-5.215438,1.8541049,14.247751,-12.687401,14.975054,50.072247,-1.7625717,-10.0695095,6.906972
5,0.13718384504318237,2.15409779548645,78.19978332519531,-2.6036607905582683,-0.17075568109017292,-93.107071484925,6.0571785,6.889828,15.383605,9.805437,-15.878303,-4.6678276,0.11841242,-2.9653916,-6.305263,14.035447,-12.638861,4.841795,-3.2884984,-0.064481586,8.222516,3.2693603,11.850158,-25.32945,60.043957,24.173819,-5.2088084,1.8628376,14.222842,-12.687825,14.983288,50.083687,-1.7568613,-10.061795,6.8894253
6,0.14489619433879852,2.158607244491577,78.1960220336914,-2.6144551323192022,-0.08459631698720918,-93.1016702183503,5.5663934,6.997517,15.319139,10.6455145,-16.317944,-4.6221027,-0.011397578,-2.962501,-6.305243,14.089396,-12.6661215,4.850586,-3.2973247,-0.045248922,8.165208,3.2552745,11.846902,-25.328161,60.03211,24.173368,-5.1892514,1.8772031,14.200033,-12.686957,14.988634,50.09815,-1.7551208,-10.054164,6.867977
7,0.15382759273052216,2.1680848598480225,78.18811798095703,-2.632928400239273,0.009463988632498655,-93.10239838838812,5.027518,7.124925,15.25458,11.574289,-16.802658,-4.572188,-0.16752566,-2.9515882,-6.299855,14.176391,-12.706639,4.856285,-3.29768,-0.017449675,8.102309,3.2436764,11.844008,-25.324696,60.014942,24.157251,-5.1674256,1.8945947,14.180349,-12.685818,14.989079,50.109528,-1.7514633,-10.046191,6.8512096
8,0.16394582390785217,2.1781508922576904,78.17557525634766,-2.6691639407717123,0.11840262407369152,-93.11292325952363,4.466801,7.275109,15.194952,12.517734,-17.291443,-4.517208,-0.35170707,-2.9194164,-6.286228,14.278169,-12.748649,4.8540726,-3.2895904,0.03320782,8.027602,3.2330482,11.833892,-25.304468,59.998947,24.115637,-5.1543,1.9135882,14.150422,-12.682883,14.983085,50.13019,-1.7436143,-10.038844,6.8473744
9,0.16731102764606476,2.190016269683838,78.16001892089844,-2.7221332313387916,0.24891452612256237,-93.1336955564124,3.8727512,7.4477634,15.138743,13.478762,-17.780176,-4.454253,-0.59000367,-2.8674607,-6.26122,14.4284935,-12.803521,4.8405776,-3.2716565,0.1045884,7.9392586,3.2231038,11.825613,-25.284836,59.98019,24.054466,-5.1515017,1.9326956,14.121076,-12.681139,14.967601,50.139927,-1.7206262,-10.030312,6.8644915
10,0.1755722612142563,2.20117449760437,78.13996887207031,-2.7909048186629537,0.3967887571495117,-93.16178448854232,3.231695,7.6458917,15.0811205,14.498649,-18.291496,-4.3854995,-0.8685463,-2.7970018,-6.229613,14.613422,-12.867985,4.818193,-3.2482111,0.1978082,7.8410687,3.2074466,11.808731,-25.256304,59.96714,23.985783,-5.154055,1.9535803,14.083656,-12.679048,14.937742,50.15108,-1.6948199,-10.021502,6.8979535
11,0.19897590577602386,2.210831642150879,78.12344360351562,-2.867549129595526,0.5437152496349683,-93.20355717216279,2.6189728,7.8451385,15.03886,15.47161,-18.786861,-4.314486,-1.153661,-2.7185879,-6.1860523,14.812592,-12.9384775,4.7945266,-3.204507,0.30059263,7.740704,3.1949182,11.785379,-25.204655,59.95069,23.87481,-5.162549,1.9766071,14.052078,-12.678732,14.905008,50.16355,-1.6717097,-10.013507,6.9337344
12,0.22214436531066895,2.2223269939422607,78.10134887695312,-2.941145809791244,0.6719269459358453,-93.26523409237396,2.0981288,8.024699,15.027819,16.318157,-19.235086,-4.244192,-1.4110153,-2.6427298,-6.125679,15.002807,-13.010419,4.777499,-3.1344075,0.40255812,7.6505566,3.2080224,11.756444,-25.100952,59.90202,23.693974,-5.1738076,2.0008447,14.032867,-12.682989,14.881948,50.177692,-1.6616428,-10.006465,6.9575977
13,0.24233394861221313,2.2189416885375977,78.07492065429688,-3.015518618964054,0.7769355059760047,-93.3492751849297,1.6796001,8.189037,15.054902,17.028257,-19.632568,-4.1731815,-1.6371411,-2.5654418,-6.046738,15.184975,-13.082947,4.7670536,-3.0606217,0.51583076,7.572311,3.2417853,11.689552,-24.895239,59.841087,23.397943,-5.188849,2.0365572,14.009607,-12.708002,14.903688,50.20411,-1.6611454,-9.999817,6.9619207
14,0.2709033191204071,2.205627679824829,78.05223083496094,-3.0931898821899626,0.8685462612200354,-93.4519819096913,1.3277819,8.347769,15.110741,17.64896,-19.99785,-4.100054,-1.8497372,-2.4839766,-5.952115,15.371036,-13.159627,4.7598524,-2.9642584,0.6388858,7.502721,3.298847,11.616161,-24.640404,59.748005,23.00082,-5.2074604,2.077318,14.002285,-12.749704,14.938792,50.219273,-1.6651753,-9.993502,6.959219
15,0.30290618538856506,2.1858127117156982,78.03075408935547,-3.1656326822611973,0.9495902735648506,-93.56979997544943,1.0462558,8.486803,15.188597,18.167072,-20.32616,-4.0278735,-2.0410562,-2.408518,-5.8439217,15.54378,-13.235816,4.7591786,-2.8565733,0.76077497,7.4376054,3.3813672,11.537464,-24.340813,59.627167,22.62474,-5.232784,2.1082835,14.00269,-12.80371,14.980315,50.237118,-1.6740807,-9.987499,6.955798
16,0.3350769281387329,2.1616275310516357,78.00936889648438,-3.2236396127325073,1.0230050595505424,-93.69935219848531,0.83622634,8.592091,15.281615,18.574987,-20.614704,-3.959973,-2.2052863,-2.350401,-5.7239575,15.689791,-13.309084,4.768503,-2.743697,0.8714411,7.3717136,3.4890416,11.453894,-24.009398,59.485645,22.388512,-5.266865,2.1158504,14.007741,-12.865782,15.017651,50.267815,-1.6877272,-9.981555,6.957559
17,0.3722568154335022,2.1168479919433594,77.99047088623047,-3.2644375465412185,1.0863835244704203,-93.8498314937644,0.7160586,8.657652,15.40024,18.846483,-20.854923,-3.899928,-2.335369,-2.310441,-5.5838985,15.797344,-13.376111,4.789366,-2.6133654,0.96695226,7.3036857,3.6311252,11.365262,-23.631163,59.309547,22.363632,-5.319693,2.0901642,14.017798,-12.933686,15.047401,50.318058,-1.7139753,-9.978512,6.9677396
18,0.4147496521472931,2.067237377166748,77.97345733642578,-3.2926664706475153,1.1394018722305228,-94.0197459055464,0.67589355,8.692124,15.544373,19.000912,-21.05263,-3.8452652,-2.4360843,-2.2836223,-5.4255342,15.874945,-13.438313,4.8200192,-2.466736,1.0519791,7.2356205,3.804242,11.27076,-23.205591,59.101967,22.473913,-5.3868484,2.0410748,14.032413,-13.007014,15.075738,50.383774,-1.7511023,-9.977588,6.981764
19,0.4664735496044159,2.016352415084839,77.95942687988281,-3.3106804441748765,1.1878624214572182,-94.18903878795754,0.68595475,8.699466,15.693161,19.071924,-21.221138,-3.790414,-2.5199249,-2.2720225,-5.266359,15.942309,-13.502155,4.858481,-2.3274388,1.1286294,7.1679144,3.9879687,11.171644,-22.770605,58.89544,22.61517,-5.448932,1.984273,14.049372,-13.084836,15.102203,50.45819,-1.7857726,-9.973647,6.994671
20,0.5046307444572449,1.956060528755188,77.9432601928711,-3.3204046359656845,1.2375705083095154,-94.33732188940739,0.7166648,8.683705,15.826132,19.093937,-21.373617,-3.7297566,-2.5967314,-2.2777307,-5.1236014,16.013145,-13.570652,4.90301,-2.2179623,1.1991438,7.1014404,4.162567,11.069856,-22.364536,58.720985,22.684044,-5.4864373,1.9351566,14.067597,-13.163542,15.125738,50.533157,-1.8046697,-9.961712,7.0021586
21,0.5547060370445251,1.8909261226654053,77.92963409423828,-3.3224007733559504,1.2879552227247932,-94.46171744199357,0.7713928,8.643588,15.939927,19.061888,-21.512299,-3.6587226,-2.6600788,-2.3011873,-5.000312,16.078194,-13.638956,4.957119,-2.1414835,1.2640765,7.036178,4.3298473,10.965476,-21.98638,58.576363,22.636616,-5.484685,1.8943121,14.086641,-13.240479,15.1470995,50.612762,-1.8013912,-9.937589,6.998752
22,0.6055527329444885,1.814919114112854,77.9166488647461,-3.3153917946411657,1.3366697759972168,-94.5720352320287,0.8634849,8.577025,16.04507,18.959246,-21.62914,-3.581669,-2.706593,-2.341545,-4.888001,16.131905,-13.705963,5.020536,-2.0851603,1.3209517,6.9716797,4.4972453,10.858739,-21.620958,58.449158,22.533754,-5.457021,1.8547885,14.1065855,-13.315877,15.164455,50.701015,-1.7852263,-9.905009,6.987685
23,0.6627111434936523,1.7292283773422241,77.90727233886719,-3.2992017088496115,1.3870573199683751,-94.66772330562038,0.9733557,8.488944,16.14025,18.813677,-21.727562,-3.5062683,-2.7562964,-2.398449,-4.785804,16.204979,-13.786478,5.085233,-2.0477054,1.3685937,6.908335,4.65255,10.753,-21.286533,58.354946,22.426268,-5.425574,1.8203478,14.128217,-13.389004,15.17342,50.788548,-1.7664156,-9.871073,6.9779196
24,0.7177054286003113,1.6532087326049805,77.89594268798828,-3.2735712397650634,1.4424107619506634,-94.74821183297438,1.0813024,8.384852,16.223883,18.65348,-21.81099,-3.4400365,-2.828436,-2.4715981,-4.693423,16.326176,-13.894093,5.1434226,-2.0262296,1.4050539,6.84674,4.7845497,10.653425,-21.002546,58.30767,22.364725,-5.4126,1.7942932,14.152189,-13.458259,15.168096,50.86613,-1.7553787,-9.842854,6.9785643
25,0.7679912447929382,1.575971007347107,77.88167572021484,-3.239367906315741,1.5042814989385769,-94.8089161307614,1.185226,8.265237,16.29297,18.47651,-21.874987,-3.3823695,-2.9201953,-2.5605495,-4.615368,16.488577,-14.02641,5.192422,-2.0215914,1.4282538,6.784041,4.891393,10.56438,-20.774166,58.31762,22.372679,-5.4267664,1.7798846,14.181631,-13.522859,15.144807,50.934155,-1.7557232,-9.823807,6.9937887
26,0.8267912268638611,1.4888615608215332,77.86739349365234,-3.196227887410241,1.5706919873574146,-94.85159239238095,1.2990474,8.126157,16.349907,18.26167,-21.918055,-3.330088,-3.0245032,-2.6655874,-4.550288,16.68304,-14.177625,5.2365446,-2.0338893,1.4385666,6.721638,4.9814982,10.486456,-20.591944,58.37055,22.418554,-5.4555273,1.7736617,14.215416,-13.581129,15.1071205,50.99583,-1.7615571,-9.809742,7.018595
27,0.8852117657661438,1.396604299545288,77.85294342041016,-3.1426211824572805,1.6397545494259556,-94.88504602855069,1.4144175,7.9699545,16.399092,18.033886,-21.94984,-3.2865388,-3.1509035,-2.7875044,-4.488429,16.926289,-14.356996,5.2786107,-2.0583987,1.4358073,6.6654277,5.0552826,10.420204,-20.454386,58.44826,22.47058,-5.488704,1.769527,14.2474165,-13.632937,15.056962,51.04907,-1.7711024,-9.796404,7.0471616
28,0.9393059611320496,1.3097376823425293,77.83866882324219,-3.0767166130714663,1.7096166241560746,-94.9177738032527,1.5257858,7.798113,16.445301,17.81274,-21.98014,-3.2550309,-3.3208272,-2.927909,-4.419071,17.26067,-14.579673,5.320982,-2.0863104,1.4111671,6.6217713,5.1186595,10.381771,-20.36609,58.522614,22.491604,-5.5162253,1.7591494,14.267788,-13.666035,14.993652,51.097378,-1.7853969,-9.780327,7.0722075
29,1.0026874542236328,1.225217580795288,77.8198013305664,-3.00234566597003,1.7752926530926183,-94.95002134733345,1.6350142,7.616165,16.484726,17.606474,-22.007854,-3.2432742,-3.522202,-3.0831027,-4.342875,17.670696,-14.840719,5.362812,-2.1316612,1.3806739,6.595581,5.1648684,10.348613,-20.323805,58.608482,22.469038,-5.537756,1.7486532,14.274392,-13.698667,14.9213295,51.13492,-1.8072155,-9.756596,7.0974426
30,1.0645533800125122,1.1351027488708496,77.79462432861328,-2.9187764147885567,1.8393649732150814,-94.97780388669658,1.7430879,7.421754,16.516361,17.405558,-22.030329,-3.2469778,-3.749197,-3.2542095,-4.2638407,18.140926,-15.135867,5.403063,-2.1943517,1.3376367,6.5816274,5.1977835,10.328833,-20.32718,58.70882,22.421272,-5.5577226,1.7390202,14.267539,-13.722793,14.842345,51.168385,-1.8356135,-9.7287245,7.122916
31,1.1273752450942993,1.0454354286193848,77.7686538696289,-2.8190244701003118,1.9111131518177547,-95.00378454638017,1.8466773,7.2047734,16.549244,17.194157,-22.049973,-3.2517433,-4.029592,-3.4481509,-4.176914,18.708408,-15.473256,5.4436083,-2.2550862,1.2822988,6.5726323,5.2089114,10.313386,-20.36583,58.82171,22.378288,-5.5743,1.7225391,14.266125,-13.748127,14.750262,51.18233,-1.8555089,-9.702596,7.1470613
32,1.189985990524292,0.9521408677101135,77.7354965209961,-2.6954194049127023,1.999931073771958,-95.0305610727121,1.9347479,6.956585,16.591715,16.973953,-22.075174,-3.2432723,-4.3876233,-3.6723907,-4.076718,19.40202,-15.861766,5.4862537,-2.3066344,1.203322,6.5587764,5.2020082,10.305565,-20.418213,58.936375,22.368898,-5.585583,1.6905324,14.269383,-13.771249,14.6591,51.18313,-1.8501626,-9.684633,7.161354
33,1.253619909286499,0.8525786995887756,77.69895935058594,-2.5502282759264756,2.1146043129404566,-95.05372337667173,2.0028708,6.676903,16.644579,16.73022,-22.105026,-3.221711,-4.83112,-3.9264152,-3.9654744,20.218863,-16.305946,5.5320144,-2.3415816,1.1070358,6.534241,5.168826,10.303916,-20.495255,59.06263,22.410599,-5.5920763,1.6402332,14.291422,-13.797568,14.558851,51.154762,-1.8008766,-9.672489,7.1648355
34,1.3119440078735352,0.7637777924537659,77.65526580810547,-2.3864462677484344,2.247969534433791,-95.07325426445628,2.056738,6.369944,16.703354,16.469364,-22.136318,-3.1936333,-5.346846,-4.2075386,-3.8433135,21.145758,-16.800282,5.5785213,-2.379886,0.9907871,6.5033393,5.119342,10.309662,-20.585794,59.198933,22.488403,-5.5949097,1.5760263,14.309604,-13.820153,14.46634,51.11858,-1.7196534,-9.664439,7.156476
35,1.382667064666748,0.677497386932373,77.60751342773438,-2.1976548129369924,2.385796940493858,-95.09857513639444,2.1106117,6.0318017,16.770056,16.202589,-22.169939,-3.1547132,-5.92589,-4.518111,-3.7013907,22.192389,-17.334467,5.6222816,-2.4016056,0.8534975,6.481231,5.0566425,10.3252735,-20.700058,59.32033,22.567484,-5.592358,1.4994223,14.342392,-13.846347,14.361649,51.05662,-1.6390984,-9.666086,7.149998
36,1.4471060037612915,0.5794360041618347,77.55406188964844,-1.9770705328608529,2.513940389541237,-95.1394067204453,2.1797414,5.657066,16.8464,15.938239,-22.20527,-3.1003299,-6.558756,-4.8613067,-3.5303166,23.367079,-17.898275,5.659935,-2.4148958,0.68267506,6.480647,5.00122,10.356666,-20.810995,59.394257,22.623102,-5.583715,1.410483,14.375581,-13.876078,14.26142,50.982334,-1.5883647,-9.683475,7.1507387
37,1.5058261156082153,0.4837244153022766,77.4918441772461,-1.7058261265342254,2.6309778515057807,-95.19586406530568,2.2661853,5.2212615,16.931595,15.673246,-22.242277,-3.0200744,-7.2524643,-5.2524323,-3.2907655,24.684174,-18.527615,5.6783433,-2.4359493,0.45573917,6.500144,4.9578304,10.399257,-20.894205,59.418976,22.673717,-5.571462,1.303978,14.386844,-13.901046,14.185587,50.920322,-1.5874825,-9.728454,7.154934
38,1.566826581954956,0.38719087839126587,77.41738891601562,-1.393387245790236,2.7439023869968064,-95.26349918794023,2.3681703,4.732839,17.024061,15.393724,-22.27529,-2.9192007,-8.006096,-5.684141,-2.9973428,26.125595,-19.210564,5.6823306,-2.4601207,0.18502569,6.5314975,4.910321,10.442949,-20.962383,59.422234,22.72947,-5.5546217,1.184622,14.381254,-13.919566,14.126142,50.868896,-1.618605,-9.794663,7.1576285
39,1.6261268854141235,0.28434431552886963,77.34378051757812,-1.073314491863599,2.851409241323963,-95.34450303507157,2.4739127,4.242215,17.12462,15.136576,-22.320065,-2.8179684,-8.805728,-6.127712,-2.720688,27.667685,-19.875095,5.6945124,-2.4712896,-0.09788739,6.583628,4.873253,10.51327,-21.038189,59.37714,22.746609,-5.5290246,1.0581669,14.382774,-13.940008,14.068495,50.79415,-1.6482146,-9.860391,7.1657133
40,1.6805914640426636,0.1777145266532898,77.2640609741211,-0.7788992571574512,2.951714809042138,-95.44132205348446,2.5886989,3.793334,17.234446,14.900895,-22.371302,-2.7344012,-9.633557,-6.558192,-2.5336144,29.285032,-20.440613,5.736782,-2.4753766,-0.3607751,6.653638,4.839502,10.594893,-21.11088,59.30879,22.70371,-5.488905,0.94264823,14.378562,-13.953727,14.0278015,50.712036,-1.6473669,-9.904712,7.171041
41,1.733883261680603,0.06437759101390839,77.1838150024414,-0.5041842724419111,3.049141286151109,-95.56126087787102,2.7004747,3.382132,17.358313,14.699839,-22.4311,-2.6692815,-10.504712,-6.9911003,-2.4439588,31.005016,-20.905764,5.8362164,-2.4594886,-0.6101596,6.7393355,4.802608,10.688226,-21.190207,59.211124,22.596031,-5.4177694,0.8415184,14.370058,-13.961142,14.001156,50.613205,-1.5945154,-9.919892,7.1722636
42,1.771104335784912,-0.06035424396395683,77.10394287109375,-0.23673024145446156,3.143339545728241,-95.70106166147026,2.8110535,2.9903154,17.494118,14.528087,-22.499943,-2.6137881,-11.422467,-7.437257,-2.4146304,32.834644,-21.307201,5.9691453,-2.42768,-0.858044,6.8414855,4.7644405,10.795002,-21.27409,59.082253,22.437084,-5.3231483,0.7474103,14.357609,-13.96329,13.98633,50.50054,-1.5105844,-9.917901,7.1715183
43,1.8031736612319946,-0.18977707624435425,77.03621673583984,0.000694436361519851,3.2252627419982893,-95.84713331085432,2.9358878,2.643065,17.634233,14.377406,-22.58178,-2.572796,-12.354242,-7.8656597,-2.4518964,34.727085,-21.634117,6.081009,-2.3974316,-1.0791011,6.9648395,4.732183,10.911563,-21.352024,58.94187,22.226212,-5.2354684,0.6594764,14.344657,-13.959072,13.980349,50.388157,-1.4311236,-9.907074,7.170819
44,1.8320056200027466,-0.31882166862487793,76.96400451660156,0.1850473772407589,3.2855707719639162,-95.98600030384829,3.0887754,2.3664,17.770561,14.24366,-22.682652,-2.5509996,-13.264193,-8.245182,-2.5640273,36.63156,-21.87394,6.1191845,-2.3861687,-1.2480559,7.1130934,4.708923,11.031947,-21.414587,58.814926,21.961996,-5.1845884,0.5779402,14.333419,-13.947788,13.97942,50.292114,-1.392404,-9.895759,7.1715264
45,1.8504420518875122,-0.47031137347221375,76.89741516113281,0.31083775041686706,3.314506635067247,-96.11792665718157,3.2813709,2.1680317,17.907448,14.125985,-22.802446,-2.5519593,-14.142359,-8.566827,-2.7484186,38.57218,-21.99135,6.103213,-2.3970523,-1.3590595,7.2939944,4.693642,11.153178,-21.45497,58.71024,21.601952,-5.189852,0.50469136,14.322906,-13.9288645,13.984974,50.217632,-1.4117254,-9.881647,7.1738167
46,1.8705865144729614,-0.6416912078857422,76.8429946899414,0.39094028338652825,3.3190868698741065,-96.24887904301193,3.5016596,2.0330896,18.046957,14.030277,-22.940872,-2.571281,-15.004856,-8.852578,-3.003586,40.56426,-22.004642,6.047026,-2.421823,-1.4250631,7.502369,4.6823955,11.275201,-21.479097,58.61838,21.16175,-5.2311506,0.43970972,14.311653,-13.90247,13.998808,50.15739,-1.4673501,-9.861786,7.1765637
47,1.88237464427948,-0.8218986988067627,76.79338073730469,0.4303240017236583,3.3150279802542957,-96.37479981806378,3.7392044,1.9508646,18.182447,13.938688,-23.089329,-2.6056077,-15.8561125,-9.115516,-3.3402057,42.544388,-21.983253,5.8935413,-2.460054,-1.450299,7.722226,4.6733804,11.395825,-21.497042,58.538258,20.727512,-5.2796936,0.38012376,14.302578,-13.871094,14.015152,50.108284,-1.5381185,-9.843603,7.1791277
48,1.891175627708435,-1.0051376819610596,76.75086975097656,0.43352303244413004,3.317922342985749,-96.49132150175544,3.9827075,1.9110366,18.306747,13.83572,-23.240908,-2.6512175,-16.7001,-9.367428,-3.7699265,44.448456,-21.99704,5.589029,-2.5122185,-1.4363068,7.9379854,4.664972,11.510819,-21.518766,58.468323,20.385643,-5.306822,0.32363138,14.300092,-13.835587,14.030064,50.064922,-1.6019812,-9.834351,7.181792
49,1.8965950012207031,-1.2139954566955566,76.7126235961914,0.3922464397497959,3.3226161340028857,-96.60064723819868,4.242216,1.9210848,18.421358,13.715478,-23.401558,-2.7086754,-17.5452,-9.603709,-4.3056273,46.32121,-22.044958,5.045435,-2.576848,-1.373966,8.152962,4.6568413,11.616041,-21.540098,58.41516,20.170101,-5.30325,0.26814204,14.304194,-13.797982,14.039053,50.034195,-1.6671109,-9.83972,7.184212
50,1.9010415077209473,-1.424108862876892,76.67787170410156,0.3078262485808033,3.323513907696943,-96.7041026439961,4.519761,1.9825517,18.52976,13.586989,-23.572376,-2.7791467,-18.383154,-9.823527,-4.9412794,48.17278,-22.09642,4.318863,-2.655,-1.2639444,8.372985,4.647199,11.710425,-21.558302,58.38084,20.032055,-5.284937,0.21636963,14.314369,-13.75853,14.045416,50.01456,-1.7401972,-9.854479,7.1865187
51,1.9023001194000244,-1.6419347524642944,76.65431213378906,0.19756581393228473,3.3356289553611336,-96.79576021775644,4.791932,2.0774314,18.627684,13.4572525,-23.739645,-2.8600929,-19.194601,-10.039057,-5.6599374,49.88963,-22.176737,3.5751808,-2.748349,-1.1248441,8.585587,4.631584,11.795941,-21.585812,58.359703,19.933512,-5.2611604,0.1740803,14.331787,-13.718722,14.053092,49.99295,-1.79849,-9.869619,7.1889358
52,1.8881442546844482,-1.8718461990356445,76.6264419555664,0.07901310546834274,3.3742051981607624,-96.8698505203674,5.0329113,2.188788,18.710672,13.338626,-23.893002,-2.948917,-19.96354,-10.259239,-6.4426203,51.363407,-22.313015,2.9817274,-2.8581862,-0.97510755,8.778501,4.606228,11.876276,-21.635702,58.34387,19.836113,-5.2410617,0.1465866,14.358709,-13.679765,14.065848,49.954433,-1.8189785,-9.876221,7.192012
53,1.874648094177246,-2.12449312210083,76.6020278930664,-0.049299738760780046,3.44510211373643,-96.91811198402948,5.2326565,2.3195848,18.770805,13.232819,-24.029053,-3.04958,-20.679388,-10.495093,-7.3202505,52.5711,-22.552296,2.5808709,-2.9876487,-0.8140041,8.945932,4.56771,11.954264,-21.716658,58.335262,19.733305,-5.222954,0.13953906,14.4022045,-13.641742,14.0859165,49.88784,-1.7768186,-9.871258,7.193327
54,1.8537458181381226,-2.374666690826416,76.57406616210938,-0.19513376011782935,3.539622245567602,-96.94620876363552,5.4049134,2.4779713,18.812874,13.137055,-24.15546,-3.1620135,-21.354992,-10.735551,-8.290949,53.575535,-22.868654,2.2891488,-3.135159,-0.63303703,9.095773,4.5193496,12.027873,-21.820349,58.336075,19.643654,-5.2034845,0.14855786,14.459655,-13.606094,14.110508,49.802395,-1.6901463,-9.859721,7.19388
55,1.8326692581176758,-2.6389501094818115,76.54913330078125,-0.3511870054419698,3.6512376448594415,-96.96908463326757,5.565358,2.6526096,18.850855,13.042562,-24.272854,-3.2778387,-22.011349,-10.953939,-9.287325,54.39664,-23.175673,2.0853822,-3.293624,-0.44151774,9.237674,4.47455,12.102065,-21.934708,58.327366,19.565516,-5.189365,0.16161545,14.518468,-13.569928,14.135837,49.713078,-1.6008215,-9.844667,7.1992598
56,1.81145179271698,-2.916323661804199,76.51902770996094,-0.5088967822990178,3.7732964085761784,-97.00192555393282,5.7202277,2.8343601,18.898386,12.961904,-24.386719,-3.3885496,-22.668463,-11.125124,-10.2421255,55.04694,-23.388212,1.9478928,-3.4583693,-0.2464857,9.379773,4.4403434,12.172114,-22.044594,58.30142,19.499758,-5.1872416,0.16893628,14.5656595,-13.536425,14.159678,49.636,-1.5502148,-9.828875,7.214701
57,1.785491943359375,-3.2050623893737793,76.4888687133789,-0.6715219079692414,3.9102115452660056,-97.0486361828235,5.860907,3.027309,18.952444,12.9065,-24.497265,-3.475471,-23.330572,-11.234956,-11.152642,55.5049,-23.48108,1.8940786,-3.634366,-0.041034844,9.514596,4.4143534,12.223111,-22.136717,58.268723,19.44133,-5.200357,0.16935879,14.595251,-13.514009,14.188178,49.573143,-1.5575882,-9.80441,7.251896
58,1.7529749870300293,-3.509582996368408,76.45662689208984,-0.8410538388664967,4.063218269440656,-97.10126971008738,5.988462,3.2335572,19.007532,12.866298,-24.600285,-3.5483894,-23.99054,-11.299493,-12.050693,55.7695,-23.498646,1.9301716,-3.8181455,0.16987975,9.643304,4.4021344,12.277477,-22.227276,58.21459,19.386631,-5.22469,0.16451244,14.616259,-13.491841,14.217333,49.514816,-1.5990202,-9.773108,7.3054967
59,1.7139703035354614,-3.8184266090393066,76.4198989868164,-1.0105030701455673,4.220915570009198,-97.15676946771895,6.125565,3.4422646,19.074154,12.817283,-24.69962,-3.6418805,-24.65416,-11.336477,-12.922408,55.890377,-23.459072,2.0157857,-4.0079455,0.38158458,9.780605,4.3981915,12.335319,-22.326977,58.140057,19.354918,-5.256036,0.1589861,14.634791,-13.469958,14.240861,49.46353,-1.6466078,-9.750886,7.3531046
60,1.6809312105178833,-4.131402969360352,76.37928771972656,-1.1725549146118883,4.371825678721677,-97.21179407888175,6.2970347,3.6416721,19.163017,12.7305355,-24.796818,-3.7903864,-25.325336,-11.363496,-13.753976,55.916912,-23.379549,2.1101844,-4.2107406,0.598627,9.937749,4.3827205,12.367507,-22.434618,58.07332,19.375795,-5.2905774,0.16241851,14.653419,-13.459858,14.2593565,49.42602,-1.6706648,-9.752948,7.3713284
61,1.639364242553711,-4.473800182342529,76.33133697509766,-1.3296588407266254,4.514375714945777,-97.26472114157623,6.5074363,3.834384,19.283422,12.59594,-24.888138,-4.014924,-26.003939,-11.371202,-14.538342,55.841793,-23.243282,2.217351,-4.3934097,0.81044054,10.126841,4.375877,12.430337,-22.59784,57.962162,19.438303,-5.3338575,0.1753922,14.698257,-13.440497,14.239902,49.38352,-1.664785,-9.798918,7.35037
62,1.6024090051651,-4.808602809906006,76.26776123046875,-1.4845414107173613,4.654133562466602,-97.31730675016725,6.7448487,4.0245805,19.428095,12.429631,-24.974918,-4.2930045,-26.687162,-11.354067,-15.285087,55.642334,-23.046654,2.3542345,-4.5883055,1.0250168,10.335177,4.371113,12.483761,-22.766354,57.8397,19.552273,-5.386816,0.19831952,14.739242,-13.425001,14.216197,49.35803,-1.6422272,-9.874806,7.2995234
63,1.5568292140960693,-5.158329963684082,76.20529174804688,-1.6284825448281104,4.791022863832675,-97.37090011124883,7.008386,4.2005787,19.583055,12.238982,-25.064112,-4.593747,-27.376665,-11.336524,-16.004187,55.349483,-22.830122,2.4987295,-4.780396,1.229807,10.558126,4.367034,12.547332,-22.963564,57.698833,19.679323,-5.4334846,0.21155001,14.787617,-13.40583,14.174328,49.331017,-1.6171578,-9.949784,7.2447853
64,1.5110708475112915,-5.518566608428955,76.13260650634766,-1.7530321442398504,4.924921834466323,-97.42702649753097,7.2943487,4.35167,19.733965,12.036921,-25.1645,-4.8863964,-28.072163,-11.342245,-16.705881,54.99202,-22.632624,2.6286085,-4.9789314,1.4149367,10.786761,4.357711,12.612249,-23.17777,57.55619,19.798641,-5.4587917,0.1994334,14.831552,-13.386444,14.126154,49.306,-1.6005039,-9.992345,7.2063375
65,1.4505239725112915,-5.884714603424072,76.05570220947266,-1.8530257684451732,5.055642395811453,-97.48649567397125,7.6095877,4.469479,19.880426,11.809798,-25.274672,-5.1645856,-28.776873,-11.375361,-17.384302,54.568485,-22.470585,2.7443554,-5.1835127,1.5752178,11.020045,4.346282,12.6810665,-23.412195,57.402607,19.909628,-5.450885,0.14137845,14.874191,-13.365153,14.061642,49.27395,-1.607146,-9.985993,7.201262
66,1.3872071504592896,-6.270819187164307,75.96810150146484,-1.9343558933785057,5.183345801668722,-97.54802017963088,7.952499,4.5615172,20.028816,11.557432,-25.391363,-5.4441266,-29.48733,-11.422666,-18.037907,54.063072,-22.319603,2.8557904,-5.401318,1.719233,11.260088,4.331697,12.742249,-23.656744,57.24564,20.028614,-5.4208803,0.05334084,14.911243,-13.346141,13.991589,49.2446,-1.6245775,-9.9499035,7.212659
67,1.3221133947372437,-6.671473979949951,75.87179565429688,-2.0041422913202793,5.30869060313245,-97.60971254672864,8.308692,4.6412907,20.174732,11.307003,-25.517614,-5.7281404,-30.196692,-11.482269,-18.682764,53.48985,-22.160837,2.9544501,-5.6028414,1.8490424,11.510925,4.3107305,12.82626,-23.94532,57.077892,20.129204,-5.3865347,-0.03491428,14.958865,-13.318724,13.901996,49.211796,-1.634234,-9.907414,7.2198706
68,1.2549831867218018,-7.0849738121032715,75.77070617675781,-2.0701025640868758,5.432071556682539,-97.66994017649641,8.666012,4.7212486,20.314285,11.082702,-25.654972,-6.0197735,-30.897352,-11.552976,-19.334578,52.861343,-21.974949,3.031926,-5.8073387,1.9734377,11.770539,4.279813,12.91545,-24.248434,56.925507,20.213058,-5.3673134,-0.087266065,14.996711,-13.290239,13.836072,49.201756,-1.6053611,-9.8802805,7.193459
69,1.17423677444458,-7.498830795288086,75.66051483154297,-2.131574044590369,5.557144239067731,-97.73039140877793,9.011757,4.8029075,20.446772,10.900271,-25.808445,-6.3263087,-31.593103,-11.641655,-20.002804,52.170097,-21.75589,3.0841894,-6.008244,2.0925622,12.037616,4.2340693,13.012546,-24.584034,56.784233,20.257198,-5.367849,-0.09117773,15.025658,-13.263097,13.794149,49.21754,-1.5066538,-9.879028,7.1105614
70,1.0953588485717773,-7.932966232299805,75.54563903808594,-2.185013848984664,5.6824642904592455,-97.79111348701193,9.356162,4.8800225,20.574377,10.742122,-25.974237,-6.6444683,-32.284336,-11.746104,-20.677588,51.410065,-21.513134,3.11656,-6.2077117,2.2033334,12.313004,4.1789646,13.118119,-24.948072,56.645958,20.27324,-5.3783374,-0.06641824,15.048951,-13.237023,13.767225,49.250317,-1.3593539,-9.8903265,6.9910727
71,1.006439447402954,-8.369964599609375,75.4245376586914,-2.2338104075838996,5.800756127811259,-97.84801549406428,9.713745,4.9562745,20.697119,10.599689,-26.150623,-6.9613767,-32.960953,-11.853044,-21.343864,50.600933,-21.25428,3.1343827,-6.4064484,2.3089805,12.599879,4.115697,13.229802,-25.32294,56.525032,20.29564,-5.3948407,-0.026548501,15.076095,-13.21008,13.744574,49.28648,-1.2199488,-9.901072,6.8745046
72,0.9141380786895752,-8.826347351074219,75.29894256591797,-2.2807082386319784,5.90471065168395,-97.89709854440392,10.106473,5.0325327,20.815493,10.4475765,-26.326166,-7.264187,-33.61514,-11.950032,-21.985754,49.76593,-20.984419,3.1426613,-6.604752,2.41262,12.900955,4.044349,13.343678,-25.690374,56.438652,20.36042,-5.4134088,0.015453914,15.115519,-13.180628,13.715403,49.314987,-1.1450398,-9.897859,6.7997913
73,0.8112406134605408,-9.293086051940918,75.16320037841797,-2.3217636291222283,5.989918615214479,-97.935277647189,10.522761,5.109294,20.925385,10.321519,-26.519894,-7.5337615,-34.248154,-12.045411,-22.598915,48.907394,-20.69485,3.1329184,-6.806054,2.5112655,13.222485,3.9561362,13.45738,-26.054585,56.401478,20.480803,-5.4371777,0.05898452,15.1677,-13.147644,13.675327,49.333794,-1.1656526,-9.878638,6.779099
74,0.7029896378517151,-9.767155647277832,75.02422332763672,-2.356902471188949,6.060919096087763,-97.96519048838306,10.959276,5.186126,21.02786,10.215222,-26.726902,-7.782854,-34.863426,-12.142125,-23.191265,48.013805,-20.384996,3.1052473,-7.0084996,2.6047409,13.560649,3.8513646,13.57033,-26.423132,56.40529,20.637093,-5.4666686,0.11081264,15.22803,-13.110895,13.630396,49.350258,-1.2465383,-9.849917,6.7905083
75,0.585986316204071,-10.253520011901855,74.88233184814453,-2.3949129474294226,6.12450733318782,-97.99164662314446,11.432832,5.2684817,21.130014,10.077669,-26.919407,-8.046341,-35.455685,-12.220257,-23.766085,47.086414,-20.07707,3.077665,-7.2074995,2.701569,13.902072,3.7427795,13.677648,-26.779968,56.436012,20.817207,-5.4942164,0.16945717,15.297311,-13.072525,13.586502,49.366512,-1.3456209,-9.810824,6.822067
76,0.45723095536231995,-10.763925552368164,74.7426528930664,-2.4450280965581572,6.187394931858399,-98.0188488756975,11.968754,5.357774,21.23965,9.840138,-27.060982,-8.358634,-36.01963,-12.259666,-24.32721,46.125618,-19.793074,3.0681798,-7.392632,2.8086417,14.234981,3.6465948,13.78652,-27.116262,56.469307,21.004185,-5.5118904,0.2316584,15.379721,-13.029912,13.543279,49.381527,-1.4222605,-9.760866,6.8627243
77,0.31754162907600403,-11.290448188781738,74.59306335449219,-2.512338316053212,6.239664668516973,-98.053626537706,12.59621,5.4517255,21.368296,9.469802,-27.149609,-8.733682,-36.545753,-12.249058,-24.86336,45.120102,-19.543114,3.0830853,-7.563419,2.9307868,14.566549,3.564846,13.8904505,-27.427765,56.506233,21.206442,-5.517669,0.29848844,15.47277,-12.986489,13.5036335,49.393806,-1.4625429,-9.686738,6.9226537
78,0.17357422411441803,-11.830146789550781,74.43907928466797,-2.5914692401660426,6.282052150461534,-98.09057347084986,13.300552,5.5476203,21.509329,8.992769,-27.19421,-9.151259,-37.0383,-12.201045,-25.37791,44.06826,-19.31179,3.1115375,-7.724649,3.064829,14.899594,3.489085,13.989373,-27.721832,56.556664,21.427513,-5.5157866,0.37088528,15.577376,-12.942691,13.465368,49.402664,-1.4892206,-9.593096,7.0037093
79,0.013253807090222836,-12.384573936462402,74.2780990600586,-2.6763860393031345,6.337310959573118,-98.11637926252999,14.021176,5.653412,21.641546,8.474067,-27.199411,-9.593872,-37.51631,-12.132777,-25.895983,42.994114,-19.086489,3.146046,-7.8947725,3.210345,15.212624,3.4149647,14.071216,-27.978971,56.632885,21.658,-5.508168,0.44901836,15.690048,-12.904669,13.442892,49.41754,-1.5104702,-9.505226,7.079972
80,-0.1541968584060669,-12.961962699890137,74.1213607788086,-2.7590614723210107,6.427766230359589,-98.11852396457658,14.538129,5.8411717,21.727276,8.342811,-27.362112,-10.044767,-38.000023,-12.062303,-26.440619,41.92411,-18.855526,3.1798038,-8.067412,3.3562524,15.489321,3.3530555,14.166969,-28.207512,56.70685,21.872883,-5.4956656,0.5271969,15.817083,-12.852458,13.428375,49.439556,-1.5422219,-9.449908,7.1276116
81,-0.34063270688056946,-13.542991638183594,73.96363067626953,-2.8425557730192192,6.560081673167937,-98.09406075074922,14.969829,6.064056,21.776554,8.30945,-27.535858,-10.501978,-38.497288,-11.990535,-27.021742,40.851875,-18.616058,3.206136,-8.275879,3.5155125,15.719892,3.286489,14.230294,-28.3672,56.825863,22.113302,-5.4804354,0.61251676,15.948697,-12.813918,13.456596,49.482864,-1.573941,-9.447332,7.12778
82,-0.5324192047119141,-14.140398979187012,73.80625915527344,-2.927794582210878,6.721581537254011,-98.04914337235587,15.376265,6.304092,21.801447,8.27836,-27.682621,-10.9727335,-38.997612,-11.911009,-27.624659,39.768894,-18.374786,3.2305,-8.478108,3.6725826,15.919257,3.2330315,14.321823,-28.507994,56.938118,22.354792,-5.4589844,0.69814795,16.095201,-12.750376,13.489334,49.53817,-1.6141055,-9.481173,7.097494
83,-0.7422573566436768,-14.752374649047852,73.65233612060547,-3.0071521917527937,6.905355428096726,-97.9857646283314,15.7702465,6.5510755,21.799831,8.240475,-27.776073,-11.451917,-39.48658,-11.825173,-28.239552,38.686348,-18.128319,3.2644687,-8.691976,3.8213263,16.093184,3.201818,14.423376,-28.606524,57.041367,22.559824,-5.4327383,0.78203386,16.23739,-12.672792,13.538119,49.60747,-1.6636604,-9.515185,7.0601764
84,-0.9670711159706116,-15.388420104980469,73.50044250488281,-3.073017990655791,7.104379425365656,-97.90589274704513,16.156853,6.797425,21.768194,8.202643,-27.798347,-11.934749,-39.950512,-11.734394,-28.856144,37.615253,-17.872591,3.3196738,-8.915873,3.9660861,16.245453,3.1860821,14.509944,-28.669632,57.144726,22.681377,-5.4021215,0.8651237,16.381058,-12.60035,13.590966,49.670628,-1.7229717,-9.512722,7.0439873
85,-1.1962099075317383,-16.035152435302734,73.351806640625,-3.1243769801379653,7.318683872317983,-97.80785736738441,16.538513,7.04115,21.708515,8.160246,-27.752487,-12.42147,-40.39371,-11.639398,-29.476305,36.555347,-17.603338,3.3975077,-9.144444,4.1011157,16.378162,3.1895442,14.597324,-28.709936,57.234028,22.680346,-5.360051,0.9535816,16.52055,-12.520106,13.646831,49.728218,-1.809402,-9.456379,7.0512834
86,-1.4426913261413574,-16.70728302001953,73.20426940917969,-3.1644820154137445,7.551067723285789,-97.69094072553412,16.91209,7.2858033,21.620134,8.113753,-27.649885,-12.913991,-40.82068,-11.539269,-30.104088,35.500206,-17.322721,3.4923303,-9.378985,4.2288857,16.488415,3.2097852,14.686928,-28.72252,57.31559,22.590338,-5.3089447,1.0461352,16.657854,-12.430581,13.709417,49.786983,-1.9166001,-9.368068,7.06942
87,-1.6999354362487793,-17.39243507385254,73.05904388427734,-3.1917000916499254,7.798697491239837,-97.5590591322593,17.2776,7.5316577,21.495684,8.068626,-27.472513,-13.410611,-41.22195,-11.432941,-30.731556,34.460922,-17.042059,3.6052418,-9.618777,4.350312,16.57562,3.248675,14.768726,-28.693869,57.396275,22.467535,-5.262523,1.1268282,16.801537,-12.339995,13.769561,49.846565,-2.0170174,-9.272022,7.1008816
88,-1.9743797779083252,-18.098331451416016,72.92134857177734,-3.2051579019890313,8.058920696689256,-97.415676906534,17.637686,7.777987,21.32847,8.025262,-27.204945,-13.910037,-41.58798,-11.317461,-31.352264,33.44795,-16.772228,3.7372625,-9.85856,4.4561205,16.63869,3.3167796,14.853304,-28.611237,57.46887,22.366083,-5.233788,1.1772778,16.949955,-12.23814,13.817028,49.92053,-2.0894034,-9.193519,7.144331
89,-2.269717216491699,-18.820220947265625,72.78961944580078,-3.20280229886221,8.338065878839926,-97.25647970088706,17.981062,8.027296,21.113941,7.992548,-26.856018,-14.416291,-41.925026,-11.1895075,-31.968845,32.442863,-16.497368,3.9021466,-10.1038885,4.549016,16.672306,3.4155293,14.9326935,-28.448849,57.538685,22.292429,-5.2378526,1.1799061,17.108425,-12.132625,13.849305,50.006447,-2.1148365,-9.142758,7.205868
90,-2.5743370056152344,-19.564468383789062,72.66436767578125,-3.1847848405520525,8.63441350492937,-97.08111439602146,18.312714,8.277438,20.855469,7.96181,-26.427158,-14.928894,-42.236717,-11.049932,-32.583107,31.44906,-16.218884,4.095076,-10.354421,4.6202292,16.67891,3.5493178,15.022496,-28.215925,57.594357,22.220724,-5.263616,1.1463033,17.262276,-12.006094,13.876272,50.116005,-2.1142101,-9.106094,7.279563
91,-2.890087127685547,-20.329788208007812,72.5428695678711,-3.0972988850530605,8.964040727620135,-96.87028133975414,18.589764,8.384989,20.373764,7.8987045,-25.881346,-15.000033,-42.57315,-10.990026,-33.154926,30.570099,-15.988548,4.3015094,-10.624166,4.6391835,16.634516,3.7053487,15.115826,-27.968111,57.63859,22.154148,-5.2850223,1.1084783,17.423906,-11.871121,13.892539,50.228344,-2.10937,-9.069793,7.3601775
92,-3.214261054992676,-21.111059188842773,72.42669677734375,-2.9865189915370975,9.2910761850592,-96.65906349453805,18.870909,8.465978,19.83361,7.837749,-25.226377,-15.000033,-42.869396,-10.940291,-33.702766,29.796364,-15.826346,4.4863977,-10.8792,4.640972,16.57584,3.8756313,15.214116,-27.756563,57.66918,22.097841,-5.276204,1.0974246,17.595903,-11.730165,13.896261,50.334568,-2.1251433,-9.020999,7.4397173
93,-3.552546977996826,-21.913454055786133,72.32000732421875,-2.8701047140359357,9.608314958010792,-96.46209579596191,19.172777,8.549746,19.276505,7.783745,-24.47155,-15.000033,-43.099926,-10.869021,-34.26106,29.08909,-15.732146,4.6535916,-11.10367,4.638394,16.514463,4.052998,15.31832,-27.587341,57.68703,22.079285,-5.2153234,1.1240674,17.777052,-11.58444,13.886044,50.433796,-2.1739638,-8.953093,7.520585
94,-3.905912160873413,-22.7404727935791,72.21533203125,-2.745375266963529,9.922109541548478,-96.27314528431027,19.48887,8.635602,18.700256,7.7347345,-23.621078,-15.000033,-43.276394,-10.776394,-34.824318,28.440708,-15.690087,4.813256,-11.304815,4.6296124,16.44441,4.244258,15.428159,-27.43579,57.690956,22.086786,-5.121301,1.1707473,17.96773,-11.43197,13.8633375,50.528923,-2.2403224,-8.87414,7.6061068
95,-4.277763366699219,-23.58503532409668,72.12042999267578,-2.6100657657908264,10.228262332458023,-96.0861858268281,19.817307,8.726021,18.105492,7.6957197,-22.661688,-15.000033,-43.413948,-10.673505,-35.340103,27.91547,-15.703883,4.944107,-11.489588,4.614423,16.363773,4.459451,15.54361,-27.31065,57.67936,22.065313,-5.028853,1.2264597,18.17236,-11.273439,13.825741,50.617657,-2.308592,-8.793025,7.6893234
96,-4.674855709075928,-24.447668075561523,72.03250885009766,-2.4625386347625438,10.523014925167498,-95.89627228643732,20.159803,8.822782,17.4955,7.664757,-21.575823,-15.000033,-43.52861,-10.572065,-35.755116,27.58031,-15.779677,5.023946,-11.663459,4.59446,16.270811,4.7090864,15.663982,-27.220907,57.64979,21.959639,-4.9731917,1.2803156,18.396902,-11.109402,13.770788,50.695454,-2.3624604,-8.718678,7.7635965
97,-5.0812578201293945,-25.341650009155273,71.9511489868164,-2.3058654421241744,10.800485026234181,-95.69736516364777,20.528776,8.930994,16.864683,7.636546,-20.368317,-15.000033,-43.588047,-10.473002,-36.106358,27.407726,-15.931288,5.099533,-11.835998,4.5734158,16.172264,4.993901,15.789832,-27.175299,57.607296,21.730066,-4.9714108,1.3339806,18.643402,-10.939048,13.690993,50.76057,-2.4080694,-8.648223,7.825933
98,-5.501051425933838,-26.251750946044922,71.87850189208984,-2.1416814423935153,11.065054007201267,-95.49566813927993,20.918821,9.050281,16.219732,7.614701,-19.04471,-15.000033,-43.59614,-10.370095,-36.405106,27.380653,-16.153757,5.164786,-11.998573,4.5507326,16.066265,5.30865,15.921471,-27.16718,57.55155,21.414743,-5.0023575,1.3916639,18.908787,-10.762328,13.588368,50.815258,-2.4510407,-8.578649,7.8802185
99,-5.937520980834961,-27.198394775390625,71.8031005859375,-1.9684460418488021,11.330209940815525,-95.30147902299923,21.30254,9.178616,15.578636,7.6074224,-17.59229,-15.000033,-43.621567,-10.263922,-36.563503,27.577242,-16.422852,5.117423,-12.134368,4.5267663,15.937291,5.6542807,16.057175,-27.182854,57.471817,21.073593,-5.043541,1.4464898,19.191725,-10.580571,13.477823,50.86091,-2.4731495,-8.518588,7.9305816
100,-6.386024475097656,-28.16398811340332,71.73098754882812,-1.784707078829777,11.610379818549742,-95.12233290857999,21.271885,9.411683,14.893112,8.442731,-16.43084,-15.000033,-43.73308,-10.156645,-36.495316,28.07268,-16.712776,4.855133,-12.229304,4.5029836,15.769183,6.0319004,16.19409,-27.206686,57.357964,20.768187,-5.072235,1.4917183,19.491068,-10.39674,13.374839,50.89868,-2.4555438,-8.476475,7.9809093
101,-6.850033283233643,-29.15532684326172,71.65361022949219,-1.5903471961066287,11.915280496271995,-94.93745195031164,21.0579,9.677919,14.186131,9.594875,-15.303229,-15.000033,-43.915,-10.019144,-36.12775,28.829453,-16.979158,4.4357843,-12.301698,4.4870863,15.551676,6.4467435,16.33076,-27.253704,57.192516,20.51972,-5.0545144,1.5366169,19.818289,-10.213781,13.291407,50.92403,-2.3700466,-8.454844,8.024273
102,-7.325483798980713,-30.18840217590332,71.5883560180664,-1.387566757821047,12.236688712169382,-94.74257415196033,20.765762,9.955519,13.468521,10.859357,-14.101227,-15.000033,-44.13793,-9.854993,-35.533405,29.813644,-17.239645,3.887168,-12.360333,4.4806414,15.295103,6.8964286,16.467218,-27.324282,56.986702,20.294395,-5.0116773,1.5815694,20.171814,-10.033306,13.216646,50.93581,-2.2339656,-8.448729,8.061314
103,-7.824942588806152,-31.205480575561523,71.5390853881836,-1.1817048510491681,12.563999799836076,-94.56455092034913,20.333937,10.262767,12.75175,12.372881,-12.847308,-15.000033,-44.446808,-9.715904,-34.8497,31.099424,-17.557695,3.0637875,-12.384117,4.48053,15.013329,7.3717494,16.601393,-27.381052,56.771828,20.070898,-5.0038424,1.6060839,20.530378,-9.8543215,13.13561,50.939423,-2.094511,-8.455643,8.108967
104,-8.339132308959961,-32.24476623535156,71.48994445800781,-0.9818270836014209,12.890011514608053,-94.42350644847218,19.70508,10.618423,12.036946,14.249431,-11.549527,-15.000033,-44.884216,-9.6548815,-34.219997,32.750183,-17.994415,1.8151271,-12.358985,4.4885945,14.717718,7.8641677,16.729744,-27.385946,56.579964,19.828644,-5.090923,1.5894713,20.872873,-9.675101,13.033393,50.941223,-1.9998028,-8.473236,8.183244
105,-8.872004508972168,-33.31094741821289,71.43269348144531,-0.7941370028903023,13.250557569539794,-94.2864034480236,18.830376,11.044144,11.314052,16.483822,-10.17294,-15.000033,-45.57074,-9.725149,-33.642162,34.9396,-18.581694,-0.20915301,-12.31219,4.5272045,14.369278,8.372674,16.852196,-27.36197,56.408566,19.58843,-5.29572,1.5229981,21.20657,-9.493083,12.900698,50.939983,-1.9659595,-8.500122,8.29415
106,-9.414801597595215,-34.38373947143555,71.37396240234375,-0.6114242526712228,13.640611769305991,-94.13117416825821,17.767382,11.511357,10.555064,18.962317,-8.686201,-15.000033,-46.433514,-9.882396,-33.07263,37.530643,-19.25681,-2.833047,-12.262101,4.5935574,13.972564,8.901128,16.96842,-27.320475,56.24516,19.351984,-5.5833445,1.4181077,21.540722,-9.307861,12.746269,50.932205,-1.9671885,-8.537805,8.4308
107,-9.975010871887207,-35.468658447265625,71.3167724609375,-0.43266673061552696,13.99531601769322,-94.0033789147471,16.61494,11.970284,9.737914,21.634295,-7.0969687,-15.000033,-47.22865,-10.040862,-32.584003,40.141834,-19.965628,-5.4211173,-12.173529,4.6572866,13.601936,9.445886,17.072348,-27.206112,56.110264,19.07064,-5.9272504,1.2839074,21.856348,-9.126376,12.580466,50.921753,-1.9886479,-8.588342,8.577633
108,-10.537060737609863,-36.57524490356445,71.2515869140625,-0.2658593920889618,14.253043866524543,-93.96283547967094,15.460023,12.383856,8.855453,24.480478,-5.428256,-15.000033,-47.722073,-10.124088,-32.234764,42.436455,-20.687422,-7.3360753,-12.001591,4.6947036,13.330379,10.0031185,17.15325,-26.960474,56.025272,18.696947,-6.3007746,1.1294737,22.132992,-8.961532,12.414929,50.911457,-2.0137482,-8.653376,8.719358
109,-11.10530948638916,-37.68057632446289,71.17533874511719,-0.099088833613873,14.40250682025044,-94.0274677624759,14.319019,12.752283,7.9041686,27.514137,-3.6489668,-15.000033,-47.831615,-10.181651,-32.066765,44.372105,-21.498966,-8.207612,-11.722227,4.697943,13.173045,10.574365,17.197195,-26.53482,55.998802,18.191504,-6.750717,0.9018039,22.385542,-8.819567,12.229514,50.8905,-2.0315094,-8.749991,8.8697605
110,-11.674028396606445,-38.79743957519531,71.08757019042969,0.06292564558317242,14.477410286576516,-94.1775393749669,13.155043,13.082436,6.8910456,30.720755,-1.7435987,-15.000033,-47.693134,-10.26389,-32.01568,46.160038,-22.412127,-8.449649,-11.356787,4.6859803,13.089413,11.156749,17.197296,-25.968412,56.027462,17.588861,-7.271971,0.6126284,22.61885,-8.701737,12.029243,50.85863,-2.0494108,-8.871258,9.032248
111,-12.23504638671875,-39.918701171875,70.98693084716797,0.1830504276104508,14.483186989226732,-94.42123917375162,11.967471,13.362717,5.823967,34.066753,0.21837448,-15.000033,-47.40344,-10.282502,-31.985378,47.852276,-23.3147,-8.595061,-10.919774,4.682489,13.071376,11.740968,17.159164,-25.343927,56.108715,16.94986,-7.76197,0.36930937,22.80667,-8.623584,11.855434,50.823643,-2.076787,-8.982695,9.179287
112,-12.805688858032227,-41.03346633911133,70.87198638916016,0.2227807283583249,14.422204609905092,-94.76413840030185,10.754118,13.591549,4.7007537,37.53256,2.1625352,-15.000033,-47.056282,-10.114096,-31.888899,49.46995,-24.096123,-9.171527,-10.443825,4.7002983,13.11343,12.325012,17.087736,-24.714108,56.24389,16.351809,-8.121343,0.28348014,22.89653,-8.581376,11.771095,50.822563,-2.1275723,-9.050521,9.273696
113,-13.387809753417969,-42.14543151855469,70.7414779663086,0.16107495042590053,14.275778397941206,-95.23976245269579,9.502965,13.78634,3.4861205,41.226658,4.1585474,-15.000033,-46.68342,-9.66463,-31.702465,51.002895,-24.595963,-10.459618,-9.893968,4.7535443,13.238648,12.925681,16.985758,-24.043585,56.41548,15.708536,-8.331904,0.39108226,22.896852,-8.590116,11.786439,50.83939,-2.1823542,-9.053769,9.327252
114,-13.973042488098145,-43.2581672668457,70.59090423583984,0.0127333767458538,14.045412123575089,-95.8390376194955,8.217386,13.961331,2.1520262,45.146122,6.2012563,-15.000033,-46.230225,-8.982186,-31.496763,52.421013,-24.896881,-12.126014,-9.2688875,4.84214,13.44619,13.548332,16.85481,-23.313272,56.618225,15.016824,-8.448093,0.63125396,22.826197,-8.650659,11.87783,50.86394,-2.2389548,-9.014433,9.353408
115,-14.569661140441895,-44.37997817993164,70.41825866699219,-0.2036148522142551,13.764580215254282,-96.49528364306434,6.90349,14.09655,0.70366555,49.13019,8.093344,-15.000033,-45.669952,-8.149324,-31.320059,53.716625,-25.25314,-13.773758,-8.640425,4.973824,13.6925535,14.167882,16.705544,-22.638918,56.86374,14.46186,-8.479763,0.9730637,22.684679,-8.764969,12.031539,50.900215,-2.3300915,-8.96171,9.331449
116,-15.158624649047852,-45.49843215942383,70.22472381591797,-0.44915506377743253,13.465632376881233,-97.13725365081827,5.580818,14.129177,-0.82591635,53.00064,9.650651,-15.000033,-44.978436,-7.275479,-31.179905,54.902576,-25.948008,-15.000033,-8.080201,5.134853,13.934538,14.759847,16.556026,-22.143068,57.157772,14.224133,-8.433176,1.3844218,22.476053,-8.9329605,12.228565,50.948147,-2.48924,-8.924584,9.241806
117,-15.75174331665039,-46.624473571777344,70.00785064697266,-0.6796459608922324,13.107686845325352,-97.68256050531647,4.257604,13.934767,-2.534939,56.786358,10.982335,-15.000033,-44.079094,-6.521926,-31.040943,56.075493,-27.195047,-15.000033,-7.6654234,5.2908444,14.20662,15.318531,16.419859,-21.841984,57.506134,14.240857,-8.264349,1.9234275,22.188644,-9.15798,12.49068,51.027798,-2.6913338,-8.928224,9.079173
118,-16.35379409790039,-47.729095458984375,69.7737808227539,-0.9858829346189991,12.735094504668114,-98.2708387870447,2.9036906,13.596905,-4.346388,60.591976,12.118479,-15.000033,-43.070812,-5.6116223,-30.96071,57.10698,-28.742863,-15.000033,-7.2599025,5.4973054,14.478262,15.868134,16.302773,-21.675371,57.889538,14.445526,-7.981481,2.5814283,21.829994,-9.435572,12.82491,51.12871,-2.928816,-8.950665,8.854951
119,-16.955360412597656,-48.8249397277832,69.53423309326172,-1.2993863526959555,12.37754799551279,-98.9032181176386,1.5722942,13.138789,-6.0918646,64.284195,12.809295,-15.000033,-42.027992,-4.6189218,-30.84601,58.018753,-30.38595,-15.000033,-6.8538704,5.702351,14.715068,16.414751,16.204687,-21.660162,58.284588,15.013817,-7.6620817,3.225031,21.420435,-9.752143,13.174111,51.2144,-3.264711,-8.950696,8.57673
120,-17.548904418945312,-49.914119720458984,69.29534912109375,-1.3854098941444313,12.06600652672013,-99.56451446663749,0.28910008,12.527336,-7.4545746,67.70313,12.835836,-15.000033,-41.095207,-3.7966347,-30.47425,58.978832,-31.978176,-15.000033,-6.4460955,5.6881576,14.862069,16.951014,16.12406,-21.821114,58.682728,16.123655,-7.38194,3.7222893,20.977573,-10.086868,13.472854,51.25318,-3.7653131,-8.886623,8.250734
121,-18.14431381225586,-51.00391387939453,69.05384063720703,-1.497159453685187,11.791759317728125,-100.30365654609473,-0.90902853,12.02947,-8.491159,70.96911,11.8867655,-15.000033,-40.155994,-2.866979,-30.036463,59.783726,-33.419567,-15.000033,-5.985612,5.6955023,14.946026,17.457256,16.063938,-22.198587,59.130283,17.967516,-7.1665473,4.115104,20.495018,-10.432034,13.706351,51.246193,-4.5265713,-8.723368,7.881214
122,-18.744403839111328,-52.09782028198242,68.82453155517578,-1.6458039970598741,11.539970012780465,-101.11187605867603,-2.064628,11.622754,-9.284507,74.15256,10.13386,-15.000033,-39.184143,-1.82239,-29.558748,60.44107,-34.815155,-15.000033,-5.480555,5.7277837,14.982249,17.929186,16.027414,-22.776434,59.62861,20.401682,-6.9651065,4.444731,19.963423,-10.787021,13.900497,51.21471,-5.490936,-8.487412,7.4648438
123,-19.33373260498047,-53.18071746826172,68.61480712890625,-1.7953799438666427,11.306039647792804,-101.95811459328361,-3.2441857,11.264114,-9.938974,77.18399,7.908193,-15.000033,-38.16469,-0.7241818,-29.033852,60.94025,-36.138943,-15.000033,-4.9553237,5.7638793,14.992379,18.389242,16.00745,-23.500256,60.09095,23.10631,-6.751459,4.5803328,19.400824,-11.145668,14.042649,51.151253,-6.496095,-8.229912,6.9966016
124,-19.93667984008789,-54.261802673339844,68.4271240234375,-1.9111926872037055,11.086557148305749,-102.81199594589609,-4.5082846,10.89724,-10.56506,79.97912,5.552407,-15.000033,-37.081112,0.36513072,-28.454704,61.268856,-37.36328,-15.000033,-4.433928,5.783669,14.997951,18.858122,15.992724,-24.316015,60.434944,25.767704,-6.5155277,4.3936663,18.82458,-11.50115,14.117666,51.050697,-7.3829737,-8.0041485,6.46618
125,-20.55145835876465,-55.341697692871094,68.26620483398438,-1.9994545652247822,10.88595576291088,-103.68830452336269,-5.839451,10.4973135,-11.183498,82.51062,2.9944139,-15.000033,-35.930542,1.4654644,-27.812723,61.41479,-38.493145,-15.000033,-3.9116185,5.7903233,14.993929,19.32855,15.979199,-25.26526,60.676945,28.51148,-6.2744913,3.846954,18.216623,-11.850777,14.117914,50.933346,-8.184457,-7.8130536,5.848354
126,-21.171905517578125,-56.41695785522461,68.1375732421875,-2.0765706567593174,10.705267219898712,-104.59580826480385,-7.22359,10.10634,-11.738768,84.824715,0.112006836,-15.000033,-34.715797,2.5947034,-27.108929,61.385372,-39.536915,-15.000033,-3.378821,5.794268,14.970284,19.784306,15.96982,-26.359934,60.8605,31.44264,-6.0639157,3.0095024,17.572706,-12.1962595,14.050535,50.800808,-8.962482,-7.629962,5.153275
127,-21.795944213867188,-57.50004196166992,68.04204559326172,-2.1208765790332733,10.53680087360439,-105.49434671268399,-8.723084,9.751594,-12.238057,86.93769,-2.8208745,-15.000033,-33.430637,3.684698,-26.35626,61.202454,-40.480774,-15.000033,-2.8563242,5.78451,14.942639,20.240442,15.963599,-27.497648,60.938774,34.22121,-5.903864,1.9182974,16.929413,-12.539068,13.927322,50.62015,-9.601662,-7.467982,4.4210243
128,-22.409326553344727,-58.58415985107422,67.9887924194336,-2.1080349253295005,10.373190809729143,-106.34375866899678,-10.397723,9.456535,-12.693543,88.85761,-5.5285387,-15.000033,-32.07248,4.6696224,-25.57147,60.889378,-41.312412,-15.000033,-2.3702269,5.7474256,14.928103,20.719013,15.956635,-28.571596,60.86126,36.507904,-5.7980003,0.6137008,16.320314,-12.881291,13.766278,50.359695,-9.985537,-7.3442073,3.6906395
129,-23.031967163085938,-59.65669631958008,67.97303771972656,-2.0265920758125713,10.211563008488122,-107.14507541635695,-12.27496,9.205137,-13.110506,90.602234,-7.9833508,-14.961747,-30.645063,5.535807,-24.745085,60.474846,-42.055298,-15.000033,-1.943939,5.6723623,14.943535,21.251577,15.944285,-29.555347,60.548874,38.171345,-5.7123494,-1.0770912,15.721374,-13.22799,13.579839,50.02531,-10.048458,-7.2750435,2.8987021
130,-23.643856048583984,-60.72634506225586,67.99592590332031,-1.8819429686548663,10.056613435087542,-107.91527271243427,-14.363846,9.158048,-13.27279,92.14752,-10.29995,-14.260708,-29.14972,6.3035927,-23.86747,59.951168,-42.71334,-15.000033,-1.5656397,5.5678153,14.978054,21.82426,15.926052,-30.49917,60.04857,39.412052,-5.6566014,-3.111362,15.122837,-13.581911,13.364242,49.629906,-9.862732,-7.255041,2.047289
131,-24.275463104248047,-61.798095703125,68.05828857421875,-1.691142820304436,9.912976041364557,-108.64002673324995,-16.597912,9.227858,-13.315729,93.44224,-12.447317,-13.3445835,-27.576962,6.987635,-22.973942,59.268806,-43.24277,-15.000033,-1.2047765,5.4464817,15.008017,22.391054,15.903695,-31.412956,59.49772,40.383217,-5.674395,-5.1230235,14.5818405,-13.941382,13.106334,49.151466,-9.521895,-7.2689676,1.2734283
132,-24.911155700683594,-62.875247955322266,68.16331481933594,-1.4659001373619045,9.78411761828512,-109.30520206241174,-18.94073,9.465155,-13.208577,94.42751,-14.392178,-12.197424,-25.91869,7.592951,-22.0902,58.384953,-43.600777,-15.000033,-0.829839,5.3201423,15.010349,22.906654,15.879253,-32.304207,59.032223,41.23442,-5.8057256,-6.743536,14.15506,-14.300116,12.792591,48.567577,-9.1187,-7.2976403,0.71376264
133,-25.557205200195312,-63.97372055053711,68.31157684326172,-1.2115699797472523,9.677542274621352,-109.90010674608975,-21.447664,9.974616,-12.879567,95.11974,-16.17429,-10.761081,-24.171701,8.120364,-21.217525,57.282894,-43.805443,-15.000033,-0.44127077,5.1945477,14.980368,23.35379,15.851055,-33.215546,58.698547,41.985676,-6.069576,-7.899343,13.856465,-14.65463,12.389659,47.84149,-8.60441,-7.3245835,0.4023748
134,-26.219045639038086,-65.06539916992188,68.5124282836914,-0.9193228516346632,9.586977266566391,-110.43625974669838,-24.087358,10.675453,-12.352378,95.527054,-17.833054,-9.0841255,-22.335497,8.564434,-20.337069,55.993763,-43.87747,-15.000033,-0.04742764,5.059508,14.932611,23.757147,15.817566,-34.133217,58.422718,42.56008,-6.4195814,-8.777199,13.6592865,-15.004297,11.906468,46.993298,-7.956222,-7.362639,0.26710874
135,-26.883268356323242,-66.1791000366211,68.75535583496094,-0.5699355891309951,9.494337454949983,-110.92621933621616,-26.699242,11.3325815,-11.723157,95.5835,-19.319506,-7.301072,-20.401888,8.886328,-19.4553,54.55404,-43.783348,-14.922172,0.36274746,4.89177,14.874799,24.13618,15.782088,-34.97477,58.157185,42.96347,-6.8001747,-9.398341,13.554095,-15.34859,11.394914,46.091557,-7.3046784,-7.43228,0.28397107
136,-27.558712005615234,-67.31175231933594,69.04042053222656,-0.12583561567163473,9.37863192459457,-111.36953549253718,-29.131971,11.702956,-11.066703,95.22201,-20.553415,-5.518943,-18.35983,8.9872465,-18.60656,53.01976,-43.50091,-14.573393,0.78455347,4.651035,14.819179,24.513044,15.750049,-35.654106,57.84883,43.20319,-7.1588945,-9.785374,13.527531,-15.687079,10.91131,45.207535,-6.7794757,-7.554503,0.4287745
137,-28.250381469726562,-68.45460510253906,69.37098693847656,0.3866939331019762,9.241984579842706,-111.76826962661173,-31.430206,11.838292,-10.368537,94.4636,-21.513,-3.6045818,-16.201262,8.970275,-17.764242,51.297993,-43.021996,-14.232155,1.230101,4.3640213,14.763977,24.893797,15.726262,-36.143593,57.47877,43.26829,-7.490931,-9.94098,13.598973,-16.015907,10.436598,44.32777,-6.4226136,-7.75073,0.74362147
138,-28.977441787719727,-69.6293716430664,69.7445297241211,0.9608643318747153,9.093190490524265,-112.12155595514061,-33.624035,11.831706,-9.5566845,93.32614,-22.257715,-1.5543674,-13.936484,8.833151,-16.929094,49.40158,-42.36607,-13.885583,1.6940426,4.036216,14.706913,25.273691,15.711636,-36.486668,57.06631,43.163147,-7.8175573,-9.8579445,13.764775,-16.333345,9.95439,43.427574,-6.1601057,-8.00253,1.224551
139,-29.713144302368164,-70.82072448730469,70.15058135986328,1.5644198612355746,8.94475475502134,-112.48455258902172,-35.587013,11.634278,-8.699222,91.76034,-22.810862,0.28687266,-11.640039,8.612722,-16.089834,47.44658,-41.47866,-13.531187,2.2015712,3.680375,14.637052,25.660433,15.705339,-36.702183,56.613495,42.919235,-8.128805,-9.54317,13.979653,-16.64143,9.530138,42.557198,-5.946628,-8.273082,1.778752
140,-30.46991729736328,-72.01925659179688,70.59406280517578,2.1652600711333756,8.810469016333036,-112.91189281023266,-37.21063,11.211222,-7.8879623,89.71108,-23.160711,1.5844964,-9.385996,8.349353,-15.23406,45.53251,-40.297665,-13.159211,2.7737374,3.3088338,14.543381,26.064272,15.704382,-36.805294,56.12214,42.568695,-8.416242,-9.002979,14.194966,-16.945238,9.235384,41.768253,-5.736492,-8.525208,2.3127854
141,-31.254009246826172,-73.2451400756836,71.06195068359375,2.764220123991565,8.689601237058438,-113.40441333139648,-38.49358,10.532582,-7.1849966,87.13769,-23.251623,2.2668552,-7.1508365,8.065553,-14.340715,43.585766,-38.78476,-12.748791,3.413643,2.9171748,14.424604,26.490866,15.709249,-36.778908,55.580086,42.072666,-8.691326,-8.214072,14.4091015,-17.250387,9.098776,41.072075,-5.5142646,-8.769754,2.8300462
142,-32.06495666503906,-74.47399139404297,71.55555725097656,3.3692152780202687,8.57808088598725,-113.93670953918989,-39.50517,9.665618,-6.56432,84.072586,-23.079306,2.5343242,-4.9276443,7.739556,-13.426659,41.58721,-36.977985,-12.301439,4.1061883,2.508487,14.288389,26.940054,15.71878,-36.620735,54.986435,41.433395,-8.963208,-7.182994,14.642226,-17.558231,9.083681,40.440796,-5.3026657,-9.019675,3.371036
143,-32.88179397583008,-75.72570037841797,72.06697082519531,3.958419140225723,8.485215191380238,-114.52455842647467,-40.253326,8.724811,-6.004355,80.56586,-22.69834,2.4646149,-2.813811,7.351894,-12.536119,39.71031,-34.921127,-11.840965,4.8479896,2.1062326,14.136417,27.407911,15.72383,-36.3714,54.366535,40.743298,-9.218764,-5.958908,14.881277,-17.868618,9.159607,39.866398,-5.117442,-9.241674,3.8977551
144,-33.711143493652344,-76.99624633789062,72.58812713623047,4.51197718774659,8.420261445354141,-115.1839451030219,-40.741795,7.813713,-5.4753766,76.65893,-22.16475,2.1293733,-0.90312046,6.885216,-11.712524,38.134933,-32.662933,-11.395794,5.6356387,1.7320386,13.969031,27.883463,15.709808,-36.072174,53.75471,40.09272,-9.439967,-4.58773,15.113285,-18.180267,9.29531,39.341145,-4.9759393,-9.402805,4.3714347
145,-34.560142517089844,-78.2737808227539,73.11571502685547,5.044865659093762,8.383865812975287,-115.9351035290827,-40.9337,6.9109273,-4.991536,72.25238,-21.420826,1.4659526,0.794225,6.3218493,-10.948412,36.910202,-30.175207,-10.993574,6.4961357,1.3649856,13.790512,28.361757,15.665222,-35.741512,53.157017,39.441257,-9.596967,-2.9619658,15.335258,-18.494532,9.4942465,38.86316,-4.8948684,-9.471665,4.7858577
146,-35.41082000732422,-79.57247924804688,73.64883422851562,5.557018946898227,8.372195080027174,-116.76455057523594,-40.841564,6.0023518,-4.601661,67.33707,-20.458391,0.49122468,2.311805,5.68945,-10.222908,35.945282,-27.444687,-10.6284895,7.4217787,1.0080055,13.600249,28.840324,15.585933,-35.360077,52.57399,38.761246,-9.714899,-1.0925603,15.555135,-18.81323,9.767704,38.435776,-4.863835,-9.474484,5.1594486
147,-36.270652770996094,-80.8915023803711,74.1671142578125,6.0042466517124575,8.386521457498475,-117.63791794724088,-40.541782,5.186852,-4.3068533,62.088573,-19.401857,-0.61981183,3.6411088,5.0428677,-9.556121,35.20247,-24.532793,-10.271333,8.360184,0.71589756,13.38644,29.310457,15.468983,-34.90887,52.03341,38.16561,-9.845203,0.79864043,15.777169,-19.137459,10.093107,38.059784,-4.8610287,-9.464644,5.490423
148,-37.14611053466797,-82.22418212890625,74.67252349853516,6.354552071051367,8.426143750370684,-118.52078577040113,-40.0952,4.5430894,-4.0750756,56.64875,-18.351086,-1.7065058,4.797549,4.4293704,-8.963408,34.617657,-21.482569,-9.876478,9.260969,0.53046507,13.135114,29.762745,15.312358,-34.36851,51.56295,37.76925,-10.027269,2.4896338,16.006855,-19.467775,10.445005,37.735405,-4.8642826,-9.495338,5.7774277
149,-38.00940704345703,-83.58756256103516,75.1662826538086,6.616538287586119,8.49922975948297,-119.43516821091524,-39.44865,4.0631495,-3.9056258,50.81965,-17.261324,-2.7486997,5.7939534,3.831724,-8.428074,34.147976,-18.19237,-9.395173,10.145677,0.44523183,12.83071,30.209103,15.108688,-33.74792,51.17154,37.569893,-10.265387,4.0454974,16.242273,-19.810383,10.838934,37.482704,-4.912885,-9.567243,5.994503
150,-38.8843879699707,-84.96508026123047,75.62968444824219,6.792202494826425,8.59646887181219,-120.39867947968564,-38.54997,3.7288618,-3.8058643,44.512238,-16.055302,-3.8257308,6.663031,3.2610955,-7.9211636,33.790745,-14.651755,-8.834216,11.036879,0.44993186,12.482337,30.647955,14.853943,-33.05186,50.849396,37.52037,-10.527991,5.5468764,16.486372,-20.167513,11.280779,37.29074,-5.002217,-9.6566515,6.1515665
151,-39.7821159362793,-86.34627532958984,76.05448150634766,6.83052744535601,8.686505743257339,-121.37433952370706,-37.470226,3.5975914,-3.7405145,38.04858,-14.790091,-4.9424067,7.452639,2.814932,-7.4446163,33.54844,-11.040941,-8.228742,11.891236,0.5891725,12.111347,31.047302,14.556732,-32.255657,50.592064,37.664124,-10.79188,6.7948003,16.751028,-20.530304,11.728255,37.114643,-5.0452642,-9.77949,6.300828
152,-40.698238372802734,-87.73773193359375,76.43673706054688,6.68116972650568,8.734610414183868,-122.32544223211583,-36.29619,3.7247026,-3.6672113,31.783094,-13.535804,-6.106431,8.2003765,2.5846,-7.013172,33.43177,-7.5379434,-7.6386867,12.669968,0.9085059,11.73994,31.379034,14.235191,-31.3346,50.38547,38.04052,-11.035,7.5877666,17.0465,-20.881905,12.136638,36.910828,-4.9569235,-9.951525,6.494529
153,-41.62960433959961,-89.13573455810547,76.75698852539062,6.250303202427925,8.728642890277474,-123.27318558793309,-35.001625,4.2313027,-3.6270351,25.607658,-12.2561455,-7.4336605,8.92025,2.6678853,-6.632065,33.400005,-4.065284,-7.155242,13.408665,1.4999263,11.349309,31.67549,13.904154,-30.234667,50.190636,38.784744,-11.271443,7.81112,17.394157,-21.212374,12.484208,36.652176,-4.754972,-10.185353,6.7708282
154,-42.573001861572266,-90.52835845947266,77.02156066894531,5.530100919428437,8.645274854197982,-124.27010631978222,-33.482834,5.127342,-3.5933504,19.305815,-10.883706,-8.909449,9.658385,3.057254,-6.264829,33.39962,-0.52495444,-6.731223,14.161905,2.3732004,10.95117,31.950623,13.568567,-28.986834,50.00052,39.827766,-11.510452,7.5924053,17.790485,-21.523708,12.788754,36.361065,-4.474789,-10.468947,7.0949693
155,-43.536865234375,-91.91395568847656,77.21403503417969,4.630216262503257,8.447756298242918,-125.30471259965623,-31.769808,6.269166,-3.421022,13.167949,-9.49171,-10.329092,10.453907,3.6437747,-5.8833656,33.481155,2.9071047,-6.246957,14.901051,3.423624,10.608176,32.14808,13.234404,-27.692257,49.84973,40.90249,-11.724708,7.0910683,18.203205,-21.817019,13.064812,36.07072,-4.0581203,-10.78004,7.4103875
156,-44.4957389831543,-93.28932189941406,77.35748291015625,3.7565885211883,8.156561341786773,-126.30198187748418,-29.909824,7.397685,-2.9618137,7.4103384,-8.110184,-11.451795,11.247329,4.215459,-5.503079,33.78256,6.003953,-5.5786085,15.538434,4.4471865,10.358054,32.201763,12.9105835,-26.448013,49.786304,41.741737,-11.88015,6.4632893,18.586649,-22.086563,13.332975,35.82617,-3.4469895,-11.096902,7.659377
157,-45.45256423950195,-94.66507720947266,77.45365142822266,3.0414050194386446,7.858044923205914,-127.1783816459244,-30.429417,8.208867,-2.3725877,7.1969323,-9.468222,-12.171628,11.877404,4.6204505,-5.155536,34.471203,8.700241,-4.6460094,16.001823,5.3024936,10.151041,32.11436,12.5995455,-25.216621,49.81534,42.253674,-11.978332,5.6564775,18.92168,-22.321577,13.611673,35.63956,-2.515892,-11.441664,7.8349943
158,-46.42754364013672,-96.02478790283203,77.50091552734375,2.433253130862232,7.57611068841802,-127.92627049124336,-30.840761,8.953792,-1.4913282,7.1158752,-10.736348,-12.619459,12.299925,4.900944,-4.886316,35.55586,11.066129,-3.5530653,16.292099,6.0327506,9.955705,31.90314,12.304578,-23.956606,49.925285,42.585426,-12.036899,4.614651,19.207714,-22.513079,13.896417,35.512703,-1.3336973,-11.817002,7.966275
159,-47.39430236816406,-97.3596420288086,77.5125961303711,2.043563488964818,7.308730565868215,-128.4985011448905,-31.08369,9.453162,-0.5996874,7.032585,-11.790783,-12.771902,12.500097,4.937515,-4.7963552,37.074055,12.990724,-2.4127069,16.493122,6.5415883,9.811555,31.481976,12.168408,-22.9166,50.115154,42.76212,-12.024558,3.4820642,19.551987,-22.5874,14.0147295,35.406834,-0.1685028,-12.176941,8.054174
160,-48.34666442871094,-98.68473815917969,77.46656799316406,1.8280580226647534,7.00357775004219,-128.91698592741875,-31.132967,9.683315,-0.034548074,6.9869194,-12.604438,-12.657707,12.580605,4.7807016,-4.937817,38.927284,14.434025,-1.3617562,16.299742,6.839412,9.812197,30.915176,11.986833,-21.803947,50.415092,43.025074,-11.960128,2.3979745,19.63631,-22.662058,14.309922,35.52027,0.81899536,-12.469078,8.072408
161,-49.29554748535156,-99.97398376464844,77.35858154296875,1.7874211287806425,6.662720935244417,-129.16354357521533,-31.001106,9.58436,0.08950531,7.02464,-13.150292,-12.14525,12.56092,4.3978963,-5.4030232,41.090675,15.497792,-0.32133123,15.964712,7.004388,9.931557,30.031845,11.9132,-21.039848,50.90334,43.25608,-11.7870655,1.3915541,19.757105,-22.67433,14.429746,35.672188,1.556239,-12.698182,8.017368
162,-50.23508071899414,-101.23017120361328,77.18907165527344,1.9409822890910053,6.306544040379267,-129.23618152744206,-30.67575,9.141726,-0.031399373,7.0838447,-13.429684,-11.2831135,12.404697,3.7364135,-6.1441464,43.6254,16.163387,0.7114428,15.320499,6.948996,10.175578,28.958908,11.870711,-20.304007,51.509712,43.51014,-11.550372,0.37167668,19.7285,-22.638506,14.58989,35.966503,2.1731458,-12.887337,7.889926
163,-51.179378509521484,-102.4708251953125,76.9644775390625,2.199218938011721,5.895006940143645,-129.20556469039764,-30.158497,8.495499,-0.30949798,7.18395,-13.529806,-10.39278,12.182848,2.9122438,-6.9905715,46.476864,16.24247,1.5006157,14.511178,6.7657385,10.515111,27.735111,11.902981,-19.675186,52.184353,43.737095,-11.2420435,-0.6041441,19.605692,-22.523664,14.760812,36.41659,2.6079602,-13.019799,7.703156
164,-52.14115905761719,-103.71593475341797,76.6800537109375,2.484927589424454,5.39612367915708,-129.13879708233284,-29.44415,7.7803535,-0.6442989,7.3181887,-13.523879,-9.789716,11.95458,2.0617268,-7.7768254,49.585182,15.538931,1.8459309,13.671154,6.534274,10.939201,26.413002,12.064807,-19.195807,52.841686,43.898544,-10.875414,-1.4999347,19.497627,-22.337862,14.894752,36.948807,2.8129747,-13.072455,7.4911895
165,-53.09105682373047,-104.95450592041016,76.32695007324219,2.7583299717076493,4.736042570401703,-129.0171996039807,-28.401539,7.042931,-1.0593022,7.4541054,-13.694742,-9.566011,11.837307,1.2781773,-8.541749,52.962955,13.832787,1.6359649,12.748888,6.3049,11.504366,25.006544,12.34692,-18.856718,53.4736,43.988064,-10.424823,-2.3649697,19.408142,-22.113401,15.016407,37.5651,2.7238941,-13.020917,7.235009
166,-54.02425003051758,-106.18222045898438,75.9029769897461,3.0561350023130625,3.945698865555218,-128.83089153780386,-27.07621,6.251684,-1.601496,7.6300287,-13.934691,-9.555029,11.791031,0.52658266,-9.309364,56.60856,11.282545,1.0476464,11.723514,6.0257344,12.199928,23.492044,12.7392435,-18.660818,54.109383,44.02023,-9.896281,-3.2049582,19.310392,-21.845865,15.129047,38.272236,2.3906329,-12.879973,6.930318
167,-54.973018646240234,-107.4091796875,75.41419219970703,3.488846004259873,3.1673457632629267,-128.63182424839454,-26.380518,5.2953944,-2.2343576,9.304072,-14.445165,-9.6537895,11.607539,-0.29583934,-9.915069,60.460552,8.250279,0.3475969,10.670796,5.5596366,12.920611,21.873917,13.227454,-18.587309,54.73611,44.01385,-9.355198,-3.9159927,19.196558,-21.541382,15.237106,39.036064,1.9651663,-12.683317,6.6319823
168,-55.91671371459961,-108.63306427001953,74.89876556396484,4.154501419046624,2.537301164026367,-128.47733928954105,-26.759115,4.0661883,-2.8399587,12.969054,-14.921114,-9.761481,11.093294,-1.3009685,-10.217362,64.44554,5.105687,-0.22470999,9.666599,4.795301,13.558879,20.163338,13.794863,-18.608831,55.3344,43.98555,-8.867308,-4.394529,19.06231,-21.214039,15.345349,39.815918,1.6009779,-12.46628,6.394741
169,-56.78276824951172,-109.8058853149414,74.4211654663086,5.1491309482605265,2.078581463858021,-128.348125984459,-27.553522,2.4300542,-3.3991015,17.116322,-13.802384,-9.852993,10.227504,-2.5698318,-10.16126,68.63098,1.7858499,-0.6182666,8.6975765,3.6430383,14.083941,18.334469,14.428981,-18.768076,55.917084,43.933243,-8.484194,-4.6147933,18.902584,-20.885956,15.488947,40.612885,1.3173316,-12.256573,6.2265964
170,-57.67353820800781,-110.981201171875,73.87155151367188,6.343570654571862,1.7011406200732182,-128.2501492102438,-28.61536,0.5640661,-3.9349115,21.743158,-11.582318,-9.953862,9.1476755,-3.9134483,-9.825659,72.98626,-1.8278255,-0.95231134,7.7494903,2.2524683,14.551676,16.39453,15.120175,-19.063017,56.48363,43.84905,-8.159012,-4.629884,18.732454,-20.565626,15.655378,41.42552,1.0458696,-12.02812,6.10316
171,-58.59697341918945,-112.15934753417969,73.21366882324219,7.518169702667454,1.387862041894937,-128.26239188650555,-29.71231,-1.1309783,-4.281334,26.483543,-9.401204,-10.0801,7.8702207,-5.1043983,-9.291685,77.317535,-5.4635954,-1.263802,6.880606,0.8567582,14.981669,14.398719,15.857977,-19.39827,57.002316,43.739513,-7.809988,-4.454201,18.57055,-20.240833,15.779243,42.219143,0.80515426,-11.737606,6.0280066
172,-59.50756072998047,-113.32571411132812,72.50566101074219,8.49141538895487,1.1392552516944272,-128.445717692462,-30.63116,-2.3181956,-4.2885075,30.956226,-8.398945,-10.294477,6.3749237,-5.99002,-8.638658,81.4637,-8.868295,-1.5915545,6.1351776,-0.3547649,15.390772,12.391933,16.635592,-19.683996,57.459408,43.612503,-7.354965,-4.1014447,18.423553,-19.88778,15.795672,42.978477,0.608693,-11.343305,6.0024843
173,-60.38592529296875,-114.45746612548828,71.81880950927734,9.28779317954868,1.0218375574847105,-128.81267129805576,-31.48885,-2.9836528,-3.7949324,35.26324,-8.998453,-10.701097,4.512337,-6.60788,-7.800166,85.55873,-12.018846,-1.9811733,5.5328426,-1.4191662,15.751112,10.294763,17.46795,-19.99107,57.92873,43.420074,-6.7947917,-3.5504758,18.257605,-19.481808,15.693424,43.74733,0.46881407,-10.807953,6.0573764
174,-61.27875518798828,-115.5152587890625,71.17204284667969,10.008938016671577,1.0341900147215943,-129.31089880323808,-32.386944,-3.326096,-2.9205046,39.589108,-10.583145,-11.2590885,2.3128586,-7.038954,-6.7695947,89.66032,-15.05231,-2.398195,5.040752,-2.4424903,16.054466,8.090658,18.356485,-20.367601,58.41292,43.165546,-6.1697893,-2.8046396,18.064957,-19.017426,15.497164,44.544167,0.36480737,-10.165264,6.1788387
175,-62.20765686035156,-116.5156021118164,70.5728988647461,10.599992712022198,1.07533589136116,-129.90294555834612,-33.09135,-3.3725893,-1.9424148,43.67954,-12.737588,-11.847483,0.010995937,-7.2446694,-5.7183976,93.50065,-17.956367,-2.7692344,4.608205,-3.3462198,16.352224,5.922439,19.26608,-20.672323,58.800488,42.938522,-5.452632,-1.9121959,17.885605,-18.501865,15.215166,45.317543,0.26711962,-9.478297,6.300844
176,-63.17798614501953,-117.48229217529297,70.03766632080078,11.004711080303807,1.038540502015127,-130.55715576866973,-33.34822,-3.1712444,-1.142548,47.24508,-15.0279455,-12.346959,-2.1625814,-7.2109513,-4.8259506,96.80598,-20.710032,-3.030532,4.1735363,-4.043188,16.69909,3.9362762,20.148264,-20.733843,58.992607,42.83792,-4.607434,-0.91620475,17.759253,-17.957024,14.869476,46.01568,0.15101758,-8.809071,6.3558064
177,-64.14358520507812,-118.45862579345703,69.54644012451172,11.181212161154292,0.8657770226516212,-131.26921450322143,-33.047184,-2.71152,-0.5827393,50.247074,-17.57913,-12.718056,-4.1391497,-6.9167986,-4.137438,99.53092,-23.354113,-3.2104921,3.7142494,-4.461766,17.149937,2.10937,20.966171,-20.465916,59.05304,42.949635,-3.5100267,0.24823819,17.739355,-17.396048,14.413094,46.580822,0.026778355,-8.110837,6.306895
178,-65.13153076171875,-119.44300842285156,69.11652374267578,11.17442008489038,0.6204872025123073,-132.05349519277289,-32.328476,-2.0322733,-0.07810126,52.830612,-20.549427,-13.016123,-6.061011,-6.414051,-3.5665793,101.82166,-25.873362,-3.3367965,3.2489436,-4.6562133,17.66125,0.3524498,21.717619,-19.965218,59.058636,43.19643,-2.2042854,1.5808529,17.794046,-16.827307,13.863635,47.054447,-0.09064152,-7.3697047,6.1955833
179,-66.12580871582031,-120.4299545288086,68.74652862548828,11.069821835857114,0.3757031841916168,-132.90744952405677,-31.317095,-1.2445053,0.43951532,54.982212,-23.543797,-13.267844,-8.019185,-5.817146,-3.1102393,103.684204,-28.156662,-3.3661304,2.7796192,-4.731686,18.14466,-1.2761849,22.419527,-19.311834,58.914394,43.442745,-0.9071179,2.945273,17.84482,-16.274673,13.33642,47.52094,-0.21645413,-6.6963367,6.0725536
180,-67.14140319824219,-121.41667938232422,68.43846130371094,10.954313796123941,0.20601688999419437,-133.82831411891763,-30.144836,-0.43146393,1.0092828,56.685577,-26.167152,-13.519343,-10.103076,-5.242848,-2.7543604,105.11822,-30.093317,-3.2462347,2.3007805,-4.7978663,18.51484,-2.6871192,23.103647,-18.559877,58.487106,43.567963,0.15609328,4.210929,17.813421,-15.771102,12.953057,48.055466,-0.36264834,-6.2009225,5.989941
181,-68.16826629638672,-122.37031555175781,68.20606231689453,10.852044652721831,0.11200400538983533,-134.86269527961562,-28.785849,0.43848893,1.6351465,57.921524,-28.363228,-13.773177,-12.359523,-4.72281,-2.452281,106.123886,-31.644264,-2.9096396,1.8239454,-4.897315,18.77649,-3.7938612,23.793112,-17.58506,57.627308,43.713993,0.97329336,5.4194145,17.644482,-15.338409,12.794827,48.711636,-0.4903194,-5.945396,5.938291
182,-69.18721008300781,-123.28659057617188,68.04277038574219,10.719815407554929,0.05613415246950885,-135.99417709180202,-27.191004,1.401581,2.2903733,58.71728,-30.328112,-14.009981,-14.736997,-4.2174497,-2.2255862,106.69217,-32.863205,-2.4064467,1.3264301,-4.9766803,18.975159,-4.613222,24.497766,-16.34959,56.38465,43.894176,1.6466154,6.611233,17.391014,-14.979449,12.797939,49.42095,-0.59479487,-5.8586755,5.9019485
183,-70.22224426269531,-124.1689682006836,67.94111633300781,10.539866949221874,0.057542145795440536,-137.12477662072368,-25.466331,2.398985,2.9473152,59.130726,-32.048878,-14.258581,-17.176672,-3.7380407,-2.155086,106.80688,-33.782223,-1.8559781,0.75975394,-4.9985337,19.087854,-5.206846,25.228039,-15.048927,54.918247,43.803814,2.1079392,7.663965,17.143383,-14.68938,12.855975,50.071037,-0.74393404,-5.851409,5.9248586
184,-71.2856674194336,-125.0301742553711,67.90003204345703,10.292963805633057,0.13575213759393864,-138.15686154599945,-23.720114,3.372059,3.576971,59.21827,-33.51266,-14.545094,-19.618744,-3.2989514,-2.3180425,106.451744,-34.434086,-1.3755336,0.088014476,-4.9220867,19.093157,-5.655614,25.987398,-13.90256,53.40128,43.13854,2.2793493,8.457957,17.00119,-14.452896,12.850625,50.546307,-1.0106293,-5.835379,6.051397
185,-72.36798095703125,-125.89395141601562,67.9315185546875,9.948185710738075,0.3277650055451541,-139.0496878668498,-22.009665,4.3430686,4.1502743,58.97911,-34.74806,-14.887917,-22.134165,-2.8516006,-2.7266994,105.57858,-34.776787,-0.92726576,-0.7243726,-4.7062197,18.950188,-5.96219,26.77761,-12.9613495,51.85454,41.740322,2.0613127,8.967937,16.990442,-14.256621,12.7337,50.79856,-1.4950548,-5.7959504,6.328222
186,-73.46556854248047,-126.7533187866211,68.0404281616211,9.578767853527586,0.6124981691166874,-139.83588742043554,-20.269224,5.216333,4.6950555,58.359203,-35.726837,-15.000033,-24.722235,-2.4997218,-3.2911913,104.22384,-34.842403,-0.4394969,-1.65494,-4.43347,18.68083,-6.0981097,27.594738,-12.125626,50.199486,39.799366,1.5187305,9.241061,17.064926,-14.093401,12.555785,50.89757,-2.1412203,-5.7816696,6.7183623
187,-74.58912658691406,-127.6052474975586,68.22035217285156,9.193827954768375,0.9184440597179789,-140.57904781936642,-18.431416,6.0093594,5.2191925,57.42318,-36.41473,-15.000033,-27.195969,-2.3299649,-4.0243883,102.449974,-34.72784,-0.04023748,-2.6076937,-4.124625,18.37298,-6.09687,28.42616,-11.387318,48.45951,37.533188,0.8245041,9.269441,17.214941,-13.952952,12.355557,50.906048,-2.787275,-5.79784,7.1407213
188,-75.75659942626953,-128.45013427734375,68.4648208618164,8.855661397119976,1.1782200779380423,-141.32211783070431,-16.42503,6.6726093,5.757919,56.1952,-36.747784,-15.000033,-29.371351,-2.4684052,-4.9147024,100.34379,-34.54654,0.16935463,-3.499505,-3.8547194,18.102482,-6.013805,29.253153,-10.756539,46.67864,35.154285,0.15711845,9.062774,17.433828,-13.823497,12.16091,50.888737,-3.2745938,-5.8462048,7.513235
189,-76.9532699584961,-129.27635192871094,68.76679229736328,8.573159685877684,1.3782335469796327,-142.05152825810143,-14.208965,7.197548,6.305844,54.600437,-36.737892,-15.000033,-31.201843,-2.9990995,-6.039299,97.88941,-34.346134,0.117958084,-4.3293133,-3.630158,17.889027,-5.8738675,30.072979,-10.2615,44.860462,32.50196,-0.46630734,8.528068,17.73333,-13.697392,11.961183,50.83365,-3.6004107,-5.9268613,7.8284874
190,-78.18145751953125,-130.0939483642578,69.11837005615234,8.312241572468189,1.5559604403478309,-142.75414389843993,-11.8332815,7.621993,6.8378205,52.65125,-36.4076,-15.000033,-32.756096,-3.8142183,-7.395461,95.05867,-34.07583,-0.107261226,-5.1284184,-3.4127905,17.690514,-5.652234,30.8865,-9.89352,42.991333,29.52632,-1.0921655,7.683743,18.110529,-13.574457,11.743206,50.722424,-3.8406963,-6.0377407,8.122442
191,-79.45173645019531,-130.9140625,69.5230941772461,8.074869172632859,1.7217698088614966,-143.4725379702154,-9.364671,7.9437604,7.3613377,50.49818,-35.709335,-15.000033,-34.03384,-4.7345004,-8.862248,91.91706,-33.694313,-0.37232682,-5.86475,-3.2107897,17.4851,-5.33387,31.674932,-9.607761,41.095203,26.615896,-1.6568037,6.7338614,18.53519,-13.455238,11.534344,50.610126,-3.95137,-6.174154,8.3780575
192,-80.75518035888672,-131.7295684814453,69.97312927246094,7.8635820259156155,1.8852304083404396,-144.24924354227025,-6.870713,8.163694,7.889131,48.291172,-34.594067,-15.000033,-35.05076,-5.584233,-10.310548,88.52186,-33.149868,-0.55123293,-6.5066133,-3.0294764,17.249401,-4.906412,32.410366,-9.358873,39.20236,24.16947,-2.1285722,5.898098,18.977243,-13.344387,11.360555,50.55307,-3.8887427,-6.3307858,8.577956
193,-82.09691619873047,-132.55404663085938,70.45433044433594,7.68201158974203,2.051108567686968,-145.09470144741698,-4.3215766,8.262476,8.406735,45.973034,-33.022358,-15.000033,-35.786217,-6.3868527,-11.797418,84.83351,-32.368637,-0.6013652,-7.0471377,-2.8641782,16.975286,-4.362665,33.07683,-9.158781,37.326714,22.283798,-2.5324512,5.236742,19.431732,-13.2537365,11.234778,50.561516,-3.5903986,-6.5199304,8.714248
194,-83.47335815429688,-133.36854553222656,70.95822143554688,7.526495486359046,2.214741729102018,-145.98834696578547,-1.7040768,8.251047,8.907383,43.493954,-31.028622,-15.000033,-36.2377,-7.1775603,-13.384823,80.83336,-31.3954,-0.5811774,-7.5026164,-2.7044504,16.673664,-3.7158563,33.674213,-9.023059,35.456703,20.758884,-2.8928409,4.648606,19.916674,-13.189808,11.139209,50.603374,-3.0949552,-6.7383127,8.799294
195,-84.89077758789062,-134.1760711669922,71.48102569580078,7.389256972397657,2.370401364313609,-146.92580869132846,0.89013183,8.175573,9.419884,41.02414,-28.670294,-15.000033,-36.46601,-7.810649,-14.930048,76.59229,-30.34475,-0.52672154,-7.875836,-2.5479999,16.349077,-2.9807422,34.197956,-8.91012,33.582947,19.554523,-3.1986377,4.117237,20.435316,-13.142809,11.056997,50.67311,-2.5090585,-6.958057,8.845407
196,-86.3482437133789,-134.96031188964844,72.01194763183594,7.264843317899579,2.5117497469607515,-147.9022502188694,3.3701277,8.082881,9.979563,38.743725,-26.00648,-15.000033,-36.538517,-8.155968,-16.274456,72.16632,-29.333916,-0.48179886,-8.169479,-2.3968742,16.006567,-2.1744356,34.64426,-8.778662,31.698414,18.632914,-3.4352298,3.6262538,20.98717,-13.098307,10.968718,50.770233,-1.9432194,-7.151591,8.8607235
197,-87.82917022705078,-135.74545288085938,72.53781127929688,7.142045912121618,2.639695218969578,-148.95056373340816,5.7531233,7.9967732,10.647274,36.67751,-23.014174,-15.000033,-36.457153,-8.156969,-17.362228,67.474945,-28.352707,-0.4749267,-8.350748,-2.243955,15.65068,-1.2861514,35.009598,-8.630036,29.780405,18.081879,-3.5731688,3.2073605,21.570023,-13.048389,10.867148,50.905453,-1.4074455,-7.3205223,8.827262
198,-89.35494995117188,-136.52047729492188,73.05926513671875,7.030718236506374,2.754269580418067,-150.06319611304465,8.070035,7.8860803,11.391549,34.75737,-19.683975,-15.000033,-36.19281,-7.8832603,-18.26841,62.48402,-27.341347,-0.4795419,-8.424386,-2.097995,15.278602,-0.31989658,35.295525,-8.489369,27.843016,17.893814,-3.6386323,2.8630342,22.182796,-12.994989,10.758458,51.079033,-0.8533225,-7.4780536,8.7444515
199,-90.91413879394531,-137.27777099609375,73.55816650390625,6.960203355040422,2.8481739933595684,-151.17385612532593,10.252838,7.7179093,12.111568,33.021988,-16.0867,-15.000033,-35.77263,-7.4183397,-19.011414,57.3192,-26.330568,-0.4651406,-8.452561,-1.9881512,14.884852,0.6944558,35.50742,-8.345548,25.927076,17.88794,-3.6949122,2.5302956,22.825766,-12.937071,10.64564,51.275528,-0.3025486,-7.613061,8.645447
200,-92.50446319580078,-138.01187133789062,74.03031921386719,6.961187648840087,2.9155585004583986,-152.2149842538591,12.229302,7.466684,12.703846,31.51586,-12.286953,-15.000033,-35.229424,-6.86231,-19.604382,52.114967,-25.35321,-0.41095844,-8.499516,-1.9462008,14.464496,1.7264873,35.65459,-8.1856575,24.075891,17.881052,-3.804404,2.1449828,23.496696,-12.875086,10.531636,51.480846,0.22269256,-7.713848,8.562448
201,-94.12715148925781,-138.72669982910156,74.4706802368164,7.023721484761877,2.949171773503913,-153.1973507852051,13.981952,7.1646237,13.20279,30.280788,-8.140339,-15.000033,-34.505703,-6.1989594,-20.013477,46.746525,-24.422173,-0.4139587,-8.557703,-1.9624419,14.023949,2.7891226,35.734894,-7.995204,22.261831,17.952297,-3.952533,1.6451612,24.20669,-12.809603,10.426585,51.695362,0.71220386,-7.7675853,8.48418
202,-95.77404022216797,-139.44320678710938,74.88005828857422,7.153392600252399,2.950194597219341,-154.14375257367905,15.542161,6.8039045,13.63214,29.298857,-3.6603034,-15.000033,-33.585102,-5.42365,-20.214422,41.149673,-23.495493,-0.46745843,-8.606231,-2.0472062,13.567737,3.8964076,35.75709,-7.7851944,20.467318,18.149952,-4.119887,1.0785971,24.954517,-12.741798,10.327215,51.9217,1.1816013,-7.7836337,8.40075
203,-97.43972778320312,-140.16546630859375,75.26934051513672,7.40352444636879,2.9284125976672044,-155.00184300995178,16.924494,6.310935,13.875511,28.492523,0.8733888,-15.000033,-32.564255,-4.6770525,-20.236847,35.557198,-22.532719,-0.41106877,-8.70388,-2.257747,13.089571,5.042912,35.73316,-7.5537996,18.730257,18.25611,-4.353743,0.5398956,25.704264,-12.657364,10.226544,52.160446,1.6405308,-7.783438,8.341525
204,-99.1275863647461,-140.89808654785156,75.63587188720703,7.822098518075524,2.8953371017615748,-155.71752071264967,18.149937,5.6311893,13.829051,27.778662,5.182446,-15.000033,-31.557863,-4.1128073,-20.118217,30.239859,-21.507755,-0.09512935,-8.887927,-2.6257164,12.567548,6.1463637,35.65947,-7.3714557,17.160164,18.044912,-4.694951,0.1358069,26.461756,-12.565533,10.095774,52.385994,2.1108985,-7.7860565,8.346005
205,-100.83172607421875,-141.62774658203125,75.95785522460938,8.497348096556541,2.8398774211367606,-156.2568370634407,19.28011,4.6607633,13.428584,26.985563,9.4649935,-15.000033,-30.555178,-3.8731763,-19.900763,25.188057,-20.394482,0.60080564,-9.199833,-3.233143,11.977761,7.2268844,35.53994,-7.240224,15.742802,17.41976,-5.163485,-0.132146,27.241121,-12.4670105,9.93516,52.598904,2.6183522,-7.7881236,8.421556
206,-102.53187561035156,-142.35389709472656,76.22502136230469,9.394341239327888,2.749870900553628,-156.64458934725792,20.319185,3.4785867,12.759398,26.184488,13.815251,-15.000033,-29.509947,-3.9248254,-19.548685,20.316404,-19.241333,1.5353298,-9.619067,-4.049104,11.336217,8.297594,35.37175,-7.143713,14.447005,16.51407,-5.731574,-0.3172059,28.045275,-12.356861,9.751885,52.804096,3.1441145,-7.7811985,8.547891
207,-104.23310089111328,-143.0537567138672,76.42164611816406,10.357917979325585,2.6425258930176816,-156.9205990232822,21.212627,2.309516,11.94717,25.621477,17.805641,-15.000033,-28.509445,-4.1349206,-18.994307,15.825828,-18.14829,2.474228,-10.094804,-4.9252124,10.681602,9.298845,35.161003,-7.0968604,13.328412,15.438057,-6.3697276,-0.3999105,28.85137,-12.236931,9.542335,52.984207,3.6462476,-7.7750583,8.727633
208,-105.9223861694336,-143.74913024902344,76.5545883178711,11.211788014601696,2.550982351337349,-157.1324313606447,21.866379,1.3719994,11.10704,25.572899,20.972391,-15.000033,-27.629747,-4.309231,-18.17544,11.859758,-17.17454,3.1960216,-10.560445,-5.689755,10.048807,10.1594515,34.906563,-7.1182847,12.454093,14.307709,-7.0510445,-0.3568109,29.629715,-12.10481,9.29792,53.13118,4.0786867,-7.7805815,8.960789
209,-107.6019287109375,-144.42576599121094,76.62743377685547,11.889624570194297,2.538285605346901,-157.2654854483193,22.166801,0.7480845,10.270479,26.154167,23.091324,-15.000033,-26.87185,-4.3134627,-17.01455,8.213465,-16.228043,3.6487458,-11.005602,-6.264845,9.388644,10.855551,34.604996,-7.2243366,11.859238,13.033078,-7.8597193,-0.18086688,30.394156,-11.95668,9.001015,53.231808,4.4010034,-7.8126993,9.274366
210,-109.26117706298828,-145.08181762695312,76.63261413574219,12.442557996121582,2.5955024220873195,-157.32273308939114,22.153679,0.33651826,9.394771,27.23975,24.415752,-15.000033,-27.559988,-4.6084805,-15.462978,7.832209,-16.86122,3.9550033,-11.435059,-6.6962705,8.689776,11.413775,34.253918,-7.4103,11.516668,11.598084,-8.787364,0.10868206,31.145473,-11.79118,8.6579485,53.305626,4.645712,-7.8617983,9.659159
211,-110.90582275390625,-145.71461486816406,76.57343292236328,12.866851014397243,2.6599312491397633,-157.3816559402153,21.94528,0.06623666,8.479155,28.739351,25.194098,-15.000033,-28.223001,-4.730246,-13.796264,7.724461,-17.436703,4.1518397,-11.798913,-6.997839,8.040997,11.842204,33.853703,-7.6601825,11.398358,10.230493,-9.667976,0.50819683,31.832413,-11.613385,8.295672,53.395245,4.8768373,-7.902097,10.061282
212,-112.5252685546875,-146.33087158203125,76.45763397216797,13.17525166470726,2.6638509635701157,-157.5161291964415,21.675402,-0.14474148,7.5219297,30.54445,25.680296,-15.000033,-28.62529,-4.6611714,-12.201231,7.6613955,-17.771442,4.314774,-12.053817,-7.202626,7.532028,12.156488,33.406025,-7.9523306,11.468814,9.15727,-10.332617,1.0263143,32.405945,-11.431823,7.943016,53.539017,5.1598387,-7.907096,10.4278965
213,-114.115234375,-146.9283905029297,76.28229522705078,13.453858222097425,2.561348907605163,-157.71473091871837,21.395885,-0.410293,6.5010138,32.629974,25.993189,-15.000033,-28.702715,-4.495155,-10.576679,7.6409135,-17.979214,4.6784673,-12.214142,-7.402025,7.187135,12.358604,32.911266,-8.297689,11.72668,8.40763,-10.738507,1.7337853,32.877815,-11.252427,7.591753,53.727425,5.5617366,-7.8693175,10.764282
214,-115.69654083251953,-147.52102661132812,76.06307220458984,13.670467307900507,2.4043517511996706,-157.95274700696066,21.04021,-0.6741259,5.4354467,35.03375,25.98376,-15.000033,-28.53628,-4.2063603,-8.882286,7.658422,-18.03847,5.1608534,-12.291815,-7.553032,6.9555435,12.450849,32.367622,-8.695116,12.184351,7.870844,-10.97592,2.6142616,33.265396,-11.075446,7.2343163,53.946194,6.033012,-7.801807,11.0933275
215,-117.27979278564453,-148.1168212890625,75.80524444580078,13.665049488869707,2.267055969500184,-158.2803676763578,20.572931,-0.7659969,4.3846908,37.73226,25.508608,-15.000033,-28.201324,-3.6454382,-7.3784695,7.70698,-17.689434,5.3571544,-12.244824,-7.4935675,6.817382,12.450136,31.773499,-9.100235,12.8233595,7.5597906,-11.0693,3.549666,33.527008,-10.9023075,6.90143,54.22553,6.4640675,-7.70985,11.386865
216,-118.85614013671875,-148.74290466308594,75.49608612060547,13.283777113188943,2.213541898887152,-158.74221387835595,19.971712,-0.5276987,3.3965974,40.68611,24.430172,-15.000033,-27.764696,-2.6510897,-6.3218455,7.7813983,-16.684526,4.857832,-12.042649,-7.069662,6.756279,12.380562,31.127972,-9.46078,13.61752,7.486574,-11.040384,4.4181757,33.62156,-10.736384,6.6284075,54.59278,6.7463255,-7.599805,11.617447
217,-120.4075698852539,-149.36978149414062,75.15946960449219,12.419319567718459,2.240584188513862,-159.36634752999328,19.258816,0.08662634,2.4269915,43.92611,22.553621,-15.000033,-27.844517,-1.180824,-5.848217,9.321582,-15.508038,3.408808,-11.663063,-6.179332,6.7906823,12.241761,30.422712,-9.761196,14.573307,7.7234178,-10.837669,5.2117777,33.524963,-10.580139,6.4224796,55.080326,6.8664427,-7.4695244,11.771979
218,-121.91024780273438,-149.87779235839844,74.84278869628906,11.229600602000707,2.2579659053724144,-160.09663415455944,18.525284,0.902652,1.4343507,47.398796,20.01838,-15.000033,-28.958815,0.51172316,-5.874405,13.5274515,-14.991956,1.3003541,-11.171216,-4.9842954,6.947738,12.03858,29.658165,-10.013568,15.684799,8.235518,-10.458622,5.980766,33.27692,-10.436535,6.268504,55.647484,6.8776894,-7.3177977,11.866374
219,-123.40110778808594,-150.38137817382812,74.46256256103516,9.968699787004592,2.2062883404123315,-160.84934108299606,17.830595,1.7547609,0.46717018,50.954548,17.189928,-15.000033,-30.010792,2.2477057,-6.2559853,17.866285,-14.276856,-1.0782354,-10.667492,-3.73741,7.2182236,11.801396,28.854666,-10.209387,16.906443,8.872672,-10.0015335,6.691273,32.92993,-10.310456,6.169711,56.213917,6.7734523,-7.1529045,11.917421
220,-124.89517974853516,-150.91026306152344,73.99217224121094,8.846814818851264,2.075891279785759,-161.5619134412363,17.163431,2.5506082,-0.40641022,54.496128,14.418025,-15.000033,-31.088701,3.8035102,-6.7173686,22.306913,-13.836632,-3.3833303,-10.222978,-2.6448996,7.5716577,11.560699,28.041275,-10.342893,18.191553,9.4838705,-9.569232,7.3148165,32.52067,-10.206961,6.131791,56.714565,6.5493083,-6.983099,11.944563
221,-126.36831665039062,-151.41299438476562,73.4583740234375,7.856157441104567,1.8703780377606691,-162.2308082771358,16.514437,3.381492,-1.1376938,58.10338,11.6383,-15.000033,-32.394745,5.196045,-7.1925287,27.240246,-13.8568,-5.71894,-9.844721,-1.7058529,8.020757,11.312902,27.247288,-10.396606,19.480621,10.043007,-9.129788,7.772591,32.046944,-10.121812,6.180704,57.141518,6.2328362,-6.8230853,11.931661
222,-127.79964447021484,-151.89247131347656,72.86786651611328,6.911140278155302,1.602420200011246,-162.88368484875178,15.8589115,4.2786536,-1.7696186,61.826725,8.706818,-15.000033,-33.85333,6.4634624,-7.7649264,32.65326,-14.150001,-8.279235,-9.502018,-0.84007144,8.568663,11.056848,26.477615,-10.377307,20.794481,10.614404,-8.649295,8.102108,31.48233,-10.048634,6.311659,57.53477,5.8207846,-6.663828,11.879758
223,-129.20936584472656,-152.3583526611328,72.26441192626953,6.028568452671942,1.3229021769769715,-163.53712464622492,15.120869,5.1496377,-2.3641253,65.54226,5.835828,-15.000033,-35.14177,7.570949,-8.352396,37.840374,-14.58851,-10.831613,-9.167648,-0.047817912,9.15006,10.815321,25.710823,-10.324661,22.223959,11.188638,-8.228936,8.456376,30.81896,-9.991067,6.481666,57.912113,5.2612877,-6.4784527,11.835652
224,-130.60235595703125,-152.82510375976562,71.68988800048828,5.212349624898267,1.0879832747746683,-164.20991917972157,14.2212925,5.9070725,-2.9898882,69.11837,3.2591033,-15.000033,-35.99259,8.552283,-8.904642,42.145435,-15.02654,-13.071335,-8.808795,0.68953913,9.695118,10.604802,24.908476,-10.279071,23.874754,11.763218,-7.9697223,8.991305,30.053839,-9.960444,6.64546,58.287464,4.5015564,-6.2404838,11.846673
225,-131.98118591308594,-153.3162841796875,71.17488098144531,4.399956982324107,0.9660094654610085,-164.94705762418636,13.090691,6.5495596,-3.7148838,72.595505,1.0463376,-15.000033,-36.427063,9.520675,-9.498337,45.396984,-15.291684,-14.882223,-8.365387,1.4543669,10.155143,10.414921,24.009361,-10.21511,25.855005,12.363293,-7.919932,9.797407,29.15088,-9.970657,6.7897034,58.732296,3.5255706,-5.9174533,11.959742
226,-133.34324645996094,-153.85023498535156,70.72885131835938,3.7241277783123334,0.9348414970907615,-165.66947788026775,11.712509,6.9544344,-4.5297713,76.0215,-0.8787275,-15.000033,-36.712402,10.287512,-9.871557,48.20257,-15.602,-15.000033,-7.9248724,2.1330566,10.528464,10.215972,22.996548,-10.128344,28.116306,13.010501,-8.014704,10.784081,28.116953,-10.034791,6.9362597,59.224308,2.3598058,-5.5341964,12.140447
227,-134.71774291992188,-154.35430908203125,70.31945037841797,3.0910698170234583,0.8926889434080773,-166.39022178704047,10.244737,7.3396516,-5.3307657,79.29024,-2.6267338,-15.000033,-36.73258,11.08469,-10.173965,50.56367,-16.110266,-15.000033,-7.5079665,2.7933197,10.909244,10.036285,21.929028,-10.078203,30.490557,13.685032,-8.179762,11.831942,27.030827,-10.15374,7.1075845,59.622345,1.0178428,-5.149275,12.315104
228,-136.1017303466797,-154.8251953125,69.93505096435547,2.599769432418539,0.7455244932873295,-167.03441700575718,8.77671,7.710293,-6.0494246,82.284386,-4.255341,-15.000033,-36.454758,11.8142,-10.291605,52.723812,-17.111483,-15.000033,-7.2072697,3.3135123,11.361831,9.914989,20.906534,-10.136127,32.79479,14.3392935,-8.343583,12.821259,25.968498,-10.312756,7.315833,59.788105,-0.485576,-4.818553,12.412655
229,-137.47122192382812,-155.27284240722656,69.59114837646484,2.3275397333427543,0.41691780178493254,-167.5871197961553,7.3837237,8.046944,-6.6542788,84.98444,-5.684761,-15.000033,-35.78122,12.419818,-10.161417,54.781815,-18.905321,-15.000033,-7.059189,3.569879,11.968288,9.899436,20.002466,-10.310661,34.999172,14.892611,-8.497677,13.85123,24.93215,-10.480451,7.5522337,59.667175,-2.361125,-4.507344,12.453154
230,-138.8278045654297,-155.67431640625,69.28404998779297,2.206660729174121,-0.021613041392988135,-168.08766075788841,5.996707,8.369619,-7.207886,87.455154,-6.9175844,-15.000033,-34.757305,12.960851,-9.892609,56.619846,-21.27607,-15.000033,-6.988231,3.6236196,12.679884,9.985738,19.225754,-10.583738,37.158348,15.3579,-8.677026,14.9373,23.89001,-10.636843,7.815763,59.341774,-4.545908,-4.2024503,12.468459
231,-140.17178344726562,-156.03578186035156,69.01812744140625,2.1200976696286746,-0.4422169372386982,-168.54103377809332,4.4797077,8.741908,-7.7745743,89.703674,-8.134845,-15.000033,-33.55423,13.497156,-9.5908375,58.143738,-23.748484,-15.000033,-6.9238415,3.6329386,13.365668,10.128957,18.573109,-10.984686,39.229965,15.823607,-8.879301,15.832936,22.86701,-10.78555,8.125376,58.8776,-6.6117535,-3.9843612,12.395931
232,-141.51158142089844,-156.38438415527344,68.79829406738281,1.948706885137685,-0.7176512616441124,-168.951281736269,2.690463,9.221258,-8.413865,91.73159,-9.508901,-15.000033,-32.351097,14.083525,-9.349655,59.26197,-25.839703,-15.000033,-6.8027854,3.7631607,13.894065,10.282086,18.031418,-11.537577,41.17268,16.37835,-9.103219,16.291483,21.887867,-10.944643,8.498636,58.335712,-8.128194,-3.9290252,12.167706
233,-142.85733032226562,-156.71743774414062,68.63251495361328,1.6506343531508914,-0.7976307953633511,-169.28093908478246,0.5124976,9.860117,-9.165358,93.583786,-11.128557,-15.000033,-31.197628,14.719336,-9.21213,59.927197,-27.460285,-15.000033,-6.6459527,4.0783854,14.211766,10.399121,17.604025,-12.313705,43.02769,16.980255,-9.349316,16.13503,20.954655,-11.135125,8.987124,57.704235,-8.93559,-4.087436,11.718219
234,-144.18728637695312,-157.02574157714844,68.51506805419922,1.288795795994064,-0.7553538021561955,-169.54395200272205,-1.9674032,10.606061,-9.996057,95.23946,-12.88288,-15.000033,-30.0028,15.376785,-9.108441,60.20312,-28.855164,-15.000033,-6.4765544,4.489485,14.392942,10.5092,17.289854,-13.273717,44.80949,17.597677,-9.62768,15.530905,20.059566,-11.354463,9.564827,56.950455,-9.277156,-4.4071717,11.097678
235,-145.51687622070312,-157.3189239501953,68.45768737792969,0.9016286188431779,-0.6508934316205872,-169.8217521864135,-4.5832295,11.361166,-10.844249,96.596695,-14.640696,-15.000033,-28.727385,16.068024,-8.954963,60.152317,-30.037674,-15.000033,-6.238514,4.936384,14.497672,10.675963,17.058897,-14.27144,46.435623,18.342554,-9.95169,14.751915,19.209505,-11.583895,10.133855,56.107433,-9.329346,-4.809855,10.407505
236,-146.83737182617188,-157.59454345703125,68.45536804199219,0.5699882314210196,-0.5467351052249185,-170.19068313176274,-7.1636624,12.003733,-11.606715,97.55058,-16.260645,-15.000033,-27.337769,16.76018,-8.647239,59.88003,-31.045786,-15.000033,-5.881722,5.3196597,14.582214,10.958329,16.869589,-15.159794,47.832344,19.340254,-10.332794,14.07689,18.407864,-11.801723,10.597242,55.215702,-9.269145,-5.214023,9.744424
237,-148.17120361328125,-157.88092041015625,68.51422882080078,0.539242407717032,-0.4614076538482669,-170.65161727638232,-9.776368,12.55518,-11.818338,98.06114,-17.698563,-14.074287,-25.84538,17.204533,-8.019534,59.603737,-32.032475,-15.000033,-5.399243,5.400294,14.638412,11.346073,16.705877,-15.920875,49.00515,20.766087,-10.851922,13.493862,17.639023,-12.001819,10.945389,54.297237,-9.065874,-5.630559,9.08993
238,-149.5137481689453,-158.16165161132812,68.63162231445312,0.5390874230125081,-0.358955860364512,-171.18783278205044,-12.460392,13.26661,-11.631277,98.21574,-19.099575,-12.1384945,-24.219107,17.644354,-7.2516437,59.060955,-32.849163,-15.000033,-4.7989216,5.467142,14.65633,11.795198,16.570211,-16.62749,50.010487,22.518194,-11.485095,12.899196,16.903852,-12.194172,11.220812,53.33448,-8.657705,-6.0972176,8.405263
239,-150.85169982910156,-158.42396545410156,68.7938003540039,0.6055589349093858,-0.24121461677090095,-171.7591118566746,-15.063279,13.830794,-11.325308,97.96698,-20.364372,-10.310768,-22.507093,18.009268,-6.3798246,58.339554,-33.500668,-15.000033,-4.1391983,5.471949,14.636967,12.307072,16.453074,-17.262014,50.86428,24.315966,-12.075626,12.427938,16.220734,-12.379311,11.409787,52.321304,-8.17083,-6.5670576,7.749767
240,-152.20950317382812,-158.67633056640625,69.01177215576172,0.7851964428580304,-0.10953879152809037,-172.3235313564005,-17.48729,14.169632,-10.895224,97.26419,-21.36675,-8.829864,-20.76165,18.215874,-5.430488,57.53689,-33.994705,-15.000033,-3.479117,5.368176,14.582584,12.882056,16.338608,-17.807371,51.58682,25.883417,-12.454722,12.202919,15.605166,-12.553145,11.499858,51.25628,-7.730517,-6.989135,7.177434
