unveil-humanoid-operators/unveil-humanoid-operators.github.io/feature-analysis-animation/data/feature_matrix_instances/height_root_translate_rom_jogging_A196_jog_ff_stop_180_R_002__A196.csv
Frame,root_translateX,root_translateY,root_translateZ,root_rotateX,root_rotateY,root_rotateZ,left_hip_pitch_joint_dof,left_hip_roll_joint_dof,left_hip_yaw_joint_dof,left_knee_joint_dof,left_ankle_pitch_joint_dof,left_ankle_roll_joint_dof,right_hip_pitch_joint_dof,right_hip_roll_joint_dof,right_hip_yaw_joint_dof,right_knee_joint_dof,right_ankle_pitch_joint_dof,right_ankle_roll_joint_dof,waist_yaw_joint_dof,waist_roll_joint_dof,waist_pitch_joint_dof,left_shoulder_pitch_joint_dof,left_shoulder_roll_joint_dof,left_shoulder_yaw_joint_dof,left_elbow_joint_dof,left_wrist_roll_joint_dof,left_wrist_pitch_joint_dof,left_wrist_yaw_joint_dof,right_shoulder_pitch_joint_dof,right_shoulder_roll_joint_dof,right_shoulder_yaw_joint_dof,right_elbow_joint_dof,right_wrist_roll_joint_dof,right_wrist_pitch_joint_dof,right_wrist_yaw_joint_dof
0,-0.16035877168178558,1.568177580833435,73.9464340209961,-0.20875693997405503,8.536671231442382,-86.26888071091629,-8.209002,-0.15138213,1.4069986,37.737816,-36.933624,-0.38785815,-29.005445,-8.592666,-4.7762365,65.71786,-30.236866,-3.6698732,-0.51111424,-3.2018285,12.802677,-6.040219,17.297071,-24.68426,12.341059,19.239376,11.376193,-5.3438344,3.0433345,-17.84569,30.654099,20.490461,-7.3877883,4.321329,-2.749925
1,-0.13971661031246185,1.1195833683013916,73.7662582397461,-0.17221814913794575,8.70973774519074,-86.17920753889666,-8.092739,-0.17176521,1.3648363,38.022797,-37.344658,-0.46658605,-30.22695,-8.573395,-4.969977,66.67004,-30.078745,-3.721223,-0.7988302,-3.3285668,13.013709,-6.8300986,17.315464,-24.477642,11.640574,19.452345,11.312992,-5.301097,3.426377,-17.91754,30.361826,21.268995,-7.4088664,4.0389724,-3.4310558
2,-0.11323301494121552,0.6648882031440735,73.59437561035156,-0.1330012560145197,8.878123665607582,-86.09274876167824,-7.9843335,-0.19762275,1.3281316,38.330048,-37.765854,-0.54542613,-31.449123,-8.561633,-5.159911,67.66126,-29.923624,-3.7813487,-1.070028,-3.4546947,13.237013,-7.6194186,17.332005,-24.27703,10.957106,19.682737,11.239828,-5.27501,3.8391871,-18.026094,30.06302,22.008057,-7.4183216,3.74894,-4.122071
3,-0.09959381073713303,0.18919990956783295,73.42774200439453,-0.10076865455769801,9.055126854437262,-85.99864769612884,-7.8607125,-0.21431059,1.2825478,38.595333,-38.167034,-0.623308,-32.668552,-8.548756,-5.363259,68.574814,-29.76418,-3.819596,-1.3511648,-3.5655117,13.448323,-8.42405,17.346455,-24.085743,10.231165,19.870382,11.186033,-5.2108507,4.297983,-18.159147,29.742638,22.682657,-7.438564,3.4769428,-4.785797
4,-0.08651521056890488,-0.30042192339897156,73.2723388671875,-0.08558979548101436,9.254053746549712,-85.88593424917417,-7.7009287,-0.20624718,1.2131759,38.75896,-38.521214,-0.6989694,-33.88371,-8.526873,-5.5970674,69.29688,-29.595406,-3.8051696,-1.6585668,-3.64524,13.625846,-9.26761,17.360634,-23.91962,9.40497,19.952143,11.181645,-5.0521665,4.8323984,-18.313099,29.372469,23.253483,-7.4909573,3.248393,-5.382334
5,-0.09496787935495377,-0.816170334815979,73.1341323852539,-0.08087151608902626,9.48124262592415,-85.74890447458823,-7.511168,-0.18209279,1.1141435,38.818573,-38.82524,-0.7614185,-35.103924,-8.503987,-5.863436,69.803665,-29.434887,-3.7068586,-1.9956012,-3.6983018,13.767402,-10.166895,17.377409,-23.790787,8.478767,19.854935,11.233651,-4.7519507,5.440845,-18.481941,28.937675,23.753424,-7.615191,3.078987,-5.907205
6,-0.08348032087087631,-1.348575472831726,73.00675201416016,-0.08358524500174416,9.728559148098439,-85.59413412977628,-7.299078,-0.14496401,0.99327916,38.803093,-39.091465,-0.81450516,-36.327244,-8.48264,-6.1532416,70.15413,-29.280064,-3.5497408,-2.3521056,-3.7316663,13.882568,-11.103798,17.397095,-23.69041,7.4763417,19.629745,11.325714,-4.3498187,6.10939,-18.660547,28.45366,24.1948,-7.7886786,2.9531782,-6.379198
7,-0.0721328854560852,-1.899524450302124,72.89100646972656,-0.11098922475765392,9.98744535502952,-85.42956655316164,-7.041995,-0.071691506,0.85636735,38.69175,-39.31624,-0.87865967,-37.53333,-8.446245,-6.4663672,70.353714,-29.092056,-3.3841865,-2.724596,-3.7311187,13.969174,-12.049168,17.416737,-23.60283,6.373566,19.39819,11.453165,-3.9197547,6.85509,-18.850548,27.937107,24.501535,-7.9373803,2.8470967,-6.794043
8,-0.07384129613637924,-2.476893186569214,72.78752136230469,-0.1804616716422217,10.249274813164112,-85.26354113707025,-6.716838,0.06146735,0.70958024,38.463577,-39.492188,-0.97359335,-38.702442,-8.378534,-6.8030295,70.409546,-28.832699,-3.2626693,-3.1087625,-3.6813176,14.026092,-12.976929,17.431225,-23.51333,5.148912,19.282995,11.613473,-3.5361528,7.6990504,-19.059507,27.403532,24.588825,-7.98634,2.7377014,-7.146898
9,-0.07188218832015991,-3.0809357166290283,72.69967651367188,-0.2978731652851761,10.512778790938073,-85.09508621217228,-6.3236737,0.26423675,0.54944056,38.126488,-39.637505,-1.1077052,-39.842304,-8.281464,-7.1733027,70.329735,-28.498018,-3.218456,-3.5036085,-3.5762215,14.057946,-13.892568,17.436388,-23.423986,3.7892535,19.349169,11.834028,-3.202504,8.648687,-19.295216,26.850922,24.436773,-7.9284215,2.6236367,-7.417535
10,-0.08303933590650558,-3.7145652770996094,72.62918090820312,-0.4536139132975516,10.782440407027881,-84.92130543502964,-5.871945,0.524132,0.3746717,37.687298,-39.749954,-1.2670217,-40.95855,-8.162438,-7.5735464,70.106094,-28.105072,-3.2171426,-3.9103673,-3.4215326,14.066396,-14.806857,17.430841,-23.341307,2.3089712,19.521936,12.107969,-2.8853002,9.702164,-19.559084,26.270266,24.077322,-7.7965903,2.5152512,-7.613807
11,-0.09753341227769852,-4.378523826599121,72.57414245605469,-0.6413963790063489,11.058581456896997,-84.74711268125763,-5.354763,0.83137214,0.19526076,37.127644,-39.794758,-1.4416231,-42.02783,-8.015128,-7.986761,69.721466,-27.649195,-3.2097237,-4.328099,-3.2195454,14.04697,-15.7041,17.414272,-23.258171,0.7288569,19.713476,12.382099,-2.6038313,10.866691,-19.84791,25.665892,23.503637,-7.576654,2.4045246,-7.7723665
12,-0.10360245406627655,-5.062611103057861,72.53401184082031,-0.8545058440178097,11.341161290812877,-84.5776359785841,-4.7622395,1.1762964,0.021325348,36.4232,-39.73455,-1.6216074,-43.02698,-7.831683,-8.393584,69.15656,-27.123972,-3.1466944,-4.7569876,-2.974005,13.994559,-16.566963,17.387796,-23.165983,-0.9315943,19.837301,12.602014,-2.3764844,12.145224,-20.156643,25.042534,22.711811,-7.255666,2.2848861,-7.9302
13,-0.11364443600177765,-5.775933265686035,72.51392364501953,-1.102925717907719,11.630327037032162,-84.41844865785254,-4.0901966,1.57471,-0.13892655,35.566116,-39.592644,-1.8078189,-43.96086,-7.597906,-8.792936,68.39882,-26.50779,-3.0131602,-5.1931734,-2.6768138,13.913557,-17.3925,17.35013,-23.054703,-2.710091,19.896296,12.783591,-2.222847,13.557683,-20.482857,24.39066,21.657597,-6.818332,2.137053,-8.104422
14,-0.12439630180597305,-6.525820732116699,72.51294708251953,-1.3859260146872039,11.926056933266901,-84.26580678533828,-3.3435338,2.0269117,-0.29311702,34.572712,-39.378952,-2.000878,-44.83765,-7.3226275,-9.191026,67.45775,-25.810497,-2.8354075,-5.6365294,-2.3295422,13.8078165,-18.189423,17.30113,-22.932667,-4.603787,19.929214,12.944929,-2.127431,15.100549,-20.825508,23.70514,20.352566,-6.2758965,1.9701678,-8.271795
15,-0.1280626803636551,-7.312468528747559,72.52610778808594,-1.6792169568955382,12.228314771431302,-84.11021380312177,-2.529234,2.4989727,-0.45415905,33.45944,-39.043945,-2.1932724,-45.639904,-7.0338407,-9.577059,66.350784,-25.075659,-2.6286335,-6.0951443,-1.9511294,13.671425,-18.957039,17.246078,-22.816095,-6.5363007,19.900835,13.035178,-2.0549457,16.737354,-21.177536,23.000544,18.879986,-5.653717,1.8189245,-8.410259
16,-0.1328405737876892,-8.1326322555542,72.56452178955078,-1.9587520853056322,12.537077809941497,-83.94217069471212,-1.6543812,2.9564736,-0.63515735,32.23795,-38.530792,-2.3802314,-46.348705,-6.7574887,-9.941131,65.0938,-24.345135,-2.4066093,-6.5796204,-1.561552,13.497259,-19.689295,17.193676,-22.718773,-8.435933,19.776217,13.00358,-1.9707022,18.423445,-21.527246,22.297005,17.332855,-4.97836,1.7180755,-8.49937
17,-0.1363433301448822,-8.982083320617676,72.61994934082031,-2.2222131848687923,12.854372424760012,-83.75512104744307,-0.69245875,3.3934712,-0.8380253,30.842093,-37.83856,-2.559831,-46.96123,-6.499947,-10.277176,63.669155,-23.649567,-2.1603239,-7.097558,-1.1642466,13.280912,-20.391075,17.149649,-22.644482,-10.31725,19.512827,12.816108,-1.887487,20.169882,-21.868261,21.585888,15.68628,-4.220001,1.6969502,-8.4918
18,-0.12584145367145538,-9.873263359069824,72.69451904296875,-2.479488305551979,13.179243148345412,-83.55553602682241,0.34761247,3.8258102,-1.056107,29.292507,-36.994083,-2.7359936,-47.484283,-6.248459,-10.587895,62.072197,-22.959793,-1.8890194,-7.6421156,-0.75234586,13.029841,-21.05856,17.115908,-22.585543,-12.21563,19.137817,12.507319,-1.8172573,21.987627,-22.197575,20.861656,13.912533,-3.3782516,1.7321587,-8.414742
19,-0.12535333633422852,-10.803460121154785,72.78559875488281,-2.728725062546039,13.506835152863708,-83.35510932781781,1.4058518,4.2551293,-1.2872611,27.729828,-35.986397,-2.9180765,-47.913265,-5.9955626,-10.878336,60.338436,-22.226898,-1.6190362,-8.205842,-0.32904333,12.75266,-21.66785,17.095512,-22.534822,-14.090919,18.723627,12.127596,-1.7235014,23.820189,-22.505388,20.159817,12.113221,-2.5244231,1.7775694,-8.3606415
20,-0.1295488029718399,-11.763998031616211,72.8897476196289,-2.9655529911761027,13.8323963141076,-83.16355969159338,2.4250667,4.679483,-1.5325502,26.28479,-34.801865,-3.1139019,-48.242485,-5.7350135,-11.153834,58.49935,-21.39916,-1.3754562,-8.783824,0.096938774,12.454515,-22.196375,17.094185,-22.485266,-15.899303,18.342388,11.728008,-1.5704265,25.59997,-22.778404,19.521154,10.404238,-1.7322187,1.7837673,-8.421485
21,-0.1331949084997177,-12.760660171508789,73.01152801513672,-3.195034115748819,14.160165185016861,-82.96645605314808,3.4010198,5.1078672,-1.8108395,24.957363,-33.425453,-3.3282607,-48.468452,-5.4755254,-11.429083,56.523808,-20.431522,-1.1692624,-9.394992,0.5313465,12.12709,-22.655706,17.1177,-22.428522,-17.640614,18.010073,11.300984,-1.3768458,27.31571,-23.009668,18.973461,8.805972,-1.0002636,1.7319643,-8.676357
22,-0.14050927758216858,-13.779618263244629,73.1468276977539,-3.4140865288688884,14.48965678410435,-82.76457886805052,4.362176,5.5334063,-2.1163568,23.684374,-31.868711,-3.5574684,-48.591564,-5.216867,-11.692935,54.404144,-19.360003,-0.9859131,-10.036713,0.96862644,11.770824,-23.04932,17.169434,-22.370657,-19.335636,17.689632,10.826253,-1.1532967,28.983572,-23.198906,18.499662,7.2791934,-0.30144295,1.6457454,-9.058377
23,-0.14767268300056458,-14.82833194732666,73.29220581054688,-3.609067417589774,14.808627727331176,-82.59092506102625,5.2834735,5.9290643,-2.4197598,22.541868,-30.165672,-3.7925017,-48.615643,-4.9383435,-11.915318,52.212727,-18.256649,-0.8118234,-10.668399,1.384172,11.400041,-23.349543,17.252346,-22.327246,-20.970778,17.37009,10.336078,-0.8504841,30.575354,-23.343885,18.072596,5.8543596,0.32730106,1.5399425,-9.439369
24,-0.16689643263816833,-15.904013633728027,73.44832611083984,-3.7672471336612388,15.104172319236241,-82.47837336537596,6.145706,6.2681565,-2.6911516,21.59603,-28.346355,-4.0255423,-48.54415,-4.6184764,-12.066976,50.020393,-17.19363,-0.63335377,-11.250772,1.7527164,11.028166,-23.52391,17.367636,-22.31454,-22.535126,17.045765,9.862301,-0.41840327,32.0595,-23.440107,17.666384,4.5642576,0.8492623,1.4327157,-9.691727
25,-0.20116634666919708,-17.016605377197266,73.61030578613281,-3.890004330445449,15.3820009491006,-82.43098119302205,6.9526453,6.5552907,-2.9352522,20.83504,-26.386433,-4.2821026,-48.368168,-4.2354093,-12.130295,47.75853,-16.131203,-0.452008,-11.777089,2.0704997,10.645674,-23.583395,17.516855,-22.343237,-24.02314,16.731827,9.401986,0.18992597,33.434116,-23.483454,17.277668,3.4189765,1.2409816,1.3334689,-9.756913
26,-0.2306809425354004,-18.15553092956543,73.76981353759766,-3.9817301679145882,15.644172221054557,-82.43196514608073,7.7146273,6.7968264,-3.1683216,20.2302,-24.27782,-4.55908,-48.086685,-3.8077385,-12.122354,45.417164,-15.047857,-0.27464703,-12.264407,2.3471115,10.247888,-23.54186,17.700487,-22.405293,-25.438782,16.42879,8.940859,0.9370495,34.707523,-23.473822,16.920673,2.407249,1.5230751,1.2334362,-9.710579
27,-0.2517138719558716,-19.313278198242188,73.92970275878906,-4.037472257543628,15.873424594287833,-82.48307036772624,8.423268,6.9720807,-3.3744621,19.81707,-22.07106,-4.8067856,-47.712337,-3.370656,-12.070982,43.146767,-14.04547,-0.09455634,-12.707821,2.5798976,9.853815,-23.373863,17.917269,-22.487778,-26.786816,16.106865,8.493244,1.7452846,35.864166,-23.415468,16.593542,1.5311294,1.7264831,1.1248038,-9.626359
28,-0.28381428122520447,-20.50330352783203,74.08283996582031,-4.054065490042309,16.05364327080778,-82.58650752313841,9.063667,7.063992,-3.5344887,19.640383,-19.815058,-4.9735627,-47.26445,-2.9546034,-12.008241,41.107346,-13.228293,0.0966637,-13.103005,2.7694821,9.481625,-23.054558,18.165312,-22.574877,-28.068472,15.734118,8.073014,2.5363371,36.89208,-23.31473,16.29429,0.7886577,1.8827866,0.9991179,-9.5777445
29,-0.3172178268432617,-21.72077751159668,74.23078155517578,-4.022819664347723,16.190524613149975,-82.74662519657657,9.639608,7.0632715,-3.6398408,19.675005,-17.44333,-5.0329776,-46.750412,-2.5543678,-11.920994,39.29474,-12.644433,0.31914854,-13.452842,2.9111106,9.118043,-22.5639,18.444479,-22.673357,-29.288973,15.25215,7.6668487,3.3609145,37.79896,-23.176542,16.028555,0.18761073,1.9677033,0.8498032,-9.584076
30,-0.349989652633667,-22.95928955078125,74.3676986694336,-3.9523839109511116,16.291186950873435,-82.96048736923323,10.151568,6.9887667,-3.6965442,19.909561,-14.950501,-5.0103874,-46.16359,-2.1522045,-11.806799,37.643826,-12.232431,0.5648156,-13.75854,3.0119998,8.757566,-21.923252,18.756815,-22.782434,-30.443333,14.693227,7.269273,4.234637,38.59044,-23.00431,15.79321,-0.27817494,1.9757339,0.68301404,-9.606163
31,-0.37780919671058655,-24.223047256469727,74.48936462402344,-3.8701274232103504,16.34370980946638,-83.21972296836223,10.58197,6.8710194,-3.7043786,20.40127,-12.475596,-4.9319377,-45.50516,-1.7551929,-11.718005,36.222073,-11.931306,0.7996694,-14.018185,3.0939815,8.431321,-21.153255,19.099815,-22.876888,-31.531998,14.169918,6.909938,5.0295753,39.247265,-22.802818,15.577666,-0.62953645,1.9684148,0.5090922,-9.629883
32,-0.40942487120628357,-25.49026107788086,74.59442138671875,-3.804434527823564,16.33733598756869,-83.51585110356568,10.921648,6.7425065,-3.6651313,21.189367,-10.148462,-4.8315067,-44.78007,-1.3692243,-11.707812,35.099976,-11.681568,0.9883679,-14.230102,3.1801913,8.17028,-20.273417,19.466635,-22.934301,-32.552715,13.795932,6.6235723,5.6196055,39.75228,-22.578989,15.370546,-0.8891069,2.00753,0.33861428,-9.640971
33,-0.446355402469635,-26.772138595581055,74.67499542236328,-3.7474483207855993,16.263011504730382,-83.86037626450975,11.208586,6.591217,-3.5485716,22.215992,-7.9218698,-4.707583,-43.95342,-0.99883944,-11.832832,34.23628,-11.368179,1.2532861,-14.392,3.2662349,7.9751077,-19.273716,19.853662,-22.939606,-33.512173,13.589139,6.441547,5.9562445,40.113503,-22.335424,15.165304,-1.0607986,2.1112227,0.16804418,-9.633033
34,-0.4687805771827698,-28.06011199951172,74.72554016113281,-3.693128985180752,16.13168622631578,-84.25323303785918,11.442734,6.4176784,-3.35937,23.457415,-5.736294,-4.543878,-43.042202,-0.63136107,-12.053575,33.61842,-11.058622,1.5693717,-14.507386,3.347786,7.8302293,-18.149906,20.258495,-22.90605,-34.404343,13.491635,6.342091,6.1133304,40.33833,-22.074083,14.968931,-1.1363047,2.2485929,-0.0058356007,-9.6145735
35,-0.5007904767990112,-29.348745346069336,74.74127197265625,-3.6713140329053817,15.961625917079775,-84.66919020714865,11.568272,6.2683854,-3.1529286,24.988945,-3.697778,-4.3563313,-42.131763,-0.25114748,-12.279417,33.367336,-10.970668,1.6793543,-14.580292,3.4489486,7.7406564,-16.943022,20.674263,-22.852606,-35.198826,13.494415,6.281522,6.147668,40.415543,-21.800756,14.787712,-1.12352,2.4080718,-0.17213622,-9.593266
36,-0.5367920994758606,-30.6174373626709,74.72441864013672,-3.7098480237050953,15.76978267159813,-85.08319788687439,11.531376,6.182788,-2.986975,26.886446,-1.9150246,-4.1670065,-41.306683,0.15303314,-12.418364,33.607563,-11.322726,1.3260276,-14.612547,3.5926418,7.7111115,-15.701019,21.091354,-22.799461,-35.85593,13.587917,6.2153974,6.114688,40.33744,-21.52363,14.625151,-1.0320795,2.579165,-0.3198512,-9.577166
37,-0.5768556594848633,-31.88075065612793,74.6782455444336,-3.8021948890890407,15.554988627983095,-85.49736311505066,11.334973,6.1458464,-2.8539548,29.19972,-0.46852612,-3.9815779,-40.62065,0.5666512,-12.411956,34.555344,-12.281964,0.18564388,-14.600645,3.7767773,7.730021,-14.428502,21.50443,-22.75598,-36.36667,13.804619,6.129736,5.9904127,40.119793,-21.24575,14.465548,-0.8792744,2.7890172,-0.4367351,-9.550754
38,-0.6138714551925659,-33.145240783691406,74.58924865722656,-3.922538052160736,15.302321159297655,-85.91937974100328,11.014592,6.116863,-2.7350051,31.872314,0.7195795,-3.8000152,-40.007446,0.994425,-12.295393,36.07178,-13.683314,-1.519441,-14.545679,3.9758494,7.8001447,-13.113084,21.908884,-22.716673,-36.737247,14.140366,6.0476875,5.7576795,39.770107,-20.9663,14.308358,-0.65957904,3.0355408,-0.53156245,-9.51599
39,-0.6579010486602783,-34.40789031982422,74.47205352783203,-4.072605213687929,15.009253686078537,-86.33573178483259,10.561797,6.097819,-2.6699839,34.833954,1.7706422,-3.6360915,-39.376064,1.4681363,-12.120272,37.759228,-15.258157,-3.2256372,-14.453866,4.1828117,7.9454546,-11.7815,22.295414,-22.676365,-36.9447,14.5285,5.980269,5.4806337,39.266533,-20.686634,14.1809635,-0.34881207,3.2662187,-0.62538743,-9.50878
40,-0.7139966487884521,-35.656280517578125,74.32465362548828,-4.265557073489181,14.678815994252792,-86.73828196761312,9.959811,6.1101756,-2.6945515,38.02822,2.8023481,-3.4965131,-38.645794,2.0021534,-11.956249,39.23957,-16.760395,-4.3676214,-14.327394,4.403498,8.187125,-10.45378,22.651041,-22.629772,-36.97232,14.9081955,5.939431,5.2223396,38.586243,-20.409431,14.110375,0.07726548,3.4297223,-0.73947066,-9.565354
41,-0.7689455151557922,-36.88827133178711,74.14503479003906,-4.497248237944868,14.302024820215157,-87.12472592326387,9.17984,6.1514244,-2.8185503,41.540752,3.946037,-3.3972468,-37.814358,2.5593207,-11.802856,40.509438,-18.188349,-4.685588,-14.164998,4.632415,8.538684,-9.144936,22.970308,-22.583103,-36.79825,15.324064,5.896227,4.997913,37.72789,-20.131329,14.0912285,0.62483114,3.5057638,-0.8964417,-9.719954
42,-0.8428439497947693,-38.08853530883789,73.93936157226562,-4.763009334997499,13.881012124556255,-87.50374986885886,8.229576,6.2123075,-3.0213196,45.397556,5.088954,-3.3239238,-36.921455,3.1173246,-11.630159,41.75945,-19.665956,-4.5147257,-13.959381,4.871869,8.981162,-7.849449,23.250824,-22.542494,-36.426434,15.790529,5.8538117,4.7722034,36.70788,-19.848917,14.10764,1.2784026,3.5243719,-1.0794933,-9.946241
43,-0.9136665463447571,-39.26177978515625,73.70354461669922,-5.082695103974486,13.438774405442535,-87.88540306677876,7.149901,6.3126583,-3.2901073,49.451534,5.9839134,-3.239851,-35.95826,3.709283,-11.474216,42.916477,-21.149101,-4.182003,-13.70078,5.1487675,9.4852705,-6.5564766,23.481985,-22.503038,-35.878654,16.203033,5.873949,4.531224,35.531807,-19.569847,14.166526,2.0265749,3.5094457,-1.2506175,-10.188986
44,-0.9786834716796875,-40.42195510864258,73.44737243652344,-5.47576934976377,12.997645988239757,-88.27723464519747,5.9869123,6.463056,-3.6136987,53.55348,6.38636,-3.1203957,-34.912384,4.3869367,-11.36297,43.893406,-22.591063,-4.013543,-13.385386,5.492569,10.021184,-5.25526,23.648077,-22.456434,-35.174335,16.457542,6.0187626,4.258278,34.205338,-19.309221,14.27711,2.8539312,3.4889545,-1.3714916,-10.394192
45,-1.0299583673477173,-41.58319091796875,73.18343353271484,-5.99283315732822,12.53876971412352,-88.68195129629387,4.762408,6.6865525,-4.0146093,57.78954,6.218161,-2.9352214,-33.746185,5.221332,-11.328884,44.6468,-23.996777,-4.0929637,-13.018187,5.959996,10.619853,-3.930477,23.731287,-22.399878,-34.275795,16.43084,6.272001,3.9613733,32.722652,-19.078228,14.421605,3.7894053,3.4770095,-1.4481491,-10.543143
46,-1.0730712413787842,-42.742801666259766,72.91577911376953,-6.606962271771076,12.057344367240692,-89.0924721013764,3.456328,6.944391,-4.490344,62.210445,5.6035423,-2.725151,-32.476177,6.1685596,-11.334265,45.231293,-25.386929,-4.243861,-12.60487,6.5299907,11.277315,-2.6020067,23.724787,-22.341356,-33.17361,16.213749,6.6118207,3.6412525,31.092676,-18.877121,14.59923,4.818178,3.4639502,-1.494771,-10.668252
47,-1.1104096174240112,-43.88661193847656,72.64340209960938,-7.2243570849038745,11.596818128812533,-89.50380867119463,2.0467398,7.1582274,-4.99066,66.626854,4.5963902,-2.5740082,-31.174545,7.124941,-11.306757,45.695488,-26.73517,-4.4045787,-12.143948,7.114387,11.914117,-1.2990866,23.6332,-22.286215,-31.933172,16.028372,7.0920954,3.2708352,29.33716,-18.703554,14.848575,5.8624964,3.4417531,-1.4855837,-10.791535
48,-1.162428855895996,-45.02632141113281,72.37325286865234,-7.752690206405628,11.202467859116036,-89.91057068107659,0.50804335,7.267371,-5.464913,70.84766,3.2566857,-2.552163,-29.91288,7.9867225,-11.189429,46.0857,-28.015884,-4.516603,-11.637216,7.622261,12.455085,-0.04434172,23.470486,-22.234201,-30.629217,16.095415,7.7649283,2.8218899,27.471909,-18.555101,15.209273,6.8486667,3.4018714,-1.3952574,-10.934693
49,-1.2137532234191895,-46.153812408447266,72.11416625976562,-8.197054887490545,10.886797642399761,-90.3086799196142,-1.1611527,7.259839,-5.9486012,74.907585,1.4113054,-2.735582,-28.718908,8.76321,-11.0078125,46.42018,-29.235844,-4.5826225,-11.091879,8.053068,12.893715,1.1524749,23.240234,-22.176504,-29.216475,16.437119,8.741356,2.203205,25.450926,-18.426702,15.7131,7.854508,3.3840446,-1.19664,-11.113149
50,-1.2574187517166138,-47.279972076416016,71.86653900146484,-8.602085405608186,10.626986998438737,-90.70355024625276,-2.9486544,7.181497,-6.4327607,78.9038,-0.92227185,-3.0523653,-27.55337,9.506565,-10.7917185,46.67004,-30.403564,-4.631654,-10.50834,8.449817,13.269319,2.3136861,22.94205,-22.112774,-27.687695,16.955952,9.956307,1.4496404,23.275082,-18.314068,16.332663,8.886494,3.3811927,-0.9103224,-11.31234
51,-1.28416907787323,-48.392250061035156,71.64498138427734,-8.931614987177177,10.418440360113218,-91.10081477771435,-4.867135,7.0616336,-6.8280525,82.71789,-3.3851087,-3.3609939,-26.385664,10.170297,-10.503911,46.803135,-31.493,-4.6463084,-9.882381,8.780086,13.577056,3.4743166,22.591478,-22.050863,-26.186052,17.688036,11.197269,0.7215624,21.027365,-18.217804,17.023176,9.765962,3.3125966,-0.5810163,-11.507615
52,-1.3033443689346313,-49.49869918823242,71.45835876464844,-9.150953611478531,10.256487189743025,-91.50690196751002,-6.933233,6.929489,-7.0646386,86.21572,-5.604472,-3.52573,-25.186867,10.706674,-10.109194,46.79217,-32.482777,-4.6092234,-9.212619,9.010184,13.814415,4.68399,22.215107,-21.993925,-24.865698,18.654833,12.255672,0.18784453,18.785725,-18.140856,17.749855,10.31833,3.0991936,-0.25321156,-11.672563
53,-1.320917010307312,-50.62388229370117,71.3220443725586,-9.24792286731394,10.15605133851347,-91.93170431643608,-9.2063465,6.73817,-7.1899495,89.40323,-7.4661083,-3.5307877,-23.980099,11.106329,-9.596876,46.651283,-33.377167,-4.5161643,-8.4990015,9.118291,13.979223,5.9745126,21.82916,-21.934538,-23.746479,20.17483,13.139386,-0.08445087,16.502367,-18.083906,18.56689,10.557782,2.6862638,0.09557326,-11.830169
54,-1.3354789018630981,-51.7618293762207,71.2255859375,-9.245427531859459,10.116082590130775,-92.36990681816982,-11.665758,6.500548,-7.2313094,92.33161,-9.154995,-3.4393857,-22.77233,11.395205,-8.998526,46.386757,-34.184555,-4.3815002,-7.7494493,9.122004,14.081469,7.340637,21.438185,-21.866201,-22.780699,22.118992,13.943044,-0.1968804,14.154039,-18.040833,19.48512,10.553295,2.1325278,0.4785432,-11.980869
55,-1.3394031524658203,-52.913028717041016,71.1646957397461,-9.161887430063157,10.108356574668582,-92.80525055974104,-14.214316,6.3416257,-7.108917,94.92214,-10.736806,-3.234876,-21.509344,11.575973,-8.341455,45.9612,-34.88876,-4.2154765,-6.9738145,9.045561,14.133894,8.777085,21.055202,-21.792143,-22.026096,23.82648,14.594268,-0.20845968,11.851924,-18.00535,20.41265,10.224785,1.5227035,0.83624905,-12.06397
56,-1.3396663665771484,-54.06602478027344,71.1361312866211,-9.015368345584088,10.104274181408737,-93.2220956251878,-16.755054,6.395165,-6.7515974,97.092094,-12.279362,-2.8979309,-20.136507,11.650635,-7.65043,45.335823,-35.47083,-4.0279045,-6.17807,8.911787,14.147585,10.280652,20.699999,-21.715977,-21.548395,24.632694,15.019161,-0.15904409,9.705061,-17.976944,21.25816,9.500885,0.93702686,1.1074805,-12.019026
57,-1.3264614343643188,-55.24256896972656,71.1502685546875,-8.813285991917502,10.089548516821564,-93.62023973033914,-19.299042,6.7627535,-6.1154017,98.84632,-13.8137665,-2.402809,-18.64114,11.621615,-6.9191465,44.522076,-35.960938,-3.8183215,-5.371801,8.720876,14.146517,11.900331,20.389715,-21.620094,-21.42151,24.208704,15.155146,0.03297145,7.688395,-17.964159,22.041828,8.344384,0.33417916,1.263668,-11.824008
58,-1.3013004064559937,-56.46120834350586,71.1997299194336,-8.546390908048505,10.080687085772247,-94.00947693049129,-21.872263,7.365417,-5.258557,100.2128,-15.298347,-1.7699232,-17.051165,11.484665,-6.140326,43.536964,-36.360542,-3.5883763,-4.552645,8.456831,14.125507,13.64829,20.130722,-21.497192,-21.624357,22.949099,15.053377,0.37145138,5.761123,-17.96955,22.817017,6.8010798,-0.30552346,1.3380667,-11.512649
59,-1.2695800065994263,-57.692970275878906,71.28193664550781,-8.206321620704221,10.094439551281132,-94.38860390057177,-24.396961,8.060268,-4.2562118,101.14031,-16.692938,-1.0514007,-15.374163,11.228429,-5.3358655,42.353535,-36.61147,-3.3470488,-3.7043524,8.115514,14.049467,15.457789,19.923672,-21.37,-22.066904,21.277866,14.811758,0.7017494,4.00601,-17.98499,23.538029,4.9310026,-0.8743776,1.3623905,-11.110102
60,-1.2282161712646484,-58.9369010925293,71.41488647460938,-7.784751651670789,10.148334163697305,-94.75547889512275,-26.801046,8.699226,-3.1807692,101.57458,-17.953693,-0.30876717,-13.618901,10.839182,-4.528527,40.943237,-36.65619,-3.099124,-2.801747,7.690934,13.880017,17.24324,19.76668,-21.27342,-22.639778,19.617765,14.540475,0.8755182,2.5058289,-18.00078,24.14215,2.7984073,-1.2715154,1.3702523,-10.640334
61,-1.1955417394638062,-60.211448669433594,71.58303833007812,-7.262151842781172,10.247934566371319,-95.13614476183952,-29.082605,9.315411,-1.9374654,101.48099,-19.113869,0.49122536,-11.766682,10.288482,-3.6914268,39.24741,-36.540955,-2.833237,-1.8078039,7.1599364,13.601087,19.001574,19.663893,-21.221039,-23.37878,17.854555,14.262856,0.84562767,1.3042583,-18.009527,24.571608,0.3202508,-1.431678,1.3884349,-10.043934
62,-1.1661103963851929,-61.546932220458984,71.79547882080078,-6.64524392231488,10.383906968945249,-95.52255827735164,-31.243626,9.946006,-0.49618503,100.88473,-20.192812,1.3365477,-9.827239,9.576725,-2.8279266,37.31159,-36.283802,-2.5501635,-0.7426627,6.5198255,13.24165,20.767803,19.619617,-21.194426,-24.316303,15.838464,13.932439,0.687181,0.35169655,-18.016014,24.865128,-2.5005107,-1.4270031,1.3953954,-9.331919
63,-1.1230536699295044,-62.94192123413086,72.05416107177734,-5.967631337140247,10.551958726219764,-95.85948343799527,-33.243668,10.451704,0.97724557,99.82054,-21.111122,2.1141012,-7.856235,8.741393,-2.009391,35.26214,-35.783092,-2.2650962,0.33163998,5.8010936,12.827902,22.50759,19.626488,-21.18146,-25.332644,13.938596,13.560081,0.44527745,-0.40701643,-18.033901,25.099703,-5.476534,-1.3660467,1.3529369,-8.632843
64,-1.0685021877288818,-64.36622619628906,72.33836364746094,-5.266320934734463,10.746640894573423,-96.0906851295868,-35.06547,10.701134,2.3082793,98.32578,-21.780704,2.7289171,-5.9053464,7.83184,-1.3067827,33.21519,-34.93221,-1.9882163,1.3454242,5.0433297,12.383669,24.189892,19.670343,-21.162426,-26.309082,12.5248785,13.1487055,0.16758631,-1.0292463,-18.083118,25.361563,-8.425691,-1.3532991,1.2207767,-8.07635
65,-1.0278505086898804,-65.82547760009766,72.66222381591797,-4.521948560143341,10.979783362326815,-96.19912693115921,-36.736225,10.665598,3.4982417,96.37085,-22.172411,3.2046561,-3.9383295,6.828102,-0.7130169,31.07788,-33.709606,-1.6926782,2.3093147,4.2365584,11.884739,25.781454,19.742527,-21.158026,-27.206463,11.791161,12.6681795,-0.16521695,-1.4885288,-18.176725,25.646467,-11.376851,-1.3604506,0.9747957,-7.735118
66,-0.9746248722076416,-67.31526947021484,73.01988220214844,-3.7287545343323214,11.247722981162724,-96.21117899204663,-38.2574,10.40828,4.6306753,93.94027,-22.335253,3.5759215,-1.9569612,5.727838,-0.2084415,28.841162,-32.176723,-1.3752645,3.2411904,3.3753507,11.333181,27.301167,19.840834,-21.1634,-28.085478,11.509327,12.122263,-0.5651048,-1.7610523,-18.32207,25.916742,-14.420257,-1.3464427,0.64098763,-7.529395
67,-0.9309132695198059,-68.83772277832031,73.4009780883789,-2.947313858860224,11.519749701342443,-96.1362568747695,-39.59367,9.949177,5.632628,91.093285,-22.285904,3.776913,-0.063066565,4.6200714,0.16204654,26.747738,-30.344759,-1.0821866,4.101904,2.5197558,10.779988,28.766289,19.951374,-21.146433,-28.944216,11.421753,11.562192,-0.9681879,-1.897274,-18.52602,26.188034,-17.466715,-1.4018462,0.25480294,-7.353029
68,-0.8657518625259399,-70.3796157836914,73.8026351928711,-2.238631666379042,11.765052233578825,-95.98525873892459,-40.715702,9.316029,6.418121,87.8888,-22.037212,3.7507443,1.6489593,3.5961337,0.36138108,25.04184,-28.222157,-0.8623246,4.85061,1.7339252,10.270722,30.193184,20.05044,-21.07468,-29.775358,11.276644,11.041601,-1.3166866,-1.9604686,-18.794369,26.483847,-20.414932,-1.6159446,-0.14923449,-7.1002975
69,-0.8000304698944092,-71.95247650146484,74.2195816040039,-1.594419991303771,11.986171529819018,-95.7329105474353,-41.637577,8.461692,6.923551,84.27666,-21.59757,3.5057952,3.18201,2.651361,0.35416448,23.765762,-25.750452,-0.72937274,5.458122,1.0166142,9.7983,31.599075,20.11697,-20.9252,-30.57906,11.099555,10.556978,-1.6462712,-1.9814875,-19.135193,26.818487,-23.24946,-2.0420346,-0.5732647,-6.7409844
70,-0.7318155765533447,-73.54946899414062,74.64788818359375,-0.9951408744309309,12.1898568010396,-95.38113898436508,-42.36242,7.406702,7.17758,80.23773,-20.958672,3.089028,4.580839,1.7639536,0.17541096,22.813063,-22.94949,-0.6592057,5.946128,0.3564023,9.338889,32.95727,20.1434,-20.722055,-31.337374,11.002504,10.083441,-1.9742992,-1.9320989,-19.552889,27.18154,-26.01661,-2.6202326,-1.0346242,-6.334413
71,-0.6576735973358154,-75.16433715820312,75.08497619628906,-0.4815729405304979,12.353896999836174,-94.98507639262989,-42.850895,6.2850456,7.2287526,75.873604,-20.106789,2.508206,5.835905,0.99037063,-0.09987532,22.165071,-19.930977,-0.6407684,6.358195,-0.20053302,8.910904,34.215393,20.128,-20.509876,-32.0138,10.866078,9.646234,-2.2192352,-1.7826844,-20.041075,27.554993,-28.70495,-3.2706223,-1.5221412,-5.909968
72,-0.5720862150192261,-76.80030822753906,75.51676177978516,-0.09344998412355908,12.460001276421606,-94.60003919706102,-43.075912,5.227931,7.1257677,71.28889,-19.027763,1.7673392,6.939556,0.3818046,-0.39781967,21.795155,-16.795975,-0.65728724,6.738296,-0.61406,8.530777,35.324642,20.07407,-20.331541,-32.575935,10.572105,9.271491,-2.300712,-1.5113598,-20.58698,27.920639,-31.293064,-3.9167666,-2.022839,-5.4945927
73,-0.4813476502895355,-78.44886016845703,75.94316101074219,0.14822717741143843,12.506198820242053,-94.2380950443923,-43.008396,4.244533,6.812175,66.3673,-17.571772,0.7750525,7.8907294,-0.04666943,-0.73957235,21.65814,-13.32412,-0.69808334,7.1009097,-0.8632755,8.19746,36.276604,19.980846,-20.193262,-32.999504,10.016406,8.9677105,-2.1634574,-1.1244564,-21.18767,28.273537,-33.80724,-4.679447,-2.5147676,-5.0744195
74,-0.3952217400074005,-80.11781311035156,76.35700988769531,0.26694391257307054,12.504445398974916,-93.87833795183732,-42.661457,3.3031795,6.2479672,61.084236,-15.799113,-0.41652757,8.710109,-0.32635996,-1.1439171,21.741318,-9.508202,-0.7490225,7.431323,-0.9738713,7.8980126,37.095257,19.848495,-20.075388,-33.3075,9.289434,8.717338,-1.8635643,-0.64413786,-21.843136,28.619452,-36.23613,-5.5532317,-3.012723,-4.6418734
75,-0.32997825741767883,-81.80154418945312,76.75291442871094,0.30272187446612775,12.460438455949387,-93.52727262511394,-42.078888,2.4581757,5.541415,55.658585,-13.987434,-1.5952127,9.429306,-0.48831117,-1.533231,22.036037,-5.7535205,-0.80088294,7.7295103,-0.99375606,7.632736,37.78876,19.686476,-19.978539,-33.53892,8.563627,8.509198,-1.4864032,-0.07259957,-22.537886,28.956743,-38.507698,-6.2760315,-3.5538065,-4.2307096
76,-0.27283862233161926,-83.4953842163086,77.111328125,0.2944736626528021,12.38014174086233,-93.19137465370065,-41.32036,1.753279,4.8273,50.317158,-12.407183,-2.5583389,10.071229,-0.56233704,-1.8323768,22.551056,-2.481322,-0.8757952,7.995027,-0.9727894,7.401704,38.36826,19.51117,-19.900196,-33.736145,8.007681,8.336117,-1.1139555,0.5840094,-23.245678,29.283344,-40.535225,-6.588296,-4.1705785,-3.8693063
77,-0.22111225128173828,-85.19246673583984,77.42816925048828,0.19663242535690972,12.262329676073447,-92.88653774824627,-40.34973,1.2187237,4.0784903,44.92801,-11.101491,-3.2572718,10.641651,-0.49823833,-1.976448,23.24569,0.29315907,-1.0571985,8.248293,-0.87759894,7.189969,38.841927,19.332693,-19.84458,-33.89422,7.6391973,8.200957,-0.7123477,1.3347439,-23.946115,29.611118,-42.29073,-6.3320436,-4.958794,-3.5249312
78,-0.17365209758281708,-86.89320373535156,77.68804168701172,0.0003563356533708801,12.104228952172017,-92.61216405042715,-39.145554,0.8550931,3.2565467,39.395855,-9.911602,-3.7878332,11.141895,-0.30425075,-2.0244718,24.096975,2.786633,-1.339713,8.489496,-0.69923,6.998817,39.21759,19.153847,-19.804197,-34.00821,7.372243,8.107447,-0.2508989,2.1528437,-24.630575,29.942339,-43.78694,-5.6776834,-5.864527,-3.1776488
79,-0.14064306020736694,-88.58686065673828,77.89205169677734,-0.20416146826387702,11.90821712825767,-92.34753410535099,-37.80918,0.6198827,2.5025823,34.02419,-8.7976055,-4.1952467,11.590486,-0.09433156,-2.0832415,25.144913,4.917775,-1.6317505,8.684437,-0.51908636,6.8556623,39.50824,18.981838,-19.758123,-34.12922,7.219514,8.05428,0.1840472,2.9911695,-25.288513,30.259598,-45.019043,-4.866041,-6.6966333,-2.8781874
80,-0.11340801417827606,-90.27113342285156,78.02055358886719,-0.32790990984360036,11.676398948275157,-92.07016352305357,-36.454594,0.4329339,1.9599683,29.138435,-7.7263966,-4.5529194,12.001203,0.021589402,-2.25088,26.441574,6.5918574,-1.8366115,8.798004,-0.41759217,6.7887287,39.727703,18.82712,-19.686281,-34.31075,7.1931715,8.04072,0.5067311,3.8064108,-25.909628,30.54185,-45.98098,-4.1422353,-7.2679195,-2.688882
81,-0.09261352568864822,-91.92916107177734,78.07942962646484,-0.35473178953318013,11.417213909019983,-91.76454036643851,-35.076878,0.25517884,1.702422,24.669273,-6.6592603,-4.9167833,12.372555,0.011447068,-2.5794103,28.035406,7.720808,-1.9236348,8.81086,-0.41484854,6.7950425,39.902767,18.698835,-19.573467,-34.5962,7.343328,8.088832,0.68714005,4.594799,-26.485865,30.79596,-46.645744,-3.507958,-7.51992,-2.6798763
82,-0.06287040561437607,-93.55624389648438,78.06393432617188,-0.36139543267871244,11.11872130079451,-91.4489167770525,-33.63937,0.10684901,1.638,20.506645,-5.624789,-5.2831335,12.683492,-0.061310638,-3.0007777,29.947903,8.342263,-1.980661,8.749758,-0.4384023,6.8643956,40.026367,18.59946,-19.43328,-34.956272,7.6441073,8.19341,0.7761804,5.376835,-27.01314,31.028376,-47.01859,-2.8589358,-7.5582623,-2.8026063
83,-0.025210551917552948,-95.16645812988281,77.99166107177734,-0.3698882489877434,10.767499873949788,-91.1348575486004,-32.25499,-0.03630505,1.6631794,16.988459,-4.724795,-5.628251,12.897244,-0.17812239,-3.441016,32.21164,8.53441,-2.0622575,8.63322,-0.4559977,7.005418,40.052776,18.528683,-19.290379,-35.32904,7.9930344,8.311135,0.80912644,6.147972,-27.487423,31.215,-47.143345,-2.280892,-7.4490414,-2.9515405
84,0.012655201368033886,-96.7752456665039,77.89193725585938,-0.3599017201529905,10.367004548510765,-90.81602398411843,-31.06482,-0.21994695,1.6835247,14.483278,-4.0803113,-5.901296,12.966935,-0.34043676,-3.8382819,34.849327,8.380419,-2.191445,8.4630375,-0.47893384,7.2171216,39.930458,18.485214,-19.169037,-35.64349,8.287787,8.398886,0.8220559,6.901716,-27.903124,31.332289,-47.059395,-1.8592699,-7.256968,-3.020467
85,0.054246217012405396,-98.3602294921875,77.75328826904297,-0.3133113252197506,9.91040455363072,-90.45995365180887,-30.12282,-0.46403432,1.7140296,13.15255,-3.7797976,-6.192504,12.900504,-0.5404942,-4.244219,37.957554,7.7688274,-2.331532,8.203389,-0.521648,7.510854,39.655308,18.468082,-19.064213,-35.90935,8.550839,8.472546,0.77460635,7.6355886,-28.254318,31.368423,-46.75002,-1.598405,-6.9402485,-2.950517
86,0.10744883865118027,-99.9263916015625,77.56307983398438,-0.19614779359933315,9.420448307660248,-90.05033101146222,-29.420748,-0.794424,1.7981622,12.877761,-3.7901375,-6.476858,12.674631,-0.8241581,-4.6813555,41.56303,6.6560535,-2.455007,7.837271,-0.6273628,7.8667397,39.242233,18.477694,-18.967617,-36.14128,8.82003,8.544843,0.6649499,8.348365,-28.53505,31.343094,-46.19254,-1.4599118,-6.4844184,-2.8097575
87,0.1510530412197113,-101.4780044555664,77.33052825927734,0.052283194090204516,8.945973986132463,-89.60746361190965,-29.006535,-1.2678883,1.8947983,13.606921,-4.046342,-6.517557,12.2196245,-1.2539878,-5.044071,45.52884,5.2668743,-2.570521,7.3945827,-0.86858964,8.235256,38.667828,18.515474,-18.894787,-36.28206,9.014477,8.569669,0.5867841,9.02621,-28.738932,31.282516,-45.4163,-1.4602711,-5.9888735,-2.6793253
88,0.1762000173330307,-103.03120422363281,77.05065155029297,0.47971051378765595,8.52707514821786,-89.16347928897713,-28.894243,-1.9314246,1.9679915,15.230124,-4.453881,-6.085506,11.493694,-1.8596344,-5.2220387,49.67582,3.8548176,-2.6798074,6.9174857,-1.3020989,8.57181,37.911484,18.583485,-18.863173,-36.276066,9.053466,8.501591,0.63445175,9.659015,-28.859474,31.212,-44.454876,-1.6150208,-5.5529523,-2.6391943
89,0.19983789324760437,-104.57878112792969,76.73423767089844,1.131516316081147,8.177036302151508,-88.72564572519389,-29.18134,-2.8639808,1.9807742,17.96569,-4.786661,-4.936782,10.481367,-2.5900114,-5.114222,54.01583,2.4855244,-2.7529333,6.4068685,-1.9789308,8.856995,36.972675,18.678928,-18.876863,-36.118675,8.879247,8.2996235,0.8461756,10.237413,-28.883474,31.14064,-43.286453,-2.0731826,-5.198293,-2.7355301
90,0.235193133354187,-106.08087921142578,76.41401672363281,1.8987191922424331,7.834945373620606,-88.32021335786851,-29.738754,-3.9663188,1.9927161,21.644814,-5.0577497,-3.3032224,9.288443,-3.2938313,-4.7774415,58.540802,1.0747952,-2.7584076,5.8955855,-2.7865806,9.13909,35.87473,18.8185,-18.937162,-35.856255,8.544398,7.99748,1.1712741,10.780392,-28.811783,31.045374,-41.909374,-2.7768388,-4.870513,-2.9085786
91,0.2648787498474121,-107.59302520751953,76.03289794921875,2.6346251691221796,7.449351369008487,-87.99010832643096,-30.266674,-5.050502,2.084311,25.607944,-5.572979,-1.638934,8.029153,-3.9138296,-4.3545594,63.05857,-0.35658202,-2.7078884,5.4268794,-3.5692997,9.45804,34.62606,18.98714,-19.034456,-35.484215,8.146183,7.6610045,1.5565685,11.27391,-28.655285,30.942877,-40.347187,-3.4343033,-4.5556726,-3.0863912
92,0.30044135451316833,-109.09656524658203,75.59357452392578,3.2643020988794262,6.999923652974986,-87.74406361719433,-30.54357,-5.974699,2.2940366,29.3372,-6.7496886,-0.33157238,6.757533,-4.524078,-3.9960966,67.4412,-1.8177079,-2.6345325,5.0191364,-4.243261,9.837663,33.220234,19.175243,-19.16338,-34.98888,7.778537,7.3569703,1.9523683,11.718272,-28.43754,30.83501,-38.6421,-3.750908,-4.2453575,-3.2032528
93,0.35092490911483765,-110.57828521728516,75.10733032226562,3.804074013425078,6.473770504573195,-87.57422557267941,-30.627151,-6.689547,2.627645,33.082348,-9.046459,0.558435,5.492644,-5.2285776,-3.7392595,71.74735,-3.3083253,-2.4724941,4.6663227,-4.817507,10.30181,31.644958,19.376493,-19.323065,-34.372364,7.3984675,7.070275,2.3495417,12.104974,-28.183088,30.726137,-36.782394,-3.569157,-3.964528,-3.2138593
94,0.40683695673942566,-112.02674865722656,74.6033706665039,4.310708472707522,5.8989168780727566,-87.46848722049533,-30.619825,-7.2750697,3.0291033,37.05159,-12.181022,1.2531089,4.189348,-6.014284,-3.5061033,76.04394,-4.84103,-2.241392,4.354284,-5.351047,10.828499,29.896143,19.587244,-19.518484,-33.63308,6.979697,6.774127,2.770821,12.458528,-27.90103,30.604929,-34.785618,-3.06896,-3.7113655,-3.1734731
95,0.4744986593723297,-113.45138549804688,74.11090850830078,4.807971039537321,5.331830303687932,-87.41041615674163,-30.4149,-7.803473,3.4375904,40.7511,-15.518143,1.8197125,2.7740133,-6.8551116,-3.2588587,80.230736,-6.449076,-2.1168506,4.0686297,-5.874091,11.361772,27.977457,19.800354,-19.748722,-32.74579,6.6399446,6.520285,3.2169952,12.822546,-27.58619,30.45514,-32.727592,-2.4643302,-3.4394019,-3.168004
96,0.535783052444458,-114.86495971679688,73.64002990722656,5.320609621792432,4.8282412416318365,-87.38340881953513,-29.915062,-8.370684,3.808338,43.687088,-18.417048,2.3228543,1.1662353,-7.720453,-2.9523695,84.19559,-8.154273,-2.2725399,3.7904713,-6.4176893,11.84346,25.896776,20.006655,-20.008352,-31.689453,6.496973,6.3627787,3.6899767,13.229612,-27.22263,30.267069,-30.66857,-1.9693114,-3.103321,-3.2798064
97,0.5788600444793701,-116.28683471679688,73.20590209960938,5.922585826862165,4.386005531550238,-87.38818380978005,-29.049982,-9.065219,4.184876,45.689026,-20.757317,2.7645385,-0.6837404,-8.690793,-2.5116355,88.01061,-10.027325,-2.861749,3.5193594,-7.0573406,12.288978,23.606686,20.202314,-20.282278,-30.374805,6.582245,6.2828016,4.168738,13.663765,-26.787226,30.038877,-28.534788,-1.5710529,-2.6431825,-3.5096736
98,0.6229227185249329,-117.72481536865234,72.81689453125,6.590868878213379,3.986947209776533,-87.42824069632393,-27.904837,-9.825192,4.573802,47.064445,-22.877659,3.1137543,-2.742338,-9.752396,-1.9445748,91.70341,-12.024015,-3.7526717,3.2547393,-7.7684593,12.710946,21.126514,20.386343,-20.567574,-28.84396,6.8337493,6.266258,4.6595044,14.0917,-26.271914,29.785282,-26.291916,-1.1793109,-2.1000767,-3.8161302
99,0.6708827614784241,-119.16376495361328,72.46881866455078,7.201317481712202,3.660807158463821,-87.49038563925862,-26.612602,-10.530288,4.8887143,48.023735,-24.818682,3.3865905,-4.9683642,-10.736855,-1.3446289,95.08267,-13.988849,-4.6960235,2.9738214,-8.428384,13.048612,18.56389,20.553083,-20.874903,-27.272352,7.2284904,6.3758073,5.204144,14.523039,-25.691551,29.524061,-24.071157,-0.8937721,-1.579776,-4.2160463
100,0.7242244482040405,-120.61290740966797,72.17939758300781,7.629168076307634,3.435559947924247,-87.55977188164259,-25.305544,-11.0580635,5.054394,48.773037,-26.61885,3.6019568,-7.3211045,-11.499197,-0.831225,97.95984,-15.765466,-5.454208,2.6533833,-8.9104185,13.24523,16.019232,20.692738,-21.218094,-25.832594,7.742363,6.6747584,5.8426204,14.983372,-25.078955,29.269289,-22.024092,-0.8129244,-1.1867386,-4.7288857
101,0.7747604250907898,-122.0528564453125,71.95394134521484,7.838729335342586,3.3375202452650634,-87.6579706977214,-24.020248,-11.372248,5.085935,49.339886,-28.300611,3.7588754,-9.87497,-12.035125,-0.422294,100.330986,-17.32899,-5.9978995,2.3063142,-9.164474,13.275794,13.434169,20.791637,-21.633001,-24.455505,8.57863,7.314924,6.620388,15.481678,-24.458052,29.031475,-20.135406,-1.0745059,-0.9402056,-5.4783316
102,0.8207080960273743,-123.49455261230469,71.79216003417969,7.900252121667936,3.3441416110136712,-87.78050409834081,-22.68798,-11.537885,5.0265493,49.624817,-29.837696,3.8474538,-12.632814,-12.428285,-0.07116472,102.28409,-18.745895,-6.447081,1.9311984,-9.255797,13.181594,10.783062,20.84189,-22.088324,-23.089922,9.674722,8.228983,7.491177,16.024727,-23.837439,28.799606,-18.374216,-1.583423,-0.77928805,-6.418287
103,0.8596284985542297,-124.94609069824219,71.68138122558594,7.845885397114168,3.407950875661399,-87.8738921161289,-21.282598,-11.589009,4.8527384,49.63938,-31.198889,3.878766,-15.438931,-12.682119,0.15854804,103.76298,-19.991611,-6.810553,1.487451,-9.229912,13.005851,8.200701,20.84705,-22.512669,-21.924583,10.609369,9.139978,8.367249,16.640596,-23.232777,28.55463,-16.874998,-2.089965,-0.69358027,-7.31748
104,0.8917392492294312,-126.4020767211914,71.62777709960938,7.7073624691242895,3.481730424646449,-87.88495114046945,-19.778887,-11.560733,4.5398097,49.399242,-32.352005,3.868367,-18.135572,-12.807543,0.20347454,104.71192,-21.043907,-7.094719,0.93761533,-9.132926,12.792203,5.8155766,20.821583,-22.852266,-21.140968,10.96617,9.754618,9.180408,17.36475,-22.663593,28.275068,-15.782823,-2.3421805,-0.68491334,-7.9476147
105,0.9092759490013123,-127.86731719970703,71.63043212890625,7.472031814847355,3.5571243397270647,-87.79858108178357,-18.178448,-11.44615,4.069097,48.92694,-33.324444,3.8153088,-20.726377,-12.794963,0.019137306,105.10821,-21.9143,-7.2741885,0.27190387,-8.956648,12.55648,3.6169786,20.780619,-23.137585,-20.779358,10.459555,9.97885,10.037863,18.246773,-22.145025,27.935457,-15.221476,-2.2310154,-0.78187007,-8.229237
106,0.9117038249969482,-129.34234619140625,71.69054412841797,7.1296571830518,3.656283586772453,-87.6421317861949,-16.492865,-11.228813,3.4670577,48.21496,-34.12882,3.72367,-23.266346,-12.663534,-0.38017687,104.97534,-22.60475,-7.3537374,-0.4846577,-8.680487,12.287251,1.5458285,20.727194,-23.40337,-20.748201,9.368434,9.951587,10.9458685,19.280092,-21.680626,27.550226,-15.122133,-1.8969116,-0.97888964,-8.292686
107,0.8995686769485474,-130.8408966064453,71.80689239501953,6.716584422353254,3.779328569515066,-87.42635347692799,-14.7121,-10.9261,2.7729223,47.237385,-34.69694,3.614168,-25.673296,-12.467662,-0.9520979,104.3265,-23.083174,-7.3761206,-1.3177816,-8.334655,11.98182,-0.34391016,20.65761,-23.611612,-21.016052,8.135032,9.733851,11.687489,20.411194,-21.270155,27.15693,-15.336152,-1.4647018,-1.2264318,-8.222854
108,0.8755050897598267,-132.35862731933594,71.98420715332031,6.268739330559735,3.9270428018172683,-87.16268428695791,-12.830446,-10.552219,2.0240579,45.97001,-34.965687,3.4996686,-27.86764,-12.258876,-1.6460617,103.179214,-23.322578,-7.3843007,-2.219568,-7.9459,11.633024,-1.9955901,20.567543,-23.711073,-21.554064,7.1980963,9.407252,12.045808,21.574854,-20.911116,26.799358,-15.701269,-1.0601838,-1.4770865,-8.108282
109,0.8538360595703125,-133.9100341796875,72.22334289550781,5.772626938866631,4.11231030264606,-86.80416787446093,-10.834711,-10.087138,1.1720763,44.348576,-34.97897,3.3758476,-29.845976,-12.051155,-2.5118105,101.500465,-23.31351,-7.3869925,-3.2446713,-7.5010014,11.225342,-3.3615828,20.449203,-23.639595,-22.43637,6.6370993,8.941279,11.857711,22.772806,-20.605854,26.492424,-16.256771,-0.679654,-1.7395104,-7.911645
110,0.8226931095123291,-135.49954223632812,72.51752471923828,5.217056157119115,4.3342296833883704,-86.36254935118586,-8.742178,-9.516511,0.22189245,42.413486,-34.756733,3.2346258,-31.6289,-11.822328,-3.5488293,99.28822,-23.085424,-7.3478675,-4.381184,-6.9832454,10.770775,-4.4895105,20.302418,-23.439587,-23.64051,6.226142,8.320801,11.272896,24.030176,-20.356411,26.21656,-17.057716,-0.26665676,-2.0291603,-7.606504
111,0.7943705916404724,-137.1119842529297,72.87085723876953,4.641911282466444,4.571513281136339,-85.93853722935035,-6.5949326,-8.86519,-0.7090656,40.298615,-34.195637,3.073858,-33.179146,-11.554807,-4.630535,96.611244,-22.669474,-7.249113,-5.515374,-6.4196897,10.298014,-5.4595766,20.139338,-23.217394,-24.997911,5.947923,7.6559153,10.550681,25.314764,-20.15764,25.956964,-17.958834,0.12743269,-2.3107274,-7.2976565
112,0.7721640467643738,-138.75308227539062,73.26445007324219,4.086484552969803,4.799987858465428,-85.6327894236034,-4.4291806,-8.1690855,-1.5054013,38.130325,-33.190445,2.8898497,-34.462986,-11.2212715,-5.6419754,93.53374,-22.092943,-7.0857844,-6.5312595,-5.844988,9.830838,-6.3451147,19.981123,-23.076746,-26.348307,5.7902737,7.0545344,9.947743,26.588686,-19.998478,25.696142,-18.8048,0.44689795,-2.5513663,-7.090006
113,0.7470551133155823,-140.4273681640625,73.6973876953125,3.545244619446051,5.017176055530179,-85.47547324590131,-2.1847422,-7.422456,-2.1719582,35.80716,-31.685793,2.6599467,-35.47332,-10.792752,-6.574108,90.01517,-21.350588,-6.850189,-7.4013214,-5.2624836,9.365651,-7.1383543,19.839468,-23.02342,-27.728746,5.8265905,6.5520544,9.494211,27.849327,-19.870117,25.43519,-19.593187,0.64546984,-2.7318132,-7.0249863
114,0.7223113775253296,-142.13063049316406,74.16734313964844,3.0048012424625377,5.23252385014333,-85.41498047046355,0.1224384,-6.6249614,-2.7507162,33.321266,-29.75626,2.3895078,-36.22,-10.271784,-7.4783206,86.03335,-20.438313,-6.5454025,-8.17821,-4.6662016,8.891433,-7.79879,19.718313,-23.007385,-29.214428,6.034529,6.0857024,9.070923,29.106989,-19.768557,25.177374,-20.381582,0.75806695,-2.8751366,-7.0405893
115,0.6909657716751099,-143.85971069335938,74.65835571289062,2.493956352670263,5.436887616270877,-85.4288101521595,2.3497846,-5.8319597,-3.1909385,30.942032,-27.484676,2.1224332,-36.70457,-9.678731,-8.31741,81.6775,-19.377878,-6.178661,-8.870261,-4.081657,8.417516,-8.336745,19.630934,-23.046566,-30.72098,6.2675943,5.618234,8.7071295,30.339958,-19.687265,24.910757,-21.114954,0.85065407,-3.0132325,-7.0872655
116,0.6383228302001953,-145.60565185546875,75.16265869140625,2.0413894674442035,5.621633909288143,-85.49355354130934,4.3658023,-5.0978956,-3.4475002,28.930836,-24.946024,1.9054905,-36.93384,-9.03909,-9.048459,77.02621,-18.186026,-5.759483,-9.487328,-3.5357156,7.953912,-8.759831,19.596575,-23.159153,-32.16978,6.376085,5.1151023,8.431454,31.525902,-19.618034,24.622694,-21.735947,0.9888935,-3.1776214,-7.1149383
117,0.5933443307876587,-147.3717041015625,75.67001342773438,1.6113953303613355,5.794043144073367,-85.63765422027296,6.16273,-4.38148,-3.4690282,27.321547,-22.042927,1.7435223,-36.884212,-8.3278,-9.695573,71.97937,-16.808643,-5.334409,-10.008431,-2.9973981,7.5014033,-9.061845,19.628658,-23.363735,-33.557316,6.2880907,4.527154,8.292366,32.65209,-19.547419,24.30189,-22.21009,1.1867952,-3.3946679,-7.101165
118,0.5489318370819092,-149.1580047607422,76.173828125,1.207274463329356,5.950969367329932,-85.8647409107436,7.8109264,-3.6896799,-3.2987795,25.994406,-18.778349,1.6178726,-36.555244,-7.533197,-10.252355,66.51591,-15.250845,-4.8837786,-10.439543,-2.4786425,7.055824,-9.222296,19.736217,-23.635551,-34.94545,6.090265,3.887863,8.259549,33.716576,-19.474817,23.962814,-22.55973,1.4072934,-3.6416595,-7.0751405
119,0.5041355490684509,-150.96055603027344,76.66436004638672,0.9130871117556266,6.070701763020337,-86.11064096898725,9.294864,-3.139941,-3.0391898,24.98438,-15.363516,1.5380061,-36.000153,-6.7262564,-10.626152,60.829308,-13.616416,-4.338336,-10.812335,-2.0644383,6.6171613,-9.258762,19.91831,-23.959332,-36.321976,5.8740788,3.288454,8.248928,34.733723,-19.397694,23.606606,-22.830608,1.6372093,-3.8771012,-7.0559654
120,0.4595422148704529,-152.7836151123047,77.13494110107422,0.8102261422566092,6.135619592070436,-86.30688171712457,10.608092,-2.8405027,-2.7957833,24.29423,-11.99021,1.5121301,-35.278435,-6.00267,-10.720527,55.107903,-12.008506,-3.643008,-11.163292,-1.8334394,6.182627,-9.192058,20.167631,-24.31999,-37.669617,5.7321267,2.8202405,8.1772995,35.719635,-19.313976,23.234814,-23.062462,1.8638685,-4.059511,-7.0636616
121,0.41400137543678284,-154.62098693847656,77.57015991210938,0.965273210529618,6.133175901858313,-86.43456686838292,11.755321,-2.8725681,-2.5795436,23.8582,-8.402323,1.5763443,-34.323547,-5.425816,-10.431207,49.17772,-10.460965,-2.7387552,-11.511311,-1.8457862,5.7379436,-9.021507,20.484213,-24.736837,-38.990116,5.661147,2.527084,8.035578,36.693794,-19.220987,22.845526,-23.253872,2.0925214,-4.168675,-7.1241283
122,0.37378889322280884,-156.46759033203125,77.96524810791016,1.3221692231155757,6.078558106048778,-86.5232267232167,12.759659,-3.1553102,-2.3438733,23.639284,-4.5582385,1.7060853,-33.126297,-5.007277,-9.813459,42.99379,-8.920281,-1.7186973,-11.843469,-2.0464194,5.2820854,-8.746164,20.869862,-25.208805,-40.28633,5.621574,2.3539686,7.86317,37.64305,-19.117207,22.436998,-23.384037,2.3265307,-4.22986,-7.219887
123,0.3514029383659363,-158.31983947753906,78.3087158203125,1.763639743597653,5.998440644665748,-86.57373200796314,13.635361,-3.5397284,-2.1160462,23.684502,-0.9676672,1.8233268,-31.8337,-4.741604,-9.037555,36.918415,-7.3489647,-0.7457547,-12.151497,-2.324421,4.833495,-8.388453,21.314568,-25.691368,-41.53477,5.654504,2.2436988,7.650485,38.53759,-19.004856,22.009995,-23.480068,2.549131,-4.2697387,-7.305927
124,0.341083288192749,-160.16522216796875,78.591552734375,2.176432248878931,5.919214127085739,-86.58393370199458,14.406118,-3.884756,-1.9358213,24.03026,1.8513814,1.8585746,-30.609613,-4.581649,-8.285511,31.330475,-5.7010803,0.053957094,-12.429024,-2.5702565,4.410614,-7.9737015,21.80067,-26.13736,-42.70792,5.800928,2.1383147,7.3856635,39.349205,-18.888395,21.568281,-23.567268,2.745447,-4.314598,-7.3387775
125,0.3266316056251526,-162.00413513183594,78.80754089355469,2.5799057930463216,5.860802442738486,-86.5172934697641,15.053794,-4.2107835,-1.8607326,24.699583,3.7068202,1.817706,-29.502447,-4.5130453,-7.5240884,26.191978,-3.8376772,0.69313645,-12.697501,-2.7884772,3.9800625,-7.5239334,22.318548,-26.551334,-43.797115,6.108496,2.04304,7.0248384,40.118053,-18.769342,21.08977,-23.678196,2.9106913,-4.3612223,-7.281818
126,0.3169490396976471,-163.8216552734375,78.95931243896484,3.0282519337521365,5.801697414115001,-86.38042035158469,15.583503,-4.58541,-1.8654445,25.659182,4.900047,1.7352803,-28.441792,-4.5756726,-6.6889014,21.359297,-1.8312304,1.2386808,-12.959101,-3.0339546,3.5416565,-7.034179,22.86521,-26.953716,-44.80162,6.547241,1.9793029,6.584077,40.84966,-18.647335,20.580164,-23.793337,3.0547376,-4.398336,-7.1682363
127,0.28314265608787537,-165.62066650390625,79.04367065429688,3.455442738568243,5.709485542940518,-86.24238283843908,16.03612,-4.934404,-1.8610498,26.908012,5.6214976,1.5932353,-27.437984,-4.7307224,-5.9312253,17.0836,0.045827363,1.6849035,-13.166513,-3.2718203,3.164902,-6.4942536,23.430573,-27.3229,-45.689617,7.040639,1.9141136,6.1420465,41.4639,-18.529163,20.079714,-23.860756,3.1829522,-4.4398975,-7.0580044
128,0.2504735589027405,-167.3760528564453,79.05894470214844,3.783709710969333,5.558917032148757,-86.17772815827247,16.44391,-5.167057,-1.7520362,28.452402,6.0567646,1.3762163,-26.508934,-4.8893,-5.4154162,13.618938,1.5332774,2.0373793,-13.268423,-3.4543393,2.9179695,-5.888276,24.000217,-27.636087,-46.431965,7.515594,1.816817,5.7766395,41.880966,-18.428831,19.629072,-23.827,3.3010218,-4.5002136,-7.012085
129,0.21947038173675537,-169.1145477294922,79.02605438232422,3.984755680249445,5.3573181313867195,-86.21451799122705,16.801668,-5.214505,-1.4284521,30.363619,6.1456976,1.0276536,-25.668053,-4.9927654,-5.2305074,11.00299,2.5512033,2.3240626,-13.231389,-3.5563672,2.8076108,-5.236993,24.566574,-27.88803,-47.006866,7.990119,1.6507527,5.4832964,42.097706,-18.356901,19.226746,-23.701902,3.4149384,-4.592747,-7.044506
130,0.1786893606185913,-170.8295440673828,78.95611572265625,4.088896183809973,5.12403191966087,-86.32701037186911,17.056927,-5.10195,-0.9472709,32.692493,5.783067,0.5927705,-24.923086,-5.022961,-5.281749,9.100674,3.2540236,2.5605502,-13.075016,-3.5910678,2.7944913,-4.5409904,25.125732,-28.08958,-47.42537,8.494769,1.4428693,5.2276554,42.152447,-18.31767,18.855415,-23.50614,3.5233529,-4.7073956,-7.1259403
131,0.13225288689136505,-172.53219604492188,78.83299255371094,4.087954375439686,4.859225389712822,-86.51151151403472,17.17612,-4.8711424,-0.46244806,35.38843,5.1017118,0.19474542,-24.311506,-4.941476,-5.4603634,7.972064,3.7046926,2.7184572,-12.821256,-3.547062,2.8755188,-3.7651353,25.666145,-28.240147,-47.702564,8.969107,1.2567837,5.042245,42.02814,-18.31936,18.525995,-23.204248,3.6198187,-4.8228683,-7.252208
132,0.08805149048566818,-174.2235870361328,78.66204071044922,3.9717616599744776,4.561611050870764,-86.7596924668984,17.15094,-4.5886564,-0.13529243,38.35018,4.255791,-0.065725066,-23.88263,-4.72828,-5.659444,7.7129226,3.9403398,2.7566524,-12.49674,-3.4084888,3.0485234,-2.8742151,26.171888,-28.339155,-47.849094,9.355476,1.1588974,4.9565244,41.711105,-18.374136,18.247757,-22.766924,3.6984413,-4.917706,-7.4196086
133,0.05202389881014824,-175.9016571044922,78.44993591308594,3.76279499522019,4.206068678923662,-87.08705038964274,17.02559,-4.366555,-0.035600785,41.564743,3.2238016,-0.14235765,-23.64318,-4.40482,-5.8631406,8.375627,4.150461,2.7754638,-12.088452,-3.194309,3.327648,-1.8376832,26.628143,-28.388498,-47.85952,9.639389,1.1577471,5.005156,41.20409,-18.496756,18.023314,-22.191872,3.7534509,-5.0055904,-7.651684
134,0.014365154318511486,-177.57705688476562,78.18439483642578,3.458236155500408,3.7971927615505208,-87.48736459791476,16.815157,-4.167629,-0.07210272,45.045547,1.9576766,-0.120911926,-23.54974,-3.9786499,-6.131717,9.8664875,4.2696557,2.754579,-11.595083,-2.895292,3.7067533,-0.6881167,27.027924,-28.388773,-47.71297,9.854684,1.2220501,5.1586113,40.522076,-18.692707,17.848738,-21.504288,3.7941608,-5.0915627,-7.9458838
135,-0.02534533478319645,-179.23587036132812,77.87670135498047,3.0154436721561235,3.3729340183945014,-87.91269546551908,16.485188,-3.8590221,-0.17089549,48.705883,0.58784354,-0.10887051,-23.57914,-3.4210322,-6.47683,12.0732975,3.9491997,2.4735472,-11.067523,-2.4612188,4.1539135,0.5172109,27.36929,-28.335848,-47.415283,10.012523,1.3628612,5.3482375,39.668854,-18.953167,17.728037,-20.715815,3.8368304,-5.1413665,-8.259553
136,-0.0777762159705162,-180.8778533935547,77.54248809814453,2.395646965348351,2.96941444371831,-88.31303403826743,16.004705,-3.3003314,-0.26235956,52.459854,-0.75406593,-0.20538422,-23.726126,-2.7151122,-6.899209,14.926903,2.8198009,1.7078831,-10.555825,-1.8517946,4.6375256,1.7191844,27.653671,-28.2323,-46.96969,10.125421,1.5909038,5.5068865,38.6455,-19.260416,17.66177,-19.832638,3.8953562,-5.120578,-8.547839
137,-0.1618700623512268,-182.46359252929688,77.2324447631836,1.538618865940533,2.583229348978194,-88.67697525349858,15.396864,-2.412491,-0.34043276,56.33158,-2.015406,-0.49259156,-24.126379,-1.8304374,-7.3936257,18.889008,0.48705724,0.09363099,-10.066723,-1.0116775,5.1633067,2.897154,27.8845,-28.094505,-46.361206,10.1191635,1.899244,5.667266,37.45258,-19.59722,17.633846,-18.857487,3.9891334,-5.0011744,-8.785226
138,-0.22740615904331207,-184.06678771972656,76.85806274414062,0.5350976127248588,2.1747944453600234,-89.00436550822907,14.721203,-1.3617657,-0.45723274,60.310944,-3.2520134,-0.90369254,-24.681282,-0.80966365,-7.8964224,23.737532,-2.689074,-2.126746,-9.5947695,-0.038145404,5.748683,4.075109,28.061382,-27.930948,-45.58723,10.010352,2.2856345,5.8500705,36.093906,-19.955757,17.649855,-17.788195,4.1013317,-4.8076243,-8.998128
139,-0.27333948016166687,-185.64793395996094,76.41891479492188,-0.4958447295556187,1.7546301453268769,-89.28803530239027,13.956247,-0.28064033,-0.61755955,64.298035,-4.5188637,-1.3155643,-25.099487,0.30070975,-8.349593,28.484814,-6.0258927,-4.294811,-9.147728,0.95279354,6.3699164,5.2573757,28.176998,-27.728952,-44.668022,9.9443035,2.7677176,5.971137,34.567696,-20.332664,17.740452,-16.619905,4.1918693,-4.5848384,-9.219134
140,-0.3298225700855255,-187.20179748535156,75.92764282226562,-1.4767327511377712,1.3505889784091794,-89.5410400075782,13.044479,0.7590892,-0.82064927,68.22545,-5.881993,-1.602392,-25.16948,1.4290576,-8.757436,32.324978,-8.953298,-5.778487,-8.716897,1.8914709,6.995841,6.4488544,28.21778,-27.473742,-43.62083,10.069278,3.363486,5.943146,32.865166,-20.728674,17.93749,-15.342052,4.2226324,-4.377826,-9.4815645
141,-0.40347567200660706,-188.72364807128906,75.42430114746094,-2.4600994681950055,0.9702503300262231,-89.79313084763626,11.962172,1.8423152,-1.0724036,72.1813,-7.405915,-1.7480412,-24.866114,2.5807068,-9.170667,35.19087,-11.453576,-6.3304043,-8.279314,2.829471,7.6377826,7.626232,28.171856,-27.165838,-42.36345,10.30252,3.9474235,5.786164,30.95393,-21.15004,18.246035,-13.9141865,4.211149,-4.2134447,-9.80924
142,-0.4660170078277588,-190.21466064453125,74.94300842285156,-3.4954997144411855,0.6128604917579749,-90.04343079275989,10.723741,3.0105085,-1.3773146,76.18784,-9.05085,-1.8177503,-24.33943,3.7513611,-9.586121,37.60151,-13.8641615,-6.331997,-7.8407416,3.8219652,8.296149,8.786572,28.031548,-26.814182,-40.906982,10.608464,4.550994,5.527841,28.845867,-21.593817,18.65384,-12.358595,4.1730947,-4.063406,-10.182163
143,-0.5254303812980652,-191.6837615966797,74.51480865478516,-4.49133839550773,0.29385694486008884,-90.26177781886663,9.3204775,4.134789,-1.7378794,80.06993,-10.714279,-1.7936052,-23.635061,4.8342156,-9.960866,39.637947,-16.169287,-6.0991435,-7.423716,4.7936974,8.926435,9.953117,27.789297,-26.42373,-39.39936,11.210379,5.426841,5.08185,26.600006,-22.046488,19.159082,-10.75441,4.065439,-3.8856719,-10.564501
144,-0.5755661129951477,-193.1513214111328,74.12630462646484,-5.354938912615689,0.027845362253449475,-90.41588080946283,7.736563,5.0835743,-2.1573715,83.65505,-12.290486,-1.653284,-22.792856,5.7640495,-10.257461,41.322224,-18.333624,-5.9426303,-7.0463166,5.6604266,9.488705,11.14662,27.438623,-26.004257,-37.983006,12.344067,6.822839,4.345064,24.2736,-22.486849,19.759148,-9.176244,3.8421113,-3.6398013,-10.918121
145,-0.6097614169120789,-194.62869262695312,73.77323150634766,-6.091773168018975,-0.18198324140908015,-90.4783026459528,5.922118,5.8388853,-2.718191,86.988266,-13.777544,-1.3153498,-21.775467,6.5860066,-10.5175495,42.550617,-20.338017,-5.9173098,-6.730166,6.4205227,9.9869375,12.376942,26.959364,-25.538635,-36.642296,14.404819,8.998815,3.0103402,21.78283,-22.898945,20.50033,-7.4628487,3.4472084,-3.290142,-11.264563
146,-0.6446571946144104,-196.08917236328125,73.47116088867188,-6.742479722997221,-0.34115686275051527,-90.4758260526583,3.8802135,6.4592023,-3.4019418,90.14878,-15.215359,-0.80751854,-20.579044,7.343183,-10.760757,43.319553,-22.185616,-5.8654428,-6.4479394,7.1081586,10.438891,13.595276,26.341608,-25.050543,-35.276417,17.244047,11.695577,1.1098748,19.127888,-23.274567,21.364298,-5.6299434,2.917407,-2.8637247,-11.609332
147,-0.6538186073303223,-197.51986694335938,73.21895599365234,-7.259611568900321,-0.4485211040701172,-90.45099444338966,1.6817906,6.9384594,-4.0565877,92.98803,-16.554546,-0.26646078,-19.284967,7.9833784,-10.924006,43.776585,-23.877829,-5.7800536,-6.142134,7.686938,10.825749,14.744962,25.60929,-24.611092,-33.91391,20.245169,14.416693,-0.8982207,16.488132,-23.60556,22.247131,-4.005151,2.3422277,-2.414763,-11.887049
148,-0.6542834043502808,-198.97096252441406,73.0325927734375,-7.5989907117078666,-0.5045605671377046,-90.44761959498987,-0.60300493,7.2899947,-4.5219655,95.36078,-17.748713,0.17455842,-17.973448,8.445031,-10.944276,44.076923,-25.419535,-5.6519995,-5.753595,8.120428,11.129672,15.800179,24.814634,-24.279232,-32.62209,22.691872,16.761084,-2.4286394,14.041511,-23.889345,23.045086,-2.9093916,1.8029363,-2.0008605,-12.030702
149,-0.6410166621208191,-200.40943908691406,72.90495300292969,-7.713902221486462,-0.4996328051436927,-90.45101916723414,-3.026522,7.4940686,-4.761785,97.2553,-18.76625,0.48212186,-16.667671,8.664159,-10.8091545,44.266117,-26.844616,-5.4703293,-5.2810645,8.35711,11.356839,16.796757,23.995382,-24.072708,-31.46947,24.549303,18.940937,-3.2292738,11.804744,-24.123444,23.73973,-2.4234688,1.2929511,-1.5947803,-12.020411
150,-0.6330962181091309,-201.83642578125,72.8232421875,-7.639504012363744,-0.4379714165753535,-90.44701247515889,-5.607321,7.5692415,-4.841418,98.73967,-19.627039,0.7352544,-15.320836,8.686136,-10.566874,44.2565,-28.139526,-5.245051,-4.743876,8.4215355,11.522222,17.771448,23.166525,-23.951376,-30.454063,26.085188,21.126686,-3.5810497,9.693469,-24.307604,24.378536,-2.3751872,0.7736777,-1.1847125,-11.88829
151,-0.6157199740409851,-203.26495361328125,72.797119140625,-7.458749273725402,-0.3409632468233283,-90.47933054415044,-8.22413,7.595451,-4.751838,99.7791,-20.356085,0.96734643,-13.904871,8.603864,-10.239652,44.003056,-29.236483,-4.9956665,-4.1277766,8.3863125,11.621175,18.735666,22.357288,-23.864136,-29.576487,26.953335,22.919304,-3.5750988,7.713403,-24.452682,24.97512,-2.6867635,0.27530074,-0.8532905,-11.649138
152,-0.5826730728149414,-204.70114135742188,72.82699584960938,-7.252893981876767,-0.22938105698952857,-90.5923466127748,-10.757347,7.6517973,-4.493564,100.340126,-20.980629,1.2077501,-12.392485,8.50943,-9.842858,43.46209,-30.066782,-4.7413554,-3.4181159,8.324737,11.651208,19.714428,21.606997,-23.755411,-28.862005,26.801334,23.903952,-3.2766159,5.8769426,-24.57517,25.543129,-3.2931874,-0.16364257,-0.682647,-11.31983
153,-0.5430665016174316,-206.1424560546875,72.91262817382812,-7.026946147880163,-0.11024976113777558,-90.82454363202133,-13.20573,7.7719393,-4.018315,100.4061,-21.548069,1.4585977,-10.761479,8.415189,-9.352018,42.593544,-30.65526,-4.4849696,-2.5819113,8.233597,11.627622,20.757694,20.952763,-23.586937,-28.376322,25.09814,23.728245,-2.4495337,4.179929,-24.69159,26.084265,-4.273598,-0.535843,-0.75493765,-10.857238
154,-0.4900614619255066,-207.60128784179688,73.0535888671875,-6.7423182480343415,0.027327815927095066,-91.14465549995047,-15.609526,7.924886,-3.331229,99.99101,-22.032377,1.6990335,-9.031298,8.26838,-8.766507,41.43706,-31.02904,-4.2199616,-1.6381481,8.069871,11.559411,21.884884,20.408571,-23.379665,-28.149094,22.182766,22.647644,-1.1643981,2.6336358,-24.804798,26.597635,-5.657018,-0.8477824,-1.008853,-10.274645
155,-0.4364054203033447,-209.08990478515625,73.24773406982422,-6.417565253448592,0.19005063184090945,-91.49247553302605,-17.908133,8.0842705,-2.5209365,99.10583,-22.356356,1.9186888,-7.2361693,8.062651,-8.132548,40.06695,-31.122698,-3.9468527,-0.64774823,7.8468804,11.428534,23.067062,19.96935,-23.173151,-28.138466,19.006859,21.187208,0.065613694,1.263706,-24.909065,27.089645,-7.2899218,-1.0846163,-1.3086866,-9.671613
156,-0.3779946565628052,-210.60630798339844,73.49620819091797,-6.070517992444552,0.3846678263378078,-91.80673807257998,-20.044394,8.214576,-1.6733161,97.76334,-22.444069,2.1077836,-5.4129705,7.7943716,-7.497202,38.558357,-30.870523,-3.6623268,0.32315922,7.5817084,11.215476,24.266912,19.617744,-23.004568,-28.29542,16.446836,19.948345,0.8354467,0.088219896,-24.995691,27.56726,-9.008802,-1.2441461,-1.5166888,-9.145223
157,-0.3172071874141693,-212.15257263183594,73.79432678222656,-5.6919745899818786,0.625023735114811,-92.10528841654522,-22.027346,8.322372,-0.74709386,95.93615,-22.265648,2.2801163,-3.5448112,7.458018,-6.8273,36.84683,-30.273737,-3.3626907,1.2821974,7.2638783,10.894892,25.495274,19.345665,-22.87512,-28.669645,14.61525,19.0945,1.0564296,-0.90072966,-25.06044,28.033073,-10.811508,-1.3278544,-1.5701329,-8.7179
158,-0.249432772397995,-213.72384643554688,74.14464569091797,-5.278178675906455,0.9039629011184541,-92.40779962714385,-23.858267,8.414281,0.29696432,93.62162,-21.878117,2.424901,-1.6299375,7.0506377,-6.1133723,34.931953,-29.367489,-3.0461686,2.2495317,6.8836956,10.484216,26.757895,19.151814,-22.766193,-29.252234,13.064823,18.33896,0.9604715,-1.7132599,-25.106796,28.484022,-12.76,-1.3453102,-1.5481236,-8.338511
159,-0.17688106000423431,-215.33059692382812,74.53209686279297,-4.8494676100329785,1.1956061433052918,-92.6556423861098,-25.476292,8.445829,1.3637704,90.87086,-21.331139,2.4999595,0.2750238,6.5824933,-5.4370155,32.981487,-28.13555,-2.711837,3.1758575,6.4644585,10.0272,28.007856,19.024273,-22.682682,-29.906675,11.779649,17.640123,0.7082541,-2.3473356,-25.142075,28.918493,-14.777151,-1.3073199,-1.5272201,-7.991301
160,-0.10147949308156967,-216.966552734375,74.95468139648438,-4.42734652471856,1.472941252540111,-92.78975470940647,-26.827484,8.368802,2.3519337,87.72644,-20.670694,2.465707,2.117952,6.071462,-4.877717,31.158987,-26.55871,-2.3612285,4.0140643,6.0372477,9.564828,29.190277,18.942865,-22.631271,-30.489477,10.754658,16.94663,0.4550324,-2.7938747,-25.174751,29.331095,-16.796,-1.224895,-1.5817901,-7.659943
161,-0.020284634083509445,-218.6237335205078,75.40033721923828,-3.9993547953621573,1.7309113421193116,-92.78474627271416,-27.900795,8.163361,3.2713876,84.14594,-19.899569,2.3237283,3.939611,5.507276,-4.425242,29.422916,-24.589703,-1.9660935,4.753999,5.602253,9.0930605,30.270853,18.895367,-22.629692,-30.942265,10.070233,16.23269,0.2003596,-3.0319335,-25.213629,29.71618,-18.828695,-1.03492,-1.7275945,-7.376446
162,0.06324701011180878,-220.30563354492188,75.86601257324219,-3.5626021799543945,1.9801778160930976,-92.67167661627305,-28.716307,7.8347416,4.162344,80.11357,-18.996943,2.0814922,5.745648,4.8992805,-4.043331,27.727901,-22.26121,-1.5363783,5.4166307,5.156452,8.594881,31.269356,18.879183,-22.669487,-31.329939,9.703067,15.528059,-0.11553479,-3.0695403,-25.264141,30.07103,-20.905624,-0.7531651,-1.9242208,-7.1352673
163,0.15523134171962738,-222.01197814941406,76.34355926513672,-3.153379612002577,2.2166085301239886,-92.47752315612004,-29.279118,7.3810186,4.953693,75.70338,-17.965517,1.718702,7.435732,4.3003263,-3.770143,26.235416,-19.6709,-1.1292652,5.9976716,4.72957,8.089805,32.218147,18.884033,-22.713205,-31.69574,9.500456,14.858911,-0.4337886,-2.9498832,-25.332249,30.403915,-22.989311,-0.5051856,-2.1625516,-6.866623
164,0.2581676244735718,-223.73446655273438,76.8265380859375,-2.8065006736253877,2.4374615039301366,-92.2309711057271,-29.604538,6.816196,5.5636735,70.98562,-16.804852,1.2273968,8.920343,3.7627475,-3.643912,25.086115,-16.904041,-0.7972445,6.4972334,4.350613,7.595127,33.1451,18.89818,-22.72689,-32.079662,9.312876,14.253194,-0.6993701,-2.718283,-25.422419,30.720598,-25.034966,-0.41518316,-2.4344134,-6.500099
165,0.36796876788139343,-225.47642517089844,77.30317687988281,-2.508300906752812,2.6475640354168117,-91.9070049327167,-29.668657,6.1146092,5.9554796,65.84197,-15.570725,0.6329929,10.186758,3.2700708,-3.733114,24.282717,-13.760752,-0.5372528,6.899119,4.0098968,7.101617,34.04698,18.910095,-22.70856,-32.46296,9.171113,13.721471,-0.91715956,-2.3623183,-25.532782,31.012667,-27.047512,-0.5295165,-2.752521,-5.974546
166,0.4699696898460388,-227.23300170898438,77.76444244384766,-2.250095332141725,2.8449414770649426,-91.50073468051515,-29.469294,5.297343,6.146754,60.25958,-14.240283,-0.049647894,11.2921295,2.8168485,-3.9918897,23.75073,-10.257759,-0.30472994,7.204336,3.70723,6.601792,34.90775,18.916437,-22.671654,-32.827404,9.136247,13.245925,-1.1103497,-1.8747193,-25.664309,31.283358,-29.03891,-0.7738224,-3.1187863,-5.3424983
167,0.5758758783340454,-228.99586486816406,78.20014190673828,-2.0669165366108055,3.020517821690118,-91.07974362895342,-29.057184,4.463027,6.1399913,54.440834,-12.685442,-0.83172864,12.252047,2.4591599,-4.2875757,23.491821,-6.7801085,-0.10021486,7.4504247,3.4733489,6.110318,35.731144,18.91788,-22.610184,-33.20022,9.108793,12.814356,-1.2543575,-1.3150258,-25.816477,31.556927,-30.969776,-1.0984801,-3.508928,-4.6995177
168,0.6709228157997131,-230.76882934570312,78.60617065429688,-1.9932696772722789,3.1680957597129327,-90.71148563377874,-28.492916,3.7111638,5.935556,48.589725,-10.78355,-1.7253155,13.074871,2.2478442,-4.4962745,23.510553,-3.716033,0.049468532,7.6749234,3.33566,5.640791,36.52641,18.916782,-22.51775,-33.61402,8.988995,12.415132,-1.3260615,-0.74227804,-25.985666,31.859934,-32.798866,-1.4566097,-3.8969624,-4.14171
169,0.7701012492179871,-232.54598999023438,78.97696685791016,-2.086083813264275,3.2908252464338337,-90.4262856027433,-27.747555,3.0775402,5.429249,42.546986,-8.297407,-2.7786968,13.731889,2.2430255,-4.5627837,23.78862,-1.02604,0.06101507,7.900798,3.3467557,5.175493,37.312405,18.911022,-22.386173,-34.07893,8.741823,12.067264,-1.3141861,-0.17156258,-26.169823,32.215435,-34.525593,-1.9079556,-4.279366,-3.6923978
170,0.8663760423660278,-234.3278350830078,79.30036926269531,-2.3140273553474753,3.392691329416763,-90.19296013794155,-26.786667,2.5705023,4.610227,36.22498,-5.355705,-3.9430788,14.240556,2.3931577,-4.568183,24.293453,1.4755085,-0.051968057,8.111888,3.4792194,4.7111225,38.08369,18.897959,-22.219387,-34.580875,8.424501,11.769241,-1.2341701,0.41907167,-26.36623,32.609394,-36.163082,-2.4549417,-4.669416,-3.302623
171,0.9466709494590759,-236.1009521484375,79.55974578857422,-2.5843165380370667,3.466958728019954,-89.98861950328225,-25.680094,2.2132483,3.6560507,29.955288,-2.3687239,-5.1104836,14.6628275,2.585296,-4.589527,25.042847,3.6064558,-0.18885973,8.289678,3.6440158,4.2846003,38.814,18.882547,-22.028555,-35.11707,8.075154,11.478512,-1.1028577,1.022105,-26.570457,33.010113,-37.67711,-2.9652452,-5.062911,-2.9564147
172,1.0050549507141113,-237.86312866210938,79.7442626953125,-2.8164927892590326,3.5028843511495116,-89.79250640893572,-24.50288,1.9796193,2.7851627,24.068851,0.27708143,-6.203229,15.069237,2.724406,-4.690245,26.048828,5.1808176,-0.24467388,8.418195,3.7644274,3.93628,39.478947,18.87577,-21.824234,-35.687084,7.7301464,11.153045,-0.9360317,1.6365416,-26.777725,33.383297,-39.03801,-3.308663,-5.454182,-2.6353354
173,1.061559796333313,-239.60987854003906,79.83819580078125,-3.043937938512131,3.508496785790809,-89.6217207060928,-23.214025,1.8660775,2.008932,18.40203,2.5705612,-7.3266497,15.500089,2.8466291,-4.8640633,27.271715,6.096583,-0.13733655,8.51169,3.8649316,3.651548,40.113514,18.888468,-21.597486,-36.33165,7.3822737,10.770425,-0.7141336,2.2706156,-26.98679,33.72794,-40.261852,-3.4470837,-5.8578978,-2.3051598
174,1.1232713460922241,-241.34182739257812,79.84497833251953,-3.3737630338651665,3.4613587014648868,-89.50007844585606,-21.76625,1.9314814,1.2341694,12.806386,4.7297583,-8.532751,15.939257,3.0514185,-5.06225,28.715343,6.4755425,0.02343416,8.597261,4.0574718,3.4286497,40.731792,18.924135,-21.349155,-37.057117,7.0157657,10.356516,-0.4341864,2.9292068,-27.20057,34.052532,-41.362053,-3.4522905,-6.2682695,-1.9796867
175,1.1890720129013062,-243.04783630371094,79.78939056396484,-3.77172662824496,3.3270383517777717,-89.39102834177976,-20.209291,2.1233165,0.567043,7.5549674,6.773995,-9.663528,16.333704,3.2746503,-5.3062987,30.497313,6.4360147,0.08252087,8.653127,4.32947,3.316821,41.268387,18.981918,-21.103798,-37.80276,6.6539774,9.942096,-0.13669047,3.6099875,-27.418585,34.33398,-42.309196,-3.3570046,-6.649769,-1.714828
176,1.2586716413497925,-244.73538208007812,79.69854736328125,-4.0920848150386595,3.1080324898807,-89.22292173060694,-20.17394,2.255655,0.07625581,6.218738,6.9837093,-10.516336,16.580208,3.3405087,-5.648414,32.777332,6.064075,-0.08281102,8.623488,4.5520024,3.3489242,41.637585,19.059101,-20.885162,-38.485077,6.318922,9.557734,0.13803302,4.3085623,-27.632309,34.551476,-43.06967,-3.1955745,-6.9697495,-1.5707237
177,1.3281898498535156,-246.40484619140625,79.57101440429688,-4.271998769030986,2.80066638427588,-88.94153592195413,-20.36145,2.2320454,-0.11254482,6.0921984,6.8099813,-11.15946,16.667042,3.1741457,-6.178857,35.67589,5.255991,-0.5376053,8.452316,4.661426,3.5443327,41.820274,19.15508,-20.696705,-39.09717,6.0060935,9.211019,0.38638225,5.0094967,-27.833153,34.71852,-43.611958,-2.9226305,-7.246177,-1.598911
178,1.4070022106170654,-248.04461669921875,79.39690399169922,-4.321150776266681,2.434334848150936,-88.56583633403855,-20.286278,2.0687354,-0.041281976,6.021767,6.7879195,-11.645779,16.609974,2.7884,-6.856544,39.123745,3.9690056,-1.185677,8.15095,4.65066,3.8648453,41.846573,19.270056,-20.52493,-39.6604,5.7061415,8.885441,0.6279895,5.7105246,-28.014362,34.84501,-43.94607,-2.5406263,-7.4898586,-1.7561039
179,1.481133222579956,-249.6611328125,79.17497253417969,-4.1870195564589,2.063303726606527,-88.13812120705285,-20.008615,1.7295007,0.201819,6.000946,6.926326,-11.733916,16.360617,2.1463451,-7.537438,42.963627,2.4092758,-1.8950073,7.765692,4.454864,4.2535286,41.70352,19.401712,-20.367756,-40.12951,5.434148,8.575636,0.85797185,6.4198823,-28.165785,34.907753,-44.090942,-2.155818,-7.657187,-1.9612274
180,1.5510300397872925,-251.26132202148438,78.91187286376953,-3.814345116524942,1.7374160440170243,-87.70515089653216,-19.593975,1.1688509,0.5313231,6.0304503,7.219652,-11.182107,15.877234,1.2188526,-8.081712,47.031937,0.7960228,-2.52807,7.3462114,4.00968,4.6541524,41.37495,19.541916,-20.223886,-40.452686,5.207888,8.277309,1.0702796,7.136743,-28.271717,34.88566,-44.05544,-1.8714302,-7.702347,-2.1326237
181,1.6054041385650635,-252.84910583496094,78.6065673828125,-3.116627553223467,1.464587485087227,-87.26250881315161,-19.066662,0.26552072,0.93875533,6.1170835,7.9545045,-9.749801,15.140717,-0.044609282,-8.434531,51.388023,-0.8507307,-3.0531948,6.894649,3.221765,5.0698175,40.84918,19.701788,-20.087933,-40.62028,5.017562,7.9714484,1.2525096,7.883474,-28.325813,34.75756,-43.839752,-1.720612,-7.594599,-2.263742
182,1.6488423347473145,-254.41915893554688,78.25315856933594,-2.1713615244024562,1.1970869619703977,-86.80922563752235,-18.471607,-0.94086707,1.4554714,6.414889,8.994855,-7.6602964,14.241938,-1.5512938,-8.632493,56.011433,-2.59248,-3.519214,6.4050283,2.174542,5.5271053,40.143654,19.876026,-19.963741,-40.660885,4.861751,7.667877,1.4103276,8.632992,-28.316069,34.549637,-43.415222,-1.6454883,-7.3621335,-2.3888402
183,1.701254963874817,-255.9724578857422,77.85083770751953,-1.1877451291109131,0.9033009680817029,-86.39868971935294,-19.855213,-2.1628401,2.1017177,11.293582,7.4919257,-5.358207,13.278785,-3.0985894,-8.695991,60.65314,-4.3391457,-3.9206586,5.9288254,1.0908973,6.0156054,39.30024,20.063559,-19.86541,-40.6101,4.758793,7.4038863,1.572903,9.357076,-28.250715,34.291473,-42.79994,-1.6151803,-7.048254,-2.4946432
184,1.8141090869903564,-257.4544677734375,77.47441101074219,-0.3420368365738314,0.5706908525631483,-86.07303010166974,-20.943611,-3.2051313,2.7813604,15.999555,5.351919,-3.2241058,12.307219,-4.5386896,-8.675,65.117485,-6.033471,-4.262131,5.5046062,0.15672795,6.519643,38.34662,20.26053,-19.806637,-40.4908,4.725756,7.216371,1.7692891,10.032859,-28.148796,34.008533,-42.01653,-1.5982888,-6.697889,-2.5706828
185,1.878318428993225,-258.964599609375,76.98274230957031,0.3715885879078265,0.18860445729459505,-85.83195112296085,-21.989418,-4.0293202,3.447968,21.327473,1.7779461,-1.0950023,11.350962,-5.928007,-8.621009,69.4748,-7.685835,-4.4761176,5.1293807,-0.62661344,7.0535207,37.295364,20.465406,-19.788055,-40.326546,4.7841277,7.1153054,2.0202575,10.66088,-28.030325,33.693462,-41.07172,-1.5993012,-6.3127775,-2.585445
186,1.939951777458191,-260.47991943359375,76.43112182617188,1.001980341455464,-0.2368972286139504,-85.66757913501547,-23.05451,-4.729344,4.0362186,27.346088,-2.905129,1.1499453,10.374789,-7.2785163,-8.505751,73.81348,-9.32977,-4.592889,4.799896,-1.3086582,7.628334,36.124763,20.676474,-19.809164,-40.09858,4.9183626,7.0817204,2.3059669,11.271603,-27.90426,33.32821,-39.981663,-1.6293397,-5.8729553,-2.5572524
187,2.0187697410583496,-261.9544372558594,75.85408782958984,1.571312091926231,-0.6530443939089223,-85.56839281366334,-23.898302,-5.3787613,4.489613,33.088943,-7.712084,3.1506515,9.2757225,-8.540962,-8.274371,78.03258,-10.974864,-4.7310386,4.5106087,-1.9220501,8.202682,34.79525,20.886732,-19.875797,-39.745235,5.0901284,7.1071815,2.5941641,11.878701,-27.76544,32.927803,-38.77401,-1.662952,-5.393434,-2.5558598
188,2.1235454082489014,-263.3966979980469,75.27412414550781,2.1241809693960803,-1.0015365481120682,-85.51218697006816,-24.340761,-6.035531,4.8545327,37.69176,-11.703693,4.5623765,7.9365273,-9.683736,-7.8699527,82.029175,-12.626504,-5.0036154,4.2412367,-2.5209863,8.727071,33.26909,21.084843,-19.986908,-39.20075,5.2620683,7.1828227,2.8512557,12.480615,-27.597103,32.5175,-37.458904,-1.6751183,-4.8886895,-2.649084
189,2.226651906967163,-264.8287658691406,74.7288589477539,2.734620299552636,-1.2524713531284224,-85.48547009102423,-24.349903,-6.720681,5.2283077,40.969517,-14.679886,5.18609,6.274498,-10.757497,-7.21862,85.87198,-14.320062,-5.464891,3.974576,-3.1887581,9.187001,31.50929,21.262833,-20.123203,-38.414528,5.3214645,7.266474,3.0668976,13.038408,-27.37962,32.10655,-35.96643,-1.5943756,-4.328473,-2.811825
190,2.2903037071228027,-266.2391357421875,74.23101806640625,3.397366418443713,-1.4286353516823505,-85.48957615555673,-24.069216,-7.3829746,5.6233478,43.4861,-17.193531,5.263969,4.3420343,-11.7747555,-6.362422,89.60026,-16.038097,-6.027326,3.705962,-3.9141233,9.59525,29.548721,21.417582,-20.276587,-37.42812,5.325342,7.3752565,3.2566938,13.538979,-27.104265,31.696262,-34.280342,-1.4563111,-3.7166083,-3.0201964
191,2.343513250350952,-267.65869140625,73.786376953125,4.013593672544859,-1.5538750466093336,-85.53545538714744,-23.572535,-7.9464407,5.9981337,45.500538,-19.441797,5.112081,2.2322862,-12.642393,-5.418148,93.03469,-17.693945,-6.6047945,3.441845,-4.5954947,9.946765,27.456396,21.544016,-20.461107,-36.319267,5.490187,7.589705,3.4252408,14.016649,-26.773674,31.301477,-32.492523,-1.3958853,-3.1179783,-3.3413174
192,2.416876792907715,-269.0932312011719,73.39923095703125,4.489241168381226,-1.6543474619950829,-85.63606735369699,-22.923286,-8.361291,6.3007565,47.23107,-21.602814,5.042551,0.03540936,-13.284417,-4.5107665,95.99526,-19.198208,-7.1207695,3.1887777,-5.1244674,10.241433,25.294308,21.63418,-20.697245,-35.16446,6.030863,7.9921885,3.5747974,14.514438,-26.39852,30.935167,-30.704967,-1.545433,-2.5959132,-3.8420627
193,2.4973652362823486,-270.5306701660156,73.06546020507812,4.788225750295609,-1.7347329025760547,-85.84482405386417,-22.092564,-8.597458,6.5583687,48.660767,-23.71681,5.1134057,-2.299756,-13.675594,-3.6097944,98.48197,-20.54363,-7.624636,2.9934046,-5.45333,10.490979,23.015999,21.670969,-21.004911,-33.89647,7.2141967,8.727618,3.65531,15.034588,-25.982662,30.603815,-28.84234,-2.07265,-2.1396773,-4.6347437
194,2.5627329349517822,-271.95294189453125,72.79188537597656,4.970838049612202,-1.7824878810142732,-86.13810675794346,-21.056742,-8.696856,6.7945294,49.686523,-25.684721,5.1658554,-4.8088818,-13.864373,-2.6832511,100.58106,-21.759317,-8.147553,2.830137,-5.6429453,10.694766,20.607733,21.644487,-21.35956,-32.500908,8.861936,9.712111,3.6583803,15.559865,-25.527832,30.30223,-26.886353,-2.8596103,-1.7128414,-5.6479
195,2.625476837158203,-273.3787536621094,72.57819366455078,5.067329448322281,-1.799299205437209,-86.413745598793,-19.88411,-8.732938,6.9463778,50.37997,-27.469662,5.188141,-7.3756504,-13.91067,-1.8517615,102.23591,-22.809893,-8.581171,2.6031477,-5.748726,10.835921,18.174078,21.56483,-21.728104,-31.125687,10.516083,10.686245,3.6630452,16.11257,-25.048424,30.020967,-25.046335,-3.6095362,-1.3481344,-6.67884
196,2.6837968826293945,-274.8023986816406,72.42292785644531,5.104942553798907,-1.7869495110066806,-86.56901594921473,-18.645164,-8.771844,6.948201,50.81673,-29.035868,5.1690803,-9.883365,-13.889627,-1.2477539,103.38944,-23.664913,-8.83032,2.2230988,-5.8264356,10.900107,15.818297,21.45787,-22.091051,-29.929827,11.7075,11.3939295,3.7806811,16.72988,-24.566603,29.742474,-23.547653,-4.027131,-1.0945629,-7.5335865
197,2.7303051948547363,-276.2247314453125,72.31036376953125,5.090151410608866,-1.744591144942792,-86.58458796055385,-17.347715,-8.825887,6.7832866,51.003914,-30.388988,5.099836,-12.350657,-13.845044,-0.9208428,104.02335,-24.308332,-8.850309,1.6718296,-5.8883033,10.891585,13.532551,21.343664,-22.470123,-28.918049,12.331487,11.765419,4.1034393,17.448816,-24.097292,29.459309,-22.488089,-3.9840858,-0.9842853,-8.2206745
198,2.7755534648895264,-277.6516418457031,72.25455474853516,5.008496750683308,-1.6739518873675907,-86.51067729339407,-15.95422,-8.858475,6.4890103,50.902584,-31.54703,4.992029,-14.817347,-13.757209,-0.81409043,104.16389,-24.75729,-8.70784,1.0013201,-5.907341,10.825683,11.280522,21.224985,-22.87994,-28.042274,12.618287,11.938463,4.5735946,18.26872,-23.644096,29.173105,-21.773542,-3.6522603,-0.9962649,-8.831388
199,2.820155143737793,-279.0879821777344,72.25862121582031,4.866191615379888,-1.580105836187913,-86.34859533321713,-14.475782,-8.856437,6.078124,50.540783,-32.487167,4.8628335,-17.197092,-13.614113,-0.8946931,103.820854,-25.034449,-8.473018,0.23248883,-5.8801565,10.702194,9.10644,21.106194,-23.299898,-27.355825,12.596145,11.968699,5.091073,19.167622,-23.21462,28.87467,-21.342941,-3.1888466,-1.104983,-9.296345
200,2.8575356006622314,-280.5292053222656,72.32454681396484,4.668300886515978,-1.4672353463042447,-86.09985256532256,-12.921346,-8.805186,5.56207,49.940216,-33.189373,4.7269216,-19.401659,-13.4010725,-1.1248301,103.00521,-25.166767,-8.214232,-0.6147199,-5.8019977,10.521475,7.060448,20.994465,-23.708525,-26.922253,12.295337,11.9105835,5.5530543,20.126564,-22.819223,28.554804,-21.137974,-2.7484725,-1.279887,-9.547548
201,2.885892629623413,-281.9910888671875,72.44326782226562,4.395176134277067,-1.3315209862637596,-85.71158409154829,-11.289872,-8.689036,4.8876376,49.086693,-33.69096,4.5914655,-21.41555,-13.122293,-1.5621868,101.682976,-25.19064,-7.939993,-1.5842935,-5.65093,10.279799,5.1271777,20.900764,-24.12321,-26.787477,11.538873,11.754742,5.99612,21.173035,-22.46827,28.203682,-21.241169,-2.29123,-1.5536332,-9.5028105
202,2.9164671897888184,-283.4716796875,72.62092590332031,4.050190666978267,-1.1698113129724779,-85.20067097852973,-9.581732,-8.507092,4.067556,47.98097,-33.992146,4.445631,-23.269804,-12.800077,-2.1948352,99.85558,-25.09436,-7.6067743,-2.668244,-5.432719,9.9878435,3.2945807,20.828175,-24.557743,-26.916761,10.370301,11.471881,6.453339,22.322006,-22.163887,27.826958,-21.67345,-1.7546537,-1.9239912,-9.21811
203,2.945009469985962,-284.97088623046875,72.85661315917969,3.6796864326382384,-0.9879781051276084,-84.67436025536945,-7.8065414,-8.265145,3.2107518,46.665314,-34.018013,4.27414,-24.950947,-12.437092,-2.8856394,97.58925,-24.834513,-7.2149606,-3.7726846,-5.1812406,9.663794,1.618665,20.76925,-24.977842,-27.2501,9.153744,11.094077,6.8146443,23.527914,-21.899586,27.441895,-22.276985,-1.2617072,-2.3080266,-8.836471
204,2.9744367599487305,-286.49298095703125,73.14562225341797,3.3313250036376325,-0.7943991275418117,-84.23998963938612,-5.9715843,-7.97573,2.4263175,45.178265,-33.691547,4.0613174,-26.445705,-12.022211,-3.505697,94.94954,-24.36456,-6.7701797,-4.807988,-4.9302897,9.318512,0.15246668,20.712069,-25.340794,-27.719135,8.253785,10.662167,6.971175,24.732721,-21.66405,27.070469,-22.877804,-0.9421509,-2.626944,-8.504789
205,3.0032732486724854,-288.033447265625,73.47657012939453,3.0098019645664165,-0.5795114739307279,-83.90278798065404,-4.050776,-7.6435404,1.6981503,43.44953,-32.997475,3.7917867,-27.76838,-11.522679,-4.0210247,91.915276,-23.67074,-6.2381487,-5.780949,-4.6861377,8.933823,-1.0844302,20.64742,-25.613731,-28.33641,7.795682,10.165773,6.8420515,25.92432,-21.451897,26.723705,-23.464104,-0.9019315,-2.8500395,-8.227178
206,3.0329675674438477,-289.61328125,73.85454559326172,2.6922557351444167,-0.34301659700453685,-83.6147438953587,-2.0543594,-7.2619276,0.9846524,41.489902,-31.97807,3.4760823,-28.907633,-10.944902,-4.4967966,88.459145,-22.788506,-5.6290803,-6.730233,-4.42641,8.505188,-2.1310792,20.576395,-25.824474,-29.110773,7.5765347,9.595541,6.502056,27.121523,-21.26279,26.392141,-24.099043,-1.0523796,-3.0245082,-7.939565
207,3.0627896785736084,-291.21392822265625,74.26502990722656,2.3831095728876748,-0.10888286405136689,-83.40354127727939,-0.044460595,-6.836347,0.35581857,39.463974,-30.643185,3.138791,-29.818869,-10.32775,-4.9488926,84.63474,-21.740105,-5.0085917,-7.6110296,-4.146387,8.061715,-3.0226467,20.505478,-26.01893,-29.975462,7.4688783,8.996694,6.079976,28.307669,-21.091997,26.060747,-24.714357,-1.233213,-3.1901445,-7.6862335
208,3.0816843509674072,-292.8370056152344,74.7014389038086,2.085271502241447,0.09846567070026284,-83.29688754903378,1.9201142,-6.377091,-0.11936243,37.53514,-29.002142,2.8053484,-30.461758,-9.707262,-5.395755,80.491806,-20.545238,-4.440017,-8.3773365,-3.8458154,7.632416,-3.7915547,20.44462,-26.24177,-30.86604,7.347593,8.415264,5.702002,29.463242,-20.931435,25.713604,-25.239714,-1.2857121,-3.3849952,-7.5098805
209,3.113618850708008,-294.4849853515625,75.16134643554688,1.7719060355479492,0.27826390109961013,-83.33760512287154,3.8790905,-5.855295,-0.421155,35.646824,-27.00195,2.433456,-30.819502,-9.06752,-5.8702707,75.967476,-19.161388,-3.9792356,-8.992614,-3.5010705,7.2241497,-4.422204,20.399952,-26.488699,-31.810652,7.2039733,7.8400383,5.366394,30.57903,-20.773966,25.339579,-25.64947,-1.1764017,-3.6325257,-7.422786
210,3.1505041122436523,-296.1554260253906,75.63052368164062,1.451962700147419,0.4389980870390649,-83.50174416875171,5.843173,-5.292333,-0.5881959,33.75649,-24.661915,2.028263,-30.910765,-8.377905,-6.351816,71.05249,-17.592407,-3.5700595,-9.482948,-3.1284153,6.8214493,-4.905,20.37525,-26.739485,-32.832745,7.0941253,7.2543964,5.018955,31.66176,-20.617384,24.94548,-25.977987,-0.9911033,-3.907847,-7.398919
211,3.1822617053985596,-297.8294982910156,76.10015869140625,1.1802958208306111,0.5705968163024431,-83.71620381161563,7.716094,-4.77353,-0.63951564,32.04211,-22.092628,1.6851118,-30.752457,-7.664759,-6.7725506,65.857285,-15.925534,-3.118441,-9.898726,-2.7887,6.4198585,-5.2728157,20.377584,-27.01511,-33.875286,6.996557,6.697372,4.7046857,32.712326,-20.461576,24.542168,-26.234035,-0.7478884,-4.175534,-7.4230776
212,3.2060463428497314,-299.5216979980469,76.56666564941406,1.0130834623983236,0.6645948369303137,-83.90635393717825,9.402281,-4.3787317,-0.5918838,30.678558,-19.397705,1.4968119,-30.370234,-6.9740067,-7.051359,60.482853,-14.243535,-2.5415168,-10.29199,-2.5409875,6.014733,-5.557313,20.41494,-27.337788,-34.883556,6.8893275,6.2080817,4.469212,33.734142,-20.306217,24.138834,-26.431889,-0.46390787,-4.40044,-7.480582
213,3.2256147861480713,-301.235595703125,77.01516723632812,0.9555348177088951,0.7027228920159432,-84.07129685326188,10.895074,-4.1182947,-0.41683048,29.683044,-16.386576,1.5733628,-29.683437,-6.323038,-7.169029,54.76561,-12.499004,-1.8465372,-10.672592,-2.390207,5.61977,-5.733634,20.49551,-27.719255,-35.872047,6.759267,5.790205,4.3528495,34.73463,-20.149387,23.737112,-26.561773,-0.08429828,-4.576501,-7.587399
214,3.253296375274658,-302.9656982421875,77.43536376953125,0.9841429106430584,0.6942320163873235,-84.24408387677892,12.240939,-3.9523156,-0.10337426,28.97237,-13.06581,1.8309264,-28.705545,-5.716394,-7.142348,48.685795,-10.666724,-1.091198,-11.01573,-2.3138385,5.2325115,-5.7912383,20.623528,-28.142487,-36.87109,6.619563,5.4251423,4.3228016,35.707912,-19.990423,23.328802,-26.621939,0.37858242,-4.72272,-7.7438817
215,3.298633575439453,-304.7102355957031,77.8167724609375,1.1089706394046164,0.6747795565674776,-84.3976135456203,13.439514,-3.8849204,0.2912816,28.533058,-9.825278,2.0735066,-27.615116,-5.198706,-6.946853,42.57041,-8.859158,-0.27939466,-11.326144,-2.3243477,4.8226314,-5.780127,20.797663,-28.588043,-37.852283,6.4915075,5.118555,4.315158,36.637558,-19.831835,22.910786,-26.639889,0.8093722,-4.8400984,-7.913373
216,3.356844663619995,-306.4612731933594,78.1474838256836,1.3371461660862938,0.6807745774175175,-84.49762495539271,14.499613,-3.9255912,0.67944247,28.329979,-7.041645,2.1091263,-26.579744,-4.8127656,-6.574801,36.7216,-7.1782937,0.5889376,-11.616164,-2.4295075,4.359106,-5.754349,21.012163,-29.03688,-38.779037,6.3960257,4.876628,4.2655,37.511356,-19.677702,22.48084,-26.647747,1.0929552,-4.9283423,-8.059896
217,3.4108991622924805,-308.2139892578125,78.42130279541016,1.743777714083473,0.7329557341252863,-84.51427804987784,15.434888,-4.192617,0.9741231,28.250834,-4.71295,1.8487338,-25.578876,-4.6200314,-5.9665956,30.965645,-5.6384974,1.6043781,-11.910456,-2.6943903,3.787061,-5.722161,21.264612,-29.49957,-39.649307,6.325536,4.7233844,4.164975,38.35929,-19.530634,22.033806,-26.660051,1.1796352,-4.973557,-8.1863
218,3.4628260135650635,-309.95758056640625,78.62291717529297,2.318484600191221,0.8024180441325828,-84.45694193011784,16.259487,-4.6690464,1.206524,28.306595,-2.645904,1.4091384,-24.51141,-4.6580486,-5.1477933,25.150887,-4.1648126,2.7074347,-12.213902,-3.1104622,3.1374147,-5.6618395,21.5554,-29.980646,-40.474796,6.2744517,4.648488,4.0437922,39.18475,-19.391165,21.570929,-26.668234,1.1382113,-4.979227,-8.309017
219,3.507908821105957,-311.673095703125,78.75289916992188,2.9409921045431457,0.8499403496256945,-84.35230132515727,16.984125,-5.1652417,1.4663906,28.654057,-0.9379325,0.91713995,-23.441692,-4.8838625,-4.2585382,19.639145,-2.7232013,3.7151997,-12.507365,-3.5778608,2.5090249,-5.5795345,21.880718,-30.450586,-41.24874,6.2669816,4.606485,3.8954484,39.933517,-19.260399,21.10443,-26.65998,1.0310795,-4.9709063,-8.41349
220,3.545870304107666,-313.37200927734375,78.81768035888672,3.4741468828097073,0.8434804389954933,-84.23728958414975,17.604612,-5.465891,1.8672553,29.476414,0.2974678,0.5066664,-22.488781,-5.172377,-3.4487169,14.889913,-1.3009235,4.4879704,-12.759761,-3.979933,1.9998859,-5.4837976,22.233982,-30.878017,-41.959614,6.3258986,4.551201,3.7127762,40.547405,-19.140358,20.648548,-26.62071,0.9213908,-4.974418,-8.485752
221,3.583139657974243,-315.0398864746094,78.82489013671875,3.8536615730710193,0.8121396920359502,-84.11735525360176,18.05615,-5.4175205,2.575037,30.928738,0.95008576,0.19269143,-21.75063,-5.403744,-2.6944635,10.992568,0.18995465,5.0078654,-12.9537525,-4.2475343,1.6033806,-5.4096665,22.613565,-31.272345,-42.600395,6.4774375,4.479693,3.4814806,41.029305,-19.030863,20.194733,-26.567715,0.80357105,-4.999328,-8.522265
222,3.61102032661438,-316.69390869140625,78.776611328125,4.133580179769943,0.7706844189083103,-83.99030035157173,18.334166,-5.110516,3.5109346,32.9425,1.0729067,-0.07041492,-21.153505,-5.572702,-1.9598407,7.6826425,1.7408831,5.3826947,-13.092365,-4.4271407,1.2761368,-5.3466063,23.017662,-31.644363,-43.170174,6.7040234,4.41198,3.209639,41.39801,-18.931845,19.741058,-26.49129,0.651906,-5.031385,-8.530893
223,3.6347503662109375,-318.329833984375,78.68719482421875,4.319567453408061,0.6823406241326103,-83.89813246015888,18.50529,-4.659731,4.4419127,35.36846,0.78541553,-0.2523098,-21.320187,-5.672833,-1.3080888,6.469103,2.398588,5.662134,-13.154884,-4.53837,1.0566314,-5.238782,23.435446,-31.967817,-43.66313,6.964412,4.335993,2.9243412,41.61539,-18.852776,19.302681,-26.332888,0.49817732,-5.0613704,-8.5126915
224,3.6579017639160156,-319.9437561035156,78.55201721191406,4.429616573495445,0.5080011971082128,-83.87698705722991,18.64574,-4.214609,5.128592,38.02707,0.22486582,-0.33837208,-21.690125,-5.698122,-0.91165143,6.37643,2.5204766,5.893619,-13.128173,-4.610857,0.9816864,-5.0290704,23.851124,-32.214214,-44.07214,7.2192373,4.240527,2.650549,41.64899,-18.811728,18.893797,-26.03919,0.3753094,-5.079777,-8.4702835
225,3.676806688308716,-321.5483703613281,78.36160278320312,4.508218723042863,0.21339705930856323,-83.93821662796287,18.803629,-3.8680012,5.515432,40.925606,-0.67444277,-0.30421197,-21.691507,-5.7136126,-0.9258797,6.363301,2.4683723,6.2016783,-13.002734,-4.6924295,1.0774113,-4.711796,24.253914,-32.364456,-44.393948,7.498796,4.092171,2.3557277,41.507973,-18.827478,18.502632,-25.624962,0.28216746,-5.0994015,-8.377662
226,3.6972708702087402,-323.1275329589844,78.11663818359375,4.517689052715107,-0.16340486306007923,-84.07000178746888,18.92428,-3.5135872,5.732768,44.137707,-1.955812,-0.18039578,-21.395088,-5.673969,-1.2625635,6.411657,2.387379,6.518797,-12.784709,-4.7281775,1.3131049,-4.3137536,24.638876,-32.4318,-44.624275,7.8136787,3.9060147,2.0375075,41.209915,-18.907755,18.127903,-25.116934,0.21001582,-5.120401,-8.246837
227,3.7195372581481934,-324.70159912109375,77.83061218261719,4.363068316813343,-0.5592258848684586,-84.26516975639932,18.9438,-3.039573,5.8172445,47.55666,-3.431865,-0.046934262,-20.915756,-5.4457765,-1.7525642,6.493305,2.6150324,6.606111,-12.489914,-4.6073527,1.6404043,-3.8341615,24.998426,-32.43818,-44.745815,8.092266,3.7456415,1.7648613,40.740345,-19.052633,17.795658,-24.49188,0.17837827,-5.1138663,-8.136245
228,3.746999502182007,-326.2732849121094,77.50672149658203,3.9660517040771857,-0.920628748469077,-84.50695393236914,18.815258,-2.357347,5.8002567,51.059696,-4.9024787,0.017568037,-20.854034,-4.9271135,-2.1767209,7.6160736,2.9393513,6.231964,-12.142224,-4.2395782,2.012482,-3.274045,25.323662,-32.40906,-44.741695,8.2652025,3.6762116,1.6047952,40.087765,-19.256023,17.533293,-23.727798,0.20421003,-5.05069,-8.103924
229,3.7846977710723877,-327.8347473144531,77.13639068603516,3.2839686653266873,-1.259232452268631,-84.8098394104696,18.57624,-1.4735463,5.659219,54.63363,-6.3181047,-0.018701317,-21.566448,-4.0803776,-2.4728987,10.473657,3.5938532,5.2210956,-11.731152,-3.585006,2.442329,-2.617747,25.604733,-32.35294,-44.613438,8.314883,3.7354805,1.5913328,39.236496,-19.515932,17.343594,-22.797163,0.29853225,-4.9153914,-8.1862955
230,3.8302958011627197,-329.37457275390625,76.73151397705078,2.4361119065658525,-1.6308883101939513,-85.14463297547628,18.300468,-0.5338533,5.364753,58.2761,-7.750585,-0.11683738,-22.338333,-3.0349874,-2.8378155,13.71402,4.9696684,3.7904444,-11.277153,-2.7717977,2.9526052,-1.8819667,25.838419,-32.264267,-44.354195,8.279262,3.884301,1.6787297,38.21444,-19.831635,17.216257,-21.734362,0.4488884,-4.725626,-8.346402
231,3.822160482406616,-330.86895751953125,76.33472442626953,1.5556160490596977,-2.03389109068585,-85.43944121837137,17.97488,0.38050252,4.9479136,61.90224,-9.19487,-0.24829921,-23.071978,-1.9539262,-3.3337357,17.193398,6.0708256,2.2550256,-10.8412485,-1.9356774,3.5072854,-1.1161826,26.028307,-32.14627,-43.930714,8.170287,4.0724444,1.8163276,37.064426,-20.192669,17.159304,-20.599812,0.6372359,-4.5020123,-8.53129
232,3.8048603534698486,-332.3600158691406,75.89871215820312,0.7099620646896289,-2.4364507210650626,-85.64835166849625,17.538729,1.2756863,4.456287,65.47354,-10.668401,-0.388221,-23.705025,-0.9290512,-3.9484603,20.848944,5.821281,0.8562868,-10.457756,-1.1437751,4.0624256,-0.36965573,26.179934,-32.003513,-43.311497,8.000197,4.2482605,1.9568812,35.813423,-20.58227,17.176826,-19.43454,0.84423286,-4.2655406,-8.685825
233,3.786459445953369,-333.84185791015625,75.42312622070312,-0.1485527909636801,-2.809720293740105,-85.76587776306302,16.956623,2.248933,3.8998547,69.07824,-12.227221,-0.6046765,-24.438686,0.063366726,-4.6359153,25.290947,3.3492703,-0.50029695,-10.109637,-0.35161135,4.599829,0.28834745,26.308851,-31.873072,-42.469753,7.6373906,4.3666167,2.1657722,34.49271,-20.98186,17.231636,-18.277554,1.1120014,-3.9912708,-8.76242
234,3.783959150314331,-335.2921142578125,74.87982177734375,-1.0794124747356917,-3.1574178680091065,-85.83168187731067,16.243202,3.3108819,3.2687309,72.73377,-13.86516,-0.8983753,-25.29251,1.0681695,-5.312815,30.506447,-0.69713545,-1.9187552,-9.765681,0.49918285,5.138931,0.89998174,26.417171,-31.748938,-41.43152,7.116762,4.4622664,2.4486156,33.068317,-21.382198,17.328318,-17.081974,1.4304143,-3.679233,-8.798116
235,3.742379665374756,-336.7220764160156,74.32157135009766,-2.0577348579485397,-3.4846982751512243,-85.87997581035725,15.385364,4.384882,2.5741832,76.313385,-15.513949,-1.1402857,-25.985924,2.0769603,-5.9136715,35.58721,-5.148118,-3.1961663,-9.428126,1.3956938,5.687861,1.5784377,26.4794,-31.57016,-40.243893,6.7008724,4.6062784,2.665896,31.46308,-21.787214,17.531557,-15.76207,1.7031221,-3.3880813,-8.864445
236,3.707595109939575,-338.0940246582031,73.81849670410156,-3.0519895095697347,-3.8014056541020884,-85.93588277346268,14.365109,5.3856144,1.8125752,79.69208,-17.098476,-1.1929507,-26.220514,3.1044445,-6.463576,39.55086,-8.775428,-4.141108,-9.111262,2.3168037,6.2535458,2.4307768,26.451313,-31.27317,-38.934612,6.6527567,4.8739543,2.6721232,29.603466,-22.209639,17.913828,-14.238797,1.8387976,-3.1763608,-9.036012
237,3.699169635772705,-339.4537658691406,73.41474151611328,-4.161569645305072,-4.116040830277592,-86.02968242731677,13.158438,6.3703237,0.9002797,82.92737,-18.630894,-0.9520932,-25.838587,4.2974133,-7.0785146,41.976276,-11.206112,-4.6525993,-8.817896,3.3800042,6.864424,3.5016928,26.277367,-30.80147,-37.42178,6.9839435,5.253293,2.2691357,27.36189,-22.670742,18.544668,-12.342384,1.7924479,-3.111175,-9.407947
238,3.7328500747680664,-340.81640625,73.07770538330078,-5.37149727465318,-4.420263231954687,-86.14047637331113,11.767798,7.3509564,-0.15523961,86.056526,-20.129759,-0.51138663,-25.033424,5.6212835,-7.738492,43.44613,-13.10001,-4.850191,-8.552707,4.574508,7.4990044,4.6986556,25.93394,-30.205591,-35.672478,7.5815625,5.7096424,1.5693192,24.821568,-23.167574,19.384682,-10.1920395,1.6351806,-3.1404047,-9.926902
