unveil-humanoid-operators/unveil-humanoid-operators.github.io/feature-analysis-animation/data/feature_matrix_instances/height_root_translate_rom_walking_A057_Neutral_stoop_down_005__A057.csv
Frame,root_translateX,root_translateY,root_translateZ,root_rotateX,root_rotateY,root_rotateZ,left_hip_pitch_joint_dof,left_hip_roll_joint_dof,left_hip_yaw_joint_dof,left_knee_joint_dof,left_ankle_pitch_joint_dof,left_ankle_roll_joint_dof,right_hip_pitch_joint_dof,right_hip_roll_joint_dof,right_hip_yaw_joint_dof,right_knee_joint_dof,right_ankle_pitch_joint_dof,right_ankle_roll_joint_dof,waist_yaw_joint_dof,waist_roll_joint_dof,waist_pitch_joint_dof,left_shoulder_pitch_joint_dof,left_shoulder_roll_joint_dof,left_shoulder_yaw_joint_dof,left_elbow_joint_dof,left_wrist_roll_joint_dof,left_wrist_pitch_joint_dof,left_wrist_yaw_joint_dof,right_shoulder_pitch_joint_dof,right_shoulder_roll_joint_dof,right_shoulder_yaw_joint_dof,right_elbow_joint_dof,right_wrist_roll_joint_dof,right_wrist_pitch_joint_dof,right_wrist_yaw_joint_dof
0,0.9975587725639343,2.1728298664093018,75.72931671142578,-0.6506725279164324,-2.066592312020629,-113.43217187292171,-12.671261,13.697368,20.354862,38.595753,-22.648998,-3.8084662,16.165203,-5.1987853,-14.725387,9.394695,-20.081139,9.335038,4.5157228,1.7696114,7.2153945,11.84635,17.134945,-30.976826,56.79209,3.9729538,1.3754389,4.103973,-3.5879416,-22.932604,57.186413,58.836018,10.051867,2.1175816,-9.529544
1,1.1072278022766113,1.8844938278198242,75.70380401611328,-0.507366430232924,-2.0452525895522764,-113.640475124462,-12.3171,13.388229,20.682875,38.47056,-22.93193,-3.6220944,15.621486,-5.796148,-14.431675,10.861635,-20.523455,9.69361,4.4404845,1.5378584,7.1426597,12.030304,17.110573,-31.161306,57.23387,3.9037752,1.4025499,3.8097217,-3.446243,-22.973213,56.881626,58.85481,10.204432,2.121298,-9.620199
2,1.2306522130966187,1.5795633792877197,75.68720245361328,-0.353202874343336,-2.016495394678488,-113.85849836863719,-11.969135,13.0712385,21.020506,38.351765,-23.219416,-3.4342299,15.099216,-6.3967752,-14.130182,12.258948,-20.96023,10.062265,4.4156613,1.3061024,7.053195,12.174425,17.05944,-31.392824,57.729015,3.8094008,1.4211177,3.5298285,-3.2713525,-23.021671,56.524513,58.875374,10.336425,2.125774,-9.707895
3,1.3498330116271973,1.2724320888519287,75.67618560791016,-0.18787390435753154,-1.9894473612314394,-114.0702317953635,-11.602774,12.72856,21.359756,38.192455,-23.488457,-3.2475035,14.538159,-7.013841,-13.820993,13.738873,-21.377754,10.420461,4.3848147,1.0692124,6.968816,12.276937,16.987867,-31.645569,58.259365,3.748081,1.4545386,3.2407405,-3.0933251,-23.078175,56.164646,58.874794,10.477911,2.130805,-9.798641
4,1.4806370735168457,0.9612550735473633,75.67435455322266,-0.0069825053314254825,-1.971957957776456,-114.26145599728046,-11.1948185,12.338311,21.69597,37.947247,-23.716518,-3.0633266,13.871854,-7.666226,-13.499707,15.4617815,-21.762514,10.747267,4.316702,0.81424844,6.907904,12.321693,16.916464,-31.925938,58.810547,3.7645545,1.5268061,2.9191906,-2.9288256,-23.13345,55.817673,58.835777,10.645565,2.1349082,-9.897883
5,1.6077650785446167,0.651610255241394,75.68164825439453,0.1856652291768112,-1.9684943345240025,-114.42943332675029,-10.742704,11.90201,22.026766,37.617413,-23.901957,-2.8756294,13.114769,-8.352042,-13.176658,17.408506,-22.116663,11.039196,4.221871,0.54582965,6.874916,12.287923,16.845163,-32.270695,59.417023,3.8303647,1.6335709,2.5703065,-2.7603738,-23.193768,55.44226,58.730247,10.842453,2.1462412,-10.008521
6,1.7391443252563477,0.33927255868911743,75.68974304199219,0.3922189047619699,-1.973404532617561,-114.58246302011977,-10.258832,11.425272,22.356153,37.221214,-24.054552,-2.6848779,12.292817,-9.066531,-12.845489,19.507158,-22.4403,11.304499,4.103921,0.25897056,6.8616066,12.208677,16.78224,-32.652283,60.04812,3.9357653,1.7659525,2.1988018,-2.5944762,-23.254541,55.055603,58.57817,11.063144,2.1619828,-10.127493
7,1.8704016208648682,0.024943580850958824,75.70259094238281,0.6304207778100092,-1.977737690247908,-114.72386664548353,-9.738171,10.8855505,22.69285,36.726597,-24.162521,-2.5015097,11.372511,-9.824836,-12.474057,21.795212,-22.70021,11.539996,3.9780967,-0.063436784,6.860601,12.082401,16.728724,-33.05284,60.6607,4.141701,1.9384891,1.79033,-2.4307637,-23.31903,54.68488,58.400566,11.289609,2.1664352,-10.249633
8,2.007056474685669,-0.28724849224090576,75.71744537353516,0.9187676317842343,-1.9722218433640806,-114.85731850145984,-9.1761465,10.259429,23.044748,36.100597,-24.213816,-2.3352122,10.320614,-10.640935,-12.028618,24.307537,-22.861176,11.741172,3.845077,-0.44103467,6.86556,11.92487,16.69127,-33.434998,61.194954,4.5144715,2.164579,1.3274432,-2.2790666,-23.382486,54.374687,58.22134,11.507193,2.1440036,-10.370154
9,2.136808156967163,-0.5952440500259399,75.73788452148438,1.2655320650402906,-1.9528575455399906,-114.97879425761077,-8.567604,9.534649,23.41785,35.32333,-24.19964,-2.195532,9.134303,-11.531219,-11.51726,27.057346,-22.956911,11.912517,3.7029514,-0.8846875,6.869837,11.734839,16.67143,-33.805813,61.658916,5.108008,2.4606085,0.7738186,-2.139879,-23.443842,54.139164,58.048347,11.733064,2.0792246,-10.496637
10,2.2739853858947754,-0.9111091494560242,75.7651596069336,1.6584563131594816,-1.9252516706151914,-115.08722068890833,-7.915454,8.723368,23.800922,34.406513,-24.12348,-2.0722692,7.833895,-12.478514,-10.944536,30.004564,-22.981522,12.0467,3.5476985,-1.3813019,6.8773694,11.513764,16.668741,-34.174343,62.068344,5.879253,2.8097758,0.14486048,-2.0114856,-23.502,53.95811,57.869545,11.968917,1.9840584,-10.628627
11,2.4044177532196045,-1.215682864189148,75.79402160644531,2.084677326181008,-1.8944016436042794,-115.19117762390029,-7.2283177,7.8428063,24.181509,33.368313,-23.99282,-1.9540032,6.415034,-13.44618,-10.27391,33.113373,-22.850336,12.128912,3.395265,-1.9159335,6.8972206,11.260285,16.685429,-34.530735,62.39528,6.739401,3.177034,-0.49626556,-1.8903384,-23.561613,53.805508,57.677216,12.173041,1.8838679,-10.748639
12,2.5299181938171387,-1.5106656551361084,75.82659912109375,2.5321713104508174,-1.8648777784057804,-115.2995538546127,-6.511353,6.909423,24.548584,32.225353,-23.81391,-1.8306564,4.8713207,-14.395789,-9.471166,36.352055,-22.478373,12.145645,3.2498744,-2.4761038,6.939413,10.984403,16.72852,-34.850067,62.59963,7.601562,3.530963,-1.086027,-1.7826464,-23.62323,53.66963,57.469482,12.30636,1.8039974,-10.839521
13,2.6619324684143066,-1.80207359790802,75.85818481445312,3.010749734664603,-1.8328217521459398,-115.41541562799564,-5.749588,5.904603,24.909319,30.940546,-23.57235,-1.716476,3.2004993,-15.327563,-8.502587,39.724606,-21.783682,12.247134,3.1040082,-3.0760322,7.0028214,10.690833,16.793808,-35.11888,62.67143,8.482577,3.8898473,-1.6125325,-1.7065511,-23.673971,53.57296,57.264942,12.366895,1.7488064,-10.895983
14,2.802926778793335,-2.1009700298309326,75.89024353027344,3.517676940659384,-1.7972683231009488,-115.53279175660471,-4.939019,4.8275313,25.259083,29.503813,-23.262419,-1.6121304,1.3937687,-16.245255,-7.3900757,43.250916,-20.835812,12.37899,2.9692361,-3.7142267,7.085704,10.37563,16.89728,-35.367985,62.61664,9.408671,4.2628727,-2.1115396,-1.6412947,-23.724298,53.496735,57.044483,12.368777,1.7061577,-10.92692
15,2.9304466247558594,-2.383525848388672,75.92204284667969,4.023346128712897,-1.7667510721677853,-115.64746322601401,-4.101141,3.7225664,25.57515,27.980286,-22.906775,-1.4930311,-0.5527023,-17.1195,-6.1991363,46.907497,-19.766392,12.232348,2.829634,-4.3535132,7.1875143,10.0484,17.030102,-35.571766,62.44855,10.334736,4.6061006,-2.583069,-1.5935218,-23.767416,53.44199,56.81803,12.316959,1.674216,-10.94011
16,3.053990125656128,-2.6616570949554443,75.95225524902344,4.501115060755789,-1.7495542362295011,-115.7560679982596,-3.2565742,2.629898,25.837053,26.435984,-22.529644,-1.3308928,-2.6312644,-17.928717,-5.0102797,50.65729,-18.694578,11.508383,2.6863577,-4.960478,7.3108096,9.711715,17.195045,-35.725815,62.175114,11.206657,4.877063,-3.026187,-1.5517902,-23.805819,53.386433,56.57543,12.212001,1.6519132,-10.942649
17,3.195138931274414,-2.9479634761810303,75.9846420288086,4.958702489568907,-1.7440164918489864,-115.86280984547084,-2.4111383,1.5396775,26.04227,24.880579,-22.13038,-1.0951507,-4.9083357,-18.7107,-3.8383193,54.635883,-17.565317,10.032844,2.541785,-5.5432396,7.460116,9.36644,17.396664,-35.817284,61.769817,12.070004,5.0743217,-3.4728427,-1.5198551,-23.841759,53.32454,56.314114,12.035392,1.6461192,-10.929955
18,3.3268015384674072,-3.228574275970459,76.01355743408203,5.4035638681485505,-1.7463209521033913,-115.96690676712286,-1.5433685,0.43452406,26.199198,23.270105,-21.69393,-0.8109242,-7.3574066,-19.476229,-2.6820805,58.793392,-16.31857,7.9951553,2.396213,-6.1130004,7.633216,9.01227,17.637224,-35.854767,61.232384,12.932707,5.2185807,-3.9114246,-1.4988368,-23.87661,53.26543,56.034885,11.792963,1.6552418,-10.900148
19,3.4575722217559814,-3.511521577835083,76.04292297363281,5.811707926691496,-1.7625181113071366,-116.05760198195698,-0.6410228,-0.6477605,26.308588,21.61183,-21.23047,-0.53746235,-9.822627,-20.168852,-1.6046605,62.820587,-15.073779,5.6478577,2.2439516,-6.6417646,7.8227034,8.648935,17.91423,-35.864464,60.612217,13.680539,5.303593,-4.273591,-1.4743946,-23.91201,53.209526,55.731956,11.51976,1.6652559,-10.864637
20,3.586081027984619,-3.7994542121887207,76.06332397460938,6.1568556060946795,-1.7987508546801134,-116.12479847995704,0.30480802,-1.6682805,26.370272,19.911825,-20.748844,-0.32764468,-12.153442,-20.720806,-0.65032154,66.433136,-13.956756,3.2534912,2.0800543,-7.0993853,8.021034,8.272928,18.221342,-35.874146,59.964066,14.198562,5.3256474,-4.490059,-1.4301603,-23.950268,53.154076,55.39914,11.247895,1.6623931,-10.834948
21,3.7071220874786377,-4.09145450592041,76.08094787597656,6.447051482624573,-1.8628246757094602,-116.1756325126097,1.303526,-2.6364396,26.390335,18.157171,-20.247118,-0.1729567,-14.39429,-21.17383,0.16448276,69.72248,-12.909737,0.5011531,1.9096117,-7.4907336,8.233667,7.883032,18.554401,-35.884037,59.291782,14.417595,5.2626066,-4.5439887,-1.3643483,-23.995567,53.10204,55.030216,10.974481,1.6429356,-10.815435
22,3.8274664878845215,-4.40281867980957,76.1009750366211,6.6873086602933185,-1.9495892634974383,-116.21046058226133,2.3475494,-3.5583432,26.365076,16.352581,-19.721413,-0.05171049,-16.596193,-21.560566,0.83738303,72.79672,-11.887333,-2.6377327,1.7316282,-7.820283,8.462039,7.476364,18.912102,-35.88506,58.57627,14.410761,5.126735,-4.4702644,-1.2817715,-24.049982,53.052765,54.624657,10.687208,1.6147764,-10.799581
23,3.9408657550811768,-4.715282440185547,76.12113952636719,6.849014868410655,-2.04543019562968,-116.2097418169559,3.3999789,-4.3821282,26.287003,14.564316,-19.199074,0.0030635868,-18.621565,-21.758081,1.3904607,75.44115,-11.064927,-5.4304,1.5330807,-8.064327,8.691752,7.0480638,19.290125,-35.887745,57.838066,14.280309,4.9661517,-4.2768216,-1.1796178,-24.113113,52.997868,54.193954,10.402627,1.5810225,-10.782401
24,4.041622161865234,-5.023693561553955,76.14488220214844,6.907729230117271,-2.1363378371659234,-116.15732568165896,4.41699,-5.0556383,26.155972,12.870508,-18.714151,-0.040283535,-20.32559,-21.60313,1.8810905,77.45599,-10.629095,-7.100006,1.3055835,-8.202646,8.908694,6.5889587,19.682133,-35.905247,57.103127,14.126326,4.8284516,-3.9706001,-1.0595102,-24.182512,52.9343,53.753216,10.143964,1.544628,-10.75908
25,4.134742259979248,-5.339432239532471,76.1686782836914,6.8486228258544095,-2.224268819228441,-116.05116849108364,5.385915,-5.549237,25.978556,11.305536,-18.288445,-0.20732081,-21.594316,-20.944784,2.3830328,78.717636,-10.82083,-7.0880356,1.0467767,-8.219023,9.113938,6.0872645,20.084635,-35.95019,56.381035,13.928201,4.7161746,-3.532321,-0.9160248,-24.255478,52.852966,53.291023,9.919584,1.5066377,-10.730316
26,4.214895248413086,-5.659316062927246,76.19701385498047,6.69829178630622,-2.315628265617038,-115.90161294448485,6.3308735,-5.903048,25.764124,9.819107,-17.89983,-0.46951583,-22.52729,-19.90033,2.8662279,79.387566,-11.518636,-5.9071097,0.7646984,-8.138001,9.31559,5.5465565,20.496124,-36.013893,55.664448,13.649708,4.604668,-2.9647896,-0.75060636,-24.331146,52.757214,52.80859,9.715672,1.4651762,-10.698099
27,4.2876877784729,-5.976933002471924,76.22560119628906,6.49262091715291,-2.4027662055509786,-115.71281844362257,7.267479,-6.1769195,25.518148,8.349814,-17.51034,-0.77712613,-23.305708,-18.698355,3.2549803,79.692505,-12.35504,-4.36726,0.46581408,-7.9995375,9.509991,4.9785676,20.912664,-36.078312,54.956123,13.363907,4.5023737,-2.3062847,-0.57398117,-24.408121,52.66399,52.338036,9.521569,1.419199,-10.659823
28,4.351224899291992,-6.300178050994873,76.26081085205078,6.263712778532359,-2.4764866396105356,-115.49071993951739,7.768806,-6.2071304,25.291424,7.868741,-17.622065,-1.0934315,-24.107456,-17.527395,3.4967027,79.84888,-12.922985,-3.2433357,0.15768413,-7.838841,9.69091,4.399511,21.328102,-36.119255,54.257286,13.149206,4.4197297,-1.5948763,-0.39598632,-24.483809,52.589108,51.91063,9.324649,1.3677127,-10.612923
29,4.409814834594727,-6.6238112449646,76.28823852539062,6.007460997909231,-2.532987264180421,-115.23219554612716,8.078918,-6.11373,25.06158,7.791504,-17.928753,-1.4282318,-24.977072,-16.328217,3.64723,79.87897,-13.080007,-2.6957054,-0.1613732,-7.650994,9.852973,3.798668,21.738329,-36.147926,53.594227,12.989352,4.3528066,-0.7758008,-0.21721427,-24.555593,52.542614,51.53736,9.122377,1.2999854,-10.559428
30,4.468283653259277,-6.958498954772949,76.3222427368164,5.7158559802134015,-2.578110825182877,-114.93675623479396,8.377196,-5.9726667,24.808207,7.7160635,-18.224506,-1.7905722,-25.827877,-15.0473585,3.7349236,79.670525,-13.044986,-2.321409,-0.49398455,-7.426792,10.001364,3.17219,22.141766,-36.167988,52.96301,12.858507,4.298366,0.15051728,-0.03613482,-24.621653,52.516888,51.206722,8.921928,1.219897,-10.500184
31,4.520488739013672,-7.303284645080566,76.35299682617188,5.415819392327172,-2.6157836577412596,-114.61674579143019,8.666287,-5.8168383,24.53239,7.648057,-18.512316,-2.1323805,-26.633308,-13.8448105,3.6799917,79.23111,-12.9237175,-2.021513,-0.8344536,-7.1913643,10.143143,2.534255,22.537582,-36.15555,52.3301,12.806068,4.2710896,1.0644697,0.14097886,-24.68057,52.50133,50.917458,8.722737,1.1478089,-10.430559
32,4.566028594970703,-7.648804664611816,76.37785339355469,5.132084096398568,-2.6498226269366736,-114.28476926264267,8.952832,-5.6811633,24.235645,7.5837097,-18.78571,-2.4064062,-27.36538,-12.876735,3.3982213,78.57202,-12.825231,-1.7008513,-1.1774594,-6.9701324,10.284223,1.9031881,22.925776,-36.082573,51.6586,12.883958,4.2879844,1.8460395,0.30505347,-24.731733,52.488644,50.669777,8.526894,1.1040558,-10.34583
33,4.609798908233643,-7.993961811065674,76.39837646484375,4.872127858027711,-2.6839224410000746,-113.94033610796474,9.242363,-5.5740714,23.911825,7.5212965,-19.039406,-2.593314,-28.00637,-12.206328,2.8321073,77.67818,-12.771614,-1.3017421,-1.5235916,-6.770093,10.42929,1.2812386,23.30595,-35.931675,50.943798,13.1541815,4.3675566,2.4776049,0.4525132,-24.77466,52.477768,50.471733,8.328178,1.0987681,-10.234384
34,4.653825283050537,-8.340747833251953,76.41202545166016,4.621506718511621,-2.7150988839351413,-113.57933302919008,9.5317335,-5.479849,23.562733,7.4614587,-19.276342,-2.7207086,-28.569275,-11.736026,2.0401897,76.547356,-12.7025385,-0.8841324,-1.8750616,-6.5781307,10.573342,0.6610289,23.678492,-35.719063,50.204174,13.572939,4.500017,3.0173972,0.58966017,-24.808304,52.471985,50.32043,8.125637,1.1194668,-10.102133
35,4.693345069885254,-8.698144912719727,76.4200439453125,4.379845615435988,-2.7372666867220583,-113.2088384303837,9.813907,-5.392376,23.201649,7.403584,-19.502913,-2.8121245,-29.069796,-11.385004,1.110678,75.21165,-12.605389,-0.52746487,-2.227336,-6.390977,10.707719,0.04320291,24.045893,-35.47092,49.43917,14.031399,4.6578293,3.4599397,0.71402705,-24.833134,52.476776,50.207016,7.9384584,1.1518716,-9.970413
36,4.729433536529541,-9.060056686401367,76.42071533203125,4.141526898688142,-2.7444300334137552,-112.83595134948533,10.080689,-5.3032303,22.841974,7.3502865,-19.727776,-2.8912969,-29.526196,-11.072325,0.13220896,73.703,-12.469251,-0.31249392,-2.575947,-6.2045574,10.824731,-0.57228345,24.412436,-35.214134,48.646584,14.419213,4.8112073,3.8003623,0.8267682,-24.849577,52.494835,50.116707,7.783235,1.1823977,-9.860886
37,4.752270698547363,-9.4323148727417,76.42012786865234,3.9024006282857266,-2.7375261804796174,-112.46380449885913,10.333111,-5.2048926,22.489569,7.301732,-19.953121,-2.9659956,-29.936563,-10.796776,-0.91505414,72.02353,-12.301916,-0.296232,-2.9171896,-6.01233,10.92513,-1.1778944,24.780304,-34.93497,47.8103,14.735016,4.967834,4.017407,0.9295382,-24.858795,52.529095,50.045666,7.6587615,1.2132037,-9.777207
38,4.780592918395996,-9.809592247009277,76.41297149658203,3.6636479432334332,-2.7192204503644093,-112.0890142856896,10.575144,-5.101439,22.136812,7.255687,-20.172949,-3.02349,-30.282784,-10.5792885,-2.0714548,70.1563,-12.107285,-0.4158176,-3.2533045,-5.816658,11.013065,-1.7757407,25.150534,-34.626682,46.933517,15.026868,5.1364017,4.1199913,1.0216324,-24.86077,52.578014,49.998516,7.5597086,1.2500018,-9.70855
39,4.797183513641357,-10.187385559082031,76.39867401123047,3.4366947864025477,-2.684231331590635,-111.70885349398657,10.80385,-5.0068235,21.77695,7.2128067,-20.38707,-3.056688,-30.564638,-10.379493,-3.272995,68.10348,-11.869155,-0.5718635,-3.5872467,-5.6277733,11.084378,-2.3715816,25.525824,-34.32307,46.03805,15.26527,5.28844,4.1494184,1.1035091,-24.855116,52.63141,49.978405,7.4885654,1.2840192,-9.6543665
40,4.813774108886719,-10.567561149597168,76.38433837890625,3.229779633777949,-2.628908096564436,-111.32052705086134,11.014014,-4.9327526,21.403608,7.17692,-20.595537,-3.058809,-30.78684,-10.16258,-4.4519157,65.86734,-11.570001,-0.6700525,-3.9200025,-5.4561195,11.135318,-2.9707036,25.908968,-34.058414,45.143497,15.422158,5.396034,4.1475534,1.1796366,-24.84062,52.674427,49.985176,7.4456034,1.3066671,-9.6139965
41,4.825620174407959,-10.959513664245605,76.36394500732422,3.045797727345533,-2.5475862511571092,-110.91918284641525,11.198462,-4.8813477,21.010021,7.150173,-20.795692,-3.019297,-30.950499,-9.937101,-5.625236,63.432034,-11.2171545,-0.7163671,-4.2538543,-5.3009963,11.162089,-3.5808659,26.30213,-33.840714,44.2491,15.4634075,5.448978,4.1003556,1.250341,-24.816105,52.702156,50.01789,7.4395237,1.3164296,-9.580477
42,4.833809852600098,-11.3584623336792,76.33792114257812,2.8798762951311354,-2.4446269618232566,-110.50814149140747,11.361066,-4.846169,20.6015,7.1326203,-20.985733,-2.945882,-31.050291,-9.707369,-6.817758,60.795464,-10.81329,-0.7466714,-4.5847445,-5.1593633,11.167693,-4.192571,26.70514,-33.65092,43.340073,15.41635,5.4632635,3.9943118,1.3152124,-24.781193,52.71946,50.076508,7.465777,1.3176364,-9.556328
43,4.8296122550964355,-11.765069007873535,76.30433654785156,2.728752469861235,-2.328126977403501,-110.09435589789898,11.513482,-4.82244,20.188396,7.1207476,-21.175098,-2.8597863,-31.084814,-9.433103,-7.9785085,57.974636,-10.32882,-0.7199875,-4.9088717,-5.0271597,11.158927,-4.8044405,27.117716,-33.497433,42.431404,15.325369,5.4501114,3.8723953,1.3736794,-24.735914,52.732212,50.164043,7.5095477,1.310111,-9.555282
44,4.830080509185791,-12.172261238098145,76.26158905029297,2.590088290448771,-2.2064466356015595,-109.68514159933893,11.667329,-4.806589,19.780985,7.1135855,-21.374317,-2.7817867,-31.056509,-9.080701,-9.050854,54.986774,-9.734599,-0.5993316,-5.2208056,-4.902445,11.143042,-5.4097342,27.538076,-33.38509,41.53345,15.241379,5.4206657,3.777872,1.4280553,-24.680029,52.74288,50.280792,7.554803,1.2936021,-9.591022
45,4.8180317878723145,-12.589218139648438,76.2134017944336,2.4586667145889205,-2.0787215758430295,-109.27848659473118,11.821158,-4.792969,19.379936,7.1087584,-21.586304,-2.7245648,-30.955265,-8.643642,-10.030438,51.786304,-9.007175,-0.36896345,-5.521926,-4.7813983,11.120781,-6.0189576,27.966778,-33.32573,40.651432,15.144514,5.366007,3.7194605,1.4739473,-24.61308,52.759968,50.43155,7.607339,1.2566243,-9.683971
46,4.807377338409424,-13.017745018005371,76.16017150878906,2.339472124979304,-1.9426323015090845,-108.87007987346706,11.971116,-4.786529,18.978674,7.1062107,-21.804731,-2.6750126,-30.779768,-8.141609,-10.936792,48.362827,-8.156388,-0.055039782,-5.815824,-4.6681037,11.088879,-6.634753,28.403906,-33.315613,39.780617,15.016437,5.284211,3.6751313,1.5111114,-24.534882,52.77945,50.61546,7.6720366,1.2029473,-9.821319
47,4.79746150970459,-13.447477340698242,76.09807586669922,2.242636833869866,-1.8033793117889532,-108.46250005296817,12.127643,-4.802819,18.575682,7.103962,-22.02425,-2.6146772,-30.537958,-7.5867176,-11.748579,44.766327,-7.2035713,0.31149727,-6.1012917,-4.571182,11.048321,-7.2319856,28.844786,-33.33005,38.9129,14.916992,5.1963215,3.642179,1.5487832,-24.445871,52.78568,50.82367,7.732648,1.155392,-9.966549
48,4.785161972045898,-13.887985229492188,76.0289535522461,2.1815869490309443,-1.6681895563704228,-108.0597767418122,12.295281,-4.8595366,18.171461,7.114178,-22.246477,-2.5247037,-30.23967,-6.997919,-12.439881,41.05201,-6.1727266,0.6985879,-6.3763723,-4.5022535,11.001476,-7.805818,29.283714,-33.357136,38.058144,14.891308,5.1229057,3.6186473,1.5911685,-24.34758,52.768547,51.049965,7.777914,1.1371881,-10.083668
49,4.777791500091553,-14.342576026916504,75.95306396484375,2.1617912210723547,-1.5368132510291708,-107.65985668711538,12.476769,-4.965448,17.761763,7.1338553,-22.46878,-2.3956466,-29.877268,-6.376176,-12.991416,37.166935,-5.0234485,1.0756187,-6.642765,-4.4655313,10.944856,-8.346479,29.715471,-33.38946,37.211456,14.9728565,5.066883,3.608215,1.6426461,-24.240557,52.71958,51.294857,7.7915516,1.1604276,-10.159807
50,4.756659507751465,-14.816056251525879,75.86099243164062,2.17780515485544,-1.4095295904152039,-107.25466008975839,12.673038,-5.1141973,17.340252,7.1526628,-22.68645,-2.238426,-29.430178,-5.732704,-13.415178,33.068764,-3.7462263,1.4564928,-6.907827,-4.4566293,10.879298,-8.870592,30.139107,-33.440353,36.38236,15.125701,5.0177426,3.6112573,1.7017905,-24.125532,52.64513,51.55971,7.782879,1.2112578,-10.21536
51,4.73347282409668,-15.297772407531738,75.75760650634766,2.2340748802353305,-1.2958983373864694,-106.838231887842,12.895802,-5.3066583,16.902163,7.1701317,-22.902813,-2.0636928,-28.886766,-5.1051655,-13.735205,28.830257,-2.411499,1.8781867,-7.1755853,-4.47966,10.814446,-9.380629,30.55375,-33.507454,35.57586,15.318107,4.9762077,3.6205025,1.7651135,-24.004654,52.55785,51.837563,7.783516,1.2735146,-10.263803
52,4.710794448852539,-15.791816711425781,75.64048767089844,2.333298109539653,-1.2072748809092337,-106.40121935185098,13.158197,-5.546929,16.438734,7.185122,-23.120386,-1.8810464,-28.230927,-4.5266466,-13.981102,24.51669,-1.0831399,2.3842633,-7.45493,-4.5419626,10.760887,-9.877173,30.959377,-33.586838,34.795837,15.518208,4.9431024,3.6282206,1.831984,-23.881084,52.4685,52.11869,7.8215046,1.331182,-10.31879
53,4.688180923461914,-16.297433853149414,75.50959014892578,2.501875854658973,-1.1527819585764814,-105.92479385190768,13.467352,-5.86537,15.9254,7.1985126,-23.33451,-1.671698,-27.412457,-4.011348,-14.162401,20.00934,0.29254428,3.0046349,-7.7648926,-4.6701803,10.721615,-10.361092,31.358425,-33.681213,34.04122,15.748943,4.9218445,3.6344347,1.9069321,-23.756662,52.37004,52.40315,7.908055,1.3856367,-10.386186
54,4.6613593101501465,-16.811481475830078,75.3570785522461,2.762478679005158,-1.144276762989145,-105.38539493683433,13.835058,-6.2885733,15.335005,7.208734,-23.542698,-1.4288887,-26.402617,-3.5901546,-14.271296,15.250484,1.7561045,3.7171018,-8.127998,-4.8902016,10.70026,-10.831247,31.75335,-33.791946,33.30924,16.016218,4.911184,3.6404338,1.9945124,-23.632229,52.259563,52.68813,8.027166,1.4441115,-10.458161
55,4.634750843048096,-17.34187126159668,75.17900848388672,3.1078112684717016,-1.1914254867148768,-104.77679490705671,14.273669,-6.8040156,14.664495,7.217097,-23.755133,-1.1821308,-25.223583,-3.2988675,-14.320442,10.394667,3.2399485,4.4901714,-8.549458,-5.1989574,10.70419,-11.281675,32.14345,-33.90947,32.598656,16.265678,4.904429,3.6404974,2.091545,-23.510248,52.154476,52.961353,8.166558,1.4997317,-10.527385
56,4.60390567779541,-17.891210556030273,74.98756408691406,3.4943693541782337,-1.28349396880682,-104.12761024787407,14.776224,-7.356636,13.950099,7.2242985,-23.982666,-0.9703232,-24.39759,-3.236508,-14.296101,6.6393633,4.1296563,5.2897267,-9.002247,-5.550882,10.730955,-11.700795,32.524063,-34.01821,31.904936,16.447676,4.8946986,3.6311157,2.1885781,-23.394775,52.07496,53.21493,8.315669,1.5449111,-10.586309
57,4.574206829071045,-18.444700241088867,74.78511810302734,3.893848462602435,-1.407363377191948,-103.46723068622072,15.330618,-7.9099846,13.227981,7.231537,-24.234207,-0.80665034,-25.10677,-3.6576223,-14.093237,6.493496,3.0378118,6.1538334,-9.453821,-5.914524,10.773016,-12.095695,32.892525,-34.12138,31.223833,16.550585,4.884029,3.59876,2.2878733,-23.289501,52.021694,53.442646,8.491989,1.5774909,-10.641372
58,4.538022518157959,-19.008460998535156,74.57646179199219,4.264360999429721,-1.5473380600495605,-102.8245948678249,15.912535,-8.413616,12.529332,7.257565,-24.514952,-0.6866349,-25.731825,-4.04991,-13.828768,6.35634,1.8803965,7.065075,-9.878609,-6.21293,10.811062,-12.558688,33.129726,-34.247517,30.699032,16.619032,4.868394,3.5582376,2.4041612,-23.229637,51.990017,53.643665,8.700724,1.6039429,-10.695152
59,4.5097784996032715,-19.587324142456055,74.36237335205078,4.623212630355903,-1.6832857184528731,-102.21040107595792,16.517315,-8.895844,11.853117,7.2569237,-24.786001,-0.60390353,-26.292856,-4.4286094,-13.55209,6.312182,0.76122713,7.9492693,-10.264449,-6.4831753,10.840706,-13.0044775,33.31259,-34.365547,30.234861,16.65983,4.8456883,3.53532,2.5199304,-23.188824,51.970596,53.829887,8.899849,1.6235043,-10.729552
60,4.4829421043396,-20.167531967163086,74.16270446777344,4.891059684247559,-1.7836773325723352,-101.66930050457965,17.09193,-9.263194,11.253391,7.26704,-25.053753,-0.576239,-26.74138,-4.6809373,-13.348725,6.298006,-0.15116672,8.705529,-10.571902,-6.6624794,10.869182,-13.395826,33.51107,-34.469276,29.7833,16.650684,4.810818,3.5629416,2.6076307,-23.148674,51.968933,54.018913,9.0550585,1.6339897,-10.72843
61,4.455323696136475,-20.749408721923828,73.97687530517578,5.078344309816439,-1.8534554579522262,-101.19659203292838,17.644632,-9.528635,10.728624,7.2786913,-25.316984,-0.6211844,-27.03734,-4.820844,-13.279341,6.2796464,-0.8744528,9.39823,-10.824504,-6.7446637,10.898401,-13.720099,33.698162,-34.526222,29.348894,16.603693,4.760039,3.6458037,2.6535807,-23.115612,52.006516,54.222527,9.157451,1.6365105,-10.685085
62,4.425559043884277,-21.345849990844727,73.7968521118164,5.208028610289751,-1.9043558314966242,-100.77986311527435,18.192026,-9.722152,10.266634,7.288958,-25.582684,-0.7275928,-27.20493,-4.8857617,-13.288104,6.277857,-1.471859,10.0475855,-11.029678,-6.7422247,10.923682,-14.016632,33.825546,-34.54654,28.989101,16.535566,4.693597,3.7660956,2.6720219,-23.097996,52.07601,54.438244,9.223717,1.6327481,-10.607539
63,4.405218124389648,-21.942182540893555,73.61935424804688,5.265444486256313,-1.9073477873464528,-100.43091787641802,18.696285,-9.826694,9.880672,7.301518,-25.836636,-0.8610159,-27.294226,-4.846869,-13.272765,6.2980504,-1.8389056,10.495416,-11.193797,-6.679015,10.943698,-14.155208,34.02895,-34.490185,28.5273,16.420042,4.6322784,3.9248421,2.6336882,-23.075182,52.207718,54.65808,9.2815485,1.6193104,-10.51307
64,4.383866310119629,-22.554197311401367,73.46236419677734,5.216620385088075,-1.8665851157562685,-100.17791185496736,19.162678,-9.805295,9.598931,7.3206186,-26.074783,-0.9920956,-27.298935,-4.6438017,-13.129438,6.3099833,-1.8511158,10.584125,-11.26053,-6.492873,10.962565,-14.272307,34.15039,-34.39405,28.180202,16.324137,4.5645638,4.1131186,2.5721276,-23.064491,52.34525,54.88435,9.314766,1.6002704,-10.409508
65,4.366146564483643,-23.167997360229492,73.31958770751953,5.054827655646553,-1.768603894032346,-100.05195537872443,19.574928,-9.661343,9.449565,7.3498535,-26.310905,-1.1117622,-27.196936,-4.2505255,-12.793071,6.3357725,-1.3987856,10.328538,-11.227127,-6.1800013,10.975932,-14.252054,34.251663,-34.20564,27.815464,16.253036,4.5083604,4.343712,2.444223,-23.05779,52.54742,55.147186,9.348139,1.5599974,-10.295609
66,4.340258598327637,-23.775388717651367,73.2024917602539,4.779998627962018,-1.6208987568482673,-100.03746606804025,19.947748,-9.393878,9.422733,7.3814344,-26.545095,-1.2404889,-26.989943,-3.6744196,-12.33546,6.372621,-0.5573148,9.805692,-11.021627,-5.742928,10.989354,-14.278211,34.275185,-34.07406,27.580624,16.169724,4.449691,4.621298,2.3345776,-23.058464,52.696793,55.39488,9.340451,1.5042149,-10.162255
67,4.302112102508545,-24.37411880493164,73.12190246582031,4.399856353855216,-1.4376461534203953,-100.08316769159462,20.287937,-9.002099,9.479594,7.4186234,-26.743729,-1.3854455,-26.759968,-2.9549716,-11.839031,6.410447,0.48914593,8.952279,-10.86444,-5.188676,10.993227,-14.085153,34.28221,-33.737568,27.305273,16.114994,4.391506,4.913986,2.1129816,-23.059658,52.992622,55.694763,9.355688,1.4583901,-10.033324
68,4.259605884552002,-25.000446319580078,73.05439758300781,3.925053312375014,-1.2366919891713033,-100.13275708269839,20.607306,-8.487095,9.5757885,7.4649677,-26.873312,-1.5532947,-26.58194,-2.1379688,-11.392029,6.4313517,1.5589259,7.6922083,-10.709661,-4.5382624,11.010456,-13.811273,34.248398,-33.34392,27.063566,16.046783,4.3386407,5.2133045,1.8798201,-23.055552,53.25456,55.981144,9.3315735,1.450428,-9.914702
69,4.20534086227417,-25.643840789794922,73.0006103515625,3.3596498362310103,-1.0038268106916999,-100.17966679281884,20.900059,-7.8535576,9.70749,7.5067935,-26.955,-1.7415614,-26.53672,-1.2325519,-10.969138,6.5073667,2.59865,5.710505,-10.562846,-3.7946026,11.021416,-13.483274,34.14764,-32.903717,26.897984,15.973618,4.2897434,5.5204067,1.6377811,-23.03562,53.48189,56.259747,9.239224,1.4939936,-9.800441
70,4.136602401733398,-26.2821044921875,72.98837280273438,2.670641128041793,-0.7495102532757247,-100.25154685293967,21.171854,-7.0678034,9.903669,7.5650105,-27.004726,-1.9556555,-26.530615,-0.18743634,-10.5759945,6.5757065,3.7412713,3.131432,-10.355336,-2.9285934,11.040992,-13.159307,33.967052,-32.491455,26.843676,15.883435,4.2471943,5.8525515,1.4089644,-22.993135,53.642662,56.53559,9.082911,1.5705222,-9.685616
71,4.058011054992676,-26.92384147644043,73.0032958984375,1.9863906241974347,-0.5224604194907105,-100.27348760257263,21.47425,-6.2720275,10.059915,7.631032,-26.950924,-2.1719196,-27.088497,0.68601656,-10.2850065,7.9297833,4.2730308,0.56604964,-10.160495,-2.083404,11.084547,-12.809376,33.752155,-32.107994,26.848333,15.750375,4.212898,6.197453,1.2062083,-22.937922,53.73709,56.787056,8.926105,1.6636443,-9.589207
72,3.970597267150879,-27.587465286254883,73.02752685546875,1.4081989104654185,-0.3611589415316782,-100.18671621306699,21.839779,-5.5757933,10.09593,7.7053127,-26.7262,-2.3728452,-28.239918,1.2067727,-10.172057,10.791356,4.0185227,-1.385956,-10.0666895,-1.3489122,11.15,-12.427044,33.45304,-31.71994,26.951508,15.586318,4.1816077,6.5402246,1.0007263,-22.854774,53.81349,57.067173,8.844002,1.755287,-9.534165
73,3.8923304080963135,-28.268945693969727,73.05583953857422,0.9366893745631029,-0.2587859804546063,-99.96465133925767,22.262249,-4.970545,9.999543,7.7844567,-26.335163,-2.549237,-28.914566,1.530713,-10.240385,12.865461,4.27253,-2.5955167,-10.076913,-0.7355748,11.2450075,-12.009781,33.10495,-31.339098,27.108677,15.372511,4.165142,6.8807178,0.8141125,-22.75065,53.83005,57.3316,8.836291,1.8531423,-9.529581
74,3.799109935760498,-28.973480224609375,73.09568786621094,0.5104772580067517,-0.18709565629232178,-99.64807237735444,22.710583,-4.3877788,9.823582,7.8782725,-25.810404,-2.7172215,-29.326117,1.7139213,-10.449429,14.538166,4.805155,-3.4033287,-10.162433,-0.17639042,11.362184,-11.548337,32.707703,-30.952988,27.31882,15.118623,4.1595664,7.222765,0.63506234,-22.624659,53.79807,57.590736,8.871846,1.9621572,-9.563608
75,3.695850372314453,-29.6855411529541,73.14586639404297,0.12364966646408287,-0.1458478943193005,-99.2914862424678,23.182966,-3.8336382,9.598536,7.987555,-25.118555,-2.9013793,-29.557386,1.7965926,-10.743779,16.00536,5.2911315,-3.9231243,-10.278646,0.34095758,11.495721,-11.051716,32.264862,-30.591648,27.60888,14.817572,4.1463056,7.5711107,0.45073482,-22.478241,53.757725,57.880413,8.967409,2.0618382,-9.62168
76,3.5807197093963623,-30.406919479370117,73.20881652832031,-0.2272933606593232,-0.13708350107557304,-98.9426790847992,22.90918,-3.1839457,9.390403,9.769329,-25.106785,-3.131118,-29.672174,1.8239563,-11.070757,17.416529,5.434739,-4.247148,-10.386107,0.82484406,11.63857,-10.520973,31.781347,-30.280788,27.99923,14.466705,4.1070223,7.930184,0.25167418,-22.314217,53.74531,58.233788,9.136893,2.131862,-9.688957
77,3.47247576713562,-31.146181106567383,73.27459716796875,-0.5453475228498088,-0.1584435822402826,-98.58443496741191,22.455076,-2.5382893,9.135033,12.016546,-25.173635,-3.398657,-29.65407,1.7787623,-11.469152,18.767817,5.1389675,-4.2113943,-10.506649,1.2837225,11.782866,-9.94205,31.259338,-30.013536,28.483162,14.080368,4.0366774,8.300294,0.040042795,-22.134375,53.7621,58.66557,9.416189,2.148372,-9.776955
78,3.369716167449951,-31.893571853637695,73.3464584350586,-0.8459298417065149,-0.20009324152059674,-98.20369907076122,22.000475,-1.9086826,8.822392,14.3138075,-25.100412,-3.697447,-29.499039,1.6626518,-11.947808,20.012274,4.574134,-3.8190706,-10.6495,1.7302521,11.927482,-9.309169,30.698778,-29.776115,29.043728,13.658877,3.9444582,8.678684,-0.17991436,-21.939325,53.789757,59.153416,9.785128,2.1279333,-9.887776
79,3.2723889350891113,-32.64356994628906,73.43280792236328,-1.1398676914393706,-0.2593110300014674,-97.84974274307152,21.49089,-1.2847422,8.495063,16.736595,-24.842737,-4.0470467,-29.265854,1.5503726,-12.408958,21.190674,3.85718,-3.3965786,-10.762228,2.170701,12.076253,-8.661733,30.105349,-29.597668,29.706379,13.159758,3.832994,9.065334,-0.4166007,-21.731026,53.83826,59.675003,10.175192,2.1114705,-9.993045
80,3.1762890815734863,-33.40044403076172,73.53545379638672,-1.4326128501737456,-0.33728462855354674,-97.56778703464796,20.883972,-0.6653234,8.187661,19.347599,-24.339727,-4.467424,-29.000736,1.520974,-12.749996,22.320314,3.1040788,-3.26707,-10.7960005,2.6038172,12.234867,-8.035595,29.488213,-29.505264,30.49282,12.540745,3.7044413,9.460107,-0.6761757,-21.51192,53.914757,60.206535,10.51599,2.1406226,-10.064841
81,3.0800766944885254,-34.15596389770508,73.64619445800781,-1.7219123870195476,-0.44899991155276914,-97.39171998283638,20.21591,-0.07137693,7.912795,22.131804,-23.544384,-4.9927616,-28.712864,1.6236492,-12.911977,23.42268,2.2967026,-3.5493972,-10.724512,3.0263193,12.41945,-7.407344,28.847776,-29.481472,31.408026,11.752034,3.5379848,9.904421,-0.95960516,-21.283224,54.027683,60.76163,10.799694,2.225852,-10.102921
82,2.9817495346069336,-34.91018295288086,73.76404571533203,-1.9984518534891431,-0.5931896333778252,-97.292096182213,19.50956,0.48549893,7.645773,25.0425,-22.489721,-5.606481,-28.377659,1.8250571,-12.9527645,24.473528,1.3966209,-4.051427,-10.576429,3.4323297,12.620726,-6.761735,28.184994,-29.517033,32.43481,10.829887,3.3363085,10.3830595,-1.2626834,-21.044985,54.172375,61.343597,11.061071,2.3458295,-10.119948
83,2.878283977508545,-35.66594314575195,73.88668060302734,-2.2538102419657435,-0.746497221998997,-97.21711250781712,18.71442,1.0176338,7.3616185,28.074408,-21.223934,-6.2582912,-27.982033,2.0755923,-12.943603,25.406044,0.48786288,-4.6319013,-10.387364,3.8147168,12.8071575,-6.1408644,27.51466,-29.648565,33.556858,9.85855,3.1390095,10.812256,-1.5777662,-20.797697,54.325684,61.90879,11.28152,2.4952073,-10.106893
84,2.771071672439575,-36.42572021484375,74.01686096191406,-2.486898591301536,-0.8838429170493538,-97.11554538419405,17.779762,1.5393194,7.03769,31.219467,-19.793037,-6.9033856,-27.515615,2.31259,-12.956436,26.163912,-0.35438433,-5.1495576,-10.190598,4.1671743,12.949684,-5.585472,26.85988,-29.913834,34.752018,8.916549,2.9899588,11.1101465,-1.8985916,-20.541986,54.46555,62.409885,11.446209,2.6682453,-10.054369
85,2.653794050216675,-37.180519104003906,74.1551513671875,-2.6904713605767454,-1.004692201844035,-96.98359653839884,16.694666,2.0377154,6.662629,34.515102,-18.169064,-7.5801563,-26.964415,2.5203586,-12.991865,26.727797,-1.122575,-5.5904584,-9.986476,4.4768734,13.046434,-5.0888395,26.237854,-30.329866,36.028137,7.961503,2.904095,11.2906685,-2.2176013,-20.274826,54.579384,62.840584,11.545137,2.8852937,-9.946291
86,2.534130096435547,-37.9247932434082,74.29102325439453,-2.8646125377166465,-1.1213169747952854,-96.8492687537458,15.490011,2.4871902,6.2494035,37.947647,-16.340813,-8.3203335,-26.341173,2.7214642,-13.008894,27.141926,-1.8619217,-6.019755,-9.754419,4.7401433,13.113484,-4.6202526,25.65417,-30.870955,37.374508,6.964224,2.8611665,11.387207,-2.5406208,-19.994808,54.679325,63.221554,11.585952,3.1417036,-9.791462
87,2.393397569656372,-38.66414260864258,74.4266357421875,-3.012563689975975,-1.2253776597057182,-96.70881985246916,14.173132,2.89113,5.813078,41.441833,-14.378439,-9.067041,-25.674366,2.9060562,-13.020673,27.445322,-2.5862637,-6.4145794,-9.4993105,4.966008,13.150117,-4.177574,25.113348,-31.502176,38.734386,6.0270514,2.8567073,11.347226,-2.8767354,-19.706484,54.77621,63.537018,11.5742035,3.3949656,-9.617535
88,2.2468550205230713,-39.399417877197266,74.56897735595703,-3.1378962474158225,-1.308280646960025,-96.55769451099513,12.749087,3.2640848,5.369472,44.925156,-12.346634,-9.752588,-24.98914,3.0685198,-13.042825,27.66883,-3.303383,-6.7531977,-9.227936,5.164936,13.156414,-3.763034,24.618927,-32.189167,40.05144,5.251571,2.8876705,11.117542,-3.231693,-19.419334,54.876396,63.765064,11.512051,3.6027994,-9.452105
89,2.101621150970459,-40.13182830810547,74.71548461914062,-3.225527291841846,-1.3573763738212508,-96.37744003283332,11.135424,3.562399,4.8327484,48.518955,-10.240257,-10.2655325,-24.301853,3.1856763,-13.085909,27.827639,-4.033197,-7.0458817,-8.950107,5.3193774,13.118028,-3.394983,24.177435,-32.953335,41.322956,4.620781,2.9769878,10.65763,-3.5926645,-19.13886,54.971478,63.880188,11.388732,3.7704883,-9.291106
90,1.953083872795105,-40.85622787475586,74.863037109375,-3.2765694460582604,-1.3805952040356892,-96.17688616477751,9.357572,3.7789795,4.228531,52.21409,-8.022915,-10.693436,-23.597347,3.2646174,-13.139134,27.905945,-4.7669415,-7.2962527,-8.659246,5.4254932,13.042311,-3.067011,23.791105,-33.801785,42.56932,4.0926495,3.123663,10.004653,-3.958459,-18.867605,55.060795,63.888718,11.207301,3.9151676,-9.123016
91,1.8097466230392456,-41.57625961303711,75.00604248046875,-3.3247324111073526,-1.400641636646343,-95.99257929868169,7.5673556,4.012909,3.7271888,55.773556,-5.7266955,-11.229174,-22.853857,3.3507931,-13.191003,27.887724,-5.466752,-7.477672,-8.339437,5.519074,12.962435,-2.743464,23.452976,-34.674328,43.767628,3.7351878,3.2865102,9.220095,-4.351669,-18.613285,55.16306,63.813217,10.991212,4.013048,-8.964427
92,1.679504156112671,-42.285465240478516,75.14295959472656,-3.408238310067438,-1.4401829129467405,-95.85977903181919,5.900579,4.391691,3.4806364,58.990463,-3.4052005,-12.029997,-22.05123,3.4954093,-13.234289,27.7561,-6.0923095,-7.5679617,-7.979041,5.6435184,12.911665,-2.386796,23.15115,-35.50702,44.89528,3.618657,3.4199746,8.364497,-4.796347,-18.38694,55.30488,63.674225,10.769785,4.040967,-8.832363
93,1.5505955219268799,-42.98056411743164,75.2700424194336,-3.555399079555184,-1.5049569135031395,-95.79083799682891,4.361893,5.0376997,3.575041,61.876156,-0.7720626,-13.270317,-21.164183,3.7334223,-13.285514,27.461845,-6.617052,-7.538922,-7.5694203,5.832342,12.900933,-2.0050664,22.87787,-36.296818,45.946896,3.812248,3.5147326,7.3806643,-5.3026433,-18.199932,55.51016,63.461533,10.556943,3.9780834,-8.724574
94,1.4251084327697754,-43.67095947265625,75.3909683227539,-3.739198786881975,-1.583143597199281,-95.76755672907949,2.868616,5.876053,3.8774424,64.56394,2.0962749,-14.776488,-20.206438,4.038876,-13.344858,27.016026,-7.0615726,-7.4179873,-7.1194296,6.0609293,12.910342,-1.6170322,22.630962,-37.070576,46.939922,4.264989,3.5833464,6.2594075,-5.8503942,-18.056982,55.763233,63.154083,10.337775,3.8431542,-8.634369
95,1.3380472660064697,-44.35759735107422,75.51541900634766,-3.734855586331727,-1.6405764430935303,-95.73464909779739,1.4212345,6.9147243,4.798508,66.95744,4.672822,-15.000033,-19.40136,4.0953465,-13.313204,26.840193,-7.6242027,-7.2124505,-6.6803255,6.1120977,12.878842,-1.20386,22.407019,-37.811146,47.89092,4.8650384,3.6132565,5.1338897,-6.41966,-17.956614,56.02896,62.760685,10.096799,3.673086,-8.572624
96,1.235579013824463,-45.045654296875,75.64391326904297,-3.761566519607369,-1.7115618190559683,-95.73253940251982,0.04667311,7.953468,5.580412,69.11396,6.2518773,-15.000033,-18.551977,4.217246,-13.263128,26.571018,-8.119119,-7.0511665,-6.225536,6.177685,12.856174,-0.7403575,22.202293,-38.49878,48.81273,5.499726,3.5990665,4.137293,-6.9942284,-17.894659,56.27472,62.299175,9.816674,3.5040472,-8.549132
97,1.1275092363357544,-45.723365783691406,75.76242065429688,-3.8568227325682787,-1.8146790133785498,-95.7809980149954,-1.2238119,8.873484,6.036881,71.016754,6.504293,-15.000033,-17.616806,4.46399,-13.189343,26.159061,-8.516795,-6.9548087,-5.7379847,6.2932997,12.856866,-0.21901186,22.014795,-39.13556,49.715424,6.2188535,3.5153363,3.2719784,-7.57596,-17.869946,56.505863,61.770805,9.479995,3.3316221,-8.560951
98,1.0148663520812988,-46.39809036254883,75.87488555908203,-4.00032471301114,-1.9451632859101,-95.87705396143775,-2.4018939,9.738398,6.3179817,72.66852,5.819149,-15.000033,-16.6028,4.805392,-13.088443,25.613865,-8.830761,-6.8839955,-5.2167478,6.446375,12.876323,0.34710068,21.843754,-39.72908,50.591957,7.056149,3.3705795,2.479783,-8.171052,-17.882406,56.736126,61.168877,9.099138,3.1417668,-8.605044
99,0.8902366161346436,-47.067928314208984,75.98046875,-4.16368281485304,-2.086496590267283,-96.00483186177364,-3.53602,10.519255,6.450979,74.07201,4.61901,-15.000033,-15.537553,5.2002583,-12.955823,24.96098,-9.074205,-6.828981,-4.677616,6.60786,12.90064,0.94803256,21.688368,-40.271076,51.43529,7.872454,3.2184837,1.8025242,-8.777209,-17.928915,56.95009,60.509933,8.706482,2.955382,-8.691022
100,0.7623999118804932,-47.74193572998047,76.08979034423828,-4.318724426592543,-2.220773934856142,-96.14713994624961,-4.6770406,11.195538,6.464796,75.23183,3.3276193,-15.000033,-14.448124,5.606331,-12.790906,24.22389,-9.26118,-6.779083,-4.137911,6.7487106,12.916235,1.5750176,21.547445,-40.751793,52.237366,8.532242,3.1174202,1.2800434,-9.386052,-18.003254,57.122246,59.808624,8.323107,2.7936335,-8.828133
101,0.629427969455719,-48.41037368774414,76.19625854492188,-4.4587564937135475,-2.3455561193831547,-96.30444186289428,-5.8459215,11.702333,6.2955585,76.12816,1.8806639,-14.937068,-13.333446,6.0202856,-12.583995,23.394709,-9.3866825,-6.730135,-3.595901,6.8589654,12.921326,2.2307541,21.420794,-41.1747,52.995934,9.025527,3.0887413,0.9464106,-10.005741,-18.099852,57.261765,59.068417,7.9675303,2.660184,-9.046761
102,0.5050838589668274,-49.074615478515625,76.30513000488281,-4.509302687132549,-2.448772486251321,-96.45438694350156,-7.0159335,12.23235,6.32701,76.74379,0.14162213,-14.014459,-12.281638,6.3146033,-12.325346,22.648218,-9.535852,-6.654643,-3.0706227,6.8707976,12.900989,2.9171734,21.30807,-41.542465,53.717243,9.417898,3.1051445,0.771563,-10.641592,-18.216118,57.378204,58.290764,7.6241784,2.5445457,-9.332909
103,0.3937074840068817,-49.736289978027344,76.41816711425781,-4.493778784664801,-2.5330456932649694,-96.59668323123518,-8.180458,12.731123,6.443177,77.120285,-1.6226995,-12.983467,-11.277486,6.515463,-12.041902,21.962767,-9.70135,-6.5624866,-2.5674458,6.808966,12.860173,3.6254978,21.206852,-41.846596,54.404938,9.686372,3.1534894,0.69808424,-11.281645,-18.350609,57.449142,57.486935,7.266965,2.4467711,-9.628739
104,0.2843388020992279,-50.40791702270508,76.53498077392578,-4.488422622661879,-2.6143203654139895,-96.75074231655537,-9.299116,13.363475,6.7238407,77.31768,-3.1693866,-12.033694,-10.250425,6.7218885,-11.757725,21.217035,-9.823687,-6.4748325,-2.0700865,6.7549,12.816566,4.3465915,21.113504,-42.08003,55.062782,9.807941,3.2194347,0.6688504,-11.916228,-18.503704,57.455772,56.670002,6.874792,2.3663151,-9.875973
105,0.17727839946746826,-51.070892333984375,76.65221405029297,-4.5030662816494385,-2.694339526940743,-96.92100500200846,-10.351035,14.208844,7.248584,77.33258,-4.4621105,-11.229289,-9.180214,6.9520993,-11.472676,20.369781,-9.878165,-6.4042325,-1.577144,6.719705,12.770222,5.0886154,21.023525,-42.233105,55.685635,9.762293,3.3288133,0.68929774,-12.550779,-18.676647,57.399357,55.849716,6.4255724,2.2948227,-10.054193
106,0.07285729795694351,-51.737945556640625,76.7654800415039,-4.523635072679143,-2.771140856363238,-97.10570887134672,-11.345855,15.174608,7.943988,77.143456,-5.6359425,-10.496467,-8.080145,7.18942,-11.177488,19.445477,-9.877961,-6.3442,-1.0886271,6.6861944,12.718534,5.8507876,20.934786,-42.314316,56.27752,9.565767,3.4792264,0.7837954,-13.188145,-18.870016,57.289207,55.01935,5.936384,2.235123,-10.195724
107,-0.029317371547222137,-52.40641403198242,76.87474060058594,-4.533204957642434,-2.8431036897269273,-97.29700506238507,-12.295431,16.151913,8.72213,76.763824,-6.6857357,-9.757793,-6.97229,7.4075155,-10.871324,18.492382,-9.855516,-6.2781806,-0.60530573,6.6407366,12.660872,6.6115055,20.847652,-42.341976,56.855087,9.254487,3.6134496,0.9239001,-13.816215,-19.083498,57.11978,54.1644,5.449899,2.2029011,-10.321652
108,-0.11979985237121582,-53.075599670410156,76.98076629638672,-4.518810315409222,-2.908481422355203,-97.4864998351976,-13.217858,17.035526,9.493171,76.20959,-7.609602,-8.927676,-5.8879185,7.5788417,-10.55846,17.57661,-9.853437,-6.1891723,-0.128274,6.5705423,12.596833,7.3498306,20.764172,-42.33448,57.433125,8.863907,3.6746168,1.0801858,-14.416636,-19.3163,56.876705,53.267788,4.9986086,2.2143955,-10.452939
109,-0.21140561997890472,-53.74357223510742,77.07923126220703,-4.473196607305899,-2.9692381769589082,-97.67308687218811,-14.119491,17.817507,10.264333,75.4916,-8.38113,-7.9402227,-4.815481,7.697236,-10.236233,16.680597,-9.863707,-6.0759096,0.34210813,6.468878,12.527668,8.066809,20.6856,-42.28951,58.017715,8.334507,3.6248686,1.2695853,-14.991226,-19.568697,56.547184,52.323563,4.604878,2.2939973,-10.59717
110,-0.29880771040916443,-54.41042709350586,77.1718978881836,-4.405706226696756,-3.0252877522002333,-97.8605023174616,-14.985769,18.541595,11.085413,74.60023,-9.020895,-6.8567615,-3.7502675,7.776501,-9.907654,15.791704,-9.877487,-5.9496565,0.80661166,6.3438587,12.453628,8.773088,20.611736,-42.20043,58.597496,7.6706676,3.5002909,1.4980035,-15.546023,-19.841692,56.138855,51.341644,4.243928,2.4264472,-10.741542
111,-0.3800297975540161,-55.075923919677734,77.25580596923828,-4.327499272270519,-3.0712289552487935,-98.04768862089738,-15.810046,19.17928,11.917274,73.5191,-9.584582,-5.7878623,-2.7071004,7.827778,-9.578361,14.924978,-9.903634,-5.8135533,1.2666535,6.2050233,12.373918,9.460986,20.543087,-42.079315,59.16119,7.004248,3.3569293,1.7197735,-16.081573,-20.135574,55.6832,50.33352,3.8988411,2.567714,-10.87624
112,-0.4560060203075409,-55.741180419921875,77.32709503173828,-4.245776455092903,-3.1017052802438223,-98.23388242950176,-16.588774,19.70487,12.7170925,72.22894,-10.119667,-4.8433347,-1.7019889,7.862417,-9.253825,14.097596,-9.951447,-5.6689267,1.7237643,6.061691,12.287599,10.1230135,20.480316,-41.937675,59.69775,6.466019,3.2527802,1.8910718,-16.6022,-20.450296,55.215656,49.312782,3.556426,2.673624,-10.991976
113,-0.5386770367622375,-56.39805603027344,77.38839721679688,-4.153851676957707,-3.1154344607659983,-98.42076434355863,-17.322205,20.106127,13.482423,70.71381,-10.653875,-4.032026,-0.73678637,7.8730645,-8.931881,13.3077345,-10.021246,-5.50013,2.1819746,5.9061613,12.194483,10.756448,20.423775,-41.77584,60.209896,6.0870795,3.1998346,1.9956815,-17.103386,-20.785095,54.72834,48.279213,3.1958916,2.731819,-11.076211
114,-0.6165816783905029,-57.05854797363281,77.44037628173828,-4.052362766986554,-3.115231398811018,-98.6079465932342,-18.011402,20.397467,14.236439,68.98366,-11.151405,-3.3023653,0.20025875,7.8581963,-8.611572,12.539562,-10.106358,-5.3110495,2.6389213,5.7362,12.095929,11.365884,20.37337,-41.588337,60.70087,5.797955,3.1696868,2.0591772,-17.591543,-21.140112,54.214787,47.230885,2.838295,2.7654812,-11.137593
115,-0.6969934105873108,-57.720703125,77.4811782836914,-3.957263314980597,-3.10138048585181,-98.79205799891865,-18.658758,20.599693,14.969402,67.05975,-11.55911,-2.6708133,1.1082513,7.8393884,-8.299921,11.799257,-10.203529,-5.1313143,3.0852695,5.571377,11.992998,11.955844,20.32827,-41.37384,61.15883,5.581596,3.161303,2.101671,-18.064342,-21.51465,53.69003,46.16501,2.5045428,2.784335,-11.199383
116,-0.7727657556533813,-58.37348556518555,77.50450134277344,-3.88775186304663,-3.0745122786174464,-98.96933061145215,-19.266813,20.737268,15.672097,64.963394,-11.824507,-2.1500459,1.9805659,7.8375964,-8.004063,11.106208,-10.3206005,-4.991166,3.5113997,5.431041,11.886377,12.529098,20.28732,-41.134068,61.573784,5.417952,3.1730924,2.1432068,-18.535671,-21.908539,53.185295,45.088886,2.2340703,2.7977118,-11.284641
117,-0.8476673364639282,-59.02986526489258,77.51458740234375,-3.847827034871752,-3.031759219481464,-99.14312301982109,-19.845219,20.819408,16.336023,62.688725,-11.93488,-1.7239964,2.8194776,7.859972,-7.7205653,10.44497,-10.441872,-4.912813,3.9178352,5.3204618,11.7739315,13.086324,20.248606,-40.864685,61.94135,5.3394375,3.2197616,2.1839683,-19.007023,-22.321362,52.698708,43.993687,2.048477,2.8070838,-11.404058
118,-0.9233621954917908,-59.68760681152344,77.51152801513672,-3.8304530424369716,-2.9741487627098193,-99.31397990380451,-20.389643,20.838104,16.96798,60.22532,-11.914178,-1.3859199,3.6251957,7.896605,-7.4469924,9.817429,-10.572415,-4.876213,4.307576,5.2297363,11.655391,13.625652,20.21102,-40.566463,62.26965,5.343406,3.297277,2.2152228,-19.470346,-22.752607,52.21691,42.879723,1.9204826,2.807686,-11.544119
119,-0.9955880045890808,-60.34685516357422,77.49650573730469,-3.8312572092080317,-2.908810184909713,-99.4746668878948,-20.881977,20.791344,17.57959,57.584644,-11.761796,-1.161949,4.413611,7.946081,-7.1869297,9.214186,-10.719504,-4.848386,4.676523,5.1545463,11.535134,14.147193,20.174995,-40.244415,62.565296,5.36246,3.3755214,2.2433333,-19.92621,-23.200472,51.75369,41.764027,1.8224158,2.7998877,-11.691692
120,-1.065432071685791,-61.00592803955078,77.46682739257812,-3.8484934068323993,-2.842855185093785,-99.61863702358973,-21.302526,20.676342,18.18349,54.770004,-11.47567,-1.0777361,5.2026424,8.00557,-6.94366,8.6214075,-10.888312,-4.7951927,5.019506,5.089035,11.417286,14.652599,20.141802,-39.90189,62.83385,5.329518,3.4239914,2.2746959,-20.365576,-23.661232,51.31432,40.65996,1.7127624,2.7843628,-11.833831
121,-1.1414061784744263,-61.66159439086914,77.42340850830078,-3.8791649011793647,-2.7809259219938713,-99.750389858448,-21.63547,20.501877,18.782375,51.747303,-11.049724,-1.1413358,5.996004,8.07188,-6.712685,8.04092,-11.083807,-4.6990705,5.3416095,5.030789,11.306886,15.144021,20.112886,-39.52938,63.073433,5.225394,3.4311585,2.3126519,-20.79064,-24.132153,50.897835,39.564598,1.5735798,2.7613628,-11.960097
122,-1.2125115394592285,-62.334312438964844,77.3647689819336,-3.9252805429255164,-2.7182171626900353,-99.87289872066354,-21.892868,20.268448,19.366423,48.514603,-10.48115,-1.3330774,6.787249,8.147113,-6.492543,7.471042,-11.297787,-4.5796056,5.643494,4.980982,11.199962,15.622539,20.088766,-39.125988,63.280136,5.0871153,3.414329,2.3531542,-21.207415,-24.612188,50.50293,38.477985,1.4272662,2.7301164,-12.079896
123,-1.284382939338684,-63.00422668457031,77.28825378417969,-3.988758201342183,-2.6477017299932455,-99.9769270744177,-22.099997,19.96471,19.925493,45.126614,-9.766854,-1.6348836,7.4718237,8.222831,-6.305675,7.1207714,-11.63698,-4.4562583,5.915862,4.9406996,11.087917,16.083729,20.069298,-38.713833,63.457966,4.9281993,3.3866358,2.3913615,-21.603651,-25.097063,50.12761,37.408764,1.2928592,2.6899562,-12.210581
124,-1.3542509078979492,-63.68520736694336,77.1954345703125,-4.071086018512751,-2.562378775239092,-100.05360156931992,-22.281044,19.58462,20.447487,41.63474,-8.904491,-2.0259445,7.9938874,8.29823,-6.167735,7.0948997,-12.15414,-4.3492184,6.1496973,4.910718,10.962131,16.523447,20.054169,-38.31411,63.610435,4.7633743,3.362508,2.4228601,-21.99094,-25.582737,49.78594,36.384533,1.2075597,2.6394458,-12.368994
125,-1.4288910627365112,-64.37327575683594,77.09215545654297,-4.187495787698704,-2.4556340632003444,-100.09933422528722,-22.465805,19.154278,20.894415,38.026417,-7.8693295,-2.4130955,8.497233,8.411215,-6.0633993,7.0717096,-12.672973,-4.2757,6.3392334,4.905522,10.813644,16.940714,20.043005,-37.933857,63.746513,4.580958,3.338225,2.4501884,-22.37332,-26.06486,49.483315,35.411556,1.1838088,2.5720212,-12.572855
126,-1.5060698986053467,-65.06173706054688,76.97667694091797,-4.327018360769148,-2.3335240919178886,-100.12191775687282,-22.627636,18.678452,21.277397,34.269623,-6.6695967,-2.82479,8.987291,8.547972,-5.984201,7.0533113,-13.1978245,-4.2196326,6.491643,4.9141583,10.649503,17.338778,20.035452,-37.560345,63.86154,4.3784943,3.309756,2.4744835,-22.741316,-26.540735,49.208687,34.478752,1.1934547,2.4898255,-12.808831
127,-1.5828403234481812,-65.75572967529297,76.84719848632812,-4.4616843587536055,-2.210782161524765,-100.13102809081921,-22.697104,18.127146,21.652615,30.361576,-5.340457,-3.4243832,9.482181,8.676129,-5.915115,7.0413103,-13.734648,-4.155783,6.620209,4.911465,10.487142,17.715103,20.030727,-37.187126,63.949986,4.1832757,3.2836194,2.489801,-23.08845,-27.008375,48.95087,33.58574,1.219611,2.4047563,-13.047644
128,-1.662545084953308,-66.4524917602539,76.7103271484375,-4.579398445031926,-2.1046820941858404,-100.13784522623813,-22.582613,17.469212,22.073643,26.243916,-3.8880782,-4.3798814,10.002596,8.77881,-5.83971,7.0379477,-14.289799,-4.0616927,6.7392735,4.8867455,10.344909,18.067715,20.027359,-36.80927,64.0063,4.020819,3.2663229,2.4905252,-23.407187,-27.467127,48.69828,32.733116,1.2433592,2.3288527,-13.259743
129,-1.7368227243423462,-67.15432739257812,76.56275939941406,-4.68140032715881,-2.027308443803168,-100.15012659450566,-22.187933,16.664566,22.584728,21.672787,-2.117051,-5.8311844,10.558493,8.860146,-5.7486606,7.051232,-14.873105,-3.93112,6.8609886,4.844645,10.238693,18.39365,20.02553,-36.419163,64.02486,3.8929472,3.2617083,2.4779572,-23.747488,-27.918238,48.474155,31.9488,1.3130049,2.259427,-13.442768
130,-1.8165035247802734,-67.86978912353516,76.39079284667969,-4.818889838580762,-1.9931420069365453,-100.19668873195866,-21.474218,15.774046,23.143923,16.54104,0.008810289,-7.6616616,11.172168,8.980359,-5.611907,7.061273,-15.468704,-3.786179,7.0030994,4.840908,10.165552,18.709812,20.023102,-36.0176,64.00358,3.787215,3.2660978,2.454196,-24.028357,-28.361732,48.24,31.18147,1.3613135,2.1930685,-13.608254
131,-1.8869273662567139,-68.60446166992188,76.1930923461914,-5.06582513654748,-2.0348968842265505,-100.33484662645706,-20.416903,14.943209,23.702278,10.986255,2.244477,-9.659568,11.875643,9.227563,-5.366294,7.0637565,-16.061779,-3.6525404,7.2229342,4.963083,10.134988,19.028458,20.01862,-35.622826,63.939884,3.7125132,3.2747245,2.4175546,-24.283733,-28.800768,48.021904,30.462091,1.4031798,2.140065,-13.745176
132,-1.9444650411605835,-69.35075378417969,75.96012115478516,-5.459017706626725,-2.1615928149623325,-100.59210662437314,-19.69167,14.561009,24.075684,6.6794796,3.5571582,-11.608549,12.674822,9.639683,-4.9784102,7.0591173,-16.639929,-3.5461087,7.5454626,5.2543635,10.138077,19.357504,20.009457,-35.25001,63.837166,3.678038,3.2825186,2.36551,-24.496635,-29.236637,47.817238,29.78708,1.410094,2.1110394,-13.845207
133,-1.9923791885375977,-70.1119155883789,75.698486328125,-5.9676532655106485,-2.3597405011052404,-100.93452914610573,-20.578915,15.116637,23.941864,6.3954334,2.304701,-13.517382,13.559836,10.175347,-4.478895,7.0547714,-17.224213,-3.4587924,7.939199,5.6835675,10.155601,19.705257,19.994196,-34.895966,63.69574,3.7189865,3.2929695,2.2852302,-24.669432,-29.670467,47.632607,29.15811,1.3618121,2.1124058,-13.894805
134,-2.032837152481079,-70.8667984008789,75.41401672363281,-6.518505373943526,-2.5824278537356156,-101.27200442161404,-21.377176,15.654641,23.785192,6.093059,0.7469658,-15.000033,14.481027,10.734186,-3.9605448,7.061472,-17.826406,-3.3602808,8.3072195,6.1600566,10.152067,20.06946,19.974474,-34.555264,63.527264,3.8112283,3.3073628,2.1830883,-24.861637,-30.00351,47.48747,28.68629,1.262588,2.1316717,-13.9055195
135,-2.0385637283325195,-71.64119720458984,75.13790893554688,-6.899338848438018,-2.7138964916870574,-101.41812229030225,-22.25929,15.803155,23.594822,6.0027227,-0.9320259,-15.000033,15.304858,11.048709,-3.639028,7.106996,-18.447132,-3.1856542,8.483071,6.456954,10.126459,20.363579,19.9455,-34.229916,63.37087,3.9033568,3.311982,2.0796638,-24.982653,-30.341255,47.32278,28.217482,1.1500576,2.1585197,-13.9185705
136,-2.0614516735076904,-72.4058837890625,74.87364959716797,-7.174083046950933,-2.8065610722760623,-101.55401920615458,-22.87843,15.851496,23.516829,5.8643866,-2.2611535,-15.000033,16.07228,11.235994,-3.326815,7.149394,-19.0009,-2.992168,8.641694,6.6305947,10.091309,20.572887,19.9188,-33.955833,63.246864,3.908088,3.3005393,2.001632,-25.073332,-30.566666,47.138313,27.8804,1.0411202,2.176098,-13.963685
137,-2.095560073852539,-73.16969299316406,74.61275482177734,-7.4057129507616155,-2.8358763344186,-101.6783511168673,-23.277313,15.827813,23.576008,5.7592616,-3.3698874,-15.000033,16.746435,11.369877,-3.0283077,7.1936026,-19.504305,-2.7887516,8.777966,6.747164,10.060281,20.686348,19.887678,-33.686893,63.12715,3.8197482,3.261243,1.9523194,-25.128014,-30.792944,46.9195,27.552965,0.9705483,2.1871488,-14.027312
138,-2.1320316791534424,-73.9112548828125,74.37263488769531,-7.6044946507804125,-2.818664347734954,-101.7916227447454,-23.4583,15.710234,23.751015,5.606755,-4.3381133,-15.000033,17.35519,11.464856,-2.7426677,7.2399087,-19.971268,-2.5756383,8.902373,6.8282633,10.00627,20.72807,19.863361,-33.47924,63.010826,3.6377163,3.203678,1.9208019,-25.213976,-30.94178,46.719166,27.373009,0.9391601,2.1936483,-14.110146
139,-2.143721342086792,-74.62023162841797,74.2121810913086,-7.713209508104076,-2.757021459099031,-101.88037445067211,-23.458244,15.532657,24.036259,5.442419,-4.8750916,-15.000033,17.909376,11.460799,-2.4892337,7.2854447,-20.355928,-2.346925,8.988314,6.7950635,9.969618,20.685156,19.82723,-33.2505,62.91781,3.4864469,3.141199,1.9009434,-25.124905,-31.14886,46.42947,27.081001,0.89049447,2.2020152,-14.206732
140,-2.1638739109039307,-75.308349609375,74.12561798095703,-7.671017945886251,-2.663152581859714,-101.92748133671323,-23.338715,15.355681,24.410015,5.3865232,-4.7031093,-15.000033,18.422817,11.293631,-2.2933416,7.3475313,-20.625616,-2.096578,9.0695915,6.568679,9.9409075,20.494856,19.787191,-33.086452,62.93956,3.3922322,3.0866623,1.8986862,-24.846245,-31.378887,46.04715,26.7164,0.8669802,2.2381835,-14.352539
141,-2.23412823677063,-76.01216125488281,74.08173370361328,-7.36982836282439,-2.5089472173926484,-101.89333903835417,-23.109306,15.156163,24.909235,5.597637,-3.483468,-15.000033,18.89406,10.852643,-2.2030585,7.3829236,-20.778517,-1.8000561,9.045557,6.038751,9.892766,20.222595,19.762726,-32.98438,63.035667,3.343756,3.040187,1.8921399,-24.449314,-31.499235,45.655212,26.437824,0.843623,2.2856724,-14.578752
142,-2.3462257385253906,-76.75494384765625,74.0655517578125,-6.843686635262105,-2.3111835732508275,-101.7840646025258,-22.75972,14.83691,25.42279,6.0008063,-1.4303166,-15.000033,19.329517,10.171153,-2.2185998,7.4128594,-20.84734,-1.4590403,8.978735,5.2348366,9.874578,19.793932,19.745193,-32.94095,63.23779,3.3425822,2.9930482,1.8948795,-23.95829,-31.58054,45.178295,26.190928,0.8509858,2.349867,-14.842028
143,-2.452732801437378,-77.51008605957031,74.08963775634766,-6.179140573391155,-2.100030025762061,-101.60461971476458,-22.413212,14.229484,25.775202,6.41911,0.85379046,-14.171985,19.74211,9.317792,-2.3465362,7.475423,-20.80513,-1.0782881,8.912179,4.2820683,9.869232,19.246658,19.727339,-32.98411,63.5157,3.3566787,2.9621782,1.9342228,-23.19889,-31.666935,44.52165,25.872429,0.8085052,2.4060025,-15.10423
144,-2.4824538230895996,-78.26832580566406,74.13916015625,-5.407349668961271,-1.854328319848208,-101.28081336953294,-22.155891,13.05413,26.096186,6.508839,2.8046396,-10.952432,20.084496,8.290157,-2.6864254,7.644512,-20.656902,-0.6338787,8.63477,3.27094,9.848139,18.816133,19.70346,-32.966476,63.65208,3.3738532,2.9663782,2.0167162,-22.474081,-31.689707,44.04208,25.708477,0.8757703,2.4267454,-15.402788
145,-2.4994964599609375,-79.04444885253906,74.20219421386719,-4.617637684391769,-1.6668208832603717,-101.15797012268082,-21.831219,11.965485,26.474285,6.576428,4.0500264,-8.395778,19.715473,7.162659,-2.9883194,9.43114,-21.191055,-0.21357061,8.519378,2.2652636,9.853562,18.42926,19.66179,-32.893433,63.72205,3.434314,3.0158362,2.1621509,-21.64563,-31.660196,43.61129,25.597563,0.97200024,2.3967338,-15.743095
146,-2.509361982345581,-79.83999633789062,74.27758026123047,-3.717009748731136,-1.4963459524436087,-101.16534990374596,-21.416092,10.834734,26.93763,6.62196,4.931209,-6.010653,18.743923,5.8351607,-3.2649865,12.543186,-22.271921,0.21511488,8.532035,1.1579958,9.887893,18.004206,19.589874,-32.8149,63.802002,3.5332878,3.0973735,2.364191,-20.837996,-31.560759,43.241,25.640223,1.1658224,2.3328545,-16.11444
147,-2.516726016998291,-80.64961242675781,74.3520278930664,-2.724700647154381,-1.3415562421886673,-101.29281816611359,-21.131378,9.78315,27.469557,7.1444497,5.2527347,-3.8954668,17.716011,4.3702765,-3.3959806,15.802114,-23.192894,0.6644322,8.597243,-0.032543253,9.923649,17.604795,19.479183,-32.689194,63.86729,3.6114116,3.1872342,2.5955784,-19.983248,-31.362772,42.957977,25.791454,1.3850287,2.2585483,-16.477272
148,-2.518346071243286,-81.47561645507812,74.42434692382812,-1.6842604132318784,-1.2064428989476659,-101.52340048513332,-20.986752,8.847513,28.076797,8.141081,5.1080484,-2.155626,16.612476,2.8325183,-3.3464856,19.225006,-23.880045,1.1454039,8.697081,-1.2633607,9.970472,17.247467,19.355831,-32.516075,63.877674,3.611412,3.2623122,2.8294852,-19.174145,-31.094759,42.809242,26.08349,1.7049792,2.2005327,-16.781422
149,-2.502659797668457,-82.29521179199219,74.50690460205078,-0.5987538658275414,-1.0731242435860842,-101.88938884376186,-20.6311,7.847489,28.81433,8.753606,4.9518623,-0.88910043,15.398946,1.2248169,-3.070152,22.847237,-24.369137,1.6524594,8.860782,-2.5357192,10.009318,16.94597,19.217913,-32.27188,63.812984,3.5061362,3.3311534,3.0824683,-18.398836,-30.758898,42.78879,26.508038,2.1548111,2.1704628,-17.030556
150,-2.4751088619232178,-83.11618041992188,74.59489440917969,0.5355981913606581,-0.9335951390296754,-102.36866115849112,-20.04595,6.75679,29.626377,8.95533,4.7692947,-0.029187731,14.101711,-0.4464607,-2.6023383,26.601084,-24.659256,2.1803622,9.075359,-3.855182,10.041422,16.686573,19.062794,-31.966677,63.69065,3.3314018,3.4010408,3.3598363,-17.621714,-30.357334,42.875317,27.04664,2.6993458,2.1527088,-17.24564
151,-2.462968349456787,-83.93766021728516,74.67755126953125,1.6632945421251528,-0.8179246834435538,-102.86116459984609,-19.25807,5.594009,30.423494,8.821865,4.5849314,0.57179207,12.806564,-2.090081,-2.038281,30.336994,-24.615936,2.7339673,9.265591,-5.1618752,10.093513,16.422907,18.900944,-31.670113,63.56382,3.1173508,3.4457457,3.6220038,-16.867535,-29.89439,43.06403,27.7237,3.2855136,2.1309776,-17.39856
152,-2.453827142715454,-84.74885559082031,74.7649154663086,2.730051965599309,-0.7637688309334388,-103.27401092785789,-18.29229,4.3707347,31.130629,8.4002,4.438235,1.063511,11.585246,-3.622572,-1.4744738,33.95528,-24.121216,3.315872,9.366415,-6.3981695,10.192075,16.109005,18.751726,-31.455544,63.477898,2.891725,3.440276,3.828313,-16.187891,-29.378616,43.36222,28.579264,3.8862174,2.0898712,-17.460293
153,-2.4529333114624023,-85.55236053466797,74.86189270019531,3.728194832818956,-0.7954568415666244,-103.57502393931716,-17.119884,3.0495589,31.721432,7.6177225,4.3490553,1.4099644,10.473993,-5.023865,-0.9466563,37.462654,-23.059132,4.0239906,9.354711,-7.5620546,10.345601,15.741605,18.629988,-31.346045,63.44681,2.6134007,3.3561974,3.9700668,-15.459321,-28.80616,43.693756,29.562075,4.4233727,2.0124707,-17.418165
154,-2.4555349349975586,-86.36549377441406,74.96348571777344,4.658406421040408,-0.8911054586436193,-103.81182897887304,-15.865952,1.7124372,32.20388,6.730897,4.18237,1.5506071,9.4000845,-6.3053517,-0.41029337,40.958225,-21.546965,4.8095303,9.273328,-8.660511,10.529582,15.342317,18.540276,-31.311249,63.432415,2.2798057,3.2157633,4.065347,-14.726036,-28.18224,44.090263,30.689161,4.9665036,1.9126887,-17.288267
155,-2.4678783416748047,-87.1690902709961,75.06423950195312,5.4953489308137895,-1.023208906457716,-104.01656016046049,-14.933347,0.6512122,32.58288,6.6725674,3.5297344,1.5981727,8.285526,-7.450184,0.15102918,44.472565,-19.814913,5.469909,9.137996,-9.653687,10.71003,14.93008,18.476458,-31.322235,63.39121,1.9846864,3.0707436,4.1093616,-14.023208,-27.524162,44.583786,31.917349,5.5055685,1.8239682,-17.086437
156,-2.4723172187805176,-87.98185729980469,75.1672592163086,6.225686894583703,-1.1644609498863,-104.22262856156804,-14.00589,-0.31816167,32.90118,6.6006613,2.9063451,1.6801816,7.0637145,-8.458062,0.7454481,48.02182,-18.082716,5.82221,8.967312,-10.512029,10.862113,14.513092,18.426939,-31.355755,63.28945,1.8183676,2.972408,4.0999503,-13.404809,-26.86043,45.21505,33.21295,6.051009,1.7796552,-16.82856
157,-2.464419364929199,-88.78843688964844,75.26939392089844,6.835823147123622,-1.323157296879777,-104.40907154016539,-13.064751,-1.1874483,33.137047,6.5036097,2.3262866,1.7873018,5.7179346,-9.306274,1.3547374,51.675163,-16.350046,5.7336335,8.739896,-11.212713,10.991841,14.085107,18.381607,-31.421125,63.13444,1.8114854,2.9302955,4.0211973,-12.8625345,-26.213116,45.991585,34.57608,6.6583104,1.7873266,-16.532192
158,-2.4406285285949707,-89.58169555664062,75.36367797851562,7.337121263472778,-1.5089474630552175,-104.56487016079116,-12.098718,-1.9792058,33.292847,6.373647,1.7550471,1.8701526,4.293883,-10.004389,1.9447663,55.3991,-14.506903,5.359915,8.451252,-11.771633,11.110097,13.632435,18.33689,-31.531734,62.950436,1.9132806,2.9175107,3.8808177,-12.354735,-25.59172,46.88555,35.99648,7.3113985,1.8327234,-16.185772
159,-2.3910982608795166,-90.38314819335938,75.44807434082031,7.75774535291818,-1.6969688783938157,-104.73987868229777,-11.133217,-2.7031252,33.424282,6.2232924,1.1930043,1.9793239,2.8194554,-10.608387,2.512762,59.055473,-12.610956,4.944126,8.149778,-12.217185,11.206631,13.160397,18.29092,-31.659975,62.720154,2.1035576,2.9310446,3.7122328,-11.886897,-25.007065,47.881268,37.425068,7.913376,1.9164425,-15.762578
160,-2.330094814300537,-91.17182159423828,75.52094268798828,8.174451263563208,-1.8639484815685468,-104.98416110578401,-10.241887,-3.380738,33.605106,6.2028527,0.5594389,2.1645577,1.3111696,-11.230285,3.0951934,62.516663,-10.735485,4.718693,7.8852654,-12.626783,11.2834215,12.671994,18.244627,-31.777664,62.426975,2.360244,2.967431,3.5484593,-11.469526,-24.468948,48.96463,38.811584,8.368459,2.0383003,-15.235325
161,-2.255615472793579,-91.9626235961914,75.58723449707031,8.57003281750874,-2.006615196488118,-105.34463605584347,-9.378628,-4.012851,33.853,6.204801,-0.09149935,2.4727647,-0.27771994,-11.837228,3.7780962,65.804276,-8.6599,4.749034,7.6922917,-12.967325,11.338922,12.1793785,18.19309,-31.891111,62.048016,2.7167022,3.0482178,3.3602695,-11.121118,-23.98991,50.1633,40.1462,8.672963,2.2433164,-14.557376
162,-2.173581838607788,-92.73707580566406,75.64295196533203,8.928989239223183,-2.138905311906288,-105.78420459472245,-8.523975,-4.5981135,34.13459,6.2090073,-0.7502089,2.85365,-1.9530365,-12.400137,4.538638,68.986496,-6.428679,4.89968,7.539632,-13.221674,11.384173,11.674125,18.133995,-32.011944,61.598694,3.172184,3.1660993,3.1423905,-10.8251705,-23.576736,51.47016,41.441772,8.871501,2.5168881,-13.755351
163,-2.0932090282440186,-93.48839569091797,75.68584442138672,9.256921978492295,-2.2662068687890797,-106.22798842303911,-7.681489,-5.1503987,34.410828,6.210382,-1.4017923,3.2106802,-3.6294723,-12.9656105,5.229486,71.97469,-4.4902816,5.0510817,7.3802314,-13.41653,11.430432,11.138407,18.07546,-32.12167,61.10639,3.6538653,3.2773552,2.963738,-10.543956,-23.2263,52.819954,42.68132,8.946088,2.766897,-12.909141
164,-2.0188982486724854,-94.22756958007812,75.71822357177734,9.552973156725384,-2.3922529640349053,-106.6033581226051,-6.858352,-5.674017,34.640476,6.2058797,-2.0302987,3.4611862,-5.217864,-13.600429,5.691202,74.67816,-3.3006876,5.0653453,7.1694374,-13.577252,11.484878,10.557671,18.033667,-32.20391,60.59403,4.0857277,3.3403761,2.8930955,-10.244949,-22.929752,54.148567,43.854816,8.879907,2.8993506,-12.098367
165,-1.947195053100586,-94.95199584960938,75.74268341064453,9.818145746630734,-2.5177356535958286,-106.92379624316635,-6.0621085,-6.17341,34.846695,6.192747,-2.6324477,3.5856411,-6.7034163,-14.395784,5.8633757,77.09828,-3.1356888,4.9069095,6.920465,-13.710909,11.549645,9.932511,18.021118,-32.2678,60.046963,4.4524198,3.3409517,2.9497206,-9.94184,-22.682634,55.477444,44.953724,8.652816,2.864097,-11.305313
166,-1.88775634765625,-95.63936614990234,75.76371765136719,10.050732981395226,-2.6407877148553722,-107.21745707167024,-5.2926893,-6.644819,35.037888,6.1725655,-3.21493,3.6406205,-8.13662,-15.318225,5.8389974,79.29591,-3.7187662,4.6247473,6.6515203,-13.804869,11.622365,9.275447,18.04197,-32.321346,59.446064,4.787975,3.304785,3.0949848,-9.652713,-22.483412,56.826546,45.987854,8.281755,2.7142217,-10.500181
167,-1.8339283466339111,-96.31519317626953,75.7869873046875,10.239101779764372,-2.764917447071255,-107.43111159303719,-4.550979,-7.0806775,35.152924,6.15111,-3.7747025,3.6663778,-9.525195,-16.254253,5.6840577,81.270805,-4.679016,4.2182107,6.325718,-13.859627,11.702738,8.596239,18.100235,-32.340107,58.800304,5.1000605,3.2516506,3.3100574,-9.345766,-22.322706,58.124092,46.968548,7.8028607,2.5119054,-9.746114
168,-1.7886850833892822,-96.98133087158203,75.8128662109375,10.374145979838323,-2.8945413971138185,-107.51269414713616,-3.8376215,-7.4714403,35.13469,6.135365,-4.308663,3.702238,-10.874431,-17.08431,5.457488,83.017944,-5.6391597,3.688907,5.907827,-13.876719,11.789387,7.902257,18.20115,-32.305374,58.121773,5.3916063,3.2012033,3.5760663,-8.989855,-22.186474,59.29841,47.912086,7.250609,2.3205476,-9.105385
169,-1.7557610273361206,-97.63043975830078,75.84394073486328,10.445847022334856,-3.0236151133184404,-107.42812039755705,-3.167083,-7.818618,34.96061,6.1220465,-4.8124175,3.7533822,-12.195866,-17.789669,5.1317286,84.538,-6.64516,2.9525857,5.3680344,-13.859578,11.867338,7.1857076,18.35365,-32.2149,57.409977,5.6622195,3.1575193,3.9002495,-8.583578,-22.063057,60.355347,48.8284,6.545573,2.119893,-8.588492
170,-1.7402591705322266,-98.27503967285156,75.88447570800781,10.461553499432274,-3.1537599556142424,-107.2139115635439,-2.5361936,-8.130929,34.67063,6.109562,-5.288835,3.808994,-13.474894,-18.416527,4.6910143,85.833244,-7.847222,2.0552528,4.7341022,-13.81181,11.941808,6.4517403,18.561638,-32.080563,56.651867,5.9096,3.1120083,4.286941,-8.150716,-21.946394,61.327793,49.721302,5.69832,1.8869195,-8.166347
171,-1.7307519912719727,-98.91593170166016,75.92607879638672,10.43440098942814,-3.3013742239926613,-106.92402203394515,-1.914945,-8.413217,34.301105,6.1039524,-5.745087,3.8799903,-14.680082,-18.943947,4.1957035,86.89454,-9.020959,1.1787995,4.0557847,-13.734003,12.040723,5.7232323,18.819492,-31.905956,55.847332,6.131094,3.0638433,4.7134194,-7.689475,-21.831394,62.177776,50.598984,4.866753,1.6847919,-7.8389874
172,-1.7241356372833252,-99.53022003173828,75.97390747070312,10.379367409200999,-3.482052805513293,-106.61176821633478,-1.2683396,-8.665921,33.884876,6.1061683,-6.185265,3.9704673,-15.786715,-19.368027,3.7012985,87.71627,-9.936514,0.49523687,3.3836136,-13.62684,12.191646,5.0183964,19.115751,-31.695139,55.004276,6.3253827,3.0119698,5.158423,-7.1970005,-21.715637,62.867584,51.47116,4.210061,1.5780361,-7.603869
173,-1.725209355354309,-100.14479064941406,76.02528381347656,10.293279948053929,-3.712953879026037,-106.26371209090043,-0.5797667,-8.883094,33.39871,6.1203847,-6.6029587,4.083667,-16.7711,-19.716751,3.171082,88.28883,-10.504042,0.051144004,2.7101197,-13.488259,12.412055,4.324382,19.44277,-31.45029,54.142273,6.5034666,2.9506433,5.63532,-6.664422,-21.596846,63.385723,52.34557,3.7154617,1.6082734,-7.479208
174,-1.72230064868927,-100.75563049316406,76.0811767578125,10.174636478471134,-3.9803872313267394,-105.86105643288019,0.13293722,-9.059891,32.835213,6.144845,-6.9987073,4.2112155,-17.654285,-19.990585,2.5844467,88.617714,-10.84988,-0.24874021,2.0160282,-13.321601,12.683854,3.629347,19.798773,-31.17276,53.265064,6.6628428,2.8818872,6.1506486,-6.094111,-21.47299,63.752743,53.219265,3.314737,1.7360809,-7.457916
175,-1.7163528203964233,-101.36079406738281,76.14054107666016,10.027524615141024,-4.256366704115047,-105.44816669972208,0.85165125,-9.193433,32.24947,6.175007,-7.3890657,4.336798,-18.480307,-20.143055,2.0154505,88.71787,-11.06992,-0.4517793,1.332584,-13.133114,12.980855,2.9535167,20.180199,-30.863766,52.35809,6.7819724,2.8151844,6.672992,-5.4997087,-21.344896,63.978413,54.085857,3.0830708,1.9037657,-7.4989386
176,-1.710566520690918,-101.95616149902344,76.2000503540039,9.859275185559348,-4.512182051032841,-105.0694151334345,1.5580888,-9.285881,31.697567,6.204359,-7.7894325,4.4456096,-19.292381,-20.12169,1.537636,88.60041,-11.25953,-0.60453373,0.6921718,-12.926651,13.276822,2.316444,20.582678,-30.523674,51.407352,6.839729,2.7595162,7.1715345,-4.8966722,-21.216442,64.07447,54.938347,3.0983803,2.0525122,-7.562452
177,-1.7147915363311768,-102.55297088623047,76.25729370117188,9.671343859626676,-4.752603064781815,-104.72447827365194,2.25753,-9.338907,31.176302,6.233206,-8.202456,4.546107,-20.090734,-19.909414,1.1653479,88.266045,-11.406323,-0.70235467,0.09553803,-12.698459,13.578248,1.718015,21.003672,-30.145744,50.4117,6.806876,2.7124586,7.6550236,-4.2701645,-21.089134,64.009254,55.77461,3.4282575,2.177664,-7.6704226
178,-1.7194645404815674,-103.14472961425781,76.31192779541016,9.460558776803525,-4.989039672454116,-104.39396158713474,2.9541872,-9.3479805,30.66347,6.267662,-8.62277,4.640612,-20.857416,-19.53315,0.860167,87.70701,-11.471079,-0.7265526,-0.4702703,-12.447538,13.896113,1.1465641,21.44251,-29.732256,49.38201,6.7037554,2.6694443,8.13478,-3.6183455,-20.96399,63.787193,56.595478,4.01561,2.3052394,-7.835054
179,-1.7184438705444336,-103.7389144897461,76.36580657958984,9.23038574289848,-5.202199938635553,-104.09462930148838,3.6322815,-9.313728,30.186953,6.3003845,-9.048407,4.707157,-21.608114,-19.014238,0.6194862,86.91994,-11.507971,-0.7002043,-0.99562347,-12.177082,14.211654,0.6039748,21.897472,-29.29762,48.321976,6.580033,2.6365626,8.583618,-2.9699,-20.843569,63.471058,57.3865,4.7494903,2.4239094,-8.002153
180,-1.7275996208190918,-104.3298568725586,76.42032623291016,8.98064259852764,-5.374200193983265,-103.84220546496506,4.2754183,-9.237119,29.774012,6.329991,-9.481976,4.7237816,-22.356188,-18.375843,0.43994126,85.90164,-11.572323,-0.64587975,-1.4728055,-11.88976,14.505159,0.09367036,22.366299,-28.852667,47.23445,6.486865,2.6204593,8.974599,-2.3561766,-20.73197,63.126648,58.13636,5.519192,2.5242622,-8.116321
181,-1.7368063926696777,-104.91561889648438,76.4701156616211,8.702762197650683,-5.502698073700928,-103.64619582056689,4.8836145,-9.106014,29.439766,6.353909,-9.929211,4.6723456,-23.103622,-17.57136,0.33703843,84.64437,-11.691746,-0.5591112,-1.8949627,-11.571316,14.77514,-0.37887496,22.84748,-28.384548,46.110443,6.4387436,2.6278033,9.298356,-1.7727749,-20.631435,62.731213,58.843216,6.3579187,2.6101608,-8.157589
182,-1.7463860511779785,-105.49498748779297,76.51948547363281,8.397897725197476,-5.597361231008335,-103.49543916678621,5.461591,-8.924864,29.169134,6.3802934,-10.391282,4.5683765,-23.833866,-16.609734,0.305688,83.14491,-11.834826,-0.43395382,-2.2694445,-11.222767,15.031581,-0.81788385,23.341017,-27.890574,44.95316,6.408546,2.6535835,9.57046,-1.2088685,-20.543425,62.264595,59.51072,7.30481,2.6857352,-8.157131
183,-1.760643482208252,-106.07018280029297,76.56855010986328,8.093748177786503,-5.657039376279479,-103.37553063980256,6.0090585,-8.726686,28.942156,6.398607,-10.847473,4.441877,-24.535055,-15.591904,0.31165275,81.40987,-11.962764,-0.28887856,-2.6111164,-10.870169,15.271236,-1.2288848,23.84628,-27.392895,43.778934,6.386994,2.6877348,9.801003,-0.6797476,-20.469715,61.79478,60.129444,8.255712,2.7437258,-8.135416
184,-1.7719566822052002,-106.63736724853516,76.61512756347656,7.808336826313694,-5.6811230939802035,-103.2723752737181,6.5169134,-8.53955,28.739235,6.416506,-11.285439,4.3235126,-25.192657,-14.611635,0.31744736,79.43987,-12.040878,-0.14081058,-2.9369173,-10.538482,15.489777,-1.6156505,24.362097,-26.910395,42.604168,6.365738,2.719732,10.000209,-0.20437774,-20.412685,61.394585,60.69592,9.108406,2.7759018,-8.112345
185,-1.7912909984588623,-107.21044921875,76.657958984375,7.5489949599347845,-5.668235675279337,-103.19847310833522,6.98856,-8.36876,28.567957,6.432072,-11.699498,4.219061,-25.813112,-13.646486,0.34898305,77.226906,-12.093955,0.029506445,-3.242166,-10.22906,15.686792,-1.9683957,24.88752,-26.429943,41.41228,6.3525076,2.7584593,10.156661,0.2068428,-20.374674,61.077705,61.218594,9.89391,2.7697952,-8.080837
186,-1.8072023391723633,-107.77571105957031,76.6939926147461,7.302449887436134,-5.620281824265731,-103.15554737745967,7.428819,-8.203959,28.433395,6.4404125,-12.09609,4.114002,-26.389885,-12.661604,0.41301984,74.76529,-12.13109,0.22309555,-3.5240192,-9.927912,15.863465,-2.2845423,25.422901,-25.941977,40.19944,6.3496227,2.80536,10.269813,0.56533235,-20.356592,60.80973,61.695858,10.647613,2.733951,-8.033116
187,-1.8194636106491089,-108.3332290649414,76.7207260131836,7.0663647738873605,-5.5376393934039045,-103.1138867279752,7.8293295,-8.047352,28.31138,6.4490438,-12.484517,4.008362,-26.899328,-11.725573,0.44476414,72.06606,-12.085425,0.40178263,-3.79988,-9.637833,16.017601,-2.5780697,25.968086,-25.4719,38.99956,6.3411765,2.8387103,10.366024,0.88486326,-20.357803,60.59162,62.108902,11.275567,2.6907763,-7.988285
188,-1.834394931793213,-108.90079498291016,76.74002838134766,6.83890086082948,-5.420417690309561,-103.04411540091812,8.183468,-7.90276,28.178268,6.4578404,-12.86911,3.9016616,-27.321444,-10.904042,0.37851003,69.13968,-11.8905115,0.52844644,-4.0863786,-9.362057,16.146553,-2.8635478,26.521626,-25.045034,37.846718,6.3128147,2.8365562,10.471992,1.1796063,-20.376211,60.421722,62.44059,11.680808,2.6619675,-7.966015
189,-1.8544299602508545,-109.46080780029297,76.7511978149414,6.617713338776475,-5.260968538992968,-102.94083818494778,8.480489,-7.764494,28.033266,6.467404,-13.251524,3.7918117,-27.65669,-10.19704,0.20446177,65.95594,-11.563155,0.60557413,-4.386117,-9.098217,16.243168,-3.149274,27.083065,-24.668816,36.75072,6.2517734,2.7796078,10.593748,1.447386,-20.410164,60.316692,62.684536,11.794466,2.6589406,-7.9738007
190,-1.8735686540603638,-110.01762390136719,76.75772094726562,6.4034332335659885,-5.061539052490431,-102.81923000564626,8.726571,-7.6326466,27.887047,6.4768276,-13.628265,3.6796362,-27.908474,-9.564558,-0.04754818,62.51147,-11.125602,0.6577327,-4.689699,-8.8452,16.310642,-3.42838,27.651772,-24.330235,35.694828,6.1684694,2.6836152,10.717873,1.6827843,-20.458708,60.269463,62.852837,11.680119,2.6680222,-8.000604
191,-1.8971049785614014,-110.57498168945312,76.75870513916016,6.205182930062237,-4.835718955624212,-102.68200515648155,8.941034,-7.5185137,27.733158,6.4871845,-14.00118,3.568075,-28.066597,-9.006316,-0.38370228,58.853928,-10.517489,0.68538946,-4.994309,-8.607327,16.361732,-3.6929102,28.224289,-24.024828,34.673763,6.0845957,2.5795944,10.842252,1.8931233,-20.520653,60.247566,62.958584,11.4464,2.6731133,-8.038817
192,-1.914261817932129,-111.13421630859375,76.7534408569336,6.02792793791757,-4.597696638477516,-102.53173379264656,9.141668,-7.4301805,27.565002,6.4985976,-14.368779,3.4604037,-28.123241,-8.523451,-0.8086266,55.027237,-9.679558,0.6873644,-5.295848,-8.389143,16.40868,-3.9420729,28.795454,-23.75308,33.68951,6.018986,2.498343,10.96553,2.0882263,-20.5947,60.213833,63.01356,11.197713,2.6583505,-8.080976
193,-1.9367009401321411,-111.68766021728516,76.74458312988281,5.88678178468912,-4.344430095590739,-102.36464315393208,9.290072,-7.3656054,27.379053,6.587786,-14.766363,3.3682497,-28.081099,-8.154464,-1.3475308,50.989246,-8.521477,0.628935,-5.5930486,-8.202677,16.448507,-4.1873593,29.362862,-23.524422,32.749794,5.975087,2.4422638,11.097872,2.2675133,-20.680075,60.179523,63.01891,10.915265,2.6115348,-8.139361
194,-1.9606707096099854,-112.24805450439453,76.72605895996094,5.7715911472385475,-4.071031597079202,-102.18114415774363,9.398164,-7.323269,27.17793,6.710524,-15.172232,3.2862756,-27.943016,-7.8669868,-1.9963712,46.729958,-7.100056,0.5310091,-5.8862677,-8.040372,16.476067,-4.4307365,29.925472,-23.338003,31.85642,5.943954,2.396514,11.237399,2.427153,-20.776264,60.156178,62.97098,10.558354,2.5441742,-8.213488
195,-1.9869023561477661,-112.82475280761719,76.6915283203125,5.674569307687525,-3.7916746243401325,-101.99409020375927,9.510416,-7.3005223,26.975498,6.819115,-15.574987,3.192366,-27.711662,-7.576739,-2.6927943,42.352325,-5.5766397,0.47048303,-6.169459,-7.8891883,16.503595,-4.6580477,30.479475,-23.179565,31.003464,5.9275737,2.3664415,11.3649,2.5730367,-20.88224,60.10638,62.873642,10.198873,2.4750235,-8.277257
196,-2.008455514907837,-113.40850830078125,76.63947296142578,5.593969916331661,-3.524104580223531,-101.81813093747945,9.64782,-7.297107,26.791842,6.922062,-15.989578,3.0658722,-27.39088,-7.2271686,-3.3517654,37.95109,-4.1065774,0.5172756,-6.432428,-7.7495537,16.54447,-4.8492413,31.018827,-23.031883,30.181576,5.933307,2.357388,11.4612465,2.7134979,-20.997053,59.989113,62.73077,9.906376,2.4224977,-8.30403
197,-2.0326056480407715,-113.99589538574219,76.57442474365234,5.532497330809753,-3.2652837456742003,-101.65288726943207,9.815392,-7.3140693,26.63223,7.0042686,-16.418547,2.8952696,-26.983673,-6.8122296,-3.930471,33.461376,-2.6416376,0.570104,-6.6768155,-7.6215496,16.59352,-5.0103736,31.540228,-22.893932,29.3966,5.9799647,2.3837671,11.51578,2.8487673,-21.121151,59.787636,62.534676,9.687141,2.4039314,-8.264998
198,-2.0566978454589844,-114.58924865722656,76.50137329101562,5.494810533658637,-3.012093382531301,-101.48754243989656,10.000602,-7.3574257,26.482979,7.0767326,-16.857597,2.6943738,-26.478886,-6.3888564,-4.466925,28.824217,-1.1130894,0.6167078,-6.908706,-7.510154,16.64736,-5.1494794,32.04288,-22.773933,28.65343,6.0615,2.438236,11.540673,2.9782195,-21.25519,59.522808,62.285755,9.50681,2.4051652,-8.181372
199,-2.0846216678619385,-115.1855697631836,76.40542602539062,5.4938917978977315,-2.7832578070075167,-101.314218330458,10.221016,-7.442796,26.32485,7.1457057,-17.301508,2.4810882,-25.829533,-6.001483,-4.99742,24.08449,0.3879038,0.8637303,-7.133297,-7.429297,16.722393,-5.269914,32.526115,-22.679045,27.958923,6.1357126,2.4935324,11.551631,3.1041868,-21.398302,59.21783,62.001884,9.380914,2.3966918,-8.101584
200,-2.110666036605835,-115.79566192626953,76.29080963134766,5.552778384248946,-2.606016552698104,-101.11466437391827,10.505824,-7.5998435,26.126383,7.2088213,-17.741241,2.2756698,-24.948458,-5.68903,-5.5654125,19.223742,1.8057606,1.5320851,-7.3658686,-7.406768,16.838484,-5.36968,32.99002,-22.614388,27.316135,6.1621737,2.5225613,11.563526,3.2316132,-21.547981,58.895603,61.700394,9.324567,2.3496583,-8.074317
201,-2.1463561058044434,-116.41743469238281,76.1532211303711,5.728445139808217,-2.5194707873429905,-100.8469761394208,10.901437,-7.901223,25.834766,7.2598,-18.18089,2.089733,-23.64411,-5.504933,-6.199546,13.890943,3.238282,2.8622751,-7.648384,-7.508342,17.009844,-5.445409,33.43934,-22.587452,26.729334,6.1216283,2.5142908,11.582295,3.378133,-21.702559,58.548073,61.37607,9.356359,2.2432485,-8.11619
202,-2.1819121837615967,-117.04817199707031,75.97626495361328,6.07768715206733,-2.5479387142431027,-100.46310865274454,11.431362,-8.410175,25.400473,7.2944503,-18.622198,1.9294436,-21.780996,-5.4922743,-6.913867,7.7891636,4.907261,4.7075515,-8.0274315,-7.796981,17.239805,-5.4834547,33.88065,-22.590916,26.184343,6.0412025,2.4860682,11.594477,3.5498633,-21.861176,58.168434,61.01716,9.462705,2.0980313,-8.200945
203,-2.217550277709961,-117.68802642822266,75.76214599609375,6.550499070928876,-2.653539052853083,-99.99414952260604,12.045347,-9.064283,24.859056,7.3213673,-19.051678,1.7917944,-21.89339,-5.897916,-7.4817343,6.287578,4.1480193,6.6869493,-8.474442,-8.220887,17.512945,-5.4893613,34.314865,-22.61296,25.67465,5.938592,2.4523582,11.589476,3.7189984,-22.021883,57.78529,60.639973,9.61166,1.9462327,-8.312332
204,-2.255854845046997,-118.3251953125,75.55075073242188,7.007161997181122,-2.748935918293317,-99.54695571783806,12.641133,-9.687334,24.334436,7.36283,-19.463314,1.65276,-22.513605,-6.3794847,-8.025591,6.160112,2.821479,8.379383,-8.887718,-8.624005,17.800625,-5.4902596,34.7329,-22.643997,25.21222,5.827813,2.4237144,11.56241,3.8390179,-22.18051,57.428406,60.271088,9.773253,1.8192291,-8.433138
205,-2.2940590381622314,-118.9550552368164,75.34163665771484,7.409395627565883,-2.790123835205372,-99.15816930635438,13.17559,-10.225882,23.872786,7.4243975,-19.875725,1.4969673,-23.09772,-6.802048,-8.651702,6.1600137,1.4412202,9.846038,-9.239386,-8.931903,18.048935,-5.5377274,35.042294,-22.700296,24.892288,5.7381015,2.393862,11.512164,3.884586,-22.296818,57.113102,59.993973,9.959227,1.7169477,-8.571394
206,-2.3422632217407227,-119.57917022705078,75.14398193359375,7.763669027031883,-2.8115485612640163,-98.80857379252075,13.687711,-10.695299,23.449305,7.4959836,-20.28258,1.3287588,-23.571321,-7.189834,-9.371275,6.1734266,0.029484047,11.223984,-9.553822,-9.165057,18.282959,-5.625098,35.25897,-22.782225,24.713789,5.65452,2.3550367,11.442816,3.863142,-22.374447,56.836674,59.79902,10.18536,1.6215104,-8.730012
207,-2.376373529434204,-120.19338989257812,74.9503173828125,8.046277131626047,-2.7978111110645494,-98.56091183734348,14.164162,-11.069791,23.132915,7.5728335,-20.651674,1.1473945,-23.946888,-7.49178,-10.030404,6.2209506,-1.104495,12.207075,-9.71429,-9.3241205,18.576035,-5.701991,35.51534,-22.895693,24.510365,5.54883,2.3315523,11.371616,3.807473,-22.467087,56.523632,59.55803,10.397543,1.5468091,-8.892633
208,-2.4059159755706787,-120.7748794555664,74.78658294677734,8.15765344506568,-2.736807664007063,-98.48959961034646,14.587652,-11.238839,23.012133,7.668772,-20.961329,0.93825704,-24.176258,-7.5500436,-10.504401,6.232201,-1.6059692,12.48346,-9.687218,-9.312311,18.967648,-5.709784,35.80694,-22.955275,24.244936,5.4653735,2.320335,11.309114,3.6530454,-22.58254,56.230057,59.302444,10.58895,1.4899936,-9.035101
209,-2.434224843978882,-121.3248291015625,74.67387390136719,8.04024242729974,-2.5962661614255897,-98.63272758239087,14.921381,-11.139417,23.138502,7.7908053,-21.286991,0.7020452,-24.225302,-7.261621,-10.7613735,6.208062,-1.250566,11.853973,-9.486129,-9.0310545,19.414433,-5.708859,35.994434,-22.93261,24.057505,5.483629,2.3177524,11.248816,3.3265955,-22.667618,56.02952,59.16615,10.768499,1.4530671,-9.159556
210,-2.4635698795318604,-121.84832000732422,74.60106658935547,7.751829118261904,-2.3926365543383104,-98.94163533950541,15.176785,-10.841878,23.460768,7.940992,-21.620186,0.44739714,-24.137657,-6.692356,-10.873443,6.188094,-0.24575755,10.553422,-9.125046,-8.550375,19.91091,-5.7006273,36.126255,-22.86978,23.917456,5.562547,2.3216639,11.184735,2.8821747,-22.739687,55.86536,59.091557,10.933126,1.4335384,-9.271526
211,-2.475236177444458,-122.3714599609375,74.53253936767578,7.378636672645084,-2.1953355516144044,-99.35478695995246,15.425463,-10.43929,23.907803,8.124692,-21.808891,0.17176995,-23.97186,-5.9577255,-10.869969,6.157575,1.1146643,8.917356,-8.65737,-7.9807153,20.50054,-5.6327586,36.23898,-22.759846,23.744982,5.6539803,2.3397455,11.136778,2.3546643,-22.821098,55.7242,59.016308,11.095318,1.4315075,-9.382829
212,-2.453641176223755,-122.93480682373047,74.45652770996094,6.987500232774319,-2.0462482392280394,-99.81982562374003,14.959835,-9.646583,24.549973,10.080132,-22.608583,-0.14905433,-23.831785,-5.173856,-10.77431,6.1696115,2.470436,7.244012,-8.137743,-7.3954763,21.19037,-5.513321,36.308937,-22.61023,23.564,5.727223,2.3630006,11.125,1.7499529,-22.90513,55.613586,58.9539,11.276467,1.4339215,-9.500418
213,-2.434105157852173,-123.48823547363281,74.39204406738281,6.549260714456986,-1.9470425727672018,-100.33395654860318,13.731934,-8.376003,25.382425,14.013462,-24.140537,-0.5319711,-23.716593,-4.3264327,-10.571406,6.215536,3.7974343,5.345681,-7.573304,-6.7590103,21.99128,-5.3323483,36.324192,-22.40619,23.364712,5.7931333,2.3972774,11.159183,1.0615957,-23.00247,55.534412,58.900543,11.479207,1.4449722,-9.618193
214,-2.4307808876037598,-124.02009582519531,74.35628509521484,5.997299920655676,-1.8838239313227445,-100.86793999995248,12.489399,-6.9040728,26.226309,18.175234,-25.549137,-0.94795024,-23.561445,-3.3688166,-10.343863,6.266088,5.2526846,3.1301742,-7.001046,-5.989027,22.88104,-5.1147203,36.25567,-22.155748,23.186686,5.8750734,2.4414215,11.22533,0.29711464,-23.127502,55.49248,58.85347,11.69645,1.468488,-9.735085
215,-2.442789316177368,-124.53031921386719,74.33136749267578,5.374879190905354,-1.870004865106549,-101.3374442171856,11.218142,-5.2547097,26.952797,22.563143,-26.74902,-1.370932,-23.362013,-2.4041944,-10.218913,6.3321075,6.7253957,1.0160686,-6.474899,-5.132219,23.829844,-4.9011292,36.1146,-21.929953,23.057991,5.937729,2.4900346,11.313386,-0.5062729,-23.25085,55.46551,58.818745,11.926623,1.4953688,-9.866715
216,-2.459308624267578,-125.03645324707031,74.28923034667969,4.741308406053157,-1.913458974101681,-101.6828066015517,9.936421,-3.5096827,27.463179,27.072952,-27.606602,-1.77934,-24.161438,-1.7318931,-10.237692,8.670643,6.912294,-0.5664531,-6.0493517,-4.2574778,24.81954,-4.6904254,35.926285,-21.749313,22.967356,5.94742,2.536658,11.40736,-1.3190898,-23.376686,55.450268,58.766945,12.170459,1.520004,-10.027998
217,-2.4697113037109375,-125.55378723144531,74.2090072631836,4.096281451634911,-2.0204281005274503,-101.89665315048121,8.66484,-1.6897318,27.767702,31.72179,-28.109192,-2.266466,-24.732895,-1.1597172,-10.482209,10.671173,7.2419705,-1.4039018,-5.7283587,-3.365708,25.862886,-4.471967,35.707813,-21.609047,22.89659,5.890681,2.5862725,11.504684,-2.127543,-23.50524,55.425266,58.6732,12.399535,1.5552895,-10.225193
218,-2.482675790786743,-126.07316589355469,74.10675048828125,3.4135550893749125,-2.1737445732502247,-102.03327494545407,7.3980446,0.20653889,27.939638,36.51253,-28.306557,-2.8413818,-25.060688,-0.63195807,-10.863854,12.293529,7.758393,-1.7910578,-5.466385,-2.429758,26.965815,-4.2309456,35.463474,-21.489872,22.83042,5.780719,2.640427,11.613495,-2.9554098,-23.637367,55.40302,58.550217,12.624706,1.5995694,-10.44847
219,-2.504716396331787,-126.57447052001953,74.00261688232422,2.719140115300825,-2.3428309008450556,-102.13249945763178,6.090681,2.1308782,27.99195,41.35487,-28.171614,-3.3595195,-25.32733,-0.14630246,-11.277144,13.87012,8.13401,-2.054105,-5.232167,-1.4791137,28.099867,-3.9681246,35.198387,-21.396269,22.770323,5.6230793,2.6859283,11.734994,-3.824021,-23.775856,55.422153,58.421543,12.898288,1.6248463,-10.6884775
220,-2.5502285957336426,-127.05006408691406,73.89739990234375,2.055386511201641,-2.5039142733636144,-102.22570874662814,4.695948,4.03825,27.925047,46.164112,-27.671576,-3.664697,-25.691689,0.30236095,-11.625917,15.672112,8.074017,-2.4871705,-4.999668,-0.55476177,29.238997,-3.670698,34.91734,-21.328728,22.70428,5.4293194,2.71176,11.869409,-4.753883,-23.924582,55.52437,58.309593,13.277236,1.6026882,-10.935636
221,-2.5982282161712646,-127.52783203125,73.77361297607422,1.440565226070895,-2.5509601420167907,-102.30237500399477,3.0498374,5.9439754,27.718721,51.038464,-26.715714,-3.814485,-26.338198,0.7258121,-11.865372,17.817364,7.429406,-3.1369312,-4.7544084,0.32862657,29.793802,-3.3149886,34.566013,-21.545433,22.993595,5.140485,2.7132032,11.980779,-5.4421973,-24.038801,55.855392,58.28222,13.833058,1.5520718,-11.111555
222,-2.6402854919433594,-127.99839782714844,73.63531494140625,0.8593068214531498,-2.4933860557389176,-102.35804646238823,1.1702017,7.8475375,27.387302,56.00452,-25.347136,-3.8813658,-27.18911,1.1325586,-12.031495,20.151304,6.39445,-3.8285782,-4.46735,1.2061999,29.793802,-2.9766095,34.105747,-22.078827,23.687061,4.7682486,2.6965988,12.069913,-5.888747,-24.082222,56.350166,58.36548,14.525281,1.4846005,-11.224286
223,-2.6853809356689453,-128.47042846679688,73.50011444091797,0.32518073420123184,-2.411719616971509,-102.41990494914302,-0.8137046,9.68719,26.981834,60.89634,-23.727242,-3.7040882,-28.066902,1.513389,-12.152489,22.47485,5.223366,-4.5097733,-4.137189,2.068703,29.793802,-2.6983848,33.575394,-22.682585,24.447418,4.37755,2.6649144,12.167941,-6.400181,-24.077862,56.84654,58.5195,15.263761,1.3853143,-11.332158
224,-2.724862575531006,-128.93576049804688,73.36493682861328,-0.13115139533108458,-2.268404103887092,-102.50675116409381,-2.925844,11.4126,26.563265,65.5891,-22.009417,-3.0924096,-28.91822,1.829974,-12.257776,24.575895,4.190405,-5.1374173,-3.7631485,2.8753116,29.793802,-2.4486752,33.00667,-23.31743,25.209015,3.9627435,2.6224372,12.264454,-7.008053,-24.04497,57.319702,58.734447,16.006285,1.2738178,-11.401904
225,-2.7537145614624023,-129.39813232421875,73.23413848876953,-0.5115558590033724,-2.0515392535649037,-102.64198518248719,-5.317668,13.07959,26.070086,70.29711,-19.973253,-1.6533543,-29.721844,2.091139,-12.356339,26.375782,3.3693607,-5.736753,-3.327822,3.6204305,29.793802,-2.1818957,32.41686,-23.950863,25.917086,3.5047731,2.580089,12.357164,-7.716627,-23.998764,57.771492,58.985634,16.76361,1.147574,-11.421389
226,-2.7855565547943115,-129.8526153564453,73.10660552978516,-0.8290693150943029,-1.779384149735869,-102.81154956841311,-7.941592,14.750252,25.530708,75.01525,-17.579033,0.41521162,-30.51208,2.322192,-12.43472,27.99643,2.6194193,-6.314631,-2.8425229,4.3173056,29.793802,-1.8884029,31.816233,-24.588514,26.581396,3.0008113,2.533086,12.448469,-8.503524,-23.947681,58.224922,59.250473,17.554337,1.0023947,-11.405721
227,-2.816239356994629,-130.29071044921875,72.97688293457031,-1.0768876921927693,-1.4633583713612786,-102.97795843911133,-10.536098,16.38741,25.111206,79.34234,-15.323761,2.4562511,-31.311733,2.4932394,-12.489401,29.522081,1.8803719,-6.8094945,-2.3422763,4.950991,29.793802,-1.5953836,31.217674,-25.259155,27.239227,2.474834,2.4619002,12.53634,-9.353913,-23.895226,58.6749,59.526222,18.341515,0.85594696,-11.3641
228,-2.8514156341552734,-130.71788024902344,72.84366607666016,-1.2484599539144086,-1.112471304927761,-103.10372454835502,-12.859093,17.9226,24.926867,82.92719,-13.778702,3.8114977,-32.1425,2.5746028,-12.518891,31.031273,1.0947269,-7.1639204,-1.8579191,5.5098042,29.793802,-1.3347387,30.635155,-25.997137,27.931255,1.9472698,2.347464,12.618602,-10.256915,-23.842133,59.117878,59.81579,19.093351,0.72461826,-11.3066435
229,-2.8840250968933105,-131.12464904785156,72.70533752441406,-1.339958876793781,-0.7363190513254804,-103.16335295765379,-14.780667,19.379469,25.075804,85.713745,-13.260707,4.183379,-32.996925,2.5368037,-12.532895,32.550587,0.21039157,-7.3328333,-1.4035128,5.976741,29.793802,-1.104862,30.082384,-26.81908,28.645662,1.4086504,2.1930223,12.698092,-11.199084,-23.784748,59.551945,60.105915,19.791718,0.61700094,-11.224829
230,-2.9138576984405518,-131.51914978027344,72.56889343261719,-1.3478527199864037,-0.3249411315096904,-103.17909468739217,-16.459774,20.776493,25.466286,87.93526,-13.464606,3.9981787,-33.865883,2.3893929,-12.523506,34.040108,-0.7373121,-7.359442,-0.96291,6.3468003,29.793802,-0.87267363,29.562696,-27.698904,29.351463,0.8463332,2.006595,12.772729,-12.191304,-23.722143,59.9837,60.396564,20.4586,0.52343506,-11.117037
231,-2.943727493286133,-131.90042114257812,72.43873596191406,-1.2821940077919025,0.14177438461672556,-103.18371218174464,-18.120714,22.018345,25.903214,89.71018,-14.055155,3.6544485,-34.789104,2.1652448,-12.473002,35.505512,-1.6833726,-7.322736,-0.52493757,6.638451,29.793802,-0.62598705,29.06846,-28.606483,30.063736,0.27791086,1.775955,12.832846,-13.25146,-23.658909,60.40955,60.702988,21.11089,0.43287888,-11.005139
232,-2.9693148136138916,-132.27450561523438,72.31069946289062,-1.157247234087307,0.6836357174774563,-103.20971339496066,-20.001787,22.998878,26.176207,91.13652,-14.686433,3.538362,-35.806316,1.9010302,-12.363056,36.949715,-2.5603752,-7.299742,-0.07875974,6.8747845,29.793802,-0.35937616,28.58508,-29.514427,30.80572,-0.2763582,1.4885728,12.869524,-14.394954,-23.60467,60.822594,61.039555,21.760786,0.33420625,-10.910791
233,-2.987081289291382,-132.6350860595703,72.18865966796875,-0.9535428801715783,1.3183078783670739,-103.26083027883297,-22.214996,23.618828,26.20752,92.18916,-15.4012165,3.7816877,-36.946465,1.5833824,-12.180785,38.384125,-3.35247,-7.305213,0.36891907,7.0382032,29.793802,-0.07013808,28.103964,-30.410309,31.57508,-0.7937609,1.1175421,12.890382,-15.651963,-23.569748,61.257942,61.404858,22.45685,0.2229049,-10.828432
234,-2.9955782890319824,-132.99058532714844,72.06941223144531,-0.6706160666667946,2.031995508048982,-103.31651784314569,-24.63067,23.939611,26.122673,92.82303,-16.324188,4.1551485,-38.182487,1.2005079,-11.934731,39.801327,-4.093603,-7.2996044,0.8065639,7.1236663,29.793802,0.23587006,27.623579,-31.308662,32.37163,-1.2877967,0.67691445,12.896001,-17.005083,-23.557669,61.715885,61.78228,23.181889,0.10657215,-10.750441
235,-2.995802164077759,-133.33218383789062,71.94619750976562,-0.34784925972867237,2.7954901321751584,-103.37512081021899,-27.124123,24.097208,26.006695,93.09642,-17.234032,4.5038595,-39.466286,0.79615253,-11.639513,41.171127,-4.78883,-7.276231,1.2437141,7.177509,29.793802,0.55124265,27.137346,-32.22551,33.22099,-1.7883103,0.21657944,12.86863,-18.39174,-23.567537,62.123867,62.164753,23.838936,-0.008675549,-10.695697
236,-2.9767587184906006,-133.67283630371094,71.82823944091797,-0.02541803835725779,3.5791716522484456,-103.43657413387656,-29.565327,24.236876,25.94712,93.06876,-17.915064,4.677709,-40.748837,0.41346595,-11.312349,42.465256,-5.4447165,-7.2278705,1.6954606,7.2496204,29.793802,0.8600414,26.635683,-33.1831,34.1552,-2.326306,-0.2134899,12.791681,-19.759436,-23.598648,62.418816,62.556484,24.343264,-0.11847229,-10.683968
237,-2.959318161010742,-134.00894165039062,71.70958709716797,0.2906869916874435,4.387812945302955,-103.51124749447057,-31.938068,24.403084,25.994184,92.74106,-18.302994,4.6183434,-42.035378,0.06629944,-10.947731,43.672432,-6.046848,-7.148402,2.1769443,7.3503485,29.793802,1.1551853,26.107786,-34.182964,35.20121,-2.9200077,-0.64182246,12.660324,-21.12225,-23.6548,62.58327,62.971638,24.635643,-0.21846622,-10.699579
238,-2.9333138465881348,-134.34814453125,71.59588623046875,0.6193204254809115,5.232395045583643,-103.59516719248298,-34.295002,24.515192,26.103079,92.079475,-18.514666,4.410858,-43.342896,-0.26604515,-10.540511,44.8074,-6.5967464,-7.04165,2.6860611,7.461865,29.793802,1.4320285,25.549856,-35.227833,36.350502,-3.548333,-1.0802392,12.484019,-22.528923,-23.742329,62.70297,63.422646,24.833452,-0.31292403,-10.740737
239,-2.904757022857666,-134.6744384765625,71.47613525390625,0.9588314545935189,6.091450779452656,-103.66770104956736,-36.607597,24.53339,26.219055,91.09333,-18.609781,4.122801,-44.645237,-0.5953535,-10.110162,45.88934,-7.1290836,-6.915989,3.1953607,7.5860925,29.793802,1.697841,24.964685,-36.321896,37.57117,-4.18307,-1.4531908,12.268194,-23.903522,-23.860085,62.73747,63.87911,24.961054,-0.4120868,-10.849403
240,-2.883554220199585,-134.98684692382812,71.35713958740234,1.3074151810990622,6.944699698273102,-103.70845748064237,-38.848858,24.418737,26.284079,89.79241,-18.649193,3.8218284,-45.91702,-0.9336973,-9.676978,46.93556,-7.6771946,-6.781489,3.695395,7.728473,29.793802,1.9450465,24.360785,-37.48842,38.83432,-4.7994967,-1.68516,12.021255,-25.243143,-24.008097,62.768867,64.34254,25.192158,-0.52646244,-11.065321
