unveil-humanoid-operators/unveil-humanoid-operators.github.io/feature-analysis-animation/data/feature_matrix_instances/height_ankle_rom_jogging_A460_baby_full_diaper_jog_ff_180_stop_R_002__A460.csv
Frame,root_translateX,root_translateY,root_translateZ,root_rotateX,root_rotateY,root_rotateZ,left_hip_pitch_joint_dof,left_hip_roll_joint_dof,left_hip_yaw_joint_dof,left_knee_joint_dof,left_ankle_pitch_joint_dof,left_ankle_roll_joint_dof,right_hip_pitch_joint_dof,right_hip_roll_joint_dof,right_hip_yaw_joint_dof,right_knee_joint_dof,right_ankle_pitch_joint_dof,right_ankle_roll_joint_dof,waist_yaw_joint_dof,waist_roll_joint_dof,waist_pitch_joint_dof,left_shoulder_pitch_joint_dof,left_shoulder_roll_joint_dof,left_shoulder_yaw_joint_dof,left_elbow_joint_dof,left_wrist_roll_joint_dof,left_wrist_pitch_joint_dof,left_wrist_yaw_joint_dof,right_shoulder_pitch_joint_dof,right_shoulder_roll_joint_dof,right_shoulder_yaw_joint_dof,right_elbow_joint_dof,right_wrist_roll_joint_dof,right_wrist_pitch_joint_dof,right_wrist_yaw_joint_dof
0,-0.4211467206478119,3.1640775203704834,72.76458740234375,1.81694514859107,-11.730915182149184,-85.15659562116547,-1.8314257,-5.0323467,1.7835373,47.47465,-35.308876,0.7969505,-13.818353,-13.153976,-7.589149,94.31052,-6.2924156,-5.8928933,-0.9218393,-3.0810015,8.596863,-43.307602,22.726799,-5.123114,-18.520414,-44.117058,19.682482,32.31923,-62.336475,-22.559715,13.0426655,-22.091078,-17.519388,39.57534,-5.447298
1,-0.34019985795021057,1.8106321096420288,72.73959350585938,1.55773197558451,-11.666409568174071,-85.31176234354419,-0.20548028,-4.6602564,1.764878,46.763718,-35.9426,0.9256353,-14.977937,-13.281674,-8.165188,93.2879,-8.291343,-6.024265,-1.124278,-2.98679,8.644657,-43.00036,22.661314,-5.069569,-18.738737,-43.924847,19.514019,32.236065,-61.821495,-22.454891,12.905356,-22.35871,-17.907291,39.476704,-5.5327063
2,-0.2865203619003296,0.4533081352710724,72.74849700927734,1.301201735178617,-11.613670930172566,-85.47463603875423,1.4301238,-4.284135,1.7559742,46.069553,-36.641533,1.0490042,-16.14476,-13.378855,-8.709837,92.34199,-10.346997,-6.1466346,-1.3263195,-2.8832583,8.681773,-42.690075,22.543253,-5.000138,-18.950323,-43.693497,19.34231,32.13168,-61.335136,-22.297424,12.778525,-22.589197,-18.354498,39.375607,-5.597517
3,-0.238626629114151,-0.9129295945167542,72.80831909179688,1.0337182206834863,-11.543226916167722,-85.62623818361928,3.0528162,-3.8882484,1.7491403,45.326805,-37.20879,1.1479362,-17.252214,-13.449094,-9.324134,91.17749,-12.263052,-6.186477,-1.5386404,-2.7596374,8.696288,-42.397903,22.40586,-4.945048,-19.095808,-43.4432,19.19748,32.037514,-60.907356,-22.114656,12.690494,-22.71857,-18.784454,39.27139,-5.666115
4,-0.21687836945056915,-2.287135124206543,72.91570281982422,0.745167163273288,-11.425809729972599,-85.74857542695084,4.639194,-3.457257,1.738319,44.472176,-37.451416,1.2055172,-18.22686,-13.496887,-10.116026,89.49458,-13.842252,-6.0687237,-1.7663512,-2.605508,8.674825,-42.160202,22.278843,-4.941143,-19.09659,-43.192795,19.109962,31.98353,-60.56351,-21.929295,12.662385,-22.680311,-19.127361,39.162712,-5.760914
5,-0.18001267313957214,-3.65376353263855,73.05389404296875,0.42224855670878453,-11.260759761677146,-85.82056134050711,6.2093444,-2.9764163,1.7256622,43.455982,-37.332157,1.2262602,-19.040249,-13.5465555,-11.148032,87.20485,-15.014268,-5.7363553,-2.0245223,-2.4184744,8.62602,-41.986263,22.179089,-5.0040674,-18.928331,-42.926018,19.107487,31.996805,-60.29485,-21.754261,12.691948,-22.477654,-19.370413,39.051846,-5.872501
6,-0.1500043421983719,-5.017240524291992,73.22728729248047,0.07597460109767729,-11.061042517027136,-85.85802827014659,7.765936,-2.4588678,1.7162302,42.326183,-36.95277,1.2190502,-19.721943,-13.585226,-12.3645115,84.46356,-15.889434,-5.2378078,-2.303682,-2.2099867,8.56168,-41.85529,22.10836,-5.1180377,-18.645227,-42.653297,19.163603,32.060863,-60.074455,-21.592684,12.759293,-22.16581,-19.534306,38.939823,-5.9995747
7,-0.12059985101222992,-6.395138740539551,73.42146301269531,-0.2778619817125631,-10.817807350364593,-85.8982248391034,9.255309,-1.9319342,1.706993,41.17581,-36.324787,1.1773772,-20.283976,-13.557652,-13.69655,81.330956,-16.541775,-4.6538563,-2.5712726,-1.9873967,8.468973,-41.766483,22.07179,-5.2691293,-18.278852,-42.435593,19.228666,32.137783,-59.90545,-21.450022,12.864605,-21.754461,-19.604992,38.82277,-6.173832
8,-0.11114127933979034,-7.789148330688477,73.63507080078125,-0.6212850033583329,-10.522180487981997,-85.97841128073308,10.624855,-1.4240913,1.6915681,40.09608,-35.460716,1.0963119,-20.742332,-13.409431,-15.069603,77.860504,-17.04724,-4.066789,-2.7979028,-1.7588642,8.33448,-41.71432,22.075754,-5.4412374,-17.863762,-42.333057,19.252743,32.19042,-59.791267,-21.333973,13.008107,-21.252892,-19.564167,38.696983,-6.4265137
9,-0.10693580657243729,-9.193272590637207,73.8739242553711,-0.9662197854029625,-10.157958072575216,-86.10200424636568,11.875884,-0.92793536,1.6410971,39.055733,-34.354164,0.9516184,-21.086607,-13.202028,-16.58708,73.99293,-17.41525,-3.5253131,-2.9777153,-1.5121343,8.14555,-41.724365,22.130638,-5.6480966,-17.35538,-42.36372,19.228148,32.197342,-59.751987,-21.254576,13.199095,-20.613592,-19.373102,38.555332,-6.78858
10,-0.09678903967142105,-10.600676536560059,74.11939239501953,-1.3173605696219248,-9.73451487669031,-86.25220438508933,13.029006,-0.43541887,1.5617383,38.031876,-33.00636,0.7572762,-21.304611,-12.911813,-18.252775,69.70074,-17.603336,-2.9605973,-3.12276,-1.249232,7.9156194,-41.79152,22.237326,-5.8940945,-16.756466,-42.500847,19.1779,32.184177,-59.77249,-21.213053,13.430583,-19.857136,-19.048801,38.40075,-7.237578
11,-0.08529195934534073,-11.992732048034668,74.37213897705078,-1.6416819815486894,-9.283255682695469,-86.43497767129311,14.066678,0.020902064,1.4957188,37.11764,-31.432734,0.5673653,-21.425535,-12.391518,-19.816889,65.08336,-17.609482,-2.3051312,-3.2335,-1.0016832,7.667907,-41.86372,22.38339,-6.1476665,-16.174734,-42.734722,19.099478,32.18409,-59.80525,-21.200205,13.680279,-19.094706,-18.658957,38.244823,-7.722016
12,-0.08586332201957703,-13.39380168914795,74.63066101074219,-1.905846881759412,-8.83625221088075,-86.65318971865683,14.973978,0.40398225,1.4855087,36.401817,-29.644672,0.4344323,-21.483448,-11.5415325,-21.008188,60.237095,-17.44166,-1.5267658,-3.3166566,-0.80367386,7.423407,-41.882046,22.548986,-6.3735013,-15.716025,-43.04645,18.991077,32.22788,-59.813213,-21.202183,13.9331,-18.427015,-18.273113,38.099953,-8.189183
13,-0.09258724004030228,-14.803767204284668,74.8907470703125,-2.1080505477826854,-8.381531279284124,-86.91931496703688,15.750229,0.7055524,1.5356885,35.855747,-27.606052,0.34870282,-21.477661,-10.345417,-21.776821,54.998707,-17.099997,-0.77034056,-3.3639355,-0.64997363,7.175803,-41.840405,22.725826,-6.5708766,-15.3950205,-43.482174,18.828047,32.330402,-59.802498,-21.210148,14.196651,-17.838135,-17.914566,37.954582,-8.64337
14,-0.09973149001598358,-16.2399959564209,75.13956451416016,-2.253044567236146,-7.911357250587571,-87.22268759342721,16.409487,0.927544,1.6177018,35.43873,-25.315699,0.28663486,-21.372892,-8.931243,-22.211489,49.343185,-16.593668,-0.065240815,-3.3833034,-0.5395898,6.9144335,-41.763615,22.915016,-6.7516217,-15.156798,-44.024292,18.620417,32.46857,-59.80146,-21.224148,14.482886,-17.270002,-17.551174,37.806248,-9.103352
15,-0.0983939841389656,-17.721357345581055,75.37657928466797,-2.3155874545460478,-7.463915766358853,-87.52613660966446,16.953688,1.0580845,1.7266314,35.229263,-22.837069,0.2768961,-21.13533,-7.4372396,-22.263718,43.56789,-15.943441,0.7695771,-3.3987184,-0.5032592,6.656136,-41.6612,23.110434,-6.9038606,-14.985429,-44.56847,18.419983,32.615547,-59.79957,-21.239494,14.7737875,-16.762886,-17.174662,37.682793,-9.542392
16,-0.10953909903764725,-19.215917587280273,75.58638763427734,-2.2676259313487397,-7.077302140976011,-87.79319683275708,17.386028,1.0808293,1.8614897,35.302143,-20.227856,0.35153487,-20.733158,-5.9890265,-21.893995,37.971546,-15.1685705,1.9341197,-3.4347434,-0.57542163,6.4152055,-41.54464,23.304012,-7.014875,-14.864581,-45.010506,18.2802,32.745247,-59.78979,-21.251522,15.05514,-16.348284,-16.776577,37.612003,-9.932705
17,-0.12287987768650055,-20.72567367553711,75.75540161132812,-2.0321498824613906,-6.758452297109948,-88.00192677725836,17.741035,0.9256327,2.0789988,35.60815,-17.422226,0.5969809,-20.07445,-4.583656,-20.99218,32.30301,-14.2255125,3.7253613,-3.5092,-0.8331269,6.1814265,-41.407314,23.490738,-7.0888495,-14.781512,-45.3155,18.195225,32.85415,-59.76741,-21.254023,15.337761,-16.018797,-16.336926,37.602844,-10.277435
18,-0.13000887632369995,-22.24608039855957,75.88394165039062,-1.5973212700262052,-6.497015221334501,-88.1582450327063,18.028765,0.57046086,2.3594031,36.081326,-14.377813,0.9805467,-19.116415,-3.286424,-19.578152,26.425703,-13.126427,5.9134197,-3.6217144,-1.2908149,5.9525714,-41.255642,23.671247,-7.132295,-14.732647,-45.53946,18.14539,32.95386,-59.746647,-21.245392,15.625377,-15.746435,-15.865434,37.64044,-10.587851
19,-0.13213135302066803,-23.77315902709961,75.9656982421875,-1.0425573100401793,-6.299074883874294,-88.28246340965732,18.211538,0.08764657,2.5960813,36.781944,-11.197278,1.3525964,-17.992163,-2.2496908,-17.84404,20.95333,-11.996175,7.976827,-3.748975,-1.8666067,5.7535515,-41.121277,23.843735,-7.14078,-14.723302,-45.71688,18.163734,33.044704,-59.74161,-21.2257,15.885909,-15.542834,-15.401836,37.717155,-10.852222
20,-0.13387849926948547,-25.30980682373047,76.00139617919922,-0.5258291613269708,-6.1542956337164725,-88.41875668693355,18.220465,-0.3735234,2.6920998,37.821716,-8.016517,1.5380294,-16.949108,-1.4688942,-16.027267,16.638636,-10.964417,9.450323,-3.8490243,-2.396195,5.6011915,-41.02037,24.003597,-7.1035485,-14.769971,-45.877357,18.281635,33.127926,-59.757637,-21.200552,16.09036,-15.432405,-14.985398,37.825047,-11.056977
21,-0.11787913739681244,-26.855113983154297,76.00223541259766,-0.1479029659325385,-6.0410574513559245,-88.61012325922923,17.979614,-0.7212303,2.6430187,39.340256,-4.8336143,1.5417986,-16.061258,-0.7645007,-14.047033,13.646959,-10.015735,10.383925,-3.884841,-2.7702527,5.4844975,-40.935905,24.137407,-6.9900184,-14.913019,-45.98094,18.575205,33.22443,-59.763126,-21.178347,16.232689,-15.46679,-14.628119,37.9693,-11.196373
22,-0.10732300579547882,-28.398006439208984,75.96944427490234,0.10118923896399208,-5.947784917929864,-88.85521625794411,17.511536,-0.963426,2.5130591,41.279522,-1.6131254,1.3923373,-15.299708,-0.028363049,-11.869611,11.72787,-9.130371,11.019944,-3.8534908,-2.990806,5.3871083,-40.85583,24.235786,-6.812807,-15.14155,-46.017925,19.004343,33.32645,-59.749386,-21.166197,16.32839,-15.635815,-14.308031,38.152195,-11.278702
23,-0.13682346045970917,-29.9051513671875,75.94010162353516,0.15418055742878292,-5.868002435956332,-89.14426854217523,16.86029,-1.0377276,2.2903717,43.526054,1.5102994,0.9225666,-14.832877,0.7875274,-9.836554,11.074148,-8.435221,11.201262,-3.7565167,-2.984174,5.3163004,-40.798252,24.317225,-6.6161985,-15.41138,-46.077095,19.424543,33.393753,-59.75631,-21.16958,16.392582,-15.883399,-14.018379,38.36112,-11.309477
24,-0.2019670158624649,-31.38357925415039,75.92083740234375,-0.03041140286174115,-5.803932546054061,-89.45789264304281,16.08279,-0.9220901,1.9351325,45.96461,4.3979735,-0.029803433,-14.812333,1.7031726,-8.294219,11.839562,-8.036529,10.762767,-3.608556,-2.710585,5.28663,-40.7744,24.412733,-6.444234,-15.688851,-46.25261,19.689772,33.389698,-59.822304,-21.19127,16.434803,-16.156511,-13.748332,38.583267,-11.295179
25,-0.25430476665496826,-32.86696243286133,75.84619140625,-0.5249215492560549,-5.74945324348721,-89.80131161594116,15.135664,-0.63115597,1.283614,48.68418,7.370045,-1.8232739,-15.427137,2.7662225,-7.3898168,14.495132,-7.9072347,9.388975,-3.4093354,-2.0900445,5.299142,-40.77811,24.552544,-6.291214,-15.980048,-46.647804,19.665096,33.241455,-59.968792,-21.242805,16.455526,-16.494661,-13.457652,38.848583,-11.231272
26,-0.2763833999633789,-34.347389221191406,75.69859313964844,-1.190625915957656,-5.729112395408352,-90.16049263170024,14.062196,-0.38939625,0.2939799,51.670383,10.366931,-4.3509355,-16.482508,3.824344,-6.9466186,18.686155,-7.957367,7.237731,-3.1692936,-1.2781645,5.358943,-40.820835,24.729391,-6.151413,-16.287922,-47.19795,19.461054,32.991337,-60.168594,-21.319109,16.437572,-16.909706,-13.15993,39.154095,-11.117566
27,-0.3005470633506775,-35.79631423950195,75.50508880615234,-1.7852121661049218,-5.783326824304515,-90.49362447611769,13.01673,-0.354218,-0.7862633,54.705563,12.665332,-6.985729,-17.566156,4.6422505,-6.7934585,23.339922,-8.211667,4.8476195,-2.9319992,-0.5492152,5.4879,-40.913795,24.943878,-6.050369,-16.601786,-47.755775,19.296228,32.780666,-60.385674,-21.401896,16.373108,-17.326752,-12.914564,39.436623,-10.96655
28,-0.3102883994579315,-37.22075653076172,75.2374267578125,-2.2147885751591843,-5.927309460979998,-90.78501662807831,12.083505,-0.36810184,-1.5764831,57.647648,13.548299,-8.968196,-18.32067,5.206002,-6.755546,27.448904,-8.688326,2.7838666,-2.7191885,-0.020959176,5.7008486,-41.053185,25.192461,-6.0098596,-16.931192,-48.16853,19.382597,32.757412,-60.580776,-21.461359,16.258837,-17.673996,-12.797079,39.630985,-10.787573
29,-0.34113964438438416,-38.63385772705078,74.94699096679688,-2.535256955644239,-6.185441491115909,-91.10154145947634,11.297259,-0.23778449,-1.928237,60.561653,12.494289,-9.895301,-18.771536,5.6240892,-6.837924,31.014826,-9.381365,1.1232226,-2.4901974,0.3709834,6.0375104,-41.2526,25.486017,-6.0185733,-17.318758,-48.34203,19.93001,33.0298,-60.782417,-21.464998,16.093132,-17.897097,-12.87334,39.69108,-10.558562
30,-0.3637430667877197,-40.02382278442383,74.68020629882812,-2.8185382983112506,-6.5339104750126396,-91.43372764030751,10.575971,0.077377945,-1.9782884,63.52988,10.01122,-10.121997,-19.078018,5.906089,-7.086058,34.49643,-10.300768,-0.4239096,-2.2624247,0.71280175,6.4732885,-41.506893,25.832298,-6.063981,-17.75149,-48.379803,20.771902,33.49945,-61.034172,-21.39993,15.890106,-18.0084,-13.105549,39.658146,-10.2791
31,-0.3924570083618164,-41.40814971923828,74.4394760131836,-3.078387733816948,-6.902179703128168,-91.664243004941,9.806178,0.6598712,-1.7701199,66.431915,6.954682,-9.987646,-19.135557,6.0551276,-7.4143825,37.64187,-11.476982,-1.7789272,-2.1354666,1.0019072,6.918738,-41.761864,26.214659,-6.153817,-18.162455,-48.41588,21.553905,34.004063,-61.30625,-21.281927,15.676016,-18.055532,-13.405247,39.59798,-9.986325
32,-0.39141881465911865,-42.78964614868164,74.21788024902344,-3.3292932570109546,-7.2203218428202165,-91.6760597852807,8.882878,1.5967607,-1.3495514,69.13678,4.179253,-9.833896,-18.842869,6.11219,-7.7552414,40.19885,-12.919066,-2.8368106,-2.1928504,1.2333771,7.2846403,-41.95251,26.597786,-6.297267,-18.488964,-48.570454,21.92153,34.379807,-61.539776,-21.14988,15.47167,-18.116917,-13.679051,39.578186,-9.716402
33,-0.3773997128009796,-44.19622802734375,74.01241302490234,-3.6103832952269084,-7.48353011638808,-91.40583716111763,7.803931,3.1056948,-0.6541524,71.64038,1.8105477,-9.80463,-18.123108,6.146022,-8.158508,42.079723,-14.764201,-3.4632657,-2.467227,1.4424132,7.551187,-42.06679,26.959244,-6.5372243,-18.71197,-48.90828,21.668898,34.574986,-61.70074,-21.043785,15.271655,-18.217497,-13.90283,39.628296,-9.478067
34,-0.3750264048576355,-45.62592697143555,73.83283233642578,-3.9179139719276233,-7.72087757491037,-90.93015395835151,6.62741,5.118039,0.268517,73.99656,-0.5699141,-9.704706,-17.06407,6.196567,-8.66896,43.44853,-16.94527,-3.731306,-2.8780017,1.6349428,7.766518,-42.15157,27.289633,-6.8708735,-18.855173,-49.337574,21.023922,34.670956,-61.785767,-20.98093,15.056375,-18.354172,-14.111164,39.710487,-9.255029
35,-0.3842984437942505,-47.063453674316406,73.69102478027344,-4.193341455643152,-7.914139498680882,-90.33866137125152,5.335287,7.265895,1.2193965,76.15383,-2.9339194,-9.374864,-15.810543,6.2422137,-9.219623,44.425907,-19.16345,-3.8440704,-3.3345377,1.7594849,7.9396043,-42.22924,27.568302,-7.2348866,-18.917969,-49.742634,20.284866,34.70274,-61.777035,-20.964802,14.829056,-18.56389,-14.3054905,39.793427,-9.046239
36,-0.40540754795074463,-48.49821472167969,73.57997131347656,-4.375412126554317,-8.046651136220293,-89.7198407534955,3.896198,9.149334,2.014022,78.06156,-5.260275,-8.663439,-14.501604,6.2229104,-9.718716,45.132175,-21.123676,-3.9872713,-3.7544072,1.7650299,8.074617,-42.31024,27.768694,-7.557907,-18.904572,-50.003994,19.751295,34.709496,-61.672085,-20.98927,14.599585,-18.866705,-14.488723,39.84512,-8.850598
37,-0.4337422549724579,-49.942787170410156,73.50106811523438,-4.442818625230864,-8.095771928236717,-89.03822000142847,2.2129192,10.657345,2.567919,79.77383,-7.628665,-7.427235,-13.161962,6.072816,-10.165294,45.585316,-22.811632,-4.1953144,-4.154699,1.6158297,8.137631,-42.425034,27.867094,-7.834474,-18.768192,-50.078606,19.525545,34.678352,-61.448265,-21.057827,14.365891,-19.282711,-14.64392,39.852943,-8.686708
38,-0.45271897315979004,-51.354156494140625,73.4638900756836,-4.426795311673122,-8.077721388922898,-88.26597936577222,0.31993625,11.9444,2.979778,81.29118,-10.037471,-5.8124943,-11.723653,5.8176794,-10.601482,45.73353,-24.37023,-4.3633814,-4.5575695,1.353563,8.129133,-42.566185,27.856668,-8.101373,-18.508924,-50.02045,19.445286,34.593063,-61.112534,-21.17733,14.125827,-19.788544,-14.775239,39.835934,-8.54905
39,-0.45029526948928833,-52.74458694458008,73.47722625732422,-4.343712154497154,-8.034561672558342,-87.5021882986718,-1.6173877,13.016268,3.3705502,82.48089,-12.333949,-4.089169,-10.176625,5.516007,-10.989735,45.58069,-25.734615,-4.4550104,-4.890068,1.0427456,8.106384,-42.694534,27.74382,-8.34766,-18.201164,-49.865143,19.41205,34.490765,-60.715317,-21.33327,13.890467,-20.32999,-14.927462,39.809685,-8.402853
40,-0.42827463150024414,-54.11676788330078,73.53546905517578,-4.2110312527469045,-8.008012224586547,-86.84675599272573,-3.4241323,13.90995,3.8824875,83.213425,-14.356084,-2.5161815,-8.510297,5.2337856,-11.292499,45.129272,-26.83678,-4.442924,-5.0925283,0.7475586,8.128549,-42.756138,27.547235,-8.548945,-17.930286,-49.65286,19.327152,34.409824,-60.32857,-21.495407,13.682628,-20.83498,-15.150655,39.789093,-8.211647
41,-0.37875980138778687,-55.494998931884766,73.64299011230469,-4.019128415781145,-8.009799090431914,-86.32574833403007,-5.075199,14.676802,4.6318164,83.4759,-16.080093,-0.9865262,-6.674047,4.976677,-11.493329,44.294216,-27.687487,-4.30595,-5.1605816,0.46533448,8.223379,-42.69092,27.275349,-8.674497,-17.760626,-49.36724,19.151302,34.36935,-59.966488,-21.629429,13.509876,-21.303291,-15.486787,39.77426,-7.9538736
42,-0.33309128880500793,-56.86619186401367,73.80516052246094,-3.7617486586781728,-8.018592808945169,-85.88653954380248,-6.642673,15.292036,5.553146,83.331604,-17.58815,0.58271825,-4.6898637,4.7079616,-11.624678,43.101482,-28.311207,-4.063357,-5.145043,0.16729023,8.35434,-42.51879,26.934296,-8.726258,-17.646875,-48.998363,18.941238,34.34768,-59.62638,-21.722303,13.375947,-21.732847,-15.914779,39.755886,-7.648636
43,-0.2742331624031067,-58.245365142822266,74.01600646972656,-3.4716991381583857,-8.025931494484908,-85.51001305116773,-8.0971365,15.71059,6.5305114,82.76308,-18.86248,1.9120731,-2.6569018,4.435027,-11.719589,41.725586,-28.664507,-3.7562065,-5.0708556,-0.1231716,8.487591,-42.30463,26.547531,-8.728828,-17.511503,-48.60013,18.741608,34.324352,-59.353638,-21.78024,13.299131,-22.057522,-16.388388,39.73507,-7.3217163
44,-0.2177911102771759,-59.64695739746094,74.25211334228516,-3.1841867338789918,-8.022894270139066,-85.17724962192476,-9.418983,15.89839,7.444545,81.750275,-19.867731,2.7307262,-0.67247003,4.170796,-11.80579,40.33953,-28.70383,-3.427395,-4.9625697,-0.38331243,8.592521,-42.109123,26.147484,-8.706447,-17.283094,-48.23246,18.594994,34.28029,-59.183544,-21.822289,13.292551,-22.22756,-16.850723,39.71443,-6.999714
45,-0.14220082759857178,-61.041866302490234,74.50457000732422,-2.9030774545029896,-8.027012416880698,-84.89702141983823,-10.585822,15.862027,8.29592,80.24891,-20.539145,2.9136124,1.3084215,3.9288177,-11.87719,38.892868,-28.40637,-3.0535085,-4.8093467,-0.6067413,8.69205,-41.92856,25.754604,-8.645392,-16.966867,-47.903202,18.550035,34.22986,-59.125153,-21.860138,13.367991,-22.234798,-17.304874,39.688892,-6.6823306
46,-0.060428764671087265,-62.42271041870117,74.7784652709961,-2.613952147344787,-8.036460874405147,-84.67571921130717,-11.616643,15.64494,9.148287,78.27684,-20.898605,2.641735,3.315972,3.7034433,-11.917996,37.324413,-27.799269,-2.6270998,-4.607316,-0.8072878,8.801403,-41.72336,25.371307,-8.536947,-16.615227,-47.59731,18.567434,34.181087,-59.148396,-21.890623,13.510551,-22.127398,-17.763538,39.659874,-6.3620415
47,0.013931711204349995,-63.80183792114258,75.06552124023438,-2.3264483927023507,-8.013928533598703,-84.4909283512232,-12.555679,15.270754,9.967046,75.898994,-21.042227,2.1064613,5.228559,3.4829936,-11.9373255,35.799866,-26.920801,-2.2173564,-4.3871245,-0.99257904,8.878244,-41.50933,25.00115,-8.416765,-16.224161,-47.340977,18.557308,34.10568,-59.23027,-21.9127,13.695509,-21.933197,-18.188055,39.63938,-6.053664
48,0.09581153839826584,-65.19451904296875,75.37940979003906,-2.046849697453718,-7.922071581082162,-84.31944744950256,-13.446674,14.76089,10.713184,73.17997,-21.06907,1.4971238,6.9225087,3.2557857,-11.945753,34.48935,-25.811737,-1.8934206,-4.179839,-1.1715518,8.879704,-41.303753,24.647013,-8.322923,-15.788015,-47.159176,18.428837,33.977013,-59.34283,-21.928888,13.89243,-21.684275,-18.53655,39.64024,-5.7706513
49,0.18117234110832214,-66.59639739990234,75.7043685913086,-1.7733031196918285,-7.734314330703185,-84.15704294317621,-14.320638,14.109837,11.390048,70.071365,-20.970194,0.8393632,8.362966,3.0217717,-11.930626,33.408012,-24.444326,-1.6783094,-3.9877753,-1.352644,8.78658,-41.1066,24.30534,-8.261526,-15.287923,-47.07324,18.128468,33.76723,-59.49216,-21.937542,14.093832,-21.362576,-18.783407,39.666363,-5.518314
50,0.27411842346191406,-67.99070739746094,76.02623748779297,-1.5038795607417867,-7.476962583413092,-84.01516509815762,-15.140529,13.329093,11.997659,66.544914,-20.71007,0.056039453,9.615022,2.7892876,-11.885582,32.48247,-22.814531,-1.5350188,-3.7954698,-1.5287867,8.624867,-40.915493,23.975594,-8.216838,-14.72672,-47.066315,17.714144,33.497925,-59.686398,-21.939651,14.313638,-20.959703,-18.956232,39.711422,-5.2867336
51,0.366606742143631,-69.4026870727539,76.35195922851562,-1.2559978708610837,-7.19160727113369,-83.89375013955826,-15.846316,12.461746,12.4941,62.69269,-20.346844,-0.81957626,10.702791,2.5586755,-11.833498,31.756,-21.000113,-1.4416837,-3.6026437,-1.6871568,8.421524,-40.74337,23.665783,-8.196395,-14.13843,-47.106693,17.261652,33.218372,-59.88911,-21.94239,14.54593,-20.541172,-19.09353,39.7729,-5.069835
52,0.4668717384338379,-70.82060241699219,76.67848205566406,-1.043167106377706,-6.919882412280806,-83.79333607468186,-16.379309,11.544033,12.842263,58.604782,-19.93568,-1.7557225,11.65377,2.3311002,-11.797521,31.261955,-19.071398,-1.3753234,-3.4050758,-1.8172759,8.204924,-40.6066,23.388256,-8.211712,-13.55727,-47.16502,16.84517,32.97917,-60.058853,-21.956099,14.7822485,-20.17588,-19.233965,39.848553,-4.862534
53,0.5751456022262573,-72.24111938476562,76.99053955078125,-0.8487818423901037,-6.648961780982385,-83.71633498552812,-16.710497,10.527634,13.066559,54.098625,-19.41401,-2.7572374,12.484333,2.0863862,-11.810082,30.945457,-16.981071,-1.2864581,-3.1901839,-1.9382017,7.963377,-40.514572,23.153055,-8.275764,-12.977265,-47.231476,16.497133,32.8133,-60.174107,-21.989931,15.016435,-19.872293,-19.400808,39.923943,-4.6540356
54,0.6847893595695496,-73.68089294433594,77.2916488647461,-0.6780216664541927,-6.364846308223598,-83.66426691965007,-16.850868,9.433049,13.159142,49.148705,-18.770578,-3.8138313,13.183247,1.8379159,-11.844631,30.795654,-14.7036295,-1.1966321,-2.958615,-2.0482213,7.6923447,-40.45665,22.95988,-8.382723,-12.390804,-47.32715,16.171783,32.68943,-60.25053,-22.045372,15.248576,-19.609192,-19.563885,40.00549,-4.452503
55,0.7955353856086731,-75.1376724243164,77.57479095458984,-0.5700138061026053,-6.105899289188061,-83.63765098751323,-16.809519,8.384311,13.050287,44.098385,-18.127575,-4.8833423,13.732633,1.6355652,-11.84181,30.918028,-12.34075,-1.1867204,-2.7294738,-2.104322,7.425322,-40.42208,22.806751,-8.509894,-11.821089,-47.470264,15.82801,32.561127,-60.30851,-22.123295,15.481851,-19.411507,-19.676468,40.122433,-4.277921
56,0.9103277921676636,-76.60807037353516,77.82433319091797,-0.5672950508540989,-5.909158780143276,-83.6369127203462,-16.603407,7.4869595,12.689289,39.305317,-17.609386,-5.939473,14.118773,1.5254565,-11.750043,31.406195,-9.983908,-1.3341136,-2.5201097,-2.0646975,7.195011,-40.39953,22.690346,-8.635295,-11.291853,-47.678696,15.4253,32.380756,-60.36907,-22.22232,15.719012,-19.299753,-19.693956,40.30448,-4.1513867
57,1.0277514457702637,-78.08592987060547,78.04145050048828,-0.7055376551553465,-5.7668415391057355,-83.66821625367875,-16.211031,6.7310605,12.010984,34.637127,-17.220053,-7.072064,14.364826,1.5328357,-11.645092,32.207405,-7.5841384,-1.6490006,-2.3247473,-1.886869,6.9881725,-40.373466,22.610518,-8.764788,-10.777303,-47.98868,14.865087,32.092182,-60.440247,-22.34433,15.983829,-19.278376,-19.577055,40.582893,-4.0959387
58,1.1605373620986938,-79.55371856689453,78.21978759765625,-0.9675609824425968,-5.666185739487686,-83.73461381143213,-15.607205,6.0930567,11.0704975,29.937988,-16.880053,-8.26608,14.488034,1.6500812,-11.536494,33.249523,-5.08023,-2.0802562,-2.1315668,-1.5867424,6.793829,-40.355152,22.566692,-8.904203,-10.272941,-48.381664,14.200643,31.732115,-60.51591,-22.48949,16.269966,-19.33109,-19.35664,40.93438,-4.0966854
59,1.2855565547943115,-81.04541015625,78.36141967773438,-1.3060031701104196,-5.633633261902885,-83.82791834100922,-14.849389,5.6196194,10.017879,25.60203,-16.606901,-9.367562,14.458156,1.8644631,-11.2837,34.605278,-2.5467942,-2.610558,-1.954101,-1.2207674,6.6443686,-40.371517,22.553352,-9.031225,-9.838279,-48.791126,13.618824,31.395308,-60.592995,-22.651058,16.533,-19.447672,-19.095047,41.307114,-4.116341
60,1.4090721607208252,-82.54042053222656,78.45956420898438,-1.651756397791563,-5.690828853172464,-83.93282841857375,-14.044997,5.3095465,9.009854,22.10437,-16.449375,-10.23896,14.23467,2.1415834,-10.750946,36.366142,-0.068124294,-3.2189386,-1.8150629,-0.8679205,6.5670867,-40.447247,22.564358,-9.123492,-9.532331,-49.144306,13.304427,31.178555,-60.670574,-22.819466,16.731638,-19.614796,-18.8588,41.64894,-4.1148887
61,1.5368342399597168,-84.03150177001953,78.50798034667969,-2.0072529275842013,-5.86163077688586,-84.03165560174921,-13.222011,5.186426,8.090588,19.626242,-16.550993,-10.957126,13.778676,2.4973848,-9.883061,38.660915,2.3697536,-4.0418887,-1.7298716,-0.53092825,6.585886,-40.583694,22.601004,-9.172846,-9.382561,-49.396923,13.386125,31.136816,-60.73251,-22.98742,16.858229,-19.85057,-18.692553,41.953655,-4.0742855
62,1.6749494075775146,-85.50782012939453,78.50841522216797,-2.35891866482325,-6.120035876458634,-84.12674300968156,-12.398684,5.175307,7.1988797,18.00086,-16.88584,-11.586854,13.113342,2.9187672,-8.787997,41.405006,4.817446,-5.015167,-1.6972849,-0.21689808,6.6713243,-40.76055,22.666224,-9.191286,-9.360402,-49.589794,13.737456,31.211063,-60.784943,-23.15377,16.934025,-20.153065,-18.55636,42.2459,-4.0164824
63,1.7930620908737183,-86.99932861328125,78.44883728027344,-2.60815588785206,-6.409279373968367,-84.22650182363198,-11.693383,5.10047,6.3131,17.244347,-17.276283,-11.957077,12.2871065,3.3184776,-7.5520563,44.392086,7.217424,-5.813214,-1.71564,-0.026145404,6.770494,-40.983906,22.7588,-9.19007,-9.425431,-49.785347,14.160354,31.326172,-60.85063,-23.318277,16.95434,-20.48254,-18.395288,42.520252,-3.9639444
64,1.916617512702942,-88.49272918701172,78.32061767578125,-2.669204031670641,-6.676379954145285,-84.34199240031582,-11.205802,4.8010187,5.395749,17.362547,-17.549618,-11.883373,11.347798,3.6312716,-6.2274637,47.43808,9.480976,-6.111243,-1.7807385,-0.040050946,6.833217,-41.260212,22.874023,-9.180866,-9.536105,-50.041836,14.456924,31.405529,-60.95055,-23.483011,16.91208,-20.799767,-18.150898,42.77082,-3.9386945
65,2.0301427841186523,-89.98319244384766,78.14044952392578,-2.5130992585290195,-6.915810866156397,-84.48678017771937,-10.986862,4.189895,4.3167896,18.553486,-17.477541,-11.233713,10.219283,3.9896314,-4.5514417,50.640244,11.883569,-5.715982,-1.8951509,-0.28456777,6.8448286,-41.587814,23.015594,-9.164331,-9.70137,-50.406994,14.54133,31.431684,-61.111305,-23.655954,16.812777,-21.102867,-17.759483,43.00338,-3.964332
66,2.1706929206848145,-91.45240783691406,77.9173583984375,-2.219286793195278,-7.161969438060734,-84.6560762141289,-10.949534,3.3774111,3.1491241,20.717545,-17.183979,-10.155231,8.939509,4.5031643,-2.5262532,54.058323,14.337477,-4.7608986,-2.0576513,-0.68170077,6.8417954,-41.960247,23.182537,-9.134505,-9.942854,-50.83695,14.529862,31.444649,-61.31262,-23.84081,16.657417,-21.413897,-17.260757,43.218155,-4.023777
67,2.325350284576416,-92.90072631835938,77.64073181152344,-1.8548586394429718,-7.4195806132147615,-84.8356229031324,-10.978273,2.4960794,2.1487775,23.394527,-17.024624,-8.86044,7.6792617,4.9780445,-0.61988837,57.5262,16.166739,-3.5040085,-2.2450318,-1.162621,6.846348,-42.40498,23.360214,-9.100091,-10.206725,-51.260395,14.528912,31.451605,-61.507782,-24.028023,16.435043,-21.723364,-16.764648,43.40248,-4.078115
68,2.4567956924438477,-94.36376953125,77.24541473388672,-1.4486713775989868,-7.683882011365012,-85.00746957550453,-10.993301,1.6609112,1.536517,26.184698,-17.40491,-7.5119586,6.544713,5.040621,0.6474611,60.916412,16.702492,-2.3377793,-2.4443352,-1.7012582,6.8662543,-42.941097,23.527695,-9.066466,-10.442471,-51.595684,14.645426,31.459969,-61.653553,-24.20607,16.135284,-22.019869,-16.377516,43.543037,-4.083052
69,2.597581148147583,-95.7933578491211,76.81983947753906,-0.9268268757427741,-7.9512975695541686,-85.15246353970244,-11.112876,0.8393382,1.4000484,29.340343,-18.601883,-5.9130645,5.553298,4.3276052,1.0557246,64.3482,15.43749,-1.32694,-2.6634185,-2.3836873,6.885625,-43.65807,23.674961,-9.045227,-10.613827,-51.84669,14.914622,31.470774,-61.78302,-24.364248,15.729252,-22.255655,-16.142193,43.641716,-3.9981081
70,2.724604606628418,-97.22100067138672,76.36463928222656,-0.2893275317017535,-8.221420915085837,-85.28689283892659,-11.320318,0.009543447,1.5651867,32.926914,-20.357258,-4.0226374,4.611753,2.9524505,0.8828874,67.88578,12.830485,-0.41600156,-2.9070134,-3.2034743,6.8935075,-44.52044,23.80014,-9.031898,-10.746109,-52.036575,15.277843,31.479193,-61.920696,-24.5037,15.233549,-22.433939,-16.000925,43.70313,-3.8504164
71,2.845767021179199,-98.66063690185547,75.90579986572266,0.3591538365218787,-8.487109578014886,-85.44117844934706,-11.378185,-0.7381294,1.8524294,36.33918,-22.318653,-2.2243218,3.639492,1.1979839,0.37216452,71.302185,9.684226,0.17188828,-3.140711,-4.0303173,6.9065156,-45.38086,23.89305,-9.016829,-10.8677435,-52.123474,15.701153,31.481026,-62.004215,-24.624151,14.709399,-22.617548,-15.929217,43.71982,-3.707026
72,2.9979746341705322,-100.0799560546875,75.48490905761719,0.9181863745692268,-8.74078143348608,-85.64527105444553,-11.070939,-1.3417709,2.1264331,39.005146,-24.119686,-0.9229539,2.5529022,-0.5777311,-0.2167746,74.362885,6.7954073,0.2617267,-3.3355224,-4.7338457,6.9430246,-46.0781,23.936813,-8.983587,-11.016226,-52.054394,16.151854,31.470821,-61.962025,-24.725958,14.215382,-22.876024,-15.897232,43.68455,-3.634447
73,3.146317958831787,-101.4908447265625,75.11903381347656,1.3943250565365082,-8.977705478097567,-85.88561884029416,-10.348636,-1.835316,2.4186013,40.784645,-25.726963,-0.32279807,1.305169,-2.3707917,-0.86371195,77.065735,4.285698,-0.26978263,-3.4947157,-5.318199,7.010527,-46.594154,23.908426,-8.919876,-11.188073,-51.77613,16.668877,31.42909,-61.747665,-24.810476,13.739007,-23.251017,-15.934733,43.5861,-3.642482
74,3.2697935104370117,-102.8901596069336,74.81092834472656,1.8414520653364146,-9.201337093026154,-86.15118262197966,-9.348573,-2.2575536,2.8012896,42.021328,-27.322065,-0.18759143,-0.036157392,-4.304742,-1.6378763,79.50541,1.7502409,-1.2502679,-3.6260195,-5.84236,7.0951376,-47.01704,23.803497,-8.836816,-11.352215,-51.317677,17.25601,31.35626,-61.40488,-24.881907,13.259047,-23.695827,-16.04568,43.431736,-3.6977682
75,3.3791308403015137,-104.28738403320312,74.57627868652344,2.2122999366485354,-9.414947860066457,-86.47675216002384,-8.135728,-2.5606806,3.232474,42.86537,-28.844124,-0.26894525,-1.4035046,-6.1720867,-2.443894,81.59338,-0.8037779,-2.4055204,-3.704172,-6.254643,7.189518,-47.34187,23.641552,-8.752201,-11.512075,-50.755623,17.827835,31.279072,-60.99196,-24.94185,12.822547,-24.144712,-16.163982,43.2421,-3.8041604
76,3.479846954345703,-105.70966339111328,74.4011001586914,2.4614330284166828,-9.622858037725669,-86.8978060316781,-6.76732,-2.6943474,3.6628318,43.45505,-30.229725,-0.3165912,-2.7386992,-7.7731338,-3.2152388,83.241714,-3.3564858,-3.474601,-3.7089667,-6.501356,7.287733,-47.55697,23.461882,-8.676241,-11.67965,-50.183002,18.30004,31.228542,-60.573166,-24.987282,12.482503,-24.533712,-16.223671,43.038235,-3.9655435
77,3.5739688873291016,-107.14666748046875,74.264404296875,2.5601820172677154,-9.85085586394195,-87.4674462920984,-5.18244,-2.6011024,4.119714,43.77081,-31.504465,-0.31502515,-4.035776,-9.067803,-3.9606123,84.4378,-5.972774,-4.4807034,-3.6159375,-6.5328417,7.4197273,-47.594448,23.295816,-8.597478,-11.921506,-49.619656,18.62945,31.235178,-60.16037,-25.005991,12.265028,-24.855711,-16.20406,42.809982,-4.185497
78,3.677513360977173,-108.57675170898438,74.14950561523438,2.5357751994647972,-10.0907492507464,-88.15320749677441,-3.369223,-2.3285863,4.635732,43.75106,-32.684937,-0.381094,-5.324124,-10.122085,-4.73063,85.21999,-8.634402,-5.508556,-3.4612722,-6.3881087,7.5822053,-47.448387,23.15041,-8.500364,-12.247056,-49.03318,18.866917,31.28163,-59.732536,-24.987108,12.146191,-25.141582,-16.141327,42.55095,-4.461305
79,3.757615089416504,-110.02239227294922,74.06835174560547,2.431308023897303,-10.296408372575192,-88.86201485622821,-1.4577262,-1.9777616,5.1562514,43.472164,-33.6963,-0.4638553,-6.605043,-10.925602,-5.5470595,85.57937,-11.182979,-6.4167457,-3.3132455,-6.1516705,7.720291,-47.202904,23.026693,-8.39196,-12.578382,-48.43894,19.06867,31.329609,-59.304096,-24.930464,12.103374,-25.381186,-16.056484,42.287804,-4.7872915
80,3.8341734409332275,-111.47477722167969,74.02296447753906,2.2877617225911906,-10.42030801613775,-89.49971879948885,0.418695,-1.6422548,5.615027,43.01225,-34.462196,-0.51580805,-7.8815155,-11.496068,-6.4377418,85.51192,-13.450924,-7.0832844,-3.2305436,-5.912184,7.7819166,-46.95436,22.920086,-8.285563,-12.832877,-47.85309,19.289845,31.339684,-58.876923,-24.841528,12.106926,-25.572578,-15.970743,42.047413,-5.160719
81,3.887979030609131,-112.92398071289062,74.01519775390625,2.1011702152834815,-10.436194022696567,-90.05201635082803,2.2451177,-1.3184035,5.9930177,42.345234,-35.000748,-0.49424228,-9.196858,-11.8544445,-7.4477363,85.00907,-15.440379,-7.5468764,-3.2230093,-5.6786613,7.735199,-46.703117,22.821222,-8.185622,-12.989896,-47.24011,19.549019,31.299896,-58.41853,-24.721056,12.159928,-25.724346,-15.905182,41.831364,-5.6065273
82,3.933199405670166,-114.38204193115234,74.05091857910156,1.8546479841588088,-10.375582294374116,-90.56450661917391,4.0849648,-0.9602998,6.3272715,41.446,-35.339268,-0.44285026,-10.533932,-12.013986,-8.573033,84.07196,-17.216106,-7.864683,-3.2559583,-5.4137077,7.614473,-46.414402,22.727564,-8.090187,-13.085329,-46.600647,19.814863,31.230635,-57.935444,-24.569351,12.273439,-25.836422,-15.846532,41.627052,-6.1169887
83,3.9649465084075928,-115.838623046875,74.12662506103516,1.5830191567302612,-10.276196520284351,-91.03273487703981,5.919325,-0.5976055,6.6275744,40.39504,-35.420853,-0.43939587,-11.804153,-12.0029955,-9.770755,82.70642,-18.708418,-7.9612355,-3.3220737,-5.1386695,7.467347,-46.13618,22.648207,-8.002298,-13.11489,-46.00877,20.067196,31.14106,-57.48348,-24.399313,12.422961,-25.895214,-15.75333,41.439827,-6.639742
84,3.9774482250213623,-117.30259704589844,74.24119567871094,1.3153068446562703,-10.174770400559028,-91.45136849686824,7.73157,-0.26346907,6.9007273,39.272392,-35.185375,-0.55263513,-12.92231,-11.8504505,-10.996412,80.918144,-19.847235,-7.7660093,-3.4158478,-4.8771887,7.344544,-45.904182,22.594198,-7.9275165,-13.090541,-45.53557,20.28434,31.044722,-57.10944,-24.231306,12.5770035,-25.900137,-15.575402,41.27451,-7.1244655
85,4.000464916229248,-118.76345825195312,74.39464569091797,1.0518622708712406,-10.096818268199176,-91.80164443294446,9.574375,0.037397847,7.1352053,38.01147,-34.599556,-0.83484125,-13.859266,-11.568043,-12.2660675,78.67284,-20.554447,-7.235259,-3.5489323,-4.6357827,7.280471,-45.73947,22.577454,-7.8706083,-12.985584,-45.229584,20.465082,30.92215,-56.806404,-24.089233,12.729978,-25.854544,-15.224031,41.11973,-7.584765
86,4.013493061065674,-120.23796844482422,74.57357025146484,0.7786934820035772,-10.017352184645945,-92.09098850858096,11.438104,0.31505704,7.3262253,36.59978,-33.70111,-1.2297918,-14.667783,-11.162478,-13.590233,75.97182,-20.89092,-6.434381,-3.7144198,-4.4062552,7.2489424,-45.619568,22.596727,-7.8335376,-12.812281,-45.051014,20.617483,30.778925,-56.537148,-23.97926,12.887815,-25.782759,-14.735861,40.976448,-8.044457
87,4.003280162811279,-121.70195770263672,74.75777435302734,0.5171296025872814,-9.89703162193024,-92.35403140430576,13.21421,0.5581378,7.485741,35.196712,-32.53635,-1.6386697,-15.386052,-10.648112,-14.913944,72.87066,-20.991869,-5.454677,-3.8758328,-4.1865764,7.20612,-45.53223,22.642204,-7.816881,-12.622518,-44.945705,20.735668,30.662893,-56.304718,-23.889105,13.03398,-25.706478,-14.254132,40.86911,-8.466711
88,3.9878804683685303,-123.16511535644531,74.95398712158203,0.28769891521019,-9.696808531281679,-92.62599991789249,14.790265,0.7570617,7.6266246,33.969387,-31.152918,-1.9639798,-16.0479,-10.0351305,-16.18519,69.41846,-20.989162,-4.383109,-4.000077,-3.975858,7.1040125,-45.466618,22.700893,-7.819791,-12.456502,-44.85566,20.8145,30.620949,-56.12314,-23.79584,13.159757,-25.635122,-13.929108,40.82365,-8.812039
89,3.9683408737182617,-124.6336441040039,75.151123046875,0.08342525882775878,-9.386894199115048,-92.91584994274467,16.146015,0.9183256,7.744359,32.907482,-29.539186,-2.2173219,-16.657019,-9.339998,-17.478104,65.518875,-20.898367,-3.2208247,-4.082809,-3.766832,6.916927,-45.443027,22.76627,-7.859109,-12.291886,-44.741325,20.835953,30.684818,-56.015617,-23.679281,13.268062,-25.528868,-13.82594,40.853333,-9.072479
90,3.949968099594116,-126.1208267211914,75.35546112060547,-0.10075889129662297,-8.995714794620545,-93.204320285808,17.336163,1.0411243,7.8268933,31.946898,-27.681696,-2.436003,-17.185509,-8.552174,-18.781004,61.145065,-20.646164,-1.9328609,-4.1453896,-3.5664182,6.6693344,-45.46154,22.839579,-7.9276977,-12.107184,-44.63452,20.809753,30.821524,-55.98313,-23.53469,13.368528,-25.37576,-13.870268,40.943,-9.263397
91,3.932847499847412,-127.62628936767578,75.57374572753906,-0.23610001720728716,-8.571143083583136,-93.48380640756096,18.360802,1.1075382,7.8813696,31.171663,-25.621847,-2.5705557,-17.6173,-7.652378,-19.913126,56.448692,-20.233334,-0.56413144,-4.197367,-3.3954535,6.38777,-45.475647,22.922064,-7.9848948,-11.9543085,-44.58419,20.772915,30.980463,-56.006325,-23.366709,13.458874,-25.22709,-13.994421,41.076622,-9.38069
92,3.905979871749878,-129.1368408203125,75.78317260742188,-0.2933894318016181,-8.16107997565383,-93.74548284960707,19.220057,1.0995096,7.919008,30.665014,-23.396677,-2.5738912,-17.93465,-6.6375313,-20.686823,51.584892,-19.672348,0.82727796,-4.245377,-3.274235,6.0999203,-45.443134,23.015638,-7.9904885,-11.882301,-44.643246,20.762072,31.109901,-56.060802,-23.185722,13.535012,-25.138134,-14.127829,41.23822,-9.422767
93,3.8730475902557373,-130.6532745361328,75.97093200683594,-0.2544307642373883,-7.752622457720494,-93.98345312470366,19.927128,1.0033292,7.9843097,30.36704,-20.92329,-2.4097757,-18.112339,-5.4296885,-21.005182,46.3074,-18.873514,2.3042848,-4.2914753,-3.2182288,5.792911,-45.347656,23.1207,-7.9356694,-11.91151,-44.851624,20.790749,31.19686,-56.12372,-22.994581,13.583772,-25.137457,-14.277976,41.434658,-9.38663
94,3.8437576293945312,-132.20004272460938,76.1384506225586,-0.12063087589963561,-7.33166824318761,-94.19564188644526,20.484932,0.8162823,8.060988,30.243073,-18.195126,-2.1215417,-18.111975,-4.1228414,-20.940184,40.558167,-17.86143,3.8207607,-4.3376427,-3.232862,5.4610047,-45.214718,23.237444,-7.8414836,-12.012354,-45.174747,20.83811,31.268372,-56.21201,-22.793041,13.609704,-25.192818,-14.470138,41.670986,-9.274769
95,3.821176290512085,-133.77462768554688,76.28074645996094,0.10509815584517494,-6.941951409093037,-94.37940070853993,20.881033,0.5378597,8.071909,30.403954,-15.355135,-1.7810278,-17.919577,-2.9474614,-20.586016,34.831604,-16.81547,5.183322,-4.3884926,-3.319222,5.14211,-45.062138,23.365679,-7.7138753,-12.167771,-45.553806,20.889006,31.334461,-56.356934,-22.589642,13.63343,-25.274343,-14.658743,41.928482,-9.096273
96,3.799590587615967,-135.3380126953125,76.38523864746094,0.40523412550208915,-6.623226563120123,-94.53744316777097,21.094145,0.1781064,7.941492,30.975876,-12.557281,-1.4579383,-17.572298,-2.069314,-20.08295,29.692669,-15.915219,6.2504764,-4.4455442,-3.4631019,4.872804,-44.898796,23.503012,-7.556079,-12.367189,-45.925545,20.928364,31.405048,-56.587666,-22.399511,13.677143,-25.355928,-14.79211,42.188683,-8.861951
97,3.7747626304626465,-136.91404724121094,76.45407104492188,0.8348595457242679,-6.378863646027211,-94.65871416651225,21.150179,-0.323949,7.6839128,31.933458,-9.799436,-1.131788,-17.029644,-1.4916573,-19.423191,25.011126,-15.28218,7.2153373,-4.514101,-3.7057946,4.6532707,-44.726933,23.647144,-7.3588204,-12.611121,-46.299767,20.946653,31.471308,-56.914303,-22.23174,13.744657,-25.457365,-14.823168,42.458157,-8.5583515
98,3.7400870323181152,-138.4813690185547,76.47590637207031,1.3991008768043092,-6.190099356757495,-94.74371970213028,21.06097,-0.97310084,7.3381147,33.201298,-6.99236,-0.77724004,-16.312487,-1.1347071,-18.57886,20.625,-14.797288,8.115958,-4.589036,-4.0544686,4.4672437,-44.544125,23.794674,-7.126463,-12.903171,-46.698635,20.954016,31.53129,-57.314095,-22.087574,13.820297,-25.590158,-14.782359,42.7443,-8.188835
99,3.714232921600342,-140.05130004882812,76.45769500732422,1.9382668417277864,-6.049597394793311,-94.83341981778028,20.770178,-1.6101109,6.8815293,34.84417,-4.1661773,-0.47709477,-15.655908,-0.9123005,-17.692549,17.196125,-14.329372,8.618438,-4.629107,-4.367111,4.3209186,-44.367313,23.944416,-6.883644,-13.234148,-47.090363,20.964148,31.604298,-57.76083,-21.97329,13.905015,-25.724813,-14.746236,43.029892,-7.788839
100,3.703740119934082,-141.62628173828125,76.40849304199219,2.2353990048619115,-5.936809698648404,-94.98255766882077,20.198036,-2.0195167,6.2937856,36.95892,-1.3729147,-0.3459341,-15.3358755,-0.6478753,-16.911633,15.440417,-13.77506,8.381792,-4.582877,-4.4348,4.218595,-44.193085,24.09258,-6.650151,-13.615401,-47.437393,20.988894,31.71137,-58.214832,-21.899069,13.998139,-25.849607,-14.790127,43.296265,-7.3942966
101,3.673696994781494,-143.17979431152344,76.37737274169922,2.1226397296336814,-5.817737136217562,-95.22210887425065,19.179266,-2.1076498,5.42826,39.777122,1.6629072,-0.4167417,-15.557579,-0.22389226,-16.304495,15.941288,-13.000263,7.020988,-4.414854,-4.080101,4.1494384,-44.00277,24.235058,-6.4294615,-14.087697,-47.726757,21.044453,31.87937,-58.65895,-21.891726,14.110881,-26.005297,-14.959477,43.55415,-6.9939036
102,3.617002487182617,-144.70680236816406,76.34107208251953,1.7329587863366873,-5.708058741223504,-95.52269000009674,17.842566,-2.060221,4.296832,43.096443,4.9144564,-0.71791095,-16.176817,0.25301316,-15.844052,18.25221,-12.152639,4.790562,-4.1439586,-3.432874,4.111989,-43.808887,24.366522,-6.216946,-14.633044,-47.978165,21.119352,32.090492,-59.096455,-21.961283,14.2320595,-26.205538,-15.196091,43.80876,-6.5796285
103,3.5487844944000244,-146.22666931152344,76.25074768066406,1.3020248175841906,-5.6628189038783505,-95.84952719100167,16.51404,-2.0562155,3.1233277,46.454533,7.808686,-1.3199271,-16.92721,0.632083,-15.485577,21.515902,-11.541828,2.3069434,-3.803181,-2.745629,4.1237593,-43.660225,24.484907,-6.0189223,-15.162483,-48.205933,21.184938,32.29642,-59.529987,-22.082214,14.338754,-26.385122,-15.428993,44.03209,-6.186773
104,3.502056360244751,-147.78338623046875,76.05877685546875,0.9892911306085023,-5.725194374255683,-96.18222599474588,15.437758,-2.1180594,2.1963377,49.55206,9.678033,-2.212159,-17.569162,0.87994146,-15.120605,24.907366,-11.452693,0.22154145,-3.4225826,-2.1988819,4.2017546,-43.585632,24.59191,-5.8336687,-15.6058235,-48.42184,21.211494,32.450287,-59.968285,-22.204214,14.416283,-26.478298,-15.60226,44.194515,-5.8468404
105,3.445725917816162,-149.33006286621094,75.80387115478516,0.8276924339751488,-5.929239195124683,-96.56741542297813,14.697426,-2.2374651,1.5759494,52.44348,10.239105,-3.5080638,-18.154512,1.0250652,-14.604278,28.601538,-11.972386,-1.2953336,-2.9687173,-1.817268,4.3598847,-43.610374,24.695316,-5.6514254,-15.926923,-48.63877,21.187796,32.528374,-60.476685,-22.280201,14.462787,-26.39771,-15.717446,44.2879,-5.5346475
106,3.367511510848999,-150.84097290039062,75.48072052001953,0.7404618330481489,-6.247784842898576,-96.99931000763185,14.11897,-2.3582811,1.1662642,55.3515,9.813409,-5.094769,-18.741476,1.0548228,-13.9688835,32.8459,-12.908861,-2.6006334,-2.462765,-1.5178707,4.582849,-43.69866,24.80459,-5.462623,-16.170456,-48.844433,21.131899,32.55942,-61.066902,-22.295053,14.500306,-26.157768,-15.824242,44.324795,-5.2343135
107,3.2899837493896484,-152.34652709960938,75.13186645507812,0.6553272955598619,-6.613174718855346,-97.40035276905249,13.517769,-2.2571628,1.0586951,58.2714,8.64309,-6.5583153,-19.150217,1.0294429,-13.370508,36.991356,-14.123756,-3.7787166,-2.002128,-1.2294258,4.8385305,-43.770195,24.925049,-5.257208,-16.409668,-49.011776,21.056513,32.574764,-61.663246,-22.2537,14.560598,-25.853401,-15.936868,44.30741,-4.99028
108,3.2097318172454834,-153.83538818359375,74.80271911621094,0.48650715514124887,-6.9570334591389305,-97.69283847619931,12.724938,-1.7070343,1.2965705,61.16136,7.002473,-7.5096664,-19.216291,1.0418742,-12.9918995,40.429867,-15.490612,-4.8894114,-1.6777997,-0.8750254,5.095258,-43.743477,25.056458,-5.0278835,-16.718645,-49.11314,20.973925,32.605343,-62.178017,-22.17559,14.66955,-25.594803,-16.059406,44.23919,-4.851123
109,3.1182236671447754,-155.2900848388672,74.50914001464844,0.1604182580961682,-7.272013591183312,-97.9027402518077,11.738025,-0.48276675,1.9645721,64.05821,4.7259355,-7.8560805,-18.920893,1.2209591,-12.931234,43.08308,-17.069946,-5.972306,-1.4881423,-0.37042674,5.3652954,-43.58831,25.204033,-4.747025,-17.165037,-49.15247,20.89849,32.681274,-62.592827,-22.072075,14.858111,-25.396034,-16.177189,44.100773,-4.865344
110,3.065497875213623,-156.74151611328125,74.23057556152344,-0.2822224257851899,-7.588151038176812,-98.05754993074997,10.652099,1.3088007,2.958718,66.95803,1.7617675,-7.7996097,-18.36471,1.5465622,-13.084222,45.28917,-18.897173,-6.961146,-1.3900733,0.24140844,5.661923,-43.340683,25.368227,-4.4232545,-17.708553,-49.142612,20.819523,32.779034,-62.94373,-21.942125,15.102562,-25.218283,-16.281511,43.898865,-5.000778
111,3.022602081298828,-158.220703125,73.97581481933594,-0.7452849106900491,-7.892746812346983,-98.08124642953734,9.443175,3.3519204,4.0073657,69.7384,-1.4363081,-7.4234614,-17.565907,1.8851509,-13.34918,47.0811,-20.813412,-7.752081,-1.3974198,0.8383888,5.95593,-43.046177,25.534063,-4.116066,-18.235085,-49.076424,20.7123,32.84919,-63.219498,-21.791271,15.345378,-25.08998,-16.396023,43.676266,-5.185031
112,2.974414348602295,-159.7115936279297,73.7553482055664,-1.129464368467621,-8.171317188589315,-97.89834237406845,8.062447,5.3124714,4.8679333,72.27817,-4.416346,-6.794956,-16.532423,2.0827665,-13.6340685,48.479153,-22.662031,-8.245568,-1.5197054,1.2960702,6.2155166,-42.756668,25.674597,-3.8927388,-18.625324,-48.938736,20.551838,32.84306,-63.403473,-21.634594,15.525255,-25.047928,-16.543568,43.475502,-5.3440714
113,2.8906664848327637,-161.20326232910156,73.57440948486328,-1.4372084495902486,-8.41971227269734,-97.4162838758252,6.4278374,7.168083,5.437063,74.620224,-7.15031,-5.872418,-15.198773,2.0829732,-13.988395,49.422417,-24.478354,-8.346875,-1.8126751,1.5876074,6.427027,-42.490223,25.764585,-3.7937734,-18.827646,-48.688484,20.302189,32.712074,-63.471367,-21.499384,15.612015,-25.137585,-16.71139,43.312103,-5.4789696
114,2.782473087310791,-162.66583251953125,73.42333984375,-1.713253820463928,-8.642094293355555,-96.69859517371887,4.567347,9.026045,5.826594,76.79247,-9.863537,-4.664695,-13.583347,1.9775759,-14.470168,49.926342,-26.32292,-8.137875,-2.2287931,1.7762784,6.606703,-42.24809,25.7954,-3.7994232,-18.888348,-48.336094,19.986496,32.4936,-63.41306,-21.402933,15.630066,-25.34746,-16.888515,43.162598,-5.6226897
115,2.686178684234619,-164.12814331054688,73.29483795166016,-1.92391265062873,-8.838734192984727,-95.90516492097638,2.5903912,10.754206,6.165179,78.65302,-12.474923,-3.2895331,-11.812851,1.8151927,-14.991559,50.11941,-28.077854,-7.779695,-2.628302,1.8765507,6.766093,-42.050095,25.770794,-3.8780618,-18.833105,-47.945404,19.66983,32.265804,-63.24325,-21.344997,15.605748,-25.618801,-17.095207,43.011623,-5.75039
116,2.6146485805511475,-165.58567810058594,73.19363403320312,-2.039152343445047,-9.013179968440149,-95.19643219652542,0.6210711,12.238753,6.608053,80.06966,-14.89891,-1.857406,-10.014512,1.6315567,-15.448553,50.133656,-29.624653,-7.4234385,-2.883612,1.9038833,6.9121485,-41.910275,25.698915,-3.990064,-18.682983,-47.577026,19.418348,32.10483,-62.996593,-21.296528,15.570797,-25.865747,-17.365355,42.841263,-5.8297706
117,2.5426697731018066,-167.029052734375,73.12545776367188,-2.02460297086588,-9.155309974286737,-94.59296299851097,-1.3713152,13.503155,7.267186,81.0722,-17.174627,-0.15905292,-8.217132,1.3863606,-15.816463,49.994408,-30.977255,-7.0709834,-2.9664118,1.8321834,7.0380197,-41.847656,25.596434,-4.131132,-18.43297,-47.247604,19.290348,32.04845,-62.652405,-21.240993,15.5250025,-26.09662,-17.71607,42.64125,-5.8592153
118,2.464820146560669,-168.47096252441406,73.10000610351562,-1.9051097821266147,-9.270002922051699,-94.01712432643185,-3.4165072,14.569615,8.065872,81.70934,-19.342836,1.7756209,-6.353636,1.0561701,-16.152775,49.63598,-32.181656,-6.641497,-2.955433,1.6628014,7.13762,-41.83863,25.459484,-4.310704,-18.076778,-46.922207,19.2379,32.04872,-62.222965,-21.166742,15.461587,-26.321419,-18.139885,42.420776,-5.8472095
119,2.3974356651306152,-169.93421936035156,73.12236785888672,-1.732703046713228,-9.38378097368959,-93.48341446144917,-5.387407,15.366378,8.905261,81.891266,-21.28747,3.4957259,-4.409098,0.70499396,-16.46441,49.0566,-33.168247,-6.162086,-2.8886952,1.456649,7.236323,-41.808784,25.297102,-4.4909267,-17.67373,-46.607857,19.167702,32.055714,-61.7869,-21.077627,15.411563,-26.488909,-18.60769,42.195488,-5.798143
120,2.3401591777801514,-171.40220642089844,73.19072723388672,-1.563312724994943,-9.52183273348546,-93.00704444043826,-7.1650696,15.854723,9.695096,81.52644,-22.862478,4.5665345,-2.3646297,0.40923187,-16.75446,48.25063,-33.868534,-5.668821,-2.8015733,1.2788446,7.358416,-41.687214,25.11241,-4.636317,-17.27937,-46.30895,18.986473,32.01943,-61.422985,-20.979513,15.406037,-26.540543,-19.091703,41.981293,-5.714451
121,2.290025472640991,-172.86984252929688,73.29552459716797,-1.4028072512307936,-9.709445696085918,-92.62414493533758,-8.704029,16.0631,10.469192,80.55506,-24.012064,4.8343263,-0.13536322,0.20387639,-17.005726,47.094547,-34.29887,-5.1714067,-2.6745012,1.1542448,7.53648,-41.435688,24.906338,-4.7277255,-16.902617,-46.023594,18.656895,31.922415,-61.15711,-20.87049,15.462561,-26.454704,-19.624437,41.781673,-5.5698004
122,2.2521543502807617,-174.3460693359375,73.43023681640625,-1.2283364796435783,-9.928082006370095,-92.31783061938626,-10.074047,16.05238,11.284539,79.03747,-24.797525,4.5717177,2.2473383,0.0511443,-17.220484,45.624054,-34.482307,-4.65537,-2.5002005,1.0519972,7.7511835,-41.095463,24.681072,-4.7827997,-16.519108,-45.754803,18.233133,31.79293,-60.951847,-20.746307,15.567477,-26.258234,-20.207253,41.587715,-5.3737254
123,2.2125113010406494,-175.8267059326172,73.58116149902344,-1.0520493949669758,-10.13732815271287,-92.02420439623637,-11.33373,15.842167,12.08014,77.05825,-25.24682,3.9930048,4.6267095,-0.07443842,-17.424044,44.07753,-34.365566,-4.1260567,-2.3334901,0.95103604,7.9505124,-40.704872,24.438017,-4.8249884,-16.143513,-45.50735,17.75776,31.651802,-60.782997,-20.614965,15.699633,-25.982431,-20.760853,41.39711,-5.182213
124,2.169982433319092,-177.32208251953125,73.75611877441406,-0.8885825291291558,-10.29744094975444,-91.6784466009846,-12.537364,15.439042,12.789603,74.69751,-25.38973,3.3072357,6.8440475,-0.19869752,-17.637947,42.696934,-33.895523,-3.5870488,-2.2246165,0.8289152,8.081949,-40.312298,24.179293,-4.8797903,-15.784078,-45.289764,17.27377,31.518702,-60.622364,-20.4947,15.837166,-25.666542,-21.202246,41.209293,-5.051294
125,2.1221837997436523,-178.83445739746094,73.9526138305664,-0.7257047329580663,-10.402019998101107,-91.26569012360409,-13.711696,14.801258,13.361293,71.92381,-25.159369,2.5290322,8.908129,-0.32218653,-17.8428,41.458862,-33.033146,-2.9949756,-2.1766903,0.66447103,8.137849,-39.933414,23.896725,-4.9578867,-15.420925,-45.103924,16.762846,31.391993,-60.456917,-20.400007,15.973855,-25.301813,-21.491829,41.009483,-5.004123
126,2.0732390880584717,-180.34400939941406,74.1637191772461,-0.5637717013135511,-10.472278152517417,-90.82027941671701,-14.815199,13.958651,13.820508,68.697235,-24.577887,1.577094,10.886203,-0.42813963,-18.020363,40.266064,-31.816086,-2.3674917,-2.1559567,0.47572616,8.146108,-39.554554,23.584816,-5.055311,-15.0494175,-44.943436,16.211437,31.263256,-60.28944,-20.337702,16.114052,-24.889769,-21.67099,40.804585,-5.0093274
127,2.029141902923584,-181.86679077148438,74.38240051269531,-0.42724575603671683,-10.508994990107142,-90.35166910411674,-15.79954,13.013142,14.219666,65.08177,-23.80381,0.50942045,12.702764,-0.518083,-18.19403,39.25708,-30.309843,-1.7986681,-2.1519125,0.29803598,8.110037,-39.188877,23.25388,-5.1784987,-14.699425,-44.81144,15.669309,31.1434,-60.1114,-20.311289,16.252346,-24.485315,-21.78681,40.627666,-5.043647
128,1.9954828023910522,-183.39491271972656,74.60115814208984,-0.3417779809440429,-10.512168595956693,-89.86949041229228,-16.61618,12.056291,14.622104,61.131466,-22.983343,-0.6218193,14.283341,-0.59387237,-18.392426,38.568985,-28.578444,-1.3808461,-2.1595654,0.16435398,8.032766,-38.84718,22.927444,-5.329551,-14.395,-44.71758,15.185817,31.043837,-59.913544,-20.323761,16.38021,-24.142359,-21.882504,40.511196,-5.083076
129,1.974671483039856,-184.9356231689453,74.82264709472656,-0.3092473397259161,-10.457490104624826,-89.35663608995401,-17.248499,11.098796,15.12463,56.70163,-22.094303,-1.7717766,15.604731,-0.6520452,-18.637064,38.201347,-26.577852,-1.1055055,-2.196341,0.06619297,7.8967314,-38.508656,22.617533,-5.5042777,-14.158131,-44.68097,14.7714,30.974134,-59.680954,-20.376585,16.500916,-23.875727,-21.97422,40.477974,-5.133825
130,1.957750916481018,-186.48231506347656,75.04118347167969,-0.3215267225680141,-10.353220957686034,-88.8145822504287,-17.702925,10.093555,15.655305,51.765423,-21.06121,-2.9740689,16.705776,-0.6888443,-18.905699,38.09903,-24.296316,-0.93714297,-2.263791,-0.006579141,7.70923,-38.171795,22.32623,-5.7000017,-13.9741535,-44.699474,14.399645,30.9273,-59.417545,-20.47014,16.612152,-23.66687,-22.031662,40.505795,-5.204654
131,1.9316879510879517,-188.035888671875,75.24687957763672,-0.3882812895010886,-10.248256877477989,-88.28426573771549,-17.964764,9.045433,16.03472,46.551662,-19.939713,-4.293626,17.610512,-0.7117021,-19.171703,38.307995,-21.838104,-0.9218057,-2.3286765,-0.02798698,7.514486,-37.86745,22.062056,-5.924439,-13.82757,-44.746902,14.063105,30.892626,-59.144836,-20.59932,16.703213,-23.517248,-22.038195,40.560593,-5.2757688
132,1.9043912887573242,-189.61087036132812,75.42945861816406,-0.5240496162749155,-10.19188674372843,-87.80748396324239,-18.014381,7.9746537,16.081522,41.28742,-18.79215,-5.7874413,18.349197,-0.72495484,-19.410639,38.860817,-19.296808,-1.1066097,-2.360602,0.027980769,7.356724,-37.620644,21.837431,-6.1817803,-13.709626,-44.798775,13.753727,30.861273,-58.883133,-20.756569,16.75824,-23.429806,-21.971987,40.607517,-5.326115
133,1.8809542655944824,-191.20213317871094,75.57935333251953,-0.7662710382092919,-10.19123497969516,-87.39228389075379,-17.771835,6.857998,15.714477,35.739773,-17.567156,-7.5837164,18.968897,-0.70451504,-19.712626,39.691055,-16.531096,-1.5831615,-2.3531175,0.19980799,7.2383466,-37.40807,21.665545,-6.492597,-13.624408,-44.837975,13.436271,30.81443,-58.613182,-20.932085,16.77568,-23.411617,-21.809952,40.62173,-5.3641133
134,1.8590284585952759,-192.8146209716797,75.69215393066406,-1.1331636202470232,-10.2295972844112,-87.02887660966908,-17.192194,5.775312,15.010166,29.763418,-16.219875,-9.583062,19.467697,-0.6246013,-20.074198,40.760006,-13.512547,-2.3123386,-2.3207335,0.50035554,7.147349,-37.221607,21.549288,-6.8409014,-13.574825,-44.888477,13.124891,30.765936,-58.34441,-21.122648,16.765932,-23.448757,-21.568615,40.625923,-5.3922744
135,1.8506553173065186,-194.4298095703125,75.75765228271484,-1.6173462274384784,-10.319624454700579,-86.73172997505783,-16.354218,4.8974447,14.047222,23.811447,-14.847733,-11.526433,19.804285,-0.47614312,-20.328794,42.134693,-10.499621,-3.135167,-2.2563586,0.92352337,7.10657,-37.118538,21.48022,-7.1807327,-13.548787,-44.988693,12.886216,30.754387,-58.135357,-21.32697,16.733568,-23.518211,-21.296804,40.658165,-5.3848324
136,1.843348741531372,-196.043212890625,75.77513122558594,-2.180073795320891,-10.46712179040981,-86.50686894338335,-15.42162,4.33078,12.940121,18.478714,-13.589979,-13.194478,19.920574,-0.26509213,-20.303293,43.90372,-7.7630014,-3.8701737,-2.1578329,1.4374578,7.13009,-37.158363,21.44477,-7.4664745,-13.529665,-45.174324,12.787746,30.815708,-58.04326,-21.545755,16.6843,-23.594427,-21.045269,40.756874,-5.3173275
137,1.8435627222061157,-197.6339569091797,75.74508666992188,-2.8740002032003926,-10.706417769327096,-86.33919577718123,-14.342318,4.1009135,11.694972,13.734787,-12.668183,-14.772404,19.775114,0.1040815,-19.877804,46.191383,-5.168578,-4.4753513,-2.0255687,2.0895755,7.2420797,-37.369232,21.436872,-7.7111483,-13.497039,-45.460484,12.872358,30.979483,-58.075695,-21.782661,16.615143,-23.672894,-20.845997,40.94149,-5.1598806
138,1.8807357549667358,-199.22100830078125,75.6452865600586,-3.5589179242585547,-10.992998372223113,-86.13260793708594,-12.815297,3.6796784,10.166012,8.622791,-11.553057,-15.000033,19.344635,0.44091532,-19.245977,49.04667,-2.7084365,-4.9278865,-1.9476255,2.7422976,7.395042,-37.72731,21.4529,-7.931981,-13.451502,-45.82688,13.09572,31.22094,-58.21244,-22.036753,16.530022,-23.753937,-20.669605,41.189373,-4.93294
139,1.9081803560256958,-200.8044891357422,75.47651672363281,-4.124922990652272,-11.263259833575086,-85.98603706154186,-12.858832,3.530616,8.491357,7.461299,-11.945242,-15.000033,18.695375,0.64310026,-18.535854,52.191566,-0.69702893,-5.230986,-1.8582963,3.2795472,7.54254,-38.165604,21.491447,-8.089325,-13.45845,-46.234283,13.394834,31.486166,-58.43073,-22.308046,16.427685,-23.868656,-20.465593,41.474594,-4.6933656
140,1.8997883796691895,-202.3780059814453,75.27507781982422,-4.337800694135469,-11.415438581834291,-85.91394326972355,-13.199458,3.1823559,7.026981,7.3143153,-11.694807,-15.000033,17.823927,0.4026304,-17.930206,55.49385,0.45488065,-5.385887,-1.7703553,3.454304,7.604347,-38.61607,21.554321,-8.142136,-13.584556,-46.645084,13.707701,31.719875,-58.70851,-22.593191,16.312132,-24.050428,-20.189991,41.771763,-4.5011306
141,1.855029582977295,-203.9398193359375,75.01737213134766,-4.0548479684902246,-11.355435677426108,-85.92010506556989,-13.460023,2.4345942,5.8473034,7.248904,-9.819651,-15.000033,16.625423,-0.4646681,-17.405256,59.101227,0.43411463,-5.396729,-1.7106031,3.1258044,7.505314,-39.045193,21.65016,-8.038198,-13.908486,-47.09318,14.029547,31.914627,-59.094322,-22.90121,16.202137,-24.334663,-19.80788,42.114155,-4.357199
142,1.8395472764968872,-205.41810607910156,74.76170349121094,-3.3876421921426334,-11.135706908220785,-85.97564416389305,-13.613402,1.3663584,4.8131847,7.244298,-6.711741,-15.000033,15.112214,-1.8082073,-16.857712,63.05743,-0.5082562,-5.2789807,-1.6892926,2.4041126,7.288916,-39.47336,21.7844,-7.8071995,-14.394817,-47.58403,14.390013,32.097527,-59.574852,-23.23436,16.088928,-24.706318,-19.346672,42.50324,-4.2403393
143,1.8715778589248657,-206.82839965820312,74.49555969238281,-2.502401146415225,-10.88203526638787,-86.02848584614021,-14.663534,0.12307156,3.828559,9.482735,-4.254725,-14.562016,13.459033,-3.468786,-16.345245,67.1137,-1.9570055,-5.0683594,-1.7068264,1.4425231,7.0572824,-39.942608,21.949144,-7.533396,-14.916156,-48.04484,14.779933,32.265495,-60.054832,-23.569004,15.940288,-25.09272,-18.860598,42.863644,-4.171499
144,1.9269893169403076,-208.2336883544922,74.14881134033203,-1.4947607396892184,-10.742860207795172,-86.00649510013086,-16.515095,-1.4065629,3.0394697,13.856282,-3.1150222,-12.3102865,11.864592,-5.3762836,-15.919989,71.056145,-3.5227253,-4.751141,-1.7860659,0.34263834,6.9254665,-40.50842,22.123491,-7.30283,-15.329507,-48.397484,15.1893,32.41667,-60.460598,-23.863888,15.733121,-25.398628,-18.409931,43.118225,-4.163431
145,1.918809175491333,-209.67257690429688,73.69546508789062,-0.55117809993498,-10.7450716044237,-85.96250401957563,-18.902035,-2.8976731,2.4431,19.830011,-2.7291677,-8.983568,10.398254,-7.4296045,-15.699464,74.87116,-5.1567307,-4.3874016,-1.8735477,-0.728654,6.8957825,-41.289722,22.310387,-7.147986,-15.567817,-48.635925,15.64733,32.558895,-60.84512,-24.08488,15.448079,-25.531805,-17.973806,43.242393,-4.2322154
146,1.9052320718765259,-211.09144592285156,73.1950454711914,0.2242688747086093,-10.867263015418517,-85.9569177843104,-21.665949,-4.17839,2.0364175,27.09192,-2.6883426,-4.735716,9.028299,-9.489307,-15.611901,78.59103,-7.007617,-4.0399566,-1.9472088,-1.6376343,6.959031,-42.253666,22.507174,-7.012878,-15.674411,-48.798996,16.147982,32.695404,-61.29515,-24.22302,15.129052,-25.483547,-17.549059,43.274994,-4.3483033
147,1.915228009223938,-212.4583740234375,72.70038604736328,0.7960961272030498,-11.134088272894951,-86.03846987781571,-23.97298,-5.118244,1.8727549,33.94748,-2.9264095,-0.5925077,7.7183924,-11.302567,-15.457334,81.97821,-8.890582,-3.8059356,-1.9672717,-2.3131335,7.1693673,-43.179382,22.683216,-6.858453,-15.715699,-48.8456,16.632725,32.79774,-61.728767,-24.280268,14.830206,-25.346546,-17.231157,43.23392,-4.4684143
148,1.9491304159164429,-213.79225158691406,72.28492736816406,1.2680804525907818,-11.535162898414143,-86.21852544400596,-25.215164,-5.7572126,1.9592766,39.156395,-3.6269445,2.3908436,6.3712153,-12.742631,-15.031924,84.83207,-10.638075,-3.7198267,-1.9155431,-2.827404,7.5449023,-43.844894,22.795736,-6.651659,-15.763314,-48.72661,17.046074,32.830677,-62.024208,-24.268671,14.58951,-25.24792,-17.115234,43.138657,-4.555171
149,1.9979857206344604,-215.102294921875,71.9833755493164,1.7304321355004306,-12.119228828230316,-86.44525713298484,-25.21768,-6.1972136,2.281987,42.625015,-5.259409,3.7212086,4.97702,-13.807967,-14.259729,87.13416,-12.248252,-3.7872262,-1.8013095,-3.2719495,8.153832,-44.204597,22.794184,-6.386378,-15.810798,-48.388416,17.37291,32.74866,-62.096004,-24.204947,14.369247,-25.290194,-17.30291,42.997295,-4.556286
150,2.018275022506714,-216.3984375,71.78274536132812,2.206069027185447,-12.85094038445319,-86.71203612359913,-24.43621,-6.5038147,2.7803934,45.20597,-7.7359667,4.0163393,3.5346284,-14.634852,-13.268952,89.01775,-13.802319,-3.9514575,-1.624169,-3.6741529,8.937154,-44.391487,22.66932,-6.088687,-15.806456,-47.842228,17.648184,32.56819,-62.004456,-24.09595,14.15812,-25.3928,-17.72281,42.799587,-4.5092363
151,2.020446538925171,-217.68740844726562,71.66458129882812,2.6665706060256804,-13.59224745648864,-87.09577618885275,-23.266235,-6.6554856,3.3965628,47.221653,-10.467661,3.8591075,1.9535512,-15.270681,-12.1641445,90.49799,-15.245561,-4.156299,-1.3613521,-3.986888,9.728901,-44.42685,22.454485,-5.770513,-15.778096,-47.1438,17.888548,32.35266,-61.826965,-23.953476,14.027641,-25.44049,-18.191298,42.53943,-4.515774
152,2.0251083374023438,-218.9717559814453,71.60240173339844,3.0845631675267944,-14.207669086377594,-87.67356782485615,-22.084063,-6.6374393,4.0540476,48.9476,-12.847061,3.834631,0.14509833,-15.762737,-11.045966,91.58358,-16.52533,-4.350867,-1.0051332,-4.1562657,10.367646,-44.31743,22.213781,-5.4325466,-15.771802,-46.37039,18.11172,32.16907,-61.64919,-23.776896,14.056013,-25.315962,-18.525984,42.212013,-4.6768823
153,2.053340435028076,-220.23655700683594,71.57765197753906,3.4899195703957053,-14.67654428099697,-88.55403048341219,-20.868397,-6.424278,4.82244,50.30525,-14.776188,4.034525,-1.9954515,-16.115774,-9.822236,92.30833,-17.649092,-4.5394673,-0.51022154,-4.173405,10.835391,-43.966454,21.984423,-5.034147,-15.878809,-45.497826,18.338009,32.05669,-61.47008,-23.539522,14.286685,-24.995989,-18.704618,41.788944,-5.0156755
154,2.093883514404297,-221.4705047607422,71.578369140625,3.8893695119675242,-15.06401473464036,-89.66550522672827,-19.453674,-6.0549197,5.7361298,51.192093,-16.551073,4.166321,-4.3899865,-16.282766,-8.492074,92.64946,-18.63024,-4.746484,0.06997642,-4.07295,11.213773,-43.365913,21.775251,-4.567855,-16.086199,-44.531067,18.55037,31.978626,-61.265945,-23.224922,14.682459,-24.54153,-18.820301,41.281746,-5.476465
155,2.1271002292633057,-222.68032836914062,71.60223388671875,4.208108934914709,-15.367794867638349,-90.81203339339594,-17.997509,-5.605519,6.631587,51.841583,-18.162928,4.239113,-6.8486843,-16.249035,-7.2961597,92.533424,-19.428734,-4.9481244,0.5915292,-3.8749766,11.498123,-42.62347,21.599543,-4.0960364,-16.322426,-43.569695,18.706295,31.897686,-61.07511,-22.850218,15.188234,-23.978495,-18.858133,40.745525,-6.0446954
156,2.138942241668701,-223.87974548339844,71.65843963623047,4.3667821774212126,-15.590276567064791,-91.79493378414205,-16.658642,-5.131093,7.333681,52.4862,-19.604063,4.260675,-9.177126,-16.031578,-6.4758754,91.89042,-20.011517,-5.121576,0.9272475,-3.6003416,11.686828,-41.869812,21.474142,-3.6891003,-16.498955,-42.72044,18.7617,31.778536,-60.91561,-22.457594,15.733174,-23.349987,-18.789211,40.235764,-6.7092075
157,2.1359901428222656,-225.074462890625,71.75617980957031,4.317755903226325,-15.714880983994535,-92.61248143861485,-15.473668,-4.571175,7.81032,53.15743,-20.877748,4.208335,-11.398406,-15.599024,-6.0904984,90.69543,-20.36863,-5.3073225,1.0787275,-3.2167902,11.756012,-41.085384,21.41232,-3.361794,-16.598701,-42.0278,18.666815,31.605482,-60.747223,-22.080618,16.326954,-22.682001,-18.570004,39.765484,-7.5101066
158,2.1231234073638916,-226.26004028320312,71.89535522460938,4.108718995000554,-15.753353558990806,-93.34953821425081,-14.363949,-3.9002385,8.148558,53.745007,-21.990082,4.0829835,-13.560278,-14.973716,-6.036912,88.97729,-20.526457,-5.492376,1.116183,-2.7346396,11.724862,-40.233784,21.411217,-3.0918055,-16.66487,-41.442562,18.453924,31.408817,-60.54275,-21.727455,16.979107,-21.988024,-18.211527,39.303196,-8.44109
159,2.0961215496063232,-227.4281768798828,72.05160522460938,3.801124240861431,-15.750457852870102,-93.93748424234477,-13.325938,-3.2167883,8.344154,54.279587,-22.935635,3.9306128,-15.516626,-14.280588,-6.2942805,86.75095,-20.510826,-5.5761557,1.0251948,-2.234344,11.655176,-39.43106,21.459255,-2.898262,-16.68908,-40.92508,18.202103,31.218943,-60.336414,-21.406515,17.6151,-21.28847,-17.76382,38.837597,-9.423823
160,2.0493669509887695,-228.564453125,72.22125244140625,3.4633061194454076,-15.746812920627496,-94.30846468557607,-12.353669,-2.6263533,8.392217,54.790897,-23.711624,3.801155,-17.136547,-13.647541,-6.824843,84.03589,-20.346605,-5.462893,0.7975671,-1.7955552,11.606273,-38.80652,21.540613,-2.8087451,-16.648975,-40.432243,17.990353,31.064764,-60.15287,-21.130566,18.15121,-20.607124,-17.274923,38.358913,-10.3794775
161,1.9915117025375366,-229.6983184814453,72.4027328491211,3.05780750316223,-15.741285083554766,-94.39272813277144,-11.478294,-2.1413927,8.230791,55.298923,-24.28701,3.6991825,-18.387224,-13.136954,-7.713713,80.78057,-20.07027,-5.094542,0.38852996,-1.4072441,11.592634,-38.42113,21.652124,-2.867354,-16.505606,-39.90869,17.82703,30.933416,-60.00033,-20.926353,18.580824,-19.91831,-16.699415,37.83348,-11.341231
162,1.9240015745162964,-230.81619262695312,72.5862045288086,2.569033659751489,-15.711232173489947,-94.24447307017721,-10.698641,-1.7086618,7.8810124,55.786034,-24.675133,3.6035266,-19.341394,-12.68039,-8.932255,76.98722,-19.660423,-4.527585,-0.16245237,-1.0340002,11.586475,-38.22268,21.79132,-3.0663505,-16.263155,-39.387943,17.674147,30.815674,-59.836895,-20.808046,18.929462,-19.24727,-16.027449,37.27361,-12.331442
163,1.858146071434021,-231.9244384765625,72.76681518554688,2.0854974494888214,-15.664158871906825,-93.98012266771273,-9.953197,-1.3445915,7.4644427,56.222256,-24.941298,3.5335286,-20.036757,-12.21527,-10.261987,72.747925,-19.06313,-3.8545313,-0.74482656,-0.7188035,11.576412,-38.161076,21.939898,-3.3493981,-15.971292,-38.95459,17.543419,30.7437,-59.625088,-20.76254,19.166424,-18.66997,-15.352689,36.742287,-13.258263
164,1.7813265323638916,-233.02297973632812,72.94304656982422,1.6984894268650563,-15.610003203973038,-93.71668584393318,-9.177226,-1.0678186,7.1019306,56.576973,-25.150124,3.5033402,-20.514925,-11.685151,-11.477215,68.15093,-18.23042,-3.1764402,-1.2526145,-0.50301737,11.544791,-38.17875,22.071419,-3.6558535,-15.682356,-38.684498,17.44824,30.747044,-59.34083,-20.75683,19.268686,-18.249493,-14.7755,36.30671,-14.033726
165,1.7053263187408447,-234.1370391845703,73.11511993408203,1.4214064328427938,-15.536021160754958,-93.45821517994064,-8.373394,-0.8941758,6.8092475,56.82095,-25.303093,3.556098,-20.777842,-11.14477,-12.630505,63.090454,-17.063974,-2.6838715,-1.6853951,-0.39263695,11.476656,-38.29113,22.173292,-3.9865181,-15.388661,-38.62579,17.396183,30.863007,-59.00251,-20.766117,19.223635,-17.954113,-14.322773,35.987247,-14.65118
166,1.6250895261764526,-235.26150512695312,73.2862319946289,1.208349759311178,-15.44061067714171,-93.15226284675553,-7.569742,-0.8127549,6.527049,56.980087,-25.371767,3.6707757,-20.816742,-10.613056,-13.776801,57.56179,-15.632989,-2.285089,-2.0991719,-0.36054003,11.374527,-38.50821,22.246761,-4.3576837,-15.070061,-38.715687,17.381268,31.06078,-58.63931,-20.785824,19.05708,-17.735868,-13.945384,35.750717,-15.15431
167,1.5552881956100464,-236.41793823242188,73.44759368896484,1.0695685392463101,-15.355048217189506,-92.82936514639135,-6.73424,-0.8058401,6.2642813,57.10218,-25.37308,3.7678425,-20.648682,-10.000548,-14.689784,51.773754,-14.133136,-1.6803976,-2.4760087,-0.39901003,11.244929,-38.76612,22.288914,-4.7265925,-14.754634,-38.869152,17.3978,31.26568,-58.256374,-20.81028,18.8107,-17.609682,-13.6276455,35.5864,-15.532432
168,1.4752731323242188,-237.60621643066406,73.58993530273438,1.01805914980119,-15.313039145635928,-92.51680266020355,-5.831032,-0.86326045,6.0297484,57.232407,-25.323364,3.769265,-20.274733,-9.232585,-15.139403,45.89551,-12.737901,-0.58043927,-2.8042574,-0.50591147,11.095364,-38.99576,22.29543,-5.0446787,-14.471143,-38.999474,17.441998,31.401793,-57.867424,-20.833261,18.531136,-17.586088,-13.352616,35.483345,-15.774292
169,1.3883618116378784,-238.82029724121094,73.698486328125,1.100832427399143,-15.3422494279254,-92.20996528211315,-4.785655,-1.0397087,5.8653007,57.310783,-25.232054,3.7107673,-19.523043,-8.225819,-14.994119,39.479168,-11.375419,1.3373992,-3.0921497,-0.727316,10.934928,-39.165123,22.252037,-5.28778,-14.224063,-39.076683,17.524565,31.44118,-57.450844,-20.838339,18.208393,-17.682014,-13.157837,35.448116,-15.841788
170,1.2863560914993286,-240.05911254882812,73.76731872558594,1.3291460113170062,-15.42995152849265,-91.88614933495765,-3.6209025,-1.3691343,5.751307,57.317024,-25.076078,3.6239061,-18.341976,-7.1584215,-14.358966,32.411407,-9.955693,3.7578073,-3.3580694,-1.0839232,10.757529,-39.313335,22.157366,-5.4786386,-13.9909315,-39.143147,17.646412,31.423014,-57.0301,-20.816723,17.833702,-17.858875,-13.042675,35.485527,-15.754184
171,1.1657307147979736,-241.31532287597656,73.79451751708984,1.670556118009897,-15.551424691379848,-91.54385072072616,-2.44441,-1.8229448,5.6086698,57.3513,-24.820389,3.4262462,-16.928612,-6.306316,-13.405807,25.397942,-8.592785,6.074645,-3.6055055,-1.549809,10.549563,-39.47659,22.035269,-5.6425524,-13.767945,-39.225197,17.78771,31.373983,-56.67979,-20.781763,17.449667,-18.04976,-12.927761,35.581467,-15.585762
172,1.0444602966308594,-242.584228515625,73.77546691894531,2.064958808742804,-15.672386960853062,-91.19120313864825,-1.3792593,-2.3378727,5.362096,57.53439,-24.444424,3.027108,-15.609008,-5.8297615,-12.355947,19.361095,-7.430874,7.7787323,-3.8263426,-2.0733743,10.300012,-39.68569,21.920603,-5.807601,-13.563736,-39.356846,17.92736,31.325155,-56.45453,-20.756504,17.092478,-18.216196,-12.730714,35.722748,-15.414942
173,0.8929171562194824,-243.8515167236328,73.71501922607422,2.515837259780599,-15.77077290956294,-90.84583831314818,-0.45265818,-2.8985996,5.040839,57.898724,-23.997446,2.42875,-14.559212,-5.683737,-11.18518,14.627441,-6.7126718,8.8632345,-3.9976945,-2.6512403,9.990264,-39.942627,21.837944,-5.984895,-13.398301,-39.557552,18.059109,31.274826,-56.34478,-20.755352,16.749706,-18.387686,-12.404359,35.911144,-15.255495
174,0.7361687421798706,-245.106689453125,73.62168884277344,3.0126037388092124,-15.859764976124842,-90.51063529861717,0.38276878,-3.500783,4.67004,58.404896,-23.495766,1.6548837,-13.656138,-5.704715,-9.865368,10.783959,-6.3031325,9.635065,-4.1483445,-3.264663,9.638761,-40.174004,21.804913,-6.117245,-13.3280525,-39.82957,18.19558,31.211836,-56.34849,-20.767532,16.440903,-18.579805,-11.982725,36.155155,-15.086016
175,0.5836881399154663,-246.36264038085938,73.48554992675781,3.4008212305486323,-15.935847845674992,-90.19403447947111,1.0865191,-3.9925706,4.166592,59.106888,-22.900589,0.62135816,-12.888112,-5.7118177,-8.619577,7.804692,-5.8400493,10.080992,-4.2325106,-3.7897978,9.265871,-40.48571,21.784142,-6.2916822,-13.244479,-40.148746,18.323498,31.176567,-56.369232,-20.819721,16.103035,-18.84403,-11.547541,36.439575,-14.870899
176,0.4432432949542999,-247.6144561767578,73.32333374023438,3.5375545494023237,-15.993965061869487,-89.90039463955195,1.6221452,-4.240328,3.4472136,60.05042,-22.170725,-0.7583501,-12.897721,-5.6337337,-7.582015,7.076415,-5.7107844,10.161159,-4.304652,-4.050596,8.908718,-40.75955,21.782938,-6.411765,-13.2549925,-40.513504,18.450943,31.179008,-56.464455,-20.929047,15.8402405,-19.145061,-11.117284,36.76263,-14.6467495
177,0.32875534892082214,-248.86024475097656,73.135498046875,3.3595663929649504,-16.016226285203604,-89.63631019627248,2.0002563,-4.1903763,2.483729,61.239563,-21.33572,-2.5793417,-12.847202,-5.301234,-6.9176016,7.0078773,-5.015716,9.858056,-4.3531156,-3.9852836,8.549653,-40.99385,21.799715,-6.4852743,-13.368155,-40.94098,18.571562,31.230293,-56.61274,-21.112751,15.660697,-19.516125,-10.717787,37.1419,-14.399131
178,0.2256767302751541,-250.10499572753906,72.9321517944336,2.914076449735789,-16.001257462183315,-89.40513554455578,2.2419033,-3.9103382,1.3159965,62.658894,-20.44907,-4.808873,-12.5125675,-4.731667,-6.540568,7.0240355,-3.627371,9.169765,-4.360427,-3.6366568,8.181017,-41.203,21.83262,-6.521989,-13.574568,-41.425884,18.686556,31.316536,-56.805904,-21.373873,15.540124,-19.963295,-10.3162565,37.57529,-14.130065
179,0.04821483790874481,-251.27024841308594,72.79010772705078,2.26905713402889,-15.97665642701063,-89.20140961720078,2.3502283,-3.5052707,-0.040491965,64.29511,-19.486572,-7.3399105,-13.165513,-4.0935307,-6.2703633,9.426697,-2.7786868,8.080189,-4.3278775,-3.064188,7.8504105,-41.40523,21.872131,-6.519275,-13.845851,-41.92512,18.80568,31.425415,-57.04551,-21.700933,15.452196,-20.453629,-9.881809,38.025513,-13.867188
180,-0.1805132031440735,-252.39369201660156,72.65377044677734,1.5134994450825359,-15.970297837656888,-89.01839529911783,2.3266318,-3.1088612,-1.5675052,66.13264,-18.408398,-10.062646,-14.146115,-3.347709,-6.1113834,12.398508,-1.4930362,6.609661,-4.2629447,-2.3527045,7.5975146,-41.61782,21.907394,-6.4698367,-14.146426,-42.395653,18.94041,31.541927,-57.354507,-22.07072,15.3799,-20.92906,-9.383622,38.454838,-13.636445
181,-0.3815956115722656,-253.5208282470703,72.46730041503906,0.5959059936421625,-15.964439052175939,-88.81546459126326,2.072489,-2.7702444,-3.427372,68.3269,-17.081,-13.014977,-15.718313,-2.4442778,-6.133186,16.241003,0.91356164,4.5194554,-4.1850004,-1.4552927,7.4098654,-41.88616,21.934237,-6.3681297,-14.468382,-42.843212,19.11358,31.675943,-57.810226,-22.478182,15.331846,-21.374115,-8.75621,38.8922,-13.447273
182,-0.492960125207901,-254.62696838378906,72.2132339477539,-0.2509644068723162,-15.978476271411173,-88.57378292753496,1.6976326,-2.6610634,-5.2043595,70.71649,-15.512306,-15.000033,-17.794865,-1.732755,-6.3823757,21.004665,4.2227283,2.0320542,-4.1118054,-0.61240214,7.2712994,-42.211437,21.955252,-6.227728,-14.796931,-43.28518,19.315626,31.82717,-58.39868,-22.919699,15.311243,-21.787403,-8.035945,39.345726,-13.287824
183,-0.5008496046066284,-255.70046997070312,71.90168762207031,-0.49024953945241,-16.09108415646262,-88.33682407394012,1.4241983,-2.9480271,-6.0609045,72.84159,-13.795957,-15.000033,-20.03318,-1.7855085,-6.520528,26.342594,7.016294,-0.17185664,-4.0448422,-0.3573114,7.2134743,-42.50922,21.965454,-6.0647955,-15.1284075,-43.68454,19.507462,31.96932,-59.00426,-23.360863,15.304048,-22.134706,-7.3568134,39.743633,-13.146646
184,-0.5477901101112366,-256.69866943359375,71.58843994140625,-0.381283772816194,-16.341818831785723,-88.21408070924305,1.3953654,-3.319167,-6.361437,74.627686,-12.355095,-15.000033,-21.663324,-2.129971,-6.5070343,31.03832,8.226508,-1.7319613,-3.934803,-0.43386388,7.279879,-42.68826,21.957657,-5.882676,-15.456091,-44.002373,19.649906,32.07665,-59.527348,-23.750732,15.308476,-22.369797,-6.865822,40.01178,-12.999095
185,-0.5678333640098572,-257.68243408203125,71.28609466552734,0.1303934196913017,-16.753413504784483,-88.28279594966179,1.6658806,-3.7257886,-5.9509354,75.99704,-11.00932,-15.000033,-22.773113,-2.763292,-6.1514387,35.55403,6.7627344,-2.490958,-3.762217,-0.8501714,7.4954123,-42.67719,21.923048,-5.6135406,-15.829596,-44.20606,19.737375,32.133686,-60.028015,-24.038137,15.359297,-22.405428,-6.6545343,40.11082,-12.80266
186,-0.5662174820899963,-258.6673889160156,71.023193359375,0.889063470897595,-17.265982854157294,-88.48443591070178,2.0414972,-4.0663033,-5.0409756,77.17326,-9.662214,-15.000033,-23.639282,-3.5523622,-5.55282,40.185566,3.4612815,-2.753856,-3.5659258,-1.4558188,7.812697,-42.526283,21.869171,-5.25387,-16.23745,-44.31198,19.791235,32.15351,-60.581882,-24.203722,15.478336,-22.23721,-6.6606283,40.08328,-12.567956
187,-0.5570418834686279,-259.632568359375,70.80973052978516,1.661455816839348,-17.78649261306573,-88.70350744027648,2.3198264,-4.268009,-4.0497255,78.315125,-8.689785,-15.000033,-24.241758,-4.311655,-4.9136624,44.45273,-0.37005225,-2.7832778,-3.4027243,-2.0988624,8.131794,-42.32366,21.828772,-4.9275594,-16.596588,-44.358967,19.803627,32.16642,-61.06813,-24.249516,15.606677,-21.978659,-6.804122,39.976463,-12.334605
188,-0.5766872763633728,-260.5685729980469,70.68354797363281,2.2344510434245324,-18.246698277776805,-88.83525856016738,2.4032466,-4.378826,-3.4568172,79.479164,-8.52935,-15.000033,-24.507244,-4.865692,-4.444904,47.82904,-3.388514,-2.83803,-3.3213105,-2.6028569,8.383063,-42.07156,21.799408,-4.690959,-16.905987,-44.388634,19.783655,32.178684,-61.40153,-24.244902,15.749145,-21.736084,-6.9493065,39.84614,-12.190899
189,-0.6507115960121155,-261.47308349609375,70.62672424316406,2.5877253866805634,-18.665918069310393,-88.92803821757278,2.362286,-4.6484065,-3.563401,80.63727,-9.564093,-15.000033,-24.349749,-5.150633,-4.157983,50.138977,-5.3019013,-2.9379249,-3.2534118,-2.9889336,8.57269,-41.816025,21.79831,-4.644788,-17.121689,-44.427017,19.711142,32.218063,-61.440628,-24.217264,15.826413,-21.586164,-7.101178,39.66696,-12.139263
190,-0.7626864314079285,-262.3506164550781,70.60772705078125,2.818711723417431,-19.071693870491735,-89.02213622206843,2.2667677,-5.047082,-4.1273866,81.72854,-11.492992,-15.000033,-23.84906,-5.285241,-3.991948,51.73235,-6.8286614,-2.9753363,-3.1956995,-3.314068,8.7399,-41.50766,21.824219,-4.710522,-17.295794,-44.457256,19.591677,32.26912,-61.267242,-24.158535,15.874139,-21.473368,-7.292614,39.425316,-12.1586
191,-0.8772767782211304,-263.2057189941406,70.59951782226562,2.8976698490929302,-19.421862407991526,-89.00472958539207,2.0192537,-5.2125955,-4.7952743,82.75288,-13.706658,-15.000033,-23.156088,-5.3497,-4.0268536,52.83922,-8.117584,-3.0114906,-3.2284064,-3.5658998,8.855003,-41.20222,21.88348,-4.8612795,-17.376114,-44.46767,19.436127,32.323967,-60.961464,-24.061913,15.894504,-21.425526,-7.506294,39.18392,-12.213279
192,-0.9701482057571411,-264.0213623046875,70.61577606201172,2.787519924966219,-19.686671451649477,-88.77067787387264,1.5540661,-4.818951,-5.24771,83.69725,-15.675294,-15.000033,-22.401003,-5.404464,-4.3331027,53.67493,-9.314742,-3.1039174,-3.404912,-3.6876686,8.906058,-40.932613,21.927614,-5.038134,-17.343441,-44.430397,19.269485,32.354378,-60.618294,-23.986055,15.92734,-21.463425,-7.681679,39.011005,-12.298958
193,-1.0591753721237183,-264.8062744140625,70.67160034179688,2.397931613388268,-19.85343663075946,-88.19951934866957,0.7942544,-3.6473413,-5.4433384,84.62711,-17.348,-15.000033,-21.541248,-5.4569383,-5.039721,54.19413,-10.445117,-3.2827394,-3.8024776,-3.6234984,8.86791,-40.718296,21.938154,-5.2653875,-17.15162,-44.332096,19.10677,32.363007,-60.219868,-23.946136,15.986014,-21.613138,-7.7827244,38.936855,-12.449576
194,-1.1672264337539673,-265.55303955078125,70.76113891601562,1.7597948020797267,-19.941230469392682,-87.38115506728418,-0.20062418,-1.892916,-5.5618396,85.52278,-19.019178,-15.000033,-20.517054,-5.4418683,-6.071886,54.298103,-11.426227,-3.5135007,-4.350097,-3.3935885,8.763011,-40.556053,21.915024,-5.57047,-16.808983,-44.178795,18.93447,32.357265,-59.722317,-23.937687,16.0474,-21.858177,-7.8376765,38.922226,-12.659345
195,-1.2816669940948486,-266.278076171875,70.89237976074219,1.0258945697638575,-19.978456915260388,-86.53392837113933,-1.2678822,0.111953475,-5.620647,86.22758,-20.691874,-15.000033,-19.424295,-5.3173704,-7.184452,54.122654,-12.247745,-3.7536387,-4.8626733,-3.0680103,8.65608,-40.46683,21.833782,-5.9193654,-16.355268,-43.969154,18.732058,32.319714,-59.164024,-23.96983,16.077946,-22.167816,-7.907488,38.92895,-12.853836
196,-1.388511300086975,-266.9547119140625,71.04804992675781,0.36090521377013096,-19.997520520501368,-85.87358180698816,-2.2443476,2.0253408,-5.6024804,86.590385,-22.345448,-15.000033,-18.370588,-5.0736895,-8.124893,53.81548,-12.903463,-3.9582875,-5.2018538,-2.7190862,8.607698,-40.385082,21.700094,-6.209749,-15.901159,-43.71385,18.486418,32.22563,-58.643456,-24.030098,16.092089,-22.475147,-8.037528,38.92035,-12.972453
197,-1.4772272109985352,-267.59197998046875,71.22987365722656,-0.2043244023267758,-20.003787402655146,-85.44772607152088,-3.1136615,3.8428872,-5.4456773,86.5947,-24.01094,-15.000033,-17.375404,-4.705495,-8.842045,53.377945,-13.370464,-4.118241,-5.3380456,-2.3649263,8.628372,-40.287956,21.522957,-6.417068,-15.454216,-43.3794,18.166513,32.052223,-58.171856,-24.092487,16.10045,-22.788359,-8.262729,38.88765,-13.000591
198,-1.5541514158248901,-268.2036437988281,71.43352508544922,-0.7409598682691951,-19.988896350436494,-85.15102811097539,-3.9372768,5.724948,-5.1307993,86.31673,-25.697014,-15.000033,-16.38511,-4.233688,-9.446762,52.74708,-13.660345,-4.25151,-5.354888,-1.9741555,8.686883,-40.184967,21.303368,-6.572817,-14.980814,-42.974182,17.789509,31.81784,-57.729984,-24.14932,16.111767,-23.109556,-8.556572,38.850006,-12.969787
199,-1.6107370853424072,-268.7900695800781,71.664306640625,-1.2274827837857174,-19.963376097768123,-84.96037119052998,-4.668048,7.5585165,-4.687645,85.73646,-27.309034,-15.000033,-15.400821,-3.716611,-9.934046,51.977062,-13.822152,-4.353902,-5.285142,-1.5765647,8.769467,-40.09223,21.054739,-6.6890407,-14.502695,-42.580914,17.406143,31.56973,-57.34945,-24.193237,16.1142,-23.372526,-8.893845,38.810265,-12.879601
200,-1.6417350769042969,-269.35272216796875,71.91610717773438,-1.6402487429611181,-19.93384725823056,-84.8491597172939,-5.2706423,9.212671,-4.16129,84.83847,-28.746925,-15.000033,-14.429668,-3.2163801,-10.307494,51.129387,-13.9084215,-4.424085,-5.168667,-1.203591,8.860173,-40.02583,20.800207,-6.7759266,-14.046017,-42.28857,17.067654,31.354193,-57.06082,-24.216255,16.095528,-23.516174,-9.247437,38.77185,-12.72979
201,-1.641884684562683,-269.8758239746094,72.18388366699219,-1.7665898682830343,-19.892164349847164,-84.80433754146806,-5.7438345,10.471508,-3.224264,83.53853,-29.934132,-14.058047,-13.564546,-3.0051806,-10.439962,50.385387,-14.005049,-4.3927016,-5.0314465,-1.063145,8.946291,-39.97492,20.560743,-6.811985,-13.631327,-42.142246,16.789488,31.172552,-56.879517,-24.203924,16.052008,-23.52368,-9.615315,38.722095,-12.511381
202,-1.619950294494629,-270.38409423828125,72.47435760498047,-1.7631850651716299,-19.83081968383136,-84.84766767842193,-6.091651,11.472746,-2.1040149,81.89613,-30.966047,-12.877314,-12.751511,-2.8774955,-10.433165,49.59877,-14.028428,-4.31255,-4.8581233,-1.0022992,9.039974,-39.919746,20.34324,-6.790333,-13.258533,-42.097706,16.54276,31.006096,-56.79833,-24.147352,15.994497,-23.421183,-10.01164,38.66192,-12.225569
203,-1.5992392301559448,-270.8761291503906,72.77958679199219,-1.7513309279796294,-19.751356360784335,-84.91947662788134,-6.3293614,12.252049,-1.0696414,79.986725,-31.836561,-11.948533,-11.930645,-2.7368977,-10.407278,48.69956,-13.971363,-4.2245,-4.691952,-0.9354828,9.125598,-39.85888,20.147053,-6.7540274,-12.919448,-42.099766,16.31282,30.868052,-56.802147,-24.050901,15.929025,-23.227318,-10.438801,38.615143,-11.890086
204,-1.561671495437622,-271.3522033691406,73.1011734008789,-1.7631781525265098,-19.654173343251568,-84.9417534619223,-6.4864573,12.7600565,-0.26097178,77.857574,-32.50395,-11.309154,-11.076217,-2.6098852,-10.433132,47.697247,-13.869953,-4.1372366,-4.5872746,-0.8702938,9.178712,-39.79702,19.966768,-6.7509985,-12.602736,-42.09135,16.084965,30.771118,-56.858883,-23.932632,15.847129,-22.97558,-10.888045,38.605145,-11.523111
205,-1.5139189958572388,-271.82611083984375,73.43572998046875,-1.81283979663175,-19.543096587594814,-84.88666748163133,-6.573628,12.968607,0.2729466,75.47459,-32.938972,-10.991277,-10.157786,-2.5022492,-10.541746,46.55687,-13.718398,-4.0585833,-4.5557084,-0.8044334,9.201402,-39.742107,19.793333,-6.8162694,-12.290312,-42.045734,15.842218,30.725407,-56.95816,-23.807974,15.734397,-22.66035,-11.377771,38.64445,-11.114122
206,-1.465614914894104,-272.29437255859375,73.77168273925781,-1.883499237561313,-19.416576640213915,-84.79838012422684,-6.586028,12.932898,0.60197216,72.824425,-33.1537,-10.944043,-9.196069,-2.394937,-10.6928425,45.283604,-13.501745,-3.9851177,-4.5581913,-0.730646,9.204964,-39.703075,19.622847,-6.926747,-11.984559,-41.993824,15.596745,30.721394,-57.09808,-23.684484,15.586144,-22.286692,-11.897408,38.71748,-10.658833
207,-1.4091917276382446,-272.75140380859375,74.10472869873047,-1.9649558055406668,-19.26737895250769,-84.70728715248143,-6.5234942,12.728084,0.76176983,69.968376,-33.180553,-11.081859,-8.243311,-2.2782497,-10.851311,43.951077,-13.245973,-3.9085355,-4.567303,-0.6500429,9.182126,-39.687706,19.456373,-7.0468836,-11.703323,-41.966076,15.376869,30.743626,-57.259922,-23.567741,15.419488,-21.905504,-12.406245,38.808216,-10.187775
208,-1.348932147026062,-273.19854736328125,74.43173217773438,-2.043286986980337,-19.08833025566448,-84.64423314885843,-6.385879,12.423935,0.788988,66.96814,-33.05114,-11.323175,-7.3487954,-2.143256,-10.980312,42.624416,-12.970319,-3.8190074,-4.5640407,-0.56522715,9.123066,-39.69568,19.300142,-7.1340513,-11.474332,-41.993652,15.211207,30.776403,-57.433308,-23.46609,15.254329,-21.564396,-12.85391,38.900986,-9.729753
209,-1.288387417793274,-273.632080078125,74.74855041503906,-2.114859901927821,-18.87083689806397,-84.59773382986897,-6.1741505,11.98331,0.62891394,63.78429,-32.77592,-11.727096,-6.515175,-1.9987462,-11.086922,41.29067,-12.664854,-3.709576,-4.553318,-0.48580748,9.025013,-39.727646,19.155458,-7.1836305,-11.309338,-42.09774,15.10178,30.827114,-57.60545,-23.381311,15.09037,-21.275702,-13.246116,38.992382,-9.297451
210,-1.2176151275634766,-274.0746154785156,75.0585708618164,-2.189585658667797,-18.62102094900958,-84.55876738436314,-5.8812423,11.403989,0.26718578,60.393417,-32.337605,-12.294739,-5.717977,-1.8449222,-11.18439,39.921192,-12.322333,-3.589507,-4.5448422,-0.40529993,8.893774,-39.778835,19.021812,-7.2127914,-11.1976385,-42.258125,15.035242,30.900139,-57.786484,-23.31552,14.9201565,-21.01561,-13.596373,39.091274,-8.874023
211,-1.1543114185333252,-274.4952392578125,75.34053039550781,-2.2707538837570524,-18.353323980961,-84.55852997491272,-5.4983234,10.7988205,-0.19139902,56.88089,-31.726835,-12.866246,-4.9702168,-1.6637661,-11.2465,38.568787,-11.974923,-3.4721107,-4.5131555,-0.30336428,8.737797,-39.850426,18.90163,-7.2220297,-11.129627,-42.44889,15.016445,30.976229,-57.98286,-23.268377,14.746553,-20.792496,-13.882658,39.203278,-8.452005
212,-1.0935773849487305,-274.90423583984375,75.60462951660156,-2.3613052275400697,-18.08226062838944,-84.62844429222368,-5.0246778,10.27195,-0.6348106,53.336647,-30.9326,-13.289184,-4.284266,-1.4376917,-11.247108,37.284435,-11.652891,-3.3684726,-4.436712,-0.16208546,8.56498,-39.938114,18.799927,-7.20836,-11.097454,-42.64419,15.050459,31.036146,-58.206738,-23.239,14.575425,-20.609163,-14.080677,39.33379,-8.023218
213,-1.0145550966262817,-275.32293701171875,75.84442901611328,-2.4746853624103706,-17.792610732174644,-84.77973365069298,-4.422626,9.861235,-1.0465626,49.59611,-30.009565,-13.656549,-3.67897,-1.1423085,-11.186995,36.062176,-11.34307,-3.2845745,-4.3041162,0.037454333,8.360605,-40.039513,18.729048,-7.173155,-11.107419,-42.853104,15.139342,31.071257,-58.467037,-23.226408,14.396377,-20.47337,-14.167892,39.481247,-7.566389
214,-0.9335660338401794,-275.7332763671875,76.06137084960938,-2.6051288421076584,-17.48285912526027,-84.99456925128842,-3.7059512,9.509867,-1.4838498,45.6679,-28.940802,-14.004174,-3.1429017,-0.79439026,-11.07774,34.882442,-11.03765,-3.2118695,-4.1274385,0.2790842,8.122443,-40.160667,18.676949,-7.12007,-11.154077,-43.079052,15.280304,31.09327,-58.758217,-23.226826,14.210453,-20.373951,-14.168634,39.64451,-7.088558
215,-0.8520681262016296,-276.128662109375,76.24529266357422,-2.7257529195699006,-17.18825003881726,-85.26066535596655,-2.9624033,9.173404,-1.9373596,41.91338,-27.615885,-14.099853,-2.636091,-0.4373901,-10.908105,33.75976,-10.762364,-3.137333,-3.9392166,0.5254171,7.887643,-40.273365,18.66092,-7.0326986,-11.261236,-43.321583,15.465736,31.122179,-59.0787,-23.232357,14.057148,-20.300682,-14.108275,39.833107,-6.6474085
216,-0.7810547947883606,-276.51983642578125,76.39484405517578,-2.8044474217314357,-16.943942805115032,-85.56541437309724,-2.297756,8.806826,-2.391236,38.732006,-25.937387,-13.712893,-2.1243656,-0.12140104,-10.6665745,32.723778,-10.552636,-3.0472395,-3.74164,0.7279836,7.6890254,-40.40581,18.650675,-6.9144664,-11.396421,-43.54815,15.7003565,31.162668,-59.385807,-23.243214,13.923629,-20.262981,-14.044886,40.047943,-6.2585006
217,-0.7072179317474365,-276.90283203125,76.51363372802734,-2.806442136920728,-16.765592504571057,-85.93082903041284,-1.7887912,8.32995,-2.887322,36.264263,-23.508997,-12.572713,-1.6038555,0.12243065,-10.317517,31.799051,-10.432557,-2.9253414,-3.5289254,0.8695748,7.5426955,-40.529644,18.64997,-6.733964,-11.604974,-43.75894,15.999072,31.220858,-59.710903,-23.26491,13.853798,-20.27143,-13.975785,40.322433,-5.945992
218,-0.6358164548873901,-277.2774353027344,76.62265014648438,-2.7427876206918844,-16.632083703016626,-86.3551361092231,-1.4199635,7.8064976,-3.3574893,34.376293,-20.522507,-10.888218,-1.0936334,0.30900094,-9.875354,30.97425,-10.383776,-2.7789404,-3.302903,0.96641517,7.4266906,-40.63793,18.666422,-6.497662,-11.886542,-43.965233,16.3552,31.291243,-60.069565,-23.294376,13.8439245,-20.308378,-13.875201,40.64547,-5.69663
219,-0.5239917635917664,-277.66741943359375,76.77767944335938,-2.660642293979923,-16.52420993865651,-86.7909293932855,-1.1437384,7.377437,-3.6475382,33.031055,-17.772665,-9.137995,-0.60255855,0.46586385,-9.406564,30.236303,-10.381878,-2.6312952,-3.0976613,1.0446776,7.332235,-40.730476,18.7079,-6.232957,-12.210748,-44.177017,16.738302,31.365797,-60.425396,-23.328817,13.863718,-20.343609,-13.732672,40.96027,-5.516281
220,-0.4248127341270447,-278.0541687011719,76.89368438720703,-2.6181921412448745,-16.423163583608105,-87.1913102786045,-0.8506602,7.1493087,-3.6823094,32.094402,-16.039474,-7.777683,-0.1230409,0.6403594,-8.978761,29.53766,-10.3832,-2.5078359,-2.9373488,1.128512,7.2382603,-40.843697,18.765945,-6.004833,-12.4999275,-44.38855,17.109043,31.445974,-60.71979,-23.353607,13.852593,-20.348145,-13.552654,41.20595,-5.391064
221,-0.32989394664764404,-278.4256286621094,76.97132873535156,-2.6560328519616623,-16.32850791756924,-87.56677840378521,-0.48131886,7.1895914,-3.4070249,31.659384,-15.7649,-6.934348,0.33399457,0.88343215,-8.592412,28.893484,-10.396126,-2.4243581,-2.82139,1.2620788,7.141253,-40.994633,18.84491,-5.8051214,-12.744482,-44.61961,17.472681,31.539555,-60.975235,-23.363104,13.812064,-20.28586,-13.318776,41.367123,-5.3248444
222,-0.24519385397434235,-278.77886962890625,77.02165222167969,-2.744465470045472,-16.249209541423696,-87.93460634207466,-0.061518162,7.4103622,-2.9177804,31.673174,-16.432098,-6.3704576,0.7762046,1.1694437,-8.218713,28.304205,-10.430619,-2.363817,-2.74309,1.4223936,7.050162,-41.168465,18.95421,-5.614102,-12.973813,-44.86834,17.841908,31.647552,-61.209213,-23.352177,13.76029,-20.17651,-13.041656,41.473785,-5.3152194
223,-0.16154026985168457,-279.1162414550781,77.07551574707031,-2.8360630593349208,-16.180899969732717,-88.25898744991707,0.40020958,7.6699467,-2.4027674,31.777775,-17.382475,-5.984117,1.2266048,1.4324096,-7.8825426,27.725134,-10.452304,-2.3037925,-2.717247,1.5558604,6.966534,-41.335064,19.079075,-5.4532685,-13.186343,-45.094337,18.197683,31.7499,-61.377052,-23.32299,13.693431,-20.07309,-12.755723,41.53706,-5.353214
224,-0.06878049671649933,-279.46710205078125,77.1474609375,-2.8886341594002065,-16.11893357058489,-88.50395125664699,0.8870525,7.817133,-2.034639,31.629656,-17.960817,-5.6573677,1.7068188,1.6074761,-7.610088,27.110445,-10.427164,-2.2239606,-2.7508576,1.6102971,6.894711,-41.469322,19.204445,-5.3476253,-13.384669,-45.260616,18.521189,31.825384,-61.42822,-23.285872,13.606606,-20.030598,-12.49417,41.568565,-5.433933
225,0.02260012924671173,-279.80010986328125,77.24068450927734,-2.8802832858465743,-16.073390443423353,-88.62962571031974,1.4035616,7.7820654,-1.8855997,31.14478,-18.005615,-5.3643336,2.2285407,1.6505141,-7.4316783,26.469727,-10.355111,-2.1174295,-2.869526,1.5496396,6.8498697,-41.57386,19.321299,-5.316526,-13.563514,-45.356003,18.808157,31.863895,-61.323307,-23.253595,13.486702,-20.082901,-12.255045,41.566288,-5.566604
226,0.09995872527360916,-280.1123962402344,77.34422302246094,-2.8382101615898336,-16.04270610301297,-88.6648153182492,1.9551696,7.6546865,-1.8513901,30.506342,-17.857634,-5.1638365,2.7761893,1.6069914,-7.3275,25.821833,-10.252371,-1.9970112,-3.0496774,1.4138778,6.8236594,-41.671295,19.423687,-5.3496246,-13.715741,-45.394573,19.069862,31.87488,-61.087215,-23.234667,13.336273,-20.200552,-12.019114,41.52599,-5.751593
227,0.16300076246261597,-280.4074401855469,77.45068359375,-2.7908743194748795,-16.005571886993422,-88.678011488978,2.5205286,7.516482,-1.8345929,29.784039,-17.621943,-5.0500274,3.3306355,1.5479339,-7.2484407,25.135094,-10.111076,-1.873543,-3.2291765,1.2687584,6.7873693,-41.756233,19.49932,-5.419795,-13.837711,-45.373146,19.31138,31.863848,-60.77497,-23.226831,13.182095,-20.34458,-11.794599,41.45721,-5.9735775
228,0.2238645851612091,-280.70269775390625,77.56453704833984,-2.764305963249763,-15.93994950808944,-88.73741200157478,3.075114,7.4498262,-1.7392434,29.050066,-17.40516,-5.0140247,3.8747277,1.5429828,-7.1439657,24.375639,-9.922439,-1.757987,-3.3518,1.1603086,6.716294,-41.83402,19.57482,-5.51337,-13.923678,-45.31014,19.531279,31.847084,-60.41819,-23.221294,13.024514,-20.502281,-11.591851,41.367073,-6.2063913
229,0.2825651168823242,-281.00384521484375,77.6786117553711,-2.771021369586329,-15.83922265584864,-88.86270586204432,3.6239202,7.493236,-1.532269,28.29202,-17.219578,-5.0797396,4.404937,1.6148521,-7.0022025,23.529762,-9.675432,-1.6583172,-3.4069998,1.0984753,6.602069,-41.888714,19.667158,-5.635979,-13.974434,-45.192574,19.717798,31.818333,-59.99926,-23.207296,12.860439,-20.68077,-11.426375,41.23986,-6.4502735
230,0.3283119797706604,-281.2950744628906,77.78142547607422,-2.795708410361868,-15.715187532432122,-89.01723345992369,4.17049,7.60231,-1.2703488,27.491175,-17.019,-5.2318873,4.932507,1.724951,-6.8482795,22.614109,-9.377103,-1.5690228,-3.4332342,1.0836345,6.4545083,-41.895382,19.730974,-5.758118,-14.009762,-44.999138,19.884514,31.75871,-59.55413,-23.186737,12.729898,-20.840662,-11.283902,41.0802,-6.727519
231,0.3711426258087158,-281.5882568359375,77.87776184082031,-2.826006437231677,-15.574426356155364,-89.18294552592282,4.6955523,7.73365,-0.9902617,26.688372,-16.816578,-5.4052634,5.4559894,1.8474085,-6.686473,21.6502,-9.049676,-1.4809384,-3.438619,1.0588042,6.2927003,-41.917732,19.825352,-5.913493,-14.011082,-44.804905,20.034697,31.716064,-59.07189,-23.14636,12.578581,-21.021572,-11.163292,40.91568,-7.0013547
232,0.41131791472435,-281.8782958984375,77.970947265625,-2.848378479157305,-15.422941176226617,-89.34258237236055,5.181946,7.84242,-0.7274341,25.923126,-16.622816,-5.5417137,5.976112,1.9592385,-6.5218096,20.656525,-8.71405,-1.3843397,-3.443541,1.0604391,6.1260467,-41.93278,19.893793,-6.024071,-14.01591,-44.62659,20.205954,31.68794,-58.674805,-23.110212,12.488539,-21.143154,-11.0172615,40.786243,-7.2921495
233,0.449334979057312,-282.1654357910156,78.06196594238281,-2.864420957004238,-15.254913586739471,-89.49405757039558,5.621406,7.9228945,-0.48731935,25.197104,-16.427103,-5.647589,6.4974556,2.061468,-6.3509197,19.610783,-8.364795,-1.2769799,-3.443604,1.0662471,5.9466324,-41.968704,19.965446,-6.125286,-14.005548,-44.488277,20.403997,31.7005,-58.321663,-23.071356,12.421325,-21.23376,-10.838378,40.694756,-7.595573
234,0.4880416691303253,-282.4442443847656,78.1488037109375,-2.8796464681263965,-15.069882271107334,-89.64558107887923,6.0264907,7.997532,-0.25233093,24.489529,-16.226957,-5.748962,7.016989,2.162779,-6.1724,18.516218,-7.9948974,-1.1654611,-3.4462945,1.0682802,5.7562547,-42.00568,20.076616,-6.224389,-13.990087,-44.386166,20.610415,31.747684,-57.991425,-23.008715,12.368668,-21.308664,-10.650046,40.622574,-7.907937
235,0.5250495076179504,-282.7017822265625,78.22498321533203,-2.89108921926558,-14.881478341689096,-89.79412339045085,6.407159,8.059961,-0.022745289,23.808443,-16.04031,-5.822719,7.5316186,2.2532797,-5.994764,17.411442,-7.621742,-1.0524539,-3.438814,1.0922242,5.5727673,-42.040623,20.153137,-6.2886815,-13.969791,-44.277924,20.814695,31.791924,-57.72442,-22.961823,12.358521,-21.350412,-10.459346,40.572567,-8.221399
236,0.565683126449585,-282.94451904296875,78.29522705078125,-2.892362602196433,-14.703959793759614,-89.93694962371433,6.774097,8.101547,0.20164528,23.158596,-15.881984,-5.846376,8.041488,2.323252,-5.827009,16.325579,-7.2596555,-0.94025296,-3.446788,1.0931205,5.4253564,-42.08125,20.264658,-6.3261776,-13.949814,-44.19321,20.980726,31.837822,-57.52072,-22.888906,12.357767,-21.392962,-10.3163185,40.538452,-8.48894
237,0.6079543828964233,-283.1768798828125,78.35389709472656,-2.879751056105252,-14.536475324718722,-90.07140402182654,7.127485,8.111487,0.42393094,22.536392,-15.75341,-5.796709,8.543586,2.3664224,-5.6751647,15.263669,-6.907166,-0.8272146,-3.4610946,1.0899835,5.314873,-42.131073,20.364483,-6.3232746,-13.916181,-44.10448,21.102316,31.876184,-57.402874,-22.815542,12.394104,-21.420956,-10.219733,40.530613,-8.721254
