unveil-humanoid-operators/unveil-humanoid-operators.github.io/feature-analysis-animation/data/feature_matrix_instances/height_ankle_rom_walking_A093_walk_ff_loop_180_R_002__A093.csv
Frame,root_translateX,root_translateY,root_translateZ,root_rotateX,root_rotateY,root_rotateZ,left_hip_pitch_joint_dof,left_hip_roll_joint_dof,left_hip_yaw_joint_dof,left_knee_joint_dof,left_ankle_pitch_joint_dof,left_ankle_roll_joint_dof,right_hip_pitch_joint_dof,right_hip_roll_joint_dof,right_hip_yaw_joint_dof,right_knee_joint_dof,right_ankle_pitch_joint_dof,right_ankle_roll_joint_dof,waist_yaw_joint_dof,waist_roll_joint_dof,waist_pitch_joint_dof,left_shoulder_pitch_joint_dof,left_shoulder_roll_joint_dof,left_shoulder_yaw_joint_dof,left_elbow_joint_dof,left_wrist_roll_joint_dof,left_wrist_pitch_joint_dof,left_wrist_yaw_joint_dof,right_shoulder_pitch_joint_dof,right_shoulder_roll_joint_dof,right_shoulder_yaw_joint_dof,right_elbow_joint_dof,right_wrist_roll_joint_dof,right_wrist_pitch_joint_dof,right_wrist_yaw_joint_dof
0,-0.4945763945579529,2.3095414638519287,75.71294403076172,5.4422924341471735,1.5019668233115109,-92.62396502275035,-21.288061,-5.3715568,6.239806,35.032654,-15.455056,2.8296878,-11.847251,-13.73793,-5.3284802,85.38929,-16.487024,-3.877281,-1.3446599,-5.4086328,8.459401,-0.7643134,16.397038,-25.116701,58.346375,-7.1105986,3.3396664,-4.877505,-11.168709,-9.134181,22.90665,60.10863,5.9965,8.743256,-0.6772146
1,-0.43559959530830383,1.6637245416641235,75.90962982177734,5.3865202124534335,1.4482683508720193,-92.56076213985584,-20.201653,-5.5392494,6.043821,34.10789,-15.553542,3.0157123,-13.213443,-13.499872,-5.114007,85.28282,-16.774048,-3.6222985,-1.7757038,-5.259439,8.4148855,-1.1084527,16.407509,-24.922878,57.649956,-7.3104973,3.3655136,-4.6257353,-10.715818,-9.192742,22.918863,60.75768,6.029946,8.814101,-0.5535372
2,-0.369996041059494,1.0244039297103882,76.09417724609375,5.33230748235195,1.3965116737608896,-92.49630273452705,-19.118893,-5.7081017,5.8421664,33.186646,-15.654443,3.19106,-14.585574,-13.254034,-4.8946514,85.214554,-17.061909,-3.3665879,-2.2083094,-5.0825257,8.38468,-1.4606054,16.394224,-24.722654,56.956413,-7.5152454,3.3917701,-4.3609924,-10.208119,-9.334712,22.941784,61.32451,6.085952,8.89239,-0.41590577
3,-0.32636794447898865,0.35499638319015503,76.28602600097656,5.274691676721845,1.3383440395163153,-92.4327878013327,-18.021368,-5.865434,5.636555,32.25371,-15.754348,3.3603768,-15.928726,-13.016555,-4.69956,85.05084,-17.33954,-3.1149154,-2.6218321,-4.890609,8.363626,-1.8288859,16.363714,-24.536114,56.25999,-7.695941,3.41104,-4.1277175,-9.66684,-9.51662,22.95523,61.830563,6.140435,8.97602,-0.27326065
4,-0.28077933192253113,-0.3014523386955261,76.46932983398438,5.208867210179099,1.2656374514921767,-92.37263669673789,-16.892986,-5.99837,5.4292016,31.296629,-15.851088,3.5297258,-17.208344,-12.803166,-4.5576344,84.65919,-17.595037,-2.8712971,-3.019967,-4.6873746,8.356547,-2.1888127,16.330093,-24.345896,55.51159,-7.8137393,3.418036,-3.9780493,-9.103626,-9.728736,22.974546,62.260075,6.185798,9.066591,-0.12958895
5,-0.23725812137126923,-0.9335912466049194,76.63623046875,5.138952744335768,1.1712533250914365,-92.32381759060813,-15.717728,-6.10504,5.231725,30.3056,-15.947632,3.7191792,-18.410582,-12.624529,-4.4799757,84.0021,-17.843876,-2.609821,-3.3969228,-4.4841237,8.368239,-2.5312262,16.306158,-24.150105,54.692505,-7.835416,3.4221911,-3.9521568,-8.518294,-9.964502,23.010841,62.608707,6.2203517,9.164625,0.014257931
6,-0.18258407711982727,-1.5884222984313965,76.79112243652344,5.066227608109169,1.0612263236410546,-92.28265304274802,-14.510238,-6.192037,5.040604,29.29363,-16.045826,3.922086,-19.554016,-12.467994,-4.4508424,83.14948,-18.084024,-2.3342175,-3.7601569,-4.2835402,8.3952465,-2.8533456,16.297073,-23.948608,53.81061,-7.789886,3.4248433,-4.0158525,-7.916127,-10.217991,23.058779,62.89519,6.247617,9.26815,0.15882264
7,-0.15603385865688324,-2.213937282562256,76.93331146240234,4.98115632482482,0.9470638598856997,-92.23386103704655,-13.297099,-6.259174,4.835093,28.276917,-16.139273,4.104631,-20.646711,-12.315575,-4.461667,82.12188,-18.28595,-2.0958066,-4.127607,-4.0742173,8.431182,-3.146731,16.302862,-23.734648,52.861298,-7.733904,3.4082253,-4.108918,-7.309786,-10.484844,23.102772,63.13194,6.2653775,9.375492,0.3034172
8,-0.1612982302904129,-2.944481611251831,77.12267303466797,4.874859697029078,0.8404181342883214,-92.1620637406547,-12.105732,-6.304451,4.594657,27.272686,-16.22179,4.2320814,-21.69668,-12.150034,-4.502659,80.93895,-18.42006,-1.9465891,-4.516687,-3.8430169,8.4694805,-3.405478,16.320251,-23.50177,51.843346,-7.7240043,3.3546462,-4.17032,-6.7119102,-10.762241,23.127924,63.332237,6.2719436,9.4856415,0.44724926
9,-0.18415604531764984,-3.6513521671295166,77.285400390625,4.724605517540775,0.7403888466671672,-92.0273258886258,-10.958986,-6.32132,4.271517,26.309376,-16.29134,4.2875957,-22.694931,-11.947797,-4.586855,79.58671,-18.473553,-1.9159518,-4.9647703,-3.5644195,8.513992,-3.6364894,16.34762,-23.262611,50.771755,-7.756381,3.2227476,-4.1916313,-6.1314554,-11.051297,23.133705,63.50148,6.2627625,9.604968,0.5947312
10,-0.15493489801883698,-4.309844017028809,77.40675354003906,4.541877003483282,0.6426928241480202,-91.84964959054723,-9.839317,-6.3102655,3.8924696,25.373241,-16.350576,4.2932234,-23.638561,-11.724893,-4.7132335,78.06091,-18.465143,-1.9698743,-5.45113,-3.252351,8.567375,-3.8407514,16.384987,-23.016489,49.643185,-7.8074865,3.03405,-4.2023115,-5.558541,-11.350997,23.12537,63.63182,6.238703,9.732031,0.74482155
11,-0.09911128878593445,-4.9332475662231445,77.50743865966797,4.367087195182534,0.5535421356669944,-91.70436269092097,-8.708932,-6.281402,3.5477142,24.408558,-16.402433,4.2717433,-24.542192,-11.520823,-4.852764,76.39281,-18.422115,-2.0649683,-5.9069576,-2.9528465,8.618185,-4.0045733,16.430986,-22.735847,48.433144,-7.90285,2.8650575,-4.1985173,-4.985473,-11.656602,23.103247,63.726658,6.2106156,9.852239,0.88720894
12,-0.06950070708990097,-5.594090461730957,77.61731719970703,4.235636046911387,0.47831333796186454,-91.66693490113664,-7.534857,-6.2471666,3.3277018,23.37162,-16.450106,4.2455564,-25.420471,-11.36842,-4.979842,74.61053,-18.367947,-2.155212,-6.2644167,-2.7100637,8.6529455,-4.114183,16.483913,-22.392748,47.11671,-8.069314,2.7922297,-4.17612,-4.403906,-11.959184,23.066357,63.78906,6.187391,9.951373,1.0111791
13,-0.01951294019818306,-6.256805419921875,77.70745849609375,4.164020373308516,0.4153403734995798,-91.80169583191655,-6.2767205,-6.2024174,3.2997606,22.21163,-16.492188,4.2097383,-26.284395,-11.27407,-5.0824184,72.71191,-18.315424,-2.2450829,-6.4747057,-2.541874,8.662636,-4.153933,16.545809,-21.969448,45.686073,-8.337016,2.8434005,-4.115883,-3.8165963,-12.251841,23.02899,63.830723,6.159359,10.022363,1.1171225
14,-0.11206919699907303,-6.982530117034912,77.77898406982422,4.12809299089427,0.36225946490697436,-92.05405391569329,-4.9584246,-6.14777,3.4011528,20.958265,-16.522966,4.155952,-27.119307,-11.203099,-5.1850715,70.6785,-18.247538,-2.3431523,-6.5872526,-2.421638,8.65318,-4.1302958,16.618776,-21.480186,44.151806,-8.683974,2.9756775,-4.0253797,-3.2341993,-12.532988,22.990738,63.856792,6.1255627,10.073374,1.2079873
15,-0.15725316107273102,-7.671218395233154,77.82638549804688,4.110042279263788,0.3233976917654425,-92.32089042713439,-3.6476495,-6.104004,3.5270343,19.695698,-16.545918,4.101805,-27.902317,-11.134628,-5.3167853,68.51397,-18.144094,-2.4165947,-6.6794486,-2.3281114,8.631863,-4.0655727,16.699324,-20.94723,42.520355,-9.057347,3.1591969,-3.939821,-2.6612806,-12.803974,22.92785,63.863945,6.1081533,10.112216,1.2765313
16,-0.15324930846691132,-8.336681365966797,77.8609848022461,4.089950338827963,0.3031481545210397,-92.49892619675919,-2.4119823,-6.0882483,3.5716,18.507591,-16.564585,4.0657725,-28.612312,-11.058782,-5.498104,66.22364,-17.98456,-2.4365184,-6.8264985,-2.2390404,8.606072,-3.987091,16.77971,-20.3958,40.80237,-9.40456,3.3643625,-3.8941224,-2.0964046,-13.066551,22.813244,63.84281,6.128654,10.147305,1.3163903
17,-0.13569799065589905,-8.986525535583496,77.88468170166016,4.068182836614714,0.3055050314029072,-92.56202867998569,-1.2651039,-6.1095986,3.507848,17.401772,-16.56671,4.065504,-29.247633,-10.995773,-5.7363415,63.798634,-17.764977,-2.3953445,-7.044258,-2.1538324,8.574042,-3.8970184,16.852278,-19.817196,38.972645,-9.737562,3.622358,-3.907099,-1.5338005,-13.323396,22.641012,63.782516,6.20633,10.177033,1.3096061
18,-0.16878101229667664,-9.686799049377441,77.88774871826172,4.054533374575884,0.3274370591075022,-92.56460503590634,-0.17172685,-6.1552234,3.3901722,16.337788,-16.55619,4.0885983,-29.817759,-10.949778,-6.014823,61.23545,-17.49364,-2.311514,-7.2910047,-2.0793338,8.531636,-3.789159,16.915663,-19.20715,37.042625,-10.075074,3.9359825,-3.9544945,-0.97197974,-13.575586,22.423351,63.689053,6.32593,10.19866,1.2652916
19,-0.19400067627429962,-10.365758895874023,77.875244140625,4.042736675648298,0.36238087401980973,-92.52420034967328,0.8687502,-6.207923,3.2356136,15.338301,-16.561913,4.108899,-30.324415,-10.897138,-6.3116717,58.55641,-17.172808,-2.2019658,-7.555304,-2.0069335,8.482359,-3.6771278,16.97207,-18.596573,35.078026,-10.372281,4.232526,-4.0083175,-0.4143058,-13.821604,22.156893,63.578804,6.4535117,10.217708,1.21755
20,-0.22730496525764465,-11.03877067565918,77.83981323242188,4.028193518698167,0.40391432786616255,-92.45797976480812,1.857342,-6.250309,3.0615282,14.423851,-16.613148,4.0995855,-30.767862,-10.814551,-6.605419,55.779427,-16.80341,-2.0844595,-7.8245115,-1.9290124,8.43018,-3.5765562,17.025318,-18.019304,33.145435,-10.586555,4.4387584,-4.041839,0.13557647,-14.058607,21.836185,63.469044,6.5540524,10.239667,1.2003707
21,-0.25606539845466614,-11.718631744384766,77.78670501708984,4.011236314365135,0.45150986527248105,-92.35658563131355,2.7833066,-6.2851543,2.8617845,13.610307,-16.716845,4.055151,-31.147255,-10.732667,-6.913728,52.891228,-16.39356,-1.9906399,-8.107649,-1.8464572,8.375719,-3.4875445,17.078417,-17.480536,31.237045,-10.732615,4.5286965,-4.051081,0.6778347,-14.284771,21.439924,63.355682,6.6171503,10.268815,1.2425652
22,-0.2644042670726776,-12.38298511505127,77.72119140625,3.9941477848932943,0.5082226689702634,-92.21466182089578,3.654194,-6.3183208,2.6298504,12.873829,-16.855429,3.9893937,-31.463818,-10.659042,-7.2357507,49.88671,-15.938268,-1.907155,-8.4062195,-1.7639517,8.317607,-3.4030774,17.131603,-16.966326,29.323473,-10.826118,4.543358,-4.05016,1.2146099,-14.499759,20.97572,63.23276,6.660831,10.301187,1.3195118
23,-0.2876468002796173,-13.05400562286377,77.65312957763672,3.973343077543031,0.5725440116055371,-92.05566314626397,4.4868226,-6.3385844,2.3843303,12.200373,-17.02604,3.905054,-31.714144,-10.537591,-7.522033,46.78035,-15.420597,-1.7870125,-8.698598,-1.6789018,8.25748,-3.3270397,17.183222,-16.479082,27.437626,-10.824524,4.509284,-4.0405264,1.7463657,-14.699572,20.483047,63.11292,6.693782,10.330097,1.3857024
24,-0.3205759823322296,-13.739336967468262,77.5784912109375,3.945781351926301,0.6424048529988506,-91.90244802534242,5.306695,-6.3365436,2.1427119,11.558873,-17.222378,3.8059878,-31.893888,-10.31571,-7.7211895,43.584213,-14.821913,-1.5852544,-8.96412,-1.5905373,8.196096,-3.265422,17.230919,-16.020555,25.616858,-10.684894,4.4530935,-4.0233583,2.2684767,-14.879696,20.003487,63.01536,6.7250767,10.3482895,1.3944548
25,-0.35940495133399963,-14.42375373840332,77.49071502685547,3.9095284701813435,0.7188928257123899,-91.75737055455345,6.1113124,-6.3121314,1.9043036,10.955962,-17.451553,3.6964042,-31.993652,-9.969496,-7.8078184,40.24434,-14.108959,-1.2919718,-9.20006,-1.4999053,8.133267,-3.225197,17.273607,-15.5892725,23.872149,-10.397592,4.352537,-4.0120225,2.7770643,-15.035722,19.537933,62.950844,6.7655435,10.348223,1.3147032
26,-0.3986670970916748,-15.109380722045898,77.38714599609375,3.87201183277144,0.8000583407368574,-91.60621910397442,6.8957043,-6.2747602,1.6589403,10.396767,-17.711487,3.5761123,-32.006752,-9.552317,-7.8026524,36.750874,-13.293893,-0.9429196,-9.421199,-1.4120244,8.068876,-3.203527,17.311743,-15.183171,22.186888,-9.983466,4.2030663,-4.001164,3.2710679,-15.166093,19.070303,62.913975,6.8070474,10.335194,1.1762002
27,-0.4567539393901825,-15.80624008178711,77.27536010742188,3.8372736676927017,0.8783716081895899,-91.4469516731321,7.6824245,-6.230161,1.4086605,9.849501,-17.981873,3.4424193,-31.927782,-9.120836,-7.728658,33.17344,-12.420254,-0.5570259,-9.634216,-1.3330512,8.004573,-3.192474,17.345089,-14.803379,20.559547,-9.445151,4.0569763,-3.963528,3.747231,-15.273655,18.618423,62.901573,6.832305,10.320866,1.0235338
28,-0.5122884511947632,-16.506425857543945,77.1488037109375,3.811100600851762,0.9460711671326556,-91.27717580805064,8.493311,-6.184397,1.15569,9.285588,-18.244696,3.2919338,-31.755074,-8.72062,-7.614624,29.58984,-11.533284,-0.14433236,-9.846743,-1.2687941,7.942567,-3.181054,17.37297,-14.449077,18.984076,-8.784909,3.9690924,-3.8730721,4.2044086,-15.362853,18.200602,62.906887,6.8247466,10.317233,0.90153116
29,-0.5767703652381897,-17.214466094970703,77.00891876220703,3.802596999104503,0.9980602342798762,-91.09451948774074,9.35343,-6.1473866,0.8975986,8.663695,-18.482634,3.1145794,-31.445984,-8.331592,-7.4691043,25.902212,-10.59788,0.36235097,-10.063927,-1.2294916,7.8819866,-3.1636083,17.39448,-14.116607,17.449368,-7.999156,3.9662726,-3.7086785,4.647878,-15.437234,17.818985,62.924984,6.7744102,10.329762,0.8199354
30,-0.6440719366073608,-17.934144973754883,76.85831451416016,3.8197907774098905,1.02945724112714,-90.88704993779226,10.268974,-6.1282763,0.6180731,7.9807744,-18.693844,2.9188318,-30.984697,-7.959816,-7.280064,22.063797,-9.583591,0.9495279,-10.295164,-1.2231187,7.8284774,-3.1470807,17.410105,-13.806328,15.960597,-7.0881143,4.018294,-3.4914136,5.0788507,-15.497715,17.466057,62.956474,6.6935115,10.351931,0.7558324
31,-0.7136484384536743,-18.6567325592041,76.70024871826172,3.8634607376925603,1.033977318977142,-90.63858790041613,11.111755,-6.1274014,0.3113715,7.514906,-19.012642,2.7269757,-30.414637,-7.669075,-7.059753,18.234869,-8.542299,1.4995433,-10.555929,-1.2572309,7.7802324,-3.149245,17.416914,-13.531903,14.562825,-6.05516,4.0917892,-3.2517378,5.4716682,-15.52259,17.160315,63.037964,6.6033893,10.374921,0.6955464
32,-0.7835378050804138,-19.38572120666504,76.53215789794922,3.925372918130744,1.0124558680933566,-90.34255896006127,11.77465,-6.1361866,-0.02148259,7.4848256,-19.542034,2.558218,-29.807371,-7.496856,-6.8257313,14.621101,-7.538434,1.9021742,-10.844585,-1.3068635,7.7774777,-3.1516125,17.427704,-13.276158,13.210917,-4.9103885,4.1559353,-3.047179,5.8569784,-15.560457,16.859335,63.091198,6.495663,10.399058,0.6595095
33,-0.8538549542427063,-20.104887008666992,76.36195373535156,3.9830476456237784,0.9584702608286102,-89.990665327416,12.468769,-6.131188,-0.4099003,7.4585934,-20.062378,2.4225662,-29.132742,-7.4182243,-6.557749,11.152192,-6.573174,2.090482,-11.174702,-1.3611995,7.8029604,-3.1823804,17.432348,-13.06955,11.963569,-3.5799947,4.215467,-2.8516486,6.199364,-15.578254,16.617167,63.18622,6.397208,10.417002,0.6273512
34,-0.9065427780151367,-20.834409713745117,76.1803970336914,4.038631138663778,0.8815801919258237,-89.59784722341385,13.185031,-6.1130104,-0.83835906,7.4348254,-20.574911,2.3038516,-28.289165,-7.373655,-6.281935,7.570412,-5.5127687,2.155521,-11.528306,-1.4173701,7.8609967,-3.2281532,17.43432,-12.893207,10.783844,-2.0839164,4.285029,-2.6645198,6.5158753,-15.591417,16.399918,63.291187,6.2822237,10.434155,0.6108411
35,-0.9813563227653503,-21.564176559448242,75.99430847167969,4.1022393348466,0.8209195612642739,-89.21211920620088,13.882577,-6.090924,-1.2592123,7.4180255,-21.062489,2.1857195,-28.763039,-7.477332,-5.883975,6.9854665,-5.899192,2.2122347,-11.862024,-1.4784757,7.9090033,-3.27973,17.433773,-12.738868,9.678907,-0.5749966,4.335139,-2.4994373,6.812546,-15.600425,16.208046,63.396263,6.1672955,10.453341,0.6087534
36,-1.077985167503357,-22.29837417602539,75.80484008789062,4.183757874201792,0.8140250132120876,-88.88064155548615,14.523553,-6.0754366,-1.6249344,7.408672,-21.508093,2.0519788,-29.386618,-7.571441,-5.5827208,6.888263,-6.301374,2.3596675,-12.135914,-1.5513695,7.8971095,-3.3341386,17.432772,-12.603703,8.671648,0.79186684,4.334339,-2.3618917,7.085102,-15.601983,16.056917,63.510014,6.0781937,10.4765835,0.6146624
37,-1.180722951889038,-23.02660369873047,75.59620666503906,4.29056883323185,0.8924104294155379,-88.62495217646625,15.072669,-6.075724,-1.9108102,7.4070187,-21.913204,1.8860233,-29.979523,-7.6564803,-5.465653,6.826299,-6.435447,2.6659846,-12.326734,-1.637161,7.799895,-3.3930266,17.434238,-12.483763,7.7541757,2.0350802,4.2516365,-2.254471,7.3301654,-15.594658,15.94253,63.637157,6.014636,10.499823,0.6338543
38,-1.2775665521621704,-23.760061264038086,75.39627838134766,4.404027076978362,1.0378644048563428,-88.43060085895208,15.54976,-6.073287,-2.1288958,7.412919,-22.288013,1.697731,-30.530558,-7.728315,-5.4738984,6.788298,-6.3534064,3.0492914,-12.445714,-1.7197369,7.634838,-3.4696448,17.437569,-12.395645,6.939753,3.2112339,4.108778,-2.158813,7.550563,-15.582449,15.874477,63.777866,5.9793754,10.523966,0.6648598
39,-1.3808531761169434,-24.495901107788086,75.2027587890625,4.501872727021676,1.2106439715271304,-88.28872949497573,16.002684,-6.0465226,-2.289181,7.428042,-22.619514,1.5116187,-30.99259,-7.751471,-5.4901595,6.772439,-6.1069856,3.3781788,-12.510913,-1.7821094,7.457659,-3.5241907,17.442408,-12.303827,6.187804,4.24497,3.9543228,-2.0982454,7.7362714,-15.561392,15.826239,63.919994,5.9420485,10.553648,0.70296067
40,-1.4845988750457764,-25.222991943359375,75.02532196044922,4.561207587215688,1.3718045113968833,-88.19185729101737,16.47929,-5.9741697,-2.4005828,7.453207,-22.892262,1.3520316,-31.318161,-7.6885104,-5.398694,6.775809,-5.7500544,3.5260959,-12.530025,-1.8065175,7.2937093,-3.5712392,17.444479,-12.229162,5.542868,5.037988,3.8340137,-2.0582488,7.897306,-15.540992,15.813185,64.05646,5.9243097,10.59402,0.7411272
41,-1.5802677869796753,-25.96243667602539,74.84796905517578,4.586664359975182,1.504956748520822,-88.1433437140646,17.00207,-5.8677244,-2.4633253,7.4877515,-23.117096,1.2265939,-31.475395,-7.538881,-5.1537623,6.807154,-5.306262,3.454283,-12.528237,-1.8108728,7.1587596,-3.5724883,17.441025,-12.117372,4.9754157,5.5473275,3.7523174,-2.0679836,7.9855247,-15.495885,15.869801,64.23086,5.928952,10.647054,0.77011555
42,-1.68442702293396,-26.698169708251953,74.68504333496094,4.585914097931501,1.6338733248305297,-88.14723809944981,17.542412,-5.7358956,-2.470018,7.531933,-23.29664,1.121184,-31.500854,-7.3194547,-4.8225827,6.871087,-4.745641,3.2406888,-12.457594,-1.7856032,7.0289383,-3.585465,17.430737,-12.044186,4.5231805,5.810887,3.6871643,-2.096316,8.071762,-15.467292,15.959528,64.37811,5.9660854,10.714292,0.8080416
43,-1.7928279638290405,-27.457962036132812,74.52104187011719,4.538549765532164,1.7764469587541731,-88.19227875311633,18.072542,-5.5496116,-2.4225729,7.5894413,-23.411499,1.0266393,-31.444382,-7.017247,-4.4645767,6.958886,-4.042632,2.9366257,-12.36886,-1.7070786,6.8929467,-3.5633311,17.407719,-11.9500475,4.1519747,5.941696,3.6410239,-2.15656,8.107568,-15.432185,16.08249,64.54576,5.9965415,10.782466,0.8389462
44,-1.8919093608856201,-28.223430633544922,74.374267578125,4.42465997535639,1.9484441849582732,-88.26362280769565,18.567074,-5.280891,-2.326199,7.665094,-23.44326,0.9331485,-31.777222,-6.6556973,-4.091118,7.953239,-3.6463382,2.5877612,-12.257772,-1.5465242,6.748171,-3.5159166,17.377676,-11.856617,3.8584428,6.0285506,3.6187425,-2.238211,8.128474,-15.392921,16.173193,64.69319,5.9757504,10.84721,0.8626775
45,-1.9831838607788086,-28.99176788330078,74.23545837402344,4.2238646040280745,2.1660233188104727,-88.36391551386913,19.008589,-4.9117374,-2.165324,7.7640524,-23.409992,0.82829994,-32.939342,-6.2316546,-3.6712875,10.797879,-4.0098906,2.1835673,-12.130833,-1.2823015,6.581324,-3.4422898,17.328176,-11.744926,3.6397018,6.066972,3.6381526,-2.3640096,8.102166,-15.323459,16.222342,64.86921,5.8699017,10.904317,0.8615184
46,-2.100468158721924,-29.748868942260742,74.12665557861328,3.9576309415829605,2.403749291534355,-88.47566420904606,18.81143,-4.490783,-1.9151707,9.192544,-24.005836,0.718114,-34.018993,-5.707521,-3.3033514,13.640019,-4.1748986,1.7245325,-11.979994,-0.94127464,6.4182487,-3.3522077,17.285192,-11.6525545,3.4872444,5.995302,3.6936855,-2.5198364,8.077698,-15.255975,16.221052,65.01041,5.7046576,10.961618,0.8574733
47,-2.225911855697632,-30.532772064208984,74.0302734375,3.6592544003635448,2.6240796110520446,-88.56505948839738,18.553308,-4.024108,-1.6798967,10.803258,-24.584541,0.6188334,-34.975327,-5.1459446,-3.0173523,16.351984,-4.1582437,1.2506629,-11.850768,-0.57453144,6.260136,-3.2617607,17.22453,-11.575721,3.4698577,5.9085827,3.7505472,-2.6779933,8.015857,-15.146181,16.218077,65.17448,5.52669,11.0113945,0.84102654
48,-2.3784446716308594,-31.34425926208496,73.93197631835938,3.349571052675975,2.80045610433054,-88.61069840037743,18.293116,-3.525235,-1.5005178,12.523837,-25.069584,0.5442938,-35.76355,-4.600033,-2.8353965,18.777645,-3.9653437,0.7843967,-11.755411,-0.2057884,6.13271,-3.1591952,17.175621,-11.54132,3.5803816,5.8477426,3.7746718,-2.7935467,7.9689445,-15.040466,16.22823,65.27773,5.390883,11.056637,0.8444735
49,-2.5103108882904053,-32.149024963378906,73.84911346435547,2.9992821619895387,2.9437928706573047,-88.5986318676249,18.030983,-2.953287,-1.38233,14.34175,-25.484735,0.47168386,-36.40575,-4.067305,-2.768499,20.912601,-3.5154982,0.2574795,-11.70169,0.19348699,6.020141,-3.0574746,17.132809,-11.5628395,3.8500285,5.8140006,3.738875,-2.8473291,7.9350376,-14.918433,16.245413,65.33002,5.301338,11.097442,0.8586612
50,-2.6422979831695557,-32.964111328125,73.7740707397461,2.5927294321653287,3.0711090614467347,-88.54684141854501,17.744272,-2.296456,-1.3025413,16.270088,-25.84664,0.3972998,-36.94212,-3.5274093,-2.8079202,22.870235,-2.8600407,-0.3370453,-11.676254,0.64526546,5.920811,-2.9456766,17.09985,-11.626569,4.247802,5.774694,3.6674895,-2.8619626,7.910961,-14.787898,16.260014,65.33221,5.2344213,11.134952,0.88253075
51,-2.7924752235412598,-33.80493927001953,73.69383239746094,2.1672403233709203,3.170536354371984,-88.48981497178443,17.415335,-1.6085273,-1.2463025,18.348045,-26.097599,0.36128324,-37.356678,-2.9987526,-2.934155,24.66976,-2.200129,-0.8959596,-11.662861,1.1068949,5.8470426,-2.8141763,17.068956,-11.699849,4.7564125,5.77046,3.6024213,-2.868563,7.856829,-14.651829,16.308683,65.32738,5.19561,11.162603,0.9199769
52,-2.955502510070801,-34.64664840698242,73.62537384033203,1.7610828541150938,3.2302767634902936,-88.46228577904739,17.034153,-0.94669086,-1.1957132,20.600075,-26.177172,0.40004137,-37.630795,-2.4943433,-3.1187718,26.324627,-1.7384537,-1.3125135,-11.647784,1.5379949,5.810487,-2.6497612,17.028833,-11.745992,5.3554177,5.842816,3.5853155,-2.8993852,7.735634,-14.516483,16.430737,65.35371,5.1927443,11.174358,0.97591543
53,-3.1140918731689453,-35.49026107788086,73.56485748291016,1.3730571824569517,3.2444569054140615,-88.47376043554644,16.618052,-0.31678373,-1.1495715,23.024801,-26.087982,0.50625193,-37.762314,-2.0094175,-3.3651114,27.863428,-1.5296302,-1.50555,-11.633894,1.9419732,5.8134894,-2.442555,16.970192,-11.749639,6.0474906,6.0134344,3.626252,-2.968773,7.5383883,-14.388862,16.647936,65.424675,5.2516046,11.165181,1.055397
54,-3.258852005004883,-36.32749557495117,73.52568817138672,0.9832172045840406,3.2244333940690075,-88.51162486954433,16.176975,0.30483827,-1.1050762,25.580282,-25.839598,0.65155137,-37.776478,-1.5425695,-3.6679323,29.30473,-1.4852947,-1.5615921,-11.62468,2.3452368,5.845487,-2.1991138,16.890423,-11.725599,6.840998,6.2613964,3.7022603,-3.0600226,7.2849803,-14.270016,16.939888,65.51689,5.3627205,11.140299,1.1555151
55,-3.3913822174072266,-37.155704498291016,73.51568603515625,0.6052904805523182,3.1827057225367867,-88.57622427472282,15.679523,0.90123475,-1.0412333,28.25486,-25.385561,0.8434797,-37.69196,-1.1018915,-3.984513,30.63936,-1.5889384,-1.6107306,-11.605942,2.7371652,5.8983474,-1.9355905,16.790668,-11.686509,7.728078,6.562901,3.8050914,-3.1576984,6.980651,-14.158065,17.278913,65.61645,5.4785757,11.108245,1.2683848
56,-3.5193097591400146,-37.983253479003906,73.5199966430664,0.25440393938878036,3.1301059985901953,-88.66633664789059,15.095222,1.4577186,-0.94109684,31.036095,-24.679495,1.0907669,-37.522556,-0.6849514,-4.277836,31.839478,-1.8154252,-1.7724949,-11.56411,3.1033502,5.965171,-1.6665905,16.674755,-11.645805,8.699717,6.8939667,3.9271426,-3.2460887,6.6289043,-14.050081,17.638897,65.71181,5.5536966,11.076937,1.385203
57,-3.6354358196258545,-38.81204605102539,73.54414367675781,-0.05756868116192665,3.055155297014906,-88.7917228754693,14.418525,1.9560742,-0.7833829,33.966473,-23.666733,1.4310356,-37.265797,-0.2847585,-4.540445,32.911095,-2.1849856,-2.0977268,-11.494576,3.4307582,6.0579796,-1.3779387,16.5406,-11.59489,9.753123,7.302791,4.088269,-3.3251417,6.21996,-13.945004,17.993422,65.81995,5.5522723,11.0523615,1.5633335
58,-3.768380641937256,-39.63787078857422,73.58496856689453,-0.3366277520610091,2.9557852454408162,-88.95051844545851,13.667392,2.4045072,-0.5766213,37.025654,-22.376003,1.8381184,-36.91833,0.11108186,-4.7887473,33.858467,-2.6957772,-2.5060432,-11.401442,3.725874,6.174219,-1.0682514,16.387234,-11.533011,10.893952,7.7846146,4.2851954,-3.4024117,5.7574778,-13.84214,18.360714,65.9409,5.505504,11.0287075,1.7873405
59,-3.8984694480895996,-40.4608154296875,73.6387939453125,-0.5952864193233048,2.8568576849672356,-89.12396913042599,12.823097,2.8311002,-0.35627013,40.159313,-20.906174,2.2346206,-36.493645,0.5143456,-5.023863,34.6503,-3.2902462,-2.9196837,-11.285568,4.0009704,6.2866774,-0.7684019,16.224606,-11.485083,12.123429,8.233825,4.4759836,-3.4719746,5.2644076,-13.737994,18.78299,66.03704,5.4677525,10.996129,1.9388679
60,-4.028653144836426,-41.268043518066406,73.71717834472656,-0.8461725010818819,2.7835869424262762,-89.29431409943065,11.864144,3.2633083,-0.16473685,43.32561,-19.364752,2.5502489,-36.00603,0.92852455,-5.2443285,35.263,-3.918418,-3.2630525,-11.146908,4.2643304,6.369409,-0.5066384,16.069653,-11.476487,13.438784,8.541776,4.619696,-3.5257487,4.761967,-13.628224,19.300262,66.071655,5.4914856,10.945035,1.899524
61,-4.159669876098633,-42.073081970214844,73.8128433227539,-1.0939014151212845,2.745524104020937,-89.47673201967596,10.755426,3.7160692,-0.010980914,46.599194,-17.719992,2.8183901,-35.443626,1.3625499,-5.448626,35.666035,-4.6122813,-3.5222375,-10.967252,4.514334,6.409126,-0.27512303,15.936265,-11.510659,14.83944,8.723588,4.7098484,-3.567834,4.259107,-13.503325,19.987854,66.03462,5.609277,10.865173,1.5315887
62,-4.347977638244629,-42.85810470581055,73.8965835571289,-1.3287661941958901,2.7283916020575334,-89.67584799633296,9.510684,4.1664085,0.119815156,49.987843,-15.940946,3.061752,-34.80696,1.8079774,-5.631555,35.88882,-5.388981,-3.7372987,-10.754152,4.737093,6.4227467,-0.051973756,15.827977,-11.571596,16.313274,8.816771,4.7679667,-3.5994663,3.7390544,-13.359156,20.806007,65.94886,5.785529,10.762207,0.93339545
63,-4.513521671295166,-43.65907669067383,74.01992797851562,-1.5435430154125305,2.72159345865602,-89.85814100706575,8.175155,4.5894194,0.21343125,53.37396,-14.150781,3.2073615,-34.126797,2.2382271,-5.7872934,35.997402,-6.1787205,-3.9125376,-10.541792,4.92764,6.430952,0.14801416,15.743938,-11.66217,17.845995,8.743756,4.794942,-3.6065893,3.1891162,-13.200754,21.618587,65.82032,5.973635,10.652526,0.34243956
64,-4.653655529022217,-44.443355560302734,74.1634750366211,-1.731650596244927,2.714340281477901,-89.99047090367597,6.7899675,4.9630575,0.2532837,56.65575,-12.485378,3.1921723,-33.43137,2.6275647,-5.9125905,36.053574,-6.9093103,-4.0524893,-10.359469,5.084011,6.454791,0.30470434,15.679578,-11.790725,19.427986,8.427659,4.7913895,-3.5743072,2.6004016,-13.039483,22.28397,65.65058,6.1271157,10.55449,-0.0030696495
65,-4.78505802154541,-45.20090866088867,74.29456329345703,-1.8788116496325273,2.7096245292810393,-90.05288911422896,5.3023014,5.270228,0.1993758,59.925865,-10.83709,2.9686408,-32.733395,2.954957,-5.9953465,36.07763,-7.574564,-4.1487274,-10.218332,5.1958094,6.499523,0.3953488,15.631561,-11.971245,21.08405,7.759784,4.7407494,-3.4620779,1.9751378,-12.883023,22.724968,65.41221,6.220698,10.487385,0.014982748
66,-4.913377285003662,-45.94921112060547,74.42942810058594,-1.9919344738997196,2.711024827335794,-90.06786242863738,3.7034812,5.527565,0.06465911,63.230587,-9.20032,2.605678,-32.013554,3.2366986,-6.042037,36.034443,-8.208926,-4.202588,-10.091969,5.2699146,6.5551896,0.42844316,15.59913,-12.205756,22.816639,6.8104954,4.645747,-3.2896178,1.3245884,-12.733334,23.01814,65.10614,6.281718,10.435519,0.25322646
67,-5.035935878753662,-46.68354415893555,74.56657409667969,-2.098847649074106,2.7096120238949624,-90.06579177286835,2.0966368,5.779127,-0.08047283,66.405426,-7.857169,2.2186787,-31.254282,3.5064874,-6.078256,35.90429,-8.799895,-4.2325473,-9.960492,5.333858,6.6204505,0.43524167,15.58017,-12.477535,24.580118,5.772249,4.5382013,-3.133634,0.65511006,-12.594022,23.260338,64.76421,6.3453383,10.376487,0.5563454
68,-5.158492565155029,-47.409881591796875,74.69666290283203,-2.229000003577937,2.696261340008569,-90.07656478222515,0.58700305,6.077728,-0.16025308,69.274025,-7.08775,1.9150368,-30.437902,3.7997603,-6.1294928,35.665455,-9.33394,-4.256859,-9.806027,5.4187016,6.6944823,0.4470835,15.571058,-12.766738,26.329767,4.8370905,4.452229,-3.0697346,-0.0273005,-12.467074,23.550268,64.42103,6.446945,10.28379,0.7705295
69,-5.278486251831055,-48.11906814575195,74.82852935791016,-2.4066036781093842,2.676572842410472,-90.10173904413053,-0.79616493,6.5208664,-0.10416641,71.80977,-7.087342,1.7264562,-29.56592,4.1356187,-6.2209034,35.302437,-9.802214,-4.2784805,-9.631848,5.5516367,6.7742496,0.46328947,15.570129,-13.068286,28.062645,4.044335,4.4054446,-3.1411827,-0.7296636,-12.3540745,23.902264,64.081924,6.6090813,10.144154,0.8901784
70,-5.38561487197876,-48.81786346435547,74.96814727783203,-2.6137314855907703,2.652826093951389,-90.12744654543492,-2.1111429,7.0742116,0.031557262,74.10814,-7.668509,1.5997717,-28.643038,4.4951496,-6.332822,34.823406,-10.209809,-4.2878156,-9.449914,5.714324,6.860922,0.4734142,15.576919,-13.386361,29.799639,3.2966402,4.379318,-3.3002613,-1.4530859,-12.255581,24.273617,63.726837,6.809651,9.975781,0.9858976
71,-5.48574686050415,-49.533973693847656,75.11278533935547,-2.8165404921839654,2.6116530427431432,-90.16006612930842,-3.3849256,7.5843587,0.13830625,76.16817,-8.534552,1.5002198,-27.660543,4.855984,-6.4237533,34.250004,-10.568106,-4.284301,-9.253981,5.871071,6.9609833,0.493898,15.588584,-13.716586,31.526075,2.5809426,4.3579583,-3.4850857,-2.186898,-12.16853,24.67671,63.363968,7.0186224,9.791522,1.018946
72,-5.591373920440674,-50.26109313964844,75.28302764892578,-2.9808063890694547,2.5393263854213224,-90.20578719900915,-4.6446905,7.8871408,0.1146804,77.98355,-9.387039,1.3891113,-26.609758,5.1943054,-6.453408,33.603954,-10.888357,-4.268333,-9.039914,5.986079,7.081207,0.5419248,15.601417,-14.051706,33.228058,1.8853745,4.3236656,-3.6348062,-2.9214544,-12.091658,25.124489,63.001457,7.203635,9.604753,0.9497768
73,-5.691954135894775,-50.9775505065918,75.46216583251953,-3.1002837097671287,2.4215531157079284,-90.27270643643052,-5.882556,7.909431,-0.07602508,79.53785,-10.244931,1.2687534,-25.467287,5.5095577,-6.4052134,32.87598,-11.169084,-4.2352815,-8.804473,6.050419,7.229876,0.62100244,15.615073,-14.399341,34.91397,1.2112253,4.2726135,-3.7267542,-3.6678162,-12.021295,25.672823,62.659092,7.37278,9.38637,0.70350695
74,-5.76420259475708,-51.67306137084961,75.6414566040039,-3.1938893560298354,2.2686853882911002,-90.35579274717608,-7.0887794,7.7423997,-0.36453605,80.83858,-11.233001,1.1474744,-24.244501,5.8120174,-6.303557,32.061222,-11.406813,-4.187665,-8.553478,6.085249,7.401912,0.7230703,15.630476,-14.755598,36.5881,0.5645495,4.2132635,-3.7961109,-4.4303927,-11.954081,26.300985,62.3302,7.536626,9.138859,0.32209867
75,-5.859663009643555,-52.389705657958984,75.82693481445312,-3.2631130816851117,2.1049074208604837,-90.44056652232526,-8.288111,7.463284,-0.6926977,81.907074,-12.204937,0.9976354,-22.984758,6.089688,-6.1700287,31.190092,-11.611135,-4.135964,-8.292156,6.094385,7.5811176,0.84274983,15.645818,-15.102113,38.23712,-0.058298238,4.1458693,-3.8675683,-5.1947074,-11.888582,26.903847,61.994453,7.6690316,8.922355,-0.06119822
76,-5.940791130065918,-53.10115051269531,76.01289367675781,-3.3100805981044235,1.9542559341895427,-90.51332706296691,-9.506365,7.152001,-1.0054545,82.7651,-13.016323,0.79194957,-21.732725,6.3323493,-6.026486,30.292215,-11.790357,-4.0899053,-8.0253725,6.0806375,7.749393,0.9739606,15.659024,-15.421163,39.85093,-0.6609319,4.071209,-3.9649177,-5.949637,-11.821747,27.377604,61.639477,7.7457476,8.797567,-0.31536132
77,-6.002009391784668,-53.7984504699707,76.19424438476562,-3.326988627904655,1.8203870019895307,-90.5647605959249,-10.75376,6.7775626,-1.3221996,83.39699,-13.599637,0.4893005,-20.490032,6.525673,-5.8767433,29.36583,-11.943943,-4.046881,-7.756084,6.032996,7.9024506,1.1152742,15.668088,-15.704586,41.44233,-1.2200868,3.9692523,-4.106377,-6.706535,-11.743873,27.682533,61.277317,7.739001,8.819763,-0.39897984
78,-6.070491790771484,-54.492713928222656,76.37705993652344,-3.316274582553172,1.691030736102434,-90.60413169846491,-12.013386,6.3183794,-1.6599429,83.79446,-14.039889,0.11646034,-19.235168,6.678341,-5.7117047,28.397692,-12.068516,-4.0024924,-7.4768653,5.954166,8.048176,1.2634363,15.673048,-15.968893,43.02016,-1.7426063,3.8468235,-4.274104,-7.4666977,-11.660376,27.87262,60.914997,7.666764,8.94378,-0.3851085
79,-6.166343688964844,-55.19257354736328,76.5568618774414,-3.294782615685155,1.5669051414256465,-90.645113415845,-13.270939,5.868447,-1.9659086,83.99012,-14.418537,-0.2519472,-17.979725,6.81527,-5.5342555,27.405409,-12.171043,-3.9635973,-7.18809,5.863227,8.185487,1.4215648,15.677418,-16.222332,44.561283,-2.2755396,3.7447155,-4.438473,-8.21642,-11.573723,27.997139,60.5498,7.575847,9.078382,-0.31691504
80,-6.2272515296936035,-55.874908447265625,76.72529602050781,-3.278658125828142,1.44881855259174,-90.70094181043143,-14.514918,5.5219774,-2.1879513,84.01627,-14.814058,-0.5396258,-16.734314,6.9610105,-5.345732,26.40346,-12.257058,-3.9372606,-6.8899546,5.778295,8.31315,1.5924251,15.686825,-16.473757,46.041492,-2.8668082,3.703417,-4.5695763,-8.939898,-11.48718,28.102428,60.176647,7.5097165,9.132184,-0.23759724
81,-6.291133880615234,-56.56159591674805,76.87969970703125,-3.267920154608933,1.335413917965367,-90.77365603434639,-15.744063,5.2766075,-2.3282287,83.868164,-15.25928,-0.73310626,-15.497106,7.118272,-5.1446395,25.393291,-12.327753,-3.9308581,-6.5847464,5.699083,8.431606,1.7836318,15.70354,-16.726597,47.459377,-3.5668468,3.73171,-4.621495,-9.623775,-11.404011,28.182802,59.787758,7.4724827,9.07212,-0.1261238
82,-6.356316089630127,-57.23939514160156,77.0206527709961,-3.2547833498814804,1.2268043977462209,-90.85688501792329,-16.96353,5.094031,-2.4096665,83.528786,-15.703311,-0.8678599,-14.265678,7.274087,-4.929982,24.371872,-12.38105,-3.9380496,-6.271619,5.6146307,8.54075,1.9929582,15.728917,-16.976553,48.825363,-4.339387,3.807458,-4.6216516,-10.282201,-11.317364,28.218952,59.39321,7.4412637,8.949353,0.02928218
83,-6.437587738037109,-57.929073333740234,77.15843200683594,-3.2444213025534343,1.126324281164087,-90.95090120725332,-18.171713,5.0068493,-2.418873,83.01769,-16.111242,-0.9538037,-13.044342,7.4306693,-4.703749,23.337744,-12.417848,-3.9468083,-5.948749,5.5337987,8.644398,2.2107966,15.762573,-17.212936,50.12476,-5.099255,3.9256167,-4.652288,-10.928104,-11.236866,28.248533,58.984917,7.4329095,8.801738,0.17463917
84,-6.509300231933594,-58.610225677490234,77.28471374511719,-3.2411465027342334,1.0373067786874883,-91.05601859401466,-19.366749,5.045893,-2.3406885,82.35458,-16.447733,-1.0009419,-11.842553,7.5894914,-4.46836,22.30025,-12.439543,-3.9460802,-5.6126323,5.460843,8.744067,2.426473,15.808469,-17.429714,51.34373,-5.764027,4.0838814,-4.7951255,-11.580548,-11.15836,28.304426,58.56717,7.4602633,8.666375,0.25482652
85,-6.576704978942871,-59.272701263427734,77.394775390625,-3.250785400974559,0.9606886492324436,-91.17373283047756,-20.555517,5.249328,-2.1469574,81.542625,-16.708303,-1.0298285,-10.656241,7.7583747,-4.22332,21.244055,-12.437105,-3.9342258,-5.2608085,5.403955,8.842474,2.6300712,15.86709,-17.622368,52.47999,-6.3410473,4.3111296,-5.1124315,-12.2393,-11.086519,28.406431,58.13147,7.547626,8.55013,0.22014989
86,-6.643112659454346,-59.94479751586914,77.49053192138672,-3.2677303185278315,0.8946912795859034,-91.30383442540959,-21.732302,5.5842113,-1.8490413,80.5706,-16.9114,-1.0346469,-9.483227,7.93195,-3.9664092,20.172567,-12.413348,-3.9180167,-4.8959584,5.3560686,8.938549,2.8298957,15.937995,-17.794481,53.538925,-6.8637056,4.6016436,-5.5468287,-12.896157,-11.020146,28.534672,57.67772,7.6821556,8.434173,0.11213915
87,-6.722721576690674,-60.6114616394043,77.58829498291016,-3.2807428802535585,0.8387614394338927,-91.44344616871327,-22.874952,5.9751916,-1.4917043,79.43095,-17.055286,-0.9863037,-8.336255,8.093581,-3.6984007,19.122398,-12.389422,-3.9001555,-4.5273046,5.3052354,9.030404,3.042992,16.01511,-17.943653,54.51933,-7.2849026,4.899295,-6.0029306,-13.549633,-10.962687,28.667376,57.20705,7.8199267,8.318391,0.013467908
88,-6.758154392242432,-61.26473617553711,77.65035247802734,-3.2798098218625062,0.7923680457857907,-91.58987934814695,-23.964577,6.349354,-1.1210518,78.12174,-17.13838,-0.8531394,-7.229753,8.227218,-3.4215128,18.13384,-12.388355,-3.8835557,-4.16484,5.237033,9.116798,3.29168,16.098978,-18.067657,55.412838,-7.5608783,5.1463118,-6.387637,-14.201847,-10.911166,28.783901,56.72413,7.920226,8.202406,0.00636619
89,-6.810452938079834,-61.93040466308594,77.71154022216797,-3.2580809755414726,0.7523878308395723,-91.74451102147611,-24.996653,6.6940727,-0.7371837,76.63921,-17.17635,-0.59233737,-6.162489,8.32518,-3.1307151,17.213102,-12.413473,-3.859991,-3.8090384,5.1473107,9.199354,3.5777504,16.18176,-18.165531,56.228508,-7.632316,5.3240404,-6.702428,-14.847687,-10.870753,28.863224,56.227924,7.9648166,8.073173,0.15278845
90,-6.862975120544434,-62.596553802490234,77.76927185058594,-3.2234604100718425,0.7203224275725832,-91.90810537122057,-25.97714,7.043631,-0.31460854,74.98538,-17.16823,-0.23422319,-5.131388,8.397761,-2.8284943,16.346523,-12.457238,-3.8334072,-3.4539623,5.04517,9.277771,3.8873293,16.262745,-18.24089,56.97123,-7.5390077,5.461341,-6.9892592,-15.487557,-10.842747,28.9214,55.716232,7.979947,7.9355936,0.39546177
91,-6.901951313018799,-63.2548942565918,77.80540466308594,-3.186668860738817,0.7027553319521997,-92.0756047972317,-26.904507,7.3947415,0.12955908,73.166824,-17.09602,0.13728237,-4.140848,8.457244,-2.5292184,15.527498,-12.51669,-3.8233962,-3.09958,4.949747,9.344497,4.199979,16.325506,-18.299973,57.65499,-7.3801384,5.569202,-7.211051,-16.123297,-10.832336,28.989595,55.187847,7.9834857,7.8174706,0.6375647
92,-6.936241626739502,-63.90331268310547,77.8360824584961,-3.1604297323495194,0.7061787002069839,-92.2421143458233,-27.778294,7.7450395,0.57860124,71.18904,-16.938457,0.4402677,-3.1988719,8.515884,-2.2470834,14.756803,-12.591933,-3.847435,-2.7505336,4.859322,9.401731,4.537053,16.404928,-18.339842,58.23169,-7.264642,5.6651216,-7.341088,-16.756641,-10.8295145,29.100563,54.62852,7.9952984,7.7458935,0.78304625
93,-6.982112884521484,-64.56243133544922,77.853759765625,-3.147117554059102,0.7355124491319601,-92.40546508812048,-28.599592,8.108227,1.0505072,69.02966,-16.685377,0.6384089,-2.3166652,8.573192,-1.9896902,14.04197,-12.677679,-3.9126732,-2.4052167,4.781834,9.442978,4.879689,16.482662,-18.369621,58.718655,-7.213279,5.750413,-7.3389916,-17.398794,-10.839835,29.27239,54.037586,8.028145,7.747192,0.7887866
94,-7.007289886474609,-65.21145629882812,77.85920715332031,-3.140513453768402,0.7861888830939762,-92.56810230998664,-29.36708,8.477542,1.5495942,66.69319,-16.350021,0.7773625,-1.490385,8.626103,-1.7496264,13.387364,-12.779171,-4.0071154,-2.0638788,4.714293,9.471081,5.2292924,16.554922,-18.386953,59.12439,-7.1726418,5.8176227,-7.231547,-18.042025,-10.862795,29.484262,53.415707,8.067709,7.8005185,0.7118175
95,-7.025247097015381,-65.85868835449219,77.85382080078125,-3.1430678304241555,0.8500452100714108,-92.732191555165,-30.074308,8.821553,2.0377219,64.21488,-15.939985,0.9015463,-0.6945967,8.680611,-1.5157913,12.766079,-12.90014,-4.11704,-1.7275313,4.657649,9.487742,5.587899,16.617107,-18.380257,59.464367,-7.126598,5.8651476,-7.0782337,-18.675207,-10.895021,29.714012,52.785954,8.095709,7.8624625,0.60535026
96,-7.052473545074463,-66.51166534423828,77.8358383178711,-3.1557860899169126,0.91924926004719,-92.9000706041851,-30.719381,9.114025,2.4729688,61.634277,-15.4659195,1.0592542,0.09829247,8.742759,-1.276717,12.144745,-13.043721,-4.2283626,-1.403028,4.6092944,9.500302,5.9744673,16.677824,-18.328915,59.729866,-7.0596604,5.892811,-6.943146,-19.281347,-10.937731,29.944736,52.155235,8.095178,7.890434,0.5231955
97,-7.077865123748779,-67.16989135742188,77.80575561523438,-3.1767370763266753,0.9948331502412512,-93.07325221639762,-31.308601,9.372803,2.8678062,58.949673,-14.88885,1.2983931,0.8803292,8.809772,-1.0339714,11.536247,-13.218902,-4.339604,-1.0849684,4.5681973,9.505304,6.379705,16.729662,-18.236986,59.937332,-6.9509726,5.8888097,-6.825537,-19.869837,-10.988124,30.179308,51.54293,8.053296,7.8733625,0.46584946
98,-7.0965895652771,-67.83088684082031,77.76643371582031,-3.2054500964031556,1.0801555094794404,-93.25043297355901,-31.842981,9.60756,3.2360795,56.145782,-14.219404,1.5859411,1.6454179,8.878869,-0.7915743,10.943613,-13.419525,-4.453864,-0.7679258,4.535429,9.496544,6.789062,16.766113,-18.120586,60.098072,-6.8158584,5.8565145,-6.694721,-20.448324,-11.03713,30.41644,50.95086,7.9767957,7.8331227,0.40874952
99,-7.112507343292236,-68.49203491210938,77.71141815185547,-3.2462036648395256,1.1709820181596629,-93.4288557406747,-32.312138,9.786803,3.5299153,53.234516,-13.540401,1.8531355,2.4086318,8.956188,-0.5441888,10.349097,-13.629928,-4.5643024,-0.47515014,4.5125813,9.48621,7.238313,16.80288,-17.948925,60.166164,-6.684926,5.8197627,-6.5754323,-21.001507,-11.100799,30.664656,50.342358,7.8970814,7.7779646,0.36771706
100,-7.123728275299072,-69.15521240234375,77.64185333251953,-3.302946085348505,1.2626050944953413,-93.60622004316552,-32.708103,9.885237,3.6969323,50.227856,-12.926633,2.0357184,3.1772237,9.047955,-0.28689113,9.75354,-13.844623,-4.6656723,-0.18974309,4.5053153,9.46656,7.6996956,16.833221,-17.752043,60.172363,-6.6021175,5.7984324,-6.478103,-21.51416,-11.166507,30.872911,49.724327,7.8158765,7.7131066,0.35987732
101,-7.131805419921875,-69.82759857177734,77.55831146240234,-3.378176468144725,1.3624044039898382,-93.79171764760707,-33.036034,9.891437,3.6793761,47.087624,-12.4061165,2.1635048,3.9440427,9.158564,-0.008122946,9.1538725,-14.063724,-4.76011,0.09492274,4.5136914,9.42554,8.176169,16.854519,-17.51678,60.112034,-6.564473,5.8043847,-6.407679,-21.996183,-11.225244,31.038666,49.113316,7.730914,7.6185393,0.3997757
102,-7.154046058654785,-70.511474609375,77.46259307861328,-3.4693704026537984,1.4695129993281582,-93.98473048145003,-33.296196,9.843381,3.5079265,43.816044,-11.930406,2.273462,4.707304,9.283331,0.28755897,8.554525,-14.291537,-4.8485303,0.36445847,4.534109,9.374449,8.689059,16.872293,-17.22346,59.960835,-6.5503707,5.825091,-6.360498,-22.448416,-11.290496,31.190853,48.491653,7.6424675,7.498929,0.47445485
103,-7.159765720367432,-71.19837188720703,77.35936737060547,-3.574880804542193,1.5659136619949787,-94.16882902447044,-33.467484,9.784937,3.2629273,40.47088,-11.459456,2.3066502,5.502245,9.41632,0.5842365,7.930062,-14.5085125,-4.925557,0.6198386,4.568688,9.326325,9.2086315,16.884207,-16.924105,59.76116,-6.5862155,5.842147,-6.3250756,-22.869501,-11.351636,31.311857,47.8722,7.5558743,7.3932514,0.5593439
104,-7.18251895904541,-71.86927795410156,77.23428344726562,-3.6931214730212707,1.6331826052246585,-94.32844275607442,-33.5263,9.746942,3.0322819,37.099556,-10.948941,2.1923907,6.338104,9.551856,0.8622386,7.309032,-14.723317,-4.986456,0.85460377,4.618389,9.296249,9.715797,16.891125,-16.659618,59.545483,-6.6961107,5.8374624,-6.291117,-23.265686,-11.396993,31.395727,47.27219,7.4825845,7.3402767,0.6289827
105,-7.1990156173706055,-72.55403900146484,77.0993423461914,-3.828600893472607,1.6549198409579922,-94.45835970794496,-33.419167,9.708653,2.8088906,33.59673,-10.355317,1.835539,6.9642596,9.699238,1.0741013,7.261096,-15.245557,-5.0306473,1.0408374,4.688109,9.312498,10.247156,16.900856,-16.407383,59.259197,-6.907676,5.8183975,-6.2377005,-23.627401,-11.4446125,31.47184,46.64845,7.437612,7.364969,0.6702009
106,-7.20955228805542,-73.24844360351562,76.95913696289062,-3.9841841214360127,1.6401854079751366,-94.57332733566355,-33.150894,9.670936,2.5602386,29.927822,-9.690016,1.2981119,7.6449895,9.861795,1.2801869,7.20748,-15.771227,-5.0626264,1.2156512,4.7788906,9.35397,10.777083,16.911417,-16.186432,58.930576,-7.2111964,5.7897143,-6.171115,-23.960045,-11.4836855,31.510656,46.030537,7.4048176,7.440416,0.70010203
107,-7.218015193939209,-73.96025085449219,76.81184387207031,-4.150100897915837,1.6082930837043954,-94.68743170418907,-32.7952,9.67598,2.346215,26.261238,-8.995731,0.7313581,8.347242,10.027678,1.4868089,7.161029,-16.283491,-5.0813336,1.3903756,4.884036,9.402874,11.297434,16.91762,-15.972706,58.595,-7.5339723,5.7338114,-6.147998,-24.268734,-11.5105505,31.512835,45.440178,7.375396,7.534581,0.7349289
108,-7.208173751831055,-74.68060302734375,76.6602554321289,-4.3195151350697945,1.5791338289586383,-94.81119130305437,-32.44538,9.756827,2.2240303,22.805332,-8.332887,0.2790798,9.024911,10.18933,1.6950167,7.1589823,-16.784548,-5.088673,1.5456,4.9965343,9.458055,11.83999,16.920227,-15.693057,58.238792,-7.7869163,5.6364083,-6.236103,-24.552856,-11.54157,31.512394,44.859493,7.3553877,7.6174483,0.7905392
109,-7.22838020324707,-75.36471557617188,76.48469543457031,-4.514988474998936,1.5562357856285984,-94.94266299328424,-32.09108,9.920747,2.169035,19.49756,-7.699976,-0.05864785,9.689632,10.371436,1.9035313,7.1666207,-17.255215,-5.0860415,1.710328,5.1444426,9.497726,12.368395,16.91076,-15.371325,57.91701,-7.963413,5.46603,-6.495836,-24.815397,-11.56577,31.472475,44.32023,7.3210073,7.6884856,0.8748064
110,-7.220200538635254,-76.07010650634766,76.30902099609375,-4.740305316781371,1.5230546206964637,-95.08523579482205,-31.688828,10.148187,2.172881,16.26159,-7.0675035,-0.3598056,10.368046,10.579882,2.121937,7.1708198,-17.69686,-5.0774465,1.8767991,5.330248,9.540962,12.900202,16.891409,-15.010864,57.59616,-8.100003,5.241058,-6.881274,-25.054316,-11.58577,31.407331,43.80595,7.28337,7.762192,0.9770536
111,-7.197882175445557,-76.78639221191406,76.13755798339844,-4.982226759545356,1.4802098994514077,-95.2461442933923,-31.268923,10.430611,2.3013117,13.24173,-6.440249,-0.6031014,11.057637,10.796401,2.3597608,7.172725,-18.106108,-5.0654144,2.0206242,5.5379105,9.603236,13.445618,16.85156,-14.610506,57.252357,-8.198906,5.015732,-7.275424,-25.284237,-11.608755,31.357643,43.315247,7.2785087,7.826833,1.0900381
112,-7.170575141906738,-77.5062255859375,75.96659088134766,-5.217707072381464,1.438121884207763,-95.42178730098216,-30.877522,10.7413845,2.615147,10.598849,-5.829224,-0.76016045,11.744932,10.991552,2.6153877,7.1743217,-18.48021,-5.050715,2.1906006,5.74524,9.656004,13.931085,16.801956,-14.310873,56.946613,-8.317554,4.841446,-7.5408835,-25.485365,-11.625679,31.27301,42.87786,7.31284,7.866662,1.204492
113,-7.1386919021606445,-78.21977996826172,75.79918670654297,-5.430182115309388,1.4152506541589274,-95.59799564992645,-30.5291,11.065118,3.1932895,8.333654,-5.217326,-0.79546136,12.407959,11.145832,2.8677611,7.176533,-18.82686,-5.02869,2.3543432,5.9326143,9.695872,14.370462,16.740982,-14.097762,56.652454,-8.466339,4.730496,-7.628873,-25.669674,-11.64022,31.167973,42.494038,7.4114156,7.8607206,1.3249571
114,-7.101473331451416,-78.93465423583984,75.63626098632812,-5.618865353857341,1.4177030605398757,-95.76199907886837,-30.500881,11.392852,3.9248617,6.969042,-4.918575,-0.7300393,13.040641,11.263199,3.1017737,7.1801248,-19.146965,-4.9966455,2.5033348,6.0987372,9.715843,14.770217,16.673801,-13.947286,56.37094,-8.629025,4.6549244,-7.6122665,-25.830656,-11.652738,31.037327,42.152424,7.5572615,7.8219314,1.4527538
115,-7.0729217529296875,-79.63433074951172,75.4738998413086,-5.78181602136567,1.4413686574049933,-95.90674879715655,-30.97754,11.710181,4.6213903,6.9070725,-5.155673,-0.6177528,13.651008,11.345302,3.3162038,7.1845465,-19.42628,-4.9537354,2.6316476,6.243081,9.716033,15.119696,16.59175,-13.838336,56.13131,-8.759438,4.6063538,-7.554667,-25.960772,-11.66474,30.890219,41.83957,7.71993,7.78967,1.5781779
116,-7.045980453491211,-80.34162902832031,75.31671905517578,-5.922456101646518,1.4793468831767485,-96.02486124548989,-31.339878,11.954828,5.251618,6.8749533,-5.2613287,-0.50891143,14.243733,11.399568,3.5089989,7.2039223,-19.659119,-4.8998213,2.73721,6.3757553,9.69283,15.401177,16.481558,-13.765397,55.975018,-8.818793,4.576206,-7.5147557,-26.06112,-11.677958,30.740416,41.558395,7.8774104,7.8021126,1.6885505
117,-7.025268077850342,-81.05070495605469,75.16214752197266,-6.057077657093786,1.5226273661851994,-96.12582503073702,-31.566298,12.160164,5.8627644,6.8752112,-5.278049,-0.46089926,14.8148575,11.448542,3.6916535,7.2689266,-19.866194,-4.8426304,2.8362997,6.485873,9.65734,15.660156,16.412289,-13.732789,55.83709,-8.803457,4.5828743,-7.5225844,-26.11103,-11.680748,30.57223,41.270397,8.032195,7.8829455,1.7811115
118,-6.987776756286621,-81.76703643798828,75.0152816772461,-6.170795980708298,1.5821751051115722,-96.20685747421336,-31.671692,12.320291,6.50775,6.9059067,-5.186559,-0.42180443,15.365088,11.473217,3.8566082,7.350107,-20.035265,-4.7765493,2.9242134,6.5762796,9.599076,15.857774,16.33503,-13.746638,55.763615,-8.721814,4.619496,-7.5326014,-26.12666,-11.676617,30.377275,41.006176,8.184545,8.007968,1.8667914
119,-6.959156513214111,-82.48287963867188,74.8768539428711,-6.216804461986137,1.6735935990474557,-96.23891829636074,-31.700254,12.342899,7.045441,6.958551,-4.8951836,-0.277765,15.8779745,11.420342,3.9636943,7.44533,-20.156355,-4.685231,2.9686623,6.590289,9.517073,16.01795,16.270481,-13.783328,55.72238,-8.613661,4.6666718,-7.545763,-26.107256,-11.666263,30.179209,40.77207,8.334769,8.13746,1.9357423
120,-6.935491561889648,-83.2159194946289,74.74681854248047,-6.152789166858906,1.8088254879143773,-96.19817673276738,-31.972073,12.179384,7.2765355,7.608611,-4.6223745,0.07966677,16.344467,11.241439,3.9776466,7.550925,-20.213346,-4.5523667,2.951249,6.4859653,9.40897,16.130192,16.212309,-13.8292,55.723625,-8.509371,4.7007046,-7.555084,-26.052738,-11.651506,29.98178,40.584785,8.467693,8.232895,1.985879
121,-6.906393051147461,-83.97340393066406,74.63590240478516,-5.947485147847897,2.0006417174187945,-96.06621946930362,-32.977684,11.829901,7.049083,9.920098,-4.825231,0.78104025,16.631529,10.912058,3.8489258,7.9181013,-20.348484,-4.3719597,2.8502264,6.2283416,9.275254,16.193066,16.163006,-13.873924,55.76296,-8.409441,4.7179155,-7.5548635,-25.967093,-11.6346655,29.793768,40.43919,8.590461,8.282706,2.0087261
122,-6.870838165283203,-84.68353271484375,74.56806945800781,-5.643094485523237,2.218318063328233,-95.88522533346907,-34.06046,11.290316,6.6071477,12.590225,-4.8821115,1.7105594,16.358772,10.500304,3.5537653,9.415022,-21.023134,-4.151746,2.708526,5.866232,9.131523,16.207321,16.118477,-13.930603,55.84409,-8.298627,4.7294216,-7.54895,-25.844358,-11.61371,29.60366,40.328262,8.70041,8.308722,2.0109835
123,-6.835013389587402,-85.41767120361328,74.50421142578125,-5.29973012507646,2.418827997068342,-95.71082384361063,-35.0601,10.654933,6.073128,15.228118,-4.759737,2.613221,16.109491,10.031263,3.2686744,10.922199,-21.621185,-3.9026713,2.584116,5.4714675,8.987413,16.18007,16.062593,-14.01423,55.979137,-8.186152,4.734661,-7.5424604,-25.697104,-11.581832,29.410538,40.293854,8.7877445,8.321643,2.0089958
124,-6.795866012573242,-86.18375396728516,74.42974853515625,-4.959855875387846,2.581179163863218,-95.57588366616233,-35.865013,10.003158,5.5386066,17.505442,-4.4721045,3.2576249,15.9092655,9.548164,3.0356016,12.433538,-22.116142,-3.6276648,2.4954026,5.08356,8.854793,16.16385,16.01442,-14.10279,56.11452,-8.078422,4.73811,-7.55981,-25.50406,-11.552099,29.235989,40.308624,8.85465,8.332937,2.0125055
125,-6.751650810241699,-86.9676284790039,74.35652160644531,-4.6049120679426165,2.7267419737422447,-95.47274092914076,-36.486366,9.287411,4.8969536,19.352621,-3.9264467,3.5589623,15.739299,9.028597,2.843169,13.947763,-22.527052,-3.313502,2.443857,4.685189,8.7066,16.136433,15.96237,-14.210937,56.28464,-7.9764633,4.7308674,-7.6006236,-25.268799,-11.523286,29.070072,40.379436,8.889754,8.346475,2.0376546
126,-6.696597576141357,-87.76333618164062,74.29743194580078,-4.207906917891982,2.8694871939893773,-95.37844488575085,-37.008636,8.467976,4.13181,21.0082,-3.1896656,3.6489277,15.567134,8.448507,2.6605408,15.502987,-22.877108,-2.9576874,2.4055812,4.247575,8.542243,16.089703,15.907305,-14.334075,56.489063,-7.8753366,4.714692,-7.658284,-24.987715,-11.497111,28.911568,40.49558,8.896505,8.356504,2.072904
127,-6.632180690765381,-88.5762710571289,74.23851776123047,-3.791723368359337,2.987147153262733,-95.29306553658286,-37.44252,7.643781,3.4512312,22.61282,-2.5230153,3.6499538,15.410991,7.8405905,2.491717,17.100885,-23.132238,-2.57854,2.3841846,3.798314,8.384615,16.027748,15.8548765,-14.477463,56.70903,-7.7788954,4.7034845,-7.725611,-24.662472,-11.474112,28.757622,40.672447,8.8946295,8.357585,2.0950315
128,-6.559139251708984,-89.40201568603516,74.18296813964844,-3.3836285527471928,3.0554168297176143,-95.21924043409284,-37.798813,6.9298835,3.0619533,24.303831,-2.1837406,3.6995778,15.288608,7.240427,2.3435702,18.743248,-23.256428,-2.197531,2.3850238,3.3696268,8.257714,15.954532,15.809024,-14.646032,56.927036,-7.690958,4.7109113,-7.795037,-24.28923,-11.451855,28.60076,40.92348,8.893201,8.344353,2.081033
129,-6.489711761474609,-90.24119567871094,74.13191223144531,-3.0037183833804275,3.0628357909428336,-95.17264282624969,-38.109634,6.423416,3.0581365,26.221601,-2.3553903,3.8461254,15.23532,6.668171,2.2480378,20.38267,-23.235807,-1.8019173,2.4330027,2.989032,8.157795,15.853246,15.757506,-14.86128,57.180386,-7.612399,4.7376027,-7.8712983,-23.87107,-11.424679,28.434103,41.282616,8.903118,8.301193,2.0143745
130,-6.412406921386719,-91.0889663696289,74.08523559570312,-2.6351893982306853,3.0254787897178446,-95.1450931631487,-38.370407,6.0719547,3.298585,28.28635,-2.877096,4.0384455,15.228784,6.100812,2.1918938,22.031078,-23.08844,-1.3905871,2.5112767,2.6346502,8.074238,15.731649,15.700617,-15.108528,57.46283,-7.5401006,4.777137,-7.956644,-23.411007,-11.392654,28.266233,41.734367,8.91499,8.235472,1.9097443
131,-6.329921722412109,-91.93976593017578,74.04680633544922,-2.249702644302479,2.9589905775981142,-95.10660625851538,-38.527115,5.7627225,3.6442883,30.277742,-3.481641,4.262317,15.205195,5.508259,2.118124,23.772861,-22.821548,-1.0020626,2.5834029,2.2685783,8.013861,15.6025505,15.6535015,-15.365894,57.72295,-7.476462,4.8312335,-8.031704,-22.910507,-11.359898,28.092892,42.237453,8.905463,8.176174,1.7940229
132,-6.250863552093506,-92.80347442626953,74.02244567871094,-1.815322729076841,2.8793299513071413,-95.02733603540972,-38.528057,5.3588066,3.9678493,31.969511,-3.8955073,4.4925566,15.106742,4.8590035,1.970515,25.684715,-22.438932,-0.6709555,2.634777,1.8581302,7.969285,15.437024,15.611768,-15.65052,57.963093,-7.432054,4.8980083,-8.063659,-22.38102,-11.318488,27.882654,42.78786,8.83765,8.151675,1.6968195
133,-6.188086986541748,-93.67951965332031,74.00627899169922,-1.3005551062529193,2.780541933951633,-94.89650359029858,-38.33703,4.7948785,4.268235,33.28398,-4.0312977,4.7193255,14.954552,4.1241155,1.7253062,27.763264,-21.930672,-0.41521367,2.6532996,1.3644733,7.9554043,15.251919,15.589871,-15.942004,58.158382,-7.4041357,4.9893045,-8.041774,-21.795979,-11.267392,27.625511,43.363018,8.676718,8.176026,1.619341
134,-6.129685401916504,-94.54185485839844,73.99911499023438,-0.7272552564825795,2.6576608918371347,-94.73166178284666,-37.991478,4.1409664,4.6041937,34.34417,-4.037498,4.9508467,14.779817,3.3251855,1.4188033,29.95397,-21.289248,-0.20990925,2.6576586,0.8104609,7.9655576,15.046238,15.587253,-16.252125,58.325275,-7.3932977,5.101846,-7.9820137,-21.161663,-11.204302,27.32725,43.98066,8.448126,8.23175,1.5493336
135,-6.0485148429870605,-95.43212127685547,74.00857543945312,-0.14496788215577167,2.528396029218536,-94.5446842057944,-37.55394,3.449041,4.9448633,35.223427,-3.991058,5.183059,14.537075,2.5088828,1.0849016,32.26319,-20.517538,-0.02159249,2.6463425,0.24377318,7.9770703,14.823032,15.603093,-16.590261,58.454765,-7.404174,5.216109,-7.910046,-20.52427,-11.1265745,27.014885,44.651024,8.2106,8.300166,1.4919412
136,-5.96869421005249,-96.3230972290039,74.0254135131836,0.39490616371641685,2.4108127182640224,-94.34665430454568,-37.08607,2.7746022,5.257703,35.995625,-3.9688814,5.412201,14.182116,1.7264929,0.7574413,34.693592,-19.62158,0.18348718,2.591462,-0.27747008,7.9769845,14.60879,15.624933,-16.928547,58.5114,-7.4270015,5.3128786,-7.857543,-19.923298,-11.058795,26.757975,45.35171,8.046263,8.36514,1.4489839
137,-5.890240669250488,-97.19731140136719,74.04112243652344,0.8947593536257259,2.307861252656202,-94.11908839859292,-36.589813,2.0939102,5.5363955,36.637775,-3.8994372,5.6733003,13.709029,0.9738366,0.4167552,37.274548,-18.599964,0.41413707,2.493842,-0.7525735,7.953245,14.387429,15.651475,-17.296885,58.503696,-7.461492,5.401246,-7.8320603,-19.346634,-11.001962,26.529598,46.083714,7.9614534,8.430097,1.4339238
138,-5.804001808166504,-98.06804656982422,74.06332397460938,1.372309629703727,2.2099158102669123,-93.86198616863152,-36.039394,1.3872466,5.793579,37.124657,-3.7716897,5.952773,13.142732,0.24142084,0.055969253,39.99201,-17.45024,0.6622815,2.346576,-1.1953498,7.9205065,14.164208,15.6744175,-17.672686,58.432503,-7.501142,5.486248,-7.8196673,-18.775503,-10.967922,26.338037,46.833626,7.933506,8.502712,1.4398348
139,-5.714349746704102,-98.94214630126953,74.0921859741211,1.7998658412256614,2.1170188644091903,-93.61314641362634,-35.455715,0.7189427,6.023671,37.533512,-3.7574153,6.1736755,12.473985,-0.43043467,-0.2713212,42.802467,-16.183352,0.93075633,2.1893723,-1.5805258,7.8861814,13.922019,15.695564,-18.060047,58.32739,-7.5648685,5.5413637,-7.802783,-18.23219,-10.951206,26.188692,47.615173,7.9464483,8.569721,1.4463667
140,-5.61907958984375,-99.81324005126953,74.12407684326172,2.1500275052088713,2.029956716728868,-93.40968367283213,-34.85879,0.15429443,6.2205396,37.943913,-4.0299935,6.2592854,11.686385,-1.0071484,-0.51122224,45.674744,-14.814504,1.212595,2.041076,-1.8819902,7.8619385,13.663482,15.711709,-18.43479,58.19999,-7.6630697,5.5402913,-7.7675085,-17.746279,-10.94803,26.115244,48.438305,7.9958005,8.617824,1.4305519
141,-5.52650785446167,-100.65705871582031,74.15623474121094,2.382386325040137,1.9514624419606275,-93.25868892738906,-34.264977,-0.2613409,6.363981,38.406864,-4.727531,6.1359816,10.744677,-1.4502178,-0.64661247,48.67756,-13.27696,1.493417,1.9021728,-2.056443,7.845146,13.392293,15.721069,-18.794434,58.048355,-7.8165517,5.4529767,-7.7303367,-17.340456,-10.956723,26.136818,49.32939,8.106924,8.641318,1.3837123
142,-5.43022346496582,-101.49114227294922,74.19636535644531,2.521247243814232,1.881159247052346,-93.13960955171115,-33.660507,-0.56850696,6.465457,38.875015,-5.7284474,5.860634,9.656786,-1.7889613,-0.70663613,51.820698,-11.593269,1.770949,1.769342,-2.1261497,7.830802,13.098032,15.723266,-19.161531,57.876472,-8.0179615,5.300557,-7.6901793,-16.99044,-10.981938,26.227728,50.276573,8.273796,8.647771,1.3184363
143,-5.3378424644470215,-102.31045532226562,74.2455062866211,2.636927907512324,1.8153714193941415,-93.0494579749776,-33.019295,-0.8330832,6.566549,39.276676,-6.8152437,5.552789,8.467893,-2.0967555,-0.70612735,54.99453,-9.917472,2.049764,1.6391885,-2.16736,7.8293533,12.777754,15.715511,-19.521765,57.69124,-8.223543,5.1337113,-7.6095433,-16.665354,-11.026347,26.367207,51.236362,8.439863,8.644382,1.2445374
144,-5.275823593139648,-103.0960693359375,74.30034637451172,2.8010582292336648,1.7499581002324887,-92.98554456295732,-32.31357,-1.1272682,6.7042933,39.53556,-7.7696233,5.332667,7.2258606,-2.4472058,-0.65916306,58.08635,-8.400095,2.3357608,1.5050869,-2.264368,7.8475847,12.43632,15.70357,-19.856348,57.495438,-8.3910885,5.0035033,-7.4509616,-16.35138,-11.067995,26.533314,52.190857,8.543278,8.636377,1.169856
145,-5.21327018737793,-103.87937927246094,74.37012481689453,3.0321378617027417,1.6882442066441488,-92.95113664190461,-31.540787,-1.4718281,6.88826,39.630913,-8.552568,5.2413144,5.897702,-2.7982867,-0.4733775,61.137558,-6.927298,2.6893065,1.3884938,-2.4357224,7.8864775,12.045362,15.687786,-20.21736,57.303425,-8.51962,4.919778,-7.1521597,-16.03981,-11.112484,26.718517,53.14339,8.586613,8.607547,1.0833416
146,-5.1479949951171875,-104.6576156616211,74.45757293701172,3.2911581574691073,1.6308467937734232,-92.94615925000949,-30.714174,-1.8327997,7.0967426,39.60002,-9.27312,5.2129636,4.4718246,-3.122332,-0.17272675,64.192085,-5.470752,3.0883994,1.2685684,-2.646788,7.943473,11.635401,15.677254,-20.569075,57.0871,-8.621954,4.857831,-6.754842,-15.762796,-11.142242,26.945745,54.125027,8.592412,8.559043,0.9840481
147,-5.076686859130859,-105.43687438964844,74.55388641357422,3.5656718241133594,1.5697931529260942,-92.9611113306784,-29.83569,-2.2073236,7.316344,39.45494,-9.931885,5.2084885,3.023354,-3.5410318,0.05472363,67.14632,-4.320722,3.3998961,1.1502016,-2.8778274,8.011864,11.209812,15.666228,-20.881538,56.870102,-8.710095,4.812605,-6.359204,-15.491594,-11.167907,27.173248,55.097576,8.529384,8.527507,0.8991315
148,-5.01039981842041,-106.20516204833984,74.65406036376953,3.8443216458357323,1.4977332956414389,-92.9934036931386,-28.893284,-2.5885766,7.538645,39.197033,-10.5317,5.187251,1.6358546,-4.2065434,0.02675713,69.8767,-3.756614,3.4649587,1.0348524,-3.1087127,8.084016,10.780718,15.64601,-21.113531,56.670456,-8.794025,4.77901,-6.0662656,-15.200481,-11.199681,27.370955,56.02461,8.36774,8.549278,0.8543452
149,-4.9428300857543945,-106.97461700439453,74.76658630371094,4.156163054818401,1.4093979315761802,-93.04882500597095,-27.861921,-3.0009449,7.7871394,38.790318,-11.05524,5.1391144,0.34284988,-5.3047585,-0.37000412,72.387245,-4.011209,3.1733084,0.91639835,-3.373415,8.172426,10.362274,15.617933,-21.195784,56.474308,-8.850665,4.7741523,-5.9142103,-14.898216,-11.231663,27.533562,56.913273,8.056864,8.644462,0.8744641
150,-4.885466575622559,-107.73124694824219,74.87804412841797,4.500404592678605,1.3097512228207835,-93.1279980485513,-26.750328,-3.4451895,8.057973,38.23829,-11.504333,5.0866933,-0.8967726,-6.7448325,-0.99476266,74.7355,-4.89426,2.6133788,0.7993382,-3.6768897,8.275769,9.946566,15.59425,-21.173506,56.274364,-8.886653,4.795951,-5.8455462,-14.59604,-11.252891,27.670868,57.78477,7.622419,8.7885895,0.9400402
151,-4.826210975646973,-108.49034881591797,75.00282287597656,4.821421098950587,1.206323801282119,-93.21642628835399,-25.59882,-3.8777666,8.300909,37.601986,-11.907834,5.037235,-2.1200545,-8.258866,-1.6577711,76.88497,-6.0507536,1.9315656,0.6414683,-3.943788,8.374465,9.532161,15.53904,-21.0852,56.095146,-8.910419,4.806814,-5.82526,-14.294925,-11.287827,27.838614,58.612488,7.167046,8.956209,1.0154563
152,-4.774498462677002,-109.2408447265625,75.13404083251953,5.06617942448683,1.1070207791906874,-93.30051137278028,-24.44761,-4.2535534,8.470456,36.94488,-12.295852,4.9968376,-3.3764873,-9.574377,-2.1906462,78.79952,-7.1138077,1.2663654,0.47356495,-4.1426926,8.457916,9.114699,15.510022,-21.045237,55.921303,-8.964916,4.778613,-5.8234,-13.986009,-11.307004,27.976505,59.386326,6.746573,9.116024,1.0709944
153,-4.717172622680664,-110.0038070678711,75.27848052978516,5.213380432786561,1.0194111741176208,-93.3882500312875,-23.311918,-4.544808,8.55794,36.289616,-12.681409,4.964124,-4.7029886,-10.654453,-2.6016967,80.48196,-8.035363,0.59287125,0.25973138,-4.22685,8.513764,8.6993065,15.452817,-20.998415,55.77897,-9.043676,4.692235,-5.87565,-13.673725,-11.34307,28.158634,60.091938,6.368517,9.28003,1.0985228
154,-4.6509599685668945,-110.76653289794922,75.43309020996094,5.294101445415675,0.9373251610829325,-93.48325557205739,-22.169691,-4.7758985,8.588518,35.606533,-13.049624,4.9339967,-6.0696526,-11.61478,-2.9732628,81.9477,-8.992124,-0.1276671,0.044975217,-4.2506604,8.557587,8.282446,15.418443,-20.963444,55.64318,-9.153099,4.5720954,-5.986222,-13.351025,-11.368464,28.315887,60.744408,5.979047,9.454667,1.1176113
155,-4.603991508483887,-111.51008605957031,75.58704376220703,5.327689321090114,0.8485054485659953,-93.56510822679891,-21.003555,-4.9739156,8.566408,34.876755,-13.387935,4.90721,-7.4321947,-12.407256,-3.2701147,83.17176,-9.937239,-0.7889511,-0.21340257,-4.220312,8.598063,7.864519,15.37383,-20.949533,55.512794,-9.257983,4.432227,-6.0677023,-13.02252,-11.406551,28.477869,61.333393,5.661277,9.618162,1.1251247
156,-4.561986446380615,-112.25391387939453,75.75196838378906,5.3348822434788365,0.7409377145151536,-93.61349394242262,-19.797628,-5.167452,8.495757,34.083893,-13.684338,4.8857307,-8.750332,-12.987884,-3.4585984,84.13386,-10.817335,-1.2863369,-0.5082763,-4.1600657,8.648664,7.426238,15.3267145,-21.023746,55.38451,-9.343731,4.2896457,-6.0321655,-12.675904,-11.4621525,28.602345,61.84637,5.4738145,9.745898,1.1211593
157,-4.512688636779785,-113.00152587890625,75.91864776611328,5.312493131089307,0.6025324018883885,-93.62980202533943,-18.532825,-5.3582416,8.372016,33.21733,-13.938433,4.88449,-10.009671,-13.307582,-3.5186498,84.8093,-11.637313,-1.5806104,-0.8390465,-4.073457,8.721284,6.9784694,15.291515,-21.2235,55.243683,-9.408708,4.142715,-5.825883,-12.31378,-11.526546,28.672379,62.287914,5.464068,9.827693,1.1022174
158,-4.464421272277832,-113.74534606933594,76.08634185791016,5.252786194217476,0.4426500461507575,-93.62285193699128,-17.223148,-5.529924,8.195958,32.290363,-14.157136,4.8969455,-11.235138,-13.3982525,-3.4861045,85.214455,-12.408362,-1.727545,-1.1908454,-3.9454577,8.810741,6.5109997,15.257954,-21.528795,55.10456,-9.464643,3.983863,-5.5047064,-11.918609,-11.618366,28.691902,62.636295,5.58712,9.879314,1.0720232
159,-4.420620918273926,-114.48060607910156,76.25435638427734,5.171947470673111,0.28150253100252803,-93.58323598762695,-15.90203,-5.6866274,7.979784,31.322464,-14.340728,4.894234,-12.44401,-13.344616,-3.4123309,85.38855,-13.090537,-1.7721217,-1.5733181,-3.7996435,8.900958,6.0324836,15.234648,-21.871086,54.949257,-9.511808,3.8255632,-5.1536417,-11.5009985,-11.726293,28.689415,62.897972,5.768334,9.909685,1.0339059
160,-4.362538814544678,-115.24490356445312,76.43599700927734,5.084358713273656,0.13932094773095882,-93.50176855546488,-14.600971,-5.8327017,7.735216,30.328703,-14.486648,4.848329,-13.655101,-13.230351,-3.3451922,85.373604,-13.642059,-1.7585689,-1.9879012,-3.6549292,8.975778,5.5412564,15.226576,-22.193481,54.769184,-9.55363,3.6799204,-4.856286,-11.060831,-11.8466,28.683983,63.068535,5.9309673,9.92868,0.9925389
161,-4.318661689758301,-115.99193572998047,76.59737396240234,4.987335246473253,0.022914036934020242,-93.3695749276435,-13.328377,-5.9642854,7.460843,29.3089,-14.59172,4.750166,-14.886122,-13.031827,-3.2745426,85.166306,-14.011565,-1.6871057,-2.4493709,-3.509717,9.028483,5.0428905,15.236936,-22.471823,54.560825,-9.57579,3.5487263,-4.6351833,-10.600875,-11.975428,28.683828,63.142902,6.071345,9.931631,0.9275614
162,-4.28607702255249,-116.73226165771484,76.74690246582031,4.877119892428044,-0.079089768112829,-93.19338423607896,-12.0663,-6.080208,7.153046,28.254948,-14.657162,4.6161613,-16.120068,-12.72496,-3.1844392,84.74747,-14.233347,-1.5395938,-2.9555817,-3.358983,9.068782,4.5415187,15.266097,-22.736404,54.32412,-9.581565,3.4267058,-4.446502,-10.124185,-12.11069,28.680597,63.12919,6.224836,9.915092,0.8432185
163,-4.262792110443115,-117.46096801757812,76.88088989257812,4.76237904844095,-0.17334820316520372,-92.98731941793557,-10.809039,-6.1879344,6.819465,27.175402,-14.690952,4.457838,-17.321177,-12.391339,-3.1141272,84.13103,-14.402394,-1.3340303,-3.4823744,-3.2159193,9.103672,4.0336432,15.315916,-23.012676,54.05621,-9.601656,3.3151214,-4.2738123,-9.633175,-12.251864,28.669977,63.04605,6.375404,9.891395,0.7804979
164,-4.2425432205200195,-118.19576263427734,77.00779724121094,4.657512271014033,-0.2665058523923371,-92.7656810207918,-9.551113,-6.2949615,6.4672155,26.079113,-14.70102,4.2875795,-18.456099,-12.110726,-3.1023796,83.33423,-14.610903,-1.0874816,-4.005176,-3.0930402,9.140595,3.516751,15.388509,-23.326283,53.751667,-9.66744,3.2152178,-4.101306,-9.12912,-12.398543,28.648056,62.909447,6.5079646,9.873087,0.78065854
165,-4.231241226196289,-118.93628692626953,77.12387084960938,4.561705056116366,-0.36981179760697735,-92.52745625645551,-8.271853,-6.404737,6.093911,24.950298,-14.676522,4.0986366,-19.498613,-11.8968725,-3.1660483,82.33912,-14.898862,-0.7701279,-4.5244575,-2.9961672,9.188016,2.9932199,15.485278,-23.682558,53.40333,-9.81606,3.137706,-3.9189293,-8.609667,-12.552421,28.61283,62.711807,6.6142187,9.868483,0.88065547
166,-4.211986064910889,-119.6711654663086,77.22550964355469,4.472181646029121,-0.47636270268327874,-92.26636528037112,-6.978429,-6.5115685,5.6961184,23.787199,-14.619747,3.8912666,-20.471071,-11.711621,-3.2830763,81.143166,-15.211942,-0.38507465,-5.0491266,-2.9175553,9.240289,2.4639866,15.605909,-24.07166,53.012848,-10.022378,3.0784876,-3.7376864,-8.071679,-12.713243,28.565594,62.44386,6.7047577,9.869748,1.05049
167,-4.191749095916748,-120.39305877685547,77.31448364257812,4.386580978864825,-0.5655525315334434,-91.9889422310766,-5.713005,-6.6088023,5.2803516,22.632105,-14.555335,3.6872387,-21.409906,-11.552557,-3.4341252,79.77811,-15.49849,0.003917488,-5.5694017,-2.8510144,9.281785,1.9252347,15.749578,-24.493595,52.589283,-10.223525,3.016609,-3.5731769,-7.5202317,-12.878865,28.505323,62.127617,6.7869267,9.864701,1.2298275
168,-4.183286666870117,-121.11772155761719,77.3880615234375,4.301754154244156,-0.6169213399570734,-91.70181648233684,-4.520511,-6.690291,4.8538013,21.532148,-14.511998,3.5066876,-22.35314,-11.415677,-3.5999732,78.281685,-15.70751,0.33328566,-6.075027,-2.789922,9.296528,1.3725765,15.915271,-24.947998,52.142574,-10.35538,2.93178,-3.4407403,-6.9621,-13.046067,28.432535,61.78766,6.8693404,9.840839,1.3583891
169,-4.183919429779053,-121.83596801757812,77.44835662841797,4.218752832641697,-0.622089949547364,-91.40018274853082,-3.4083931,-6.7563386,4.4090014,20.479311,-14.484576,3.3525107,-23.315607,-11.292141,-3.7785847,76.64986,-15.818112,0.5974321,-6.5703306,-2.7322223,9.275971,0.79994315,16.103886,-25.448778,51.670692,-10.397853,2.82748,-3.3461778,-6.399609,-13.212296,28.368032,61.421505,6.9613543,9.789001,1.4104421
170,-4.193962574005127,-122.55908203125,77.49483489990234,4.137870997423911,-0.5929368672860498,-91.08268447554711,-2.3592343,-6.809036,3.9460049,19.466215,-14.468025,3.2148783,-24.27186,-11.183568,-3.9808803,74.86483,-15.860607,0.82853556,-7.0593047,-2.6815119,9.228911,0.21236445,16.315243,-25.991533,51.169193,-10.385954,2.712117,-3.2805462,-5.83286,-13.377101,28.306955,61.02511,7.056085,9.717185,1.4208976
171,-4.20217752456665,-123.27291870117188,77.52650451660156,4.062641154847951,-0.539066155531135,-90.76157758366966,-1.364268,-6.8474107,3.4833708,18.50443,-14.470554,3.0927293,-25.198042,-11.097016,-4.203703,72.93919,-15.858925,1.0251316,-7.5305376,-2.6368372,9.1668,-0.38022274,16.545614,-26.548584,50.64543,-10.339597,2.5722923,-3.2371733,-5.258624,-13.537694,28.206993,60.611458,7.136353,9.639212,1.4208232
172,-4.216695785522461,-123.98469543457031,77.5447998046875,3.9906199203381694,-0.4701243043651807,-90.44912358094903,-0.41864234,-6.8711014,3.0402281,17.613548,-14.504811,2.9843833,-26.07051,-11.038819,-4.444642,70.88388,-15.836311,1.1860145,-7.972278,-2.5970876,9.100772,-0.9699379,16.789385,-27.092785,50.10993,-10.278368,2.3943343,-3.20896,-4.6742353,-13.689489,28.02542,60.195484,7.185519,9.568357,1.4410161
173,-4.233483791351318,-124.70330047607422,77.54991912841797,3.921332990208855,-0.38336538730157554,-90.13996338839081,0.46516526,-6.8742814,2.615252,16.808577,-14.577701,2.889122,-26.889078,-11.01771,-4.7203717,68.693085,-15.804869,1.3018831,-8.386554,-2.5560212,9.027303,-1.56685,17.045498,-27.629927,49.577774,-10.182953,2.1559653,-3.2058744,-4.077605,-13.831025,27.744408,59.77928,7.180725,9.501536,1.4996865
174,-4.2572760581970215,-125.4160385131836,77.5435562133789,3.8516881462529193,-0.27558685728208787,-89.8306507724422,1.28861,-6.8604817,2.2013953,16.076538,-14.682172,2.8065503,-27.66082,-11.020749,-5.0293264,66.359085,-15.749205,1.3820446,-8.776487,-2.514908,8.942242,-2.1750658,17.313875,-28.172432,49.043755,-10.051356,1.8702619,-3.2266612,-3.4692173,-13.9612255,27.38732,59.356117,7.1366777,9.433788,1.5768284
175,-4.280604839324951,-126.12722778320312,77.52252197265625,3.7960671932337036,-0.15524820313167567,-89.53613215078356,2.0759528,-6.842979,1.8091098,15.395539,-14.807632,2.7345872,-28.375418,-11.025299,-5.342361,63.89257,-15.652791,1.4468398,-9.134675,-2.4841182,8.8534155,-2.7782905,17.589506,-28.698975,48.49239,-9.927085,1.5760456,-3.2468777,-2.8594368,-14.077362,26.979053,58.941135,7.0936103,9.374884,1.6451899
176,-4.305412769317627,-126.84345245361328,77.49235534667969,3.7607976719537497,-0.03148286651662066,-89.27113280936497,2.8527884,-6.8350286,1.4482559,14.74157,-14.943324,2.671425,-29.024887,-11.011948,-5.628012,61.305267,-15.500159,1.5138983,-9.455873,-2.4740593,8.767089,-3.3609853,17.864786,-29.18593,47.91209,-9.852818,1.3121344,-3.2421262,-2.2617784,-14.175925,26.54572,58.553776,7.091157,9.334674,1.6772469
177,-4.32984733581543,-127.5594482421875,77.4486083984375,3.752480194992345,0.09458473983914528,-89.04023722193254,3.622204,-6.841253,1.1225318,14.112324,-15.089846,2.6190324,-29.603786,-10.982579,-5.8833747,58.571915,-15.298959,1.5910197,-9.738141,-2.4876654,8.680897,-3.9269738,18.136343,-29.636568,47.30244,-9.84677,1.0860968,-3.1977334,-1.6813635,-14.254094,26.102766,58.20243,7.1617007,9.318581,1.6503282
178,-4.365533828735352,-128.270751953125,77.39527130126953,3.762797651135602,0.22684505493847565,-88.83492535831162,4.3729143,-6.8552227,0.82573736,13.516671,-15.2503195,2.5763645,-30.115376,-10.944545,-6.1231728,55.689728,-15.051167,1.6672453,-9.987022,-2.5183883,8.590709,-4.484827,18.403967,-30.057297,46.67586,-9.882047,0.8776862,-3.1292372,-1.1151817,-14.310237,25.636992,57.882988,7.277827,9.319951,1.5833595
179,-4.407279014587402,-128.98890686035156,77.33025360107422,3.789873555766474,0.36398290894920693,-88.65006012432491,5.1118736,-6.874292,0.5522022,12.943653,-15.41721,2.5375965,-30.561878,-10.889237,-6.3414326,52.697796,-14.732833,1.7297606,-10.208427,-2.5627825,8.498945,-5.0271473,18.664383,-30.429178,46.04331,-9.931886,0.6835589,-3.057405,-0.56649053,-14.344353,25.13112,57.59866,7.387856,9.330916,1.5105124
180,-4.4459357261657715,-129.7104034423828,77.25540924072266,3.827108970985794,0.5049462237713945,-88.4806597939904,5.8373485,-6.8955436,0.2973865,12.399769,-15.5866375,2.4973595,-30.949146,-10.808507,-6.531485,49.63988,-14.316798,1.765536,-10.408661,-2.6166058,8.40815,-5.546724,18.91261,-30.73126,45.416824,-9.968454,0.5003952,-3.0030868,-0.03783359,-14.356851,24.56932,57.351612,7.4419475,9.343952,1.4660823
181,-4.490932941436768,-130.43531799316406,77.17078399658203,3.8770130352876584,0.6497102527515649,-88.32940268291239,6.5547853,-6.9225683,0.06192016,11.873375,-15.752877,2.4569557,-31.272596,-10.709677,-6.694858,46.491932,-13.782225,1.7526724,-10.584197,-2.6803727,8.319572,-6.0499954,19.145462,-30.950891,44.802986,-9.993256,0.33347645,-2.980672,0.47591412,-14.346854,23.922588,57.136036,7.41573,9.360604,1.4768105
182,-4.530048370361328,-131.1528778076172,77.07778930664062,3.9421412763078463,0.7980363168401233,-88.19676493369629,7.2643223,-6.9569707,-0.15336907,11.3639,-15.917301,2.418342,-31.527864,-10.593324,-6.8348017,43.2337,-13.144253,1.7043296,-10.733048,-2.755735,8.23098,-6.542897,19.3624,-31.102207,44.202717,-10.01725,0.18211643,-2.9756289,0.9742523,-14.314551,23.20635,56.954468,7.3389816,9.383614,1.5185585
183,-4.574159145355225,-131.87452697753906,76.97608184814453,4.016901162790339,0.948227086309495,-88.07368837014565,7.9598517,-6.993417,-0.35363737,10.889898,-16.090809,2.3782783,-31.717676,-10.444479,-6.9460845,39.908092,-12.430729,1.6579049,-10.865191,-2.83911,8.140536,-7.016657,19.562717,-31.204453,43.618465,-10.027816,0.03337674,-2.9650517,1.4476069,-14.261372,22.47315,56.81805,7.2447114,9.408015,1.5496713
184,-4.622766971588135,-132.60595703125,76.8615493774414,4.097622655058784,1.0981956946457965,-87.95160550450618,8.636914,-7.028326,-0.54383117,10.468045,-16.283598,2.3343694,-31.846277,-10.253577,-7.0196843,36.56051,-11.670904,1.6480443,-10.99193,-2.927859,8.046643,-7.461387,19.74571,-31.275055,43.051617,-10.0121565,-0.12536776,-2.9262507,1.886579,-14.189213,21.776716,56.736977,7.1654663,9.428727,1.5281966
185,-4.664280414581299,-133.3328857421875,76.73271942138672,4.1885858514170495,1.2497452171044925,-87.83083968817068,9.297701,-7.0682025,-0.72293794,10.088973,-16.494135,2.2880523,-31.91292,-10.018649,-7.056238,33.158615,-10.822571,1.6685425,-11.113566,-3.026411,7.9471073,-7.8791523,19.911377,-31.311094,42.500214,-9.947145,-0.2844088,-2.866582,2.2884874,-14.100191,21.121561,56.716846,7.115674,9.440376,1.4286251
186,-4.720836162567139,-134.07138061523438,76.59587860107422,4.294103982339188,1.3995494760516591,-87.7106255637485,9.95139,-7.1186714,-0.8942748,9.739358,-16.713444,2.2419133,-31.903713,-9.761265,-7.0554194,29.671177,-9.876867,1.7001051,-11.23058,-3.1382642,7.845872,-8.273243,20.06008,-31.303827,41.964466,-9.846222,-0.4411918,-2.7938857,2.6598697,-13.993607,20.483658,56.748142,7.0767136,9.447503,1.2781763
187,-4.777254104614258,-134.8191680908203,76.45110321044922,4.412568635748086,1.5362039920094885,-87.57912236855239,10.6069,-7.1756177,-1.0714908,9.426255,-16.937914,2.1957555,-31.801575,-9.5080385,-7.0080295,26.14307,-8.91028,1.759642,-11.355686,-3.2652962,7.7498713,-8.636892,20.192453,-31.26291,41.453457,-9.748505,-0.6195147,-2.6857193,2.9975991,-13.872196,19.874605,56.82895,7.031557,9.459122,1.1127281
188,-4.839462757110596,-135.56936645507812,76.2964096069336,4.54292227923216,1.6471618731947695,-87.42344919335704,11.276743,-7.2369018,-1.269944,9.152076,-17.161335,2.1491175,-31.588287,-9.281928,-6.908382,22.62069,-7.997818,1.8683627,-11.503576,-3.4097593,7.6675715,-8.961455,20.308928,-31.196344,40.973167,-9.692817,-0.84309655,-2.520005,3.3011374,-13.739195,19.30654,56.95283,6.963983,9.484822,0.9683744
189,-4.90208101272583,-136.32171630859375,76.12897491455078,4.70363020984267,1.7254271478295007,-87.22640544563926,11.985113,-7.3224373,-1.5067214,8.879927,-17.366756,2.1021469,-31.211391,-9.086681,-6.726059,18.975819,-7.1386514,2.0932472,-11.689325,-3.5903127,7.6000986,-9.245176,20.409464,-31.100155,40.52794,-9.69778,-1.126292,-2.278695,3.5747762,-13.596473,18.782475,57.118996,6.864039,9.5302105,0.84103084
190,-4.963271617889404,-137.08880615234375,75.94932556152344,4.908495703852944,1.7632745441834399,-86.98177278424508,12.752483,-7.4486394,-1.7929672,8.583432,-17.542194,2.0587919,-30.66404,-8.943835,-6.4793,15.194324,-6.280336,2.4077814,-11.919501,-3.8214796,7.5517955,-9.492214,20.494993,-30.971897,40.11311,-9.739301,-1.4536641,-1.9788207,3.8219342,-13.443915,18.296122,57.325085,6.743067,9.589879,0.716197
191,-5.022451877593994,-137.86709594726562,75.76248931884766,5.140549751693877,1.7555974619207724,-86.7031802714892,13.559521,-7.5944614,-2.1200018,8.315771,-17.706575,2.0255687,-30.001276,-8.875199,-6.24056,11.482123,-5.4208317,2.698335,-12.184858,-4.089759,7.531043,-9.7022085,20.567661,-30.822266,39.72098,-9.791571,-1.8044149,-1.6503487,4.037581,-13.283274,17.845627,57.56706,6.6157603,9.656265,0.61496466
192,-5.103219985961914,-138.6419677734375,75.5739974975586,5.358201516406933,1.7167492670389537,-86.42728638406241,14.349108,-7.712385,-2.4496076,8.169967,-17.90203,2.0024137,-29.262878,-8.847994,-6.087399,7.9700065,-4.513922,2.849656,-12.453238,-4.3528757,7.536991,-9.874619,20.629318,-30.661646,39.341152,-9.830254,-2.1577716,-1.3223884,4.2157273,-13.117592,17.428144,57.840046,6.4963975,9.721413,0.5587323
193,-5.17608118057251,-139.41329956054688,75.38651275634766,5.529505798581311,1.669620198628588,-86.18080740603449,15.073962,-7.7656226,-2.7474322,8.19388,-18.163307,1.9781442,-29.568731,-8.923403,-5.84888,6.9421844,-4.770568,2.8166957,-12.696126,-4.578457,7.5640984,-10.015287,20.680733,-30.494513,38.968044,-9.854731,-2.5326815,-0.98042417,4.3502336,-12.949447,17.030968,58.14499,6.378063,9.786567,0.5745699
194,-5.2588982582092285,-140.19834899902344,75.20003509521484,5.654664492742986,1.6242616944960653,-85.96657804187289,15.728523,-7.7583823,-3.0046148,8.37968,-18.488794,1.9493519,-30.204557,-8.992389,-5.601127,6.839243,-5.4138308,2.666291,-12.908313,-4.7624893,7.603641,-10.121635,20.7205,-30.314478,38.604103,-9.875736,-2.9323738,-0.6151801,4.4450426,-12.779816,16.657942,58.481983,6.256434,9.854234,0.6446917
195,-5.346485137939453,-140.9908905029297,75.015869140625,5.728189073901055,1.5862113215245708,-85.7979678360586,16.289852,-7.6947064,-3.2030606,8.768239,-18.88071,1.924458,-30.718784,-8.9874735,-5.441255,6.770519,-5.924168,2.443637,-13.081641,-4.890953,7.645612,-10.181789,20.744919,-30.113144,38.25349,-9.886922,-3.31303,-0.26314494,4.50548,-12.618344,16.332422,58.845825,6.1516657,9.918972,0.7235142
196,-5.4278669357299805,-141.78305053710938,74.83426666259766,5.749962314732183,1.556235965332826,-85.68189207052203,16.750563,-7.583014,-3.3339915,9.379694,-19.330656,1.9128796,-31.071564,-8.902461,-5.400416,6.7270494,-6.2484407,2.1899574,-13.212481,-4.9609857,7.680439,-10.186801,20.752932,-29.885818,37.924664,-9.882897,-3.630137,0.039466403,4.530797,-12.464903,16.076563,59.24195,6.081739,9.974564,0.76268446
197,-5.515983581542969,-142.5777130126953,74.65764617919922,5.736379541086077,1.510538219527467,-85.61907635627324,17.157255,-7.445651,-3.4055502,10.179802,-19.83474,1.9178576,-31.224287,-8.776187,-5.520501,6.724286,-6.4505553,1.9313596,-13.30442,-4.9821725,7.727568,-10.11598,20.740646,-29.610188,37.595764,-9.847611,-3.8696802,0.27564806,4.5395813,-12.349034,15.909487,59.651104,6.072932,10.019541,0.75336295
198,-5.599819183349609,-143.37132263183594,74.47909545898438,5.676654042281929,1.4585052676802812,-85.60636143265896,17.50094,-7.2639346,-3.418331,11.160817,-20.393482,1.9328519,-31.198275,-8.606206,-5.7723103,6.7404065,-6.5254526,1.6318765,-13.364507,-4.9598727,7.7755885,-9.986675,20.705515,-29.287416,37.292774,-9.781858,-4.0555744,0.4662615,4.492548,-12.225903,15.822769,60.125866,6.102486,10.053302,0.70865434
199,-5.681107044219971,-144.1785888671875,74.30915832519531,5.528891305252003,1.4492990025304244,-85.6408002032278,17.691805,-6.983756,-3.3572018,12.381968,-21.001013,1.9526898,-31.071245,-8.330837,-6.078579,6.7673535,-6.345983,1.2328255,-13.384792,-4.835222,7.797371,-9.826698,20.646545,-28.96243,37.03054,-9.725486,-4.2022176,0.6336095,4.4094944,-12.108343,15.782031,60.62018,6.1401124,10.084814,0.6493341
200,-5.767838001251221,-145.0064239501953,74.14556121826172,5.246972868933986,1.5323273123832764,-85.71640894302786,17.653677,-6.5484076,-3.2125232,13.875891,-21.643324,1.970471,-30.930115,-7.884775,-6.3689165,6.8144097,-5.792902,0.67429125,-13.349812,-4.540015,7.779861,-9.646107,20.58909,-28.690655,36.778595,-9.731158,-4.322084,0.79880244,4.332799,-12.031334,15.733866,61.049797,6.1516833,10.1254225,0.60780907
201,-5.8684234619140625,-145.82113647460938,74.01665496826172,4.767131756769603,1.7455320380436046,-85.83768452876619,17.30568,-5.887573,-2.9641395,15.731304,-22.373375,1.9794098,-30.77112,-7.200677,-6.6741695,6.880238,-4.745561,-0.1381713,-13.272062,-4.014287,7.69897,-9.459133,20.513836,-28.45027,36.564877,-9.802632,-4.4094424,0.97709894,4.2036757,-11.954131,15.698342,61.48268,6.1227274,10.175787,0.5677618
202,-5.966072082519531,-146.61277770996094,73.92037200927734,4.123590121107655,2.044662691101594,-85.98609242674245,16.748075,-5.036939,-2.658841,17.851765,-23.15271,1.9804201,-30.711506,-6.3617363,-7.0202565,7.3019285,-3.4784257,-1.1528958,-13.163356,-3.302389,7.571908,-9.276778,20.40235,-28.241472,36.419514,-9.9158325,-4.4619284,1.1561025,4.0286245,-11.869061,15.680042,61.93726,6.070022,10.2302265,0.51907057
203,-6.060583591461182,-147.43666076660156,73.81207275390625,3.433645389613815,2.353658660510554,-86.12243057627614,16.161549,-4.121714,-2.3805218,20.025925,-23.83773,1.9801998,-32.022774,-5.6736403,-7.2338743,10.741842,-3.5938106,-2.194701,-13.057706,-2.530817,7.4287224,-9.071381,20.283247,-28.080647,36.32475,-10.051952,-4.49495,1.305512,3.867519,-11.801443,15.663872,62.35149,6.006805,10.284539,0.47907788
204,-6.155262470245361,-148.2786102294922,73.69491577148438,2.812126846117854,2.6070279987916254,-86.22247341525537,15.694504,-3.2708452,-2.182333,22.08177,-24.306044,1.9864863,-33.094215,-5.0562644,-7.4354024,13.718102,-3.443782,-3.0951612,-12.988593,-1.8293854,7.2785497,-8.830377,20.159077,-27.964636,36.309155,-10.175578,-4.525821,1.3941195,3.738895,-11.745016,15.658469,62.72232,5.948413,10.330373,0.4509979
205,-6.2726826667785645,-149.1388702392578,73.58338928222656,2.2766742257163535,2.8167130899497836,-86.2717311957313,15.349406,-2.4992087,-2.083482,23.991266,-24.568161,1.9752929,-34.085068,-4.5199447,-7.559722,16.468597,-3.035541,-3.83165,-12.956317,-1.2138885,7.0927596,-8.561893,20.035837,-27.917625,36.380447,-10.308699,-4.566522,1.4023595,3.670234,-11.692161,15.63679,63.024788,5.8780403,10.374188,0.432916
206,-6.390538215637207,-150.0118408203125,73.470947265625,1.783048967702522,3.006502489247464,-86.2877415443583,15.0613,-1.7654616,-2.0463517,25.837563,-24.673326,1.9519384,-35.06507,-4.0213523,-7.6345987,19.197456,-2.4215014,-4.4697657,-12.944957,-0.6382111,6.87579,-8.26636,19.91535,-27.930822,36.521397,-10.459508,-4.6047425,1.3501191,3.636194,-11.639015,15.606359,63.280956,5.793379,10.414448,0.4221031
207,-6.495112895965576,-150.90765380859375,73.36111450195312,1.3282783280440678,3.1465894216214463,-86.31410261961207,14.833733,-1.0830721,-2.0080814,27.664024,-24.58484,1.9582454,-35.908173,-3.5486684,-7.7048526,21.775995,-1.8244587,-4.9826746,-12.940323,-0.108615935,6.677087,-7.923185,19.791899,-27.956059,36.724556,-10.573949,-4.6217375,1.2677244,3.5827622,-11.59211,15.623367,63.542408,5.7302103,10.437972,0.4214451
208,-6.597623348236084,-151.8125,73.26142120361328,0.90196792049681,3.2104862802223932,-86.396644963153,14.662674,-0.45387757,-1.9031286,29.521008,-24.268269,2.037886,-36.497116,-3.0867815,-7.8093696,24.091633,-1.4801775,-5.3569956,-12.928923,0.3801464,6.544342,-7.509226,19.654856,-27.939545,36.98111,-10.59484,-4.599394,1.185064,3.456112,-11.564272,15.746386,63.859596,5.7257676,10.430591,0.43491903
209,-6.694392681121826,-152.72079467773438,73.1833724975586,0.4823497605293273,3.183611778671154,-86.55939276882704,14.586669,0.14336438,-1.7068996,31.38274,-23.700453,2.205568,-36.801907,-2.608439,-7.9522276,26.155182,-1.4974765,-5.5343146,-12.912506,0.8573931,6.4906664,-6.9898224,19.491417,-27.854609,37.283222,-10.465506,-4.5403647,1.1137398,3.2428114,-11.572019,16.009975,64.25376,5.8213706,10.372519,0.47756222
210,-6.77340030670166,-153.6345672607422,73.1331787109375,0.06936967750292995,3.0901387060809227,-86.78189205587435,14.573888,0.7209296,-1.4433889,33.259117,-22.913218,2.4380717,-36.912373,-2.110357,-8.100876,28.058578,-1.7603625,-5.54701,-12.89243,1.333893,6.4842563,-6.388194,19.297598,-27.72655,37.64148,-10.226898,-4.4533024,1.0353926,2.971995,-11.617988,16.38386,64.69054,5.9918575,10.276815,0.54611725
211,-6.855266571044922,-154.55995178222656,73.10623168945312,-0.3127815993545992,2.9594910010873594,-87.04218917079079,14.528787,1.2630268,-1.124067,35.226494,-21.949005,2.7236023,-36.885292,-1.6200893,-8.238143,29.801907,-2.1729352,-5.5238295,-12.854259,1.7815864,6.5073504,-5.767283,19.077885,-27.583456,38.07339,-9.968316,-4.328936,0.9354092,2.6583548,-11.686185,16.823954,65.13076,6.1702547,10.181928,0.61582476
212,-6.934279918670654,-155.47482299804688,73.09539794921875,-0.6365306020293198,2.819981336660572,-87.31675257810764,14.358415,1.7483395,-0.7635326,37.36131,-20.848047,3.0493052,-36.770798,-1.1666842,-8.348491,31.372246,-2.6307585,-5.5903296,-12.784645,2.1617725,6.542187,-5.1896534,18.844267,-27.45589,38.59746,-9.780952,-4.1574044,0.80026543,2.3119102,-11.75282,17.283741,65.546295,6.2867203,10.123559,0.6581712
213,-7.015661239624023,-156.38119506835938,73.10026550292969,-0.8815099401639703,2.666282520389106,-87.63362230898666,14.055836,2.1546924,-0.3125454,39.70612,-19.58844,3.4812615,-36.562782,-0.7522419,-8.411631,32.75567,-3.1105592,-5.795702,-12.662764,2.4423094,6.592358,-4.6482306,18.605543,-27.346115,39.22961,-9.695147,-3.9500616,0.646133,1.9108076,-11.802062,17.78658,65.97501,6.3177357,10.105654,0.66891694
214,-7.1081929206848145,-157.2730255126953,73.1156997680664,-1.064245636922673,2.488060327368703,-87.99430578466745,13.660125,2.5021813,0.22258736,42.216053,-18.159388,4.006907,-36.241653,-0.3580453,-8.4397,33.96318,-3.6661696,-6.068121,-12.500208,2.6401591,6.662478,-4.113893,18.365065,-27.241705,39.95242,-9.661228,-3.7064934,0.4749813,1.4497051,-11.832677,18.344778,66.43199,6.299421,10.109094,0.6577796
215,-7.204687595367432,-158.1495819091797,73.1494140625,-1.211634024162126,2.3058360104206748,-88.33693651199634,13.154448,2.8277051,0.7411882,44.830124,-16.612425,4.4929385,-35.83334,0.015818033,-8.460167,35.01324,-4.30279,-6.3499103,-12.3306265,2.7893384,6.7402525,-3.6155481,18.128502,-27.152786,40.73113,-9.650979,-3.3988504,0.25239527,0.9698611,-11.840997,18.889599,66.84592,6.247672,10.135617,0.6184252
216,-7.302578449249268,-159.0135040283203,73.19668579101562,-1.3503894731204766,2.140050411336125,-88.60017738557691,12.516996,3.1596658,1.1340412,47.50165,-15.0076685,4.8048105,-35.365223,0.36190212,-8.499187,35.92935,-5.0308566,-6.5853033,-12.182593,2.9219735,6.8127646,-3.186477,17.902153,-27.095327,41.534344,-9.637006,-2.999336,-0.05561096,0.51323444,-11.821906,19.346394,67.14464,6.17667,10.186869,0.54466796
217,-7.4036641120910645,-159.86297607421875,73.25769805908203,-1.4719637545763173,1.990530995322362,-88.77129829658753,11.735484,3.491375,1.3808416,50.286106,-13.3113365,4.87939,-34.835957,0.66155946,-8.546189,36.72792,-5.9146624,-6.7634726,-12.056268,3.0238783,6.8794346,-2.8425052,17.692627,-27.085693,42.36521,-9.626568,-2.466369,-0.47710982,0.08796341,-11.768406,19.68477,67.31365,6.0671997,10.285623,0.41451207
218,-7.519413471221924,-160.70404052734375,73.3320083618164,-1.5661411688589173,1.84858127546597,-88.88353517595368,10.8173485,3.7997494,1.526291,53.20394,-11.517887,4.7969365,-34.235733,0.91700697,-8.586571,37.40256,-6.9344187,-6.9146204,-11.933829,3.0788584,6.9464903,-2.5637221,17.502678,-27.116274,43.234657,-9.629106,-1.8253525,-0.9864095,-0.32979178,-11.680043,19.941301,67.394,5.9162364,10.423291,0.23685572
219,-7.643637180328369,-161.53366088867188,73.4142837524414,-1.6576702828113756,1.7220788390482304,-88.94411636494286,9.770372,4.0875325,1.5555956,56.161026,-9.73435,4.63484,-33.58037,1.1499035,-8.641236,37.944195,-7.978362,-7.0437226,-11.818849,3.1183765,7.0112295,-2.3278909,17.33045,-27.163525,44.12332,-9.618871,-1.1499838,-1.5385704,-0.7475628,-11.565376,20.146763,67.39704,5.7664533,10.553614,0.052371383
220,-7.751651763916016,-162.34738159179688,73.50296020507812,-1.7729426650756015,1.6192567243547369,-88.95983074296261,8.602963,4.3631,1.4587036,59.061066,-8.063975,4.4729576,-32.884403,1.384554,-8.733293,38.340538,-8.932492,-7.155789,-11.715547,3.1782742,7.070886,-2.1139166,17.17081,-27.203848,45.01238,-9.571906,-0.51459175,-2.0895765,-1.167412,-11.438567,20.330107,67.32792,5.6581383,10.630767,-0.09738092
221,-7.8548760414123535,-163.14634704589844,73.60663604736328,-1.922766971396115,1.5482547172189454,-88.91529337350298,7.257686,4.6349306,1.1975844,61.965282,-6.361214,4.3042502,-32.14782,1.6216236,-8.881984,38.578426,-9.782965,-7.258259,-11.636776,3.2738848,7.1242156,-1.9280069,17.0194,-27.231968,45.903973,-9.483701,0.09236678,-2.6665301,-1.5809739,-11.307825,20.484287,67.16631,5.593575,10.642596,-0.19870083
222,-7.9537177085876465,-163.94061279296875,73.720703125,-2.091326927780324,1.5030695535117975,-88.81330854876924,5.748964,4.885372,0.7875297,64.90187,-4.628316,4.0960245,-31.362963,1.847679,-9.068624,38.667732,-10.585547,-7.3435006,-11.57679,3.387808,7.1736045,-1.7779614,16.874794,-27.258068,46.806583,-9.364699,0.6989436,-3.281387,-1.9838345,-11.1741705,20.59931,66.907196,5.554391,10.6142845,-0.27260825
223,-8.032980918884277,-164.72706604003906,73.84673309326172,-2.2660933547080293,1.4706218829362134,-88.68803468935252,4.1972823,5.0954413,0.3077123,67.714806,-3.1938024,3.892257,-30.534697,2.0699291,-9.2620945,38.630447,-11.329629,-7.3963866,-11.512486,3.507429,7.2216797,-1.6455959,16.735546,-27.282879,47.710556,-9.217162,1.2559077,-3.86787,-2.3879616,-11.042974,20.704033,66.5815,5.5540166,10.555894,-0.32986704
224,-8.114097595214844,-165.4977264404297,73.97249603271484,-2.436058991448363,1.4378235281080822,-88.57325210122819,2.7201383,5.257824,-0.15940586,70.254654,-2.3933067,3.736366,-29.669113,2.298112,-9.434682,38.488445,-12.004223,-7.405107,-11.422902,3.6227658,7.2713714,-1.5095438,16.600336,-27.303308,48.603603,-9.044499,1.7141664,-4.3598213,-2.805729,-10.922382,20.830744,66.21991,5.6070604,10.477341,-0.38026717
225,-8.184834480285645,-166.25308227539062,74.10541534423828,-2.6118091897341382,1.4091273905282586,-88.46939436441261,1.3453175,5.402446,-0.5900762,72.50069,-2.4540067,3.6646178,-28.766321,2.543247,-9.594193,38.223446,-12.598082,-7.348851,-11.31083,3.7501266,7.321556,-1.3725239,16.467428,-27.331556,49.494476,-8.850892,2.0576487,-4.751006,-3.2406197,-10.818499,20.980299,65.82625,5.733189,10.366876,-0.4140076
226,-8.245970726013184,-167.0,74.2443618774414,-2.796895628218298,1.389233316804401,-88.36117401641849,0.008046846,5.532035,-1.025987,74.53687,-3.1568034,3.644344,-27.82416,2.8015592,-9.755001,37.82917,-13.117877,-7.242845,-11.185075,3.894312,7.371796,-1.2426555,16.33544,-27.364635,50.384808,-8.636473,2.3135443,-5.0731473,-3.6801279,-10.7313795,21.13818,65.37782,5.9191422,10.224853,-0.4277081
227,-8.305465698242188,-167.74685668945312,74.39144134521484,-2.9717888474225136,1.3650735406348324,-88.25942721119455,-1.3140314,5.604006,-1.4769585,76.371254,-4.1659036,3.616801,-26.846878,3.0611317,-9.898269,37.345592,-13.578023,-7.1305065,-11.034054,4.0271907,7.4254084,-1.1056526,16.20462,-27.37421,51.25087,-8.398528,2.4982924,-5.3162365,-4.1165376,-10.660604,21.319103,64.86877,6.1339726,10.07975,-0.4424212
228,-8.353570938110352,-168.4846649169922,74.54568481445312,-3.116193211199588,1.3233727005793363,-88.17308571028605,-2.6391003,5.5703526,-1.9536551,78.00437,-5.1438246,3.5191631,-25.835812,3.3072267,-10.006393,36.815235,-13.99739,-7.0542145,-10.850099,4.1205044,7.487102,-0.9443454,16.076618,-27.331009,52.065067,-8.134783,2.6284678,-5.4709883,-4.543972,-10.603404,21.53944,64.296906,6.3475003,9.956952,-0.478851
229,-8.407805442810059,-169.22438049316406,74.70103454589844,-3.228341483758571,1.2594377258193699,-88.10320381682128,-3.9705467,5.396426,-2.479395,79.4286,-6.078752,3.3174155,-24.784147,3.5386999,-10.077847,36.23709,-14.372352,-7.034699,-10.628884,4.1677775,7.561315,-0.75274485,15.952244,-27.222239,52.8302,-7.8030014,2.6858077,-5.522872,-4.958451,-10.557564,21.807673,63.64394,6.566223,9.873949,-0.55153006
230,-8.451639175415039,-169.9519500732422,74.86420440673828,-3.319410945546909,1.1803186760823927,-88.04494960619338,-5.295995,5.117626,-3.034318,80.64417,-7.1223044,3.051326,-23.69215,3.7631223,-10.122134,35.59284,-14.697236,-7.047038,-10.377998,4.1850767,7.645373,-0.5373325,15.831751,-27.06286,53.554073,-7.4190145,2.6703827,-5.4805746,-5.365329,-10.521709,22.116648,62.918526,6.802439,9.812722,-0.6466772
231,-8.497623443603516,-170.67745971679688,75.03083038330078,-3.388229102424675,1.0902408277779585,-87.99894866434856,-6.6109595,4.790049,-3.5679872,81.66147,-8.1837635,2.7646072,-22.572573,3.9767742,-10.1384,34.89995,-14.986433,-7.0641527,-10.107002,4.1760592,7.732484,-0.2999611,15.717014,-26.863556,54.218563,-7.064979,2.6259906,-5.3693333,-5.7711787,-10.496506,22.456905,62.15296,7.0304804,9.750548,-0.74423856
232,-8.569282531738281,-171.4014434814453,75.19879913330078,-3.434365246196431,0.9934838530236672,-87.96623465485047,-7.912264,4.472474,-4.0311136,82.4893,-9.169332,2.5042503,-21.437807,4.1768456,-10.125388,34.17478,-15.253671,-7.0585566,-9.825225,4.145036,7.816717,-0.041492254,15.610914,-26.633747,54.803043,-6.822224,2.5963902,-5.215204,-6.1820517,-10.483342,22.81987,61.377586,7.2260785,9.665708,-0.82376903
233,-8.617238998413086,-172.12347412109375,75.36357116699219,-3.4506563349789836,0.8852297018407608,-87.94063522905999,-9.199732,4.1412525,-4.440008,83.118095,-10.061453,2.27459,-20.279305,4.3536735,-10.084686,33.415024,-15.502664,-7.017282,-9.537755,4.084549,7.8998184,0.24706198,15.514649,-26.365812,55.292477,-6.709902,2.5865016,-4.9938254,-6.5950947,-10.482901,23.212538,60.588604,7.396269,9.546275,-0.885104
234,-8.669734954833984,-172.83567810058594,75.53353881835938,-3.4402027986902555,0.7649977595381026,-87.92399382998119,-10.47623,3.7835643,-4.812467,83.544586,-10.903599,2.0552166,-19.093184,4.5113096,-10.017476,32.612774,-15.725361,-6.9572554,-9.238684,3.995856,7.985499,0.56493634,15.428403,-26.057344,55.697487,-6.6852813,2.5751657,-4.7020245,-7.0078464,-10.49505,23.636759,59.7714,7.5495844,9.406388,-0.93687415
235,-8.718025207519531,-173.54844665527344,75.69635009765625,-3.4186246763318127,0.6437953651360657,-87.92923724962442,-11.741819,3.4711864,-5.106355,83.78423,-11.699118,1.8513628,-17.901302,4.6655107,-9.92141,31.780813,-15.920619,-6.8954096,-8.916399,3.895117,8.071015,0.8955098,15.3561,-25.73338,56.034477,-6.7415495,2.5661135,-4.39851,-7.421622,-10.517468,24.07003,58.934345,7.6620493,9.262543,-0.97099733
236,-8.764145851135254,-174.2581787109375,75.85319519042969,-3.396718918267857,0.5327464805857035,-87.96898935504514,-12.998169,3.2746394,-5.280352,83.85311,-12.450826,1.6671538,-16.725292,4.8320704,-9.793281,30.931688,-16.086624,-6.848831,-8.570646,3.8006167,8.152574,1.2255743,15.294485,-25.404749,56.322975,-6.866586,2.5620408,-4.142105,-7.844733,-10.54964,24.503166,58.09213,7.7129292,9.131565,-0.98115736
237,-8.811442375183105,-174.96461486816406,76.00543212890625,-3.378118764339229,0.4315606623934084,-88.04901763113747,-14.244866,3.2219691,-5.310199,83.742516,-13.166059,1.5012794,-15.559788,5.017811,-9.627065,30.053467,-16.213963,-6.825646,-8.174933,3.7084002,8.230482,1.5421461,15.251234,-25.09334,56.57188,-7.102428,2.5642862,-3.9239542,-8.26967,-10.587799,24.918974,57.240444,7.6709075,9.009063,-0.9536598
238,-8.854134559631348,-175.6692352294922,76.15402221679688,-3.354863165176599,0.33552789320882404,-88.16199226613897,-15.480252,3.2737408,-5.2234836,83.445114,-13.83964,1.3497974,-14.397256,5.2115064,-9.42509,29.14738,-16.308376,-6.8157783,-7.7544346,3.6139054,8.307021,1.8663924,15.220374,-24.76584,56.764454,-7.4343505,2.5696495,-3.7222497,-8.704326,-10.636798,25.349007,56.379337,7.562262,8.88944,-0.8980861
239,-8.90225887298584,-176.36854553222656,76.2899398803711,-3.3261678468249416,0.24894663028884442,-88.30122498091313,-16.704165,3.3971882,-5.0557218,82.976906,-14.454179,1.2117625,-13.255327,5.401409,-9.195427,28.241438,-16.387857,-6.80883,-7.317469,3.5210025,8.379094,2.196551,15.204612,-24.438274,56.8945,-7.792402,2.5783694,-3.571321,-9.14352,-10.694624,25.767214,55.507526,7.425414,8.785988,-0.8359019
240,-8.92866325378418,-177.0606231689453,76.41619110107422,-3.2913772547351074,0.17623480955522994,-88.46002196985789,-17.916317,3.5594883,-4.842135,82.35561,-14.993512,1.0873739,-12.150498,5.5766516,-8.947309,27.36075,-16.46931,-6.7947564,-6.8766575,3.4326093,8.441925,2.53332,15.206798,-24.12277,56.95642,-8.106426,2.5913947,-3.50601,-9.588856,-10.757386,26.153692,54.63322,7.3000937,8.711407,-0.7893737
