unveil-humanoid-operators/unveil-humanoid-operators.github.io/feature-analysis-animation/data/feature_matrix_instances/weight_root_translate_peak_vel_walking_A064_walk_ff_loop_270_004__A064.csv
Frame,root_translateX,root_translateY,root_translateZ,root_rotateX,root_rotateY,root_rotateZ,left_hip_pitch_joint_dof,left_hip_roll_joint_dof,left_hip_yaw_joint_dof,left_knee_joint_dof,left_ankle_pitch_joint_dof,left_ankle_roll_joint_dof,right_hip_pitch_joint_dof,right_hip_roll_joint_dof,right_hip_yaw_joint_dof,right_knee_joint_dof,right_ankle_pitch_joint_dof,right_ankle_roll_joint_dof,waist_yaw_joint_dof,waist_roll_joint_dof,waist_pitch_joint_dof,left_shoulder_pitch_joint_dof,left_shoulder_roll_joint_dof,left_shoulder_yaw_joint_dof,left_elbow_joint_dof,left_wrist_roll_joint_dof,left_wrist_pitch_joint_dof,left_wrist_yaw_joint_dof,right_shoulder_pitch_joint_dof,right_shoulder_roll_joint_dof,right_shoulder_yaw_joint_dof,right_elbow_joint_dof,right_wrist_roll_joint_dof,right_wrist_pitch_joint_dof,right_wrist_yaw_joint_dof
0,-2.0434622764587402,0.053106654435396194,76.46035766601562,-0.699779811427231,-0.8109450156669383,0.6864161747170487,7.5245194,-1.2982881,14.338838,19.057516,-22.488253,-1.1297171,-25.470785,-9.037643,-40.40304,55.923393,2.9099536,9.348539,-3.0305176,-3.1457272,16.753708,0.64843225,12.063133,-6.4345145,60.942093,7.356579,4.9959083,15.234989,5.6519895,-7.88608,7.768283,61.05383,-4.4307146,3.7617936,-16.76004
1,-2.115534782409668,-0.5976250767707825,76.60519409179688,-0.921401552042648,-0.8030180946545676,0.4039529667549621,7.396945,-0.35515437,14.48438,19.256586,-22.26048,-1.7857208,-24.661129,-10.975132,-41.292103,55.98205,1.6309258,7.8349943,-2.875654,-2.8587084,16.775246,1.097278,12.044915,-7.182491,62.09315,7.1226225,5.313627,14.803254,4.953551,-7.9679966,7.9788456,61.010498,-4.6405,3.8463304,-16.830389
2,-2.179111957550049,-1.2509833574295044,76.7463150024414,-1.1523546210372124,-0.799935369704545,0.11221653116943553,7.266987,0.5988129,14.630534,19.46644,-22.036139,-2.4310708,-23.873884,-12.869768,-42.1955,56.054893,0.28285974,6.3818493,-2.6946304,-2.5110571,16.801785,1.5175974,11.995291,-7.9840956,63.28876,6.8538175,5.634078,14.368354,4.29428,-8.121961,8.166393,60.92495,-4.843155,3.9359252,-16.88235
3,-2.2383413314819336,-1.9116501808166504,76.88167572021484,-1.372740258357026,-0.7871929993960347,-0.16830301457053645,7.135243,1.5399425,14.759896,19.658169,-21.799763,-3.095201,-23.106352,-14.733023,-43.07954,56.046467,-1.0515058,4.9975243,-2.5307124,-2.1605275,16.80587,1.9553022,11.926395,-8.753287,64.42878,6.6445837,5.956158,13.953427,3.6502001,-8.302053,8.352578,60.824875,-5.0335245,4.017264,-16.911205
4,-2.2711358070373535,-2.580685615539551,77.00716400146484,-1.5625828755470392,-0.7502133080562563,-0.41703057120671333,6.997067,2.4459915,14.855351,19.814722,-21.54272,-3.8080118,-22.3607,-16.57762,-43.916176,55.864273,-2.289024,3.6869218,-2.382604,-1.8361744,16.764547,2.422559,11.843193,-9.473192,65.434296,6.5645123,6.277122,13.582508,3.044812,-8.495511,8.5028925,60.692352,-5.2090983,4.0761275,-16.89281
5,-2.3137152194976807,-3.241903781890869,77.1172103881836,-1.7191048307874777,-0.682012622450543,-0.628163344402884,6.853219,3.3129277,14.920241,19.921215,-21.258694,-4.586398,-21.605669,-18.45445,-44.789062,55.496025,-3.4469678,2.4009912,-2.259266,-1.5485036,16.668747,2.9266117,11.744655,-10.15473,66.29621,6.683877,6.6119666,13.243457,2.477716,-8.693041,8.603465,60.524025,-5.358251,4.1036716,-16.805376
6,-2.3523011207580566,-3.903719425201416,77.21273040771484,-1.8517568359186936,-0.5904688095591344,-0.8134443862289206,6.7055755,4.1506176,14.962095,19.989199,-20.954151,-5.411638,-20.856804,-20.339273,-45.69227,54.991875,-4.5560966,1.1531653,-2.1505675,-1.2874776,16.531675,3.4559875,11.634871,-10.809618,67.05634,6.945444,6.9558597,12.928313,1.9375079,-8.893013,8.666915,60.33271,-5.4904737,4.108623,-16.670609
7,-2.3792898654937744,-4.581164360046387,77.29218292236328,-1.9584229693701254,-0.4832719150553177,-0.977721652566516,6.550626,4.957607,14.968923,20.042702,-20.640965,-6.259844,-20.191883,-22.146486,-46.45961,54.362263,-5.541204,0.029063858,-2.0367568,-1.0501671,16.36608,3.9993997,11.522333,-11.409316,67.710396,7.231861,7.2713003,12.666148,1.4302168,-9.097434,8.707451,60.121048,-5.6300693,4.1033883,-16.526371
8,-2.3977999687194824,-5.278939723968506,77.35779571533203,-2.0366428316347456,-0.3688893489263504,-1.1246454216743895,6.3869977,5.7315335,14.927909,20.100893,-20.328684,-7.107237,-19.68667,-23.802095,-46.916744,53.614986,-6.3188634,-0.90121543,-1.9003006,-0.8358879,16.185345,4.54625,11.417681,-11.923658,68.25185,7.424237,7.5225625,12.486508,0.95994085,-9.3122635,8.741825,59.893154,-5.8004274,4.100219,-16.410782
9,-2.412290573120117,-5.978642463684082,77.40947723388672,-2.086642970815355,-0.23644789353266077,-1.2489877376216483,6.19734,6.471929,14.821908,20.170742,-20.015171,-7.962116,-19.363289,-25.312773,-47.025127,52.743267,-6.894289,-1.6474445,-1.7389678,-0.6446991,15.981159,5.0994725,11.325672,-12.36613,68.66173,7.4856453,7.702497,12.403616,0.5348471,-9.538827,8.76909,59.634098,-6.0181155,4.10435,-16.318798
10,-2.4156546592712402,-6.685162544250488,77.442626953125,-2.1084124296339923,-0.08649405787921137,-1.3491120439616604,5.9896054,7.1780357,14.661119,20.238258,-19.697006,-8.832491,-19.18152,-26.728441,-46.86288,51.754044,-7.291294,-2.265381,-1.5628096,-0.48101956,15.753082,5.6643686,11.244802,-12.746276,68.94451,7.478137,7.830009,12.397745,0.15106885,-9.776179,8.78239,59.344246,-6.2665677,4.1084895,-16.234467
11,-2.4042797088623047,-7.392240524291992,77.45433044433594,-2.099903614570016,0.05519211078789741,-1.4330630409071063,5.799534,7.8472886,14.473303,20.295597,-19.383013,-9.69403,-19.122187,-28.04997,-46.426292,50.683086,-7.4549956,-2.765222,-1.3758268,-0.34721175,15.527751,6.236771,11.172434,-13.024311,69.124214,7.4348254,7.9082975,12.447759,-0.20257536,-10.022064,8.792708,59.04604,-6.51704,4.1062527,-16.17677
12,-2.39817476272583,-8.108317375183105,77.45263671875,-2.0588563778698816,0.16282003548733986,-1.5092199320772588,5.66166,8.477599,14.28769,20.337112,-19.082123,-10.52202,-19.163574,-29.276867,-45.711884,49.56433,-7.3313093,-3.1554718,-1.1846254,-0.24655959,15.3314085,6.815233,11.1051,-13.156528,69.22316,7.3899117,7.940745,12.532488,-0.5399587,-10.274478,8.813265,58.764137,-6.741428,4.0916557,-16.165672
13,-2.382972002029419,-8.839043617248535,77.43537139892578,-1.9797216067868044,0.23300610856205264,-1.5759820715251949,5.5829086,9.060483,14.105251,20.354595,-18.790003,-11.304488,-19.333565,-30.396635,-44.636677,48.39746,-6.8975463,-3.4463174,-0.9903971,-0.18549626,15.169542,7.4085608,11.038384,-13.107364,69.22635,7.362178,7.9166164,12.666169,-0.86153215,-10.530586,8.84583,58.50088,-6.9224405,4.0539517,-16.235466
14,-2.356696605682373,-9.56326675415039,77.39861297607422,-1.8650999842980864,0.27827446221607083,-1.6297936000392015,5.5448294,9.600465,13.91449,20.354923,-18.504118,-12.056417,-19.621878,-31.417229,-43.21466,47.175385,-6.1903467,-3.645524,-0.7937012,-0.16050974,15.029076,8.016601,10.970308,-12.904758,69.12865,7.3315673,7.8378396,12.85403,-1.1642246,-10.789384,8.887347,58.247425,-7.0783486,4.000049,-16.367441
15,-2.33718204498291,-10.305914878845215,77.34681701660156,-1.7254244617741792,0.296847831192428,-1.676354942721487,5.5428452,10.115687,13.726296,20.357508,-18.23721,-12.793495,-19.95327,-32.367653,-41.590347,45.92093,-5.245859,-3.7501502,-0.5978895,-0.16059403,14.908002,8.624155,10.903155,-12.601163,68.96793,7.274574,7.7268143,13.061512,-1.4568955,-11.056244,8.943374,58.013123,-7.2338967,3.9499438,-16.501453
16,-2.307137966156006,-11.053679466247559,77.2730941772461,-1.5706407676425729,0.2871704892095126,-1.7215235680018246,5.574001,10.62393,13.552092,20.378792,-18.00005,-13.531412,-20.260172,-33.27765,-39.910995,44.656204,-4.098092,-3.7528186,-0.4057935,-0.17377616,14.804866,9.216396,10.841426,-12.249384,68.77971,7.1667175,7.605691,13.25319,-1.7462231,-11.339246,9.018944,57.804066,-7.4134936,3.9234695,-16.576149
17,-2.2595551013946533,-11.81113338470459,77.17798614501953,-1.3909538149562448,0.2333515683647062,-1.76841399099889,5.6712174,11.109562,13.414975,20.399399,-17.804028,-14.266193,-20.520863,-34.156464,-38.17491,43.340763,-2.67238,-3.5567312,-0.21329969,-0.20582312,14.731718,9.807262,10.784715,-11.835821,68.54484,6.982629,7.468695,13.416601,-2.0270424,-11.644591,9.110837,57.6179,-7.6283827,3.9342237,-16.573278
18,-2.2147910594940186,-12.585748672485352,77.07160186767578,-1.1844780653774292,0.1423295536544984,-1.8156795939088703,5.824028,11.571353,13.306326,20.42366,-17.643574,-14.993337,-20.775425,-34.9834,-36.296757,41.987797,-0.99086285,-3.1885557,-0.017524444,-0.25785464,14.6857395,10.398774,10.731025,-11.342958,68.251526,6.740704,7.3075056,13.570208,-2.2941487,-11.971619,9.217583,57.447617,-7.862589,3.9683628,-16.523865
19,-2.1778182983398438,-13.348306655883789,76.9471664428711,-0.8731965443611789,0.06754662625677596,-1.823988898000141,5.967049,11.803691,13.10614,20.3567,-17.423895,-15.000033,-21.125378,-35.891834,-34.24458,40.733295,0.7859379,-2.799312,0.14225234,-0.4052944,14.623978,10.960051,10.684945,-10.816947,67.94351,6.4826164,7.1406965,13.72416,-2.554481,-12.315555,9.345823,57.293545,-8.099798,4.0043044,-16.439594
20,-2.1241111755371094,-14.12617301940918,76.80123138427734,-0.5402238775444691,0.02714203068209349,-1.8114337280665038,6.032101,12.026962,12.847371,20.342577,-17.179619,-15.000033,-21.555275,-36.77693,-32.10892,39.633266,2.4996696,-2.5890925,0.28190473,-0.5795349,14.536018,11.46021,10.654128,-10.308143,67.66288,6.247724,6.9874897,13.888471,-2.8132367,-12.669092,9.497695,57.15349,-8.325547,4.0203648,-16.332054
21,-2.0717427730560303,-14.941343307495117,76.64495849609375,-0.2161584519533346,0.021784673812141966,-1.779026046863706,5.9883027,12.289022,12.52003,20.446114,-16.949837,-15.000033,-22.061451,-37.61697,-29.925732,38.67684,4.22918,-2.6276135,0.41307333,-0.7496519,14.42143,11.892347,10.645892,-9.826253,67.41808,6.032329,6.8462896,14.074462,-3.0622408,-13.028904,9.665255,57.022064,-8.541293,3.9981017,-16.191603
22,-2.022982120513916,-15.783770561218262,76.4810562133789,0.1075013640153243,0.03423131717400703,-1.7329462414994257,5.8738985,12.575601,12.151333,20.641663,-16.739256,-15.000033,-22.629711,-38.4028,-27.675451,37.823696,6.021411,-2.8141387,0.54173315,-0.9247438,14.294381,12.273509,10.661644,-9.3478155,67.18357,5.8185873,6.709276,14.272585,-3.3006284,-13.393994,9.846193,56.900307,-8.753681,3.9526103,-16.016287
23,-1.9765522480010986,-16.630081176757812,76.30848693847656,0.41616542902474407,0.05697602176562804,-1.6945110487561788,5.710781,12.906129,11.767152,20.913479,-16.521183,-15.000033,-23.227612,-39.0717,-25.38128,37.089367,7.6869316,-3.096597,0.67320484,-1.09799,14.164316,12.610142,10.699228,-8.872181,66.95174,5.6244793,6.5863132,14.462443,-3.5465078,-13.761861,10.050397,56.797684,-8.95876,3.9131129,-15.830945
24,-1.9422154426574707,-17.501386642456055,76.13043975830078,0.6934569394876346,0.08236145404994831,-1.6846925675636004,5.522236,13.302616,11.3918085,21.242197,-16.266068,-15.000033,-23.80384,-39.56145,-23.08079,36.47988,9.038659,-3.4243324,0.81163216,-1.2607781,14.040552,12.9078,10.754905,-8.399297,66.71701,5.467996,6.4873734,14.624722,-3.819529,-14.130559,10.289526,56.72594,-9.151877,3.9090652,-15.660135
25,-1.9052280187606812,-18.4014892578125,75.95374298095703,0.9411500999491629,0.10240532205673282,-1.7172839678405845,5.296644,13.765261,11.024975,21.675999,-15.991596,-15.000033,-24.36035,-39.898952,-20.79649,36.03566,9.995614,-3.9538865,0.9682993,-1.4155221,13.933551,13.164354,10.824606,-7.9176836,66.478455,5.3592987,6.4256444,14.756239,-4.130899,-14.505218,10.571588,56.68464,-9.353807,3.9614804,-15.494256
26,-1.8625231981277466,-19.32790184020996,75.77936553955078,1.1637628533697792,0.12239621755757454,-1.7773067732850796,5.0252423,14.286897,10.653651,22.207422,-15.703236,-15.000033,-24.899233,-40.10583,-18.534983,35.736546,10.675795,-4.663435,1.1347449,-1.561483,13.83603,13.377873,10.9072695,-7.429789,66.24102,5.287957,6.3925886,14.8679085,-4.4697356,-14.886994,10.891261,56.669426,-9.558751,4.0504255,-15.325125
27,-1.8094247579574585,-20.273164749145508,75.6102523803711,1.347825228659947,0.15529733855626193,-1.8422944663376855,4.740516,14.879754,10.281797,22.724665,-15.349386,-15.000033,-25.340103,-40.11256,-16.320421,35.48319,11.193658,-5.227644,1.286883,-1.6840351,13.730736,13.554709,11.005791,-6.9590964,66.00797,5.2395477,6.3658266,14.9617195,-4.820463,-15.263483,11.235763,56.684566,-9.726306,4.1443486,-15.181147
28,-1.7552971839904785,-21.26436424255371,75.44348907470703,1.4795560372342602,0.21360939579031907,-1.8899706390240965,4.4744754,15.555452,9.911655,23.11791,-14.881634,-15.000033,-25.589998,-39.859154,-14.173673,35.174046,11.65956,-5.313238,1.4020321,-1.7721984,13.600098,13.703351,11.126802,-6.5285416,65.778656,5.2002387,6.32449,15.039107,-5.1690617,-15.615518,11.590794,56.738148,-9.816915,4.211927,-15.092967
29,-1.6958171129226685,-22.286582946777344,75.2878189086914,1.5480459089903624,0.2927773406584955,-1.9282689377351196,4.234183,16.328476,9.5437975,23.401693,-14.307778,-15.000033,-25.720715,-39.30108,-11.920013,34.934807,12.162551,-5.1732616,1.4842299,-1.819529,13.445632,13.827573,11.27857,-6.149291,65.55638,5.1650314,6.2559876,15.098486,-5.5355678,-15.938881,11.993798,56.86211,-9.805871,4.2425537,-15.085819
30,-1.6188511848449707,-23.350040435791016,75.13538360595703,1.5605721556496392,0.38750965855365405,-1.9637807031211827,4.003779,17.190645,9.17217,23.615538,-13.645257,-15.000033,-25.710653,-38.484615,-9.63175,34.7612,12.6193495,-4.8614273,1.5429422,-1.8368781,13.274805,13.927172,11.463082,-5.806145,65.33485,5.141745,6.175481,15.138694,-5.923055,-16.23527,12.436117,57.046524,-9.721591,4.2539473,-15.140239
31,-1.551139235496521,-24.436872482299805,74.98736572265625,1.533817454297422,0.5092197354376206,-1.9713167225212573,3.7740238,18.119066,8.7858305,23.706495,-12.862198,-15.000033,-25.344004,-37.51417,-7.673659,34.35827,12.850559,-3.753303,1.5642852,-1.8413149,13.080118,13.995538,11.677745,-5.486884,65.117065,5.132067,6.0942173,15.164112,-6.2892337,-16.488203,12.831073,57.235752,-9.604939,4.257754,-15.220305
32,-1.4886963367462158,-25.557024002075195,74.8893051147461,1.4896259774307457,0.6687357251583578,-1.9241614722450548,3.5382643,19.084274,8.372592,23.62072,-11.926242,-15.000033,-24.427711,-36.52436,-6.409505,33.414925,12.653761,-1.2538171,1.5336341,-1.8581605,12.853431,14.0261135,11.922011,-5.17859,64.90687,5.1383457,6.0237255,15.180749,-6.5962777,-16.6745,13.091013,57.382767,-9.500203,4.2658567,-15.292649
33,-1.4051547050476074,-26.745849609375,74.76864624023438,1.4478741248042561,0.8684670196149044,-1.8197909978758995,3.3373172,20.064665,7.908287,23.285099,-10.815747,-15.000033,-22.682087,-35.547207,-6.0883675,31.486174,11.916216,3.5575771,1.4381577,-1.9151453,12.5813265,14.030976,12.206913,-4.878458,64.70476,5.1679516,5.9645996,15.184068,-6.8523993,-16.771133,13.201666,57.505054,-9.425509,4.2835,-15.360634
34,-1.3181614875793457,-27.96851348876953,74.64408874511719,1.4132489259985075,1.0987728665295784,-1.6642805634093,3.169734,21.057135,7.4009542,22.739496,-9.55033,-15.000033,-20.321186,-34.60891,-6.6528506,28.783016,10.740418,9.964167,1.2825396,-2.0226908,12.273501,14.014216,12.540937,-4.590272,64.50578,5.2163587,5.9118757,15.172479,-7.082599,-16.77537,13.205972,57.635387,-9.3598795,4.303655,-15.442889
35,-1.2493342161178589,-29.23903465270996,74.53988647460938,1.1843809723037517,1.424438848639396,-1.555066021831435,2.8820844,22.330393,6.931728,22.18827,-8.201464,-15.000033,-17.9638,-33.54887,-8.308301,25.953753,9.330138,15.000033,1.1817467,-1.9873339,11.887038,13.951928,12.911427,-4.313284,64.31142,5.267831,5.868712,15.158356,-7.269122,-16.703457,13.099942,57.745495,-9.291363,4.3187256,-15.527826
36,-1.223440408706665,-30.560386657714844,74.49188995361328,0.36747488436203907,1.9790758610848616,-1.6868477782449975,2.247201,24.408037,6.613629,21.887707,-6.8506055,-15.000033,-16.2353,-31.7795,-11.123769,23.517176,8.007031,15.000033,1.3386804,-1.4269705,11.31158,13.811495,13.290513,-4.0508947,64.130585,5.3076572,5.837694,15.15771,-7.38993,-16.587614,12.880062,57.80029,-9.20558,4.3208423,-15.601415
37,-1.1879552602767944,-31.880769729614258,74.4559097290039,-0.10238132920708055,2.452756206474073,-1.511232948726795,1.6178511,25.9963,6.048977,21.368744,-5.3099246,-15.000033,-15.063287,-30.399551,-13.076416,22.092014,6.3257403,15.000033,1.2473512,-1.1943551,10.853091,13.5890875,13.676132,-3.8020937,63.96389,5.3432446,5.8269424,15.17763,-7.4084067,-16.432522,12.485725,57.748005,-9.125545,4.3212867,-15.645278
38,-1.1310842037200928,-33.17292404174805,74.43359375,-0.3813070231254969,2.897514886009461,-1.1353325847449114,0.93192005,27.32546,5.3162823,20.73836,-3.6282036,-15.000033,-14.227864,-29.250666,-14.732946,21.301434,4.258325,15.000033,0.996245,-1.1415539,10.455764,13.292454,14.071207,-3.5707908,63.813076,5.3791723,5.8322034,15.210571,-7.342646,-16.236391,11.937348,57.614212,-9.048355,4.3195987,-15.668562
39,-1.089841604232788,-34.446815490722656,74.43109130859375,-0.5627273305953818,3.306455109862504,-0.6696578370058909,0.16834158,28.544968,4.708989,20.185154,-1.8832152,-15.000033,-13.692803,-28.247654,-16.169607,21.047861,2.019584,15.000033,0.6773214,-1.1847928,10.125691,12.935388,14.467608,-3.3522732,63.662945,5.4038196,5.8393564,15.243887,-7.248945,-16.020288,11.3692465,57.465973,-8.906631,4.296736,-15.69247
40,-1.0555139780044556,-35.731929779052734,74.43032836914062,-0.7424815192461157,3.673989073830252,-0.22644531077448327,-0.6919475,29.823282,4.5411444,19.897738,-0.13156156,-15.000033,-13.406552,-27.283651,-17.436592,21.203102,-0.15070736,15.000033,0.3792078,-1.2361526,9.869387,12.532747,14.847279,-3.1375928,63.49733,5.4077415,5.834274,15.2661495,-7.1770573,-15.816986,10.919664,57.360382,-8.631316,4.234089,-15.735287
41,-1.040666103363037,-37.003849029541016,74.43373107910156,-0.9247017486063833,3.989160814935313,0.19357470608608185,-1.7048992,31.192635,4.8053827,19.978128,1.8114965,-15.000033,-13.386299,-26.387207,-18.54846,21.888924,-2.2874725,15.000033,0.11599656,-1.2814159,9.719476,12.063328,15.197102,-2.9193356,63.307068,5.384554,5.8145623,15.266426,-7.1176567,-15.649401,10.611245,57.279552,-8.137194,4.103445,-15.808549
42,-1.0380622148513794,-38.2598762512207,74.48011016845703,-1.0890179305226597,4.249555695364007,0.637605480021814,-2.8621256,32.61467,5.3184643,20.381187,3.8738644,-15.000033,-13.608878,-25.600939,-19.540611,23.123873,-4.4689355,15.000033,-0.15863352,-1.3287661,9.671816,11.524723,15.510059,-2.7013924,63.104202,5.3437667,5.787287,15.255828,-7.0457344,-15.520687,10.382341,57.192562,-7.477753,3.922134,-15.893886
43,-1.049028754234314,-39.51789855957031,74.54197692871094,-1.2926076278603305,4.462796119528885,1.0565322338958254,-4.024633,34.15347,6.1748533,20.998392,5.637467,-15.000033,-13.952108,-24.806799,-20.450201,24.591572,-6.5227566,15.000033,-0.43873817,-1.3281592,9.677879,10.962535,15.774785,-2.4902883,62.903313,5.301823,5.751636,15.2564,-6.9877462,-15.43232,10.248043,57.13872,-6.7885256,3.7403622,-15.965911
44,-1.056560754776001,-40.769317626953125,74.60579681396484,-1.5878379769941138,4.636917581610938,1.3958152774483048,-5.0241647,35.867672,7.5263534,21.697306,6.6953983,-15.000033,-14.297767,-23.888744,-21.29232,25.979216,-8.293004,15.000033,-0.7190786,-1.2324909,9.688402,10.42555,15.97135,-2.2865322,62.718483,5.278127,5.7073145,15.293486,-6.977269,-15.388152,10.229823,57.16342,-6.2054152,3.6092763,-16.003199
45,-1.0600415468215942,-42.022300720214844,74.67184448242188,-2.029222149993806,4.766426762597918,1.6094671946709316,-5.8015504,37.899143,9.592297,22.490664,6.870621,-15.000033,-14.692216,-22.780031,-22.000637,27.359653,-9.731632,15.000033,-0.97926754,-1.0007186,9.70664,9.928605,16.094368,-2.051281,62.53776,5.283248,5.653592,15.387753,-7.0677037,-15.394057,10.40376,57.318615,-5.7318482,3.5405293,-15.987754
46,-1.0753246545791626,-43.21321105957031,74.70606231689453,-2.569544540580343,4.830071031844559,1.7194200624677163,-6.310662,40.19429,12.359318,23.400568,6.3837214,-15.000033,-15.12643,-21.561455,-22.5687,28.835367,-10.934913,15.000033,-1.2213132,-0.6786908,9.772349,9.4567375,16.15543,-1.7811995,62.350643,5.3072586,5.5906205,15.517659,-7.2366014,-15.450533,10.75034,57.57221,-5.299844,3.508295,-15.935671
47,-1.0675758123397827,-44.35994338989258,74.73552703857422,-3.1152131821595543,4.837477838744816,1.7687285475532477,-6.4274135,42.50904,15.744268,24.305162,5.4398646,-14.650034,-15.454477,-20.3121,-23.098738,30.148792,-11.954752,14.8679495,-1.4368747,-0.33134323,9.865879,8.982352,16.149359,-1.5714197,62.198574,5.335349,5.521227,15.662099,-7.387663,-15.534324,11.100661,57.844242,-4.962438,3.507494,-15.884431
48,-1.0687708854675293,-45.485679626464844,74.8073501586914,-3.3981219307801074,4.9676525593733745,1.879637554015603,-6.28267,44.342323,19.73144,25.035725,4.310656,-13.140827,-15.814165,-19.309649,-23.683607,31.149643,-12.846815,13.901273,-1.7315172,-0.20317854,9.810809,8.501407,16.093443,-1.4777753,62.100204,5.3567038,5.4436626,15.77977,-7.42691,-15.627081,11.325611,58.040676,-4.7501574,3.5326364,-15.867563
49,-1.060591459274292,-46.56246566772461,74.87666320800781,-3.596495035548923,5.019893178110645,2.0174246136170844,-5.562377,45.85305,24.021608,25.531763,2.920824,-12.240215,-15.843941,-18.378618,-24.372423,31.687288,-13.622894,13.1187525,-2.0713558,-0.09712509,9.7929125,8.020405,15.935008,-1.520748,62.070705,5.3295355,5.337758,15.904592,-7.3364825,-15.774752,11.400119,58.12365,-4.777087,3.6264477,-15.855441
50,-1.0387444496154785,-47.609954833984375,74.97080993652344,-3.7468711677134863,5.0039950089013185,2.155851278573838,-4.3052654,47.10386,28.747412,25.870445,1.2145364,-11.78707,-15.647884,-17.47723,-25.103685,31.895458,-14.253613,12.462696,-2.4131815,-0.015640939,9.803336,7.5226555,15.716261,-1.6931129,62.108772,5.262814,5.211132,16.042734,-7.15536,-15.931334,11.354614,58.153744,-5.010181,3.775594,-15.848548
51,-0.9938336610794067,-48.63957214355469,75.09249114990234,-3.8542422617734604,4.956783107228723,2.312896943631615,-2.744564,48.039085,33.500603,26.173164,-0.58107924,-11.592164,-15.316927,-16.604187,-25.872128,31.871317,-14.781403,11.84892,-2.7517838,0.051963456,9.816349,6.9930935,15.454298,-1.9919144,62.18738,5.2439713,5.109206,16.13172,-6.863687,-16.094917,11.199515,58.144276,-5.219172,3.8968277,-15.896995
52,-0.9542558193206787,-49.642940521240234,75.22693634033203,-3.9303027196912184,4.9134442363321,2.5039411773410856,-1.1536027,48.651344,37.83074,26.559685,-2.2540152,-11.437796,-14.926864,-15.749604,-26.675463,31.702099,-15.2492895,11.195011,-3.062119,0.120509915,9.806653,6.4017243,15.174381,-2.4349818,62.291286,5.3550262,5.0778594,16.110544,-6.429897,-16.256426,10.921152,58.103912,-5.181604,3.9064744,-16.051912
53,-0.9045935869216919,-50.646751403808594,75.36878967285156,-3.9824711102357195,4.886598785749187,2.7325690849844313,0.37429887,48.959118,41.66541,27.053183,-3.7707322,-11.282967,-14.467576,-14.901251,-27.543186,31.374039,-15.669011,10.473913,-3.3252249,0.19410585,9.75466,5.7268524,14.889304,-3.0652385,62.452686,5.6001077,5.1358604,15.934047,-5.8078346,-16.402426,10.468346,58.00264,-4.8459544,3.7613013,-16.364193
54,-0.842496931552887,-51.62569808959961,75.51994323730469,-4.008060475216029,4.856531707434062,2.988528015205697,1.8911506,48.96497,45.15607,27.582052,-5.227849,-11.208108,-13.896572,-14.052567,-28.467402,30.842384,-16.021973,9.737364,-3.547852,0.2606699,9.674977,4.9917183,14.596894,-3.8710573,62.667515,5.9361067,5.257511,15.638309,-5.018196,-16.527622,9.853421,57.84362,-4.332088,3.5092242,-16.791636
55,-0.7946641445159912,-52.58695602416992,75.67938995361328,-4.0067663968344815,4.807561047151538,3.265472900410066,3.3305955,48.681305,48.166588,28.12331,-6.6213274,-11.171555,-13.237516,-13.201317,-29.391512,30.150421,-16.307966,9.021578,-3.7465062,0.3138545,9.595818,4.228937,14.297972,-4.783218,62.880157,6.374564,5.412174,15.285457,-4.134952,-16.636326,9.164731,57.68857,-3.6725864,3.203372,-17.246494
56,-0.7474321126937866,-53.54288101196289,75.84383392333984,-3.9781050753347067,4.724065771924875,3.557734580276974,4.644684,48.136024,50.568317,28.660007,-7.9491334,-11.140543,-12.517728,-12.35061,-30.260288,29.345425,-16.523085,8.358691,-3.9428964,0.3481086,9.546951,3.4729145,13.992841,-5.7235513,63.027416,6.929126,5.5709696,14.93696,-3.2343197,-16.735956,8.496068,57.598667,-2.8967736,2.8987026,-17.641632
57,-0.6901880502700806,-54.46600341796875,76.01575469970703,-3.935742282485004,4.591481188165468,3.864550703175862,5.8266425,47.376404,52.274944,29.221304,-9.215255,-11.094007,-11.700159,-11.472952,-31.08335,28.37122,-16.63728,7.7596974,-4.143588,0.3772362,9.546098,2.716775,13.678943,-6.700556,63.108868,7.65995,5.755642,14.55721,-2.3296025,-16.827377,7.871263,57.603428,-1.8531096,2.5459778,-17.987585
58,-0.6155452132225037,-55.38657760620117,76.1907958984375,-3.8785298423038874,4.421218560277212,4.18934996184218,6.870888,46.41435,53.343082,29.812223,-10.4216385,-11.052778,-10.780412,-10.56644,-31.884972,27.213493,-16.65596,7.2103996,-4.344084,0.40188104,9.573815,1.9549098,13.352446,-7.7370763,63.14698,8.543808,5.968146,14.127574,-1.3863679,-16.907463,7.249183,57.668358,-0.57700866,2.1343267,-18.314535
59,-0.5414033532142639,-56.27991485595703,76.36058044433594,-3.7836025654418055,4.236682348831356,4.53285210328599,7.7575808,45.232758,53.876595,30.380564,-11.559066,-11.050857,-9.838599,-9.682214,-32.633865,25.992458,-16.629078,6.6986613,-4.5493255,0.39850116,9.606133,1.2176181,13.01202,-8.774226,63.112953,9.468363,6.153248,13.737982,-0.4102749,-16.977613,6.6262617,57.756805,0.6246279,1.7832379,-18.572237
60,-0.4587526321411133,-57.140655517578125,76.52225494384766,-3.6290312879778033,4.060817897898894,4.895319531334742,8.474278,43.809467,53.987125,30.86803,-12.6153555,-11.121904,-8.957671,-8.876933,-33.301693,24.838276,-16.610392,6.207625,-4.7680793,0.3443459,9.619249,0.53553903,12.658454,-9.747785,62.976963,10.321073,6.260288,13.481196,0.58623755,-17.044014,6.0048475,57.837177,1.4485372,1.6167176,-18.719378
61,-0.3631490468978882,-58.004005432128906,76.67305755615234,-3.4051796286404072,3.891207667459108,5.285949376789333,9.04349,42.140446,53.673214,31.289467,-13.597344,-11.287391,-8.141953,-8.171574,-33.886307,23.770283,-16.605427,5.736365,-5.0140805,0.23284413,9.610391,-0.08571205,12.296495,-10.669355,62.7264,11.085825,6.2560873,13.3992405,1.6061455,-17.107994,5.3572884,57.896286,1.7397647,1.723767,-18.724028
62,-0.27040061354637146,-58.84247970581055,76.81317138671875,-3.130109471683708,3.717051137580761,5.701751325880123,9.494263,40.27185,52.909763,31.692524,-14.515806,-11.522977,-7.3539057,-7.534978,-34.408405,22.731148,-16.589378,5.2871513,-5.279475,0.081115864,9.591604,-0.66482955,11.926928,-11.562051,62.377613,11.816619,6.178863,13.439139,2.6526303,-17.168062,4.692469,57.952957,1.6866982,2.0234802,-18.618681
63,-0.1958780437707901,-59.64793395996094,76.93864440917969,-2.824148835117037,3.548378433877689,6.124462045524892,9.832715,38.237255,51.782932,32.04204,-15.352201,-11.793543,-6.615752,-6.950165,-34.87551,21.743324,-16.573196,4.8449316,-5.5447464,-0.09459623,9.562984,-1.2062566,11.541373,-12.374223,61.94348,12.508155,6.086126,13.55127,3.7132666,-17.226526,4.070479,58.02165,1.5015509,2.3861127,-18.461668
64,-0.10433416813611984,-60.45443344116211,77.05548095703125,-2.5054754003875908,3.39546138429979,6.536124704131613,10.063589,36.05441,50.37807,32.286976,-16.080627,-12.063228,-5.9421577,-6.3965707,-35.29442,20.811026,-16.563133,4.3960924,-5.794812,-0.2781422,9.524501,-1.7131099,11.128204,-13.049609,61.44022,13.156228,6.032923,13.686366,4.7704673,-17.291899,3.5576465,58.120514,1.399494,2.6826985,-18.314583
65,-0.015913235023617744,-61.238372802734375,77.16065979003906,-2.1656650222227927,3.2603310235304424,6.934187096849803,10.192428,33.70052,48.679016,32.452045,-16.710823,-12.276601,-5.340233,-5.8895893,-35.659584,19.942533,-16.56102,3.9540262,-6.026965,-0.47465527,9.479316,-2.1845362,10.676677,-13.544434,60.847973,13.78191,6.051878,13.857973,5.8223186,-17.37683,3.1899881,58.253937,1.4323097,2.8926878,-18.184193
66,0.058345142751932144,-62.01020050048828,77.24394989013672,-1.8027083769348262,3.1368569258301116,7.327938931376056,10.262029,31.177114,46.688194,32.55381,-17.248365,-12.46591,-4.7988076,-5.4317636,-35.97435,19.131697,-16.562809,3.5182257,-6.255582,-0.67967886,9.425893,-2.6219509,10.187236,-13.889149,60.17192,14.384645,6.1086025,14.085276,6.872059,-17.489023,2.9333148,58.416492,1.4907329,3.080778,-18.041098
67,0.12791132926940918,-62.76357650756836,77.3175048828125,-1.4465346618901502,3.024017203026862,7.716975732560398,10.317853,28.534851,44.508377,32.528767,-17.65652,-12.727856,-4.3118544,-4.9846983,-36.257286,18.377108,-16.569714,3.0536892,-6.488535,-0.85923105,9.358102,-3.0285494,9.66748,-14.144912,59.458412,14.924017,6.1583652,14.32508,7.914753,-17.621696,2.744914,58.60658,1.5489119,3.2468886,-17.893723
68,0.1989046037197113,-63.511802673339844,77.37763214111328,-1.1193413263579657,2.921265143492364,8.099599992492408,10.409927,25.80327,42.24353,32.276424,-17.891506,-13.158606,-3.8714714,-4.5152173,-36.522297,17.671804,-16.580515,2.5254562,-6.7294545,-0.99195826,9.269513,-3.4060788,9.129958,-14.374665,58.751858,15.3601675,6.1557307,14.534748,8.946784,-17.760662,2.5790932,58.8219,1.5777347,3.3905268,-17.752
69,0.26750537753105164,-64.25159454345703,77.42078399658203,-0.8213671160509443,2.8314526067119683,8.487841558021808,10.52596,22.9513,39.836315,31.783543,-17.946123,-13.767014,-3.4872224,-4.0288086,-36.772533,17.037157,-16.612516,1.892711,-6.9805903,-1.0822074,9.1621895,-3.7500854,8.578141,-14.572802,58.043476,15.65867,6.0779757,14.716262,9.975605,-17.897526,2.4248831,59.063927,1.5369987,3.5053437,-17.612473
70,0.3552137315273285,-65.00316619873047,77.449462890625,-0.5446382639570019,2.7549058760577063,8.879693134754566,10.686844,19.974604,37.26982,31.084715,-17.84189,-14.506508,-3.1566691,-3.5341458,-37.002903,16.460157,-16.655819,1.1808751,-7.2352633,-1.1404713,9.039034,-4.0636654,8.013264,-14.718792,57.315678,15.847385,5.9523096,14.888273,11.003268,-18.032509,2.2998052,59.331356,1.4495511,3.5932684,-17.473637
71,0.42697134613990784,-65.72754669189453,77.46755981445312,-0.2717023314561234,2.7072077108195156,9.275105457656387,10.92613,16.86092,34.66004,30.09997,-17.560425,-15.000033,-2.9092975,-3.0731723,-37.22709,15.976128,-16.70949,0.4634728,-7.5060368,-1.1775721,8.8754,-4.3565364,7.447876,-14.854645,56.597115,15.978206,5.8071113,15.032268,12.018123,-18.162088,2.2009242,59.616886,1.3799901,3.665268,-17.347502
72,0.48317381739616394,-66.40196228027344,77.47962188720703,0.062485709824323596,2.7311777699449302,9.707501763027883,11.24975,13.535629,32.079357,28.683828,-17.04569,-15.000033,-2.85477,-2.7965531,-37.477787,15.767877,-16.842829,-0.17293075,-7.8374896,-1.2504061,8.613647,-4.636266,6.899905,-15.026911,55.91215,16.100496,5.6707635,15.128433,13.008704,-18.279507,2.1220932,59.912373,1.3918234,3.7324421,-17.246956
73,0.555233359336853,-67.08821105957031,77.47462463378906,0.36106652397438765,2.7563829750101703,10.084896024727048,11.826955,10.154078,29.635216,26.822012,-16.3093,-15.000033,-2.8264997,-2.4943283,-37.700092,15.580878,-16.934072,-0.7332604,-8.1420765,-1.2818433,8.328969,-4.8894343,6.376505,-15.253217,55.250515,16.1498,5.5352454,15.162825,13.9829855,-18.383202,2.07208,60.222267,1.5365252,3.7845595,-17.189009
74,0.6259818077087402,-67.76490783691406,77.4405288696289,0.6090140102105348,2.7894586224172224,10.427596557819832,12.630681,6.728726,27.202085,24.514563,-15.3589945,-15.000033,-2.8224473,-2.1425717,-37.90848,15.394337,-16.98235,-1.2576532,-8.431788,-1.2588514,8.025109,-5.112686,5.876868,-15.512174,54.59638,16.122156,5.390349,15.146086,14.945618,-18.473629,2.047688,60.544514,1.7671143,3.8201165,-17.162172
75,0.6799556016921997,-68.44690704345703,77.38800048828125,0.7735688085001269,2.8528707973890532,10.780323831495073,13.573547,3.4077785,24.660622,21.88861,-14.269512,-15.000033,-2.8343556,-1.6779698,-38.155537,15.13019,-16.96479,-1.767863,-8.743806,-1.150808,7.692955,-5.3294606,5.4086123,-15.792705,53.965157,16.158163,5.262892,15.094358,15.8867035,-18.548134,2.0223215,60.856827,1.9984627,3.864039,-17.134737
76,0.770051896572113,-69.17021942138672,77.3128890991211,0.8311173726592592,2.968471048780438,11.187001956959598,14.561365,0.33352557,21.910067,19.107141,-13.127163,-15.000033,-2.8596492,-1.051695,-38.48984,14.725373,-16.86536,-2.283488,-9.114487,-0.93660736,7.3231072,-5.559786,4.983228,-16.083754,53.368645,16.397379,5.1790957,15.023506,16.794134,-18.597242,1.9732183,61.138542,2.145155,3.941217,-17.074617
77,0.8044576048851013,-69.85879516601562,77.21731567382812,0.7713665424840978,3.1576715700919427,11.645806151069586,15.618468,-2.510943,18.90285,16.069351,-11.917714,-15.000033,-2.8985155,-0.23344964,-38.938194,14.12887,-16.686726,-2.8048983,-9.545951,-0.59890056,6.8962283,-5.8031163,4.6072865,-16.398037,52.793537,16.924616,5.1644607,14.910859,17.660097,-18.619297,1.9121431,61.39958,2.1805847,4.0701017,-16.97764
78,0.8531666994094849,-70.5663070678711,77.0968246459961,0.587765106433576,3.41195854594796,12.149760595870893,16.807184,-5.117308,15.646262,12.716732,-10.616808,-15.000033,-2.934152,0.7960549,-39.4839,13.3053255,-16.396582,-3.3269963,-10.031797,-0.1315421,6.4243727,-6.04889,4.2804275,-16.738832,52.2335,17.647537,5.197908,14.754336,18.493212,-18.614006,1.847562,61.64356,2.1511087,4.2333374,-16.858648
79,0.9229846000671387,-71.3006820678711,76.94662475585938,0.3021141227098277,3.6996647904475366,12.723314666583551,18.105028,-7.3698735,12.174177,9.229807,-9.248011,-15.000033,-2.9483197,2.012952,-40.08927,12.258516,-15.951916,-3.85502,-10.584379,0.42580345,5.9474335,-6.303809,4.0057,-17.082611,51.713795,18.439981,5.2357793,14.601604,19.303625,-18.568062,1.7530938,61.844894,2.0783534,4.401759,-16.716312
80,0.9693215489387512,-72.05834197998047,76.7874984741211,-0.03535661967338486,3.9815864418210216,13.379525878231119,19.028387,-9.136251,8.628219,6.7264104,-8.317349,-15.000033,-2.9394543,3.3370404,-40.699383,11.06759,-15.345313,-4.389284,-11.202156,0.9997761,5.5068917,-6.576858,3.7900026,-17.408194,51.26239,19.174917,5.2362523,14.502473,20.099329,-18.46115,1.6014528,61.98171,1.9812834,4.545802,-16.552307
81,1.0428017377853394,-72.85906982421875,76.63005828857422,-0.3959188626821637,4.24906766549013,14.135818856437952,18.872334,-10.446531,5.060157,6.6170607,-8.569652,-15.000033,-2.8658605,4.755237,-41.353226,9.687086,-14.574197,-4.929195,-11.904076,1.5487026,5.091904,-6.857229,3.652011,-17.734564,50.879494,19.878914,5.1762013,14.46043,20.88907,-18.280378,1.3940841,62.0562,1.8377836,4.6612625,-16.355112
82,1.0908513069152832,-73.64202117919922,76.48241424560547,-0.7762567969134104,4.519988160709575,14.974376855607552,18.670872,-11.586401,1.3668574,6.615349,-8.810687,-15.000033,-2.8863575,6.1381106,-42.055645,8.515876,-13.856708,-5.4656744,-12.660941,2.0737467,4.6876845,-7.161683,3.5866277,-18.085064,50.56971,20.597807,5.0841713,14.456605,21.6726,-18.007574,1.1322919,62.078594,1.6374696,4.7609267,-16.137325
83,1.09983229637146,-74.44261169433594,76.33682250976562,-1.1315695763529445,4.754955848243791,15.805911634897457,18.510433,-12.636927,-2.141593,6.603102,-8.92206,-15.000033,-3.3009217,7.1264954,-42.66883,8.459327,-13.597361,-5.9813538,-13.454947,2.554003,4.3611703,-7.432385,3.586442,-18.344664,50.25947,21.235546,4.9875827,14.486732,22.368557,-17.738369,0.8928189,62.080746,1.4622904,4.8445635,-15.899593
84,1.0946873426437378,-75.26454162597656,76.20401000976562,-1.5061060420591654,4.993559718258617,16.637140066296624,18.284107,-13.537547,-5.2147875,6.6677375,-8.885365,-15.000033,-3.798035,8.11368,-43.101353,8.417319,-13.169928,-6.4971943,-14.27704,3.061466,4.1186504,-7.6917505,3.6084733,-18.480024,49.958675,21.699299,4.9263206,14.568883,22.953005,-17.47713,0.66147435,62.068768,1.3604478,4.908648,-15.672189
85,1.0663000345230103,-76.08451080322266,76.08109283447266,-1.871612084778197,5.203781271976326,17.423858383088167,18.081446,-14.339821,-7.7943006,6.6552696,-8.577171,-15.000033,-4.3571167,9.056374,-43.26505,8.413919,-12.568105,-6.9988184,-15.026933,3.5423553,3.981662,-8.0283165,3.6443202,-18.54291,49.7634,21.9476,4.910275,14.739672,23.486942,-17.163937,0.3421168,61.985786,1.3479072,4.9543023,-15.473407
86,1.0137832164764404,-76.91753387451172,75.96456146240234,-2.270334308524821,5.429127483380054,18.236313781066084,17.762722,-14.969955,-10.052487,6.7453046,-8.156634,-15.000033,-5.0045066,10.003386,-43.292694,8.435885,-11.817826,-7.495192,-15.689386,3.991166,3.9110527,-8.491889,3.7170062,-18.627823,49.71163,22.049675,4.931336,14.992693,24.006447,-16.635853,-0.13447206,61.831192,1.3369725,4.974971,-15.337847
87,0.9388352632522583,-77.75373840332031,75.86896514892578,-2.6469049763146018,5.586313133919656,18.954644236571628,17.45799,-15.4523735,-11.87956,6.7697425,-7.622528,-15.000033,-5.6350203,10.924063,-43.100727,8.467588,-10.901419,-8.004106,-16.236341,4.3583336,3.9565756,-8.980245,3.8165913,-18.640211,49.718937,22.03405,4.965287,15.264827,24.454836,-16.037716,-0.5872746,61.66123,1.3243483,4.9775944,-15.231745
88,0.8505303263664246,-78.63059997558594,75.7940902709961,-2.996615983062067,5.667516687585329,19.549003208098814,17.1056,-15.755465,-13.214792,6.7927403,-7.0611506,-15.000033,-6.233753,11.828989,-42.711975,8.490252,-9.798963,-8.543894,-16.637602,4.6271734,4.1208396,-9.466701,3.942058,-18.555584,49.754864,21.939499,4.9935584,15.494779,24.828415,-15.378488,-0.94034743,61.493248,1.2476304,4.963987,-15.1546335
89,0.7400957345962524,-79.511474609375,75.73299407958984,-3.331107628232943,5.689121462519467,20.035703929304816,16.650759,-15.8903265,-14.042343,6.785865,-6.370897,-15.000033,-6.838474,12.724345,-42.05621,8.507902,-8.504587,-9.088743,-16.961447,4.8528895,4.3962064,-9.901439,4.068986,-18.279478,49.776352,21.77376,5.0122237,15.6689415,25.092592,-14.756686,-1.1561723,61.35019,1.1345948,4.930871,-15.078466
90,0.615982174873352,-80.41532897949219,75.68807220458984,-3.6336371899425157,5.64292753695721,20.413238507111107,16.157766,-15.87313,-14.386395,6.655046,-5.487807,-15.000033,-7.5808554,13.457095,-41.16846,8.928369,-7.223251,-9.6126585,-17.183657,5.0020323,4.779781,-10.328266,4.2041903,-17.851158,49.826553,21.52327,5.029225,15.818533,25.263443,-14.1265545,-1.2911514,61.213142,0.9984436,4.8781376,-15.018028
91,0.4659016728401184,-81.34715270996094,75.67121887207031,-3.878840426393694,5.537172612646547,20.68400750676534,15.596651,-15.690923,-14.271346,6.5640526,-4.6100507,-15.000033,-8.8286495,13.672595,-40.34215,10.782788,-6.4853764,-10.124323,-17.275917,5.0233827,5.2384214,-10.782364,4.372874,-17.376247,49.935394,21.190506,5.041422,15.945783,25.362186,-13.426297,-1.3328148,61.072254,0.80425864,4.816802,-14.995485
92,0.2980513572692871,-82.31143951416016,75.68216705322266,-4.008364574357505,5.32972324616212,20.795283989670306,15.080362,-15.373083,-13.7088995,6.4957485,-3.876761,-15.000033,-10.025874,13.764859,-39.605556,12.743238,-5.6009555,-10.672913,-17.185766,4.854144,5.770301,-11.243091,4.5906534,-16.95427,50.079273,20.758389,5.045516,16.05418,25.396584,-12.6877775,-1.2564253,60.9299,0.539267,4.7595468,-14.997139
93,0.13633006811141968,-83.28956604003906,75.76213836669922,-3.95441201640484,4.9881499930727475,20.722132259783542,14.56939,-14.915893,-12.596076,6.5570626,-3.497155,-15.000033,-11.131109,13.681663,-38.942627,14.809231,-4.5712376,-11.288656,-16.969065,4.5488415,6.3844414,-11.611516,4.769258,-16.536083,50.17608,20.136654,5.039055,16.151382,25.325829,-12.170289,-1.0422753,60.83074,0.27340332,4.712453,-14.940396
94,-0.005359959322959185,-84.26210021972656,75.92708587646484,-3.603575691174063,4.410949579347544,20.35076888724664,14.328342,-14.501831,-10.911005,6.468136,-3.4771087,-15.000033,-12.144066,13.267218,-38.109627,17.28069,-3.5385067,-11.917819,-16.385277,3.6361291,7.1760054,-12.065928,5.1707597,-16.12631,50.360435,19.416237,5.0172415,16.196892,25.161196,-11.2543125,-0.63961095,60.752064,-0.0977799,4.6627283,-15.056871
95,-0.17313598096370697,-85.31755828857422,76.0189437866211,-3.2491415674472646,3.8470277782011504,19.93814615742129,13.965232,-14.0409155,-9.0265255,6.84615,-4.1141567,-14.566003,-13.163328,12.891621,-37.42882,19.633848,-2.2343142,-12.499249,-15.707668,2.6882102,7.9898396,-12.472639,5.6938934,-15.847233,50.475163,18.623411,4.998258,16.213982,24.963247,-10.310643,-0.1836497,60.63524,-0.568721,4.6131773,-15.144528
96,-0.4148809313774109,-86.29424285888672,75.97736358642578,-2.6174421335030646,3.294054922292754,19.519189529412607,13.922366,-14.543958,-7.3602753,7.0507007,-4.7925687,-8.758218,-14.739859,11.718271,-36.858665,23.407148,-1.3925422,-12.844744,-15.05814,1.5777917,8.736725,-12.856815,6.2124996,-15.587459,50.582577,17.937622,4.978845,16.209036,24.735128,-9.534655,0.35990652,60.45657,-1.1375599,4.5667815,-15.142539
97,-0.6518934965133667,-87.31037139892578,75.89826965332031,-2.103436987163064,2.7751809145633635,19.07601281636502,12.573014,-15.009562,-5.328598,10.226006,-7.0606427,-3.8542624,-16.250114,10.757843,-36.554222,26.82812,-0.13458794,-13.175417,-14.413505,0.61451286,9.478588,-13.229495,6.743683,-15.340035,50.721516,17.401608,4.952039,16.17077,24.487528,-8.883803,1.048568,60.219055,-1.8566308,4.527205,-15.045058
98,-0.9061086177825928,-88.28173828125,75.81959533691406,-1.6619955466282939,2.2528257174261803,18.58181496606481,11.454103,-15.2267685,-3.2319431,13.185975,-9.353716,0.7427339,-17.702806,9.92236,-36.448555,30.026237,1.464011,-13.481295,-13.745735,-0.25747186,10.251541,-13.586994,7.297995,-15.098361,50.88136,16.944553,4.9186306,16.10069,24.205988,-8.327347,1.880726,59.9453,-2.6950293,4.491254,-14.880813
99,-1.1348310708999634,-89.21084594726562,75.7591781616211,-1.306314513819369,1.7549963706589569,18.027757981184575,10.656078,-15.216709,-1.2603445,15.570028,-11.554091,4.700569,-19.098122,9.274438,-36.293587,32.874535,3.416863,-13.551825,-13.068472,-1.014896,11.016014,-13.876035,7.867594,-14.860428,51.020424,16.564203,4.88614,16.028784,23.879292,-7.8685246,2.8016522,59.66339,-3.5612693,4.4456644,-14.699951
100,-1.3543860912322998,-90.09793853759766,75.69377136230469,-1.0046404035696577,1.3039130381020754,17.388321937618162,10.255003,-15.082169,0.43166417,17.032528,-13.513853,7.6551886,-20.466549,8.849917,-35.79146,35.321873,5.692746,-13.140309,-12.386853,-1.6755741,11.723135,-14.036395,8.433901,-14.61235,51.096825,16.260984,4.8610177,15.986693,23.486761,-7.526938,3.7599149,59.406456,-4.3589325,4.3788366,-14.548266
101,-1.5650279521942139,-90.97628021240234,75.6161880493164,-0.7386261696279086,0.8846907354382255,16.589557755822106,10.394593,-14.867126,1.9142818,17.258644,-15.057855,9.249598,-21.939651,8.706174,-34.69887,37.54141,8.330242,-12.341959,-11.633995,-2.2553768,12.375943,-14.050638,8.983854,-14.353483,51.0895,16.072416,4.8478966,15.979893,23.014103,-7.3324537,4.7977524,59.16794,-5.1026673,4.2803636,-14.404276
102,-1.7620352506637573,-91.84990692138672,75.52106475830078,-0.5040693895165325,0.4853712575165096,15.641395534269481,10.973136,-14.580009,3.3257766,16.54581,-16.231468,9.735489,-23.50108,8.854371,-33.15739,39.58033,11.247253,-11.114008,-10.816571,-2.756304,12.991761,-13.93257,9.517037,-14.071442,51.01824,15.990049,4.841124,15.99459,22.464249,-7.284602,5.931806,58.94016,-5.8243327,4.158418,-14.249866
103,-1.9430707693099976,-92.717529296875,75.41462707519531,-0.28814164992162117,0.13573798275862917,14.644026634451997,11.684046,-14.271674,4.6096554,15.466549,-17.19531,9.659777,-24.975817,9.2507,-31.408554,41.25475,14.166227,-9.019848,-10.041038,-3.1868792,13.541325,-13.67766,10.032402,-13.742311,50.91017,15.9450245,4.8321147,16.034573,21.846289,-7.349454,7.0622435,58.745716,-6.4572926,4.03156,-14.138341
104,-2.1146531105041504,-93.57423400878906,75.30890655517578,-0.07387319328144516,-0.13935252317046903,13.695097082197888,12.217303,-13.976901,5.674692,14.605876,-18.161074,9.596061,-26.200377,9.787102,-29.6818,42.449993,16.761887,-5.6964455,-9.395659,-3.5702715,13.998617,-13.300749,10.5270815,-13.359493,50.807426,15.867699,4.812819,16.105843,21.178677,-7.47425,8.075308,58.600662,-6.9419265,3.9200888,-14.127783
105,-2.256035089492798,-94.43267822265625,75.2066650390625,0.13549177186960035,-0.3202553744765323,12.789240255350146,12.474498,-13.681669,6.4399023,14.102961,-19.229422,9.650996,-27.139778,10.541832,-27.83996,43.02382,19.186184,-0.41227466,-8.86708,-3.918571,14.337231,-12.819827,11.00334,-12.942609,50.71801,15.768639,4.782311,16.229366,20.449085,-7.63502,8.951521,58.514656,-7.2864685,3.8254435,-14.273796
106,-2.415093421936035,-95.23698425292969,75.10564422607422,0.32104922130608493,-0.4257568881336223,11.881911193613446,12.602458,-13.348063,6.987802,13.683282,-20.278103,9.555012,-27.920847,11.553541,-25.77351,43.222317,21.296635,6.447796,-8.397634,-4.2237024,14.578415,-12.240329,11.459112,-12.509513,50.63931,15.674055,4.7453375,16.398304,19.65175,-7.8309283,9.730157,58.47688,-7.5247183,3.739776,-14.539346
107,-2.5443601608276367,-96.03990173339844,75.0223159790039,0.5035609184428133,-0.4930206064699504,11.01318097621786,12.664197,-12.992919,7.439071,13.320529,-21.21867,9.339156,-28.603418,12.469874,-23.902954,43.52793,22.476204,13.346907,-7.9972835,-4.507752,14.768537,-11.578937,11.882041,-12.061744,50.612705,15.539087,4.702538,16.578964,18.825327,-8.044769,10.375078,58.46804,-7.6377153,3.6691415,-14.847964
108,-2.6668918132781982,-96.85787200927734,74.94691467285156,0.6769490456129843,-0.5300807152854161,10.144408667572808,12.6046295,-12.56247,8.00776,13.165522,-22.063015,8.995173,-28.86173,12.1114,-24.451284,44.241047,22.567451,15.000033,-7.601622,-4.7735453,14.929705,-10.867557,12.2571745,-11.609629,50.695377,15.321327,4.6550174,16.73919,18.019304,-8.24809,10.844352,58.467873,-7.6094484,3.6194224,-15.12638
109,-2.775798797607422,-97.66967010498047,74.8960189819336,0.8782704923913609,-0.5058305802957319,9.23500956725408,12.409336,-12.11251,8.764985,13.182961,-22.76539,8.532998,-28.995548,11.049626,-25.879675,45.421825,21.38465,15.000033,-7.146098,-5.0465174,15.01659,-10.1107855,12.57983,-11.140924,50.903976,15.022961,4.5934067,16.894014,17.245567,-8.421893,11.08508,58.479046,-7.40196,3.5901945,-15.372707
110,-2.8701703548431396,-98.45043182373047,74.88279724121094,1.1785852417517193,-0.482066659428292,8.499138466001762,12.322577,-11.782831,9.373734,13.0049715,-23.149405,8.008091,-29.086464,9.608542,-27.33804,46.964405,19.106874,15.000033,-6.845219,-5.4018693,15.077592,-9.32075,12.843219,-10.673351,51.231438,14.663244,4.5212946,17.058853,16.471476,-8.574251,11.11205,58.525272,-7.043268,3.5767424,-15.625245
111,-2.9284329414367676,-99.20469665527344,74.90310668945312,1.4914610109860855,-0.45817374811271816,7.854305834691694,12.269961,-11.465511,9.916152,12.7873125,-23.351665,7.4354777,-29.131397,8.032167,-28.668962,48.577362,16.464182,15.000033,-6.601152,-5.746179,15.134573,-8.537032,13.04584,-10.262186,51.70312,14.231607,4.4593034,17.198078,15.708532,-8.711784,10.996223,58.601974,-6.6136436,3.5806758,-15.875145
112,-2.985928535461426,-99.95140838623047,74.95243835449219,1.7304667542311907,-0.4262016588618916,7.211912650193718,12.167079,-11.049667,10.481263,12.693084,-23.508137,6.827168,-29.1726,6.5620704,-29.729738,50.005924,14.190714,15.000033,-6.313297,-5.9843087,15.202957,-7.795767,13.189688,-9.959055,52.339527,13.716401,4.4281917,17.27526,14.9657135,-8.836799,10.81309,58.704536,-6.1927257,3.6043804,-16.112764
113,-3.021902561187744,-100.68927001953125,75.02500915527344,1.8819864193067477,-0.38437408082000074,6.56107791263749,11.985504,-10.510489,11.0853195,12.781106,-23.638172,6.1758,-29.231531,5.2255735,-30.518133,51.217262,12.427671,15.000033,-5.965111,-6.0946317,15.280829,-7.1020856,13.277592,-9.779828,53.168518,13.065071,4.429515,17.28668,14.25748,-8.942075,10.511931,58.823902,-5.7816505,3.6648936,-16.348314
114,-3.0683531761169434,-101.4052963256836,75.11770629882812,1.9879530327494124,-0.34570518667745903,5.949954374221464,11.782183,-9.90512,11.672878,12.959245,-23.676033,5.479138,-29.279749,3.9064944,-31.105444,52.324028,10.793879,15.000033,-5.610104,-6.1292014,15.363075,-6.442485,13.310012,-9.697146,54.175903,12.304309,4.4557834,17.253342,13.565714,-9.018628,10.07765,58.98051,-5.3476334,3.7554567,-16.589106
115,-3.098104238510132,-102.130615234375,75.23975372314453,2.0466160527031683,-0.3192185977739855,5.373957491628885,11.60213,-9.243938,12.229583,13.152599,-23.619823,4.7559247,-29.315228,2.6331084,-31.456787,53.305195,9.251603,15.000033,-5.2576575,-6.103361,15.461978,-5.802031,13.305578,-9.690585,55.2873,11.530208,4.5131216,17.166718,12.858334,-9.090651,9.6483135,59.19049,-4.9118977,3.8435223,-16.808203
116,-3.115734577178955,-102.83894348144531,75.38335418701172,2.056327322752242,-0.3145370383888823,4.829089634127134,11.485376,-8.538479,12.743329,13.294757,-23.47233,4.0251217,-29.333445,1.4318148,-31.53867,54.14061,7.760715,15.000033,-4.9070125,-6.005408,15.594191,-5.183799,13.252805,-9.7554865,56.44208,10.837963,4.6075206,17.021967,12.133198,-9.214787,9.337972,59.436386,-4.4948025,3.8969553,-16.964092
117,-3.129621982574463,-103.52857208251953,75.55193328857422,2.007863471552451,-0.34678494021536915,4.31007879215724,11.457865,-7.787322,13.215253,13.358136,-23.213173,3.2875047,-29.385336,0.3805088,-31.193207,54.84496,6.286792,15.000033,-4.5892997,-5.842453,15.775495,-4.566877,13.156054,-9.844371,57.650024,10.24792,4.73492,16.805182,11.336633,-9.386009,9.2404375,59.774624,-4.038127,3.8971004,-17.068426
118,-3.1167361736297607,-104.18067932128906,75.73721313476562,1.9104903174577128,-0.40916862274457144,3.822458528032115,11.496168,-6.997065,13.646674,13.370871,-22.84251,2.5378633,-29.45968,-0.5752994,-30.499344,55.43388,4.857996,15.000033,-4.305158,-5.6089153,15.993314,-3.9470994,13.014524,-9.971269,58.921696,9.708462,4.894779,16.520266,10.497987,-9.608485,9.278901,60.174427,-3.545205,3.8653755,-17.123253
119,-3.1061835289001465,-104.84598541259766,75.93666076660156,1.7935469223485327,-0.479787258848558,3.378066143970476,11.568667,-6.194433,14.027057,13.349307,-22.393581,1.7857407,-29.458075,-1.6146756,-29.781588,55.89093,3.5246024,15.000033,-4.0673904,-5.3396573,16.203594,-3.3093636,12.839165,-10.136642,60.187862,9.238994,5.0981135,16.19058,9.652343,-9.870135,9.414974,60.589703,-3.1195235,3.8320744,-17.1232
120,-3.069662094116211,-105.52042388916016,76.13880920410156,1.680964368685294,-0.540261101440757,2.990483804740368,11.645617,-5.396075,14.344247,13.318756,-21.909908,1.0370606,-29.279076,-2.9059994,-29.362165,56.19225,2.3120832,15.000033,-3.887688,-5.072758,16.369621,-2.6383665,12.650485,-10.341316,61.378807,8.856635,5.3553624,15.839173,8.831752,-10.153222,9.60896,60.977745,-2.8667052,3.8278048,-17.066078
121,-3.0122506618499756,-106.1986083984375,76.34376525878906,1.5657520788919728,-0.5992025194057372,2.6623113978734616,11.734674,-4.591077,14.593472,13.284535,-21.379473,0.28897536,-28.858463,-4.5152974,-29.37836,56.32487,1.2140744,15.000033,-3.7698693,-4.8150268,16.49971,-1.924814,12.464361,-10.59702,62.484146,8.5842705,5.7017765,15.43157,8.027214,-10.445578,9.888882,61.35532,-2.8487983,3.8632202,-16.925154
122,-2.9564852714538574,-106.90218353271484,76.54751586914062,1.3368172392222901,-0.5630015820836803,2.1852868641252425,11.595312,-3.5812826,14.992367,13.587608,-20.981337,-0.51611185,-28.23735,-6.304716,-30.121809,56.167534,0.29573485,13.782541,-3.5123408,-4.4587564,16.524065,-1.1760579,12.289058,-10.901663,63.536186,8.404785,6.1196527,14.965223,7.2258897,-10.740708,10.264355,61.738876,-3.0006514,3.920706,-16.713346
123,-2.9086029529571533,-107.61032104492188,76.74278259277344,1.094522146142454,-0.5064385658549827,1.7437129815905077,11.429343,-2.5409293,15.342753,13.925651,-20.579517,-1.3294163,-27.481115,-8.2574625,-31.268677,55.847153,-0.6010061,11.77928,-3.282732,-4.100796,16.506731,-0.40119892,12.121317,-11.236779,64.522964,8.273729,6.540521,14.511333,6.450798,-11.031539,10.660669,62.086308,-3.2379375,3.9872897,-16.484837
124,-2.84264874458313,-108.33133697509766,76.9314956665039,0.8712059217106725,-0.4240616162457653,1.3603465372866315,11.25276,-1.5231491,15.623942,14.242666,-20.179977,-2.1338716,-26.73394,-10.199557,-32.384228,55.386044,-1.5001262,9.875093,-3.0827503,-3.7596886,16.438055,0.38404155,11.955885,-11.5882435,65.44195,8.145218,6.8956075,14.143431,5.7298675,-11.310492,10.999239,62.35367,-3.477776,4.0511837,-16.296347
125,-2.7589478492736816,-109.06664276123047,77.10601043701172,0.6675458935958343,-0.303977731036748,1.047499610690354,11.0512085,-0.527843,15.833018,14.531394,-19.773062,-2.9284594,-25.986479,-12.173424,-33.52488,54.777412,-2.4321084,8.044027,-2.9183202,-3.4382315,16.30282,1.1755348,11.78998,-11.982221,66.31337,8.031299,7.171478,13.886108,5.0633426,-11.574795,11.281941,62.54863,-3.742483,4.120708,-16.16083
126,-2.6694142818450928,-109.78887939453125,77.26964569091797,0.472014031119795,-0.15397344194756446,0.7954260061190838,10.827506,0.45830786,15.9744835,14.80071,-19.348724,-3.7159688,-25.207815,-14.186725,-34.757572,54.02016,-3.3841794,6.274552,-2.784409,-3.1284363,16.1117,1.9745307,11.625504,-12.420305,67.1439,7.946875,7.3996577,13.70079,4.4390326,-11.8272,11.535836,62.690258,-4.0645576,4.1981874,-16.050972
127,-2.569288969039917,-110.5127944946289,77.41542053222656,0.29124397434549654,0.009821042159159635,0.5802581977019012,10.59497,1.423338,16.055641,15.060939,-18.931168,-4.4938235,-24.462812,-16.131062,-35.927998,53.13442,-4.2710953,4.638025,-2.660212,-2.8306558,15.889549,2.7805781,11.464664,-12.850795,67.893906,7.8506794,7.5877542,13.564635,3.8661695,-12.068891,11.722737,62.75346,-4.37391,4.263418,-15.963671
128,-2.47065806388855,-111.24687194824219,77.54046630859375,0.13298964150802592,0.1708676294360923,0.379183420332378,10.368752,2.3549476,16.084175,15.323764,-18.546658,-5.260403,-23.822527,-17.919527,-36.871433,52.15024,-4.9941745,3.1851192,-2.5256653,-2.5471745,15.661349,3.5886464,11.308675,-13.222635,68.53247,7.700389,7.738549,13.455967,3.3533134,-12.300608,11.803576,62.71319,-4.6015167,4.2964306,-15.896052
129,-2.366734743118286,-111.96609497070312,77.64356994628906,-0.0037412012417198685,0.33633779272947517,0.1950046541927233,10.138152,3.251538,16.04784,15.589456,-18.198757,-6.012311,-23.303566,-19.56755,-37.574646,51.06572,-5.5478754,1.8708708,-2.3823974,-2.2750108,15.421404,4.401485,11.154692,-13.534266,69.04399,7.454516,7.848639,13.374752,2.9113433,-12.519977,11.745285,62.54394,-4.708678,4.286362,-15.852501
130,-2.2500195503234863,-112.71440124511719,77.72682189941406,-0.12095740084795675,0.5120771263968591,0.03763607734070258,9.898678,4.117359,15.948467,15.851347,-17.874521,-6.7520003,-22.879438,-21.131273,-38.11039,49.88154,-5.9614,0.66207004,-2.238732,-2.016123,15.160358,5.21753,11.002003,-13.810534,69.4506,7.144044,7.916989,13.331101,2.5322084,-12.729016,11.574374,62.26697,-4.739923,4.2460804,-15.8340645
131,-2.1306400299072266,-113.4576187133789,77.78276824951172,-0.2126228873772327,0.67788741060924,-0.10380328757521297,9.683497,4.9476604,15.816343,16.09624,-17.568897,-7.486911,-22.549873,-22.598278,-38.43774,48.62055,-6.175345,-0.39045137,-2.0890832,-1.7792245,14.899605,6.0320954,10.853218,-14.035365,69.76842,6.8391414,7.951324,13.315827,2.1983745,-12.932882,11.34562,61.924267,-4.748065,4.191192,-15.831196
132,-2.0048789978027344,-114.21790313720703,77.81776428222656,-0.27195409331942644,0.8136406868042749,-0.23962374849154186,9.52576,5.737035,15.682124,16.31377,-17.278164,-8.223642,-22.312744,-23.959795,-38.51251,47.306683,-6.1287847,-1.2380685,-1.9308434,-1.5745225,14.661224,6.8432994,10.712685,-14.19016,70.01009,6.609482,7.9592967,13.319399,1.8899404,-13.138634,11.117629,61.55733,-4.784645,4.137367,-15.83409
133,-1.8634593486785889,-114.96656036376953,77.82515716552734,-0.29367642303964026,0.9164750637734794,-0.3655438736554563,9.432508,6.4778166,15.552348,16.49851,-17.00916,-8.958703,-22.173893,-25.22456,-38.293232,45.92409,-5.778633,-1.8187741,-1.7671076,-1.4041977,14.451902,7.664453,10.579458,-14.249632,70.14773,6.501549,7.934755,13.336486,1.6126443,-13.350838,10.876247,61.148125,-4.846292,4.084514,-15.843249
134,-1.7427736520767212,-115.71390533447266,77.8113784790039,-0.28066127366788374,0.9960620612397509,-0.4773201203266853,9.384036,7.1748257,15.413692,16.664135,-16.761976,-9.68987,-22.132225,-26.412762,-37.79655,44.47506,-5.155819,-2.197082,-1.6023016,-1.2635591,14.261363,8.495026,10.450766,-14.2281,70.18114,6.468814,7.875906,13.371869,1.3738787,-13.568638,10.60404,60.681152,-4.9087925,4.0259585,-15.86134
135,-1.583945393562317,-116.48812103271484,77.77452087402344,-0.23840037609106307,1.0510579527669652,-0.5860131366702441,9.384062,7.8400893,15.268817,16.80745,-16.520866,-10.427243,-22.178303,-27.533031,-37.065125,43.019295,-4.3182187,-2.5142446,-1.4351152,-1.15387,14.086602,9.31377,10.329924,-14.163171,70.16215,6.443543,7.7975936,13.429406,1.1546539,-13.791179,10.354011,60.202812,-4.9938393,3.9672127,-15.882822
136,-1.4210368394851685,-117.26663208007812,77.72286224365234,-0.17248727842528042,1.0798705310399423,-0.7030682033998565,9.436986,8.484311,15.120281,16.92431,-16.268955,-11.180664,-22.302763,-28.594097,-36.145107,41.617893,-3.3275754,-2.907776,-1.2653497,-1.0783149,13.924864,10.102413,10.223541,-14.090203,70.13857,6.357595,7.714344,13.512359,0.9335245,-14.017292,10.182533,59.76061,-5.1214237,3.9138825,-15.901849
137,-1.252147912979126,-118.0416259765625,77.6468505859375,-0.07428486615161678,1.0683003840931777,-0.8361847654974021,9.581544,9.09068,14.976213,16.982958,-16.006683,-11.955052,-22.52687,-29.608465,-34.98996,40.29887,-2.1351106,-3.458755,-1.0943806,-1.0478836,13.787855,10.877159,10.135586,-14.018302,70.09311,6.179254,7.6250596,13.63075,0.70509446,-14.244872,10.110407,59.35795,-5.30007,3.8637738,-15.92484
138,-1.0840575695037842,-118.83765411376953,77.55014038085938,0.0574265645797258,1.022986373854293,-0.979139747433685,9.805698,9.658552,14.837172,16.992865,-15.741394,-12.745219,-22.856525,-30.578995,-33.579346,39.05475,-0.74340063,-4.086874,-0.9210708,-1.0612174,13.673191,11.6440735,10.065802,-13.92702,70.0056,5.9491973,7.523177,13.778534,0.4786352,-14.473343,10.107303,58.973583,-5.5173144,3.8148384,-15.952362
139,-0.8949196934700012,-119.6722640991211,77.4358139038086,0.20429282921034503,0.9740544792878637,-1.12119747358077,10.030096,10.22704,14.690047,17.029703,-15.47766,-13.546241,-23.257814,-31.492727,-32.00864,37.88442,0.71206844,-4.6839356,-0.7427111,-1.0990512,13.5576315,12.370133,10.013322,-13.807758,69.917435,5.708025,7.4153447,13.933349,0.25904322,-14.699965,10.150501,58.612064,-5.762893,3.773435,-15.969023
140,-0.7038179039955139,-120.51091003417969,77.30729675292969,0.34716040457092157,0.950496657459233,-1.2505248768649582,10.179852,10.833059,14.519752,17.158522,-15.214268,-14.352693,-23.690668,-32.329494,-30.376936,36.768288,2.1043155,-5.1383767,-0.55585504,-1.1447153,13.417401,13.02101,9.9791355,-13.651983,69.87295,5.4960938,7.308761,14.074652,0.048710622,-14.914819,10.215001,58.2833,-6.029277,3.7452404,-15.961446
141,-0.5104915499687195,-121.36003875732422,77.16319274902344,0.489808295658153,0.9550671233824455,-1.370343926683934,10.258673,11.447183,14.321405,17.367151,-14.962751,-15.000033,-24.122643,-33.094505,-28.736807,35.61471,3.4532423,-5.338912,-0.34940624,-1.2047435,13.243334,13.592658,9.963383,-13.454974,69.89587,5.309362,7.1918983,14.216266,-0.1563899,-15.108701,10.307165,58.006233,-6.335305,3.7326787,-15.92028
142,-0.32146674394607544,-122.22988891601562,77.01507568359375,0.7982255961980416,1.0081107530820514,-1.4287862438911585,10.322613,11.764371,14.026766,17.399652,-14.594237,-15.000033,-24.708035,-34.00628,-26.8987,34.538364,4.802739,-5.325799,-0.19679609,-1.4209116,13.020235,14.11475,9.957181,-13.211378,69.93967,5.1349425,7.064518,14.353589,-0.34128493,-15.336161,10.454315,57.739227,-6.657563,3.7326798,-15.839908
143,-0.12856847047805786,-123.1006851196289,76.85101318359375,1.1047074941282797,1.0788765604189559,-1.4707536141941115,10.314714,12.118822,13.709313,17.530897,-14.219868,-15.000033,-25.3546,-34.80945,-24.901197,33.585766,6.097989,-5.318076,-0.041843135,-1.6458479,12.787289,14.56012,9.967498,-12.944562,70.00362,4.9884653,6.953709,14.468332,-0.5135759,-15.545578,10.603559,57.488033,-6.9866085,3.7409596,-15.755452
144,0.06268970668315887,-124.02478790283203,76.69536590576172,1.385637429094976,1.1690456091628276,-1.4876894320570997,10.198984,12.551239,13.348666,17.803137,-13.819545,-15.000033,-26.07668,-35.451122,-22.699648,32.87892,7.280607,-5.5004063,0.101171255,-1.8574487,12.556347,14.92532,10.00156,-12.661133,70.05607,4.8896136,6.8858123,14.52865,-0.6710958,-15.729943,10.727946,57.229877,-7.2902865,3.7541847,-15.6873
145,0.25290384888648987,-124.97291564941406,76.5371322631836,1.6501422364362985,1.2846564317270905,-1.492428764440755,9.949384,13.054863,12.935083,18.267374,-13.404996,-15.000033,-26.989843,-35.948837,-20.210594,32.552704,8.31047,-6.2868495,0.24651477,-2.0668452,12.32616,15.20085,10.06574,-12.369904,70.10555,4.8561134,6.8797317,14.508639,-0.81414914,-15.883649,10.807551,56.949284,-7.5824127,3.7847793,-15.632473
146,0.4329989552497864,-125.93973541259766,76.39151000976562,1.9016383287704774,1.4223756333204092,-1.483671886380708,9.591446,13.615903,12.47845,18.882324,-12.978146,-15.000033,-28.023134,-36.29422,-17.527401,32.482243,9.24915,-7.4676433,0.3967909,-2.2803257,12.091968,15.394025,10.160134,-12.065722,70.16071,4.872362,6.9178557,14.430782,-0.9453312,-16.003777,10.857816,56.664917,-7.875383,3.8299656,-15.584322
147,0.6419470906257629,-126.94181060791016,76.23773193359375,2.108173828496421,1.5682321393158882,-1.4289314995988973,9.165391,14.2652,11.981872,19.554848,-12.50216,-15.000033,-28.895647,-36.428097,-14.856757,32.418133,10.179274,-8.273526,0.5339762,-2.455729,11.850344,15.481323,10.241875,-11.764465,70.25348,4.901725,6.9725714,14.366286,-1.0750227,-16.066687,10.880245,56.437553,-8.157355,3.865502,-15.573879
148,0.8461097478866577,-127.9664306640625,76.09817504882812,2.2368551378947887,1.7085720761828445,-1.2960546356108171,8.713286,15.033215,11.443452,20.189793,-11.943869,-15.000033,-29.282898,-36.304634,-12.395042,32.058235,11.194307,-7.911956,0.5744501,-2.591287,11.64524,15.622979,10.428372,-11.359505,70.15758,4.937316,7.0137405,14.263913,-1.1739788,-16.155457,10.982469,56.187904,-8.316126,3.862675,-15.566075
149,1.05762779712677,-129.03189086914062,75.97310638427734,2.273926736000946,1.8352805793055178,-1.075027376240668,8.25178,15.935901,10.850108,20.778994,-11.303409,-15.000033,-29.027363,-35.90662,-10.077162,31.271322,12.523975,-5.9231334,0.57080734,-2.6392663,11.460702,15.685474,10.624867,-10.9483185,70.04338,4.9390473,7.0406356,14.209806,-1.2554792,-16.20913,11.084683,55.997105,-8.391073,3.8013432,-15.618012
150,1.2843594551086426,-130.12759399414062,75.84976196289062,2.2344876192560132,1.956337989642858,-0.7814855018550352,7.760323,16.95711,10.195393,21.355997,-10.58793,-15.000033,-28.277205,-35.290855,-7.8234444,30.22546,14.000565,-2.7825625,0.50942105,-2.6210923,11.294331,15.696027,10.841454,-10.498088,69.8884,4.9373193,7.0659266,14.168913,-1.3313946,-16.238667,11.208478,55.847492,-8.3914995,3.7004683,-15.711232
151,1.5062716007232666,-131.24755859375,75.76717376708984,2.129524273074232,2.080831966956485,-0.42043812311144274,7.229027,18.076763,9.47951,21.886269,-9.777759,-15.000033,-27.155672,-34.547806,-5.841462,29.033981,15.14196,0.8773282,0.3942068,-2.5548854,11.123646,15.675789,11.080194,-10.016913,69.68422,4.948261,7.085433,14.137545,-1.387996,-16.236862,11.339246,55.737347,-8.361488,3.59687,-15.816031
152,1.7503987550735474,-132.414794921875,75.68582916259766,1.974122391933229,2.216860430148078,0.004506952873468476,6.6460166,19.272453,8.701102,22.338905,-8.851361,-15.000033,-25.821058,-33.780964,-4.3792663,27.82216,15.492869,4.383834,0.22855215,-2.4643054,10.925467,15.642145,11.342174,-9.5128765,69.426605,4.9881234,7.0951905,14.113449,-1.413556,-16.188091,11.459684,55.670017,-8.350037,3.5278125,-15.905773
153,2.019726276397705,-133.62930297851562,75.55775451660156,1.788160739014564,2.3688452993232154,0.500813136284168,6.0276546,20.531927,7.859123,22.672535,-7.788841,-15.000033,-24.247559,-33.030514,-3.566342,26.544651,14.776731,7.761264,0.00047737462,-2.3715825,10.681583,15.599926,11.637747,-8.994201,69.13817,5.0473604,7.093568,14.105268,-1.4106144,-16.075882,11.585145,55.672577,-8.372824,3.5053468,-15.994839
154,2.2858948707580566,-134.8878936767578,75.4539794921875,1.5726293487600322,2.5335473389406316,1.0708631297734805,5.376167,21.85326,6.9387712,22.905283,-6.6021585,-15.000033,-22.417694,-32.28785,-3.3498592,25.147152,13.303499,11.209607,-0.28917086,-2.279236,10.406625,15.543921,11.973183,-8.452608,68.80916,5.121465,7.08333,14.110111,-1.3878431,-15.898565,11.717761,55.742405,-8.406854,3.5090687,-16.093586
155,2.5359861850738525,-136.1720428466797,75.39192199707031,1.3078954892909413,2.710478923646289,1.7019643791813412,4.6250305,23.241983,5.914613,23.139326,-5.324558,-15.000033,-20.567898,-31.528412,-3.6313903,23.830395,11.483256,14.349982,-0.61701906,-2.1710181,10.125407,15.470784,12.338034,-7.8721356,68.39337,5.2339997,7.0670295,14.109506,-1.3436313,-15.667935,11.822193,55.83956,-8.440393,3.5268426,-16.168308
156,2.7684690952301025,-137.51429748535156,75.37029266357422,0.6460188242579672,2.981553062956053,2.2322273696725268,3.6131272,25.123987,4.8112264,23.577797,-4.0287323,-15.000033,-18.913414,-30.304585,-4.896204,22.615246,9.839101,15.000033,-0.82243437,-1.7174969,9.792736,15.367026,12.707289,-7.241839,67.85513,5.4076066,7.046786,14.088794,-1.2772361,-15.408279,11.861888,55.923817,-8.4606495,3.5459204,-16.184057
157,2.993227243423462,-138.85098266601562,75.36390686035156,-0.17803275642676542,3.2982850605766516,2.8217189432041443,2.3349307,27.115368,3.2949345,24.086498,-2.6484985,-15.000033,-17.464096,-28.752575,-6.3073325,21.53133,8.434074,15.000033,-1.0567851,-1.1199255,9.455708,15.227045,13.067618,-6.5280876,67.179276,5.659561,7.0287566,14.042794,-1.1831675,-15.132495,11.817006,55.98528,-8.472876,3.5738266,-16.094032
158,3.236891269683838,-140.2052001953125,75.3840103149414,-1.0225123228919273,3.6288734747146303,3.520924037147672,0.84826213,29.036798,1.3995696,24.57387,-1.1442584,-15.000033,-16.136862,-27.037415,-7.7408066,20.535452,7.0168643,15.000033,-1.376099,-0.5054758,9.134268,15.054755,13.420762,-5.7472644,66.39102,5.97592,7.010546,13.982596,-1.0615268,-14.84106,11.714966,56.038788,-8.476895,3.6143715,-15.926523
159,3.4807558059692383,-141.55857849121094,75.40313720703125,-1.8243015428903475,3.9222825434685036,4.281302080726612,-0.742651,30.892199,-0.43801886,25.073008,0.4756282,-15.000033,-14.939759,-25.312023,-9.225122,19.742748,5.515814,15.000033,-1.7339333,0.059185613,8.873927,14.856205,13.767095,-4.9589643,65.51628,6.334106,6.9779806,13.918772,-0.91596335,-14.541749,11.591902,56.07634,-8.451117,3.6505399,-15.757336
160,3.722151279449463,-142.91690063476562,75.43608856201172,-2.536229031718491,4.122113035590923,5.0491080377121715,-2.3220854,32.72928,-1.7645938,25.636194,2.1864395,-15.000033,-13.867311,-23.71991,-10.809068,19.298853,3.860247,15.000033,-2.0758238,0.5215253,8.720946,14.638328,14.10477,-4.2268023,64.5735,6.710327,6.9216585,13.860808,-0.7447784,-14.246426,11.482283,56.084316,-8.372266,3.6655254,-15.660755
161,3.9470784664154053,-144.25611877441406,75.4767074584961,-3.1658887406002543,4.179533532248593,5.843399734311758,-3.9347188,34.57843,-2.645819,26.392159,4.1474414,-15.000033,-12.880972,-22.31266,-12.676725,19.368483,1.9477466,15.000033,-2.396992,0.8820529,8.727338,14.3907175,14.434448,-3.5494862,63.550278,7.1151657,6.8426123,13.809662,-0.5188424,-13.95971,11.379944,56.02875,-8.239694,3.6604638,-15.660006
162,4.179008483886719,-145.60189819335938,75.5372314453125,-3.6060789402694704,4.1503339637401435,6.713037159594013,-5.673403,36.266678,-3.0850244,27.331589,6.2751093,-14.305606,-12.05731,-21.197304,-14.745264,19.94738,-0.19326547,15.000033,-2.7489502,1.0452322,8.835896,14.108399,14.756001,-2.9028852,62.444782,7.5544124,6.7450213,13.760413,-0.24126612,-13.678185,11.270874,55.9197,-8.0615015,3.6419694,-15.712578
163,4.430347919464111,-146.9165496826172,75.61656951904297,-3.7401663551476836,4.11988718238304,7.630631544799829,-7.4581933,37.760845,-2.456694,28.348183,8.118288,-12.025814,-11.501413,-20.501348,-16.713306,20.92074,-2.4300249,15.000033,-3.1443043,0.91229314,8.941677,13.805817,15.064396,-2.3137493,61.29564,7.9981117,6.6216583,13.715585,0.03614107,-13.408435,11.177862,55.81432,-7.829184,3.6013298,-15.795201
164,4.676427364349365,-148.227294921875,75.69556427001953,-3.9015447644063954,4.095859613181617,8.44136954551893,-9.012391,39.50707,-0.90645933,29.249846,9.236353,-9.802131,-11.051636,-19.728119,-18.414614,21.820576,-4.492547,15.000033,-3.4769385,0.80645627,9.027306,13.507351,15.344427,-1.8123027,60.130333,8.415139,6.4673886,13.677739,0.26326528,-13.169632,11.120838,55.766335,-7.534115,3.5306292,-15.879327
165,4.900432109832764,-149.52357482910156,75.74954986572266,-4.117710548930387,4.088172262674822,9.118723629039705,-10.2260275,41.759254,2.07831,30.023867,9.499849,-7.6443534,-10.694964,-18.839888,-19.79234,22.592924,-6.377938,15.000033,-3.7268882,0.7543935,9.085154,13.21982,15.5868,-1.3868808,58.911777,8.826761,6.283616,13.632854,0.421069,-12.983337,11.142962,55.780003,-7.138686,3.4123502,-15.950417
166,5.106302738189697,-150.76226806640625,75.7624740600586,-4.3486705188924955,4.060400140562203,9.706184524032757,-11.019824,44.385838,6.3085003,30.772282,9.046803,-5.519507,-10.404958,-17.930975,-20.992304,23.37735,-8.182593,15.000033,-3.9192648,0.72101337,9.157922,12.934232,15.786888,-1.0259745,57.634594,9.241327,6.072399,13.586393,0.5408252,-12.852898,11.224735,55.822353,-6.654566,3.2556684,-16.020761
167,5.279469966888428,-151.9449920654297,75.77723693847656,-4.639739474322821,4.038995400214945,10.155646383207177,-11.297331,46.991745,10.900481,31.437204,8.01263,-3.6963425,-10.195573,-16.860706,-22.047935,24.038,-9.771837,14.414106,-4.019055,0.76988417,9.216182,12.637668,15.929832,-0.7636549,56.38605,9.610763,5.829536,13.575634,0.6501581,-12.772831,11.287199,55.8883,-6.1487856,3.0935736,-16.10494
168,5.446567535400391,-153.12022399902344,75.79463958740234,-4.931306535482752,4.027407693899089,10.484640773097048,-11.147211,49.038418,14.858466,31.962221,6.6163044,-2.3448365,-10.090791,-15.68914,-22.934168,24.584705,-11.089051,13.226906,-4.0526695,0.8595102,9.247806,12.321209,16.011032,-0.62910706,55.25026,9.887185,5.5510154,13.634337,0.77532315,-12.72444,11.2546015,55.97592,-5.6894083,2.9587183,-16.220842
169,5.607696056365967,-154.268798828125,75.82373809814453,-5.053026630571189,3.9941609672929657,10.770717480780096,-10.680659,50.14383,17.84195,32.316338,4.7376747,-1.4232364,-10.15945,-14.761237,-23.5648,25.34032,-12.239115,12.234644,-4.1102858,0.8177538,9.276852,12.000294,16.0524,-0.62756974,54.196472,10.0131,5.211072,13.779341,0.89358616,-12.687836,11.1213045,56.09913,-5.309578,2.8607316,-16.383291
170,5.751611709594727,-155.36624145507812,75.85542297363281,-5.056606233296917,3.944836014274746,11.000182532470383,-9.953881,50.594124,20.315046,32.530743,2.407935,-0.83512294,-10.358422,-14.007712,-23.975943,26.24541,-13.2463875,11.345591,-4.1787767,0.67568636,9.300447,11.688514,16.064764,-0.7257334,53.18417,10.029529,4.81905,13.982038,0.9880378,-12.661719,10.938097,56.266613,-4.9658475,2.7814689,-16.584146
171,5.907343864440918,-156.4402618408203,75.91167449951172,-4.996462740716597,3.869446540098551,11.190167090198809,-9.058667,50.590923,22.418772,32.675327,0.02225258,-0.5370667,-10.543244,-13.337697,-24.288893,27.100485,-14.115839,10.514118,-4.137551,0.50026286,9.322877,11.259278,16.056156,-1.0330822,52.369427,10.012553,4.4284215,14.230089,1.1644882,-12.606782,10.558174,56.43634,-4.667388,2.7086408,-16.803986
172,6.058319091796875,-157.47848510742188,75.99897003173828,-4.921869518965776,3.7596235119329653,11.360486361710727,-8.034802,50.34056,24.334225,32.814716,-2.035737,-0.51989883,-10.583036,-12.660147,-24.618282,27.706718,-14.847989,9.70078,-4.1456766,0.32272846,9.36028,10.862605,16.001783,-1.3190509,51.70248,10.0861025,4.0790186,14.442093,1.370635,-12.5655365,10.217431,56.630928,-4.2798886,2.6376677,-17.028305
173,6.207780361175537,-158.50091552734375,76.1029281616211,-4.848852909806417,3.6040226370391673,11.521241901753523,-6.856411,49.876774,26.100777,32.944813,-3.6413696,-0.8699827,-10.424869,-11.941542,-25.008339,27.972593,-15.398153,8.906059,-4.092071,0.19848639,9.410616,10.361648,15.850537,-1.7535244,51.35232,10.242661,3.7447834,14.713944,1.6801522,-12.500909,9.724873,56.846386,-3.8500745,2.5653915,-17.29996
174,6.364307403564453,-159.48646545410156,76.21952819824219,-4.753211622373633,3.410038463925122,11.659425428957082,-5.5663233,49.108273,27.599148,33.034733,-5.011786,-1.5511028,-10.150499,-11.22483,-25.398987,28.013348,-15.773906,8.1461735,-4.0587897,0.07991171,9.474301,9.854,15.626044,-2.2358468,51.196514,10.449323,3.4103684,15.015543,2.0246837,-12.43353,9.197418,57.097992,-3.3629215,2.4966984,-17.611378
175,6.508373260498047,-160.4442138671875,76.34504699707031,-4.623110193369765,3.1967464729826536,11.762438972409024,-4.261429,48.063564,28.79456,33.11086,-6.2700896,-2.4028826,-9.832868,-10.5329275,-25.745947,27.937841,-16.050909,7.4090548,-4.019817,-0.049496308,9.544662,9.341854,15.347965,-2.7423499,51.137028,10.742666,3.1672301,15.258051,2.3876326,-12.377082,8.657675,57.362072,-2.8611114,2.428836,-17.886656
176,6.646467685699463,-161.3720703125,76.47515869140625,-4.4466814886462975,2.98336482339529,11.817070631138336,-3.025603,46.77241,29.656359,33.197567,-7.5398674,-3.2672167,-9.542394,-9.891103,-26.004873,27.856565,-16.307463,6.68327,-3.966888,-0.20885509,9.616369,8.843055,15.037286,-3.224359,51.06175,11.1603365,3.104623,15.3451805,2.7471666,-12.34911,8.153927,57.615524,-2.3768384,2.3611066,-18.048286
177,6.786221504211426,-162.281494140625,76.60719299316406,-4.202200895342135,2.7615848743178004,11.80032795318712,-1.8563616,45.19112,30.091398,33.31841,-8.880387,-4.098017,-9.283718,-9.317629,-26.140251,27.783726,-16.554234,5.9684625,-3.8738215,-0.4216857,9.696716,8.358436,14.697827,-3.662468,50.944157,11.791226,3.3231027,15.194486,3.1095042,-12.356968,7.682004,57.854424,-1.8736695,2.293854,-18.043575
178,6.909051418304443,-163.15650939941406,76.72332000732422,-3.907211141352631,2.5259971096841065,11.725644684002951,-0.7211844,43.355988,30.127127,33.472446,-10.223462,-4.981856,-9.022204,-8.790026,-26.190535,27.66497,-16.750952,5.2678065,-3.7512596,-0.6649266,9.786646,7.8810835,14.323054,-4.0869994,50.841522,12.587741,3.7444983,14.867951,3.4882789,-12.396129,7.219568,58.083256,-1.345758,2.2297964,-17.921051
179,7.033473014831543,-164.01966857910156,76.84224700927734,-3.6060675670964373,2.3000807200836437,11.635258139067165,0.3589401,41.39891,29.936317,33.629772,-11.4980135,-5.9582343,-8.766309,-8.274536,-26.218847,27.503048,-16.898539,4.577059,-3.6493814,-0.8931496,9.871375,7.4158826,13.922584,-4.5185103,50.76671,13.379328,4.1908903,14.485198,3.8732917,-12.467152,6.7947416,58.292942,-0.868712,2.1719062,-17.754616
180,7.149395942687988,-164.86453247070312,76.95997619628906,-3.3408662484260065,2.106325483068504,11.571165622470335,1.3590069,39.429787,29.701397,33.745914,-12.63133,-7.0656133,-8.525812,-7.739519,-26.28632,27.30402,-17.000895,3.8924909,-3.61808,-1.0662488,9.935844,6.9683127,13.512167,-4.9760966,50.730526,13.988852,4.489225,14.170057,4.2559032,-12.571491,6.4381056,58.47286,-0.51672256,2.1213536,-17.617136
181,7.2641191482543945,-165.6885528564453,77.06306457519531,-3.1200696491361266,1.9546198605286231,11.551371053418178,2.2401257,37.41278,29.389854,33.79683,-13.608278,-8.375341,-8.294353,-7.1752706,-26.416918,27.038637,-17.043638,3.1970508,-3.6773763,-1.1796498,9.973001,6.5453644,13.101739,-5.4586678,50.720215,14.359758,4.5904613,13.914566,4.6307826,-12.712521,6.183043,58.62586,-0.33607796,2.0772443,-17.513659
182,7.360917091369629,-166.497802734375,77.15713500976562,-2.923067263393544,1.8316149191416868,11.55163313529479,3.0346293,35.308037,28.955488,33.811073,-14.481836,-9.846005,-8.069644,-6.597559,-26.577196,26.714394,-17.031504,2.4984512,-3.7990398,-1.2554388,9.991678,6.143603,12.689387,-5.9565716,50.73139,14.58413,4.5892262,13.666261,5.0050664,-12.888809,6.0065923,58.755463,-0.2772654,2.0387452,-17.40881
183,7.449688911437988,-167.2732696533203,77.23820495605469,-2.745545712025245,1.7249866498845856,11.551707033584668,3.7996643,33.194237,28.539024,33.820156,-15.28108,-11.34584,-7.866238,-6.0162888,-26.7405,26.385855,-16.992401,1.830105,-3.9583108,-1.2979556,10.000748,5.749138,12.27292,-6.477225,50.790356,14.706346,4.5319304,13.486286,5.388837,-13.091558,5.853641,58.853188,-0.27069896,2.005854,-17.315365
184,7.528733253479004,-168.05224609375,77.31004333496094,-2.5808435913510963,1.6225246801141078,11.530758054655436,4.5962114,31.137318,28.280548,33.828224,-16.011137,-12.74309,-7.697518,-5.44422,-26.878944,26.105953,-16.951738,1.2254492,-4.1281834,-1.3145223,10.009002,5.3466635,11.851049,-7.0312724,50.925434,14.771293,4.465148,13.436144,5.7933426,-13.308045,5.6660147,58.909946,-0.24797708,1.9785345,-17.246826
185,7.609434604644775,-168.8138885498047,77.36561584472656,-2.4241718864540975,1.5200103913648069,11.478993437209006,5.458062,29.13735,28.274927,33.82573,-16.630278,-14.055939,-7.541712,-4.8809533,-26.983,25.836987,-16.91698,0.7172149,-4.3020425,-1.3118649,10.0168915,4.93715,11.4231825,-7.6426654,51.161148,14.752956,4.3729157,13.594951,6.225576,-13.532863,5.4296145,58.908527,-0.22535975,1.9607983,-17.209995
186,7.676501750946045,-169.55545043945312,77.4091567993164,-2.228177155810639,1.4455391110243279,11.43265870540326,6.2953835,27.031,28.40914,33.740875,-17.12223,-15.000033,-7.4532633,-4.4096184,-27.068657,25.643919,-16.904284,0.29312795,-4.5128455,-1.3324754,9.997901,4.5234995,10.991432,-8.302775,51.480183,14.640385,4.240219,13.909999,6.6794443,-13.76563,5.17044,58.859875,-0.23093954,1.9508919,-17.198929
187,7.713289737701416,-170.2831573486328,77.44353485107422,-1.8781524607195779,1.4537682451935274,11.461449775073204,6.982055,24.581972,28.489037,33.437088,-17.49533,-15.000033,-7.625082,-4.252498,-27.14914,25.845612,-17.006702,-0.070931956,-4.8173985,-1.4825455,9.897177,4.0975,10.5607,-8.972168,51.84729,14.501485,4.114546,14.245099,7.144486,-14.001409,4.8909554,58.799202,-0.2147289,1.9402425,-17.208258
188,7.746419906616211,-170.97280883789062,77.46294403076172,-1.5870694060466009,1.4598660865633784,11.4785152949531,7.642488,22.186878,28.417152,33.03325,-17.872778,-15.000033,-7.8802705,-4.0626917,-27.226826,26.204266,-17.070868,-0.4841574,-5.11647,-1.5708584,9.811128,3.653588,10.13464,-9.614111,52.223755,14.401714,4.0457983,14.464412,7.6120005,-14.237455,4.5910907,58.760406,-0.1283726,1.9205542,-17.231148
189,7.76973819732666,-171.67474365234375,77.45933532714844,-1.357219316667135,1.4543017691639664,11.468870128476725,8.338843,19.89006,28.244373,32.551716,-18.28923,-15.000033,-8.233921,-3.8433475,-27.289715,26.774984,-17.11413,-0.97428244,-5.3963866,-1.5996189,9.747238,3.188743,9.711964,-10.215188,52.620747,14.327419,4.051543,14.523008,8.081037,-14.473223,4.2649784,58.75204,0.06410897,1.8881801,-17.274996
190,7.786808967590332,-172.3701629638672,77.44978332519531,-1.1757619954359473,1.442368930141295,11.435766621009025,9.08138,17.667568,28.019556,31.983292,-18.690369,-15.000033,-8.661594,-3.6007483,-27.340101,27.491941,-17.128235,-1.5051211,-5.666436,-1.5795656,9.698842,2.70946,9.291845,-10.796731,53.05052,14.253802,4.1044216,14.496463,8.555693,-14.7087345,3.9149485,58.756393,0.32893372,1.8477573,-17.340183
191,7.7880353927612305,-173.06137084960938,77.42896270751953,-1.0397882363197979,1.4419077353957246,11.409860302698714,9.79887,15.465972,27.610407,31.281605,-19.004597,-15.000033,-9.1537,-3.3354821,-27.405594,28.289312,-17.081459,-2.0392926,-5.9510407,-1.5087357,9.656005,2.2209196,8.881381,-11.3745775,53.47965,14.228786,4.186473,14.428806,9.033361,-14.941237,3.5535681,58.76935,0.6112835,1.8037583,-17.410192
192,7.778064727783203,-173.74627685546875,77.40149688720703,-0.9489111404257451,1.4696602162486245,11.421181451173876,10.429653,13.238104,26.889933,30.403898,-19.165413,-15.000033,-9.697819,-3.0452402,-27.513693,29.098866,-16.942135,-2.5409281,-6.27289,-1.3858573,9.609776,1.7290977,8.491835,-11.963501,53.87221,14.298885,4.2796416,14.363079,9.511467,-15.166926,3.1937284,58.786766,0.8556664,1.7607164,-17.468903
193,7.761439800262451,-174.4152374267578,77.35993194580078,-0.9124221357865764,1.5315294447424028,11.479993831469198,10.9694195,10.983388,25.774792,29.35334,-19.173546,-15.000033,-10.316264,-2.7311468,-27.673004,29.952103,-16.69668,-3.0133698,-6.6467204,-1.20231,9.564012,1.225779,8.130181,-12.58765,54.22995,14.506225,4.3965645,14.298159,9.987343,-15.382747,2.830413,58.807392,1.0479219,1.7085592,-17.517149
194,7.727472305297852,-175.09976196289062,77.32264709472656,-0.9297054832207808,1.6178488494012646,11.569346420123415,11.488587,8.740255,24.358953,28.152641,-19.056662,-15.000033,-11.007421,-2.3945317,-27.872072,30.871529,-16.365433,-3.4726539,-7.054987,-0.9641561,9.524044,0.71368045,7.7957335,-13.235592,54.56394,14.813102,4.540637,14.212851,10.463979,-15.587104,2.458244,58.833218,1.2163996,1.6485326,-17.561703
195,7.660940170288086,-175.7709197998047,77.27291870117188,-0.9900252900417491,1.7209214409814364,11.678164766944745,12.035585,6.523953,22.77779,26.783318,-18.791147,-15.000033,-11.71725,-2.0254614,-28.108896,31.765835,-15.964956,-3.9036603,-7.475307,-0.6854519,9.484293,0.2166384,7.4866476,-13.864715,54.85041,15.14787,4.6794453,14.119729,10.944622,-15.775642,2.0944252,58.866516,1.3712119,1.6021643,-17.595558
196,7.591808795928955,-176.4779052734375,77.21382141113281,-1.0851668935208152,1.8329281720973338,11.795405533077133,12.646427,4.348874,21.158964,25.21873,-18.355284,-15.000033,-12.393112,-1.6104549,-28.380339,32.54561,-15.512647,-4.2910066,-7.886227,-0.37843284,9.438986,-0.2434309,7.2023325,-14.430995,55.06667,15.43915,4.7811556,14.03277,11.430845,-15.945964,1.7571058,58.910954,1.5222715,1.5908517,-17.613188
197,7.503547668457031,-177.1553192138672,77.14622497558594,-1.2169494941751196,1.9596518301915629,11.910479802177129,13.355895,2.185785,19.537996,23.3777,-17.693825,-15.000033,-13.039232,-1.1482698,-28.676212,33.207607,-15.011281,-4.60387,-8.286621,-0.0356968,9.385625,-0.6573502,6.9418535,-14.922624,55.189896,15.697085,4.839152,13.937949,11.920442,-16.102823,1.4483422,58.96198,1.6785785,1.6234605,-17.619364
198,7.434694290161133,-177.8460235595703,77.06729888916016,-1.4060066613814137,2.104776276464819,12.034145872176298,14.148224,0.069738805,17.82421,21.284267,-16.841389,-15.000033,-13.672595,-0.6232007,-29.012005,33.774647,-14.444586,-4.8622966,-8.691226,0.36461192,9.329267,-1.0393802,6.705309,-15.361049,55.23734,15.950969,4.869841,13.834421,12.411904,-16.250294,1.1614939,59.019764,1.833735,1.687751,-17.6152
199,7.352133750915527,-178.5465850830078,76.9781265258789,-1.668356466564173,2.2571382980982437,12.186922698306383,14.971174,-1.8944253,15.963221,19.078835,-15.915096,-15.000033,-14.263266,-0.007041854,-29.420773,34.201836,-13.803723,-5.1256695,-9.102255,0.8286414,9.275225,-1.4034235,6.4950337,-15.75123,55.24588,16.157936,4.876567,13.755987,12.90702,-16.378532,0.903549,59.09509,1.9735664,1.7732298,-17.589048
200,7.2576799392700195,-179.2532196044922,76.88365173339844,-2.0079302546809616,2.4043816092329955,12.387156081380354,15.767303,-3.6187997,13.9165325,16.915085,-15.028939,-15.000033,-14.783962,0.7144866,-29.928719,34.4512,-13.082607,-5.4507866,-9.519108,1.3458037,9.2284975,-1.7639465,6.316917,-16.099106,55.25416,16.275427,4.862857,13.736458,13.406778,-16.471905,0.68108886,59.20028,2.0821903,1.8693098,-17.531927
201,7.16460657119751,-179.99253845214844,76.79956817626953,-2.4293007590344824,2.541407635785424,12.647110660258246,16.542883,-5.1106615,11.619629,14.79911,-14.21122,-15.000033,-15.219089,1.550968,-30.536829,34.50378,-12.293624,-5.854841,-9.952976,1.910315,9.186182,-2.120381,6.186194,-16.421417,55.2706,16.256155,4.8207073,13.795285,13.914971,-16.51746,0.5012021,59.354504,2.1359403,1.9804585,-17.440327
202,7.06354284286499,-180.73422241210938,76.7053451538086,-2.924358197929543,2.6756674598052617,12.953835071786584,17.325577,-6.3988247,9.117847,12.667686,-13.403966,-15.000033,-15.588644,2.488916,-31.230877,34.37898,-11.433653,-6.305176,-10.40483,2.5140555,9.151045,-2.457621,6.112073,-16.706219,55.262554,16.133896,4.750894,13.907579,14.422461,-16.518076,0.3673779,59.550167,2.1490915,2.109646,-17.32173
203,6.964101791381836,-181.50848388671875,76.61727905273438,-3.463418516923305,2.8110756882175103,13.286162009000712,18.09037,-7.460995,6.5557537,10.549146,-12.568715,-15.000033,-15.921093,3.4905186,-32.004715,34.110046,-10.479414,-6.782547,-10.864353,3.1354373,9.134811,-2.7671394,6.081717,-16.906715,55.20796,15.990605,4.669368,14.040265,14.906161,-16.490946,0.28822628,59.764553,2.1667378,2.243763,-17.180069
204,6.840297698974609,-182.29415893554688,76.53203582763672,-4.011316053138791,2.9509324818662632,13.622863776951387,18.8274,-8.295536,4.0825276,8.417373,-11.631514,-15.000033,-16.248175,4.5090876,-32.85021,33.740566,-9.412296,-7.267396,-11.230567,3.7544532,9.139269,-3.1169689,6.052012,-17.078194,55.160538,15.892115,4.599675,14.184965,15.424908,-16.402273,0.16692615,59.921814,2.202048,2.3689418,-17.02843
205,6.688883304595947,-183.08078002929688,76.44672393798828,-4.564996518497572,3.1194057632927157,14.002302211713868,19.032688,-8.91596,1.7043724,7.2272644,-11.116853,-15.000033,-16.594843,5.527937,-33.793823,33.260914,-8.234219,-7.7371807,-11.5966215,4.3675838,9.152628,-3.4698648,6.037257,-17.11831,55.076096,15.89347,4.542068,14.318445,15.920397,-16.271122,0.09120553,60.06025,2.3055074,2.4869852,-16.879383
206,6.532235622406006,-183.8936004638672,76.37040710449219,-5.1292819159550085,3.3025578810721,14.41814776728675,18.636438,-9.406698,-0.5818002,7.149905,-11.127917,-15.000033,-16.939013,6.5617447,-34.82249,32.662807,-6.957546,-8.206814,-11.933419,4.9674273,9.174886,-3.8526268,6.0393305,-17.075563,54.992615,15.946765,4.4894533,14.464675,16.418346,-16.06777,0.034046583,60.18171,2.4369025,2.6026423,-16.735785
207,6.369222640991211,-184.7185516357422,76.30052185058594,-5.672006340827871,3.451626070374804,14.787779592015385,18.19915,-9.808232,-2.647898,7.1128006,-11.029113,-15.000033,-17.250269,7.5953345,-35.870285,32.004658,-5.583874,-8.713241,-12.213153,5.5153866,9.235252,-4.2107735,6.0695186,-16.951767,54.874012,16.00221,4.435435,14.621928,16.877981,-15.848749,0.016187403,60.303383,2.5675383,2.7102504,-16.56338
208,6.169013500213623,-185.56869506835938,76.23027801513672,-6.149347214206096,3.522860465244003,15.033713973820976,17.762688,-10.117654,-4.2990437,7.0967493,-10.739217,-15.000033,-17.510284,8.590526,-36.87152,31.367365,-4.123715,-9.291993,-12.369493,5.9276276,9.349696,-4.5370035,6.1494036,-16.777685,54.73394,16.018055,4.3765645,14.798675,17.280558,-15.582502,0.025779236,60.432335,2.6403773,2.8009343,-16.360209
209,5.974632740020752,-186.4457550048828,76.17352294921875,-6.544861889939834,3.5062866608944105,15.159051106282021,17.286808,-10.388021,-5.700724,7.0715456,-10.064942,-15.000033,-17.702888,9.517407,-37.86453,30.772528,-2.6200747,-10.039106,-12.411092,6.1962156,9.518712,-4.807582,6.2828207,-16.541843,54.54601,15.996532,4.319759,14.99174,17.630827,-15.295272,0.06425041,60.566856,2.6693523,2.8683891,-16.08124
210,5.780333518981934,-187.37303161621094,76.11813354492188,-6.858875224244757,3.428174072177723,15.199498641598145,16.750502,-10.622121,-6.8923297,7.0289574,-9.084204,-15.000033,-17.854847,10.363868,-38.862617,30.216578,-1.0726324,-10.90847,-12.355908,6.3199215,9.724464,-5.0318084,6.482841,-16.241898,54.305492,15.953863,4.26454,15.1964035,17.934841,-14.959989,0.13380362,60.704887,2.6670947,2.9171832,-15.753195
211,5.596296310424805,-188.29605102539062,76.09984588623047,-7.06687127141299,3.2989162859987844,15.122037093778971,16.210342,-10.72936,-7.487931,6.995826,-8.131407,-15.000033,-18.016907,11.106931,-39.75354,29.759594,0.5694293,-11.7201,-12.192516,6.2806077,9.954516,-5.2057776,6.7423763,-15.894512,54.016075,15.861186,4.192092,15.413289,18.158756,-14.598135,0.24576207,60.86114,2.6114569,2.9589572,-15.430865
212,5.401494026184082,-189.25433349609375,76.11544036865234,-7.149497444717733,3.1171915311184435,14.881547110482385,15.736069,-10.60669,-7.080578,7.0238385,-7.579031,-15.000033,-18.222836,11.74069,-40.408413,29.448076,2.367496,-12.290993,-11.898553,6.056912,10.209221,-5.3273473,7.059671,-15.514518,53.68229,15.689845,4.083332,15.641549,18.266132,-14.222963,0.41340125,61.051334,2.479244,3.0047255,-15.173398
213,5.149603366851807,-190.21603393554688,76.07659149169922,-6.908715048984186,2.8575978844948677,14.42909892880383,15.396606,-10.630876,-5.4369545,7.181294,-7.6099625,-12.192103,-18.61146,11.893994,-40.81205,29.825438,4.086935,-12.580039,-11.424775,5.464531,10.474533,-5.401598,7.4342337,-15.089688,53.29945,15.419436,3.9339492,15.88887,18.241398,-13.839727,0.6540199,61.296875,2.2262003,3.0586283,-14.978481
214,4.892169952392578,-191.1256561279297,76.02420806884766,-6.209353386810986,2.5829862634126406,13.88504012506365,13.673589,-11.417906,-2.8296735,10.512934,-9.686823,-4.513405,-19.41521,11.195614,-40.996674,31.398888,5.450258,-12.617616,-10.880977,4.4201827,10.6895075,-5.4331985,7.857263,-14.617139,52.86529,15.067117,3.7552118,16.150257,18.11675,-13.456495,0.9472823,61.569336,1.8793222,3.1153939,-14.813187
215,4.6388630867004395,-192.02316284179688,75.9739990234375,-5.536865845724119,2.3394013561999416,13.337006612080026,11.768731,-11.910164,0.13013612,14.335496,-12.388782,2.9555342,-20.320005,10.543319,-40.959293,32.94413,7.024411,-12.404687,-10.372943,3.3953047,10.913174,-5.4099836,8.316919,-14.117946,52.38752,14.6658945,3.5485697,16.407928,17.915663,-13.085447,1.2601258,61.82391,1.5238553,3.171817,-14.694082
216,4.372063636779785,-192.91336059570312,75.92013549804688,-5.056293477107113,2.136462980021387,12.857295996330654,10.506129,-12.014289,2.6934524,16.864143,-14.636707,8.2342,-21.317945,10.191953,-40.553482,34.217754,8.910954,-11.835545,-9.978922,2.575374,11.16597,-5.3211436,8.791917,-13.615853,51.875313,14.2472725,3.3167248,16.645828,17.663168,-12.745517,1.5546852,62.01317,1.2448051,3.2254374,-14.635061
217,4.095875263214111,-193.7989959716797,75.85643768310547,-4.712440476462891,1.9199794736906837,12.391882876311925,10.192373,-11.817824,4.9615774,17.553944,-16.126905,10.469154,-22.521013,10.110735,-39.564358,35.46136,11.069623,-11.084589,-9.647244,1.9008219,11.487023,-5.159137,9.272376,-13.09636,51.288555,13.804254,3.040164,16.851463,17.341883,-12.445983,1.8338925,62.13486,1.0737691,3.277984,-14.671045
218,3.8096446990966797,-194.66136169433594,75.7767333984375,-4.408504779294906,1.675306384480321,11.888169331756345,10.511971,-11.446477,7.2614512,17.118828,-17.234554,10.793233,-23.895473,10.237042,-38.03657,36.727726,13.424669,-10.019459,-9.321143,1.2693461,11.86592,-4.927819,9.757053,-12.5491085,50.64346,13.32864,2.723202,17.038094,16.944534,-12.185595,2.113762,62.21276,0.96500003,3.3304281,-14.783027
219,3.519746780395508,-195.5205078125,75.693359375,-4.128879933106477,1.4285210919543438,11.362836625792593,11.08136,-11.048609,9.36049,16.220116,-18.140427,10.257325,-25.247543,10.625147,-36.077168,37.735558,15.867194,-8.052202,-9.010638,0.673311,12.256992,-4.636456,10.237237,-12.000819,50.03924,12.853196,2.4033875,17.230053,16.505167,-11.961621,2.3796175,62.246105,0.8871703,3.3787506,-14.906928
220,3.2370691299438477,-196.3853302001953,75.6112060546875,-3.8533975346092793,1.2018617714761262,10.831082609544893,11.510963,-10.732779,10.969974,15.530232,-19.1003,9.941138,-26.391272,11.291836,-33.7633,38.274075,18.210365,-4.631502,-8.719916,0.10050008,12.616107,-4.305664,10.700055,-11.481473,49.58427,12.412036,2.118141,17.454689,16.060621,-11.771107,2.6128638,62.23405,0.80723614,3.4186246,-14.979159
221,2.974600076675415,-197.22787475585938,75.52381896972656,-3.579230756175369,0.9853874168032366,10.28461305200384,11.727502,-10.503136,11.892626,15.16794,-20.21731,10.045608,-27.295736,12.461993,-30.682455,38.13738,20.555191,1.0686724,-8.451544,-0.456779,12.945256,-3.9390352,11.14342,-10.99113,49.308945,12.001076,1.8561785,17.76168,15.609962,-11.61229,2.7953768,62.175365,0.71259826,3.445715,-14.979992
222,2.711259365081787,-198.0231170654297,75.4296646118164,-3.3308216815945757,0.7668073964065736,9.719968589647465,11.904123,-10.271631,12.332122,14.829986,-21.354172,10.038728,-28.00828,14.122371,-26.852072,37.609108,22.5519,8.614661,-8.198686,-0.97553355,13.268831,-3.534124,11.567047,-10.519432,49.163357,11.608378,1.6040063,18.124899,15.139468,-11.485361,2.937842,62.070797,0.6202254,3.4631498,-14.945476
223,2.503152847290039,-198.84786987304688,75.33262634277344,-3.112931952858322,0.5634108271249627,9.150161869274271,12.014573,-9.992569,12.559039,14.57676,-22.469786,9.914649,-28.392962,15.513029,-23.788631,37.23367,23.590237,15.000033,-7.9485893,-1.442804,13.575246,-3.1115131,11.958047,-10.080459,49.14194,11.256565,1.397029,18.460451,14.666366,-11.392567,3.0642207,61.92386,0.5408103,3.477745,-14.897311
224,2.2903316020965576,-199.7265167236328,75.21546936035156,-3.067677472075117,0.49123166630497483,8.218876497859656,11.624781,-9.353016,13.25131,15.085823,-23.88417,9.56609,-28.169384,15.578677,-24.322195,37.064484,24.08079,15.000033,-7.3236127,-1.6840743,13.739893,-2.7258706,12.253203,-9.695521,49.294434,10.991285,1.2727777,18.697523,14.243392,-11.344871,3.1866446,61.719395,0.4850148,3.497753,-14.862371
225,2.0403528213500977,-200.52769470214844,75.10285949707031,-2.994968645605983,0.4943846548549263,7.306528357882149,11.205034,-8.742346,13.979521,15.521808,-25.116108,9.079568,-28.034962,15.029551,-25.578857,37.668507,23.641472,15.000033,-6.703413,-1.9401472,13.829751,-2.29135,12.576279,-9.333934,49.499813,10.815137,1.2580273,18.765324,13.82182,-11.314299,3.3467617,61.459793,0.47134766,3.5259173,-14.83243
226,1.8294347524642944,-201.32073974609375,75.02788543701172,-2.8907566371661377,0.5636634280516657,6.41830074969555,10.757533,-8.176759,14.6154375,15.872028,-26.184921,8.4780245,-27.91775,14.010205,-27.34415,38.7804,22.528318,15.000033,-6.0875845,-2.16835,13.843524,-1.8789539,12.82159,-9.019805,49.85847,10.733032,1.3299459,18.745897,13.423045,-11.333933,3.4878993,61.13743,0.4841155,3.5584953,-14.801005
227,1.6358524560928345,-202.07461547851562,74.98592376708984,-2.7616933317636123,0.673763710249122,5.5872524984493195,10.311223,-7.6481194,15.212007,16.146149,-27.068037,7.864258,-27.845282,12.712281,-29.158947,40.176975,21.026535,15.000033,-5.5068374,-2.3712852,13.817888,-1.4964845,12.996833,-8.767518,50.366154,10.654678,1.4461457,18.683542,13.027211,-11.3966,3.6257408,60.80973,0.49928722,3.5884244,-14.776516
228,1.4677461385726929,-202.7933807373047,74.97317504882812,-2.6179012399920807,0.788020230601496,4.856309517853025,9.897435,-7.1405916,15.809836,16.379522,-27.749495,7.340095,-27.850998,11.340732,-30.578949,41.620247,19.395205,15.000033,-4.9826455,-2.5472443,13.799305,-1.1720754,13.10411,-8.609802,51.038246,10.490697,1.5655099,18.629414,12.622794,-11.478095,3.7574644,60.532097,0.48530754,3.608019,-14.77325
229,1.2992023229599,-203.4893798828125,74.99483489990234,-2.439105265364033,0.8912813603494383,4.2694421483438,9.535073,-6.683063,16.410564,16.572056,-28.201786,6.9710865,-27.948807,9.875969,-31.520348,43.126484,17.549368,15.000033,-4.5560884,-2.724515,13.803666,-0.8998154,13.172083,-8.5641365,51.885567,10.182197,1.6737422,18.591576,12.206368,-11.575969,3.8942876,60.309933,0.42539215,3.6129973,-14.805983
230,1.1424754858016968,-204.16343688964844,75.03927612304688,-2.2233934689093204,0.9854754009054293,3.809585508404739,9.226324,-6.283542,16.974672,16.704252,-28.439705,6.6942754,-28.065306,8.2472925,-32.18783,44.724033,15.39099,15.000033,-4.2027407,-2.907844,13.8222,-0.6822725,13.198134,-8.624993,52.906364,9.789064,1.7958122,18.549063,11.789355,-11.67587,4.0202384,60.117416,0.3294762,3.607284,-14.871777
231,0.9974374175071716,-204.81703186035156,75.11090850830078,-2.0140708329380383,1.0587033048419392,3.427074476687445,8.984348,-5.8886876,17.479555,16.770426,-28.519901,6.416634,-28.14468,6.5945616,-32.586018,46.224354,13.1328535,15.000033,-3.9102771,-3.057686,13.870666,-0.46055365,13.187655,-8.728998,53.99314,9.372746,1.9447004,18.472387,11.354155,-11.817064,4.1677885,59.96042,0.24961992,3.5988507,-14.920815
232,0.8653375506401062,-205.45985412597656,75.2127685546875,-1.8555967206455695,1.1031496888117518,3.067430686351203,8.822719,-5.4443483,17.907349,16.75287,-28.485428,6.043879,-28.151869,5.04762,-32.734974,47.457382,11.01523,15.000033,-3.6299474,-3.150638,13.957554,-0.22409993,13.137067,-8.834863,55.091156,9.012961,2.1360886,18.350695,10.883156,-11.963509,4.3377857,59.861668,0.20722924,3.5927925,-14.935398
233,0.7485250234603882,-206.0926513671875,75.34710693359375,-1.7621306413863773,1.1101995335466406,2.7352329705342595,8.74278,-4.9357967,18.23989,16.659449,-28.331762,5.5564933,-28.11699,3.675022,-32.52545,48.40601,9.016653,15.000033,-3.3655896,-3.1761186,14.094884,0.029770015,13.048792,-8.933386,56.210495,8.731088,2.386237,18.161184,10.368761,-12.122524,4.5556555,59.83471,0.23634742,3.5904026,-14.89692
234,0.6499696373939514,-206.73074340820312,75.50384521484375,-1.7036513233511146,1.0840926113020182,2.4532607380513585,8.745967,-4.4040327,18.488813,16.474167,-28.030313,5.0055017,-28.054054,2.3715358,-32.010887,49.172688,7.0530944,15.000033,-3.136363,-3.1554785,14.273388,0.29193568,12.9240265,-9.0459795,57.3771,8.488532,2.6835864,17.9184,9.818785,-12.2972145,4.812838,59.86929,0.31234518,3.5887506,-14.824434
235,0.56195467710495,-207.3422393798828,75.67546081542969,-1.6648133495305661,1.038023203298275,2.192984261892698,8.813941,-3.8619735,18.686493,16.211893,-27.625858,4.4012136,-27.91513,1.0310786,-31.432241,49.77459,5.2027836,15.000033,-2.9346495,-3.1018574,14.4698715,0.5885217,12.770172,-9.164959,58.52452,8.260194,2.9997842,17.654129,9.236704,-12.481662,5.082558,59.945198,0.38927996,3.5876458,-14.735926
236,0.49286478757858276,-207.96664428710938,75.85540771484375,-1.6324766136825695,0.9834213020402486,1.9269595755084283,8.929877,-3.3172977,18.86523,15.890933,-27.164001,3.7516942,-27.649792,-0.44327748,-31.027922,50.217777,3.5297256,15.000033,-2.752465,-3.0296354,14.664012,0.945168,12.598528,-9.283271,59.586308,8.019497,3.3064885,17.399452,8.626111,-12.664704,5.3373027,60.04268,0.41957027,3.5867665,-14.65071
237,0.42152902483940125,-208.60342407226562,76.04712677001953,-1.6126909807278988,0.9056793119701969,1.638513674712471,9.119439,-2.7652998,19.029957,15.486288,-26.6323,3.0415208,-27.234211,-2.0621364,-30.829308,50.500095,2.0195162,15.000033,-2.578199,-2.9385333,14.873134,1.376851,12.414077,-9.387772,60.547226,7.7505236,3.6053548,17.14815,7.969567,-12.837489,5.572624,60.18548,0.3852056,3.5885508,-14.570797
238,0.35184794664382935,-209.2286834716797,76.23841857910156,-1.60761127209373,0.8013946474370357,1.3473039517642451,9.390316,-2.2102032,19.161848,14.978916,-26.002888,2.2739701,-26.70132,-3.7891254,-30.748331,50.629536,0.6160935,15.000033,-2.4186313,-2.8286166,15.101912,1.8674735,12.21834,-9.489165,61.4403,7.468563,3.9098542,16.887354,7.270241,-12.998341,5.8024955,60.37723,0.31143287,3.5918696,-14.488598
239,0.31630179286003113,-209.83775329589844,76.43114471435547,-1.6031594761706824,0.6969276367849532,1.080977943536812,9.6577425,-1.6499262,19.26124,14.495252,-25.351336,1.4813598,-26.085426,-5.6289206,-30.828821,50.621647,-0.7006738,15.000033,-2.2914324,-2.7140467,15.315049,2.3925962,12.01947,-9.617023,62.280174,7.1930633,4.2037086,16.639252,6.562475,-13.15005,6.024286,60.567783,0.21510532,3.5909874,-14.408443
240,0.2833694517612457,-210.4501495361328,76.61849212646484,-1.585255954829815,0.6181199101661321,0.8664364515561096,9.893936,-1.10279,19.323431,14.040597,-24.689838,0.69915956,-25.411184,-7.5920444,-31.124498,50.483692,-1.9256091,15.000033,-2.2121599,-2.6092691,15.47836,2.93286,11.829145,-9.801991,63.0687,6.9422994,4.476863,16.423717,5.8814406,-13.297774,6.232977,60.70557,0.11318379,3.5804288,-14.334112
