unveil-humanoid-operators/unveil-humanoid-operators.github.io/feature-analysis-animation/data/feature_matrix_instances/weight_root_translate_peak_vel_walking_A035_walk_forward_start_001__A035.csv
Frame,root_translateX,root_translateY,root_translateZ,root_rotateX,root_rotateY,root_rotateZ,left_hip_pitch_joint_dof,left_hip_roll_joint_dof,left_hip_yaw_joint_dof,left_knee_joint_dof,left_ankle_pitch_joint_dof,left_ankle_roll_joint_dof,right_hip_pitch_joint_dof,right_hip_roll_joint_dof,right_hip_yaw_joint_dof,right_knee_joint_dof,right_ankle_pitch_joint_dof,right_ankle_roll_joint_dof,waist_yaw_joint_dof,waist_roll_joint_dof,waist_pitch_joint_dof,left_shoulder_pitch_joint_dof,left_shoulder_roll_joint_dof,left_shoulder_yaw_joint_dof,left_elbow_joint_dof,left_wrist_roll_joint_dof,left_wrist_pitch_joint_dof,left_wrist_yaw_joint_dof,right_shoulder_pitch_joint_dof,right_shoulder_roll_joint_dof,right_shoulder_yaw_joint_dof,right_elbow_joint_dof,right_wrist_roll_joint_dof,right_wrist_pitch_joint_dof,right_wrist_yaw_joint_dof
0,0.04671734198927879,-2.210343599319458,77.657470703125,0.8469390414329395,-3.2033792251401625,93.56321256064702,4.2550597,8.079443,10.876013,9.882199,-11.067814,-10.472312,1.8495287,-10.47402,-15.787672,17.777966,-15.270258,8.939468,-1.2844557,0.18020804,6.7960577,-1.0950997,24.229568,-45.855682,50.155727,0.93528104,4.5816455,-2.5657122,-5.7347608,-22.087645,49.025867,49.90718,15.23136,25.615654,-3.7007012
1,0.05985700339078903,-2.2196261882781982,77.64633178710938,0.8997439099699475,-3.169862515472047,93.57376801720957,4.2943335,8.006741,10.872033,9.689417,-10.98479,-10.5065775,1.6547118,-10.573594,-15.758357,18.107925,-15.447648,8.890507,-1.3132029,0.14763378,6.8320727,-1.167003,24.276814,-45.963795,50.103256,0.9004441,4.606043,-2.5850024,-5.7205796,-22.121723,48.97969,49.8178,15.369031,25.563637,-3.766855
2,0.0694148913025856,-2.2226579189300537,77.63526916503906,0.9519160906654367,-3.1363161829313797,93.58653370431647,4.330515,7.9342775,10.865226,9.500384,-10.902043,-10.539014,1.4600133,-10.672755,-15.730645,18.437635,-15.623454,8.840795,-1.3392804,0.11571561,6.8664784,-1.2479559,24.315372,-46.081177,50.063107,0.8652709,4.632328,-2.6058307,-5.707388,-22.14903,48.928173,49.736015,15.509564,25.508272,-3.8346686
3,0.0814068391919136,-2.2376205921173096,77.62387084960938,1.0053676967876648,-3.102779559823062,93.59514389014926,4.3755226,7.861564,10.863906,9.297831,-10.81528,-10.57539,1.2654055,-10.770671,-15.6991415,18.766663,-15.800501,8.792857,-1.3625438,0.083998434,6.8975577,-1.3310342,24.347149,-46.195415,50.03254,0.8295721,4.6534343,-2.621522,-5.6942,-22.171242,48.879322,49.660767,15.6401415,25.457975,-3.8984516
4,0.09565708786249161,-2.2499654293060303,77.61133575439453,1.0611714791131437,-3.06914108322789,93.59323530684762,4.44319,7.7877555,10.876707,9.060018,-10.717574,-10.621548,1.0691426,-10.866854,-15.658033,19.098263,-15.980215,8.74898,-1.3665038,0.049952697,6.9259167,-1.4155242,24.383982,-46.312504,50.001118,0.7884992,4.6630926,-2.624762,-5.6650124,-22.19746,48.819595,49.575195,15.74436,25.421738,-3.951262
5,0.11343841999769211,-2.2572569847106934,77.59844207763672,1.123430398183978,-3.0431241948685277,93.56887251542166,4.5606756,7.7087116,10.917982,8.7621155,-10.604824,-10.681564,0.8760651,-10.963478,-15.595362,19.43863,-16.168556,8.715572,-1.3655533,0.01605445,6.9496655,-1.4830095,24.408659,-46.40204,49.978294,0.7455344,4.6522417,-2.6122987,-5.636895,-22.214691,48.782112,49.501858,15.82865,25.404757,-3.9978526
6,0.13393282890319824,-2.266644239425659,77.58554077148438,1.1887448910111456,-3.0218370102973533,93.52893114026287,4.712651,7.626319,10.978866,8.42124,-10.480573,-10.751757,0.68581074,-11.059345,-15.518071,19.782812,-16.361813,8.689272,-1.3317273,-0.021511495,6.9744,-1.5503218,24.447767,-46.50966,49.94412,0.6876955,4.6290574,-2.587099,-5.5796657,-22.243248,48.72132,49.40419,15.890658,25.402592,-4.037245
7,0.15351878106594086,-2.265071392059326,77.5731430053711,1.2513103235978396,-2.9901587977539705,93.49546182784874,4.8469663,7.5497007,11.032805,8.085602,-10.354249,-10.825849,0.4847435,-11.149947,-15.447693,20.126804,-16.553493,8.658197,-1.3175391,-0.055165652,6.991934,-1.619408,24.476698,-46.589184,49.92282,0.6442923,4.6034713,-2.5578487,-5.537854,-22.26352,48.679794,49.320812,15.934278,25.40529,-4.0649457
8,0.18032285571098328,-2.24705171585083,77.55872344970703,1.305606044681602,-2.93277687609509,93.49012773038665,4.90921,7.4879704,11.053478,7.8080072,-10.237526,-10.897709,0.25860134,-11.231612,-15.404992,20.467213,-16.737352,8.610551,-1.3150504,-0.08638613,7.002176,-1.7089884,24.513071,-46.662212,49.90234,0.6276663,4.58983,-2.5301988,-5.4956613,-22.286545,48.6207,49.227997,15.946264,25.404545,-4.0710096
9,0.21143728494644165,-2.225529432296753,77.54629516601562,1.3502875025247976,-2.8337914136170834,93.52536276660447,4.859608,7.443668,11.02581,7.61535,-10.133498,-10.963928,-0.017021606,-11.306608,-15.399192,20.815388,-16.91297,8.539829,-1.3561438,-0.11273794,6.992524,-1.8192656,24.535534,-46.698063,49.901844,0.6646415,4.5942526,-2.5010583,-5.4851127,-22.297495,48.569412,49.154457,15.922791,25.393492,-4.041556
10,0.25324198603630066,-2.2918143272399902,77.52799987792969,1.3881588708669232,-2.7054104022176038,93.58701742127721,4.7354937,7.411789,10.966993,7.476738,-10.037194,-11.028339,-0.3273619,-11.37626,-15.417478,21.168585,-17.083088,8.45348,-1.4042462,-0.13965403,6.972974,-1.959791,24.56666,-46.738476,49.906624,0.7221623,4.610767,-2.4681802,-5.4726014,-22.30852,48.491825,49.069885,15.859123,25.37944,-3.9828744
11,0.2922825515270233,-2.3127970695495605,77.51515197753906,1.4227008292274,-2.5753874679748656,93.65764576760994,4.597556,7.3897305,10.898433,7.357569,-9.946567,-11.095195,-0.62978053,-11.437659,-15.447783,21.508238,-17.248976,8.360634,-1.4549483,-0.16488306,6.9555497,-2.0981889,24.605644,-46.764603,49.9056,0.79076374,4.627101,-2.4413702,-5.456791,-22.318022,48.413315,48.986504,15.781148,25.370014,-3.9253283
12,0.34718459844589233,-2.3139328956604004,77.50370788574219,1.4525596190315133,-2.4710647690241743,93.7198947251224,4.5054493,7.3751116,10.841508,7.2256413,-9.8612585,-11.168591,-0.87982297,-11.486979,-15.478668,21.810947,-17.409285,8.270367,-1.5020946,-0.18472855,6.9511814,-2.215501,24.640867,-46.767265,49.904797,0.8543982,4.630687,-2.4296556,-5.433232,-22.322332,48.358166,48.91408,15.714712,25.373508,-3.9000318
13,0.39510512351989746,-2.3109281063079834,77.49430847167969,1.4805307368058152,-2.410206859029923,93.76501098940307,4.4681582,7.371144,10.803987,7.119123,-9.810891,-11.2499075,-1.052946,-11.523722,-15.504985,22.070665,-17.567087,8.185671,-1.5334349,-0.20002356,6.971554,-2.3054628,24.676807,-46.75031,49.89784,0.9097277,4.614315,-2.4405963,-5.3917217,-22.322495,48.326252,48.851032,15.659327,25.400162,-3.9288669
14,0.44148537516593933,-2.3078649044036865,77.48505401611328,1.505939977280799,-2.3744964140974405,93.803631501274,4.4253006,7.383599,10.76975,7.104563,-9.819917,-11.336658,-1.1759403,-11.5499,-15.534168,22.296818,-17.720257,8.101502,-1.5580752,-0.2102171,7.004602,-2.3868773,24.701738,-46.71812,49.904526,0.96446365,4.5842137,-2.466767,-5.3397717,-22.319403,48.313736,48.79795,15.607835,25.442879,-3.991845
15,0.49855801463127136,-2.297849416732788,77.47652435302734,1.5262640804874907,-2.3376674243390267,93.84730546323962,4.380221,7.4048367,10.730475,7.0923295,-9.827874,-11.427694,-1.2876476,-11.565698,-15.571644,22.504019,-17.867949,8.014759,-1.5904325,-0.2182398,7.039059,-2.4477267,24.743229,-46.659863,49.888443,1.0192435,4.555562,-2.4980826,-5.2891636,-22.309797,48.306007,48.750813,15.555463,25.484312,-4.051862
16,0.5586326122283936,-2.295071601867676,77.46773529052734,1.5393014655438855,-2.2729086513984083,93.90725054104855,4.2923026,7.4361906,10.672319,7.085338,-9.8228655,-11.52209,-1.4254746,-11.570813,-15.623147,22.702635,-18.006376,7.92233,-1.6337507,-0.2221582,7.051081,-2.525553,24.77531,-46.600044,49.897526,1.0610986,4.535182,-2.5200727,-5.239772,-22.298534,48.290592,48.706116,15.509541,25.506617,-4.075589
17,0.6231478452682495,-2.2922680377960205,77.45658111572266,1.5475129968159527,-2.1679815488854697,93.9879085066485,4.143423,7.4744163,10.5895815,7.0840693,-9.797914,-11.616836,-1.6089445,-11.568797,-15.689456,22.901667,-18.135626,7.8213263,-1.7003473,-0.22967796,7.0390663,-2.5853,24.838308,-46.50682,49.87228,1.1046093,4.534978,-2.534246,-5.211026,-22.270538,48.267002,48.676712,15.457811,25.499962,-4.0361247
18,0.6959607601165771,-2.290072441101074,77.44632720947266,1.5510518487939544,-2.0388622787444652,94.08268230373547,3.9570255,7.520581,10.490191,7.087781,-9.760743,-11.713428,-1.8148955,-11.558203,-15.767889,23.093628,-18.25734,7.714044,-1.7676872,-0.22979228,7.00502,-2.6759567,24.871574,-46.420315,49.892967,1.1380608,4.5418434,-2.5411675,-5.171654,-22.251675,48.229332,48.64096,15.406357,25.477022,-3.9589806
19,0.7722461223602295,-2.2955269813537598,77.43595886230469,1.5467137891369744,-1.9018678504186568,94.18645628387058,3.7576225,7.579156,10.381109,7.0951138,-9.721191,-11.817357,-2.0160122,-11.53343,-15.858744,23.264406,-18.371168,7.6052613,-1.8488977,-0.22970986,6.9678206,-2.7433066,24.930286,-46.31107,49.888268,1.166552,4.550765,-2.546283,-5.1433086,-22.213438,48.193855,48.622276,15.363328,25.447317,-3.8807297
20,0.8464183807373047,-2.2839579582214355,77.42806243896484,1.531964504717247,-1.7733938399044162,94.29432704153308,3.5680552,7.655975,10.269027,7.106152,-9.689056,-11.934376,-2.1858146,-11.48839,-15.962411,23.401468,-18.477156,7.4998198,-1.930902,-0.22136107,6.9336987,-2.8155744,24.986156,-46.21843,49.90298,1.1678771,4.5496826,-2.5455217,-5.102626,-22.17238,48.155827,48.603355,15.342366,25.423874,-3.8403308
21,0.9385214447975159,-2.255481004714966,77.42196655273438,1.5043220259467351,-1.656767841858755,94.41048539479094,3.3926737,7.754127,10.151768,7.1205716,-9.668327,-12.07294,-2.313129,-11.419606,-16.085615,23.496044,-18.574358,7.3987217,-2.0198302,-0.2054307,6.9053087,-2.8817682,25.049063,-46.137405,49.927444,1.1418978,4.533125,-2.5455348,-5.0506725,-22.121758,48.11564,48.587868,15.366629,25.406725,-3.8620048
22,1.0338091850280762,-2.241163969039917,77.41248321533203,1.4651996855755929,-1.5433881985398978,94.53551433708063,3.2212977,7.870236,10.027381,7.1362104,-9.652907,-12.227931,-2.4136672,-11.330901,-16.22595,23.556967,-18.663195,7.29963,-2.1130385,-0.17911471,6.8766723,-2.9555588,25.102364,-46.067863,49.977272,1.0938714,4.5062437,-2.5434635,-4.9835763,-22.075693,48.069786,48.565685,15.424286,25.391586,-3.920592
23,1.1245002746582031,-2.2329800128936768,77.40069580078125,1.4199212861793193,-1.4320656148032658,94.65973271467489,3.0415387,8.001042,9.900962,7.177965,-9.650844,-12.384621,-2.4999478,-11.226895,-16.370544,23.595184,-18.74455,7.202188,-2.206178,-0.15157571,6.850874,-3.0194962,25.173553,-45.99847,50.014343,1.0286889,4.4805384,-2.5303748,-4.921899,-22.012136,48.02535,48.558064,15.469028,25.379494,-3.979251
24,1.218321681022644,-2.215463161468506,77.3935546875,1.3708372870425847,-1.3211102463877054,94.77306322871586,2.7784085,8.153931,9.768409,7.404649,-9.741281,-12.527725,-2.585006,-11.111748,-16.506464,23.622671,-18.819794,7.106106,-2.287319,-0.119254306,6.828956,-3.0762384,25.245243,-45.921715,50.041016,0.9635914,4.4645476,-2.494165,-4.8633723,-21.945583,47.98367,48.551647,15.460327,25.3752,-4.001185
25,1.3174527883529663,-2.1963841915130615,77.38568878173828,1.3180184192062614,-1.2145141368897632,94.87033012559189,2.5048344,8.316345,9.643078,7.673716,-9.850052,-12.65109,-2.6645207,-10.985319,-16.628475,23.635847,-18.886911,7.0148,-2.3534677,-0.08173863,6.816082,-3.1306434,25.315971,-45.846,50.059715,0.89357847,4.4632792,-2.4203515,-4.8079114,-21.8774,47.94319,48.543552,15.36474,25.385677,-3.9701211
26,1.4170751571655273,-2.176117420196533,77.37847900390625,1.2619192896219231,-1.1118040128758044,94.95784335875501,2.2208555,8.490258,9.520688,7.9809775,-9.976499,-12.763446,-2.7343893,-10.845332,-16.744204,23.630964,-18.946173,6.9272847,-2.409168,-0.038357254,6.8095894,-3.1814513,25.385136,-45.770454,50.07496,0.8177934,4.470639,-2.3185906,-4.7520885,-21.808207,47.902336,48.533955,15.212646,25.406956,-3.9077222
27,1.5223510265350342,-2.159146547317505,77.36962890625,1.1995273056881373,-1.0038894701541194,95.04267869241504,1.9123867,8.677126,9.394408,8.328359,-10.117097,-12.872694,-2.805544,-10.6927805,-16.860416,23.615772,-19.000448,6.836485,-2.458783,0.011034571,6.799735,-3.2278578,25.453283,-45.683643,50.08603,0.74032116,4.479306,-2.2141097,-4.6963367,-21.738535,47.86467,48.52572,15.054402,25.426373,-3.8341231
28,1.6318877935409546,-2.132812023162842,77.36068725585938,1.1307798963874887,-0.882161522645848,95.13201909239172,1.5671127,8.877501,9.257622,8.7148,-10.266666,-12.986607,-2.8888443,-10.52913,-16.983707,23.59752,-19.052162,6.73532,-2.5072513,0.065909244,6.7766767,-3.2661152,25.52203,-45.5716,50.090103,0.6672152,4.4822125,-2.1323013,-4.6402073,-21.66871,47.83377,48.521164,14.939375,25.430748,-3.7694497
29,1.746137022972107,-2.100595474243164,77.35108947753906,1.0544584626417077,-0.7340173208231601,95.22928856305275,1.1633555,9.093607,9.10601,9.149743,-10.426347,-13.109303,-3.0037658,-10.3537035,-17.116013,23.585884,-19.102318,6.61539,-2.556772,0.12750806,6.7314434,-3.2977602,25.593056,-45.429066,50.085045,0.60201615,4.4753594,-2.0879047,-4.5878744,-21.599007,47.80962,48.52182,14.895525,25.410938,-3.7219129
30,1.866496205329895,-2.073758125305176,77.3370590209961,0.9716207831747053,-0.5675215505169015,95.33009854969517,0.7161937,9.323898,8.943661,9.625683,-10.595319,-13.236397,-3.1385677,-10.165725,-17.25412,23.572977,-19.148756,6.4825487,-2.605631,0.19553614,6.671308,-3.320733,25.667204,-45.261276,50.06959,0.5419546,4.4635277,-2.0649273,-4.53621,-21.529736,47.78979,48.524426,14.889528,25.375713,-3.679982
31,1.997288465499878,-2.0547802448272705,77.32042694091797,0.8842057959775556,-0.4046740824689802,95.43017245968001,0.26270458,9.564308,8.776069,10.127277,-10.772664,-13.363442,-3.2597594,-9.966773,-17.396397,23.54502,-19.19176,6.3512325,-2.65102,0.26779392,6.6122484,-3.323689,25.744371,-45.067062,50.03869,0.4890151,4.4526234,-2.0429413,-4.484004,-21.460974,47.78095,48.530388,14.888848,25.33994,-3.6339443
32,2.122354507446289,-2.026170492172241,77.3072280883789,0.793531276178702,-0.2674091784665771,95.5251301923526,-0.15921825,9.81067,8.60909,10.637271,-10.955939,-13.485697,-3.333773,-9.758261,-17.540977,23.48794,-19.231392,6.235879,-2.6911502,0.34176993,6.569744,-3.295614,25.823992,-44.845036,49.988396,0.4439784,4.448699,-2.0014646,-4.4291286,-21.392735,47.789074,48.54102,14.859559,25.318089,-3.574177
33,2.2507262229919434,-1.996315836906433,77.29403686523438,0.7017091984821806,-0.1689134057646365,95.6150180334714,-0.5269032,10.06217,8.4444275,11.14283,-11.143435,-13.604138,-3.3382215,-9.5388775,-17.691172,23.389797,-19.267021,6.146604,-2.7274475,0.41575268,6.552889,-3.2272398,25.905613,-44.58684,49.91057,0.42690685,4.462736,-1.9324707,-4.3686824,-21.324532,47.816883,48.5563,14.785975,25.3135,-3.4864118
34,2.371772527694702,-1.9475175142288208,77.2845687866211,0.605153003884737,-0.09479792655953895,95.70179802301193,-0.86657894,10.321411,8.27862,11.659767,-11.337614,-13.720295,-3.2957737,-9.3081455,-17.846216,23.261127,-19.299097,6.0737123,-2.7615035,0.4913745,6.5516257,-3.1305091,25.989737,-44.299076,49.81258,0.42543566,4.4882236,-1.8477345,-4.306536,-21.25646,47.862644,48.57786,14.689257,25.318203,-3.3797395
35,2.5074803829193115,-1.8957536220550537,77.27421569824219,0.5047176967081309,-0.026463043577715676,95.78430148970723,-1.2058481,10.589188,8.111133,12.195896,-11.537012,-13.831305,-3.2383964,-9.0658245,-17.999601,23.11653,-19.32648,6.001345,-2.789646,0.5731321,6.5526414,-3.0126035,26.075783,-43.990253,49.704468,0.40883553,4.505445,-1.7565986,-4.2454515,-21.188969,47.921677,48.60417,14.587753,25.330862,-3.279562
36,2.651397705078125,-1.8346641063690186,77.25755310058594,0.39949897786275845,0.0547726947276287,95.86132047673733,-1.5803506,10.866992,7.9397078,12.777976,-11.745826,-13.933475,-3.1993587,-8.813431,-18.144588,22.974651,-19.350967,5.9138365,-2.8084888,0.66446,6.541911,-2.8844023,26.16279,-43.67268,49.600006,0.3425302,4.494333,-1.6684645,-4.188726,-21.123869,47.98919,48.63574,14.499278,25.350044,-3.2113826
37,2.7957229614257812,-1.7568210363388062,77.24237060546875,0.28643322831690626,0.15664688094130583,95.93983914652615,-2.002206,11.156094,7.7579317,13.407453,-11.961836,-14.023414,-3.1851208,-8.548914,-18.28715,22.834837,-19.369719,5.804251,-2.8231735,0.768589,6.5109034,-2.749781,26.25027,-43.35432,49.502056,0.19453648,4.4447584,-1.5772157,-4.1343126,-21.062513,48.067734,48.66929,14.427305,25.385033,-3.1895368
38,2.9299373626708984,-1.7006553411483765,77.22399139404297,0.16668757356519495,0.2683600395057712,96.01800028826499,-2.4527802,11.455833,7.5679736,14.074157,-12.184452,-14.10408,-3.1785386,-8.271786,-18.428425,22.688297,-19.382769,5.6817746,-2.832276,0.8834236,6.4683857,-2.60167,26.337486,-43.026264,49.40357,-0.006513464,4.368897,-1.4809668,-4.0804353,-21.005697,48.157322,48.704685,14.363132,25.433668,-3.197826
39,3.069558620452881,-1.6615546941757202,77.2030029296875,0.04335430901892976,0.3808209568031987,96.08143162348084,-2.9172423,11.763899,7.380889,14.775182,-12.414298,-14.181248,-3.1765442,-7.9851556,-18.55525,22.539286,-19.393936,5.5547743,-2.8235726,1.0058155,6.427438,-2.4430614,26.422943,-42.682938,49.30875,-0.21401654,4.279511,-1.3947455,-4.0290976,-20.954357,48.249794,48.744026,14.305069,25.477276,-3.2155533
40,3.2088537216186523,-1.6108280420303345,77.18331909179688,-0.07953980749581653,0.48485425483127315,96.11615382224754,-3.3815517,12.078007,7.2078266,15.509979,-12.652926,-14.26079,-3.1738236,-7.6918263,-18.654913,22.388218,-19.405241,5.4317822,-2.7838213,1.1326128,6.4014907,-2.279548,26.50463,-42.321648,49.223976,-0.38299495,4.189636,-1.3334197,-3.9868999,-20.90962,48.339825,48.792313,14.256138,25.49707,-3.2219684
41,3.3438234329223633,-1.575682282447815,77.15877532958984,-0.19704040394254424,0.5798851156641587,96.1049997266448,-3.832326,12.394616,7.0676427,16.260971,-12.898473,-14.348684,-3.185231,-7.3978887,-18.70903,22.254873,-19.423521,5.316758,-2.6983354,1.2600492,6.3939986,-2.1099036,26.579884,-41.929344,49.148884,-0.49512583,4.093441,-1.3118207,-3.954798,-20.873405,48.423214,48.85077,14.210264,25.480669,-3.2149003
42,3.475684642791748,-1.5265413522720337,77.134521484375,-0.3128122946184752,0.669895685271906,96.06010331883789,-4.2777348,12.715941,6.9496136,17.02972,-13.149911,-14.440578,-3.205944,-7.0993357,-18.729847,22.129076,-19.443766,5.2045665,-2.5771906,1.3920474,6.3980355,-1.9333396,26.647486,-41.511734,49.082638,-0.57538,3.9871013,-1.3182081,-3.931356,-20.84646,48.506184,48.916424,14.172599,25.440727,-3.2044451
43,3.611374616622925,-1.4697836637496948,77.10974884033203,-0.436500411711507,0.7527349109482265,96.01056908208587,-4.7416735,13.049251,6.819412,17.85452,-13.41166,-14.5271015,-3.2085347,-6.786513,-18.748707,21.981485,-19.45841,5.0902166,-2.445591,1.5347837,6.4087095,-1.7500604,26.707644,-41.088177,49.028812,-0.6386164,3.887022,-1.3274091,-3.9093251,-20.828857,48.58877,48.98511,14.147377,25.395939,-3.1877987
44,3.763570547103882,-1.3993287086486816,77.08138275146484,-0.5778098803699306,0.8263975847483133,95.98550464461921,-5.2439446,13.401103,6.642983,18.76403,-13.6861105,-14.599385,-3.163241,-6.4477906,-18.796953,21.776875,-19.456474,4.968578,-2.3274448,1.6950127,6.421466,-1.5573733,26.761,-40.67556,48.98766,-0.6960415,3.8097115,-1.3144218,-3.8798661,-20.81955,48.66968,49.050697,14.139334,25.365255,-3.1621437
45,3.9039340019226074,-1.3259855508804321,77.05523681640625,-0.7472721397110866,0.8900248949391852,95.99069068772602,-5.7759786,13.781018,6.4158106,19.74279,-13.987161,-14.653241,-3.0567858,-6.068443,-18.883339,21.49523,-19.431005,4.837102,-2.22676,1.8826741,6.4335346,-1.35296,26.808123,-40.279057,48.95815,-0.73599327,3.7610517,-1.270922,-3.8398063,-20.817678,48.748695,49.113342,14.153453,25.354488,-3.1225193
46,4.048444747924805,-1.2557451725006104,77.02871704101562,-0.9372229075635943,0.9449403898775673,96.01134788503299,-6.332238,14.181703,6.1532907,20.78229,-14.309384,-14.69434,-2.9091206,-5.6586614,-18.990305,21.163715,-19.392054,4.699456,-2.1304607,2.0913947,6.447491,-1.1378301,26.848768,-39.888824,48.939606,-0.7556385,3.7319162,-1.2106341,-3.795863,-20.823574,48.826744,49.17831,14.187364,25.353409,-3.0718336
47,4.183409214019775,-1.1879914999008179,77.00090026855469,-1.1310172217591696,0.9926250760416554,96.04537269678177,-6.9291587,14.583059,5.853135,21.905184,-14.6150055,-14.729463,-2.7303383,-5.2397914,-19.109575,20.794939,-19.341988,4.5587173,-2.0383532,2.304684,6.4670696,-0.9190299,26.882854,-39.50366,48.935986,-0.78516257,3.715762,-1.1417105,-3.7475064,-20.836596,48.900253,49.24038,14.228092,25.35626,-3.0188198
48,4.325743675231934,-1.1183654069900513,76.97318267822266,-1.3127895609554012,1.034586231061207,96.09077905290155,-7.58637,14.964732,5.5122614,23.140585,-14.869813,-14.765784,-2.536679,-4.835166,-19.233278,20.414845,-19.290602,4.4181995,-1.9468915,2.5059326,6.4956493,-0.70514727,26.908802,-39.124325,48.95321,-0.8528824,3.7060041,-1.0718185,-3.700915,-20.855988,48.9681,49.302814,14.268432,25.35682,-2.9719114
49,4.469354629516602,-1.0419325828552246,76.94712829589844,-1.4814655614603673,1.079002801062486,96.14603705922961,-8.311947,15.325291,5.125289,24.486418,-15.078149,-14.81445,-2.3415418,-4.4461803,-19.359179,20.029905,-19.240427,4.275116,-1.857686,2.6938338,6.5273275,-0.49445045,26.92824,-38.74121,48.991898,-0.9771153,3.7035794,-0.99913174,-3.6597376,-20.881584,49.03639,49.366535,14.312559,25.353699,-2.936305
50,4.610625267028809,-0.9583632349967957,76.92125701904297,-1.6444825805931453,1.1225068590127498,96.21229109728039,-9.090886,15.670212,4.6965094,25.922546,-15.251352,-14.871684,-2.1325414,-4.0614467,-19.491022,19.62451,-19.185276,4.128738,-1.7662932,2.875647,6.5608516,-0.28827116,26.939375,-38.36389,49.053616,-1.1391923,3.7110507,-0.9201863,-3.613998,-20.910288,49.09469,49.430122,14.356756,25.349808,-2.906161
51,4.7518157958984375,-0.8898018598556519,76.892333984375,-1.7986775858185555,1.149419633513922,96.29266726853484,-9.915566,15.990923,4.235189,27.466866,-15.369675,-14.920535,-1.8932353,-3.687455,-19.631529,19.20344,-19.127657,3.9862506,-1.6899822,3.0504487,6.6147246,-0.070800036,26.945436,-37.982643,49.11996,-1.3079958,3.7243013,-0.84358144,-3.5773222,-20.948338,49.16068,49.493286,14.404216,25.346447,-2.8754992
52,4.890957355499268,-0.8075554966926575,76.86992645263672,-1.9411339634265086,1.143777506542127,96.39024690390663,-10.769838,16.280567,3.7531717,29.119602,-15.40691,-14.943201,-1.6000212,-3.3264565,-19.781528,18.755398,-19.061556,3.8530405,-1.6204287,3.215902,6.7023015,0.1439324,26.944645,-37.628212,49.195866,-1.464095,3.7393665,-0.77504814,-3.5419166,-20.993895,49.217434,49.552486,14.445158,25.344128,-2.836923
53,5.033161640167236,-0.7195007801055908,76.84981536865234,-2.0757523482885687,1.0983826478411751,96.50989258448517,-11.656863,16.539387,3.2260609,30.899715,-15.350764,-14.954709,-1.2391149,-2.9713542,-19.944906,18.267355,-18.981823,3.724794,-1.5654886,3.3748274,6.8320365,0.36060655,26.937223,-37.29618,49.28136,-1.6132004,3.7535276,-0.7123388,-3.51388,-21.050505,49.27252,49.608486,14.481315,25.341747,-2.7789598
54,5.164783000946045,-0.6325059533119202,76.83503723144531,-2.2027046891147735,1.0228463426468113,96.64874263904046,-12.581592,16.7694,2.6569932,32.79758,-15.215528,-14.955833,-0.8253278,-2.6224017,-20.11935,17.746391,-18.891682,3.5999484,-1.5193532,3.52689,6.99354,0.577312,26.922823,-36.984493,49.379604,-1.7643188,3.769596,-0.6529651,-3.4820077,-21.116234,49.31635,49.656315,14.5067425,25.33957,-2.7083082
55,5.292652606964111,-0.5476696491241455,76.82267761230469,-2.314087010579682,0.9264248264740936,96.79788848542152,-13.5339,16.970322,2.0984414,34.77747,-15.016553,-14.9059925,-0.38241333,-2.2956178,-20.297295,17.221668,-18.802187,3.4887176,-1.4762572,3.6682818,7.178584,0.7915524,26.900562,-36.692654,49.48301,-1.8936021,3.7914202,-0.60439533,-3.454272,-21.192545,49.356064,49.70111,14.533874,25.340288,-2.6458354
56,5.41171932220459,-0.46312087774276733,76.80863189697266,-2.4026723465840094,0.8183787916918763,96.94828675940528,-14.501885,17.143108,1.6044471,36.8014,-14.767536,-14.766547,0.06722743,-2.006364,-20.472021,16.720697,-18.724485,3.401345,-1.4293773,3.7955701,7.378138,1.0004954,26.868744,-36.421253,49.584877,-1.9766937,3.8231654,-0.57407624,-3.4339623,-21.281858,49.394363,49.745586,14.570823,25.346802,-2.6124508
57,5.524834632873535,-0.3737562894821167,76.79207611083984,-2.467174068036436,0.6936459057586608,97.0986831450977,-15.490484,17.28959,1.1837543,38.896545,-14.430748,-14.569721,0.52717113,-1.7588853,-20.645586,16.249157,-18.661587,3.344994,-1.3768733,3.9100661,7.5980115,1.199615,26.825739,-36.171185,49.689064,-2.0059013,3.864586,-0.5707185,-3.4239488,-21.386744,49.436806,49.789433,14.618777,25.362062,-2.6236653
58,5.6419758796691895,-0.27874019742012024,76.78378295898438,-2.5119150968349757,0.5496679684686313,97.25342438363795,-16.499596,17.41173,0.81303775,41.06523,-14.008906,-14.321531,1.0070088,-1.5437503,-20.820244,15.791485,-18.607376,3.3118503,-1.3234608,4.014016,7.839721,1.3921267,26.770834,-35.941032,49.798874,-1.9940277,3.9138813,-0.58810353,-3.4089475,-21.507702,49.4712,49.820667,14.66178,25.38417,-2.6650367
59,5.748940467834473,-0.19503983855247498,76.77249908447266,-2.537499103785421,0.3992285364123801,97.41196245139844,-17.51938,17.512833,0.49478737,43.25015,-13.584995,-13.944737,1.4883955,-1.359325,-20.993488,15.355152,-18.562782,3.2927394,-1.2670302,4.1058927,8.090098,1.5828481,26.703915,-35.730354,49.906067,-1.9454422,3.9726691,-0.61110646,-3.4020298,-21.645422,49.502586,49.85088,14.722496,25.408209,-2.7122161
60,5.846968650817871,-0.09155607223510742,76.76707458496094,-2.544955700449354,0.2551074105734911,97.57353706159091,-18.539976,17.597536,0.23185262,45.394096,-13.241895,-13.360797,1.9534127,-1.2035407,-21.162426,14.947363,-18.529242,3.2784562,-1.208175,4.1846533,8.335478,1.7770357,26.62548,-35.53922,50.00325,-1.8682927,4.0424337,-0.6246568,-3.3990781,-21.798597,49.523327,49.877678,14.805037,25.429794,-2.7406569
61,5.93903112411499,0.021965255960822105,76.76327514648438,-2.5331631139419297,0.12027850780132775,97.74607718601753,-19.600756,17.689999,0.043820083,47.582783,-12.98572,-12.430062,2.3967915,-1.0789059,-21.332983,14.571814,-18.50689,3.267927,-1.152961,4.248138,8.575173,1.9761966,26.535715,-35.363857,50.08682,-1.7410743,4.131848,-0.6139983,-3.3950863,-21.966726,49.51756,49.896744,14.888794,25.44628,-2.731461
62,6.02499532699585,0.11725959926843643,76.7576904296875,-2.503298321045225,-0.012188206489141103,97.92690873432876,-20.69228,17.788425,-0.07405045,49.810028,-12.775563,-11.228372,2.8257856,-0.985259,-21.504818,14.230988,-18.497547,3.2653658,-1.0987287,4.298909,8.815774,2.1763313,26.434826,-35.20749,50.16222,-1.5692277,4.23729,-0.5908172,-3.3906956,-22.149635,49.491558,49.907665,14.975926,25.460587,-2.7016041
63,6.1125898361206055,0.22653725743293762,76.75530242919922,-2.457701852496583,-0.14456572706000545,98.10030059071573,-21.734331,17.851318,-0.15816256,51.888706,-12.627836,-10.004667,3.2543812,-0.91488767,-21.667622,13.89991,-18.493732,3.2713823,-1.0334204,4.3396215,9.052677,2.3822207,26.322895,-35.07167,50.229824,-1.3914719,4.342566,-0.58024484,-3.3937953,-22.347609,49.47184,49.92361,15.105526,25.476326,-2.6813312
64,6.187256336212158,0.34252986311912537,76.75399780273438,-2.398949278187745,-0.2788370594277759,98.250172132922,-22.647255,17.831842,-0.24740046,53.63557,-12.559073,-9.014497,3.6790218,-0.86628455,-21.808685,13.592756,-18.501486,3.284937,-0.949243,4.3735304,9.279611,2.6014764,26.199745,-34.95572,50.290195,-1.2472093,4.430942,-0.60734123,-3.38372,-22.55909,49.46326,49.937023,15.286506,25.497213,-2.7011604
65,6.259487628936768,0.4668169617652893,76.74964141845703,-2.328193584301367,-0.4205772139082595,98.37021026054452,-23.409876,17.723436,-0.34507614,55.037395,-12.637233,-8.288221,4.101247,-0.8425168,-21.923931,13.320594,-18.52714,3.3084867,-0.8373921,4.4024816,9.5025425,2.8344553,26.065048,-34.857048,50.33691,-1.1398466,4.5009294,-0.6943449,-3.3949196,-22.78509,49.505943,49.97421,15.585525,25.517843,-2.787342
66,6.319949150085449,0.6015150547027588,76.75065612792969,-2.2419950024394484,-0.5673777869183232,98.46990504157833,-24.068707,17.544748,-0.4368645,56.192356,-12.836241,-7.7068496,4.519052,-0.8449887,-22.020716,13.080985,-18.567915,3.3417156,-0.7095829,4.42454,9.720638,3.0824487,25.918606,-34.77195,50.371254,-1.0497987,4.560163,-0.82306063,-3.403062,-23.024742,49.56801,50.0155,15.95087,25.53787,-2.9180596
67,6.366408824920654,0.7474807500839233,76.75594329833984,-2.141475724665873,-0.7081375174997512,98.5569063256537,-24.646412,17.282816,-0.5335879,57.08515,-13.036252,-7.305925,4.93428,-0.86748654,-22.10478,12.843535,-18.611357,3.380181,-0.57196945,4.436953,9.924603,3.3381822,25.761492,-34.71311,50.4069,-0.98292124,4.6062274,-0.95587385,-3.4073575,-23.275955,49.629967,50.057346,16.333183,25.567616,-3.0507636
68,6.411302089691162,0.912047803401947,76.76441955566406,-2.0282247520761496,-0.832039201408799,98.63943234560871,-25.16741,16.92705,-0.6464122,57.702198,-13.114536,-7.1213493,5.340115,-0.90612304,-22.182503,12.59859,-18.646471,3.4200974,-0.4317762,4.438209,10.104875,3.5939488,25.595604,-34.69421,50.45817,-0.9470602,4.636771,-1.0554826,-3.3967247,-23.534214,49.664413,50.08936,16.673317,25.618084,-3.143184
69,6.452314376831055,1.0757849216461182,76.77617645263672,-1.8990290667661394,-0.9345725808438932,98.71792056201993,-25.62676,16.448318,-0.79568774,58.015022,-13.065578,-7.228188,5.7305355,-0.9655252,-22.252712,12.350787,-18.676992,3.457792,-0.2834929,4.424582,10.255303,3.846453,25.422775,-34.73447,50.532906,-0.9724015,4.6406918,-1.0974797,-3.3995845,-23.797457,49.695446,50.13588,17.007458,25.700558,-3.17989
70,6.4860382080078125,1.2514883279800415,76.7874984741211,-1.7532699906462144,-1.022659509727085,98.78863587539988,-26.016582,15.864821,-0.97197276,58.039665,-12.95084,-7.5856385,6.1099334,-1.0459913,-22.313347,12.105782,-18.705997,3.496008,-0.1284679,4.397158,10.379862,4.1028404,25.24312,-34.82083,50.62284,-1.0471405,4.62298,-1.1069406,-3.384537,-24.064161,49.70298,50.179565,17.318182,25.806927,-3.1855936
71,6.517700672149658,1.4330002069473267,76.79766082763672,-1.600839275520421,-1.1013687439798783,98.85263588301885,-26.355589,15.237899,-1.1399041,57.826927,-12.745825,-8.054757,6.487804,-1.1365601,-22.367249,11.851918,-18.72975,3.5390177,0.032737523,4.3626823,10.49394,4.3578153,25.056742,-34.929707,50.7151,-1.1140523,4.6055474,-1.1191396,-3.375978,-24.332636,49.6962,50.228466,17.603687,25.917532,-3.175807
72,6.541033744812012,1.632225513458252,76.81327056884766,-1.4471171787461157,-1.1763314035794248,98.91114523579597,-26.663319,14.627212,-1.2644233,57.429287,-12.422174,-8.4974375,6.874298,-1.2262243,-22.417387,11.575533,-18.742855,3.5912685,0.19306138,4.326586,10.609468,4.6139,24.863096,-35.030003,50.795113,-1.1135201,4.6103153,-1.1697302,-3.3621836,-24.600002,49.65388,50.26898,17.81992,26.01321,-3.166582
73,6.555943012237549,1.8272019624710083,76.8294677734375,-1.287315510887934,-1.2498184195998585,98.95767903705774,-26.933083,14.028223,-1.3372946,56.833023,-11.963282,-8.896472,7.262113,-1.3253847,-22.456587,11.292627,-18.749592,3.6573083,0.35630426,4.2836514,10.732726,4.8732224,24.660755,-35.11424,50.856525,-1.0222703,4.6480784,-1.2711092,-3.3536062,-24.864151,49.577164,50.31222,17.956245,26.089386,-3.1477861
74,6.5724053382873535,2.0087738037109375,76.8419189453125,-1.1195203808965792,-1.3187628442422972,98.9935050035674,-27.157074,13.419434,-1.3815696,56.015537,-11.385985,-9.317303,7.648949,-1.4357731,-22.486013,11.004719,-18.751673,3.7338226,0.5225886,4.233108,10.855843,5.1345844,24.449863,-35.197403,50.908787,-0.8746042,4.7052274,-1.4033616,-3.352702,-25.124159,49.47549,50.364193,18.033358,26.15605,-3.1154776
75,6.5864129066467285,2.216980218887329,76.85514068603516,-0.9583940387745259,-1.3798009913517717,99.03242879691956,-27.351183,12.832494,-1.4065604,55.016933,-10.707782,-9.7474985,8.05244,-1.5328654,-22.520657,10.673465,-18.736233,3.8137012,0.6834361,4.187074,10.971227,5.3947487,24.233183,-35.28405,50.959244,-0.69583255,4.7669377,-1.5538763,-3.3499215,-25.378664,49.352333,50.410378,18.072966,26.214994,-3.0943222
76,6.592379570007324,2.4375109672546387,76.86512756347656,-0.8171661901290196,-1.4297151847690117,99.08804552485368,-27.529612,12.29735,-1.4194924,53.874615,-9.945337,-10.1753235,8.48922,-1.5920752,-22.575506,10.261521,-18.690792,3.8899748,0.82946986,4.156835,11.071014,5.650851,24.015694,-35.378506,51.013584,-0.51302236,4.8186984,-1.7100996,-3.3334424,-25.626387,49.209003,50.434402,18.09334,26.268154,-3.1088412
77,6.609278678894043,2.6616177558898926,76.86668395996094,-0.6962104115835291,-1.463654049675487,99.1659898496501,-27.703432,11.8097105,-1.4158052,52.58821,-9.035507,-10.601721,8.965037,-1.6094068,-22.657316,9.7474,-18.607136,3.963129,0.95963895,4.140168,11.149247,5.9051714,23.801733,-35.481743,51.069386,-0.3214514,4.8588214,-1.875963,-3.3047454,-25.866573,49.048996,50.43743,18.093958,26.310787,-3.178736
78,6.6142120361328125,2.8805830478668213,76.8672866821289,-0.5881556995536602,-1.4846156421114862,99.25793725463143,-27.857584,11.355646,-1.3934062,51.134647,-7.9891515,-11.032552,9.466664,-1.5982885,-22.756332,9.1631365,-18.495407,4.0364413,1.0787375,4.131039,11.211953,6.162177,23.592724,-35.589615,51.118584,-0.110636786,4.8944025,-2.056208,-3.2698715,-26.098299,48.87127,50.42685,18.067858,26.343456,-3.2863517
79,6.607056617736816,3.1238157749176025,76.86845397949219,-0.4961219920766568,-1.5000627587141178,99.35619569908212,-27.973377,10.94683,-1.3583226,49.530926,-6.9321156,-11.461609,9.998369,-1.5571363,-22.862658,8.512711,-18.358877,4.1077495,1.1878911,4.1313553,11.268836,6.4212937,23.38942,-35.701084,51.159325,0.09972528,4.9246645,-2.2393103,-3.2347226,-26.321217,48.678585,50.405014,18.03386,26.375708,-3.4005818
80,6.60167932510376,3.370598316192627,76.86068725585938,-0.41996747758099323,-1.5182652855274563,99.45322121431937,-28.03,10.59491,-1.314943,47.79001,-5.987891,-11.882123,10.561098,-1.4844598,-22.965752,7.810175,-18.205505,4.1747303,1.2878292,4.143919,11.329547,6.6792645,23.192282,-35.817238,51.192352,0.28751448,4.9491267,-2.4134386,-3.2069385,-26.536015,48.474506,50.376144,18.010998,26.416908,-3.490316
81,6.6001386642456055,3.624973773956299,76.84270477294922,-0.36333820675454825,-1.5443178989373214,99.549026979567,-28.002388,10.305676,-1.2344753,45.870243,-5.1813936,-12.338927,10.889779,-1.4979789,-23.057526,7.681813,-18.366745,4.241105,1.3778481,4.170628,11.400057,6.9401665,23.001324,-35.93549,51.2131,0.45093974,4.9684067,-2.5796883,-3.1905751,-26.742962,48.260944,50.341404,17.998732,26.46988,-3.5468762
82,6.595827579498291,3.8724966049194336,76.81376647949219,-0.32205450970656896,-1.5729616144977008,99.64569443909127,-27.900496,10.063773,-1.1174577,43.765984,-4.4408364,-12.822747,11.201869,-1.5035617,-23.147831,7.6140513,-18.57119,4.30571,1.4591348,4.208543,11.4743185,7.202936,22.817013,-36.057285,51.223114,0.598962,4.9827075,-2.7428277,-3.1852658,-26.941963,48.039524,50.30115,17.992407,26.529644,-3.5868642
83,6.571218967437744,4.13505744934082,76.78411102294922,-0.29418277831341305,-1.595499134874033,99.73842687530473,-27.760452,9.852242,-1.0123996,41.549324,-3.7468686,-13.245681,11.514115,-1.492468,-23.232704,7.5414386,-18.779755,4.369606,1.535731,4.255246,11.543685,7.46396,22.63954,-36.183193,51.22663,0.73306924,4.990837,-2.896928,-3.1835866,-27.13303,47.807526,50.25174,18.002,26.593287,-3.6174004
84,6.551431655883789,4.407814025878906,76.74496459960938,-0.27958270810956887,-1.603031259078229,99.82307581354158,-27.619646,9.65696,-0.967791,39.29485,-3.0832312,-13.518282,11.813504,-1.4691203,-23.307661,7.468037,-18.99039,4.433942,1.614591,4.3092437,11.60208,7.714868,22.469307,-36.317772,51.228374,0.8536063,4.9915304,-3.035752,-3.2045944,-27.31674,47.584965,50.206703,18.06593,26.657999,-3.6456077
85,6.528645038604736,4.6874680519104,76.69600677490234,-0.28316689072259027,-1.600185614553247,99.90545084274991,-27.476948,9.464703,-1.0178586,36.98829,-2.4786685,-13.60853,12.105984,-1.4232451,-23.37597,7.3935156,-19.205776,4.493248,1.6874043,4.3758197,11.649839,7.9569516,22.308025,-36.470577,51.23112,0.95178396,4.9764476,-3.1499782,-3.234218,-27.492413,47.353603,50.15511,18.178677,26.732668,-3.6586022
86,6.4970703125,4.965616226196289,76.64031219482422,-0.3054348465082339,-1.5897123486364597,99.98450777645087,-27.310959,9.284157,-1.1246897,34.591263,-1.9279463,-13.5707035,12.398198,-1.3540537,-23.437721,7.311395,-19.423292,4.5493836,1.7574512,4.455009,11.691264,8.192049,22.156324,-36.63867,51.230553,1.0294912,4.9491715,-3.2452552,-3.2809424,-27.66031,47.120674,50.102985,18.338512,26.815567,-3.6574023
87,6.466543674468994,5.248006820678711,76.5790786743164,-0.33327684275180997,-1.561364153314571,100.04610507071862,-27.135164,9.134853,-1.2313454,32.15571,-1.3721147,-13.44511,12.67403,-1.2807782,-23.484312,7.2262964,-19.63802,4.613219,1.8371407,4.5371556,11.72105,8.421286,22.011131,-36.79892,51.222298,1.1046112,4.926352,-3.338819,-3.340828,-27.821589,46.897198,50.050785,18.526657,26.887918,-3.6707568
88,6.432469844818115,5.537055492401123,76.51403045654297,-0.3535221049905796,-1.5047119034258938,100.07617814427967,-26.963137,9.031676,-1.2782787,29.73381,-0.75207746,-13.272813,12.9188385,-1.2236565,-23.506865,7.1372223,-19.844015,4.6944532,1.9393841,4.6122193,11.734688,8.643208,21.867031,-36.928894,51.204227,1.1949831,4.9242053,-3.4476163,-3.420522,-27.978151,46.70458,50.005978,18.73586,26.930738,-3.7268703
89,6.393930912017822,5.82237434387207,76.44660949707031,-0.3657600962223439,-1.4127649159174247,100.06305729904362,-26.795036,8.974145,-1.2471333,27.30695,-0.04525346,-13.0435915,13.117631,-1.1873212,-23.495026,7.054251,-20.041182,4.7932944,2.073303,4.683438,11.725694,8.861419,21.71809,-37.013226,51.171036,1.3185546,4.953473,-3.5932245,-3.5218682,-28.132807,46.554787,49.971268,18.988415,26.928965,-3.8536804
90,6.354323863983154,6.110842704772949,76.37261962890625,-0.3770473691224333,-1.2944702206633973,100.0155977376658,-26.62069,8.945521,-1.1635791,24.853518,0.71255624,-12.749503,13.282536,-1.1607199,-23.454569,6.97773,-20.236382,4.9029713,2.228645,4.7566853,11.699247,9.073048,21.562225,-37.065456,51.131718,1.4624752,5.002659,-3.7607715,-3.6378021,-28.286066,46.434242,49.9382,19.277437,26.895792,-4.0290947
91,6.278822422027588,6.419546127319336,76.31327819824219,-0.38694133158833866,-1.1645121146591062,99.95180306943205,-26.443575,8.937549,-1.038769,22.430515,1.4906845,-12.434967,13.433834,-1.1391948,-23.400988,6.9041066,-20.428732,5.021894,2.3903327,4.828692,11.669537,9.267782,21.400349,-37.107212,51.102833,1.6006819,5.0551457,-3.9120317,-3.7708542,-28.436642,46.331326,49.907803,19.558746,26.854595,-4.2063403
92,6.2113447189331055,6.731651782989502,76.24369812011719,-0.4042036887521991,-1.037063695960542,99.89086570885529,-26.264664,8.94783,-0.8896782,20.08985,2.2585359,-12.144204,13.585999,-1.1152239,-23.35044,6.8440895,-20.624847,5.1489,2.540986,4.901329,11.650364,9.436228,21.235416,-37.16043,51.09994,1.7045168,5.0946474,-4.0088916,-3.9127786,-28.5807,46.225273,49.873158,19.77818,26.829725,-4.3392315
93,6.149876594543457,7.044651985168457,76.16951751708984,-0.43315884262477655,-0.9119805062153901,99.84906067550544,-26.091818,8.974897,-0.7313614,17.82373,3.0665,-11.8751135,13.725537,-1.0871122,-23.318615,6.834471,-20.846897,5.2873926,2.6677804,4.977744,11.644724,9.57363,21.06966,-37.23534,51.129757,1.7563746,5.1152062,-4.021894,-4.0704827,-28.71547,46.109566,49.83813,19.923492,26.831078,-4.410851
94,6.085080623626709,7.350973606109619,76.0936050415039,-0.46835865005308064,-0.7821816020451987,99.80791217435296,-25.914803,9.010967,-0.542177,15.598464,3.914897,-11.611003,13.863223,-1.0549322,-23.288723,6.822684,-21.063719,5.4367976,2.788803,5.0535336,11.644469,9.685534,20.903826,-37.32114,51.18186,1.77284,5.1263885,-3.977882,-4.2436047,-28.839912,45.99264,49.804523,20.02118,26.845041,-4.44757
95,6.017275333404541,7.664366722106934,76.0137939453125,-0.5149271193030996,-0.657753696778381,99.74385342362139,-25.716236,9.063077,-0.31036058,13.4496155,4.6961384,-11.375394,14.009252,-1.0134127,-23.236383,6.8095546,-21.276203,5.589013,2.9230027,5.1359696,11.651991,9.786114,20.744328,-37.402832,51.236557,1.7808241,5.136449,-3.9232874,-4.4294887,-28.949926,45.886196,49.780964,20.083155,26.859146,-4.4675612
96,5.945326805114746,7.987748622894287,75.93057250976562,-0.577099190668268,-0.5476197170180556,99.63492572857248,-25.47973,9.143016,-0.027699584,11.409734,5.3069854,-11.191457,14.1703205,-0.96053123,-23.138771,6.797496,-21.484297,5.7364883,3.0863338,5.2253604,11.669982,9.90232,20.614754,-37.460472,51.25406,1.8062637,5.1546874,-3.9067178,-4.629888,-29.031393,45.80335,49.780704,20.1202,26.860044,-4.4895525
97,5.8566436767578125,8.321684837341309,75.84512329101562,-0.6596647730084008,-0.4497591625431108,99.46871438469549,-25.174273,9.286567,0.31145293,9.40756,5.7188644,-11.099245,14.340506,-0.89221495,-22.981815,6.7895656,-21.687809,5.874341,3.2950168,5.336947,11.693664,10.014061,20.484344,-37.493744,51.26399,1.8685751,5.18535,-3.9460046,-4.832005,-29.10589,45.736893,49.789257,20.122597,26.845736,-4.5011077
98,5.762530326843262,8.668325424194336,75.75541687011719,-0.7578812999511875,-0.3599054062421698,99.26152904744445,-24.783382,9.474942,0.7048463,7.3732486,6.034879,-11.080664,14.517269,-0.81381583,-22.782566,6.7840157,-21.886324,6.0082893,3.5334928,5.4789524,11.718811,10.079266,20.29893,-37.51833,51.334087,1.9558452,5.218936,-4.008579,-5.023218,-29.202868,45.682148,49.780945,20.092327,26.826183,-4.4979553
99,5.678006172180176,9.011476516723633,75.66448974609375,-0.8546052816537024,-0.27981498039843405,99.03871502774994,-24.827942,9.65051,1.0606345,6.4139633,5.77845,-11.054875,14.70914,-0.7442842,-22.569687,6.7796245,-22.082771,6.1477613,3.7749116,5.615199,11.75063,10.13751,20.121042,-37.53704,51.401913,2.0381448,5.2493067,-4.0735645,-5.2167935,-29.288078,45.645203,49.776287,20.04922,26.802181,-4.510512
100,5.58538818359375,9.367280006408691,75.57110595703125,-0.9300386871594657,-0.20751437261952915,98.82974967284824,-25.227804,9.764438,1.3787616,6.371249,5.1430902,-10.931826,14.92072,-0.7060314,-22.376915,6.776776,-22.28076,6.3028913,3.9937031,5.7163124,11.790078,10.197684,19.97868,-37.564934,51.447315,2.0866191,5.2680554,-4.116461,-5.410189,-29.349096,45.6238,49.774612,20.015152,26.777042,-4.5689645
101,5.475429058074951,9.738036155700684,75.48167419433594,-0.9672739396755902,-0.1376613940378809,98.6561258724349,-25.5657,9.802491,1.7381154,6.351524,4.605845,-10.596574,15.150968,-0.7176268,-22.228098,6.7746406,-22.480265,6.4770184,4.1707315,5.7609315,11.838424,10.272689,19.892965,-37.6049,51.447426,2.0631714,5.272917,-4.1163635,-5.600353,-29.379965,45.616558,49.775894,19.996422,26.746805,-4.7059813
102,5.374756813049316,10.101170539855957,75.39403533935547,-0.9733454675731258,-0.06649418885164278,98.50618632067153,-25.847593,9.79919,2.1333253,6.351275,4.117364,-10.110241,15.392302,-0.77072626,-22.110367,6.773449,-22.679583,6.666321,4.319604,5.7678776,11.886374,10.322787,19.812414,-37.65824,51.46721,1.9948484,5.263427,-4.088828,-5.7784567,-29.402369,45.62079,49.768784,19.982954,26.713303,-4.897685
103,5.274755954742432,10.47533130645752,75.30867767333984,-0.9655490187234154,0.004710936119235482,98.35881457021553,-26.06377,9.774064,2.5353105,6.3646226,3.7048404,-9.647406,15.641339,-0.84589124,-22.000422,6.7734804,-22.87892,6.869217,4.4571104,5.757774,11.927163,10.342845,19.718864,-37.719917,51.516823,1.9485536,5.245724,-4.0673385,-5.9464064,-29.420385,45.632263,49.74997,19.962414,26.68452,-5.088705
104,5.1707305908203125,10.859639167785645,75.2165756225586,-0.9624037179316234,0.07338142677609473,98.19136101539817,-26.202427,9.745632,2.9179983,6.3844814,3.3980072,-9.385282,15.895603,-0.92216706,-21.87281,6.7729616,-23.077185,7.083636,4.5992265,5.7530994,11.957228,10.330749,19.595606,-37.7811,51.59993,1.9921979,5.2270355,-4.0859914,-6.113089,-29.433077,45.6506,49.72098,19.923433,26.668747,-5.2241325
105,5.0658674240112305,11.24342155456543,75.12077331542969,-0.9784682629775364,0.1279982038078086,97.98881515093414,-26.2363,9.7361765,3.350003,6.4086,3.2045178,-9.453615,16.167597,-0.9813133,-21.713837,6.770619,-23.280737,7.311206,4.755468,5.739586,12.002744,10.381856,19.570913,-37.807606,51.55288,2.1750007,5.2177615,-4.19544,-6.268741,-29.433384,45.653145,49.65061,19.840816,26.673754,-5.272183
106,4.959068775177002,11.64062213897705,75.02183532714844,-1.0004848615061286,0.1739444451121768,97.76663222359568,-26.181896,9.723995,3.822921,6.4408536,3.1081133,-9.72943,16.453077,-1.0384336,-21.539936,6.7695556,-23.490002,7.5516915,4.9185953,5.7369623,12.038388,10.399741,19.512756,-37.84599,51.5454,2.4492843,5.206464,-4.347188,-6.422427,-29.42446,45.660038,49.582867,19.736372,26.694136,-5.2681513
107,4.836522579193115,12.054693222045898,74.92224884033203,-1.0039873230628857,0.2337138926866114,97.54798639141428,-26.09129,9.660219,4.195319,6.48364,3.1017332,-10.015539,16.729376,-1.1226827,-21.37158,6.7676086,-23.690708,7.8000765,5.0683465,5.702935,12.06112,10.392838,19.463634,-37.88181,51.54804,2.7297623,5.186663,-4.498187,-6.574214,-29.40692,45.67921,49.495304,19.632113,26.712725,-5.255477
108,4.719752788543701,12.476694107055664,74.8270034790039,-0.9653721890233531,0.32861254763974945,97.35582826919314,-26.014269,9.501383,4.322497,6.537007,3.1866944,-10.1153555,16.971685,-1.2639027,-21.22952,6.771295,-23.873526,8.052251,5.179987,5.614989,12.0622835,10.364896,19.424955,-37.9187,51.54829,2.9271755,5.1630206,-4.587887,-6.7358966,-29.382496,45.72874,49.387047,19.552385,26.715517,-5.2803936
109,4.607882976531982,12.90640640258789,74.73214721679688,-0.8788841783951601,0.46675131812078313,97.20229813575385,-25.953436,9.223513,4.112535,6.6088805,3.3575943,-9.939153,17.17365,-1.4661068,-21.125706,6.7802367,-24.041838,8.302422,5.2542205,5.460802,12.048805,10.314207,19.415033,-37.952522,51.526966,3.0186462,5.131343,-4.6061997,-6.8769975,-29.37151,45.7788,49.20846,19.50413,26.698116,-5.3662233
110,4.474887847900391,13.340030670166016,74.64675903320312,-0.7598861939766467,0.6327601070538665,97.0701244088654,-26.390625,8.880243,3.581015,7.764143,3.0622191,-9.614622,17.352068,-1.7113305,-21.044292,6.791562,-24.19843,8.554609,5.272919,5.270605,11.998299,10.24195,19.393452,-38.005814,51.536697,3.0109098,5.0897727,-4.5670977,-7.085364,-29.324566,45.94176,49.090416,19.540392,26.658344,-5.5013347
111,4.335846424102783,13.750004768371582,74.58466339111328,-0.6242986076307836,0.8100397199061755,96.93097106672047,-27.189257,8.499854,2.8919065,9.696862,2.472272,-9.275821,17.520407,-1.9874014,-20.956827,6.804375,-24.332165,8.817726,5.269955,5.0490785,11.942236,10.170288,19.378115,-38.024174,51.534725,2.997022,5.0512867,-4.5001545,-7.322992,-29.239147,46.13456,48.983643,19.551033,26.614182,-5.62676
112,4.181804656982422,14.167875289916992,74.52812194824219,-0.4828978386939753,0.9854791879731359,96.76219079961815,-27.875002,8.1032,2.25287,11.3828335,2.1276517,-9.050384,17.68887,-2.2888958,-20.8412,6.8166122,-24.429533,9.102533,5.288617,4.8180757,11.892107,10.089537,19.378214,-38.038303,51.513763,3.000451,5.025508,-4.4180617,-7.547403,-29.166111,46.31534,48.834793,19.497375,26.580046,-5.7004523
113,4.018133163452148,14.604811668395996,74.47071838378906,-0.32600117293960135,1.1679753672250106,96.55817089095386,-28.490719,7.67346,1.5930263,12.864767,2.0361266,-8.9696,17.846256,-2.6275494,-20.693794,6.8277593,-24.497704,9.419505,5.330546,4.571239,11.847408,9.988045,19.384039,-38.06881,51.482853,3.033757,5.010645,-4.287798,-7.77573,-29.114902,46.498615,48.643112,19.382229,26.562769,-5.6983056
114,3.8465590476989746,15.049372673034668,74.41633605957031,-0.153366090354691,1.36102105165069,96.33167743484356,-29.083565,7.1991,0.8657353,14.273943,2.112629,-8.972131,17.991251,-3.0021794,-20.528294,6.838591,-24.53929,9.762136,5.3550224,4.3000393,11.79697,9.891247,19.395714,-38.08414,51.43641,3.075158,5.00284,-4.113171,-8.0531025,-29.038557,46.74036,48.469814,19.238802,26.550154,-5.652206
115,3.6631410121917725,15.504376411437988,74.36692810058594,0.006877495132536281,1.5373936648680133,96.10432730550471,-29.639772,6.7512503,0.2194163,15.67034,2.2577717,-9.030362,18.109735,-3.394525,-20.36177,6.9724317,-24.609621,10.114315,5.389689,4.046153,11.759162,9.769725,19.40468,-38.085453,51.395588,3.1136847,5.006928,-3.9617708,-8.286549,-28.9943,46.949783,48.23334,19.049473,26.53905,-5.5908113
116,3.469449758529663,15.958508491516113,74.31077575683594,0.15072914364710388,1.6799965034895863,95.88180997782041,-30.137392,6.3979745,-0.16778332,17.079851,2.3917236,-9.101617,18.26204,-3.782925,-20.20293,7.145068,-24.646332,10.461249,5.3814,3.810719,11.731248,9.691303,19.414894,-37.97659,51.3246,3.146229,5.0283084,-3.9044178,-8.524791,-28.939386,47.20336,48.000885,18.841892,26.51537,-5.555364
117,3.2659788131713867,16.42424774169922,74.2536392211914,0.27217734521584386,1.79349741964348,95.65876255109877,-30.534622,6.20637,-0.18747075,18.418692,2.6361752,-9.212697,18.47475,-4.1529083,-20.054472,7.2849445,-24.613455,10.8065,5.3591294,3.6007617,11.7110405,9.642886,19.422222,-37.718098,51.216507,3.1868596,5.088107,-4.024631,-8.7375345,-28.891064,47.472347,47.73929,18.596378,26.47879,-5.5527654
118,3.0546555519104004,16.902381896972656,74.19459533691406,0.3803309898112968,1.887900224756124,95.43125526318964,-30.862629,6.144154,0.043961078,19.716143,2.9800115,-9.346299,18.726252,-4.5190196,-19.911951,7.4109206,-24.52914,11.156821,5.312361,3.4064732,11.696686,9.624482,19.42559,-37.33462,51.07329,3.2387412,5.176261,-4.2645936,-8.948791,-28.850168,47.779255,47.45529,18.32406,26.434267,-5.5653195
119,2.8350977897644043,17.402772903442383,74.13751983642578,0.4833447562023575,1.9593196466930332,95.20237512386763,-31.166656,6.1401963,0.37401184,21.077026,3.1856766,-9.396197,19.0143,-4.8869205,-19.766148,7.5336204,-24.381386,11.500896,5.2761965,3.2223094,11.682484,9.585052,19.426367,-36.980686,50.967552,3.257605,5.2519693,-4.47629,-9.096437,-28.830452,48.036064,47.120945,18.01585,26.386866,-5.582554
120,2.604649305343628,17.9202938079834,74.08157348632812,0.5898738022590626,2.0029709894881598,94.9722091425717,-31.479828,6.1137323,0.6566265,22.581507,3.0226622,-9.27385,19.338709,-5.262378,-19.605728,7.6627374,-24.160501,11.827734,5.218412,3.0350955,11.669313,9.5406475,19.430023,-36.71642,50.921635,3.2260408,5.2742596,-4.519916,-9.199397,-28.818602,48.25866,46.75614,17.694101,26.33892,-5.5990014
121,2.375072956085205,18.443572998046875,74.02734375,0.7114503245609388,2.0107767157317,94.72298414990769,-31.828926,6.0378685,0.87499136,24.32456,2.3495972,-8.8998375,19.70677,-5.663725,-19.413725,7.8044786,-23.879036,12.139982,5.1689715,2.831973,11.65615,9.482673,19.43897,-36.613857,50.964043,3.1069162,5.2071037,-4.2937326,-9.246902,-28.812492,48.43335,46.357277,17.332554,26.291807,-5.598419
122,2.1419196128845215,18.98722267150879,73.9815444946289,0.8455138785603107,1.9881339384109926,94.4549875608253,-32.177177,5.951296,1.1042084,26.213993,1.3255249,-8.346685,20.110899,-6.0908866,-19.19779,7.963447,-23.542812,12.443989,5.1234927,2.6146166,11.643041,9.422456,19.453812,-36.603195,51.063126,2.9257584,5.079982,-3.8960016,-9.251035,-28.810432,48.57795,45.929653,16.934038,26.243065,-5.5898075
123,1.9090358018875122,19.536378860473633,73.94005584716797,0.982990958016154,1.9525085083499751,94.19722631712126,-32.47441,5.8589487,1.3392059,28.064373,0.17183283,-7.7632413,20.230621,-6.6260533,-18.949343,8.804758,-23.47724,12.736208,5.0673776,2.3951278,11.625469,9.337702,19.476501,-36.62688,51.199,2.7300851,4.950849,-3.4785936,-9.203364,-28.81022,48.66392,45.480125,16.546125,26.190956,-5.60066
124,1.6767058372497559,20.085481643676758,73.90333557128906,1.11416823451568,1.9226188270826894,93.98142192306878,-32.68007,5.765662,1.5798182,29.706171,-0.89761806,-7.29527,19.940182,-7.279189,-18.675129,10.553604,-23.779478,13.012972,4.986524,2.183553,11.598717,9.200737,19.507587,-36.628788,51.356598,2.567431,4.879297,-3.1922612,-9.115669,-28.810276,48.674328,45.03213,16.231165,26.13386,-5.657356
125,1.4517202377319336,20.634056091308594,73.87012481689453,1.2460068848905212,1.892433653125478,93.8179127829314,-32.787178,5.6662855,1.8468704,31.13475,-1.8701501,-6.9892936,19.664675,-7.9111967,-18.42812,12.285398,-23.9732,13.295983,4.880599,1.9640338,11.576372,9.0237,19.58304,-36.58433,51.494392,2.4550042,4.896979,-3.0994582,-8.962781,-28.80924,48.56981,44.554234,15.985397,26.07957,-5.776529
126,1.229032278060913,21.188610076904297,73.84723663330078,1.3873917627548014,1.8590664491440982,93.68950864716177,-32.826023,5.5507827,2.1409962,32.43729,-2.8488672,-6.764363,19.390564,-8.540819,-18.193182,14.038308,-24.083874,13.583384,4.7502213,1.732287,11.550428,8.809408,19.67727,-36.521576,51.64793,2.3690486,4.966572,-3.1110065,-8.763911,-28.804089,48.386738,44.061695,15.791426,26.026323,-5.941474
127,1.010783314704895,21.742305755615234,73.83177185058594,1.5290050527687262,1.845474646106711,93.58900558532474,-32.81083,5.417776,2.4347253,33.584785,-3.7967427,-6.572425,19.066612,-9.165887,-17.9681,15.853109,-24.101122,13.8348675,4.5956125,1.498411,11.496843,8.568579,19.790792,-36.466213,51.810658,2.2821372,5.05125,-3.1607702,-8.527233,-28.792974,48.149227,43.576168,15.637201,25.958261,-6.125837
128,0.7937487363815308,22.296043395996094,73.8290786743164,1.6616672269399042,1.874827877381238,93.50846761127946,-32.753883,5.2675486,2.6999352,34.543987,-4.674927,-6.36534,18.635405,-9.7871065,-17.747639,17.781527,-24.012625,14.009401,4.416829,1.2729007,11.392417,8.310332,19.921959,-36.44339,51.978333,2.166698,5.1138577,-3.1822546,-8.275196,-28.77478,47.89303,43.130524,15.522516,25.85892,-6.303654
129,0.5803783535957336,22.859477996826172,73.83678436279297,1.7780391345594957,1.963619173793767,93.46820033388582,-32.675518,5.090042,2.908443,35.303436,-5.4706593,-6.1321006,18.110558,-10.38962,-17.556995,19.775688,-23.80096,14.126823,4.194952,1.0609717,11.215197,8.035327,20.070404,-36.455513,52.15414,2.0041733,5.1463823,-3.1721654,-7.992399,-28.745943,47.604767,42.72086,15.454013,25.70635,-6.4900255
130,0.3642454743385315,23.420568466186523,73.861083984375,1.8841961921069392,2.0964453457605785,93.46611085518802,-32.56806,4.8879533,3.0809414,35.88684,-6.207104,-5.89667,17.50854,-10.977493,-17.389767,21.835405,-23.478764,14.201766,3.9350476,0.85848683,10.980964,7.738772,20.23635,-36.491516,52.340523,1.8126287,5.167898,-3.1610532,-7.676902,-28.704445,47.274734,42.339542,15.429496,25.51438,-6.691345
131,0.14438043534755707,23.980871200561523,73.90243530273438,1.9901559368128712,2.2495601978604522,93.45940531182835,-32.40187,4.6812916,3.2643888,36.31551,-6.900549,-5.6627283,16.804613,-11.576784,-17.193941,24.019041,-23.04677,14.183275,3.6711552,0.6590594,10.721467,7.4253716,20.41661,-36.550186,52.53149,1.6223987,5.181506,-3.1334133,-7.351734,-28.651337,46.931534,41.996235,15.419154,25.32161,-6.8684955
132,-0.07700973749160767,24.538057327270508,73.96155548095703,2.105991342686901,2.4004326702626577,93.4038681164986,-32.14599,4.4884977,3.508266,36.607166,-7.5657454,-5.434101,15.969275,-12.212821,-16.916681,26.387764,-22.508137,14.020302,3.4408417,0.45399022,10.470356,7.09537,20.60579,-36.631973,52.723286,1.4642358,5.1897593,-3.073281,-7.069812,-28.58996,46.62657,41.719753,15.422819,25.166862,-6.9831448
133,-0.3087519705295563,25.104129791259766,74.04104614257812,2.233589006772451,2.5498111532112477,93.27914272797382,-31.78105,4.322952,3.8382292,36.746544,-8.218175,-5.2110543,14.987082,-12.897462,-16.53446,28.96819,-21.846628,13.681267,3.2560983,0.24396436,10.223457,6.7525816,20.796862,-36.745705,52.925243,1.3387164,5.184525,-2.9563391,-6.8155966,-28.522865,46.356506,41.504604,15.417717,25.058395,-7.019695
134,-0.5402565002441406,25.668996810913086,74.13551330566406,2.368499550298959,2.70831633668589,93.11172909023036,-31.32659,4.1709743,4.223266,36.7294,-8.845737,-4.9908886,13.880819,-13.614133,-16.07963,31.702877,-21.054026,13.19703,3.0931482,0.033291746,9.964535,6.3932753,20.986744,-36.886528,53.144176,1.2327943,5.1667705,-2.797294,-6.5501947,-28.45024,46.08706,41.326126,15.393941,24.976606,-7.0006785
135,-0.7733553647994995,26.222991943359375,74.23888397216797,2.5108330827296954,2.867886458700868,92.92759070609593,-30.80992,4.0114284,4.6271033,36.591625,-9.424663,-4.77464,12.672599,-14.34823,-15.581633,34.541473,-20.142689,12.607492,2.9401488,-0.18131898,9.714011,6.003638,21.178211,-37.036728,53.369007,1.158383,5.1528864,-2.6385272,-6.344827,-28.372465,45.86109,41.217857,15.41861,24.91794,-6.944632
136,-1.0024073123931885,26.791603088378906,74.35517120361328,2.6612217700477894,3.020000897787488,92.75331446502753,-30.257145,3.8252156,5.011868,36.368904,-9.931567,-4.5654016,11.382134,-15.0883255,-15.069089,37.444958,-19.130812,11.953669,2.763642,-0.40598327,9.479684,5.594042,21.375927,-37.1578,53.58209,1.1295197,5.159922,-2.524551,-6.12127,-28.284578,45.62062,41.114735,15.416926,24.880198,-6.871073
137,-1.223650336265564,27.360095977783203,74.48200988769531,2.821585118865023,3.1665138563981476,92.59941499869423,-29.669733,3.6010027,5.3649583,36.05507,-10.354713,-4.3652296,9.999496,-15.839339,-14.5379505,40.438118,-17.97904,11.260272,2.5567555,-0.642582,9.263639,5.1625204,21.583956,-37.24393,53.77652,1.1624304,5.200454,-2.4710064,-5.935086,-28.184761,45.401974,41.063255,15.465531,24.861948,-6.782562
138,-1.4377580881118774,27.916059494018555,74.61805725097656,2.9896498367407873,3.30984795396602,92.45212253806629,-29.031155,3.3525927,5.703039,35.63299,-10.708337,-4.1765966,8.51734,-16.60511,-13.979479,43.530983,-16.692053,10.493717,2.3382335,-0.8863639,9.066166,4.7053757,21.804268,-37.31514,53.955696,1.2454922,5.2631145,-2.4532664,-5.8633285,-28.074078,45.26142,41.119675,15.624337,24.863712,-6.669594
139,-1.6396652460098267,28.466615676879883,74.76323699951172,3.1562198376247164,3.441302023737546,92.30072313842022,-28.344023,3.0996459,6.0326,35.129097,-11.011513,-4.0032287,6.956902,-17.375675,-13.41509,46.672665,-15.357359,9.607196,2.1009858,-1.1345327,8.87989,4.2432323,22.03841,-37.364613,54.11845,1.3490554,5.3296824,-2.4565592,-5.6859035,-27.946154,45.048546,41.11501,15.634804,24.88778,-6.534033
140,-1.8304814100265503,29.000640869140625,74.91374969482422,3.3140978991188796,3.5526222279549664,92.1338276888849,-27.610773,2.8605506,6.362221,34.567245,-11.280977,-3.846451,5.338523,-18.141794,-12.867608,49.815086,-14.062727,8.553331,1.8890277,-1.3821914,8.728796,3.7456784,22.292873,-37.433548,54.268456,1.4368179,5.3817296,-2.462079,-5.561857,-27.806557,44.8654,41.137623,15.591467,24.932022,-6.374498
141,-2.023324728012085,29.5445499420166,75.07122802734375,3.4627407426166528,3.6387779993898093,91.94718879206062,-26.822845,2.6381297,6.695631,33.93858,-11.509508,-3.7071233,3.6273663,-18.969978,-12.396478,53.071316,-12.717542,7.201112,1.7024163,-1.6329134,8.619918,3.2126443,22.571533,-37.522896,54.40388,1.5109286,5.4160852,-2.4707873,-5.446759,-27.654583,44.676437,41.148113,15.412224,25.01277,-6.1712112
142,-2.2050397396087646,30.081119537353516,75.23046112060547,3.60621542803625,3.70445433451993,91.74825245264753,-25.97939,2.4207292,7.0274634,33.232044,-11.690444,-3.5844994,1.8273433,-19.864689,-11.981984,56.423668,-11.314046,5.589901,1.5308695,-1.8888158,8.546905,2.650166,22.875792,-37.62519,54.519924,1.5842623,5.4423194,-2.490548,-5.3422093,-27.49076,44.484516,41.159187,15.136764,25.124163,-5.930081
143,-2.374635934829712,30.618324279785156,75.38925170898438,3.7458352190452486,3.7562427751697185,91.54151289764411,-25.099133,2.2052298,7.355718,32.471287,-11.841188,-3.4759111,0.0035896157,-20.702232,-11.515041,59.653625,-10.072804,3.9528792,1.3652704,-2.1471715,8.495801,2.0774834,23.205906,-37.72647,54.605057,1.6447909,5.4611244,-2.5160787,-5.2497616,-27.317108,44.30557,41.17639,14.83003,25.232887,-5.6909084
144,-2.533691883087158,31.140094757080078,75.53903198242188,3.87841487887143,3.800834706334284,91.33036828785984,-24.206255,1.9939915,7.676346,31.690474,-11.983904,-3.3789117,-1.7811091,-21.32169,-10.874956,62.550232,-9.213571,2.5604694,1.1717861,-2.4025,8.434553,1.5388399,23.559805,-37.791435,54.647675,1.6814804,5.4732833,-2.5438445,-4.9423943,-27.12783,44.00198,41.049274,14.346373,25.310139,-5.495931
145,-2.681687831878662,31.672483444213867,75.68318939208984,4.006083208839202,3.839083752248181,91.10964121025788,-23.307024,1.7880142,7.992786,30.89902,-12.123926,-3.2882903,-3.531251,-21.666193,-10.013645,65.124344,-8.866723,1.4298255,1.0248775,-2.6528342,8.409585,0.9630696,23.942528,-37.878002,54.644627,1.6948525,5.4849334,-2.5829332,-5.034189,-26.946758,43.984436,41.19986,14.255557,25.338888,-5.354472
146,-2.8237271308898926,32.197113037109375,75.81949615478516,4.1246886258908075,3.867648509051849,90.87859724721568,-22.392368,1.5912576,8.303973,30.085567,-12.252487,-3.206781,-5.275028,-21.778828,-8.99576,67.48741,-8.892167,0.47044805,0.85171634,-2.8980134,8.385893,0.42031392,24.351511,-37.91954,54.58787,1.6984031,5.4937453,-2.6366472,-4.976031,-26.758003,43.890663,41.24147,14.020588,25.344654,-5.2491655
147,-2.9633946418762207,32.71365737915039,75.9513168334961,4.2258243791884444,3.8886347911344212,90.64708394803023,-21.467627,1.4115326,8.600425,29.25648,-12.372027,-3.1438189,-6.990177,-21.641272,-7.8663087,69.60018,-9.109102,-0.18775168,0.6766061,-3.1270602,8.372591,-0.12135058,24.785809,-37.959396,54.50195,1.6676483,5.4876595,-2.6719418,-4.9300184,-26.567183,43.8207,41.289032,13.813454,25.332329,-5.166267
148,-3.0934548377990723,33.22604751586914,76.07807159423828,4.298171354922684,3.9037592616112358,90.42508207601456,-20.537004,1.2564759,8.873176,28.41694,-12.4846945,-3.1084929,-8.650836,-21.245193,-6.6775694,71.41991,-9.341027,-0.42092404,0.5006685,-3.3275473,8.374432,-0.67166793,25.241678,-38.012207,54.402187,1.5857488,5.454283,-2.6570613,-5.009611,-26.381014,43.855625,41.41686,13.758028,25.307673,-5.0943303
149,-3.214024305343628,33.74021530151367,76.20015716552734,4.337223286194092,3.9193647521289856,90.21853289260947,-19.616667,1.1343613,9.117703,27.579113,-12.59415,-3.1042008,-10.243595,-20.51836,-5.3887863,72.91215,-9.660642,-0.08876116,0.29391658,-3.4924388,8.370271,-1.2181263,25.7167,-38.075535,54.298035,1.4247125,5.380051,-2.574952,-5.024708,-26.194376,43.875946,41.491707,13.671729,25.270332,-5.0222974
150,-3.3284311294555664,34.25258255004883,76.31944274902344,4.350087886006046,3.9307834828163446,90.02228838187723,-18.699623,1.0376803,9.341266,26.739075,-12.699032,-3.1239746,-11.765729,-19.494228,-4.016249,74.125114,-10.152631,0.70532143,0.071167916,-3.631164,8.368646,-1.7698561,26.210127,-38.15224,54.185528,1.1999971,5.2743106,-2.4449937,-5.0143485,-26.008436,43.900635,41.543575,13.586416,25.218023,-4.9584885
151,-3.4352612495422363,34.773616790771484,76.43582153320312,4.347423878052675,3.924357930799734,89.828605201445,-17.753117,0.9515982,9.552511,25.874964,-12.792907,-3.161768,-13.211508,-18.344301,-2.6848848,75.126,-10.650678,1.7169825,-0.16275948,-3.7551596,8.3790865,-2.3010614,26.71682,-38.20109,54.05244,0.9682865,5.1592336,-2.2937667,-4.9320955,-25.822142,43.890625,41.542046,13.479254,25.160583,-4.923888
152,-3.530745506286621,35.289527893066406,76.5505599975586,4.34206742837086,3.887362109838562,89.62982088377669,-16.750324,0.8625691,9.758647,24.97147,-12.871388,-3.2125807,-14.589989,-17.228365,-1.5005409,75.97519,-10.967538,2.7119617,-0.3742553,-3.8736558,8.430611,-2.8206084,27.23088,-38.209694,53.892147,0.78105336,5.057063,-2.1453035,-4.9965963,-25.645035,43.982456,41.638775,13.574809,25.103651,-4.9382925
153,-3.630129337310791,35.813392639160156,76.66534423828125,4.330937930203622,3.821310239869463,89.42398261399418,-15.687365,0.7730306,9.957249,24.020933,-12.932902,-3.2798152,-15.914429,-16.141558,-0.44855526,76.667885,-11.012296,3.7277057,-0.5760416,-3.9821413,8.513305,-3.3106334,27.748629,-38.15664,53.70355,0.65230364,4.965632,-1.9996539,-5.129167,-25.476618,44.140503,41.77573,13.851122,25.049957,-5.0389457
154,-3.729450225830078,36.34220886230469,76.77660369873047,4.310032852340016,3.7311253826638744,89.21523145453403,-14.5797825,0.6884366,10.146058,23.038185,-12.981375,-3.3639512,-17.179977,-15.021436,0.5245488,77.17264,-10.898995,4.854683,-0.78914565,-4.0778713,8.609993,-3.7649417,28.269098,-38.046112,53.496017,0.55515784,4.875366,-1.8460066,-5.175516,-25.312065,44.261677,41.848415,14.136954,24.996874,-5.204632
155,-3.82796049118042,36.87620544433594,76.88224792480469,4.285700409354596,3.610779621903926,89.00379125900159,-13.41843,0.60016555,10.332154,22.015217,-13.012514,-3.4566827,-18.382872,-13.943771,1.389431,77.51053,-10.731225,5.9445996,-0.9986957,-4.1686745,8.737984,-4.1994667,28.788914,-37.88843,53.27172,0.48638377,4.798503,-1.6925218,-5.2173448,-25.15351,44.372864,41.91424,14.418032,24.943548,-5.3692727
156,-3.9157607555389404,37.41177749633789,76.97992706298828,4.265294664321267,3.454267776551169,88.79000778873429,-12.202175,0.49998856,10.522251,20.960388,-13.024908,-3.5494208,-19.522482,-12.985924,2.1141102,77.700455,-10.60108,6.841824,-1.2055664,-4.2625604,8.906096,-4.613346,29.302422,-37.675587,53.03137,0.44704652,4.746846,-1.5480932,-5.2464056,-25.001492,44.445587,41.96795,14.593631,24.89141,-5.4678845
157,-4.005380153656006,37.94428253173828,77.07062530517578,4.24574592616532,3.2510626437084187,88.57501953766362,-10.912163,0.38991034,10.7162,19.861698,-13.01355,-3.6459334,-20.601114,-12.164298,2.6879294,77.74318,-10.509359,7.4809256,-1.4120363,-4.357186,9.122733,-5.0074325,29.805191,-37.401752,52.778797,0.45734805,4.7357616,-1.4148198,-5.2611375,-24.8574,44.476196,42.01107,14.62564,24.834116,-5.4709854
158,-4.099191188812256,38.493736267089844,77.15487670898438,4.226191490756858,3.0078214965531593,88.35828523062473,-9.558816,0.27255884,10.910264,18.725643,-12.983381,-3.7470477,-21.628012,-11.450845,3.1370273,77.62585,-10.3986635,7.9430714,-1.6188204,-4.449436,9.377545,-5.38152,30.29549,-37.070347,52.52036,0.51084983,4.7547154,-1.2876803,-5.237437,-24.72139,44.461193,42.026005,14.547359,24.774136,-5.4176483
159,-4.188627243041992,39.048892974853516,77.22899627685547,4.213147301486934,2.7447119539035856,88.13714149281863,-8.167613,0.13740292,11.105953,17.554247,-12.931538,-3.842329,-22.612509,-10.848665,3.4879656,77.3479,-10.277898,8.299543,-1.8095691,-4.5448623,9.661377,-5.7541947,30.772455,-36.70659,52.263042,0.56276757,4.7764106,-1.1640744,-5.250435,-24.595497,44.44636,42.060547,14.475795,24.725092,-5.3458505
160,-4.274681091308594,39.57686233520508,77.28893280029297,4.215310677878867,2.4816667772991003,87.90922782661741,-6.7654424,-0.02420724,11.303757,16.352194,-12.856192,-3.9249935,-23.562355,-10.356556,3.7636428,76.90905,-10.158179,8.620686,-1.9875374,-4.650092,9.949879,-6.1155224,31.234198,-36.310467,52.009167,0.5776178,4.773789,-1.042632,-5.2040977,-24.476677,44.366795,42.04615,14.366546,24.703516,-5.293718
161,-4.366889476776123,40.11233139038086,77.33729553222656,4.235724938241371,2.2167010789607664,87.66592587841494,-5.3385043,-0.2197894,11.5079155,15.097038,-12.742823,-3.9960966,-24.480932,-9.99862,3.9522529,76.308685,-10.053724,8.904902,-2.134707,-4.7684164,10.255046,-6.4892764,31.679802,-35.899624,51.769783,0.5291822,4.7348003,-0.91612226,-5.1642556,-24.36614,44.253128,42.02155,14.2704115,24.726969,-5.2564516
162,-4.451876640319824,40.649166107177734,77.37255859375,4.266876649984569,1.9424019067838714,87.41185317432466,-3.878812,-0.43928233,11.713533,13.79113,-12.593705,-4.0655694,-25.364935,-9.76365,4.0445485,75.54481,-9.950964,9.119281,-2.2598343,-4.89307,10.578643,-6.863801,32.10739,-35.45953,51.540295,0.4480822,4.675434,-0.78780603,-5.108557,-24.263844,44.095905,41.975685,14.149896,24.783068,-5.2185783
163,-4.53367805480957,41.18634796142578,77.395263671875,4.298451169864464,1.6712501435186793,87.16373765091849,-2.4154353,-0.66558206,11.907607,12.463567,-12.430156,-4.140049,-26.208593,-9.605012,4.0668435,74.61352,-9.82117,9.288959,-2.376185,-5.0107045,10.903884,-7.236281,32.51653,-34.999992,51.31755,0.35272956,4.6096463,-0.6698291,-5.0479274,-24.169807,43.92228,41.9288,14.05577,24.839054,-5.20107
164,-4.606551647186279,41.731040954589844,77.405517578125,4.319349738386514,1.4152866759752958,86.938590726762,-0.9868044,-0.8817158,12.079189,11.163961,-12.279578,-4.222364,-27.007116,-9.476383,4.047631,73.5132,-9.637328,9.439764,-2.5033503,-5.1111593,11.210687,-7.61199,32.908657,-34.540577,51.10839,0.24707992,4.5511227,-0.57436246,-4.958268,-24.08248,43.737553,41.876648,14.003852,24.863104,-5.2258034
165,-4.676045894622803,42.274539947509766,77.40438842773438,4.3262386759349365,1.1702921895695833,86.73762560770777,0.4144321,-1.0850277,12.227629,9.88575,-12.142488,-4.3142724,-27.755285,-9.384155,3.9663842,72.24008,-9.398586,9.580548,-2.6397696,-5.190586,11.504024,-7.9871597,33.283848,-34.07413,50.90674,0.14027049,4.504659,-0.5107517,-4.860804,-24.000744,43.55675,41.840626,14.034897,24.832138,-5.327922
166,-4.7294745445251465,42.81732940673828,77.39468383789062,4.323845838227399,0.9328593204078829,86.55374845401774,1.8102282,-1.2830826,12.357963,8.592185,-11.999734,-4.414165,-28.45384,-9.342133,3.8129306,70.79282,-9.11726,9.701133,-2.783303,-5.2548313,11.786803,-8.355969,33.641933,-33.59048,50.712395,0.027272072,4.4625964,-0.47072545,-4.729367,-23.923521,43.354294,41.79676,14.097948,24.768145,-5.486095
167,-4.785522937774658,43.36545944213867,77.37565612792969,4.3163644395772724,0.7158160596566987,86.39084596857266,3.159216,-1.4722891,12.470283,7.3426895,-11.872372,-4.5159903,-29.107204,-9.322111,3.6346202,69.17364,-8.786229,9.7947445,-2.932482,-5.3087153,12.050155,-8.736146,33.984344,-33.11588,50.5362,-0.10465029,4.4204893,-0.439024,-4.5952744,-23.850828,43.151905,41.75827,14.195244,24.705303,-5.637087
168,-4.835814476013184,43.91143798828125,77.34152221679688,4.30762187173581,0.531879716897132,86.25208110596594,3.9240882,-1.5336688,12.577304,7.2730823,-12.355007,-4.6171393,-29.721024,-9.296645,3.4812882,67.38581,-8.399918,9.855743,-3.0859063,-5.3585505,12.281725,-9.115943,34.31002,-32.648087,50.368702,-0.24063401,4.374452,-0.40099332,-4.462508,-23.782291,42.952526,41.72136,14.304487,24.678112,-5.717513
169,-4.87984037399292,44.4589958190918,77.29718780517578,4.299476627112691,0.3886372741503977,86.1417294371259,4.6342463,-1.5899205,12.670992,7.2127204,-12.828867,-4.707657,-30.304537,-9.247507,3.3752804,65.4241,-7.951666,9.887305,-3.2472918,-5.4073186,12.474402,-9.495378,34.618484,-32.177246,50.212444,-0.3725452,4.324162,-0.3591039,-4.319265,-23.7169,42.73296,41.666386,14.416928,24.708818,-5.6866183
170,-4.9206109046936035,45.008785247802734,77.24366760253906,4.289700772997732,0.27721472253585294,86.05630336193227,5.301505,-1.6434206,12.751704,7.158274,-13.295787,-4.789201,-30.84922,-9.193367,3.288324,63.286324,-7.447242,9.892526,-3.4152732,-5.453929,12.63628,-9.883402,34.910427,-31.710825,50.073227,-0.511516,4.271369,-0.31889364,-4.1667705,-23.654652,42.498375,41.601902,14.544071,24.774683,-5.586289
171,-4.948962688446045,45.56296920776367,77.18087005615234,4.285203730676996,0.18610228387395272,85.98755689639619,5.94361,-1.7000928,12.815414,7.1086054,-13.757139,-4.8665905,-31.331882,-9.162564,3.1941183,60.973648,-6.896639,9.864646,-3.5821545,-5.4984794,12.775862,-10.2620535,35.184048,-31.253311,49.934193,-0.65618896,4.215642,-0.2710185,-4.0055156,-23.595228,42.281708,41.548843,14.675881,24.844292,-5.477422
172,-4.965433597564697,46.13654708862305,77.10914611816406,4.284984442868679,0.10371875549202636,85.92753367391968,6.5780125,-1.7635115,12.857734,7.06084,-14.213658,-4.9473352,-31.730785,-9.183595,3.064571,58.487816,-6.310734,9.7990885,-3.7469296,-5.538511,12.903244,-10.658126,35.440075,-30.850153,49.81397,-0.84708464,4.155935,-0.20506072,-3.8481522,-23.538359,42.125492,41.535305,14.807568,24.885754,-5.4217567
173,-4.980442523956299,46.71244812011719,77.02600860595703,4.284891612284653,0.028295656654481815,85.87286051514636,7.2076483,-1.8279184,12.877196,7.0183873,-14.666239,-5.035107,-32.04396,-9.242704,2.8950148,55.81625,-5.7083683,9.696199,-3.9005778,-5.566472,13.013965,-10.988836,35.669327,-30.428574,49.650356,-1.0255878,4.0895596,-0.11465919,-3.669708,-23.482683,42.021023,41.554344,14.924377,24.894394,-5.44578
174,-4.996433734893799,47.28697967529297,76.9256820678711,4.276162727071444,-0.03568687982417064,85.82940732892362,7.824048,-1.8844532,12.875239,6.9829297,-15.114782,-5.1285896,-32.281475,-9.320212,2.6896944,52.965435,-5.083488,9.564828,-4.0560966,-5.5751615,13.109869,-11.325532,35.874767,-30.040192,49.500507,-1.2423939,4.0166364,-0.005406563,-3.5020478,-23.428265,41.97436,41.614075,15.051511,24.885498,-5.5147815
175,-5.018272399902344,47.86266326904297,76.82022857666016,4.294038860616776,-0.09517101760074027,85.79301179896372,8.419232,-1.9629154,12.863044,6.991669,-15.580317,-5.2244644,-32.43717,-9.438554,2.4609203,49.958645,-4.4019976,9.417557,-4.2067623,-5.6049743,13.196905,-11.695947,36.061195,-29.709713,49.38722,-1.4887252,3.9436226,0.11167887,-3.3213904,-23.372818,41.96028,41.695663,15.161025,24.857483,-5.5940633
176,-5.025030136108398,48.44960403442383,76.71293640136719,4.324754079883096,-0.14851818150476068,85.77376786279947,9.007076,-2.0479093,12.833986,7.006603,-16.039307,-5.323602,-32.503433,-9.595698,2.1726263,46.808918,-3.6287708,9.259677,-4.3465877,-5.648449,13.273178,-12.033741,36.22656,-29.37844,49.253113,-1.6728216,3.8787217,0.2242131,-3.1333008,-23.314316,41.966854,41.806034,15.257168,24.808643,-5.6464205
177,-5.021242141723633,49.046165466308594,76.6031494140625,4.361837116430026,-0.2031893012030466,85.76503430396986,9.600172,-2.134342,12.792304,7.0222006,-16.493328,-5.4213586,-32.46316,-9.806029,1.7638274,43.475742,-2.7086236,9.043311,-4.4783287,-5.7003217,13.346933,-12.349956,36.372593,-29.04736,49.1119,-1.7939346,3.8241985,0.33563983,-2.917507,-23.25182,41.988075,41.932144,15.319212,24.718615,-5.6691103
178,-5.009410858154297,49.64813995361328,76.48670196533203,4.40676243154649,-0.25595868724447846,85.7674660247084,10.195935,-2.2233071,12.735377,7.0381455,-16.941584,-5.521374,-32.31743,-10.046417,1.2525678,39.95125,-1.6733587,8.789939,-4.603591,-5.7589912,13.41712,-12.667716,36.501343,-28.73971,48.977978,-1.8892014,3.7762232,0.4501962,-2.7077813,-23.186506,42.047478,42.0975,15.376904,24.594587,-5.679252
179,-4.989511966705322,50.248600006103516,76.3635482788086,4.46702890107995,-0.2931241175022659,85.80073679695919,10.774835,-2.317043,12.649218,7.05312,-17.37279,-5.631297,-32.087303,-10.2706375,0.7391555,36.295963,-0.61183345,8.60663,-4.734903,-5.8320346,13.463079,-12.954487,36.61318,-28.444935,48.821068,-1.9552203,3.7328925,0.556386,-2.4881482,-23.115585,42.12571,42.286423,15.415341,24.477642,-5.671175
180,-4.9417314529418945,50.86674499511719,76.24181365966797,4.548843129182632,-0.30269459927429665,85.88664832869911,11.32015,-2.4215758,12.517298,7.064856,-17.777468,-5.7547045,-31.787159,-10.44618,0.33078566,32.550312,0.40220118,8.593479,-4.8981905,-5.9252443,13.470043,-13.26695,36.716125,-28.229486,48.682285,-2.065322,3.6916175,0.64376676,-2.2545304,-23.0348,42.214005,42.486713,15.421329,24.4089,-5.6410966
181,-4.883920669555664,51.49641799926758,76.10664367675781,4.669793525399299,-0.2796766614905405,86.03811534520075,11.822328,-2.5575504,12.326543,7.076634,-18.162199,-5.881426,-31.37644,-10.582687,0.048084524,28.568844,1.4141356,8.830801,-5.091277,-6.0597486,13.419395,-13.503496,36.805412,-28.013988,48.479374,-2.1477642,3.656458,0.7065066,-1.9713323,-22.938189,42.289936,42.685455,15.370115,24.405487,-5.5914207
182,-4.826293468475342,52.13032913208008,75.95897674560547,4.830554525142892,-0.24275922558246046,86.25422249866836,12.303767,-2.7301214,12.073923,7.086299,-18.530205,-6.004131,-30.81744,-10.722627,-0.16191053,24.300154,2.4869626,9.243795,-5.335642,-6.2349367,13.339064,-13.818247,36.893578,-27.919237,48.337234,-2.3171966,3.6264865,0.75185883,-1.6837208,-22.825993,42.39111,42.908863,15.287004,24.443117,-5.5262465
183,-4.753451347351074,52.76888656616211,75.80339050292969,5.024912742267268,-0.21733838509569064,86.53731145020063,12.790512,-2.9252522,11.755052,7.093313,-18.8689,-6.1335354,-30.14067,-10.898136,-0.29722986,19.951876,3.5609236,9.696625,-5.608783,-6.448298,13.252325,-14.060507,36.96872,-27.819363,48.13374,-2.4294739,3.5963027,0.7827403,-1.3672584,-22.700224,42.479668,43.137596,15.174547,24.502274,-5.430993
184,-4.672128677368164,53.40987014770508,75.6438217163086,5.240806743126282,-0.22378404866894916,86.8846112190915,13.304141,-3.1225235,11.371627,7.0972652,-19.166836,-6.279426,-29.40586,-11.129338,-0.3565098,15.783612,4.548389,10.056356,-5.928049,-6.686772,13.192422,-14.336948,37.046577,-27.801155,47.954643,-2.563696,3.5589733,0.8040689,-1.0875913,-22.555,42.588356,43.410175,15.071338,24.560904,-5.297725
185,-4.584205627441406,54.054893493652344,75.48540496826172,5.472434685862264,-0.26013948336274856,87.30751120567,13.84054,-3.3154762,10.914019,7.09857,-19.427248,-6.451515,-28.623579,-11.418107,-0.21451578,11.757212,5.4761286,10.315731,-6.2951345,-6.9485426,13.152111,-14.575061,37.121124,-27.80968,47.740597,-2.6630664,3.5150836,0.819096,-0.7579211,-22.393723,42.651577,43.660656,14.911074,24.619001,-5.1188955
186,-4.481897354125977,54.70793914794922,75.32750701904297,5.72893044892867,-0.32282069180808315,87.80749593551586,14.395188,-3.5182402,10.378956,7.0968757,-19.655104,-6.639133,-27.680117,-11.771767,0.059916165,7.596671,6.4642906,10.537655,-6.7111497,-7.240022,13.129268,-14.820079,37.1932,-27.880283,47.52267,-2.7658627,3.4671314,0.8248806,-0.4373624,-22.224794,42.72043,43.928993,14.749256,24.685286,-4.901681
187,-4.3707451820373535,55.36437225341797,75.17127990722656,5.996524241916657,-0.4054977917870589,88.33696168035553,14.967631,-3.7107809,9.810819,7.0934153,-19.843424,-6.829775,-27.961119,-12.142043,0.48898944,6.2965894,5.934999,10.674582,-7.140433,-7.548636,13.108386,-15.01335,37.263554,-27.961012,47.273132,-2.8329241,3.4132078,0.81517816,-0.04864956,-22.032845,42.748154,44.174664,14.506488,24.756975,-4.6525908
188,-4.243037700653076,56.05010223388672,75.03076934814453,6.2515866840362255,-0.4929805171972201,88.84021607952798,15.549831,-3.8706496,9.264827,7.0875306,-19.984344,-7.012175,-28.61854,-12.4868,0.6584474,6.1930895,4.780867,10.701355,-7.5204587,-7.839502,13.096466,-15.196749,37.324688,-28.07283,47.018257,-2.8759596,3.3500617,0.7867677,0.24323528,-21.834465,42.852737,44.505478,14.343178,24.828281,-4.3791704
189,-4.113918304443359,56.718135833740234,74.89291381835938,6.497293733848884,-0.5868475068133376,89.30165928866064,16.147856,-4.0045104,8.76544,7.0827966,-20.084309,-7.185713,-29.088654,-12.847443,0.29233816,6.151052,3.405541,10.537489,-7.8495927,-8.111506,13.083992,-15.366352,37.37369,-28.218283,46.769264,-2.8969762,3.2697387,0.72936314,0.5499425,-21.637653,42.969124,44.844627,14.156609,24.902945,-4.0775023
190,-3.989192008972168,57.37128829956055,74.75727081298828,6.729351903732469,-0.6761817045240537,89.73367706757094,16.749887,-4.1136985,8.303573,7.0740595,-20.143309,-7.3612213,-29.404755,-13.221332,-0.4273798,6.1476374,1.8780906,10.231241,-8.134317,-8.364441,13.062888,-15.531836,37.413567,-28.409304,46.528576,-2.905229,3.176054,0.64962524,0.8636952,-21.426647,43.090687,45.20529,13.944427,24.980545,-3.745544
191,-3.8635380268096924,58.03340530395508,74.63190460205078,6.915202357775189,-0.7232491742821355,90.120894701872,17.310066,-4.164129,7.8882337,7.065581,-20.154047,-7.546855,-29.604774,-13.528835,-1.2491521,6.1764255,0.6010286,9.934604,-8.355921,-8.558542,13.0171585,-15.642953,37.432995,-28.579754,46.25227,-2.861283,3.0824957,0.5678477,1.1604816,-21.221418,43.228756,45.577606,13.741277,25.057795,-3.3923929
192,-3.737067461013794,58.71413803100586,74.51862335205078,7.021493651111828,-0.697447006354101,90.4511997909667,17.790611,-4.1159425,7.5242376,7.055886,-20.10364,-7.7486377,-29.70681,-13.688807,-1.9373564,6.2035875,-0.007349595,9.781878,-8.517957,-8.655276,12.92999,-15.732585,37.431046,-28.73538,45.977306,-2.7988465,3.0023034,0.5045733,1.4569656,-21.006184,43.36296,45.945194,13.511201,25.130999,-3.030501
193,-3.610255479812622,59.40946960449219,74.41925811767578,7.057268455737716,-0.6006177921234769,90.733609193405,18.190504,-3.981883,7.2007675,7.0444636,-19.996243,-7.964332,-29.636057,-13.722876,-2.5203564,6.187403,0.30126527,9.899906,-8.611105,-8.659816,12.824853,-15.809522,37.40516,-28.871857,45.680656,-2.6979456,2.9387445,0.45982203,1.6377717,-20.813673,43.58249,46.36893,13.411426,25.193554,-2.6697419
194,-3.4756290912628174,60.06588363647461,74.3681411743164,7.011031563514702,-0.42412121580929557,90.94549338587325,18.513914,-3.7483618,6.954023,7.0324373,-19.840849,-8.2046585,-29.456108,-13.607822,-3.0866528,6.2097187,1.231255,10.164939,-8.619239,-8.558853,12.682296,-15.844491,37.345783,-28.974379,45.358906,-2.53822,2.8838825,0.4279292,1.7393879,-20.609802,43.855885,46.85668,13.37645,25.247171,-2.303231
195,-3.3259966373443604,60.7044677734375,74.3451919555664,6.923196298982667,-0.19851301467558655,91.11602118113416,18.78766,-3.4635468,6.746039,7.0239086,-19.621475,-8.458363,-29.231531,-13.3827915,-3.5061963,6.2248497,2.491151,10.369165,-8.598487,-8.403464,12.491908,-15.851309,37.263046,-29.068634,45.063423,-2.3794622,2.8361864,0.40865958,1.9849615,-20.409035,44.02756,47.229584,13.1534,25.311909,-1.9120402
196,-3.1811740398406982,61.352359771728516,74.32826232910156,6.816430342017603,0.05193725727774959,91.23318369747881,19.020857,-3.1542227,6.5825095,7.069181,-19.354565,-8.718762,-29.06719,-13.053902,-3.6263068,6.247309,3.7651083,10.29873,-8.489807,-8.220099,12.293973,-15.82195,37.158916,-29.163725,44.764492,-2.2164223,2.7943006,0.40673995,2.0643687,-20.225887,44.30937,47.6857,13.038943,25.392618,-1.474993
197,-3.0362091064453125,62.027557373046875,74.30801391601562,6.645217077033123,0.3520381409408189,91.30740930874619,19.202784,-2.766536,6.4600368,7.127643,-19.017687,-8.997506,-29.004025,-12.566664,-3.3557765,6.2851033,5.0529437,9.802863,-8.344355,-7.9633327,12.045421,-15.73772,37.029285,-29.240547,44.476875,-2.0506968,2.762695,0.4257638,2.1911488,-20.03876,44.5496,48.087383,12.767255,25.505152,-0.96817607
198,-2.879769802093506,62.72066879272461,74.2918701171875,6.419170968262656,0.6953449818838255,91.34336885580274,19.335886,-2.310107,6.3732057,7.2082996,-18.623907,-9.294898,-28.98118,-11.950316,-2.796051,6.341822,6.499375,9.042521,-8.151376,-7.6412735,11.768103,-15.64487,36.882328,-29.335388,44.211185,-1.9004942,2.7412455,0.4621835,2.2806592,-19.859022,44.811954,48.487473,12.458993,25.6377,-0.4068359
199,-2.7103075981140137,63.41322708129883,74.29230499267578,6.190025295822087,1.0381019391629103,91.38992070843558,19.462627,-1.8426244,6.2644296,7.306104,-18.15071,-9.593576,-29.68745,-11.357039,-2.0328326,7.9520364,7.18758,8.244677,-7.9566603,-7.314755,11.4688425,-15.485903,36.715652,-29.408611,43.9548,-1.7453214,2.720362,0.5059344,2.407998,-19.684753,45.047188,48.847324,12.084578,25.770079,0.16436498
200,-2.531193971633911,64.0977554321289,74.30681610107422,5.99610124179967,1.3435710175368445,91.48851973493304,19.617916,-1.406205,6.0863523,7.4182844,-17.580183,-9.877202,-30.729355,-10.8695965,-1.3790593,10.383513,7.3920903,7.6290407,-7.7933745,-7.02273,11.165151,-15.284113,36.52909,-29.482271,43.747265,-1.617134,2.6898513,0.54873735,2.5383842,-19.519423,45.283768,49.20176,11.721246,25.88018,0.6992727
201,-2.3485965728759766,64.80180358886719,74.31725311279297,5.838352113945957,1.629428967530615,91.662004901714,19.780422,-0.99393773,5.8138447,7.541848,-16.920837,-10.160712,-31.484339,-10.499555,-0.987634,12.2855015,7.912206,7.310088,-7.683084,-6.7591295,10.829952,-15.024038,36.32074,-29.549122,43.584167,-1.509531,2.643655,0.5860907,2.7368467,-19.362352,45.475506,49.501247,11.279597,25.970802,1.2056065
202,-2.1564786434173584,65.54598999023438,74.31705474853516,5.688393174909398,1.9136724750332317,91.88577729794306,19.343273,-0.5165207,5.4801497,8.932884,-16.838095,-10.447062,-32.10331,-10.191521,-0.72124887,13.941833,8.6145935,7.1415815,-7.6042523,-6.4918327,10.466401,-14.758339,36.092052,-29.64598,43.49007,-1.449314,2.5879965,0.6241584,2.9537268,-19.2157,45.65639,49.77397,10.796607,26.049217,1.7008731
203,-1.9767346382141113,66.30805969238281,74.30960845947266,5.534282880015408,2.1635725361908418,92.12528554529126,18.667355,-0.006439448,5.1142526,10.903011,-16.944399,-10.705865,-32.654114,-9.924657,-0.57411885,15.605322,9.14431,6.946278,-7.527399,-6.2177157,10.112031,-14.453149,35.839973,-29.739079,43.44168,-1.4127494,2.531997,0.669104,3.1781878,-19.081392,45.830635,50.04132,10.347208,26.106136,2.1543977
204,-1.803585171699524,67.08432006835938,74.30001068115234,5.36683841548587,2.341281441243563,92.35212327034463,18.024004,0.51420313,4.7493486,12.967788,-16.952688,-10.9097805,-33.173187,-9.685373,-0.5507604,17.475647,9.168625,6.550164,-7.4301705,-5.938221,9.807722,-14.058908,35.559586,-29.780914,43.40414,-1.3645501,2.4845538,0.726436,3.398381,-18.960964,46.00644,50.322277,10.010432,26.13433,2.5355766
205,-1.6248401403427124,67.86705017089844,74.29634094238281,5.174575429787293,2.431542482238161,92.56816642333123,17.452318,1.055802,4.387158,15.104595,-16.865986,-11.0992985,-33.71378,-9.480041,-0.68502843,19.729649,8.49923,5.8107977,-7.3207016,-5.6369286,9.565492,-13.634396,35.253727,-29.823671,43.429337,-1.3609499,2.4391434,0.80728865,3.6029882,-18.85874,46.20451,50.625935,9.841114,26.128036,2.8172402
206,-1.4315413236618042,68.65121459960938,74.30099487304688,4.960497752592342,2.453759057649631,92.7915267495196,16.94258,1.6129006,4.0058494,17.276648,-16.675707,-11.279518,-34.224457,-9.321291,-0.9578084,22.19348,7.35337,4.851581,-7.206169,-5.3174143,9.36193,-13.121777,34.917294,-29.82542,43.4676,-1.3512588,2.3944228,0.9047506,3.8186288,-18.77458,46.402122,50.926876,9.778349,26.095083,3.0229983
207,-1.2435015439987183,69.44542694091797,74.31034088134766,4.737584226745254,2.4270687591817093,93.01934829298474,16.406916,2.174087,3.6101506,19.58225,-16.386858,-11.377001,-34.610977,-9.192146,-1.301237,24.585669,5.9963574,3.8987844,-7.0965247,-4.989565,9.197361,-12.592879,34.554874,-29.817644,43.562874,-1.371162,2.3653271,0.9998694,4.004355,-18.710594,46.605854,51.248676,9.777495,26.047443,3.1908326
208,-1.0554279088974,70.24732208251953,74.32734680175781,4.512732542205785,2.37625906398282,93.24583493107932,15.76493,2.7339785,3.2098455,22.091835,-15.991159,-11.325699,-34.79412,-9.063308,-1.6641353,26.643085,4.6874356,3.1753888,-6.9864182,-4.6589637,9.0642185,-12.013712,34.164623,-29.752245,43.672577,-1.3730872,2.3681653,1.07296,4.1332855,-18.666239,46.811367,51.604626,9.792405,25.996359,3.3615806
209,-0.869330644607544,71.04199981689453,74.35317993164062,4.278700596363736,2.2920157389592233,93.46466741437594,15.028827,3.2858987,2.8038325,24.814007,-15.479779,-11.092004,-34.75549,-8.919946,-2.05241,28.358253,3.4024425,2.7774518,-6.880836,-4.3198905,8.974725,-11.387123,33.74507,-29.621128,43.808563,-1.3838978,2.4124033,1.1362516,4.204224,-18.641108,47.03165,52.012436,9.842829,25.921854,3.526396
210,-0.6924765110015869,71.82941436767578,74.3877182006836,4.029873299385445,2.1723492798722406,93.67515958817636,14.249334,3.8256443,2.403057,27.665474,-14.82833,-10.743297,-34.557365,-8.76801,-2.4880295,29.88126,2.020139,2.5733602,-6.7741566,-3.9652333,8.923187,-10.708335,33.295048,-29.432413,43.968296,-1.4004502,2.4878654,1.1947036,4.2231803,-18.635351,47.270542,52.46555,9.951943,25.825422,3.6703463
211,-0.5151887536048889,72.61455535888672,74.42985534667969,3.77141856425221,2.0540680463381285,93.87989621938362,13.387975,4.3556647,2.030506,30.608273,-14.013328,-10.357061,-34.25418,-8.607528,-2.9513419,31.206402,0.651087,2.442338,-6.6618505,-3.597202,8.87401,-10.013877,32.821648,-29.222591,44.160137,-1.4019663,2.580657,1.21831,4.200436,-18.649435,47.491093,52.92165,10.035529,25.75147,3.822734
212,-0.34247979521751404,73.38914489746094,74.48068237304688,3.5110825533339107,1.9721866171538605,94.0811629483942,12.397911,4.8881145,1.6997104,33.622944,-13.029018,-9.992612,-33.893864,-8.437747,-3.4197896,32.31602,-0.5882326,2.2646258,-6.535273,-3.2218673,8.795576,-9.344813,32.337006,-29.035692,44.391903,-1.3733267,2.6770277,1.1768408,4.130291,-18.685143,47.66734,53.348198,10.027668,25.74385,4.01331
213,-0.16472920775413513,74.16106414794922,74.5387954711914,3.257477953740845,1.9412791035603747,94.26497473608616,11.231335,5.441967,1.4333315,36.77466,-11.828771,-9.641008,-33.489094,-8.253147,-3.8786056,33.18777,-1.6634527,2.0138159,-6.3887663,-2.8479302,8.670077,-8.680719,31.846855,-28.849573,44.657658,-1.3028986,2.775725,1.0608293,4.0656657,-18.741087,47.746433,53.710495,9.815186,25.82178,4.269738
214,0.003211080562323332,74.92208862304688,74.6109390258789,3.0093491528281326,1.9397080186764557,94.43211893103218,9.915983,6.0089145,1.2108169,40.062664,-10.436528,-9.263803,-33.01867,-8.051118,-4.338963,33.839645,-2.637156,1.7510316,-6.211885,-2.4765332,8.528579,-8.023418,31.352148,-28.666853,44.94931,-1.2093228,2.8834345,0.887178,3.8944144,-18.819628,47.843742,54.094177,9.582084,25.955772,4.571894
215,0.1721792221069336,75.67142486572266,74.69674682617188,2.7650795122487,1.9474184812549449,94.60659253431784,8.5079565,6.5696597,0.9758015,43.39336,-8.964183,-8.858336,-32.477253,-7.837765,-4.8141575,34.31273,-3.5397294,1.4889768,-6.0363703,-2.1118224,8.378849,-7.384291,30.861406,-28.516226,45.26821,-1.1076233,2.9985793,0.66235095,3.7279444,-18.919636,47.864296,54.410038,9.262265,26.126158,4.874743
216,0.335925817489624,76.41154479980469,74.79398345947266,2.522188767454406,1.9446388984970793,94.81270113786648,7.061006,7.103317,0.675436,46.68197,-7.5291758,-8.420654,-31.856823,-7.623203,-5.3150544,34.64855,-4.402962,1.2428935,-5.868563,-1.7535418,8.24393,-6.8051686,30.386137,-28.458164,45.618366,-1.0237693,3.1196537,0.39426228,3.5442026,-19.04333,47.826824,54.6515,8.959623,26.310665,5.134798
217,0.5010846257209778,77.1431655883789,74.90282440185547,2.279442907564961,1.92298330698861,95.05421911098213,5.5574303,7.631709,0.2994453,50.003326,-6.1002264,-7.9216223,-31.125559,-7.413161,-5.847065,34.82008,-5.2320867,1.023474,-5.703773,-1.4042166,8.136561,-6.2929144,29.934101,-28.500156,46.00634,-0.9878309,3.2487118,0.064597584,3.3196306,-19.19223,47.7344,54.813164,8.66662,26.537016,5.3814206
218,0.6698319911956787,77.87584686279297,75.01898956298828,2.037119370153038,1.8939339169390694,95.31827457560591,3.9682364,8.169389,-0.12460051,53.389793,-4.643944,-7.342345,-30.29368,-7.202925,-6.399926,34.816227,-6.0116634,0.8237889,-5.5417056,-1.0656631,8.0423155,-5.8194337,29.507748,-28.612446,46.42232,-0.9823219,3.3865557,-0.3248282,3.1050665,-19.364843,47.54341,54.873493,8.2972,26.806818,5.625422
219,0.8401049971580505,78.60272979736328,75.13053894042969,1.7937641599312035,1.8672580678320925,95.6061608581398,2.3192995,8.684303,-0.59574354,56.720398,-3.2911468,-6.705133,-29.41921,-6.988788,-6.964013,34.712845,-6.7494845,0.6354595,-5.3828373,-0.72916734,7.954851,-5.3837657,29.109179,-28.806858,46.840775,-0.95820487,3.5297074,-0.7358595,2.8505702,-19.565271,47.33514,54.895046,8.013366,27.056248,5.794534
220,1.01154625415802,79.31993865966797,75.24588012695312,1.5584203459204518,1.8528558045282184,95.91480378568166,0.6525646,9.123116,-1.1043069,59.848873,-2.160475,-6.04743,-28.558586,-6.7748647,-7.518803,34.583515,-7.453639,0.44999626,-5.2318115,-0.3992462,7.862852,-4.977523,28.740314,-29.086742,47.236584,-0.86538893,3.6739802,-1.1310347,2.5557992,-19.797424,47.14714,54.905308,7.91725,27.224085,5.813651
221,1.1688063144683838,80.02581024169922,75.36726379394531,1.3296901894889386,1.8558247248456006,96.26079590551738,-1.0760678,9.51083,-1.6363467,62.832035,-1.18911,-5.26364,-27.720848,-6.564079,-8.071696,34.440426,-8.127673,0.25932482,-5.102984,-0.07493193,7.759002,-4.604566,28.404879,-29.463924,47.614223,-0.6907416,3.8226624,-1.5162202,2.23111,-20.063944,46.98142,54.886776,8.042292,27.29344,5.6550484
222,1.3208450078964233,80.71530151367188,75.4844741821289,1.1037277229554088,1.8702931051657266,96.63824404799662,-2.8745408,9.866446,-2.1962698,65.726135,-0.34969673,-4.362727,-26.871204,-6.3549347,-8.626793,34.240166,-8.765485,0.076425806,-4.988095,0.24528289,7.6528997,-4.267619,28.104677,-29.933613,47.982094,-0.4635026,3.975812,-1.9071093,1.8646529,-20.366177,46.8332,54.83456,8.347129,27.296364,5.3607154
223,1.474884033203125,81.40460968017578,75.59754180908203,0.8847724803678095,1.8888780313048519,97.0125416955366,-4.6451654,10.111551,-2.8038738,68.39576,0.17814536,-3.5819576,-26.006224,-6.1439834,-9.163059,33.97908,-9.359913,-0.08051727,-4.864464,0.55856514,7.5548,-3.944112,27.83553,-30.461115,48.31616,-0.18729559,4.124006,-2.2814667,1.4665673,-20.705149,46.68694,54.768944,8.765019,27.24626,4.959111
224,1.6047947406768799,82.0797119140625,75.7109603881836,0.6793626348474977,1.9036080344282076,97.34926621249245,-6.285931,10.150614,-3.481107,70.713066,0.21068738,-3.1824393,-25.127441,-5.9280467,-9.660238,33.65685,-9.903865,-0.19885123,-4.7068524,0.8620524,7.476964,-3.6189299,27.590353,-31.016973,48.596256,0.13186057,4.2578053,-2.6163568,1.0145108,-21.082691,46.559322,54.731964,9.26931,27.155802,4.4796877
225,1.716611385345459,82.73771667480469,75.81719970703125,0.4811358538983546,1.9244142764734873,97.64421707979558,-7.7555285,9.937569,-4.2548904,72.637566,-0.54073304,-3.3255918,-24.260683,-5.698129,-10.123758,33.284096,-10.391315,-0.28540212,-4.5178566,1.1663401,7.4081535,-3.2960794,27.365736,-31.612146,48.82251,0.5147196,4.380347,-2.9157007,0.5364239,-21.501463,46.43018,54.709724,9.844195,26.996288,3.9043152
226,1.8234931230545044,83.39013671875,75.92439270019531,0.28872337755527117,1.9505719088209301,97.91370208303171,-9.109011,9.530349,-5.0895305,74.262344,-1.9144506,-3.8509758,-23.400084,-5.4548717,-10.564025,32.858376,-10.826518,-0.35008606,-4.3049283,1.4713255,7.3471417,-2.9876034,27.160511,-32.25898,49.009808,0.95807946,4.4941087,-3.1880443,0.02057484,-21.963829,46.31444,54.695545,10.522417,26.766907,3.2298944
227,1.914445161819458,84.03280639648438,76.03780364990234,0.11597914992035195,1.9578559914676414,98.15401723420626,-10.385658,8.984815,-5.915336,75.65124,-3.4132338,-4.544778,-22.501568,-5.209468,-10.969546,32.36158,-11.216488,-0.38881242,-4.0641327,1.7571269,7.314699,-2.6792302,26.970575,-32.91914,49.16084,1.420462,4.5893326,-3.4176445,-0.5385249,-22.46604,46.210743,54.69063,11.255087,26.52669,2.5040925
228,2.0022995471954346,84.68757629394531,76.16041564941406,-0.02173497830629058,1.9219032972933423,98.36218389761935,-11.623206,8.337071,-6.681171,76.85934,-4.5330725,-5.211168,-21.521242,-4.975544,-11.327889,31.777481,-11.569231,-0.39601558,-3.802023,2.00094,7.325063,-2.3475285,26.791285,-33.546192,49.281223,1.860791,4.656765,-3.5888565,-1.0773311,-22.99799,46.051094,54.65385,11.910831,26.33899,1.7700459
229,2.082287311553955,85.33987426757812,76.29112243652344,-0.1135865020175547,1.837780505443929,98.53502306254342,-12.834839,7.5205793,-7.426537,77.890465,-5.13179,-5.856052,-20.450266,-4.7646384,-11.633589,31.099308,-11.88686,-0.36250645,-3.5127218,2.1925359,7.3822994,-1.9966072,26.620327,-34.151257,49.37351,2.2922604,4.685851,-3.684644,-1.6155498,-23.554369,45.853992,54.60833,12.48869,26.20549,1.0257177
230,2.154698610305786,85.98707580566406,76.4219970703125,-0.17113532254653757,1.7167576721875568,98.67468167899258,-13.99438,6.543143,-8.163477,78.71304,-5.482939,-6.5716076,-19.310196,-4.565571,-11.896652,30.33562,-12.165236,-0.30018565,-3.1973093,2.3463929,7.4769144,-1.6375875,26.457174,-34.75149,49.440792,2.7289636,4.6852274,-3.7167697,-2.1708379,-24.13417,45.636833,54.571278,13.0371685,26.096958,0.25040138
231,2.218898057937622,86.63186645507812,76.5572280883789,-0.2116399453577484,1.5590904015605949,98.7868426333035,-15.084968,5.5397778,-8.817791,79.32936,-5.702337,-7.3045034,-18.109623,-4.3614354,-12.125129,29.508724,-12.410714,-0.23137388,-2.8641872,2.4775207,7.6069436,-1.2621264,26.300085,-35.314407,49.486263,3.1339242,4.674576,-3.7123642,-2.7130156,-24.731892,45.36193,54.51398,13.550719,26.03299,-0.5436031
232,2.2758376598358154,87.28998565673828,76.69796752929688,-0.2512839661974699,1.3657655597668874,98.87762377653802,-16.098097,4.649077,-9.316843,79.742676,-5.8991246,-7.993677,-16.85619,-4.1370997,-12.325778,28.636633,-12.626318,-0.17441049,-2.5211449,2.6000113,7.7701797,-0.86231315,26.147667,-35.808254,49.51265,3.4700596,4.673097,-3.698703,-3.225908,-25.340609,45.001987,54.420986,14.037546,26.03254,-1.3443803
233,2.338820219039917,87.95306396484375,76.83647918701172,-0.28370893838850036,1.127807518185051,98.94220463841566,-17.02479,3.881787,-9.641098,79.9375,-6.0394926,-8.65084,-15.542569,-3.8991234,-12.487201,27.72783,-12.815073,-0.12730321,-2.1632936,2.707391,7.9737077,-0.43229213,25.999651,-36.229195,49.51602,3.7387261,4.6865826,-3.6693506,-3.7128227,-25.954412,44.554314,54.305065,14.509514,26.118732,-2.1859143
234,2.4037439823150635,88.60284423828125,76.96675109863281,-0.3040817517397077,0.8478616068835478,98.98017604251525,-17.878786,3.1808581,-9.838997,79.91297,-6.0792413,-9.295516,-14.16631,-3.6533782,-12.609511,26.77135,-12.973533,-0.082214065,-1.7906094,2.7963343,8.214842,0.024849623,25.856318,-36.590996,49.496532,3.957507,4.704887,-3.6141448,-4.1831923,-26.570824,44.03163,54.17892,14.9611225,26.275032,-3.0652246
235,2.4577476978302,89.25022888183594,77.08946228027344,-0.3310392058238878,0.5449989006006566,99.00550714751206,-18.687256,2.5859907,-9.937212,79.69393,-6.1068096,-9.872217,-12.737745,-3.3823223,-12.715435,25.744532,-13.094258,-0.044306163,-1.4171182,2.886931,8.477442,0.5009123,25.717775,-36.891926,49.46363,4.109836,4.722007,-3.555324,-4.6378236,-27.188238,43.43831,54.030582,15.3843775,26.462143,-3.9143188
236,2.5133044719696045,89.91363525390625,77.20619201660156,-0.38316242043264914,0.23827990264939478,99.0320668667454,-19.474413,2.137177,-9.958635,79.30175,-6.2062287,-10.322304,-11.267178,-3.0676737,-12.826039,24.623867,-13.163389,-0.016910309,-1.0573612,2.9989464,8.74546,0.98828614,25.583946,-37.129612,49.425323,4.179262,4.7318206,-3.5149107,-5.0739627,-27.805054,42.776157,53.843678,15.766934,26.642162,-4.663631
237,2.5705196857452393,90.56871795654297,77.31214141845703,-0.4656383986755068,-0.07636746806357521,99.05827693912003,-20.239275,1.8657545,-9.880381,78.730995,-6.429493,-10.617007,-9.740268,-2.6997297,-12.937346,23.386824,-13.170692,0.0032939464,-0.7108071,3.136206,9.022905,1.4902891,25.454464,-37.297516,49.37926,4.1421947,4.7315655,-3.4920857,-5.4885907,-28.41939,42.020706,53.617046,16.076857,26.829334,-5.2808065
238,2.6311938762664795,91.22283172607422,77.40754699707031,-0.5670857118741819,-0.4061684012479015,99.07899104940806,-20.969242,1.7424352,-9.699381,77.970505,-6.7170043,-10.791438,-8.15324,-2.2910223,-13.036329,22.043587,-13.12032,0.022537755,-0.37114942,3.2882657,9.315533,2.0084226,25.329369,-37.400684,49.322113,4.0119767,4.724622,-3.47727,-5.886336,-29.030157,41.179676,53.362366,16.331827,27.038624,-5.8071423
239,2.6826553344726562,91.87590026855469,77.49140930175781,-0.6815500013379246,-0.7365387786639748,99.1022168761648,-21.670835,1.7131827,-9.467073,77.0385,-6.9903355,-10.884561,-6.5348864,-1.8573723,-13.1301985,20.624876,-13.024964,0.04159171,-0.046050463,3.4509842,9.608504,2.5410657,25.208107,-37.44418,49.25515,3.8358157,4.714509,-3.4800372,-6.2695475,-29.637794,40.299427,53.08,16.58569,27.232567,-6.2828584
240,2.7365922927856445,92.5255126953125,77.56617736816406,-0.8033555997026537,-1.0527880884764202,99.13594292569859,-22.350302,1.7236308,-9.234856,75.95198,-7.171075,-10.935333,-4.9154696,-1.4139699,-13.2279215,19.165064,-12.898152,0.058480144,0.25576505,3.6203442,9.887526,3.0860524,25.089872,-37.432243,49.18023,3.660649,4.704855,-3.5100114,-6.6436234,-30.242798,39.430244,52.769966,16.89522,27.372911,-6.748146
241,2.787036180496216,93.19059753417969,77.63155364990234,-0.936504253514315,-1.3600247077116954,99.18352629695815,-23.00144,1.7623385,-9.012315,74.708984,-7.2536197,-10.95434,-3.2638867,-0.9510927,-13.3367195,17.61195,-12.718593,0.07435766,0.52872705,3.79818,10.154878,3.6537638,24.973822,-37.346535,49.0914,3.4971068,4.6944003,-3.5814056,-7.0117626,-30.844576,38.573338,52.437973,17.26409,27.452932,-7.2032266
