unveil-humanoid-operators/unveil-humanoid-operators.github.io/feature-analysis-animation/data/feature_matrix_instances/weight_ankle_peak_vel_jogging_A029_jog_backward_start_002__A029.csv
Frame,root_translateX,root_translateY,root_translateZ,root_rotateX,root_rotateY,root_rotateZ,left_hip_pitch_joint_dof,left_hip_roll_joint_dof,left_hip_yaw_joint_dof,left_knee_joint_dof,left_ankle_pitch_joint_dof,left_ankle_roll_joint_dof,right_hip_pitch_joint_dof,right_hip_roll_joint_dof,right_hip_yaw_joint_dof,right_knee_joint_dof,right_ankle_pitch_joint_dof,right_ankle_roll_joint_dof,waist_yaw_joint_dof,waist_roll_joint_dof,waist_pitch_joint_dof,left_shoulder_pitch_joint_dof,left_shoulder_roll_joint_dof,left_shoulder_yaw_joint_dof,left_elbow_joint_dof,left_wrist_roll_joint_dof,left_wrist_pitch_joint_dof,left_wrist_yaw_joint_dof,right_shoulder_pitch_joint_dof,right_shoulder_roll_joint_dof,right_shoulder_yaw_joint_dof,right_elbow_joint_dof,right_wrist_roll_joint_dof,right_wrist_pitch_joint_dof,right_wrist_yaw_joint_dof
0,0.15826445817947388,2.349393844604492,78.10531616210938,0.18534806829036704,-3.6455493809926254,-94.08820140399537,8.699744,3.7969668,7.4893174,8.264341,-13.156611,-3.8517237,6.95797,-5.9109845,-13.8068285,7.274856,-11.814803,5.659337,-1.2059401,1.2560796,8.632616,1.7506089,13.8982725,-37.09112,52.787334,-3.1137233,5.175882,14.568902,-4.54201,-9.226859,33.12618,63.604733,9.511164,1.749787,-9.483496
1,0.1610623598098755,2.3654839992523193,78.09943389892578,0.217020887384371,-3.679737457439629,-94.14067066349915,8.750925,3.754233,7.554422,8.248217,-13.163409,-3.8187215,6.975278,-5.9522967,-13.736882,7.2846446,-11.851351,5.69642,-1.1592964,1.2328753,8.683558,1.7448264,13.9106865,-37.08151,52.74983,-3.2147238,5.151399,14.580365,-4.577441,-9.225008,33.134262,63.604134,9.499347,1.7354076,-9.572458
2,0.16875497996807098,2.3719940185546875,78.0955581665039,0.252104545492235,-3.717333329438685,-94.19856393186666,8.805296,3.7092557,7.6260424,8.234609,-13.17324,-3.783271,6.9943466,-5.995846,-13.659437,7.295283,-11.890939,5.7355547,-1.1051759,1.2088552,8.736325,1.7322662,13.916259,-37.072765,52.72237,-3.32343,5.125717,14.594834,-4.609757,-9.225395,33.141163,63.601025,9.486451,1.7182002,-9.664522
3,0.1782640963792801,2.382218360900879,78.08965301513672,0.2821206657459965,-3.7475227781098854,-94.24566590235678,8.8524065,3.6689067,7.684426,8.216352,-13.177168,-3.7527332,7.009095,-6.034678,-13.597021,7.304878,-11.924725,5.7705073,-1.0656002,1.1887268,8.782354,1.7208604,13.921534,-37.061398,52.697456,-3.4141455,5.099647,14.603058,-4.6448517,-9.226959,33.15278,63.60062,9.47734,1.7073488,-9.750299
4,0.19752325117588043,2.3963279724121094,78.07980346679688,0.29941310468076415,-3.755347474788909,-94.26369540297915,8.866666,3.6451523,7.70687,8.208491,-13.176939,-3.7349603,7.01272,-6.0578933,-13.574797,7.303609,-11.93893,5.7945247,-1.0535802,1.17799,8.795551,1.7161661,13.92435,-37.056286,52.68586,-3.4572527,5.0729647,14.596527,-4.659807,-9.228065,33.162365,63.592003,9.467479,1.7138257,-9.820972
5,0.20837099850177765,2.4059898853302,78.07958221435547,0.29781394611845385,-3.7285693029611027,-94.23521412935506,8.83404,3.6419988,7.6713214,8.207694,-13.164323,-3.7361052,6.9982176,-6.062019,-13.618126,7.288201,-11.925621,5.805193,-1.0879164,1.176668,8.760625,1.7209281,13.929718,-37.05661,52.69579,-3.4246852,5.0377455,14.562726,-4.6515336,-9.228976,33.1769,63.573547,9.460252,1.7515574,-9.879754
6,0.2048095464706421,2.3970589637756348,78.08403015136719,0.2826524230153993,-3.676501233093585,-94.17317667667623,8.7645235,3.654673,7.5938826,8.2173,-13.145347,-3.7508068,6.9715505,-6.0514736,-13.708603,7.2594857,-11.891002,5.8060694,-1.1599233,1.179543,8.686933,1.7463005,13.9446945,-37.061573,52.7073,-3.3427377,4.9975986,14.510965,-4.6188607,-9.228489,33.205727,63.5417,9.460771,1.8111293,-9.932758
7,0.18749287724494934,2.3625903129577637,78.09479522705078,0.26307649173829156,-3.6220888539713783,-94.10919601260201,8.693242,3.673988,7.5148745,8.225364,-13.126257,-3.7689745,6.942079,-6.0340858,-13.800384,7.2334876,-11.853061,5.800436,-1.2280935,1.1906799,8.613399,1.760697,13.952191,-37.07226,52.726566,-3.254319,4.9666443,14.461296,-4.591235,-9.2270355,33.217056,63.51959,9.4542,1.8675385,-9.965814
8,0.18382775783538818,2.344968318939209,78.10758209228516,0.24571135206269387,-3.5863071996780684,-94.0735463669098,8.646347,3.6934323,7.472987,8.233745,-13.119784,-3.780745,6.9221635,-6.0148773,-13.849441,7.21536,-11.824305,5.7912874,-1.2697612,1.2037843,8.566426,1.7693568,13.961478,-37.090416,52.726215,-3.2209027,4.9593086,14.437472,-4.577172,-9.225244,33.228558,63.510784,9.452762,1.8961817,-9.97809
9,0.1876293271780014,2.345292806625366,78.11748504638672,0.22555947306073734,-3.5774740360503205,-94.08042959137978,8.634671,3.7171466,7.4880905,8.241478,-13.131964,-3.783844,6.909593,-5.989957,-13.82946,7.2194505,-11.81147,5.7702985,-1.2726911,1.2269326,8.565011,1.7624137,13.970274,-37.116386,52.697247,-3.2740872,4.9909673,14.450157,-4.5964427,-9.224567,33.23384,63.529377,9.4541025,1.8842655,-9.953109
10,0.1923428177833557,2.353804349899292,78.11756134033203,0.20305114539128727,-3.583039461044543,-94.11128086041803,8.641124,3.747124,7.535936,8.25063,-13.156041,-3.783379,6.899722,-5.957831,-13.769216,7.2374372,-11.805815,5.7388277,-1.2563741,1.2584673,8.588593,1.7461685,13.976296,-37.143635,52.653152,-3.3737226,5.0499415,14.484455,-4.6337013,-9.2253475,33.234425,63.56408,9.454637,1.8475263,-9.898591
11,0.1983327865600586,2.361227512359619,78.1143798828125,0.18477270404356705,-3.5953828207016554,-94.14923452442733,8.659241,3.771001,7.591469,8.254094,-13.179984,-3.7805927,6.897606,-5.931437,-13.704622,7.25318,-11.804123,5.7150273,-1.211352,1.2864722,8.618673,1.721809,13.989264,-37.20556,52.603565,-3.491365,5.1107883,14.530981,-4.664157,-9.22978,33.216045,63.59662,9.460426,1.8015393,-9.839019
12,0.20774856209754944,2.370795965194702,78.10386657714844,0.18021585678254565,-3.606942732510062,-94.17660150604405,8.67905,3.7766726,7.628812,8.252053,-13.195565,-3.7767584,6.9063687,-5.9238906,-13.672031,7.25593,-11.806059,5.7168074,-1.1792935,1.29523,8.640194,1.7069583,14.000125,-37.238388,52.567097,-3.5411954,5.1462626,14.560513,-4.675524,-9.235851,33.19877,63.609287,9.462514,1.7651327,-9.796636
13,0.20696735382080078,2.369657039642334,78.09400177001953,0.19864299764277354,-3.617324813498341,-94.18929613917444,8.70546,3.750403,7.640462,8.233116,-13.195674,-3.7704675,6.9342437,-5.9484673,-13.691588,7.2338676,-11.814473,5.76505,-1.1679511,1.2722156,8.6438465,1.7058206,14.00423,-37.236046,52.5572,-3.500531,5.136406,14.56931,-4.6675444,-9.238268,33.193233,63.611694,9.47008,1.7348559,-9.784149
14,0.20994754135608673,2.3567657470703125,78.08636474609375,0.2340232105229716,-3.6295089074830416,-94.19665824841715,8.7392,3.702622,7.6404295,8.204274,-13.187951,-3.7617183,6.97747,-5.994645,-13.740462,7.1938963,-11.827417,5.8447347,-1.1593658,1.2289503,8.640516,1.7117723,14.006586,-37.2223,52.557377,-3.4115634,5.1011496,14.570186,-4.64809,-9.23921,33.188557,63.608517,9.482725,1.7041985,-9.786693
15,0.2129703313112259,2.3492443561553955,78.08307647705078,0.26932014038905183,-3.64360563253137,-94.20108346014523,8.776538,3.6549757,7.6354723,8.17296,-13.176108,-3.7534747,7.0213895,-6.041081,-13.790377,7.157565,-11.840267,5.9204106,-1.1610466,1.1825036,8.639906,1.72631,14.009698,-37.182796,52.554047,-3.2925398,5.0687413,14.563764,-4.6220245,-9.239881,33.18791,63.591297,9.48614,1.68407,-9.79116
16,0.21583180129528046,2.3402533531188965,78.07662200927734,0.28488825106381127,-3.6543568376550657,-94.20584030178279,8.798489,3.632118,7.6326036,8.165214,-13.172221,-3.7490647,7.045112,-6.0645266,-13.81219,7.144443,-11.846041,5.956206,-1.1569688,1.1630381,8.637477,1.7301643,14.010382,-37.172874,52.549374,-3.2181613,5.0698824,14.568931,-4.6156173,-9.239941,33.19073,63.591347,9.490298,1.6822772,-9.7865095
17,0.2170860320329666,2.3337910175323486,78.08038330078125,0.2743264731693729,-3.666581884468918,-94.20910514953329,8.811979,3.6434433,7.6311717,8.178083,-13.170504,-3.750329,7.044691,-6.0558653,-13.792734,7.170096,-11.841343,5.9304166,-1.1552685,1.1737126,8.643164,1.7346839,14.010858,-37.16684,52.527134,-3.1519866,5.132456,14.585142,-4.620422,-9.240447,33.19972,63.58808,9.481767,1.7135991,-9.757738
18,0.21965372562408447,2.326780080795288,78.09062194824219,0.24698959586527205,-3.6772572084304564,-94.21133389428066,8.813612,3.6773305,7.629237,8.211793,-13.172452,-3.7555127,7.026463,-6.026739,-13.74794,7.219205,-11.828783,5.8658075,-1.1586145,1.2079327,8.649854,1.7411768,14.011514,-37.168377,52.49146,-3.1001856,5.235054,14.610438,-4.6434746,-9.242305,33.220955,63.594746,9.470574,1.769315,-9.715258
19,0.2218116819858551,2.322558641433716,78.10098266601562,0.2154500937704592,-3.686342379555514,-94.21404595842696,8.811595,3.7161977,7.6282682,8.24956,-13.179682,-3.761046,7.0041347,-5.992739,-13.6979685,7.271592,-11.817795,5.7950544,-1.1711555,1.2491285,8.652926,1.7572211,14.013305,-37.16881,52.450638,-3.0777664,5.3307314,14.636031,-4.6648912,-9.250381,33.264988,63.597145,9.473009,1.8251379,-9.686966
20,0.2219076007604599,2.3192431926727295,78.10791778564453,0.19477441603472992,-3.6937084509958904,-94.21929968852396,8.816147,3.7421021,7.6306834,8.270798,-13.191912,-3.7633977,6.9943867,-5.9693146,-13.661971,7.301622,-11.814958,5.7508593,-1.1696244,1.2754264,8.655355,1.7625462,14.013651,-37.163895,52.43,-3.0869708,5.3758287,14.644992,-4.6672177,-9.254377,33.276356,63.587902,9.465959,1.8575586,-9.692414
21,0.22326228022575378,2.3198697566986084,78.1075439453125,0.18590202258053795,-3.6980298722179796,-94.22901530248656,8.827044,3.752527,7.6379533,8.273227,-13.217391,-3.7610114,7.0002127,-5.9582505,-13.644823,7.3015246,-11.825691,5.74338,-1.161157,1.285405,8.650783,1.767963,14.013407,-37.149567,52.42917,-3.1601348,5.343812,14.634977,-4.6521263,-9.25566,33.273827,63.57436,9.4673605,1.8545681,-9.755881
22,0.22793692350387573,2.314143180847168,78.10369110107422,0.18165503243742107,-3.7001247106469357,-94.24169308573401,8.839747,3.7565107,7.6486616,8.266933,-13.253274,-3.7560549,7.014766,-5.951897,-13.636172,7.2836065,-11.844627,5.7546434,-1.1574792,1.2851458,8.64721,1.7758934,14.012042,-37.100716,52.43886,-3.2643332,5.261944,14.603902,-4.617283,-9.256581,33.26158,63.539116,9.461438,1.8334643,-9.859859
23,0.23260840773582458,2.307314157485962,78.09400939941406,0.18333340874954468,-3.701921578885607,-94.2542906203234,8.855615,3.7533574,7.6602845,8.254487,-13.286174,-3.7502794,7.0326066,-5.952072,-13.632921,7.2607613,-11.865493,5.7753797,-1.151495,1.2809256,8.640803,1.783984,14.010447,-37.062153,52.45128,-3.377864,5.1709723,14.573362,-4.586043,-9.25575,33.24895,63.514084,9.461031,1.8045863,-9.96756
24,0.23456422984600067,2.3068161010742188,78.07906341552734,0.19109374605383495,-3.7062320484111058,-94.26373710749765,8.873288,3.7433486,7.670305,8.241946,-13.302894,-3.7456481,7.0498366,-5.959786,-13.631908,7.245266,-11.882437,5.796102,-1.1545287,1.2714417,8.639849,1.7922808,14.007616,-37.014336,52.457882,-3.4353344,5.1095033,14.54454,-4.564755,-9.253454,33.236885,63.495083,9.447882,1.7836313,-10.041416
25,0.23705130815505981,2.296989679336548,78.07449340820312,0.2086397187993847,-3.7145438621538327,-94.26903622040302,8.895154,3.718198,7.67808,8.228263,-13.295657,-3.741851,7.066133,-5.984303,-13.635532,7.240659,-11.8960285,5.8227057,-1.160138,1.2552829,8.639567,1.8020021,14.003269,-36.984097,52.456825,-3.43726,5.086895,14.528097,-4.5535874,-9.24995,33.230576,63.492054,9.4287405,1.7676526,-10.083234
26,0.23616883158683777,2.28817081451416,78.0727767944336,0.2360899219555889,-3.7251367387755656,-94.27177145222252,8.920691,3.6808202,7.6846924,8.210782,-13.272173,-3.7381546,7.08501,-6.021276,-13.644873,7.2379117,-11.908114,5.8573337,-1.1634065,1.2326297,8.638509,1.810984,13.999305,-36.971966,52.453495,-3.4097583,5.082638,14.518364,-4.542445,-9.247128,33.223476,63.494534,9.405706,1.7513552,-10.109212
27,0.23462346196174622,2.2829551696777344,78.0740737915039,0.2614065650224948,-3.7351276380298057,-94.27312985234684,8.942921,3.648081,7.690852,8.19936,-13.248557,-3.7358494,7.1004577,-6.054382,-13.652984,7.240644,-11.917161,5.885277,-1.1663631,1.2124583,8.63696,1.8161724,13.995489,-36.97107,52.45073,-3.3714404,5.090735,14.513949,-4.536516,-9.244981,33.218346,63.499973,9.387553,1.742938,-10.109636
28,0.23407351970672607,2.275054454803467,78.07968139648438,0.2696301262908978,-3.7422776368848467,-94.27467184638739,8.959243,3.6364274,7.697615,8.193575,-13.234747,-3.736296,7.109315,-6.0668826,-13.653039,7.248094,-11.920287,5.8918295,-1.1699319,1.2045598,8.634529,1.8157628,13.992159,-36.97997,52.450317,-3.3432906,5.10561,14.515243,-4.539049,-9.243582,33.220062,63.50463,9.38604,1.7502236,-10.075618
29,0.2320677936077118,2.2730093002319336,78.0860824584961,0.2508646144306955,-3.744554862927271,-94.27526887844886,8.960848,3.6601696,7.7046647,8.209317,-13.240636,-3.7415173,7.10776,-6.0448546,-13.639783,7.2644105,-11.9121275,5.8612366,-1.1742725,1.2180092,8.625405,1.8030224,13.987478,-37.01944,52.461605,-3.3396754,5.1363053,14.532988,-4.560093,-9.243173,33.24393,63.517136,9.42382,1.7876924,-9.975251
30,0.23331795632839203,2.26670241355896,78.09373474121094,0.21456848601136508,-3.7440913501292905,-94.27476470575678,8.952937,3.7067392,7.7117367,8.238657,-13.256493,-3.7502577,7.0977674,-6.0012016,-13.617823,7.2896085,-11.896058,5.805392,-1.184627,1.2438864,8.61704,1.786502,13.985872,-37.06819,52.470306,-3.3375254,5.182588,14.558131,-4.5972767,-9.245358,33.283035,63.53137,9.483492,1.8477658,-9.82057
31,0.2356327325105667,2.259148120880127,78.0982437133789,0.17761172813528783,-3.7423087222250655,-94.2749955082872,8.944367,3.7554436,7.718832,8.266481,-13.275925,-3.7590256,7.0878253,-5.955172,-13.596504,7.3112516,-11.880471,5.750498,-1.1953266,1.2721285,8.607233,1.7737619,13.985817,-37.11796,52.474632,-3.3417356,5.223716,14.583546,-4.6282625,-9.250184,33.323498,63.540302,9.54376,1.9028159,-9.6802435
32,0.23753519356250763,2.2545931339263916,78.09607696533203,0.15487683984062475,-3.740664583509919,-94.27785470478686,8.942862,3.7842076,7.7263813,8.279758,-13.293914,-3.7642374,7.084384,-5.9272666,-13.5845995,7.319354,-11.875071,5.7229156,-1.2014396,1.2890979,8.597676,1.7700953,13.9864435,-37.148018,52.47209,-3.348781,5.238879,14.596938,-4.6346583,-9.254371,33.34366,63.536396,9.576438,1.9255666,-9.620432
33,0.23478612303733826,2.245959758758545,78.09272003173828,0.15333237672558708,-3.7392836009004258,-94.28448351344072,8.952535,3.7844574,7.734989,8.270701,-13.312667,-3.7642736,7.093112,-5.9250717,-13.588576,7.302179,-11.883851,5.73624,-1.2035843,1.2915304,8.58972,1.7807474,13.986418,-37.144302,52.458633,-3.3529491,5.212198,14.589702,-4.609451,-9.255658,33.33057,63.521946,9.558213,1.8937738,-9.692413
34,0.23405025899410248,2.2423996925354004,78.08482360839844,0.16533772961993004,-3.737292473076811,-94.29373915602287,8.9682455,3.7684793,7.744375,8.247487,-13.333327,-3.7612658,7.108606,-5.937333,-13.60211,7.2677774,-11.900427,5.774245,-1.1999943,1.2854755,8.584292,1.7965043,13.9852915,-37.117554,52.440178,-3.353299,5.1582327,14.567813,-4.5624223,-9.253743,33.285885,63.497402,9.501573,1.8275051,-9.847807
35,0.23437833786010742,2.2415852546691895,78.07540893554688,0.18030791283386274,-3.7364121164684083,-94.30367479912559,8.986857,3.7468832,7.752949,8.219937,-13.349476,-3.7572706,7.1255665,-5.9549656,-13.6161,7.233425,-11.91933,5.8185987,-1.1945268,1.2745492,8.579815,1.8131917,13.982733,-37.083385,52.422493,-3.352836,5.1019316,14.542726,-4.5184712,-9.247904,33.234287,63.47875,9.440337,1.759962,-10.004205
36,0.23790618777275085,2.242098093032837,78.06839752197266,0.1921314178948464,-3.737924121728905,-94.31256196581099,9.001232,3.7308917,7.7589135,8.205303,-13.357923,-3.754309,7.139483,-5.968367,-13.621315,7.2116137,-11.930753,5.8509564,-1.1906312,1.2649014,8.575358,1.8275912,13.980604,-37.062073,52.408077,-3.3595603,5.0680103,14.526961,-4.4937234,-9.243576,33.20621,63.46834,9.415052,1.7246379,-10.079389
37,0.2420036792755127,2.2356960773468018,78.07237243652344,0.20129177392015016,-3.743900183680046,-94.3212109179468,9.013574,3.7200584,7.762374,8.2019615,-13.349671,-3.7520766,7.150466,-5.978278,-13.612501,7.2070923,-11.931748,5.869756,-1.1815954,1.2525691,8.579126,1.8326999,13.977657,-37.04019,52.398373,-3.3527853,5.0687704,14.513212,-4.5005536,-9.2397,33.178364,63.46994,9.414844,1.7387452,-10.01945
38,0.24523396790027618,2.2356045246124268,78.07391357421875,0.20984684261906708,-3.7524965104604573,-94.3298158708297,9.02565,3.7096138,7.763911,8.203593,-13.329556,-3.749687,7.159322,-5.988544,-13.59561,7.2139754,-11.928209,5.883538,-1.1702937,1.2380414,8.584084,1.8357499,13.975082,-37.0259,52.390797,-3.352502,5.088526,14.505214,-4.521803,-9.238377,33.16304,63.476265,9.444328,1.7813973,-9.884089
39,0.24464502930641174,2.2320070266723633,78.0765151977539,0.21589116352857984,-3.7617815492919093,-94.33703576908594,9.036517,3.7028115,7.763562,8.208868,-13.309159,-3.748525,7.1666713,-5.996038,-13.577427,7.226135,-11.92293,5.8898373,-1.1615562,1.2258499,8.591529,1.8367087,13.970744,-37.010056,52.38492,-3.3469617,5.1130586,14.498817,-4.5502763,-9.238296,33.150887,63.484455,9.474384,1.8314016,-9.735332
40,0.24155530333518982,2.2240312099456787,78.07933044433594,0.2161916111055885,-3.7689407406656428,-94.34112534522873,9.044602,3.703129,7.76101,8.216224,-13.299885,-3.750051,7.171859,-5.9968543,-13.565279,7.2384367,-11.919714,5.885827,-1.1581464,1.2173668,8.592354,1.8373005,13.968884,-37.00558,52.385464,-3.3452773,5.1274514,14.497591,-4.561193,-9.238673,33.149563,63.481823,9.493144,1.8668233,-9.645929
41,0.23903164267539978,2.2110955715179443,78.08187866210938,0.2054940876222336,-3.7742785757914517,-94.3402035989923,9.050751,3.715201,7.753842,8.224872,-13.304872,-3.7570422,7.173626,-5.9871225,-13.5609865,7.2548676,-11.919131,5.8625197,-1.166468,1.2166016,8.588559,1.8375045,13.964159,-37.00252,52.394974,-3.3347476,5.127514,14.500779,-4.557291,-9.239566,33.159973,63.467667,9.489735,1.8840858,-9.638602
42,0.23767338693141937,2.202270984649658,78.08229064941406,0.18894437800661953,-3.778539556682034,-94.33541375782697,9.055963,3.7356138,7.742766,8.233679,-13.31694,-3.7678387,7.1718035,-5.96995,-13.560981,7.2774005,-11.919757,5.8241196,-1.1780702,1.2203904,8.582517,1.8363042,13.962764,-37.00644,52.407536,-3.3186307,5.1221237,14.506263,-4.548833,-9.239447,33.171295,63.451927,9.471582,1.8913507,-9.671359
43,0.2437979280948639,2.2024240493774414,78.07640075683594,0.17279433953373521,-3.7812669999248025,-94.33057452022845,9.059636,3.7555835,7.733489,8.242702,-13.332972,-3.7774117,7.170718,-5.9526205,-13.563087,7.2948074,-11.921127,5.787947,-1.1914064,1.2238903,8.575355,1.8340356,13.962083,-37.01283,52.421497,-3.3093257,5.11418,14.514977,-4.5360703,-9.239104,33.18474,63.43307,9.451478,1.8950995,-9.718568
44,0.24383419752120972,2.2019636631011963,78.07695007324219,0.163271463215918,-3.7807603344401177,-94.32914589233032,9.058861,3.767289,7.730886,8.252744,-13.349808,-3.780924,7.1716437,-5.9420905,-13.565623,7.29927,-11.923841,5.771151,-1.2085724,1.2219833,8.556063,1.8318539,13.959473,-37.03517,52.445423,-3.3373086,5.105196,14.53518,-4.505084,-9.237853,33.228516,63.4067,9.458413,1.8976507,-9.767693
45,0.24065035581588745,2.2037577629089355,78.07552337646484,0.16568911309686468,-3.775856292127581,-94.33443057176078,9.059689,3.7624774,7.742174,8.247312,-13.360161,-3.7734804,7.1756206,-5.944766,-13.567335,7.285474,-11.930406,5.7853594,-1.2182282,1.2199949,8.551752,1.8274556,13.958846,-37.04243,52.443172,-3.3793213,5.1042814,14.549947,-4.5090547,-9.237537,33.232124,63.411835,9.455352,1.8933817,-9.766001
46,0.2402767837047577,2.2027060985565186,78.07474517822266,0.1754294456580876,-3.767407661213193,-94.34354905341317,9.058647,3.7494335,7.7619886,8.237376,-13.371293,-3.7592363,7.181145,-5.9536295,-13.5699835,7.258101,-11.938698,5.8186927,-1.227411,1.216431,8.547827,1.8207093,13.958664,-37.05006,52.437218,-3.4433851,5.104549,14.568315,-4.5179586,-9.237445,33.231503,63.425953,9.456169,1.8840508,-9.751542
47,0.23859229683876038,2.1967990398406982,78.07624053955078,0.1879770242094514,-3.7600861092533173,-94.3521233577916,9.061235,3.7324774,7.780884,8.22138,-13.377442,-3.7447164,7.1877413,-5.966252,-13.573073,7.232328,-11.949852,5.8551564,-1.2205011,1.2150325,8.545359,1.800173,13.957747,-37.094425,52.436447,-3.533072,5.1054964,14.595389,-4.537167,-9.236302,33.214294,63.45768,9.461098,1.87099,-9.735505
48,0.24508900940418243,2.1955416202545166,78.06842041015625,0.19610571291720955,-3.759906343156767,-94.35725962581094,9.068309,3.7207193,7.7895775,8.213415,-13.382448,-3.7373781,7.197173,-5.9757643,-13.575445,7.217062,-11.960009,5.877881,-1.2161946,1.2082415,8.544966,1.7900531,13.957431,-37.106388,52.43784,-3.5688426,5.1036625,14.606337,-4.536427,-9.235818,33.2067,63.465008,9.463352,1.8676203,-9.746674
49,0.2406834214925766,2.189652919769287,78.06266784667969,0.2000668479336267,-3.770938407731883,-94.35387338040567,9.085402,3.7138677,7.7793846,8.210333,-13.38153,-3.740812,7.2134795,-5.9829617,-13.581105,7.2162514,-11.9716215,5.880976,-1.2026627,1.1957306,8.547417,1.7823014,13.956349,-37.11701,52.45015,-3.554702,5.09193,14.605199,-4.51793,-9.234128,33.2003,63.4543,9.470001,1.8778174,-9.796169
50,0.2386244684457779,2.1869475841522217,78.05915832519531,0.20410322775154663,-3.7889041661221627,-94.34589856413358,9.108203,3.7090845,7.757843,8.211739,-13.377552,-3.7507303,7.2321324,-5.990279,-13.588342,7.228173,-11.987058,5.873723,-1.1902721,1.1787273,8.550888,1.7823087,13.954878,-37.11167,52.46627,-3.5043147,5.0739517,14.594294,-4.4900064,-9.231925,33.204376,63.434464,9.481637,1.8962047,-9.870734
51,0.24604874849319458,2.177891969680786,78.06107330322266,0.205803357243643,-3.8077346721232006,-94.3385120440466,9.130456,3.7069147,7.7364755,8.216275,-13.373093,-3.7617328,7.2500944,-5.9954405,-13.592286,7.2431226,-11.999134,5.862788,-1.1809763,1.1648259,8.556182,1.7863134,13.953857,-37.101242,52.47534,-3.447227,5.0644226,14.5822315,-4.468074,-9.230437,33.210274,63.418774,9.490162,1.9127288,-9.946726
52,0.24824994802474976,2.1740200519561768,78.06535339355469,0.20513406602117348,-3.822768700700147,-94.33789220749642,9.148746,3.707663,7.727616,8.220426,-13.369857,-3.7685387,7.2639346,-5.996609,-13.587286,7.2561874,-12.0038805,5.8549843,-1.1870879,1.1531408,8.562696,1.7952555,13.949528,-37.064377,52.474724,-3.3905435,5.077619,14.571375,-4.444667,-9.225001,33.228447,63.39539,9.485748,1.9224491,-10.01597
53,0.2508688271045685,2.173339366912842,78.07205200195312,0.20034742583838977,-3.8316427605397263,-94.34800123594766,9.158711,3.7130542,7.7372737,8.227095,-13.367334,-3.7694216,7.2697234,-5.9917703,-13.565183,7.2681336,-11.995135,5.850212,-1.1891726,1.1584351,8.574526,1.8019842,13.945802,-37.03943,52.446743,-3.3566842,5.1370087,14.571038,-4.444295,-9.220851,33.224613,63.393734,9.45404,1.9135971,-10.0686035
54,0.25120821595191956,2.172137975692749,78.07785034179688,0.1935939220551778,-3.837815311172559,-94.3656378063502,9.16419,3.7224464,7.758659,8.236407,-13.364597,-3.767268,7.270153,-5.982354,-13.530542,7.283143,-11.978194,5.8454046,-1.1827052,1.172218,8.591271,1.8026979,13.9409075,-37.020344,52.405605,-3.3290093,5.228818,14.575553,-4.445955,-9.216209,33.199657,63.391754,9.398211,1.8950043,-10.116905
55,0.2514375150203705,2.1700448989868164,78.08270263671875,0.1864277056707371,-3.841481725588597,-94.38251736239872,9.168058,3.7326005,7.78175,8.244532,-13.365261,-3.7638156,7.2708735,-5.971544,-13.499802,7.2917576,-11.959628,5.8430843,-1.1719732,1.1869074,8.604163,1.7968599,13.936505,-37.013355,52.371677,-3.3173144,5.311867,14.58115,-4.447863,-9.212714,33.166634,63.392227,9.3444805,1.8744471,-10.143123
56,0.2574404180049896,2.173114538192749,78.07916259765625,0.179877042233611,-3.8425420678752413,-94.39056461883638,9.171452,3.739988,7.7965245,8.248193,-13.37195,-3.7605813,7.2747803,-5.96353,-13.489113,7.2906322,-11.949577,5.845876,-1.1682124,1.1938889,8.604091,1.7915809,13.933132,-37.016556,52.35908,-3.3313465,5.3467455,14.58691,-4.447358,-9.210274,33.147655,63.394665,9.323097,1.86135,-10.13315
57,0.25293177366256714,2.168741226196289,78.0750961303711,0.17461149138635693,-3.8383862820365975,-94.38500329650226,9.17449,3.7443805,7.8002524,8.243667,-13.390224,-3.7570302,7.2839174,-5.958274,-13.510988,7.271674,-11.951629,5.8583636,-1.1786634,1.1897248,8.584897,1.7845606,13.932479,-37.026104,52.38046,-3.3827488,5.304526,14.588933,-4.450467,-9.209731,33.1472,63.406574,9.346475,1.8593247,-10.057824
58,0.2507801353931427,2.161790609359741,78.06723022460938,0.17061231944019736,-3.8296187327854168,-94.37033253651266,9.174942,3.7472034,7.797523,8.235439,-13.417248,-3.7525065,7.297078,-5.954175,-13.554885,7.237053,-11.958929,5.8780165,-1.194694,1.1801578,8.548538,1.7748094,13.93286,-37.05964,52.4264,-3.475016,5.2117662,14.594551,-4.4541397,-9.209395,33.16167,63.42669,9.40743,1.863096,-9.93573
59,0.24898040294647217,2.1582999229431152,78.05903625488281,0.16868805000696951,-3.821976102162183,-94.35485447409683,9.1762705,3.7487512,7.791963,8.227271,-13.443382,-3.7490087,7.3100624,-5.951569,-13.5996,7.2053137,-11.969837,5.8960576,-1.2109168,1.1672217,8.510401,1.7657636,13.934343,-37.09328,52.478607,-3.567495,5.112407,14.599688,-4.454502,-9.209688,33.181343,63.446087,9.473649,1.8671767,-9.815044
60,0.2522311210632324,2.147554636001587,78.05427551269531,0.16633852200971438,-3.8212809461333554,-94.34628735927348,9.182139,3.7486186,7.787005,8.223136,-13.459039,-3.748333,7.3208046,-5.9514804,-13.624465,7.190223,-11.979755,5.903904,-1.2178897,1.155028,8.486247,1.7653084,13.936548,-37.113464,52.509502,-3.6207545,5.0543056,14.604686,-4.445793,-9.210457,33.19382,63.45273,9.513808,1.8676451,-9.745787
61,0.2547478675842285,2.1424002647399902,78.0478515625,0.16850082139833455,-3.831197897201809,-94.34699607641147,9.195183,3.7445455,7.780345,8.223665,-13.45813,-3.75232,7.3281617,-5.9566164,-13.621042,7.201219,-11.990778,5.8948655,-1.2139524,1.1417943,8.486943,1.7771666,13.938446,-37.097233,52.50929,-3.602073,5.053921,14.603857,-4.428917,-9.211593,33.186802,63.44204,9.506893,1.8612707,-9.741998
62,0.253530889749527,2.13936448097229,78.04888916015625,0.17487098038972462,-3.8481078774872746,-94.35300640603344,9.21358,3.7371323,7.7713804,8.225566,-13.446054,-3.7595267,7.332824,-5.966101,-13.601199,7.2306905,-12.005127,5.8750076,-1.2042131,1.1269174,8.5026,1.7959602,13.938128,-37.05588,52.49454,-3.537595,5.0847993,14.598608,-4.407858,-9.212018,33.16838,63.42243,9.472303,1.8509912,-9.776322
63,0.25031110644340515,2.1431219577789307,78.05339050292969,0.17959734347367073,-3.8666117139509257,-94.36157958144231,9.233286,3.7310624,7.76538,8.228888,-13.431976,-3.766879,7.3380723,-5.9742374,-13.575204,7.261236,-12.01538,5.8549347,-1.1934956,1.1142297,8.523256,1.8144226,13.936551,-37.011456,52.475452,-3.4648674,5.128454,14.592933,-4.388821,-9.211898,33.150047,63.403732,9.429458,1.8418992,-9.83087
64,0.2545727491378784,2.1357581615448,78.06405639648438,0.1795155156494809,-3.881213695038307,-94.37022147430415,9.248628,3.7314951,7.7674675,8.235575,-13.424996,-3.7714133,7.3457885,-5.9747853,-13.55335,7.2791457,-12.016363,5.845019,-1.185205,1.1090393,8.538826,1.8249639,13.93516,-36.987263,52.46206,-3.42383,5.165971,14.591518,-4.3758864,-9.21143,33.140278,63.393982,9.397438,1.8388531,-9.88674
65,0.25573182106018066,2.1350419521331787,78.07058715820312,0.17227855267183426,-3.8930431190932713,-94.38052742292189,9.263037,3.742201,7.784524,8.2435465,-13.424808,-3.7719142,7.35816,-5.9637704,-13.533079,7.2816005,-12.001277,5.8504505,-1.1825008,1.1139493,8.553674,1.8266972,13.934237,-36.977448,52.45042,-3.4118044,5.2033443,14.591214,-4.369758,-9.210643,33.13728,63.390232,9.367227,1.8483385,-9.952578
66,0.2561577558517456,2.137890338897705,78.07404327392578,0.15926838122183393,-3.9049905042744997,-94.39346375132142,9.277207,3.7604702,7.8121676,8.256318,-13.42936,-3.7702484,7.375097,-5.9445343,-13.510489,7.2745814,-11.974273,5.86473,-1.1781394,1.1274158,8.570698,1.8216015,13.933794,-36.98719,52.435513,-3.4222856,5.2501655,14.596132,-4.3624616,-9.208307,33.14055,63.38465,9.338871,1.8670716,-10.040918
67,0.2597644329071045,2.13750958442688,78.0739974975586,0.147647020574448,-3.9112880610296816,-94.40494645207109,9.287178,3.7778234,7.838789,8.265083,-13.43589,-3.7674959,7.3891406,-5.925418,-13.493738,7.261731,-11.947778,5.8814387,-1.171428,1.1403085,8.577048,1.8133289,13.934365,-37.011627,52.42989,-3.4517236,5.283751,14.604125,-4.358187,-9.206055,33.146015,63.39051,9.322303,1.8819535,-10.116774
68,0.26107895374298096,2.133769989013672,78.06975555419922,0.14027911972859722,-3.908581467769455,-94.41151630281057,9.2880945,3.787055,7.853217,8.266878,-13.443714,-3.7649584,7.3947015,-5.914343,-13.490126,7.246726,-11.934182,5.894075,-1.162911,1.1443682,8.56794,1.8068291,13.935509,-37.037327,52.4363,-3.4883356,5.288024,14.611527,-4.3503585,-9.203647,33.148964,63.400074,9.320897,1.8840039,-10.153119
69,0.2623526453971863,2.1323623657226562,78.06336212158203,0.14227473599143514,-3.8882328476236685,-94.40949660202519,9.271751,3.7830982,7.847436,8.256913,-13.456161,-3.7618282,7.38399,-5.916168,-13.510854,7.2285585,-11.942973,5.9029245,-1.1618897,1.1352271,8.53417,1.8092551,13.936851,-37.04768,52.455925,-3.5323215,5.238807,14.613107,-4.345935,-9.201827,33.149746,63.423023,9.337334,1.8643924,-10.12621
70,0.26535680890083313,2.12591552734375,78.0593490600586,0.14930117134623253,-3.8549446263288827,-94.40194456221617,9.24388,3.7709289,7.829437,8.236926,-13.471645,-3.7579007,7.3632784,-5.9253902,-13.548786,7.202667,-11.963301,5.91081,-1.1661634,1.1179267,8.481766,1.8167131,13.938635,-37.050446,52.48573,-3.5878534,5.151928,14.611746,-4.343201,-9.200207,33.152473,63.4554,9.369903,1.8304214,-10.057057
71,0.2619442641735077,2.122825860977173,78.04955291748047,0.15826032165457027,-3.8246445484641574,-94.39461690479504,9.219503,3.7577388,7.810787,8.216659,-13.485326,-3.7548707,7.3430576,-5.9363127,-13.584258,7.1826196,-11.987069,5.9150043,-1.1712874,1.0998794,8.433915,1.8255622,13.93985,-37.04701,52.513844,-3.6313949,5.071,14.609944,-4.342875,-9.199783,33.155617,63.48616,9.403685,1.7978231,-9.978985
72,0.25949206948280334,2.120743989944458,78.04905700683594,0.16211168231255532,-3.8140670335500477,-94.39347916684707,9.213294,3.750668,7.803402,8.207196,-13.493163,-3.7546227,7.336892,-5.942243,-13.5977335,7.174451,-12.001759,5.912815,-1.1700127,1.0886006,8.414361,1.8312291,13.9402485,-37.044197,52.526524,-3.6423092,5.0417604,14.611581,-4.34255,-9.199881,33.156757,63.500805,9.423243,1.7837944,-9.93096
73,0.2579095661640167,2.116668224334717,78.05229949951172,0.16113136952585946,-3.8291588637617786,-94.40113268057945,9.230782,3.7519243,7.812148,8.211777,-13.489748,-3.758807,7.3410716,-5.9432597,-13.576921,7.199136,-12.010308,5.8988514,-1.1679033,1.0817564,8.4227495,1.8426579,13.941829,-37.029266,52.528885,-3.5973618,5.0765924,14.613694,-4.3499155,-9.201113,33.162693,63.510593,9.430696,1.7910427,-9.894242
74,0.25740861892700195,2.117504596710205,78.05948638916016,0.1563454432674273,-3.8647205921092103,-94.4150187224785,9.269206,3.7580628,7.831408,8.222898,-13.478492,-3.766359,7.3606453,-5.940217,-13.534169,7.2346425,-12.010996,5.8759174,-1.160005,1.0808041,8.46345,1.8518789,13.9432,-37.009224,52.51163,-3.5125525,5.1635747,14.617314,-4.3592205,-9.203905,33.1657,63.501045,9.42595,1.8182176,-9.875269
75,0.26466354727745056,2.1150166988372803,78.06405639648438,0.15087056756651177,-3.9026051227317344,-94.4289143884054,9.308321,3.7654958,7.8514256,8.238958,-13.467855,-3.7736013,7.3819957,-5.9363565,-13.489404,7.271804,-12.009445,5.854528,-1.1461295,1.0809878,8.50352,1.8548201,13.943476,-37.002827,52.50199,-3.4338005,5.2564883,14.625253,-4.36232,-9.205523,33.164986,63.489376,9.417142,1.8447928,-9.873945
76,0.2649126648902893,2.1138172149658203,78.0643310546875,0.14832381156897773,-3.9297504675287027,-94.43801436016155,9.338666,3.7693596,7.864572,8.246946,-13.4609785,-3.7769668,7.400134,-5.934667,-13.461318,7.294337,-12.007837,5.84528,-1.142524,1.0805975,8.534294,1.8649278,13.944354,-36.986317,52.484497,-3.3762677,5.324413,14.632761,-4.3616037,-9.21108,33.164677,63.474865,9.401679,1.8581731,-9.894038
77,0.26369160413742065,2.1083459854125977,78.0644302368164,0.14950515576004395,-3.939204518511089,-94.43784778491771,9.351076,3.7675822,7.8646927,8.250785,-13.464693,-3.7737305,7.4144483,-5.9369106,-13.461518,7.2922077,-12.006815,5.8572955,-1.1469752,1.0767729,8.537241,1.869856,13.944477,-36.986595,52.48738,-3.371888,5.3472524,14.646286,-4.356018,-9.211681,33.165386,63.476368,9.387876,1.8471893,-9.94653
78,0.26333948969841003,2.103175401687622,78.05980682373047,0.15338547442265307,-3.9445717488313385,-94.43178621199651,9.361103,3.762608,7.857339,8.250381,-13.473861,-3.7665212,7.435043,-5.9411182,-13.478112,7.272703,-12.003951,5.8831315,-1.1584933,1.0738468,8.531143,1.8837298,13.945479,-36.994583,52.482777,-3.3922524,5.3574243,14.668623,-4.3318715,-9.214361,33.17113,63.47212,9.367195,1.8188882,-10.042639
79,0.26463305950164795,2.1055727005004883,78.05890655517578,0.15618033363497608,-3.941706861299525,-94.4261974385993,9.361134,3.7589307,7.8501086,8.249581,-13.481969,-3.7593236,7.445245,-5.9437795,-13.495484,7.253079,-11.999095,5.907352,-1.1671671,1.070409,8.513774,1.8969338,13.946879,-37.00654,52.483784,-3.4296422,5.3524585,14.689718,-4.3032074,-9.216733,33.176373,63.462917,9.34791,1.7913564,-10.137294
80,0.2652895450592041,2.1048264503479004,78.0577163696289,0.15434196965684982,-3.9344279544969742,-94.42713023646272,9.352749,3.7605145,7.8501,8.251125,-13.482416,-3.7562125,7.440294,-5.9415956,-13.498744,7.244492,-11.990101,5.9149976,-1.1686785,1.0695639,8.497713,1.9047832,13.947469,-37.00771,52.48717,-3.4648004,5.34103,14.699407,-4.294466,-9.218,33.175472,63.46302,9.326935,1.7741559,-10.200531
81,0.2647095024585724,2.1139256954193115,78.05335235595703,0.14931414498021078,-3.920206131366537,-94.43881159279219,9.335831,3.7684627,7.8639684,8.252103,-13.474059,-3.7586865,7.4131165,-5.933397,-13.481399,7.2545943,-11.980756,5.898886,-1.1577197,1.0745946,8.476946,1.915062,13.948644,-37.000984,52.488598,-3.5066261,5.318962,14.692544,-4.285897,-9.222185,33.16684,63.451736,9.297819,1.7725651,-10.239306
82,0.2646430432796478,2.121767044067383,78.05697631835938,0.14156576864736872,-3.8998271322718288,-94.45727260025329,9.309871,3.7807546,7.886388,8.255902,-13.462114,-3.7643957,7.370716,-5.9212165,-13.452051,7.2738214,-11.969524,5.868189,-1.1394682,1.0833654,8.4568,1.9234644,13.949851,-36.9808,52.487614,-3.5505912,5.2859573,14.670528,-4.2831254,-9.229883,33.1473,63.43176,9.258935,1.7809926,-10.258706
83,0.26660698652267456,2.1223442554473877,78.06684875488281,0.13050336494114673,-3.8767340291989165,-94.47524967087996,9.276939,3.7969468,7.905849,8.259981,-13.442268,-3.7719672,7.322509,-5.9048295,-13.419959,7.292087,-11.949298,5.8319874,-1.1198334,1.0913653,8.434126,1.9293604,13.950399,-36.960796,52.489075,-3.5930977,5.2513785,14.653539,-4.288942,-9.236329,33.13331,63.419205,9.229739,1.7912097,-10.256696
84,0.2643027901649475,2.126512289047241,78.07711029052734,0.11623070770406084,-3.851493473221413,-94.48617351188808,9.231056,3.8169785,7.9114947,8.273679,-13.4169655,-3.7798648,7.268235,-5.886411,-13.392561,7.3129516,-11.91945,5.7994943,-1.1119789,1.0982976,8.420899,1.9404966,13.952652,-36.91349,52.473404,-3.5967681,5.2241807,14.645612,-4.300897,-9.26078,33.12343,63.394848,9.205358,1.8023483,-10.215687
85,0.2632145285606384,2.1376571655273438,78.0833511352539,0.09685090002814137,-3.8270337548294164,-94.48842336499935,9.178623,3.8450317,7.9023533,8.292961,-13.388529,-3.788451,7.2183785,-5.859832,-13.372307,7.3241634,-11.873905,5.7725697,-1.1132718,1.1006974,8.402494,1.9535879,13.955417,-36.87282,52.462566,-3.5735493,5.202621,14.666724,-4.3276024,-9.285542,33.13453,63.390396,9.2201395,1.8131868,-10.116209
86,0.2586796283721924,2.156127452850342,78.09278106689453,0.0730892650094864,-3.8011388568855913,-94.48556179479537,9.116714,3.8799314,7.8836036,8.319304,-13.357133,-3.7983375,7.166631,-5.8269267,-13.354806,7.332458,-11.817352,5.746579,-1.1319238,1.1044111,8.38883,1.979727,13.961981,-36.810314,52.433765,-3.5192895,5.183573,14.700651,-4.3575172,-9.331546,33.169228,63.369118,9.261528,1.8299109,-9.966565
87,0.2597714364528656,2.176377773284912,78.1088638305664,0.05185913184749012,-3.772552564313613,-94.477775572982,9.043344,3.9127662,7.852878,8.348278,-13.311058,-3.8090186,7.1069107,-5.7967777,-13.339906,7.342615,-11.751009,5.720553,-1.1497679,1.1050673,8.379615,2.0034688,13.9711685,-36.746357,52.393044,-3.4665618,5.17436,14.74114,-4.385957,-9.387215,33.211937,63.342705,9.300439,1.8386574,-9.82615
88,0.2542104721069336,2.199087619781494,78.1280288696289,0.040060824296252136,-3.7399389068131796,-94.46524381055912,8.954504,3.9346943,7.807494,8.378403,-13.239403,-3.8199944,7.032967,-5.7788267,-13.327775,7.360948,-11.677752,5.6935906,-1.1563658,1.097012,8.374626,2.012276,13.978709,-36.690807,52.34616,-3.4427505,5.182895,14.78132,-4.414689,-9.430693,33.251904,63.329483,9.305962,1.8263321,-9.7556095
89,0.2487579584121704,2.2328696250915527,78.14875793457031,0.046851577096718215,-3.706187987156209,-94.45057728861019,8.854464,3.9367034,7.74773,8.407438,-13.137947,-3.8275218,6.94584,-5.782595,-13.324014,7.393559,-11.60636,5.6664624,-1.1611835,1.0797851,8.382706,2.014459,13.986862,-36.63319,52.276485,-3.4572597,5.2236886,14.818132,-4.43252,-9.477488,33.3002,63.316193,9.2754755,1.7741786,-9.794117
90,0.2427268773317337,2.2745773792266846,78.17005157470703,0.06398848251075717,-3.670901495713315,-94.43288089191665,8.7434635,3.9249668,7.6748896,8.437001,-13.012918,-3.8335276,6.848179,-5.8010893,-13.32665,7.4341774,-11.531628,5.639417,-1.165559,1.0558907,8.401268,2.0127041,13.99645,-36.57276,52.186398,-3.4949646,5.288508,14.855418,-4.4411592,-9.533603,33.35719,63.296658,9.222958,1.6946388,-9.901436
91,0.2317153811454773,2.3168582916259766,78.19770812988281,0.08399793757759628,-3.6274823155256506,-94.40729556463732,8.613066,3.9138374,7.5879,8.466882,-12.867422,-3.8460639,6.734558,-5.819514,-13.323904,7.4770656,-11.440146,5.6106186,-1.1676531,1.0310069,8.42336,2.0082493,14.0089445,-36.502586,52.078804,-3.5357277,5.35095,14.892629,-4.4447784,-9.605383,33.429337,63.253204,9.158634,1.6258051,-10.016093
92,0.21513229608535767,2.3679232597351074,78.22882080078125,0.09237694818100775,-3.5694745120456033,-94.36854703116731,8.45432,3.917885,7.485647,8.499392,-12.706557,-3.8729818,6.598365,-5.8232145,-13.304216,7.517846,-11.3187895,5.578223,-1.1670904,1.0099593,8.441002,2.0026608,14.025694,-36.415237,51.957638,-3.5597143,5.3848205,14.928899,-4.4510846,-9.691729,33.522964,63.17437,9.091902,1.6053674,-10.077161
93,0.19898396730422974,2.4307937622070312,78.26264953613281,0.0885138207421471,-3.493420170720698,-94.31577102645583,8.265317,3.9431787,7.368089,8.533674,-12.534742,-3.9180498,6.438023,-5.8056564,-13.259408,7.5552125,-11.167779,5.5392447,-1.1544019,0.98615044,8.436243,1.9767332,14.038369,-36.331055,51.86426,-3.5632215,5.374732,14.960361,-4.4886384,-9.745566,33.617294,63.116436,9.018449,1.6509303,-10.062254
94,0.18109840154647827,2.5025551319122314,78.30070495605469,0.07455300753146707,-3.4032780148540955,-94.25128231267612,8.050071,3.9827573,7.2353616,8.570034,-12.349037,-3.976951,6.256764,-5.7743654,-13.197627,7.5912347,-10.992549,5.4949665,-1.1701472,0.9706104,8.434994,1.9762596,14.066552,-36.19572,51.72489,-3.5435262,5.338273,14.980274,-4.5208893,-9.843042,33.76905,62.994,8.957588,1.7466861,-10.001115
95,0.157999649643898,2.584087610244751,78.3361587524414,0.05503581926760634,-3.3037175742537417,-94.17503394303102,7.810811,4.0314193,7.0864296,8.609413,-12.141545,-4.045441,6.0561533,-5.734777,-13.132275,7.628457,-10.789787,5.4493937,-1.1713212,0.9579298,8.438086,1.973878,14.101367,-36.052708,51.559975,-3.523796,5.2966704,15.011151,-4.5525827,-9.951744,33.931503,62.845634,8.880403,1.8551962,-9.928674
96,0.1338338553905487,2.671787977218628,78.39070892333984,0.03333375935600828,-3.1996260373090655,-94.08687775520394,7.548811,4.0832963,6.9201393,8.653679,-11.904128,-4.1194434,5.839865,-5.692261,-13.07622,7.663348,-10.5525465,5.4063244,-1.1452917,0.94313693,8.444961,1.9570986,14.126203,-35.906506,51.387436,-3.5157566,5.270121,15.072347,-4.6064887,-10.0329075,34.09746,62.726254,8.76932,1.9389869,-9.882911
97,0.10491970181465149,2.7737855911254883,78.4485855102539,0.013927633190486654,-3.0828645641928327,-93.98494078086027,7.258533,4.1314063,6.735298,8.695066,-11.630247,-4.201222,5.599199,-5.654548,-13.038134,7.6970463,-10.287906,5.3704624,-1.1398678,0.9325395,8.466448,1.9663776,14.164202,-35.710667,51.148346,-3.5073185,5.2763395,15.164741,-4.6528683,-10.166079,34.341305,62.54643,8.649743,2.0094533,-9.859642
98,0.07646172493696213,2.889718532562256,78.5107650756836,-0.0069676836859634056,-2.954236603171485,-93.8698494444399,6.940848,4.1816587,6.5322495,8.736737,-11.326451,-4.292202,5.3379316,-5.615173,-13.010049,7.72514,-9.993218,5.3383255,-1.1142685,0.92278326,8.4887705,1.959874,14.200245,-35.519463,50.89909,-3.5074034,5.299642,15.285686,-4.6993475,-10.306922,34.600044,62.350452,8.50534,2.0754771,-9.845436
99,0.04008132219314575,3.0074777603149414,78.57266998291016,-0.03717807271483652,-2.830640269104175,-93.74555466962946,6.6075387,4.245413,6.3140225,8.792743,-11.002548,-4.385656,5.0676312,-5.561868,-12.978064,7.7593336,-9.660948,5.30138,-1.0734107,0.92546934,8.5362,1.968968,14.23233,-35.28365,50.595596,-3.507965,5.313958,15.416496,-4.748043,-10.456677,34.8702,62.132915,8.341504,2.1212,-9.848102
100,0.008458620868623257,3.1409785747528076,78.6387710571289,-0.08686484700955306,-2.7286814505328696,-93.61553941793447,6.2679677,4.336511,6.0818357,8.882086,-10.670955,-4.4771643,4.800612,-5.4792876,-12.929478,7.808359,-9.281147,5.2501874,-1.0120997,0.95478123,8.631649,2.0166776,14.257746,-34.96763,50.20057,-3.5050201,5.293469,15.539683,-4.798388,-10.61544,35.13454,61.88991,8.159263,2.130424,-9.87502
101,-0.02645791321992874,3.293445348739624,78.71305847167969,-0.16565019133939252,-2.6559333300118726,-93.48248825808456,5.8401237,4.4743457,5.8289223,9.198034,-10.439436,-4.564176,4.5457397,-5.3580947,-12.864915,7.8732944,-8.849959,5.1787267,-0.9282198,1.0173992,8.784426,2.1142304,14.272775,-34.53455,49.697582,-3.492707,5.2271495,15.655392,-4.8505173,-10.783412,35.403496,61.620968,7.936139,2.0906777,-9.945756
102,-0.07997775822877884,3.466608762741089,78.78182220458984,-0.2475025168525324,-2.5910991615244683,-93.34980086738472,5.275373,4.633362,5.558094,9.794744,-10.332645,-4.6484513,3.930447,-5.30928,-12.7494135,8.709862,-8.77183,5.096015,-0.8220233,1.0893619,8.9679,2.2464256,14.27707,-34.009037,49.111744,-3.47407,5.130212,15.771191,-4.9061503,-10.961403,35.68463,61.33098,7.6792912,2.0139985,-10.050968
103,-0.13235342502593994,3.6433067321777344,78.84595489501953,-0.3319909731407078,-2.531009358077205,-93.20573726921036,4.6928954,4.794703,5.2706094,10.406012,-10.199761,-4.736433,3.2758741,-5.259923,-12.617156,9.613764,-8.68102,5.0019712,-0.70341796,1.1726475,9.178378,2.396986,14.272223,-33.45128,48.463562,-3.4577827,5.016214,15.881284,-4.960465,-11.147455,35.95099,61.01359,7.4359717,1.919997,-10.154116
104,-0.19249895215034485,3.8423404693603516,78.91297912597656,-0.41079757717858745,-2.459820332380941,-93.04210507791947,4.078393,4.943846,4.962454,11.020183,-10.0222225,-4.8335786,2.580627,-5.219404,-12.468342,10.545888,-8.5645485,4.9011803,-0.57671535,1.2596639,9.397717,2.5496976,14.26185,-32.92458,47.774666,-3.4534364,4.898926,15.980338,-5.009927,-11.339454,36.1725,60.666794,7.2509584,1.8278563,-10.218506
105,-0.24903607368469238,4.054697036743164,78.98338317871094,-0.47774945132696295,-2.36946957599744,-92.86673121877226,3.4412773,5.076566,4.6415544,11.603789,-9.785645,-4.940877,1.8318001,-5.1916804,-12.308222,11.512396,-8.420541,4.801216,-0.43536934,1.3473388,9.614232,2.709077,14.249271,-32.44213,47.03761,-3.4757526,4.7717133,16.078337,-5.0528145,-11.537571,36.346317,60.28187,7.1367555,1.7401963,-10.226398
106,-0.3151108920574188,4.268009662628174,79.06511688232422,-0.5406758012415332,-2.270096753564339,-92.68057810103234,2.7814264,5.200798,4.3062797,12.180578,-9.505709,-5.0544033,1.0396318,-5.1692314,-12.135888,12.517855,-8.250757,4.6967163,-0.27737722,1.43993,9.840624,2.8816528,14.2353735,-31.974983,46.2418,-3.516909,4.6310105,16.174627,-5.091005,-11.742613,36.482605,59.862015,7.0678215,1.6473552,-10.199724
107,-0.38744649291038513,4.494900226593018,79.14691162109375,-0.5991805582103066,-2.1730103064956134,-92.4666603160137,2.0939233,5.313534,3.9426124,12.775114,-9.189906,-5.172275,0.21674944,-5.151533,-11.938757,13.563813,-8.06287,4.574819,-0.11197374,1.537484,10.095314,3.0553734,14.22021,-31.522408,45.40508,-3.5527246,4.4948215,16.24727,-5.1262054,-11.951999,36.57266,59.422363,7.034696,1.5496377,-10.16104
108,-0.4712042808532715,4.749083518981934,79.22337341308594,-0.6526149794310419,-2.0894353211912176,-92.20800788589824,1.3756866,5.4111624,3.53695,13.407197,-8.84254,-5.2932887,-0.62276,-5.1378846,-11.704216,14.648489,-7.862588,4.4237027,0.053144008,1.6393358,10.395559,3.2153473,14.203255,-31.086628,44.549046,-3.5603006,4.3810644,16.274553,-5.1620193,-12.161614,36.606033,58.982647,7.0263963,1.4471993,-10.133169
109,-0.5582777261734009,5.007165908813477,79.317138671875,-0.7003477856533266,-2.0209966509011092,-91.90079333728359,0.61909837,5.4933124,3.0870242,14.092984,-8.464022,-5.4193997,-1.4771116,-5.126916,-11.435137,15.772665,-7.6423264,4.248641,0.21716033,1.7473083,10.741702,3.3641107,14.184253,-30.676031,43.65975,-3.5665708,4.314196,16.248297,-5.1962557,-12.366144,36.56227,58.547523,7.0502634,1.3406354,-10.114444
110,-0.6624231338500977,5.293772220611572,79.40257263183594,-0.7423817181940412,-1.9621533371714612,-91.55413640567076,-0.17103022,5.55843,2.6003091,14.816528,-8.051042,-5.550785,-2.3519955,-5.1187625,-11.136366,16.932613,-7.398835,4.054901,0.38459477,1.8599445,11.124468,3.506228,14.163796,-30.288124,42.73487,-3.5732377,4.278239,16.181063,-5.2332373,-12.563827,36.45231,58.114838,7.1082325,1.2293258,-10.095845
111,-0.7650699615478516,5.585052490234375,79.4844741821289,-0.7764484318625241,-1.9135171721816269,-91.17083493717655,-0.9764443,5.6001077,2.0783546,15.545851,-7.6024747,-5.6841264,-3.24182,-5.113802,-10.798606,18.113726,-7.1435375,3.8309531,0.5550779,1.9718124,11.547043,3.6319811,14.142073,-29.906353,41.810646,-3.5177786,4.230317,16.08302,-5.281581,-12.755884,36.312572,57.68863,7.1810427,1.1118304,-10.088724
112,-0.8638957738876343,5.890055179595947,79.56536865234375,-0.8002883551712703,-1.8752475975889435,-90.75348385345934,-1.7836052,5.6120124,1.5227569,16.258877,-7.1224675,-5.8160844,-4.1483307,-5.1134114,-10.411805,19.315826,-6.8921757,3.564614,0.7272133,2.0769477,12.01248,3.7321446,14.118729,-29.512255,40.924282,-3.337487,4.127098,15.964492,-5.350872,-12.946211,36.183033,57.272808,7.2511053,0.9866876,-10.1043625
113,-0.9886103868484497,6.209133625030518,79.64839935302734,-0.8154323024907912,-1.8489863548422827,-90.31618969119148,-2.5741296,5.6009693,0.94418,16.933163,-6.6046524,-5.948114,-5.0881934,-5.1079235,-9.952838,20.56414,-6.6428747,3.226564,0.9132099,2.1724727,12.521315,3.8253148,14.091608,-29.090399,40.069176,-2.9826767,3.929394,15.807379,-5.435692,-13.1357765,36.073624,56.867153,7.318801,0.8478504,-10.155031
114,-1.1168320178985596,6.534005165100098,79.72367095947266,-0.8219512746206856,-1.8339809174888078,-89.85298805244939,-3.3611467,5.565708,0.33907425,17.588829,-6.0499725,-6.0817595,-6.0534177,-5.0971746,-9.434919,21.844294,-6.3857336,2.8325255,1.1079469,2.262147,13.071557,3.909918,14.060244,-28.65163,39.232216,-2.4973953,3.6678314,15.614226,-5.5343914,-13.323882,35.96761,56.46966,7.3939056,0.69800675,-10.2316265
115,-1.2404719591140747,6.876222610473633,79.79457092285156,-0.8142538354405073,-1.827416158870207,-89.33677910255096,-4.1706414,5.4870524,-0.31115788,18.252247,-5.4680805,-6.213916,-7.0081515,-5.0984116,-8.901365,23.096365,-6.1245666,2.438242,1.2856252,2.3493881,13.663346,3.9453475,14.027873,-28.218815,38.439613,-1.9593974,3.40439,15.425237,-5.6561427,-13.513114,35.860016,56.075966,7.4689875,0.5494548,-10.312978
116,-1.3597580194473267,7.226954460144043,79.85404968261719,-0.788493783417611,-1.826583445581361,-88.74043754258909,-5.0374403,5.345597,-1.025414,18.969479,-4.8757915,-6.3410707,-7.9181013,-5.1298976,-8.393424,24.264433,-5.866136,2.1003199,1.4206885,2.4379804,14.297785,3.892291,13.999817,-27.815737,37.71471,-1.4459248,3.2025638,15.27849,-5.8092623,-13.708353,35.74658,55.67831,7.538908,0.41472432,-10.3776045
117,-1.5129395723342896,7.584315299987793,79.8996810913086,-0.7404400282297972,-1.831891917306139,-88.06287075303679,-5.967377,5.139132,-1.7989383,19.743515,-4.2603664,-6.4511757,-8.791955,-5.187985,-7.8892846,25.336979,-5.597689,1.7979192,1.5200597,2.5267837,14.992276,3.7362242,13.976287,-27.437645,37.06356,-0.96780586,3.0850203,15.173025,-5.993664,-13.9111395,35.61062,55.27107,7.609243,0.30152127,-10.42087
118,-1.6629817485809326,7.964142322540283,79.94062042236328,-0.6759096011999431,-1.8449744362116738,-87.31676428460618,-6.9444017,4.873619,-2.622321,20.560621,-3.6219492,-6.5495152,-9.64401,-5.2655473,-7.375492,26.346914,-5.322077,1.5151713,1.5952841,2.6138358,15.740759,3.4980407,13.956956,-27.078455,36.47421,-0.48735845,3.0166757,15.0911455,-6.2034593,-14.122273,35.45847,54.855663,7.680684,0.20222817,-10.453156
119,-1.8225157260894775,8.3701810836792,79.96858215332031,-0.5943241299331393,-1.8666168353389876,-86.49594893728288,-7.960099,4.54097,-3.5057566,21.423817,-2.987532,-6.659532,-10.448064,-5.378721,-6.902831,27.304522,-5.069583,1.3154262,1.6276232,2.7005107,16.511269,3.1946716,13.948647,-26.760632,35.936924,-0.009186653,2.9757452,15.043965,-6.4332023,-14.346414,35.320007,54.427803,7.7411923,0.10641315,-10.475606
120,-1.98765230178833,8.821762084960938,79.96515655517578,-0.5011215310717625,-1.8974798993771034,-85.59385435475828,-9.005927,4.1331267,-4.4597874,22.336733,-2.3847835,-6.806181,-11.180315,-5.5459094,-6.5209312,28.225197,-4.8741894,1.2602849,1.5987304,2.7857132,17.274027,2.8476539,13.9626,-26.506634,35.43378,0.46117535,2.9409602,15.042747,-6.674194,-14.591261,35.224262,53.976532,7.779009,0.0040280665,-10.488873
121,-2.169928789138794,9.245122909545898,79.94410705566406,-0.38604123591221307,-1.9371117282520331,-84.58168049763995,-10.105472,3.627416,-5.4971466,23.315182,-1.762254,-6.995261,-11.832133,-5.7834578,-6.214783,29.098244,-4.7183876,1.3874372,1.481783,2.8464267,18.040447,2.4650836,14.005187,-26.309683,34.96102,0.9306544,2.9174979,15.104819,-6.917777,-14.862136,35.18638,53.465286,7.818986,-0.10062022,-10.48252
122,-2.3704116344451904,9.65576171875,79.89556121826172,-0.2520749964229342,-1.9867376135052348,-83.47200816235429,-11.25346,3.0288565,-6.605056,24.360756,-1.1293112,-7.2168074,-12.4217415,-6.0818853,-5.963675,29.930403,-4.5986533,1.6556954,1.2950482,2.8836844,18.823675,2.0412774,14.077403,-26.163149,34.515144,1.3971366,2.9148052,15.217843,-7.164819,-15.161079,35.188858,52.897984,7.859395,-0.20393322,-10.458656
123,-2.573289632797241,10.06643009185791,79.81802368164062,-0.11665924616408088,-2.048652099676854,-82.32127396528021,-12.401457,2.3729916,-7.7577796,25.462082,-0.60901386,-7.4730067,-12.965633,-6.422761,-5.8101106,30.764734,-4.573306,2.0066586,1.0884176,2.9345953,19.597427,1.5787358,14.183484,-26.092396,34.076252,1.8405828,2.917611,15.348064,-7.418706,-15.49161,35.20991,52.321953,7.8481584,-0.31695732,-10.437174
124,-2.7755260467529297,10.479535102844238,79.68563079833984,0.0019263704982805353,-2.123870432250656,-81.1851070979199,-13.504385,1.6970843,-8.930997,26.609816,-0.32597998,-7.7654576,-13.484308,-6.7894845,-5.7977266,31.655224,-4.7009053,2.3813922,0.9114984,3.0395756,20.336449,1.0825377,14.329929,-26.123827,33.619694,2.2397418,2.9101775,15.462767,-7.6774526,-15.857657,35.224487,51.778553,7.73208,-0.4507169,-10.437559
125,-2.9986143112182617,10.874903678894043,79.5162353515625,0.09209024615544345,-2.201401474875702,-80.03480633510395,-14.586818,0.976855,-10.215548,27.755814,-0.27011606,-8.088408,-13.968214,-7.198943,-5.9910874,32.590385,-4.9739013,2.8063858,0.7776625,3.231029,21.040503,0.50556356,14.522324,-26.3095,33.15819,2.5604782,2.8889666,15.562915,-7.9102902,-16.267298,35.20449,51.235703,7.4737463,-0.62124085,-10.480376
126,-3.211859703063965,11.252803802490234,79.30072784423828,0.16854786032705302,-2.283612639607122,-78.85500723154004,-15.658897,0.20088062,-11.589169,28.926096,-0.39654875,-8.446061,-14.414608,-7.6589103,-6.351106,33.563164,-5.373379,3.2965598,0.66421306,3.4815652,21.724731,-0.1366707,14.760315,-26.627941,32.687622,2.820071,2.8621192,15.663079,-8.113218,-16.725538,35.161694,50.667202,7.1077533,-0.81737787,-10.549535
127,-3.4281420707702637,11.618537902832031,79.05860900878906,0.2387234105215836,-2.389213281982542,-77.72066025916718,-16.668089,-0.568392,-12.859001,30.235968,-0.7767634,-8.848449,-14.848545,-8.13912,-6.765585,34.619083,-5.9387555,3.777779,0.55903983,3.7415514,22.38448,-0.7396935,15.0411005,-26.986265,32.15694,3.076323,2.8308039,15.750578,-8.339623,-17.22863,35.143227,50.13976,6.6916814,-1.0101725,-10.610854
128,-3.6497802734375,11.973140716552734,78.76624298095703,0.316880191381968,-2.5368978691210082,-76.70627377798726,-17.568552,-1.2610312,-13.834038,31.796967,-1.4835156,-9.3015585,-15.296211,-8.608902,-7.1236987,35.801983,-6.711655,4.176464,0.44466245,3.9595783,23.012167,-1.194318,15.362522,-27.283728,31.515793,3.3898032,2.7963758,15.8125515,-8.656221,-17.764458,35.20524,49.73502,6.2838736,-1.1720561,-10.630886
129,-3.860574245452881,12.310561180114746,78.40957641601562,0.4116181453195162,-2.723596194286464,-75.80689073667507,-18.338144,-1.8751934,-14.503937,33.55438,-2.559516,-9.932489,-15.748272,-9.07926,-7.4328823,37.107597,-7.745804,4.4747686,0.30211455,4.115995,23.59057,-1.4753708,15.723448,-27.48331,30.746542,3.7830951,2.779006,15.833565,-9.095856,-18.321024,35.391167,49.494152,5.8796687,-1.3123469,-10.571899
130,-4.054515838623047,12.637239456176758,78.00414276123047,0.513487588298278,-2.9405440099413416,-74.98996829802817,-19.026484,-2.4283514,-14.949043,35.497387,-3.9682808,-10.686312,-16.198997,-9.5634575,-7.739671,38.522373,-9.0097275,4.712452,0.1343282,4.2362084,24.1255,-1.6319435,16.126469,-27.627134,29.874914,4.225104,2.7706928,15.823597,-9.641512,-18.890848,35.675907,49.3912,5.4552083,-1.4423347,-10.464393
131,-4.236331939697266,12.95043659210205,77.55245971679688,0.609945896007353,-3.1980322583595444,-74.28889618628628,-19.687714,-2.8682978,-15.122573,37.77914,-5.643261,-11.293423,-16.674667,-10.0245695,-7.983994,40.055664,-10.400037,4.90736,-0.038779117,4.3398757,24.643518,-1.666513,16.577034,-27.737175,28.91591,4.6953654,2.731247,15.808538,-10.283385,-19.466198,36.01013,49.405266,5.042282,-1.5373665,-10.375791
132,-4.411325931549072,13.248303413391113,77.06297302246094,0.6814687979228888,-3.507028031956027,-73.73773990178847,-20.359903,-3.1398427,-15.000065,40.531277,-7.5090737,-11.489834,-17.200361,-10.421235,-8.110974,41.717484,-11.816772,5.0746937,-0.19772589,4.4492383,25.172739,-1.5795145,17.083088,-27.83518,27.882181,5.1722374,2.6208262,15.814198,-11.010208,-20.040155,36.345795,49.517426,4.671376,-1.5720265,-10.372064
133,-4.555436611175537,13.5557222366333,76.52519989013672,0.7328123278741888,-3.8843943840488437,-73.35875858088284,-21.048233,-3.214196,-14.5610285,43.842426,-9.696829,-11.103554,-17.801441,-10.748251,-8.103173,43.581036,-13.274669,5.2019787,-0.33246446,4.5664225,25.73139,-1.3641213,17.649876,-27.920341,26.745695,5.6595855,2.4278948,15.864757,-11.866746,-20.610521,36.736313,49.800316,4.2824087,-1.522942,-10.469445
134,-4.6914801597595215,13.848093032836914,75.93824005126953,0.7640068320162455,-4.321144634318012,-73.13125699743074,-21.705074,-3.0947206,-13.872333,47.576252,-12.183613,-10.30915,-18.453987,-11.011539,-7.992312,45.61259,-14.812731,5.285592,-0.45518214,4.685635,26.304153,-1.0150684,18.279757,-27.97811,25.50185,6.164493,2.1748178,15.941394,-12.8490925,-21.174728,37.188534,50.242382,3.8810651,-1.4083321,-10.632129
135,-4.830310344696045,14.1422119140625,75.31749725341797,0.755521192980788,-4.788864553060452,-73.02539398273055,-22.282036,-2.7690802,-13.042732,51.5198,-14.658939,-9.356704,-19.11182,-11.180773,-7.795983,47.665737,-16.364729,5.3563466,-0.57687867,4.8189135,26.867977,-0.53635067,18.976326,-28.013288,24.19783,6.669306,1.8734527,16.006712,-13.867654,-21.726576,37.583256,50.69862,3.5965588,-1.2650794,-10.847081
136,-4.928020477294922,14.428353309631348,74.66899871826172,0.6885886392221267,-5.258804809816899,-73.01011473412716,-22.743355,-2.2205412,-12.158973,55.483383,-16.815866,-8.486321,-19.728987,-11.228012,-7.5357327,49.593815,-17.863188,5.445313,-0.70375836,4.9772177,27.398022,0.06309121,19.743526,-28.036837,22.885612,7.1538334,1.5341119,16.02378,-14.826041,-22.260895,37.793114,51.024147,3.5534792,-1.1318836,-11.101576
137,-5.010948181152344,14.707221031188965,74.0085220336914,0.5427736221332597,-5.751580566856953,-73.0951746249804,-23.091684,-1.322696,-11.142686,59.55228,-18.567482,-7.718799,-20.267744,-11.108036,-7.1989055,51.373783,-19.341906,5.574902,-0.8286622,5.189195,27.914974,0.7920105,20.582487,-28.025284,21.569603,7.6100683,1.1374753,15.960934,-15.728072,-22.775959,37.799885,51.27083,3.7620907,-0.9996912,-11.454465
138,-5.077833652496338,14.9840087890625,73.34577941894531,0.3333800861833868,-6.274464896587255,-73.29083101891727,-23.325397,-0.07331713,-10.012428,63.781,-20.094461,-6.9025617,-20.759525,-10.836866,-6.7905464,53.078403,-20.818262,5.7244387,-0.95013934,5.441874,28.423937,1.6579276,21.494062,-27.97429,20.221262,8.046897,0.6834435,15.846342,-16.61783,-23.273417,37.66642,51.492085,4.160781,-0.85765755,-11.892001
139,-5.1387224197387695,15.269787788391113,72.6864013671875,0.09937475758107073,-6.777058931452581,-73.56618761302661,-23.419403,1.3297791,-8.964434,67.949036,-21.493248,-6.0324183,-21.265045,-10.48654,-6.355953,54.70996,-22.20198,5.861436,-1.0822341,5.6815777,28.876532,2.6526568,22.482569,-27.924606,18.834906,8.469086,0.21558145,15.732435,-17.460007,-23.755808,37.390213,51.547577,4.772376,-0.7432771,-12.293795
140,-5.180584907531738,15.554325103759766,72.04469299316406,-0.11912499650710807,-7.208918103120688,-73.8907948675702,-23.361443,2.641483,-8.165177,71.83844,-22.847837,-5.1363854,-21.842794,-10.136071,-5.934179,56.262455,-23.401745,5.9552393,-1.2326666,5.85195,29.22267,3.7601743,23.55425,-27.924307,17.411459,8.881168,-0.22244455,15.672106,-18.208317,-24.229452,36.955997,51.28856,5.61508,-0.6916292,-12.539006
141,-5.2003374099731445,15.831780433654785,71.44305419921875,-0.3285797203921335,-7.5401500709598,-74.26697992771743,-23.177809,3.8493564,-7.6039047,75.46081,-24.222567,-4.1526475,-22.528362,-9.789904,-5.549337,57.747517,-24.405092,5.980424,-1.409121,5.9454293,29.433134,4.9800053,24.719152,-27.990898,15.968177,9.249808,-0.65152776,15.720788,-18.847866,-24.695835,36.28145,50.691757,6.823175,-0.74337804,-12.5642185
142,-5.189456939697266,16.104732513427734,70.88822937011719,-0.5429572404263708,-7.804307469004815,-74.70796180303864,-22.870197,5.0347753,-7.189775,78.917946,-25.557707,-3.1073344,-23.281878,-9.414122,-5.1735935,59.159584,-25.253296,5.9617004,-1.599127,5.9861856,29.54027,6.32572,25.979935,-28.090282,14.49294,9.582072,-1.0831753,15.837278,-19.391907,-25.15917,35.38906,49.822292,8.341569,-0.863838,-12.4423895
143,-5.150341510772705,16.38958168029785,70.38251495361328,-0.7259182318630248,-8.04357621963692,-75.19864828420793,-22.403458,6.0613437,-6.934801,82.13337,-26.733473,-2.1820867,-24.052462,-9.041664,-4.7674747,60.476295,-25.938595,5.9443707,-1.7851362,5.961779,29.584707,7.803782,27.32734,-28.187704,12.945035,9.94647,-1.4595562,15.927547,-19.842312,-25.635962,34.433678,48.663784,9.910883,-0.97379774,-12.257425
144,-5.097969055175781,16.68324851989746,69.91841125488281,-0.8405868422263055,-8.299579008500702,-75.7239903240731,-21.745811,6.7933025,-6.8406305,85.03064,-27.62291,-1.5584598,-24.789236,-8.705123,-4.290565,61.676487,-26.454443,5.973107,-1.9525391,5.861895,29.607168,9.415923,28.744122,-28.246416,11.289395,10.413296,-1.7242408,15.897012,-20.199057,-26.149546,33.574127,47.188316,11.273629,-0.998466,-12.096126
145,-5.021190166473389,16.99313735961914,69.50821685791016,-0.8491628109308165,-8.586959366078712,-76.32877641945072,-20.854485,7.124079,-6.8937254,87.60088,-28.190046,-1.3157849,-25.516672,-8.412,-3.6785638,62.799496,-26.788006,6.0601068,-2.064267,5.675209,29.627808,11.158265,30.215881,-28.211006,9.515499,11.128497,-1.8567504,15.647222,-20.478693,-26.71856,32.81097,45.348087,12.527707,-0.9194919,-11.955332
146,-4.932976722717285,17.315792083740234,69.15570831298828,-0.777850008489161,-8.880731035623405,-77.00577268827607,-19.764229,7.1285677,-7.0646205,89.89258,-28.490894,-1.3611673,-26.245972,-8.146316,-2.9685783,63.839516,-26.946388,6.1830626,-2.1423078,5.4135437,29.621819,13.027189,31.738413,-28.102276,7.6546645,12.017869,-1.8952737,15.249059,-20.652235,-27.347887,32.071198,43.136616,13.758899,-0.7713576,-11.799625
147,-4.803406238555908,17.67009735107422,68.85305786132812,-0.6874087994374896,-9.16321205214389,-77.66084061673122,-18.562218,6.9474626,-7.3346753,91.91219,-28.532074,-1.6176877,-26.90845,-7.906818,-2.270384,64.706955,-26.952047,6.3331695,-2.2564716,5.104104,29.56109,15.017009,33.311527,-28.002342,5.7386403,12.821569,-1.8670628,14.862844,-20.659237,-28.039188,31.402176,40.587666,14.698691,-0.56518966,-11.667853
148,-4.677295684814453,18.01287841796875,68.60490417480469,-0.6408457066852754,-9.417939856078611,-78.19950926316753,-17.336403,6.7281065,-7.690866,93.66413,-28.321802,-2.0048492,-27.43586,-7.6958203,-1.6937686,65.31084,-26.827135,6.4997945,-2.4796722,4.774724,29.4194,17.130878,34.9375,-27.983057,3.7928815,13.282322,-1.7920375,14.6496315,-20.442442,-28.788143,30.848253,37.73081,15.076151,-0.31504887,-11.596625
149,-4.542621612548828,18.340309143066406,68.44172668457031,-0.6546699287835607,-9.654742340778707,-78.58847867633715,-16.076483,6.413596,-8.193372,95.15802,-27.793629,-2.536448,-27.804365,-7.525739,-1.268451,65.64706,-26.575525,6.689656,-2.8661757,4.426445,29.192692,19.395266,36.634098,-28.081696,1.8407687,13.242281,-1.6487525,14.700854,-20.037436,-29.599463,30.487066,34.528378,14.590354,-0.009859054,-11.666221
150,-4.397648334503174,18.701807022094727,68.33535766601562,-0.6952971283357429,-9.878864351049826,-78.88054006570351,-14.7446785,5.944766,-8.825683,96.39192,-26.966518,-3.2574544,-28.054743,-7.3977346,-0.93000245,65.75836,-26.18706,6.903756,-3.3646064,4.0439205,28.898518,21.828941,38.40771,-28.21692,-0.1548676,12.870862,-1.4334103,14.916372,-19.436987,-30.475733,30.247738,30.945759,13.461475,0.35576415,-11.824768
151,-4.246138572692871,19.074907302856445,68.30317687988281,-0.7510242072869402,-10.066343412729948,-79.10832557438627,-13.392507,5.4726815,-9.463481,97.34843,-25.973368,-4.12344,-28.215134,-7.300268,-0.64827126,65.62078,-25.661312,7.1211214,-3.8881009,3.6345022,28.541882,24.416746,40.23802,-28.287798,-2.2483256,12.403515,-1.1891105,15.170986,-18.52376,-31.404955,29.946417,27.023294,12.202003,0.7530777,-11.913693
152,-4.086143493652344,19.45286750793457,68.33772277832031,-0.8098774725280794,-10.193332744468576,-79.30449253431385,-12.079436,5.152651,-9.982762,98.01001,-24.942844,-5.081624,-28.314222,-7.219177,-0.39514056,65.21087,-24.99711,7.319809,-4.3447013,3.2147126,28.123724,27.107998,42.087177,-28.222696,-4.463068,12.078061,-0.95620114,15.337744,-17.1681,-32.36619,29.387062,22.804111,11.319288,1.144385,-11.785006
153,-3.8907833099365234,19.839323043823242,68.45084381103516,-0.8919586410457792,-10.240122019457411,-79.46090316753299,-10.822566,5.0561976,-10.364571,98.36002,-23.761763,-6.2457595,-28.35623,-7.1400294,-0.19777668,64.51187,-24.218397,7.4744377,-4.722958,2.8214474,27.603563,29.860035,43.941574,-28.046648,-6.7642417,12.01333,-0.75488347,15.347933,-15.303583,-33.351887,28.513517,18.222784,11.001779,1.5194753,-11.385674
154,-3.7121150493621826,20.25202751159668,68.63677978515625,-1.00023612415215,-10.22321621669252,-79.56512649124738,-9.596678,5.075067,-10.676755,98.415375,-22.409325,-7.604276,-28.327282,-7.0753636,-0.05908308,63.539093,-23.31704,7.6013403,-5.058643,2.4502919,27.000622,32.681675,45.804085,-27.791443,-9.121983,12.070855,-0.56124854,15.279572,-12.943214,-34.36271,27.369846,13.232396,10.956679,1.8966348,-10.807194
155,-3.54959774017334,20.673341751098633,68.8961410522461,-1.0862754799015102,-10.173732562090894,-79.64440720242892,-8.405805,5.114784,-10.917527,98.20796,-21.148853,-8.900004,-28.228132,-7.0480914,0.084025376,62.317127,-22.244307,7.7414966,-5.329739,2.0637054,26.40016,35.57831,47.650673,-27.416025,-11.548781,12.102243,-0.34783265,15.225597,-10.082646,-35.37783,25.919096,7.9241505,10.975082,2.2739947,-10.12565
156,-3.3602397441864014,21.139501571655273,69.21530151367188,-1.1071260145168003,-10.122436010552821,-79.72625270681728,-7.2560325,5.1037593,-11.078455,97.76682,-20.240623,-9.863352,-28.059381,-7.0781407,0.2944328,60.869797,-20.950499,7.93608,-5.521777,1.6280099,25.878078,38.547215,49.439445,-26.88871,-14.039384,11.959258,-0.087482475,15.28183,-6.746419,-36.35725,24.151255,2.4297423,10.850361,2.6417146,-9.414734
157,-3.147789478302002,21.63306999206543,69.6021728515625,-1.0370116269591059,-10.086713920442845,-79.82210372660916,-6.1190352,5.0626535,-11.108243,97.0751,-19.8613,-10.301143,-27.817865,-7.1672688,0.61483186,59.21712,-19.461437,8.2126,-5.64512,1.1204057,25.440155,41.62286,51.13508,-26.213516,-16.599813,11.596483,0.2554665,15.514989,-2.9174435,-37.247635,22.063416,-3.2305374,10.433093,3.024511,-8.661767
158,-2.933270215988159,22.168231964111328,70.05003356933594,-0.9058624484799458,-10.046083183884054,-79.91560918110234,-5.009968,5.0393043,-11.02503,96.127,-19.830547,-10.378822,-27.503872,-7.2997823,1.0035641,57.340843,-17.790556,8.543706,-5.728714,0.5843684,25.037863,44.77226,52.718124,-25.427225,-19.186735,11.093455,0.6520655,15.865442,1.3829515,-37.997543,19.695751,-9.075795,9.873664,3.399789,-7.8477955
159,-2.7112598419189453,22.744831085205078,70.55884552001953,-0.7595706590993958,-9.974678192423331,-79.99261213691463,-4.0014496,5.011131,-10.922682,94.97047,-19.875126,-10.36015,-27.126867,-7.4659376,1.3973372,55.209976,-15.869457,8.889263,-5.7962885,0.08365661,24.64978,47.87872,54.16166,-24.574366,-21.704573,10.488997,1.0341597,16.24348,6.0002904,-38.5585,17.165264,-14.962391,9.417157,3.6890662,-7.039228
160,-2.478987216949463,23.35462188720703,71.12430572509766,-0.6431138251875825,-9.846551097155931,-80.03822230207801,-3.1623585,4.9559865,-10.897098,93.650276,-19.725216,-10.514097,-26.695366,-7.6540284,1.7315005,52.789593,-13.628095,9.209991,-5.8809094,-0.3307609,24.245438,50.816715,55.432835,-23.715754,-24.046524,9.827843,1.3372658,16.556519,10.712144,-38.89209,14.641524,-20.691904,9.30041,3.8275776,-6.3017945
161,-2.2335073947906494,23.996074676513672,71.74352264404297,-0.5850303130054402,-9.65176085541154,-80.06132642330155,-2.4753687,4.9028544,-10.968904,92.11219,-19.373972,-10.989146,-26.20132,-7.8104215,2.0196092,50.037918,-11.060882,9.530307,-6.0110965,-0.6463766,23.791168,53.570477,56.498856,-22.9253,-26.173838,9.047177,1.5691009,16.800274,15.437819,-38.967274,12.255213,-26.16435,9.706664,3.7800417,-5.6271873
162,-1.9893311262130737,24.680072784423828,72.4090347290039,-0.5536021272597852,-9.405232753853507,-80.06607878336351,-1.9127935,4.8616166,-11.096883,90.35478,-18.951971,-11.611111,-25.64365,-7.943799,2.2858686,46.9869,-8.2027025,9.861605,-6.208385,-0.91661036,23.274656,56.165047,57.33768,-22.221308,-28.090534,8.161627,1.7590665,17.017944,20.057856,-38.77029,10.09169,-31.321774,10.440774,3.602303,-4.9810824
163,-1.7251110076904297,25.408851623535156,73.11536407470703,-0.5089925958621329,-9.117638402868486,-80.03083959483891,-1.5265746,4.7761793,-11.284792,88.49993,-18.393843,-12.174091,-25.052816,-8.135971,2.4808946,43.72467,-5.0388637,10.145809,-6.4811716,-1.1998397,22.707672,58.54389,57.94143,-21.569546,-29.772161,7.3447113,1.8801063,17.180567,24.29472,-38.323544,8.237722,-36.02735,11.1664915,3.3685985,-4.3756056
164,-1.4677462577819824,26.18015480041504,73.83763122558594,-0.407012782673801,-8.80064626942121,-79.93515248351564,-1.3689044,4.585017,-11.5332,86.67007,-17.628872,-12.479515,-24.47218,-8.472696,2.551318,40.35263,-1.5590553,10.321141,-6.8257008,-1.5491542,22.114561,60.65281,58.311897,-20.922318,-31.207987,6.7667646,1.9041966,17.255465,27.93142,-37.67645,6.727811,-40.187115,11.558338,3.1480308,-3.826321
165,-1.1992523670196533,27.001022338867188,74.58597564697266,-0.22954300719908174,-8.442855661476191,-79.72467277697105,-1.516643,4.21757,-11.898472,84.903915,-16.563261,-12.433232,-23.887762,-9.045435,2.4547474,36.79994,2.3956902,10.331409,-7.2807446,-1.9991952,21.495243,62.525562,58.44333,-20.25222,-32.432716,6.4745417,1.8006809,17.192062,31.047625,-36.870213,5.521235,-43.826363,11.549398,2.9364522,-3.3321064
166,-0.9234161376953125,27.864032745361328,75.31379699707031,-0.005764305803563423,-8.040239487560967,-79.43062362849393,-1.9201257,3.7340796,-12.355463,83.13534,-15.25668,-12.161278,-23.338243,-9.757573,2.2172923,33.130802,6.729285,10.213232,-7.8237014,-2.5110352,20.851366,64.155754,58.338478,-19.60649,-33.45872,6.3874793,1.5934874,17.010328,33.73785,-35.94146,4.5958514,-47.02758,11.313875,2.7085114,-2.8734484
167,-0.6461057662963867,28.749162673950195,76.01673889160156,0.22483890318636912,-7.612705667777512,-79.15901879044114,-2.4427435,3.2640874,-12.777202,81.321686,-13.866725,-11.799268,-22.94363,-10.438422,1.904668,29.637234,11.079253,10.045834,-8.346161,-3.0207074,20.221136,65.41785,58.02475,-19.052061,-34.24433,6.4802303,1.3381951,16.787075,35.87498,-34.951332,3.9472754,-49.82723,10.898771,2.4963162,-2.4456809
168,-0.3343638479709625,29.668903350830078,76.66644287109375,0.4274915866428484,-7.181111366344471,-79.01483137840047,-2.9517233,2.9283943,-13.040787,79.42584,-12.551082,-11.482923,-22.784828,-10.954972,1.6014588,26.534328,15.120293,9.917884,-8.740991,-3.4676347,19.647507,66.19765,57.54233,-18.646294,-34.75705,6.7199364,1.0899774,16.602156,37.355354,-33.972755,3.546231,-52.26949,10.356604,2.3300614,-2.0523775
169,-0.01873074471950531,30.604293823242188,77.2717056274414,0.6089032093592622,-6.706482670251326,-78.98965443724417,-3.504483,2.7256453,-13.120862,77.457794,-11.320128,-11.206845,-22.929295,-11.357515,1.2444417,23.686794,19.282015,9.753252,-9.008671,-3.8465898,19.100767,66.533676,56.89937,-18.357885,-34.982075,7.2446303,0.832265,16.507292,38.243397,-33.05252,3.3040314,-54.393826,9.56374,2.2358336,-1.6851671
170,0.30860090255737305,31.54755210876465,77.81816101074219,0.7644557896940554,-6.179462771629633,-79.05153020029361,-4.151355,2.6164138,-13.067522,75.430725,-10.103578,-10.92235,-23.3688,-11.720511,0.85120845,21.09584,23.548777,9.53875,-9.1869335,-4.1608987,18.570576,66.45895,56.09261,-18.179646,-34.949722,8.01096,0.546455,16.457071,38.62439,-32.209427,3.1902192,-56.20688,8.562198,2.184936,-1.3653919
171,0.6317736506462097,32.49979782104492,78.30131530761719,0.87094138671219,-5.68017457469672,-79.25430877563039,-4.732973,2.626122,-12.881229,73.30741,-8.939882,-10.696346,-23.919954,-11.976085,0.6114056,18.932745,27.049032,9.4758625,-9.236893,-4.3954773,18.139559,65.872574,55.152798,-18.192913,-34.6944,8.713037,0.28410718,16.387672,38.436104,-31.466454,3.258442,-57.70584,7.653684,2.1292899,-1.1457163
172,0.9071474075317383,33.529178619384766,78.82002258300781,0.9330233420301203,-5.311784169336898,-79.6300526778013,-5.0666595,2.7407165,-12.573695,71.04745,-7.8639693,-10.588426,-24.250116,-12.0585165,0.67068815,17.13941,29.017992,9.768926,-9.133762,-4.566962,17.902742,64.69062,54.128918,-18.469587,-34.256264,9.035427,0.09538594,16.241247,37.62892,-30.842628,3.5622642,-58.89365,7.142459,2.0249884,-1.0859694
173,1.2079510688781738,34.566612243652344,79.24285888671875,1.0194976932994937,-5.138704814761727,-80.16507073356595,-5.0456157,2.936248,-12.043976,68.57995,-6.8400354,-10.675405,-24.080656,-11.966228,1.1613767,15.450207,28.963997,10.744895,-8.883295,-4.7438393,17.913473,62.913628,53.047974,-18.987747,-33.668262,8.797348,0.047195505,15.957426,36.16523,-30.327288,4.1545205,-59.795975,7.212023,1.8553313,-1.2734566
174,1.5476990938186646,35.563026428222656,79.52920532226562,1.1933632411942015,-5.137743197598313,-80.80629461547532,-4.7284985,3.0954657,-11.316214,65.92078,-5.842799,-10.895517,-23.682665,-11.861248,1.9361905,14.140934,27.274668,12.158758,-8.569278,-5.0303807,18.064678,60.744385,51.899242,-19.623884,-32.931393,8.168526,0.10372958,15.604907,33.73924,-29.887165,5.1452866,-60.000134,7.6717477,1.6152098,-1.6766934
175,1.9054806232452393,36.55841827392578,79.72602844238281,1.3682851950417945,-5.248874679901581,-81.55616511189658,-4.230059,3.1757627,-10.610781,63.183563,-4.93926,-11.11561,-23.293962,-11.763602,2.653496,13.373152,24.85562,13.379954,-8.148276,-5.301874,18.370483,58.187115,50.68097,-20.362825,-32.055466,7.3857913,0.14537784,15.288163,30.93101,-29.52181,6.2132006,-60.000134,8.267353,1.3652298,-2.1632087
176,2.277588129043579,37.59465408325195,79.8765869140625,1.4525350734926352,-5.417329539280925,-82.4113662080111,-3.6736302,3.158593,-10.155994,60.490215,-4.205776,-11.1912775,-23.192095,-11.641782,3.1028898,13.423461,22.57613,13.888125,-7.5995517,-5.45954,18.807781,55.259895,49.400093,-21.202806,-31.021622,6.674748,0.053577278,15.132158,28.044094,-29.255388,7.179673,-60.000134,8.731933,1.1546618,-2.6119251
177,2.6654791831970215,38.6609992980957,79.97650146484375,1.4165564464608114,-5.676339283557383,-83.43263801550923,-3.019685,3.033033,-10.041053,57.721306,-3.570825,-11.114659,-23.436329,-11.387662,3.448052,14.4447,20.527271,13.504703,-6.8732786,-5.472003,19.367474,51.93873,48.051117,-22.163769,-29.712444,5.9458075,-0.28260255,15.181213,24.720596,-29.100433,8.161326,-59.64145,9.170792,0.9108735,-3.0734339
178,3.053926467895508,39.74858093261719,80.01376342773438,1.298490449040663,-6.037178809449746,-84.60640084585701,-2.240967,2.8462932,-10.142753,54.86886,-3.0328465,-10.94521,-23.878561,-11.000591,3.787606,16.250242,18.309986,12.570776,-6.059132,-5.3864145,19.95524,48.344864,46.60348,-23.170992,-28.16017,5.096372,-0.77348197,15.3869295,20.481743,-29.013222,9.420574,-58.440598,9.68186,0.59473944,-3.6287172
179,3.4498772621154785,40.857975006103516,79.976806640625,1.135794158289632,-6.425038784070879,-85.80550552244796,-1.4764194,2.6538463,-10.37042,52.233047,-2.7740564,-10.629119,-24.443521,-10.626857,3.8621666,18.568394,16.07053,11.391119,-5.2796926,-5.2283297,20.518106,44.635654,45.039127,-24.078836,-26.59309,4.3726296,-1.2450349,15.688579,15.846165,-28.950731,10.769816,-56.834526,10.006332,0.3250117,-4.137189
180,3.84267520904541,41.961158752441406,79.88770294189453,0.9510298681056285,-6.7611107793522915,-86.90500678895981,-0.86408055,2.5066895,-10.632338,50.107323,-2.9741,-10.123136,-25.06797,-10.431372,3.391912,21.144201,13.942261,10.252916,-4.6345363,-5.015846,20.963928,40.91825,43.378895,-24.829914,-25.201534,4.0008698,-1.5137832,16.052364,11.138212,-28.892862,12.053274,-54.99525,9.91009,0.19634205,-4.4583597
181,4.247519016265869,43.03228759765625,79.7146224975586,0.7254933859271906,-7.031298692250958,-87.90144986984474,-0.43261176,2.391366,-10.9921665,48.624233,-3.6880138,-9.271128,-25.74716,-10.525183,2.0998178,23.98616,11.935147,9.113649,-4.1021857,-4.725113,21.28222,37.149788,41.649525,-25.451979,-23.971067,4.1828885,-1.4659003,16.561092,6.373965,-28.82999,13.231085,-52.89753,9.221685,0.28305465,-4.494311
182,4.645486831665039,44.13261795043945,79.47704315185547,0.45889872700735657,-7.282324713178915,-88.84614636716837,-0.10820337,2.267703,-11.48443,47.609882,-4.819042,-8.151334,-26.46904,-10.878878,0.21372339,27.17318,9.967216,7.8343835,-3.6098428,-4.3518615,21.52992,33.276443,39.865314,-25.955355,-22.82888,4.7441225,-1.2144332,17.207127,1.467134,-28.7521,14.346733,-50.519653,8.104124,0.5155537,-4.3233285
183,5.034239292144775,45.242252349853516,79.18524169921875,0.19403907193114317,-7.517981169334102,-89.70200943177569,0.12085043,2.1579905,-11.971839,46.88869,-6.3096247,-7.0760007,-27.19258,-11.4312525,-1.8053437,30.60585,8.023769,6.5489087,-3.1748748,-3.9515536,21.709732,29.379763,38.04833,-26.279783,-21.876938,5.34712,-0.91766596,17.82587,-3.4486992,-28.663498,15.395669,-48.015118,6.812758,0.78217036,-4.0684733
184,5.404640197753906,46.340797424316406,78.81766510009766,-0.0362336751118461,-7.737423805262404,-90.4346808565531,0.26432794,2.1022515,-12.30325,46.27918,-8.095455,-6.348393,-27.912857,-12.075957,-3.504694,34.21029,6.108669,5.4014244,-2.8159907,-3.577033,21.82314,25.530851,36.233807,-26.383192,-21.219604,5.6577106,-0.7435211,18.25697,-8.24676,-28.582045,16.380999,-45.533394,5.607149,0.976957,-3.865092
185,5.7574286460876465,47.432403564453125,78.36907196044922,-0.24386550974664067,-7.90465847915653,-91.06285090726946,0.30495107,2.181899,-12.356916,45.768368,-10.313829,-6.053751,-28.70532,-12.826781,-4.921918,38.055523,4.2451987,4.4592075,-2.5075655,-3.223698,21.838408,21.676065,34.454056,-26.27078,-20.932783,5.5023484,-0.7659617,18.441938,-12.97212,-28.537514,17.291796,-43.060688,4.35404,1.0772985,-3.7263324
186,6.0913405418396,48.51571273803711,77.86738586425781,-0.44297379118351504,-8.028985874315238,-91.59623373783583,0.2392884,2.3634148,-12.228852,45.43512,-12.939642,-6.022397,-29.551477,-13.749314,-6.2451224,42.17444,2.4123228,3.6056333,-2.2285628,-2.8663626,21.777945,17.791792,32.73514,-25.973364,-20.979343,5.0875707,-0.8888172,18.473475,-17.63388,-28.546976,18.126915,-40.57987,2.9784634,1.1344601,-3.595638
187,6.426472187042236,49.5909309387207,77.32642364501953,-0.6034533564975952,-8.174384337760959,-91.98898276667151,0.09199049,2.5285075,-12.080357,45.24126,-15.66707,-6.1560516,-30.33169,-14.747052,-7.2565136,46.420483,0.58387345,2.745103,-2.0031598,-2.5299463,21.715797,13.9662285,31.109241,-25.531433,-21.276123,4.646417,-1.0271912,18.420708,-22.07575,-28.608063,18.91618,-38.20554,1.8323027,1.1643754,-3.507501
188,6.731794834136963,50.64911651611328,76.74640655517578,-0.6939268830676274,-8.404298678657023,-92.19533140934459,-0.111567095,2.5570276,-12.0791645,45.151264,-18.198423,-6.3447666,-30.93261,-15.675305,-7.744542,50.625626,-1.2396799,1.8137468,-1.855851,-2.2464387,21.718044,10.272987,29.608263,-25.016005,-21.727102,4.4034095,-1.0961512,18.356792,-26.166628,-28.704767,19.696203,-36.01598,1.271679,1.1873025,-3.4897783
189,7.007188320159912,51.696441650390625,76.14164733886719,-0.6969916475974637,-8.766304479950122,-92.19439413540206,-0.35989988,2.415609,-12.279878,45.23534,-20.612219,-6.6050725,-31.38553,-16.439888,-7.5345383,54.891876,-3.0642028,0.74549973,-1.7967247,-2.0563507,21.795708,6.5924363,28.248922,-24.501122,-22.32996,4.395985,-1.0428174,18.266188,-29.954319,-28.83386,20.488512,-33.939674,1.5136304,1.2069274,-3.568233
190,7.244955062866211,52.738563537597656,75.52935791015625,-0.637439964218114,-9.215293646992581,-92.01415613855822,-0.6773525,2.1714623,-12.577168,45.50166,-23.034128,-6.948823,-31.736797,-17.049997,-6.7985406,59.232143,-4.8394327,-0.36684006,-1.7970088,-1.9487619,21.906366,2.8852828,27.030153,-24.012337,-23.106264,4.4946136,-0.9224456,18.130013,-33.504715,-29.000053,21.295351,-31.935373,2.326106,1.2143219,-3.7163782
191,7.4418559074401855,53.76066589355469,74.94343566894531,-0.5424740022840296,-9.67527506725535,-91.68592643707362,-1.0841084,1.85645,-12.914368,45.817085,-25.23543,-7.2769275,-31.906366,-17.511421,-5.8570204,63.36933,-6.495064,-1.3420284,-1.831842,-1.8869069,22.033607,-0.6469585,25.946936,-23.556429,-24.003393,4.6732163,-0.8093849,18.017426,-36.74788,-29.194252,22.117735,-30.089085,3.4054036,1.2137058,-3.8768609
192,7.626719951629639,54.78010940551758,74.41203308105469,-0.44394810747758834,-10.070948885695048,-91.23945699217214,-1.5937771,1.5041403,-13.247002,46.035545,-26.970465,-7.514594,-31.820618,-17.87798,-5.024451,67.04694,-7.985017,-2.0190804,-1.8885385,-1.8387905,22.16705,-3.7794883,24.996666,-23.122837,-24.992025,4.90866,-0.7763547,17.996351,-39.60528,-29.39884,22.94417,-28.498043,4.437219,1.2132477,-3.9910612
193,7.775999069213867,55.79664611816406,73.98616790771484,-0.3180915188320297,-10.408053855192847,-90.62655413082837,-2.2017286,1.0906774,-13.541744,46.12429,-28.23271,-7.6618094,-31.438108,-18.211025,-4.2997556,70.282166,-9.349012,-2.283557,-2.0445826,-1.8591589,22.323778,-6.4653244,24.172153,-22.643576,-26.117258,5.3274746,-0.81889105,18.067999,-42.139263,-29.6071,23.772097,-27.20312,5.515967,1.2508353,-4.025369
194,7.873846530914307,56.80290603637695,73.65675354003906,-0.16159709167454048,-10.720655213113055,-89.85021548541826,-2.894431,0.60957205,-13.836754,46.14467,-29.125708,-7.7741995,-30.799822,-18.472052,-3.573236,73.204865,-10.60536,-2.2441208,-2.3053575,-1.9619267,22.49884,-8.834219,23.461737,-22.168198,-27.3675,5.891565,-0.9037739,18.207418,-44.407127,-29.816717,24.62185,-26.115871,6.7525663,1.3136724,-4.016119
195,7.942911148071289,57.797271728515625,73.44225311279297,-0.025622946656614756,-10.97350523530985,-89.01567627214013,-3.6583745,0.120514825,-14.19899,46.070755,-29.553045,-7.8738117,-29.96717,-18.606646,-2.9758832,75.726234,-11.686759,-2.096797,-2.553726,-2.050589,22.657207,-10.873287,22.860855,-21.83718,-28.675072,6.33881,-1.0582807,18.440643,-46.296913,-30.013025,25.50197,-25.16737,7.8335376,1.3368964,-4.00527
196,7.993912696838379,58.79374694824219,73.36593627929688,0.038841555855937585,-11.129039170726335,-88.22781435595378,-4.478385,-0.32140854,-14.693534,45.876934,-29.41701,-7.98133,-29.013365,-18.562523,-2.61983,77.75235,-12.516992,-2.0396867,-2.6798043,-2.027958,22.769505,-12.510068,22.377535,-21.765179,-30.021757,6.4095063,-1.3106672,18.789629,-47.722157,-30.1813,26.419699,-24.26416,8.456034,1.2548876,-4.0273776
197,8.035238265991211,59.78363037109375,73.42721557617188,0.012374773267812283,-11.175300076054995,-87.45972896215508,-5.434322,-0.78162426,-15.411544,45.709724,-28.608435,-8.092391,-27.88051,-18.38062,-2.6015172,79.22199,-13.077656,-2.1240275,-2.7186148,-1.8676949,22.826288,-13.686912,22.039417,-21.999002,-31.482471,5.904988,-1.6863939,19.424995,-48.63201,-30.31581,27.387796,-23.429422,8.419377,1.0077045,-4.0713882
198,8.069931030273438,60.75763702392578,73.61469268798828,-0.07062031811587134,-11.13107718141883,-86.67347184231618,-6.4975386,-1.2852399,-16.2865,45.524136,-27.201046,-8.198026,-26.569649,-18.07991,-2.825912,80.20147,-13.403561,-2.2555027,-2.7337108,-1.6265622,22.850225,-14.3771515,21.857576,-22.438778,-33.11404,5.008168,-2.1732712,20.274157,-49.120525,-30.419727,28.408407,-22.669222,7.922044,0.647118,-4.1237307
199,8.069558143615723,61.73676300048828,73.91107940673828,-0.18538525122188423,-11.00354736366566,-85.95648272203863,-7.496597,-1.7109561,-17.15198,45.012333,-25.375002,-8.310622,-25.251905,-17.582724,-3.1093357,80.78654,-13.497466,-2.4187071,-2.6610518,-1.3238285,22.860806,-14.543681,21.814348,-22.965534,-34.874786,4.0328217,-2.7360044,20.986404,-49.31921,-30.492033,29.485218,-21.868279,7.2549744,0.27432454,-4.2150483
200,8.04185676574707,62.710716247558594,74.29459381103516,-0.30643025764080584,-10.800346164261574,-85.39647452781759,-8.264641,-1.9216372,-17.849255,43.86506,-23.311153,-8.452404,-24.096727,-16.815845,-3.269397,81.07368,-13.362977,-2.5952132,-2.4317744,-0.973614,22.871315,-14.171513,21.872719,-23.466118,-36.696144,3.2938528,-3.3221915,21.213215,-49.35335,-30.527102,30.623247,-20.903166,6.707201,-0.009476659,-4.370585
201,7.99008846282959,63.696598052978516,74.7625732421875,-0.4204121934986238,-10.532116688161416,-85.0673998569631,-8.704673,-1.8478624,-18.313896,41.90993,-21.034,-8.649967,-23.115738,-15.736992,-3.2690868,81.0409,-12.954043,-2.8023837,-1.9603869,-0.54599637,22.884823,-13.209605,22.012094,-23.938969,-38.573055,2.8448222,-3.9599147,20.761032,-49.181835,-30.517242,31.86045,-19.762281,6.2643247,-0.16807573,-4.627914
202,7.934661865234375,64.6861572265625,75.29113006591797,-0.5438247811395269,-10.191673316772764,-84.90632883291623,-8.926529,-1.5756958,-18.64025,39.342484,-18.456465,-8.887411,-22.230928,-14.401042,-3.1957607,80.65556,-12.282792,-3.0439095,-1.3167053,-0.040896863,22.877493,-11.708152,22.23373,-24.424412,-40.495674,2.525477,-4.653208,19.835838,-48.776917,-30.460884,33.20274,-18.474552,5.794885,-0.25631383,-4.9602284
203,7.877043724060059,65.68362426757812,75.88391876220703,-0.6925443366791207,-9.761139714039427,-84.79552492915998,-9.075353,-1.1896195,-18.91311,36.404118,-15.590594,-9.1303,-21.472736,-12.88095,-3.06007,79.99884,-11.442237,-3.2767172,-0.6567693,0.48046252,22.824255,-9.810722,22.527224,-24.88025,-42.372463,2.3302054,-5.309914,18.700497,-48.2825,-30.364243,34.60931,-16.979013,5.4145107,-0.31201357,-5.291954
204,7.810474395751953,66.70352935791016,76.51824188232422,-0.8767506744193576,-9.22264100832791,-84.61817849693037,-9.300735,-0.7717538,-19.218042,33.336403,-12.446743,-9.341427,-20.876337,-11.247837,-2.8742788,79.15234,-10.525463,-3.4566004,-0.13106899,0.96156603,22.707085,-7.6587324,22.872559,-25.269989,-44.11472,2.266447,-5.8429127,17.620295,-47.83983,-30.235415,36.036465,-15.220154,5.2417183,-0.37624094,-5.5503907
205,7.731100082397461,67.73123168945312,77.1694564819336,-1.094896224978715,-8.522972216863348,-84.38415693421305,-9.629597,-0.31865028,-19.676516,29.951164,-8.7126465,-9.463437,-20.521238,-9.469844,-2.6038563,78.089355,-9.532185,-3.6658707,0.2656254,1.395128,22.494843,-5.2055297,23.258598,-25.613558,-45.69278,2.489978,-6.244759,16.58719,-47.473835,-30.079144,37.5201,-13.121885,5.4476476,-0.4577185,-5.7508755
206,7.647763729095459,68.75218963623047,77.8112564086914,-1.3341773468408518,-7.686662493403811,-84.14241713721282,-10.0122,0.18707758,-20.205738,26.242662,-4.503149,-9.528876,-20.360643,-7.5398307,-2.2531757,76.78112,-8.422677,-3.8946233,0.6074894,1.7974032,22.19997,-2.4408867,23.67754,-25.936855,-47.110104,2.9511778,-6.5687575,15.489407,-47.099754,-29.898233,39.065205,-10.736625,5.920842,-0.5394384,-5.9209833
207,7.563709259033203,69.80728149414062,78.42433166503906,-1.589572868348706,-6.812464979438132,-83.83514855800303,-10.462952,0.70050025,-20.59763,22.691864,-0.4562739,-9.636539,-20.245039,-5.5584965,-1.8858252,75.30033,-7.2322736,-3.9590697,0.8566534,2.1629999,21.87548,0.44009823,24.105963,-26.223831,-48.32981,3.359097,-6.8107505,14.436463,-46.69093,-29.699465,40.572727,-8.198633,6.358117,-0.6230712,-6.0097175
208,7.464100360870361,70.85635375976562,78.95653533935547,-1.865478813633226,-6.001043445822902,-83.40618473378224,-10.963776,1.2066168,-20.659433,19.726927,2.8227777,-9.890315,-20.029709,-3.6074777,-1.5614994,73.717,-5.998835,-3.675165,0.9822803,2.5101106,21.57538,3.2390225,24.509493,-26.467493,-49.3123,3.4271133,-6.953389,13.532911,-46.223885,-29.495367,41.94382,-5.636745,6.4591928,-0.7089457,-5.967012
209,7.355941295623779,71.90087127685547,79.39237976074219,-2.230097403133305,-5.23560961142278,-82.81937579249617,-11.474454,1.8255469,-20.363712,17.108978,5.381895,-10.484806,-19.721947,-1.561835,-1.2593224,72.00919,-4.6924806,-2.9089437,0.98132116,2.9230883,21.284607,5.9299126,24.857853,-26.72124,-50.01591,3.0366738,-6.941631,12.81402,-45.66246,-29.293566,43.151695,-3.0430565,6.113084,-0.78698736,-5.7174745
210,7.264029026031494,72.94410705566406,79.77256774902344,-2.669139901752464,-4.481449226790895,-82.11768245098472,-11.973685,2.565839,-19.8274,14.658827,7.5158167,-11.318337,-19.382036,0.5891093,-0.93768597,70.13593,-3.3242753,-1.788103,0.87820053,3.40215,20.977497,8.573374,25.135242,-27.000303,-50.417355,2.3666077,-6.790205,12.216523,-45.0888,-29.113495,44.26257,-0.31672746,5.556802,-0.86549056,-5.3088255
211,7.208833694458008,73.97105407714844,80.13489532470703,-3.074628543822789,-3.8094677095741507,-81.35989884506576,-12.46239,3.2603116,-19.055796,12.862021,8.992672,-12.046572,-18.947369,2.5995915,-0.6288915,68.14124,-1.9864545,-0.5191744,0.7194552,3.8502495,20.707293,11.076616,25.331394,-27.269485,-50.5166,1.5734606,-6.581947,11.694278,-44.44694,-28.967173,45.25729,2.4214354,4.84546,-0.96456355,-4.889502
212,7.168054580688477,74.99181365966797,80.42459106445312,-3.3183229889035926,-3.284452193181747,-80.59576537685486,-12.980049,3.7120502,-18.034082,12.261648,9.547398,-12.313788,-18.363535,4.2047167,-0.37684086,66.08706,-0.7587485,0.6894878,0.55915314,4.1459417,20.522348,13.333772,25.439837,-27.503105,-50.312378,0.8106691,-6.4025335,11.200442,-43.59804,-28.851332,46.081684,5.006525,3.959054,-1.0989442,-4.6106853
213,7.127209663391113,76.0076675415039,80.62559509277344,-3.3588457653062775,-2.935505774668908,-79.8017375579298,-13.606737,3.842581,-16.614408,13.222049,8.827782,-11.876932,-17.597258,5.4194956,-0.120132826,63.955738,0.5203219,1.997687,0.36879936,4.228832,20.44904,15.371912,25.444517,-27.666117,-49.7681,-0.045375094,-6.296124,10.679979,-42.584522,-28.772375,46.75726,7.436572,2.7768564,-1.2615387,-4.4901175
214,7.09178352355957,77.02210998535156,80.7680892944336,-3.26997051385333,-2.7252008309771583,-78.95949505164077,-14.310907,3.7847536,-14.85913,15.393489,7.0544543,-10.976269,-16.685387,6.3646603,0.13501872,61.73218,1.8297627,3.4421754,0.13711137,4.1812897,20.455746,17.221416,25.336771,-27.795395,-48.88885,-1.02341,-6.20797,10.167583,-41.436184,-28.732088,47.298065,9.7706175,1.3369817,-1.444683,-4.461871
215,7.055287837982178,78.02865600585938,80.8395004272461,-3.097952973678202,-2.6150340225803324,-78.12401973863093,-14.97363,3.6460521,-13.06156,18.25011,4.820113,-9.974317,-15.688523,6.9261866,0.20183977,59.500282,2.8473303,4.619402,-0.087658785,4.072505,20.494812,18.822744,25.130228,-27.937767,-47.766525,-1.8259933,-6.0831265,9.755931,-40.14214,-28.724464,47.683685,12.012063,-0.024911832,-1.6583495,-4.539843
216,7.055121421813965,79.02521514892578,80.8615493774414,-2.8686990546513456,-2.56361514379046,-77.3483505469357,-15.495291,3.5123694,-11.483459,21.308743,2.7072527,-9.218357,-14.673311,6.982817,-0.12549622,57.351395,3.2689424,5.1322856,-0.2587945,3.954223,20.522379,20.12589,24.856012,-28.12854,-46.51094,-2.155463,-5.873127,9.542421,-38.65013,-28.73482,47.87145,14.137812,-1.0099117,-1.9127584,-4.734148
217,7.054141998291016,80.01055145263672,80.80233001708984,-2.560041174067944,-2.5968385250870667,-76.63182397871999,-15.804477,3.3887053,-10.142332,24.537838,0.7648244,-8.8142185,-13.570167,6.3577824,-1.1268836,55.24241,3.047816,4.814479,-0.36902562,3.798381,20.56983,21.106283,24.534874,-28.367596,-45.067066,-1.8508241,-5.5353,9.654806,-36.92859,-28.746172,47.81936,16.176346,-1.5108325,-2.2317007,-5.062277
218,7.043890476226807,80.98481750488281,80.68208312988281,-2.175516682972583,-2.729239058744376,-75.95138958404284,-15.969863,3.262444,-8.920257,28.168371,-1.2876711,-8.556858,-12.343855,5.2404284,-2.6498191,53.14964,2.3259125,3.9710662,-0.4501553,3.5868409,20.656982,21.837872,24.174038,-28.613266,-43.457027,-1.103718,-5.1069245,10.009385,-35.015495,-28.751556,47.558895,18.122826,-1.6970446,-2.6028419,-5.5069323
219,7.041128635406494,81.96231079101562,80.47666931152344,-1.7714122776139671,-2.895700332287056,-75.32474234847456,-16.107275,3.1798275,-7.850777,32.12533,-3.364281,-8.322635,-11.131387,4.029298,-4.238992,51.19584,1.0881401,2.903824,-0.5187833,3.3736446,20.722305,22.423275,23.791996,-28.829384,-41.907448,-0.14220414,-4.6627717,10.389075,-32.966427,-28.752121,47.15425,19.899958,-1.6841625,-2.984993,-6.0236955
220,7.0627288818359375,82.94052124023438,80.18222045898438,-1.408472163134819,-3.025830008611252,-74.77097575228733,-16.322227,3.1715093,-6.963078,36.316406,-5.3690615,-7.994141,-10.1050205,3.0624392,-5.425178,49.495,-0.6525495,1.8549267,-0.5879265,3.2089756,20.702425,22.96558,23.415512,-28.98267,-40.649204,0.809681,-4.28581,10.584733,-30.846369,-28.757612,46.6717,21.434063,-1.5787637,-3.3364139,-6.569288
221,7.096281051635742,83.90982818603516,79.80615234375,-1.0685719435905467,-3.108396472079684,-74.29816035839883,-16.675236,3.2204194,-6.25256,40.887276,-7.340629,-7.475765,-9.236012,2.3298893,-6.130703,47.973835,-3.1410167,0.6105953,-0.6374294,3.0855465,20.588694,23.483646,23.069258,-29.062723,-39.74997,1.9435482,-3.9290318,10.539452,-28.640545,-28.773912,46.101795,22.711536,-1.2672635,-3.6892629,-7.180172
222,7.128274440765381,84.88157653808594,79.3626480102539,-0.7383491102237161,-3.175400010152875,-73.89648091856071,-17.083647,3.328107,-5.720487,45.811558,-9.303718,-6.844322,-8.474818,1.6968108,-6.5382447,46.59424,-6.307574,-0.84114724,-0.6626338,2.9804657,20.420372,23.94762,22.765305,-29.079409,-39.123955,3.2935066,-3.5771852,10.368827,-26.317421,-28.799433,45.40694,23.7456,-0.7362962,-4.0575614,-7.8595247
223,7.156103134155273,85.82618713378906,78.86151885986328,-0.45179564876878286,-3.221010846152823,-73.55698229828876,-17.439743,3.516304,-5.385359,50.744186,-11.135968,-6.25313,-7.9831886,1.221261,-6.6016183,45.53015,-9.626178,-2.0601816,-0.698349,2.9116664,20.204285,24.380102,22.509392,-29.034449,-38.768074,4.4014044,-3.3649004,10.13331,-23.905888,-28.833946,44.603237,24.499548,-0.24907999,-4.3648605,-8.518855
224,7.172789573669434,86.77227783203125,78.30951690673828,-0.23838347665432694,-3.240123018928669,-73.26948775435545,-17.641983,3.7870903,-5.2452774,55.353714,-12.712413,-5.8642163,-7.918844,0.9119429,-6.3267374,44.961323,-12.5567,-2.655453,-0.78286594,2.891961,19.946613,24.804283,22.302877,-28.928175,-38.67451,4.80815,-3.4206748,9.8987,-21.447617,-28.877344,43.718494,24.947084,-0.056996092,-4.5273695,-9.073736
225,7.196349620819092,87.71795654296875,77.74064636230469,-0.08248903760397379,-3.1802674875565073,-73.02833180500929,-17.75688,4.1037097,-5.2906704,59.678577,-13.953006,-5.7801695,-8.485721,0.74776584,-5.571536,45.110516,-15.066855,-2.4116764,-0.9138682,2.9076385,19.597357,25.218033,22.157635,-28.761518,-38.914497,4.1197653,-3.9024343,9.652111,-18.933727,-28.927557,42.73399,25.016865,-0.3099366,-4.473731,-9.493818
226,7.216919898986816,88.65753936767578,77.16273498535156,0.02965518367614394,-3.060891110867253,-72.83729546614987,-17.808525,4.4510994,-5.502627,63.878986,-14.94457,-5.9084163,-9.556464,0.68870765,-4.43039,45.852287,-17.412226,-1.6300862,-1.0723814,2.9543214,19.175703,25.618486,22.080801,-28.535099,-39.481106,2.663863,-4.6913986,9.355558,-16.34013,-28.980125,41.64224,24.73477,-0.83925253,-4.2583804,-9.825294
227,7.252548694610596,89.61227416992188,76.57958984375,0.057933163079185605,-2.982689609747499,-72.70161313140844,-17.627037,4.856873,-5.8533278,67.78672,-15.810605,-6.1246886,-10.783116,0.70318484,-3.276172,46.841454,-19.486124,-0.6997606,-1.2752268,3.0574477,18.789139,26.023792,22.055065,-28.245567,-40.246315,1.0692154,-5.501077,9.046839,-13.687017,-29.030697,40.490475,24.229616,-1.4272687,-3.9851053,-10.100807
228,7.301461696624756,90.62288665771484,75.99748992919922,-0.03552809182272088,-3.0456896444417025,-72.62854777982567,-17.042786,5.3496885,-6.315886,71.216324,-16.664154,-6.304941,-11.808534,0.759767,-2.4480863,47.707508,-21.163141,-0.0022155426,-1.5432507,3.241313,18.542864,26.441158,22.044,-27.886086,-41.06191,-0.025076544,-6.0557375,8.791013,-11.006284,-29.07441,39.32918,23.640919,-1.8568681,-3.7601364,-10.357432
229,7.361719131469727,91.56969451904297,75.49385070800781,-0.329425110600051,-3.3156448368907268,-72.66088383430515,-15.933626,5.9933176,-6.9442487,74.15636,-17.55536,-6.4563336,-12.557273,0.9160438,-2.055741,48.45016,-22.36844,0.34149355,-1.8791832,3.5867243,18.517847,26.905922,22.003635,-27.423037,-41.945248,-0.53038704,-6.291359,8.602505,-8.326974,-29.106863,38.171658,23.008621,-2.1064775,-3.598019,-10.61556
230,7.458383560180664,92.51764678955078,75.05633544921875,-0.7789593318732181,-3.7284446921585586,-72.78081153369025,-14.403316,6.7495623,-7.702871,76.682236,-18.407444,-6.644038,-13.207174,1.1692258,-1.8991252,49.2291,-23.183928,0.5429622,-2.2831607,4.058643,18.639914,27.374468,21.916286,-26.869335,-42.908363,-0.74840665,-6.356053,8.4497385,-5.643009,-29.124666,37.000736,22.281483,-2.28101,-3.4485474,-10.854131
231,7.5779924392700195,93.46603393554688,74.67815399169922,-1.23899722921658,-4.187013020419863,-72.9061967783962,-12.63416,7.4999886,-8.439281,78.73755,-19.139263,-6.818636,-13.779354,1.390285,-1.8376106,49.900753,-23.708626,0.7197775,-2.7695327,4.504655,18.77983,27.736206,21.793419,-26.289196,-43.798843,-0.621628,-6.2998095,8.346831,-2.9329882,-29.127047,35.81653,21.458555,-2.3546436,-3.3220868,-11.050575
232,7.706730842590332,94.38339233398438,74.36116027832031,-1.564263625814028,-4.591046623121763,-72.95706923121124,-10.8255625,8.125242,-9.0239105,80.278145,-19.670532,-6.9235945,-14.2931185,1.4466615,-1.7308571,50.32327,-24.043222,0.9868292,-3.347883,4.77371,18.806877,27.89306,21.66738,-25.746237,-44.490456,-0.09683882,-6.172036,8.308521,-0.16408443,-29.11222,34.614624,20.523277,-2.29935,-3.2288284,-11.181472
233,7.838571071624756,95.30693817138672,74.11604309082031,-1.7006810519210391,-4.95833948394537,-72.91672627896858,-8.923141,8.5983715,-9.418459,81.260544,-20.01657,-6.922746,-14.736418,1.2775668,-1.530885,50.539085,-24.24893,1.3845059,-4.0287614,4.8092875,18.718346,27.845526,21.565798,-25.221746,-44.967663,1.1421306,-5.9074836,8.354205,2.7343156,-29.07178,33.360405,19.438566,-2.0399683,-3.1894858,-11.231446
234,7.973196983337402,96.23951721191406,73.95259094238281,-1.7309908283574995,-5.326569675576742,-72.82824218617799,-6.8752584,8.983386,-9.700175,81.73492,-20.201778,-6.8432584,-15.099307,0.95865446,-1.310092,50.59316,-24.263971,1.8491731,-4.7958407,4.6991973,18.57184,27.649956,21.49704,-24.697346,-45.3215,2.9604106,-5.5035453,8.466177,5.74271,-28.99729,32.053505,18.198158,-1.6134391,-3.193033,-11.216001
235,8.089009284973145,97.16155242919922,73.9059066772461,-1.719440476579104,-5.622563304151,-72.70133482800023,-4.892039,9.295702,-9.9357395,81.79697,-20.170624,-6.7253337,-15.407368,0.5591881,-1.1045821,50.34986,-24.003902,2.3345816,-5.618843,4.5134897,18.321482,27.29685,21.467997,-24.235188,-45.585716,4.733568,-5.104763,8.611992,8.7549095,-28.888618,30.749134,16.840326,-1.1598167,-3.2018664,-11.156959
236,8.206515312194824,98.07889556884766,73.97075653076172,-1.7230486509598506,-5.774123197961772,-72.54545591773537,-3.183488,9.552487,-10.1929,81.54306,-19.869814,-6.6099815,-15.691532,0.14755368,-0.9507585,49.67224,-23.377258,2.7937384,-6.4668846,4.3234725,17.923368,26.775162,21.483118,-23.898325,-45.787827,5.839843,-4.8599586,8.777114,11.66437,-28.753296,29.503881,15.409403,-0.8197499,-3.1787302,-11.075479
237,8.324350357055664,99.00566864013672,74.15042114257812,-1.7708758426916495,-5.720357078983185,-72.32307301119403,-1.8212551,9.817396,-10.48924,80.92818,-19.253065,-6.535975,-15.980541,-0.23978752,-0.8989839,48.481476,-22.375515,3.2192132,-7.3734236,4.1471987,17.290861,26.029562,21.551342,-23.733376,-45.894173,6.0540247,-4.8293915,9.0184,14.477919,-28.600172,28.348658,13.885775,-0.6259849,-3.1035604,-10.994858
238,8.448517799377441,99.95441436767578,74.42623901367188,-1.8235322349300664,-5.5129406534208485,-72.04194168590001,-0.6965835,10.061711,-10.7976675,79.935814,-18.367844,-6.470036,-16.253523,-0.63577926,-0.9166028,46.86151,-21.034613,3.6350324,-8.340227,3.959565,16.467989,25.087694,21.673866,-23.702045,-45.910248,5.726097,-4.9307766,9.334466,17.247026,-28.427713,27.256792,12.256969,-0.5013821,-2.9996064,-10.895637
239,8.578239440917969,100.94021606445312,74.781494140625,-1.8427465493052462,-5.246689150511536,-71.77763277330118,0.25154057,10.161959,-11.120962,78.705864,-17.293383,-6.345415,-16.468424,-1.070631,-0.9181212,44.910515,-19.319279,4.042408,-9.291772,3.7560894,15.60988,24.06291,21.83682,-23.73443,-45.91395,5.10085,-5.1012716,9.628531,19.92471,-28.22935,26.197855,10.587548,-0.42617396,-2.8946645,-10.736494
240,8.728650093078613,101.97589111328125,75.21794128417969,-1.7907306547549933,-5.018309913786717,-71.60545105352901,1.086994,9.999003,-11.461195,77.37278,-16.110403,-6.093284,-16.589046,-1.5744158,-0.81680083,42.73224,-17.19686,4.441142,-10.155493,3.5211399,14.871297,23.063583,22.01848,-23.75639,-45.977737,4.424533,-5.273908,9.799438,22.451838,-27.99823,25.137074,8.949966,-0.38364252,-2.8161519,-10.478472
