unveil-humanoid-operators/unveil-humanoid-operators.github.io/feature-analysis-animation/data/feature_matrix_instances/weight_ankle_peak_vel_gesture_A100_no_see_002__A100.csv
Frame,root_translateX,root_translateY,root_translateZ,root_rotateX,root_rotateY,root_rotateZ,left_hip_pitch_joint_dof,left_hip_roll_joint_dof,left_hip_yaw_joint_dof,left_knee_joint_dof,left_ankle_pitch_joint_dof,left_ankle_roll_joint_dof,right_hip_pitch_joint_dof,right_hip_roll_joint_dof,right_hip_yaw_joint_dof,right_knee_joint_dof,right_ankle_pitch_joint_dof,right_ankle_roll_joint_dof,waist_yaw_joint_dof,waist_roll_joint_dof,waist_pitch_joint_dof,left_shoulder_pitch_joint_dof,left_shoulder_roll_joint_dof,left_shoulder_yaw_joint_dof,left_elbow_joint_dof,left_wrist_roll_joint_dof,left_wrist_pitch_joint_dof,left_wrist_yaw_joint_dof,right_shoulder_pitch_joint_dof,right_shoulder_roll_joint_dof,right_shoulder_yaw_joint_dof,right_elbow_joint_dof,right_wrist_roll_joint_dof,right_wrist_pitch_joint_dof,right_wrist_yaw_joint_dof
0,-0.046947501599788666,2.3958492279052734,78.07708740234375,-0.21072284801866623,-2.008164506572638,-91.21134514785828,6.714477,7.9654627,13.597935,7.246844,-10.686071,-7.9842353,6.575884,-9.038217,-22.308838,7.2082114,-10.104336,7.23407,-0.45727208,1.56711,7.4564805,-2.8792799,15.316777,-41.62818,57.899757,-26.460165,6.9386725,3.1851828,-12.175322,-9.735526,46.557693,61.522278,23.27043,14.8129015,-13.348101
1,-0.04764614999294281,2.394533634185791,78.0772476196289,-0.20801625001308396,-2.016030594741389,-91.19726437813016,6.722459,7.960067,13.588366,7.246925,-10.685557,-7.9832544,6.590974,-9.041873,-22.310984,7.2070384,-10.104907,7.24144,-0.47883332,1.5583776,7.4607005,-2.859698,15.32895,-41.59506,57.8841,-26.463814,6.9505444,3.1522706,-12.185975,-9.724193,46.47483,61.522633,23.20275,14.913434,-13.149818
2,-0.049991872161626816,2.394387722015381,78.07747650146484,-0.20637223654396988,-2.0248457491791836,-91.18224105597632,6.731433,7.954432,13.578226,7.2471895,-10.685082,-7.982132,6.606355,-9.046222,-22.312529,7.2083983,-10.106757,7.249133,-0.4933073,1.5497441,7.4672728,-2.8475263,15.337802,-41.56521,57.873486,-26.465593,6.9644203,3.1162112,-12.193883,-9.716207,46.37253,61.5184,23.124092,15.020822,-12.935875
3,-0.040823306888341904,2.391301393508911,78.0767822265625,-0.20448924945230543,-2.0323305509182044,-91.169325744743,6.7393365,7.9494004,13.569626,7.246499,-10.684067,-7.9813266,6.619509,-9.050272,-22.314478,7.2090125,-10.108056,7.256284,-0.48878527,1.537371,7.476614,-2.8477712,15.351497,-41.553173,57.865925,-26.46679,6.9767957,3.0834389,-12.197948,-9.704977,46.2495,61.512638,23.035894,15.116441,-12.742684
4,-0.04016907885670662,2.3880414962768555,78.07563781738281,-0.20329195352354243,-2.0355700238429417,-91.16194596551372,6.742874,7.9468036,13.564869,7.246822,-10.684015,-7.9813027,6.627624,-9.052108,-22.317505,7.2076,-10.1095,7.2618036,-0.4999664,1.5320717,7.474701,-2.837654,15.355502,-41.545036,57.863693,-26.476213,6.978701,3.0663736,-12.198667,-9.701797,46.205467,61.507538,22.990498,15.1776,-12.620523
5,-0.04297389090061188,2.3880951404571533,78.07410430908203,-0.20339788893362604,-2.0332445088082594,-91.1615372041408,6.741165,7.946552,13.565348,7.2453275,-10.682469,-7.9821744,6.628654,-9.052586,-22.323492,7.2025585,-10.109936,7.2667217,-0.5012779,1.5269988,7.4741426,-2.8365781,15.357673,-41.54799,57.866276,-26.47981,6.970389,3.0631547,-12.1997,-9.700221,46.19278,61.502365,22.95576,15.195872,-12.5855255
6,-0.05714435875415802,2.392246723175049,78.0731201171875,-0.20197911327242818,-2.0269921891852856,-91.16609865089978,6.7362347,7.947857,13.569465,7.242132,-10.680126,-7.9836597,6.625538,-9.051496,-22.33183,7.1934423,-10.109221,7.2710824,-0.48779634,1.5196333,7.470654,-2.841321,15.365159,-41.577213,57.870018,-26.489433,6.9537435,3.072394,-12.197548,-9.695231,46.19518,61.50117,22.926685,15.182815,-12.612713
7,-0.0609239786863327,2.392853260040283,78.0726318359375,-0.2025101221729119,-2.019757807058939,-91.17388292184008,6.731221,7.9508324,13.575921,7.2384796,-10.678289,-7.985774,6.6185308,-9.04934,-22.337778,7.18848,-10.110625,7.2729063,-0.4785585,1.5152148,7.4673166,-2.8434446,15.369456,-41.598392,57.87256,-26.490957,6.9379106,3.085057,-12.195995,-9.692463,46.216393,61.50016,22.91017,15.156278,-12.661665
8,-0.04701803997159004,2.3864359855651855,78.07369995117188,-0.20447815507149633,-2.01449781871397,-91.18266307228703,6.7286844,7.9556537,13.582878,7.236491,-10.6787195,-7.988453,6.6138134,-9.044315,-22.337969,7.182009,-10.109647,7.270108,-0.4727681,1.5137327,7.4614553,-2.839739,15.372373,-41.615067,57.871056,-26.492327,6.929968,3.0974119,-12.193885,-9.6905985,46.238045,61.503323,22.911858,15.132793,-12.692859
9,-0.042706526815891266,2.3830604553222656,78.07430267333984,-0.2082094369495236,-2.0123236452599693,-91.19367306459321,6.72937,7.964649,13.591096,7.2387624,-10.683644,-7.992193,6.6080093,-9.035736,-22.328327,7.1843386,-10.111548,7.2590847,-0.47169712,1.5152229,7.4563303,-2.8325374,15.375686,-41.61945,57.866917,-26.480978,6.9357653,3.1048942,-12.191033,-9.688372,46.245342,61.50671,22.924908,15.119888,-12.681319
10,-0.054322563111782074,2.382920980453491,78.07553100585938,-0.21438487832705766,-2.01070743886876,-91.20814159085938,6.7322707,7.976772,13.601827,7.24133,-10.690604,-7.996782,6.600496,-9.023735,-22.311268,7.189607,-10.113764,7.2418137,-0.46978262,1.5209515,7.449376,-2.8189805,15.377509,-41.61686,57.854923,-26.459888,6.9514933,3.1134906,-12.188436,-9.687114,46.24416,61.515564,22.951838,15.104804,-12.652225
11,-0.05949024856090546,2.3808891773223877,78.07655334472656,-0.21964221297176278,-2.0099526445058227,-91.22201145853936,6.7360225,7.9882283,13.612143,7.244041,-10.697608,-8.001529,6.592182,-9.012814,-22.293293,7.1988387,-10.117602,7.225086,-0.46698108,1.5268205,7.445459,-2.7996454,15.382866,-41.60414,57.83284,-26.430218,6.970135,3.1204596,-12.189154,-9.683587,46.239365,61.529716,22.973175,15.086336,-12.632107
12,-0.061031803488731384,2.3787660598754883,78.07659149169922,-0.2226790017962697,-2.010121443469164,-91.23073054614822,6.7400174,7.995138,13.618714,7.2443585,-10.701037,-8.005596,6.588512,-9.005965,-22.281878,7.2031903,-10.119251,7.2156043,-0.4639344,1.5266874,7.445756,-2.786385,15.390217,-41.593945,57.816044,-26.413477,6.9796963,3.1255462,-12.189679,-9.678838,46.252792,61.54269,22.99081,15.059945,-12.657366
13,-0.061169497668743134,2.3791894912719727,78.07599639892578,-0.22272501177399157,-2.0112635764492226,-91.23362134819115,6.7434664,7.9961114,13.620899,7.2440357,-10.701418,-8.009531,6.590655,-9.004331,-22.278917,7.200979,-10.117808,7.216993,-0.45191565,1.5217465,7.4484158,-2.7827082,15.394817,-41.597187,57.80932,-26.416117,6.9750104,3.134565,-12.184921,-9.675878,46.289646,61.55558,23.005259,15.014963,-12.755335
14,-0.051145412027835846,2.3764138221740723,78.07511901855469,-0.21980229407373456,-2.0132057940184827,-91.23290597103869,6.748921,7.992962,13.620666,7.2384567,-10.696885,-8.013476,6.5947776,-9.00662,-22.280384,7.1981764,-10.11584,7.2251096,-0.45059374,1.5146165,7.44884,-2.7694275,15.402325,-41.598934,57.798233,-26.436684,6.9607935,3.1477928,-12.180682,-9.670575,46.374996,61.57433,23.035461,14.954432,-12.908389
15,-0.051153846085071564,2.376727342605591,78.07372283935547,-0.21575697888879758,-2.015098355005761,-91.22919610098829,6.7527485,7.988257,13.618311,7.234764,-10.693034,-8.016259,6.601211,-9.010174,-22.284588,7.1926765,-10.113073,7.2346706,-0.44763303,1.5054445,7.4509563,-2.7610621,15.408543,-41.598568,57.79261,-26.45635,6.946759,3.1546538,-12.176555,-9.665672,46.45532,61.590305,23.05863,14.899881,-13.06263
16,-0.06426571309566498,2.3788933753967285,78.07192993164062,-0.21274194061014076,-2.015723240718778,-91.22282802227156,6.753731,7.984601,13.613977,7.232666,-10.690644,-8.016705,6.605156,-9.013771,-22.289778,7.191867,-10.1136675,7.240531,-0.44825366,1.5000556,7.451234,-2.7511468,15.412714,-41.595257,57.78695,-26.47072,6.9399066,3.1510866,-12.175199,-9.662123,46.51759,61.60196,23.076918,14.869954,-13.173444
17,-0.06939350068569183,2.3787403106689453,78.07152557373047,-0.21299956672064183,-2.014969384193837,-91.21344349739329,6.7508764,7.9827824,13.608444,7.235084,-10.692132,-8.01297,6.6080546,-9.016304,-22.295385,7.1939025,-10.117673,7.2402134,-0.44666576,1.4933407,7.449913,-2.7520263,15.415151,-41.58852,57.79559,-26.475628,6.945009,3.1242335,-12.170864,-9.659901,46.54647,61.59855,23.081041,14.876939,-13.221638
18,-0.05961465835571289,2.3725359439849854,78.07191467285156,-0.21226913563866223,-2.0135408813515285,-91.20076370182547,6.7449293,7.981321,13.601015,7.240706,-10.695654,-8.006186,6.6112423,-9.018936,-22.302544,7.196806,-10.123717,7.2369084,-0.44206962,1.4874998,7.447527,-2.75779,15.415985,-41.584217,57.810116,-26.478231,6.9565616,3.0834916,-12.165301,-9.659093,46.55386,61.5871,23.076014,14.907811,-13.234458
19,-0.0576944500207901,2.3699533939361572,78.07257843017578,-0.21247664938368999,-2.0112892861095415,-91.18757119018676,6.7389507,7.979813,13.592688,7.2444987,-10.698497,-7.999804,6.614073,-9.021317,-22.310501,7.1994042,-10.129619,7.2334356,-0.44485685,1.4799627,7.444965,-2.7639658,15.417804,-41.572124,57.82754,-26.477304,6.9695573,3.0409408,-12.160238,-9.657184,46.562943,61.57185,23.07119,14.945848,-13.233097
20,-0.05730924382805824,2.366539239883423,78.07305908203125,-0.21267012559262746,-2.009082070670422,-91.17697778850277,6.734301,7.9786305,13.584483,7.245483,-10.69942,-7.997508,6.616848,-9.022374,-22.317984,7.1983523,-10.132099,7.232462,-0.4449896,1.4757586,7.443992,-2.7672675,15.418427,-41.57068,57.837936,-26.478275,6.976702,3.0167387,-12.158256,-9.656456,46.566402,61.5641,23.065565,14.973619,-13.232268
21,-0.0697166845202446,2.367236375808716,78.07261657714844,-0.21312226797865597,-2.0061350997382883,-91.16871914807928,6.7312465,7.977176,13.574209,7.240912,-10.697007,-8.002083,6.616523,-9.022542,-22.325617,7.1984434,-10.133027,7.2348905,-0.45171353,1.4729449,7.444666,-2.7676775,15.419059,-41.575344,57.843845,-26.48092,6.9748144,3.0177307,-12.160668,-9.65567,46.577507,61.564697,23.061634,14.990499,-13.239374
22,-0.0730389803647995,2.3683114051818848,78.07319641113281,-0.21385134166598943,-2.002529980325032,-91.16175638881366,6.7282214,7.975918,13.562316,7.233994,-10.693086,-8.011066,6.6182017,-9.020219,-22.334301,7.190097,-10.128421,7.239107,-0.4638746,1.4729793,7.4453635,-2.763113,15.419692,-41.58593,57.84408,-26.485834,6.9673033,3.0356336,-12.166669,-9.654772,46.593857,61.571346,23.060453,15.003686,-13.244744
23,-0.0740862563252449,2.366004467010498,78.07280731201172,-0.21518240643072964,-1.9995019547092379,-91.15709121014326,6.7268944,7.9750447,13.55293,7.2259607,-10.68847,-8.019772,6.620114,-9.017786,-22.341595,7.1809506,-10.123107,7.244556,-0.47640988,1.4730977,7.4435472,-2.7545946,15.420731,-41.59991,57.84192,-26.495293,6.959112,3.0574641,-12.171758,-9.653004,46.615265,61.580368,23.067278,15.008747,-13.246004
24,-0.061244167387485504,2.3654606342315674,78.07304382324219,-0.21552179110168612,-1.9980872869290673,-91.15590411764705,6.727057,7.9748073,13.549878,7.2233663,-10.687582,-8.023256,6.620992,-9.017069,-22.34516,7.1774926,-10.12207,7.2504597,-0.48026174,1.4705448,7.4425936,-2.7480807,15.421273,-41.60482,57.840073,-26.500996,6.957277,3.0671327,-12.174179,-9.65197,46.62396,61.586445,23.077208,15.003288,-13.236744
25,-0.060551099479198456,2.3652055263519287,78.07270050048828,-0.21309544683020354,-2.0002610562362184,-91.15954647452332,6.73205,7.9747877,13.557135,7.226596,-10.691072,-8.017717,6.6271105,-9.017957,-22.344471,7.172658,-10.123319,7.259211,-0.47423527,1.4638083,7.440969,-2.738439,15.422489,-41.596096,57.835114,-26.505442,6.965711,3.0579464,-12.172172,-9.649499,46.623024,61.59085,23.098284,14.978214,-13.211507
26,-0.06520506739616394,2.365730047225952,78.07275390625,-0.20934953767057618,-2.0049846048981332,-91.16699974875984,6.740356,7.97498,13.571412,7.233805,-10.697463,-8.006582,6.636517,-9.019803,-22.340635,7.167258,-10.1262245,7.2702594,-0.4583848,1.4536486,7.4396834,-2.731514,15.422748,-41.58189,57.83201,-26.509104,6.980519,3.0374775,-12.165901,-9.648872,46.610794,61.592155,23.125523,14.938889,-13.173691
27,-0.0658334419131279,2.3617491722106934,78.0719223022461,-0.20601144538957544,-2.0085095320391515,-91.17584899311377,6.74755,7.976193,13.5866165,7.2405515,-10.703455,-7.996037,6.642838,-9.020889,-22.335253,7.1638937,-10.129359,7.278821,-0.44286808,1.4443966,7.438512,-2.7252872,15.422848,-41.56759,57.82866,-26.512642,6.993954,3.0190332,-12.159838,-9.648583,46.597095,61.590744,23.15189,14.900827,-13.136145
28,-0.0650397464632988,2.3575119972229004,78.07122039794922,-0.20642722529430463,-2.0077017173782132,-91.18430162689397,6.749398,7.979427,13.597281,7.2446017,-10.707313,-7.9924035,6.6420345,-9.019067,-22.329334,7.1625576,-10.130374,7.2799993,-0.43406552,1.438774,7.440134,-2.7212417,15.423335,-41.54831,57.823803,-26.502792,7.00228,3.009658,-12.159462,-9.648099,46.57612,61.590313,23.155903,14.87657,-13.103541
29,-0.062055524438619614,2.353952169418335,78.0707015991211,-0.20944525588070007,-1.999243522898901,-91.19253283537263,6.7435946,7.985245,13.601291,7.2401557,-10.705448,-7.9995923,6.6291842,-9.01217,-22.322506,7.163832,-10.127618,7.2686453,-0.4371991,1.441389,7.4384837,-2.7178786,15.424012,-41.54832,57.818157,-26.495577,6.997376,3.023235,-12.166277,-9.647435,46.57007,61.592026,23.14401,14.874812,-13.082221
30,-0.06448138505220413,2.351714849472046,78.0708999633789,-0.21546884938954297,-1.9863359335431434,-91.2011401789474,6.733262,7.9934373,13.601649,7.231295,-10.700541,-8.013539,6.6091995,-9.001487,-22.314632,7.1666355,-10.122588,7.248631,-0.44742683,1.4477109,7.434224,-2.7168682,15.424785,-41.5568,57.815895,-26.488064,6.9850082,3.0487983,-12.17442,-9.64668,46.57255,61.592785,23.124374,14.885172,-13.069841
31,-0.06567777693271637,2.3503623008728027,78.07177734375,-0.22257695605533628,-1.9715098805078668,-91.20884952288098,6.719394,8.001765,13.60052,7.2240252,-10.695954,-8.0283375,6.585202,-8.991759,-22.307089,7.1729484,-10.118643,7.2287245,-0.45659482,1.4569184,7.425187,-2.7118351,15.4265995,-41.58325,57.809174,-26.496204,6.968044,3.0848482,-12.1871195,-9.644569,46.5806,61.602974,23.11376,14.898097,-13.066591
32,-0.07538881152868271,2.354097843170166,78.07255554199219,-0.2271662690629364,-1.9628538944772416,-91.2127039785651,6.7124205,8.006864,13.598878,7.218624,-10.6931095,-8.038153,6.572983,-8.985159,-22.304035,7.1747513,-10.116392,7.2180486,-0.46162716,1.461177,7.420734,-2.7088196,15.428861,-41.60274,57.803764,-26.502777,6.958572,3.1093502,-12.192905,-9.641605,46.583984,61.60822,23.118542,14.902791,-13.078271
33,-0.07757273316383362,2.3550710678100586,78.07318878173828,-0.22750451018224413,-1.9623599876346383,-91.2122256083359,6.713882,8.008599,13.597256,7.217189,-10.693547,-8.041503,6.5761933,-8.982353,-22.306515,7.169444,-10.116025,7.2209783,-0.46229908,1.4615917,7.4212546,-2.704079,15.43119,-41.613483,57.794987,-26.512959,6.9586587,3.1226132,-12.196827,-9.638396,46.58069,61.61898,23.154543,14.891183,-13.109782
34,-0.07563579827547073,2.353154182434082,78.07294464111328,-0.22837457915134332,-1.9659371285164262,-91.2088517792813,6.7196016,8.008021,13.595265,7.2176714,-10.695511,-8.041501,6.586032,-8.982519,-22.3123,7.163269,-10.118018,7.2319756,-0.46614325,1.4587501,7.423862,-2.699463,15.431618,-41.61309,57.78954,-26.522272,6.9629526,3.1279457,-12.198307,-9.637722,46.577522,61.62682,23.20538,14.873935,-13.151281
35,-0.07594912499189377,2.350923538208008,78.07254791259766,-0.22719019578773958,-1.9708920950325133,-91.20326441320994,6.7259717,8.005986,13.59227,7.219612,-10.698022,-8.03915,6.5992007,-8.984478,-22.319855,7.1564054,-10.120828,7.245185,-0.46627852,1.4556727,7.4291835,-2.6948974,15.431838,-41.611923,57.781128,-26.53118,6.9690385,3.1308992,-12.199162,-9.637304,46.574444,61.63283,23.255173,14.858222,-13.201067
36,-0.07493054866790771,2.3490169048309326,78.07144927978516,-0.2240321442235567,-1.9746676799829332,-91.196544184866,6.730994,8.002383,13.588242,7.219042,-10.698037,-8.035484,6.6111155,-8.987246,-22.327185,7.14936,-10.121905,7.2544765,-0.46140945,1.452081,7.4378185,-2.6942742,15.432914,-41.610817,57.771404,-26.53669,6.9743457,3.1325834,-12.201507,-9.6355505,46.57373,61.63293,23.279072,14.856306,-13.251563
37,-0.06433862447738647,2.3434386253356934,78.07122802734375,-0.2201756939954961,-1.9723980643255818,-91.18890958216231,6.7261267,7.996252,13.583667,7.2227607,-10.698201,-8.028348,6.6128416,-8.993983,-22.332106,7.149958,-10.124142,7.2581906,-0.45394492,1.442238,7.4399276,-2.7016735,15.433838,-41.613552,57.775425,-26.54436,6.973613,3.1302133,-12.199442,-9.633687,46.585632,61.61691,23.244535,14.885333,-13.288712
38,-0.06689964979887009,2.343508720397949,78.07138061523438,-0.21336106766782822,-1.967876565103784,-91.17968226589181,6.718516,7.9876037,13.578479,7.2249703,-10.696162,-8.018031,6.610713,-9.003799,-22.336535,7.154466,-10.126911,7.25963,-0.4412446,1.429976,7.441509,-2.713346,15.43443,-41.617783,57.783398,-26.550543,6.971119,3.1242042,-12.196459,-9.632092,46.60146,61.5926,23.173143,14.933545,-13.32265
39,-0.0670730248093605,2.340574264526367,78.07160186767578,-0.20757941915378836,-1.9628635154557068,-91.17100757226982,6.7106676,7.979618,13.573326,7.22621,-10.693784,-8.00907,6.6075997,-9.012345,-22.340612,7.159775,-10.130163,7.259615,-0.43580607,1.4171064,7.439083,-2.724219,15.435002,-41.62246,57.796005,-26.564775,6.966472,3.1198118,-12.19117,-9.629337,46.63246,61.56797,23.114191,14.976231,-13.354387
40,-0.0714576244354248,2.339993953704834,78.07157897949219,-0.2041371443691209,-1.9595580492598208,-91.16487881538748,6.7062407,7.975999,13.568745,7.2260656,-10.692261,-8.006041,6.6063485,-9.016082,-22.344477,7.162014,-10.1322775,7.259397,-0.434452,1.4101324,7.4389505,-2.7292361,15.435283,-41.622295,57.8015,-26.576199,6.9620414,3.119422,-12.190058,-9.627483,46.64773,61.556313,23.090487,14.990921,-13.371378
41,-0.07345236092805862,2.3406407833099365,78.07192993164062,-0.20801771522503518,-1.9596588935885437,-91.1633003846108,6.7070317,7.9804206,13.565152,7.2241,-10.692335,-8.013245,6.6095376,-9.010221,-22.34818,7.156862,-10.131506,7.257651,-0.4465712,1.4115207,7.440543,-2.7246318,15.435786,-41.614334,57.799904,-26.589804,6.956872,3.1270988,-12.192095,-9.6247835,46.65101,61.563503,23.125584,14.958282,-13.364985
42,-0.06655862927436829,2.339622735977173,78.07257080078125,-0.21630809990890001,-1.9614003139652179,-91.16463879816021,6.7112985,7.9897466,13.562302,7.2202883,-10.693141,-8.027199,6.6126204,-8.999326,-22.3513,7.1531153,-10.132127,7.254388,-0.46227348,1.4179341,7.442778,-2.7171369,15.436138,-41.60716,57.79574,-26.606052,6.950765,3.1401653,-12.19524,-9.623741,46.641296,61.581882,23.195436,14.895749,-13.340362
43,-0.0741315558552742,2.339776039123535,78.07234954833984,-0.22271833778712896,-1.9631737646953369,-91.16614435575967,6.7161,7.998729,13.559666,7.2152553,-10.693172,-8.04095,6.617422,-8.987852,-22.354288,7.145202,-10.130409,7.252243,-0.47457033,1.4248989,7.4493146,-2.710362,15.4374,-41.594017,57.786293,-26.613945,6.946996,3.150356,-12.201651,-9.6214695,46.61592,61.602123,23.262722,14.832612,-13.314271
44,-0.07862105220556259,2.3378641605377197,78.07292938232422,-0.22517300299599557,-1.9623263338688848,-91.16517638014115,6.716744,8.001436,13.556979,7.2121577,-10.692138,-8.047275,6.618998,-8.983646,-22.35678,7.1401815,-10.128937,7.2541404,-0.4779219,1.4241972,7.451952,-2.710176,15.438414,-41.588512,57.78292,-26.62235,6.9450383,3.1537607,-12.203545,-9.620073,46.603523,61.60796,23.315247,14.799359,-13.314185
45,-0.07732421159744263,2.337892770767212,78.07218170166016,-0.22126799624517088,-1.95887044562327,-91.16062148018288,6.7125745,7.9949493,13.554909,7.21243,-10.68974,-8.041513,6.6184134,-8.989565,-22.358013,7.137357,-10.126863,7.26358,-0.46512765,1.4157065,7.4527836,-2.714825,15.43881,-41.58626,57.779823,-26.621006,6.944131,3.1457431,-12.204527,-9.619479,46.6007,61.605972,23.33406,14.804034,-13.345529
46,-0.07894423604011536,2.337768316268921,78.0713882446289,-0.2117849898088825,-1.9526015883042078,-91.15355281018661,6.705293,7.981334,13.553079,7.211673,-10.684319,-8.028164,6.6159496,-9.002531,-22.358856,7.1345644,-10.123622,7.27832,-0.43915367,1.3989979,7.4554386,-2.7306278,15.439268,-41.58333,57.781498,-26.610601,6.944359,3.1269193,-12.2036705,-9.618645,46.603436,61.58823,23.347015,14.836323,-13.410224
47,-0.08030015975236893,2.3376312255859375,78.07024383544922,-0.20394916300011776,-1.9457527843884364,-91.14628706732489,6.6968074,7.9677663,13.55089,7.21211,-10.679725,-8.014796,6.611686,-9.015936,-22.359673,7.1343884,-10.1219015,7.2917438,-0.4197678,1.3835716,7.4564447,-2.7441082,15.439726,-41.58206,57.781322,-26.605038,6.9494305,3.108752,-12.204115,-9.617385,46.612846,61.57076,23.352646,14.872699,-13.471197
48,-0.06833121180534363,2.335787773132324,78.06999206542969,-0.19750947154026932,-1.9388677158632734,-91.14016582962348,6.68926,7.9587717,13.547102,7.209378,-10.675518,-8.00863,6.606318,-9.024453,-22.361958,7.134994,-10.121684,7.297657,-0.41609213,1.3722334,7.4584312,-2.7613564,15.440272,-41.58522,57.785213,-26.611654,6.964466,3.0948002,-12.206707,-9.615676,46.627537,61.547215,23.373335,14.902271,-13.521595
49,-0.07680966705083847,2.3380446434020996,78.06945037841797,-0.2001695493137205,-1.9334590436315946,-91.1356031370575,6.684532,7.9574065,13.540456,7.203122,-10.673311,-8.0147295,6.6020846,-9.024121,-22.367168,7.136013,-10.124899,7.292199,-0.4259445,1.3713481,7.4607286,-2.767508,15.440791,-41.590923,57.785793,-26.628632,6.9839654,3.0994341,-12.212768,-9.613525,46.646595,61.53563,23.408407,14.905191,-13.572963
50,-0.08021896332502365,2.3387606143951416,78.0701904296875,-0.2057102184731428,-1.928755636134493,-91.13185579615234,6.680902,7.9605474,13.531824,7.194583,-10.672129,-8.028201,6.5986915,-9.01865,-22.374102,7.136544,-10.129773,7.279495,-0.4403477,1.3758346,7.465732,-2.7703245,15.441105,-41.595745,57.785732,-26.644873,7.0080676,3.1124735,-12.218885,-9.611989,46.65717,61.52432,23.440382,14.897395,-13.625329
51,-0.06686399132013321,2.3312644958496094,78.07152557373047,-0.21131791948674036,-1.9223493503114282,-91.12855023309034,6.674652,7.964886,13.523284,7.187443,-10.670879,-8.041441,6.5929427,-9.012121,-22.38109,7.136443,-10.133351,7.264722,-0.47113928,1.3836652,7.470279,-2.7825134,15.442323,-41.61593,57.780933,-26.681414,7.049442,3.1182964,-12.234822,-9.609328,46.669933,61.510254,23.477892,14.898296,-13.636429
52,-0.06832460314035416,2.3332467079162598,78.07258605957031,-0.21429979616729458,-1.9121735730279295,-91.12637285469805,6.6624336,7.967479,13.517747,7.184014,-10.667402,-8.047181,6.581039,-9.008967,-22.38544,7.1378555,-10.134063,7.25296,-0.5027897,1.3896306,7.468025,-2.8278046,15.447844,-41.69665,57.776848,-26.762596,7.116683,3.099033,-12.257425,-9.603258,46.64754,61.490032,23.498537,14.927097,-13.547606
53,-0.07260243594646454,2.3347270488739014,78.07417297363281,-0.21330850770345278,-1.8999261926628976,-91.1291684329485,6.6466355,7.968094,13.519984,7.1863413,-10.661647,-8.041797,6.5606675,-9.01071,-22.38202,7.145345,-10.131507,7.243224,-0.5091792,1.3875291,7.4655814,-2.9198768,15.464999,-41.89129,57.77456,-26.90199,7.2224293,3.0652435,-12.2792425,-9.592,46.517292,61.459602,23.462051,15.007442,-13.271502
54,-0.07421862334012985,2.336179733276367,78.07591247558594,-0.21086927155713975,-1.88575993293948,-91.13545440396672,6.6271334,7.968421,13.527158,7.194191,-10.655309,-8.02978,6.5367103,-9.013876,-22.374237,7.152145,-10.124916,7.2335396,-0.5171319,1.3831962,7.4645734,-3.035117,15.49013,-42.146294,57.765312,-27.07961,7.358224,3.0202456,-12.306855,-9.581097,46.334316,61.419018,23.39523,15.122559,-12.862132
55,-0.07296676933765411,2.339785099029541,78.07760620117188,-0.20708690630482368,-1.8666613484859353,-91.13729181304116,6.601394,7.966704,13.530609,7.199221,-10.645683,-8.015715,6.5091543,-9.018381,-22.37063,7.1554856,-10.115725,7.2276573,-0.53398055,1.3795133,7.459098,-3.1794066,15.518889,-42.403316,57.748898,-27.269619,7.5089207,2.9348242,-12.344167,-9.572447,46.161,61.36282,23.335688,15.236631,-12.468481
56,-0.07360755652189255,2.343533754348755,78.07846069335938,-0.20192155559875116,-1.839342431213936,-91.12647361300147,6.564193,7.9618306,13.5212,7.1988287,-10.633025,-8.004362,6.4808292,-9.023057,-22.380814,7.149402,-10.105175,7.229123,-0.5012144,1.3643894,7.4444284,-3.3816583,15.580509,-42.691776,57.712486,-27.475666,7.6615815,2.7854037,-12.373908,-9.562405,45.97245,61.27742,23.297068,15.314041,-12.234434
57,-0.07962264120578766,2.3495664596557617,78.07898712158203,-0.19781916745445058,-1.8011279030117173,-91.09822980790032,6.5120873,7.9514856,13.494088,7.1913104,-10.617386,-7.9952407,6.4544506,-9.028306,-22.410566,7.1255546,-10.090964,7.245731,-0.52418727,1.3585845,7.4193926,-3.6040337,15.628845,-42.871075,57.68121,-27.65712,7.827685,2.50079,-12.428359,-9.557145,45.942947,61.193302,23.345383,15.345998,-12.221918
58,-0.07766880840063095,2.355666160583496,78.07945251464844,-0.19178454813688958,-1.7543558288137848,-91.05766544451967,6.448229,7.936973,13.454867,7.177851,-10.597978,-7.986626,6.4256167,-9.035301,-22.453382,7.0943675,-10.076076,7.2730865,-0.53297174,1.3435029,7.3891277,-3.8539417,15.720265,-43.061226,57.613052,-27.859713,8.013984,2.1213257,-12.483801,-9.55026,45.94478,61.096523,23.429153,15.349907,-12.342109
59,-0.07193174213171005,2.356532096862793,78.08073425292969,-0.18653167975272553,-1.7033189957449295,-91.01201985040123,6.3792534,7.9225,13.410532,7.1612954,-10.576137,-7.980419,6.3956943,-9.040636,-22.501503,7.057806,-10.058781,7.297338,-0.55814093,1.3280307,7.355613,-4.119122,15.834551,-43.19426,57.49029,-28.035719,8.188051,1.7567685,-12.564282,-9.544528,45.964317,60.95686,23.524706,15.335478,-12.538908
60,-0.07316016405820847,2.3578317165374756,78.08289337158203,-0.18337769671058757,-1.6522825770943215,-90.96847041734604,6.309947,7.9128327,13.367924,7.145753,-10.553066,-7.978782,6.358603,-9.043913,-22.545975,7.0341425,-10.046039,7.304484,-0.58335406,1.3130717,7.3181086,-4.409606,15.964314,-43.26944,57.299786,-28.16287,8.315897,1.5215853,-12.676045,-9.541817,45.932335,60.73686,23.596481,15.312027,-12.753679
61,-0.07722800225019455,2.3599116802215576,78.08509063720703,-0.18310264911351082,-1.5978605265952797,-90.92899453111498,6.237485,7.9102535,13.328847,7.130011,-10.527147,-7.98414,6.309037,-9.042387,-22.583824,7.0232897,-10.0356045,7.282939,-0.6015499,1.298902,7.271302,-4.7301884,16.111769,-43.311672,57.05814,-28.196432,8.378399,1.437082,-12.811445,-9.544008,45.83191,60.438747,23.63587,15.289605,-12.9762125
62,-0.08260806649923325,2.3619680404663086,78.08763122558594,-0.18566752736383288,-1.539335971723954,-90.8896900991372,6.1589723,7.9124665,13.289483,7.1156683,-10.499837,-7.9948144,6.2484274,-9.038146,-22.61983,7.0235167,-10.028389,7.242735,-0.6140607,1.2851624,7.2167664,-5.0811114,16.278023,-43.325294,56.77095,-28.165617,8.395943,1.4457586,-12.964079,-9.55199,45.688805,60.073082,23.658627,15.261087,-13.235407
63,-0.08074785768985748,2.364224672317505,78.09178161621094,-0.1868186400978013,-1.4850354815500955,-90.84918858696813,6.0860476,7.915088,13.248847,7.0995107,-10.471793,-8.006376,6.1946573,-9.032959,-22.65767,7.0210886,-10.020884,7.202393,-0.6261653,1.2701546,7.1646223,-5.4527893,16.461843,-43.263508,56.39524,-28.153753,8.3948555,1.5428237,-13.150775,-9.567953,45.511326,59.62213,23.668936,15.210139,-13.531374
64,-0.09993532299995422,2.372352123260498,78.09414672851562,-0.18800185000143577,-1.443581290842145,-90.80615692219094,6.0271735,7.915177,13.205621,7.084932,-10.447236,-8.014626,6.1615367,-9.029115,-22.700718,7.0095677,-10.012584,7.1802616,-0.64394283,1.2537891,7.1248612,-5.8356166,16.661043,-43.078888,55.88816,-28.244251,8.401385,1.7234955,-13.3830385,-9.593635,45.30354,59.06282,23.665756,15.121025,-13.864598
65,-0.11100427806377411,2.3739705085754395,78.0963363647461,-0.18736140840302173,-1.4158411132042037,-90.75864045165258,5.984201,7.9115143,13.157999,7.0704503,-10.425702,-8.018724,6.154063,-9.027338,-22.753069,6.984047,-10.003143,7.185566,-0.67211896,1.2357328,7.0960975,-6.222582,16.875944,-42.742676,55.24267,-28.467888,8.428304,2.0076766,-13.663695,-9.631782,45.07929,58.38974,23.638527,14.998763,-14.235376
66,-0.11852636188268661,2.37501859664917,78.09711456298828,-0.1848245010752762,-1.397959726642726,-90.70801167755437,5.9529614,7.9059963,13.107169,7.055837,-10.406627,-8.020781,6.1506143,-9.031697,-22.809658,6.980558,-10.009535,7.2070904,-0.70871896,1.2172168,7.0733676,-6.6174097,17.108442,-42.282417,54.479652,-28.776064,8.458361,2.3905096,-13.983617,-9.683456,44.8336,57.611988,23.588747,14.8497095,-14.643573
67,-0.11925629526376724,2.3802154064178467,78.0963363647461,-0.18262181113606799,-1.3903487480044447,-90.65742077431146,5.931563,7.89942,13.056293,7.044434,-10.390085,-8.021061,6.158752,-9.037468,-22.865515,6.9774413,-10.0170965,7.2326775,-0.74735767,1.1989622,7.060744,-7.0298944,17.35759,-41.73922,53.603344,-29.13498,8.472506,2.830775,-14.345087,-9.747841,44.550903,56.735294,23.545368,14.658613,-15.087564
68,-0.11887788027524948,2.3897719383239746,78.09597778320312,-0.18028256303241613,-1.393916149175028,-90.6102535910484,5.921436,7.8920755,13.008919,7.0355344,-10.375914,-8.019574,6.175755,-9.043842,-22.914146,6.976526,-10.023364,7.250132,-0.78142715,1.181955,7.0619535,-7.470991,17.619776,-41.154438,52.61996,-29.509933,8.452514,3.2868903,-14.7483635,-9.823029,44.210464,55.76689,23.530756,14.410194,-15.565578
69,-0.11446769535541534,2.3917458057403564,78.0963134765625,-0.17553246990015467,-1.4105876738358711,-90.56103909139122,5.9220934,7.880882,12.959931,7.030965,-10.36449,-8.014158,6.207454,-9.052834,-22.958897,6.9754844,-10.027757,7.2574887,-0.8106643,1.1636516,7.0761633,-7.945096,17.89199,-40.519783,51.53324,-29.95899,8.390809,3.7671108,-15.189193,-9.910734,43.79274,54.702435,23.570204,14.079029,-16.068686
70,-0.11853106319904327,2.394217014312744,78.09606170654297,-0.17021219107455848,-1.4395374996753445,-90.51016355004204,5.934228,7.866654,12.909608,7.028733,-10.35531,-8.005405,6.252244,-9.064402,-23.001387,6.975047,-10.031341,7.2608867,-0.83563685,1.144977,7.0994835,-8.448966,18.17318,-39.823357,50.34633,-30.47761,8.296018,4.2867885,-15.664738,-10.012831,43.310272,53.539337,23.641241,13.680199,-16.599245
71,-0.12236259877681732,2.4112813472747803,78.09654235839844,-0.16492182463293534,-1.476745258372641,-90.46956689322334,5.9569592,7.8554068,12.869092,7.028695,-10.348531,-7.99782,6.3021774,-9.072856,-23.033455,6.9739504,-10.032966,7.2599783,-0.8518276,1.1304553,7.130821,-8.983912,18.462103,-39.101128,49.067238,-30.939833,8.176113,4.8147597,-16.184868,-10.126718,42.796555,52.29539,23.701307,13.257904,-17.172695
72,-0.11932379752397537,2.4165146350860596,78.09754943847656,-0.16564403891479065,-1.518487674218731,-90.45134296493846,5.9909525,7.852999,12.849786,7.0262437,-10.341418,-7.9959807,6.347568,-9.073012,-23.04626,6.973256,-10.0321245,7.254472,-0.85429263,1.1248277,7.1681886,-9.553146,18.756859,-38.390793,47.705597,-31.221258,8.041593,5.3205714,-16.760965,-10.246076,42.282997,50.991436,23.706194,12.857192,-17.805517
73,-0.12355347722768784,2.4317808151245117,78.1003646850586,-0.17150723214723,-1.5671252980672186,-90.4645408500281,6.0388293,7.864922,12.859084,7.0266495,-10.337217,-8.003783,6.387021,-9.060037,-23.032495,6.973169,-10.028218,7.2419577,-0.8384243,1.1325564,7.2128134,-10.1582775,19.056507,-37.701633,46.257,-31.2345,7.901983,5.81454,-17.402819,-10.364439,41.778503,49.637516,23.640692,12.495681,-18.524883
74,-0.12318681925535202,2.441298484802246,78.1024398803711,-0.18217476383353026,-1.623535848285634,-90.50074279821574,6.1014934,7.8861904,12.8898115,7.0262117,-10.334206,-8.017937,6.4260745,-9.037751,-22.998375,6.9719434,-10.021319,7.2233663,-0.8094252,1.1495184,7.26137,-10.797899,19.3607,-37.014492,44.723732,-31.065067,7.7532163,6.3075533,-18.10872,-10.480109,41.268795,48.234158,23.529263,12.148391,-19.315098
75,-0.12626878917217255,2.466975212097168,78.10417175292969,-0.19168325746737266,-1.681701430233523,-90.54590915968257,6.169273,7.908721,12.930253,7.023021,-10.330035,-8.0319195,6.462802,-9.014702,-22.956074,6.9717064,-10.012949,7.2034707,-0.7754761,1.1680074,7.3075347,-11.4697,19.667278,-36.322533,43.121624,-30.843534,7.5861225,6.769925,-18.86515,-10.591908,40.74388,46.77716,23.386734,11.796467,-20.12956
76,-0.13852021098136902,2.4799156188964844,78.10393524169922,-0.19909836912176945,-1.7355823017333882,-90.58580688884209,6.230468,7.924986,12.968436,7.0213103,-10.326862,-8.039123,6.497121,-8.998453,-22.917992,6.971255,-10.003547,7.1870003,-0.74489754,1.1802392,7.3444147,-12.173042,19.972477,-35.61994,41.469463,-30.702087,7.3887386,7.1721783,-19.6605,-10.700354,40.195732,45.265137,23.228592,11.420358,-20.921303
77,-0.14491064846515656,2.4970297813415527,78.10222625732422,-0.2005789171353801,-1.7831104812652738,-90.61933377822989,6.283272,7.9324985,13.005354,7.0173326,-10.321221,-8.036164,6.5269136,-8.991998,-22.88459,6.9704657,-9.991957,7.174261,-0.7158977,1.1846647,7.366391,-12.919847,20.274878,-34.91509,39.777954,-30.65653,7.135729,7.489524,-20.492613,-10.806842,39.620037,43.69348,23.052801,10.9967,-21.701635
78,-0.14250004291534424,2.5190820693969727,78.10008239746094,-0.19950162074313135,-1.827564191548956,-90.65317646532887,6.3330436,7.935446,13.04592,7.0129933,-10.315505,-8.027033,6.5532947,-8.990686,-22.850353,6.9696803,-9.978545,7.1630273,-0.68476087,1.1852313,7.3762846,-13.708312,20.573608,-34.208862,38.040154,-30.642488,6.839582,7.7436414,-21.368101,-10.912692,39.022606,42.066902,22.854204,10.54264,-22.487793
79,-0.14013448357582092,2.5356216430664062,78.09845733642578,-0.19677982910659936,-1.8714105164589918,-90.68497616707775,6.381922,7.9355116,13.084635,7.007268,-10.309319,-8.016537,6.5794024,-8.992165,-22.818092,6.9696097,-9.965452,7.154608,-0.6562475,1.1836908,7.380053,-14.521871,20.865005,-33.48707,36.250076,-30.674908,6.5436754,7.9739122,-22.279491,-11.01672,38.404636,40.388,22.63711,10.099703,-23.242527
80,-0.12779030203819275,2.5492355823516846,78.09941101074219,-0.19485802958998405,-1.9170686032765865,-90.712197443268,6.4335837,7.9336615,13.1162815,6.9976416,-10.302761,-8.0094185,6.6097927,-8.993728,-22.791105,6.9679947,-9.953235,7.1503468,-0.635829,1.1811851,7.3827996,-15.342792,21.143414,-32.732277,34.402756,-30.76565,6.2908435,8.219465,-23.227856,-11.116839,37.772427,38.66656,22.416191,9.708066,-23.928263
81,-0.12142416089773178,2.5621836185455322,78.10173797607422,-0.19398441563093272,-1.9646336202384078,-90.72906254243944,6.4870915,7.9283943,13.133813,6.9800925,-10.293074,-8.007439,6.644966,-8.997013,-22.7751,6.96664,-9.943676,7.153528,-0.62891334,1.177957,7.383867,-16.171211,21.404398,-31.930193,32.493805,-30.935127,6.090756,8.472778,-24.214718,-11.211534,37.12105,36.894627,22.17788,9.380085,-24.543316
82,-0.11559917032718658,2.5764307975769043,78.10425567626953,-0.19416685418689372,-2.01300205940083,-90.73850857855888,6.5337887,7.921294,13.140919,6.973994,-10.290707,-8.007899,6.683832,-9.002074,-22.767056,6.9645767,-9.935801,7.1623816,-0.6314773,1.1742316,7.377975,-17.018414,21.646936,-31.092512,30.53515,-31.169888,5.9195943,8.719003,-25.239576,-11.299968,36.449627,35.074593,21.922182,9.093388,-25.105503
83,-0.11699038743972778,2.589263439178467,78.10768127441406,-0.1942691366060367,-2.0628698838808863,-90.75165892160744,6.5820136,7.9156337,13.150437,6.972204,-10.291594,-8.008976,6.7233944,-9.006466,-22.755482,6.963479,-9.928518,7.1710153,-0.6353953,1.1713076,7.363795,-17.886099,21.871082,-30.243324,28.548084,-31.43522,5.770372,8.987157,-26.302525,-11.381203,35.77036,33.23449,21.683044,8.835389,-25.606447
84,-0.10492608696222305,2.6033244132995605,78.11054992675781,-0.19455238017600512,-2.114804561462653,-90.77951695027562,6.6388373,7.914116,13.175113,6.9716215,-10.294604,-8.008726,6.762418,-9.007157,-22.729002,6.9624505,-9.91996,7.1733785,-0.63235366,1.1699443,7.340912,-18.774761,22.07687,-29.406025,26.55061,-31.694935,5.636186,9.306217,-27.403456,-11.453333,35.0946,31.400164,21.495499,8.593081,-26.03771
85,-0.09546690434217453,2.617886543273926,78.11165618896484,-0.19616657613847907,-2.169610810710083,-90.83092421073894,6.709904,7.9199233,13.223738,6.970821,-10.299386,-8.00642,6.799766,-9.001485,-22.67884,6.9619746,-9.909241,7.1649413,-0.6150384,1.1727355,7.3078084,-19.691513,22.265385,-28.59287,24.535543,-31.937143,5.5195923,9.712458,-28.537275,-11.511169,34.415142,29.564308,21.342531,8.368472,-26.379404
86,-0.09032037854194641,2.6280999183654785,78.11030578613281,-0.199952196301718,-2.2270076316750917,-90.89808144339521,6.7913547,7.930078,13.2878895,6.9699154,-10.305865,-8.003101,6.8375673,-8.991673,-22.613146,6.9605336,-9.896757,7.149903,-0.5916502,1.1766186,7.2628694,-20.633385,22.436184,-27.788244,22.499254,-32.180473,5.4209414,10.18158,-29.719511,-11.555284,33.734318,27.731604,21.22386,8.164568,-26.641537
87,-0.10191022604703903,2.6351547241210938,78.10719299316406,-0.20259123375264365,-2.2853502839914426,-90.96687161655686,6.874197,7.9407563,13.354151,6.9697204,-10.313196,-7.9999065,6.8753524,-8.981878,-22.545431,6.960898,-9.885558,7.1353536,-0.5687704,1.1794475,7.2103734,-21.598219,22.58687,-26.982063,20.464764,-32.441574,5.3322678,10.651894,-30.935852,-11.585591,33.052025,25.907867,21.156898,7.971738,-26.861717
88,-0.0956295058131218,2.6448183059692383,78.10379791259766,-0.20426407418738896,-2.343210586650731,-91.02324209148362,6.951388,7.9471507,13.409371,6.969154,-10.320463,-7.997755,6.9155097,-8.9758625,-22.489532,6.9609776,-9.876414,7.1283083,-0.55617297,1.1775595,7.152733,-22.584818,22.713636,-26.16264,18.460155,-32.735912,5.2451205,11.061727,-32.190956,-11.606756,32.379433,24.11604,21.175951,7.778243,-27.076126
89,-0.09159951657056808,2.6548526287078857,78.10149383544922,-0.20410234924079285,-2.4022788154143155,-91.06131550664347,7.022468,7.9470444,13.448432,6.9676304,-10.328161,-7.9975867,6.9620767,-8.97527,-22.45174,6.959066,-9.870251,7.1333823,-0.5550502,1.169177,7.0957227,-23.596848,22.81014,-25.32057,16.488626,-33.046066,5.1506844,11.3934145,-33.478,-11.620265,31.710623,22.34095,21.293169,7.579775,-27.294916
90,-0.07154742628335953,2.6632540225982666,78.10128021240234,-0.2039053435201489,-2.4625574753344273,-91.08926830767102,7.090489,7.9434986,13.478821,6.9664235,-10.336807,-7.9987626,7.0121512,-8.978084,-22.424013,6.95809,-9.867172,7.14588,-0.57262146,1.1556097,7.0282264,-24.637861,22.87601,-24.457388,14.553138,-33.369606,5.054172,11.68083,-34.840927,-11.641403,31.069101,20.609644,21.53889,7.378812,-27.49623
91,-0.06931179761886597,2.6738736629486084,78.10283660888672,-0.20199410743475749,-2.5204523140934785,-91.11414752959271,7.1547427,7.938976,13.506539,6.964717,-10.344174,-7.9994144,7.060497,-8.981199,-22.398153,6.9562144,-9.863356,7.159002,-0.5666691,1.1391101,6.943507,-25.764805,22.895159,-23.644127,12.701197,-33.751434,4.961524,11.947977,-36.197533,-11.655512,30.411493,18.88806,21.81902,7.184301,-27.67794
92,-0.06541655957698822,2.6857268810272217,78.10498809814453,-0.20332049047166906,-2.5720437743721725,-91.1428267173277,7.2138643,7.936189,13.537505,6.962984,-10.348627,-7.997741,7.1004233,-8.982568,-22.366056,6.954321,-9.855767,7.166058,-0.5633821,1.1372204,6.8581934,-26.901823,22.906096,-22.816208,10.841991,-34.214954,4.9060445,12.185281,-37.568245,-11.663674,29.764372,17.184275,22.100878,7.0096984,-27.825518
93,-0.05826815217733383,2.69647479057312,78.10852813720703,-0.20300017349021757,-2.616110727485552,-91.17591739713737,7.2657847,7.935046,13.572252,6.9626174,-10.348503,-7.9913464,7.1294155,-8.981954,-22.324879,6.954026,-9.843339,7.162913,-0.56309456,1.128129,6.735953,-28.09469,22.905285,-22.032694,9.049412,-34.808205,4.88748,12.4171295,-39.00496,-11.676399,29.156559,15.556064,22.448729,6.860951,-27.948637
94,-0.05331410840153694,2.7067065238952637,78.11237335205078,-0.20304016884808262,-2.6548417038525094,-91.2101926429028,7.312826,7.934317,13.608146,6.9610996,-10.34416,-7.981751,7.151828,-8.980136,-22.279074,6.9531612,-9.826994,7.1540036,-0.5715906,1.1317251,6.613665,-29.289568,22.89625,-21.216417,7.23734,-35.482403,4.915632,12.608509,-40.47757,-11.691906,28.564713,13.946549,22.821856,6.740989,-28.04013
95,-0.0484105609357357,2.716549873352051,78.11474609375,-0.2040985975943957,-2.689226905991348,-91.24654809526557,7.355968,7.93519,13.645586,6.960212,-10.340458,-7.9734845,7.1689167,-8.977108,-22.232119,6.952565,-9.810364,7.144874,-0.5660327,1.134352,6.47978,-30.540451,22.880608,-20.45298,5.4757147,-36.21945,4.9309597,12.799237,-41.945343,-11.7019,27.975319,12.3562355,23.231438,6.6074553,-28.106045
96,-0.04171205684542656,2.725531816482544,78.11482238769531,-0.2053775342969812,-2.7205160746665245,-91.28602905090041,7.397226,7.938067,13.685153,6.9588184,-10.339937,-7.971055,7.1837425,-8.97289,-22.187632,6.951098,-9.796635,7.141215,-0.55786765,1.1363991,6.336922,-31.830387,22.863403,-19.74199,3.7659402,-36.969875,4.895339,13.000239,-43.40203,-11.708132,27.39083,10.7909155,23.702663,6.426335,-28.135347
97,-0.038019727915525436,2.733398675918579,78.11419677734375,-0.20830740104041187,-2.7486938278091415,-91.33329252564177,7.438728,7.945469,13.73109,6.9575615,-10.346295,-7.979201,7.1950994,-8.965553,-22.14416,6.950023,-9.788374,7.146681,-0.5469569,1.146614,6.1958566,-33.147594,22.84516,-19.065948,2.0844412,-37.74351,4.7940807,13.207465,-44.84885,-11.707743,26.806652,9.245251,24.248907,6.181857,-28.133709
98,-0.04080755263566971,2.7428290843963623,78.11235046386719,-0.21343676815047902,-2.773375119060202,-91.38628600626437,7.478817,7.956463,13.78158,6.9564157,-10.356823,-7.994459,7.2029405,-8.955381,-22.10078,6.947507,-9.782232,7.157524,-0.5346187,1.1634607,6.05394,-34.493893,22.825626,-18.41363,0.4274674,-38.555813,4.654613,13.408411,-46.304092,-11.698075,26.221598,7.7279677,24.860472,5.8974085,-28.096037
99,-0.0340387299656868,2.746777296066284,78.11077117919922,-0.21891466163827683,-2.7945902296972918,-91.43596083614975,7.5145364,7.966003,13.828702,6.9549456,-10.367029,-8.0085125,7.20839,-8.946573,-22.061092,6.945579,-9.776963,7.1681714,-0.527994,1.1764073,5.909526,-35.847164,22.80105,-17.792988,-1.214073,-39.350384,4.501316,13.603628,-47.764187,-11.676497,25.644333,6.238406,25.497719,5.5972123,-28.006676
100,-0.030812976881861687,2.754289388656616,78.1104965209961,-0.22099128701906753,-2.8124962121198047,-91.4732046932049,7.541822,7.969694,13.864541,6.9536133,-10.372194,-8.013307,7.212836,-8.943085,-22.028976,6.9442177,-9.769252,7.1730523,-0.5175171,1.1829168,5.751643,-37.24517,22.783207,-17.227718,-2.7965674,-40.11977,4.3582015,13.789709,-49.2142,-11.65545,25.082079,4.7771945,26.121435,5.3042417,-27.853754
101,-0.021733174100518227,2.759052038192749,78.11174011230469,-0.21904269042569074,-2.8272336203128563,-91.49067584650258,7.558893,7.964146,13.881823,6.9515514,-10.370405,-8.003667,7.218438,-8.947207,-22.009073,6.942652,-9.757478,7.1677947,-0.52684534,1.1763307,5.5930815,-38.631027,22.755182,-16.681751,-4.383142,-40.780865,4.25631,13.975078,-50.677937,-11.623853,24.517996,3.3360572,26.732643,5.037805,-27.585423
102,-0.022849930450320244,2.7637276649475098,78.11449432373047,-0.21573475059950664,-2.8383291828107358,-91.49481299914231,7.565894,7.9526196,13.886352,6.9518437,-10.365442,-7.985003,7.2223773,-8.957192,-21.997967,6.943376,-9.744632,7.1563654,-0.5576715,1.1545584,5.441579,-39.993267,22.72209,-16.180008,-5.9922547,-41.358253,4.1593566,14.178094,-52.12433,-11.60465,23.978846,1.8681115,27.364134,4.773731,-27.244883
103,-0.010372399352490902,2.767385244369507,78.11802673339844,-0.21278996213489337,-2.846475550094317,-91.49740040268281,7.5701475,7.9406433,13.890045,6.950888,-10.358676,-7.9646096,7.2244835,-8.967302,-21.988144,6.943224,-9.731504,7.145436,-0.5508797,1.1457843,5.2674203,-41.455746,22.697659,-15.718799,-7.485358,-42.01063,4.0610523,14.326133,-53.563343,-11.589342,23.43693,0.46929005,27.968832,4.5149336,-26.872501
104,0.0010789544321596622,2.771428346633911,78.12117004394531,-0.20939451399545567,-2.851199458714083,-91.50976436307855,7.5753956,7.9326506,13.904233,6.9505754,-10.354857,-7.949884,7.2208996,-8.974536,-21.971766,6.942692,-9.719698,7.1415524,-0.5494209,1.1283557,5.1043153,-42.86143,22.669367,-15.29325,-8.995182,-42.68253,3.9176562,14.416802,-54.973515,-11.5761795,22.932621,-0.91247547,28.544533,4.246798,-26.540731
105,0.0022080829367041588,2.773566246032715,78.12397766113281,-0.2080279067673585,-2.8525902857313006,-91.53625404503333,7.583957,7.9307604,13.934094,6.949314,-10.353295,-7.9437647,7.2117114,-8.976466,-21.946407,6.9410353,-9.711078,7.1500115,-0.524479,1.1165025,4.9369226,-44.271942,22.644262,-14.901524,-10.46879,-43.469585,3.732324,14.406265,-56.363712,-11.565176,22.464796,-2.2378368,29.086851,3.9476144,-26.264256
106,0.004016574006527662,2.777970552444458,78.12579345703125,-0.20771600524293596,-2.8505583835726873,-91.57029880723316,7.592675,7.9322696,13.9727125,6.948923,-10.35376,-7.9420204,7.196789,-8.976676,-21.916132,6.940441,-9.704606,7.1661725,-0.48549825,1.1038979,4.767972,-45.68562,22.617893,-14.54235,-11.914156,-44.32321,3.5213447,14.317604,-57.742546,-11.552126,22.020452,-3.5173714,29.603989,3.6310282,-26.00457
107,0.007542468141764402,2.779411792755127,78.12570190429688,-0.20610680775635365,-2.845203666668296,-91.60730861969624,7.599416,7.9353614,14.013764,6.9477196,-10.354467,-7.9412827,7.178632,-8.974818,-21.883875,6.938173,-9.697313,7.1815143,-0.44876063,1.0950642,4.602644,-47.073654,22.598269,-14.216201,-13.345584,-45.173912,3.2828588,14.203424,-59.09603,-11.541609,21.613838,-4.7724776,30.085087,3.3279877,-25.764854
108,0.009905155748128891,2.780127763748169,78.12556457519531,-0.20595136783461016,-2.8366386622273514,-91.64270711941822,7.601382,7.938883,14.050756,6.947107,-10.355586,-7.9382586,7.157353,-8.971698,-21.852253,6.937206,-9.689208,7.187324,-0.41891223,1.0899072,4.442592,-48.434677,22.58266,-13.9258995,-14.749055,-45.954,3.021703,14.106826,-60.41914,-11.530209,21.22879,-6.006199,30.510763,3.0803983,-25.529844
109,0.01034214161336422,2.7799580097198486,78.125732421875,-0.2078950370755828,-2.8238223071247424,-91.6777119992015,7.596641,7.9436455,14.083404,6.9467287,-10.3564825,-7.930602,7.1308055,-8.966628,-21.820082,6.9370103,-9.677568,7.1778865,-0.39819363,1.0884322,4.28692,-49.77507,22.571436,-13.675143,-16.12418,-46.64247,2.7265205,14.039792,-61.715996,-11.516361,20.861198,-7.216412,30.846386,2.9121614,-25.306162
110,0.013999433256685734,2.778981924057007,78.12628173828125,-0.2097198858555596,-2.806785607009447,-91.7138377795394,7.587147,7.9493375,14.114774,6.946505,-10.357884,-7.9204473,7.0997095,-8.959775,-21.786682,6.936486,-9.663636,7.1589923,-0.38286507,1.0878547,4.1347713,-51.093628,22.564468,-13.464612,-17.479057,-47.27609,2.3990889,13.979191,-62.985153,-11.497874,20.513494,-8.4051485,31.108786,2.7981315,-25.097252
111,0.016065657138824463,2.778298854827881,78.12803649902344,-0.21202433572449927,-2.7882157616665584,-91.74753883682139,7.575616,7.9550457,14.143027,6.9457397,-10.359111,-7.9116306,7.067833,-8.952667,-21.755014,6.936678,-9.650827,7.139471,-0.37238136,1.0932503,3.9883423,-52.375065,22.563192,-13.282702,-18.81137,-47.88344,2.0617843,13.915649,-64.215965,-11.479638,20.199888,-9.578771,31.365162,2.6980145,-24.893139
112,0.014053139835596085,2.7777938842773438,78.1303482055664,-0.21481222791780447,-2.7712973068962574,-91.77483905700367,7.564755,7.9594564,14.166486,6.9464746,-10.361655,-7.9079456,7.04062,-8.94705,-21.72819,6.936724,-9.642049,7.1279974,-0.36014467,1.0912548,3.8499913,-53.64433,22.565784,-13.133902,-20.078682,-48.491978,1.7419499,13.83709,-65.40165,-11.453552,19.887339,-10.7379265,31.679928,2.5893958,-24.658926
113,0.015632834285497665,2.7732951641082764,78.13330078125,-0.21553899160907294,-2.755787720501002,-91.79489141750439,7.5563393,7.962466,14.184814,6.944813,-10.364266,-7.9139876,7.0184584,-8.942162,-21.70631,6.935628,-9.63816,7.127833,-0.34840697,1.0865524,3.718449,-54.896614,22.572866,-13.018562,-21.287785,-49.12059,1.4329282,13.737753,-66.5411,-11.4149,19.583158,-11.888496,32.063374,2.476799,-24.388409
114,0.018806112930178642,2.7672841548919678,78.1344985961914,-0.21818448616882588,-2.740382980906642,-91.80966521838359,7.5473185,7.964806,14.198744,6.943791,-10.368281,-7.9265375,6.9985085,-8.937881,-21.687815,6.935324,-9.638628,7.1340613,-0.34206417,1.0849073,3.5935686,-56.120663,22.585243,-12.927937,-22.4577,-49.75263,1.1272405,13.623337,-67.64342,-11.363943,19.299723,-13.023367,32.483734,2.3705182,-24.097414
115,0.01753781922161579,2.761737823486328,78.13640594482422,-0.21946782159084458,-2.7259645252840414,-91.81983706425255,7.5384026,7.96586,14.208616,6.9432087,-10.37161,-7.937632,6.9818826,-8.935131,-21.673908,6.934537,-9.640029,7.1431518,-0.3406816,1.0846593,3.476022,-57.300358,22.601416,-12.857452,-23.590914,-50.356976,0.8395103,13.509847,-68.70205,-11.304885,19.043331,-14.137903,32.939552,2.2419682,-23.808302
116,0.017708582803606987,2.7594897747039795,78.13771057128906,-0.21896795252682688,-2.7131764154817843,-91.82624633460499,7.5310345,7.9646354,14.215297,6.9423566,-10.372699,-7.9391513,6.9698644,-8.935015,-21.665634,6.933435,-9.640868,7.1516557,-0.33900255,1.0873251,3.3672595,-58.417156,22.613586,-12.801536,-24.69536,-50.8999,0.58435655,13.412777,-69.70222,-11.258803,18.828999,-15.239575,33.435135,2.0596733,-23.54732
117,0.016054941341280937,2.756350040435791,78.1385726928711,-0.21473151663644469,-2.7025584294470657,-91.82954173328788,7.525351,7.960597,14.219068,6.942217,-10.370033,-7.925047,6.9623394,-8.939262,-21.66308,6.9330072,-9.6398735,7.1597714,-0.34587112,1.0723019,3.2589686,-59.501183,22.62954,-12.788788,-25.730452,-51.348366,0.36063373,13.344366,-70.65288,-11.181183,18.635498,-16.300274,33.991375,1.7895379,-23.310106
118,0.009454954415559769,2.751736640930176,78.13789367675781,-0.21053174958471166,-2.6935811329263952,-91.82918987259674,7.521193,7.95446,14.219533,6.9423614,-10.364875,-7.9008813,6.9598155,-8.946159,-21.66575,6.9320292,-9.638405,7.1688766,-0.35570443,1.0617039,3.1568642,-60.52699,22.64352,-12.788621,-26.733444,-51.730988,0.1674737,13.288965,-71.55579,-11.100275,18.48497,-17.335339,34.608097,1.4507277,-23.095945
119,0.013725770637392998,2.7439610958099365,78.13758850097656,-0.20562883481323613,-2.685342546056217,-91.82383288090739,7.515943,7.9475923,14.215703,6.943409,-10.35993,-7.876444,6.9590383,-8.954753,-21.673615,6.9326,-9.638474,7.1777678,-0.36198476,1.0537256,3.063896,-61.497715,22.650888,-12.803568,-27.70639,-52.095093,-0.0038324408,13.245743,-72.39964,-11.039818,18.361622,-18.3668,35.219498,1.1191081,-22.887276
120,0.017971087247133255,2.7361907958984375,78.13713073730469,-0.201734865441205,-2.676848820838955,-91.81185683038112,7.5085316,7.941519,14.206606,6.9437594,-10.356857,-7.8617315,6.9598174,-8.961965,-21.687063,6.9322968,-9.640562,7.1848516,-0.38425374,1.0267696,2.9685695,-62.445747,22.657238,-12.8605,-28.599949,-52.47718,-0.16744485,13.220368,-73.20638,-10.9397,18.221655,-19.362026,35.730896,0.884243,-22.645128
121,0.019743110984563828,2.7274465560913086,78.13739013671875,-0.1995939089060621,-2.6670024348681856,-91.79014912255707,7.4958863,7.9364915,14.189887,6.943287,-10.356246,-7.860986,6.9607,-8.968333,-21.70916,6.93229,-9.646285,7.1904316,-0.41478917,1.0001837,2.8814917,-63.33339,22.657307,-12.925632,-29.465721,-52.920025,-0.31693876,13.211137,-73.968605,-10.850204,18.09211,-20.34416,36.13506,0.75150204,-22.374706
122,0.016911150887608528,2.718841314315796,78.13826751708984,-0.19921400708040754,-2.656799940449488,-91.76025491566392,7.4801326,7.9316454,14.166635,6.9424047,-10.357192,-7.868364,6.963689,-8.974416,-21.738926,6.9313154,-9.654162,7.1950216,-0.44942027,0.9668461,2.8001025,-64.17916,22.648232,-13.014704,-30.285057,-53.38952,-0.45204276,13.220094,-74.6774,-10.767804,17.967793,-21.317501,36.47105,0.6841756,-22.085524
123,0.016622915863990784,2.713512420654297,78.13999938964844,-0.19849306253293844,-2.647510272722261,-91.72859927889722,7.4651017,7.9271965,14.141501,6.9421306,-10.359278,-7.878578,6.9680924,-8.980113,-21.76971,6.93106,-9.6629505,7.197844,-0.48089573,0.9349938,2.722989,-64.975716,22.631779,-13.122619,-31.06027,-53.835106,-0.57457405,13.23465,-75.33003,-10.695284,17.859459,-22.282963,36.763,0.67303795,-21.803741
124,0.02417156472802162,2.7048516273498535,78.14120483398438,-0.19767549929559083,-2.6406410167391487,-91.70132958771285,7.4550223,7.9239316,14.118805,6.941348,-10.360264,-7.8865857,6.97479,-8.984058,-21.79557,6.9311647,-9.670743,7.1980696,-0.5085682,0.9072782,2.643926,-65.72809,22.607811,-13.253582,-31.77578,-54.200294,-0.6865538,13.243423,-75.92873,-10.611148,17.766562,-23.228884,37.026463,0.7130417,-21.548498
125,0.026413913816213608,2.6963181495666504,78.14151763916016,-0.19659807451389763,-2.6373611793957634,-91.67939980302732,7.4524207,7.9212246,14.099035,6.9410067,-10.360948,-7.8909,6.9851203,-8.986928,-21.814638,6.931504,-9.6761875,7.193716,-0.527073,0.8996981,2.5710433,-66.395065,22.590832,-13.381137,-32.472984,-54.447975,-0.7809495,13.2358885,-76.4597,-10.547875,17.714764,-24.177172,37.289436,0.8069448,-21.33258
126,0.014595266431570053,2.690427303314209,78.1412353515625,-0.19564614464661842,-2.636632724478403,-91.6596426074479,7.454047,7.919325,14.079814,6.9408956,-10.360952,-7.8944826,6.9987593,-8.988592,-21.830372,6.930923,-9.679884,7.185755,-0.5531338,0.8819124,2.4881587,-67.044464,22.56178,-13.554141,-33.068504,-54.59309,-0.8624462,13.226507,-76.94385,-10.432541,17.656647,-25.085253,37.50902,0.97145915,-21.120085
127,0.013364334590733051,2.6836233139038086,78.14038848876953,-0.19547999937753655,-2.6366152727997507,-91.64251404003467,7.457579,7.9184003,14.0624075,6.941159,-10.362075,-7.897967,7.0124936,-8.989018,-21.843906,6.931097,-9.6842165,7.1780615,-0.5809993,0.8765415,2.408759,-67.62617,22.538977,-13.723442,-33.64734,-54.742645,-0.9363568,13.222679,-77.39552,-10.310396,17.629581,-25.962715,37.679756,1.164431,-20.940397
128,0.013555162586271763,2.6742305755615234,78.13972473144531,-0.19432124818993482,-2.6352089598525588,-91.6285458532203,7.460222,7.918389,14.047701,6.941093,-10.364656,-7.9021435,7.023227,-8.988693,-21.856352,6.9320726,-9.6903105,7.1748657,-0.609239,0.87096024,2.3342052,-68.16788,22.524252,-13.90478,-34.203747,-54.98114,-1.0181711,13.241478,-77.82143,-10.185005,17.621298,-26.814829,37.781784,1.3597503,-20.799875
129,0.012748396024107933,2.6671247482299805,78.1390380859375,-0.19447599862973677,-2.6312788272733454,-91.6214455706939,7.4613147,7.920053,14.038787,6.9402847,-10.369393,-7.907992,7.0298753,-8.985959,-21.865463,6.9305935,-9.696764,7.177771,-0.634201,0.86500347,2.263644,-68.6686,22.519878,-14.104602,-34.739902,-55.35982,-1.1216996,13.285452,-78.21579,-10.059573,17.633842,-27.651512,37.759464,1.5823271,-20.717012
130,0.0030983821488916874,2.657318353652954,78.13793182373047,-0.19389147258394981,-2.6259605636967738,-91.61975105965907,7.4618053,7.923545,14.034189,6.9406686,-10.376976,-7.9148936,7.0328,-8.981519,-21.87129,6.930601,-9.70493,7.1844773,-0.6574203,0.8601882,2.1968768,-69.12519,22.525528,-14.322476,-35.249607,-55.823143,-1.2384496,13.34795,-78.572556,-9.933742,17.667336,-28.473934,37.642235,1.8359306,-20.680834
131,-0.0005609772633761168,2.6459391117095947,78.13713073730469,-0.1937704790935134,-2.621521489104502,-91.61606378282973,7.4626513,7.9265194,14.028013,6.9407535,-10.384291,-7.921011,7.0375013,-8.977556,-21.879568,6.929906,-9.713735,7.192661,-0.6827336,0.8533125,2.1359038,-69.54459,22.539362,-14.546366,-35.73594,-56.300594,-1.34522,13.429373,-78.90179,-9.808492,17.711864,-29.265717,37.536686,2.0610194,-20.656935
132,-0.008531784638762474,2.6409361362457275,78.13628387451172,-0.19296420558458877,-2.620385639510133,-91.60314530437297,7.4642205,7.9278054,14.01437,6.94039,-10.388917,-7.9247007,7.0481753,-8.976111,-21.895987,6.9294505,-9.723972,7.2001195,-0.7147378,0.84211415,2.0832093,-69.9371,22.557457,-14.765712,-36.194183,-56.72035,-1.4207209,13.528326,-79.21542,-9.685536,17.760681,-30.009432,37.54957,2.1982617,-20.612345
133,-0.006668592803180218,2.633028745651245,78.13553619384766,-0.19141145504063012,-2.622768176207468,-91.57542111100305,7.464769,7.925814,13.988107,6.9401608,-10.390084,-7.924181,7.067568,-8.978912,-21.926119,6.9281754,-9.7362175,7.207304,-0.75434947,0.82299703,2.039452,-70.303154,22.576805,-14.98402,-36.627422,-57.056423,-1.4522096,13.657638,-79.51204,-9.568108,17.811945,-30.710527,37.75876,2.2015033,-20.52791
134,-0.009534169919788837,2.6238789558410645,78.1357650756836,-0.18883979009558588,-2.62761662579238,-91.53806873611632,7.464179,7.9217734,13.953698,6.940929,-10.38955,-7.9207478,7.0912566,-8.9848995,-21.965431,6.928913,-9.751323,7.2151117,-0.79707164,0.797948,2.0031884,-70.642006,22.59575,-15.206613,-37.03288,-57.347878,-1.4536451,13.813509,-79.78698,-9.457827,17.870237,-31.372946,38.09167,2.113178,-20.424746
135,-0.013549288734793663,2.618577241897583,78.13571166992188,-0.1883528328257928,-2.635001937194932,-91.49951076923898,7.4661503,7.917964,13.918861,6.9410243,-10.388024,-7.9174967,7.1182246,-8.990647,-22.00494,6.9284077,-9.765398,7.221621,-0.83722514,0.7729295,1.9724364,-70.95894,22.61356,-15.4232235,-37.40216,-57.622395,-1.4403323,13.971847,-80.04149,-9.353036,17.931356,-31.988739,38.42947,2.005971,-20.331264
136,-0.017322571948170662,2.6122066974639893,78.13423156738281,-0.18731239533496566,-2.6445286015482097,-91.46822428099227,7.4734416,7.9169564,13.891402,6.940957,-10.387707,-7.9174576,7.1453495,-8.9930105,-22.03589,6.927997,-9.777217,7.2247567,-0.8708079,0.7545119,1.9447789,-71.25877,22.630495,-15.623043,-37.725433,-57.907555,-1.4272239,14.108775,-80.278366,-9.249664,17.992474,-32.54499,38.652145,1.952082,-20.275913
137,-0.012588614597916603,2.6039609909057617,78.13296508789062,-0.18783639402776223,-2.6588682564233435,-91.44543725235046,7.489351,7.919771,13.873033,6.941107,-10.389338,-7.923241,7.174806,-8.990801,-22.055372,6.928101,-9.786166,7.223221,-0.8989954,0.7456308,1.9214077,-71.541626,22.64769,-15.803387,-37.99592,-58.21766,-1.413559,14.214302,-80.50034,-9.143075,18.054783,-33.025497,38.697353,1.978853,-20.266476
138,-0.02301652356982231,2.6005330085754395,78.13008117675781,-0.191826039186941,-2.67715024807987,-91.42682013800936,7.511144,7.9250307,13.859744,6.942248,-10.3923025,-7.932599,7.2063403,-8.986199,-22.068264,6.9294243,-9.793394,7.218309,-0.92528385,0.74292135,1.902236,-71.804405,22.666378,-15.968433,-38.21875,-58.536037,-1.3922725,14.302497,-80.70845,-9.031753,18.121492,-33.43631,38.637676,2.0453572,-20.286747
139,-0.029535755515098572,2.5963215827941895,78.12864685058594,-0.19448922578777697,-2.694481559080364,-91.41321059591225,7.53353,7.9308004,13.850735,6.941844,-10.394736,-7.9413333,7.2360206,-8.980416,-22.077316,6.929097,-9.79901,7.2121305,-0.9486298,0.7428451,1.8840331,-72.0462,22.686428,-16.118912,-38.409374,-58.84153,-1.3692595,14.38503,-80.90379,-8.915908,18.183855,-33.800377,38.555172,2.1205888,-20.332008
140,-0.033367376774549484,2.5940353870391846,78.12826538085938,-0.1954154687036941,-2.7058452407598015,-91.40515745481191,7.549014,7.936156,13.844978,6.941828,-10.396695,-7.9452395,7.256027,-8.975868,-22.084663,6.9295936,-9.804666,7.206877,-0.9667446,0.74179935,1.8637489,-72.26728,22.70702,-16.255367,-38.58242,-59.11397,-1.350387,14.47345,-81.086136,-8.7974205,18.23469,-34.139267,38.532375,2.1733978,-20.397593
141,-0.03656535595655441,2.5920634269714355,78.12811279296875,-0.19592801861652398,-2.708663677882919,-91.40354700325773,7.554598,7.9390955,13.842458,6.942528,-10.398911,-7.940173,7.2641587,-8.974402,-22.0922,6.9294395,-9.810355,7.204099,-0.97640026,0.7373614,1.8394567,-72.465576,22.726416,-16.379362,-38.73394,-59.327095,-1.3242586,14.571984,-81.2484,-8.677053,18.272778,-34.457123,38.593018,2.1910858,-20.493378
142,-0.040316708385944366,2.5877838134765625,78.12889099121094,-0.1944796294904606,-2.705888090868037,-91.40795264013713,7.5540857,7.940952,13.843381,6.9430723,-10.400484,-7.9294615,7.263805,-8.974439,-22.09816,6.9296865,-9.816339,7.202363,-0.9781343,0.731483,1.8129181,-72.64306,22.744204,-16.490541,-38.858967,-59.49905,-1.2916878,14.673725,-81.39262,-8.555283,18.302532,-34.742413,38.69281,2.1914804,-20.618109
143,-0.043850332498550415,2.585334062576294,78.13042449951172,-0.19386825546571076,-2.7014840910545863,-91.41654411644559,7.5521636,7.944363,13.848114,6.9441323,-10.402513,-7.919717,7.2593484,-8.972903,-22.100166,6.9299684,-9.821034,7.199169,-0.97683984,0.7272775,1.7874204,-72.80727,22.76128,-16.588171,-38.963062,-59.673664,-1.2773708,14.774581,-81.53027,-8.43439,18.320213,-34.999012,38.81246,2.1892848,-20.751543
144,-0.047875698655843735,2.581373691558838,78.13153076171875,-0.19493828192501297,-2.699504993313532,-91.42798175139153,7.5539513,7.951681,13.856668,6.94416,-10.403865,-7.917558,7.2555337,-8.96651,-22.09587,6.9302545,-9.823953,7.192168,-0.9767413,0.72750235,1.7662218,-72.96507,22.779316,-16.672056,-39.056976,-59.895065,-1.3064071,14.870347,-81.673546,-8.317749,18.324345,-35.228912,38.93385,2.1988318,-20.873552
145,-0.059352047741413116,2.577516555786133,78.13139343261719,-0.20096553197551686,-2.70068738263722,-91.44516850628932,7.560761,7.9667125,13.872737,6.9439573,-10.405384,-7.9276295,7.2517114,-8.951437,-22.080818,6.9306,-9.82381,7.177096,-0.97711486,0.7353572,1.7505622,-73.11866,22.800148,-16.741623,-39.139866,-60.19882,-1.407045,14.96559,-81.82471,-8.20791,18.310867,-35.433228,39.057,2.2303784,-20.985817
146,-0.0652550458908081,2.577892303466797,78.13072967529297,-0.21055109243909065,-2.7032090738784986,-91.46789286330062,7.5706315,7.9870563,13.895149,6.944254,-10.407966,-7.945298,7.2465997,-8.930399,-22.057604,6.9309883,-9.821877,7.1565156,-0.9694928,0.74837524,1.7402805,-73.26562,22.81972,-16.798624,-39.211163,-60.554363,-1.5594563,15.059849,-81.9669,-8.120114,18.281153,-35.623055,39.195103,2.2710109,-21.100372
147,-0.0671582892537117,2.5823962688446045,78.13011169433594,-0.2211315782441335,-2.7064651045455586,-91.48932654100987,7.5801735,8.006268,13.916242,6.9442215,-10.409349,-7.9638286,7.2419486,-8.910048,-22.034176,6.930599,-9.818444,7.1380086,-0.96950185,0.7590715,1.7317281,-73.40188,22.844847,-16.843597,-39.26988,-60.905914,-1.7167783,15.143153,-82.11555,-8.021853,18.24117,-35.783073,39.33455,2.310911,-21.20089
148,-0.070583276450634,2.586225748062134,78.1295394897461,-0.22549633564690685,-2.7099678858226643,-91.50289549286448,7.5873265,8.017971,13.9286175,6.9436297,-10.409087,-7.976164,7.239133,-8.89713,-22.018291,6.9308405,-9.815322,7.1292853,-0.9711022,0.76457846,1.7264425,-73.52097,22.870314,-16.872175,-39.327255,-61.202965,-1.8303124,15.203962,-82.25683,-7.933704,18.20292,-35.93076,39.47615,2.3302512,-21.283419
149,-0.07269676774740219,2.5897488594055176,78.12891387939453,-0.2255462038356886,-2.714501554511995,-91.50284337169184,7.5895905,8.018206,13.926027,6.9435754,-10.406053,-7.9807096,7.241185,-8.895417,-22.014807,6.930497,-9.812017,7.1347284,-0.97336197,0.7589429,1.7254921,-73.62395,22.890785,-16.882864,-39.37892,-61.430145,-1.8796502,15.234322,-82.38569,-7.862903,18.16231,-36.07229,39.63667,2.315156,-21.33927
150,-0.07668367028236389,2.5916430950164795,78.12904357910156,-0.2218541067290292,-2.719846815246148,-91.49399350055974,7.5896273,8.011499,13.913839,6.942823,-10.400766,-7.9811234,7.246183,-8.900321,-22.018469,6.9293385,-9.80755,7.149466,-0.96867746,0.7463418,1.7292302,-73.71673,22.90189,-16.878351,-39.42327,-61.61654,-1.8919499,15.241233,-82.49712,-7.820147,18.117825,-36.211227,39.815613,2.2755747,-21.377369
151,-0.07363945245742798,2.5973451137542725,78.13098907470703,-0.21626146304546615,-2.7249673033530923,-91.48566775773817,7.5887203,8.002943,13.901987,6.942852,-10.3958,-7.978298,7.2504454,-8.907194,-22.022614,6.928757,-9.804031,7.16722,-0.96783584,0.7309392,1.7328445,-73.80569,22.914248,-16.87016,-39.45432,-61.770683,-1.8926203,15.240211,-82.60963,-7.7697506,18.071264,-36.328213,39.97219,2.2395697,-21.40602
152,-0.07296042144298553,2.6033413410186768,78.13280487060547,-0.21268041784930122,-2.728492684366019,-91.48714375924844,7.5894856,7.998975,13.900486,6.9420285,-10.391631,-7.973518,7.250723,-8.91015,-22.020761,6.927636,-9.80167,7.1816235,-0.9546973,0.7227765,1.7366155,-73.893486,22.923256,-16.863775,-39.488403,-61.908627,-1.9058143,15.243451,-82.70678,-7.7389326,18.039875,-36.44774,40.080387,2.2225606,-21.448902
153,-0.07163768261671066,2.6063544750213623,78.13350677490234,-0.21144212801073123,-2.730461747782704,-91.50384362295007,7.5928564,8.000354,13.915193,6.942834,-10.3911705,-7.963389,7.2450433,-8.909095,-22.009449,6.927885,-9.803585,7.1946406,-0.94150174,0.7209541,1.7385463,-73.98359,22.941084,-16.864292,-39.511765,-62.012276,-1.9338326,15.264806,-82.80648,-7.6952662,18.021177,-36.549248,40.10757,2.2410269,-21.506643
154,-0.07057303190231323,2.608804941177368,78.13394927978516,-0.20924401346429317,-2.7313589661336066,-91.5298734627961,7.598019,8.004183,13.939636,6.9438686,-10.39229,-7.948483,7.2363205,-8.90628,-21.993008,6.9274225,-9.807347,7.208424,-0.92550766,0.7247703,1.7407697,-74.066216,22.965374,-16.861845,-39.53411,-62.0842,-1.9648744,15.293317,-82.90257,-7.652628,18.017076,-36.636597,40.079502,2.278418,-21.573772
155,-0.07638896256685257,2.611428737640381,78.13290405273438,-0.20896544450698537,-2.7310039877785366,-91.55731379716663,7.6019487,8.010472,13.96557,6.9437833,-10.392467,-7.9359083,7.225343,-8.900905,-21.975403,6.926874,-9.810093,7.216973,-0.9163506,0.73213965,1.7425894,-74.134094,23.001604,-16.854258,-39.569363,-62.15907,-2.0067067,15.31074,-83.00026,-7.601358,18.014322,-36.709053,40.03528,2.323455,-21.636358
156,-0.08240175247192383,2.616353988647461,78.13250732421875,-0.21172298253166183,-2.7293740045160453,-91.5784416581284,7.6016245,8.01885,13.984878,6.9439964,-10.391472,-7.932415,7.213084,-8.893045,-21.960312,6.926242,-9.8078575,7.2143664,-0.9148836,0.7402066,1.7437387,-74.18521,23.045666,-16.840883,-39.62731,-62.271576,-2.065793,15.297933,-83.097336,-7.5469737,18.004066,-36.771885,40.01739,2.3626137,-21.684015
157,-0.0847962275147438,2.62275767326355,78.13233947753906,-0.21918940210891377,-2.7260814020068023,-91.59340149100885,7.5961637,8.032393,13.99654,6.943853,-10.388655,-7.944148,7.1979175,-8.879439,-21.94686,6.9271107,-9.799351,7.192974,-0.9027187,0.74849737,1.7436996,-74.23637,23.07065,-16.829016,-39.699833,-62.450268,-2.1581018,15.239336,-83.17217,-7.5183806,17.978014,-36.84495,40.021736,2.4031096,-21.71879
158,-0.09125102311372757,2.63120698928833,78.13352966308594,-0.2289080431601523,-2.7213508733605996,-91.60535858876364,7.5874867,8.05036,14.004357,6.9432983,-10.38486,-7.966034,7.1807423,-8.860758,-21.933893,6.9271097,-9.785353,7.1580105,-0.90261555,0.7578575,1.7432933,-74.26957,23.110506,-16.813398,-39.79474,-62.67263,-2.279371,15.151545,-83.2539,-7.475156,17.938984,-36.8999,40.027405,2.453074,-21.738699
159,-0.09691570699214935,2.6407909393310547,78.13502502441406,-0.23834081200246626,-2.71557590747088,-91.61180755798216,7.5758233,8.066331,14.007643,6.942447,-10.379492,-7.988116,7.1634927,-8.844068,-21.924372,6.927291,-9.770597,7.1226153,-0.9044299,0.7656223,1.7412755,-74.29757,23.149143,-16.7959,-39.895016,-62.883835,-2.3885293,15.051273,-83.32889,-7.436876,17.900702,-36.95021,40.06691,2.4838152,-21.749357
160,-0.09912985563278198,2.6490581035614014,78.13790130615234,-0.2443582137987275,-2.70884061511293,-91.60981225374104,7.56129,8.074397,14.005397,6.9421306,-10.372693,-8.000325,7.148566,-8.8357725,-21.92179,6.928365,-9.759891,7.1000443,-0.90199655,0.7673648,1.7370473,-74.33409,23.17347,-16.782383,-39.980442,-63.026688,-2.4467266,14.957304,-83.39104,-7.4162087,17.868702,-37.004467,40.17397,2.4690764,-21.752985
161,-0.09434059262275696,2.6546974182128906,78.14035034179688,-0.2414008897582567,-2.700945664770183,-91.59295693075089,7.542802,8.069282,13.993951,6.9419074,-10.362923,-7.9966383,7.138861,-8.840899,-21.930422,6.9288197,-9.753477,7.096378,-0.9080513,0.7576573,1.7302932,-74.37378,23.200153,-16.769152,-40.055767,-63.071983,-2.428378,14.873142,-83.451935,-7.3992734,17.841784,-37.052616,40.39991,2.3737001,-21.741138
162,-0.09675655514001846,2.6600637435913086,78.14240264892578,-0.23380043910548876,-2.692005345006814,-91.5648145154455,7.5200458,8.055737,13.974851,6.9418178,-10.35036,-7.983603,7.1323113,-8.854705,-21.947268,6.928574,-9.749111,7.1036587,-0.91833746,0.7408604,1.720989,-74.41582,23.223955,-16.75581,-40.123753,-63.053448,-2.359014,14.788747,-83.50354,-7.390297,17.819191,-37.100704,40.71236,2.2198288,-21.716269
163,-0.08977815508842468,2.6640429496765137,78.14251708984375,-0.22553603332247402,-2.6823179844533893,-91.5369972059124,7.4973855,8.041379,13.9554205,6.9414315,-10.338606,-7.969826,7.125481,-8.869276,-21.965006,6.9282427,-9.746122,7.114197,-0.92557704,0.724508,1.710541,-74.45512,23.242031,-16.746363,-40.189167,-63.015923,-2.2824674,14.707961,-83.5504,-7.3877506,17.801012,-37.14305,41.017628,2.075153,-21.68868
164,-0.08753260225057602,2.668181896209717,78.14256286621094,-0.222600916862639,-2.672511743199326,-91.52079989018668,7.4780254,8.033944,13.942389,6.9404597,-10.330335,-7.96406,7.1156836,-8.876235,-21.976723,6.9278574,-9.743825,7.1202087,-0.9272618,0.71436185,1.7012483,-74.48918,23.257578,-16.745264,-40.255703,-63.00819,-2.2442684,14.635783,-83.59,-7.3877277,17.786661,-37.18756,41.222446,2.0076067,-21.669067
165,-0.08827222883701324,2.670588254928589,78.1417465209961,-0.22379677997857178,-2.662202623536771,-91.52355264527999,7.4624586,8.038029,13.93947,6.940471,-10.328935,-7.9714475,7.100142,-8.871742,-21.979044,6.92738,-9.7426605,7.1200724,-0.92564946,0.71126026,1.694776,-74.515335,23.281086,-16.757748,-40.32833,-63.053596,-2.269284,14.571019,-83.62058,-7.388228,17.771418,-37.23928,41.27992,2.0636537,-21.664675
166,-0.0900518074631691,2.674391269683838,78.14085388183594,-0.23010037602823924,-2.6511211275429583,-91.53748455060118,7.4498286,8.048059,13.942556,6.9399686,-10.331653,-7.9862804,7.081376,-8.860417,-21.976383,6.9262223,-9.74255,7.1178255,-0.9194605,0.7139703,1.687259,-74.53834,23.299324,-16.778713,-40.397297,-63.12018,-2.3258462,14.510499,-83.64437,-7.3882117,17.761452,-37.29128,41.24353,2.1984866,-21.668423
167,-0.09325544536113739,2.67799711227417,78.1408920288086,-0.2351891988355449,-2.6404917665387244,-91.5530585970619,7.4377947,8.059371,13.946607,6.9397664,-10.334383,-8.0014715,7.062399,-8.848235,-21.972162,6.9259143,-9.742776,7.113995,-0.9233854,0.7107563,1.6829481,-74.55317,23.344366,-16.81269,-40.472733,-63.18764,-2.398918,14.467542,-83.657936,-7.384573,17.75003,-37.350006,41.183304,2.3396244,-21.668867
168,-0.10443592071533203,2.6813948154449463,78.14151763916016,-0.23924880365865894,-2.6314188564797494,-91.5603442411468,7.42639,8.066818,13.947206,6.9385333,-10.333531,-8.009726,7.047395,-8.839592,-21.969938,6.925073,-9.741052,7.1089883,-0.9247785,0.7128367,1.675731,-74.56266,23.374704,-16.835367,-40.5377,-63.2207,-2.4425738,14.439071,-83.674576,-7.378418,17.756737,-37.379784,41.154797,2.4149241,-21.657412
169,-0.11084667593240738,2.6872169971466064,78.14285278320312,-0.24036280829383044,-2.6248312627239136,-91.55483233503246,7.413982,8.069051,13.942034,6.9389453,-10.328067,-8.0082245,7.037257,-8.836592,-21.969847,6.925454,-9.736985,7.101748,-0.9224966,0.7144168,1.6653997,-74.57514,23.387297,-16.854721,-40.58752,-63.209354,-2.4477534,14.434654,-83.68656,-7.3742003,17.776022,-37.38471,41.17513,2.3931463,-21.62104
170,-0.10980634391307831,2.694413661956787,78.14485168457031,-0.24129447901478482,-2.6199376959890843,-91.54268816949013,7.4017158,8.06911,13.934363,6.9394217,-10.319443,-8.00127,7.030338,-8.83583,-21.970121,6.926539,-9.731763,7.092179,-0.9235477,0.7144537,1.6543524,-74.58645,23.403019,-16.876772,-40.62839,-63.17298,-2.437255,14.452185,-83.69304,-7.3664656,17.805992,-37.37386,41.211575,2.3161626,-21.568422
171,-0.10797431319952011,2.6962502002716064,78.146484375,-0.24017626025059194,-2.6150741520186847,-91.52885635622998,7.3896728,8.067324,13.925751,6.9394627,-10.30988,-7.9918427,7.0245185,-8.83708,-21.972073,6.926449,-9.725377,7.083341,-0.9279308,0.7148823,1.6430707,-74.591484,23.420551,-16.89879,-40.664642,-63.11817,-2.425123,14.478151,-83.6977,-7.355082,17.845543,-37.356457,41.254395,2.223104,-21.52224
172,-0.10563012957572937,2.697751045227051,78.1478271484375,-0.23979967948968647,-2.6084819520239972,-91.52031548264412,7.3774543,8.065161,13.919795,6.9395046,-10.3023205,-7.9832816,7.016275,-8.839392,-21.975403,6.9272056,-9.720862,7.0778155,-0.9315291,0.7140577,1.6321268,-74.5955,23.438505,-16.916267,-40.68933,-63.05801,-2.416424,14.493268,-83.7067,-7.3415785,17.879225,-37.33977,41.304035,2.1606162,-21.497822
173,-0.09557611495256424,2.6995160579681396,78.14845275878906,-0.23575637967927884,-2.5988515723339853,-91.51983005835672,7.36422,8.061723,13.917837,6.939501,-10.296785,-7.974961,7.0042453,-8.844341,-21.981716,6.927291,-9.717104,7.0781016,-0.928646,0.7096407,1.6211902,-74.6036,23.44891,-16.93285,-40.69445,-62.985085,-2.4137285,14.49272,-83.716736,-7.33376,17.902426,-37.329975,41.361023,2.1444612,-21.512371
174,-0.08889061957597733,2.700867176055908,78.1490707397461,-0.23229554714076686,-2.587468864520504,-91.52366284895997,7.3502316,8.056794,13.918042,6.939689,-10.2922325,-7.965708,6.9908104,-8.851471,-21.990177,6.9267993,-9.714161,7.0820384,-0.92437714,0.7020078,1.6103116,-74.614555,23.458117,-16.951149,-40.681618,-62.89664,-2.4145749,14.4869,-83.72541,-7.327244,17.924301,-37.324196,41.425587,2.1488407,-21.552845
175,-0.10124365985393524,2.7023441791534424,78.14889526367188,-0.22795086743411264,-2.576241737495291,-91.52795890130801,7.3371325,8.052444,13.91853,6.9396167,-10.288769,-7.957725,6.977769,-8.857899,-21.998604,6.926377,-9.711863,7.0859385,-0.9180935,0.69420886,1.5998523,-74.623375,23.46428,-16.965555,-40.665615,-62.808277,-2.4137886,14.478305,-83.730995,-7.323201,17.94115,-37.31988,41.499096,2.1569238,-21.59166
176,-0.1065964475274086,2.702768325805664,78.1488265991211,-0.22617318845094952,-2.567121048200055,-91.52843925103204,7.3252206,8.050673,13.916953,6.939646,-10.286312,-7.953338,6.96693,-8.860783,-22.004427,6.9267893,-9.710242,7.085932,-0.92093146,0.6868742,1.592321,-74.6357,23.483046,-16.98764,-40.65171,-62.729733,-2.4222922,14.478974,-83.73523,-7.310542,17.967531,-37.31779,41.57297,2.1437073,-21.608795
177,-0.09882672131061554,2.7018423080444336,78.14986419677734,-0.2286734082401273,-2.560855167926916,-91.52460620653339,7.3157864,8.053351,13.913742,6.9393535,-10.286131,-7.9550724,6.959443,-8.857116,-22.00526,6.9265094,-9.708732,7.078973,-0.91575694,0.6853086,1.5857861,-74.64189,23.489115,-16.995201,-40.65048,-62.668507,-2.418633,14.477279,-83.736374,-7.3058686,17.982998,-37.314487,41.674244,2.110619,-21.582184
178,-0.09290387481451035,2.7025973796844482,78.15019989013672,-0.23439522476373492,-2.556268787774689,-91.5184279900829,7.307589,8.059178,13.90937,6.939317,-10.287874,-7.96112,6.953395,-8.849277,-22.003157,6.9266667,-9.707689,7.067673,-0.91046107,0.68633693,1.5811154,-74.64879,23.49366,-17.001118,-40.6513,-62.613945,-2.415716,14.478085,-83.734184,-7.3017654,17.999338,-37.314556,41.78964,2.0624645,-21.533566
179,-0.09986387938261032,2.7018587589263916,78.14986419677734,-0.23951572516832598,-2.552764402979148,-91.51009732578503,7.3003464,8.064243,13.903613,6.939367,-10.289718,-7.967003,6.949519,-8.842049,-22.001585,6.9268446,-9.707184,7.0572352,-0.9148485,0.6895964,1.5768371,-74.648834,23.509008,-17.00489,-40.656166,-62.567287,-2.4168532,14.482961,-83.73159,-7.2870975,18.030136,-37.31261,41.887505,2.0078492,-21.481686
180,-0.10546545684337616,2.7025110721588135,78.14984893798828,-0.2406407658892302,-2.5500726326065366,-91.4993661712913,7.2942743,8.064018,13.89534,6.9388766,-10.289618,-7.9680796,6.9483924,-8.8409815,-22.004885,6.9269834,-9.706919,7.052866,-0.9143119,0.6849425,1.572785,-74.64292,23.513464,-17.00814,-40.66413,-62.529465,-2.4085102,14.484861,-83.73536,-7.282898,18.044502,-37.303215,41.962887,1.9699197,-21.433447
181,-0.10525783151388168,2.7035984992980957,78.15049743652344,-0.23670647993401694,-2.548608231356994,-91.48459032635742,7.2885647,8.055623,13.883152,6.939495,-10.286605,-7.96099,6.9512615,-8.849678,-22.014751,6.9275465,-9.707345,7.0574737,-0.9203465,0.67480224,1.5691888,-74.622925,23.519861,-17.013893,-40.680923,-62.5062,-2.4015584,14.487633,-83.74514,-7.278104,18.06796,-37.284946,41.976044,1.9437714,-21.398787
182,-0.10449787229299545,2.70318865776062,78.15144348144531,-0.22877590474103826,-2.5485712075292897,-91.46636422771098,7.2845526,8.041563,13.867975,6.9393497,-10.281479,-7.94882,6.958696,-8.864215,-22.02916,6.9266276,-9.707735,7.0677996,-0.92878526,0.65874773,1.5665535,-74.5959,23.525694,-17.019745,-40.700844,-62.497574,-2.3919592,14.489989,-83.75868,-7.275739,18.090494,-37.259995,41.952225,1.9268178,-21.365862
183,-0.09374617040157318,2.7009212970733643,78.15288543701172,-0.22093036260554164,-2.548434966785762,-91.44862926243567,7.2812176,8.027021,13.853153,6.938824,-10.276553,-7.9370074,6.966075,-8.879541,-22.044394,6.9261737,-9.708463,7.079603,-0.93672764,0.64167154,1.5633495,-74.5696,23.530325,-17.024372,-40.719555,-62.486145,-2.378558,14.493901,-83.77014,-7.2758474,18.110088,-37.239346,41.933308,1.9130932,-21.338884
184,-0.09177563339471817,2.7001683712005615,78.15320587158203,-0.2169739377822305,-2.546729373870169,-91.43525040529423,7.2772393,8.017238,13.842093,6.938903,-10.274197,-7.9309087,6.970513,-8.890181,-22.056948,6.927117,-9.710756,7.088711,-0.9414284,0.6322113,1.5581738,-74.53985,23.537796,-17.022022,-40.741405,-62.454296,-2.362283,14.501674,-83.777504,-7.2783422,18.136208,-37.226906,41.958424,1.8927307,-21.326128
185,-0.10183269530534744,2.6998488903045654,78.15184020996094,-0.21604334943311723,-2.5421509703119023,-91.42648544509994,7.2716856,8.013303,13.835582,6.9386287,-10.274896,-7.9335647,6.971154,-8.89486,-22.067657,6.9270177,-9.712674,7.094477,-0.9433334,0.6260166,1.5492215,-74.5237,23.54435,-17.0146,-40.75073,-62.39911,-2.3384695,14.509203,-83.77785,-7.2811723,18.15371,-37.232517,42.076508,1.864814,-21.330536
186,-0.10390134900808334,2.6956844329833984,78.15054321289062,-0.21703346704225845,-2.5359592687524133,-91.42037659921134,7.2654715,8.012413,13.831713,6.9384313,-10.277837,-7.941518,6.970233,-8.896387,-22.07785,6.9268064,-9.715427,7.0989003,-0.94348544,0.62171215,1.5367794,-74.51106,23.548573,-17.004786,-40.75441,-62.32688,-2.3091204,14.517571,-83.774994,-7.2829247,18.167013,-37.247807,42.25141,1.8329055,-21.348734
187,-0.09057924896478653,2.689856767654419,78.14945983886719,-0.21970649134621587,-2.5300506019392244,-91.41824496660513,7.2610774,8.013835,13.830643,6.9378133,-10.281555,-7.9506164,6.9687724,-8.895236,-22.084572,6.9256907,-9.717636,7.1020813,-0.94000185,0.61752516,1.523744,-74.50742,23.550903,-16.997053,-40.74981,-62.241257,-2.2761664,14.5331745,-83.76994,-7.2834907,18.176048,-37.26223,42.40775,1.8096888,-21.36316
188,-0.0833815410733223,2.6832523345947266,78.1485824584961,-0.22241578307890386,-2.5265085128861,-91.42135067323683,7.260764,8.016209,13.832684,6.9379487,-10.285932,-7.9565964,6.967214,-8.893095,-22.084372,6.9260373,-9.720528,7.1041293,-0.9305101,0.6145307,1.5130001,-74.50537,23.55351,-16.989912,-40.745426,-62.14672,-2.2398126,14.561774,-83.76391,-7.283695,18.185108,-37.266586,42.470375,1.807466,-21.35704
189,-0.08131711184978485,2.677373170852661,78.14794921875,-0.22452513258096737,-2.5265277088348945,-91.43280736290488,7.2671227,8.020915,13.838917,6.938363,-10.291077,-7.958222,6.966487,-8.887275,-22.073673,6.9256496,-9.722872,7.104266,-0.9107497,0.613241,1.5026978,-74.50578,23.555098,-16.985062,-40.738216,-62.03057,-2.194763,14.61391,-83.757065,-7.283573,18.191835,-37.254986,42.40342,1.8376119,-21.323364
190,-0.09171051532030106,2.675602674484253,78.14826202392578,-0.22662824898793416,-2.528866763260609,-91.45481167319687,7.2797303,8.028638,13.852795,6.9381447,-10.297066,-7.9581084,6.9642577,-8.877939,-22.05101,6.925339,-9.724365,7.1023984,-0.88835055,0.6362356,1.4993147,-74.47044,23.572203,-16.9517,-40.781517,-61.873554,-2.1298401,14.7035,-83.7289,-7.275892,18.245295,-37.24861,42.21641,1.883199,-21.269127
191,-0.09621652960777283,2.672003984451294,78.14936065673828,-0.22975656723119076,-2.5315354156921064,-91.47429984131634,7.291826,8.035335,13.864901,6.938884,-10.303237,-7.9567475,6.9630737,-8.870012,-22.0305,6.925928,-9.726722,7.1006393,-0.87324613,0.65332425,1.4950035,-74.43204,23.597599,-16.919256,-40.81892,-61.748417,-2.0797963,14.774417,-83.72357,-7.2613497,18.282667,-37.22308,42.015728,1.9331372,-21.21337
192,-0.09512978792190552,2.6672372817993164,78.15042114257812,-0.23027118138562896,-2.532414936715005,-91.48378048926116,7.2996626,8.037338,13.871498,6.939385,-10.308163,-7.9550653,6.9645844,-8.867535,-22.02075,6.926086,-9.729411,7.1007447,-0.8846234,0.66522664,1.4922962,-74.36847,23.648603,-16.878214,-40.874954,-61.693783,-2.0616035,14.803848,-83.74854,-7.2306633,18.313461,-37.182224,41.854824,1.9653183,-21.170397
193,-0.08548270910978317,2.663426637649536,78.15068817138672,-0.22835433302103142,-2.5305421918921396,-91.47794146836684,7.300967,8.032749,13.869815,6.9396687,-10.311126,-7.9528923,6.9696865,-8.873294,-22.027576,6.926231,-9.732458,7.1037765,-0.90141255,0.6551515,1.4859349,-74.339676,23.670378,-16.862906,-40.886116,-61.721607,-2.0856645,14.770797,-83.777885,-7.2211986,18.317402,-37.156666,41.74708,1.972764,-21.145847
194,-0.07788723707199097,2.6589267253875732,78.14958953857422,-0.22585017548075076,-2.5271883181914134,-91.46253265621151,7.2987227,8.0236435,13.863143,6.939216,-10.312449,-7.9498444,6.9770226,-8.884941,-22.044718,6.9270325,-9.736016,7.1086154,-0.9238178,0.6358315,1.4765161,-74.31666,23.677603,-16.855972,-40.8826,-61.80605,-2.1379693,14.695824,-83.81272,-7.221269,18.313078,-37.13362,41.65496,1.9647346,-21.131823
195,-0.07581475377082825,2.654472589492798,78.1469497680664,-0.22155589077655924,-2.5236711947005506,-91.445057018499,7.2953997,8.013708,13.855248,6.9393826,-10.314094,-7.9467983,6.98541,-8.89724,-22.063547,6.92658,-9.738964,7.113594,-0.9458085,0.6155782,1.4689097,-74.29238,23.683653,-16.845758,-40.88096,-61.917034,-2.1949308,14.604356,-83.85604,-7.2251334,18.303766,-37.1048,41.587658,1.9500165,-21.125933
196,-0.07462511211633682,2.6478307247161865,78.1436538696289,-0.21955649249112497,-2.5211687896216253,-91.43303666719913,7.2941184,8.006854,13.850046,6.939332,-10.316723,-7.9447246,6.99127,-8.905373,-22.074844,6.927237,-9.742036,7.116944,-0.95701903,0.59961635,1.4652737,-74.272026,23.692724,-16.82613,-40.877773,-62.021454,-2.2309687,14.520185,-83.89037,-7.2355914,18.287855,-37.081432,41.55377,1.9379787,-21.125038
197,-0.07136746495962143,2.6414146423339844,78.14197540283203,-0.21961974553832736,-2.5204622752437045,-91.42756756807535,7.2952685,8.004121,13.848094,6.9399443,-10.321335,-7.9435334,6.995208,-8.907478,-22.076084,6.927304,-9.744055,7.1169357,-0.95318455,0.58830756,1.4649884,-74.25454,23.70273,-16.796314,-40.878056,-62.12386,-2.2371118,14.439421,-83.909615,-7.2494993,18.265669,-37.06335,41.56928,1.9265258,-21.13211
198,-0.08139387518167496,2.634342670440674,78.14220428466797,-0.22022187544240412,-2.5205283822698084,-91.42494537703939,7.2972326,8.003268,13.847495,6.9397407,-10.325912,-7.942839,6.99792,-8.90651,-22.072111,6.9271874,-9.745454,7.1149397,-0.9427587,0.5776568,1.4651713,-74.24565,23.71161,-16.762863,-40.8671,-62.23482,-2.2279167,14.352654,-83.91727,-7.262512,18.23736,-37.04768,41.62069,1.9129882,-21.146612
199,-0.07468702644109726,2.629781484603882,78.1441879272461,-0.22050665465246563,-2.5207732612312954,-91.42560536666134,7.3004847,8.003786,13.848569,6.93987,-10.331404,-7.9430265,6.9991946,-8.90429,-22.065432,6.927563,-9.746909,7.1138577,-0.93034184,0.56891334,1.4641905,-74.24299,23.717628,-16.734411,-40.848198,-62.327248,-2.2158072,14.280353,-83.91775,-7.2707076,18.213774,-37.03729,41.670723,1.9024277,-21.16166
200,-0.07104149460792542,2.628627300262451,78.14673614501953,-0.2228952292879767,-2.5208066512841563,-91.43020051018608,7.30501,8.004124,13.8516655,6.9405932,-10.337372,-7.944323,7.0005584,-8.902763,-22.058956,6.9273705,-9.749059,7.1166425,-0.91897994,0.56463647,1.4632249,-74.2339,23.726286,-16.706518,-40.833336,-62.381878,-2.2078302,14.24027,-83.91666,-7.280272,18.19611,-37.035168,41.691547,1.902742,-21.168463
201,-0.06862416118383408,2.627148151397705,78.14845275878906,-0.22212153726322315,-2.5202584565594246,-91.44084231547971,7.312221,8.004432,13.857106,6.9399867,-10.342578,-7.947576,7.001258,-8.902172,-22.052584,6.927186,-9.752729,7.126508,-0.906991,0.56550074,1.4604096,-74.22388,23.731642,-16.692188,-40.818893,-62.37051,-2.2051365,14.253039,-83.91019,-7.2838626,18.192917,-37.04507,41.68277,1.9119624,-21.167866
202,-0.07763528823852539,2.6212282180786133,78.14739227294922,-0.2223593200944402,-2.5196928079652996,-91.45666999535143,7.320796,8.00529,13.864593,6.9400277,-10.348087,-7.9523673,7.0010796,-8.901538,-22.045076,6.926569,-9.756963,7.1410637,-0.9023461,0.5868972,1.4615043,-74.15032,23.77013,-16.6412,-40.86832,-62.334064,-2.1973631,14.297948,-83.8939,-7.291303,18.217464,-37.074944,41.666748,1.9243318,-21.165495
203,-0.0742446556687355,2.615691900253296,78.14440155029297,-0.22357259044651792,-2.5191468180669996,-91.47342307957717,7.3304377,8.006123,13.873612,6.9397283,-10.354011,-7.957235,7.00087,-8.901351,-22.03734,6.926224,-9.760859,7.154946,-0.89454687,0.5953268,1.4578806,-74.127235,23.780558,-16.6297,-40.862553,-62.272602,-2.203223,14.354477,-83.87899,-7.289717,18.229445,-37.098267,41.608757,1.9493551,-21.15572
204,-0.06963843107223511,2.6093709468841553,78.14073944091797,-0.22321917826688228,-2.518733914525929,-91.48685764830056,7.339219,8.007222,13.883426,6.9398184,-10.360688,-7.960901,7.0027685,-8.901127,-22.030642,6.9249973,-9.763304,7.1626387,-0.90296835,0.61092454,1.4565179,-74.06114,23.812529,-16.600273,-40.89986,-62.246128,-2.2314749,14.391083,-83.87604,-7.280172,18.257238,-37.10941,41.490913,1.9799944,-21.146872
205,-0.06296036392450333,2.5976402759552,78.1361312866211,-0.22541447588650032,-2.5184878388696363,-91.49642884888924,7.3482313,8.009379,13.896475,6.939844,-10.369289,-7.9639993,7.00597,-8.9007,-22.02528,6.9258533,-9.764273,7.1590996,-0.9142947,0.61448634,1.4550036,-74.016335,23.82721,-16.591558,-40.913998,-62.258617,-2.2989187,14.3996,-83.885254,-7.275583,18.269848,-37.1053,41.27298,2.031405,-21.128712
206,-0.056433986872434616,2.5911028385162354,78.13297271728516,-0.2281150820739531,-2.5185304440588645,-91.50414302533208,7.357281,8.012284,13.911868,6.9403386,-10.379168,-7.9669113,7.010973,-8.900126,-22.020828,6.9262605,-9.763262,7.1483827,-0.92987716,0.61150247,1.4541546,-73.98926,23.830997,-16.592129,-40.909912,-62.293816,-2.3906264,14.393984,-83.898,-7.275132,18.273567,-37.097363,40.982147,2.0992975,-21.102173
207,-0.051416706293821335,2.5871164798736572,78.13346099853516,-0.23062957831278807,-2.5189466408104235,-91.51002961626307,7.3663244,8.013846,13.925586,6.9402213,-10.388405,-7.9677916,7.0163794,-8.900595,-22.01623,6.9270697,-9.763001,7.1389174,-0.94419944,0.6095801,1.454136,-73.945595,23.834616,-16.595074,-40.926308,-62.328968,-2.4818985,14.383397,-83.91272,-7.275349,18.283476,-37.084908,40.694378,2.1651742,-21.08081
208,-0.05761963501572609,2.5817577838897705,78.13375854492188,-0.23013410122860187,-2.5199837541674444,-91.51369589030627,7.3743763,8.011835,13.932499,6.940627,-10.396326,-7.964654,7.022164,-8.902901,-22.01145,6.927631,-9.765783,7.139005,-0.95649546,0.60939544,1.4556105,-73.89873,23.838789,-16.594141,-40.951492,-62.344357,-2.5341425,14.375037,-83.9197,-7.275653,18.2984,-37.07778,40.501236,2.2131178,-21.075161
209,-0.052071187645196915,2.5761704444885254,78.1375503540039,-0.2274687465543992,-2.5220364445928243,-91.51370264509158,7.380469,8.004316,13.928223,6.9414697,-10.401034,-7.9536653,7.028236,-8.90796,-22.005512,6.927239,-9.772607,7.153992,-0.9672865,0.6126395,1.4604816,-73.84794,23.844864,-16.57781,-40.99254,-62.32952,-2.5228715,14.368576,-83.91418,-7.2734346,18.320276,-37.081184,40.44597,2.2349627,-21.088842
210,-0.049572233110666275,2.565608263015747,78.1401138305664,-0.2228044933171718,-2.525069085039586,-91.51074207540834,7.3860474,7.9924574,13.9164,6.9416914,-10.403453,-7.936914,7.0349717,-8.915079,-21.998972,6.9263883,-9.782206,7.178415,-0.97517383,0.6072317,1.4695104,-73.82078,23.846153,-16.569933,-41.02131,-62.294674,-2.4727387,14.363602,-83.90449,-7.271348,18.328669,-37.090416,40.48103,2.2456954,-21.11133
211,-0.0510224886238575,2.561377763748169,78.1419677734375,-0.218220077919693,-2.528222914063656,-91.50739796092502,7.391779,7.980432,13.904339,6.942196,-10.406404,-7.921617,7.0415797,-8.9228525,-21.993412,6.926329,-9.792587,7.2043414,-0.98360825,0.60892355,1.4759661,-73.77594,23.847788,-16.551779,-41.065445,-62.26596,-2.41319,14.354414,-83.89088,-7.2652335,18.346539,-37.098248,40.538006,2.254638,-21.140394
212,-0.04721282050013542,2.558591604232788,78.14199829101562,-0.21471045115345433,-2.5307482407018607,-91.50618139141183,7.398926,7.9720254,13.898773,6.941991,-10.411359,-7.915019,7.0493937,-8.929116,-21.99107,6.925831,-9.8007965,7.223831,-0.99095124,0.6148464,1.4803078,-73.73034,23.849333,-16.536737,-41.10747,-62.268665,-2.378332,14.344095,-83.88923,-7.2566214,18.365112,-37.091686,40.55864,2.27689,-21.16957
213,-0.04516369849443436,2.5573816299438477,78.13978576660156,-0.21316541325782368,-2.5334450694029895,-91.5078974070673,7.409897,7.9683604,13.903538,6.941537,-10.420348,-7.921038,7.059428,-8.934488,-21.994373,6.9247184,-9.805344,7.2352157,-0.99688923,0.61829406,1.4831555,-73.70427,23.84987,-16.538406,-41.128365,-62.317852,-2.3831728,14.335055,-83.89555,-7.251147,18.375803,-37.079716,40.538612,2.3210933,-21.200464
214,-0.04232651740312576,2.5538864135742188,78.13484954833984,-0.2135263808755176,-2.536244862963455,-91.51091423292479,7.42281,7.96768,13.913999,6.9408946,-10.431528,-7.935256,7.0714254,-8.939371,-22.001972,6.924658,-9.809661,7.2424054,-1.0015504,0.62388283,1.4836781,-73.67646,23.84994,-16.54753,-41.147167,-62.394493,-2.4089692,14.325889,-83.9078,-7.245959,18.387491,-37.059246,40.503414,2.376585,-21.236507
215,-0.03450895473361015,2.542534351348877,78.12943267822266,-0.21358952322020652,-2.5379742733116273,-91.51487661827451,7.4346137,7.9683313,13.925798,6.940538,-10.44334,-7.9517965,7.0813913,-8.942892,-22.008839,6.9247055,-9.812618,7.2464805,-1.0042685,0.6304377,1.4828466,-73.651596,23.849716,-16.561512,-41.1648,-62.479137,-2.4420867,14.314896,-83.92054,-7.2403665,18.398972,-37.036316,40.45106,2.4336631,-21.270288
216,-0.03256430849432945,2.534672975540161,78.12505340576172,-0.2158194937072426,-2.537235170385167,-91.5190316091903,7.4415913,7.969055,13.934274,6.9412317,-10.453717,-7.9649343,7.086633,-8.944456,-22.010727,6.9247694,-9.814924,7.2485456,-1.0055995,0.636121,1.4824938,-73.639015,23.849535,-16.570656,-41.17401,-62.558342,-2.4628315,14.2977295,-83.92322,-7.237501,18.404789,-37.021408,40.384254,2.4855993,-21.291395
217,-0.03075704351067543,2.5290539264678955,78.1236801147461,-0.2182659471738048,-2.5331642988111147,-91.52545320612582,7.4435773,7.9708757,13.939582,6.9400754,-10.460874,-7.97468,7.083691,-8.941498,-22.003294,6.9252768,-9.816134,7.247161,-1.0015256,0.6441203,1.4812025,-73.6304,23.849684,-16.580793,-41.182716,-62.631363,-2.4746797,14.270594,-83.913734,-7.230846,18.413275,-37.01031,40.269787,2.5351143,-21.298492
218,-0.026803774759173393,2.5228590965270996,78.12608337402344,-0.22212877803870815,-2.526017881833234,-91.53342863181673,7.4411383,7.9735622,13.943564,6.9392824,-10.467247,-7.98348,7.07604,-8.934901,-21.990417,6.924273,-9.815704,7.242233,-1.004384,0.65415066,1.473596,-73.6274,23.852869,-16.589565,-41.18036,-62.703293,-2.4821908,14.236272,-83.88686,-7.204755,18.429691,-37.004208,40.107803,2.5865026,-21.291016
219,-0.026120230555534363,2.515455722808838,78.12879943847656,-0.22607700863078023,-2.5185554164415453,-91.5399488557415,7.4370418,7.9756055,13.945411,6.9395757,-10.4728155,-7.9896784,7.067553,-8.929306,-21.977577,6.924346,-9.815749,7.237052,-1.0047234,0.6637887,1.4694344,-73.62351,23.856857,-16.591946,-41.185074,-62.767174,-2.4822779,14.202582,-83.87139,-7.184573,18.435734,-36.993042,39.97254,2.6272702,-21.280457
220,-0.028383711352944374,2.5094223022460938,78.13224792480469,-0.22715558023050095,-2.51248165560692,-91.54045241738706,7.4337845,7.9738636,13.943531,6.939453,-10.476651,-7.9913363,7.0632544,-8.929039,-21.972126,6.9246087,-9.816794,7.234892,-1.0175263,0.66915435,1.4627523,-73.60784,23.863054,-16.597395,-41.19517,-62.796352,-2.481331,14.182423,-83.87302,-7.156189,18.433746,-36.970867,39.901314,2.6447444,-21.271706
221,-0.023620065301656723,2.5057566165924072,78.13626861572266,-0.22408521626005382,-2.5088734893470197,-91.53241865894995,7.4318395,7.9665504,13.93622,6.93981,-10.478004,-7.9852676,7.0651197,-8.9365425,-21.976158,6.925007,-9.818144,7.2359285,-1.0317839,0.66875565,1.4602127,-73.59096,23.863821,-16.605478,-41.209995,-62.78548,-2.4758382,14.180355,-83.881165,-7.1502457,18.424086,-36.9635,39.955143,2.610935,-21.277374
222,-0.020298844203352928,2.5026543140411377,78.13788604736328,-0.2179938106574447,-2.505702298588857,-91.51748346996393,7.4289827,7.954796,13.92371,6.940629,-10.477241,-7.9732976,7.0699086,-8.949839,-21.986862,6.9255986,-9.819858,7.238742,-1.0515525,0.6549668,1.4530201,-73.54792,23.862957,-16.634253,-41.24617,-62.728127,-2.4705763,14.192361,-83.918045,-7.1413107,18.381693,-36.933636,40.099083,2.5477679,-21.278452
223,-0.01625250093638897,2.4955902099609375,78.13573455810547,-0.21191407395274142,-2.5035124933305477,-91.50315014083012,7.4282837,7.942993,13.912332,6.9399066,-10.476214,-7.96146,7.076431,-8.963219,-21.998844,6.9259963,-9.822654,7.243746,-1.0694184,0.63795674,1.4479263,-73.527405,23.85861,-16.666061,-41.26221,-62.665085,-2.465539,14.2089,-83.943954,-7.13852,18.340456,-36.916477,40.23673,2.4909537,-21.282228
224,-0.011979415081441402,2.4919044971466064,78.13070678710938,-0.2095771349799037,-2.5016174085547207,-91.49586053658658,7.429422,7.9346566,13.907328,6.94104,-10.479933,-7.9555573,7.081951,-8.973089,-22.007208,6.9265337,-9.827077,7.2514725,-1.0803435,0.6283385,1.4456202,-73.52081,23.854502,-16.686022,-41.269676,-62.619896,-2.46416,14.220893,-83.955414,-7.139179,18.321772,-36.903324,40.28245,2.4777913,-21.28863
225,-0.013075754046440125,2.4857993125915527,78.12389373779297,-0.2097390725977236,-2.5008664690284976,-91.49943815791943,7.4354334,7.931637,13.912119,6.940919,-10.488552,-7.960315,7.087668,-8.977221,-22.011597,6.926394,-9.834694,7.2654424,-1.0799749,0.6244774,1.446746,-73.531425,23.851297,-16.69761,-41.267384,-62.603523,-2.4701772,14.224861,-83.95585,-7.1394362,18.319427,-36.880795,40.185467,2.5364013,-21.29572
226,-0.017724549397826195,2.4789717197418213,78.11900329589844,-0.21084247949494256,-2.500989197501812,-91.50961269316947,7.4456663,7.9314995,13.923427,6.940114,-10.50128,-7.9715075,7.0945916,-8.978031,-22.014338,6.925022,-9.844574,7.2841907,-1.0734196,0.6234461,1.4497226,-73.558495,23.847006,-16.707495,-41.2528,-62.597874,-2.4821627,14.227189,-83.94837,-7.1378775,18.330807,-36.852825,39.998135,2.6396735,-21.304564
227,-0.005805585067719221,2.471013307571411,78.11702728271484,-0.21307103895039478,-2.5006068989895325,-91.52110645679778,7.4548626,7.932536,13.935602,6.9399123,-10.51388,-7.9819174,7.0999737,-8.977597,-22.014763,6.9240594,-9.853805,7.3009305,-1.0671519,0.6250768,1.4527497,-73.591515,23.843395,-16.712894,-41.23296,-62.58916,-2.4940758,14.231531,-83.937416,-7.1346593,18.351814,-36.830086,39.798836,2.7498026,-21.31317
228,0.0018940886948257685,2.464301586151123,78.11660766601562,-0.21509826739181986,-2.498204442560884,-91.52841447088858,7.4594584,7.9319434,13.94294,6.9400697,-10.522554,-7.9842663,7.1009784,-8.978302,-22.012358,6.924159,-9.858873,7.3089867,-1.0656196,0.628991,1.452428,-73.61701,23.834993,-16.717987,-41.216125,-62.556286,-2.4998918,14.24236,-83.93003,-7.1259212,18.37913,-36.81364,39.662712,2.8297725,-21.320358
229,-0.0038141526747494936,2.4581997394561768,78.12023162841797,-0.21434711111589652,-2.4927314601105617,-91.53027534801585,7.4574924,7.9296803,13.943217,6.9403667,-10.525388,-7.9745092,7.0958667,-8.979374,-22.004156,6.924656,-9.857364,7.301935,-1.0683922,0.6275227,1.4502324,-73.61842,23.831646,-16.723148,-41.223988,-62.494225,-2.4964619,14.261633,-83.9315,-7.1235046,18.384146,-36.812088,39.635277,2.8799496,-21.31811
230,0.0028914506547152996,2.454134941101074,78.12586975097656,-0.21320572127162463,-2.4845223328733455,-91.52987826844091,7.450154,7.926731,13.939813,6.940978,-10.524551,-7.957209,7.085075,-8.980266,-21.991135,6.9255257,-9.851179,7.2848616,-1.0727597,0.6248807,1.4471893,-73.61123,23.82734,-16.73581,-41.24203,-62.399033,-2.4917228,14.2941675,-83.93388,-7.1217875,18.38857,-36.825123,39.6555,2.9194756,-21.315826
231,-0.0019925350788980722,2.4507224559783936,78.130615234375,-0.21127643085253014,-2.4767827841004246,-91.52743919043124,7.442941,7.9227576,13.935554,6.9418287,-10.522949,-7.9380918,7.0753098,-8.982438,-21.979452,6.926773,-9.844666,7.2682543,-1.0772506,0.6192448,1.442974,-73.606415,23.821407,-16.750631,-41.25737,-62.30826,-2.484853,14.323473,-83.936104,-7.120761,18.391144,-36.840466,39.7073,2.939484,-21.30911
232,0.006106094922870398,2.445211172103882,78.13339233398438,-0.2088843208695991,-2.4711515438782046,-91.52382286861598,7.438855,7.9172177,13.933459,6.9428506,-10.522529,-7.922804,7.071092,-8.987702,-21.974777,6.9275393,-9.840487,7.262311,-1.0786873,0.6092587,1.438664,-73.6138,23.811419,-16.772417,-41.261086,-62.238094,-2.4787667,14.344405,-83.93436,-7.1202655,18.392668,-36.85501,39.765675,2.9396613,-21.300444
233,0.014810636639595032,2.441298246383667,78.13336944580078,-0.20378391635716958,-2.4702142269008274,-91.5177888909074,7.441566,7.9087296,13.934626,6.943254,-10.522929,-7.9123545,7.0770373,-8.998632,-21.980953,6.927656,-9.839365,7.2739973,-1.0751513,0.5977355,1.438929,-73.64882,23.790354,-16.785187,-41.240883,-62.217083,-2.464848,14.347794,-83.93637,-7.1203003,18.399061,-36.85848,39.84161,2.9067361,-21.286713
234,0.026937058195471764,2.438507318496704,78.12992095947266,-0.1972610279016927,-2.4721183611354984,-91.50952512735853,7.4484334,7.8976345,13.937617,6.9427176,-10.523006,-7.903845,7.0892982,-9.013624,-21.994118,6.92746,-9.839788,7.2962303,-1.07494,0.5872133,1.4441363,-73.67473,23.782162,-16.78326,-41.2361,-62.230827,-2.4481635,14.341315,-83.94407,-7.1199684,18.41124,-36.858597,39.945866,2.8454928,-21.269722
235,0.029133383184671402,2.434023380279541,78.12510681152344,-0.19080425365168424,-2.4740430811038197,-91.5013953653874,7.455462,7.8871408,13.940769,6.942902,-10.524859,-7.897265,7.102599,-9.027933,-22.008842,6.926017,-9.841044,7.3192825,-1.0752503,0.5797756,1.449484,-73.69928,23.775347,-16.77859,-41.230785,-62.246994,-2.4312656,14.330586,-83.953835,-7.119214,18.424974,-36.856537,40.044853,2.7806509,-21.253134
236,0.027464009821414948,2.42800235748291,78.119873046875,-0.18789299675345805,-2.473194326634246,-91.49569563709052,7.459162,7.880291,13.94286,6.9426293,-10.52832,-7.8929577,7.110681,-9.037461,-22.019228,6.925856,-9.844645,7.333158,-1.0763822,0.5778781,1.4516078,-73.71699,23.770842,-16.77649,-41.22963,-62.239063,-2.4168165,14.321007,-83.964676,-7.1186285,18.435148,-36.85346,40.10938,2.7379336,-21.239586
237,0.03026473894715309,2.4212779998779297,78.11646270751953,-0.189242400049398,-2.468594581595834,-91.49353756020501,7.4584713,7.8786535,13.943436,6.942784,-10.536006,-7.8915334,7.1123962,-9.039933,-22.02427,6.9259167,-9.851741,7.3330245,-1.0800898,0.58323914,1.4495887,-73.72454,23.76802,-16.779133,-41.229786,-62.19369,-2.409765,14.312171,-83.97726,-7.118659,18.438944,-36.850418,40.127464,2.7254074,-21.229265
238,0.03311533480882645,2.412142276763916,78.11585998535156,-0.19283533209118822,-2.4621707251424527,-91.49336769333702,7.455296,7.8805275,13.943217,6.9437895,-10.547029,-7.8928475,7.110456,-9.038302,-22.026834,6.926813,-9.86153,7.3249397,-1.085189,0.59339994,1.4437723,-73.7275,23.7663,-16.783356,-41.230267,-62.132355,-2.4068272,14.302565,-83.98868,-7.119126,18.438818,-36.84923,40.116898,2.7284966,-21.220785
239,0.0371127687394619,2.404006004333496,78.11720275878906,-0.19695217378462637,-2.4540229392632673,-91.49403509098839,7.451118,7.8829207,13.942665,6.943075,-10.556759,-7.8951135,7.1063943,-9.035063,-22.02724,6.927137,-9.870932,7.3153253,-1.081528,0.5953342,1.4393195,-73.75537,23.750053,-16.821491,-41.209328,-62.041706,-2.4089074,14.29745,-84.01494,-7.1247363,18.423494,-36.834198,40.093838,2.7412798,-21.215391
