unveil-humanoid-operators/unveil-humanoid-operators.github.io/feature-analysis-animation/data/feature_matrix_instances/weight_ankle_rom_jumping_A353.csv
Frame,root_translateX,root_translateY,root_translateZ,root_rotateX,root_rotateY,root_rotateZ,left_hip_pitch_joint_dof,left_hip_roll_joint_dof,left_hip_yaw_joint_dof,left_knee_joint_dof,left_ankle_pitch_joint_dof,left_ankle_roll_joint_dof,right_hip_pitch_joint_dof,right_hip_roll_joint_dof,right_hip_yaw_joint_dof,right_knee_joint_dof,right_ankle_pitch_joint_dof,right_ankle_roll_joint_dof,waist_yaw_joint_dof,waist_roll_joint_dof,waist_pitch_joint_dof,left_shoulder_pitch_joint_dof,left_shoulder_roll_joint_dof,left_shoulder_yaw_joint_dof,left_elbow_joint_dof,left_wrist_roll_joint_dof,left_wrist_pitch_joint_dof,left_wrist_yaw_joint_dof,right_shoulder_pitch_joint_dof,right_shoulder_roll_joint_dof,right_shoulder_yaw_joint_dof,right_elbow_joint_dof,right_wrist_roll_joint_dof,right_wrist_pitch_joint_dof,right_wrist_yaw_joint_dof
0,0.1896393895149231,2.5021729469299316,77.82193756103516,0.4429898289964232,-4.280617547450453,-95.16377735552325,6.208519,6.545188,7.5266495,8.531506,-8.943689,-8.242951,3.9358804,-7.8260584,-8.101341,7.558474,-8.460589,9.306399,-1.8199192,0.76554185,12.035968,9.739522,11.359701,-8.4924135,50.30148,21.333057,-7.882194,-1.9627354,3.7022414,-4.4277678,3.0311549,35.387478,112.99987,-34.742992,-14.469235
1,0.1894136667251587,2.5059146881103516,77.82274627685547,0.4400194806695671,-4.276605385390685,-95.1756325549411,6.207915,6.550836,7.537502,8.523939,-8.938467,-8.24711,3.9224246,-7.8204107,-8.090926,7.5641823,-8.45712,9.293887,-1.7933875,0.7397932,12.0528,9.739713,11.388829,-8.495119,50.287167,21.366709,-7.878092,-1.9797176,3.5828109,-4.418143,3.019457,35.881725,112.99987,-34.259525,-14.084416
2,0.1900682896375656,2.507761001586914,77.82289123535156,0.4357899564996478,-4.272509177078831,-95.18803010929518,6.2071733,6.5573506,7.5488286,8.516688,-8.93344,-8.251429,3.9110477,-7.8139324,-8.080478,7.5642653,-8.450125,9.280617,-1.7635969,0.7170136,12.070804,9.732879,11.413594,-8.500424,50.27924,21.40495,-7.8729553,-1.9947919,3.4576669,-4.416521,3.0090792,36.394054,112.99987,-33.761772,-13.688849
3,0.19036421179771423,2.5083394050598145,77.82342529296875,0.4316700953011281,-4.268831592809323,-95.19912825521867,6.206081,6.5629,7.5589647,8.511071,-8.929412,-8.25548,3.896575,-7.808881,-8.070387,7.5736413,-8.448907,9.269095,-1.7289892,0.69483805,12.087866,9.724571,11.441122,-8.508963,50.272167,21.44011,-7.869501,-2.0112393,3.3405216,-4.4165864,2.9921591,36.851746,112.99987,-33.32566,-13.347573
4,0.19033284485340118,2.514833688735962,77.8241958618164,0.4303659172513962,-4.2656555794191995,-95.20703492161672,6.2048893,6.566368,7.5659394,8.507077,-8.926159,-8.258965,3.8906672,-7.8048344,-8.063699,7.5701637,-8.442496,9.261936,-1.7057303,0.67641354,12.094716,9.716797,11.458367,-8.518738,50.277687,21.464863,-7.8661466,-2.0182617,3.2682762,-4.4201517,2.997817,37.155354,112.99987,-33.043537,-13.125489
5,0.1900569647550583,2.518319606781006,77.82388305664062,0.43006400878069456,-4.263565037152901,-95.2104665816736,6.2044344,6.566235,7.568573,8.50432,-8.923766,-8.261661,3.8863778,-7.8042803,-8.060124,7.5710807,-8.440338,9.261338,-1.6905391,0.6630323,12.094903,9.717684,11.470985,-8.526758,50.281532,21.477514,-7.868649,-2.0261004,3.2346804,-4.422821,2.9983194,37.288055,112.99987,-32.9323,-13.044584
6,0.19069074094295502,2.5147078037261963,77.8231430053711,0.43175947074053483,-4.262251162661693,-95.21062415550536,6.2037835,6.5637674,7.5678673,8.503395,-8.922256,-8.263805,3.8867083,-7.805683,-8.059452,7.568102,-8.437794,9.265396,-1.683333,0.65318567,12.088626,9.722871,11.478611,-8.533505,50.28902,21.482304,-7.874223,-2.0310416,3.2313209,-4.424097,2.9989834,37.29709,112.99987,-32.94631,-13.062449
7,0.1914527714252472,2.512457847595215,77.82270050048828,0.4334387164577513,-4.260952916211904,-95.20974157526122,6.202401,6.5609756,7.566246,8.504389,-8.921947,-8.265729,3.8861759,-7.807691,-8.05939,7.568281,-8.43771,9.270809,-1.6779971,0.64424294,12.078833,9.731019,11.488905,-8.543111,50.296207,21.477606,-7.8784256,-2.0333822,3.2449307,-4.426266,3.003626,37.246235,112.99987,-33.016575,-13.126977
8,0.1919594407081604,2.5112435817718506,77.82220458984375,0.43423023496322977,-4.259069485346154,-95.210084946831,6.2019224,6.559526,7.566226,8.503327,-8.921002,-8.267701,3.8866072,-7.8082924,-8.05869,7.5644784,-8.4357395,9.274291,-1.6782016,0.6403578,12.072897,9.736074,11.490576,-8.544558,50.304592,21.471449,-7.877446,-2.0318244,3.2488527,-4.426693,3.00429,37.239212,112.99987,-33.033463,-13.140122
9,0.19255493581295013,2.503363609313965,77.82212829589844,0.4331394352169564,-4.256008856556994,-95.21197237356358,6.1995435,6.560913,7.5678134,8.503734,-8.920894,-8.271128,3.8852198,-7.8067813,-8.057286,7.560185,-8.433921,9.275053,-1.667878,0.63365716,12.062119,9.738748,11.4960165,-8.550343,50.317703,21.463352,-7.8672905,-2.021866,3.2572677,-4.4290576,3.013331,37.22321,112.99987,-33.059742,-13.173494
10,0.19335973262786865,2.508688449859619,77.82178497314453,0.4310963631748936,-4.252783062438247,-95.2143944613116,6.196808,6.563779,7.5700393,8.50435,-8.920696,-8.275522,3.8830295,-7.8043966,-8.055607,7.557323,-8.433548,9.274921,-1.6613672,0.62965256,12.051901,9.741673,11.50262,-8.554135,50.330338,21.445421,-7.8521395,-2.0079932,3.2624803,-4.43266,3.0244555,37.215797,112.99987,-33.076614,-13.19435
11,0.19440242648124695,2.5035576820373535,77.82184600830078,0.4290867044648582,-4.248792518306445,-95.21726338197324,6.1922755,6.566524,7.572783,8.507912,-8.922681,-8.278007,3.8783817,-7.802246,-8.053185,7.5573,-8.434389,9.274183,-1.6563227,0.62707305,12.04305,9.747694,11.509841,-8.555031,50.33745,21.426554,-7.8366666,-1.9967767,3.2728777,-4.437119,3.0360727,37.199177,112.99987,-33.091736,-13.213207
12,0.19659213721752167,2.5073421001434326,77.82173919677734,0.4272222364540187,-4.244495869662403,-95.22095370818077,6.188432,6.5672073,7.576561,8.5097275,-8.92435,-8.276028,3.8718224,-7.8020325,-8.049101,7.5598955,-8.435693,9.273151,-1.6512446,0.6245712,12.033434,9.751387,11.513424,-8.553608,50.34716,21.418564,-7.8243623,-1.990959,3.275991,-4.4396772,3.039841,37.195877,112.99987,-33.098385,-13.219253
13,0.19843953847885132,2.508425235748291,77.82168579101562,0.43054090100344217,-4.238060111015751,-95.22603500019893,6.1800957,6.564878,7.581514,8.517645,-8.929901,-8.26563,3.8621094,-7.8045435,-8.042552,7.563259,-8.435633,9.271693,-1.6470537,0.62108356,12.021528,9.757894,11.516764,-8.549473,50.35356,21.418978,-7.8165183,-1.9970775,3.283143,-4.442397,3.0416565,37.18536,112.99987,-33.104076,-13.221494
14,0.19856351613998413,2.5066516399383545,77.82195281982422,0.4339568070033213,-4.231997444640119,-95.23177510527924,6.1726365,6.560428,7.587434,8.525847,-8.936652,-8.249326,3.8541675,-7.808516,-8.034843,7.5634055,-8.433116,9.269847,-1.6441292,0.6178325,12.011224,9.762691,11.517873,-8.546292,50.36071,21.423353,-7.8102255,-2.0060298,3.2869856,-4.443426,3.0401213,37.17909,112.99987,-33.105812,-13.21242
15,0.20075996220111847,2.505150318145752,77.82241821289062,0.43523465626471947,-4.224479197767621,-95.23809490728902,6.1643376,6.556035,7.5939813,8.531368,-8.941563,-8.234003,3.841971,-7.812456,-8.026303,7.567766,-8.43225,9.267619,-1.6396911,0.6155204,11.997179,9.769186,11.519355,-8.539301,50.36649,21.4352,-7.806279,-2.0209746,3.2939227,-4.445022,3.0361192,37.170002,112.99987,-33.106262,-13.205066
16,0.20159387588500977,2.501640558242798,77.8228988647461,0.43709032124020764,-4.218852488104557,-95.243289790221,6.1549225,6.5546536,7.598824,8.541841,-8.948674,-8.226584,3.8314674,-7.814143,-8.020023,7.573444,-8.433095,9.265542,-1.6364238,0.61413944,11.990471,9.773058,11.522019,-8.530826,50.369186,21.449558,-7.8058043,-2.0323493,3.29715,-4.448204,3.033469,37.15846,112.99987,-33.111732,-13.2074585
17,0.20309913158416748,2.503791093826294,77.82299041748047,0.43442745859691245,-4.216813260283947,-95.24703603106585,6.153626,6.55661,7.6027837,8.54113,-8.949321,-8.231078,3.8254325,-7.8122873,-8.016748,7.577657,-8.434289,9.262518,-1.6352814,0.61511964,11.989723,9.771787,11.5252495,-8.528406,50.374615,21.461218,-7.808317,-2.0331764,3.2920585,-4.4523563,3.0355344,37.150112,112.99987,-33.12682,-13.219459
18,0.20355913043022156,2.5075645446777344,77.82368469238281,0.43027418712475485,-4.216794220481355,-95.25013821455045,6.154663,6.561178,7.6059575,8.537961,-8.948246,-8.243098,3.8255758,-7.807466,-8.015856,7.57284,-8.4313965,9.258683,-1.633456,0.61757505,11.993545,9.76608,11.528733,-8.53024,50.38139,21.4739,-7.8138547,-2.028567,3.2851827,-4.4570146,3.0414386,37.13488,112.99987,-33.154957,-13.2451
19,0.20554223656654358,2.507838726043701,77.82367706298828,0.4261522604181999,-4.217001972122879,-95.25242032376694,6.157053,6.5653863,7.6083,8.53194,-8.945342,-8.25677,3.824121,-7.802958,-8.015601,7.572047,-8.4304085,9.2564125,-1.6334723,0.6206508,11.996798,9.76198,11.531986,-8.533694,50.385147,21.486332,-7.818581,-2.0239868,3.2775555,-4.461313,3.0474176,37.128727,112.99987,-33.172455,-13.26141
20,0.20771902799606323,2.506587028503418,77.82383728027344,0.4236554414351179,-4.216622962270019,-95.25479826222731,6.158552,6.566832,7.6100836,8.525886,-8.941611,-8.266295,3.8244617,-7.8007545,-8.015201,7.565941,-8.425339,9.258261,-1.6311098,0.6211416,11.999222,9.75069,11.53847,-8.5436735,50.394924,21.493044,-7.822653,-2.0208304,3.2732337,-4.470233,3.0677104,37.101337,112.99987,-33.216034,-13.300227
21,0.2101447880268097,2.504866123199463,77.82369995117188,0.4238057911659416,-4.214043287996847,-95.25684633180421,6.157575,6.5644293,7.6104703,8.5199795,-8.936829,-8.270657,3.82228,-7.801889,-8.014348,7.560088,-8.418136,9.267102,-1.629789,0.6182789,11.998333,9.743995,11.543074,-8.550314,50.397327,21.507349,-7.82039,-2.0229743,3.266884,-4.4766564,3.0795584,37.110806,112.99987,-33.210636,-13.292746
22,0.21355275809764862,2.5071966648101807,77.82341003417969,0.4265601957235588,-4.210465624593944,-95.25833638516718,6.1554627,6.559278,7.6096463,8.513103,-8.930413,-8.272733,3.8191607,-7.805479,-8.013609,7.553685,-8.409009,9.280999,-1.6298546,0.613302,11.99384,9.735906,11.548695,-8.560558,50.401768,21.51694,-7.815738,-2.0279646,3.256322,-4.484345,3.095483,37.13398,112.99987,-33.196823,-13.27564
23,0.2158711701631546,2.50925874710083,77.822509765625,0.42915878476580915,-4.207493335651686,-95.25936942973523,6.1527505,6.553901,7.6083145,8.508677,-8.9252405,-8.272746,3.816835,-7.809512,-8.013223,7.5475616,-8.4004345,9.294511,-1.626865,0.60701954,11.993571,9.728895,11.551756,-8.566248,50.399853,21.53621,-7.811353,-2.0327802,3.2495577,-4.4884086,3.1038046,37.14716,112.99987,-33.182983,-13.26194
24,0.21665829420089722,2.5123918056488037,77.82310485839844,0.4316582649243683,-4.205608938781812,-95.25965425747847,6.1511917,6.549256,7.6075473,8.50456,-8.92089,-8.270606,3.8165367,-7.8130283,-8.013473,7.5401683,-8.393049,9.302316,-1.6378562,0.6084151,11.9928665,9.727877,11.562578,-8.580016,50.39268,21.526505,-7.812213,-2.0396187,3.2342138,-4.50266,3.1208644,37.17817,112.99987,-33.15669,-13.236494
25,0.21896210312843323,2.515470266342163,77.8229751586914,0.4326153934939521,-4.206807722625701,-95.25913522267085,6.150168,6.5469003,7.607499,8.507482,-8.921621,-8.265089,3.8152573,-7.816259,-8.013861,7.5446863,-8.39593,9.300997,-1.6458142,0.6085676,11.999761,9.72363,11.565482,-8.582752,50.385105,21.531914,-7.817879,-2.0414557,3.22587,-4.5065355,3.124326,37.181236,112.99987,-33.151134,-13.231504
26,0.2190214842557907,2.5162343978881836,77.8224868774414,0.4326197542128241,-4.210446623090217,-95.2573751208333,6.152459,6.54483,7.6074457,8.508807,-8.922099,-8.256411,3.8155236,-7.8198395,-8.015284,7.5537543,-8.403823,9.294189,-1.6668742,0.6144817,12.016556,9.726055,11.573908,-8.587503,50.36329,21.515759,-7.8306365,-2.0458775,3.1998594,-4.518526,3.1308756,37.195618,112.99987,-33.13889,-13.226325
27,0.22174027562141418,2.5193610191345215,77.82330322265625,0.4332300164135039,-4.213335847008937,-95.25553614344109,6.150359,6.543418,7.6071296,8.517335,-8.926396,-8.247759,3.8170006,-7.822711,-8.0167885,7.557802,-8.408788,9.286758,-1.6832463,0.61885875,12.029942,9.724128,11.57767,-8.588891,50.34811,21.509106,-7.8424516,-2.0468423,3.1847591,-4.524124,3.1332655,37.1967,112.99987,-33.13513,-13.223965
28,0.22258824110031128,2.5167391300201416,77.8238296508789,0.43380507688839515,-4.213513294475131,-95.25389407170785,6.147521,6.540856,7.606638,8.520296,-8.927201,-8.2419815,3.8143837,-7.826054,-8.017381,7.5621834,-8.411179,9.28371,-1.6967362,0.6219028,12.0381565,9.720581,11.582311,-8.589935,50.336586,21.50302,-7.8514805,-2.0467398,3.1712396,-4.5311213,3.1349194,37.19882,112.99987,-33.130043,-13.218525
29,0.22606585919857025,2.518343448638916,77.8241958618164,0.43532682316753357,-4.209541243421396,-95.25281063821663,6.1422186,6.5371294,7.6054425,8.516851,-8.923459,-8.241,3.8073008,-7.8294487,-8.016563,7.562718,-8.406938,9.287169,-1.7065412,0.62341756,12.039714,9.71724,11.587279,-8.590267,50.326714,21.497574,-7.856156,-2.0458024,3.1550412,-4.5382924,3.134673,37.206646,112.99987,-33.12474,-13.208081
30,0.22841434180736542,2.5192079544067383,77.82528686523438,0.43678024874531146,-4.202903111082624,-95.25208285589736,6.135798,6.5325828,7.604153,8.508258,-8.916314,-8.242866,3.7979648,-7.8326154,-8.014839,7.559306,-8.397889,9.294369,-1.7114949,0.6239162,12.036206,9.710408,11.593357,-8.590652,50.321873,21.494528,-7.858532,-2.0434153,3.1457624,-4.5464234,3.131914,37.20842,112.99987,-33.121212,-13.19619
31,0.23021313548088074,2.519940137863159,77.82474517822266,0.43899539518477154,-4.195239788532108,-95.25097573804429,6.127708,6.527739,7.602657,8.501441,-8.910182,-8.244909,3.788537,-7.836184,-8.013581,7.5544467,-8.387944,9.302566,-1.715292,0.6233283,12.029401,9.703008,11.595964,-8.591058,50.319942,21.493885,-7.8593593,-2.0378761,3.1409075,-4.549575,3.1301851,37.20752,112.99987,-33.120285,-13.179999
32,0.23164112865924835,2.523176908493042,77.82487487792969,0.44137173595481916,-4.18851055774939,-95.24898905083091,6.1207285,6.5222807,7.6015477,8.495313,-8.90488,-8.244453,3.7829227,-7.8404713,-8.014279,7.5464487,-8.378913,9.309351,-1.7199405,0.6227977,12.022839,9.694233,11.598763,-8.592263,50.31954,21.489803,-7.862669,-2.0340254,3.1355526,-4.5527024,3.1282003,37.206863,112.99987,-33.11716,-13.167356
33,0.23421089351177216,2.526397705078125,77.82504272460938,0.44387525281510587,-4.182402019906253,-95.24572864902804,6.113088,6.515835,7.601149,8.493655,-8.902489,-8.239063,3.776431,-7.847156,-8.017089,7.545709,-8.377459,9.314728,-1.7241969,0.6236856,12.015154,9.682213,11.604322,-8.597601,50.323185,21.474258,-7.871714,-2.034321,3.1319547,-4.558459,3.123669,37.20504,112.99987,-33.112415,-13.154572
34,0.23689427971839905,2.5272486209869385,77.82492065429688,0.44746675177132694,-4.176655387130716,-95.2418511612256,6.1061707,6.508424,7.6015406,8.493066,-8.901357,-8.230716,3.7713695,-7.855132,-8.021327,7.5453753,-8.378342,9.31977,-1.7302005,0.62347907,12.006108,9.67675,11.606999,-8.60118,50.321323,21.458345,-7.880799,-2.033693,3.1313527,-4.560942,3.1212506,37.199142,112.99987,-33.109287,-13.142155
35,0.2404526323080063,2.5276131629943848,77.82437896728516,0.45090346974336554,-4.170865124944839,-95.23706820963378,6.0986633,6.501298,7.6010456,8.492785,-8.900143,-8.223456,3.7665238,-7.863129,-8.026393,7.5449843,-8.379578,9.323928,-1.730193,0.62727094,11.9970255,9.663394,11.616373,-8.617511,50.325237,21.433746,-7.8923755,-2.036381,3.1377733,-4.5686255,3.1126437,37.18852,112.99987,-33.103046,-13.130645
36,0.24224478006362915,2.5282154083251953,77.82379150390625,0.45367702058882575,-4.167639418758468,-95.23200413431532,6.093931,6.4958906,7.598597,8.490973,-8.898519,-8.22137,3.7657871,-7.868732,-8.031501,7.5412335,-8.378369,9.326186,-1.7364348,0.629541,11.992828,9.654849,11.622197,-8.625656,50.32265,21.426687,-7.898898,-2.0365539,3.134723,-4.5731425,3.110973,37.185814,112.99987,-33.10059,-13.123594
37,0.2445329874753952,2.5296921730041504,77.82389068603516,0.45240113918534774,-4.167358183504093,-95.2256906133179,6.0920177,6.493019,7.5926785,8.486903,-8.896015,-8.227797,3.7656457,-7.871643,-8.036529,7.5415087,-8.377973,9.325605,-1.7460288,0.6338954,11.99488,9.642663,11.628477,-8.634271,50.319923,21.432726,-7.901708,-2.0367544,3.126079,-4.578442,3.1134994,37.187275,112.99987,-33.102272,-13.126272
38,0.24715031683444977,2.5305566787719727,77.82418060302734,0.4504371262578573,-4.16904917535898,-95.21825532987499,6.092737,6.4916286,7.584275,8.4798355,-8.892209,-8.239823,3.76692,-7.8728642,-8.0420065,7.5431204,-8.377846,9.322917,-1.7597791,0.63906133,12.001362,9.631741,11.633056,-8.639245,50.31344,21.452965,-7.9014835,-2.0363352,3.1128461,-4.5828323,3.1197715,37.19278,112.99987,-33.10555,-13.132431
39,0.2482091337442398,2.5314688682556152,77.82463073730469,0.4475968171569971,-4.171547183833394,-95.2116729815001,6.09418,6.4905005,7.576467,8.473555,-8.88889,-8.251988,3.76865,-7.8737316,-8.046515,7.545206,-8.377693,9.319905,-1.7750072,0.64399254,12.00896,9.621133,11.637916,-8.643214,50.30716,21.472473,-7.9000406,-2.036086,3.0968451,-4.588016,3.128881,37.20096,112.99987,-33.1091,-13.140624
40,0.25209885835647583,2.5316264629364014,77.82428741455078,0.44654835218759625,-4.17350454055567,-95.2081090419291,6.0960484,6.488579,7.572538,8.468753,-8.886628,-8.258855,3.7692893,-7.8756175,-8.048388,7.5473304,-8.377318,9.318401,-1.7875335,0.6488123,12.014394,9.612922,11.646626,-8.646772,50.300747,21.481323,-7.8991723,-2.0377977,3.0842788,-4.598047,3.1406236,37.203796,112.99987,-33.113018,-13.1484785
41,0.25273746252059937,2.5319790840148926,77.82408142089844,0.4475530233402815,-4.175368444148062,-95.20822403261516,6.0981493,6.4862885,7.573694,8.469372,-8.888187,-8.258452,3.7702107,-7.878363,-8.047275,7.5501213,-8.377797,9.31747,-1.7948315,0.6539145,12.018004,9.608707,11.652235,-8.650337,50.293438,21.476534,-7.8975024,-2.0406938,3.080223,-4.604602,3.1477284,37.20089,112.99987,-33.107307,-13.149082
42,0.2598041892051697,2.527606964111328,77.82411193847656,0.44827531189606545,-4.1777810532323825,-95.2108618412009,6.101234,6.483791,7.5782413,8.472854,-8.89174,-8.253764,3.7689583,-7.881696,-8.043554,7.5593114,-8.381923,9.316671,-1.798362,0.6590716,12.020759,9.605056,11.657769,-8.655535,50.287186,21.463837,-7.8937345,-2.0430496,3.0786343,-4.611026,3.1526883,37.19998,112.99987,-33.095203,-13.14232
43,0.2619926929473877,2.5256600379943848,77.8244400024414,0.4503466113296424,-4.17876522132336,-95.2150987737766,6.1024127,6.480209,7.5841913,8.477047,-8.895225,-8.247068,3.7681673,-7.885742,-8.038602,7.5616984,-8.381686,9.31819,-1.7988389,0.6635092,12.021888,9.599155,11.661767,-8.660477,50.284134,21.451275,-7.890193,-2.044646,3.076723,-4.6155643,3.1546037,37.19948,112.99987,-33.08328,-13.133972
44,0.2645494043827057,2.5285136699676514,77.82523345947266,0.4536369012990509,-4.17607661059785,-95.2196165047874,6.1000752,6.473932,7.589634,8.476708,-8.894675,-8.24052,3.7629282,-7.8916917,-8.033014,7.560956,-8.378443,9.32442,-1.7989663,0.66718256,12.021301,9.591505,11.666756,-8.665875,50.280598,21.440641,-7.8885984,-2.0465617,3.0727024,-4.6213064,3.153738,37.201046,112.99987,-33.07534,-13.123002
45,0.2667897343635559,2.5306434631347656,77.82551574707031,0.45878186858337616,-4.16804626917284,-95.2247957940399,6.0915146,6.4635534,7.5940824,8.471018,-8.888462,-8.233609,3.7523148,-7.900288,-8.02612,7.552006,-8.36885,9.339533,-1.8009255,0.6688786,12.016498,9.584903,11.668796,-8.667399,50.275177,21.434387,-7.8900523,-2.0474775,3.0670028,-4.6237435,3.1521406,37.200256,112.99987,-33.0808,-13.113393
46,0.2703641653060913,2.531575918197632,77.82585144042969,0.46522969586415575,-4.152911463069977,-95.2312925607396,6.0768375,6.448189,7.5992126,8.457819,-8.875861,-8.225158,3.7311182,-7.912972,-8.016781,7.543103,-8.357124,9.361406,-1.7959452,0.6710325,12.011016,9.565292,11.676737,-8.675107,50.274548,21.42058,-7.8962464,-2.052284,3.049619,-4.634626,3.1372178,37.199627,112.99987,-33.08839,-13.112325
47,0.28001150488853455,2.5444767475128174,77.8252182006836,0.47147294436610016,-4.141550094369926,-95.23765199990433,6.064546,6.4353094,7.6040244,8.449406,-8.8668585,-8.217862,3.7168095,-7.9233103,-8.0086775,7.5295734,-8.343943,9.381613,-1.7971259,0.67182773,12.004981,9.557976,11.677835,-8.675998,50.26784,21.41662,-7.8989716,-2.0540047,3.043335,-4.636199,3.1346836,37.200123,112.99987,-33.09908,-13.099304
48,0.28619489073753357,2.546992540359497,77.82550048828125,0.4773148235403221,-4.132658403612998,-95.24326975193951,6.0579214,6.4255223,7.6098456,8.437923,-8.858057,-8.212975,3.7024515,-7.9318495,-8.002106,7.5263624,-8.337455,9.393018,-1.7941012,0.67184436,12.002269,9.541346,11.680624,-8.679045,50.269962,21.415632,-7.898462,-2.05955,3.027581,-4.640353,3.1316807,37.209976,112.99987,-33.09834,-13.096504
49,0.2880997359752655,2.5452804565429688,77.82572174072266,0.4767104549094263,-4.134964271132091,-95.2474020761537,6.0623913,6.424132,7.616364,8.435383,-8.858505,-8.212281,3.7012434,-7.9342685,-8.000015,7.530786,-8.339363,9.389739,-1.7882826,0.6751759,12.009737,9.527134,11.684776,-8.684707,50.27032,21.42185,-7.892944,-2.0712266,3.0177846,-4.6462126,3.135422,37.227474,112.99987,-33.08884,-13.08981
50,0.2919541299343109,2.5440685749053955,77.82575225830078,0.47445123970565933,-4.143440018825435,-95.2510073599707,6.073494,6.427993,7.6238337,8.436408,-8.863251,-8.21444,3.7069023,-7.93294,-8.000345,7.540052,-8.346198,9.37733,-1.7817146,0.6790299,12.021184,9.511792,11.688575,-8.691968,50.274036,21.429527,-7.883701,-2.0876613,3.0081024,-4.6512437,3.1449306,37.254623,112.99987,-33.06965,-13.081621
51,0.2929503619670868,2.5453526973724365,77.82647705078125,0.47117157285298145,-4.154086485788325,-95.25443792452752,6.088842,6.43239,7.6312203,8.435366,-8.867775,-8.217537,3.7143583,-7.931005,-8.00028,7.5521507,-8.354731,9.363695,-1.7832721,0.6888623,12.030137,9.505773,11.709891,-8.709131,50.271854,21.409182,-7.8765574,-2.1134481,2.9988165,-4.678232,3.1702013,37.28569,112.99987,-33.046448,-13.081906
52,0.2945716381072998,2.5473804473876953,77.82711029052734,0.46907041344386735,-4.159699922926553,-95.25729140512557,6.0973377,6.43418,7.6362653,8.434838,-8.8706455,-8.219848,3.7197452,-7.9300585,-7.9983635,7.554774,-8.356381,9.356702,-1.7821097,0.6934914,12.035717,9.498673,11.719522,-8.716266,50.27279,21.409725,-7.8679404,-2.1263819,2.9932923,-4.689992,3.184524,37.306305,112.99987,-33.029236,-13.08048
53,0.2966766357421875,2.548326015472412,77.82754516601562,0.46954001591355216,-4.158490647234129,-95.26007360768175,6.0988364,6.431585,7.638627,8.430384,-8.868556,-8.221739,3.7173367,-7.931795,-7.991652,7.5540667,-8.352801,9.360079,-1.7814544,0.69777507,12.0339,9.493047,11.725759,-8.72106,50.27531,21.408995,-7.859825,-2.1325715,2.9898047,-4.6972675,3.193867,37.31706,112.99987,-33.017254,-13.084846
54,0.29968202114105225,2.5468356609344482,77.82757568359375,0.47029567157960284,-4.15370565363404,-95.26241539595848,6.0965133,6.4267735,7.6391144,8.424204,-8.863924,-8.223841,3.7107317,-7.9347124,-7.9820933,7.5525427,-8.346937,9.368959,-1.781295,0.7018532,12.027054,9.489201,11.733934,-8.726163,50.27903,21.40509,-7.851757,-2.1353338,2.9882684,-4.7066035,3.2025511,37.321842,112.99987,-33.008858,-13.095233
55,0.3038935363292694,2.543454170227051,77.8270034790039,0.4723141527095098,-4.148605694323715,-95.26447193849981,6.094152,6.421154,7.639019,8.417384,-8.858899,-8.224862,3.7052016,-7.937996,-7.9730806,7.5483866,-8.339743,9.379169,-1.7821077,0.70546645,12.020745,9.486391,11.738001,-8.72938,50.282146,21.405266,-7.8446274,-2.1339023,2.9878745,-4.7110248,3.2069063,37.323715,112.99987,-32.99975,-13.1035595
56,0.306490421295166,2.542793035507202,77.82695007324219,0.4734133849824166,-4.146854200720353,-95.26622914213314,6.093812,6.416607,7.6393604,8.414239,-8.85708,-8.223587,3.7023406,-7.9412317,-7.9675074,7.5471854,-8.335896,9.386279,-1.7852266,0.70929587,12.017181,9.484978,11.7456665,-8.735155,50.28465,21.405758,-7.841697,-2.1310284,2.9877543,-4.7186785,3.211892,37.3236,112.99987,-32.993755,-13.108465
57,0.307701975107193,2.5421528816223145,77.8271484375,0.47481619804487046,-4.149942969335064,-95.26727548837073,6.096846,6.4133606,7.6403036,8.414775,-8.858958,-8.21831,3.7053854,-7.9442344,-7.9674253,7.5462375,-8.334958,9.389324,-1.7915167,0.71139616,12.018934,9.483113,11.747901,-8.736863,50.28805,21.42001,-7.842382,-2.1227493,2.9849164,-4.720595,3.213209,37.324272,112.99987,-32.991222,-13.105778
58,0.30848273634910583,2.543980598449707,77.82731628417969,0.47665842139586234,-4.156676777357252,-95.26758500324124,6.1025076,6.4102955,7.641084,8.418615,-8.863685,-8.210095,3.7110255,-7.9481773,-7.970632,7.549702,-8.337992,9.390679,-1.8020333,0.71309984,12.024558,9.480928,11.7509985,-8.740199,50.294224,21.436378,-7.8490925,-2.1093242,2.979074,-4.722872,3.2147272,37.326977,112.99987,-32.98889,-13.096595
59,0.31036579608917236,2.5467686653137207,77.82718658447266,0.478264907601018,-4.163144488986323,-95.26814575796885,6.108199,6.4079804,7.64231,8.422007,-8.868375,-8.202,3.7162685,-7.951512,-7.9745154,7.553242,-8.341335,9.390712,-1.812319,0.7156414,12.029448,9.48008,11.754147,-8.743273,50.29786,21.452868,-7.8547573,-2.096922,2.9751315,-4.7247496,3.2154624,37.32785,112.99987,-32.98964,-13.086898
60,0.3101666569709778,2.547762155532837,77.82694244384766,0.47959818382220243,-4.168835122878205,-95.26934547370648,6.1145506,6.4058757,7.6439753,8.423229,-8.871726,-8.19695,3.7223988,-7.954174,-7.976985,7.5541787,-8.34349,9.39002,-1.8185107,0.7170072,12.033369,9.481466,11.766014,-8.752761,50.298656,21.458488,-7.860557,-2.0855455,2.971972,-4.730349,3.2141576,37.329494,112.99987,-32.982563,-13.0839615
61,0.3134828805923462,2.54764723777771,77.82662200927734,0.4799893321667081,-4.171364918575228,-95.27204503217858,6.1198173,6.4049287,7.6467113,8.420498,-8.87245,-8.196944,3.7251282,-7.9553857,-7.9772224,7.5551248,-8.344941,9.387234,-1.8226078,0.71928954,12.033052,9.482394,11.772909,-8.758959,50.29894,21.461948,-7.8599296,-2.0751112,2.9727142,-4.732619,3.2141616,37.32994,112.99987,-32.97325,-13.082885
62,0.3082594871520996,2.541621685028076,77.82637786865234,0.47772090158992137,-4.17250914933594,-95.27528290443054,6.124292,6.4049416,7.6499352,8.417509,-8.873162,-8.199994,3.7242923,-7.9558806,-7.976525,7.560728,-8.348886,9.382784,-1.8263673,0.7218221,12.030907,9.482009,11.775899,-8.761986,50.30063,21.465801,-7.856551,-2.0642385,2.973245,-4.7333455,3.2147713,37.33002,112.99987,-32.963062,-13.08672
63,0.3079041838645935,2.5401575565338135,77.82608795166016,0.4776708079267902,-4.173127670680073,-95.2790338768836,6.1290617,6.404628,7.653539,8.412628,-8.872493,-8.203121,3.7250202,-7.956103,-7.9747458,7.5617986,-8.350447,9.37882,-1.8289952,0.72424805,12.027485,9.481797,11.779185,-8.767017,50.30293,21.467682,-7.8525867,-2.052878,2.9749963,-4.733939,3.216207,37.334473,112.99987,-32.94907,-13.0866165
64,0.3174610137939453,2.5439352989196777,77.82618713378906,0.4764683388272818,-4.173460268251416,-95.28211227506283,6.1330786,6.403084,7.656651,8.407998,-8.871663,-8.203423,3.725019,-7.9571905,-7.9715652,7.5625763,-8.351481,9.37774,-1.8297896,0.7256666,12.022822,9.481807,11.786058,-8.776722,50.306053,21.469269,-7.8494844,-2.0439956,2.9759853,-4.7347584,3.2179506,37.345406,112.99987,-32.931145,-13.081176
65,0.3223766088485718,2.54641056060791,77.82532501220703,0.47702321348676147,-4.1731593981309505,-95.28409027911242,6.1338077,6.400292,7.65832,8.408506,-8.87315,-8.199366,3.724836,-7.9585977,-7.9663267,7.5610447,-8.3509445,9.381324,-1.8279697,0.72465795,12.021711,9.478607,11.788212,-8.779984,50.309345,21.487226,-7.8472033,-2.038148,2.9738684,-4.735192,3.2203953,37.351067,112.99987,-32.919582,-13.085588
66,0.3230225145816803,2.5457563400268555,77.82556915283203,0.4791605571716057,-4.172169718739847,-95.28566745687354,6.1340404,6.3964367,7.659567,8.4086485,-8.874324,-8.192801,3.7225437,-7.9606705,-7.9587374,7.561493,-8.351324,9.387883,-1.8248181,0.7232653,12.020801,9.473266,11.790517,-8.784206,50.315018,21.510084,-7.845891,-2.0335746,2.9701922,-4.7358055,3.22502,37.36247,112.99987,-32.90499,-13.087228
67,0.3249019682407379,2.542336940765381,77.82595825195312,0.4807372177900557,-4.170877438874348,-95.28772083802141,6.134201,6.392295,7.6614194,8.407688,-8.874593,-8.185715,3.7209916,-7.962946,-7.950999,7.5589757,-8.349748,9.394561,-1.824108,0.7209951,12.01851,9.466157,11.798431,-8.792166,50.3247,21.52689,-7.8451123,-2.0290773,2.96593,-4.7378054,3.2337961,37.38568,112.99987,-32.881924,-13.071514
68,0.3268662095069885,2.5405514240264893,77.82603454589844,0.4826313074373308,-4.17020899310632,-95.28982743571483,6.134032,6.389568,7.6636176,8.408774,-8.8764105,-8.1802025,3.7213068,-7.9644985,-7.946159,7.55522,-8.347632,9.398178,-1.824495,0.7178683,12.013551,9.466575,11.813341,-8.802798,50.32858,21.524698,-7.8449507,-2.0305412,2.9613636,-4.7407985,3.2413929,37.40085,112.99987,-32.872395,-13.066913
69,0.32816368341445923,2.539273738861084,77.8254623413086,0.48159824431654447,-4.170708860614977,-95.29239550806591,6.1350484,6.3886795,7.666928,8.409436,-8.87832,-8.176583,3.7201076,-7.9662185,-7.9447184,7.557517,-8.3485,9.396734,-1.8267044,0.7181263,12.013681,9.466397,11.81533,-8.804198,50.330563,21.526846,-7.840642,-2.030159,2.9599319,-4.7411513,3.2420056,37.402344,112.99987,-32.87605,-13.0563135
70,0.33083614706993103,2.539621591567993,77.82698059082031,0.48128871796363637,-4.172006177741648,-95.29553665808639,6.136884,6.3886847,7.6712575,8.410333,-8.880818,-8.173802,3.71687,-7.968341,-7.944877,7.566232,-8.352502,9.392158,-1.827876,0.71605587,12.012821,9.46787,11.8290825,-8.810786,50.331287,21.515114,-7.835199,-2.0329905,2.9579325,-4.743368,3.2417467,37.398315,112.99987,-32.88669,-13.048378
71,0.33195534348487854,2.5387070178985596,77.82817840576172,0.4809570794605302,-4.173077315178058,-95.29873858610303,6.1387577,6.389015,7.675616,8.410627,-8.883001,-8.171909,3.71701,-7.9696617,-7.94604,7.5685425,-8.353489,9.3879385,-1.828414,0.71421164,12.012881,9.471722,11.841183,-8.816742,50.328075,21.500969,-7.8305254,-2.0373018,2.9593992,-4.744845,3.2393374,37.389114,112.99987,-32.90059,-13.042548
72,0.33254238963127136,2.5384421348571777,77.82875061035156,0.48104398496529693,-4.173283423790693,-95.30148138147665,6.1412206,6.3891735,7.67945,8.408786,-8.8840065,-8.170853,3.7173452,-7.970447,-7.945836,7.567961,-8.352493,9.387601,-1.8307717,0.71372336,12.0109005,9.472903,11.8456745,-8.820073,50.33015,21.492245,-7.828577,-2.039512,2.9587567,-4.745216,3.2390852,37.387043,112.99987,-32.90809,-13.038448
73,0.334218293428421,2.5388848781585693,77.82902526855469,0.4800819439097113,-4.172828032695511,-95.30372209117107,6.144343,6.3888183,7.682558,8.405428,-8.884233,-8.170897,3.7169852,-7.9707055,-7.9434524,7.568748,-8.352776,9.393601,-1.8308735,0.71115977,12.006456,9.473246,11.853808,-8.826852,50.334183,21.481356,-7.8306365,-2.0415106,2.9604669,-4.745959,3.2411783,37.383488,112.99987,-32.91333,-13.04922
74,0.3286582827568054,2.5344738960266113,77.82941436767578,0.4804274609823167,-4.171919407932842,-95.30544212595413,6.1478033,6.3886194,7.6851635,8.4009905,-8.883671,-8.172044,3.7231019,-7.969417,-7.9410815,7.5560293,-8.346189,9.403722,-1.8316251,0.70766133,12.000841,9.473584,11.861463,-8.832554,50.33957,21.470549,-7.835381,-2.0433004,2.9627357,-4.7466807,3.244425,37.382328,112.99987,-32.914505,-13.064819
75,0.32707008719444275,2.5300991535186768,77.828857421875,0.4788832687646438,-4.17008940047662,-95.30728081026695,6.1507936,6.3882785,7.6875772,8.395331,-8.882354,-8.173688,3.7256448,-7.968484,-7.937823,7.5481806,-8.341954,9.413754,-1.8318849,0.70479286,11.994386,9.47402,11.866784,-8.838453,50.344116,21.4619,-7.84175,-2.045597,2.9642508,-4.747169,3.2489045,37.38154,112.99987,-32.91502,-13.082656
76,0.3353203535079956,2.532261848449707,77.82828521728516,0.47851623277723293,-4.1663956622746525,-95.3092829285378,6.15156,6.387978,7.689665,8.389656,-8.880687,-8.175406,3.7238348,-7.9674435,-7.934556,7.544249,-8.339085,9.419311,-1.8317928,0.7009964,11.987244,9.474465,11.876496,-8.846555,50.34642,21.458656,-7.848103,-2.0468051,2.9660907,-4.748191,3.255094,37.381714,112.99987,-32.912422,-13.094132
77,0.33933618664741516,2.5326216220855713,77.8289566040039,0.4770818542453409,-4.160034625845699,-95.31171346641102,6.1487236,6.387659,7.6913185,8.384098,-8.878136,-8.177391,3.7176385,-7.9660807,-7.931538,7.5426664,-8.3366,9.418251,-1.8309371,0.6989643,11.981064,9.473013,11.880217,-8.851785,50.34554,21.472996,-7.8550305,-2.0468693,2.9652731,-4.7487183,3.259732,37.385788,112.99987,-32.903385,-13.095916
78,0.34016621112823486,2.532252550125122,77.82958221435547,0.47579362317876456,-4.151902391110173,-95.31418813317381,6.144445,6.38741,7.6924114,8.3771,-8.874196,-8.179838,3.7089143,-7.964492,-7.928576,7.5417485,-8.333825,9.413288,-1.8292801,0.6971637,11.973753,9.470295,11.882268,-8.85609,50.34424,21.497488,-7.862551,-2.0459921,2.9619799,-4.7492003,3.2640107,37.39292,112.99987,-32.8915,-13.096366
79,0.34150028228759766,2.528596878051758,77.83002471923828,0.4739068135580598,-4.142105529310492,-95.3172119585583,6.138154,6.386828,7.694079,8.369942,-8.870119,-8.182012,3.6958134,-7.963483,-7.924806,7.544359,-8.332511,9.407293,-1.829717,0.69661576,11.962992,9.468298,11.888535,-8.866689,50.345108,21.515661,-7.871527,-2.0438032,2.956617,-4.7504582,3.2729247,37.413296,112.99987,-32.870792,-13.078713
80,0.3423458933830261,2.5265612602233887,77.83202362060547,0.4723083289519851,-4.135641560211897,-95.32016445260832,6.135192,6.386729,7.695994,8.363722,-8.867769,-8.183489,3.6869073,-7.9624634,-7.921689,7.54684,-8.333013,9.4032755,-1.8296486,0.69587386,11.95762,9.467142,11.892516,-8.873302,50.343307,21.524454,-7.8756003,-2.0437467,2.9522727,-4.7511835,3.2774103,37.421516,112.99987,-32.86002,-13.068731
81,0.3442631661891937,2.5250303745269775,77.83242797851562,0.47042423300171704,-4.132432051593058,-95.32331867212807,6.134738,6.3876457,7.6983542,8.359557,-8.867601,-8.184644,3.68372,-7.9607334,-7.91892,7.5444217,-8.333014,9.401763,-1.8302824,0.6957393,11.95689,9.465439,11.899494,-8.880453,50.34245,21.51595,-7.874458,-2.045334,2.9497652,-4.7518516,3.2802103,37.420868,112.99987,-32.852917,-13.054731
82,0.345853328704834,2.524118661880493,77.83223724365234,0.46914861467079055,-4.13106206569807,-95.3271979717469,6.136249,6.3890834,7.7013717,8.3555975,-8.868422,-8.185539,3.6809587,-7.9590764,-7.9155965,7.5451694,-8.3361225,9.401179,-1.8306552,0.69711876,11.959874,9.46332,11.904944,-8.888032,50.3403,21.492708,-7.869149,-2.0494094,2.9475863,-4.7517195,3.2803798,37.414864,112.99987,-32.85093,-13.038573
83,0.34617194533348083,2.52366304397583,77.83279418945312,0.46789157414310467,-4.130762050416902,-95.33052278262072,6.138056,6.390293,7.704562,8.354074,-8.871177,-8.185293,3.6802957,-7.958017,-7.913127,7.544354,-8.3387575,9.401649,-1.8310891,0.69775826,11.963933,9.459975,11.908657,-8.892835,50.340626,21.472622,-7.8638234,-2.052114,2.9455822,-4.751309,3.279546,37.406227,112.99987,-32.85036,-13.022515
84,0.34652331471443176,2.5230629444122314,77.83343505859375,0.4676494041539233,-4.1304573689334,-95.33292190593107,6.141168,6.389848,7.7082777,8.350684,-8.872878,-8.182884,3.6831763,-7.9584513,-7.912352,7.5379534,-8.338194,9.403394,-1.8309315,0.6963226,11.967472,9.456329,11.91426,-8.89819,50.341473,21.457966,-7.8623924,-2.0535314,2.944517,-4.7502837,3.2780802,37.40042,112.99987,-32.846912,-13.004887
85,0.34900879859924316,2.523648262023926,77.8323974609375,0.46945196230943326,-4.130971042544023,-95.33390940754876,6.145401,6.3875303,7.713075,8.349212,-8.875841,-8.176695,3.6853538,-7.9624486,-7.9133534,7.537798,-8.340321,9.406887,-1.8285,0.6919637,11.971276,9.453005,11.9236,-8.905916,50.34125,21.447624,-7.8685236,-2.0546148,2.947199,-4.7475624,3.2703218,37.402153,112.99987,-32.826157,-12.97559
86,0.35003194212913513,2.520796775817871,77.83203125,0.47229470819378927,-4.13214586875091,-95.33369029454641,6.150582,6.3836775,7.718537,8.348587,-8.879724,-8.167636,3.6884868,-7.9686594,-7.916155,7.5397916,-8.343824,9.411738,-1.8289645,0.6861351,11.974758,9.451449,11.929095,-8.90768,50.341774,21.447838,-7.8785186,-2.0529468,2.949211,-4.7454677,3.2653213,37.402737,112.99987,-32.80952,-12.948323
87,0.35068249702453613,2.516981601715088,77.83262634277344,0.4750712329061829,-4.1326948605046425,-95.3337940843897,6.155197,6.3795557,7.723931,8.347231,-8.882793,-8.158904,3.6916432,-7.9749403,-7.9185376,7.5400248,-8.345941,9.417436,-1.8301611,0.6803771,11.977471,9.450257,11.931713,-8.907969,50.342422,21.4497,-7.8872647,-2.0510015,2.9496782,-4.744395,3.2627547,37.405163,112.99987,-32.79326,-12.924178
88,0.35146641731262207,2.5147271156311035,77.83180236816406,0.4786789547777234,-4.130608528577868,-95.335204286809,6.158991,6.375871,7.7281146,8.341311,-8.883318,-8.153541,3.6927547,-7.979228,-7.918662,7.5369835,-8.34508,9.422951,-1.8289976,0.67449605,11.979236,9.447699,11.934292,-8.908612,50.342735,21.449356,-7.8904963,-2.0504713,2.9475732,-4.743404,3.261433,37.411186,112.99987,-32.779217,-12.906292
89,0.3528384268283844,2.512455463409424,77.83187866210938,0.4801834829160091,-4.124808744507817,-95.33874233581096,6.1594043,6.3726106,7.7303033,8.331734,-8.880923,-8.153243,3.6866417,-7.981469,-7.9146204,7.5378475,-8.344672,9.429814,-1.8238282,0.6667386,11.980416,9.4428425,11.940414,-8.911534,50.340816,21.441477,-7.883101,-2.0515301,2.940789,-4.741487,3.261987,37.424397,112.99987,-32.762592,-12.89342
90,0.3550005257129669,2.510692834854126,77.83173370361328,0.479694798547545,-4.11666603571363,-95.34376657433539,6.158798,6.369348,7.7313733,8.317979,-8.875953,-8.156029,3.6832988,-7.981586,-7.90879,7.525875,-8.336442,9.437927,-1.8162563,0.6576165,11.979545,9.438691,11.947286,-8.916697,50.33677,21.428019,-7.8682957,-2.0533988,2.930587,-4.7405205,3.2668343,37.438976,112.99987,-32.753033,-12.892275
91,0.357082724571228,2.508312702178955,77.83196258544922,0.4799072701454912,-4.107593390248625,-95.34902822479013,6.1585217,6.366559,7.732435,8.301987,-8.869907,-8.1596985,3.67489,-7.981451,-7.9021325,7.522893,-8.332917,9.444178,-1.8092233,0.6499198,11.977944,9.434199,11.950759,-8.921041,50.333942,21.418653,-7.853783,-2.055064,2.9193652,-4.7408166,3.2730324,37.453304,112.99987,-32.7479,-12.894336
92,0.35716214776039124,2.5049870014190674,77.8326187133789,0.4796528333450962,-4.09945099939561,-95.3532673668174,6.156859,6.3654017,7.734224,8.29201,-8.867625,-8.162036,3.668595,-7.9805675,-7.897628,7.518876,-8.329891,9.445496,-1.8053572,0.64356333,11.976491,9.431657,11.956242,-8.926327,50.331703,21.413525,-7.848089,-2.058231,2.9120867,-4.741968,3.2799885,37.46384,112.99987,-32.740795,-12.888232
93,0.3575029671192169,2.4998269081115723,77.83306121826172,0.4777039219677889,-4.092586665768104,-95.35602652992702,6.1570196,6.3657045,7.737414,8.282897,-8.866707,-8.161963,3.662235,-7.979255,-7.8959546,7.5198946,-8.33116,9.43795,-1.8052516,0.64017564,11.975911,9.431966,11.960369,-8.930604,50.32916,21.417206,-7.8554916,-2.0644236,2.9099834,-4.7428412,3.2824228,37.473686,112.99987,-32.725597,-12.864261
94,0.3584575057029724,2.497251033782959,77.83446502685547,0.4753433775368441,-4.086060681612365,-95.35797911935097,6.1555786,6.367479,7.7411532,8.278857,-8.868845,-8.16081,3.652178,-7.9777083,-7.895391,7.530979,-8.338728,9.424308,-1.8051752,0.63886017,11.975416,9.436377,11.968255,-8.938427,50.322613,21.423126,-7.871073,-2.0744984,2.9067383,-4.7430096,3.27614,37.494644,112.99987,-32.694893,-12.823004
95,0.3590222895145416,2.493678331375122,77.83586120605469,0.47287540503228714,-4.079874198052579,-95.35988677387606,6.154651,6.3697205,7.7453504,8.275814,-8.872051,-8.159937,3.646143,-7.9756637,-7.8956375,7.5349326,-8.342804,9.411455,-1.8071536,0.6377312,11.975032,9.437023,11.97089,-8.942345,50.322723,21.436806,-7.8879347,-2.082091,2.9065223,-4.7427206,3.2731814,37.50485,112.99987,-32.675953,-12.788257
96,0.3601009249687195,2.4874215126037598,77.83584594726562,0.471062546554872,-4.073783405301974,-95.36222479263427,6.155637,6.371022,7.749827,8.2697315,-8.874143,-8.160685,3.6425734,-7.9742427,-7.8952603,7.5346775,-8.344919,9.406557,-1.8075591,0.63505703,11.974062,9.437642,11.974393,-8.947265,50.323364,21.449532,-7.89984,-2.0875983,2.9042935,-4.7422185,3.269538,37.510174,112.99987,-32.670483,-12.76898
97,0.3610898554325104,2.481496810913086,77.83576965332031,0.47182566813544397,-4.068255621038717,-95.36601805752399,6.160653,6.370545,7.755746,8.258726,-8.874289,-8.164325,3.6417594,-7.974563,-7.892989,7.5299273,-8.34424,9.414057,-1.8067219,0.6294123,11.970762,9.438611,11.977692,-8.953235,50.32778,21.461914,-7.905955,-2.0883207,2.8972235,-4.742184,3.2630913,37.510777,112.99987,-32.6856,-12.771946
98,0.36296847462654114,2.4761080741882324,77.83561706542969,0.47209066568551816,-4.063314144710787,-95.36999043967592,6.1670547,6.369827,7.7619843,8.247256,-8.874772,-8.169952,3.6457303,-7.974886,-7.8907633,7.517585,-8.339832,9.429282,-1.8073891,0.62265116,11.967476,9.440109,11.980375,-8.957976,50.333096,21.476112,-7.908545,-2.0862932,2.8911724,-4.742619,3.2577646,37.501484,112.99987,-32.71639,-12.790184
99,0.36382704973220825,2.4686570167541504,77.83506774902344,0.47137170075411106,-4.057562311358052,-95.37401978045159,6.171981,6.3688374,7.7680182,8.238134,-8.87683,-8.175111,3.6506715,-7.975342,-7.888478,7.502102,-8.334289,9.445685,-1.8092351,0.6176448,11.964109,9.441793,11.9826565,-8.961044,50.33767,21.48715,-7.909691,-2.086078,2.8865268,-4.743399,3.2549272,37.496014,112.99987,-32.742367,-12.798275
100,0.36415132880210876,2.462400197982788,77.83409881591797,0.47243080223184714,-4.050333339692523,-95.37936616773139,6.1779084,6.3671465,7.7752085,8.224257,-8.87643,-8.177541,3.6519783,-7.9760475,-7.8845,7.490565,-8.331008,9.456802,-1.7972361,0.60906434,11.959324,9.435468,11.987122,-8.970028,50.34856,21.49737,-7.9097753,-2.0864797,2.8830917,-4.7461634,3.2574453,37.465565,112.99987,-32.788708,-12.848409
101,0.36517950892448425,2.4559786319732666,77.83409118652344,0.47337394195077825,-4.039721617078542,-95.38418637731255,6.175883,6.3652053,7.7806745,8.219238,-8.880353,-8.175187,3.6473486,-7.977163,-7.8800416,7.484983,-8.33204,9.460875,-1.7868943,0.6037723,11.952717,9.432441,11.989133,-8.972747,50.353756,21.502125,-7.909256,-2.094052,2.8814187,-4.748007,3.2617576,37.46467,112.99987,-32.783543,-12.860507
102,0.3671906292438507,2.448376178741455,77.83438873291016,0.47458111773788075,-4.025254725740192,-95.39071046101932,6.1712804,6.3619437,7.7875557,8.21186,-8.883015,-8.169697,3.6352625,-7.979431,-7.8727803,7.484723,-8.335639,9.461356,-1.7734733,0.5994322,11.940403,9.42469,11.993433,-8.977035,50.364246,21.496643,-7.908384,-2.1078312,2.880281,-4.7528863,3.2774742,37.471867,112.99987,-32.769928,-12.869163
103,0.3693981468677521,2.4400153160095215,77.8344497680664,0.4753647366724904,-4.011382368609874,-95.39665679397618,6.1666656,6.359483,7.7937617,8.206309,-8.886804,-8.164432,3.6251304,-7.9809375,-7.8668237,7.4839315,-8.339748,9.45962,-1.7647219,0.59589785,11.928043,9.420827,11.997196,-8.978026,50.37321,21.486443,-7.907745,-2.1216028,2.8796427,-4.758179,3.295719,37.480167,112.99987,-32.74901,-12.87464
104,0.36959439516067505,2.432246208190918,77.83468627929688,0.47395316853113956,-4.001366505650741,-95.40202083589178,6.1658835,6.359366,7.7995925,8.202365,-8.891833,-8.162785,3.6206667,-7.9807835,-7.8633738,7.482054,-8.343478,9.456871,-1.7561144,0.5916562,11.922237,9.419534,11.998825,-8.978249,50.377907,21.483912,-7.905141,-2.1272547,2.8780632,-4.760921,3.302353,37.479477,112.99987,-32.731354,-12.883033
105,0.37129369378089905,2.4226932525634766,77.8347396850586,0.47045559017809857,-3.9949599007202075,-95.40772944058187,6.1704373,6.362893,7.8066044,8.196619,-8.895843,-8.167111,3.6186182,-7.978112,-7.8622065,7.486197,-8.349883,9.4522295,-1.7582066,0.59327406,11.918203,9.422535,12.000991,-8.97872,50.382545,21.469881,-7.9038935,-2.129168,2.8750758,-4.764749,3.309266,37.48434,112.99987,-32.7128,-12.870508
106,0.3718051612377167,2.4146876335144043,77.83602142333984,0.46580400525321536,-3.9918450307608735,-95.41308332053195,6.1793666,6.3688293,7.8135686,8.190497,-8.900258,-8.175101,3.621743,-7.9735556,-7.8637466,7.4897647,-8.356101,9.445577,-1.7616669,0.5965931,11.918751,9.43237,12.004657,-8.98089,50.37961,21.454182,-7.9021773,-2.1263638,2.8715346,-4.7715693,3.3067262,37.48527,112.99987,-32.68764,-12.858964
107,0.3732820749282837,2.4067447185516357,77.83702850341797,0.4591110632742723,-3.989070211892986,-95.41753560744009,6.1877117,6.374631,7.8196354,8.186598,-8.906044,-8.182989,3.6286142,-7.9687977,-7.8662977,7.487099,-8.359824,9.438733,-1.7652128,0.59687424,11.919037,9.435967,12.005482,-8.982277,50.384583,21.443966,-7.8983226,-2.118901,2.8693,-4.773176,3.303147,37.477367,112.99987,-32.67781,-12.852494
108,0.37424054741859436,2.3944268226623535,77.83744049072266,0.45634257484074825,-3.9860835364743243,-95.42142790450427,6.196134,6.3781548,7.825017,8.18231,-8.912149,-8.187215,3.634095,-7.966086,-7.8665156,7.486827,-8.366953,9.433699,-1.7673167,0.5981865,11.921138,9.439329,12.007132,-8.98706,50.3852,21.432838,-7.892584,-2.1136205,2.8645017,-4.7762895,3.2931044,37.467953,112.99987,-32.679527,-12.846167
109,0.3754241168498993,2.3854072093963623,77.83723449707031,0.4557194039965586,-3.9810491738610723,-95.42277555136334,6.2016706,6.376948,7.82738,8.178418,-8.918668,-8.185671,3.6359942,-7.967608,-7.864438,7.4898314,-8.379225,9.430682,-1.7728992,0.59501827,11.920121,9.440312,12.007965,-8.990388,50.387386,21.42348,-7.8816886,-2.109025,2.860856,-4.7778964,3.2840672,37.44774,112.99987,-32.70428,-12.849171
110,0.37836337089538574,2.3737785816192627,77.83602142333984,0.45713899784005435,-3.9757167520669006,-95.42189524004057,6.2059383,6.372651,7.827294,8.176459,-8.92682,-8.180546,3.6392906,-7.9713535,-7.861871,7.4904137,-8.392912,9.428885,-1.7781808,0.5902083,11.917714,9.439305,12.009115,-8.99615,50.39051,21.414886,-7.8675385,-2.1047244,2.8536153,-4.7800746,3.2736607,37.414757,112.99987,-32.76932,-12.869378
111,0.37967443466186523,2.363163471221924,77.83536529541016,0.458019676878212,-3.9696481689189054,-95.42252085835918,6.2108274,6.3683743,7.82915,8.172711,-8.934675,-8.174726,3.6411386,-7.9752436,-7.8575363,7.490864,-8.406355,9.428144,-1.7751801,0.5843485,11.919726,9.427136,12.011146,-9.006155,50.398933,21.411476,-7.8540144,-2.0994885,2.8597088,-4.7841153,3.2620409,37.355396,112.99987,-32.840332,-12.900405
112,0.3806535005569458,2.3515453338623047,77.8335189819336,0.45737371871739396,-3.962365895040499,-95.42668562776603,6.215542,6.3669763,7.835285,8.168719,-8.943423,-8.170822,3.6413178,-7.9765368,-7.852464,7.4898405,-8.416876,9.428508,-1.7717369,0.58240056,11.918562,9.418573,12.013833,-9.015944,50.406364,21.41153,-7.8478637,-2.0997949,2.8588657,-4.790308,3.252997,37.32475,112.99987,-32.885468,-12.911268
113,0.38239240646362305,2.3421483039855957,77.83287811279297,0.45764066881074406,-3.9538276190074795,-95.4361247372741,6.2226834,6.368753,7.848843,8.161644,-8.952828,-8.168992,3.6419594,-7.9745245,-7.8464646,7.481782,-8.420791,9.431602,-1.7673739,0.5816944,11.9179735,9.415137,12.015449,-9.018618,50.40873,21.42625,-7.852136,-2.1066952,2.8544555,-4.7948837,3.2473369,37.3281,112.99987,-32.879654,-12.881644
114,0.3859955370426178,2.33347749710083,77.83382415771484,0.45389296473787377,-3.945038014715835,-95.44939512897636,6.232154,6.372173,7.8678584,8.15187,-8.962152,-8.167985,3.6416974,-7.971312,-7.8387995,7.4722743,-8.422291,9.437003,-1.7598804,0.58465874,11.919417,9.41017,12.017413,-9.018061,50.411068,21.450039,-7.86542,-2.1211967,2.8404055,-4.8025103,3.2325292,37.368065,112.99987,-32.829643,-12.818837
115,0.38698315620422363,2.320189952850342,77.83357238769531,0.45099283742352286,-3.934609477943329,-95.46433082273376,6.2395663,6.377713,7.8874493,8.142855,-8.972152,-8.1684265,3.638567,-7.965957,-7.8303385,7.463516,-8.422684,9.441211,-1.7514247,0.5915668,11.922432,9.405863,12.018501,-9.015405,50.41,21.472826,-7.8803697,-2.1381836,2.8199046,-4.8115907,3.212069,37.416718,112.99987,-32.769844,-12.755243
116,0.3856239914894104,2.3113551139831543,77.83531951904297,0.44582186887937886,-3.922120466061457,-95.47894573974536,6.2454057,6.3841567,7.9039364,8.129659,-8.979259,-8.170642,3.6318436,-7.9587083,-7.8212466,7.457159,-8.423769,9.44091,-1.746356,0.59870493,11.92372,9.400696,12.018503,-9.01296,50.41106,21.482212,-7.8885865,-2.1476097,2.8002756,-4.8167186,3.196981,37.44585,112.99987,-32.73629,-12.71969
117,0.3893399238586426,2.2965691089630127,77.83676147460938,0.43783528288790935,-3.908757560912224,-95.49340704961524,6.246314,6.393026,7.9154744,8.120319,-8.986546,-8.175235,3.6223783,-7.9483266,-7.8113933,7.4539223,-8.425195,9.433307,-1.7434489,0.6104313,11.929182,9.393874,12.01745,-9.010271,50.41046,21.467741,-7.888926,-2.150092,2.7852147,-4.822046,3.179122,37.448082,112.99987,-32.725403,-12.717615
118,0.3933194577693939,2.290485143661499,77.83808135986328,0.42738971551185434,-3.8952014481536836,-95.50930465698264,6.246262,6.404036,7.925244,8.11026,-8.992924,-8.181872,3.6117585,-7.9351854,-7.800179,7.4505525,-8.425167,9.420936,-1.735696,0.62652117,11.93856,9.374526,12.01519,-9.009552,50.418728,21.440252,-7.885571,-2.1498046,2.7592502,-4.8279705,3.1510074,37.44662,112.99987,-32.727253,-12.739426
119,0.39451736211776733,2.2828407287597656,77.83880615234375,0.4169640975115875,-3.8769754572325446,-95.52427105067115,6.2424884,6.4156127,7.9335136,8.09694,-8.99741,-8.189685,3.5964432,-7.9210596,-7.789194,7.4472485,-8.424841,9.407836,-1.7337532,0.642168,11.942109,9.360996,12.01316,-9.009645,50.4246,21.410337,-7.8807554,-2.1455986,2.7430456,-4.8313026,3.1327548,37.429703,112.99987,-32.738667,-12.769923
120,0.3931567072868347,2.274564743041992,77.84073638916016,0.40658401056975696,-3.8515201233267784,-95.5375263975378,6.232513,6.4271846,7.941544,8.081733,-9.001829,-8.198132,3.5743089,-7.907389,-7.778879,7.44232,-8.423952,9.3985195,-1.734918,0.6567397,11.937718,9.346684,12.011184,-9.010423,50.43375,21.396423,-7.8792143,-2.1425686,2.7261946,-4.834337,3.1151464,37.41825,112.99987,-32.74415,-12.794899
121,0.39317870140075684,2.266111373901367,77.84174346923828,0.3994166812786872,-3.8169119973879453,-95.54672532851285,6.2155366,6.4365025,7.9486637,8.061652,-9.00331,-8.204784,3.5506759,-7.895314,-7.770687,7.421692,-8.416,9.396676,-1.7381523,0.6706853,11.924665,9.331803,12.008953,-9.01397,50.443237,21.40288,-7.8829565,-2.1428702,2.7072575,-4.837979,3.0900404,37.412727,112.99987,-32.73858,-12.816632
122,0.39129647612571716,2.250735282897949,77.84417724609375,0.39241283177000574,-3.7751978200614684,-95.55330551615488,6.1925235,6.4446588,7.95455,8.039225,-9.003555,-8.210648,3.520474,-7.884706,-7.7632103,7.4004703,-8.408511,9.399118,-1.7528272,0.6813827,11.902022,9.328796,12.008257,-9.01506,50.445435,21.41748,-7.888646,-2.1435874,2.6958237,-4.8390956,3.0774393,37.40445,112.99987,-32.729225,-12.833744
123,0.3892373740673065,2.2376418113708496,77.84623718261719,0.3861782254940146,-3.7283606250875034,-95.56076254006207,6.1666694,6.455313,7.9608026,8.012163,-9.003333,-8.220408,3.4856055,-7.871247,-7.7562146,7.376953,-8.3991785,9.3995905,-1.7645454,0.69409853,11.877311,9.321978,12.007598,-9.017836,50.450325,21.442753,-7.894971,-2.1433618,2.6773725,-4.8408494,3.056111,37.403362,112.99987,-32.715187,-12.846356
124,0.38570767641067505,2.2261016368865967,77.84817504882812,0.3730420890304127,-3.680074999507107,-95.57271197751373,6.1416683,6.472899,7.96915,7.9819694,-9.005702,-8.238787,3.4483235,-7.8502517,-7.749054,7.3535547,-8.388345,9.391409,-1.7691698,0.7126222,11.85368,9.307347,12.0076685,-9.026251,50.463055,21.472883,-7.8990793,-2.1394129,2.6537013,-4.8425894,3.034533,37.410057,112.99987,-32.696247,-12.846878
125,0.3829059302806854,2.2177236080169678,77.85174560546875,0.35345420363193186,-3.6315096026736406,-95.5892658105527,6.1197376,6.498941,7.9785733,7.9442906,-9.0092,-8.268868,3.407151,-7.8203893,-7.743711,7.335353,-8.377988,9.370725,-1.7729908,0.7346203,11.832105,9.290929,12.008282,-9.035412,50.481674,21.513868,-7.9006586,-2.127494,2.6311386,-4.843671,3.0277076,37.414284,112.99987,-32.681034,-12.837909
126,0.37853655219078064,2.2052512168884277,77.8539047241211,0.32922189106630223,-3.580208294179364,-95.60879455125263,6.0988536,6.530415,7.98906,7.898359,-9.0123005,-8.307407,3.3620694,-7.7843337,-7.7396755,7.317263,-8.365802,9.341614,-1.7676604,0.7632589,11.811088,9.255604,12.010654,-9.060831,50.51971,21.557669,-7.902096,-2.1081514,2.5966148,-4.846707,3.0128367,37.440365,112.99987,-32.6538,-12.807109
127,0.37282392382621765,2.1908297538757324,77.8570327758789,0.3032913231554349,-3.5302303675533238,-95.63073287865609,6.082977,6.5648255,8.001099,7.849007,-9.016764,-8.349775,3.320376,-7.7447834,-7.7347875,7.296327,-8.352793,9.310637,-1.7689798,0.7910526,11.79192,9.244145,12.011566,-9.069168,50.532814,21.607315,-7.898905,-2.0947502,2.5816915,-4.847499,3.012849,37.432674,112.99987,-32.648647,-12.786079
128,0.3664945363998413,2.176219940185547,77.86042785644531,0.27625239353090564,-3.4648839534372264,-95.65959566213482,6.0500646,6.6029077,8.020015,7.8065624,-9.024133,-8.391868,3.2628665,-7.701376,-7.7214184,7.270146,-8.335879,9.283027,-1.7535849,0.8271751,11.751716,9.201081,12.017059,-9.105717,50.58028,21.632372,-7.893685,-2.0782995,2.548363,-4.8523774,2.999494,37.441216,112.99987,-32.64384,-12.777487
129,0.36080941557884216,2.1615023612976074,77.86334991455078,0.2525810990897223,-3.40354933099556,-95.69060424021755,6.0276246,6.638199,8.0420065,7.7595444,-9.031294,-8.4312935,3.2131033,-7.6603675,-7.7029605,7.239574,-8.319967,9.264143,-1.7523996,0.8604388,11.714324,9.194257,12.018941,-9.113206,50.58785,21.650536,-7.8824253,-2.0788026,2.5367157,-4.8535914,2.9972544,37.415928,112.99987,-32.662327,-12.77404
130,0.3497732877731323,2.1427013874053955,77.86531066894531,0.2285314675493473,-3.3247028453051795,-95.72925051115517,5.9855347,6.6770897,8.070937,7.71943,-9.041919,-8.471233,3.1470146,-7.6151447,-7.676148,7.1986074,-8.296884,9.248142,-1.7215751,0.8976865,11.651449,9.159904,12.028666,-9.152712,50.62096,21.649227,-7.86291,-2.0806246,2.5296235,-4.86137,2.9937236,37.335453,112.99987,-32.753338,-12.848362
131,0.3400954306125641,2.1226627826690674,77.86792755126953,0.20236102357914149,-3.2479148431864293,-95.76970149011412,5.9502087,6.718602,8.102251,7.6747913,-9.051828,-8.513358,3.0838196,-7.5671697,-7.647502,7.158051,-8.2746525,9.230828,-1.7041308,0.93853164,11.593107,9.143975,12.035297,-9.171398,50.63691,21.645144,-7.8451157,-2.088741,2.5303814,-4.8664794,2.9918075,37.261024,112.99987,-32.821495,-12.898661
132,0.3287639021873474,2.095736265182495,77.8702392578125,0.17398297823365225,-3.168946765274915,-95.81174314489273,5.9130135,6.7670407,8.135885,7.633228,-9.0638685,-8.559766,3.0189497,-7.512366,-7.618257,7.1185637,-8.252297,9.2060175,-1.6955777,0.9832867,11.531975,9.135295,12.04359,-9.18102,50.652096,21.638134,-7.8302026,-2.0945058,2.5210824,-4.8729753,2.9859998,37.21252,112.99987,-32.86402,-12.933343
133,0.3168201446533203,2.067103862762451,77.87329864501953,0.13743576293002166,-3.086714705805154,-95.85662494143456,5.8740273,6.8265085,8.173199,7.591691,-9.076927,-8.614441,2.9491875,-7.44627,-7.587468,7.0820036,-8.228063,9.170229,-1.6947505,1.0378878,11.471635,9.131672,12.049264,-9.17649,50.666607,21.627401,-7.819218,-2.100429,2.507267,-4.8770432,2.9714909,37.18549,112.99987,-32.86954,-12.950071
134,0.30394062399864197,2.043422222137451,77.8769760131836,0.09669799942672112,-3.0008931093024827,-95.90422599795787,5.8330965,6.894391,8.21401,7.5504055,-9.0912285,-8.675176,2.8767421,-7.371205,-7.55487,7.043166,-8.200367,9.127106,-1.6973857,1.1000978,11.411156,9.130924,12.057214,-9.159072,50.679356,21.614048,-7.811703,-2.1112769,2.4778836,-4.881946,2.9401755,37.187813,112.99987,-32.84419,-12.954244
135,0.286314457654953,2.0208547115325928,77.88011169433594,0.05605473855849576,-2.914269613272322,-95.95309677663347,5.7922997,6.96327,8.256426,7.511196,-9.106458,-8.73467,2.8056135,-7.2953024,-7.521924,7.002658,-8.173633,9.081921,-1.7045529,1.1632936,11.348765,9.134474,12.064358,-9.136318,50.691685,21.600143,-7.807114,-2.1193285,2.4471993,-4.8846216,2.9032228,37.204124,112.99987,-32.79897,-12.940291
136,0.26310116052627563,1.996119737625122,77.8843994140625,0.022711372871589783,-2.8299516335588075,-96.00166934349485,5.755339,7.0253415,8.299048,7.4740205,-9.121797,-8.785687,2.7372394,-7.2268906,-7.4896317,6.96663,-8.154813,9.0398245,-1.7157481,1.2214257,11.283314,9.140516,12.069296,-9.116544,50.706547,21.5876,-7.8059974,-2.1197789,2.42532,-4.884964,2.8695974,37.22117,112.99987,-32.744896,-12.909821
137,0.24369744956493378,1.9724247455596924,77.88690948486328,-0.0018194551594713287,-2.746452549950726,-96.05037544125973,5.722067,7.0764976,8.342746,7.436024,-9.134481,-8.823527,2.6728084,-7.16976,-7.4579678,6.93044,-8.143868,9.0007105,-1.7246784,1.2718277,11.216272,9.15004,12.077372,-9.09398,50.718525,21.581005,-7.8140945,-2.1153884,2.3972437,-4.8824563,2.8148515,37.27937,112.99987,-32.638824,-12.833024
138,0.21738694608211517,1.9345532655715942,77.89089965820312,-0.020570854640513496,-2.662767862023865,-96.0994627443125,5.682949,7.1228027,8.386701,7.4147315,-9.15514,-8.853052,2.6054523,-7.1196303,-7.425929,6.903751,-8.14318,8.962269,-1.7289655,1.3158259,11.146455,9.1611805,12.09017,-9.077687,50.730045,21.572863,-7.827509,-2.1031666,2.3672626,-4.8715615,2.74004,37.368877,112.99987,-32.49007,-12.718373
139,0.1926400512456894,1.8941895961761475,77.89201354980469,-0.036625046662405895,-2.5830503822403124,-96.14836877064022,5.652182,7.1684966,8.4306,7.3888316,-9.173417,-8.881186,2.5425653,-7.070107,-7.3946133,6.8816724,-8.147373,8.926281,-1.7398973,1.360114,11.074109,9.171914,12.100552,-9.064683,50.7487,21.564621,-7.839844,-2.0895164,2.3430483,-4.8606687,2.675416,37.442493,112.99987,-32.36574,-12.611889
140,0.16594813764095306,1.8633674383163452,77.89285278320312,-0.05805453492139699,-2.5112432225169496,-96.19414949246934,5.6292686,7.2199636,8.470355,7.3643556,-9.193646,-8.914937,2.4807093,-7.016172,-7.365878,6.881147,-8.16315,8.894615,-1.75902,1.4102613,11.012741,9.180952,12.112484,-9.05022,50.76498,21.559603,-7.849259,-2.0878847,2.3243537,-4.846458,2.6018157,37.47926,112.99987,-32.275043,-12.524512
141,0.1370478719472885,1.8299888372421265,77.89342498779297,-0.08220936460957341,-2.4505095452865744,-96.23681971849156,5.618065,7.278652,8.504666,7.339364,-9.215249,-8.95696,2.4340916,-6.9546027,-7.341267,6.879096,-8.175989,8.87143,-1.7843635,1.4642875,10.966021,9.18663,12.131639,-9.036207,50.777206,21.557377,-7.856167,-2.108044,2.2965713,-4.823581,2.5075135,37.483273,112.99987,-32.23136,-12.4581585
142,0.108195960521698,1.798919916152954,77.8940200805664,-0.10947112601334813,-2.397949927592639,-96.27753418167583,5.615721,7.34133,8.535615,7.3151894,-9.238637,-9.003201,2.398487,-6.8890705,-7.3193445,6.8769593,-8.188524,8.854685,-1.8289841,1.525807,10.924592,9.199484,12.144952,-9.017073,50.786114,21.555378,-7.860798,-2.1386182,2.281771,-4.808857,2.4355152,37.428417,112.99987,-32.251225,-12.430144
143,0.07169657945632935,1.7568299770355225,77.89362335205078,-0.1382592802338477,-2.348941939854867,-96.31638571282947,5.616776,7.4073434,8.565215,7.294167,-9.263439,-9.050812,2.3689103,-6.820773,-7.300029,6.8756566,-8.204703,8.836208,-1.8663403,1.5830735,10.889993,9.203363,12.172886,-9.0029125,50.798122,21.555437,-7.8632145,-2.1727693,2.2596016,-4.7820883,2.3355334,37.381905,112.99987,-32.264927,-12.399483
144,0.03341704234480858,1.7125288248062134,77.88961791992188,-0.16468562210685597,-2.2980890930861184,-96.3540245297576,5.617377,7.4757032,8.596394,7.2759056,-9.288617,-9.096744,2.3409784,-6.751131,-7.2827425,6.8741136,-8.227813,8.8080845,-1.9043391,1.6372215,10.846573,9.203392,12.204622,-8.995307,50.82444,21.555603,-7.8575797,-2.189174,2.2490742,-4.7582517,2.2557404,37.325577,112.99987,-32.300625,-12.397801
145,-0.006336129270493984,1.6681545972824097,77.88789367675781,-0.19201179321707565,-2.2430574090412034,-96.39100050846102,5.613184,7.546021,8.630722,7.2638426,-9.313753,-9.13755,2.311192,-6.6810136,-7.2677565,6.873796,-8.259725,8.765517,-1.9245002,1.6760173,10.795311,9.193062,12.266017,-9.009753,50.86308,21.545017,-7.839857,-2.1862917,2.241425,-4.723452,2.165195,37.288082,112.99987,-32.323055,-12.406082
146,-0.04627296328544617,1.617153525352478,77.88746643066406,-0.21889285540041808,-2.1867657986181066,-96.42656845412434,5.60695,7.619114,8.666096,7.2576833,-9.340057,-9.175632,2.2826233,-6.609432,-7.2555447,6.874376,-8.298155,8.713789,-1.9515922,1.7186986,10.738744,9.179074,12.321947,-9.023857,50.915012,21.537893,-7.8128924,-2.167942,2.2417662,-4.69908,2.0920432,37.237473,112.99987,-32.36588,-12.445545
147,-0.09407200664281845,1.564889907836914,77.88692474365234,-0.2458267746093415,-2.1329533101125717,-96.4606069180297,5.6057916,7.69517,8.701088,7.2519684,-9.368443,-9.2170315,2.2602005,-6.5350842,-7.2440777,6.874942,-8.341531,8.659625,-1.987188,1.7691736,10.679911,9.160474,12.364012,-9.032627,50.980114,21.54042,-7.785619,-2.1428356,2.2454286,-4.687116,2.0331452,37.18273,112.99987,-32.425884,-12.501101
148,-0.14302483201026917,1.5273280143737793,77.88611602783203,-0.2740832201500393,-2.085288099998132,-96.49288940322633,5.6167192,7.774354,8.734104,7.241734,-9.40048,-9.267923,2.2482805,-6.4573483,-7.231574,6.875153,-8.388435,8.609848,-2.0178175,1.8163184,10.623907,9.146099,12.425434,-9.047712,51.03775,21.539368,-7.7697453,-2.1307764,2.2573056,-4.677369,1.9728998,37.120735,112.99987,-32.501537,-12.569178
149,-0.19091467559337616,1.4750182628631592,77.88267517089844,-0.30555017217692887,-2.045827850205764,-96.52261549389272,5.6413846,7.858906,8.763314,7.2290225,-9.438102,-9.3315525,2.2498648,-6.374023,-7.2174196,6.8758655,-8.439667,8.566316,-2.0577476,1.867046,10.568894,9.133658,12.480498,-9.054036,51.102036,21.551394,-7.7674417,-2.125052,2.276256,-4.676361,1.9355694,37.043926,112.99987,-32.6218,-12.662524
150,-0.25321319699287415,1.4076099395751953,77.87935638427734,-0.3362836996650676,-2.012018499418436,-96.55011188059385,5.67725,7.947349,8.790337,7.2126946,-9.478622,-9.404118,2.2620718,-6.28636,-7.202622,6.876387,-8.495241,8.525431,-2.0959256,1.9114693,10.516225,9.135635,12.566438,-9.065536,51.149574,21.554573,-7.7768283,-2.1337142,2.3086975,-4.683998,1.9101393,36.943447,112.99987,-32.775692,-12.790682
151,-0.3098514974117279,1.3462505340576172,77.87538146972656,-0.36819684097261995,-1.981490124115134,-96.57677764579567,5.721298,8.03677,8.817978,7.1920776,-9.521407,-9.481056,2.2802968,-6.197594,-7.1878405,6.876869,-8.554628,8.48563,-2.1461132,1.9685793,10.463079,9.124351,12.616611,-9.061903,51.21837,21.578972,-7.786389,-2.1358116,2.3327808,-4.692889,1.886026,36.86923,112.99987,-32.91479,-12.895166
152,-0.3675365746021271,1.2913535833358765,77.87086486816406,-0.3976053385434779,-1.9510896406070055,-96.60404530435895,5.769788,8.123689,8.848899,7.1661887,-9.564922,-9.5579815,2.2998068,-6.1114125,-7.1739273,6.877933,-8.61754,8.445167,-2.1992462,2.0297194,10.415572,9.125111,12.681858,-9.055135,51.260647,21.587885,-7.797872,-2.1549006,2.3555615,-4.705558,1.840024,36.81862,112.99987,-32.992985,-12.960723
153,-0.4201194643974304,1.2223573923110962,77.86609649658203,-0.4221995571094615,-1.916725735663834,-96.63405712719293,5.8216085,8.206089,8.886768,7.1281915,-9.606509,-9.6344385,2.3153098,-6.0288367,-7.159122,6.878199,-8.6827,8.403691,-2.2542367,2.0984068,10.371104,9.130243,12.746763,-9.040413,51.2847,21.592253,-7.8098865,-2.1900792,2.364618,-4.7101164,1.7493318,36.82617,112.99987,-32.965107,-12.946476
154,-0.48361700773239136,1.1601630449295044,77.86091613769531,-0.444653597347665,-1.881040252147124,-96.66555105053648,5.8778434,8.286549,8.928962,7.082008,-9.647965,-9.712632,2.3297746,-5.947983,-7.143645,6.87925,-8.751194,8.36207,-2.3135955,2.1745453,10.327534,9.131892,12.799193,-9.01696,51.30745,21.60213,-7.8218775,-2.231325,2.3632624,-4.7038565,1.6298836,36.881123,112.99987,-32.866295,-12.871453
155,-0.5490668416023254,1.0925426483154297,77.8551254272461,-0.46687098149221523,-1.851587794729895,-96.69445984205143,5.944535,8.366813,8.970075,7.031944,-9.690292,-9.791771,2.3545933,-5.8674808,-7.131305,6.8799977,-8.823873,8.320522,-2.3795896,2.2548969,10.287848,9.125207,12.837537,-8.987241,51.33858,21.616232,-7.830453,-2.2665823,2.360773,-4.697061,1.5172914,36.94639,112.99987,-32.765232,-12.785927
156,-0.6099191308021545,1.0269559621810913,77.84899139404297,-0.4897432885512655,-1.83594951469321,-96.71666736174546,6.0288343,8.448563,9.004664,6.980456,-9.733572,-9.871195,2.3999987,-5.7860875,-7.125754,6.88233,-8.903651,8.2792425,-2.4364839,2.3289404,10.260311,9.105602,12.889932,-8.968147,51.374207,21.621458,-7.8356805,-2.2944765,2.3626683,-4.6927075,1.4136493,36.997375,112.99987,-32.707806,-12.730839
157,-0.6792885065078735,0.9578201174736023,77.84147644042969,-0.514379831147867,-1.841363435097662,-96.72743193806467,6.1264353,8.532858,9.026996,6.9515834,-9.791107,-9.949493,2.47728,-5.7049756,-7.1316357,6.884372,-8.991688,8.241361,-2.498026,2.3970926,10.247172,9.076255,12.948332,-8.95398,51.420364,21.615467,-7.8381667,-2.3098412,2.3821595,-4.7025127,1.3627964,36.989544,112.99987,-32.761597,-12.747423
158,-0.7497627139091492,0.8798410296440125,77.83294677734375,-0.539285275578367,-1.8618158073990216,-96.73006804095857,6.229088,8.6197,9.040406,6.950215,-9.865779,-10.027419,2.5770125,-5.6245337,-7.145588,6.8876405,-9.086974,8.205932,-2.5662515,2.4638236,10.2468815,9.048893,13.018545,-8.940159,51.46032,21.595118,-7.841027,-2.324441,2.4143906,-4.730725,1.3483697,36.9403,112.99987,-32.882687,-12.81545
159,-0.8142416477203369,0.8002604246139526,77.82440948486328,-0.5649512327432464,-1.885201230879699,-96.73260932211826,6.336433,8.710212,9.052831,6.950455,-9.941907,-10.10778,2.682958,-5.5404844,-7.1601825,6.8902493,-9.185024,8.166806,-2.637573,2.5357234,10.248991,9.023654,13.091072,-8.922862,51.49177,21.571014,-7.839481,-2.3368871,2.448922,-4.771057,1.3417146,36.89478,112.99987,-33.001408,-12.89179
160,-0.8833425045013428,0.7200199961662292,77.81757354736328,-0.5933113947066789,-1.8989882266666083,-96.74289771349294,6.4352093,8.808223,9.070116,6.9529243,-10.017379,-10.193664,2.777525,-5.4482255,-7.1680107,6.893303,-9.282983,8.117658,-2.7061026,2.6155388,10.2436,9.001977,13.164091,-8.902335,51.509724,21.55014,-7.82867,-2.3457115,2.4772618,-4.815433,1.311849,36.89703,112.99987,-33.042973,-12.932706
161,-0.9670592546463013,0.6460087299346924,77.81117248535156,-0.626009418910953,-1.899010728992484,-96.76377817683473,6.524983,8.915445,9.093368,6.947819,-10.085754,-10.287512,2.8546371,-5.344654,-7.1671834,6.89603,-9.379028,8.0519285,-2.769982,2.7061055,10.225905,8.968766,13.216453,-8.87398,51.532417,21.551687,-7.7972617,-2.337429,2.4891,-4.843721,1.2418678,36.985508,112.99987,-32.966312,-12.90395
162,-1.0434120893478394,0.5606164932250977,77.80462646484375,-0.6614064643522656,-1.8918898631607588,-96.79085747000862,6.605917,9.030496,9.118657,6.9503245,-10.15666,-10.387164,2.9234967,-5.23282,-7.161614,6.8994217,-9.475689,7.9744787,-2.829519,2.8015769,10.20232,8.930433,13.264901,-8.843287,51.55198,21.561373,-7.751699,-2.3188894,2.4928713,-4.865724,1.145601,37.130928,112.99987,-32.809124,-12.833038
163,-1.1284464597702026,0.4667971134185791,77.79588317871094,-0.6970923743604687,-1.8828729860188251,-96.8207447861515,6.688506,9.148429,9.147881,6.9519563,-10.227344,-10.488372,2.991786,-5.117716,-7.1525893,6.902234,-9.573825,7.896522,-2.8843827,2.8978045,10.174322,8.887138,13.313582,-8.813861,51.57214,21.572138,-7.7060127,-2.2955117,2.4977486,-4.885676,1.0467439,37.287212,112.99987,-32.64583,-12.755265
164,-1.2110384702682495,0.3828272223472595,77.78778839111328,-0.7308188539412953,-1.8768339983407152,-96.85070701853093,6.7789073,9.265773,9.182862,6.9544044,-10.300542,-10.587068,3.0661376,-5.004127,-7.1407914,6.904885,-9.674788,7.8290567,-2.926238,2.9906738,10.148691,8.852169,13.387523,-8.797359,51.57024,21.561546,-7.676834,-2.2874577,2.507069,-4.915344,0.95174575,37.416042,112.99987,-32.53136,-12.708247
165,-1.2899140119552612,0.2869888246059418,77.77730560302734,-0.7616039786675782,-1.8754771577483125,-96.87977991106703,6.880145,9.380027,9.225073,6.9561887,-10.376782,-10.682444,3.1486926,-4.8944416,-7.1255565,6.907782,-9.779473,7.7790165,-2.9781268,3.0785558,10.117044,8.814247,13.446152,-8.774634,51.58382,21.554384,-7.663072,-2.2696466,2.5307984,-4.9491997,0.9175145,37.49271,112.99987,-32.52961,-12.709697
166,-1.3734208345413208,0.18440797924995422,77.7657470703125,-0.7926781491255089,-1.8761765447209713,-96.90959325428766,6.9886165,9.493925,9.273535,6.958798,-10.456334,-10.776501,3.236264,-4.7852616,-7.1067286,6.9096227,-9.886299,7.738994,-3.0326605,3.1672652,10.08368,8.785053,13.511677,-8.75069,51.58641,21.537754,-7.6624584,-2.2568185,2.5623229,-5.0009494,0.91476166,37.536335,112.99987,-32.59049,-12.750184
167,-1.4641932249069214,0.09252826124429703,77.75398254394531,-0.8217006247989354,-1.8766451871991165,-96.94063633279815,7.0995426,9.60962,9.324753,6.961049,-10.534778,-10.86938,3.3253577,-4.6749473,-7.0867014,6.9124603,-9.99605,7.6995344,-3.0919979,3.2635825,10.051011,8.78007,13.598931,-8.722494,51.552746,21.497416,-7.6738954,-2.2651052,2.602916,-5.083502,0.9231332,37.548576,112.99987,-32.66855,-12.821414
168,-1.5548033714294434,-0.0059049418196082115,77.74224090576172,-0.8537767744985677,-1.874968165702063,-96.97304365992339,7.208541,9.729285,9.37523,6.9634156,-10.609982,-10.961041,3.413779,-4.560843,-7.0683703,6.915093,-10.107472,7.650894,-3.1533425,3.3664443,10.013033,8.750994,13.644571,-8.68024,51.544445,21.479189,-7.677729,-2.2582777,2.6327422,-5.1295247,0.89930844,37.605972,112.99987,-32.687054,-12.826353
169,-1.6451090574264526,-0.10849183797836304,77.72984313964844,-0.8870158877828649,-1.872699615485506,-97.01035113944509,7.3170705,9.85519,9.427463,6.9671097,-10.684797,-11.052302,3.501701,-4.441168,-7.0504146,6.9184,-10.220772,7.5897427,-3.2163544,3.4836104,9.981295,8.737887,13.698733,-8.624586,51.50026,21.443926,-7.68555,-2.2732737,2.6553473,-5.1790075,0.82757473,37.69417,112.99987,-32.608635,-12.776771
170,-1.7460153102874756,-0.2128238081932068,77.71733093261719,-0.9229306241093502,-1.870398029103253,-97.05129750787306,7.427749,9.985545,9.48232,6.969809,-10.758414,-11.142824,3.5907497,-4.317336,-7.032056,6.9216185,-10.336236,7.521292,-3.2778585,3.6062517,9.948671,8.7160635,13.737809,-8.560177,51.458546,21.411873,-7.6926436,-2.2869456,2.6727486,-5.2076426,0.72791576,37.809776,112.99987,-32.48033,-12.678285
171,-1.8414413928985596,-0.308234304189682,77.7048568725586,-0.9575205234161175,-1.863820122976403,-97.0890133751673,7.5340767,10.116478,9.533409,6.9730744,-10.826116,-11.231034,3.6780179,-4.1926165,-7.0165687,6.924826,-10.453498,7.4490175,-3.3359895,3.7272768,9.910732,8.696046,13.785062,-8.495534,51.40576,21.375175,-7.702228,-2.3078873,2.690271,-5.232861,0.61448175,37.92438,112.99987,-32.348083,-12.582163
172,-1.944712519645691,-0.41948169469833374,77.69305419921875,-0.9890600343394503,-1.8484183357208703,-97.11662292492501,7.6229596,10.245829,9.572991,6.9914594,-10.890186,-11.315475,3.7608407,-4.0698943,-7.007437,6.92817,-10.573376,7.3763776,-3.4004128,3.8378425,9.851224,8.664706,13.822472,-8.43166,51.375828,21.3501,-7.709392,-2.316326,2.7271366,-5.251235,0.536121,37.99494,112.99987,-32.29653,-12.536843
173,-2.053508758544922,-0.5328329801559448,77.68389892578125,-1.0175602630756833,-1.8219854730946852,-97.13063063861084,7.696815,10.3728895,9.598726,7.0141263,-10.942648,-11.397467,3.8384633,-3.949017,-7.006354,6.9321375,-10.697335,7.303017,-3.4676218,3.9382608,9.768286,8.630703,13.851393,-8.374378,51.353924,21.335995,-7.7116947,-2.3171694,2.776965,-5.267998,0.4929613,38.015903,112.99987,-32.35206,-12.569993
174,-2.1624927520751953,-0.652418851852417,77.67082214355469,-1.0430437714070655,-1.7871538639307656,-97.1348977581469,7.759104,10.499584,9.614164,7.041149,-10.9868,-11.477419,3.9127495,-3.8283448,-7.0116663,6.9360366,-10.824701,7.2274823,-3.5504277,4.0258937,9.680628,8.644204,13.947374,-8.294977,51.26841,21.29153,-7.7318506,-2.3633146,2.8373108,-5.3271394,0.48159826,37.969765,112.99987,-32.476288,-12.703566
175,-2.2738213539123535,-0.769935667514801,77.65929412841797,-1.0652340677956798,-1.7474347436679822,-97.13517134623672,7.811863,10.624245,9.623914,7.0753665,-11.025735,-11.552297,3.9842505,-3.7102444,-7.019947,6.9400353,-10.952493,7.1520834,-3.6324625,4.1104155,9.57987,8.645452,14.02664,-8.225107,51.200306,21.254711,-7.746858,-2.391587,2.9079907,-5.374888,0.47988644,37.914124,112.99987,-32.621918,-12.835926
176,-2.3887979984283447,-0.8850705027580261,77.6480712890625,-1.083067949122578,-1.7067746956284018,-97.1366884761313,7.860539,10.74471,9.633292,7.115155,-11.060656,-11.618981,4.0543613,-3.5964415,-7.028162,6.943995,-11.077948,7.0787473,-3.7143545,4.195228,9.482264,8.640979,14.094302,-8.152833,51.13253,21.225641,-7.760663,-2.4073477,2.9669483,-5.412575,0.45615506,37.89948,112.99987,-32.710342,-12.906049
177,-2.505420207977295,-0.9903663992881775,77.63804626464844,-1.0983528292820448,-1.670732851249346,-97.14145738400029,7.9128113,10.863652,9.644015,7.1587434,-11.095675,-11.681303,4.12838,-3.484675,-7.03449,6.947945,-11.2017975,7.0077114,-3.7941391,4.283244,9.393905,8.628191,14.147842,-8.08169,51.06665,21.209246,-7.776322,-2.4043646,3.0122762,-5.4371014,0.40307003,37.940647,112.99987,-32.718193,-12.886644
178,-2.6251304149627686,-1.113370656967163,77.62496185302734,-1.110140678080481,-1.6358246392371938,-97.14645858395528,7.9683423,10.980195,9.654007,7.1978188,-11.123485,-11.739463,4.204287,-3.3746033,-7.04101,6.95204,-11.325534,6.937806,-3.8739235,4.365991,9.313298,8.630231,14.218145,-8.007574,50.97216,21.189735,-7.7972565,-2.4021382,3.0453014,-5.4589953,0.33039063,38.01285,112.99987,-32.678085,-12.822992
179,-2.7459864616394043,-1.2324491739273071,77.61228942871094,-1.1135394954112436,-1.5923470496987198,-97.14959380250943,8.006657,11.089825,9.660234,7.249215,-11.143619,-11.784823,4.270626,-3.272167,-7.050081,6.955828,-11.444634,6.86919,-3.9491882,4.443754,9.223799,8.618392,14.279534,-7.936302,50.88945,21.17123,-7.8120923,-2.3926268,3.0775282,-5.4692006,0.24720737,38.091652,112.99987,-32.62756,-12.744952
180,-2.8678343296051025,-1.350710153579712,77.60330200195312,-1.1067947060186778,-1.5309718880709071,-97.14874309983244,8.015217,11.187077,9.66086,7.312084,-11.145257,-11.809048,4.316834,-3.1827984,-7.064183,6.9589233,-11.555658,6.801937,-4.0173893,4.5091205,9.117458,8.595973,14.34537,-7.8651323,50.81272,21.140343,-7.8161993,-2.3904402,3.1110065,-5.473922,0.15753768,38.15071,112.99987,-32.600212,-12.699246
181,-2.997107744216919,-1.4687602519989014,77.59712219238281,-1.0879201104314948,-1.4443241421622937,-97.14320313876506,7.982478,11.272614,9.655832,7.3928623,-11.134079,-11.799023,4.333792,-3.1067054,-7.0849967,6.9630494,-11.65905,6.7414856,-4.078672,4.5628276,8.98517,8.563362,14.419464,-7.7953815,50.741184,21.088139,-7.80324,-2.4027083,3.1501133,-5.4715304,0.059190463,38.169697,112.99987,-32.61495,-12.709588
182,-3.1224472522735596,-1.580513596534729,77.5938720703125,-1.058927291921287,-1.3389128914496484,-97.13424830367843,7.9203944,11.348402,9.646435,7.483388,-11.109107,-11.763145,4.330462,-3.0412672,-7.1108966,6.9657664,-11.755245,6.6859264,-4.1400905,4.6162186,8.832535,8.515604,14.474654,-7.722534,50.68614,21.03263,-7.775651,-2.4146106,3.192254,-5.465707,-0.042864826,38.167053,112.99987,-32.6546,-12.745658
183,-3.256740093231201,-1.6962283849716187,77.59487915039062,-1.0195070457978856,-1.226196687487374,-97.12233146608061,7.8442693,11.411124,9.631747,7.5775175,-11.059194,-11.725093,4.3174043,-2.9884758,-7.1397576,6.969243,-11.844396,6.6243534,-4.199323,4.6635623,8.672969,8.45603,14.515228,-7.6485906,50.643497,20.979816,-7.744542,-2.4181912,3.2340379,-5.4626155,-0.13637836,38.16632,112.99987,-32.69536,-12.784923
184,-3.3793582916259766,-1.8081698417663574,77.59893035888672,-0.9672334952158471,-1.1177144818247229,-97.10807317645867,7.773128,11.456748,9.6117,7.661054,-10.968917,-11.70852,4.3065133,-2.9504528,-7.1692276,6.9737,-11.925321,6.545881,-4.2467604,4.683286,8.529971,8.404395,14.592069,-7.570524,50.576355,20.920774,-7.7288537,-2.4284093,3.2567277,-5.457076,-0.23410152,38.2098,112.99987,-32.688107,-12.798817
185,-3.5052192211151123,-1.9243085384368896,77.60581970214844,-0.9054303673291584,-1.013908306437508,-97.08662574219956,7.7098327,11.487938,9.584117,7.727144,-10.843388,-11.714408,4.299697,-2.9237044,-7.203107,6.9795866,-12.005212,6.443842,-4.2982497,4.698029,8.392859,8.337797,14.643136,-7.493387,50.529274,20.88398,-7.721624,-2.413322,3.276689,-5.457059,-0.30237287,38.2934,112.99987,-32.642426,-12.777484
186,-3.635497808456421,-2.0299737453460693,77.61833953857422,-0.831589170115196,-0.9094329299618492,-97.05918924838953,7.6462727,11.505228,9.550134,7.7812586,-10.6859865,-11.731674,4.2922087,-2.9086223,-7.2411647,6.985202,-12.081368,6.325185,-4.348946,4.6953416,8.264278,8.276144,14.712474,-7.408725,50.4671,20.847816,-7.724947,-2.4010143,3.2810864,-5.460081,-0.3658503,38.414715,112.99987,-32.5549,-12.735052
187,-3.7717514038085938,-2.135232448577881,77.63792419433594,-0.7507061442227705,-0.8046466055275882,-97.0331476842707,7.482529,11.526997,9.491138,8.036698,-10.589294,-11.767005,4.2807727,-2.904792,-7.278327,6.9906898,-12.139255,6.1990294,-4.3920918,4.686109,8.137419,8.206569,14.7704525,-7.322402,50.413296,20.811451,-7.7309823,-2.3765154,3.2850428,-5.4673085,-0.41438296,38.538242,112.99987,-32.47354,-12.690704
188,-3.8985483646392822,-2.2429819107055664,77.66545867919922,-0.6456762188839087,-0.7061982745324383,-97.02255857781809,7.356998,11.513639,9.4424095,8.222316,-10.3911495,-11.824434,4.26939,-2.9297037,-7.3012176,6.9959803,-12.165331,6.076372,-4.4161143,4.647965,8.021431,8.145189,14.83683,-7.223412,50.346886,20.75815,-7.741768,-2.3526087,3.2837331,-5.482464,-0.4489042,38.642117,112.99987,-32.429123,-12.66793
189,-4.027770042419434,-2.346796989440918,77.70111846923828,-0.5031036283554458,-0.6122227569242372,-97.02918258608048,7.27856,11.44972,9.410647,8.317058,-10.0737,-11.909565,4.2565045,-2.9974835,-7.3106074,7.003608,-12.173301,5.9479914,-4.415646,4.5745177,7.9089575,8.076524,14.889646,-7.1188145,50.290314,20.692427,-7.754993,-2.308172,3.2868302,-5.507436,-0.46133086,38.710472,112.99987,-32.452156,-12.670888
190,-4.15485143661499,-2.445939064025879,77.7520751953125,-0.3324924756116917,-0.5215367922787135,-97.04729013847664,7.2291675,11.34607,9.388142,8.354183,-9.665556,-12.018576,4.2442036,-3.098827,-7.310859,7.010057,-12.163185,5.812885,-4.3955193,4.4741964,7.800392,7.9987216,14.928194,-7.0098586,50.244083,20.621078,-7.7713428,-2.2461061,3.2900305,-5.5410075,-0.45650896,38.761,112.99987,-32.515945,-12.687463
191,-4.278634548187256,-2.5451810359954834,77.80848693847656,-0.14855989227584981,-0.4383499011679532,-97.07806565857028,7.202188,11.223075,9.366615,8.355703,-9.18646,-12.143277,4.232736,-3.2150037,-7.2957764,7.016886,-12.105394,5.694242,-4.3502812,4.3642645,7.699744,7.906017,14.95045,-6.9080963,50.21231,20.548134,-7.783439,-2.1779559,3.2946723,-5.5709977,-0.4573498,38.81456,112.99987,-32.577652,-12.694067
192,-4.4043169021606445,-2.649688243865967,77.87593841552734,0.03199598756692169,-0.3672728303019967,-97.12264356701196,7.1887918,11.100437,9.337121,8.351439,-8.660514,-12.27487,4.2258663,-3.3273335,-7.2596188,7.0196986,-11.9678955,5.615305,-4.332599,4.2655816,7.632081,7.866204,14.9818125,-6.7384953,50.119785,20.468729,-7.805117,-2.167401,3.2621942,-5.64062,-0.43328592,38.881786,112.99987,-32.608074,-12.7250395
193,-4.526104927062988,-2.759028673171997,77.95850372314453,0.20972031343464317,-0.3202323762527939,-97.18154272429818,7.2091684,10.97545,9.29534,8.32832,-8.0757475,-12.419407,4.236785,-3.4369144,-7.201788,7.0180798,-11.737014,5.5926642,-4.283022,4.174689,7.5893745,7.799905,14.9895115,-6.5818205,50.048046,20.39438,-7.81432,-2.1758282,3.230607,-5.6910286,-0.45307508,38.985126,112.99987,-32.563763,-12.715358
194,-4.653937816619873,-2.8506178855895996,78.05377197265625,0.392602302856078,-0.29117617408965885,-97.25424548277158,7.260483,10.83939,9.245832,8.278465,-7.426342,-12.578832,4.2602067,-3.5521824,-7.125223,7.013394,-11.43216,5.611321,-4.220972,4.082631,7.572407,7.7328176,14.984245,-6.4084573,49.970936,20.321873,-7.820059,-2.2074296,3.1845424,-5.7378173,-0.4915554,39.120777,112.99987,-32.466995,-12.6799555
195,-4.772503852844238,-2.9307773113250732,78.16046905517578,0.5740478944535958,-0.2566781931722769,-97.34095796674372,7.298283,10.702702,9.195099,8.236954,-6.742666,-12.738501,4.2624345,-3.6680923,-7.027483,7.0185084,-11.076986,5.6475787,-4.151685,3.9970114,7.559712,7.6701174,14.964376,-6.220053,49.890804,20.255674,-7.8252296,-2.2442842,3.1207137,-5.7937126,-0.5197842,39.26115,112.99987,-32.373486,-12.6488
196,-4.87922477722168,-3.025534152984619,78.2791748046875,0.7492201681653011,-0.1927444333765146,-97.44207908296687,7.27769,10.574539,9.150379,8.239292,-6.055511,-12.883545,4.128131,-3.7908573,-6.900511,7.219963,-10.7868,5.678329,-4.0798364,3.9309347,7.525812,7.612844,14.919388,-6.0255885,49.817,20.198404,-7.8312826,-2.264186,3.0468059,-5.882063,-0.49950126,39.362038,112.99987,-32.355053,-12.659718
197,-4.98870325088501,-3.105530261993408,78.40716552734375,0.9098150304818897,-0.09284897466810349,-97.56721165321342,7.1944656,10.464607,9.118929,8.283295,-5.36274,-13.014635,3.7997274,-3.915845,-6.731337,7.7184978,-10.608752,5.6976485,-3.9717684,3.8743703,7.465567,7.5422215,14.872673,-5.8546696,49.76218,20.140451,-7.833895,-2.2472205,2.971188,-5.9735055,-0.43675485,39.41746,112.99987,-32.427822,-12.704916
198,-5.098064422607422,-3.1801230907440186,78.54351806640625,1.0620856142889321,0.030943034428371298,-97.7129053965904,7.0690703,10.364265,9.095586,8.354783,-4.6518607,-13.137962,3.4185836,-4.033791,-6.5316963,8.2444935,-10.394496,5.7205834,-3.8562918,3.8372512,7.392522,7.480095,14.806142,-5.67223,49.70706,20.086296,-7.836604,-2.2153943,2.8835335,-6.09935,-0.32032046,39.43575,112.99987,-32.570534,-12.794901
199,-5.201183795928955,-3.2418880462646484,78.68643951416016,1.2155731254528783,0.17329551926752537,-97.85890144785823,6.899483,10.2613,9.068988,8.459062,-3.9302998,-13.247948,3.0093453,-4.1544547,-6.3218684,8.771434,-10.14891,5.753139,-3.746633,3.8113098,7.302449,7.4249315,14.722185,-5.4904647,49.65403,20.035652,-7.842499,-2.1907854,2.7891617,-6.246044,-0.19337806,39.437366,112.99987,-32.73607,-12.905391
200,-5.299691677093506,-3.316272735595703,78.83781433105469,1.3802047522333523,0.32864614803059183,-97.98426678804528,6.686463,10.143554,9.028316,8.597212,-3.203836,-13.339115,2.5912974,-4.288826,-6.121342,9.284386,-9.881737,5.799524,-3.6603289,3.7853982,7.1924806,7.3807898,14.626897,-5.3147697,49.59959,19.988039,-7.8553243,-2.1978714,2.6912234,-6.3928046,-0.09454326,39.445354,112.99987,-32.877815,-13.008293
201,-5.403775215148926,-3.379507064819336,78.99064636230469,1.5569902900219368,0.49879767277085774,-98.08325540700284,6.425206,10.01005,8.969503,8.771868,-2.4678898,-13.409955,2.173859,-4.437,-5.9335523,9.760165,-9.57965,5.8605657,-3.5949364,3.7424798,7.0553045,7.349157,14.538513,-5.1440816,49.54665,19.932356,-7.8776665,-2.2543433,2.5930226,-6.516585,-0.042343345,39.46842,112.99987,-32.996414,-13.098345
202,-5.500966548919678,-3.4394073486328125,79.15032958984375,1.7406076418114718,0.6856291730344534,-98.16662596023787,6.116327,9.8673315,8.899207,8.982634,-1.7216077,-13.463954,1.7398689,-4.594396,-5.747744,10.224301,-9.247454,5.9333735,-3.5504212,3.6998706,6.8951344,7.331872,14.4403,-4.9688425,49.493126,19.874725,-7.907576,-2.3446643,2.4902418,-6.6416216,-0.0056479704,39.49183,112.99987,-33.116108,-13.194893
203,-5.599017143249512,-3.506551742553711,79.306884765625,1.9316365454704651,0.8831339088062294,-98.23799446113318,5.7731085,9.714387,8.823013,9.21724,-0.97153556,-13.503766,1.2937325,-4.7617064,-5.5645103,10.682413,-8.902915,6.0152416,-3.4973364,3.626958,6.724957,7.3092427,14.377525,-4.832273,49.435604,19.818146,-7.9380054,-2.4396873,2.3858192,-6.718137,-0.0048069824,39.523975,112.99987,-33.197483,-13.257967
204,-5.689576625823975,-3.5639748573303223,79.46198272705078,2.1290160388433415,1.0852640358162613,-98.30110898099471,5.401788,9.552266,8.74561,9.477566,-0.23169884,-13.531411,0.8410876,-4.9383287,-5.3846054,11.136704,-8.561286,6.1039405,-3.4823215,3.5922751,6.5632634,7.296719,14.259694,-4.6955895,49.360493,19.807255,-7.9668508,-2.5119963,2.2594812,-6.8486896,0.023153802,39.5434,112.99987,-33.24035,-13.32163
205,-5.782580852508545,-3.600769519805908,79.62174987792969,2.336606135929391,1.2975128758717762,-98.35431530289566,4.9959903,9.375498,8.666358,9.758284,0.50699484,-13.541979,0.3710422,-5.1292515,-5.208202,11.595639,-8.221143,6.204573,-3.4482286,3.519336,6.402861,7.268924,14.191568,-4.631798,49.273727,19.824842,-7.991413,-2.5500298,2.1241353,-6.916094,0.013101065,39.589096,112.99987,-33.182655,-13.319273
206,-5.870041370391846,-3.652698516845703,79.77729797363281,2.5522573327043587,1.5203490580149845,-98.39638280491158,4.553956,9.186905,8.584223,10.062914,1.2467496,-13.536212,-0.1134064,-5.33154,-5.0346,12.0520315,-7.874584,6.316102,-3.4264808,3.4520211,6.2412605,7.240387,14.11116,-4.596939,49.177307,19.87912,-8.015332,-2.5690062,1.972275,-6.984403,-0.0063262912,39.646206,112.99987,-33.06195,-13.289285
207,-5.952788829803467,-3.6910593509674072,79.92916870117188,2.7707439121939905,1.7404284665295304,-98.43131007681022,4.097571,8.995232,8.50318,10.389783,1.9716685,-13.524957,-0.5920646,-5.5378733,-4.862861,12.498513,-7.5346475,6.42642,-3.4081004,3.3815892,6.0871825,7.207952,14.037658,-4.5860972,49.070553,19.93442,-8.035325,-2.5825603,1.817706,-7.0395694,-0.035926733,39.68379,112.99987,-32.926945,-13.24432
208,-6.035122871398926,-3.7383768558502197,80.08344268798828,2.9861229091320287,1.9443376765229423,-98.46300365033001,3.6453376,8.810128,8.42597,10.744906,2.6626158,-13.518812,-1.0431639,-5.7399015,-4.693109,12.9253025,-7.2133293,6.5231047,-3.3927903,3.3273232,5.951604,7.166101,13.950958,-4.583616,48.95737,19.968773,-8.0479355,-2.6016448,1.6688446,-7.1027007,-0.06987446,39.666534,112.99987,-32.831097,-13.20707
209,-6.112162113189697,-3.771170139312744,80.23362731933594,3.1998441096059267,2.128007421000369,-98.48917493630856,3.201756,8.629697,8.353398,11.124083,3.322299,-13.51265,-1.4669051,-5.94023,-4.525112,13.341863,-6.9145913,6.603009,-3.3833117,3.2612758,5.840579,7.1246896,13.8952055,-4.586958,48.820374,19.943008,-8.0498,-2.6439564,1.5290796,-7.1455417,-0.10046924,39.57373,112.99987,-32.801823,-13.1892395
210,-6.184359073638916,-3.7959232330322266,80.37057495117188,3.4129950382834418,2.2985033600025635,-98.50886294779583,2.75433,8.4516325,8.283435,11.532801,3.9558375,-13.503182,-1.8722788,-6.1407394,-4.3596025,13.748561,-6.631164,6.67172,-3.379935,3.1963904,5.7475924,7.0803843,13.848562,-4.602863,48.66704,19.884962,-8.043135,-2.696808,1.3924019,-7.182547,-0.13434656,39.427834,112.99987,-32.803764,-13.177197
211,-6.2642974853515625,-3.8357291221618652,80.50161743164062,3.6247907191997086,2.458955089981228,-98.52940215315945,2.319216,8.276197,8.218338,11.940936,4.567386,-13.504361,-2.2578192,-6.338195,-4.1957197,14.136262,-6.3655787,6.730481,-3.3787186,3.1277132,5.6661205,7.0411024,13.8182,-4.6250186,48.49812,19.830545,-8.039833,-2.7508526,1.256138,-7.2068667,-0.168972,39.255066,112.99987,-32.810566,-13.155778
212,-6.3428120613098145,-3.864553928375244,80.62554931640625,3.833439558886917,2.612584655817365,-98.5582887063287,1.9136413,8.103928,8.160161,12.315548,5.1623797,-13.530779,-2.6233397,-6.5292416,-4.032645,14.498379,-6.121735,6.780479,-3.3705523,3.0647116,5.588681,7.0069556,13.791073,-4.653909,48.3223,19.821339,-8.050363,-2.792006,1.1186429,-7.227908,-0.21257265,39.084858,112.99987,-32.786827,-13.107066
213,-6.418262958526611,-3.8977091312408447,80.73946380615234,4.040417950479192,2.761591463314899,-98.59706648874052,1.5344129,7.9340363,8.108557,12.657981,5.7436767,-13.592961,-2.9753137,-6.71495,-3.8687081,14.840662,-5.9006267,6.817899,-3.3647592,2.9998753,5.5130644,6.987044,13.777108,-4.684032,48.131588,19.87205,-8.079961,-2.8205545,0.978031,-7.2375846,-0.25307792,38.915287,112.99987,-32.72724,-13.0216875
214,-6.491442680358887,-3.9284515380859375,80.84729766845703,4.245880529483047,2.9036810916734437,-98.64225337250376,1.1740066,7.766613,8.061366,12.984251,6.306451,-13.682002,-3.3122032,-6.8966894,-3.7052033,15.165338,-5.7007847,6.8428073,-3.3437576,2.9461567,5.444613,6.962709,13.760119,-4.738524,47.93453,19.963648,-8.1194725,-2.8359528,0.8303848,-7.244041,-0.32899117,38.75968,112.99987,-32.61863,-12.888551
215,-6.570541858673096,-3.9523143768310547,80.94715118408203,4.447496425803845,3.0355102785655954,-98.69283591868266,0.8439985,7.6016755,8.018901,13.281538,6.8460474,-13.782518,-3.6227555,-7.0724263,-3.5454683,15.46289,-5.523294,6.8620706,-3.3127933,2.8934844,5.383886,6.936595,13.748399,-4.7956634,47.738163,20.074245,-8.166485,-2.8429127,0.68741554,-7.2436075,-0.40609813,38.59081,112.99987,-32.512577,-12.752942
216,-6.641540050506592,-3.9702937602996826,81.03815460205078,4.64284259426235,3.153914747347491,-98.7482485141514,0.5542032,7.4403405,7.981652,13.542161,7.354732,-13.877942,-3.8954005,-7.240187,-3.3927963,15.722345,-5.3683043,6.882898,-3.2836716,2.8381667,5.332723,6.916978,13.745516,-4.828455,47.545406,20.180773,-8.219621,-2.8470206,0.55007744,-7.241129,-0.4557453,38.405888,112.99987,-32.437336,-12.647522
217,-6.710010528564453,-4.001325607299805,81.1182861328125,4.830624845105704,3.255095213865848,-98.81197615432608,0.31086704,7.284836,7.9550295,13.766886,7.830808,-13.961311,-4.1249304,-7.39761,-3.2453766,15.943633,-5.23808,6.9055963,-3.2498827,2.783714,5.293982,6.9010916,13.746745,-4.839074,47.359364,20.292177,-8.281928,-2.846666,0.43042335,-7.2403793,-0.47665375,38.177963,112.99987,-32.405754,-12.592609
218,-6.776510238647461,-4.033630847930908,81.18753051757812,5.012903529776669,3.342828033579795,-98.88328577701496,0.10306887,7.133547,7.9368715,13.966046,8.274704,-14.04067,-4.324014,-7.548164,-3.1017962,16.140984,-5.136477,6.9268475,-3.2059124,2.7384567,5.2711,6.8913646,13.750858,-4.8435054,47.165543,20.41016,-8.354119,-2.8422751,0.30109683,-7.2386317,-0.5012384,37.96538,112.99987,-32.379562,-12.52207
219,-6.842417240142822,-4.052417755126953,81.25190734863281,5.189340993727632,3.422175490483671,-98.95479756965257,-0.07362447,6.9859653,7.916408,14.130922,8.69034,-14.122225,-4.4906316,-7.6923923,-2.9699965,16.299002,-5.0534487,6.947163,-3.158254,2.6906118,5.2524962,6.8821135,13.759678,-4.8349204,46.976177,20.523764,-8.424717,-2.8318458,0.16989875,-7.2376533,-0.5207336,37.75307,112.99987,-32.363617,-12.478464
220,-6.90775728225708,-4.092772483825684,81.3062744140625,5.360281725089264,3.4990641361809827,-99.01885022762895,-0.22841538,6.840481,7.882335,14.259177,9.078655,-14.212096,-4.629003,-7.832786,-2.85684,16.413042,-4.984394,6.9672556,-3.1148074,2.6405272,5.230778,6.864387,13.774668,-4.8102627,46.803944,20.611193,-8.48718,-2.8184347,0.036499653,-7.239024,-0.5309844,37.561253,112.99987,-32.353092,-12.445225
221,-6.97544527053833,-4.110530853271484,81.3554458618164,5.527153202264183,3.570905391195361,-99.0707606543944,-0.35513037,6.693716,7.825992,14.339825,9.445637,-14.31286,-4.72918,-7.9728446,-2.7709382,16.470013,-4.9239316,6.9898963,-3.0858583,2.5801513,5.211746,6.8465023,13.806584,-4.7533174,46.635,20.664387,-8.546308,-2.8125653,-0.110263206,-7.2454267,-0.5234923,37.39171,112.99987,-32.347637,-12.437316
222,-7.033911228179932,-4.134135723114014,81.39690399169922,5.689105441386698,3.63625065333898,-99.1154703857585,-0.45451924,6.5481186,7.754887,14.382813,9.786449,-14.420244,-4.7952094,-8.110686,-2.706628,16.481546,-4.878704,7.013321,-3.0589478,2.5177321,5.192954,6.8216867,13.844009,-4.684848,46.478844,20.69479,-8.600298,-2.801299,-0.24859099,-7.2584023,-0.50148916,37.218864,112.99987,-32.359688,-12.455208
223,-7.094115257263184,-4.176634788513184,81.4247817993164,5.842780749561576,3.7021436809692627,-99.15950055560114,-0.5330302,6.409472,7.6828976,14.392328,10.098177,-14.530681,-4.8428135,-8.239611,-2.6502872,16.459478,-4.851143,7.0314956,-3.0137658,2.466358,5.1635995,6.7749786,13.8661175,-4.6335273,46.35814,20.712795,-8.639138,-2.7686923,-0.36944523,-7.26913,-0.49355915,37.06006,112.99987,-32.369095,-12.461406
224,-7.153512001037598,-4.211758613586426,81.44856262207031,5.985373412644059,3.774746617919087,-99.20991404105114,-0.5967513,6.2824416,7.624784,14.373078,10.377756,-14.640598,-4.8896728,-8.353464,-2.5874338,16.422323,-4.8479486,7.0383477,-3.0062504,2.413305,5.1420293,6.770214,13.929489,-4.5035696,46.208515,20.702862,-8.685486,-2.774657,-0.53573,-7.301675,-0.463165,36.95066,112.99987,-32.370445,-12.46615
225,-7.213293552398682,-4.247865200042725,81.46233367919922,6.113071574217789,3.8625680407811136,-99.26939102930797,-0.65179574,6.172093,7.580281,14.320436,10.623406,-14.75231,-4.9437375,-8.446011,-2.5137749,16.364298,-4.8685417,7.0267143,-2.9724872,2.3761241,5.097116,6.746625,13.990914,-4.394627,46.098984,20.668522,-8.714182,-2.7613506,-0.6857341,-7.334279,-0.45817035,36.87158,112.99987,-32.356205,-12.42504
226,-7.271800994873047,-4.283034324645996,81.4693603515625,6.228542649884181,3.9596898735193053,-99.3339922472662,-0.6926145,6.074313,7.5432663,14.232872,10.837788,-14.866396,-4.994861,-8.522246,-2.4371018,16.280516,-4.911153,7.001523,-2.9226398,2.3514938,5.03849,6.70339,14.040373,-4.2890725,46.025707,20.621489,-8.728441,-2.7313626,-0.83503616,-7.3639226,-0.4741756,36.832436,112.99987,-32.326336,-12.344586
227,-7.320866107940674,-4.301728248596191,81.4681625366211,6.336259715382506,4.053063441969715,-99.40008311040741,-0.7122647,5.983854,7.5180554,14.124239,11.021741,-14.976857,-5.032174,-8.590152,-2.3626223,16.18201,-4.9747224,6.974888,-2.8727617,2.332779,4.982351,6.6568465,14.092181,-4.1720057,45.971092,20.569427,-8.736107,-2.7044837,-0.9878801,-7.3968067,-0.5043087,36.822258,112.99987,-32.28622,-12.258869
228,-7.371549129486084,-4.33001184463501,81.46160125732422,6.441561305717819,4.129761022810156,-99.4637674258679,-0.7028913,5.892851,7.5264516,14.0052,11.178151,-15.000033,-5.045324,-8.659744,-2.2951074,16.080019,-5.0580792,6.9597754,-2.826624,2.313849,4.941563,6.608554,14.151838,-4.045895,45.93261,20.524008,-8.74078,-2.6903095,-1.142297,-7.4340305,-0.55556214,36.835,112.99987,-32.234203,-12.1856165
229,-7.424903869628906,-4.366304874420166,81.44702911376953,6.547618699158088,4.183071602528859,-99.52122415066398,-0.65597254,5.7984257,7.5521183,13.875046,11.30095,-15.000033,-5.0219493,-8.735478,-2.240506,15.971845,-5.1717005,6.9594784,-2.782681,2.2933743,4.91759,6.5529017,14.214925,-3.9204426,45.919067,20.489096,-8.736774,-2.6853406,-1.2953937,-7.468375,-0.6415347,36.884483,112.99987,-32.148537,-12.113698
230,-7.469717502593994,-4.393687725067139,81.42801666259766,6.650751476427536,4.220941330684329,-99.57544575915236,-0.5768973,5.7049985,7.589139,13.727179,11.391755,-15.000033,-4.9706907,-8.8111315,-2.194972,15.852894,-5.31251,6.9671493,-2.7369328,2.2749872,4.901632,6.482165,14.268497,-3.796355,45.94033,20.466167,-8.720962,-2.6771789,-1.445172,-7.492946,-0.75723344,36.97144,112.99987,-32.036144,-12.0278635
231,-7.512588024139404,-4.422133922576904,81.4078140258789,6.749452997786938,4.2532075410456445,-99.63166772222829,-0.4797195,5.6156793,7.643065,13.562817,11.465923,-15.000033,-4.9162383,-8.883709,-2.1488008,15.739588,-5.4631653,6.9802756,-2.6878774,2.2553873,4.8933225,6.4046082,14.320788,-3.6659808,45.979546,20.45211,-8.703563,-2.671693,-1.5957072,-7.5158005,-0.88368857,37.068077,112.99987,-31.941338,-11.957634
232,-7.5596160888671875,-4.4462809562683105,81.38313293457031,6.837129561899719,4.288812018964881,-99.69720506150654,-0.38254505,5.540045,7.718185,13.395901,11.531462,-15.000033,-4.8759055,-8.94296,-2.0929565,15.6347475,-5.5995207,6.9946647,-2.6304812,2.2365913,4.893309,6.326257,14.382976,-3.5237184,46.022156,20.44132,-8.695873,-2.6764202,-1.7482785,-7.5454726,-1.0057746,37.14487,112.99987,-31.906527,-11.933322
233,-7.603682518005371,-4.473015308380127,81.35686492919922,6.903520228547443,4.328783435825271,-99.78136253481817,-0.28856534,5.4915485,7.8225613,13.239578,11.575493,-15.000033,-4.850493,-8.974923,-2.0207918,15.533586,-5.71375,7.005364,-2.55766,2.2306104,4.900065,6.2434616,14.439144,-3.3688664,46.075672,20.45138,-8.700564,-2.6863723,-1.8947656,-7.5807004,-1.106893,37.173843,112.99987,-31.978363,-11.97922
234,-7.636574745178223,-4.48777437210083,81.33317565917969,6.953156593225296,4.368302790356362,-99.87846592486319,-0.18978898,5.4636784,7.951156,13.087417,11.596208,-15.000033,-4.8295965,-8.986392,-1.9386835,15.432118,-5.816941,7.015178,-2.4833765,2.2346065,4.919593,6.1738653,14.516494,-3.188261,46.121067,20.460085,-8.720686,-2.7229905,-2.0470917,-7.6411643,-1.1949493,37.177456,112.99987,-32.11506,-12.091504
235,-7.673563003540039,-4.506057262420654,81.31061553955078,6.9945795204583465,4.407535469216829,-99.97740879329544,-0.093663424,5.4451313,8.087041,12.940898,11.609231,-15.000033,-4.808407,-8.989121,-1.8571951,15.324526,-5.907818,7.029514,-2.3963661,2.2449818,4.9351974,6.080107,14.554376,-3.029924,46.205997,20.484238,-8.725254,-2.723507,-2.1793761,-7.6772056,-1.2850102,37.181313,112.99987,-32.275738,-12.192904
236,-7.709682941436768,-4.524194240570068,81.29054260253906,7.036559361520797,4.445575833307769,-100.06706996729514,-0.0068975547,5.4246244,8.213582,12.801452,11.6296425,-15.000033,-4.7846065,-8.995038,-1.7863789,15.211542,-5.9884157,7.053853,-2.345167,2.2564242,4.968707,6.020251,14.640974,-2.8291142,46.25692,20.449572,-8.738339,-2.7621646,-2.3388233,-7.769378,-1.3600613,37.20474,112.99987,-32.404972,-12.327355
237,-7.742966175079346,-4.532240867614746,81.2723617553711,7.077305590800516,4.481730333307268,-100.1499511306157,0.0734294,5.40394,8.332614,12.667355,11.657248,-15.000033,-4.757972,-9.001947,-1.7271267,15.093209,-6.054281,7.082778,-2.2877967,2.2671402,4.9980206,5.933753,14.692611,-2.6623962,46.34967,20.39349,-8.718685,-2.7442665,-2.4803743,-7.827831,-1.4502674,37.26262,112.99987,-32.4911,-12.408788
238,-7.780660152435303,-4.548109531402588,81.25592041015625,7.11387187137664,4.51628386277049,-100.23015710425,0.14823575,5.3875823,8.450793,12.541504,11.683853,-15.000033,-4.729967,-9.0054245,-1.6745052,14.970821,-6.1070666,7.1158,-2.2387931,2.2800806,5.0342197,5.8484874,14.747554,-2.4918396,46.449703,20.306599,-8.688412,-2.7155502,-2.6246805,-7.8925247,-1.5404617,37.339935,112.99987,-32.558815,-12.487202
239,-7.813333034515381,-4.5589728355407715,81.24006652832031,7.152140409816858,4.551810090314004,-100.29889672251053,0.21287256,5.367915,8.559456,12.418128,11.719819,-15.000033,-4.6979775,-9.013437,-1.6307932,14.835796,-6.1512504,7.16596,-2.194439,2.2845705,5.0678587,5.7528057,14.785933,-2.3338363,46.56842,20.22677,-8.649051,-2.6715376,-2.7595136,-7.9370694,-1.6312201,37.433197,112.99987,-32.617085,-12.54132
240,-7.8417792320251465,-4.558871746063232,81.22554779052734,7.198464029728421,4.590940219625108,-100.34742948655116,0.2603667,5.338141,8.649585,12.296648,11.773072,-15.000033,-4.6586857,-9.034374,-1.598392,14.678583,-6.1913214,7.246143,-2.1612856,2.27585,5.0936112,5.655446,14.819211,-2.1907985,46.69485,20.165264,-8.613661,-2.6367283,-2.8810575,-7.9730945,-1.7113492,37.5279,112.99987,-32.68066,-12.586695
241,-7.874516487121582,-4.556142330169678,81.21410369873047,7.2543678335110995,4.6297784490765785,-100.36975514016935,0.28903922,5.2971096,8.717147,12.182374,11.846441,-15.000033,-4.6115746,-9.070287,-1.5820924,14.508585,-6.230799,7.3493643,-2.159163,2.2508698,5.1299896,5.5749984,14.89511,-2.0230541,46.802338,20.101383,-8.605482,-2.6644382,-3.0188787,-8.048874,-1.7776746,37.634098,112.99987,-32.74513,-12.657293
242,-7.910687446594238,-4.549964427947998,81.20301055908203,7.316315295867409,4.668895737999761,-100.37178893107885,0.30445245,5.2483325,8.767755,12.068889,11.937914,-15.000033,-4.5569334,-9.116649,-1.5796897,14.322739,-6.2642407,7.4721265,-2.1579309,2.2107782,5.158353,5.4764886,14.953986,-1.8874123,46.93768,20.05702,-8.592877,-2.6817784,-3.1317399,-8.101399,-1.8359386,37.738712,112.99987,-32.827724,-12.711549
243,-7.943802356719971,-4.547457218170166,81.19320678710938,7.38447272130641,4.715668429336417,-100.36251431399029,0.30298617,5.1916456,8.806114,11.957372,12.03815,-15.000033,-4.497738,-9.173137,-1.5816724,14.108699,-6.2914248,7.632635,-2.165843,2.1634026,5.176346,5.3830137,15.010131,-1.7607201,47.070805,20.019785,-8.57998,-2.7042341,-3.24013,-8.144815,-1.8955572,37.858086,112.99987,-32.88268,-12.746784
