unveil-humanoid-operators/unveil-humanoid-operators.github.io/feature-analysis-animation/data/feature_matrix_instances/weight_root_translate_peak_vel_walking_A049_walk_ff_stop_225_002__A049.csv
Frame,root_translateX,root_translateY,root_translateZ,root_rotateX,root_rotateY,root_rotateZ,left_hip_pitch_joint_dof,left_hip_roll_joint_dof,left_hip_yaw_joint_dof,left_knee_joint_dof,left_ankle_pitch_joint_dof,left_ankle_roll_joint_dof,right_hip_pitch_joint_dof,right_hip_roll_joint_dof,right_hip_yaw_joint_dof,right_knee_joint_dof,right_ankle_pitch_joint_dof,right_ankle_roll_joint_dof,waist_yaw_joint_dof,waist_roll_joint_dof,waist_pitch_joint_dof,left_shoulder_pitch_joint_dof,left_shoulder_roll_joint_dof,left_shoulder_yaw_joint_dof,left_elbow_joint_dof,left_wrist_roll_joint_dof,left_wrist_pitch_joint_dof,left_wrist_yaw_joint_dof,right_shoulder_pitch_joint_dof,right_shoulder_roll_joint_dof,right_shoulder_yaw_joint_dof,right_elbow_joint_dof,right_wrist_roll_joint_dof,right_wrist_pitch_joint_dof,right_wrist_yaw_joint_dof
0,-0.910065233707428,-1.4153270721435547,74.5414810180664,-1.9234407972508036,3.003552088675382,59.25799020184637,-25.466528,-1.8452575,17.063087,14.111182,-2.1320374,5.278903,11.267203,7.844553,-18.798481,26.821428,-15.636622,-6.1860604,8.130825,2.4242842,3.544555,7.548312,21.274662,-33.094193,61.74522,14.315101,0.12284799,4.5185533,3.2854786,-13.988229,14.650226,59.32122,-11.167051,-5.061262,-2.580068
1,-0.45087355375289917,-0.860715925693512,74.61906433105469,-1.5637091637575766,3.024275076256418,59.29497180860149,-25.541336,-2.0553532,17.01863,15.415864,-2.4845507,5.815368,10.320718,7.0098314,-18.467405,29.509108,-14.317986,-5.155939,8.000593,1.9927381,3.5802016,7.545803,21.282705,-33.06818,62.066143,14.368214,0.18053567,4.396411,3.5872643,-13.979221,14.6914015,59.364403,-11.1726,-5.0444403,-2.6138585
2,0.021711107343435287,-0.27940797805786133,74.7052993774414,-1.203423329380787,3.05077277726104,59.316273690309465,-25.619879,-2.2491593,16.97965,16.71996,-2.8301797,6.353506,9.458106,6.257367,-18.090837,32.028465,-12.992445,-4.099152,7.871866,1.5542549,3.6036413,7.55495,21.284033,-33.023197,62.40659,14.440214,0.23918977,4.279168,3.8846955,-13.960072,14.757632,59.421154,-11.171107,-5.026239,-2.660594
3,0.4884885251522064,0.3056040406227112,74.78868103027344,-0.851492336240481,3.056840890011473,59.34415153077071,-25.649426,-2.4410856,16.937447,17.96518,-3.1739783,6.8990383,8.584292,5.536881,-17.651917,34.55189,-11.568072,-2.9527738,7.741706,1.1327115,3.6435757,7.5408683,21.27898,-32.990547,62.737232,14.483986,0.2949744,4.1559706,4.1625004,-13.946157,14.8096695,59.486797,-11.178889,-5.0085044,-2.6921792
4,0.9518596529960632,0.9028600454330444,74.87578582763672,-0.5142028840389072,3.0166825789376417,59.39869751938582,-25.574919,-2.6519012,16.885393,19.08615,-3.5153818,7.455176,7.6137114,4.8109922,-17.118986,37.229496,-9.945116,-1.6394395,7.5862308,0.7411212,3.7247443,7.4763904,21.2702,-32.982025,63.03907,14.450269,0.33986408,4.018562,4.39534,-13.942105,14.845415,59.563473,-11.203385,-4.9888043,-2.6901388
5,1.4004896879196167,1.4858182668685913,74.95655059814453,-0.1891670676472198,2.908439430576809,59.49999374766023,-25.371075,-2.9068768,16.807346,20.064943,-3.8164866,8.041307,6.546092,4.103877,-16.44092,40.109623,-8.074791,-0.014576398,7.397055,0.38495848,3.8730142,7.355889,21.257502,-33.006584,63.305565,14.307257,0.37460473,3.8543072,4.5971355,-13.957431,14.834673,59.63705,-11.268486,-4.9633317,-2.6241891
6,1.8308650255203247,2.049997329711914,75.02800750732422,0.1191889197795264,2.7514906022072236,59.63288074710783,-25.077087,-3.189816,16.70691,20.94469,-4.088822,8.645233,5.4179616,3.4789417,-15.625054,43.10477,-6.0392017,1.8897715,7.2175426,0.083827846,4.0738373,7.160221,21.220827,-33.100246,63.564327,14.074683,0.40074804,3.6713943,4.8339443,-14.036786,14.74893,59.641747,-11.358548,-4.935166,-2.4953222
7,2.253920078277588,2.6127490997314453,75.09142303466797,0.4011332251568178,2.58297607178137,59.76491053926592,-24.73348,-3.4620326,16.61463,21.749931,-4.408726,9.223687,4.191635,2.9458444,-14.723025,46.175922,-3.9356525,3.886205,7.036416,-0.17348932,4.2815166,6.931863,21.182863,-33.21648,63.77564,13.810471,0.42170236,3.4871342,5.042551,-14.153436,14.669582,59.631176,-11.423512,-4.912107,-2.3609788
8,2.663515090942383,3.1683688163757324,75.145751953125,0.6493715789771165,2.4405402012498634,59.863740334207876,-24.385206,-3.6821356,16.561312,22.516844,-4.8631015,9.735121,2.8294306,2.4856381,-13.797622,49.285347,-1.837755,5.762837,6.8790345,-0.38486472,4.4516735,6.6693826,21.146484,-33.36331,63.931522,13.557288,0.43954945,3.3210156,5.2091813,-14.308606,14.633597,59.61279,-11.416131,-4.9027476,-2.266882
9,3.05733323097229,3.7084619998931885,75.1917953491211,0.8631402157290115,2.351543806499447,59.91566332440372,-24.076681,-3.8325853,16.574268,23.286224,-5.5195417,10.19922,1.2167499,2.1052642,-12.785281,52.54412,0.5083912,7.599642,6.75294,-0.55075175,4.559996,6.366517,21.114744,-33.53442,64.02703,13.262667,0.44148612,3.1416185,5.3200836,-14.508218,14.664215,59.5927,-11.289881,-4.9139943,-2.216022
10,3.4516937732696533,4.254532814025879,75.23611450195312,1.0427889652422206,2.292202621668892,59.937178637539446,-23.77696,-3.931517,16.626534,24.036385,-6.3231783,10.62522,-0.5928154,1.8579342,-11.655416,55.925064,3.0606477,9.508762,6.646387,-0.66846764,4.633632,6.028315,21.088074,-33.72817,64.0626,12.924044,0.431162,2.949851,5.3874264,-14.7539,14.737988,59.562695,-11.079933,-4.9397817,-2.1856582
11,3.834258794784546,4.786342620849609,75.27998352050781,1.1956382538427592,2.2223773379730165,59.94938605256715,-23.423338,-4.0042186,16.675568,24.711502,-7.17378,10.967042,-2.4010153,1.6901863,-10.572234,59.23022,5.310663,11.237672,6.5447145,-0.7424979,4.7088976,5.671886,21.064627,-33.953197,64.03659,12.660937,0.43407306,2.8136144,5.4326987,-15.034108,14.827466,59.51174,-10.861963,-4.96865,-2.1844084
12,4.2123870849609375,5.313426494598389,75.32820892333984,1.330125405569618,2.10072596479274,59.979861037741564,-22.92402,-4.0922008,16.672016,25.19506,-7.936957,11.179673,-3.999934,1.4447778,-9.763407,62.252647,6.7954006,12.421395,6.4284563,-0.7810884,4.8213096,5.312992,21.04157,-34.218384,63.95219,12.594277,0.47486326,2.8019881,5.472555,-15.331887,14.903172,59.436638,-10.714692,-4.9892592,-2.2237728
13,4.587481498718262,5.840447902679443,75.38333892822266,1.4578006276322215,1.9116197158834822,60.0303729371483,-22.230639,-4.2197933,16.619913,25.427704,-8.59019,11.227782,-5.3422394,1.0156821,-9.264577,64.98084,7.3856864,12.797066,6.2961135,-0.79536206,4.980219,4.9412885,21.018118,-34.572895,63.815712,12.793083,0.5763463,2.9690616,5.4959188,-15.642744,14.987159,59.35038,-10.666216,-4.9994,-2.3283234
14,4.970752239227295,6.367554664611816,75.45368194580078,1.5825288404657534,1.6780450862359335,60.09137118303261,-21.387777,-4.3771477,16.546225,25.454988,-9.18747,11.146782,-6.538584,0.37771833,-9.008046,67.52771,7.374467,12.494869,6.1560545,-0.79199815,5.166969,4.549892,20.993393,-34.99762,63.62857,13.181461,0.7213515,3.2661242,5.4953165,-15.967068,15.082551,59.257523,-10.675612,-5.0049067,-2.4875338
15,5.354254245758057,6.893110275268555,75.5435791015625,1.698752505743528,1.415352352295634,60.176309574176,-20.443233,-4.5525365,16.436445,25.32737,-9.71796,10.999018,-7.6163025,-0.5554353,-9.069451,69.87431,6.933489,11.698643,5.9978156,-0.771383,5.374019,4.1564627,20.966063,-35.40466,63.391926,13.656854,0.87398016,3.60913,5.4904604,-16.291758,15.134236,59.147278,-10.717706,-5.0058255,-2.660956
16,5.744046211242676,7.409717082977295,75.64850616455078,1.7998128678295005,1.1385501488852476,60.29864413391295,-19.446749,-4.7325516,16.27439,25.100895,-10.173093,10.846548,-8.596952,-1.8607044,-9.514633,72.00098,6.218284,10.605044,5.8111253,-0.7359301,5.592647,3.7800279,20.936562,-35.70402,63.109318,14.120676,0.9963353,3.9152017,5.49774,-16.596851,15.087437,59.016094,-10.76877,-5.0022254,-2.810152
17,6.141843795776367,7.927657127380371,75.76139068603516,1.8883844286837603,0.8428569761041471,60.475491561276336,-18.39224,-4.9261203,16.044939,24.769855,-10.540595,10.687,-9.437155,-3.6990077,-10.477221,73.9329,5.068316,9.165189,5.580284,-0.69345844,5.8230844,3.4307353,20.908028,-35.86393,62.78162,14.742801,1.0969841,4.112372,5.511207,-16.8686,14.921064,58.878544,-10.856064,-4.9910398,-2.9287808
18,6.531605243682861,8.42454719543457,75.87751770019531,1.9669936199688938,0.5197640470948054,60.699083840293376,-17.253946,-5.137274,15.756542,24.308907,-10.8277855,10.495616,-10.105333,-5.988017,-11.846631,75.681244,3.4099894,7.332212,5.309711,-0.64844614,6.0700126,3.0965726,20.884325,-35.934772,62.41347,15.510133,1.1876211,4.2621026,5.516815,-17.106339,14.668949,58.746563,-10.984163,-4.9730735,-3.0401
19,6.927464962005615,8.928641319274902,75.99859619140625,2.0286694924048807,0.18019779235864097,60.944863649956076,-16.057129,-5.3457966,15.428522,23.75101,-11.058149,10.2988825,-10.65412,-8.425914,-13.339222,77.20382,1.5386649,5.309848,5.0223193,-0.59574574,6.3297486,2.7697122,20.867662,-35.94406,61.99911,16.058481,1.24296,4.4815516,5.5211687,-17.311012,14.355961,58.610184,-11.096011,-4.9550066,-3.1494663
20,7.320401668548584,9.419456481933594,76.12799835205078,2.0688082702429074,-0.1625975566670205,61.18609697857096,-14.825869,-5.530467,15.0835705,23.121367,-11.25081,10.122267,-11.170475,-10.729726,-14.69788,78.45796,-0.2143249,3.2652645,4.742637,-0.5314111,6.5975266,2.441327,20.858807,-35.918568,61.537495,16.023458,1.2326436,4.8896446,5.5298195,-17.484423,14.007783,58.457954,-11.133641,-4.943503,-3.261922
21,7.7119975090026855,9.908004760742188,76.26569366455078,2.0828131145441793,-0.5022551807445538,61.41980472811821,-13.56535,-5.685239,14.721114,22.417261,-11.4059515,9.985144,-11.677196,-12.939527,-15.988929,79.446434,-1.8085648,1.0959401,4.465472,-0.45835283,6.8658586,2.1091964,20.858051,-35.837433,61.017956,15.12016,1.1303486,5.5999026,5.5257316,-17.605501,13.6100025,58.31101,-11.084244,-4.9367447,-3.3836315
22,8.105186462402344,10.399932861328125,76.40745544433594,2.070977157589634,-0.8455994579618987,61.65769584703731,-12.268474,-5.8097167,14.330641,21.638582,-11.519317,9.866483,-12.131092,-15.130829,-17.324278,80.18782,-3.4301195,-1.2138306,4.193317,-0.36454594,7.14288,1.7750826,20.865177,-35.708515,60.434597,13.603094,0.93958277,6.515681,5.5367417,-17.702312,13.13939,58.136894,-10.975342,-4.9331965,-3.5015838
23,8.49909496307373,10.89066219329834,76.54905700683594,2.041690065156236,-1.1972448864868543,61.893164261610075,-10.93881,-5.9083743,13.926042,20.801487,-11.596747,9.732066,-12.563245,-17.114311,-18.53065,80.66371,-5.030668,-3.4168358,3.9351459,-0.25941995,7.431016,1.4450867,20.88315,-35.56641,59.827797,11.929772,0.6748756,7.4474792,5.5592537,-17.780146,12.656737,57.939236,-10.818156,-4.938716,-3.6190066
24,8.89609432220459,11.363626480102539,76.68297576904297,2.0054563386540813,-1.561308021817955,62.11989330878658,-9.57758,-5.9883375,13.52229,19.91848,-11.642802,9.549573,-13.02334,-18.724106,-19.431465,80.857445,-6.5259643,-5.2851706,3.700603,-0.15351306,7.7345014,1.1277732,20.91665,-35.445225,59.23009,10.55549,0.37539932,8.210008,5.594514,-17.850418,12.2209215,57.713127,-10.623098,-4.9589663,-3.7372339
25,9.290827751159668,11.831604957580566,76.81230926513672,1.9652941876661196,-1.9503428153775546,62.33005863151489,-8.148637,-6.0569043,13.125184,18.942753,-11.632203,9.306031,-13.5411,-19.94121,-19.98546,80.75892,-7.870984,-6.8625607,3.4831808,-0.05240435,8.058028,0.832779,20.955217,-35.332066,58.66079,9.634609,0.048560876,8.720846,5.6204815,-17.903172,11.864866,57.48272,-10.348371,-4.992554,-3.8712976
26,9.676733016967773,12.312246322631836,76.94447326660156,1.9177319990982966,-2.357494053709068,62.528469874722376,-6.662341,-6.109985,12.729214,17.88168,-11.5705,9.020669,-14.109587,-20.859325,-20.294819,80.38069,-9.082951,-8.255479,3.2869303,0.053367056,8.401332,0.5512216,21.000278,-35.221527,58.092655,8.911194,-0.3140297,9.089734,5.657561,-17.948889,11.542012,57.223614,-10.002102,-5.0380545,-4.010368
27,10.068769454956055,12.79104232788086,77.06632995605469,1.8655239342977392,-2.7590943588237407,62.72737699552186,-5.1861105,-6.142951,12.33224,16.820654,-11.505296,8.712561,-14.724708,-21.505024,-20.39704,79.74005,-10.148196,-9.34821,3.1057158,0.16069725,8.752132,0.2731349,21.067675,-35.12753,57.507935,8.228511,-0.6860833,9.428624,5.7177887,-17.99931,11.239085,56.917786,-9.667872,-5.099684,-4.132858
28,10.455322265625,13.26144027709961,77.16680145263672,1.8109376784536273,-3.1317649893464554,62.9394639265646,-3.7865965,-6.1524243,11.931751,15.843986,-11.481584,8.401633,-15.374605,-21.908747,-20.332521,78.85049,-11.050326,-10.02594,2.9158385,0.25851122,9.086265,-0.01324935,21.154354,-35.04736,56.921074,7.438826,-1.0468316,9.853318,5.778414,-18.04322,10.97549,56.59193,-9.428225,-5.179456,-4.231128
29,10.857904434204102,13.749406814575195,77.26371002197266,1.750129134689316,-3.479629990900573,63.158183059208625,-2.4600756,-6.134444,11.530307,14.959797,-11.508383,8.085675,-16.053534,-22.035442,-20.067017,77.67648,-11.7760105,-10.158612,2.7239714,0.34952703,9.4071,-0.315251,21.25696,-34.97646,56.332233,6.4207635,-1.4017011,10.422494,5.8383536,-18.076885,10.760356,56.245186,-9.313222,-5.285479,-4.294463
30,11.262332916259766,14.215559005737305,77.3391342163086,1.685196052603915,-3.8136197561880603,63.38163569654454,-1.1684195,-6.098706,11.128114,14.112615,-11.558636,7.760268,-16.753242,-21.911234,-19.606367,76.2233,-12.32483,-9.867573,2.5327268,0.43462217,9.718576,-0.63875806,21.355982,-34.9162,55.76795,5.285145,-1.7651542,11.0678005,5.89489,-18.099472,10.5919485,55.886127,-9.27753,-5.412799,-4.3362613
31,11.654446601867676,14.658774375915527,77.39430236816406,1.625635784129529,-4.119485445105445,63.629856790875344,0.056758117,-6.057211,10.719088,13.325644,-11.635014,7.440088,-17.458586,-21.652723,-19.049044,74.56467,-12.704848,-9.408389,2.3355594,0.50206405,10.020966,-0.9523745,21.500807,-34.88556,55.174076,4.219352,-2.1242998,11.700628,5.96823,-18.11824,10.430495,55.49079,-9.29119,-5.5468736,-4.3652997
32,12.0382080078125,15.085932731628418,77.43612670898438,1.582521180541245,-4.381018063699526,63.92199684484723,1.1871545,-6.0208797,10.296411,12.611521,-11.738171,7.1381254,-18.161945,-21.368896,-18.488377,72.77701,-12.92616,-9.030594,2.1095238,0.54245466,10.28915,-1.2788178,21.654394,-34.897045,54.61912,3.425157,-2.4640667,12.249489,6.0390043,-18.120827,10.269622,55.098156,-9.32744,-5.670848,-4.4089675
33,12.428833961486816,15.516072273254395,77.46533966064453,1.5517414994567824,-4.592226113903174,64.26668501232689,2.2048972,-5.985595,9.859005,11.986599,-11.878707,6.8439817,-18.906277,-21.00336,-17.849203,70.86351,-12.922098,-8.877048,1.8543147,0.55512613,10.520156,-1.6184607,21.830225,-34.96516,54.09337,2.9919934,-2.789932,12.704732,6.1139197,-18.10599,10.102156,54.690895,-9.397161,-5.781774,-4.466319
34,12.828702926635742,15.960269927978516,77.4885025024414,1.528964477926635,-4.762142205951112,64.65332639234022,3.1274369,-5.9480553,9.409067,11.440573,-12.05292,6.554085,-19.671097,-20.5373,-17.11083,68.79635,-12.71952,-8.800076,1.5766635,0.5451945,10.720043,-1.9756731,22.020983,-35.081196,53.597813,2.8008373,-3.101073,13.108649,6.1907063,-18.074335,9.93978,54.27147,-9.509973,-5.8874674,-4.5300593
35,13.243019104003906,16.391691207885742,77.49193572998047,1.5236937252787515,-4.897052130303392,65.07123153798113,3.9831617,-5.91904,8.944283,10.938936,-12.2341385,6.290333,-20.368746,-20.123308,-16.445211,66.59733,-12.462305,-8.597829,1.2878478,0.51014245,10.895141,-2.3434536,22.22246,-35.23275,53.127354,2.7325006,-3.3656244,13.459296,6.2737336,-18.02348,9.766048,53.857265,-9.640002,-5.9895396,-4.604078
36,13.64901065826416,16.816486358642578,77.48944091796875,1.5414013249792482,-5.004981153190305,65.50972132022352,4.7994394,-5.9089837,8.461843,10.448484,-12.395976,6.074843,-20.922073,-19.904102,-16.028374,64.27704,-12.286995,-8.058662,1.0002313,0.44646937,11.050195,-2.7185106,22.42788,-35.409645,52.683586,2.6668642,-3.553794,13.753885,6.366163,-17.95128,9.56327,53.468548,-9.762945,-6.0896435,-4.693121
37,14.051159858703613,17.23064422607422,77.48246765136719,1.5946073025768797,-5.081160151363408,65.98072309112727,5.5612817,-5.9333835,7.947262,9.986224,-12.531458,5.9464746,-21.302734,-19.920288,-15.910316,61.77393,-12.228364,-6.933268,0.7047926,0.34444278,11.183161,-3.112527,22.632633,-35.617657,52.271584,2.600261,-3.6370316,13.984717,6.471462,-17.855684,9.3263,53.09742,-9.892985,-6.1901255,-4.8017745
38,14.467443466186523,17.657665252685547,77.46424102783203,1.6763831668329126,-5.1245806292297225,66.48488866753584,6.2622294,-5.9828525,7.404569,9.560508,-12.653174,5.8817234,-21.5599,-20.080828,-16.009518,59.079582,-12.190034,-5.386234,0.40072808,0.20967986,11.290541,-3.5291626,22.83516,-35.862637,51.897842,2.5859747,-3.6376283,14.157362,6.5869246,-17.737171,9.063278,52.739773,-10.037364,-6.2894173,-4.927236
39,14.8771333694458,18.098325729370117,77.45172119140625,1.7679256536059582,-5.146089656215226,66.99363326922074,6.929343,-6.0282607,6.861652,9.15216,-12.779527,5.8101954,-21.737942,-20.323454,-16.303307,56.284378,-12.114,-3.8192444,0.111773536,0.06411223,11.375824,-3.949989,23.032497,-36.12994,51.562637,2.5926301,-3.6031363,14.287269,6.708348,-17.595497,8.778712,52.419037,-10.160112,-6.3830204,-5.0620646
40,15.289213180541992,18.53766632080078,77.42298889160156,1.8511599827393395,-5.154924133646732,67.47816667348968,7.596654,-6.040552,6.346857,8.724016,-12.922206,5.662413,-21.884996,-20.59134,-16.755556,53.49868,-11.960616,-2.6345367,-0.13855186,-0.06986643,11.442299,-4.3566585,23.221394,-36.404507,51.26798,2.5887036,-3.581573,14.390182,6.830167,-17.431068,8.47771,52.15969,-10.225208,-6.4666367,-5.1987743
41,15.718175888061523,18.974424362182617,77.38716888427734,1.9189426497753026,-5.14384148996204,67.93715329908335,8.246626,-6.00685,5.870585,8.292874,-13.095254,5.4058123,-22.023415,-20.890253,-17.372944,50.755856,-11.713278,-1.9816141,-0.3469264,-0.18431817,11.4828415,-4.7538533,23.400314,-36.69162,51.02171,2.5719757,-3.5833437,14.468459,6.9518585,-17.241533,8.159868,51.96437,-10.20204,-6.536024,-5.3430715
42,16.143997192382812,19.413637161254883,77.34602355957031,1.974449445544556,-5.109601570428106,68.38467099924863,8.858782,-5.935902,5.4186854,7.8892794,-13.302031,5.083091,-22.132027,-21.230152,-18.171587,48.017895,-11.410438,-1.6220254,-0.52558357,-0.28349787,11.497002,-5.1498957,23.568464,-36.99552,50.82398,2.5583897,-3.5837984,14.514962,7.074669,-17.027275,7.823276,51.823048,-10.117152,-6.5947075,-5.4964905
43,16.56686782836914,19.84602165222168,77.29158782958984,2.01902706563828,-5.067392509716198,68.81413214965232,9.453176,-5.836085,4.985688,7.515433,-13.536877,4.736641,-22.18758,-21.573364,-19.121553,45.28101,-11.106288,-1.3815552,-0.67561895,-0.36674544,11.497949,-5.532775,23.724081,-37.30103,50.664425,2.540137,-3.5785353,14.530431,7.19764,-16.791632,7.4732265,51.738064,-10.018652,-6.6504307,-5.644711
44,16.998172760009766,20.292768478393555,77.230712890625,2.0569375160973293,-5.031186549686856,69.22000777219239,9.943914,-5.7095275,4.5748835,7.395006,-13.909775,4.406581,-22.161825,-21.884615,-20.192633,42.52117,-10.840947,-1.0885195,-0.7995069,-0.43739665,11.497665,-5.885841,23.864561,-37.586964,50.529785,2.5148861,-3.562861,14.515822,7.3191605,-16.541378,7.1153955,51.711853,-9.954175,-6.710392,-5.773134
45,17.44862937927246,20.756711959838867,77.1665267944336,2.0938838576940757,-5.005414020507889,69.59734006316587,10.432736,-5.57247,4.174539,7.3229957,-14.310675,4.0966024,-22.021933,-22.181286,-21.441465,39.69908,-10.620145,-0.6925744,-0.89432997,-0.49505177,11.50362,-6.2113137,23.988022,-37.85171,50.419277,2.481832,-3.5314171,14.462601,7.4397516,-16.277847,6.747516,51.745884,-9.934795,-6.782299,-5.8826356
46,17.879135131835938,21.201534271240234,77.09054565429688,2.1293271002811007,-4.982168201790807,69.94905621236752,10.929766,-5.423578,3.7882798,7.254488,-14.719463,3.7863023,-21.790659,-22.468801,-22.86181,36.830173,-10.418928,-0.28215703,-0.95915073,-0.5413934,11.507938,-6.514126,24.093678,-38.100983,50.33987,2.4462588,-3.4881685,14.373441,7.55991,-16.001293,6.3680577,51.837513,-9.9350195,-6.8602324,-5.978925
47,18.32821273803711,21.665555953979492,77.00961303710938,2.167100818650782,-4.960345555928465,70.27709981231634,11.43138,-5.266006,3.4235625,7.19592,-15.138147,3.4811177,-21.521717,-22.70508,-24.318836,33.969364,-10.228346,0.101216145,-0.9986195,-0.5850343,11.504493,-6.7889595,24.182224,-38.334743,50.293037,2.4003127,-3.443256,14.265368,7.6786356,-15.7147665,5.989277,51.98121,-9.943151,-6.9305153,-6.053597
48,18.777427673339844,22.148578643798828,76.92597198486328,2.2127353638802667,-4.938850011457864,70.58306281688367,11.907209,-5.102056,3.0899863,7.211541,-15.599861,3.186282,-21.273184,-22.859022,-25.67194,31.17756,-10.0436325,0.41056734,-1.0181618,-0.6364035,11.487159,-7.0308695,24.256245,-38.554184,50.280544,2.3337936,-3.4071403,14.155732,7.79465,-15.42531,5.6228523,52.170895,-9.94788,-6.9794316,-6.098289
49,19.243806838989258,22.6398868560791,76.83319091796875,2.2673663520518925,-4.919830836333967,70.8603611446115,12.399688,-4.933669,2.7914805,7.2224574,-16.066042,2.904668,-21.05585,-22.931377,-26.898384,28.456198,-9.881429,0.57143515,-1.0170568,-0.69357157,11.453339,-7.2270827,24.317215,-38.757755,50.301033,2.2482555,-3.3834746,14.047738,7.910908,-15.135288,5.263484,52.408703,-9.961748,-6.9998727,-6.1017156
50,19.706201553344727,23.126367568969727,76.72917938232422,2.3276044036016255,-4.9019576728669945,71.10953998126786,12.897542,-4.756068,2.5241747,7.2460704,-16.544344,2.6304386,-20.846788,-22.945353,-28.062391,25.784931,-9.745017,0.62217873,-0.99374264,-0.74995726,11.406525,-7.3833857,24.365738,-38.9464,50.35207,2.1442525,-3.3664432,13.93239,8.027052,-14.843836,4.9088874,52.695293,-9.98399,-7.000384,-6.0704303
51,20.190216064453125,23.617778778076172,76.6197280883789,2.391522506813982,-4.880617249196255,71.34434828624799,13.398784,-4.5709934,2.2761228,7.263906,-17.016459,2.3578448,-20.638538,-22.903662,-29.158041,23.161995,-9.605048,0.680697,-0.95344996,-0.81027395,11.3514805,-7.5116835,24.402195,-39.111473,50.42536,2.0245318,-3.351324,13.807928,8.137357,-14.554993,4.574611,53.021152,-9.983271,-6.9906955,-6.0227237
52,20.680566787719727,24.111833572387695,76.50224304199219,2.4583255955266754,-4.852739918479379,71.5811728287061,13.895257,-4.3817515,2.0332203,7.2744303,-17.474247,2.0827584,-20.411543,-22.804308,-30.184906,20.561085,-9.416916,0.86537933,-0.9062464,-0.87885624,11.294439,-7.62492,24.427631,-39.24638,50.512127,1.886673,-3.3336937,13.672161,8.236602,-14.274051,4.279215,53.375874,-9.926366,-6.9804707,-5.975916
53,21.17399787902832,24.613361358642578,76.38317108154297,2.53497620989852,-4.815456445254898,71.82112011025723,14.374467,-4.1943245,1.7919025,7.298199,-17.936153,1.7991505,-20.124668,-22.618793,-31.194462,17.8475,-9.136489,1.2315102,-0.852346,-0.96134937,11.235032,-7.7216506,24.442638,-39.340267,50.606476,1.730814,-3.3121443,13.516592,8.321098,-14.0026045,4.030541,53.766754,-9.782088,-6.9710064,-5.934922
54,21.66880989074707,25.1134033203125,76.25872039794922,2.6244383276894636,-4.778549225051643,72.0653797042259,14.860792,-4.014975,1.5496936,7.308914,-18.389149,1.5130429,-19.757471,-22.35317,-32.18304,14.98872,-8.752278,1.7033774,-0.79771096,-1.0621614,11.176227,-7.794672,24.44855,-39.398396,50.71248,1.5566604,-3.2890077,13.344447,8.394781,-13.741023,3.8200722,54.1952,-9.573996,-6.9572635,-5.889815
55,22.17685890197754,25.621688842773438,76.12334442138672,2.7373565635976402,-4.755076779744561,72.33038251677335,15.358334,-3.8518674,1.2945992,7.3257704,-18.826677,1.2405618,-19.323713,-22.063553,-33.068047,12.125577,-8.273901,2.207064,-0.762134,-1.1877595,11.131264,-7.8438134,24.447412,-39.43326,50.831684,1.3670946,-3.2651336,13.170294,8.465399,-13.491223,3.6420186,54.641018,-9.350185,-6.9398336,-5.8351035
56,22.692480087280273,26.120710372924805,75.98880767822266,2.8717083551513247,-4.756009062667669,72.62689777084164,15.882491,-3.705602,1.0198555,7.3365498,-19.225698,0.99639916,-18.799217,-21.767355,-33.78403,9.304824,-7.6609564,2.6688163,-0.7591368,-1.3372276,11.109865,-7.8702574,24.441437,-39.459423,50.96652,1.1628386,-3.2414973,13.009288,8.539817,-13.257972,3.4891548,55.08419,-9.15943,-6.919195,-5.765534
57,23.22037696838379,26.63489532470703,75.83706665039062,3.0764174647272418,-4.784417535690767,72.97042710376053,16.437521,-3.6312835,0.7037408,7.3439155,-19.595541,0.80530596,-18.738932,-21.878168,-34.093533,7.8330226,-7.6097345,3.1539516,-0.801556,-1.5607595,11.114536,-7.871695,24.432213,-39.468452,51.106205,0.9344157,-3.2008512,12.858823,8.621643,-13.043199,3.3603466,55.524124,-9.01209,-6.896983,-5.6666393
58,23.747207641601562,27.14630889892578,75.6882095336914,3.290425673962991,-4.824220879712253,73.32760459423712,17.00424,-3.5589607,0.3825098,7.351159,-19.94202,0.6471579,-18.94511,-22.17555,-34.121597,7.181805,-7.8700724,3.6615596,-0.85751617,-1.792007,11.133721,-7.8460035,24.418753,-39.45506,51.248432,0.6842087,-3.1481342,12.714137,8.702926,-12.847831,3.2589402,55.971844,-8.882883,-6.872821,-5.545075
59,24.281478881835938,27.670536041259766,75.53924560546875,3.474550849060626,-4.861299079562669,73.67939768495924,17.56582,-3.4401598,0.0837327,7.3597007,-20.247763,0.48120293,-19.320042,-22.55288,-33.927208,7.156059,-8.291843,4.0656877,-0.91308373,-1.988625,11.152426,-7.7944465,24.400204,-39.43882,51.411293,0.43270123,-3.1184716,12.584297,8.7825365,-12.673121,3.1852155,56.418964,-8.7651615,-6.8436966,-5.426345
60,24.813247680664062,28.200153350830078,75.40206909179688,3.610965841023423,-4.881451400436174,74.01357742255561,18.108397,-3.2492383,-0.172558,7.369217,-20.495266,0.2692307,-19.590893,-22.815798,-33.63508,7.1455636,-8.504567,4.241105,-0.95938146,-2.1291182,11.154844,-7.7202563,24.376034,-39.441956,51.614803,0.19983211,-3.1470268,12.4777,8.860966,-12.520072,3.1383727,56.856297,-8.652025,-6.806681,-5.3358803
61,25.344913482666016,28.72844696044922,75.28053283691406,3.687504138447258,-4.87403852315803,74.31656504894778,18.626604,-2.9792268,-0.35476872,7.37853,-20.698307,0.0018844936,-19.761189,-22.945545,-33.194366,7.15786,-8.434337,4.1021914,-0.98219824,-2.1960895,11.135477,-7.6248293,24.34429,-39.467216,51.866203,0.0032697206,-3.278389,12.400978,8.931818,-12.392765,3.1317534,57.29266,-8.542843,-6.758743,-5.2931895
62,25.880870819091797,29.256799697875977,75.17042541503906,3.718736966338692,-4.84578700721155,74.59639073063865,19.127134,-2.6487484,-0.47656533,7.388716,-20.860933,-0.3014671,-19.83781,-22.966705,-32.60901,7.1869106,-8.129112,3.7264538,-0.9915299,-2.2012982,11.101895,-7.5001826,24.307398,-39.49971,52.145306,-0.1728879,-3.4822145,12.346826,8.997185,-12.300974,3.1630816,57.727028,-8.436986,-6.7028646,-5.2764926
63,26.423763275146484,29.787343978881836,75.07234191894531,3.721958995918708,-4.8110394451382374,74.87501544748312,19.618395,-2.2703257,-0.58732724,7.3986883,-20.950449,-0.636161,-20.050468,-23.06358,-31.894775,7.7857785,-8.024557,3.242348,-1.0091753,-2.1754184,11.056953,-7.3458757,24.26725,-39.542477,52.447662,-0.3545269,-3.6814454,12.3041315,9.0706005,-12.231009,3.203177,58.13987,-8.335629,-6.6439085,-5.2570586
64,26.97431182861328,30.32354736328125,74.98438262939453,3.714290383759725,-4.783553551802598,75.17534549864916,20.101278,-1.8525652,-0.7380417,7.4208636,-20.941402,-0.9983116,-20.226517,-23.16714,-31.228073,8.566029,-8.057199,2.7773573,-1.0545495,-2.1491354,11.00109,-7.17397,24.21827,-39.606823,52.786037,-0.5699264,-3.7995255,12.263558,9.166797,-12.157946,3.220986,58.513996,-8.243232,-6.5862856,-5.209343
65,27.54429054260254,30.866634368896484,74.90758514404297,3.691997842775983,-4.782753417844217,75.51205581948969,20.530266,-1.3917503,-0.94909817,7.6026535,-20.922506,-1.3961437,-20.240612,-23.237406,-30.635607,9.34734,-8.186331,2.3439753,-1.1373856,-2.1244879,10.947352,-6.983259,24.160223,-39.69914,53.15317,-0.8652351,-3.8053377,12.248402,9.29253,-12.078811,3.205666,58.846992,-8.167867,-6.528254,-5.1171246
66,28.131099700927734,31.419771194458008,74.82567596435547,3.7214824776699245,-4.8170381390497266,75.91699063807883,20.798254,-0.96783113,-1.2495776,8.192975,-21.037508,-1.819365,-20.75741,-23.737776,-29.799988,11.646481,-9.123979,1.9086751,-1.2900871,-2.1669052,10.905133,-6.7677875,24.102531,-39.815025,53.54502,-1.2131722,-3.743413,12.253177,9.447026,-11.999738,3.1745787,59.142345,-8.104983,-6.4678464,-4.996945
67,28.743024826049805,31.987857818603516,74.75515747070312,3.7245607087564596,-4.839201663986985,76.34601838581719,20.970366,-0.49707595,-1.5792252,8.9359255,-21.12048,-2.2671385,-21.064596,-24.107004,-29.1141,13.62606,-9.844597,1.4621462,-1.4906851,-2.18398,10.848101,-6.5014186,24.068415,-39.922176,53.92839,-1.5298529,-3.6480048,12.226474,9.609372,-11.945371,3.1446548,59.397713,-8.033808,-6.411706,-4.863788
68,29.37541389465332,32.56818771362305,74.7033920288086,3.6907940512737247,-4.809342570758552,76.78218029246257,20.988827,0.029411424,-1.9144964,9.846619,-21.151854,-2.7287083,-21.293219,-24.35716,-28.626102,15.397809,-10.340019,1.0227786,-1.6776034,-2.1830883,10.73531,-6.2679014,24.022846,-40.088173,54.411427,-1.7417569,-3.55635,12.128819,9.795507,-11.856169,3.0758536,59.611813,-7.9666605,-6.363369,-4.759797
69,30.023279190063477,33.13880920410156,74.67601776123047,3.6040740849238833,-4.715553045001997,77.23638941290822,20.826124,0.640439,-2.2602916,10.955835,-21.153713,-3.2166371,-21.415798,-24.467657,-28.431908,16.971619,-10.661444,0.6078249,-1.8539999,-2.1500576,10.558907,-6.0817485,23.964088,-40.322323,55.015694,-1.8499246,-3.4827068,11.937412,10.011617,-11.715034,2.9489958,59.77402,-7.9117656,-6.324276,-4.6876817
70,30.686573028564453,33.696739196777344,74.67415618896484,3.4683683424725076,-4.572838312469978,77.71073281433095,20.527353,1.329235,-2.6294296,12.21171,-21.110016,-3.735332,-21.445175,-24.470877,-28.462053,18.442673,-10.873007,0.20301485,-2.055375,-2.0759208,10.335066,-5.8868537,23.915354,-40.579144,55.67049,-1.8871214,-3.4052663,11.676118,10.242918,-11.56552,2.8009293,59.89069,-7.855064,-6.292509,-4.625264
71,31.372011184692383,34.28449630737305,74.68067169189453,3.3000840901797552,-4.378735408731039,78.17401917234146,20.092247,2.0604336,-3.0090601,13.606631,-20.988846,-4.2631583,-21.489862,-24.394001,-28.559677,19.848331,-10.877876,-0.22296531,-2.2440822,-1.9753628,10.061318,-5.6850233,23.871656,-40.859352,56.36642,-1.8178084,-3.3072262,11.374954,10.480469,-11.402901,2.642895,59.98419,-7.7964077,-6.266769,-4.584399
72,32.06790542602539,34.863494873046875,74.70320129394531,3.1174449934340713,-4.133143064652886,78.59482177323191,19.52716,2.7952511,-3.3856344,15.124986,-20.754303,-4.7784867,-21.64917,-24.26015,-28.573505,21.20238,-10.5686655,-0.69762325,-2.3983536,-1.8593099,9.737365,-5.4606953,23.829937,-41.143147,57.07859,-1.6038307,-3.1727457,11.061721,10.708069,-11.239166,2.502437,60.07851,-7.727484,-6.2459536,-4.572435
73,32.773582458496094,35.42261505126953,74.7518539428711,2.923639023019159,-3.7915315390976994,78.9756331450058,18.787857,3.5324435,-3.768705,16.747831,-20.398298,-5.3132715,-22.043976,-24.063597,-28.436312,22.531307,-9.729345,-1.2925969,-2.5116765,-1.7250904,9.320335,-5.2280006,23.786476,-41.461105,57.825314,-1.1686174,-2.997879,10.724904,10.931974,-11.074394,2.3682249,60.165413,-7.645211,-6.230621,-4.610446
74,33.48644256591797,36.00587844848633,74.81243133544922,2.7112327626294213,-3.370312601121317,79.32745964546032,17.898705,4.284641,-4.1681323,18.463705,-19.926603,-5.868768,-22.587053,-23.793766,-28.253826,23.803303,-8.461633,-1.9556627,-2.5952737,-1.5691613,8.824546,-4.9917827,23.739302,-41.812878,58.616566,-0.5553941,-2.7942655,10.354276,11.158111,-10.905512,2.233496,60.237595,-7.553046,-6.2212605,-4.6870084
75,34.20783615112305,36.59925079345703,74.87628173828125,2.487842268919195,-2.9594509276094927,79.63186981220981,16.967363,5.035134,-4.5675077,20.269823,-19.322847,-6.3761954,-23.081675,-23.469683,-28.117458,24.979128,-7.15076,-2.533213,-2.663805,-1.3973782,8.336635,-4.7051454,23.69406,-42.11499,59.395218,0.10199519,-2.5679915,9.978419,11.364399,-10.761539,2.1381361,60.31903,-7.4469414,-6.216928,-4.7577014
76,34.931610107421875,37.176631927490234,74.94280242919922,2.257045952597329,-2.6468756429062905,79.87181018727603,16.09716,5.772246,-4.9459457,22.172424,-18.571882,-6.7717657,-23.339367,-23.105322,-28.100317,26.037865,-6.2017164,-2.8869555,-2.7053742,-1.2231684,7.93878,-4.3559084,23.644438,-42.322197,60.14185,0.66199106,-2.3235338,9.630555,11.542284,-10.634177,2.0945313,60.429188,-7.337801,-6.215803,-4.787017
77,35.6689453125,37.750919342041016,75.01483917236328,2.0151915411064003,-2.4649581686507807,80.03567664613271,15.35076,6.4961543,-5.299029,24.140757,-17.64648,-7.032859,-23.31533,-22.701803,-28.206692,27.021572,-5.765365,-2.924361,-2.7098377,-1.056621,7.6514764,-3.9398668,23.569355,-42.429096,60.895107,1.120569,-2.036437,9.333217,11.693332,-10.499145,2.114548,60.59174,-7.213965,-6.223142,-4.7815905
78,36.40713882446289,38.34883117675781,75.08785247802734,1.7553261085028513,-2.3615049508998207,80.13416908839548,14.661528,7.214145,-5.6310897,26.178692,-16.554714,-7.20471,-23.129314,-22.249203,-28.383583,27.96107,-5.637398,-2.7456071,-2.708535,-0.86434877,7.4349413,-3.4194224,23.503366,-42.427956,61.586124,1.5375242,-1.7109445,9.058228,11.812559,-10.420043,2.2059066,60.78445,-7.056279,-6.2397785,-4.73636
79,37.148372650146484,38.954978942871094,75.169189453125,1.4853110186579657,-2.2976463059251526,80.18442798287711,13.959734,7.9242945,-5.9310126,28.301214,-15.32219,-7.325587,-22.840004,-21.748365,-28.610134,28.825312,-5.695178,-2.5089822,-2.687479,-0.6644121,7.256618,-2.8721647,23.41983,-42.34008,62.261345,1.8976325,-1.3975302,8.786052,11.899653,-10.357496,2.3322136,60.98442,-6.9202476,-6.250112,-4.665761
80,37.89121627807617,39.60858917236328,75.26408386230469,1.212968212563308,-2.2366444596684696,80.20415981303677,13.1701,8.62232,-6.1928473,30.538475,-13.981634,-7.4308434,-22.495903,-21.198723,-28.869043,29.561283,-5.801949,-2.370136,-2.6330945,-0.45171383,7.100616,-2.328546,23.351421,-42.19261,62.861423,2.161203,-1.144576,8.486986,11.963691,-10.33036,2.4404907,61.142765,-6.847219,-6.242835,-4.551382
81,38.635337829589844,40.23124694824219,75.34761047363281,0.9416926464891023,-2.1828561538256057,80.16684090596681,12.314515,9.294363,-6.4155636,32.88242,-12.501176,-7.538399,-22.085564,-20.588675,-29.15718,30.130846,-5.9135942,-2.3417943,-2.5693026,-0.23524569,6.957294,-1.7816253,23.239511,-41.89582,63.458294,2.333548,-0.97334737,8.149085,11.966712,-10.332442,2.5893834,61.3001,-6.8722234,-6.2014294,-4.3851542
82,39.37185287475586,40.8264274597168,75.42533111572266,0.6708273294706603,-2.153123964607645,80.07374433653851,11.418505,9.939298,-6.6025777,35.32725,-10.874938,-7.6326294,-21.591503,-19.921392,-29.478807,30.561102,-6.1001124,-2.35244,-2.4658382,-0.0047397665,6.847224,-1.2129356,23.12564,-41.507877,63.99439,2.4053562,-0.85135186,7.784488,11.942926,-10.378291,2.740478,61.435642,-6.965322,-6.140274,-4.1557846
83,40.0978889465332,41.39639663696289,75.50811767578125,0.4014565799961373,-2.1314053013725713,79.98428961427159,10.416777,10.575171,-6.758931,37.899147,-9.177173,-7.689758,-21.044714,-19.219444,-29.829887,30.88858,-6.388827,-2.430776,-2.3578172,0.22786137,6.763225,-0.66740596,23.01929,-41.094738,64.46065,2.4207623,-0.75703925,7.427931,11.902287,-10.45608,2.8790028,61.527542,-7.0637064,-6.0803137,-3.9244578
84,40.82184982299805,41.95941925048828,75.59507751464844,0.13367809352740964,-2.100693211519381,79.95833865498766,9.239333,11.227406,-6.892285,40.630424,-7.4824395,-7.6758447,-20.475069,-18.506464,-30.2071,31.153198,-6.8085604,-2.605827,-2.273503,0.45926103,6.697337,-0.20092621,22.920013,-40.73849,64.862114,2.4171762,-0.6700961,7.11476,11.859232,-10.560467,2.9809802,61.550117,-7.1034803,-6.0425005,-3.7482095
85,41.54829406738281,42.511173248291016,75.6846923828125,-0.13320042861489365,-2.047380692588538,80.01183107994021,7.810869,11.918548,-7.0144024,43.625748,-5.6864142,-7.615787,-19.892673,-17.78111,-30.606195,31.367653,-7.424492,-2.9423454,-2.2185454,0.6887329,6.6399083,0.17152277,22.829317,-40.457653,65.20741,2.3649914,-0.5946577,6.852431,11.819848,-10.685885,3.027285,61.48482,-7.048745,-6.0352855,-3.628212
86,42.27131652832031,43.034423828125,75.7650375366211,-0.39621145502564764,-1.9839027823386048,80.11220882105447,6.181182,12.633858,-7.1242313,46.84095,-3.7888594,-7.499386,-19.282078,-17.035225,-31.021086,31.512445,-8.199581,-3.4088933,-2.1427076,0.8864972,6.599684,0.45993188,22.781223,-40.252632,65.493454,2.2447731,-0.5346921,6.622697,11.788211,-10.774601,3.0024016,61.344215,-6.9612117,-6.0455174,-3.5543919
87,42.97967529296875,43.555328369140625,75.85527038574219,-0.6555987231563143,-1.9313508114690647,80.24664257657415,4.4597073,13.3636055,-7.2063394,50.097626,-2.0280125,-7.2253137,-18.620111,-16.2731,-31.456152,31.558046,-9.009212,-3.8895564,-2.103208,1.1071541,6.5943193,0.7123406,22.71328,-40.038673,65.706825,2.1550372,-0.48045853,6.4220953,11.732977,-10.945023,2.9890168,61.164177,-6.8555636,-6.0640893,-3.513635
88,43.67837142944336,44.06903839111328,75.94842529296875,-0.9115086552159904,-1.9104373306131437,80.40261521475247,2.7551622,14.105348,-7.2371373,53.218307,-0.6439544,-6.685064,-17.885117,-15.504595,-31.917461,31.480778,-9.731541,-4.2663207,-2.03413,1.3250476,6.6384506,0.8989399,22.650105,-39.88504,65.85203,2.1502776,-0.41413143,6.247754,11.681399,-11.137356,2.9553707,60.954994,-6.808669,-6.079982,-3.5370631
89,44.356788635253906,44.56462097167969,76.039306640625,-1.1786824239480047,-1.926921625498133,80.59441489748338,1.0304414,14.928406,-7.1938367,56.288383,0.3529871,-5.695691,-17.049847,-14.72303,-32.434517,31.2556,-10.34953,-4.509708,-1.9354824,1.5498943,6.74528,0.9988038,22.591583,-39.805523,65.93382,2.2573202,-0.32252172,6.089515,11.6406355,-11.35501,2.905721,60.70456,-6.8561263,-6.096555,-3.638507
90,45.02275085449219,45.041934967041016,76.12310791015625,-1.4544024301256142,-1.9688070585367805,80.82320922084082,-0.7623974,15.847848,-7.093697,59.368145,1.0582354,-4.324642,-16.127783,-13.923308,-32.99427,30.897541,-10.923366,-4.678379,-1.8191388,1.7841132,6.9023824,1.0194789,22.536106,-39.78844,65.95514,2.4360516,-0.2175751,5.9519706,11.606765,-11.600963,2.836647,60.40752,-6.9598837,-6.117078,-3.804815
91,45.680721282958984,45.53779983520508,76.21185302734375,-1.7178563874600152,-2.031313001823287,81.05714106944546,-2.5275133,16.762209,-6.9750853,62.25355,1.3853568,-2.867694,-15.154603,-13.116493,-33.54456,30.437103,-11.444737,-4.7869883,-1.6942029,2.013915,7.0895724,1.0126027,22.480064,-39.783756,65.90521,2.6682222,-0.12250544,5.854514,11.554034,-11.872694,2.7577462,60.103825,-7.067429,-6.1313896,-4.015514
92,46.32215118408203,46.03942108154297,76.30075073242188,-1.9474943969265337,-2.110376559482526,81.26453297225471,-4.161949,17.53885,-6.875554,64.74604,1.2544533,-1.6579454,-14.167875,-12.316994,-34.03517,29.906979,-11.903472,-4.8525586,-1.5715741,2.2229822,7.286733,1.0296313,22.41986,-39.741222,65.77485,2.9340272,-0.06051117,5.817051,11.455039,-12.165591,2.6808305,59.834927,-7.126245,-6.1294723,-4.2508326
93,46.94103240966797,46.51191329956055,76.3918228149414,-2.1342857802648427,-2.2122148187321433,81.45164861698304,-5.6333265,18.116915,-6.819654,66.81988,0.44473895,-0.81624264,-13.166677,-11.540585,-34.466587,29.318182,-12.3011,-4.8623586,-1.4623015,2.4031956,7.4998045,1.0724609,22.35559,-39.655052,65.55398,3.2340353,-0.04023325,5.8616176,11.297249,-12.483003,2.6055164,59.615173,-7.1337857,-6.1036515,-4.5178657
94,47.54903793334961,46.99481964111328,76.48834228515625,-2.2870555051247408,-2.336759607190105,81.6314424495001,-6.994091,18.54152,-6.7847133,68.58889,-0.9376276,-0.19247015,-12.135066,-10.780751,-34.86227,28.654896,-12.639962,-4.8135595,-1.3615178,2.5623925,7.735915,1.1197584,22.287712,-39.546127,65.24934,3.577537,-0.047840524,5.9722977,11.095467,-12.826272,2.530934,59.42269,-7.112738,-6.06112,-4.8228593
95,48.14326477050781,47.47344970703125,76.58419799804688,-2.41183668323596,-2.471271400641674,81.7836165761429,-8.268135,18.834286,-6.7260013,70.06229,-2.4671345,0.2819606,-11.085231,-10.020796,-35.208996,27.903008,-12.917433,-4.739973,-1.2544726,2.7021196,7.976166,1.1807225,22.213661,-39.409306,64.88459,3.9566023,-0.072644986,6.113095,10.861931,-13.188922,2.4627557,59.2454,-7.0514402,-6.0147495,-5.1471014
96,48.73780822753906,47.954742431640625,76.68779754638672,-2.511098970047289,-2.602380765619026,81.88738967869419,-9.479346,19.028242,-6.5965767,71.2435,-3.7173662,0.6852732,-10.02811,-9.242795,-35.492615,27.046703,-13.129823,-4.674839,-1.1258941,2.824076,8.201442,1.2635878,22.129473,-39.23852,64.485954,4.3646717,-0.10426144,6.2484035,10.608414,-13.561149,2.4071963,59.072365,-6.9391484,-5.9771905,-5.4734535
97,49.31596755981445,48.4383544921875,76.79605102539062,-2.585400264065256,-2.734016184427056,81.93025119661895,-10.61461,19.137274,-6.3584824,72.10212,-4.532875,0.9960918,-8.952091,-8.434495,-35.70203,26.05961,-13.264783,-4.63065,-0.9642819,2.9239366,8.411859,1.3699166,22.03182,-39.033337,64.05735,4.823104,-0.14191389,6.383521,10.326798,-13.939827,2.3772178,58.91981,-6.7259345,-5.955708,-5.825611
98,49.884498596191406,48.91163635253906,76.90934753417969,-2.6326632520814424,-2.8711171095457093,81.92557475265363,-11.665018,19.149849,-6.0321813,72.64373,-5.150235,1.1887268,-7.8515735,-7.608293,-35.84729,24.953419,-13.325834,-4.587519,-0.77908593,3.002207,8.615318,1.4919043,21.91991,-38.79697,63.592262,5.329446,-0.1900295,6.5334954,10.01441,-14.326452,2.3657458,58.788254,-6.434555,-5.943237,-6.2049437
99,50.43644332885742,49.389564514160156,77.02299499511719,-2.6574462556136127,-3.002726913694248,81.89175541953826,-12.656127,19.061577,-5.654871,72.91619,-5.7294106,1.3414292,-6.7443132,-6.782239,-35.94576,23.762486,-13.329658,-4.530127,-0.5856606,3.067816,8.804287,1.6201049,21.794386,-38.53736,63.10294,5.8338118,-0.24768522,6.6772003,9.69083,-14.715737,2.3479042,58.64437,-6.1643357,-5.9302278,-6.5611486
100,50.96730422973633,49.85413360595703,77.13483428955078,-2.662481697354108,-3.1175318280536377,81.8470274904649,-13.613452,18.863949,-5.2667236,72.96631,-6.4304442,1.5299013,-5.6488857,-5.973965,-36.015877,22.52216,-13.293491,-4.444761,-0.39709884,3.1270025,8.970935,1.7441236,21.65702,-38.262596,62.602036,6.2882037,-0.3140418,6.7934623,9.376884,-15.098962,2.2961764,58.45404,-6.0160513,-5.9050465,-6.844988
101,51.4981575012207,50.321327209472656,77.24635314941406,-2.642834539839463,-3.2159315341430608,81.79980281110386,-14.54375,18.55765,-4.844132,72.79592,-7.34545,1.8186551,-4.557403,-5.1887784,-36.06809,21.217352,-13.215216,-4.320877,-0.21974397,3.173985,9.116307,1.8638866,21.509014,-37.96528,62.07796,6.6860204,-0.38894877,6.8753495,9.071166,-15.469556,2.192933,58.214764,-6.0653887,-5.843117,-7.031644
102,52.01106643676758,50.78179931640625,77.35204315185547,-2.595538071155446,-3.302542114651451,81.73912797184997,-15.428695,18.139515,-4.374097,72.37592,-8.369337,2.14693,-3.4615278,-4.419125,-36.09143,19.834768,-13.086606,-4.169499,-0.04231738,3.2025416,9.24335,1.9810638,21.351135,-37.647713,61.530876,7.050228,-0.47331697,6.9349246,8.765636,-15.827446,2.0529947,57.94276,-6.2448955,-5.756282,-7.152847
103,52.524356842041016,51.25065994262695,77.44975280761719,-2.5298362914356014,-3.372972817470607,81.65388042907632,-16.260672,17.597216,-3.913693,71.712204,-9.368168,2.4058974,-2.3837645,-3.6664042,-36.073544,18.421179,-12.920484,-4.0108805,0.14822705,3.2188036,9.346607,2.0880268,21.185732,-37.334362,60.98951,7.37467,-0.5670111,6.979,8.470614,-16.174074,1.8982335,57.633953,-6.439848,-5.6875334,-7.243808
104,53.01606750488281,51.71827697753906,77.5377426147461,-2.454261137582829,-3.4225388355379116,81.53250484762044,-17.034237,16.92558,-3.5187807,70.81083,-10.207826,2.4927676,-1.3422263,-2.9281938,-36.002724,17.012724,-12.728118,-3.8668277,0.36506394,3.2307093,9.421379,2.1762695,21.01502,-37.050064,60.4863,7.6525207,-0.67365205,7.0146127,8.197294,-16.510704,1.7498183,57.282295,-6.535636,-5.680144,-7.3398557
105,53.49603271484375,52.16960144042969,77.61979675292969,-2.3689332590690384,-3.4445396735810623,81.37068867366072,-17.74614,16.082851,-3.2221801,69.638,-10.872809,2.3407857,-0.34514922,-2.2040172,-35.874226,15.61366,-12.5042515,-3.7363667,0.61918205,3.2403376,9.457804,2.2416801,20.840368,-36.803967,60.019165,7.861701,-0.79627603,7.029772,7.96235,-16.840033,1.5988457,56.870033,-6.485649,-5.761541,-7.4429617
106,53.98185348510742,52.649330139160156,77.69608306884766,-2.270255248805787,-3.4430958951393436,81.1739880846877,-18.399315,15.096611,-2.9870229,68.19417,-11.426073,2.0287027,0.6188929,-1.4990553,-35.695553,14.210306,-12.249823,-3.6141825,0.9021004,3.2432165,9.461766,2.2903936,20.66177,-36.582104,59.57327,8.011983,-0.93376034,7.024914,7.7558117,-17.161196,1.4383911,56.40433,-6.3556433,-5.9036446,-7.535829
107,54.45635986328125,53.12495803833008,77.7638168334961,-2.1572355233837146,-3.4292085193349258,80.94547706813738,-18.998335,14.062303,-2.7641304,66.53886,-11.850739,1.6690457,1.5472127,-0.82823765,-35.4725,12.848958,-11.995502,-3.5144696,1.1990938,3.2357705,9.450549,2.3315415,20.480812,-36.374043,59.152412,8.145846,-1.0742769,7.0254116,7.549701,-17.471977,1.2907147,55.917374,-6.201382,-6.0664673,-7.6265745
108,54.91291809082031,53.58344268798828,77.81859588623047,-2.030033419736266,-3.41353933700561,80.68910632884118,-19.545828,13.066756,-2.5026124,64.734634,-12.129347,1.3658518,2.4395504,-0.20323071,-35.21228,11.5664425,-11.76918,-3.449914,1.4931998,3.2156882,9.441569,2.375104,20.300339,-36.169468,58.7589,8.304235,-1.2057625,7.056522,7.314204,-17.768257,1.1812775,55.442852,-6.0778236,-6.20991,-7.7239866
109,55.374656677246094,54.053707122802734,77.86592864990234,-1.8863841122981713,-3.407438336651358,80.40077423154379,-20.014616,12.09969,-2.1873848,62.758152,-12.227508,1.1128155,3.294716,0.35966307,-34.91103,10.403982,-11.584585,-3.4074845,1.7857069,3.1797771,9.443889,2.4321272,20.122473,-35.960136,58.38465,8.50039,-1.3349798,7.1374454,7.04669,-18.048775,1.1185157,54.978477,-5.996787,-6.3252087,-7.8247695
110,55.82979965209961,54.51769256591797,77.90100860595703,-1.7289426936675543,-3.4016861761956605,80.07995016586176,-20.406378,11.120158,-1.8479861,60.583427,-12.162602,0.85760474,4.110311,0.87152046,-34.570183,9.339898,-11.430064,-3.387125,2.0821667,3.1317496,9.447296,2.4965618,19.948633,-35.752296,58.028408,8.710756,-1.4645163,7.2504945,6.7590904,-18.314705,1.0908142,54.511066,-5.9299483,-6.4329915,-7.92696
111,56.2722282409668,54.96092987060547,77.91828918457031,-1.5694787900098235,-3.3766876502024323,79.73627356539741,-20.764645,10.160708,-1.497646,58.26774,-11.992646,0.6276756,4.8688216,1.3510112,-34.205067,8.358878,-11.308659,-3.4169955,2.3732705,3.0804226,9.440322,2.5573716,19.779987,-35.551823,57.698143,8.9278965,-1.5762901,7.364826,6.4449463,-18.563904,1.0920883,54.056923,-5.8722715,-6.5373373,-8.041525
112,56.717079162597656,55.420894622802734,77.9302749633789,-1.4176381109229255,-3.312966323926055,79.37919455151003,-21.132177,9.252979,-1.1467768,55.86811,-11.777572,0.45074934,5.551976,1.8158567,-33.82926,7.444342,-11.221218,-3.5243392,2.6501908,3.0318117,9.411253,2.6008327,19.618141,-35.366615,57.405094,9.142383,-1.6526315,7.4498105,6.097854,-18.793938,1.1154071,53.632496,-5.8199725,-6.6423435,-8.180261
113,57.15948486328125,55.86280822753906,77.9288558959961,-1.2794580632087318,-3.194698091730486,79.01254715173147,-21.53067,8.395874,-0.8012806,53.37512,-11.52026,0.34296307,5.8878694,2.1019287,-33.455025,7.2301946,-11.489881,-3.733505,2.914151,2.9860206,9.350038,2.6222727,19.463282,-35.18374,57.150127,9.367893,-1.6840038,7.487423,5.7165384,-19.002264,1.1537242,53.235634,-5.767267,-6.7574334,-8.358073
114,57.5965576171875,56.29300308227539,77.91669464111328,-1.153048752293993,-3.036783388087953,78.63161938249868,-21.923822,7.5666504,-0.4511318,50.757263,-11.1910095,0.27783722,6.138898,2.3794627,-33.072906,7.091111,-11.786746,-4.026901,3.1687644,2.9423285,9.266212,2.6282268,19.315704,-35.005753,56.92829,9.602351,-1.681638,7.4970613,5.304918,-19.188086,1.2113906,52.85912,-5.7189565,-6.877752,-8.5653305
115,58.023536682128906,56.71913146972656,77.88771057128906,-1.0350641537224077,-2.8655350718022086,78.23279170777037,-22.275278,6.76756,-0.08466992,48.045166,-10.795134,0.22193488,6.382349,2.6681185,-32.680763,6.93042,-12.082594,-4.3441424,3.410335,2.9051633,9.177232,2.6253328,19.17717,-34.85996,56.73927,9.817876,-1.6587858,7.5040913,4.864945,-19.352982,1.2975845,52.511818,-5.6864204,-6.9858913,-8.776901
116,58.4345817565918,57.164634704589844,77.850830078125,-0.9207584705063124,-2.7070061904510956,77.81131842463567,-22.551785,6.003572,0.30836678,45.268097,-10.336783,0.1457954,6.6670504,2.9644606,-32.275837,6.723868,-12.388249,-4.623786,3.6365812,2.877199,9.100013,2.6186883,19.0506,-34.776527,56.58308,9.983928,-1.628607,7.533982,4.3983593,-19.500229,1.4210944,52.2023,-5.680563,-7.0642366,-8.967368
117,58.84729766845703,57.59906005859375,77.79682922363281,-0.8106250615251432,-2.5673833811154236,77.36311518029486,-22.743147,5.2761335,0.71574634,42.399273,-9.803493,0.03256537,7.0118456,3.2739344,-31.863152,6.442147,-12.695687,-4.8644876,3.8460944,2.8627408,9.042658,2.6084516,18.93673,-34.76481,56.456314,10.088763,-1.581908,7.5981164,3.8964367,-19.630949,1.5845922,51.931175,-5.7091675,-7.1031046,-9.139995
118,59.249324798583984,58.028709411621094,77.7259292602539,-0.7113612734112246,-2.435332966543982,76.89054642292564,-22.874704,4.5840387,1.1307958,39.44795,-9.203529,-0.10285961,7.3316956,3.5647092,-31.445116,6.255309,-13.084734,-5.091295,4.0415545,2.8652995,8.997035,2.5921583,18.834679,-34.810642,56.358795,10.147419,-1.5158566,7.681314,3.3615704,-19.744894,1.7822803,51.69382,-5.764163,-7.1135507,-9.304306
119,59.64179611206055,58.46128463745117,77.64252471923828,-0.6300035382325765,-2.3084661519841916,76.39883497263662,-22.952957,3.9342937,1.5707995,36.460484,-8.553283,-0.23655297,7.58099,3.8183873,-31.011513,6.2762895,-13.60069,-5.282913,4.2261906,2.8896751,8.953115,2.5759358,18.74511,-34.9026,56.2904,10.175251,-1.4529667,7.768349,2.8134181,-19.8408,2.011195,51.48961,-5.8315215,-7.1090446,-9.443321
120,60.033721923828125,58.91459655761719,77.56411743164062,-0.5646977164485615,-2.182337534675817,75.89099733358638,-22.972733,3.3256013,2.063602,33.455494,-7.856734,-0.3403596,7.8410215,4.0834966,-30.540161,6.298082,-14.118708,-5.4215136,4.4061227,2.9282987,8.899041,2.5652206,18.67086,-35.030273,56.251335,10.186115,-1.4159881,7.8434463,2.2720144,-19.91645,2.2682297,51.31734,-5.897502,-7.102994,-9.540293
121,60.4337158203125,59.365821838378906,77.46843719482422,-0.5079275585016392,-2.062062613968688,75.36003775414639,-22.922812,2.755841,2.604933,30.414482,-7.1143327,-0.38776517,8.120451,4.35345,-30.011402,6.3183837,-14.645907,-5.484332,4.5788827,2.9769855,8.837049,2.5678952,18.615076,-35.197212,56.238216,10.169933,-1.416506,7.910917,1.7316183,-19.97043,2.5614126,51.18026,-5.9388905,-7.098316,-9.582563
122,60.82490158081055,59.81669616699219,77.3612289428711,-0.46391953661536495,-1.948819347871418,74.80311799493641,-22.798845,2.2272675,3.1851845,27.309958,-6.312981,-0.39886492,8.416934,4.6310015,-29.435402,6.342355,-15.188226,-5.4890237,4.754615,3.0371127,8.775504,2.5799992,18.589014,-35.411743,56.240227,10.123134,-1.4398997,7.9745245,1.1944969,-19.993893,2.87507,51.067398,-5.9750404,-7.0884204,-9.580442
123,61.21809005737305,60.276615142822266,77.24591827392578,-0.4526273941305291,-1.8352151828464354,74.22857732191092,-22.619383,1.7508984,3.8194253,24.178122,-5.449807,-0.41695642,8.722581,4.937079,-28.838734,6.3619046,-15.7183695,-5.4821334,4.934054,3.126093,8.7062,2.59137,18.576822,-35.65419,56.269127,10.070638,-1.4711527,8.021184,0.6666055,-20.000872,3.20981,50.98306,-6.0396695,-7.0719266,-9.554092
124,61.61455535888672,60.74162673950195,77.12117004394531,-0.4911156567865854,-1.7139411967103924,73.64371442578337,-22.400229,1.3382833,4.5233808,21.051594,-4.5231576,-0.48537025,9.027824,5.2924533,-28.246363,6.374298,-16.21243,-5.511494,5.130029,3.2575378,8.623905,2.5919342,18.574278,-35.91397,56.327187,10.036388,-1.493878,8.037258,0.1655679,-19.989716,3.5508668,50.921646,-6.1728606,-7.0477567,-9.523885
125,62.02101135253906,61.21091079711914,76.98335266113281,-0.5955867543418,-1.5758047998042792,73.04715869350706,-22.169178,1.001724,5.2706122,17.940247,-3.508181,-0.5914282,9.319798,5.715332,-27.661129,6.377183,-16.660423,-5.604176,5.352811,3.4449093,8.520894,2.5664644,18.581808,-36.208275,56.42497,10.030649,-1.5093147,8.016577,-0.2995863,-19.961739,3.882029,50.868378,-6.4038043,-7.013083,-9.491128
126,62.42078399658203,61.68138885498047,76.83719635009766,-0.7615154408756614,-1.4330443637202575,72.42687765764558,-21.90661,0.7419921,6.065667,14.825536,-2.4142146,-0.72042054,9.611091,6.200645,-27.060102,6.373801,-17.075863,-5.7341537,5.600677,3.6825137,8.396879,2.5249267,18.601128,-36.546078,56.56649,10.029924,-1.5233738,7.9709754,-0.75136524,-19.907375,4.228683,50.851227,-6.70162,-6.9697366,-9.454092
127,62.82521057128906,62.15447235107422,76.68292999267578,-0.9782678792648837,-1.3115153926256902,71.77379563056033,-21.556389,0.5493861,6.9719257,11.694292,-1.2795372,-0.9124289,9.937279,6.7361164,-26.427217,6.3628435,-17.469902,-5.8692455,5.8927364,3.9672358,8.290423,2.4767838,18.627256,-36.88221,56.72408,10.04336,-1.5292566,7.901154,-1.1551981,-19.840725,4.557161,50.835255,-7.040993,-6.922431,-9.396791
128,63.23020935058594,62.6180305480957,76.51465606689453,-1.2309141905750332,-1.2338002948697588,71.08207922682374,-21.026077,0.39889544,8.052428,8.445765,-0.09383991,-1.2072058,10.326109,7.3029704,-25.7504,6.3483543,-17.854609,-5.9769163,6.233625,4.284162,8.218055,2.4396713,18.657791,-37.18798,56.88397,10.057493,-1.5190741,7.8149652,-1.5132514,-19.759483,4.8768888,50.84115,-7.384603,-6.8769455,-9.321508
129,63.64686584472656,63.10379409790039,76.33467864990234,-1.5163135759426807,-1.2001394331060966,70.34384011753492,-21.06951,0.41515765,9.371514,6.695638,0.27835575,-1.6721152,10.77873,7.897416,-25.018217,6.3296456,-18.239126,-6.028884,6.623495,4.598648,8.168215,2.4247265,18.714994,-37.452652,57.05548,10.06884,-1.4893823,7.7086596,-1.8501959,-19.600058,5.21021,50.907352,-7.7656717,-6.836477,-9.256221
130,64.06258392333984,63.597660064697266,76.1554183959961,-1.8297676574508632,-1.1951179568455959,69.57140616485918,-21.779112,0.64167595,10.877375,6.590135,-0.20828678,-2.269493,11.272903,8.514935,-24.246778,6.310873,-18.617308,-6.046318,7.057335,4.9385242,8.145003,2.417256,18.780575,-37.681767,57.22876,10.096078,-1.447613,7.5731177,-2.1366577,-19.426704,5.5233235,50.978687,-8.184733,-6.7994647,-9.170969
131,64.48343658447266,64.08634948730469,75.97105407714844,-2.144561357763963,-1.2121439722365492,68.79675741471817,-22.408121,0.9115449,12.456589,6.516259,-0.68664,-2.8765228,11.797804,9.123721,-23.472477,6.2978497,-18.974522,-6.0691576,7.497784,5.28151,8.13994,2.4180894,18.845348,-37.886623,57.40241,10.127711,-1.3930752,7.432351,-2.381609,-19.255444,5.8357553,51.067112,-8.580507,-6.7576814,-9.059924
132,64.9045181274414,64.57052612304688,75.7939682006836,-2.438550299391565,-1.2429923109437075,68.05296785426849,-22.966255,1.1735908,13.98783,6.4743853,-1.146055,-3.3717592,12.347678,9.698113,-22.731327,6.2884245,-19.293133,-6.138151,7.9010863,5.5852103,8.146832,2.4366186,18.921745,-38.05741,57.568207,10.164438,-1.3234277,7.3092957,-2.6097262,-19.053326,6.1629777,51.200115,-8.915602,-6.702526,-8.927421
133,65.3238296508789,65.07005310058594,75.62310028076172,-2.6945391891170543,-1.2954574036207693,67.36246129022248,-23.424936,1.392943,15.512783,6.4308367,-1.5942764,-3.7307308,12.931443,10.211709,-22.045538,6.292644,-19.587463,-6.2651763,8.258562,5.8777537,8.191036,2.4546394,18.976562,-38.213818,57.72506,10.210069,-1.2389356,7.210114,-2.7752564,-18.90227,6.475415,51.31921,-9.1422615,-6.6254354,-8.738703
134,65.75838470458984,65.57276916503906,75.46107482910156,-2.9448054686494336,-1.3635100937870799,66.72099814813433,-23.812956,1.6173086,17.047655,6.420098,-2.046675,-4.011091,13.499532,10.686627,-21.41582,6.400875,-19.910625,-6.4291024,8.559015,6.155666,8.25048,2.4883125,19.033516,-38.338425,57.882484,10.264168,-1.1383078,7.12701,-2.9228678,-18.731125,6.80368,51.483494,-9.308852,-6.532299,-8.5261755
135,66.1981430053711,66.07498168945312,75.3116455078125,-3.1564914658572816,-1.432461782371935,66.1129511216747,-24.114813,1.803395,18.492916,6.3714447,-2.4308825,-4.197195,14.0698395,11.10183,-20.825008,6.532289,-20.198004,-6.603633,8.831912,6.383138,8.319203,2.5218236,19.091736,-38.436253,58.04386,10.316964,-1.0276574,7.0460114,-3.016247,-18.548773,7.137674,51.647617,-9.447511,-6.437178,-8.296288
136,66.63998413085938,66.58244323730469,75.17365264892578,-3.344841563083368,-1.4720835314959562,65.52191080850686,-24.396994,1.9712057,19.720049,6.3442817,-2.7343519,-4.2831297,14.615998,11.482457,-20.258478,6.6548257,-20.407146,-6.772997,9.07761,6.5505466,8.341513,2.5799818,19.164564,-38.49506,58.208237,10.351442,-0.9110711,6.9564605,-3.127893,-18.32073,7.519463,51.910698,-9.596816,-6.3651247,-8.07684
137,67.08812713623047,67.09764862060547,75.05130004882812,-3.497634342594466,-1.4857742109494405,64.96248425047929,-24.644794,2.0865626,20.69907,6.3230295,-2.9266088,-4.2242084,15.142923,11.815777,-19.737062,6.765089,-20.534899,-6.9398518,9.307542,6.662954,8.347665,2.6301708,19.241415,-38.529446,58.36908,10.372678,-0.78027946,6.8417654,-3.1847963,-18.089518,7.9176044,52.17027,-9.732894,-6.317353,-7.852078
138,67.53357696533203,67.61933135986328,74.94425201416016,-3.616227249764407,-1.4813363035609042,64.44111789767192,-24.85249,2.1469893,21.492548,6.317718,-3.041164,-4.035959,15.661138,12.100406,-19.26461,6.8629966,-20.591757,-7.1112294,9.49629,6.713726,8.339003,2.6937394,19.331814,-38.52706,58.522907,10.384147,-0.6350521,6.7134767,-3.2292595,-17.830603,8.351454,52.47979,-9.849902,-6.285472,-7.626916
139,67.992431640625,68.14984893798828,74.84761047363281,-3.720358110736712,-1.4581863796478012,63.9248828315626,-25.01729,2.187888,22.125328,6.309206,-3.1057675,-3.8005686,16.172499,12.355419,-18.797792,6.945021,-20.576506,-7.27215,9.690138,6.7484756,8.307901,2.7688577,19.416626,-38.500484,58.675175,10.384142,-0.49791265,6.5907865,-3.2120533,-17.595264,8.779618,52.7871,-9.978343,-6.259307,-7.3778872
140,68.4471435546875,68.69246673583984,74.76322174072266,-3.8142484936308603,-1.4138037001879438,63.39496195010453,-25.143938,2.2236915,22.620083,6.2935095,-3.1575606,-3.5972257,16.67207,12.580352,-18.310555,7.0228043,-20.493694,-7.401332,9.910064,6.789933,8.245129,2.8619676,19.477182,-38.451393,58.834454,10.372538,-0.39118147,6.495529,-3.1163564,-17.416656,9.179178,53.076447,-10.150584,-6.2303047,-7.089937
141,68.91316223144531,69.24061584472656,74.6845703125,-3.9141222849062576,-1.3357458037438013,62.84177297680877,-25.285583,2.292587,22.960882,6.3618236,-3.2285316,-3.4417748,17.151508,12.797621,-17.793238,7.086369,-20.342659,-7.4912724,10.09291,6.7851458,8.112974,3.0399497,19.55841,-38.305458,58.99919,10.353629,-0.3272286,6.4555397,-3.067209,-17.163357,9.659663,53.500328,-10.412989,-6.198188,-6.811122
142,69.38679504394531,69.8102798461914,74.62066650390625,-4.000469211395563,-1.234310870184717,62.28104955503663,-25.381298,2.3432188,23.148687,6.408198,-3.2546742,-3.2896276,17.615334,12.98349,-17.268894,7.14683,-20.128473,-7.5492387,10.309797,6.77249,7.949507,3.2217324,19.622242,-38.15455,59.179283,10.318021,-0.29451144,6.448189,-2.9280849,-16.952005,10.101329,53.90145,-10.728965,-6.1714325,-6.4931936
143,69.86943817138672,70.39228820800781,74.56184387207031,-4.079986338353306,-1.118652233883686,61.71675213351711,-25.441208,2.3889291,23.202953,6.460407,-3.282986,-3.1427274,18.072264,13.145505,-16.736654,7.204507,-19.841557,-7.592134,10.514099,6.744184,7.7581162,3.4396863,19.676805,-37.944668,59.356655,10.282241,-0.2668545,6.437908,-2.7658343,-16.746243,10.552942,54.33801,-11.058176,-6.137026,-6.164887
144,70.35246276855469,70.97504425048828,74.50945281982422,-4.154484410882016,-0.998806255572772,61.1499221611261,-25.45301,2.4315913,23.148754,6.5032377,-3.3442786,-3.0037632,18.530018,13.284308,-16.193039,7.2579765,-19.46738,-7.6366787,10.722177,6.7148,7.558429,3.6721337,19.714529,-37.684082,59.525444,10.253732,-0.21972834,6.385936,-2.5416765,-16.570341,10.97704,54.74801,-11.360689,-6.0811315,-5.825559
145,70.84070587158203,71.57393646240234,74.46614837646484,-4.221012552911829,-0.8791808236490588,60.56284563530839,-25.423122,2.484813,22.979279,6.551717,-3.45774,-2.8797383,18.991476,13.395562,-15.615559,7.312774,-19.013296,-7.689931,10.925738,6.6689596,7.3434434,3.9566216,19.7406,-37.32072,59.670456,10.258385,-0.1434625,6.2779856,-2.3091996,-16.395988,11.414743,55.20444,-11.655115,-5.9948235,-5.481009
146,71.34211730957031,72.18706512451172,74.43965911865234,-4.264820504965811,-0.7500054283095346,59.96339643949742,-25.335556,2.517769,22.693903,6.559551,-3.5801108,-2.7655504,19.445986,13.461166,-15.019483,7.371167,-18.484417,-7.7387276,11.040994,6.5626435,7.1057763,4.347849,19.763754,-36.77035,59.78433,10.312279,-0.05276706,6.1371455,-2.178832,-16.15748,11.962507,55.822067,-11.954943,-5.885626,-5.156293
147,71.85198211669922,72.81263732910156,74.41244506835938,-4.313734366612267,-0.618598841797067,59.37358116283717,-25.212397,2.5576203,22.310574,6.611215,-3.738415,-2.6553516,19.90023,13.5125675,-14.433693,7.4329557,-17.867954,-7.7790704,11.154097,6.4497714,6.854388,4.7351446,19.776663,-36.207943,59.91581,10.34772,0.04432841,5.978215,-1.9915042,-15.915647,12.464982,56.4254,-12.227678,-5.7697487,-4.836921
148,72.36978149414062,73.45470428466797,74.39277648925781,-4.3636399192238375,-0.49524956051651725,58.82555229222113,-25.023493,2.5747197,21.859848,6.683576,-3.9075232,-2.5378377,20.361681,13.546699,-13.902686,7.504593,-17.155165,-7.7975407,11.2499895,6.351026,6.6050305,5.092779,19.777914,-35.701347,60.069202,10.324465,0.13940196,5.8149214,-1.7180077,-15.713254,12.8822155,56.967365,-12.423162,-5.6693325,-4.5256944
149,72.89835357666016,74.09910583496094,74.37767028808594,-4.40306746910276,-0.39554556540357294,58.30114657879257,-24.711044,2.5721278,21.367964,6.743006,-4.137128,-2.485928,20.85563,13.552542,-13.4289465,7.586481,-16.37551,-7.789195,11.309798,6.2453723,6.3702884,5.4531,19.772966,-35.196762,60.238358,10.238693,0.23446648,5.629913,-1.3992832,-15.520453,13.254937,57.494453,-12.527918,-5.5865107,-4.2319903
150,73.43353271484375,74.7606430053711,74.36209106445312,-4.425788021295503,-0.30926897598896597,57.78481091394288,-24.303463,2.5587544,20.825203,6.8023534,-4.41928,-2.4790936,20.82676,13.391407,-13.114803,8.830839,-16.129763,-7.7415185,11.369396,6.132008,6.143439,5.811606,19.763758,-34.703266,60.41216,10.102153,0.33297655,5.4209857,-1.007943,-15.356959,13.568408,57.980373,-12.563505,-5.5120554,-3.9412827
151,73.9726333618164,75.43873596191406,74.35273742675781,-4.407400588965974,-0.2079188638458128,57.31503405483978,-23.870663,2.474123,20.221544,6.857966,-4.6223044,-2.361855,20.439648,13.100933,-12.919047,10.788449,-16.12815,-7.648308,11.376687,5.97666,5.9077787,6.162075,19.752502,-34.230663,60.593124,9.9428835,0.42912915,5.229977,-0.5815111,-15.208414,13.843867,58.44624,-12.544281,-5.441781,-3.6731594
152,74.53085327148438,76.12842559814453,74.34947204589844,-4.322570199457159,-0.06255739283187875,56.92670596101178,-23.488508,2.2575133,19.547987,6.91843,-4.6198874,-1.9790461,19.907942,12.718991,-12.784664,12.908833,-16.02476,-7.5059137,11.326306,5.7593718,5.649084,6.4680586,19.741627,-33.846222,60.787254,9.770231,0.51690525,5.097139,-0.09689616,-15.097453,14.050476,58.849377,-12.483137,-5.373407,-3.4310195
153,75.094482421875,76.82304382324219,74.3552474975586,-4.164602415771465,0.12095508109610677,56.61819393941532,-23.13049,1.8775395,18.76345,6.975421,-4.414346,-1.2475652,19.269438,12.241115,-12.717414,15.164028,-15.854473,-7.346896,11.15067,5.456774,5.3596005,6.7821903,19.731335,-33.488537,60.999725,9.602821,0.59241074,5.045794,0.36556807,-14.970012,14.261296,59.281265,-12.374001,-5.299482,-3.236659
154,75.66017150878906,77.53936004638672,74.36915588378906,-3.942014729054367,0.33122030975443106,56.36076343882954,-22.77292,1.3760842,17.898857,7.0348163,-4.058949,-0.26615217,18.549782,11.675258,-12.688208,17.532003,-15.610098,-7.164185,10.94907,5.097704,5.049472,7.0632057,19.725864,-33.22828,61.229023,9.404594,0.66103697,5.048642,0.9020007,-14.8765745,14.392702,59.649227,-12.215593,-5.225413,-3.0619164
155,76.22055053710938,78.25910186767578,74.38037109375,-3.6503618268717717,0.5907842583702066,56.1452574272658,-22.62064,0.84004885,17.059214,7.403125,-3.6556191,0.84687567,17.65546,11.002732,-12.645379,20.085646,-15.22166,-6.884429,10.716785,4.661381,4.712096,7.3062997,19.722847,-32.998024,61.46164,9.207683,0.7243588,5.0765305,1.4500786,-14.796202,14.486902,59.997272,-12.023166,-5.157906,-2.9209018
156,76.73941040039062,78.95822143554688,74.44161224365234,-3.2851500195255565,0.9253860296554084,55.966907246034985,-23.383099,0.50140965,16.349651,9.48922,-3.8864994,1.9683244,16.49754,10.215237,-12.533775,22.883205,-14.612154,-6.425414,10.470793,4.129424,4.3372283,7.488622,19.721708,-32.76371,61.687267,9.035535,0.7877867,5.1002245,1.9736586,-14.712275,14.554572,60.348446,-11.81686,-5.105015,-2.8230834
157,77.23060607910156,79.64544677734375,74.52037811279297,-2.8177948340033705,1.4416729796051246,55.82232797278472,-24.401682,0.06316054,15.800801,11.470765,-3.618214,3.2448092,14.911277,9.284037,-12.323992,26.010422,-13.793335,-5.7611184,10.239485,3.466846,3.8352299,7.587182,19.717596,-32.5378,61.89384,8.866895,0.8445068,5.121265,2.5045605,-14.656222,14.571945,60.65486,-11.583199,-5.0788727,-2.7591527
158,77.74996185302734,80.33805847167969,74.57540893554688,-2.2770699723821557,2.0924504000726127,55.72252398570651,-25.639414,-0.44340497,15.376243,13.456411,-2.994166,4.6884494,13.035058,8.275961,-12.011915,29.326542,-12.760716,-4.905421,9.995279,2.7164855,3.235757,7.622122,19.70923,-32.331417,62.08915,8.69719,0.89450014,5.1520824,3.0491695,-14.628851,14.548309,60.92113,-11.31456,-5.0719995,-2.726213
159,78.29132080078125,81.0501480102539,74.62191772460938,-1.7409387452954,2.671246642766135,55.68830507269272,-26.76096,-0.9260322,15.087137,15.373467,-2.317586,6.002485,11.213422,7.323713,-11.598033,32.58913,-11.441339,-3.8353376,9.714835,1.9885316,2.7153022,7.6018634,19.701412,-32.16649,62.29529,8.558548,0.9535091,5.1801934,3.6049702,-14.616254,14.486131,61.16938,-11.038338,-5.064762,-2.726882
160,78.83940887451172,81.76190948486328,74.66475677490234,-1.2771605370985049,2.9713169820267846,55.73696835296043,-27.44241,-1.3046268,14.910073,17.173813,-1.8966922,6.881859,9.756386,6.535795,-11.107594,35.623165,-9.790515,-2.5429118,9.3776245,1.3828776,2.4571316,7.530628,19.698355,-32.056274,62.533344,8.488839,1.0365235,5.191325,4.1716847,-14.605468,14.381539,61.41315,-10.7852545,-5.0378766,-2.761693
161,79.39500427246094,82.46952819824219,74.69184112548828,-0.9020393149986028,2.8780254979972844,55.887612220699616,-27.529959,-1.5464453,14.865288,18.870678,-1.7671462,7.077833,8.807411,5.9686103,-10.508125,38.41355,-7.781179,-0.95232373,9.007197,0.91566527,2.5675678,7.3798475,19.710842,-32.05451,62.84249,8.525114,1.164393,5.179578,4.7949014,-14.577288,14.158106,61.63641,-10.587187,-4.989342,-2.8573792
162,79.95565795898438,83.1688003540039,74.71377563476562,-0.5775699306078371,2.522653941368313,56.12933364428174,-27.244326,-1.6877426,14.918949,20.54158,-1.8094771,6.8122134,8.141978,5.575101,-9.802318,41.11608,-5.496168,0.9302271,8.629745,0.51332927,2.9243653,7.1460767,19.758205,-32.17888,63.19678,8.618044,1.3263022,5.1525545,5.4695826,-14.518749,13.817732,61.83914,-10.4236555,-4.9292965,-3.0104525
163,80.51374816894531,83.8479995727539,74.73365020751953,-0.28780104189432215,2.0659484783687128,56.43036537703319,-26.8028,-1.780068,14.963389,22.18178,-2.072505,6.464703,7.5134115,5.290347,-9.0739155,43.824883,-3.0461829,2.972332,8.219125,0.15179446,3.3871665,6.8646603,19.831055,-32.340744,63.526478,8.709155,1.4826964,5.1137843,6.1206717,-14.453799,13.455976,62.035976,-10.266049,-4.858276,-3.164379
164,81.05072784423828,84.51547241210938,74.76044464111328,-0.020180887757928305,1.6664617273134046,56.757543038201725,-26.408941,-1.8963791,14.901737,23.75055,-2.5895097,6.401051,6.6839604,5.045134,-8.403071,46.618473,-0.51824117,5.032396,7.7953925,-0.18438284,3.813519,6.5389347,19.92441,-32.5124,63.774982,8.724741,1.6016685,5.0689096,6.7111893,-14.399632,13.115066,62.222084,-10.098085,-4.7776046,-3.2608223
165,81.55892181396484,85.15231323242188,74.78704833984375,0.23018981880886866,1.3380772965051846,57.13961688622924,-26.120598,-2.0927312,14.695814,25.296213,-3.4694746,6.777342,5.579258,4.8386865,-7.789821,49.58238,2.3235512,7.311403,7.3249984,-0.4924641,4.209745,6.1547813,20.036098,-32.681183,63.942116,8.615835,1.6740997,4.9903526,7.2370195,-14.366764,12.76945,62.38645,-9.919092,-4.6774616,-3.2694032
166,82.059326171875,85.76882934570312,74.8062973022461,0.4437116866903236,1.0049696388783045,57.58185253782282,-25.830008,-2.3602078,14.404656,26.798738,-4.630224,7.3711834,4.3171773,4.7603645,-7.159449,52.669247,5.4319253,9.849814,6.8124776,-0.7510914,4.638232,5.7141848,20.164057,-32.86771,64.050804,8.432664,1.7183695,4.8841805,7.7254276,-14.354156,12.403439,62.522686,-9.734893,-4.5602646,-3.2230132
167,82.56098175048828,86.35979461669922,74.815673828125,0.6169706142778503,0.6924395730238919,58.010495786095106,-25.504784,-2.6640532,14.0952015,28.14827,-5.844432,7.9840236,2.9494634,4.7924237,-6.524703,55.76403,8.315968,12.209252,6.3253546,-0.96067244,5.042164,5.2449837,20.302198,-33.089306,64.08939,8.242088,1.7386445,4.8084583,8.177096,-14.3670635,12.089772,62.64104,-9.536442,-4.44497,-3.159641
168,83.03707885742188,86.96857452392578,74.83438873291016,0.7518042126438457,0.42683612654060127,58.36276240397917,-25.093927,-2.9420257,13.820455,29.217813,-6.908843,8.414329,1.5498455,4.8250027,-5.9758058,58.711887,10.534131,13.8633585,5.9155025,-1.120975,5.36491,4.776398,20.44251,-33.358692,64.04676,8.109966,1.7378798,4.821649,8.592608,-14.414956,11.908104,62.752995,-9.312562,-4.3505993,-3.1167774
169,83.49600219726562,87.58348083496094,74.86968994140625,0.8549972826288711,0.24506111016694318,58.61865785843962,-24.597828,-3.1488323,13.595278,29.959429,-7.8113394,8.607656,0.060352642,4.7919264,-5.518739,61.53143,12.163941,14.484489,5.5964184,-1.2313893,5.564054,4.3025064,20.580023,-33.69973,63.915737,8.009788,1.7020276,4.956026,8.960631,-14.514812,11.913159,62.874546,-9.005714,-4.2814784,-3.1031222
170,83.94442749023438,88.17471313476562,74.91255950927734,0.9385417856255734,0.12574035104394438,58.81707436387354,-24.034054,-3.3101764,13.389715,30.449768,-8.663622,8.677306,-1.5248487,4.641752,-5.186018,64.26822,13.438034,14.304163,5.329802,-1.2963992,5.680284,3.8133051,20.71179,-34.092937,63.704685,7.9218674,1.6333734,5.175277,9.286359,-14.67028,12.058263,62.992523,-8.63564,-4.2278795,-3.096401
171,84.3983154296875,88.78558349609375,74.99054718017578,1.0156767359759278,0.007020887332808196,58.98865675903959,-23.363462,-3.4582365,13.18382,30.736662,-9.455035,8.668361,-3.052922,4.2196627,-5.121118,66.81728,14.156719,13.577817,5.0870376,-1.3295236,5.7810307,3.3318422,20.83325,-34.483845,63.42585,7.925851,1.5614681,5.435878,9.593727,-14.8651905,12.2675,63.078083,-8.311242,-4.187601,-3.0892003
172,84.84811401367188,89.39148712158203,75.09117889404297,1.0988324002544563,-0.17381127143197928,59.16421059916651,-22.544193,-3.6374052,12.958624,30.858837,-10.168306,8.628292,-4.371557,3.386454,-5.4326515,69.088875,14.090749,12.590373,4.84048,-1.3499539,5.9328666,2.8747923,20.940748,-34.82159,63.105972,8.0996475,1.5116804,5.6962023,9.901312,-15.074254,12.464321,63.109844,-8.143334,-4.1581087,-3.077494
173,85.2974624633789,90.02965545654297,75.21488189697266,1.2008170613375384,-0.44505576482547693,59.3453088475756,-21.529444,-3.873517,12.7116375,30.78866,-10.795564,8.550873,-5.391627,2.0330496,-6.162658,71.08735,12.835106,11.36706,4.5900955,-1.3706595,6.156713,2.444097,21.033785,-35.11589,62.753365,8.669497,1.5199842,5.89657,10.205501,-15.288953,12.66596,63.09816,-8.204047,-4.1452465,-3.0585058
174,85.74908447265625,90.6422348022461,75.33189392089844,1.312368843839267,-0.7714694335205161,59.52091170646695,-20.350605,-4.133829,12.445763,30.516792,-11.345012,8.414733,-6.1926265,0.2666158,-7.185333,72.865616,10.577909,9.824794,4.346666,-1.3848616,6.4155116,2.0252223,21.113924,-35.38909,62.36543,9.524513,1.5636541,6.076591,10.491457,-15.511465,12.899668,63.060894,-8.423778,-4.1481256,-3.0391808
175,86.19623565673828,91.2383804321289,75.45365142822266,1.4121132103066125,-1.1205089805005881,59.703300170712275,-19.087076,-4.384108,12.153504,30.11727,-11.827917,8.249034,-6.877085,-1.7160888,-8.36306,74.41532,7.971574,8.09306,4.1013565,-1.3824067,6.687721,1.614842,21.182789,-35.609505,61.941097,10.239317,1.5905977,6.343897,10.765866,-15.727524,13.101787,62.988117,-8.702949,-4.153963,-3.0308876
176,86.64985656738281,91.8267593383789,75.59407806396484,1.4854470528711259,-1.4592554374787359,59.9046890388188,-17.812988,-4.59987,11.833776,29.652147,-12.250342,8.086744,-7.5569277,-3.753964,-9.592784,75.73178,5.683514,6.248086,3.848144,-1.3626877,6.950803,1.2059919,21.2444,-35.75304,61.47982,10.3846655,1.5501662,6.8072815,11.034925,-15.914446,13.205115,62.874744,-8.945145,-4.1502204,-3.0472922
177,87.10662078857422,92.4145278930664,75.73979949951172,1.5343378750657288,-1.7833767716157782,60.12882161483333,-16.532162,-4.7807307,11.491907,29.118946,-12.602121,7.9353876,-8.2506895,-5.9289813,-10.969521,76.83737,3.8470201,4.1793194,3.5935783,-1.338237,7.1971946,0.7926696,21.304504,-35.800865,60.972794,9.683503,1.4054786,7.594369,11.299938,-16.054798,13.189057,62.725853,-9.171159,-4.1280684,-3.0971537
178,87.56726837158203,92.98196411132812,75.89205169677734,1.562953195398651,-2.1104003238374878,60.370258121825955,-15.209683,-4.9358754,11.126061,28.49366,-12.885749,7.778419,-8.878238,-8.257038,-12.522607,77.728096,2.0763843,1.9114563,3.3421586,-1.3116646,7.4385247,0.38047776,21.368042,-35.774208,60.424065,8.421765,1.1730585,8.610085,11.552837,-16.14742,13.08703,62.55481,-9.421919,-4.095982,-3.1760716
179,88.03484344482422,93.55638885498047,76.05435180664062,1.5666815988013352,-2.4383830418865884,60.627165919344975,-13.859386,-5.0629406,10.730458,27.797457,-13.122952,7.615447,-9.43073,-10.521901,-14.083059,78.36774,0.293803,-0.33578423,3.084509,-1.2716955,7.6813745,-0.02329683,21.43694,-35.71378,59.85538,7.01006,0.88651645,9.630844,11.787165,-16.195139,12.915119,62.365982,-9.6285095,-4.0673,-3.2770374
180,88.50218963623047,94.1294174194336,76.21815490722656,1.5410164039991412,-2.7630815254662844,60.89592375493533,-12.497922,-5.1578054,10.301545,27.05208,-13.335457,7.4448485,-9.927268,-12.513074,-15.47931,78.71762,-1.538956,-2.3489494,2.814629,-1.20751,7.9312887,-0.4119225,21.508844,-35.655235,59.289146,5.862672,0.6028775,10.43894,11.997955,-16.204657,12.685312,62.160675,-9.723322,-4.055438,-3.392897
181,88.97505187988281,94.68669891357422,76.3801040649414,1.476956646571656,-3.0794244558207224,61.17791414983215,-11.128207,-5.213687,9.827762,26.250666,-13.521208,7.2661214,-10.388555,-14.203117,-16.715954,78.76338,-3.4757292,-4.159143,2.5221312,-1.1045908,8.185025,-0.7869832,21.576866,-35.60507,58.73547,5.0798697,0.35144615,10.961397,12.185276,-16.176315,12.375751,61.932415,-9.660511,-4.0602407,-3.5383208
182,89.44206237792969,95.24880981445312,76.5470962524414,1.3780938941114071,-3.388140923611049,61.471892987420944,-9.745343,-5.228722,9.318591,25.387383,-13.674607,7.0779967,-10.82032,-15.677502,-17.883629,78.52499,-5.458604,-5.8428364,2.2189138,-0.970676,8.440182,-1.1545422,21.642328,-35.54828,58.18318,4.442668,0.107709885,11.321359,12.354757,-16.108849,11.9837,61.67886,-9.486106,-4.0765576,-3.7106516
183,89.89427947998047,95.79208374023438,76.70833587646484,1.2617383864348621,-3.6943233510945808,61.76983914684341,-8.356808,-5.2099733,8.803904,24.489965,-13.805846,6.8783484,-11.235412,-16.924526,-18.941317,78.01373,-7.3239293,-7.281941,1.924871,-0.828788,8.702846,-1.519899,21.708439,-35.491093,57.632095,3.8758879,-0.13974005,11.601585,12.505047,-16.006342,11.559082,61.41016,-9.267992,-4.110083,-3.8774364
184,90.3497314453125,96.33100128173828,76.85493469238281,1.14785865728113,-4.00355055147435,62.06473828888092,-6.9674,-5.1693206,8.312725,23.584023,-13.925882,6.6676803,-11.644859,-17.953554,-19.85414,77.243614,-8.90141,-8.3764515,1.6509842,-0.6981299,8.980205,-1.8850867,21.775412,-35.43389,57.07969,3.3027709,-0.4059354,11.883394,12.635725,-15.884598,11.16051,61.13085,-9.068981,-4.165737,-4.003134
185,90.7961654663086,96.86056518554688,76.99309539794922,1.0357978877402674,-4.329825259157033,62.348345373079276,-5.546941,-5.107086,7.859657,22.64289,-14.026508,6.443158,-12.042081,-18.791979,-20.638023,76.19652,-10.12371,-9.120023,1.4028932,-0.57515186,9.287655,-2.2342765,21.840982,-35.344982,56.50921,2.6529028,-0.7127082,12.173438,12.752632,-15.754914,10.784458,60.82938,-8.877667,-4.2518053,-4.0659304
186,91.24662017822266,97.38939666748047,77.12033081054688,0.920646921113543,-4.66702104961382,62.62748871164511,-4.1001873,-5.024828,7.429263,21.660957,-14.104953,6.207888,-12.429977,-19.458672,-21.32105,74.8761,-11.068306,-9.58968,1.1719378,-0.45652428,9.619524,-2.5684407,21.910418,-35.233616,55.91992,1.9823767,-1.0450722,12.43174,12.854164,-15.606986,10.406884,60.504585,-8.669469,-4.363095,-4.087516
187,91.70585632324219,97.92613983154297,77.2329330444336,0.815466206874133,-4.992000807186563,62.91804709829478,-2.6774457,-4.938889,7.003601,20.681753,-14.173306,5.973937,-12.831101,-19.962086,-21.888073,73.32737,-11.779623,-9.824219,0.9325662,-0.34747612,9.951188,-2.9062257,21.97589,-35.14243,55.33447,1.413269,-1.3655685,12.670698,12.935208,-15.466536,10.067547,60.161526,-8.474459,-4.4837713,-4.0900145
188,92.16104125976562,98.44282531738281,77.32559967041016,0.7317579590733896,-5.282433026136645,63.23598519980627,-1.3281059,-4.866655,6.5633464,19.747988,-14.244069,5.7541986,-13.268104,-20.311533,-22.316473,71.59492,-12.304006,-9.860399,0.6888068,-0.2767543,10.259229,-3.2765524,22.061663,-35.14442,54.767796,1.0607374,-1.6331339,12.903789,12.988544,-15.301668,9.777136,59.821663,-8.344285,-4.5987954,-4.1071887
189,92.60476684570312,98.95625305175781,77.41080474853516,0.6737715614155299,-5.539487260127777,63.58446458862296,-0.05051609,-4.8190427,6.102704,18.85356,-14.308061,5.563729,-13.762747,-20.48901,-22.548838,69.66935,-12.6031685,-9.714081,0.41921854,-0.24037547,10.546418,-3.6730917,22.161627,-35.24734,54.213234,1.005212,-1.8284682,13.139728,13.008678,-15.139377,9.572708,59.472313,-8.279673,-4.706926,-4.1310964
190,93.05748748779297,99.48493194580078,77.48230743408203,0.6384526881619573,-5.773363661149166,63.955945746774205,1.185409,-4.7906103,5.629781,17.969236,-14.361664,5.396611,-14.293662,-20.522121,-22.607758,67.53624,-12.67027,-9.388217,0.13423288,-0.2331477,10.824373,-4.0840497,22.276005,-35.421978,53.65808,1.165555,-1.9731549,13.37137,13.002093,-14.977678,9.430686,59.107845,-8.260815,-4.8153687,-4.1502647
191,93.50794219970703,99.97267150878906,77.52433776855469,0.6197419690054727,-5.976913567998866,64.35079626142698,2.353173,-4.7688603,5.147573,17.140846,-14.431472,5.2334476,-14.822205,-20.483772,-22.589365,65.2361,-12.601371,-8.895,-0.15836304,-0.24997902,11.079982,-4.5066333,22.403038,-35.63871,53.10767,1.4253674,-2.0915117,13.588661,12.97885,-14.812936,9.3171,58.7422,-8.278765,-4.9210906,-4.1791773
192,93.96442413330078,100.4552001953125,77.54864501953125,0.6131434973729191,-6.140907135179806,64.7695066451258,3.4321313,-4.7403955,4.6577806,16.398794,-14.540816,5.050707,-15.311749,-20.438457,-22.595213,62.802986,-12.487493,-8.239619,-0.45036748,-0.283174,11.299583,-4.9394064,22.539381,-35.867687,52.569214,1.6690508,-2.2087438,13.781304,12.949186,-14.639315,9.198681,58.389774,-8.324024,-5.0209455,-4.2324433
193,94.42829132080078,100.95999145507812,77.5609359741211,0.6132444048845122,-6.26100711236778,65.22631906913008,4.412537,-4.7010202,4.1490493,15.748059,-14.693746,4.8267817,-15.750151,-20.380718,-22.63973,60.196625,-12.314505,-7.342552,-0.7528568,-0.32870835,11.475915,-5.3951807,22.68604,-36.12051,52.04262,1.8973044,-2.3304746,13.94297,12.913446,-14.454246,9.079758,58.04814,-8.403708,-5.111149,-4.324278
194,94.89165496826172,101.45875549316406,77.55943298339844,0.6237329981270688,-6.341987966100018,65.71743463821969,5.305979,-4.6571026,3.62304,15.174345,-14.877248,4.5773473,-16.151648,-20.287535,-22.672585,57.402756,-12.045804,-6.235491,-1.0653919,-0.38994166,11.616449,-5.8728166,22.843416,-36.40824,51.5263,2.161232,-2.443544,14.080507,12.86615,-14.258235,8.972138,57.71309,-8.520788,-5.1941276,-4.4445577
195,95.3560791015625,101.94570922851562,77.54605102539062,0.6485453516059132,-6.3906141805819665,66.21603105081468,6.1312428,-4.6117024,3.1012855,14.658616,-15.084739,4.3340607,-16.527042,-20.190342,-22.701427,54.500153,-11.732859,-5.0820055,-1.3624774,-0.46930644,11.728596,-6.352352,23.005505,-36.702473,51.030014,2.4188087,-2.546159,14.20437,12.809719,-14.050513,8.85312,57.39739,-8.660627,-5.276392,-4.5715184
196,95.81684112548828,102.4246826171875,77.51618194580078,0.6923818193154103,-6.413400399970811,66.69469711601731,6.9010553,-4.5684304,2.6063013,14.194973,-15.315594,4.1294527,-16.889307,-20.118416,-22.73502,51.570137,-11.430209,-4.0418425,-1.6172714,-0.5685512,11.819146,-6.8170786,23.162682,-36.9752,50.569542,2.6290162,-2.6370606,14.324929,12.746574,-13.830707,8.699094,57.11469,-8.808935,-5.364628,-4.683606
197,96.28469848632812,102.90299987792969,77.47671508789062,0.7604947889031143,-6.403014922107869,67.15715174949169,7.597804,-4.5344787,2.137859,13.795301,-15.568987,3.9852812,-17.248365,-20.076067,-22.768497,48.595497,-11.132698,-3.1276147,-1.8260823,-0.69269186,11.880882,-7.279214,23.30866,-37.230152,50.156567,2.7889574,-2.7145479,14.447208,12.682037,-13.598072,8.492544,56.861492,-8.978404,-5.4746842,-4.7716055
198,96.75466918945312,103.38822937011719,77.42325592041016,0.8491047182048804,-6.359051297222071,67.61440636176151,8.219406,-4.506838,1.6853383,13.461619,-15.84639,3.8791327,-17.594734,-20.049255,-22.799301,45.54202,-10.817602,-2.264631,-2.0005774,-0.8358195,11.911404,-7.7498727,23.441277,-37.48146,49.79193,2.917988,-2.7806168,14.565721,12.615153,-13.3523855,8.247928,56.633335,-9.171512,-5.5983486,-4.8485446
199,97.22984313964844,103.88177490234375,77.36907196044922,0.949189899789419,-6.298803058211392,68.04909752899619,8.809773,-4.475462,1.2560865,13.158163,-16.143415,3.7774808,-17.914894,-20.037127,-22.841,42.46898,-10.510321,-1.4769195,-2.1365423,-0.98622143,11.925435,-8.209485,23.556828,-37.71342,49.47636,3.0117836,-2.8396015,14.676025,12.537473,-13.098245,7.988576,56.442017,-9.359181,-5.705837,-4.9267755
200,97.7149429321289,104.37313079833984,77.30378723144531,1.0521533453741048,-6.23870633646208,68.4436150387926,9.420119,-4.4289327,0.8574918,12.833688,-16.447739,3.646508,-18.195555,-20.035126,-22.910187,39.43341,-10.234465,-0.7865999,-2.2325866,-1.129543,11.938056,-8.636572,23.651186,-37.907722,49.209686,3.0652575,-2.8959427,14.773609,12.440009,-12.841972,7.741758,56.29886,-9.509983,-5.7672906,-5.0172954
201,98.19861602783203,104.86029052734375,77.22403717041016,1.1557561603599515,-6.1737938905256895,68.79516466706293,10.042292,-4.3611817,0.49311322,12.491713,-16.76884,3.4685497,-18.442507,-20.036686,-23.001596,36.42194,-10.002287,-0.1901495,-2.2890687,-1.260645,11.947018,-9.032154,23.721424,-38.059216,48.995323,3.0645745,-2.9540594,14.866123,12.3158865,-12.586004,7.5083447,56.20776,-9.609771,-5.7607307,-5.1323185
202,98.68087005615234,105.35595703125,77.14015197753906,1.2634859195264168,-6.097934486396758,69.11269906015397,10.656896,-4.278769,0.15928096,12.151679,-17.108166,3.2640364,-18.658754,-20.040913,-23.11394,33.40459,-9.794031,0.3242852,-2.3086066,-1.384249,11.945966,-9.405617,23.766602,-38.174553,48.835636,3.0179658,-3.0110328,14.95331,12.1718025,-12.331165,7.2775936,56.16127,-9.675232,-5.706759,-5.2617087
203,99.18070220947266,105.85894775390625,77.04855346679688,1.3742969126931797,-6.025952117419367,69.39612868872663,11.291292,-4.1869206,-0.14631674,11.796368,-17.445005,3.0545163,-18.835443,-20.050209,-23.267454,30.427183,-9.588883,0.75063175,-2.2931368,-1.501808,11.943943,-9.74871,23.786854,-38.255665,48.728897,2.9509475,-3.060768,15.017906,12.019946,-12.082688,7.059564,56.153046,-9.721442,-5.6393256,-5.383132
204,99.68647003173828,106.36746978759766,76.9423599243164,1.488136598363584,-5.9724872822176875,69.64422959590785,11.973156,-4.0899944,-0.42584166,11.408405,-17.758535,2.8600602,-18.961699,-20.062992,-23.483372,27.529232,-9.367109,1.0846819,-2.2456188,-1.6135529,11.949952,-10.056565,23.784443,-38.30965,48.674557,2.8806517,-3.097434,15.042999,11.87137,-11.849479,6.865949,56.17642,-9.762652,-5.592351,-5.473758
205,100.18706512451172,106.8968276977539,76.83830261230469,1.6056146599104606,-5.948168440904755,69.84073187634932,12.729344,-3.9901898,-0.6716557,10.965021,-18.040695,2.6890593,-19.043097,-20.073845,-23.755053,24.718681,-9.124403,1.2557472,-2.1543312,-1.7167708,11.973291,-10.316459,23.758492,-38.320507,48.667667,2.8146932,-3.1208246,15.013562,11.72456,-11.636692,6.6980877,56.24153,-9.792236,-5.5776515,-5.521147
206,100.69859313964844,107.41038513183594,76.72650909423828,1.7243376489057545,-5.941279696763599,69.9892950306468,13.538788,-3.8791971,-0.8829351,10.478077,-18.30015,2.5239193,-19.09156,-20.074133,-24.076307,21.981936,-8.874771,1.2959552,-2.0253894,-1.804201,12.007142,-10.528918,23.710165,-38.285355,48.70264,2.7408319,-3.1337755,14.941656,11.575041,-11.450355,6.5549545,56.34444,-9.801843,-5.5765123,-5.5363984
207,101.21619415283203,107.92655944824219,76.60624694824219,1.8383130097826443,-5.935007932112923,70.12178938506183,14.348628,-3.7494843,-1.073456,10.001297,-18.553167,2.348752,-19.091036,-20.05464,-24.474121,19.297848,-8.606267,1.355939,-1.8793237,-1.8819256,12.035641,-10.713793,23.63895,-38.232464,48.789978,2.6607363,-3.1341197,14.851363,11.428054,-11.27666,6.4368606,56.46577,-9.811768,-5.576447,-5.5386505
208,101.73683166503906,108.46504974365234,76.47802734375,1.9487371159178781,-5.91495600571793,70.27476154467593,15.103731,-3.6014931,-1.2624501,9.602443,-18.820938,2.1529977,-19.01137,-20.011799,-24.978445,16.623127,-8.287657,1.5865923,-1.7568694,-1.9489326,12.0510235,-10.863629,23.5626,-38.17395,48.89875,2.56821,-3.1194386,14.764016,11.294011,-11.138832,6.3557897,56.56934,-9.828341,-5.566175,-5.535249
209,102.2730941772461,109.00578308105469,76.34495544433594,2.0652053689735355,-5.880838608069063,70.4618005366144,15.811189,-3.4490108,-1.4681654,9.26368,-19.105824,1.9397651,-18.764486,-19.92468,-25.697655,13.742338,-7.8383603,2.1052806,-1.657022,-2.0321171,12.044474,-11.002607,23.465094,-38.119152,49.068737,2.465305,-3.073289,14.686702,11.169322,-11.0004015,6.311606,56.672222,-9.860321,-5.5415673,-5.5380197
210,102.8034439086914,109.53199005126953,76.20065307617188,2.20556817535341,-5.852397999525495,70.68279976791261,16.511038,-3.3139603,-1.7000552,8.949949,-19.390518,1.7208642,-18.322083,-19.797764,-26.609602,10.608271,-7.2192407,2.8167543,-1.5896525,-2.1410089,12.037157,-11.106351,23.361704,-38.051384,49.269756,2.3485131,-3.0015438,14.6044445,11.057345,-10.882456,6.305476,56.771763,-9.893944,-5.5095015,-5.532161
211,103.35487365722656,110.05961608886719,76.03959655761719,2.4195896712084197,-5.845104361096232,70.95736342416556,17.2358,-3.2490199,-1.9753342,8.623898,-19.630728,1.5043539,-18.049192,-19.867651,-27.431194,8.115497,-6.8261805,3.5562913,-1.5744165,-2.3269906,12.044372,-11.176349,23.261831,-37.987778,49.493946,2.227953,-2.9365883,14.512888,10.964979,-10.783794,6.323107,56.85318,-9.941258,-5.471456,-5.522247
212,103.90985870361328,110.60564422607422,75.87602996826172,2.6598507171051464,-5.849764201283974,71.25605562151172,17.949081,-3.199529,-2.24853,8.337429,-19.829918,1.2830113,-18.30316,-20.251257,-27.89388,7.111249,-7.0307827,4.1313953,-1.5826684,-2.5361722,12.065622,-11.216438,23.171808,-37.947613,49.73253,2.110508,-2.9107852,14.411331,10.889156,-10.704097,6.3462176,56.908184,-10.016678,-5.4297404,-5.5129786
213,104.46952819824219,111.14625549316406,75.72110748291016,2.8609163017602297,-5.8522526519726465,71.54762254104575,18.601852,-3.0968688,-2.4634566,8.1676445,-20.03639,1.049628,-18.859823,-20.746296,-28.039442,7.0637364,-7.5551577,4.49727,-1.5730029,-2.6992557,12.093307,-11.252381,23.072382,-37.938797,50.015034,2.006738,-2.947738,14.291691,10.822012,-10.632305,6.3684254,56.941395,-10.14806,-5.3762546,-5.514125
214,105.02439880371094,111.68001556396484,75.57513427734375,3.0352958517440305,-5.848356323820408,71.83317389980016,19.20333,-2.9564164,-2.6313272,8.091078,-20.248032,0.8052716,-19.327997,-21.167814,-28.079195,7.0540156,-7.9511185,4.7352133,-1.5522599,-2.8250222,12.124204,-11.262964,22.976168,-37.94676,50.315037,1.9071448,-3.0245416,14.156851,10.765639,-10.581757,6.398753,56.950928,-10.317525,-5.313621,-5.516019
215,105.5850601196289,112.22061920166016,75.43521881103516,3.179901265472028,-5.83731642227319,72.10631618977033,19.747446,-2.7711225,-2.7665856,8.120125,-20.454653,0.542622,-19.685492,-21.500502,-28.044212,7.0531697,-8.197324,4.82051,-1.5271606,-2.9133258,12.151112,-11.233103,22.889177,-37.975845,50.623276,1.7974752,-3.1059947,14.030746,10.716821,-10.552172,6.434992,56.951435,-10.48561,-5.258266,-5.5124803
216,106.13751220703125,112.7638931274414,75.30886840820312,3.289891635268198,-5.819196536061318,72.36109381041625,20.23182,-2.5319836,-2.8843439,8.2593155,-20.640747,0.25400862,-19.922731,-21.736338,-27.961355,7.062213,-8.286409,4.729613,-1.4971417,-2.962519,12.163054,-11.17486,22.797825,-38.050747,50.96684,1.6559416,-3.1585484,13.940218,10.675386,-10.537656,6.4676175,56.96067,-10.616254,-5.226069,-5.500431
217,106.70301818847656,113.30367279052734,75.19789123535156,3.3635272014490085,-5.79099262908186,72.58350700012811,20.661413,-2.238728,-2.9690356,8.497413,-20.804882,-0.06868087,-20.034311,-21.865837,-27.814121,7.0844903,-8.15564,4.4181886,-1.4540215,-2.9656467,12.169591,-11.081798,22.71372,-38.173355,51.319336,1.4637862,-3.1699276,13.914553,10.630232,-10.545077,6.4998956,56.979332,-10.695317,-5.230915,-5.471649
218,107.26885986328125,113.85548400878906,75.10247802734375,3.4005356592002896,-5.752477179466052,72.78065124116719,21.038279,-1.8953742,-3.0174725,8.829573,-20.950651,-0.42035842,-20.026823,-21.899614,-27.598394,7.1205935,-7.8329606,3.9059856,-1.3983488,-2.9222033,12.169944,-10.957537,22.631542,-38.335396,51.688232,1.2376274,-3.1597137,13.932965,10.586428,-10.574963,6.5328407,56.99982,-10.744359,-5.2607994,-5.4310546
219,107.84977722167969,114.41030883789062,75.01220703125,3.3998178200873803,-5.709261008121323,72.98089160015027,21.353466,-1.4975256,-3.0673723,9.279327,-21.075666,-0.7888241,-20.234018,-22.02075,-27.23714,7.895752,-7.8310547,3.2729414,-1.3571365,-2.8459065,12.149235,-10.781277,22.565687,-38.523422,52.07576,1.0072169,-3.1385052,13.94065,10.562053,-10.610722,6.565038,57.02206,-10.777225,-5.2945204,-5.3905597
220,108.45198822021484,114.97054290771484,74.92845916748047,3.3834316681925527,-5.670602337527987,73.22376573250762,21.603903,-1.0640074,-3.1727548,9.864541,-21.173092,-1.1601974,-20.658295,-22.270044,-26.77198,9.399559,-8.271511,2.6035082,-1.3807485,-2.7813294,12.098369,-10.519812,22.539515,-38.694054,52.47419,0.8176487,-3.1162834,13.877773,10.557681,-10.628062,6.599882,57.058163,-10.817546,-5.310028,-5.36666
221,109.08452606201172,115.55351257324219,74.84033966064453,3.384956286957452,-5.669207034073216,73.5365748829776,21.850328,-0.6269457,-3.3767545,10.549922,-21.242783,-1.5289652,-21.22804,-22.665878,-26.130884,11.586563,-9.213072,1.8695576,-1.4236444,-2.7419748,12.009756,-10.255362,22.475824,-38.992607,52.999775,0.6274063,-3.1011868,13.743478,10.675902,-10.653806,6.5949244,57.054348,-10.848188,-5.2993236,-5.353643
222,109.73421478271484,116.14100646972656,74.7609634399414,3.3747634159380033,-5.694595756320933,73.89720242020697,22.077295,-0.1587486,-3.6449904,11.340176,-21.285992,-1.9055294,-21.622572,-23.004608,-25.45057,13.726526,-10.18642,1.0414649,-1.5516726,-2.7207623,11.910135,-9.890662,22.449375,-39.25217,53.534687,0.4865704,-3.0826755,13.545976,10.799205,-10.656927,6.6143823,57.079998,-10.888303,-5.272799,-5.36336
223,110.41228485107422,116.74217224121094,74.6832275390625,3.3389422683160563,-5.696174455409275,74.29428715960705,22.201166,0.3515349,-3.9539678,12.262604,-21.287073,-2.295744,-21.908203,-23.286251,-24.909332,15.763178,-11.031531,0.22311643,-1.7165861,-2.6888888,11.767886,-9.498441,22.436954,-39.54094,54.11453,0.350221,-3.056804,13.319702,10.948219,-10.649004,6.611141,57.10443,-10.9169445,-5.242511,-5.373873
224,111.10960388183594,117.37448120117188,74.61951446533203,3.2610654752338823,-5.616832888272372,74.71110340821924,22.130398,0.921456,-4.2751894,13.351216,-21.233347,-2.7074084,-22.136467,-23.503647,-24.696537,17.606392,-11.577168,-0.48645827,-1.8514655,-2.6215355,11.550169,-9.154853,22.427874,-39.934902,54.768517,0.17723215,-3.017846,13.096945,11.135347,-10.6111145,6.517042,57.108498,-10.931305,-5.2209773,-5.3687177
225,111.8053207397461,117.97101593017578,74.58903503417969,3.113322514128964,-5.424351936116283,75.16047844477652,21.822464,1.5904521,-4.605067,14.6135235,-21.141907,-3.166274,-22.290516,-23.681696,-25.039694,19.28113,-11.847582,-1.1075667,-2.066489,-2.485789,11.2364,-8.791089,22.43436,-40.308224,55.459126,0.0039629093,-2.9736726,12.867236,11.288873,-10.570714,6.3985085,57.124245,-10.9217415,-5.2060137,-5.3549075
226,112.52061462402344,118.58619689941406,74.56796264648438,2.9045755266390394,-5.146879185489909,75.63993966869131,21.336676,2.3467462,-4.957989,16.012777,-21.004469,-3.6673415,-22.370901,-23.827654,-25.778687,20.873497,-11.94594,-1.6905432,-2.2595565,-2.2948408,10.843504,-8.470188,22.456131,-40.80423,56.22124,-0.20928997,-2.9214633,12.6277275,11.488806,-10.487283,6.169744,57.111794,-10.912945,-5.195667,-5.330983
227,113.24681091308594,119.20475006103516,74.55986785888672,2.668131125271344,-4.820212462177982,76.10832608702867,20.732147,3.1311445,-5.3317904,17.520683,-20.77178,-4.170998,-22.458302,-23.900356,-26.526646,22.376379,-11.809781,-2.176295,-2.4734607,-2.0803795,10.400591,-8.112875,22.483181,-41.24543,57.0076,-0.39130956,-2.8484185,12.379238,11.663971,-10.407668,5.973969,57.13986,-10.873082,-5.1897893,-5.3005247
228,113.98673248291016,119.80055236816406,74.5712661743164,2.4419136391665157,-4.480598216897786,76.52384619528851,20.062777,3.8822303,-5.722419,19.115679,-20.395311,-4.6358953,-22.65008,-23.849155,-26.892603,23.785154,-11.36458,-2.4898968,-2.59342,-1.8922145,9.9414215,-7.75581,22.520117,-41.680065,57.812515,-0.5440582,-2.7374408,12.132387,11.845177,-10.301297,5.7819667,57.21031,-10.814115,-5.1934314,-5.2569985
229,114.74060821533203,120.40115356445312,74.59612274169922,2.24384924191618,-4.097691124065796,76.8959795709528,19.283041,4.577108,-6.1547804,20.801561,-19.870796,-5.0578365,-23.062681,-23.640205,-26.694244,25.08407,-10.384895,-2.5347257,-2.6654212,-1.7434036,9.434044,-7.3753333,22.558443,-42.038513,58.624912,-0.5974868,-2.5693612,11.857417,12.010495,-10.198863,5.6448855,57.340214,-10.695702,-5.218108,-5.2014346
230,115.49546813964844,121.01145935058594,74.61538696289062,2.0517910334610523,-3.6650259554734577,77.23559157881996,18.381773,5.248164,-6.624321,22.584198,-19.217188,-5.457896,-23.631176,-23.28187,-26.162731,26.281607,-8.971569,-2.3351884,-2.6929815,-1.6094296,8.873876,-6.9832616,22.600523,-42.363537,59.456417,-0.5858852,-2.3578804,11.560791,12.173337,-10.092429,5.5271997,57.50947,-10.532663,-5.2587223,-5.1332474
231,116.26070404052734,121.63200378417969,74.63028717041016,1.8353274503002621,-3.2557162398210187,77.50438527931821,17.468353,5.924243,-7.075643,24.43919,-18.422544,-5.825819,-24.166647,-22.777985,-25.5352,27.375834,-7.535882,-2.004652,-2.685012,-1.4557095,8.328281,-6.533256,22.637758,-42.61107,60.291435,-0.5872949,-2.1416974,11.29872,12.30778,-10.0069,5.474076,57.728477,-10.360065,-5.288992,-5.0507536
232,117.03387451171875,122.27001190185547,74.6551284790039,1.5653129151921394,-2.9423368327083828,77.66651728851267,16.652313,6.635016,-7.454177,26.343706,-17.474283,-6.1541653,-24.488663,-22.155436,-25.049816,28.393465,-6.4980454,-1.6957603,-2.6445978,-1.2455415,7.865105,-5.9828596,22.658934,-42.743904,61.11581,-0.68133783,-1.9591051,11.128033,12.392342,-9.967648,5.5200496,58.00348,-10.21501,-5.283309,-4.9498606
233,117.8105239868164,122.91544342041016,74.67747497558594,1.2137592644389097,-2.7615492461625526,77.70407871389023,16.007954,7.4051414,-7.755361,28.26496,-16.352833,-6.4414034,-24.534584,-21.395962,-24.729553,29.355455,-5.9779477,-1.388839,-2.5469232,-0.9632281,7.50659,-5.3065896,22.670244,-42.78848,61.937393,-0.9317606,-1.831957,11.112905,12.43098,-9.957846,5.677277,58.36514,-10.098662,-5.2335496,-4.8355274
234,118.5919189453125,123.55293273925781,74.70867156982422,0.8028392693552975,-2.6685937713747956,77.6400516512501,15.4648075,8.213412,-8.004352,30.217516,-15.064666,-6.6948166,-24.419922,-20.501204,-24.454569,30.268002,-5.7639136,-1.0379567,-2.4291275,-0.63038355,7.20763,-4.5062304,22.6752,-42.716564,62.75053,-1.2763423,-1.7366496,11.208138,12.415033,-9.987579,5.968393,58.81452,-9.978594,-5.152222,-4.7126904
235,119.3663101196289,124.21385192871094,74.7542953491211,0.3757400249584125,-2.6167370409720463,77.5024543772791,14.917952,9.018692,-8.192122,32.250282,-13.635581,-6.9207606,-24.22114,-19.545774,-24.253592,31.128254,-5.766119,-0.7866425,-2.306457,-0.2732847,6.950106,-3.6290295,22.670164,-42.495083,63.519943,-1.6186147,-1.6415662,11.303564,12.349658,-10.076365,6.333989,59.276825,-9.880912,-5.0495963,-4.5661597
236,120.14161682128906,124.88328552246094,74.79828643798828,-0.019866223339710706,-2.5596929289018178,77.31872023954898,14.2631235,9.777658,-8.311349,34.413055,-12.093052,-7.1238456,-24.011488,-18.612743,-24.152718,31.936829,-5.8884,-0.77751535,-2.1618843,0.06309532,6.7133694,-2.7487304,22.653414,-42.135487,64.229485,-1.8699927,-1.510154,11.291145,12.255592,-10.210987,6.68538,59.673336,-9.843901,-4.9349513,-4.389397
237,120.93586730957031,125.5208511352539,74.84229278564453,-0.3786663108869501,-2.4929421314967914,77.05777513130306,13.502696,10.486156,-8.334009,36.72888,-10.433527,-7.3184543,-23.792177,-17.71209,-24.167948,32.689278,-6.125572,-1.1216171,-1.9608473,0.36203033,6.4903827,-1.8653269,22.623423,-41.60601,64.890594,-1.9838469,-1.3212279,11.130109,12.121049,-10.365424,7.01601,60.01965,-9.919728,-4.78944,-4.1638803
238,121.69697570800781,126.14500427246094,74.88369750976562,-0.7192715653990241,-2.4414352634591103,76.71807683644477,12.685532,11.158782,-8.273245,39.16802,-8.645022,-7.5016108,-23.521088,-16.81458,-24.273546,33.380558,-6.5159593,-1.7276893,-1.7174175,0.6382851,6.2943726,-0.952109,22.57794,-40.916225,65.50705,-2.0136127,-1.0970782,10.881966,11.941929,-10.540897,7.362539,60.34721,-10.079116,-4.615757,-3.9015448
239,122.45956420898438,126.7481689453125,74.92781066894531,-1.0320685459063876,-2.402091943863623,76.37112052987825,11.759324,11.784826,-8.187443,41.732018,-6.7459574,-7.640542,-23.19938,-15.943853,-24.435102,34.001263,-7.0293765,-2.4322655,-1.4751432,0.88218623,6.133336,-0.063428596,22.520115,-40.1696,66.07399,-2.0365922,-0.86515987,10.594055,11.747678,-10.735292,7.691123,60.608513,-10.247049,-4.4540124,-3.6509144
240,123.20531463623047,127.33193969726562,74.97402954101562,-1.308920245701207,-2.3704912637298006,76.08778545551031,10.668118,12.363838,-8.134177,44.42096,-4.7514434,-7.6882434,-22.828003,-15.121055,-24.621727,34.542046,-7.6353374,-3.070933,-1.2701797,1.0854679,6.0148816,0.74073523,22.45723,-39.482193,66.59489,-2.135719,-0.6522172,10.314954,11.570965,-10.941796,7.960016,60.75392,-10.350787,-4.343572,-3.4614553
241,123.94525146484375,127.9057846069336,75.01638793945312,-1.538118027934081,-2.340687088164748,75.87797438101583,9.342906,12.907103,-8.119832,47.329266,-2.513039,-7.644412,-22.407797,-14.360974,-24.827276,35.009716,-8.389426,-3.616212,-1.0954372,1.2291721,5.9429603,1.4451058,22.395155,-38.8568,67.08605,-2.3554745,-0.4603321,10.050921,11.420542,-11.153347,8.15814,60.760887,-10.368656,-4.3016634,-3.3271182
