unveil-humanoid-operators/unveil-humanoid-operators.github.io/feature-analysis-animation/data/feature_matrix_instances/weight_root_translate_peak_vel_walking_A268_walk_ff_stop_180_R_002__A268.csv
Frame,root_translateX,root_translateY,root_translateZ,root_rotateX,root_rotateY,root_rotateZ,left_hip_pitch_joint_dof,left_hip_roll_joint_dof,left_hip_yaw_joint_dof,left_knee_joint_dof,left_ankle_pitch_joint_dof,left_ankle_roll_joint_dof,right_hip_pitch_joint_dof,right_hip_roll_joint_dof,right_hip_yaw_joint_dof,right_knee_joint_dof,right_ankle_pitch_joint_dof,right_ankle_roll_joint_dof,waist_yaw_joint_dof,waist_roll_joint_dof,waist_pitch_joint_dof,left_shoulder_pitch_joint_dof,left_shoulder_roll_joint_dof,left_shoulder_yaw_joint_dof,left_elbow_joint_dof,left_wrist_roll_joint_dof,left_wrist_pitch_joint_dof,left_wrist_yaw_joint_dof,right_shoulder_pitch_joint_dof,right_shoulder_roll_joint_dof,right_shoulder_yaw_joint_dof,right_elbow_joint_dof,right_wrist_roll_joint_dof,right_wrist_pitch_joint_dof,right_wrist_yaw_joint_dof
0,-0.5758018493652344,1.9227627515792847,76.68959045410156,3.5603963213648755,3.531824938821267,-86.0036503390242,-13.897322,-4.2668843,3.7955027,22.439919,-14.248146,2.2715383,-20.820051,-16.257826,-10.020275,77.41487,-6.5155554,1.4362279,-4.908825,-1.9342446,8.586565,-8.056594,24.864574,-50.545033,57.070908,6.5061736,-1.4328121,-4.6541686,6.407843,-17.49709,33.844444,62.184464,-23.454418,-2.9884863,3.9385493
1,-0.5547096729278564,1.2483254671096802,76.74739074707031,3.5928917191511154,3.500283942331406,-85.96524884755962,-12.896339,-4.317605,3.7297385,21.70042,-14.496524,2.186977,-21.98769,-16.090883,-9.798504,76.277916,-7.5327344,1.699878,-5.127762,-1.8837085,8.628076,-8.811349,24.938168,-49.79,56.779766,6.1898127,-1.3773369,-4.6815305,6.8781505,-17.487453,33.4079,61.913395,-22.970667,-2.9869084,3.8965979
2,-0.5317574739456177,0.5737840533256531,76.79041290283203,3.6261747036464227,3.4625302506742646,-85.92353092291805,-11.885464,-4.3710446,3.6622205,20.955242,-14.743203,2.1110163,-23.148481,-15.938773,-9.577802,75.17147,-8.584173,1.9492809,-5.3618393,-1.8389028,8.675207,-9.548804,25.038977,-49.00866,56.464012,5.8647723,-1.3214266,-4.7177444,7.3444934,-17.470734,32.983486,61.646416,-22.48434,-2.978151,3.8533065
3,-0.5034758448600769,-0.09807346016168594,76.8266830444336,3.660995427938529,3.4325409937803486,-85.88338206623813,-10.884289,-4.4263034,3.592003,20.212692,-14.990282,2.0354457,-24.289076,-15.791147,-9.360899,73.97059,-9.559948,2.1897182,-5.593644,-1.7955145,8.71586,-10.280571,25.159021,-48.249584,56.137295,5.5650215,-1.2617038,-4.742917,7.8018923,-17.449953,32.566727,61.384895,-21.998499,-2.9858472,3.8120842
4,-0.48803263902664185,-0.7779240012168884,76.85237884521484,3.6978788300723298,3.4243763272475043,-85.84979170179979,-9.911494,-4.482471,3.5181904,19.479101,-15.238836,1.9514785,-25.392117,-15.637521,-9.150871,72.54647,-10.349265,2.4269497,-5.8145666,-1.7478105,8.738919,-11.007398,25.292297,-47.54348,55.805767,5.3329463,-1.1950401,-4.7377467,8.241071,-17.430534,32.159676,61.130375,-21.51704,-3.0333335,3.7768476
5,-0.46213775873184204,-1.458415150642395,76.86135864257812,3.733607805457863,3.4486606646854425,-85.82370578399336,-8.983938,-4.53476,3.437288,18.763783,-15.492198,1.8478086,-26.473543,-15.450425,-8.922218,70.86635,-10.952965,2.6602519,-6.0214686,-1.6864232,8.733235,-11.735464,25.433079,-46.906677,55.47473,5.1850576,-1.1158606,-4.6931715,8.666789,-17.417469,31.748774,60.876415,-21.050232,-3.136517,3.75627
6,-0.44509419798851013,-2.138658046722412,76.86334991455078,3.7682296449142045,3.4957477798438545,-85.80239159550173,-8.084561,-4.5841775,3.3504024,18.054302,-15.745334,1.7316357,-27.530594,-15.244153,-8.682287,68.99479,-11.421183,2.8859816,-6.2167373,-1.6134949,8.707539,-12.46787,25.577612,-46.323833,55.148823,5.095599,-1.0282954,-4.6200085,9.088291,-17.412447,31.333088,60.61755,-20.593988,-3.2794337,3.7474713
7,-0.43251100182533264,-2.8325865268707275,76.8568344116211,3.8067254521866474,3.5492697269673923,-85.78572759960011,-7.193402,-4.6363454,3.2642558,17.34877,-16.00001,1.6200083,-28.51836,-15.065389,-8.481736,66.947365,-11.717447,3.112805,-6.401171,-1.5402519,8.680764,-13.195551,25.72312,-45.77079,54.830383,5.0489182,-0.94421524,-4.528925,9.498082,-17.415308,30.939611,60.359547,-20.12607,-3.4376414,3.736892
8,-0.4168243706226349,-3.525118112564087,76.83961486816406,3.854096814991008,3.5932246439591644,-85.77360150248556,-6.286793,-4.6969557,3.1850266,16.636082,-16.252218,1.528455,-29.39499,-14.958464,-8.37217,64.73926,-11.804649,3.3522031,-6.5771527,-1.478608,8.67107,-13.908723,25.868044,-45.22266,54.520195,5.028695,-0.8753251,-4.4308596,9.887295,-17.42409,30.597326,60.11021,-19.6245,-3.5869594,3.71048
9,-0.4107152223587036,-4.214144706726074,76.81452941894531,3.9122212785441643,3.6207363882304384,-85.76561054040357,-5.3566246,-4.768192,3.113535,15.915354,-16.503206,1.457793,-30.149502,-14.925516,-8.357993,62.358448,-11.632354,3.6516933,-6.748977,-1.4319097,8.685529,-14.60293,26.010212,-44.659973,54.217525,5.042818,-0.8239442,-4.327077,10.252018,-17.437979,30.314816,59.868736,-19.028273,-3.7289395,3.6560836
10,-0.3961283564567566,-4.902648448944092,76.77481842041016,3.9766477109501506,3.6416686527836153,-85.76217479533229,-4.41038,-4.844795,3.0456405,15.178604,-16.75133,1.3969481,-30.803003,-14.938463,-8.416935,59.797195,-11.232444,3.997028,-6.916437,-1.392681,8.712605,-15.283648,26.14899,-44.097828,53.924007,5.096217,-0.7839932,-4.212328,10.59352,-17.45784,30.079786,59.63627,-18.366562,-3.8743265,3.5840101
11,-0.3919885456562042,-5.585383892059326,76.72607421875,4.045078042261912,3.6648803742836393,-85.76501481997673,-3.4660432,-4.921206,2.9822762,14.444229,-16.995165,1.3423148,-31.363575,-14.992948,-8.562005,57.078262,-10.691203,4.310465,-7.074361,-1.3576946,8.74304,-15.954971,26.286394,-43.564484,53.64118,5.167366,-0.7549676,-4.0878034,10.913528,-17.48194,29.887606,59.42116,-17.754747,-4.0124917,3.5129657
12,-0.3787476420402527,-6.281790733337402,76.67120361328125,4.114200041870072,3.699237033750059,-85.7759867635629,-2.5332234,-4.992024,2.9237926,13.7117605,-17.229832,1.290271,-31.839123,-15.082869,-8.809342,54.22058,-10.095304,4.5151725,-7.21703,-1.3244064,8.767608,-16.617563,26.425928,-43.084106,53.36754,5.239686,-0.7359861,-3.9549315,11.210041,-17.507355,29.733276,59.235317,-17.307743,-4.1321282,3.4605315
13,-0.39599883556365967,-6.973089218139648,76.61126708984375,4.187267887611212,3.7448422520707085,-85.79948924755921,-1.6120323,-5.059354,2.8748033,12.980274,-17.454952,1.2372305,-32.226574,-15.217063,-9.17697,51.203354,-9.464989,4.580327,-7.340076,-1.2957343,8.787644,-17.279806,26.572126,-42.674355,53.100716,5.3066044,-0.72880113,-3.812301,11.479636,-17.53248,29.618704,59.07707,-17.075779,-4.228938,3.440094
14,-0.40822359919548035,-7.668246269226074,76.5400619506836,4.26367466603647,3.797980776679731,-85.8329987207243,-0.6957286,-5.1231093,2.8337693,12.244828,-17.6704,1.181031,-32.5199,-15.379594,-9.661969,48.016727,-8.753873,4.5609736,-7.4467278,-1.2726288,8.807196,-17.935219,26.725708,-42.31734,52.83633,5.379344,-0.7327059,-3.6600144,11.721202,-17.556805,29.544258,58.945034,-16.99147,-4.308834,3.437839
15,-0.41161343455314636,-8.375800132751465,76.45622253417969,4.3354135625645105,3.861191275423304,-85.86827792411336,0.21160766,-5.1752176,2.7922757,11.511049,-17.876299,1.1224247,-32.726246,-15.530907,-10.246724,44.70234,-7.946121,4.506205,-7.544317,-1.2477486,8.820538,-18.57352,26.885544,-41.99991,52.576576,5.4494653,-0.7440055,-3.5014024,11.939,-17.57736,29.504723,58.849712,-16.994003,-4.3754487,3.4303653
16,-0.427214652299881,-9.079424858093262,76.36109161376953,4.395446207849466,3.936623489260365,-85.89670418463623,1.1052648,-5.2093945,2.7419,10.786202,-18.075962,1.0650486,-32.85321,-15.639134,-10.908814,41.29906,-7.024154,4.460361,-7.6396685,-1.215389,8.822113,-19.184084,27.048374,-41.707047,52.324913,5.511904,-0.75907516,-3.3397033,12.136697,-17.589626,29.495024,58.8039,-17.022385,-4.4324803,3.3941138
17,-0.4412277638912201,-9.794866561889648,76.26529693603516,4.446069984476416,4.030764390746749,-85.92051107455508,1.9810425,-5.230788,2.6812449,10.0627365,-18.261408,1.0241116,-32.91151,-15.731354,-11.696671,37.78965,-5.899499,4.344615,-7.7315774,-1.1758188,8.80605,-19.77289,27.211988,-41.441654,52.09078,5.5566483,-0.7829211,-3.1721308,12.308564,-17.591284,29.526087,58.82095,-17.08553,-4.4843435,3.3031666
18,-0.4726576507091522,-10.510398864746094,76.16555786132812,4.491449029454199,4.139342068411241,-85.94184629833198,2.8468351,-5.2431564,2.6137142,9.332932,-18.43148,0.9928754,-32.89118,-15.807255,-12.608067,34.15353,-4.607808,4.167953,-7.8182526,-1.1338313,8.77701,-20.343603,27.375502,-41.20874,51.871983,5.591075,-0.81558764,-2.9980009,12.452206,-17.581608,29.597357,58.894882,-17.207853,-4.5276275,3.1757956
19,-0.5014417171478271,-11.224163055419922,76.06002807617188,4.530835829795105,4.245747463564744,-85.95021992359052,3.7086601,-5.240833,2.5380042,8.622533,-18.60269,0.9505001,-32.760147,-15.806206,-13.533702,30.402912,-3.3021553,4.101531,-7.907161,-1.0947504,8.74644,-20.88902,27.538084,-41.006344,51.659836,5.626271,-0.846388,-2.8236125,12.575584,-17.558403,29.684855,59.010235,-17.351679,-4.5543213,3.054831
20,-0.5491185188293457,-11.941605567932129,75.9449234008789,4.568003514824192,4.329024845288226,-85.93076198895842,4.583276,-5.2242923,2.4478085,7.944395,-18.784761,0.87805736,-32.46873,-15.677981,-14.35786,26.51586,-2.113849,4.314038,-8.008973,-1.0671679,8.727427,-21.41952,27.703571,-40.85981,51.456455,5.645595,-0.86563694,-2.6548204,12.69183,-17.518362,29.76162,59.14873,-17.481771,-4.5566363,2.9834468
21,-0.6032585501670837,-12.663740158081055,75.82026672363281,4.619373800293657,4.370023549051722,-85.86918612125392,5.342726,-5.207276,2.341557,7.6160727,-19.162369,0.7703901,-31.89884,-15.404577,-15.073924,22.226475,-0.96962404,4.978526,-8.14044,-1.0718144,8.732663,-21.927763,27.873957,-40.770405,51.254585,5.6485744,-0.8646918,-2.4823637,12.803869,-17.457384,29.820454,59.310265,-17.582277,-4.5278463,2.976702
22,-0.6656888127326965,-13.4003324508667,75.68122100830078,4.713106991430372,4.3526844090901555,-85.7431908975514,6.0257616,-5.2255588,2.1902523,7.5847993,-19.700237,0.64648926,-31.015661,-15.062043,-15.739656,17.481926,0.24085599,5.96228,-8.324057,-1.139198,8.773354,-22.412523,28.049593,-40.729317,51.055443,5.6434655,-0.8506253,-2.3091078,12.908449,-17.373652,29.875273,59.50209,-17.674765,-4.473603,3.0099337
23,-0.7352978587150574,-14.137994766235352,75.52140045166016,4.872594539805157,4.262843012336287,-85.52744613747916,6.778899,-5.306644,1.9580871,7.557376,-20.211203,0.5235301,-29.92594,-14.757663,-16.332808,12.648729,1.416949,6.9733257,-8.577421,-1.2930455,8.85817,-22.889523,28.233835,-40.743507,50.86957,5.62916,-0.8369977,-2.1590405,13.013172,-17.266125,29.929504,59.71389,-17.78029,-4.4048114,3.0670836
24,-0.8058692216873169,-14.887441635131836,75.35092163085938,5.077302646652009,4.124526248252337,-85.23844819253543,7.569143,-5.4193983,1.6645098,7.541752,-20.667849,0.40984267,-28.761885,-14.524108,-16.842218,8.070139,2.471019,7.712738,-8.878029,-1.51062,8.972847,-23.349186,28.423899,-40.78337,50.68855,5.637858,-0.83579206,-2.0544603,13.115798,-17.13395,29.98947,59.93979,-17.918648,-4.3334603,3.132628
25,-0.8949791789054871,-15.6343412399292,75.1775894165039,5.268498875612263,3.9846894904639973,-84.91464092629256,8.342506,-5.49289,1.3697269,7.54683,-21.08038,0.30420837,-28.938845,-14.678771,-16.88007,6.6558437,1.7832171,8.053501,-9.179356,-1.73004,9.094173,-23.815535,28.619663,-40.869236,50.52115,5.670283,-0.851316,-2.0024962,13.200727,-16.976686,30.061161,60.196625,-18.12026,-4.259403,3.2057753
26,-0.99232017993927,-16.38648796081543,75.00940704345703,5.428446233348493,3.857090813792531,-84.58087015100189,9.0932455,-5.5120816,1.0922133,7.5672035,-21.459955,0.19624135,-29.626696,-14.933849,-16.667091,6.549258,0.32150012,8.153081,-9.462473,-1.930958,9.210673,-24.279356,28.819284,-40.999157,50.362495,5.7167096,-0.8766006,-1.9878895,13.265531,-16.794384,30.1396,60.487953,-18.36752,-4.1783657,3.2937837
27,-1.0831489562988281,-17.133230209350586,74.845947265625,5.555986222382599,3.7513169976546967,-84.27475688030093,9.819354,-5.479485,0.8339084,7.600109,-21.786541,0.0699026,-30.208214,-15.106812,-16.44373,6.486929,-1.0399328,8.141013,-9.704649,-2.105223,9.302665,-24.702309,29.016752,-41.136616,50.200733,5.7646947,-0.90812826,-1.995725,13.313204,-16.59388,30.217192,60.80079,-18.603497,-4.095545,3.3918731
28,-1.182360291481018,-17.881832122802734,74.68350219726562,5.665502081612872,3.665379649712793,-84.0203499757962,10.530407,-5.4150147,0.5823116,7.6432586,-22.040878,-0.088604964,-30.637396,-15.219312,-16.301977,6.459946,-2.0880463,8.154041,-9.898061,-2.2605703,9.357181,-25.043997,29.204025,-41.239258,50.025135,5.8071804,-0.94265795,-2.0121803,13.354367,-16.38628,30.285994,61.113674,-18.7711,-4.015626,3.4959562
29,-1.288722276687622,-18.634960174560547,74.5244140625,5.78718657683466,3.5858532843068387,-83.811713718252,11.241458,-5.35564,0.3229099,7.6965256,-22.220427,-0.2864062,-30.878983,-15.309624,-16.289505,6.4652743,-2.7824535,8.313268,-10.052376,-2.4255004,9.376818,-25.308437,29.37951,-41.308426,49.840355,5.818847,-0.98561865,-2.0416038,13.405933,-16.180584,30.328648,61.406418,-18.830097,-3.936563,3.6060815
30,-1.4027814865112305,-19.39390754699707,74.36895751953125,5.896701676614102,3.5215453466943143,-83.64546510503635,11.940415,-5.2765503,0.0768207,7.7635503,-22.33812,-0.51891875,-30.95569,-15.340437,-16.352427,6.484224,-3.2210886,8.515718,-10.161494,-2.5745072,9.3664,-25.521341,29.544897,-41.372097,49.656315,5.800185,-1.0375487,-2.0875719,13.466525,-15.980426,30.35126,61.682507,-18.818226,-3.8565106,3.7257347
31,-1.5169715881347656,-20.16606330871582,74.22093963623047,5.944078312536448,3.4981416053626075,-83.5395185179908,12.600388,-5.123235,-0.12616505,7.8437247,-22.39361,-0.779052,-30.925549,-15.252353,-16.419943,6.526022,-3.4173102,8.568096,-10.205998,-2.6508994,9.318251,-25.66069,29.68551,-41.40157,49.46631,5.8107257,-1.08706,-2.1364646,13.520512,-15.795701,30.385597,61.950794,-18.791256,-3.7805574,3.857169
32,-1.6139490604400635,-20.946273803710938,74.0869369506836,5.867855370315457,3.542160184126509,-83.5133268957483,12.68768,-4.8281255,-0.2110612,9.0092745,-22.951952,-1.0620334,-30.83596,-14.971963,-16.426851,6.5812483,-3.3747516,8.274531,-10.164247,-2.592659,9.222388,-25.72076,29.80386,-41.40223,49.269505,5.874994,-1.1232243,-2.1743085,13.53887,-15.616326,30.46352,62.24502,-18.810028,-3.7138045,3.9985116
33,-1.7140341997146606,-21.7463321685791,73.96669006347656,5.645298752135956,3.672397601774114,-83.58572428895452,12.60039,-4.3650503,-0.20378655,10.390487,-23.582712,-1.3781044,-30.669128,-14.451949,-16.299736,6.676936,-3.1553671,7.4855413,-10.010955,-2.3551655,9.059284,-25.730412,29.873638,-41.410168,49.09636,5.979044,-1.1438807,-2.2028694,13.559662,-15.486078,30.58484,62.527756,-18.892525,-3.6600451,4.1671143
34,-1.8313789367675781,-22.534921646118164,73.87016296386719,5.2955654387201365,3.8663216142639056,-83.73584556344267,12.402781,-3.7547822,-0.1350905,11.901659,-24.229885,-1.7309735,-30.40328,-13.732339,-16.098305,6.807081,-2.733353,6.337895,-9.77648,-1.9851105,8.838332,-25.662355,29.92572,-41.400017,48.921276,6.1262455,-1.1519462,-2.2308075,13.539473,-15.342028,30.750025,62.86258,-19.010174,-3.6161125,4.346937
35,-1.9456157684326172,-23.31907081604004,73.80184936523438,4.843038388945332,4.0774304011288,-83.90701001468624,12.132464,-3.0236855,-0.05727228,13.546231,-24.845541,-2.0980582,-30.083199,-12.910557,-15.959452,6.946548,-2.0020857,5.07113,-9.500972,-1.4895655,8.613928,-25.575254,29.93929,-41.413433,48.777027,6.2545824,-1.1589761,-2.2402,13.541218,-15.257211,30.918478,63.134754,-19.131533,-3.5760047,4.5361814
36,-2.0603513717651367,-24.116666793823242,73.73983764648438,4.315077779264711,4.264650481226567,-84.04710646814806,11.824508,-2.2011402,-0.017613392,15.317644,-25.374834,-2.4561176,-30.642607,-12.330366,-15.839517,8.975077,-1.8677269,3.9252398,-9.256302,-0.9333922,8.41873,-25.430212,29.925758,-41.379326,48.65708,6.406769,-1.1685562,-2.2212336,13.482616,-15.1461315,31.119099,63.435646,-19.228973,-3.532503,4.698003
37,-2.1902263164520264,-24.906877517700195,73.70470428466797,3.652409259055051,4.4466086109407135,-84.155575084931,11.445635,-1.2059327,-0.03202607,17.238804,-25.851973,-2.8358617,-31.438513,-11.76462,-16.017836,11.4112,-1.2474512,2.841401,-9.013173,-0.24240986,8.255495,-25.308596,29.889421,-41.39816,48.590706,6.502839,-1.1865975,-2.1636534,13.402595,-15.042217,31.317167,63.70162,-19.29255,-3.4777844,4.8482985
38,-2.3172476291656494,-25.702157974243164,73.6856689453125,2.8599333195095884,4.630791013932944,-84.24829378562242,11.010005,-0.04771203,-0.093889266,19.274147,-26.273605,-3.2387483,-32.07348,-11.107382,-16.510744,13.504822,0.11407334,1.7223508,-8.766691,0.57830137,8.111284,-25.161476,29.826221,-41.415874,48.5485,6.6007066,-1.2063342,-2.0785174,13.298417,-14.945812,31.526016,63.94489,-19.337976,-3.4173882,4.9926987
39,-2.4513392448425293,-26.52297592163086,73.66531372070312,2.0462040020843792,4.779979778862056,-84.31804798081725,10.582678,1.127192,-0.18801968,21.368397,-26.548487,-3.6004848,-32.533745,-10.469274,-17.166096,15.371409,1.5810072,0.7393504,-8.544974,1.423507,7.995308,-24.949562,29.732918,-41.39444,48.521103,6.7028117,-1.2249248,-1.9743875,13.168633,-14.861502,31.749655,64.187164,-19.382833,-3.3661041,5.1107893
40,-2.58393931388855,-27.34441375732422,73.64601135253906,1.323810237592882,4.860953991484672,-84.36097844206365,10.209479,2.1724534,-0.28969866,23.49095,-26.595736,-3.849947,-32.800484,-9.938744,-17.78947,17.109516,2.5275924,0.07181814,-8.371336,2.1861618,7.91592,-24.627516,29.60519,-41.289536,48.493225,6.817673,-1.2393532,-1.8599204,13.015382,-14.800481,31.990309,64.442764,-19.444527,-3.3385692,5.1833434
41,-2.7109742164611816,-28.16866111755371,73.6380844116211,0.7137016119918904,4.865559329014018,-84.37192469646229,9.922565,3.0682435,-0.40082684,25.614471,-26.445715,-3.96729,-32.873245,-9.5379305,-18.330622,18.796528,2.7602646,-0.09523498,-8.257556,2.8600163,7.8711815,-24.170134,29.438063,-41.078484,48.447197,6.970442,-1.2466412,-1.7304918,12.850956,-14.776184,32.257015,64.708435,-19.518377,-3.3514388,5.195256
42,-2.8326754570007324,-28.99664306640625,73.64486694335938,0.15197981218555712,4.823899492091238,-84.36696774862965,9.65523,3.9093893,-0.5226576,27.792673,-26.13853,-3.9727144,-32.80399,-9.210277,-18.848211,20.440989,2.5836997,0.09190785,-8.17894,3.5081172,7.8514256,-23.602705,29.22967,-40.78207,48.392365,7.1518126,-1.2493778,-1.582995,12.676045,-14.792406,32.54763,64.96599,-19.596378,-3.3925788,5.1626086
43,-2.9473657608032227,-29.836240768432617,73.6679458618164,-0.37339507072055367,4.757362085153243,-84.37176252861585,9.311062,4.7145844,-0.6272114,30.11701,-25.611267,-3.855012,-32.635273,-8.906291,-19.304771,21.995684,2.138917,0.33448046,-8.106044,4.1213946,7.855431,-22.950758,28.979692,-40.4137,48.351444,7.3274317,-1.2527032,-1.4284387,12.472874,-14.841587,32.84979,65.20976,-19.688282,-3.433752,5.113225
44,-3.0541744232177734,-30.668804168701172,73.71304321289062,-0.8695589239544348,4.682512971951988,-84.40616910747356,8.809258,5.487796,-0.68702364,32.668835,-24.787844,-3.6130016,-32.391766,-8.562609,-19.670212,23.364243,1.5860043,0.34425527,-8.009307,4.687804,7.8778934,-22.287169,28.7039,-40.059834,48.376408,7.3906355,-1.2646952,-1.275382,12.226965,-14.91043,33.14652,65.44198,-19.805176,-3.445412,5.073159
45,-3.163712739944458,-31.48545265197754,73.77851867675781,-1.3227561070659193,4.5919562769902385,-84.49268706397824,8.14725,6.2013483,-0.65170366,35.50529,-23.602728,-3.186337,-32.09894,-8.150497,-19.89167,24.557417,0.8748124,0.009946369,-7.87742,5.1801705,7.9303427,-21.557533,28.39954,-39.643066,48.442062,7.3833966,-1.2844312,-1.109093,11.915091,-14.986889,33.449287,65.69244,-19.975203,-3.4222322,5.054093
46,-3.270772933959961,-32.30251693725586,73.85929107666016,-1.732626841731916,4.480352969527829,-84.61439371032893,7.3715215,6.864116,-0.538159,38.556522,-22.100752,-2.5975995,-31.744299,-7.6814113,-20.000269,25.599825,-0.034322076,-0.4945951,-7.7269387,5.609506,8.005549,-20.76718,28.06958,-39.181183,48.54601,7.308439,-1.3095694,-0.9294823,11.545091,-15.069305,33.765087,65.96684,-20.184195,-3.3777354,5.0382724
47,-3.3869729042053223,-33.105281829833984,73.96452331542969,-2.122312218237464,4.365738407494842,-84.7313407782399,6.4870825,7.518647,-0.42073998,41.698967,-20.365099,-1.9814565,-31.285925,-7.1553082,-20.090502,26.395117,-0.9671631,-1.030194,-7.577554,6.0050144,8.086425,-19.971088,27.725037,-38.75336,48.69834,7.1500416,-1.3395478,-0.7733681,11.141566,-15.152664,34.069298,66.22877,-20.386969,-3.318865,5.007264
48,-3.5179507732391357,-33.900184631347656,74.08831024169922,-2.5145045747374652,4.267136736267761,-84.80473404533994,5.49157,8.199365,-0.38357142,44.823925,-18.485886,-1.4724102,-30.680122,-6.5878396,-20.253777,26.857338,-1.762469,-1.4568174,-7.4444227,6.3923883,8.155499,-19.226044,27.382318,-38.44786,48.90871,6.886552,-1.3736937,-0.6778443,10.7261915,-15.23092,34.331676,66.44515,-20.540638,-3.2523737,4.9418163
49,-3.6542177200317383,-34.68918991088867,74.2354965209961,-2.912325860623707,4.185281506613111,-84.8328260368657,4.348576,8.909729,-0.4327189,47.97724,-16.263845,-1.115749,-29.876755,-5.9776907,-20.504627,26.908136,-2.3906949,-1.7501243,-7.3261776,6.767449,8.216644,-18.519306,27.05218,-38.267372,49.176224,6.4629016,-1.4148834,-0.6256533,10.294957,-15.293548,34.550125,66.62326,-20.606583,-3.1840627,4.818626
50,-3.791320323944092,-35.46931838989258,74.38525390625,-3.305214371623895,4.11275726073771,-84.83424493205895,3.0623958,9.622487,-0.53488207,51.205383,-13.724826,-0.84550875,-28.914566,-5.324251,-20.791162,26.620003,-2.9400928,-1.9840134,-7.214142,7.1162624,8.275708,-17.826172,26.740046,-38.179214,49.489212,5.8975735,-1.4618443,-0.6067617,9.831897,-15.33682,34.73824,66.78572,-20.618256,-3.1074274,4.6523323
51,-3.9511923789978027,-36.23326873779297,74.5345687866211,-3.692472867155197,4.056360522566647,-84.80472739933116,1.6931584,10.314338,-0.7179552,54.405037,-11.303565,-0.62649953,-27.872803,-4.6509094,-21.100683,26.122389,-3.4274666,-2.1603248,-7.1107516,7.4454317,8.322878,-17.16013,26.449337,-38.18386,49.82327,5.3139653,-1.5054854,-0.6704249,9.341013,-15.36622,34.888634,66.92103,-20.64208,-3.0189228,4.48053
52,-4.100113868713379,-37.000186920166016,74.68538665771484,-4.073809293389121,4.0228250851141665,-84.73959832830403,0.2976206,10.967066,-1.0074236,57.486065,-9.447362,-0.41777408,-26.830383,-3.9808822,-21.423992,25.54401,-3.8683128,-2.2795527,-7.016563,7.7650213,8.348692,-16.54512,26.182611,-38.295135,50.160076,4.8229733,-1.5364977,-0.8650272,8.8328905,-15.392763,34.991837,67.00764,-20.742802,-2.9137714,4.34259
53,-4.2544450759887695,-37.750999450683594,74.84388732910156,-4.45958488833289,4.0230306956341275,-84.63134891632161,-1.1552348,11.605349,-1.4198079,60.538265,-8.295886,-0.22595523,-25.792093,-3.3059385,-21.775034,24.871737,-4.2539396,-2.324095,-6.936877,8.087278,8.343773,-15.983156,25.94148,-38.51661,50.50368,4.42905,-1.5513453,-1.2361352,8.313233,-15.422968,35.04456,67.02613,-20.963139,-2.775101,4.260872
54,-4.397302150726318,-38.4857292175293,74.99755859375,-4.842414913182058,4.05073385663224,-84.48539047119908,-2.686686,12.215842,-1.9407809,63.594296,-7.6207175,-0.06657249,-24.717653,-2.6219735,-22.148838,24.048468,-4.578056,-2.2952812,-6.868834,8.4005785,8.316965,-15.46134,25.727577,-38.840847,50.85927,4.0795903,-1.553472,-1.7470399,7.7799716,-15.458932,35.05061,66.982574,-21.259596,-2.610503,4.2126126
55,-4.536667823791504,-39.22405242919922,75.14456176757812,-5.199667933862782,4.087019656325862,-84.31578335519535,-4.2326775,12.729416,-2.5445182,66.49682,-7.3204284,0.08567444,-23.62646,-1.9580262,-22.514105,23.151672,-4.8646493,-2.2244585,-6.8029265,8.684307,8.288088,-14.975112,25.540539,-39.25554,51.203564,3.8095255,-1.5447786,-2.3230715,7.2361217,-15.504402,35.011997,66.885765,-21.567099,-2.4519143,4.1707892
56,-4.674576282501221,-39.9510383605957,75.28804016113281,-5.510572091431028,4.1127713144019795,-84.13649858181365,-5.7239437,13.07792,-3.1987822,69.078896,-7.289213,0.24948962,-22.53709,-1.3413768,-22.843311,22.255533,-5.141163,-2.1467013,-6.729622,8.919331,8.277126,-14.519116,25.377815,-39.745174,51.513504,3.6581504,-1.5289953,-2.889467,6.6831055,-15.565918,34.93064,66.7462,-21.819569,-2.3313649,4.1072574
57,-4.7927775382995605,-40.65509796142578,75.42584228515625,-5.779999177534064,4.128694465495295,-83.93689817414925,-7.155844,13.233595,-3.9296284,71.315254,-7.6675453,0.48209628,-21.455381,-0.7737925,-23.146503,21.369284,-5.408434,-2.073807,-6.657114,9.114312,8.292486,-14.106079,25.237682,-40.31863,51.787727,3.6181464,-1.5073177,-3.4632733,6.1201887,-15.650544,34.79562,66.54343,-22.031271,-2.2409992,4.0375457
58,-4.904412746429443,-41.36983108520508,75.56393432617188,-6.016131484712514,4.143117167628176,-83.7141195099089,-8.557162,13.226887,-4.732463,73.29689,-8.456244,0.7467497,-20.372084,-0.24277262,-23.4365,20.459837,-5.6566625,-1.9889032,-6.58643,9.276255,8.32342,-13.737845,25.119385,-40.98139,52.03983,3.6743345,-1.4801255,-4.0721617,5.551519,-15.762163,34.608944,66.27098,-22.225866,-2.1685283,3.9698668
59,-5.016406059265137,-42.07143783569336,75.69367218017578,-6.205475345259208,4.1479075266502665,-83.49374832263148,-9.905886,13.0871105,-5.525225,75.022545,-9.335436,0.92206407,-19.288408,0.24401276,-23.691965,19.549377,-5.8970594,-1.8864977,-6.499094,9.388062,8.362296,-13.38788,25.02046,-41.70632,52.263954,3.8578806,-1.4511639,-4.6576123,4.9908376,-15.898582,34.39125,65.95801,-22.353786,-2.1421354,3.8645904
60,-5.119504928588867,-42.774139404296875,75.8221206665039,-6.335953873878495,4.134653545613418,-83.3021140885349,-11.1819315,12.853631,-6.226772,76.48722,-9.986554,0.8857309,-18.204021,0.6798903,-23.892199,18.658209,-6.140455,-1.761245,-6.3776007,9.433502,8.400426,-13.030466,24.938927,-42.467163,52.456913,4.1979666,-1.4245826,-5.1612043,4.4482217,-16.053802,34.166775,65.63497,-22.363953,-2.1860788,3.6827831
61,-5.219295978546143,-43.4700813293457,75.9423828125,-6.387887696715586,4.101055010721597,-83.14307430621157,-12.374564,12.523144,-6.8047395,77.66779,-10.314327,0.5540387,-17.135202,1.0350229,-24.032293,17.831507,-6.4116936,-1.6087009,-6.2201085,9.389817,8.437538,-12.674155,24.875603,-43.28676,52.6209,4.7409945,-1.4001113,-5.5744333,3.919341,-16.224564,33.948303,65.309006,-22.212086,-2.3421583,3.3874474
62,-5.319357395172119,-44.169891357421875,76.06295013427734,-6.375768485223705,4.050926006617908,-83.00397308861156,-13.4966,12.092629,-7.3033586,78.57511,-10.495421,0.00873333,-16.074757,1.3229125,-24.128477,17.0465,-6.6995897,-1.435911,-6.035525,9.273243,8.477955,-12.328125,24.829983,-44.166775,52.75813,5.4610615,-1.3780615,-5.9265785,3.397862,-16.41013,33.721615,64.971504,-21.93742,-2.5881996,3.0078404
63,-5.40995979309082,-44.8690299987793,76.17533874511719,-6.335611852395352,3.9851708258232668,-82.88497371544575,-14.566409,11.603351,-7.755168,79.25106,-10.615849,-0.6109242,-14.992542,1.5965853,-24.189161,16.232525,-6.965185,-1.2531261,-5.8246145,9.123292,8.519012,-11.9721155,24.79867,-45.057674,52.868454,6.2699533,-1.3618906,-6.2155232,2.8888638,-16.606876,33.47368,64.62943,-21.610828,-2.8505912,2.6042385
64,-5.500967025756836,-45.56417465209961,76.29002380371094,-6.301912109962646,3.9050238833387985,-82.78664128727479,-15.601704,11.093605,-8.1932535,79.73567,-10.759176,-1.1674764,-13.857362,1.9071846,-24.21891,15.315071,-7.1665826,-1.0686752,-5.5895514,8.978313,8.557444,-11.580089,24.776775,-45.90163,52.949715,7.0868793,-1.3539773,-6.439054,2.394515,-16.80855,33.19218,64.29595,-21.302668,-3.0568328,2.2345793
65,-5.585470199584961,-46.266353607177734,76.40172576904297,-6.277737082369057,3.8058005185372674,-82.71004103229126,-16.602942,10.547618,-8.636893,80.02129,-10.920915,-1.6178012,-12.654576,2.2614462,-24.211983,14.274918,-7.2898145,-0.88235843,-5.3264995,8.840363,8.589281,-11.154261,24.76245,-46.720657,53.00583,7.9407835,-1.353052,-6.582691,1.9108691,-17.011156,32.875046,63.98447,-21.005188,-3.1854718,1.9072558
66,-5.673271179199219,-46.97332763671875,76.50840759277344,-6.245572515301266,3.6886086893563137,-82.65532292825513,-17.561842,9.9597,-9.067039,80.08874,-11.063254,-2.0337596,-11.400697,2.6314857,-24.165308,13.148631,-7.3561125,-0.6903065,-5.0350747,8.69018,8.616052,-10.706775,24.754538,-47.532326,53.040733,8.86066,-1.3563652,-6.6520977,1.4359286,-17.21288,32.527252,63.6908,-20.691076,-3.2760758,1.5924855
67,-5.759370803833008,-47.67753219604492,76.60664367675781,-6.207829045531427,3.5639443652285183,-82.62169923946873,-18.484802,9.381411,-9.458109,79.96404,-11.2196665,-2.4477572,-10.11388,3.014026,-24.084562,11.949252,-7.3791327,-0.49332133,-4.7233305,8.532447,8.640452,-10.229892,24.750376,-48.27855,53.057507,9.758139,-1.3638192,-6.6746902,0.9640515,-17.412802,32.158623,63.41238,-20.391613,-3.3455207,1.2893928
68,-5.835700035095215,-48.390289306640625,76.69957733154297,-6.165444130518939,3.4425416620198734,-82.60784258327853,-19.378622,8.862152,-9.782379,79.67218,-11.422321,-2.8915675,-8.807619,3.4064736,-23.975422,10.678723,-7.3668275,-0.29100174,-4.4029512,8.370667,8.665222,-9.710808,24.747963,-48.895237,53.056633,10.547405,-1.3762463,-6.678218,0.48792937,-17.611563,31.780354,63.147835,-20.140074,-3.4103086,0.99718493
69,-5.917191982269287,-49.08784866333008,76.77262878417969,-6.1208453041745825,3.318316025112367,-82.62216467892254,-20.225351,8.411061,-10.034016,79.19437,-11.671132,-3.4253302,-7.4628215,3.8187065,-23.827026,9.304684,-7.3062625,-0.07811663,-4.07006,8.208961,8.697443,-9.138312,24.74713,-49.362637,53.026875,11.251252,-1.4017555,-6.661243,0.0039039366,-17.808748,31.396915,62.902767,-19.935654,-3.4805992,0.69398326
70,-5.993199825286865,-49.78908920288086,76.83377838134766,-6.070502941196056,3.189668363183751,-82.66390534243044,-21.029678,8.007783,-10.225267,78.52151,-11.9494095,-4.010023,-6.0632143,4.25087,-23.63579,7.798949,-7.177083,0.14612664,-3.7225604,8.043051,8.732315,-8.518644,24.749155,-49.713894,52.97018,11.898586,-1.4365741,-6.611716,-0.48815435,-18.003866,31.006424,62.679604,-19.7635,-3.5449524,0.38707143
71,-6.062374114990234,-50.48091506958008,76.8843002319336,-6.008192316344994,3.0739908461591576,-82.71782524833982,-21.831316,7.6536345,-10.35403,77.693794,-12.263184,-4.5312066,-5.084452,4.4792333,-23.453909,7.2241507,-7.53177,0.385571,-3.373539,7.865326,8.755973,-7.8595605,24.75353,-49.95635,52.902126,12.421607,-1.4648241,-6.541328,-0.9871997,-18.197021,30.612188,62.467186,-19.631565,-3.5870776,0.120058194
72,-6.127840042114258,-51.164031982421875,76.9161605834961,-5.930398812886461,2.9882257865439428,-82.7679721055312,-22.668493,7.3491917,-10.421111,76.750725,-12.61695,-4.878548,-4.3529663,4.5847487,-23.293995,7.142663,-8.131391,0.62872696,-3.0378819,7.6710935,8.7553005,-7.171024,24.759193,-50.099327,52.840305,12.749294,-1.4713955,-6.4619684,-1.4924623,-18.389208,30.217909,62.254917,-19.54792,-3.5905735,-0.06370055
73,-6.187969207763672,-51.85601806640625,76.94290161132812,-5.83605589657629,2.939317388444621,-82.81542825338029,-23.554153,7.0850606,-10.427062,75.69263,-13.06566,-5.011282,-3.6647353,4.6633053,-23.142685,7.063213,-8.714091,0.8781168,-2.718357,7.458413,8.723114,-6.4490943,24.764662,-50.14113,52.783497,12.828476,-1.4401463,-6.3548503,-2.0077016,-18.58168,29.815687,62.039505,-19.529472,-3.5303981,-0.12801512
74,-6.248643398284912,-52.551536560058594,76.96331024169922,-5.731610903305892,2.917364149201989,-82.86745727512763,-24.463785,6.863026,-10.37368,74.499565,-13.587894,-4.9990635,-3.008189,4.7255893,-22.991224,6.979361,-9.280361,1.1353539,-2.4067247,7.234846,8.668483,-5.6901245,24.768576,-50.078888,52.722847,12.70776,-1.3840307,-6.2207665,-2.5317087,-18.774752,29.406446,61.825798,-19.566721,-3.4217694,-0.10395686
75,-6.299129009246826,-53.237098693847656,76.97058868408203,-5.6235617849166,2.9134322177184515,-82.9158700802375,-25.375277,6.6948223,-10.263031,73.179726,-14.07518,-4.9003944,-2.3703854,4.7774734,-22.847918,6.8936973,-9.840779,1.3849775,-2.1034656,7.0074725,8.602392,-4.905608,24.77015,-49.920685,52.666317,12.467762,-1.3316488,-6.101316,-3.0580711,-18.969934,29.007753,61.61854,-19.62848,-3.308692,-0.049936738
76,-6.352468490600586,-53.9231071472168,76.97261810302734,-5.518627151590151,2.9183206714406977,-82.95155705655249,-26.268152,6.5917134,-10.09624,71.74392,-14.420477,-4.7737603,-1.7381866,4.8243957,-22.721386,6.8061857,-10.402866,1.6115156,-1.8095543,6.7842274,8.536333,-4.10853,24.768959,-49.67705,52.62223,12.186746,-1.3109167,-6.038334,-3.5781987,-19.168453,28.636528,61.419468,-19.683676,-3.2350616,-0.024070716
77,-6.40095329284668,-54.61062240600586,76.96098327636719,-5.4096029127048695,2.9324859438357467,-82.96843838482037,-27.148684,6.557843,-9.849906,70.19534,-14.593395,-4.625852,-1.111692,4.857995,-22.617302,6.7174487,-10.974873,1.8137419,-1.5272096,6.557553,8.469961,-3.2922015,24.763914,-49.322544,52.587204,11.884461,-1.3361923,-6.062364,-4.0929503,-19.37184,28.298952,61.2367,-19.735037,-3.2208722,-0.045608044
78,-6.44918155670166,-55.2963981628418,76.93325805664062,-5.288543202329521,2.9580819708536823,-82.97053599995854,-28.021893,6.5692644,-9.522292,68.53949,-14.662071,-4.4382668,-0.49911433,4.869227,-22.530916,6.639091,-11.555214,2.000072,-1.258657,6.320107,8.400948,-2.4511867,24.753817,-48.859764,52.555412,11.519324,-1.3896759,-6.1451044,-4.604153,-19.579714,27.986694,61.063267,-19.79446,-3.239931,-0.081988685
79,-6.487023830413818,-55.98689270019531,76.8957748413086,-5.180033192022305,2.9884720231941504,-82.96356484882254,-28.8564,6.614535,-9.159445,66.76256,-14.651591,-4.2295737,0.097494826,4.8813114,-22.459291,6.591825,-12.148353,2.1689272,-1.0034561,6.0973625,8.335896,-1.6018646,24.737968,-48.343258,52.53699,11.078739,-1.4506071,-6.240074,-5.109831,-19.79348,27.693623,60.88797,-19.845589,-3.2669268,-0.11530421
80,-6.523468494415283,-56.67715072631836,76.84969329833984,-5.091012918221005,3.0170046456791657,-82.95362530695117,-29.627108,6.670585,-8.799893,64.86552,-14.594961,-4.0145016,0.67523915,4.9002256,-22.395151,6.602789,-12.76249,2.318529,-0.75783724,5.8989496,8.2813635,-0.76372176,24.715342,-47.830196,52.54237,10.550385,-1.4988337,-6.3006406,-5.601032,-20.013458,27.409561,60.691917,-19.871777,-3.276544,-0.1268082
81,-6.543943405151367,-57.372623443603516,76.79893493652344,-5.00211745112863,3.040349985833592,-82.94733716483381,-30.321896,6.731521,-8.41362,62.82904,-14.508248,-3.7768352,1.2627114,4.913744,-22.32431,6.612855,-13.363354,2.4606533,-0.5119361,5.7036314,8.240656,0.05899531,24.684862,-47.322197,52.5752,9.875963,-1.5375811,-6.307214,-6.0761194,-20.24046,27.124565,60.467346,-19.857033,-3.2619503,-0.101632215
82,-6.566666603088379,-58.06779098510742,76.74114990234375,-4.911843941660652,3.0627104527602573,-82.93982480396281,-30.949764,6.7997212,-7.985418,60.65212,-14.370594,-3.5187728,1.8542409,4.9192233,-22.253256,6.624127,-13.955905,2.5928204,-0.2669611,5.5098324,8.208982,0.8742942,24.645082,-46.795677,52.631676,9.082093,-1.5753851,-6.2871666,-6.5347342,-20.475185,26.842367,60.22088,-19.813936,-3.236564,-0.052591056
83,-6.585263252258301,-58.756126403808594,76.67432403564453,-4.825714513757082,3.09301644296668,-82.92662868328712,-31.51845,6.848407,-7.550159,58.351894,-14.150577,-3.2689931,2.441628,4.9245086,-22.189192,6.63366,-14.537503,2.6953712,-0.029966597,5.325149,8.17366,1.6720998,24.596336,-46.280453,52.720516,8.272266,-1.6010177,-6.263462,-6.9721437,-20.717243,26.572876,59.959126,-19.77126,-3.205679,-0.003102124
84,-6.601081848144531,-59.439266204833984,76.5975570678711,-4.74984835934973,3.140228144575631,-82.90340814358815,-32.03876,6.8570204,-7.1460385,55.94618,-13.815568,-3.0510368,3.0143979,4.937774,-22.139635,6.6453185,-15.110643,2.7493095,0.19435433,5.1574616,8.121983,2.4429772,24.53916,-45.804375,52.84976,7.5538063,-1.6023754,-6.2586937,-7.381642,-20.964956,26.322884,59.687122,-19.758385,-3.1747062,0.023567313
85,-6.598696708679199,-60.15059280395508,76.51722717285156,-4.687596628517832,3.2052452519480905,-82.86695658728202,-32.517162,6.8301086,-6.7945023,53.43156,-13.356997,-2.8380227,3.571576,4.9613223,-22.106585,6.6574306,-15.669899,2.7282557,0.40453622,5.009718,8.050633,3.184301,24.473608,-45.372902,53.02554,6.930128,-1.56213,-6.2784,-7.7641573,-21.218369,26.101267,59.410404,-19.785616,-3.1397054,0.017580133
86,-6.600738525390625,-60.85283279418945,76.42719268798828,-4.634831829840498,3.283168718175552,-82.82013204665276,-32.947365,6.779968,-6.4736843,50.799797,-12.789039,-2.6231112,4.119214,4.9910407,-22.085299,6.669466,-16.217993,2.6505752,0.6037014,4.877315,7.9665504,3.900137,24.399466,-44.97177,53.243748,6.353144,-1.4910542,-6.309684,-8.120087,-21.476833,25.899353,59.123028,-19.838062,-3.0994787,-0.0074020047
87,-6.599166393280029,-61.55642318725586,76.32748413085938,-4.585443060634002,3.3742778780179052,-82.76849872561628,-33.317673,6.703138,-6.1591187,48.050274,-12.115235,-2.456228,4.6567197,5.022329,-22.072712,6.680991,-16.762295,2.5659251,0.794365,4.753907,7.8715997,4.5881963,24.318033,-44.602676,53.49938,5.84959,-1.4189897,-6.3478174,-8.450058,-21.739004,25.704102,58.821156,-19.902245,-3.0639288,-0.04021929
88,-6.594423770904541,-62.2546501159668,76.21869659423828,-4.533505224468069,3.4786585259569653,-82.71871464668868,-33.614933,6.5975366,-5.827535,45.176346,-11.333494,-2.3874662,5.1834025,5.0497184,-22.0659,6.6902056,-17.307875,2.5246518,0.9811305,4.633547,7.7680316,5.248677,24.231127,-44.265667,53.784626,5.449031,-1.375846,-6.388739,-8.750625,-22.001884,25.498129,58.497677,-19.966425,-3.0430539,-0.069311805
89,-6.573845386505127,-62.97041702270508,76.09962463378906,-4.476793462804622,3.5993147028503496,-82.66998943353363,-33.83124,6.475237,-5.467884,42.140205,-10.413485,-2.4356813,5.69425,5.0707917,-22.06533,6.7014446,-17.861624,2.5346396,1.1673167,4.5122137,7.6510177,5.87832,24.141535,-43.962395,54.10735,5.1615305,-1.376569,-6.44056,-9.019463,-22.2635,25.270521,58.150505,-20.035606,-3.0430565,-0.08755456
90,-6.560040473937988,-63.67759704589844,75.969970703125,-4.4202272338137885,3.7333537757364326,-82.62278786948987,-33.967354,6.343653,-5.0996428,38.937958,-9.355192,-2.5680645,6.1948967,5.0875554,-22.06978,6.711855,-18.417397,2.5730064,1.3537205,4.394833,7.5227666,6.480388,24.050747,-43.691406,54.464916,4.971693,-1.4025215,-6.503002,-9.258842,-22.523577,25.031155,57.784252,-20.112932,-3.057457,-0.102733865
91,-6.536364555358887,-64.39429473876953,75.83106994628906,-4.369494924925503,3.8715065872002663,-82.5864655248989,-34.02045,6.196513,-4.7463765,35.608917,-8.201743,-2.7565427,6.6958337,5.100378,-22.073679,6.719212,-18.964695,2.6421084,1.5401577,4.2887936,7.39607,7.060154,23.95844,-43.452732,54.838997,4.864447,-1.4339867,-6.5593348,-9.474677,-22.7822,24.794037,57.404255,-20.188282,-3.0771143,-0.12601762
92,-6.50791597366333,-65.11141967773438,75.68484497070312,-4.3300618281898915,4.0039153858949845,-82.57082027632246,-33.990215,6.0297837,-4.431477,32.19707,-6.998781,-2.9723864,7.2071853,5.113863,-22.071278,6.7228723,-19.49502,2.7421832,1.7273381,4.2023973,7.284318,7.6211443,23.863045,-43.247517,55.21306,4.8239264,-1.4512354,-6.5926375,-9.673964,-23.039442,24.575891,57.016132,-20.247982,-3.0927982,-0.16853154
93,-6.474814414978027,-65.82705688476562,75.53070831298828,-4.312091558060058,4.13202863051105,-82.58318366804804,-33.87818,5.8521104,-4.188247,28.654165,-5.6820555,-3.199326,7.7278123,5.143826,-22.06151,6.7190976,-20.008982,2.8670523,1.9186115,4.1473665,7.1895514,8.162998,23.762737,-43.074364,55.58583,4.8630347,-1.4489192,-6.5837007,-9.86113,-23.295486,24.38118,56.61499,-20.29143,-3.0981612,-0.23703061
94,-6.425705432891846,-66.55731201171875,75.37368774414062,-4.319043955264382,4.251182029505479,-82.62750900856729,-33.662785,5.6917977,-4.0001016,24.943502,-4.23883,-3.4503765,8.2618,5.1953707,-22.036463,6.709543,-20.51016,3.0139468,2.1222854,4.1254635,7.111602,8.684269,23.657038,-42.933117,55.966965,4.984129,-1.4375907,-6.5461774,-10.032925,-23.550713,24.202444,56.201572,-20.324589,-3.099451,-0.32399195
95,-6.374466419219971,-67.28192138671875,75.21139526367188,-4.347081879303641,4.34017816680839,-82.71141154724273,-33.30548,5.5725045,-3.8100338,21.12489,-2.7886164,-3.7416115,8.833092,5.2618065,-21.976748,6.6961336,-20.994564,3.1864624,2.3499668,4.132352,7.0623446,9.188727,23.546045,-42.8249,56.354065,5.160134,-1.4213235,-6.51302,-10.181596,-23.804386,24.036058,55.786232,-20.344063,-3.1060004,-0.41881454
96,-6.3129754066467285,-68.0208969116211,75.03881072998047,-4.396097525341669,4.376794398578044,-82.8442158488667,-32.763607,5.5132837,-3.5585291,17.25244,-1.4518021,-4.0954866,9.466605,5.3390603,-21.860912,6.675849,-21.453266,3.3876407,2.614582,4.1674557,7.054469,9.679363,23.43061,-42.752712,56.74465,5.3608956,-1.4046054,-6.517147,-10.297203,-24.054184,23.87564,55.37829,-20.349777,-3.127455,-0.5108478
97,-6.238790035247803,-68.76264953613281,74.86090087890625,-4.47003056724208,4.351715356699713,-83.03800928719323,-31.970112,5.5148144,-3.2320786,13.170346,-0.18437393,-4.5396566,10.17226,5.4318423,-21.676674,6.64804,-21.897299,3.625853,2.9310212,4.236957,7.096896,10.157455,23.310879,-42.71486,57.13807,5.6008024,-1.3881606,-6.5642467,-10.384139,-24.301456,23.722347,54.978096,-20.342417,-3.1675076,-0.6031977
98,-6.171261310577393,-69.5088119506836,74.667236328125,-4.589651679274448,4.262717704467272,-83.30696081736531,-30.850529,5.605056,-2.8433046,8.684895,1.1671461,-5.0591326,10.950817,5.563833,-21.411608,6.611342,-22.325895,3.8897746,3.3101087,4.3621645,7.1911173,10.624277,23.187197,-42.710365,57.533882,5.888064,-1.370043,-6.6376357,-10.444335,-24.548046,23.577328,54.581226,-20.323927,-3.220828,-0.69852585
99,-6.086679458618164,-70.27737426757812,74.46894836425781,-4.748664125072897,4.121650423046808,-83.63523058907286,-30.720201,5.714954,-2.4961717,6.6354637,1.1584522,-5.595749,11.788566,5.7246795,-21.074648,6.570929,-22.71914,4.158968,3.7328455,4.5343013,7.3204913,11.079978,23.06156,-42.74262,57.930595,6.1858964,-1.3503264,-6.736348,-10.469773,-24.789839,23.44051,54.193,-20.286709,-3.2830381,-0.7871879
100,-5.999207496643066,-71.04952239990234,74.26045227050781,-4.922749519493651,3.9565216272421933,-83.98146692629125,-31.331825,5.839295,-2.1606898,6.523959,0.11540294,-6.1029935,12.666184,5.8894362,-20.702003,6.511096,-23.046064,4.41787,4.154554,4.7239647,7.4565463,11.522974,22.937365,-42.81381,58.328304,6.4578075,-1.3291122,-6.859622,-10.454469,-25.017408,23.310884,53.82172,-20.22385,-3.3498523,-0.8614277
101,-5.918195724487305,-71.8169174194336,74.05574035644531,-5.10821158899271,3.768568725615212,-84.34325706893868,-31.785439,6.01439,-1.7080485,6.4460006,-1.0811024,-6.674375,13.513993,6.0295706,-20.311432,6.586581,-23.390522,4.6649446,4.552493,4.9057107,7.5921555,11.991833,22.849688,-42.900127,58.69925,6.68788,-1.3002421,-7.0093045,-10.451109,-25.171068,23.209679,53.535686,-20.141088,-3.4214456,-0.9316016
102,-5.8245086669921875,-72.59342956542969,73.84540557861328,-5.326066132015128,3.549739449827293,-84.7192645115161,-32.116875,6.2491207,-1.1774765,6.4444466,-2.433805,-7.309265,14.487639,6.2310534,-19.886038,6.471937,-23.596468,4.9028983,4.9313636,5.114389,7.7393312,12.479354,22.786453,-43.00179,59.044632,6.9014516,-1.2651094,-7.185947,-10.449035,-25.27846,23.131317,53.31028,-20.039242,-3.5015886,-0.99621487
103,-5.733763217926025,-73.36853790283203,73.65481567382812,-5.48011118056506,3.3719095544755353,-85.04422650392623,-32.343517,6.4121404,-0.62141854,6.443473,-3.6238463,-7.8061337,15.384425,6.336338,-19.50453,6.445165,-23.786701,5.15481,5.269772,5.2735615,7.8524075,12.895228,22.698572,-43.17465,59.43273,7.106825,-1.2386844,-7.3850536,-10.341559,-25.421827,23.029352,53.017857,-19.909046,-3.5826283,-1.0433608
104,-5.639289379119873,-74.15753936767578,73.47718048095703,-5.531385407726499,3.2788972707247073,-85.27341621185424,-32.500347,6.436086,-0.12774977,6.465308,-4.387361,-7.97716,16.193201,6.3181467,-19.204008,6.426105,-23.902966,5.430434,5.493359,5.3187118,7.8942075,13.29055,22.63251,-43.368313,59.796738,7.3311925,-1.2230363,-7.61059,-10.230065,-25.517998,22.956995,52.77664,-19.766956,-3.667598,-1.0893836
105,-5.544132232666016,-74.94989013671875,73.32073974609375,-5.469029134606042,3.2780957743681456,-85.38116833291764,-32.54644,6.288844,0.28596106,6.491534,-4.7199507,-7.724228,16.91307,6.170038,-19.012493,6.412757,-23.95419,5.744882,5.597428,5.2450566,7.8604136,13.637378,22.573559,-43.613663,60.1677,7.563532,-1.2288263,-7.865998,-10.071943,-25.593111,22.894066,52.5401,-19.608349,-3.7565057,-1.130605
106,-5.449984073638916,-75.74317932128906,73.18367004394531,-5.323838146175505,3.3447332213639682,-85.39499332194548,-32.482746,6.0090537,0.64952356,6.536548,-4.753072,-7.1644354,17.570742,5.9318614,-18.910198,6.4030976,-23.945309,6.090192,5.608236,5.0831957,7.7692304,13.934457,22.51787,-43.911407,60.557076,7.795791,-1.2519864,-8.1501875,-9.856618,-25.65097,22.8347,52.297466,-19.431149,-3.8474386,-1.1659588
107,-5.340537071228027,-76.54403686523438,73.07459259033203,-5.085082076680236,3.4772799378479875,-85.33373295686116,-32.37048,5.5950665,0.9617781,6.595635,-4.389358,-6.4215307,18.163462,5.5920515,-18.886189,6.394693,-23.854324,6.4508586,5.532899,4.824269,7.6284003,14.187996,22.467854,-44.244873,60.93796,8.045988,-1.274999,-8.452429,-9.61467,-25.686747,22.783806,52.083576,-19.241508,-3.9396832,-1.1935946
108,-5.222534656524658,-77.30902099609375,73.0322036743164,-4.715423743852613,3.6806724198098837,-85.20167380461285,-32.250374,5.011564,1.2385721,6.61103,-3.502163,-5.6128263,18.677261,5.1066637,-18.947742,6.4013877,-23.6684,6.816953,5.383296,4.4421816,7.4365396,14.375312,22.406399,-44.636345,61.31515,8.319006,-1.2806817,-8.75795,-9.351824,-25.707113,22.72527,51.919518,-19.046682,-4.031904,-1.2112024
109,-5.096109390258789,-78.07942962646484,73.01947784423828,-4.1945764323559045,3.9975309250934474,-84.98110075353307,-32.19675,4.2274194,1.4370414,6.6518784,-1.8726845,-4.595454,19.076725,4.451594,-19.115402,6.396051,-23.3937,7.1968923,5.144726,3.9182491,7.1539907,14.4615555,22.299177,-45.096596,61.734818,8.622783,-1.264521,-9.077451,-9.081866,-25.70619,22.660034,51.822155,-18.83916,-4.124381,-1.2095798
110,-4.974405765533447,-78.87702941894531,73.01309967041016,-3.521582525981883,4.402308446437474,-84.66231572432493,-32.14237,3.2504795,1.5909227,6.6840153,0.38833728,-3.3501027,19.385859,3.62964,-19.395403,6.407815,-23.050875,7.6004353,4.745277,3.245119,6.812281,14.548804,22.205038,-45.523273,62.087166,8.977735,-1.2325288,-9.421887,-8.859734,-25.673697,22.669514,51.803955,-18.602795,-4.21727,-1.1942831
111,-4.847570896148682,-79.68128204345703,73.01183319091797,-2.8532121592979776,4.753706803906081,-84.32068166564508,-32.43918,2.310541,1.7189647,7.66341,2.311741,-2.2197351,19.618435,2.780982,-19.689116,6.7400284,-22.754072,7.9831076,4.318915,2.5867305,6.4959784,14.566498,22.067896,-46.00332,62.493057,9.349479,-1.202067,-9.749339,-8.624568,-25.593767,22.677698,51.864594,-18.386965,-4.3076954,-1.1871722
112,-4.700076580047607,-80.49813079833984,73.01500701904297,-2.286967793360774,4.952693728978474,-84.0790399429175,-33.647507,1.6087283,1.9121617,10.940704,2.702738,-1.5425777,20.036188,2.0687022,-19.85189,7.0106974,-22.241611,8.301466,3.9608738,2.0298314,6.2927814,14.578579,21.926596,-46.477474,62.887585,9.746203,-1.1859345,-10.035506,-8.3620205,-25.475086,22.698675,51.97089,-18.208649,-4.3921294,-1.2014631
113,-4.541135787963867,-81.32208251953125,73.01715087890625,-1.82938600315393,4.968631402243049,-83.97878750082661,-34.20114,1.1400944,2.2822096,13.275701,3.270756,-1.5963877,20.662842,1.4741049,-19.817995,7.2386026,-21.570263,8.579027,3.7098072,1.571732,6.223096,14.612491,21.790442,-46.95212,63.256413,10.173337,-1.1912327,-10.262786,-8.06007,-25.32297,22.737627,52.116375,-18.075357,-4.4746385,-1.2373965
114,-4.396275520324707,-82.15705871582031,73.01995086669922,-1.4209277901412005,4.869122134551258,-83.95434425069763,-34.414467,0.80305195,2.736528,15.230361,3.9359941,-2.1293154,21.415098,0.9161376,-19.675558,7.448041,-20.75727,8.818861,3.5055485,1.1551889,6.24049,14.648334,21.658867,-47.435684,63.599953,10.629396,-1.2074964,-10.450941,-7.7265143,-25.137175,22.790565,52.30384,-17.972908,-4.555531,-1.2872189
115,-4.26386833190918,-83.00506591796875,73.03730010986328,-1.0645262710772185,4.699047436440114,-83.92569257523286,-34.475826,0.5277714,3.1237957,17.077581,4.414333,-2.708502,22.221128,0.41616616,-19.56237,7.6730604,-19.710443,8.945348,3.292796,0.7886708,6.3286905,14.625937,21.534851,-47.937515,63.94347,11.089114,-1.2279674,-10.62683,-7.3548317,-24.913322,22.81545,52.523293,-17.897898,-4.626471,-1.3567119
116,-4.135563373565674,-83.8482666015625,73.081298828125,-0.7567972408258349,4.501881360295901,-83.83574311948666,-34.531597,0.2495202,3.3364875,18.990618,4.4631033,-2.9150884,22.429443,-0.21916251,-19.588448,9.260592,-19.027744,8.888177,3.040587,0.47154903,6.4700413,14.487453,21.424927,-48.468655,64.308205,11.525973,-1.2454367,-10.816978,-6.93869,-24.64527,22.769335,52.766075,-17.84665,-4.67929,-1.4511616
117,-4.008579730987549,-84.68307495117188,73.1501693725586,-0.4626638529400343,4.2842296428901285,-83.69292180590087,-34.61905,-0.07596289,3.3768477,21.024527,3.9494393,-2.6132243,21.617878,-1.1785038,-19.738964,13.190253,-19.209673,8.591884,2.77402,0.15676738,6.66913,14.209235,21.338758,-49.05472,64.717354,11.9197235,-1.2667321,-11.030092,-6.4535203,-24.318295,22.601925,53.020515,-17.844608,-4.7099924,-1.5914348
118,-3.8955800533294678,-85.49223327636719,73.23808288574219,-0.14009070206553623,4.04913338431736,-83.5607699000256,-34.645786,-0.45382673,3.372089,22.99379,3.0718677,-2.0432603,20.707912,-2.2200613,-19.920444,17.379087,-19.210926,8.087878,2.5452857,-0.20742513,6.907142,13.830751,21.282528,-49.687187,65.145775,12.285353,-1.2927532,-11.2523,-5.9130354,-23.927034,22.345396,53.29949,-17.886528,-4.723099,-1.7690719
119,-3.793330430984497,-86.29084014892578,73.33592224121094,0.20133495038680022,3.8280382935516544,-83.45611673226018,-34.568542,-0.86626726,3.3822856,24.729576,2.0675356,-1.3540866,19.695822,-3.3505473,-20.102224,21.681337,-18.943794,7.4571524,2.349013,-0.60241175,7.136693,13.39328,21.255186,-50.3154,65.53948,12.657282,-1.3073101,-11.47658,-5.364425,-23.4877,22.08106,53.626392,-17.927608,-4.7234325,-1.9452907
120,-3.6906485557556152,-87.07775115966797,73.44300842285156,0.5288948123919285,3.6444453994146255,-83.37745473083187,-34.35415,-1.268385,3.4341817,26.107754,1.145122,-0.6927901,18.605967,-4.5224,-20.27594,25.908924,-18.295597,6.7940774,2.1592155,-0.9779667,7.32078,12.9332,21.249302,-50.88906,65.84811,13.07034,-1.2946656,-11.695302,-4.849388,-23.030079,21.894518,54.014507,-17.914486,-4.7159724,-2.0795772
121,-3.5822582244873047,-87.85528564453125,73.56485748291016,0.8020257246809678,3.4947890762403935,-83.28992038972015,-34.00885,-1.6336159,3.476663,27.156965,0.2733581,-0.029883023,17.445896,-5.679776,-20.510616,30.073826,-17.136982,6.1116047,1.9362414,-1.2743425,7.465363,12.444831,21.25631,-51.41277,66.06958,13.578168,-1.2508171,-11.917083,-4.353677,-22.57241,21.783142,54.466705,-17.815529,-4.708401,-2.1933007
122,-3.4590811729431152,-88.62898254394531,73.69538879394531,1.0209296984111165,3.3628266950253667,-83.18078105996885,-33.563377,-1.9771751,3.467839,27.97864,-0.65778977,0.69141984,16.227087,-6.814603,-20.822361,34.229385,-15.543016,5.374203,1.678599,-1.4948859,7.5932803,11.909454,21.2718,-51.910133,66.2324,14.150232,-1.1851797,-12.142696,-3.8497493,-22.117926,21.710976,54.956764,-17.656853,-4.6960483,-2.294738
123,-3.322634220123291,-89.39138793945312,73.84111022949219,1.213952090213232,3.2531798600637036,-83.08118891210803,-33.021442,-2.3028252,3.4501672,28.565285,-1.5707772,1.3653042,14.946879,-7.95174,-21.121685,38.317272,-13.732273,4.6085963,1.4150721,-1.6809384,7.694218,11.339718,21.293484,-52.360207,66.33331,14.690088,-1.1016605,-12.352626,-3.3511052,-21.675812,21.70669,55.447865,-17.480598,-4.665578,-2.3231447
124,-3.1874969005584717,-90.16182708740234,74.00083923339844,1.4123551042994975,3.1708899493601512,-83.0236866067799,-32.38579,-2.6144729,3.4723358,28.905735,-2.3868825,1.8850583,13.593792,-9.122444,-21.308561,42.29452,-11.934634,3.8270175,1.1720271,-1.8761739,7.7581706,10.750829,21.320547,-52.735207,66.3636,15.102662,-1.0030268,-12.527728,-2.8773172,-21.258785,21.807066,55.906178,-17.324635,-4.603184,-2.2170084
125,-3.0453813076019287,-90.92981719970703,74.17479705810547,1.609330868763033,3.1181865119407197,-83.01577749630776,-31.630085,-2.8983412,3.5419388,28.951426,-3.0934918,2.1945264,12.126681,-10.354166,-21.364542,46.264645,-10.134809,3.0179386,0.95086366,-2.070017,7.778242,10.148935,21.34969,-53.016266,66.30614,15.356878,-0.87383497,-12.669087,-2.4328146,-20.87779,22.03523,56.33478,-17.156649,-4.498808,-1.9477694
126,-2.9057562351226807,-91.67765808105469,74.35681915283203,1.788533822469009,3.0906188532788534,-83.03490536964115,-30.763874,-3.1514003,3.6275108,28.734188,-3.7372043,2.3575778,10.549135,-11.628847,-21.342512,50.24912,-8.253715,2.160256,0.7309277,-2.236352,7.764286,9.5228,21.378447,-53.219715,66.17025,15.505806,-0.7169975,-12.784699,-2.0059004,-20.536413,22.3717,56.74354,-16.966888,-4.36102,-1.550492
127,-2.7607109546661377,-92.4202880859375,74.53762817382812,1.9685171924689633,3.083526176701056,-83.07041591750298,-29.837492,-3.395899,3.7226229,28.345901,-4.3187375,2.4471283,8.905533,-12.908536,-21.241014,54.099113,-6.4393144,1.2521753,0.5099704,-2.3963597,7.732251,8.862242,21.40973,-53.369133,65.98265,15.582376,-0.5622213,-12.866246,-1.5861365,-20.230701,22.785866,57.100784,-16.82756,-4.204321,-1.0575719
128,-2.6215949058532715,-93.15901184082031,74.72183227539062,2.167658609012267,3.0928952113391013,-83.11272115712757,-28.906277,-3.65439,3.8220775,27.885973,-4.841904,2.5384185,7.2360744,-14.145465,-21.057117,57.66581,-4.838153,0.30866435,0.28780672,-2.5746179,7.6965156,8.15825,21.450796,-53.48793,65.76734,15.619129,-0.43906927,-12.905712,-1.1685077,-19.953812,23.247663,57.381836,-16.8108,-4.0445886,-0.5018721
129,-2.4904110431671143,-93.88618469238281,74.90445709228516,2.411850441030911,3.1304586570676753,-83.1661976608784,-27.972277,-3.951756,3.943311,27.325348,-5.283279,2.6469243,5.4766636,-15.390217,-20.784811,61.032547,-3.378162,-0.78683543,0.073206015,-2.8019452,7.6477513,7.401208,21.50934,-53.581795,65.5174,15.632617,-0.3467014,-12.92749,-0.75657684,-19.70154,23.763594,57.57374,-16.948843,-3.8666415,0.16093966
130,-2.372281074523926,-94.6101303100586,75.07818603515625,2.686620709344427,3.1942328590852576,-83.23512803078043,-27.012177,-4.2721424,4.08531,26.630167,-5.647534,2.7338774,3.6120327,-16.64608,-20.421808,64.26248,-2.029,-1.9985497,-0.13367473,-3.0619483,7.582091,6.600868,21.588789,-53.638245,65.21673,15.602607,-0.27150506,-12.927464,-0.35717908,-19.473547,24.343662,57.698334,-17.201914,-3.6716435,0.9311036
131,-2.255490303039551,-95.32518005371094,75.24628448486328,2.9440756504140384,3.260402747761853,-83.30709519483773,-26.049417,-4.5719466,4.210489,25.90242,-5.985971,2.7956674,1.7496656,-17.758257,-19.965109,67.18295,-0.99550045,-3.0457652,-0.3485775,-3.3014774,7.5218186,5.7770967,21.690155,-53.65748,64.875206,15.502628,-0.22461396,-12.85482,0.034675483,-19.266485,24.963043,57.777046,-17.531488,-3.5006874,1.7100693
132,-2.167168140411377,-96.02208709716797,75.40735626220703,3.130139646642464,3.306109308499002,-83.37220758273152,-25.109264,-4.798809,4.281837,25.251661,-6.3564343,2.8296976,4.408967e-05,-18.546883,-19.409279,69.620766,-0.48329067,-3.6214573,-0.58350176,-3.461772,7.4886303,4.9469123,21.812624,-53.642563,64.50727,15.30458,-0.21804143,-12.658423,0.42579836,-19.075882,25.593277,57.83129,-17.900162,-3.3931508,2.39819
133,-2.079066038131714,-96.71422576904297,75.55818176269531,3.2179409280141282,3.3282279751693586,-83.43690094894528,-24.20808,-4.919232,4.290416,24.724144,-6.7857776,2.8270688,-1.5933839,-18.871216,-18.709585,71.48562,-0.7157833,-3.4856517,-0.8340243,-3.51838,7.49005,4.1033783,21.957794,-53.60388,64.11371,14.9889,-0.27341422,-12.308686,0.80813736,-18.899994,26.24291,57.864185,-18.32283,-3.3745587,2.9951203
134,-1.9953675270080566,-97.41153717041016,75.70694732666016,3.2372017980030554,3.338563164187803,-83.50533316115894,-23.332785,-4.9619746,4.2601066,24.264696,-7.245162,2.794865,-3.0954874,-18.834436,-17.901346,72.91189,-1.5421164,-2.8300438,-1.093852,-3.5029087,7.513831,3.2413685,22.127432,-53.538074,63.68792,14.574391,-0.3803899,-11.838586,1.1787277,-18.737978,26.921223,57.868214,-18.810017,-3.4197595,3.5441813
135,-1.9189257621765137,-98.09650421142578,75.84835815429688,3.220163719109049,3.337448404289052,-83.56964264077206,-22.459265,-4.966193,4.2073517,23.826164,-7.7108035,2.7536836,-4.5525203,-18.628132,-17.091103,74.04907,-2.5993824,-1.9909747,-1.3661301,-3.4449854,7.551522,2.3803697,22.318596,-53.425037,63.237904,14.093007,-0.5052924,-11.290644,1.550572,-18.588428,27.600796,57.85278,-19.319408,-3.4897783,4.0106235
136,-1.844683051109314,-98.78467559814453,75.99021911621094,3.197970244508906,3.3259881843736863,-83.62267872507626,-21.566261,-4.969159,4.1465793,23.365997,-8.159199,2.7228463,-6.018607,-18.43044,-16.361835,75.03301,-3.5108078,-1.2936767,-1.6527834,-3.372257,7.593361,1.5371628,22.52535,-53.24639,62.773205,13.574697,-0.6105445,-10.707045,1.9386972,-18.449429,28.253212,57.826126,-19.809118,-3.5442967,4.360345
137,-1.7682085037231445,-99.47532653808594,76.1276626586914,3.160731609804209,3.305481198883994,-83.66791504014803,-20.650387,-4.959581,4.0747905,22.87853,-8.595126,2.6948693,-7.518507,-18.230848,-15.705191,75.8665,-4.2162986,-0.79167813,-1.9545327,-3.271386,7.633404,0.71095973,22.743193,-53.00409,62.29934,12.994258,-0.687438,-10.07558,2.343914,-18.322063,28.885387,57.787415,-20.300255,-3.5694628,4.5791206
138,-1.6950081586837769,-100.16155242919922,76.25984191894531,3.0994456516475433,3.274650858642989,-83.70732586707585,-19.723932,-4.9260583,3.9888277,22.390337,-9.029533,2.6659367,-9.017208,-17.962065,-15.087279,76.48343,-4.8987145,-0.3256498,-2.2699182,-3.1353729,7.6783266,-0.106912985,22.97081,-52.703976,61.81773,12.349291,-0.7586552,-9.38092,2.7604,-18.206514,29.507143,57.733223,-20.804827,-3.585621,4.686915
139,-1.614327311515808,-100.85137939453125,76.3848876953125,3.0446125509105686,3.231789680257,-83.73215056746847,-18.77701,-4.9043684,3.897973,21.877522,-9.4401045,2.6587367,-10.488428,-17.697771,-14.529167,76.9093,-5.5383987,0.116973184,-2.5971878,-3.0007193,7.7351375,-0.91813797,23.206924,-52.343178,61.339603,11.692555,-0.8338156,-8.659496,3.188424,-18.100449,30.096596,57.674847,-21.267183,-3.602513,4.7004585
140,-1.5393157005310059,-101.5591049194336,76.50431060791016,3.026096186524982,3.1754786829840813,-83.73391467560982,-17.799099,-4.9299216,3.8095186,21.312143,-9.802054,2.6946852,-11.906962,-17.51183,-14.048831,77.169075,-6.115359,0.54969597,-2.933671,-2.9040186,7.8097773,-1.72295,23.449913,-51.914536,60.874714,11.082736,-0.9201572,-7.9479194,3.6300008,-17.99928,30.630398,57.622047,-21.632349,-3.6303213,4.6363544
141,-1.461154818534851,-102.25342559814453,76.61078643798828,3.053224804513897,3.098960943858629,-83.70748968568086,-16.777811,-5.016662,3.7207582,20.680653,-10.099753,2.8025835,-13.26205,-17.43724,-13.666347,77.26035,-6.5621724,0.9972462,-3.2828627,-2.8568676,7.9089584,-2.5228872,23.698349,-51.410828,60.429195,10.531213,-1.0252545,-7.2186875,4.0871096,-17.899967,31.11099,57.57703,-21.89015,-3.6709507,4.465258
142,-1.395521879196167,-102.93733978271484,76.70845031738281,3.1098292211202994,3.005234288757484,-83.6585320427214,-15.721905,-5.1444783,3.6265848,19.998865,-10.347962,2.9627817,-14.570244,-17.43458,-13.360918,77.169395,-6.907276,1.445062,-3.6448717,-2.8413646,8.0258665,-3.318894,23.951393,-50.83759,60.001038,10.009485,-1.1428337,-6.464957,4.557444,-17.801788,31.547548,57.53802,-22.069689,-3.7183745,4.188929
143,-1.3188999891281128,-103.62044525146484,76.79696655273438,3.1877011261618398,2.9076294808800704,-83.59430649572387,-14.653971,-5.2962666,3.5302262,19.288755,-10.571664,3.123183,-15.847486,-17.466656,-13.090931,76.90568,-7.2748904,1.8470764,-4.0113997,-2.8487456,8.145989,-4.113484,24.208567,-50.212612,59.590275,9.51117,-1.256834,-5.7534814,5.0366745,-17.703047,31.928192,57.508194,-22.17417,-3.7717054,3.8704357
144,-1.2494255304336548,-104.30694580078125,76.86827850341797,3.2776319860459204,2.8194325259042037,-83.52166900171636,-13.597713,-5.4545407,3.435759,18.574125,-10.7973175,3.2317579,-17.109354,-17.495384,-12.817074,76.48096,-7.7905784,2.1556711,-4.372903,-2.8697975,8.255065,-4.909915,24.469477,-49.554554,59.197247,9.029427,-1.350094,-5.150814,5.519856,-17.602621,32.23914,57.49258,-22.207195,-3.8307502,3.572714
145,-1.1849792003631592,-104.99170684814453,76.92092895507812,3.372260110925641,2.7436049520686088,-83.43477413129182,-12.558874,-5.6066933,3.3455937,17.859428,-11.0308485,3.2632275,-18.360926,-17.508118,-12.538968,75.89391,-8.541699,2.3284798,-4.731264,-2.8982496,8.348856,-5.709319,24.733952,-48.846012,58.8252,8.572767,-1.4155619,-4.6860166,6.0152416,-17.497356,32.47756,57.49022,-22.15577,-3.9025748,3.2713919
146,-1.119644045829773,-105.67285919189453,76.96354675292969,3.4769414161653103,2.673150808918779,-83.33195695022609,-11.526604,-5.7636805,3.256597,17.136084,-11.261434,3.2497387,-19.591633,-17.525574,-12.274197,75.13816,-9.442563,2.3991773,-5.0901747,-2.9396532,8.43446,-6.5128293,25.001629,-48.08762,58.47611,8.138729,-1.4604936,-4.3194513,6.522138,-17.385698,32.65076,57.500443,-22.02259,-3.9862497,2.9465566
147,-1.0553250312805176,-106.36318969726562,76.99032592773438,3.600498267436052,2.6062543134193388,-83.22680826755918,-10.483661,-5.942956,3.162107,16.374424,-11.47112,3.223269,-20.790094,-17.558006,-12.012981,74.211365,-10.355646,2.4331279,-5.4413104,-3.0003023,8.515119,-7.3203325,25.270733,-47.31901,58.14601,7.71074,-1.4890686,-4.0144925,7.027447,-17.270502,32.755863,57.523495,-21.837723,-4.0687904,2.668256
148,-0.9977073669433594,-107.04777526855469,77.01119995117188,3.75200505667621,2.541207761997147,-83.1331703219274,-9.412446,-6.160368,3.0541015,15.545679,-11.642212,3.2126389,-21.945456,-17.61684,-11.746584,73.11361,-11.145766,2.4961524,-5.774428,-3.0851681,8.594775,-8.133761,25.537848,-46.58425,57.831726,7.269111,-1.5064094,-3.7342281,7.5226045,-17.156658,32.787685,57.55404,-21.630463,-4.136396,2.5071692
149,-0.9306721687316895,-107.73466491699219,77.01639556884766,3.940395259419977,2.4786656308495476,-83.04736137865147,-8.304697,-6.427867,2.9184074,14.63245,-11.76126,3.2117207,-23.06034,-17.712305,-11.468856,71.83841,-11.827257,2.6111858,-6.090868,-3.201965,8.671254,-8.959434,25.799334,-45.89293,57.5404,6.798294,-1.506653,-3.4732497,8.017379,-17.04813,32.714752,57.57525,-21.404238,-4.1852713,2.508722
150,-0.876143753528595,-108.41768646240234,77.00878143310547,4.156008733216992,2.419508602979076,-82.96399494483603,-7.1690636,-6.7284822,2.7592049,13.651938,-11.8401,3.2031043,-24.136103,-17.83312,-11.189409,70.385124,-12.455797,2.73981,-6.3917212,-3.3407893,8.7437,-9.799302,26.052227,-45.22554,57.276016,6.3121614,-1.4891951,-3.2488737,8.51974,-16.945824,32.545677,57.586475,-21.144024,-4.222055,2.6275659
151,-0.8119275569915771,-109.10778045654297,76.99357604980469,4.379478030828631,2.3626560456644947,-82.89435357331966,-6.0106206,-7.0357003,2.5957797,12.621029,-11.895615,3.1963515,-25.157993,-17.956032,-10.9226055,68.758804,-12.95792,2.861821,-6.668749,-3.4809349,8.817727,-10.649631,26.29484,-44.582268,57.03318,5.8325295,-1.4676454,-3.0576723,9.015076,-16.85024,32.336136,57.609547,-20.853096,-4.247602,2.797486
152,-0.7436872720718384,-109.79641723632812,76.9654312133789,4.593252605918354,2.307129111931803,-82.85012023825429,-4.838033,-7.325346,2.4498801,11.563152,-11.948947,3.201345,-26.111824,-18.05836,-10.681939,66.96599,-13.26175,2.9572256,-6.913829,-3.6042023,8.898846,-11.500289,26.52586,-43.954826,56.803066,5.389143,-1.4554503,-2.8966994,9.484965,-16.762281,32.14303,57.67091,-20.53427,-4.2633753,2.9518695
153,-0.6752650737762451,-110.4874267578125,76.9312744140625,4.802180146934585,2.2457574009937913,-82.8385574562477,-3.5983248,-7.605936,2.3254237,10.385326,-11.966742,3.2194016,-27.002182,-18.138214,-10.448412,65.01273,-13.32038,3.0205047,-7.124302,-3.7122805,8.995384,-12.350303,26.74363,-43.331795,56.585407,4.967667,-1.4587427,-2.7727551,9.925836,-16.684456,31.968794,57.772617,-20.183115,-4.2570267,3.096278
154,-0.6166540384292603,-111.17371368408203,76.8882064819336,5.0101638750421005,2.1825038137528066,-82.85173109412212,-2.3052564,-7.8830385,2.210801,9.1109495,-11.950464,3.2357662,-27.83101,-18.202646,-10.226118,62.893005,-13.183502,3.0641634,-7.307228,-3.8092184,9.10171,-13.204305,26.948475,-42.718285,56.386192,4.5584245,-1.4691416,-2.6845624,10.346647,-16.617693,31.789581,57.901882,-19.79873,-4.2315307,3.2583008
155,-0.5578414797782898,-111.85707092285156,76.83639526367188,5.20024761697056,2.1326873800454673,-82.87809793928328,-1.0375458,-8.131684,2.1036127,7.8711615,-11.947777,3.2425637,-28.580435,-18.244284,-10.062246,60.591793,-12.921993,3.0970297,-7.4682293,-3.8836296,9.202798,-14.054555,27.142668,-42.123276,56.200512,4.20747,-1.4776891,-2.6172347,10.745753,-16.559532,31.621363,58.065544,-19.390356,-4.211651,3.403554
156,-0.5001241564750671,-112.55415344238281,76.77818298339844,5.358669360848605,2.1106083932311686,-82.9073998913563,-0.08463407,-8.321075,2.0343413,7.236428,-12.236837,3.23939,-29.23284,-18.2582,-10.00112,58.091774,-12.606164,3.1296043,-7.613758,-3.9285448,9.283544,-14.896208,27.33123,-41.562786,56.024147,3.9523904,-1.4755487,-2.555972,11.119585,-16.504297,31.481812,58.2733,-18.9674,-4.222926,3.4978175
157,-0.4551210105419159,-113.24832153320312,76.7110824584961,5.487285745281992,2.118250611304769,-82.9432414828141,0.54743135,-8.453425,2.0112457,7.2072535,-12.810025,3.2415643,-29.787573,-18.218485,-10.00125,55.35459,-12.269531,3.175823,-7.7393312,-3.9468608,9.345696,-15.73193,27.51797,-41.03288,55.850384,3.8127987,-1.4567167,-2.5139608,11.459881,-16.448004,31.36958,58.537785,-18.45924,-4.3006983,3.5041108
158,-0.41378796100616455,-113.94685363769531,76.64224243164062,5.594912961298261,2.1475480704642145,-82.99021896383091,1.1505923,-8.552383,1.9984757,7.189386,-13.366353,3.2514088,-30.246119,-18.135845,-10.056844,52.3896,-11.868281,3.2300856,-7.8433423,-3.946035,9.396247,-16.560177,27.704567,-40.527466,55.678013,3.7645056,-1.4265225,-2.4937553,11.767859,-16.388996,31.277855,58.854904,-17.88607,-4.4230347,3.4500575
159,-0.38520678877830505,-114.63720703125,76.56707763671875,5.680546253804217,2.19746739037487,-83.03950602194551,1.7260267,-8.614875,1.986389,7.1865273,-13.916205,3.2542524,-30.603176,-18.056686,-10.264564,49.259373,-11.352847,3.2778046,-7.934838,-3.9282615,9.4286785,-17.37227,27.893274,-40.062088,55.510765,3.7785892,-1.3930643,-2.4651036,12.048223,-16.325686,31.21694,59.214314,-17.392883,-4.5287147,3.396863
160,-0.3551299273967743,-115.32913208007812,76.48844909667969,5.74266573793786,2.267116478085962,-83.08235910257186,2.2784941,-8.638802,1.9651458,7.193852,-14.465228,3.2365065,-30.852776,-18.020306,-10.724708,46.020306,-10.676092,3.3092475,-8.022889,-3.8957317,9.436422,-18.157984,28.085972,-39.649715,55.35129,3.828743,-1.3645761,-2.3977423,12.30664,-16.255575,31.197117,59.60479,-17.12455,-4.555309,3.4044437
161,-0.33505040407180786,-116.0212631225586,76.4034194946289,5.777860845798897,2.364280494453912,-83.12016608621263,2.7972395,-8.621967,1.9340196,7.2160306,-15.018476,3.2027857,-30.984606,-18.055075,-11.531402,42.63019,-9.738247,3.2923305,-8.109531,-3.8459475,9.4128275,-18.922564,28.285816,-39.298725,55.2071,3.9197028,-1.3444468,-2.2765675,12.53976,-16.175064,31.228334,60.035187,-17.172491,-4.466692,3.5026693
162,-0.32343369722366333,-116.72178649902344,76.31517791748047,5.7886304852555535,2.485839275273504,-83.15703521337295,3.2848372,-8.571397,1.8996911,7.252577,-15.571614,3.1635463,-30.99965,-18.10643,-12.621164,39.06423,-8.589424,3.2580376,-8.189723,-3.7819724,9.364518,-19.661726,28.492414,-38.9919,55.066338,4.070358,-1.3267676,-2.1208608,12.742242,-16.08278,31.303724,60.512085,-17.44236,-4.3031387,3.6544728
163,-0.3234259784221649,-117.42373657226562,76.22611236572266,5.781909874051979,2.613995131680789,-83.18767439780994,3.7656112,-8.497411,1.8626105,7.293734,-16.117596,3.112737,-30.907465,-18.096304,-13.852885,35.396584,-7.399417,3.2869883,-8.26341,-3.7100513,9.304408,-20.374454,28.70489,-38.742237,54.918167,4.235992,-1.307907,-1.9502589,12.919651,-15.980489,31.407923,61.016617,-17.800161,-4.1154037,3.8193076
164,-0.3216175138950348,-118.13172149658203,76.13127899169922,5.767026518586826,2.7294110966821146,-83.20468949597775,4.2674313,-8.409011,1.8201315,7.325893,-16.647188,3.0427406,-30.714325,-17.967424,-15.073969,31.688097,-6.328132,3.450503,-8.331412,-3.6381202,9.246838,-21.059052,28.920816,-38.56045,54.75156,4.374459,-1.2843835,-1.7841804,13.080128,-15.871236,31.52418,61.52673,-18.11115,-3.95328,3.9558558
165,-0.3301584720611572,-118.84291076660156,76.03662109375,5.746381539664924,2.824406420332941,-83.20221379150283,4.796522,-8.307786,1.7678008,7.3538833,-17.168444,2.9492571,-30.372524,-17.714304,-16.310692,27.811932,-5.352466,3.79774,-8.395068,-3.5702884,9.197903,-21.717089,29.136745,-38.456165,54.566055,4.4736795,-1.2497716,-1.6114622,13.226092,-15.756489,31.65709,62.04913,-18.329714,-3.8310328,4.03656
166,-0.3395947515964508,-119.55469512939453,75.93724060058594,5.726197108986001,2.8992919754680737,-83.1744166691822,5.3534393,-8.201733,1.6966964,7.3744736,-17.678898,2.8387852,-29.859581,-17.376766,-17.618681,23.706902,-4.3672895,4.276171,-8.463656,-3.5126274,9.156749,-22.353231,29.351309,-38.42514,54.37029,4.5540442,-1.2081343,-1.4273065,13.357729,-15.635612,31.811426,62.586285,-18.529976,-3.7212584,4.0893188
167,-0.35289275646209717,-120.28101348876953,75.83462524414062,5.725655576347711,2.943792981933603,-83.1097810680937,5.943914,-8.111576,1.5951252,7.3931293,-18.168764,2.7195678,-29.212547,-16.988775,-18.888458,19.526844,-3.4092925,4.7986984,-8.553223,-3.483127,9.128956,-22.965166,29.565655,-38.45188,54.16441,4.6285186,-1.1715935,-1.2613695,13.478973,-15.510887,31.96954,63.11236,-18.75933,-3.6108856,4.1543746
168,-0.3679121136665344,-121.0093002319336,75.71701049804688,5.7630813530427325,2.9498244164488265,-82.99826037118271,6.572333,-8.05718,1.4526232,7.412487,-18.62619,2.599895,-28.494293,-16.594717,-20.008307,15.487491,-2.541602,5.2798624,-8.679168,-3.498311,9.11947,-23.542505,29.781252,-38.508408,53.94142,4.7205067,-1.1518103,-1.143795,13.596563,-15.385422,32.114246,63.59603,-19.064657,-3.4870656,4.273149
169,-0.39045602083206177,-121.74259185791016,75.5904769897461,5.848055824750867,2.9125410381187127,-82.82826843379222,7.241062,-8.0489,1.2657987,7.433563,-19.061829,2.484943,-27.682884,-16.190813,-20.934067,11.510315,-1.7953678,5.720786,-8.854557,-3.5674193,9.1318245,-24.087036,30.00143,-38.594128,53.700443,4.8486013,-1.1549469,-1.0927839,13.712474,-15.261058,32.24594,64.02898,-19.497074,-3.337822,4.463188
170,-0.42000141739845276,-122.48103332519531,75.44967651367188,5.982731892021464,2.8290583354047754,-82.59707823619948,7.956264,-8.088692,1.0270298,7.452706,-19.475466,2.372044,-26.653944,-15.750943,-21.762121,7.3121185,-1.0174912,6.1570535,-9.079881,-3.6943023,9.166684,-24.604445,30.229815,-38.72743,53.442684,4.9884424,-1.1740108,-1.089527,13.826942,-15.138919,32.37206,64.423065,-20.018959,-3.174275,4.7012825
171,-0.45777085423469543,-123.2208251953125,75.31019592285156,6.140576838883186,2.7210879808474613,-82.33844936328005,8.695485,-8.144507,0.75219107,7.476562,-19.846567,2.2502866,-27.181553,-15.967159,-22.083258,6.8613014,-2.140552,6.563072,-9.324941,-3.852214,9.20993,-25.065145,30.460815,-38.86833,53.148106,5.1347065,-1.2000724,-1.1082318,13.936682,-15.021134,32.489147,64.7795,-20.543394,-3.0177047,4.9681883
172,-0.4981556534767151,-123.96057891845703,75.1712875366211,6.281471039639959,2.621258144772325,-82.09952677120341,9.428625,-8.169753,0.4735886,7.5077605,-20.154104,2.1063778,-27.695667,-16.192228,-22.410181,6.7504787,-3.1975372,6.884446,-9.542877,-3.9923291,9.239381,-25.464922,30.680403,-39.007145,52.82098,5.254676,-1.2259053,-1.1197561,14.042166,-14.916678,32.588257,65.09965,-20.984682,-2.8903334,5.243439
173,-0.5398609042167664,-124.69891357421875,75.0399169921875,6.39135885802151,2.541856394636144,-81.89807914127542,10.141687,-8.149248,0.21318936,7.5521493,-20.40128,1.9326664,-28.059177,-16.348984,-22.840979,6.680336,-4.025881,7.1171026,-9.709942,-4.0890684,9.2486,-25.82367,30.842636,-39.131798,52.493843,5.3584833,-1.2538434,-1.1175684,14.158284,-14.845803,32.65351,65.36097,-21.316666,-2.7924845,5.5403924
174,-0.5798457860946655,-125.45360565185547,74.91175842285156,6.4706864385763865,2.484630419917157,-81.7306181310233,10.832906,-8.084903,-0.021739483,7.6067405,-20.598188,1.7319219,-28.29691,-16.424221,-23.31227,6.6416745,-4.696835,7.2727046,-9.833018,-4.1651382,9.24291,-26.11811,31.048395,-39.28427,52.092026,5.404751,-1.2826015,-1.1192931,14.252305,-14.764303,32.696873,65.60075,-21.591938,-2.7150846,5.858356
175,-0.6246750950813293,-126.21116638183594,74.79199981689453,6.509799174287987,2.4583120832681344,-81.60573066658881,11.493294,-7.967347,-0.226512,7.6701593,-20.739191,1.5082178,-28.430182,-16.391897,-23.714056,6.633532,-5.168788,7.3321104,-9.916464,-4.198431,9.212113,-26.307894,31.249622,-39.381275,51.630184,5.485873,-1.3095224,-1.1210165,14.324707,-14.693516,32.74587,65.81589,-21.822212,-2.6593482,6.171671
176,-0.6582061052322388,-126.97105407714844,74.67491912841797,6.497087941033695,2.4709735517114235,-81.53066590812668,12.1166725,-7.7855897,-0.39840707,7.7391744,-20.818205,1.2656544,-28.479778,-16.226713,-23.937704,6.6565585,-5.4015803,7.2738395,-9.946658,-4.16259,9.139059,-26.444988,31.41906,-39.491302,51.177948,5.5604396,-1.3357509,-1.1134305,14.389992,-14.649271,32.811802,66.00547,-22.02011,-2.6281857,6.453374
177,-0.7004460096359253,-127.74118041992188,74.56529998779297,6.452954232602857,2.5215724868762606,-81.50468511382721,12.444819,-7.568687,-0.5139363,8.364172,-21.136456,1.0046303,-28.404257,-15.937555,-23.963701,6.722524,-5.39948,7.17034,-9.91976,-4.079107,9.015183,-26.488417,31.519863,-39.543243,50.72033,5.735774,-1.3515522,-1.1004045,14.459692,-14.634129,32.903652,66.15953,-22.18661,-2.63317,6.706603
178,-0.7410427331924438,-128.5155029296875,74.46636199951172,6.366861371201357,2.608448111039651,-81.52656703458166,12.520745,-7.3056836,-0.57489514,9.459615,-21.647385,0.7205948,-28.205406,-15.52145,-23.848291,6.8207545,-5.1767387,7.0038533,-9.835075,-3.9419158,8.848623,-26.466295,31.585323,-39.58628,50.25566,5.943037,-1.3628258,-1.084062,14.525583,-14.635788,33.00671,66.28678,-22.317976,-2.6698976,6.9410634
179,-0.779990553855896,-129.3007354736328,74.37825775146484,6.18296362817387,2.7360276837650828,-81.59570633598395,12.49046,-6.9271655,-0.582048,10.7021265,-22.162018,0.40869427,-27.972868,-14.945192,-23.598713,6.9272513,-4.7079105,6.621893,-9.708109,-3.7021515,8.659228,-26.359554,31.652847,-39.612156,49.75914,6.1241937,-1.3776358,-1.0556006,14.562741,-14.651798,33.12093,66.39585,-22.41001,-2.7097147,7.1438947
180,-0.8339447975158691,-130.07284545898438,74.32262420654297,5.848221588836876,2.90171904385728,-81.70567180424759,12.315872,-6.366379,-0.5197134,12.1731415,-22.699835,0.06356723,-27.791824,-14.1820345,-23.228281,7.0210824,-3.9652815,5.8761425,-9.554429,-3.3097956,8.480056,-26.162004,31.733307,-39.58106,49.233013,6.2617826,-1.4147286,-1.0150506,14.555583,-14.689546,33.220688,66.48016,-22.477312,-2.7282777,7.306283
181,-0.8833744525909424,-130.85386657714844,74.27428436279297,5.297368881967343,3.1259582005345004,-81.87277219453853,11.955192,-5.539052,-0.36616018,13.924563,-23.312717,-0.33266175,-27.716047,-13.130513,-22.613213,7.1009645,-2.838082,4.49153,-9.325581,-2.6955378,8.295173,-25.97379,31.769917,-39.58344,48.774734,6.2953963,-1.4866697,-0.9547331,14.497556,-14.717947,33.27017,66.57068,-22.544483,-2.7095664,7.436812
182,-0.9380174875259399,-131.6338348388672,74.24686431884766,4.581307989124114,3.3818037802003538,-82.06802924214817,11.482431,-4.5070887,-0.17948279,15.866742,-23.953691,-0.7735781,-28.736622,-12.28633,-21.60209,9.552854,-2.5950098,2.6668336,-9.071395,-1.9151534,8.112606,-25.735123,31.805225,-39.580147,48.31469,6.2599244,-1.5805281,-0.8826527,14.406482,-14.761743,33.30439,66.63686,-22.594707,-2.6697273,7.5398684
183,-1.0098899602890015,-132.41494750976562,74.23702239990234,3.8180832350289333,3.6063230448137173,-82.22695605567246,11.0270605,-3.4176788,-0.05005339,17.851341,-24.492786,-1.2265649,-29.77891,-11.452793,-20.743887,12.190275,-2.2780836,0.91592693,-8.854622,-1.0916824,7.961017,-25.41516,31.822065,-39.539715,47.853477,6.2226386,-1.6813627,-0.80274725,14.299595,-14.817183,33.318222,66.67931,-22.60055,-2.6309466,7.5825887
184,-1.0946037769317627,-133.20948791503906,74.22531127929688,3.1080357803624694,3.7586017505020513,-82.3088615641463,10.659011,-2.3964496,-0.031774614,19.79907,-24.829508,-1.6590389,-30.40277,-10.709062,-20.359495,14.236205,-1.7235054,-0.28361538,-8.714268,-0.31967276,7.850907,-25.03429,31.813364,-39.505653,47.427654,6.171232,-1.777185,-0.7127869,14.193832,-14.885314,33.312378,66.70405,-22.529251,-2.6145518,7.531609
185,-1.183311104774475,-134.0221710205078,74.21183776855469,2.440735258692107,3.841388146355305,-82.30301712936526,10.387291,-1.420817,-0.15037598,21.680658,-24.980549,-2.0876067,-30.546053,-10.119569,-20.575508,15.648846,-0.85742366,-0.7028581,-8.6495075,0.41606444,7.7789216,-24.601957,31.774288,-39.503986,47.037617,6.1031094,-1.8656436,-0.6028279,14.100313,-14.963566,33.2765,66.70532,-22.339514,-2.6263618,7.3491135
186,-1.2648333311080933,-134.84947204589844,74.21436309814453,1.7588018353319474,3.8904778525969204,-82.24958433638409,10.136719,-0.41827115,-0.35589975,23.572302,-24.998173,-2.516735,-30.397707,-9.61786,-21.170002,16.72529,0.23506854,-0.6826575,-8.620871,1.1720307,7.7293377,-24.120487,31.704422,-39.523926,46.680557,6.012887,-1.9536095,-0.47448146,14.002915,-15.045629,33.211002,66.6927,-22.061451,-2.6563103,7.061554
187,-1.3342629671096802,-135.6671600341797,74.22974395751953,1.0860058109515174,3.9213004157254283,-82.19071338870428,9.841811,0.5671677,-0.57867795,25.558529,-24.841675,-2.8937178,-30.142193,-9.173974,-21.862093,17.736824,1.1732358,-0.5958727,-8.598509,1.9193556,7.6926565,-23.586561,31.600216,-39.535877,46.376266,5.904997,-2.0418906,-0.34334958,13.876859,-15.134204,33.131226,66.68879,-21.765865,-2.7012873,6.7325015
188,-1.3941222429275513,-136.48289489746094,74.25074005126953,0.45444544134706594,3.942296377738721,-82.16230441029597,9.452719,1.4814128,-0.75506616,27.713522,-24.466984,-3.1657014,-29.945091,-8.751439,-22.391987,18.900331,1.5948749,-0.7781549,-8.560448,2.6197047,7.6629834,-22.987123,31.454865,-39.49651,46.140053,5.797769,-2.130843,-0.2255705,13.699703,-15.232382,33.051723,66.71355,-21.5251,-2.757062,6.4260044
189,-1.464322805404663,-137.29664611816406,74.29200744628906,-0.12456861690922319,3.9572585481768487,-82.17233592275996,8.967671,2.3045557,-0.8666712,30.06781,-23.890352,-3.2825959,-29.885162,-8.345669,-22.691008,20.333584,1.312854,-1.3268715,-8.507224,3.267803,7.630802,-22.295694,31.259195,-39.369785,45.969265,5.6920424,-2.2252223,-0.115230754,13.467426,-15.3462305,32.982174,66.780815,-21.3557,-2.8360457,6.1423693
190,-1.5326484441757202,-138.1101531982422,74.34855651855469,-0.6634821188255796,3.9594124298664037,-82.20079358201943,8.406397,3.066969,-0.95351356,32.58562,-23.130533,-3.2706544,-29.862217,-7.957724,-22.891884,21.876846,0.56609744,-2.0387952,-8.4522,3.8776104,7.6020155,-21.512333,31.007309,-39.16385,45.853725,5.6042695,-2.323126,-0.0073952875,13.192731,-15.478287,32.91658,66.872086,-21.21769,-2.9357553,5.854306
191,-1.58867609500885,-138.9256591796875,74.40459442138672,-1.1646164652377855,3.9390664867891796,-82.24102336534807,7.7706647,3.7849145,-1.0344095,35.216667,-22.12565,-3.1991959,-29.765673,-7.553859,-23.045595,23.303574,-0.36014077,-2.7826505,-8.388959,4.4428616,7.5888624,-20.722555,30.712675,-38.981827,45.833694,5.495968,-2.4167147,0.08313232,12.88499,-15.623934,32.837368,66.96057,-21.103033,-3.0271742,5.583298
192,-1.6459846496582031,-139.7407684326172,74.47272491455078,-1.6326548838950752,3.8881105509535256,-82.287552624286,7.054816,4.469678,-1.1270586,37.927525,-20.820961,-3.1453424,-29.489408,-7.109857,-23.207954,24.403933,-1.1935151,-3.4333093,-8.310652,4.9521556,7.607202,-19.965513,30.389896,-38.872345,45.91493,5.382747,-2.4956548,0.13936734,12.544629,-15.771313,32.72902,67.02523,-21.003807,-3.081931,5.3499904
193,-1.7120577096939087,-140.54083251953125,74.5553207397461,-2.055805221147429,3.7968726146056953,-82.35519157427147,6.235804,5.1015425,-1.201674,40.77386,-19.062565,-3.0653832,-29.010366,-6.6252065,-23.365742,25.152504,-1.9238776,-4.003203,-8.204652,5.3852706,7.6668825,-19.241312,30.052319,-38.848053,46.11077,5.2385154,-2.561662,0.18168285,12.157172,-15.908514,32.59317,67.088646,-20.92278,-3.093668,5.1616673
194,-1.782393217086792,-141.32989501953125,74.6542739868164,-2.4348649909711386,3.6735092062554933,-82.44300820076552,5.32511,5.676907,-1.2525924,43.748135,-16.919155,-2.9463468,-28.392849,-6.1063447,-23.493692,25.661427,-2.679104,-4.5471554,-8.076499,5.746269,7.756305,-18.508911,29.702063,-38.864483,46.393078,5.081888,-2.6169496,0.20988354,11.714626,-16.03162,32.43831,67.169075,-20.86413,-3.077106,5.0044675
195,-1.866073489189148,-142.12054443359375,74.77494812011719,-2.7935487676538124,3.5376795310827402,-82.52274436397971,4.3594875,6.2197905,-1.3417197,46.745556,-14.684981,-2.917418,-27.659988,-5.55345,-23.63326,25.939442,-3.409839,-5.0053387,-7.9454594,6.069919,7.854655,-17.800734,29.347784,-38.9534,46.743862,4.920257,-2.6549218,0.17841746,11.237472,-16.141045,32.259144,67.233185,-20.821842,-3.034747,4.867555
196,-1.9635504484176636,-142.89620971679688,74.89817810058594,-3.156663739142778,3.408981759303305,-82.56712380243954,3.3701928,6.749658,-1.539516,49.679756,-12.66546,-3.1061502,-26.836166,-4.972063,-23.824177,26.002296,-4.0672874,-5.314476,-7.8278737,6.388657,7.9429,-17.1439,28.998295,-39.1405,47.138954,4.7703743,-2.6682973,0.041286085,10.74579,-16.24097,32.04575,67.2461,-20.790886,-2.9693654,4.7403154
197,-2.056962728500366,-143.66403198242188,75.0240707397461,-3.5307733203990534,3.2876300159397482,-82.56520600829319,2.3525295,7.266889,-1.8768559,52.597122,-10.818994,-3.6993089,-25.88742,-4.358945,-24.088678,25.796103,-4.6465564,-5.4120593,-7.73419,6.705616,8.022773,-16.541147,28.66217,-39.43649,47.58723,4.614289,-2.6557987,-0.22257985,10.244187,-16.33053,31.79194,67.19057,-20.753841,-2.8699346,4.620747
198,-2.1504387855529785,-144.42185974121094,75.14769744873047,-3.8963989880426952,3.165341696339402,-82.53490435849798,1.2890449,7.733592,-2.321979,55.54638,-9.039213,-4.5884523,-24.811138,-3.7207544,-24.392048,25.330078,-5.1686196,-5.3430977,-7.651605,6.9962797,8.102991,-15.970235,28.343168,-39.82185,48.08589,4.452138,-2.6197608,-0.5861947,9.720749,-16.408972,31.50264,67.08744,-20.720251,-2.7390501,4.5142174
199,-2.2443275451660156,-145.18016052246094,75.26905822753906,-4.248155582530502,3.049310157204623,-82.48862538520147,0.1773621,8.1292305,-2.8488805,58.47356,-7.5516505,-5.4559145,-23.684427,-3.0781577,-24.699213,24.728096,-5.6439867,-5.205301,-7.567226,7.2644563,8.177608,-15.431745,28.042377,-40.287556,48.60028,4.3140883,-2.5594053,-1.0234985,9.176595,-16.482061,31.190565,66.94866,-20.720707,-2.5993793,4.423388
200,-2.33626651763916,-145.9166717529297,75.39112091064453,-4.584377880965772,2.946707039885188,-82.43835441441027,-0.98028266,8.457344,-3.41572,61.307186,-6.574689,-5.9752517,-22.587742,-2.4477286,-24.98,24.119646,-6.0820622,-5.0999136,-7.4687157,7.51998,8.2416525,-14.924451,27.757423,-40.820312,49.09394,4.234696,-2.4744256,-1.5087456,8.617671,-16.559498,30.866526,66.779045,-20.78679,-2.4734895,4.351984
201,-2.4218056201934814,-146.64804077148438,75.50798034667969,-4.926897334421515,2.8662817506868197,-82.37805707241606,-2.2165174,8.755892,-4.0275064,64.10082,-6.2658014,-5.9800997,-21.525282,-1.8058467,-25.25177,23.48946,-6.4662685,-5.0507636,-7.3612633,7.789573,8.290942,-14.453212,27.485619,-41.42446,49.565712,4.1828904,-2.355998,-2.052549,8.049621,-16.64933,30.519878,66.56024,-20.985998,-2.3467658,4.3301606
202,-2.503410816192627,-147.36952209472656,75.61494445800781,-5.269555712887585,2.802193284615929,-82.30400921126241,-3.5203083,9.018299,-4.6879196,66.865654,-6.4714627,-5.6677313,-20.45954,-1.1518513,-25.523355,22.783081,-6.795651,-5.0051675,-7.249317,8.062619,8.330066,-14.018492,27.22635,-42.103607,50.03371,4.154711,-2.207692,-2.66311,7.475685,-16.754349,30.14763,66.2843,-21.282358,-2.2139413,4.3485775
203,-2.5774104595184326,-148.08175659179688,75.71253204345703,-5.57540194198234,2.739547850671725,-82.23287259427968,-4.8247595,9.196972,-5.348388,69.46733,-6.937292,-5.2528806,-19.409107,-0.53217375,-25.756636,22.07516,-7.10937,-4.953744,-7.119397,8.298239,8.368073,-13.610091,26.979149,-42.839153,50.48752,4.2290287,-2.0494819,-3.311228,6.8945436,-16.876532,29.77633,65.974556,-21.548014,-2.112143,4.351217
204,-2.6481940746307373,-148.79244995117188,75.81147003173828,-5.808721766937787,2.663137354914267,-82.1813728503051,-6.063573,9.249816,-5.9564257,71.77247,-7.4094152,-4.9509244,-18.393044,0.0060220524,-25.917238,21.442862,-7.4478426,-4.8883533,-6.9601154,8.457054,8.414374,-13.217054,26.744987,-43.612053,50.91652,4.4813633,-1.903215,-3.9683478,6.3032694,-17.01718,29.435177,65.65582,-21.65463,-2.077537,4.2810993
205,-2.710611581802368,-149.4943084716797,75.90660858154297,-5.952586462018748,2.5708701463785006,-82.14878637975832,-7.228214,9.15526,-6.500363,73.75627,-7.914969,-4.775563,-17.43427,0.43155587,-25.999525,20.942091,-7.8369927,-4.806727,-6.7735996,8.522573,8.4745655,-12.847669,26.525633,-44.435493,51.32004,4.967195,-1.7706876,-4.6661806,5.695644,-17.17938,29.129936,65.32426,-21.550383,-2.1363885,4.12606
206,-2.7680046558380127,-150.1878204345703,76.00203704833984,-6.031265965697991,2.4698496693639918,-82.12824302594608,-8.351227,8.945225,-7.002791,75.49277,-8.558508,-4.627751,-16.516544,0.7761355,-26.027695,20.523039,-8.252186,-4.71594,-6.56585,8.520682,8.544424,-12.503734,26.321363,-45.312313,51.70054,5.63278,-1.6471773,-5.4085183,5.077373,-17.364403,28.847937,64.96553,-21.309101,-2.2638602,3.9166052
207,-2.820948362350464,-150.8727264404297,76.09036254882812,-6.069868824305907,2.3584304942498457,-82.12666636828922,-9.430661,8.663997,-7.4602566,76.99514,-9.20098,-4.5523744,-15.604357,1.0837941,-26.01119,20.11451,-8.663211,-4.621563,-6.332554,8.47531,8.620041,-12.15937,26.130268,-46.200207,52.04739,6.396958,-1.5432953,-6.124649,4.458998,-17.567944,28.590437,64.595535,-20.99164,-2.4226098,3.6580985
208,-2.8732709884643555,-151.56195068359375,76.18132781982422,-6.092933634919396,2.2351141446227922,-82.15084959626391,-10.464163,8.356481,-7.8693566,78.27334,-9.702958,-4.593329,-14.657051,1.399308,-25.956358,19.63354,-9.033028,-4.527745,-6.0710993,8.409505,8.696685,-11.787459,25.950438,-47.056015,52.35077,7.1777816,-1.4660065,-6.7434173,3.8456807,-17.781683,28.361824,64.23802,-20.65717,-2.5765374,3.3540576
209,-2.9191653728485107,-152.2476806640625,76.27167510986328,-6.095894580316852,2.098803788818052,-82.20486334254255,-11.444535,8.033281,-8.208497,79.310104,-10.020818,-4.789604,-13.671516,1.7183865,-25.857855,19.076887,-9.361558,-4.4344335,-5.777789,8.316112,8.770919,-11.388162,25.782475,-47.891636,52.607628,7.9870043,-1.4194188,-7.25072,3.236451,-17.999704,28.172604,63.894608,-20.298653,-2.71848,2.9868884
210,-2.965567111968994,-152.93154907226562,76.36318969726562,-6.069672200141026,1.950405411525448,-82.28454219134868,-12.37696,7.6775413,-8.486055,80.10566,-10.230441,-5.1073127,-12.664989,2.021144,-25.714832,18.481464,-9.664602,-4.3394,-5.4559937,8.186526,8.846249,-10.972893,25.62664,-48.720837,52.82415,8.858285,-1.3975524,-7.6827183,2.6224675,-18.220306,28.020649,63.564312,-19.891184,-2.8693304,2.559399
211,-3.014143466949463,-153.61265563964844,76.45336151123047,-6.032799781062431,1.791420154651667,-82.3850892906005,-13.278652,7.291166,-8.74466,80.697945,-10.372461,-5.482256,-11.633634,2.3263202,-25.537706,17.834232,-9.932903,-4.2431192,-5.113903,8.042465,8.927083,-10.535324,25.481161,-49.507877,53.008583,9.737141,-1.3896961,-8.042748,2.0015137,-18.441181,27.890047,63.25604,-19.471869,-3.0264125,2.107569
212,-3.0640788078308105,-154.29039001464844,76.54341125488281,-6.001353035663924,1.623572742020535,-82.49978130287664,-14.164083,6.872005,-9.027018,81.11926,-10.483692,-5.8497424,-10.5689745,2.6516905,-25.33677,17.115734,-10.155318,-4.144974,-4.7629867,7.9040594,9.016931,-10.070107,25.344225,-50.2189,53.17073,10.565745,-1.3848757,-8.33425,1.3704591,-18.6597,27.767155,62.979527,-19.076122,-3.186023,1.6671354
213,-3.110647678375244,-154.9572296142578,76.62517547607422,-5.976909953526541,1.4381001970252032,-82.63550575721821,-15.026853,6.3958774,-9.35468,81.3655,-10.529794,-6.196568,-9.456182,3.004542,-25.099373,16.310751,-10.323645,-4.041758,-4.395946,7.772158,9.122591,-9.572605,25.214584,-50.85001,53.305748,11.375524,-1.3821473,-8.547268,0.7228166,-18.873579,27.656507,62.754456,-18.67467,-3.371075,1.2200047
214,-3.1537551879882812,-155.6265106201172,76.70289611816406,-5.950418330501422,1.2371706651657408,-82.79276872246263,-15.860869,5.873324,-9.703078,81.42072,-10.504004,-6.554985,-8.301765,3.371047,-24.823065,15.4316,-10.444754,-3.9330502,-4.011278,7.6366787,9.239254,-9.04844,25.092485,-51.420513,53.413578,12.178497,-1.384105,-8.683383,0.0586251,-19.08238,27.565737,62.57532,-18.262053,-3.5757906,0.7559891
215,-3.1966912746429443,-156.2904052734375,76.77986907958984,-5.9229879526019396,1.0388256868354622,-82.9566477581548,-16.680214,5.355969,-10.045024,81.29726,-10.489134,-6.927608,-7.1301785,3.739184,-24.532999,14.498686,-10.529135,-3.8234344,-3.6265755,7.5017033,9.353926,-8.49508,24.976974,-51.913967,53.503616,12.906341,-1.384123,-8.763223,-0.61509705,-19.285912,27.485819,62.411644,-17.906431,-3.7512455,0.32234287
216,-3.2376368045806885,-156.93936157226562,76.84672546386719,-5.896359170601983,0.8612592646286262,-83.11172559490632,-17.498749,4.896147,-10.351736,81.0056,-10.5664835,-7.315028,-5.9666924,4.0991335,-24.255026,13.532545,-10.587938,-3.7186544,-3.2605026,7.370826,9.452805,-7.9100904,24.86702,-52.314377,53.585598,13.4889345,-1.3763999,-8.807828,-1.2898606,-19.485315,27.404547,62.232433,-17.67969,-3.846918,-0.034667283
217,-3.2765395641326904,-157.58367919921875,76.90338897705078,-5.87337513156139,0.7055717912201127,-83.25885081829654,-18.312244,4.4894056,-10.633155,80.53228,-10.763737,-7.769649,-4.8128943,4.453324,-23.993082,12.532597,-10.617257,-3.6235492,-2.9164798,7.24772,9.534254,-7.2868023,24.761599,-52.615295,53.652943,13.932642,-1.3526832,-8.813875,-1.9702476,-19.68226,27.32372,62.03438,-17.611917,-3.8251183,-0.30237833
218,-3.303895950317383,-158.2443084716797,76.95276641845703,-5.850636258368499,0.5636666411333583,-83.4052452221541,-19.11537,4.118353,-10.896873,79.87219,-11.03463,-8.268644,-3.6575856,4.8050256,-23.733273,11.490562,-10.6137295,-3.534799,-2.584831,7.1289444,9.604221,-6.6258407,24.660027,-52.82348,53.70119,14.268579,-1.3171829,-8.77331,-2.657688,-19.87663,27.249258,61.83089,-17.66024,-3.718861,-0.50583446
219,-3.332056760787964,-158.89683532714844,76.99472045898438,-5.8216282709638,0.439981072470617,-83.5454755511473,-19.923668,3.8107147,-11.108886,79.05494,-11.345625,-8.701406,-2.50721,5.1445184,-23.475595,10.4156475,-10.588573,-3.4451325,-2.2643409,7.0052695,9.660633,-5.9421287,24.562763,-52.949917,53.74591,14.45662,-1.284084,-8.698852,-3.3423479,-20.06775,27.176235,61.61911,-17.78367,-3.5833185,-0.655606
220,-3.3669703006744385,-159.54922485351562,77.02865600585938,-5.77948908124571,0.33906040604862003,-83.67448317482791,-20.750523,3.5906677,-11.2355585,78.10527,-11.662944,-8.961858,-1.3664571,5.4627814,-23.220516,9.31236,-10.552595,-3.3469532,-1.9530722,6.8673463,9.701744,-5.25246,24.471188,-53.008858,53.803295,14.453957,-1.267893,-8.603177,-4.015348,-20.25499,27.100348,61.396492,-17.939642,-3.4741392,-0.7627834
221,-3.3987045288085938,-160.19769287109375,77.04965209960938,-5.720986108349322,0.2616934214445748,-83.79362507003532,-21.599882,3.4525445,-11.271893,77.02079,-12.01274,-9.0214405,-0.24132137,5.7555904,-22.964891,8.188993,-10.511428,-3.2376895,-1.6464714,6.7118893,9.727842,-4.5551424,24.386044,-52.994827,53.87223,14.210179,-1.274815,-8.472151,-4.6775513,-20.437105,27.015095,61.16829,-18.148369,-3.4004107,-0.8203309
222,-3.425800323486328,-160.8415069580078,77.06182098388672,-5.6507464897188555,0.20596432327893896,-83.90562494919219,-22.460022,3.3808582,-11.2317705,75.787476,-12.401312,-8.943623,0.7409677,5.9698896,-22.722948,7.3399363,-10.61621,-3.1175466,-1.3459964,6.54275,9.739555,-3.8431056,24.307373,-52.904827,53.943268,13.759438,-1.2976269,-8.304825,-5.333851,-20.614212,26.92392,60.935257,-18.422531,-3.3347094,-0.82602614
223,-3.453827381134033,-161.4833526611328,77.06684112548828,-5.571002519566433,0.1721158073496531,-84.00697019573275,-23.321066,3.3824036,-11.109746,74.41398,-12.765636,-8.763894,1.3652772,6.0151167,-22.52613,7.261908,-11.121576,-2.9820259,-1.0583647,6.3632145,9.736774,-3.1210804,24.235039,-52.749165,54.018116,13.194153,-1.3304996,-8.133902,-5.9780974,-20.788097,26.833511,60.68434,-18.70897,-3.2779121,-0.7979999
224,-3.4750897884368896,-162.1310577392578,77.06887817382812,-5.48489563020459,0.16045492467009703,-84.09433017569907,-24.171864,3.4638233,-10.89991,72.90884,-13.044409,-8.518526,1.9705868,6.045045,-22.350594,7.183354,-11.616702,-2.8403118,-0.78972226,6.177548,9.719826,-2.3948984,24.168335,-52.53924,54.09862,12.606173,-1.3664552,-7.992139,-6.6020236,-20.961288,26.74928,60.39975,-18.954659,-3.2309515,-0.7543377
225,-3.4979755878448486,-162.7738494873047,77.06588745117188,-5.394099588880776,0.17226108056542044,-84.16268812734495,-25.015987,3.636337,-10.583348,71.26983,-13.233534,-8.215019,2.5636833,6.0615263,-22.201948,7.094196,-12.093972,-2.6902945,-0.54515344,5.985466,9.685653,-1.6547844,24.105925,-52.25623,54.181904,11.981865,-1.4070615,-7.8875813,-7.1988297,-21.13551,26.668676,60.065273,-19.150633,-3.1946547,-0.68273026
226,-3.5148863792419434,-163.41712951660156,77.04930877685547,-5.299141802731197,0.2067704400544099,-84.21553084287729,-25.848074,3.8840013,-10.163219,69.490524,-13.367003,-7.8472986,3.1436439,6.0660596,-22.07477,6.992682,-12.555592,-2.5326884,-0.32043466,5.787635,9.635898,-0.9011317,24.047012,-51.900806,54.2669,11.285038,-1.4546887,-7.803362,-7.7741694,-21.312265,26.59019,59.69158,-19.322832,-3.1685836,-0.5794067
227,-3.534824848175049,-164.05702209472656,77.0238265991211,-5.196766572737232,0.2603267049562821,-84.26166705844483,-26.650667,4.169572,-9.663536,67.58374,-13.445607,-7.427873,3.7035542,6.057448,-21.959887,6.8888426,-13.012892,-2.3730583,-0.10614102,5.585863,9.578771,-0.15582515,23.991188,-51.515102,54.358944,10.573743,-1.5027896,-7.73365,-8.330566,-21.491638,26.514696,59.295963,-19.471994,-3.150847,-0.4741679
228,-3.5548043251037598,-164.6953125,76.98218536376953,-5.083129545676782,0.3287117823187675,-84.30860420118407,-27.408394,4.4577456,-9.109956,65.563156,-13.468217,-6.965419,4.2350726,6.03064,-21.849577,6.8011436,-13.477033,-2.216119,0.10784142,5.3793426,9.522785,0.5572821,23.937862,-51.14292,54.465794,9.905784,-1.5446366,-7.6722937,-8.871635,-21.673475,26.443203,58.89727,-19.598291,-3.1394174,-0.39713287
229,-3.5656073093414307,-165.32582092285156,76.93275451660156,-4.986461015460062,0.41031705176858474,-84.35541778618378,-28.117815,4.7935886,-8.500184,63.414696,-13.460492,-6.4117265,4.7198353,6.0081344,-21.751265,6.768726,-13.973145,-2.0666473,0.3230731,5.1975474,9.469598,1.2337469,23.886612,-50.788082,54.592033,9.270784,-1.582185,-7.614437,-9.400206,-21.859095,26.378605,58.502377,-19.706762,-3.1303666,-0.35157844
230,-3.5781126022338867,-165.95108032226562,76.88080596923828,-4.900645093728287,0.5069637205010595,-84.39770416315925,-28.778366,5.169097,-7.8185964,61.13122,-13.418085,-5.786381,5.16563,5.9836297,-21.667776,6.7786007,-14.491731,-1.9197102,0.535005,5.0322742,9.415503,1.8841238,23.836473,-50.430855,54.734135,8.647177,-1.6174264,-7.564352,-9.9102125,-22.048405,26.316597,58.096794,-19.795675,-3.1257067,-0.32269144
231,-3.5803279876708984,-166.58340454101562,76.82632446289062,-4.8078676653846415,0.6211924522428213,-84.43385289473927,-29.371294,5.5135326,-7.104133,58.699894,-13.269388,-5.1934814,5.589881,5.9458213,-21.594254,6.7894697,-15.004755,-1.7664111,0.7402225,4.8662267,9.358323,2.5034258,23.786463,-50.084583,54.892864,8.07048,-1.6438198,-7.527948,-10.397245,-22.240177,26.248426,57.675297,-19.857344,-3.1324627,-0.31405994
232,-3.575296401977539,-167.21981811523438,76.77125549316406,-4.7051765506614505,0.7537126867173652,-84.46046030246136,-29.882486,5.772965,-6.410232,56.109924,-12.93886,-4.731221,5.9953175,5.8890867,-21.530724,6.799086,-15.506212,-1.5995387,0.93466073,4.693535,9.298161,3.0859587,23.734352,-49.76403,55.069016,7.5769067,-1.6546849,-7.5113072,-10.853593,-22.432024,26.161562,57.23031,-19.885477,-3.1578722,-0.32928437
233,-3.5719082355499268,-167.8441619873047,76.71180725097656,-4.584377288283046,0.9047933393783042,-84.47561943761285,-30.308922,5.942403,-5.759478,53.333744,-12.366793,-4.406058,6.381191,5.8054223,-21.478767,6.808916,-15.998131,-1.4105914,1.119957,4.5063105,9.236523,3.624219,23.677835,-49.476276,55.27085,7.154849,-1.6419836,-7.5175123,-11.279114,-22.624327,26.051168,56.758175,-19.867111,-3.2196312,-0.3806991
234,-3.565070152282715,-168.468017578125,76.64714813232422,-4.450119109520438,1.073687977567853,-84.48191218493838,-30.658806,6.054981,-5.122374,50.37977,-11.598026,-4.163271,6.747946,5.7001095,-21.43777,6.8177714,-16.481888,-1.2056988,1.299316,4.309416,9.172585,4.120765,23.615704,-49.214188,55.499836,6.792447,-1.6109698,-7.5421286,-11.675364,-22.817823,25.921156,56.263214,-19.810612,-3.3086777,-0.4625547
235,-3.546858310699463,-169.09274291992188,76.57984161376953,-4.314914733856795,1.2592913715935605,-84.48292276651023,-30.932993,6.1231413,-4.481376,47.27906,-10.711585,-4.004908,7.0953493,5.588258,-21.404917,6.8269787,-16.953016,-0.999795,1.4704995,4.118069,9.103354,4.5833974,23.54774,-48.97144,55.747383,6.524196,-1.5748556,-7.5801134,-12.042086,-23.009975,25.775564,55.753098,-19.73914,-3.3918886,-0.5518238
236,-3.5328409671783447,-169.70545959472656,76.50672912597656,-4.191411112363457,1.460222538541211,-84.4824143745176,-31.132168,6.15948,-3.8205369,44.060497,-9.784551,-3.933617,7.427359,5.4865675,-21.376299,6.8341475,-17.40744,-0.807937,1.6311072,3.946771,9.025412,5.022405,23.474411,-48.739887,56.00381,6.385842,-1.5469409,-7.626485,-12.3804655,-23.196142,25.618265,55.238327,-19.676985,-3.4360676,-0.6261357
237,-3.5091400146484375,-170.31752014160156,76.4280776977539,-4.08371711982104,1.6793478852497363,-84.48112122120891,-31.248318,6.189296,-3.124547,40.6733,-8.772772,-3.963772,7.738558,5.4004335,-21.351534,6.8402524,-17.8457,-0.6455193,1.7814825,3.800067,8.93565,5.4405513,23.396162,-48.509274,56.27038,6.420239,-1.5381316,-7.6827755,-12.693145,-23.372042,25.44455,54.718777,-19.61976,-3.4185896,-0.6770023
238,-3.4841411113739014,-170.93753051757812,76.34532165527344,-3.987292183775024,1.9136896816750053,-84.47999830486525,-31.27329,6.2093263,-2.4126902,37.09508,-7.641903,-4.0839314,8.033889,5.3242,-21.328735,6.8451138,-18.27097,-0.50116074,1.9236706,3.6711364,8.837687,5.833771,23.313526,-48.285564,56.55133,6.5963454,-1.5390636,-7.7506003,-12.983544,-23.536692,25.255938,54.1966,-19.559532,-3.3615847,-0.71838194
239,-3.4543685913085938,-171.56448364257812,76.2582778930664,-3.9025390747631303,2.1522644486504316,-84.48493033912898,-31.204763,6.1943803,-1.7218462,33.39009,-6.481093,-4.2573895,8.324891,5.2572994,-21.301384,6.848184,-18.677479,-0.3506177,2.0601106,3.5597224,8.739567,6.202517,23.227314,-48.083496,56.83937,6.8419127,-1.5325347,-7.82599,-13.252711,-23.69002,25.065418,53.682755,-19.512915,-3.2993324,-0.7604002
