unveil-humanoid-operators/unveil-humanoid-operators.github.io/feature-analysis-animation/data/feature_matrix_instances/weight_ankle_rom_walking_A032_walk_sideway_135_loop_001__A032.csv
Frame,root_translateX,root_translateY,root_translateZ,root_rotateX,root_rotateY,root_rotateZ,left_hip_pitch_joint_dof,left_hip_roll_joint_dof,left_hip_yaw_joint_dof,left_knee_joint_dof,left_ankle_pitch_joint_dof,left_ankle_roll_joint_dof,right_hip_pitch_joint_dof,right_hip_roll_joint_dof,right_hip_yaw_joint_dof,right_knee_joint_dof,right_ankle_pitch_joint_dof,right_ankle_roll_joint_dof,waist_yaw_joint_dof,waist_roll_joint_dof,waist_pitch_joint_dof,left_shoulder_pitch_joint_dof,left_shoulder_roll_joint_dof,left_shoulder_yaw_joint_dof,left_elbow_joint_dof,left_wrist_roll_joint_dof,left_wrist_pitch_joint_dof,left_wrist_yaw_joint_dof,right_shoulder_pitch_joint_dof,right_shoulder_roll_joint_dof,right_shoulder_yaw_joint_dof,right_elbow_joint_dof,right_wrist_roll_joint_dof,right_wrist_pitch_joint_dof,right_wrist_yaw_joint_dof
0,2.5147457122802734,0.1409398317337036,78.87661743164062,0.9831491208039539,-5.412103626894416,-179.7072332931702,5.6992564,2.9088962,15.6072035,10.971681,-10.293618,1.5134193,6.475287,-4.7515435,-9.098337,7.9236455,-10.469713,7.1363792,-1.6957159,-0.0027307752,10.321799,0.05822882,11.0009575,-37.806366,57.318813,-14.5208025,2.6407347,5.141758,-1.0093696,-10.55627,34.712994,60.7482,17.56604,5.97527,-1.3580716
1,2.506165027618408,0.14424116909503937,78.88165283203125,0.9613855495158283,-5.405216698623959,-179.75948439178302,5.716377,2.9472494,15.646036,10.967959,-10.311102,1.484682,6.4665813,-4.7106934,-9.058499,7.921905,-10.476089,7.1017137,-1.6725749,0.028610945,10.313528,0.057825893,10.9903755,-37.782528,57.320637,-14.555238,2.6336546,5.169673,-1.0269105,-10.567692,34.68251,60.748817,17.565565,5.963482,-1.3623694
2,2.492882251739502,0.14525553584098816,78.88611602783203,0.9393391854189969,-5.3980590681123335,-179.81159866737616,5.733116,2.9858634,15.684002,10.963816,-10.328046,1.454915,6.455632,-4.6698003,-9.018958,7.924379,-10.485098,7.066683,-1.6497426,0.06079354,10.30625,0.060487885,10.980001,-37.755272,57.317307,-14.59167,2.6267905,5.2001867,-1.0475754,-10.579646,34.648796,60.753136,17.563725,5.950999,-1.3658097
3,2.4807679653167725,0.14655844867229462,78.88939666748047,0.9178337866938017,-5.391801520942395,-179.86411031930982,5.750776,3.024081,15.723677,10.961081,-10.346483,1.4271098,6.4459114,-4.629512,-8.978412,7.9262147,-10.492994,7.0323296,-1.6280228,0.08964036,10.297764,0.06369015,10.974234,-37.733208,57.314014,-14.623386,2.6209323,5.225207,-1.0703292,-10.586851,34.62279,60.76035,17.56353,5.9387145,-1.3700721
4,2.4694080352783203,0.14947965741157532,78.89131927490234,0.8984089100998806,-5.388182729914649,-179.91774859583708,5.771757,3.0604348,15.767648,10.959638,-10.367252,1.4044479,6.4387727,-4.5916486,-8.935006,7.9290066,-10.499804,6.9998775,-1.6090635,0.11907987,10.29642,0.06071541,10.964058,-37.70825,57.311443,-14.631822,2.6188443,5.232991,-1.0990423,-10.6006,34.595024,60.76505,17.554647,5.9284735,-1.3698702
5,2.45698881149292,0.15520597994327545,78.89286804199219,0.8806656568116321,-5.387075885626705,-179.97250691304234,5.7960105,3.0951474,15.817648,10.960121,-10.391608,1.389567,6.430762,-4.556042,-8.886727,7.9395833,-10.508153,6.9680285,-1.5925415,0.14476997,10.293869,0.055542648,10.95499,-37.694584,57.312374,-14.616667,2.6204636,5.2171416,-1.132092,-10.6142025,34.585854,60.772976,17.549593,5.9187226,-1.3708739
6,2.4437320232391357,0.15809988975524902,78.89692687988281,0.8640879165253796,-5.3876635552103895,179.97195366610998,5.822414,3.1286492,15.8720045,10.9619875,-10.418571,1.38023,6.4250393,-4.5218835,-8.835108,7.9489594,-10.513631,6.936678,-1.5798541,0.17236418,10.292491,0.047962148,10.941117,-37.68351,57.31648,-14.580968,2.624947,5.183934,-1.1675494,-10.637267,34.589893,60.778454,17.547438,5.9098597,-1.3707747
7,2.429164409637451,0.1588999480009079,78.90172576904297,0.8495766458713597,-5.3897424523177175,179.91629788599226,5.850883,3.160353,15.927203,10.964729,-10.446419,1.3720891,6.4206624,-4.4903536,-8.78389,7.9611287,-10.521127,6.9085355,-1.5691708,0.18973823,10.288414,0.040714093,10.934548,-37.68179,57.321022,-14.548181,2.631018,5.152258,-1.1994888,-10.64974,34.59647,60.78235,17.54005,5.902969,-1.3725806
8,2.414424419403076,0.16393014788627625,78.90690612792969,0.8381243149314362,-5.395134460267702,179.85759122283832,5.8875074,3.189131,15.983791,10.962366,-10.472005,1.3605785,6.423837,-4.4615297,-8.73337,7.9688487,-10.529901,6.886211,-1.5680896,0.21170273,10.291498,0.032063067,10.922411,-37.678482,57.323044,-14.534121,2.6347814,5.1368384,-1.2407283,-10.674181,34.613297,60.78545,17.541306,5.897292,-1.371068
9,2.395900249481201,0.1678270697593689,78.91201782226562,0.8314077933987318,-5.3962297237030254,179.80072325510994,5.9205365,3.2126262,16.035044,10.958057,-10.495439,1.3451345,6.427873,-4.439116,-8.691647,7.971821,-10.54028,6.8740883,-1.5701677,0.21559693,10.282359,0.025625525,10.919449,-37.68324,57.32411,-14.546191,2.6415513,5.146932,-1.2686044,-10.681228,34.61857,60.781727,17.523067,5.8955536,-1.3690023
10,2.3754706382751465,0.1764068901538849,78.91352081298828,0.8290981041871549,-5.40326803539286,179.7345066897091,5.970871,3.2313194,16.09477,10.937979,-10.513064,1.3268245,6.44155,-4.4199204,-8.644994,7.96932,-10.550278,6.8691006,-1.5743481,0.22558896,10.285253,0.012760033,10.912187,-37.70959,57.321587,-14.600396,2.645277,5.182726,-1.317661,-10.699659,34.641563,60.78558,17.51775,5.8971148,-1.363496
11,2.357510805130005,0.18120022118091583,78.91094207763672,0.8274258447983581,-5.412792180121355,179.6722423998927,6.0215597,3.2502508,16.150465,10.924779,-10.533097,1.3078889,6.4586716,-4.401837,-8.601035,7.9699297,-10.564347,6.8646917,-1.5791783,0.23362376,10.2849245,-0.00051116856,10.901287,-37.74013,57.32665,-14.648298,2.648207,5.2189593,-1.3401774,-10.729571,34.656483,60.76412,17.5121,5.8986354,-1.3593707
12,2.3339412212371826,0.18601973354816437,78.90519714355469,0.823478345383671,-5.433559045883058,179.61302679749105,6.082664,3.2730377,16.20473,10.919441,-10.555668,1.2889336,6.4881268,-4.3796124,-8.553325,7.974561,-10.583178,6.8533387,-1.5881349,0.23745786,10.295622,-0.008762,10.8965025,-37.754745,57.334038,-14.666871,2.6487083,5.2401414,-1.363679,-10.744134,34.65684,60.753143,17.506002,5.8946123,-1.358143
13,2.312366008758545,0.1921112835407257,78.9002685546875,0.8163761602637062,-5.46757408212237,179.55747812442226,6.15654,3.3014207,16.25863,10.921699,-10.578718,1.2675495,6.529327,-4.3516455,-8.498081,7.9868727,-10.609221,6.832855,-1.6006727,0.2447715,10.318371,-0.010029784,10.8911915,-37.759007,57.347004,-14.649716,2.6436002,5.244523,-1.3787471,-10.761073,34.6411,60.74383,17.510305,5.878194,-1.3596474
14,2.2838387489318848,0.20236146450042725,78.89917755126953,0.8074367011342237,-5.51125657594734,179.50435644072437,6.2401013,3.3335447,16.312126,10.929791,-10.602384,1.2440501,6.580373,-4.3197284,-8.438045,8.003352,-10.640512,6.8071017,-1.6180881,0.2500876,10.349215,-0.008378444,10.88813,-37.754837,57.367153,-14.610953,2.6343424,5.24008,-1.3870109,-10.771764,34.617523,60.733555,17.522738,5.8546863,-1.3647029
15,2.2543554306030273,0.21262367069721222,78.90036010742188,0.7987205450579312,-5.563777362389343,179.45219705105131,6.3351197,3.3653195,16.364462,10.938972,-10.628621,1.2237214,6.6428547,-4.2879057,-8.37838,8.021614,-10.674107,6.778616,-1.627828,0.25557527,10.393224,-0.013394856,10.884039,-37.748585,57.388668,-14.559367,2.6256027,5.227176,-1.3837593,-10.787472,34.573368,60.706882,17.523556,5.837262,-1.3684587
16,2.2240190505981445,0.21993887424468994,78.90118408203125,0.791187920490972,-5.6189566683839995,179.40191544626796,6.4312587,3.3951285,16.411964,10.955835,-10.663728,1.2120109,6.7103605,-4.259474,-8.325881,8.044092,-10.709208,6.749827,-1.6341217,0.26153484,10.431823,-0.017441118,10.879222,-37.755615,57.40816,-14.525993,2.619496,5.2141695,-1.3730923,-10.806412,34.538803,60.67564,17.524677,5.834376,-1.3754836
17,2.188795566558838,0.2268366813659668,78.8988265991211,0.78544695458939,-5.6814918085450214,179.35339105585965,6.53243,3.4216318,16.45248,10.983478,-10.710476,1.2143935,6.7863255,-4.236617,-8.283433,8.076141,-10.746138,6.719018,-1.6441935,0.2601287,10.465819,-0.018623007,10.877266,-37.76901,57.425453,-14.515413,2.6190302,5.199157,-1.365658,-10.814468,34.534027,60.651203,17.523762,5.85606,-1.3941171
18,2.1520094871520996,0.23484984040260315,78.8923110961914,0.7807958704034342,-5.750542643058315,179.3066840910006,6.638927,3.4461827,16.487858,11.019347,-10.765456,1.2268016,6.871175,-4.2168846,-8.247303,8.113306,-10.783862,6.6857524,-1.6541085,0.25543448,10.50181,-0.020699086,10.876402,-37.784397,57.44162,-14.514072,2.6220953,5.179728,-1.3555068,-10.818238,34.537685,60.62334,17.517662,5.8951283,-1.4190577
19,2.112858295440674,0.24651020765304565,78.88644409179688,0.7761732518619139,-5.8208947947833565,179.26047038628934,6.749736,3.4706874,16.523378,11.0545635,-10.824456,1.2394739,6.963442,-4.1967897,-8.212931,8.143273,-10.821368,6.654048,-1.6505642,0.25439128,10.526679,-0.021785116,10.872635,-37.83565,57.463615,-14.53352,2.6219914,5.1675887,-1.3149993,-10.834289,34.545418,60.57553,17.527378,5.9337277,-1.446885
20,2.070235013961792,0.25924575328826904,78.8823013305664,0.7717561365530059,-5.880174367609507,179.21416633060633,6.8556647,3.494995,16.563848,11.078351,-10.880617,1.2433639,7.0471807,-4.175125,-8.176098,8.168177,-10.864235,6.628088,-1.6626589,0.25321567,10.547988,-0.011231404,10.871197,-37.8499,57.471905,-14.529342,2.6187265,5.1528344,-1.2926416,-10.839662,34.5461,60.54998,17.538225,5.9531636,-1.4587816
21,2.027219772338867,0.26852279901504517,78.87841796875,0.766888753952307,-5.92993018779476,179.16751197201378,6.961421,3.5205958,16.612349,11.087187,-10.9344225,1.2351096,7.1283817,-4.1502476,-8.136276,8.179811,-10.911636,6.6096187,-1.6757247,0.25519904,10.555756,0.013107938,10.869216,-37.863327,57.47435,-14.513658,2.6049817,5.1448665,-1.2563026,-10.8469,34.539295,60.525314,17.568924,5.942211,-1.4530519
22,1.9826220273971558,0.2790268659591675,78.87566375732422,0.7615620337857315,-5.973350097452729,179.1211466524624,7.066811,3.5472949,16.665487,11.088841,-10.9896965,1.219913,7.209207,-4.12311,-8.095821,8.182085,-10.962483,6.5961323,-1.6940501,0.25848,10.559299,0.043960206,10.868054,-37.865543,57.47041,-14.487239,2.585146,5.1382008,-1.2220197,-10.850799,34.52943,60.508186,17.61174,5.9125924,-1.433512
23,1.9358203411102295,0.2928522527217865,78.8720703125,0.7571794723008125,-6.008680779184835,179.07426376597135,7.1681123,3.572301,16.719687,11.081436,-11.041053,1.2009611,7.2841635,-4.096548,-8.053278,8.178983,-11.012887,6.585853,-1.7090403,0.26364502,10.552799,0.081328355,10.866265,-37.86385,57.461674,-14.458704,2.567856,5.132624,-1.176344,-10.85651,34.50682,60.486267,17.647762,5.8827133,-1.4132057
24,1.8900660276412964,0.3074854016304016,78.86597442626953,0.7534087421175201,-6.031705963467662,179.02705147823198,7.253051,3.5961363,16.769976,11.076907,-11.09055,1.1813433,7.345691,-4.070717,-8.008536,8.175051,-11.059768,6.576456,-1.7274569,0.26822498,10.539961,0.10980783,10.865431,-37.858246,57.4569,-14.451194,2.559785,5.129954,-1.1441909,-10.857624,34.493114,60.474533,17.681759,5.8674746,-1.4103372
25,1.8457565307617188,0.32109400629997253,78.8578872680664,0.7520259214576016,-6.043140831239573,178.98034026423468,7.3267775,3.6146648,16.81409,11.063511,-11.130924,1.1627909,7.393314,-4.048437,-7.96131,8.171483,-11.101745,6.5673285,-1.7412524,0.27170756,10.512129,0.14252575,10.864373,-37.84772,57.450363,-14.455352,2.5686536,5.13052,-1.0973767,-10.857583,34.468254,60.45302,17.684628,5.879301,-1.4303998
26,1.7977675199508667,0.3358134627342224,78.85292053222656,0.7519598974916322,-6.042071626830512,178.93484442890298,7.386221,3.630527,16.853745,11.047233,-11.166627,1.1434622,7.427521,-4.0281334,-7.9126406,8.166447,-11.140467,6.5595703,-1.7472079,0.27487466,10.477686,0.16591893,10.861726,-37.834156,57.44738,-14.467663,2.58817,5.1329746,-1.0453349,-10.85496,34.42077,60.425896,17.664753,5.9064016,-1.4627664
27,1.7504324913024902,0.34740686416625977,78.84929656982422,0.7519425495921889,-6.033705324056819,178.8855021148299,7.439585,3.6465333,16.895695,11.028877,-11.201628,1.1207675,7.4547668,-4.0069156,-7.8602343,8.158397,-11.177927,6.554639,-1.7508819,0.27972063,10.434903,0.18868677,10.858949,-37.821964,57.446507,-14.490637,2.6089635,5.135563,-0.9992197,-10.8503475,34.380753,60.408657,17.655703,5.9342356,-1.4992884
28,1.7019175291061401,0.3538420796394348,78.84520721435547,0.7512776686447821,-6.022600741219397,178.82681669507267,7.4969287,3.6644406,16.94742,11.003288,-11.236161,1.0922078,7.480288,-3.9828427,-7.799474,8.145208,-11.214862,6.5530033,-1.7456108,0.2863236,10.386636,0.21231732,10.855469,-37.807632,57.44847,-14.5094385,2.6234162,5.1302094,-0.95042086,-10.843279,34.341034,60.392838,17.664412,5.951315,-1.5264122
29,1.650526523590088,0.36494213342666626,78.8434829711914,0.7507686585146747,-6.007606583334817,178.75642425632242,7.5592422,3.6834404,17.010916,10.96659,-11.267559,1.0570999,7.503763,-3.9557261,-7.7301097,8.124332,-11.251057,6.55826,-1.7270546,0.29481804,10.327891,0.23763181,10.851564,-37.790596,57.45656,-14.520947,2.628366,5.1102815,-0.9006669,-10.834371,34.30022,60.38838,17.705814,5.947602,-1.5412835
30,1.5975253582000732,0.3778899610042572,78.84136962890625,0.7499871697996404,-5.987049566022154,178.6776698692319,7.62052,3.7039487,17.081951,10.924605,-11.297684,1.01666,7.522389,-3.9264526,-7.65358,8.098407,-11.2866535,6.5686035,-1.7015767,0.30466682,10.258245,0.2659731,10.846734,-37.769974,57.46813,-14.532519,2.6280425,5.0812407,-0.8494012,-10.822538,34.26354,60.390446,17.773201,5.931873,-1.5517119
31,1.5432099103927612,0.3939632177352905,78.83789825439453,0.7485653590539038,-5.964824510282737,178.59330424261853,7.6856394,3.724998,17.159706,10.875992,-11.328032,0.9717155,7.540584,-3.8952823,-7.5721335,8.068455,-11.320711,6.5791163,-1.6756499,0.3170092,10.189614,0.2965745,10.842918,-37.74752,57.474815,-14.545329,2.6268504,5.0550046,-0.80429506,-10.812977,34.23514,60.39428,17.839748,5.91886,-1.557322
32,1.494234323501587,0.40870195627212524,78.8307113647461,0.7448969144978907,-5.944714401174724,178.50651336043768,7.7522807,3.748831,17.242428,10.833125,-11.36737,0.92292744,7.558604,-3.862452,-7.4878464,8.042455,-11.3556795,6.5848975,-1.6519088,0.33235228,10.1348505,0.3243843,10.839427,-37.724617,57.472065,-14.558698,2.6289132,5.0423427,-0.77402455,-10.804759,34.211903,60.395638,17.87818,5.9231014,-1.5568515
33,1.4424697160720825,0.4225110113620758,78.82542419433594,0.7420246247477995,-5.931787721750239,178.41658881394417,7.8405743,3.767699,17.334396,10.766213,-11.403269,0.8687512,7.579966,-3.8319292,-7.3990016,8.026874,-11.396389,6.584117,-1.6313801,0.34591234,10.0998335,0.35582396,10.833075,-37.68323,57.45458,-14.547443,2.6395037,5.043532,-0.75717527,-10.7914915,34.17353,60.39403,17.84947,5.958039,-1.5416491
34,1.3903663158416748,0.4285135269165039,78.8211669921875,0.7362442910939956,-5.920307777946048,178.32441596270496,7.9314775,3.7898815,17.432178,10.701896,-11.446961,0.80893177,7.60318,-3.79842,-7.3076334,8.009716,-11.43602,6.5790596,-1.613357,0.36304682,10.07744,0.3836351,10.826597,-37.64144,57.429367,-14.536257,2.6533706,5.0581136,-0.75668913,-10.77984,34.138462,60.39372,17.795448,6.011798,-1.5186749
35,1.3385177850723267,0.4336649477481842,78.81734466552734,0.7301885061135988,-5.907615366931826,178.22688259518426,8.022011,3.812643,17.534561,10.639777,-11.494186,0.7481505,7.6242332,-3.7645051,-7.2114277,7.992412,-11.474033,6.5731273,-1.5907245,0.3828476,10.057362,0.41028196,10.821402,-37.607086,57.40101,-14.533219,2.6655893,5.0777297,-0.75862175,-10.772107,34.11401,60.388184,17.737772,6.065157,-1.4954019
36,1.285095453262329,0.43919360637664795,78.8150634765625,0.725581461209563,-5.889885981116942,178.121913410779,8.103905,3.835656,17.639145,10.587038,-11.544143,0.6909048,7.6368923,-3.7315733,-7.1091757,7.977242,-11.509297,6.569638,-1.558397,0.40418273,10.032934,0.4270218,10.815337,-37.579197,57.384083,-14.543817,2.6711435,5.0920997,-0.76412666,-10.764945,34.10158,60.38598,17.695122,6.0984654,-1.4779409
37,1.2315350770950317,0.44299620389938354,78.81233978271484,0.7285066425673745,-5.871336271557534,178.0042065586843,8.198701,3.8467603,17.749527,10.508144,-11.576946,0.64133453,7.6432304,-3.706279,-6.995635,7.9675784,-11.54263,6.5723495,-1.52047,0.42380384,10.007874,0.4370184,10.805372,-37.538456,57.381626,-14.556932,2.666798,5.0950503,-0.78950816,-10.756166,34.113777,60.404884,17.665876,6.10421,-1.4649378
38,1.1757512092590332,0.45133307576179504,78.80794525146484,0.7310964289103056,-5.847578652906767,177.88007740708164,8.280721,3.8608978,17.860601,10.446725,-11.616363,0.59533525,7.6426363,-3.6802816,-6.877125,7.9569154,-11.571503,6.5776744,-1.4688069,0.44696802,9.977057,0.4372034,10.798614,-37.520355,57.388565,-14.596964,2.6542997,5.098396,-0.8120918,-10.7523775,34.144173,60.419052,17.655764,6.0927725,-1.4584721
39,1.1243937015533447,0.46613234281539917,78.80364990234375,0.7314193820006275,-5.817380986612608,177.7630029523111,8.343869,3.8789907,17.963312,10.40804,-11.667012,0.54864657,7.639934,-3.6530886,-6.767007,7.9387617,-11.59607,6.5817657,-1.4142109,0.4706468,9.944095,0.43402815,10.796961,-37.514854,57.39115,-14.632169,2.6436276,5.101255,-0.82680696,-10.75189,34.157814,60.420593,17.638803,6.0775948,-1.452275
40,1.0706828832626343,0.4694429636001587,78.79945373535156,0.7363262741368745,-5.792415680014439,177.6179931640814,8.452113,3.8861935,18.101215,10.303567,-11.694342,0.49324325,7.630005,-3.6271696,-6.6275516,7.9396563,-11.629113,6.579221,-1.4144878,0.49901083,9.90515,0.4620518,10.768916,-37.432316,57.39853,-14.647,2.6316292,5.0995893,-0.89351594,-10.749153,34.279373,60.479443,17.6562,6.0570927,-1.4553466
41,1.0134077072143555,0.4684879779815674,78.79607391357422,0.7354022003158673,-5.756039658572622,177.4867149011688,8.537083,3.9003832,18.23199,10.219217,-11.736386,0.42644244,7.615216,-3.5970902,-6.502218,7.932708,-11.661431,6.568342,-1.3917681,0.5293548,9.865255,0.4791395,10.750163,-37.38421,57.393463,-14.625866,2.6302938,5.093895,-0.9302683,-10.749727,34.31612,60.506744,17.625269,6.043833,-1.4475875
42,0.9545754790306091,0.46973711252212524,78.79358673095703,0.7307299184515107,-5.712127242480071,177.35557242632783,8.610946,3.9199483,18.36648,10.143938,-11.787058,0.35126534,7.595065,-3.562745,-6.3774023,7.920305,-11.691137,6.5513296,-1.356262,0.5606086,9.820063,0.4943939,10.741639,-37.35867,57.381367,-14.59262,2.6328597,5.0858827,-0.9563087,-10.751012,34.326733,60.52576,17.579967,6.028871,-1.4380873
43,0.8925997614860535,0.47653546929359436,78.79134368896484,0.7303396558007808,-5.674537366044267,177.21475194729382,8.710921,3.929694,18.512394,10.035146,-11.825235,0.2774486,7.5728626,-3.5332599,-6.242482,7.9264383,-11.730021,6.5325603,-1.3368899,0.5923723,9.786202,0.5193148,10.725285,-37.3021,57.361263,-14.55158,2.639426,5.0750012,-1.0039506,-10.754618,34.35102,60.55909,17.53706,6.0164475,-1.4268478
44,0.833466649055481,0.48264726996421814,78.78702545166016,0.7283867392637138,-5.647314434574829,177.06281308645083,8.815682,3.945799,18.664824,9.9500675,-11.877728,0.21229187,7.5638576,-3.4992762,-6.0973573,7.9269524,-11.7633915,6.5135107,-1.313467,0.6252503,9.767769,0.5360956,10.707905,-37.246616,57.346455,-14.547457,2.6501768,5.0695195,-1.0525492,-10.759996,34.38147,60.58146,17.515303,6.0116634,-1.4212006
45,0.7713384032249451,0.4889158606529236,78.77948760986328,0.7263064320995659,-5.635540978364144,176.89166005289087,8.939078,3.965255,18.830555,9.875668,-11.940061,0.15968138,7.5635276,-3.4620883,-5.9341226,7.938283,-11.796462,6.4925847,-1.2864594,0.66094893,9.772162,0.5442718,10.681131,-37.180252,57.339115,-14.58985,2.6685236,5.0738044,-1.1116536,-10.771835,34.430428,60.593952,17.526281,6.0207543,-1.4205016
46,0.7085418105125427,0.4929765462875366,78.77124786376953,0.7254843776749133,-5.634305441925127,176.70550898345408,9.077181,3.985243,19.007969,9.805438,-12.008437,0.1145069,7.567778,-3.424338,-5.7564783,7.9601026,-11.831253,6.469285,-1.2507453,0.6971371,9.79299,0.5465721,10.65107,-37.114414,57.333344,-14.664999,2.6933584,5.085183,-1.1743269,-10.790153,34.4842,60.59589,17.557562,6.039452,-1.422926
47,0.6436547040939331,0.505828320980072,78.76300048828125,0.726411179783016,-5.638418104342139,176.51648761356185,9.2227745,4.003611,19.187456,9.737466,-12.078636,0.07203647,7.5767336,-3.3884113,-5.575447,7.988769,-11.871662,6.448788,-1.2037352,0.7301817,9.821036,0.54694563,10.633452,-37.071323,57.319885,-14.763292,2.7183497,5.0957484,-1.2296952,-10.803914,34.517204,60.59449,17.586708,6.0561585,-1.4271203
48,0.578512966632843,0.5094071626663208,78.7579574584961,0.7312517082977243,-5.643559244448496,176.3369987296113,9.370885,4.0149593,19.359247,9.668083,-12.146274,0.028018802,7.6000066,-3.3587458,-5.402811,8.001842,-11.912093,6.4365697,-1.1929511,0.76723385,9.846362,0.5510131,10.600452,-37.004826,57.31729,-14.8469095,2.7313988,5.0930576,-1.2767966,-10.832508,34.56677,60.58807,17.612497,6.063618,-1.4337591
49,0.5059577822685242,0.5121971964836121,78.75383758544922,0.7422824110272622,-5.650356041473224,176.16844764760575,9.522441,4.016758,19.522102,9.595148,-12.208616,-0.01735828,7.6303635,-3.33842,-5.2395725,8.0176525,-11.963439,6.4341483,-1.1821796,0.7969239,9.865571,0.56059855,10.582075,-36.96899,57.307365,-14.934001,2.7297623,5.076285,-1.3089513,-10.84916,34.58075,60.59641,17.611332,6.051914,-1.4406179
50,0.42576539516448975,0.5195192694664001,78.74626159667969,0.7581769406822443,-5.662179052862607,176.00496450202698,9.684733,4.0099316,19.680786,9.514044,-12.265628,-0.06186613,7.66827,-3.3253431,-5.0803685,8.039206,-12.024491,6.4388647,-1.1892945,0.8215238,9.887259,0.5749942,10.567478,-36.92831,57.297935,-15.019546,2.7161613,5.046859,-1.3379315,-10.862141,34.591305,60.610973,17.600777,6.030765,-1.4492507
51,0.34761402010917664,0.5296424627304077,78.73836517333984,0.7756405347309228,-5.672836973376671,175.84673821305216,9.845201,4.0004807,19.835514,9.435953,-12.323872,-0.10743119,7.7130804,-3.315069,-4.9251924,8.051849,-12.08628,6.44883,-1.2071338,0.84504306,9.906507,0.58953184,10.553444,-36.88937,57.290062,-15.107209,2.7037277,5.0147843,-1.3636647,-10.874286,34.60059,60.627666,17.589865,6.005371,-1.4616014
52,0.268709272146225,0.5371751189231873,78.72880554199219,0.7929762509197736,-5.676898249854238,175.6940164384747,9.996923,3.9909155,19.986692,9.362444,-12.384807,-0.15584612,7.760131,-3.3059967,-4.7736273,8.050033,-12.1441345,6.462618,-1.2208481,0.8643293,9.91806,0.5971173,10.548236,-36.87085,57.285854,-15.20515,2.7036426,4.9897475,-1.3840257,-10.878843,34.604145,60.64192,17.587698,5.981953,-1.4811982
53,0.18481557071208954,0.5524002313613892,78.7191162109375,0.8248561747819528,-5.674803605103556,175.5393520011364,10.163936,3.9578717,20.145777,9.244837,-12.427021,-0.21101747,7.661451,-3.326412,-4.609273,8.348417,-12.365569,6.4812083,-1.2488369,0.8720985,9.929264,0.59888005,10.532994,-36.831543,57.28746,-15.298144,2.727146,4.97485,-1.4165397,-10.892571,34.626907,60.654823,17.610794,5.959182,-1.5099592
54,0.09456150233745575,0.5582441091537476,78.70691680908203,0.8511543541051153,-5.669113923412141,175.39531864128352,10.310218,3.93705,20.296204,9.166201,-12.490912,-0.27368325,7.5933676,-3.33914,-4.4561033,8.582763,-12.559768,6.5015774,-1.2713755,0.87764454,9.931918,0.5961232,10.529076,-36.82222,57.292362,-15.403495,2.7649846,4.9692473,-1.4358802,-10.896427,34.63289,60.66386,17.643108,5.9340777,-1.5485486
55,0.009023135527968407,0.5641704201698303,78.69757080078125,0.8922562740760023,-5.657894654124591,175.24656531505406,10.481391,3.8858168,20.452707,9.019855,-12.517473,-0.32833698,7.502024,-3.3706906,-4.2934675,8.855097,-12.774407,6.531136,-1.3159814,0.8786171,9.934819,0.5867936,10.509168,-36.784454,57.309383,-15.50174,2.797043,4.9564013,-1.4664615,-10.916241,34.673996,60.670334,17.682114,5.915623,-1.5866755
56,-0.07071278989315033,0.5747316479682922,78.68749237060547,0.9254683030844946,-5.639246527284277,175.1086672558348,10.618593,3.848038,20.59156,8.923402,-12.560071,-0.3672496,7.4384103,-3.3923542,-4.1404257,9.056283,-12.950647,6.5687017,-1.356776,0.8872655,9.928063,0.570417,10.495186,-36.766262,57.333378,-15.599009,2.8060415,4.927428,-1.4843627,-10.931175,34.696396,60.67361,17.683392,5.91076,-1.6128232
57,-0.16129176318645477,0.5821179151535034,78.67674255371094,0.9621249803286986,-5.614873633927626,174.97207366490127,10.739783,3.8057897,20.72129,8.846375,-12.60608,-0.38107887,7.379691,-3.418477,-3.983186,9.236475,-13.11013,6.620467,-1.3919713,0.8921707,9.913865,0.549644,10.489157,-36.759754,57.36507,-15.700071,2.7781703,4.8672256,-1.5007968,-10.938872,34.713364,60.682793,17.638603,5.9240227,-1.6269021
58,-0.2555476427078247,0.5923976302146912,78.66694641113281,1.0000642249562817,-5.585469177740368,174.8388497649256,10.847221,3.7618563,20.842339,8.785797,-12.655596,-0.3776456,7.3360806,-3.4463406,-3.8256805,9.376741,-13.248922,6.6834407,-1.4299357,0.89712685,9.89382,0.5252826,10.486448,-36.757317,57.404163,-15.801682,2.7261007,4.7851667,-1.513208,-10.943443,34.7298,60.690975,17.562824,5.9513497,-1.6334403
59,-0.3436310589313507,0.5984147787094116,78.6551742553711,1.0358473147671714,-5.546444414577284,174.71520514670098,10.942808,3.7151942,20.951897,8.718655,-12.690887,-0.36805257,7.2880187,-3.4739203,-3.6770668,9.506838,-13.383389,6.7497406,-1.4844203,0.90643907,9.867521,0.49507076,10.4830885,-36.749622,57.445755,-15.893414,2.6709795,4.705787,-1.5254717,-10.950585,34.75468,60.697628,17.482656,5.9843354,-1.6322011
60,-0.4313492178916931,0.6016302108764648,78.64544677734375,1.0583030764911874,-5.49251032854788,174.61328156966047,11.005119,3.6824121,21.040049,8.669606,-12.717742,-0.36450574,7.2388673,-3.4891214,-3.5542908,9.608072,-13.507237,6.8098826,-1.5555669,0.92966104,9.831617,0.45881894,10.482606,-36.74333,57.478996,-15.960633,2.6355977,4.653577,-1.5345367,-10.953509,34.75845,60.706028,17.402094,6.0158696,-1.6181351
61,-0.5269491076469421,0.6002106070518494,78.63996887207031,1.0820498907000076,-5.428690096388507,174.5263607680575,11.05092,3.6473773,21.112694,8.622407,-12.736643,-0.36629993,7.198211,-3.5068119,-3.4517295,9.673654,-13.620299,6.8631425,-1.6470457,0.9526729,9.789285,0.419204,10.483004,-36.738663,57.503716,-15.994489,2.6319408,4.635569,-1.5397118,-10.954999,34.750546,60.71441,17.320953,6.0470862,-1.582516
62,-0.6126571893692017,0.6087398529052734,78.63957977294922,1.1198915100287443,-5.355636277782273,174.4469631054021,11.09522,3.5925534,21.176687,8.54751,-12.733251,-0.3651936,7.155819,-3.5408082,-3.358336,9.724225,-13.730525,6.915305,-1.7348014,0.9620146,9.754052,0.35033372,10.484774,-36.73485,57.535393,-15.996951,2.6462615,4.6310225,-1.5387928,-10.959095,34.695927,60.707798,17.211718,6.083804,-1.5208554
63,-0.6980595588684082,0.6253891587257385,78.64539337158203,1.1496486188462745,-5.262553999297429,174.39120789552655,11.093874,3.5507815,21.21665,8.502237,-12.71766,-0.36333692,7.1240263,-3.5667942,-3.291061,9.708406,-13.805467,6.964763,-1.8426974,0.9832162,9.699792,0.28410307,10.487741,-36.730743,57.555233,-15.996742,2.6607797,4.647287,-1.5383697,-10.960197,34.647316,60.709423,17.12612,6.115513,-1.4658544
64,-0.7751724720001221,0.6256115436553955,78.6322021484375,1.0790697294408322,-5.113978648158525,174.40367648637223,10.490358,3.8227124,21.159197,9.6305275,-13.263404,-0.37455255,7.051448,-3.4897828,-3.296265,9.652994,-13.85126,7.0027704,-1.9932685,1.1042373,9.61167,0.19146983,10.493371,-36.71208,57.57189,-16.002438,2.6601336,4.670648,-1.541528,-10.9606285,34.57627,60.707005,17.065434,6.1389313,-1.4298679
65,-0.8438737988471985,0.6215534806251526,78.59344482421875,0.8751587205912246,-4.894596851680276,174.4853763613153,9.373402,4.4014225,21.00448,11.694529,-14.278005,-0.39169183,6.9223456,-3.269749,-3.3766992,9.548117,-13.855809,7.0179434,-2.1927679,1.3648486,9.484195,0.07862517,10.505032,-36.66513,57.577446,-16.0319,2.645336,4.679288,-1.560238,-10.962065,34.49151,60.703728,17.044323,6.1546283,-1.4227223
66,-0.9097087979316711,0.6154696941375732,78.54778289794922,0.6166113716235493,-4.640214334277351,174.5987068366793,8.113798,5.071883,20.799904,13.959949,-15.384573,-0.40369627,6.767847,-2.990938,-3.4920142,9.412717,-13.836242,7.0220356,-2.4293256,1.6861427,9.336349,-0.040575787,10.5169735,-36.58964,57.580173,-16.080492,2.6203837,4.688059,-1.5950084,-10.964004,34.434715,60.710804,17.075958,6.162939,-1.4417621
67,-0.9657508730888367,0.5994558334350586,78.49189758300781,0.33540625566778814,-4.386949678740882,174.73188150982125,6.8037667,5.776759,20.550037,16.304506,-16.449766,-0.4236181,6.631052,-2.6907713,-3.6304271,9.249791,-13.804909,7.032815,-2.6769972,2.0317276,9.200104,-0.16755584,10.527276,-36.5051,57.564198,-16.106047,2.5818338,4.7378683,-1.6268363,-10.965641,34.376827,60.717354,17.12353,6.161937,-1.4675658
68,-1.0165601968765259,0.5868491530418396,78.43158721923828,0.057699314183493534,-4.169091598496629,174.87510518826775,5.5194516,6.4700828,20.262766,18.639055,-17.35621,-0.4673822,6.5572267,-2.3998888,-3.7819006,9.0533695,-13.769615,7.066864,-2.9266272,2.3682365,9.113699,-0.29844955,10.541128,-36.39743,57.501747,-16.05164,2.5281255,4.8605895,-1.6526853,-10.968177,34.292927,60.71682,17.145452,6.1511908,-1.4754531
69,-1.0615699291229248,0.5835116505622864,78.36231231689453,-0.2307211064336106,-3.9804286507671174,175.03708020384576,4.2213125,7.170076,19.918097,21.034477,-18.10898,-0.53538114,6.5450234,-2.102268,-3.9563916,8.809064,-13.72393,7.1329017,-3.1806636,2.7072961,9.0777855,-0.42869642,10.57147,-36.272873,57.373463,-15.94219,2.4481738,5.0995436,-1.6619818,-10.9732485,34.15599,60.689793,17.131887,6.1229377,-1.454916
70,-1.1259253025054932,0.5625453591346741,78.3011474609375,-0.5358723808519886,-3.805018645073701,175.22092369024315,2.8781874,7.8878374,19.517765,23.519901,-18.764349,-0.62111795,6.5739007,-1.7902601,-4.155971,8.519525,-13.664152,7.220926,-3.4348028,3.0588017,9.063493,-0.56536984,10.607569,-36.163673,57.21022,-15.809921,2.3448484,5.432377,-1.6513783,-10.977372,33.988514,60.64858,17.113428,6.0784755,-1.4243734
71,-1.2038378715515137,0.5304712057113647,78.24152374267578,-0.8241447382433679,-3.6611686389150546,175.41033606367688,1.5655918,8.579003,19.105165,25.97447,-19.296804,-0.73335564,6.652626,-1.5016935,-4.360028,8.214672,-13.605979,7.3184433,-3.6715462,3.3859398,9.089996,-0.7056832,10.657662,-36.05717,57.002003,-15.58425,2.2458472,5.7810507,-1.6291059,-10.983599,33.807762,60.602688,17.084505,6.034804,-1.3928893
72,-1.2910971641540527,0.49947378039360046,78.18379211425781,-1.0640254024884799,-3.5671162262378826,175.58974295132722,0.35722733,9.204933,18.725517,28.28343,-19.683971,-0.8814421,6.7875557,-1.2727201,-4.548983,7.9285293,-13.567364,7.412677,-3.8811033,3.6539547,9.169211,-0.8342505,10.734017,-35.94902,56.730804,-15.207441,2.1784325,6.072157,-1.5978248,-10.999096,33.65583,60.55849,17.05492,6.007788,-1.3747724
73,-1.3857444524765015,0.45678597688674927,78.13442993164062,-1.255837013581401,-3.543345757426672,175.77170392243153,-0.7229521,9.760548,18.377993,30.456423,-19.869202,-1.1283139,7.0110564,-1.1044862,-4.7347584,7.650164,-13.54646,7.49464,-4.080685,3.8694468,9.304255,-0.98831445,10.775632,-35.83544,56.47255,-14.601993,2.1513624,6.2876973,-1.569433,-11.013416,33.540623,60.545914,17.034203,5.9995766,-1.3809766
74,-1.4771826267242432,0.41766464710235596,78.0900650024414,-1.4163218862256808,-3.5735880302034717,175.9606177347154,-1.7225734,10.269632,18.045673,32.558414,-19.886646,-1.4523463,7.3077726,-0.97728103,-4.9234543,7.367909,-13.535628,7.572342,-4.2728605,4.041968,9.511522,-1.1222005,10.859326,-35.708397,56.11766,-13.818839,2.159532,6.456503,-1.5212638,-11.0553665,33.433052,60.49451,17.00972,6.0076857,-1.3935196
75,-1.57979154586792,0.37929266691207886,78.0521469116211,-1.5403779132125346,-3.6206873377169804,176.12883365858968,-2.6704853,10.740223,17.749512,34.54654,-19.852364,-1.7363678,7.525983,-0.90236634,-5.0867577,7.3014865,-13.643098,7.6582546,-4.428151,4.1762867,9.728628,-1.2548568,10.943745,-35.578186,55.735157,-12.985215,2.1726155,6.6101494,-1.4644029,-11.111348,33.365974,60.46044,16.982433,6.0243793,-1.4122403
76,-1.7030460834503174,0.3438738286495209,78.01786804199219,-1.6238520670986387,-3.6481416863155895,176.24851001134974,-3.592764,11.182472,17.510138,36.37126,-19.878504,-1.8577198,7.6923456,-0.87574005,-5.1998525,7.292668,-13.77742,7.7649617,-4.518723,4.275979,9.913575,-1.38343,11.023131,-35.439022,55.336906,-12.219205,2.1673343,6.7728405,-1.4038361,-11.178702,33.35814,60.466904,16.942688,6.0459857,-1.4301689
77,-1.834985375404358,0.29057785868644714,77.99050903320312,-1.66339137750605,-3.657049783371597,176.30970321975815,-4.4878936,11.597207,17.3338,38.051056,-20.022722,-1.7497973,7.835444,-0.8966404,-5.2520223,7.281268,-13.9084215,7.8983817,-4.5303054,4.3419514,10.061444,-1.5065027,11.095781,-35.3082,54.9201,-11.551156,2.1298468,6.9577622,-1.3393422,-11.259003,33.423153,60.524406,16.87392,6.072074,-1.450979
78,-1.9715676307678223,0.23808695375919342,77.968505859375,-1.6644666175967227,-3.6631010886743463,176.32855262422504,-5.344282,11.985006,17.209024,39.601223,-20.214645,-1.4880894,7.974385,-0.9615778,-5.259788,7.2709947,-14.040831,8.050671,-4.4803233,4.377044,10.192601,-1.628286,11.161523,-35.181156,54.483063,-10.917116,2.0750499,7.1499715,-1.2680396,-11.352926,33.545914,60.617508,16.78393,6.1049547,-1.4761214
79,-2.11554217338562,0.17147500813007355,77.9542465209961,-1.6346726978474373,-3.652496421886608,176.31642671285314,-6.1700673,12.355395,17.130205,40.959873,-20.36899,-1.1632209,8.0928955,-1.0647414,-5.238206,7.2625065,-14.169519,8.213551,-4.388973,4.384819,10.300523,-1.7502067,11.22142,-35.019802,54.036983,-10.294479,2.022468,7.332737,-1.1960331,-11.458209,33.709667,60.73818,16.704851,6.14351,-1.4961284
80,-2.269534111022949,0.10117393732070923,77.94593811035156,-1.5811631587223338,-3.6114413117725523,176.28463212011238,-6.97586,12.718041,17.09253,42.07031,-20.403677,-0.865804,8.174559,-1.2012691,-5.202131,7.256689,-14.289414,8.378887,-4.2776985,4.3670683,10.378918,-1.8730158,11.277667,-34.78512,53.59265,-9.661814,1.9914018,7.488611,-1.1309484,-11.570338,33.898884,60.880997,16.668457,6.186286,-1.5021302
81,-2.42325758934021,0.0287398062646389,77.94534301757812,-1.4983620468365375,-3.5265393745195763,176.2238612320581,-7.77269,13.08712,17.134317,42.93363,-20.30444,-0.56223726,8.200805,-1.3768317,-5.143631,7.255433,-14.395173,8.548703,-4.1386642,4.3169856,10.413526,-1.994407,11.332877,-34.457798,53.150414,-8.975337,1.9892144,7.6367087,-1.0821937,-11.686079,34.132244,61.062283,16.707487,6.2343726,-1.493939
82,-2.586855411529541,-0.041759226471185684,77.95148468017578,-1.3852916776075528,-3.4081493521268555,176.13259474631053,-8.552974,13.456101,17.246492,43.577267,-20.113745,-0.22273922,8.186319,-1.5913126,-5.0588107,7.254714,-14.489129,8.725858,-3.9675875,4.2342687,10.412076,-2.1116002,11.3883705,-34.058853,52.702602,-8.259111,2.0048966,7.7775264,-1.047327,-11.804516,34.41311,61.284874,16.796713,6.2876186,-1.4762
83,-2.754204750061035,-0.12435472011566162,77.95902252197266,-1.256469671530769,-3.278449465946069,176.03388120740624,-9.299675,13.80092,17.352625,43.983997,-19.834068,0.05500459,8.160583,-1.831073,-4.9685984,7.258494,-14.586111,8.90302,-3.789574,4.1316814,10.401436,-2.2259018,11.443961,-33.611412,52.24863,-7.5934267,2.0291898,7.8659816,-1.0143311,-11.923136,34.701202,61.51876,16.88271,6.342693,-1.4468703
84,-2.9300923347473145,-0.22640646994113922,77.9639663696289,-1.1258653438162607,-3.1599351716825677,175.95044856511362,-9.996142,14.09536,17.375477,44.13433,-19.465479,0.17188032,8.156753,-2.0822117,-4.8942156,7.2623587,-14.695998,9.072968,-3.627755,4.0217867,10.407057,-2.3393302,11.497836,-33.140305,51.788944,-7.057893,2.0515304,7.8575625,-0.9703061,-12.039082,34.953342,61.73559,16.910576,6.396129,-1.4038864
85,-3.1075873374938965,-0.3251664638519287,77.96766662597656,-0.9911618337185442,-3.054284527175368,175.8862894886374,-10.629916,14.328135,17.311188,43.986362,-19.002338,0.07921685,8.179052,-2.3500566,-4.844477,7.266976,-14.830353,9.241896,-3.4778075,3.902798,10.430127,-2.451131,11.546574,-32.63131,51.320972,-6.667794,2.0811255,7.7102575,-0.9082487,-12.149596,35.16131,61.937313,16.844517,6.4449425,-1.3397528
86,-3.2982609272003174,-0.437862366437912,77.97059631347656,-0.8466218403346663,-2.9510982046504988,175.83006240383605,-11.212724,14.511044,17.193995,43.56188,-18.445705,-0.1643578,8.213681,-2.6391265,-4.8074036,7.269964,-14.978978,9.410936,-3.3291478,3.769069,10.457246,-2.563639,11.589263,-32.080513,50.850716,-6.382943,2.1177247,7.4584584,-0.83813775,-12.254826,35.34521,62.141808,16.72042,6.49085,-1.2581044
87,-3.4924793243408203,-0.5457859039306641,77.96882629394531,-0.7014781094515623,-2.8544724259191323,175.78142302269308,-11.764847,14.653224,17.001621,42.939003,-17.805935,-0.49773747,8.260052,-2.9347234,-4.7725163,7.27706,-15.126509,9.56536,-3.1943934,3.6297348,10.493799,-2.6825857,11.6287565,-31.528425,50.389507,-6.1997614,2.1369357,7.1725535,-0.7643531,-12.354655,35.50097,62.332794,16.588135,6.5386543,-1.1727389
88,-3.692564010620117,-0.6652461886405945,77.96599578857422,-0.5648791140804996,-2.768251654725551,175.7400643222219,-12.306723,14.763658,16.711914,42.196026,-17.093733,-0.8593482,8.322312,-3.221622,-4.7298503,7.28309,-15.251798,9.690521,-3.0838413,3.4930587,10.544977,-2.8145568,11.6706705,-31.019527,49.947598,-6.1172223,2.1153057,6.9232974,-0.69392425,-12.450641,35.623177,62.497158,16.498358,6.5929866,-1.0974469
89,-3.8956518173217773,-0.7933196425437927,77.96491241455078,-0.44074910233113623,-2.693498899309915,175.7083600059653,-12.840099,14.843211,16.309958,41.32073,-16.284807,-1.2720877,8.394922,-3.492144,-4.6737165,7.2972455,-15.34608,9.771913,-3.0023465,3.3626213,10.614387,-2.960585,11.720659,-30.56508,49.519608,-6.2115192,2.0367162,6.7125645,-0.62485063,-12.541324,35.70449,62.625366,16.470854,6.6698027,-1.0397487
90,-4.1087422370910645,-0.9203017950057983,77.96210479736328,-0.32304840224389486,-2.6283208335744144,175.68553667049457,-13.35201,14.885379,15.807287,40.27921,-15.383153,-1.7555715,8.481295,-3.756004,-4.610555,7.31122,-15.4174385,9.821102,-2.9421048,3.2315612,10.69928,-3.1132843,11.780122,-30.143665,49.095478,-6.4594293,1.918943,6.507573,-0.55427533,-12.626015,35.74731,62.725285,16.475014,6.76171,-0.9907801
91,-4.329448699951172,-1.0562933683395386,77.95552825927734,-0.2067563613531701,-2.571825420545683,175.66685969868348,-13.841871,14.890097,15.222537,39.12081,-14.442646,-2.2430217,8.581106,-4.02474,-4.5482802,7.3299656,-15.489811,9.862593,-2.89547,3.0944316,10.79608,-3.2684312,11.847488,-29.74928,48.679996,-6.7091794,1.7884763,6.3270965,-0.4833145,-12.707858,35.76187,62.80246,16.487799,6.8393626,-0.9398549
92,-4.562453269958496,-1.20801842212677,77.94359588623047,-0.08668127616693999,-2.5231160145900584,175.64752925676405,-14.309618,14.858924,14.57705,37.89566,-13.517259,-2.667309,8.696878,-4.309899,-4.4948874,7.352708,-15.583786,9.920929,-2.853871,2.9464364,10.901175,-3.4227538,11.918769,-29.37605,48.279278,-6.8073936,1.6705455,6.190933,-0.41243166,-12.793093,35.75881,62.86083,16.487463,6.8736067,-0.8757171
93,-4.803163528442383,-1.3713163137435913,77.93231201171875,0.04536599448833449,-2.48370021328129,175.62855725695516,-14.762099,14.773285,13.834225,36.603554,-12.58771,-2.9936275,8.830843,-4.6236234,-4.4569187,7.3818607,-15.709098,10.001401,-2.8165083,2.7804418,11.016457,-3.5829608,11.991889,-29.034542,47.90018,-6.7145247,1.5598739,6.108808,-0.33294705,-12.887202,35.719666,62.896038,16.462494,6.841096,-0.7738123
94,-5.049842834472656,-1.530510663986206,77.91077423095703,0.1853501388014148,-2.4532778372576174,175.6116507311287,-15.1935215,14.642519,12.997433,35.224255,-11.638749,-3.2614493,8.945547,-4.9607663,-4.4260798,7.4912257,-15.892184,10.091528,-2.785918,2.6021626,11.143389,-3.7501655,12.066002,-28.724236,47.539238,-6.5102425,1.446118,6.069443,-0.24329954,-12.991819,35.64499,62.900295,16.428114,6.7632937,-0.6468295
95,-5.299814224243164,-1.7023143768310547,77.88368225097656,0.318685182621607,-2.4282516119945527,175.59335179876635,-15.5883045,14.512342,12.149103,33.77963,-10.730091,-3.5147061,8.957839,-5.3069453,-4.3853235,7.8438735,-16.210112,10.188709,-2.7603679,2.4270742,11.275987,-3.9184337,12.135987,-28.424238,47.1961,-6.223258,1.3461404,6.0623374,-0.15692914,-13.103401,35.57123,62.8793,16.39702,6.6776385,-0.5400433
96,-5.5604424476623535,-1.877192735671997,77.84739685058594,0.43043359190736435,-2.4052540310063013,175.56994429733592,-15.932094,14.427353,11.372285,32.287373,-9.918921,-3.797637,8.9698515,-5.6344633,-4.3338485,8.210816,-16.532686,10.291402,-2.7440486,2.2720501,11.413307,-4.072368,12.203752,-28.106117,46.854507,-5.8824897,1.2774898,6.074311,-0.07960372,-13.229462,35.540855,62.82006,16.383379,6.623472,-0.49760327
97,-5.822780132293701,-2.066118001937866,77.80509948730469,0.5181479727732161,-2.381531436673812,175.5442650243769,-16.224583,14.388782,10.668317,30.727451,-9.229343,-4.1073194,8.975987,-5.9398484,-4.271522,8.598039,-16.863214,10.396954,-2.7379758,2.1406956,11.550235,-4.2144556,12.261011,-27.762238,46.519783,-5.429711,1.252608,6.112568,-0.016607706,-13.362544,35.571274,62.721096,16.392946,6.6189756,-0.5637354
98,-6.0978240966796875,-2.258941173553467,77.7529296875,0.5888460932745045,-2.3596753820847214,175.51659561875118,-16.471733,14.379647,10.001789,29.094599,-8.624205,-4.4231477,8.977451,-6.233083,-4.20207,9.009367,-17.207167,10.507083,-2.7435517,2.0259235,11.688887,-4.351152,12.306979,-27.40364,46.199917,-4.8708887,1.259815,6.1798806,0.036108997,-13.502003,35.641884,62.588646,16.417904,6.640773,-0.70431554
99,-6.3857502937316895,-2.4662652015686035,77.69375610351562,0.6408130597214603,-2.3443095778101575,175.47967793872994,-16.67235,14.414511,9.399513,27.42771,-8.072879,-4.764699,8.986112,-6.512809,-4.122841,9.428726,-17.55368,10.62567,-2.7561357,1.9260522,11.831668,-4.482157,12.344528,-27.037525,45.900875,-4.326061,1.2794561,6.259679,0.0726587,-13.6497755,35.731087,62.452145,16.4516,6.662967,-0.84777826
100,-6.684091567993164,-2.6809799671173096,77.62384033203125,0.6724043518547504,-2.3401976345785296,175.4262790752276,-16.827549,14.50762,8.887307,25.769386,-7.541441,-5.15292,9.012019,-6.777145,-4.0311475,9.843112,-17.892885,10.756584,-2.7715347,1.8401476,11.98233,-4.607618,12.379398,-26.673151,45.626915,-3.9188495,1.2914736,6.335463,0.08951396,-13.808629,35.817276,62.33625,16.48694,6.66036,-0.92222434
101,-6.988818168640137,-2.904902219772339,77.549072265625,0.674444619822233,-2.3566837731306256,175.35539087895276,-16.917543,14.673732,8.479352,24.093945,-7.035413,-5.62452,9.064684,-7.0156307,-3.9282756,10.254909,-18.222015,10.895435,-2.7895837,1.7746803,12.152208,-4.720491,12.41342,-26.306627,45.373356,-3.6849325,1.2911018,6.421038,0.08696305,-13.982318,35.896553,62.242313,16.528334,6.615589,-0.8875225
102,-7.29889440536499,-3.1399402618408203,77.46427917480469,0.6489132203912695,-2.389189225074131,175.2699977073787,-16.94518,14.90334,8.1616125,22.38018,-6.560999,-6.159115,9.1366825,-7.230296,-3.8147953,10.669984,-18.546722,11.0415745,-2.8112824,1.7298259,12.337958,-4.822697,12.446483,-25.93691,45.135822,-3.5598173,1.2888662,6.5188417,0.069851235,-14.172069,35.978607,62.15221,16.576946,6.5462728,-0.78833795
103,-7.619356155395508,-3.3859636783599854,77.37494659423828,0.611175750332647,-2.421388177778943,175.1688281169578,-16.953436,15.172006,7.915951,20.693962,-6.094128,-6.693574,9.213394,-7.439166,-3.6872795,11.079944,-18.870161,11.204658,-2.833222,1.6934223,12.521699,-4.919878,12.481905,-25.573172,44.911575,-3.5099568,1.2876182,6.5949163,0.040329114,-14.375015,36.06317,62.063126,16.623194,6.4795566,-0.6796947
104,-7.948257923126221,-3.629854202270508,77.27703094482422,0.5775916811415025,-2.436726390315209,175.05112368110784,-16.98291,15.451741,7.7243176,19.094868,-5.6118135,-7.1661344,9.27878,-7.6617565,-3.5425205,11.477892,-19.19599,11.394523,-2.8522162,1.6516342,12.685221,-5.0172834,12.525567,-25.22631,44.696903,-3.5041785,1.2903134,6.615235,0.00075926655,-14.584921,36.147667,61.973595,16.65452,6.442617,-0.61698544
105,-8.291627883911133,-3.887005090713501,77.17491912841797,0.5557810768322271,-2.4348319946089583,174.917367010425,-17.042353,15.736991,7.6106772,17.598997,-5.082736,-7.568118,9.333074,-7.906963,-3.3800313,11.865954,-19.53467,11.614401,-2.8675892,1.5930713,12.825598,-5.101537,12.579646,-24.882895,44.474743,-3.5668483,1.3026843,6.5616384,-0.050954245,-14.795138,36.24932,61.884354,16.67817,6.446731,-0.6262401
106,-8.639450073242188,-4.14709997177124,77.06697082519531,0.5353334304403027,-2.4233656204072784,174.76771356422782,-17.11097,16.037334,7.5761795,16.172365,-4.525327,-7.933326,9.382903,-8.163856,-3.2015924,12.245936,-19.880379,11.858795,-2.8828518,1.5254718,12.951205,-5.1735983,12.645441,-24.54242,44.25092,-3.7062738,1.3219707,6.4550824,-0.12237196,-15.0041,36.366234,61.806118,16.697308,6.475073,-0.6748773
107,-8.99194622039795,-4.423551082611084,76.9576644897461,0.5056139936574442,-2.3974209785427916,174.60139594789572,-17.20075,16.349585,7.5641713,14.832145,-4.0009584,-8.262936,9.414704,-8.421561,-3.0066938,12.624721,-20.219454,12.124336,-2.8988616,1.4638815,13.0627985,-5.2501864,12.72676,-24.231297,44.045128,-3.8581705,1.3388032,6.3194633,-0.21028644,-15.211248,36.463566,61.73977,16.692442,6.5132494,-0.72955394
108,-9.351139068603516,-4.721297264099121,76.84184265136719,0.45575629792376227,-2.3523312582256595,174.41714003090414,-17.327293,16.67334,7.517298,13.604965,-3.5714815,-8.5569725,9.415205,-8.668113,-2.794366,13.010239,-20.538368,12.407549,-2.9138312,1.4233426,13.160844,-5.3515515,12.829297,-23.981081,43.87868,-3.9622886,1.3434255,6.179196,-0.31238258,-15.418177,36.504185,61.68782,16.64401,6.546515,-0.7565546
109,-9.714471817016602,-5.025997638702393,76.71943664550781,0.37381721788022804,-2.2792127608074444,174.21758532705118,-17.499004,17.028229,7.4475,12.478057,-3.2493305,-8.829831,9.384684,-8.884718,-2.567796,13.383998,-20.829563,12.713158,-2.9291873,1.4151584,13.237096,-5.4761753,12.956593,-23.795914,43.752182,-4.016836,1.3272038,6.02623,-0.42603666,-15.627424,36.472706,61.64848,16.520914,6.5768795,-0.7328006
110,-10.088021278381348,-5.343292236328125,76.59174346923828,0.2678258845586001,-2.183962198648371,174.00208951070184,-17.707754,17.407621,7.3769617,11.446909,-3.0036256,-9.077266,9.324467,-9.081948,-2.3256066,13.760191,-21.106627,13.041065,-2.9429846,1.4287704,13.29576,-5.6158767,13.108956,-23.664513,43.65275,-4.052716,1.297522,5.852268,-0.5487701,-15.839434,36.385895,61.615524,16.339659,6.6102633,-0.68020123
111,-10.465008735656738,-5.666292667388916,76.45820617675781,0.15989037259026415,-2.0826323349343774,173.76543574081168,-17.944134,17.771603,7.2637873,10.548091,-2.833827,-9.269849,9.244265,-9.292494,-2.064224,14.150077,-21.372637,13.380951,-2.948881,1.4428955,13.355208,-5.774241,13.286064,-23.591248,43.57727,-4.051407,1.2684557,5.6807976,-0.68338794,-16.053028,36.262165,61.588776,16.159231,6.6383557,-0.6327664
112,-10.850765228271484,-6.006353855133057,76.32161712646484,0.07351641527168441,-1.9900179223506742,173.50320293891087,-18.20057,18.078735,7.0655646,9.821659,-2.7420082,-9.376714,9.150834,-9.550998,-1.7802799,14.569182,-21.632889,13.7235,-2.9409876,1.4343213,13.432298,-5.96018,13.488137,-23.583487,43.528103,-3.9976907,1.2535446,5.5357385,-0.832952,-16.266342,36.117764,61.57006,16.036427,6.6528735,-0.6249425
113,-11.242034912109375,-6.367039680480957,76.18938446044922,0.018906616136186414,-1.9027111599835833,173.21515632695696,-18.498783,18.31399,6.741303,9.292194,-2.7586727,-9.36314,9.030149,-9.870095,-1.4767381,15.04163,-21.906979,14.061691,-2.9163642,1.3918731,13.527616,-6.180863,13.716123,-23.647789,43.503464,-3.8557982,1.2616842,5.4227924,-0.9971551,-16.475046,35.948326,61.56212,15.999468,6.6490664,-0.6850006
114,-11.635553359985352,-6.737950325012207,76.05670166015625,-0.013636276179394682,-1.8128555159287856,172.90506444624194,-18.843567,18.495314,6.3214192,8.948409,-2.8810718,-9.2522335,8.88387,-10.233773,-1.155623,15.550267,-22.185984,14.403712,-2.8802605,1.3239987,13.630877,-6.430541,13.970249,-23.779783,43.50364,-3.6448998,1.2834467,5.329313,-1.1779011,-16.677364,35.748913,61.568653,16.014328,6.631785,-0.78874046
115,-12.049933433532715,-7.125965595245361,75.93183898925781,-0.029819652524565296,-1.7290474764742196,172.57451023690004,-19.203226,18.632874,5.870461,8.777914,-3.061073,-9.100155,8.742998,-10.633312,-0.81154466,16.045042,-22.431395,14.76213,-2.839166,1.2377144,13.742533,-6.696208,14.248843,-23.967646,43.531322,-3.429674,1.305585,5.251339,-1.3771026,-16.87599,35.53312,61.58633,16.040352,6.60794,-0.8914276
116,-12.467029571533203,-7.541195869445801,75.81037139892578,-0.047508016363753514,-1.6580583942420974,172.22316452939336,-19.556778,18.75409,5.4455757,8.781116,-3.2560616,-8.967998,8.642221,-11.019842,-0.4117575,16.461407,-22.595352,15.000033,-2.7990115,1.1510249,13.862267,-6.9630857,14.548912,-24.196821,43.58753,-3.2727118,1.3150573,5.184938,-1.5972459,-17.077383,35.316135,61.610462,16.038933,6.58499,-0.94842654
117,-12.891255378723145,-7.95278263092041,75.68722534179688,-0.10795906936796286,-1.6015924595941458,171.84427826987792,-19.942616,18.915792,5.0048947,9.027085,-3.5076714,-8.863138,8.6269655,-11.317453,0.06579007,16.709944,-22.64987,15.000033,-2.7558272,1.1057442,13.98774,-7.2333927,14.870897,-24.472174,43.682865,-3.1828113,1.3040382,5.133109,-1.8348796,-17.287374,35.102364,61.642345,15.96639,6.568659,-0.93444824
118,-13.32979965209961,-8.386120796203613,75.57071685791016,-0.161141990964275,-1.5609053934044452,171.44576117483547,-20.320997,19.046856,4.558012,9.439941,-3.7957156,-8.747167,8.65645,-11.63329,0.56709945,16.89392,-22.65239,15.000033,-2.7140641,1.0545062,14.124567,-7.5104327,15.213959,-24.79655,43.809364,-3.1268675,1.2812324,5.096217,-2.0866108,-17.507849,34.884285,61.676502,15.855411,6.5542965,-0.8770906
119,-13.77822494506836,-8.846266746520996,75.45846557617188,-0.21153653639011932,-1.5228092010287981,171.03022225764627,-20.702406,19.147524,4.1456943,10.016051,-4.0858927,-8.651081,8.689201,-11.966205,1.1029732,17.050795,-22.577984,15.000033,-2.674365,1.0027387,14.271299,-7.792079,15.573318,-25.157238,43.951138,-3.112142,1.2574791,5.067204,-2.3557894,-17.738329,34.660175,61.697643,15.782425,6.5343823,-0.8115992
120,-14.235547065734863,-9.331119537353516,75.35835266113281,-0.263452789122875,-1.4741329307268745,170.6006143380889,-21.093904,19.218332,3.8097296,10.745043,-4.340109,-8.605977,8.6829815,-12.31301,1.6836113,17.218437,-22.400862,15.000033,-2.6384096,0.956282,14.426023,-8.07338,15.941145,-25.537857,44.090794,-3.1411014,1.2435464,5.038843,-2.6439857,-17.975655,34.427505,61.690285,15.822411,6.501333,-0.773379
121,-14.703091621398926,-9.826775550842285,75.26461029052734,-0.31705227710161826,-1.421683141502345,170.1614654658178,-21.512808,19.260538,3.5402844,11.686919,-4.605406,-8.572164,8.642269,-12.672342,2.3095918,17.404415,-22.116812,15.000033,-2.6060092,0.91437095,14.600872,-8.372224,16.31566,-25.942276,44.237087,-3.2281275,1.2426143,5.009125,-2.9555128,-18.217869,34.181538,61.661587,16.075396,6.434241,-0.7721203
122,-15.17369556427002,-10.339035034179688,75.18109893798828,-0.37248905653531056,-1.3703727636842813,169.70914790056037,-21.942638,19.276783,3.323918,12.814768,-4.877181,-8.550055,8.586366,-13.043117,2.9755793,17.587011,-21.738062,15.000033,-2.5756135,0.87814385,14.792866,-8.687344,16.696445,-26.375483,44.398678,-3.365065,1.2486727,4.982508,-3.2858133,-18.464102,33.9225,61.616684,16.47214,6.343265,-0.78873396
123,-15.651117324829102,-10.889569282531738,75.11698913574219,-0.4316643811650654,-1.3025408121271969,169.235548332043,-22.357973,19.267113,3.1923828,14.021692,-5.057898,-8.629358,8.493204,-13.426658,3.682399,17.762152,-21.264269,15.000033,-2.5477643,0.851183,14.974612,-8.98932,17.076609,-26.824299,44.565804,-3.5224702,1.2585322,4.962657,-3.6394281,-18.716366,33.666756,61.554974,16.844213,6.266561,-0.8165778
124,-16.121360778808594,-11.472199440002441,75.08499145507812,-0.4935446485466642,-1.1989498772386271,168.73404142651074,-22.741146,19.228523,3.1762745,15.211761,-5.054606,-8.89871,8.33987,-13.826403,4.4306474,17.921747,-20.692226,15.000033,-2.5252242,0.835999,15.115806,-9.25186,17.446468,-27.274717,44.73492,-3.6713004,1.2682896,4.9535737,-4.0173726,-18.977839,33.428177,61.473057,17.02006,6.2427125,-0.85013175
125,-16.62534523010254,-12.087970733642578,75.0594482421875,-0.5607662756821891,-1.0479208922272574,168.19520864228136,-23.063126,19.165127,3.3218234,16.346886,-4.763373,-9.524603,8.098191,-14.235605,5.2509756,18.085266,-20.016354,15.000033,-2.5009992,0.8387442,15.203152,-9.476006,17.79878,-27.723244,44.91737,-3.8006885,1.2778039,4.9563384,-4.4278727,-19.253757,33.223995,61.377758,16.888828,6.3134456,-0.89398956
126,-17.150470733642578,-12.718306541442871,75.03913879394531,-0.6292915681808602,-0.8589303178355677,167.62783135803446,-23.365004,19.071407,3.5902092,17.524818,-4.2797794,-10.407793,7.77593,-14.65763,6.1352687,18.266403,-19.250593,15.000033,-2.4789455,0.8546986,15.250631,-9.6814995,18.132881,-28.177868,45.123035,-3.9270678,1.2877575,4.9697657,-4.8644004,-19.545626,33.04194,61.26512,16.563639,6.4482555,-0.94908047
127,-17.689163208007812,-13.363724708557129,75.02925109863281,-0.6899667311145506,-0.6451878706896931,167.0517394914211,-23.711538,18.930067,3.8935828,18.80866,-3.7975063,-11.242517,7.430945,-15.112479,7.0161614,18.395443,-18.385536,15.000033,-2.4744983,0.8708018,15.270502,-9.855874,18.448168,-28.63372,45.33312,-4.0501184,1.2964725,4.9940543,-5.306673,-19.848896,32.852875,61.1165,16.21277,6.578327,-1.0053495
128,-18.234661102294922,-14.046562194824219,75.0357666015625,-0.7367276252140398,-0.4226134365393747,166.48341205208686,-24.14674,18.730555,4.1588826,20.223091,-3.491215,-11.729651,7.1114283,-15.612992,7.835106,18.426935,-17.42622,15.000033,-2.5007622,0.87758005,15.276706,-9.992117,18.745392,-29.091301,45.534912,-4.1762853,1.302031,5.0295405,-5.737396,-20.15559,32.628494,60.919678,16.003407,6.6332536,-1.0537696
129,-18.795923233032227,-14.761323928833008,75.05594635009766,-0.7802191448914312,-0.1887519130200887,165.9248534500194,-24.698195,18.46216,4.3261423,21.771355,-3.3574061,-11.822447,6.8244724,-16.151611,8.598225,18.339706,-16.35229,15.000033,-2.5670488,0.8830815,15.268004,-10.076937,19.023573,-29.53544,45.718178,-4.281954,1.3080838,5.075594,-6.168152,-20.462564,32.37566,60.695244,16.00759,6.5754776,-1.0832901
130,-19.36020278930664,-15.487529754638672,75.07941436767578,-0.8231636473544647,0.060469434566736376,165.36549098609325,-25.31965,18.13357,4.459996,23.405304,-3.2987604,-11.678788,6.5429773,-16.720718,9.335285,18.167562,-15.170087,15.000033,-2.6625693,0.8917946,15.238951,-10.118783,19.283154,-29.97234,45.896255,-4.3742313,1.3141289,5.1325564,-6.6063385,-20.76977,32.105843,60.449814,16.126034,6.4477296,-1.1020973
131,-19.954626083374023,-16.226490020751953,75.10895538330078,-0.8492431066078365,0.3109785462757042,164.8009894422362,-25.935272,17.772388,4.67986,25.054909,-3.3384726,-11.305222,6.2619014,-17.337593,10.028951,17.950747,-13.925091,15.000033,-2.7667656,0.8901119,15.197631,-10.131668,19.526587,-30.428112,46.08065,-4.4955487,1.312568,5.202062,-7.0245857,-21.071228,31.793217,60.14723,16.267427,6.3007145,-1.130497
132,-20.565786361694336,-16.99265480041504,75.15038299560547,-0.8411094281992162,0.5495047422498393,164.2273342136193,-26.474855,17.411873,5.100121,26.664173,-3.5095499,-10.699384,5.9767914,-18.019728,10.663562,17.728468,-12.66392,15.000033,-2.856825,0.8618186,15.150806,-10.128643,19.757177,-30.930681,46.281925,-4.686605,1.2960497,5.2860584,-7.4008613,-21.358738,31.413387,59.75859,16.343071,6.1846824,-1.1894882
133,-21.175079345703125,-17.76820945739746,75.19414520263672,-0.7808020574903254,0.7733298760343595,163.66160285564618,-26.9526,17.044445,5.75826,28.28148,-3.854466,-9.745639,5.725158,-18.792828,11.271642,17.448923,-11.372338,15.000033,-2.9435177,0.78503954,15.103108,-10.110909,19.976439,-31.465494,46.49606,-4.923218,1.2727448,5.371991,-7.7299023,-21.625593,30.94308,59.279972,16.327038,6.1153536,-1.2968391
134,-21.805526733398438,-18.569164276123047,75.24720764160156,-0.6819150893784445,0.9891817789120607,163.09942410100808,-27.391144,16.666367,6.5875382,29.912853,-4.344623,-8.475557,5.4877167,-19.639242,11.857977,17.130333,-10.041733,15.000033,-3.0318828,0.67253524,15.048687,-10.069901,20.18525,-32.027058,46.72056,-5.196949,1.2430849,5.4635673,-8.027916,-21.870462,30.399408,58.735176,16.265137,6.0645657,-1.4379151
135,-22.45072364807129,-19.365007400512695,75.30541229248047,-0.5716718232066781,1.199961308630238,162.50410022000477,-27.727713,16.313873,7.5471306,31.428188,-4.912272,-7.1060925,5.1804132,-20.512724,12.364576,16.90104,-8.717932,15.000033,-3.090283,0.5576376,14.9778595,-10.005179,20.386263,-32.656548,46.966747,-5.571019,1.187664,5.5864735,-8.302881,-22.092236,29.820229,58.132748,16.179476,6.016526,-1.5854027
136,-23.09992027282715,-20.185222625732422,75.36936950683594,-0.47502811725102595,1.409312520990674,161.839131095592,-27.908697,16.01629,8.597417,32.709408,-5.4900427,-5.8566976,4.7182727,-21.364494,12.734731,16.886211,-7.445705,15.000033,-3.0861783,0.47086754,14.880201,-9.918486,20.58295,-33.396725,47.24728,-6.1090693,1.0861212,5.765979,-8.558418,-22.289158,29.239347,57.477493,16.09063,5.9555573,-1.7121803
137,-23.770389556884766,-21.013784408569336,75.44384002685547,-0.3724040180116891,1.6274346210897939,161.0879808937695,-27.905094,15.753619,9.7678175,33.706085,-6.0658026,-4.771791,4.0735106,-22.211601,13.096449,17.084301,-6.203359,15.000033,-3.0065756,0.39978117,14.7347975,-9.819035,20.778673,-34.274773,47.56969,-6.933248,0.92512846,6.016411,-8.788766,-22.462215,28.630722,56.76606,15.979387,5.8806887,-1.8115383
138,-24.450462341308594,-21.849485397338867,75.520751953125,-0.2531202326805189,1.8515206265260848,160.27152214570393,-27.753384,15.504761,11.066122,34.4924,-6.677926,-3.739737,3.2867606,-23.07139,13.447749,17.440125,-4.977214,15.000033,-2.8669312,0.32660347,14.550585,-9.702984,20.97438,-35.264023,47.924793,-7.972833,0.71433145,6.318988,-8.984708,-22.610233,27.97978,55.98941,15.838456,5.7996454,-1.897773
139,-25.1372127532959,-22.67072868347168,75.61161804199219,-0.15300289848500961,2.0649988346053756,159.40909990882645,-27.500854,15.292714,12.424803,35.14329,-7.332801,-2.7470026,2.3853993,-23.914932,13.5343,17.979279,-3.8126907,15.000033,-2.6799116,0.26877907,14.360135,-9.560124,21.171244,-36.33101,48.307365,-9.011273,0.46910462,6.649943,-9.1718025,-22.728611,27.360584,55.168995,15.724543,5.7078543,-1.97609
140,-25.827932357788086,-23.485944747924805,75.71272277832031,-0.10716674498232388,2.247333760248305,158.5221715239771,-27.19189,15.139658,13.775902,35.732727,-8.034918,-1.7790195,1.4083756,-24.721092,13.091365,18.722952,-2.759082,15.000033,-2.4654403,0.24445465,14.198064,-9.369516,21.37019,-37.431355,48.705025,-9.824854,0.20865732,6.9871497,-9.374039,-22.806492,26.846909,54.32461,15.688104,5.6005597,-2.0521684
141,-26.514530181884766,-24.29289436340332,75.82371520996094,-0.15932901146857986,2.3933471051144894,157.59092837571566,-26.838455,15.104104,15.111253,36.30287,-8.8308,-0.8347427,0.34550825,-25.46489,12.015879,19.664846,-1.7284031,15.000033,-2.2220802,0.2980912,14.069936,-9.128371,21.575497,-38.585823,49.1284,-10.45696,-0.09605908,7.35945,-9.623907,-22.837065,26.466793,53.4868,15.800464,5.468818,-2.126608
142,-27.186187744140625,-25.095117568969727,75.93797302246094,-0.26854528210912504,2.502774265698957,156.6204429407075,-26.404287,15.131974,16.46522,36.806507,-9.700718,0.081987426,-0.78352696,-26.204596,10.455217,20.791315,-0.7473011,15.000033,-1.9551418,0.39431223,13.961959,-8.839699,21.79014,-39.798748,49.57619,-10.988484,-0.44262537,7.766691,-9.907627,-22.816517,26.182688,52.64541,16.01184,5.3163786,-2.1979303
143,-27.844148635864258,-25.906116485595703,76.04820251464844,-0.3437105199169584,2.558396133073199,155.6748642634817,-25.858313,15.077633,17.829443,37.177044,-10.548133,0.97830683,-1.873375,-27.050344,8.507139,22.099354,-0.03328204,15.000033,-1.699443,0.4331469,13.885155,-8.500704,22.013569,-41.009453,50.026737,-11.264619,-0.7601412,8.148553,-10.2014885,-22.739061,25.984856,51.78032,16.206202,5.1564054,-2.269678
144,-28.492340087890625,-26.665233612060547,76.15925598144531,-0.29836712383270836,2.5449835319608143,154.81939872486626,-25.1764,14.804615,19.185509,37.34889,-11.280091,1.8574525,-2.8178144,-28.100107,6.2646494,23.586308,0.20114706,15.000033,-1.4959577,0.31983298,13.851968,-8.101672,22.244047,-42.14888,50.45686,-11.128393,-0.9751883,8.446448,-10.480859,-22.597294,25.863897,50.871597,16.2604,5.0021405,-2.346644
145,-29.124149322509766,-27.376949310302734,76.27684783935547,-0.4586702032199307,2.4690156756875425,154.01186209608483,-24.533295,14.726194,20.28882,37.565567,-11.984692,2.6184125,-3.6314218,-28.96906,3.2417562,25.32624,-0.099629536,13.284768,-1.3130406,0.36088067,13.876744,-7.636442,22.477842,-43.191742,50.868584,-10.376192,-1.0633165,8.646833,-10.756303,-22.386513,25.827806,49.918262,16.137207,4.8547344,-2.4412014
146,-29.74713134765625,-28.06863784790039,76.40078735351562,-0.6401271832890731,2.3353787008646893,153.25144418607653,-23.820303,14.629134,21.316101,37.683712,-12.6418705,3.3230014,-4.299311,-29.941069,-0.3508689,27.296337,-0.8952923,10.964618,-1.1584773,0.38990667,13.944713,-7.105788,22.71636,-44.16886,51.275352,-9.141953,-1.0619563,8.7807255,-11.037063,-22.104345,25.879396,48.933945,15.901161,4.7079506,-2.5494428
147,-30.34125518798828,-28.79541015625,76.50194549560547,-0.7709091598915949,2.1668087862508054,152.53263668422673,-23.044436,14.430085,22.322163,37.68556,-13.240803,4.0115466,-4.683591,-31.002522,-4.149882,29.256567,-2.0848045,8.781652,-1.0189658,0.34500816,14.017027,-6.51312,22.960958,-45.098717,51.65944,-7.790637,-0.9913004,8.861274,-11.322596,-21.755299,26.014763,47.939014,15.587614,4.560073,-2.6500957
148,-30.945587158203125,-29.47475242614746,76.5990982055664,-0.8364395126323528,1.991241845989531,151.83775360961715,-22.24885,14.121169,23.32181,37.60268,-13.790529,4.708573,-4.6960883,-32.03248,-7.846091,30.974451,-3.5131993,7.2445636,-0.8712087,0.21994005,14.052905,-5.8634205,23.211617,-46.000717,52.000805,-6.688839,-0.8723997,8.902972,-11.608574,-21.349148,26.229107,46.948143,15.232065,4.409671,-2.7207847
149,-31.530014038085938,-30.125717163085938,76.67106628417969,-0.8168228596284404,1.8131097610928861,151.1822015408484,-21.443693,13.670434,24.300968,37.43707,-14.298097,5.429497,-4.2682366,-33.06203,-11.609083,32.40642,-5.350985,6.545024,-0.7245998,-0.006145191,14.044588,-5.1803646,23.471594,-46.9283,52.30048,-5.886181,-0.67144525,8.874336,-11.863864,-20.88649,26.511505,45.927124,14.825478,4.254445,-2.7565868
150,-32.10945129394531,-30.750905990600586,76.73904418945312,-0.7332746393219095,1.625146385567123,150.56372833841488,-20.613602,13.104347,25.250116,37.17767,-14.764122,6.1516128,-3.4963038,-34.076996,-15.518851,33.74397,-7.588921,6.425847,-0.57828295,-0.31421262,14.011812,-4.4571133,23.740995,-47.86004,52.564392,-5.206339,-0.39280966,8.777695,-12.095092,-20.36728,26.863766,44.873737,14.359085,4.096171,-2.7685847
151,-32.69039535522461,-31.377002716064453,76.81297302246094,-0.6261516733716136,1.4369557174890102,149.93925915788765,-19.75755,12.49064,26.198696,36.82345,-15.177725,6.845503,-2.6160338,-34.897205,-19.12457,35.110065,-9.760059,6.6862884,-0.39934495,-0.6565942,13.953805,-3.643973,24.011286,-48.688713,52.776184,-4.664299,-0.11271604,8.6811285,-12.337897,-19.805492,27.293388,43.835064,13.853157,3.9401515,-2.7573578
152,-33.2684440612793,-31.999635696411133,76.88727569580078,-0.529189133687318,1.253789940827406,149.27016880639502,-18.873337,11.887999,27.179749,36.374912,-15.5254,7.485923,-1.8868134,-35.37778,-21.946743,36.59438,-11.403925,7.0952134,-0.15842278,-0.9873886,13.874941,-2.6931999,24.268667,-49.305393,52.920288,-4.2744794,0.093548805,8.654073,-12.630385,-19.222828,27.814054,42.85562,13.338853,3.7927163,-2.722696
153,-33.838401794433594,-32.62245178222656,76.96524810791016,-0.4353271657474892,1.0769878293708823,148.54928521839216,-17.951868,11.285984,28.210249,35.808342,-15.790032,8.065374,-1.3948743,-35.538563,-23.893002,38.218277,-12.286741,7.7187014,0.14692499,-1.3087925,13.775069,-1.5843941,24.499298,-49.670387,52.99569,-4.0711517,0.1871565,8.719049,-12.966166,-18.633839,28.441025,41.929634,12.861786,3.6530352,-2.660743
154,-34.42771530151367,-33.225040435791016,77.0514907836914,-0.3269808312612831,0.9022375754819543,147.79814415080085,-16.994614,10.650189,29.272457,35.1229,-15.976732,8.598623,-1.0606116,-35.465984,-25.186403,39.93961,-12.686551,8.615156,0.500453,-1.6376783,13.656336,-0.349938,24.696936,-49.842876,53.015575,-4.032594,0.21433023,8.839251,-13.317735,-18.040947,29.165718,41.02287,12.400999,3.520001,-2.571681
155,-35.00022506713867,-33.8212890625,77.13333129882812,-0.22007885478902137,0.7243397318112698,147.02219503693917,-16.0142,9.999493,30.350426,34.353806,-16.103603,9.097141,-0.89729655,-35.11231,-25.806364,41.712566,-12.906537,9.548243,0.90410817,-1.952045,13.526331,0.97260696,24.86007,-49.87181,52.988518,-4.0969977,0.2274614,8.995436,-13.681361,-17.44682,29.957857,40.129414,11.878211,3.399774,-2.4604301
156,-35.55670928955078,-34.43288803100586,77.203125,-0.1307020535176484,0.5388012075537458,146.22565404053836,-15.026235,9.35644,31.42922,33.540375,-16.190348,9.57328,-0.9060304,-34.412003,-25.744247,43.470833,-13.242201,10.29745,1.3604006,-2.2300072,13.391969,2.3501472,24.990904,-49.8027,52.917797,-4.2005258,0.2792756,9.167847,-14.055837,-16.854801,30.787985,39.244743,11.21573,3.298302,-2.3320699
157,-36.122764587402344,-35.0114631652832,77.28294372558594,-0.05120507672475293,0.3392209049609325,145.3667145583433,-13.997188,8.724046,32.564163,32.65597,-16.248045,10.042306,-1.181324,-33.273663,-24.779478,45.266937,-13.8226795,10.730007,1.9077998,-2.4781501,13.252698,3.814039,25.085941,-49.61028,52.78301,-4.3666778,0.37848753,9.398487,-14.442821,-16.269209,31.693293,38.365585,10.362886,3.225638,-2.202537
158,-36.701210021972656,-35.56901931762695,77.37239074707031,0.02486567481871831,0.13002378495788675,144.45620395847038,-12.935488,8.087718,33.74576,31.69351,-16.262934,10.4958315,-1.6745437,-31.705631,-23.033,47.09444,-14.459194,11.026817,2.534729,-2.7040625,13.106552,5.368245,25.139862,-49.286854,52.58417,-4.617045,0.4980388,9.681881,-14.833819,-15.691025,32.674065,37.487434,9.372365,3.1749418,-2.0635176
159,-37.26690673828125,-36.13022232055664,77.45457458496094,0.07937157866473876,-0.07798558721515415,143.57848935873534,-11.915758,7.45058,34.86454,30.722849,-16.21815,10.91167,-2.1665735,-29.791464,-21.009539,48.786926,-14.972429,11.429696,3.1710985,-2.8880467,12.957448,6.9352417,25.156107,-48.908707,52.357513,-4.8874955,0.63805497,9.927352,-15.217281,-15.118905,33.642918,36.607533,8.320287,3.1256683,-1.8836572
160,-37.767642974853516,-36.76414108276367,77.50436401367188,0.09221754441962347,-0.27344004286615237,142.81772312234284,-11.012305,6.823819,35.81268,29.817678,-16.098686,11.268118,-2.4608808,-27.652195,-19.177637,50.170082,-15.201335,12.167292,3.7520132,-3.01064,12.807613,8.432954,25.145313,-48.5585,52.142254,-5.115817,0.80002046,10.044557,-15.583194,-14.552336,34.505024,35.723076,7.279716,3.0569098,-1.6311247
161,-38.289215087890625,-37.30167007446289,77.59095764160156,0.03251709826074491,-0.46807708490469147,142.20850058446663,-10.222351,6.2305484,36.533943,28.983217,-15.905211,11.557508,-2.4707608,-25.274319,-17.62215,51.201023,-15.115865,13.303618,4.2530937,-3.041108,12.654964,9.864388,25.117058,-48.269356,51.933304,-5.3039947,1.0036335,10.001172,-15.920055,-13.991023,35.24878,34.817127,6.2386622,2.9633656,-1.2845107
162,-38.81523132324219,-37.86076736450195,77.67557525634766,-0.08176320740893932,-0.6633248166065729,141.70184280643193,-9.518316,5.675359,37.100613,28.208517,-15.6585045,11.794085,-2.3075416,-22.613445,-16.099602,51.958454,-14.8259,14.720898,4.716775,-3.000103,12.497238,11.2630825,25.074543,-48.00295,51.70981,-5.482365,1.2434045,9.847691,-16.23671,-13.437365,35.913647,33.89451,5.1656337,2.852512,-0.8648062
163,-39.308834075927734,-38.420989990234375,77.76614379882812,-0.5001014562837607,-0.7471513722579197,141.13538906312326,-9.210774,5.696049,37.56213,28.033281,-15.563594,11.9187765,-2.1716597,-19.372711,-14.8255205,52.295353,-14.283277,15.000033,5.284351,-2.661738,12.230518,12.595279,25.017614,-47.73002,51.48546,-5.627734,1.483891,9.618935,-16.559425,-12.898907,36.48488,32.98603,4.108102,2.7217016,-0.40404707
164,-39.762821197509766,-38.98590850830078,77.8476791381836,-0.8953240840571536,-0.7815268289832894,140.5863335653956,-9.058871,5.762381,38.02636,28.014744,-15.416233,12.0060215,-2.0745678,-16.033167,-13.577642,52.31997,-13.597994,15.000033,5.884906,-2.3423586,11.963002,13.825444,24.949944,-47.42266,51.27697,-5.717249,1.6879343,9.347904,-16.910532,-12.382891,36.94388,32.11437,3.1159523,2.57416,0.06619867
165,-40.08700180053711,-39.57878875732422,77.9050521850586,-1.2337376155880564,-0.7511856502849462,140.02247353390237,-9.063224,5.8385143,38.550747,28.117373,-15.204132,12.068492,-2.063568,-12.622297,-12.242778,52.099926,-12.742886,15.000033,6.55097,-2.0759466,11.695186,14.941552,24.87623,-47.096275,51.08202,-5.758173,1.8591881,9.014742,-17.301767,-11.892811,37.27989,31.260715,2.177041,2.4062483,0.57084626
166,-40.4866943359375,-40.13579559326172,77.97460174560547,-1.5450856143532816,-0.6781636468275576,139.47929723041926,-9.206417,5.942216,39.075085,28.347685,-14.938721,12.098975,-2.043878,-9.112419,-10.860392,51.607666,-11.7340975,15.000033,7.2510333,-1.831676,11.432372,15.965669,24.800095,-46.757854,50.88767,-5.758184,2.0124948,8.61061,-17.72129,-11.430473,37.50481,30.414377,1.2755493,2.2183723,1.1155038
167,-40.890743255615234,-40.69730758666992,78.03793334960938,-1.829206007940271,-0.5999979372725337,139.03197562040378,-9.442449,6.0379443,39.511585,28.68864,-14.603379,12.091148,-1.898616,-5.582676,-9.484977,50.69486,-10.674196,15.000033,7.9131613,-1.602109,11.2016535,16.9156,24.72243,-46.363937,50.68767,-5.6953583,2.1277335,8.186021,-18.148067,-10.998881,37.6304,29.603725,0.4510846,2.0221462,1.6404583
168,-41.257198333740234,-41.27756881713867,78.08914184570312,-2.0848936685885415,-0.5511221788387988,138.7549255402448,-9.731652,6.086204,39.77299,29.122118,-14.179698,12.038842,-1.5303799,-2.110655,-8.129831,49.22045,-9.651218,15.000033,8.464469,-1.3791127,11.0275345,17.809032,24.642204,-45.87052,50.477024,-5.5480394,2.184275,7.7912073,-18.561838,-10.601473,37.671112,28.85744,-0.25688204,1.8319222,2.0862355
169,-41.60433578491211,-41.865108489990234,78.13612365722656,-2.3288639961530624,-0.5298585173409748,138.66621308995056,-10.090521,6.105753,39.8302,29.678604,-13.692856,11.95944,-0.8815416,1.4026786,-6.669277,47.03111,-8.688195,15.000033,8.894648,-1.1483852,10.906799,18.655119,24.559526,-45.242996,50.252426,-5.2254148,2.1635916,7.394655,-18.952492,-10.237799,37.608456,28.174326,-0.8326314,1.6410729,2.4592786
170,-41.94768524169922,-42.44485855102539,78.18578338623047,-2.52847259324259,-0.5249237076857,138.734411591025,-10.500211,6.045142,39.7391,30.277164,-13.106335,11.850417,0.02731764,4.905694,-4.998808,44.193058,-7.7387652,15.000033,9.231605,-0.9430175,10.839952,19.446194,24.47571,-44.50974,50.013252,-4.767393,2.0788717,6.9846363,-19.337238,-9.906877,37.444885,27.541147,-1.2983981,1.4501405,2.784418
171,-42.287109375,-43.040855407714844,78.22986602783203,-2.621983902170512,-0.5447236265308797,138.94029412365163,-10.9057255,5.8038936,39.552162,30.813843,-12.357075,11.667878,1.1424425,8.115804,-3.1697752,40.906208,-6.7421927,15.000033,9.4790125,-0.81620675,10.846159,20.171661,24.389107,-43.724205,49.762707,-4.350164,1.9590954,6.6413026,-19.731533,-9.612819,37.224567,26.970905,-1.6768242,1.2823033,3.0307307
172,-42.620574951171875,-43.657432556152344,78.26268768310547,-2.5701774289674333,-0.5879437412014222,139.2518932553379,-11.273205,5.3277454,39.321323,31.21791,-11.395189,11.36422,2.3737886,10.779292,-1.3159472,37.37448,-5.5869856,15.000033,9.652233,-0.7996299,10.931696,20.816122,24.295149,-42.940968,49.5094,-4.148857,1.8360467,6.444272,-20.147,-9.363622,36.991936,26.472528,-1.9902498,1.1605461,3.1675327
173,-42.948570251464844,-44.29930877685547,78.28256225585938,-2.417502178992837,-0.6494562004398505,139.66598174864296,-11.655691,4.715148,39.073524,31.628706,-10.290441,10.999842,3.8575127,13.065453,0.6873308,33.055313,-3.84087,15.000033,9.757254,-0.85821015,11.087639,21.362484,24.194277,-42.183678,49.27693,-4.236167,1.6961863,6.4334416,-20.58555,-9.162524,36.750084,26.053995,-2.2495766,1.0881152,3.1790762
174,-43.267147064208984,-44.95376205444336,78.28108215332031,-2.1267552881657865,-0.7163300439374528,140.17796172919986,-12.049354,3.9066515,38.814766,31.986286,-9.023616,10.573563,5.6270185,14.928667,2.9052458,27.937792,-1.6151774,15.000033,9.80622,-1.0327798,11.306629,21.818295,24.08849,-41.421516,49.0595,-4.509283,1.5304347,6.5594087,-21.038204,-9.009574,36.478462,25.70069,-2.4405227,1.0573387,3.0856616
175,-43.594276428222656,-45.65452194213867,78.27452850341797,-1.6284145948807331,-0.7589539092463478,140.72809549618302,-12.408519,2.764165,38.536205,32.05473,-7.4705615,9.926483,7.2577176,15.985071,4.84934,23.172312,0.43468916,15.000033,9.845055,-1.3807565,11.565942,22.201307,23.970303,-40.629696,48.826084,-4.8797297,1.378366,6.7677503,-21.49881,-8.911468,36.188118,25.390863,-2.547791,1.0700362,2.9103105
176,-43.920066833496094,-46.37430191040039,78.32093048095703,-0.9990393723157874,-0.7564369406450473,141.27157871769944,-12.759575,1.3590195,38.13482,31.796314,-5.5932555,8.870257,8.189305,16.135794,5.8122077,20.08812,1.6023476,15.000033,9.914759,-1.8086914,11.830744,22.518433,23.83373,-39.80096,48.54701,-5.2662153,1.2811031,7.0064497,-21.942448,-8.887989,35.878143,25.084518,-2.5589373,1.1259619,2.6769056
177,-44.23180389404297,-47.12944793701172,78.44198608398438,-0.3493556619676605,-0.7183863126895652,141.87683882887453,-13.160578,-0.21857342,37.492813,31.348667,-3.4652138,7.575498,7.9125586,15.361377,5.045689,19.795685,1.2449886,15.000033,9.931143,-2.180511,12.106944,22.726984,23.615776,-38.904068,48.278526,-5.6767063,1.255243,7.296625,-22.382553,-8.951212,35.566185,24.796417,-2.4235115,1.2262754,2.35307
178,-44.5711669921875,-47.9483528137207,78.57400512695312,0.32082948900371866,-0.7073451956292949,142.6202740155182,-13.561326,-1.9554824,36.5803,30.803936,-1.1555773,6.0352845,6.720027,13.83458,2.8701577,21.84838,-0.70922965,15.000033,9.851043,-2.491411,12.447003,22.797054,23.322487,-37.987915,48.054855,-6.1530347,1.2733626,7.66017,-22.799215,-9.117569,35.231144,24.51073,-2.1637216,1.3686286,1.9411471
179,-44.94414138793945,-48.84177017211914,78.61541748046875,0.961037943358811,-0.7729817558517047,143.44191068392786,-13.938585,-3.6614704,35.34888,30.330458,1.2316054,3.7519238,5.4382873,11.943846,0.10207823,24.747904,-3.6737366,14.466943,9.707946,-2.7154882,12.851998,22.787718,22.962563,-37.050365,47.848656,-6.6146407,1.306995,8.040344,-23.18025,-9.379281,34.91317,24.19551,-1.8602617,1.5483712,1.506342
180,-45.27932357788086,-49.72675704956055,78.49529266357422,0.8697004940407685,-0.8255022719861385,144.0356422687975,-14.983333,-3.9282324,33.59542,31.545753,2.9021304,0.029746385,5.124252,11.357899,-2.8387544,25.714344,-5.835715,7.57415,9.757641,-2.2589161,13.096341,22.769035,22.562206,-36.09109,47.615177,-6.9857717,1.3311347,8.378629,-23.520388,-9.712787,34.64614,23.833643,-1.595919,1.7613529,1.1132154
181,-45.6034049987793,-50.58819580078125,78.3648681640625,0.8876764594858338,-0.9110209120587556,144.5954753008367,-15.830884,-4.540526,31.421215,32.226,4.9323654,-5.7825646,5.1792274,10.806882,-4.808089,25.997406,-7.6335435,2.7316186,9.823753,-1.8616126,13.347487,22.763363,22.125303,-35.11332,47.31884,-7.240819,1.3585538,8.657142,-23.822233,-10.117445,34.433388,23.438902,-1.4162959,2.0332775,0.75592786
182,-45.91388702392578,-51.3859977722168,78.28033447265625,0.9859602439117838,-1.0209679623904098,145.15051348115156,-16.64172,-5.4289365,28.81989,32.78854,6.9554234,-13.256428,5.3687186,10.114322,-6.3946958,26.144722,-9.357599,-1.1817211,9.887606,-1.5009643,13.610635,22.739426,21.653423,-34.10907,46.97849,-7.422186,1.3982143,8.906564,-24.09215,-10.593131,34.257607,23.020187,-1.2696215,2.3573222,0.40664613
183,-46.22569274902344,-52.22163772583008,78.1707763671875,1.5564264723356085,-0.8787843607670831,146.207157267101,-17.318281,-6.7731194,27.949278,32.751587,9.149404,-15.000033,4.9032903,8.647115,-8.08768,27.148588,-11.57484,-4.031137,9.468475,-1.6269219,13.667726,22.75136,21.21743,-33.11059,46.548172,-7.593256,1.4336609,9.149953,-24.357935,-11.048161,34.087234,22.668037,-1.140336,2.6649516,0.10967993
184,-46.56669616699219,-53.04709243774414,78.04855346679688,2.1210951713425485,-0.7278129794655213,147.15941413501972,-18.143383,-7.6383753,27.642344,33.31011,10.829243,-15.000033,4.550534,7.203243,-9.346873,27.946255,-13.719,-6.000907,9.081577,-1.7422277,13.719918,22.690817,20.659334,-32.057888,46.197453,-7.720995,1.4238521,9.399111,-24.51298,-11.662682,34.015625,22.161608,-0.9187953,2.904158,-0.118214786
185,-46.90747833251953,-53.84162521362305,77.92353820800781,2.5272419089052813,-0.6299138751195813,147.7956036937629,-19.249447,-7.9638424,27.088581,34.622677,12.016815,-15.000033,4.580742,6.069892,-9.942044,28.050682,-15.571065,-6.912353,8.98425,-1.7240351,13.790477,22.572716,20.090712,-31.025938,45.868153,-7.8857183,1.3655463,9.662809,-24.61504,-12.302651,33.946888,21.617334,-0.6390371,3.0574968,-0.24740846
186,-47.24542236328125,-54.64564514160156,77.79822540283203,2.8460502617252166,-0.5597761076020661,148.22795080402182,-20.495348,-8.007695,26.33535,36.278255,12.933917,-15.000033,4.871051,5.0963287,-10.046035,27.615007,-17.118338,-6.81378,9.050134,-1.6326988,13.866148,22.444271,19.514336,-29.973234,45.512432,-8.051799,1.2752407,9.926241,-24.683184,-12.966624,33.909866,21.053091,-0.320989,3.1567736,-0.3030047
187,-47.595428466796875,-55.43860626220703,77.68923950195312,3.050531829618658,-0.5171871333907991,148.51886606910898,-21.717678,-7.7939343,25.445848,38.091507,13.247059,-15.000033,5.326742,4.287248,-9.901183,26.812876,-18.317066,-6.16925,9.214183,-1.4507034,13.9458475,22.316753,18.930555,-28.9052,45.16115,-8.181021,1.1650261,10.194543,-24.696928,-13.640895,33.899902,20.52277,0.0076071993,3.1973395,-0.31103715
188,-47.97079086303711,-56.189186096191406,77.60466003417969,3.1134874195074596,-0.5028609437604746,148.72749836037204,-22.77596,-7.302445,24.49349,39.943302,12.605666,-15.000033,5.856013,3.6514966,-9.713547,25.852478,-19.168839,-5.466605,9.414211,-1.1625984,14.027589,22.195978,18.338306,-27.827034,44.85059,-8.23564,1.0474294,10.473844,-24.644508,-14.304611,33.9111,20.09178,0.31881225,3.173713,-0.29707494
189,-48.3475341796875,-56.8953857421875,77.54524230957031,2.965773439875849,-0.53323398826792,148.79469833461286,-23.678013,-6.48783,23.26992,41.91975,10.528827,-15.000033,6.505569,3.269755,-9.396536,24.676012,-19.610205,-4.7305784,9.691983,-0.6966109,14.112939,22.09396,17.731272,-26.729115,44.57153,-8.195884,0.9095375,10.779378,-24.54705,-14.945961,33.963127,19.801998,0.6297627,3.021204,-0.26315123
190,-48.73262023925781,-57.577396392822266,77.51728057861328,2.6254961172508215,-0.5943170976551762,148.71561475766947,-24.485117,-5.375074,21.754719,44.002686,7.40546,-15.000033,7.3088126,3.1214523,-8.881617,23.182966,-19.645535,-3.7742803,10.05306,-0.07025711,14.185726,22.007902,17.106354,-25.606718,44.314434,-8.0840845,0.7509531,11.10391,-24.422152,-15.558617,34.05704,19.63677,0.9443335,2.763746,-0.19636105
191,-49.11595916748047,-58.2256965637207,77.51346588134766,2.2023780464969147,-0.6449509150906096,148.62859902852537,-25.161606,-3.9993997,20.330439,45.98229,4.1455398,-15.000033,8.153466,3.0658503,-8.377351,21.548878,-19.418419,-2.7724469,10.383152,0.5908528,14.22632,21.916447,16.47094,-24.471447,44.113956,-7.9273996,0.6034161,11.419209,-24.24952,-16.126213,34.15574,19.573965,1.2105857,2.5279803,-0.10093138
192,-49.50124740600586,-58.8540153503418,77.5327377319336,1.8190416224353405,-0.6522574290159792,148.66563193760535,-25.668848,-2.434757,19.342031,47.63752,1.5920583,-15.000033,8.924019,2.9541407,-8.093275,19.980844,-19.088903,-1.8876383,10.573462,1.1474998,14.231775,21.79964,15.83999,-23.33556,43.996967,-7.7553506,0.49918324,11.69645,-24.003347,-16.625288,34.215874,19.591734,1.3715814,2.4399416,0.017844353
193,-49.89399719238281,-59.4672737121582,77.57646179199219,1.5001434007857424,-0.6046906541087627,148.87505953416377,-25.986397,-0.6159807,18.948797,48.95127,-0.093558855,-15.000033,9.57208,2.7541468,-8.108431,18.566156,-18.687489,-1.1629256,10.58102,1.5562812,14.201859,21.668247,15.21646,-22.153276,43.96331,-7.5025263,0.45724145,11.923815,-23.687176,-17.037367,34.232273,19.731695,1.4304525,2.4994977,0.1748169
194,-50.289093017578125,-60.05291748046875,77.64030456542969,1.1852198964193792,-0.5280376147418748,149.17402445826735,-26.138943,1.488213,18.941292,50.03579,-1.3879567,-15.000033,10.175967,2.5436447,-8.288415,17.194489,-18.14671,-0.5163581,10.470777,1.8874063,14.146535,21.52734,14.59875,-20.929249,43.99466,-7.1804204,0.4588119,12.11689,-23.321848,-17.352686,34.226547,20.011538,1.4043087,2.6492455,0.36708543
195,-50.6847038269043,-60.61724853515625,77.71269989013672,0.8784207042240114,-0.44878441791933665,149.4986400419288,-26.154829,3.718751,19.087196,50.868526,-2.4428282,-15.000033,10.796805,2.3336859,-8.531658,15.807266,-17.491295,0.088130996,10.295252,2.1627572,14.085195,21.355478,14.002692,-19.751717,44.080776,-6.9350457,0.4789386,12.288351,-22.922344,-17.566202,34.201862,20.38695,1.2641289,2.927577,0.56374305
196,-51.08211135864258,-61.15766906738281,77.78887176513672,0.5863463619375616,-0.3897116459671607,149.78712613489367,-26.068233,5.912433,19.167002,51.429184,-3.395514,-15.000033,11.484036,2.1319814,-8.740888,14.352646,-16.741776,0.68966347,10.111882,2.3980265,14.035745,21.143452,13.457732,-18.713865,44.19671,-6.915689,0.49292773,12.450702,-22.493294,-17.677765,34.151978,20.800026,0.9818907,3.3729641,0.7353723
197,-51.48457336425781,-61.6679801940918,77.87305450439453,0.32590774926318045,-0.36838126169609026,150.0343835564019,-25.85472,8.048633,19.184368,51.709114,-4.281361,-15.000033,12.274202,1.9294182,-8.914861,12.791896,-15.871547,1.2925552,9.934581,2.5696282,14.019071,20.9006,12.986088,-17.833963,44.344597,-7.232008,0.5018559,12.608777,-22.017282,-17.683672,34.06129,21.232595,0.49790293,4.0721726,0.88902414
198,-51.89714431762695,-62.160377502441406,77.96527862548828,0.09671169159555121,-0.37020904313180925,150.26375195403327,-25.504416,10.209477,19.284252,51.74426,-5.053015,-15.000033,13.124746,1.718671,-9.090769,11.172195,-14.880288,1.8831239,9.750043,2.6626704,14.022527,20.642687,12.592374,-17.07258,44.51154,-7.78879,0.5169993,12.75327,-21.48731,-17.581106,33.926903,21.704105,-0.1584378,4.9774466,1.0446547
199,-52.32469940185547,-62.645347595214844,78.05754089355469,-0.11925970225325673,-0.3655828185064868,150.45962240624058,-25.082722,12.384578,19.457752,51.582676,-5.709269,-15.000033,13.954559,1.5054972,-9.23342,9.581229,-13.834847,2.4734604,9.5696335,2.7039714,14.010485,20.37899,12.281301,-16.433563,44.64685,-8.427175,0.52915394,12.875658,-20.929539,-17.379364,33.766087,22.21604,-0.87892,5.9262767,1.1899577
200,-52.77070236206055,-63.170021057128906,78.14525604248047,-0.2847072628015942,-0.29411135178053394,150.69436663565185,-24.664707,14.499031,19.89427,51.204304,-6.2023063,-14.174976,14.587058,1.2022974,-9.398021,8.269833,-12.896659,3.1030107,9.325325,2.6705205,13.930909,20.116941,12.056458,-15.924141,44.70242,-8.987628,0.52965236,12.967084,-20.362745,-17.099413,33.591488,22.76031,-1.5518535,6.757222,1.3052181
201,-53.217742919921875,-63.6971549987793,78.2374267578125,-0.3091880422019928,-0.08791387818564933,151.12658478533606,-24.310406,16.406834,20.812279,50.514553,-6.5207458,-11.586303,14.833603,0.6679861,-9.741735,7.5303845,-12.214763,3.8215013,8.863931,2.4737945,13.740549,19.841173,11.924247,-15.582461,44.688248,-9.543766,0.5155007,13.026086,-19.770267,-16.754833,33.40048,23.301357,-2.229753,7.496287,1.3902261
202,-53.672908782958984,-64.21524047851562,78.32904052734375,-0.33453127783588604,0.16225027120218924,151.55259859447204,-23.975042,18.270897,21.781773,49.67801,-6.8024025,-8.892589,14.906083,0.1192948,-10.061776,7.074167,-11.6204,4.5509124,8.386747,2.248094,13.502039,19.557215,11.889247,-15.397505,44.61829,-10.143209,0.492154,13.05446,-19.132067,-16.34787,33.181065,23.82608,-2.9404812,8.208942,1.4535308
203,-54.140174865722656,-64.74972534179688,78.40171813964844,-0.3598952829453709,0.44112630787227103,151.9659022118048,-23.655064,20.052076,22.757504,48.722717,-6.984036,-6.233594,14.78128,-0.46271002,-10.35334,6.9968405,-11.209364,5.283934,7.9145436,2.004898,13.222713,19.290104,11.940533,-15.310302,44.46521,-10.589751,0.4638507,13.051678,-18.45804,-15.893839,32.93117,24.362862,-3.533671,8.791103,1.4776886
204,-54.60761260986328,-65.2840347290039,78.46316528320312,-0.3861189977908363,0.733001586243759,152.3595624007704,-23.346134,21.72068,23.693731,47.670708,-6.984864,-3.7413917,14.647681,-1.0531399,-10.616027,6.935052,-10.827534,6.0114584,7.4668264,1.7617066,12.912399,19.058212,12.056983,-15.2606735,44.207756,-10.683514,0.4338063,13.019176,-17.748188,-15.414671,32.647465,24.927643,-3.8588428,9.139803,1.4395876
205,-55.10176467895508,-65.82984161376953,78.50955200195312,-0.4326870654342258,1.0425350744943511,152.7323834642084,-23.037,23.334728,24.65853,46.49418,-6.8533964,-1.2555735,14.49871,-1.6289954,-10.842486,6.886598,-10.464913,6.744508,7.0392284,1.5470287,12.555647,18.860758,12.227328,-15.257747,43.853043,-10.336037,0.40214428,12.928478,-16.983648,-14.927484,32.34083,25.506107,-3.8471346,9.210265,1.3005149
206,-55.606292724609375,-66.37833404541016,78.53911590576172,-0.49219091395167774,1.376287625676494,153.0885190031991,-22.74893,24.891918,25.664045,45.22178,-6.623859,1.2374821,14.326702,-2.1945612,-11.038484,6.8511963,-10.107141,7.4834948,6.6238227,1.3520797,12.156022,18.678051,12.45012,-15.327639,43.419807,-9.6608305,0.3648456,12.790414,-16.155994,-14.438352,32.00922,26.072329,-3.583279,9.063194,1.0793942
207,-56.10116195678711,-66.91716003417969,78.54467010498047,-0.5277451221599855,1.7198583363706728,153.42872094926483,-22.520948,26.293736,26.569838,43.94109,-6.1425676,3.4053073,14.149617,-2.7929509,-11.22558,6.8318863,-9.787041,8.203795,6.2318044,1.138293,11.750152,18.503555,12.716744,-15.432071,42.90523,-8.760171,0.31915322,12.665919,-15.293624,-13.956059,31.63867,26.63693,-3.1465755,8.756565,0.8408577
208,-56.621925354003906,-67.46031951904297,78.53563690185547,-0.5040903126699202,2.056788272468141,153.7520591108302,-22.380293,27.456614,27.224041,42.713673,-5.2076616,4.931804,13.986241,-3.4657667,-11.424587,6.833704,-9.538337,8.880061,5.8743205,0.8699703,11.375197,18.33006,13.013904,-15.530393,42.30848,-7.7341995,0.2637896,12.616511,-14.423838,-13.48922,31.217566,27.209974,-2.6150877,8.349289,0.64924157
209,-57.14199447631836,-68.0184097290039,78.51559448242188,-0.39969264848792896,2.3964725747701836,154.04956251361995,-22.285942,28.531742,27.871984,41.50887,-3.3676102,5.8368936,13.818386,-4.239665,-11.6451235,6.86048,-9.345977,9.498908,5.560498,0.52592474,11.031576,18.143635,13.335434,-15.626079,41.637314,-6.485448,0.19361643,12.66976,-13.540528,-13.043289,30.741392,27.789192,-1.9259874,7.7844176,0.50891787
210,-57.64701461791992,-68.56004333496094,78.48741912841797,-0.236964222549152,2.741258060170008,154.32146822689987,-22.245842,29.516129,28.479214,40.31112,-0.8135338,6.2926073,13.646309,-5.0876203,-11.875407,6.903434,-9.195611,10.075737,5.2852836,0.13132055,10.702977,17.94694,13.680529,-15.73627,40.89581,-4.9989314,0.11328091,12.792081,-12.626247,-12.620606,30.220737,28.362457,-1.0659575,7.055088,0.39867002
211,-58.15129852294922,-69.13709259033203,78.46346282958984,-0.04671034157381562,3.0645675920247775,154.5828243492948,-22.332834,30.099016,28.430458,39.133038,1.7477123,6.1799674,13.40098,-5.996826,-12.095101,7.197469,-9.250307,10.629405,5.035733,-0.27910596,10.401323,17.757635,14.042603,-15.8402405,40.078926,-3.496556,0.036713377,12.9519415,-11.697062,-12.223229,29.667307,28.929323,-0.179312,6.2963014,0.33771527
212,-58.71210861206055,-69.72222137451172,78.39896392822266,0.14197166629873714,3.340323057214248,154.8518188706786,-22.566696,29.972538,27.11835,37.93097,3.6163723,5.34055,13.016899,-6.958335,-12.281564,7.97092,-9.6742525,11.180282,4.7929063,-0.6717181,10.138164,17.593773,14.411657,-15.914036,39.183506,-2.1995606,-0.024789281,13.11658,-10.775481,-11.854044,29.093752,29.497011,0.58969367,5.643686,0.33672762
213,-59.294395446777344,-70.32337188720703,78.26065063476562,0.30828169535404987,3.5641901954310757,155.11704624076467,-22.916103,28.852697,23.85302,36.537872,4.555524,3.4776518,12.691285,-7.9190454,-12.4353,8.810919,-10.290096,11.728403,4.553452,-1.0255578,9.894895,17.501547,14.776864,-15.939639,38.179283,-1.1183479,-0.06432938,13.312848,-9.846078,-11.5173435,28.497913,30.049225,1.2295066,5.118275,0.43072924
214,-59.86272048950195,-70.94001007080078,78.08694458007812,0.4777981461609055,3.7390485386124173,155.36452200567095,-23.128899,26.995693,19.27448,34.996338,4.774675,0.80287194,12.397145,-8.912418,-12.556489,9.747704,-11.080091,12.267738,4.3335786,-1.3649632,9.683279,17.45561,15.136333,-15.93077,37.083538,-0.14754866,-0.088887274,13.546221,-8.905192,-11.215228,27.875605,30.58923,1.8101426,4.655104,0.59823215
215,-60.39822769165039,-71.54883575439453,77.89114379882812,0.6835814204898834,3.8544126500144054,155.61084362320426,-23.008368,24.930605,14.751016,33.560608,4.3436217,-2.0783625,12.123574,-9.968436,-12.668659,10.816584,-11.987416,12.807394,4.140958,-1.7196966,9.554639,17.369793,15.497071,-15.912189,35.96131,0.66486746,-0.11184561,13.75073,-7.9952474,-10.947441,27.234211,31.153181,2.3120284,4.262379,0.7594472
216,-60.92240905761719,-72.1693344116211,77.62171936035156,0.9564379041891775,3.9139232377124578,155.88878730030714,-22.622753,23.134453,11.451314,32.436737,3.60815,-4.670391,11.851992,-11.114052,-12.80993,12.039817,-12.946501,13.354558,3.9691238,-2.1182547,9.545234,17.158936,15.870291,-15.911042,34.87438,1.2689762,-0.1482244,13.860007,-7.154508,-10.709985,26.579487,31.773687,2.713569,3.9465544,0.8350605
217,-61.45478057861328,-72.78002166748047,77.30429077148438,1.304786550827977,3.901011883086327,156.20866912987478,-22.025225,21.634653,9.500392,31.574255,2.757921,-7.356634,11.60093,-12.365657,-12.992328,13.423205,-14.015124,13.922284,3.809793,-2.5854537,9.676297,16.844095,16.263054,-15.899481,33.769577,1.6249212,-0.19136447,13.834936,-6.386304,-10.502038,25.904333,32.423073,2.9546034,3.7291703,0.81999815
218,-61.96160888671875,-73.42083740234375,77.00798797607422,1.704089780151191,3.8262892675545945,156.5593201643334,-21.317648,20.227283,8.277987,30.943258,1.6893412,-10.266178,11.366208,-13.706225,-13.202525,14.933681,-15.185564,14.498554,3.6663864,-3.0970228,9.916105,16.458885,16.675558,-15.8772745,32.630028,1.7650881,-0.23829411,13.715931,-5.670833,-10.32333,25.203613,33.093784,3.064108,3.59893,0.7488532
219,-62.42120361328125,-74.09468841552734,76.77172088623047,2.149727639237697,3.740691852314668,156.95267053412869,-20.736448,18.919931,7.6777086,30.702183,0.4890991,-12.638366,11.076595,-15.12617,-13.43644,16.570597,-16.31829,15.000033,3.5390615,-3.622441,10.214908,15.932319,17.108494,-15.91634,31.57658,1.7473998,-0.31023344,13.5571785,-5.0160937,-10.169358,24.486912,33.857574,3.1521175,3.511556,0.60282433
220,-62.860965728759766,-74.79843139648438,76.5564956665039,2.5601656849402463,3.710372885220878,157.3708769167217,-20.519735,17.777924,7.535247,30.977194,-0.8034875,-13.739628,10.667883,-16.44692,-13.626705,18.235456,-17.219357,15.000033,3.4548752,-4.0600257,10.505472,15.1906595,17.561329,-16.090889,30.731594,1.6288698,-0.42866376,13.413969,-4.4321303,-10.03457,23.762503,34.789883,3.3282092,3.4224205,0.36426607
221,-63.28565979003906,-75.49349975585938,76.35770416259766,3.124400489956119,3.7482344392754756,157.89328194822562,-20.75162,16.55268,8.129035,31.861807,-2.2033582,-12.921296,10.10666,-17.987572,-13.8777685,20.096237,-17.96705,15.000033,3.3572042,-4.563628,10.796762,14.144878,18.051725,-16.494553,30.146896,1.3112725,-0.6392709,13.319846,-3.899178,-9.910658,22.949818,35.885197,3.5423613,3.2986999,-0.014891084
222,-63.69902038574219,-76.16136169433594,76.18785858154297,3.8222616095437254,3.8163277076419644,158.49909342621194,-21.273172,15.24917,9.387714,33.196426,-3.7254655,-10.752017,9.44385,-19.722506,-14.173553,22.121515,-18.613274,15.000033,3.268095,-5.1390295,11.119688,12.849645,18.579952,-17.074068,29.737928,0.7932227,-0.9159167,13.238041,-3.4149044,-9.796523,22.057783,37.108166,3.7580276,3.1702826,-0.50813955
223,-64.08973693847656,-76.82715606689453,76.04933166503906,4.465253336641418,3.858478445887814,159.08282735451277,-21.797705,14.022488,10.7568,34.555443,-5.2798157,-8.25154,8.732487,-21.407581,-14.43203,24.217613,-19.102787,15.000033,3.2532752,-5.643096,11.498977,11.462436,19.104986,-17.6582,29.424658,0.28979877,-1.1728586,13.120863,-3.0257552,-9.699971,21.251143,38.498425,4.107449,3.085114,-1.0246546
224,-64.45932006835938,-77.49284362792969,75.93187713623047,4.862046971671772,3.8243488611421728,159.53971852646927,-22.058022,13.028475,11.699034,35.54547,-6.7337117,-6.4385514,8.015458,-22.797909,-14.570293,26.310995,-19.394453,15.000033,3.3541753,-5.9201384,11.954162,10.148556,19.567123,-18.053524,29.152792,0.03200538,-1.3264285,12.925288,-2.7909112,-9.636155,20.718214,40.11254,4.7260637,3.0899997,-1.479542
225,-64.82312774658203,-78.15476989746094,75.84307098388672,4.892321225963709,3.693320599314524,159.84274510958068,-21.99344,12.369712,12.047508,36.083183,-8.075715,-5.5451336,7.35517,-23.749416,-14.587049,28.328442,-19.424679,15.000033,3.5620034,-5.816705,12.495444,8.869109,19.936777,-18.25512,29.04467,0.13207397,-1.4116304,12.582522,-2.7502773,-9.626322,20.489355,42.06394,5.785171,3.1421514,-1.9590459
226,-65.17549896240234,-78.80931091308594,75.77594757080078,4.682601344392719,3.4986649624785255,160.05044812613335,-21.748463,11.942224,12.11501,36.378788,-9.352384,-5.034125,6.711918,-24.42372,-14.512677,30.34741,-19.251698,15.000033,3.8290315,-5.4333177,13.102541,7.5631433,20.212128,-18.318645,29.114414,0.4707374,-1.4594539,12.137145,-2.867678,-9.67962,20.500717,44.29456,7.1750474,3.2282803,-2.4803648
227,-65.52967071533203,-79.42695617675781,75.73004913330078,4.411912609183733,3.2719218163022346,160.1864192558174,-21.369236,11.59331,12.100755,36.485966,-10.489781,-4.765722,5.982725,-25.024965,-14.303254,32.493088,-19.016579,15.000033,4.1341987,-4.9970727,13.74151,6.353473,20.37419,-18.14816,29.176992,0.9375898,-1.3817319,11.716174,-3.1034293,-9.78955,20.801111,46.632553,8.605239,3.4474986,-2.8618689
228,-65.8727798461914,-79.99214172363281,75.69905090332031,4.15489485293049,3.0677834472179457,160.24281138094125,-20.974691,11.30504,12.1443815,36.545197,-11.452818,-4.6307993,5.033166,-25.57099,-13.891256,34.822117,-18.826252,14.631353,4.4748855,-4.6445546,14.357195,5.385719,20.40977,-17.633999,29.023388,1.4233481,-1.0873785,11.439119,-3.426843,-9.951394,21.456175,48.906326,9.793756,3.9122157,-2.9241192
229,-66.19718933105469,-80.51400756835938,75.69598388671875,3.775872057823967,2.9042683068735577,160.1185719102112,-20.603136,11.296726,12.227147,36.64193,-12.272839,-4.7716546,3.7249174,-25.815018,-13.236497,37.41881,-18.684385,12.869511,4.9422064,-4.27661,14.92254,4.6902523,20.269117,-16.678833,28.646263,2.137473,-0.41874185,11.327427,-3.9111073,-10.159984,22.574903,51.205814,10.745546,4.7971444,-2.5863357
230,-66.502685546875,-81.02490234375,75.71743774414062,3.3479163290708476,2.736430058763204,159.86717011964677,-20.14653,11.426135,12.339038,36.635166,-12.934344,-5.1669736,2.193366,-25.953642,-12.421878,40.245308,-18.584837,10.563733,5.480295,-3.9120235,15.475083,4.1514945,19.938082,-15.365039,28.186998,3.0689983,0.5299548,11.303792,-4.559745,-10.413457,24.110023,53.596416,11.583024,6.0079403,-1.9666188
231,-66.7939682006836,-81.52867889404297,75.76934814453125,2.9441961305883173,2.5945972065690124,159.62105636531265,-19.714605,11.549142,12.464625,36.577232,-13.436219,-5.5584807,0.5896361,-26.028261,-11.550472,43.040783,-18.529173,8.102742,5.97326,-3.5886157,15.977929,3.6599195,19.449242,-13.89095,27.698849,3.773211,1.4763619,11.368018,-5.2491517,-10.692729,25.854717,55.902084,12.181054,7.250735,-1.1716483
232,-67.05391693115234,-82.01673126220703,75.83914184570312,2.6361442969946194,2.5106301906872237,159.51174078667552,-19.420362,11.522598,12.578619,36.52366,-13.7768755,-5.689768,-0.9423254,-26.072802,-10.711161,45.55805,-18.487963,5.9033437,6.3164086,-3.3545384,16.403357,3.1487026,18.874315,-12.451276,27.191387,3.7982957,2.141135,11.544479,-5.8502817,-10.97126,27.585604,57.942184,12.4151325,8.223039,-0.29600453
233,-67.29560852050781,-82.45604705810547,75.93712615966797,2.4779970637596174,2.503453016277353,159.57408363200364,-19.307077,11.275665,12.709145,36.48766,-13.908534,-5.4217086,-2.452198,-26.13969,-9.894864,47.86341,-18.386116,3.925412,6.51123,-3.2952807,16.75824,2.6493018,18.266212,-11.048649,26.595795,2.8274026,2.458846,11.925168,-6.3541183,-11.228569,29.360977,59.71074,12.242481,8.83466,0.83479077
234,-67.51630401611328,-82.86280059814453,76.05636596679688,2.419104712041243,2.553371655989037,159.7372712617468,-19.312374,10.8968525,12.8549595,36.43979,-13.844997,-4.9160385,-3.9912636,-26.180912,-9.068756,50.054535,-18.238573,2.0175385,6.6227574,-3.3871503,17.063004,2.2032938,17.635405,-9.604005,25.885931,1.1430471,2.5684545,12.479833,-6.823389,-11.456798,31.23714,61.286983,11.724451,9.233319,2.2191129
235,-67.73701477050781,-83.2435073852539,76.1854248046875,2.3717814165092324,2.634973469708205,159.9746828648515,-19.39212,10.485551,12.942263,36.37608,-13.678921,-4.368987,-5.421043,-26.079725,-8.266727,51.949726,-18.126677,0.45995232,6.643981,-3.512923,17.311787,1.7944607,16.999317,-8.184389,25.11178,-0.8015625,2.5008473,13.053376,-7.2327156,-11.653928,32.98596,62.62217,10.906106,9.4714,3.4982357
236,-67.95486450195312,-83.61068725585938,76.32080841064453,2.2474453736836995,2.7232571605677838,160.25975794353275,-19.500114,10.140013,12.894327,36.294582,-13.507073,-3.976539,-6.599237,-25.716518,-7.51968,53.37501,-18.13441,-0.45821026,6.5834303,-3.5516403,17.49989,1.3969518,16.38078,-6.8797293,24.328058,-2.560292,2.303354,13.49242,-7.539,-11.82701,34.36102,63.660618,9.82693,9.612134,4.3150206
237,-68.15957641601562,-83.97296905517578,76.45878601074219,2.015037221391677,2.819930709910561,160.62733895912436,-19.657404,9.87765,12.642593,36.206158,-13.334517,-3.7995887,-7.443951,-24.99781,-6.8072267,54.210785,-18.323505,-0.47897178,6.4217596,-3.4708972,17.618792,1.0131332,15.791202,-5.693876,23.53026,-4.300403,1.9110183,13.708248,-7.697645,-11.983192,35.33442,64.345,8.166884,9.650647,4.5112243
238,-68.345947265625,-84.32547760009766,76.59609985351562,1.7252332708605274,2.9363840141239246,161.07765645603362,-19.873514,9.647668,12.24465,36.106983,-13.117632,-3.7311597,-8.044056,-24.009577,-6.1220336,54.58884,-18.643381,0.19723473,6.1731954,-3.340333,17.67831,0.6597805,15.232072,-4.59911,22.684898,-6.1743503,1.3328755,13.785032,-7.7297997,-12.126626,36.010315,64.70985,6.0142016,9.575968,4.2946606
239,-68.53234100341797,-84.66371154785156,76.73129272460938,1.4119532060472617,3.06270494649495,161.5311153852942,-20.088379,9.445377,11.809658,35.979946,-12.884295,-3.715069,-8.52038,-22.90822,-5.5044713,54.713657,-19.011326,1.170205,5.8976793,-3.188979,17.705532,0.33509895,14.711716,-3.6396446,21.80178,-7.7151575,0.7340881,13.842888,-7.684579,-12.261426,36.344135,64.82889,4.0242257,9.450578,3.8605747
240,-68.7148208618164,-84.99313354492188,76.86967468261719,1.1072635783426352,3.187873424400677,161.9087736756715,-20.242708,9.269259,11.445937,35.80527,-12.660409,-3.694843,-8.992497,-21.83849,-4.990407,54.781807,-19.326935,2.0461419,5.664237,-3.0444255,17.726837,0.036490593,14.24308,-2.870893,20.88779,-8.456913,0.27662423,14.020529,-7.6016397,-12.391843,36.279114,64.76435,2.8480914,9.316544,3.4104145
