unveil-humanoid-operators/unveil-humanoid-operators.github.io/feature-analysis-animation/data/feature_matrix_instances/weight_root_translate_peak_vel_walking_A162_lift_crate_walk_ff_loop_360_003__A162.csv
Frame,root_translateX,root_translateY,root_translateZ,root_rotateX,root_rotateY,root_rotateZ,left_hip_pitch_joint_dof,left_hip_roll_joint_dof,left_hip_yaw_joint_dof,left_knee_joint_dof,left_ankle_pitch_joint_dof,left_ankle_roll_joint_dof,right_hip_pitch_joint_dof,right_hip_roll_joint_dof,right_hip_yaw_joint_dof,right_knee_joint_dof,right_ankle_pitch_joint_dof,right_ankle_roll_joint_dof,waist_yaw_joint_dof,waist_roll_joint_dof,waist_pitch_joint_dof,left_shoulder_pitch_joint_dof,left_shoulder_roll_joint_dof,left_shoulder_yaw_joint_dof,left_elbow_joint_dof,left_wrist_roll_joint_dof,left_wrist_pitch_joint_dof,left_wrist_yaw_joint_dof,right_shoulder_pitch_joint_dof,right_shoulder_roll_joint_dof,right_shoulder_yaw_joint_dof,right_elbow_joint_dof,right_wrist_roll_joint_dof,right_wrist_pitch_joint_dof,right_wrist_yaw_joint_dof
0,-0.578191876411438,2.8275434970855713,77.17282104492188,3.4064552298592345,-8.435826047550457,-88.00702801011218,0.8166305,1.36199,13.363279,18.01241,-11.737722,-3.492755,-2.8619046,-23.918024,-18.371435,42.748302,-16.799927,13.455024,2.5674665,-6.5661736,6.517553,-7.7220926,22.682777,-5.7595215,33.304512,-15.074267,2.6420207,-1.921162,-16.330494,-20.458696,13.854738,43.557606,22.378656,8.574686,-13.248047
1,-0.555066704750061,2.9097177982330322,77.12405395507812,3.6253852670600373,-8.572837721627092,-88.02794592911567,0.95777977,1.0982563,13.450732,17.902067,-11.689858,-3.645983,-2.1068058,-24.212002,-17.774939,44.268616,-17.1729,13.268785,2.6419508,-6.6337876,6.3564487,-7.887561,22.625952,-5.770605,33.84936,-15.043226,2.534343,-2.0328643,-16.46352,-20.509142,14.067152,43.770687,22.48568,8.755688,-13.22611
2,-0.5357481241226196,2.9914867877960205,77.07188415527344,3.8450464911662214,-8.716756829314356,-88.0451138973396,1.1109686,0.8282753,13.534513,17.775354,-11.637078,-3.804276,-1.3518358,-24.536201,-17.19596,45.84697,-17.55362,13.046734,2.7106647,-6.6674533,6.1923833,-8.072052,22.508251,-5.784553,34.43476,-14.99042,2.4197032,-2.1440446,-16.614174,-20.594675,14.301113,44.005608,22.601357,8.950829,-13.212303
3,-0.5261520147323608,3.0803723335266113,77.01224517822266,4.062039310364326,-8.848351601938855,-88.06966254831869,1.2351055,0.57018596,13.621725,17.679193,-11.5960455,-3.954454,-0.5619499,-24.798609,-16.6013,47.249928,-17.895393,12.902882,2.7879035,-6.6830015,6.0243926,-8.244297,22.358786,-5.7688212,34.9892,-14.909259,2.3055224,-2.245461,-16.741686,-20.698305,14.527806,44.207836,22.721447,9.122155,-13.1934185
4,-0.5331104397773743,3.1750857830047607,76.94755554199219,4.272646934603067,-8.948751692077186,-88.11281526315999,1.2888733,0.3434695,13.719588,17.661716,-11.583847,-4.0853734,0.2936231,-24.900875,-15.958804,48.249607,-18.153828,12.950482,2.8728194,-6.685817,5.847379,-8.360622,22.190054,-5.6700573,35.439194,-14.782605,2.1981292,-2.3292394,-16.827063,-20.802967,14.742561,44.34229,22.84652,9.229959,-13.160707
5,-0.5460819005966187,3.269047737121582,76.88078308105469,4.480661274548934,-9.002119831664537,-88.18342198625461,1.2442546,0.15494092,13.837391,17.753487,-11.6130495,-4.192269,1.2037439,-24.801493,-15.199332,48.8605,-18.298418,13.246241,2.9638948,-6.685408,5.6466317,-8.395619,22.007458,-5.460782,35.763214,-14.60824,2.1009429,-2.3816729,-16.874744,-20.897354,14.964808,44.411972,22.996128,9.2441025,-13.102453
6,-0.5688826441764832,3.3651206493377686,76.81316375732422,4.684887786544602,-9.02184669559037,-88.27352675523429,1.1299546,-0.0067303013,13.969615,17.922197,-11.671194,-4.2820377,2.1557302,-24.558321,-14.358946,49.189594,-18.36578,13.719792,3.0537736,-6.685236,5.42782,-8.366533,21.81605,-5.165901,35.993046,-14.397792,2.011288,-2.4124165,-16.904709,-20.977077,15.198239,44.444542,23.161713,9.190399,-13.027531
7,-0.5999216437339783,3.451967716217041,76.74882507324219,4.885167256655057,-9.032736247212787,-88.36896447869458,0.98878336,-0.1485425,14.101784,18.124044,-11.737988,-4.3606267,3.180911,-24.240917,-13.55873,49.148296,-18.412018,14.292795,3.1352127,-6.6809773,5.2147512,-8.297799,21.624672,-4.814103,36.13902,-14.153299,1.9258978,-2.447552,-16.918097,-21.036383,15.4102125,44.441036,23.298794,9.113112,-12.95813
8,-0.6373366117477417,3.5480897426605225,76.6854019165039,5.073789301875475,-9.059266347329098,-88.45548945166617,0.86350095,-0.2783282,14.219007,18.316183,-11.793965,-4.433622,4.3056283,-23.914871,-12.917377,48.645714,-18.48834,14.884759,3.202745,-6.6695347,5.0318766,-8.213758,21.443686,-4.436162,36.21016,-13.87769,1.8413943,-2.5130265,-16.91287,-21.068256,15.5646515,44.399506,23.363146,9.056793,-12.916407
9,-0.6956042051315308,3.6462008953094482,76.62629699707031,5.166807978768953,-9.072207217809124,-88.56888402421455,0.64012575,-0.24636973,14.335827,18.695974,-11.937654,-4.5283313,5.521327,-23.396496,-12.457446,47.53859,-18.542233,15.000033,3.2935073,-6.5729356,4.8511815,-8.108094,21.277807,-4.0169473,36.18988,-13.552237,1.750216,-2.6307168,-16.87901,-21.065498,15.641346,44.309845,23.327885,9.028255,-12.905044
10,-0.76609867811203,3.748218059539795,76.5742416381836,5.214696464520145,-9.07944440461608,-88.68957876873739,0.3674297,-0.13530223,14.444263,19.169853,-12.12118,-4.6249533,6.8314366,-22.749462,-12.081074,45.915894,-18.569273,15.000033,3.3852892,-6.442904,4.6790247,-7.97152,21.12814,-3.5499392,36.07846,-13.185078,1.656512,-2.7819755,-16.822023,-21.025427,15.660901,44.179344,23.220076,9.004785,-12.913067
11,-0.839450478553772,3.8556509017944336,76.52477264404297,5.250636836134296,-9.109732084278123,-88.79795527137071,0.13165356,-0.01773343,14.531496,19.60969,-12.281942,-4.7157397,8.196584,-22.11564,-11.829676,43.96524,-18.637182,15.000033,3.4513276,-6.308671,4.5412083,-7.821035,20.99998,-3.0783105,35.908527,-12.820731,1.5735807,-2.930434,-16.762897,-20.954319,15.649747,44.03168,23.072962,8.985298,-12.942787
12,-0.918480634689331,3.9715754985809326,76.47755432128906,5.287222609437848,-9.182897814735245,-88.88749683396001,-0.012387184,0.07459775,14.592734,19.939857,-12.384722,-4.801301,9.561822,-21.598612,-11.768071,41.870358,-18.809784,15.000033,3.4810927,-6.1753654,4.4576106,-7.6761093,20.899454,-2.6493762,35.713238,-12.505045,1.5150414,-3.0400007,-16.714586,-20.863373,15.629567,43.88066,22.921143,8.969274,-12.995117
13,-0.9864417910575867,4.076709747314453,76.44428253173828,5.331298431579577,-9.309276776574821,-88.95657022816458,-0.048059504,0.13005859,14.625222,20.1464,-12.420744,-4.8776817,10.947534,-21.226803,-11.9570875,39.52012,-19.167994,15.000033,3.476148,-6.046419,4.4438534,-7.5387177,20.832394,-2.2742493,35.46946,-12.241991,1.4951422,-3.093831,-16.668781,-20.756838,15.588477,43.706158,22.759018,8.96757,-13.082874
14,-1.0593535900115967,4.192530155181885,76.42298126220703,5.372515966776921,-9.474029460170716,-89.01214913273033,-0.009563918,0.17142695,14.63537,20.272522,-12.411309,-4.9468217,12.370242,-20.92055,-12.359273,36.857285,-19.650665,15.000033,3.4482577,-5.916113,4.486381,-7.401744,20.798098,-1.9328365,35.169918,-12.013188,1.5038573,-3.1149094,-16.613743,-20.633434,15.515609,43.497143,22.575565,8.978371,-13.199593
15,-1.1288621425628662,4.308861255645752,76.40850830078125,5.398718819863,-9.65940549145918,-89.06199535491533,0.07632571,0.2194812,14.634353,20.336535,-12.369981,-5.0186286,13.767176,-20.639685,-12.905786,34.159054,-20.11503,15.000033,3.40168,-5.7757244,4.5598536,-7.2696357,20.790052,-1.6236458,34.870644,-11.828952,1.5187014,-3.1262727,-16.55826,-20.500307,15.435549,43.28448,22.394707,8.981507,-13.317639
16,-1.1927642822265625,4.433322906494141,76.39696502685547,5.397837253091854,-9.848417326260318,-89.11197707773228,0.18710054,0.29095155,14.632307,20.349941,-12.30685,-5.102258,15.07223,-20.354786,-13.525814,31.712812,-20.423801,15.000033,3.3416288,-5.614665,4.641463,-7.1500077,20.797333,-1.3462775,34.628777,-11.698348,1.5166819,-3.150761,-16.504908,-20.367262,15.370856,43.091274,22.242283,8.957633,-13.409546
17,-1.256200909614563,4.565707206726074,76.39094543457031,5.368818540982637,-10.061034794129267,-89.15436386800447,0.3411221,0.3840529,14.620639,20.31767,-12.227457,-5.1959314,16.291534,-20.089483,-14.289969,29.614262,-20.555582,15.000033,3.2618613,-5.4218183,4.7472506,-7.0536685,20.813929,-1.1091976,34.466167,-11.643995,1.4940659,-3.193417,-16.448309,-20.241064,15.316378,42.923374,22.122635,8.89632,-13.462518
18,-1.3162704706192017,4.697274208068848,76.39667510986328,5.313975523897964,-10.299966269823516,-89.18730890093968,0.5450265,0.4933532,14.596698,20.230305,-12.124098,-5.296661,17.45187,-19.848171,-15.2221155,27.71506,-20.58705,15.000033,3.163871,-5.199057,4.8848147,-6.9773526,20.838976,-0.9109927,34.352562,-11.651543,1.4617198,-3.2418106,-16.38304,-20.123728,15.262062,42.76161,22.024426,8.810403,-13.492758
19,-1.3781890869140625,4.827537536621094,76.41651916503906,5.237437447282337,-10.52271284480959,-89.22771096395498,0.74996763,0.6283334,14.579267,20.095486,-11.996537,-5.4111443,18.506023,-19.592688,-16.166874,25.96085,-20.539093,15.000033,3.0621262,-4.9573073,5.0180383,-6.9053206,20.868603,-0.73455155,34.26564,-11.674098,1.418397,-3.2919924,-16.31727,-20.019339,15.227427,42.59629,21.952078,8.715472,-13.516634
20,-1.4443665742874146,4.967843532562256,76.45035552978516,5.139263114048131,-10.685958243252237,-89.29266776839158,0.9191495,0.79448175,14.588945,19.89404,-11.829387,-5.5459356,19.42353,-19.282219,-16.969727,24.256638,-20.412838,15.000033,2.9717488,-4.7063026,5.109139,-6.8214583,20.895996,-0.5612249,34.182957,-11.664234,1.3626462,-3.3401127,-16.259438,-19.936504,15.233858,42.41762,21.910364,8.627121,-13.550199
21,-1.5121116638183594,5.110745906829834,76.49650573730469,4.999341819557439,-10.781270119350314,-89.38607365204689,1.0363407,1.0218498,14.626197,19.641567,-11.627855,-5.7004366,20.205463,-18.883678,-17.60522,22.557093,-20.166698,15.000033,2.8972619,-4.42135,5.1526337,-6.730065,20.913425,-0.3833456,34.118065,-11.589186,1.2876812,-3.386818,-16.209534,-19.878176,15.288988,42.223976,21.90158,8.547568,-13.603483
22,-1.5769908428192139,5.261114597320557,76.55363464355469,4.822611829516783,-10.831603710754042,-89.49837874914009,1.1257838,1.2979906,14.680927,19.337828,-11.394955,-5.8720236,20.868572,-18.426083,-18.153091,20.913239,-19.812607,15.000033,2.8399043,-4.101352,5.167659,-6.64923,20.91966,-0.22384629,34.085663,-11.480386,1.1952633,-3.430478,-16.153112,-19.848543,15.371279,42.011936,21.923134,8.470097,-13.664516
23,-1.6521443128585815,5.432553768157959,76.60910034179688,4.653613721591545,-10.83814030891225,-89.62909128276189,1.2019275,1.5648035,14.758708,18.956377,-11.122006,-6.0639215,21.39062,-17.982105,-18.60472,19.407864,-19.442837,15.000033,2.7656643,-3.796116,5.1503825,-6.5268025,20.923252,-0.047676485,34.023113,-11.377731,1.0999401,-3.4758298,-16.129482,-19.83011,15.50925,41.80841,21.9746,8.393071,-13.723842
24,-1.7313659191131592,5.616436958312988,76.66171264648438,4.541952940262622,-10.801104992754055,-89.7790704597446,1.2805848,1.7615131,14.866169,18.464542,-10.796674,-6.279112,21.74824,-17.624872,-18.95068,18.123884,-19.145834,15.000033,2.7044387,-3.5553336,5.097831,-6.389314,20.930864,0.092579894,33.927773,-11.334049,1.0120698,-3.5112782,-16.104128,-19.83237,15.656277,41.587765,22.047356,8.320007,-13.762452
25,-1.809369444847107,5.794278144836426,76.71526336669922,4.5031766875550545,-10.691111432893454,-89.9595420927383,1.3527188,1.8638418,15.017329,17.816618,-10.397791,-6.52523,21.88586,-17.390608,-19.167765,17.107065,-18.940388,15.000033,2.6436553,-3.4005241,4.9818053,-6.1996017,20.948,0.23777829,33.76298,-11.354507,0.9365735,-3.5446832,-16.097061,-19.857769,15.853451,41.353523,22.158531,8.250719,-13.775906
26,-1.8957518339157104,5.97999906539917,76.7668685913086,4.465752800906726,-10.501549418781117,-90.18495951112092,1.3568614,1.9827105,15.209969,17.138239,-9.985179,-6.8133087,21.811972,-17.1456,-19.210787,16.261229,-18.7496,14.812492,2.6131163,-3.2587035,4.797153,-5.984064,20.973503,0.36821452,33.561497,-11.419766,0.8659228,-3.573197,-16.093885,-19.907154,16.081436,41.10042,22.301252,8.184845,-13.770377
27,-1.977094292640686,6.169224739074707,76.8112564086914,4.459267756057622,-10.304430832066558,-90.41486549481559,1.3829376,2.0572374,15.415456,16.386484,-9.533863,-7.113517,21.643713,-16.947113,-19.16365,15.579217,-18.605343,14.546098,2.5740335,-3.15456,4.6199913,-5.750891,21.010168,0.46751916,33.33109,-11.535456,0.799721,-3.5995402,-16.092737,-19.97658,16.315159,40.827866,22.463236,8.12375,-13.753534
28,-2.0539498329162598,6.357853889465332,76.84658813476562,4.467965272378857,-10.157364439579998,-90.6267238117585,1.457573,2.1065793,15.609746,15.631509,-9.076777,-7.4097056,21.490759,-16.781244,-19.085707,14.999452,-18.505732,14.331915,2.504001,-3.0642827,4.5168557,-5.5059843,21.073652,0.52112967,33.07154,-11.717389,0.7387282,-3.6315148,-16.076694,-20.079258,16.530886,40.5099,22.641665,8.070192,-13.730335
29,-2.1401445865631104,6.561590194702148,76.87373352050781,4.4970769471922205,-10.072362809227915,-90.81743222654589,1.5958432,2.122846,15.792561,14.8662405,-8.609426,-7.6994224,21.365934,-16.658386,-18.959368,14.524281,-18.451414,14.197589,2.4196289,-3.0019562,4.4946623,-5.2768807,21.163465,0.4847096,32.802807,-11.971306,0.68748456,-3.6634831,-16.047176,-20.188896,16.694153,40.168125,22.828064,8.011898,-13.699642
30,-2.219285726547241,6.76664400100708,76.88900756835938,4.555616774516809,-10.018814735052617,-90.99827122447677,1.7811716,2.0991848,15.97454,14.059501,-8.117913,-7.99028,21.208868,-16.593115,-18.766783,14.19838,-18.447954,14.124119,2.319222,-2.9776115,4.520579,-5.045533,21.282562,0.38577497,32.51353,-12.292442,0.64517236,-3.696361,-16.016768,-20.303799,16.833475,39.810783,23.027735,7.9509535,-13.659926
31,-2.3032100200653076,6.965682029724121,76.89879608154297,4.6205038777878995,-9.992164336880709,-91.16757554760993,1.9935522,2.0580854,16.147552,13.246003,-7.621126,-8.281699,21.036694,-16.55623,-18.558151,13.979879,-18.490856,14.061226,2.2043118,-2.970519,4.583768,-4.817958,21.425493,0.24041544,32.227844,-12.660924,0.5971772,-3.7175133,-15.974639,-20.420097,16.943747,39.438435,23.207657,7.907049,-13.616659
32,-2.384834051132202,7.167840957641602,76.90289306640625,4.677650425766132,-9.988265589125975,-91.32398144484505,2.2127101,2.022429,16.303593,12.461758,-7.1389184,-8.573224,20.868525,-16.517632,-18.383898,13.824131,-18.572563,13.958265,2.0783467,-2.9588208,4.672309,-4.6031427,21.581627,0.061252687,31.973425,-13.053911,0.52806896,-3.7122152,-15.912076,-20.531673,17.017805,39.05698,23.332825,7.898924,-13.575876
33,-2.4558420181274414,7.369071006774902,76.90292358398438,4.719393847622539,-10.022533397589363,-91.45942324907766,2.4614952,1.9922448,16.43279,11.693447,-6.6728177,-8.881181,20.725382,-16.473558,-18.263376,13.735645,-18.690454,13.808201,1.9280361,-2.9344432,4.79843,-4.3915586,21.748446,-0.16483495,31.754316,-13.486229,0.42259893,-3.6557784,-15.835926,-20.636826,17.056805,38.68047,23.385971,7.9379387,-13.524452
34,-2.5341885089874268,7.584341526031494,76.89598846435547,4.757565719923226,-10.09191471593938,-91.57711330310458,2.742023,1.9579065,16.541286,10.928104,-6.21271,-9.20037,20.591166,-16.438654,-18.167265,13.734042,-18.849047,13.6349535,1.7545581,-2.9090223,4.962313,-4.181485,21.927763,-0.4379277,31.557047,-13.96037,0.29161975,-3.5626845,-15.751827,-20.736748,17.065619,38.307198,23.388136,8.011188,-13.46492
35,-2.6080527305603027,7.794708728790283,76.88627624511719,4.796291608859648,-10.164007474602773,-91.69268002675236,2.999414,1.9259958,16.647516,10.20953,-5.764641,-9.497654,20.42862,-16.416475,-18.072876,13.801516,-19.053532,13.435784,1.5827094,-2.8913627,5.133872,-3.9917212,22.113365,-0.72404134,31.382359,-14.433431,0.15914144,-3.4765077,-15.648675,-20.82883,17.042126,37.919712,23.356846,8.101446,-13.427439
36,-2.6803953647613525,8.005815505981445,76.87398529052734,4.843025529821906,-10.206417188456955,-91.82205194447252,3.179938,1.9017009,16.770203,9.579756,-5.334193,-9.739623,20.199333,-16.407967,-17.95775,13.920229,-19.309607,13.208252,1.4358927,-2.889716,5.2829366,-3.8379889,22.294846,-0.98606914,31.229727,-14.860479,0.049663715,-3.4399695,-15.520348,-20.908844,16.987335,37.505985,23.309725,8.190788,-13.443107
37,-2.757981061935425,8.231918334960938,76.85780334472656,4.90825418148769,-10.198753177693208,-91.96952732007927,3.2642639,1.876182,16.920416,9.030658,-4.9202676,-9.927802,19.879307,-16.42398,-17.825752,14.088062,-19.64265,12.935106,1.3170995,-2.9108908,5.38975,-3.723057,22.464537,-1.2129326,31.108946,-15.226444,-0.037278872,-3.4710813,-15.369374,-20.973742,16.901194,37.06346,23.252714,8.273931,-13.531779
38,-2.831331968307495,8.45710277557373,76.8366928100586,4.9866620234179235,-10.162373051377,-92.12685035572866,3.2779117,1.8495466,17.087059,8.558046,-4.524591,-10.075887,19.493883,-16.461128,-17.684862,14.31157,-20.04101,12.624069,1.2127628,-2.948253,5.4737034,-3.635547,22.622282,-1.4206976,31.015984,-15.552314,-0.11214226,-3.5439389,-15.203094,-21.02291,16.787197,36.6045,23.174936,8.360034,-13.674451
39,-2.908219337463379,8.698256492614746,76.80644226074219,5.06678631340386,-10.127453153344666,-92.29195965486606,3.2503636,1.8391504,17.256882,8.174734,-4.1491413,-10.169656,19.07902,-16.500753,-17.517736,14.589831,-20.459085,12.310154,1.1200815,-2.9890678,5.5619106,-3.5696456,22.771261,-1.6125737,30.930073,-15.846955,-0.16501665,-3.6346862,-15.02939,-21.058956,16.655283,36.146275,23.070637,8.452936,-13.843374
40,-2.977526903152466,8.93310546875,76.78347778320312,5.132940064893769,-10.124675349140078,-92.46191155302779,3.2066982,1.8622774,17.416718,7.90392,-3.800128,-10.194541,18.670744,-16.527552,-17.30793,14.923913,-20.851034,12.028185,1.0364226,-3.0209641,5.6827517,-3.5186954,22.91517,-1.7915225,30.82825,-16.11955,-0.1859737,-3.7200897,-14.850951,-21.084198,16.513273,35.699905,22.933258,8.55658,-14.010466
41,-3.0548133850097656,9.182323455810547,76.75980377197266,5.188696850842134,-10.166218428957947,-92.64741901461181,3.1582177,1.9217898,17.57619,7.7563634,-3.4759283,-10.140574,18.283878,-16.539156,-17.031794,15.301476,-21.204458,11.790242,0.97472996,-3.048909,5.8536797,-3.4866753,23.058691,-1.9583758,30.693558,-16.370333,-0.15422551,-3.7991884,-14.661393,-21.099571,16.352646,35.246056,22.737318,8.698168,-14.174305
42,-3.13256573677063,9.426431655883789,76.7397689819336,5.2421238234284475,-10.234840645746939,-92.84625828612263,3.0894792,2.0093114,17.73855,7.721139,-3.1760533,-10.017575,17.896597,-16.547241,-16.704327,15.731945,-21.545584,11.576931,0.93345034,-3.0781722,6.057615,-3.4766774,23.201714,-2.113635,30.54108,-16.597145,-0.08080139,-3.8827753,-14.4566,-21.103542,16.16998,34.780323,22.494932,8.867604,-14.346738
43,-3.2134077548980713,9.666021347045898,76.72657012939453,5.2809636285959725,-10.316686469609122,-93.03521410510675,2.9827704,2.1248178,17.8812,7.7934356,-2.9094157,-9.840378,17.498257,-16.54503,-16.371298,16.222124,-21.877481,11.375333,0.8850376,-3.0990777,6.2695303,-3.4792175,23.339384,-2.2571478,30.398632,-16.80445,-0.0040941956,-3.9650497,-14.252814,-21.097668,15.986596,34.34682,22.256586,9.012207,-14.520803
44,-3.3031225204467773,9.896553039550781,76.71736145019531,5.297828505219528,-10.39745155778423,-93.19178331446417,2.820357,2.2686222,17.981197,7.9662814,-2.684151,-9.623614,17.07037,-16.530664,-16.07571,16.796745,-22.20628,11.172781,0.8007418,-3.0991983,6.4641485,-3.4830098,23.463518,-2.3869371,30.29212,-16.995064,0.037447855,-4.040483,-14.065761,-21.08443,15.824454,33.98809,22.073092,9.079207,-14.690394
45,-3.385676860809326,10.116722106933594,76.7095947265625,5.280269791054664,-10.491631822949817,-93.3057262844923,2.6022832,2.4504862,18.022947,8.266828,-2.5160062,-9.353408,16.612608,-16.498652,-15.827975,17.494127,-22.5286,10.970924,0.6613665,-3.0612657,6.6528277,-3.4769738,23.563503,-2.4982572,30.223848,-17.180655,0.02276748,-4.106388,-13.900797,-21.067812,15.698868,33.72263,21.976501,9.039455,-14.863713
46,-3.4547102451324463,10.353242874145508,76.70001983642578,5.233001663527275,-10.600548419187877,-93.38980521451455,2.3363183,2.6685882,18.021086,8.684936,-2.3946078,-9.026925,16.131609,-16.446178,-15.60657,18.288939,-22.83956,10.77642,0.48192677,-2.9891968,6.842526,-3.4667928,23.635386,-2.5886672,30.180593,-17.350769,-0.024715515,-4.1659956,-13.753315,-21.050785,15.600572,33.527912,21.934692,8.92614,-15.042364
47,-3.533001184463501,10.598686218261719,76.68995666503906,5.174867326776058,-10.690566968903182,-93.4553644922963,2.0199537,2.9024706,17.998226,9.151503,-2.2867544,-8.674928,15.623434,-16.38017,-15.406962,19.104204,-23.141182,10.584259,0.2824988,-2.9014974,7.0013165,-3.462217,23.678864,-2.6550674,30.162346,-17.473085,-0.07718218,-4.223538,-13.625237,-21.035023,15.518223,33.385376,21.902615,8.778397,-15.211075
48,-3.622394323348999,10.846145629882812,76.67858123779297,5.121533790654532,-10.728111315540113,-93.51390261476851,1.6543589,3.1293557,17.977566,9.59232,-2.155212,-8.329068,15.080039,-16.31,-15.223284,19.873648,-23.442184,10.387047,0.106937416,-2.8352246,7.0985003,-3.5019047,23.727634,-2.7299118,30.18643,-17.534695,-0.10567295,-4.2806077,-13.489984,-21.006992,15.403908,33.25781,21.825068,8.636922,-15.348239
49,-3.7109668254852295,11.093690872192383,76.66636657714844,5.074461361975457,-10.680708418127153,-93.55747413316593,1.1944708,3.3480914,17.954477,10.018853,-1.992381,-7.9846725,14.468119,-16.240396,-15.060728,20.596252,-23.752386,10.174743,-0.058583576,-2.7935803,7.097227,-3.5803413,23.771109,-2.789345,30.257166,-17.49121,-0.10421948,-4.348948,-13.357513,-20.961012,15.269922,33.16711,21.686464,8.492655,-15.447406
50,-3.8037235736846924,11.329850196838379,76.65788269042969,5.026072122037853,-10.573601286652204,-93.5833836224019,0.6545173,3.5699122,17.91935,10.460746,-1.8169549,-7.629786,13.800557,-16.166212,-14.919803,21.305696,-24.066189,9.95301,-0.23193921,-2.7550251,7.023492,-3.6778808,23.796106,-2.8220282,30.361944,-17.362434,-0.08772295,-4.425207,-13.2361,-20.906807,15.137089,33.120056,21.518312,8.330778,-15.52124
51,-3.89853572845459,11.560990333557129,76.6498031616211,4.976959175995974,-10.460508928293518,-93.61127115239923,0.12323851,3.7899323,17.888412,10.876334,-1.6326607,-7.285583,13.144223,-16.086096,-14.788059,21.982338,-24.370853,9.736896,-0.39985925,-2.7139788,6.9359136,-3.7831156,23.810072,-2.8467155,30.478325,-17.216347,-0.05897754,-4.488715,-13.143563,-20.85322,15.010995,33.09943,21.342606,8.17993,-15.583457
52,-3.981564521789551,11.782959938049316,76.63694763183594,4.933607754234771,-10.395209036094043,-93.66185944440896,-0.3085387,4.0010667,17.878988,11.220328,-1.4417393,-6.973032,12.566284,-16.003035,-14.6523075,22.60804,-24.653952,9.542161,-0.5344645,-2.6845222,6.885737,-3.90864,23.834093,-2.9070413,30.609318,-17.12148,-0.02168133,-4.51196,-13.101063,-20.763735,14.86837,33.115017,21.153513,8.065952,-15.645263
53,-4.072986602783203,12.006771087646484,76.62596130371094,4.89797915992393,-10.387208062311093,-93.74412583452961,-0.6275915,4.2029343,17.900728,11.491446,-1.2465457,-6.689672,12.073579,-15.920151,-14.503923,23.183096,-24.914991,9.373541,-0.65101373,-2.6533217,6.8961077,-4.023405,23.860573,-2.9685462,30.711435,-17.088654,0.03399354,-4.4886622,-13.117757,-20.681402,14.7423,33.135654,20.986343,7.9977875,-15.710754
54,-4.161955833435059,12.228273391723633,76.61439514160156,4.867846652825015,-10.409484362080079,-93.84660871588925,-0.87905765,4.398149,17.94362,11.712969,-1.0466193,-6.4271135,11.632977,-15.838496,-14.350773,23.718836,-25.161657,9.222716,-0.74752444,-2.619972,6.9392824,-4.1411934,23.883196,-3.032597,30.801409,-17.085062,0.10640675,-4.432798,-13.166992,-20.613962,14.619288,33.15358,20.831787,7.9623294,-15.770698
55,-4.251147270202637,12.45009708404541,76.6030044555664,4.842050179552082,-10.461929024249317,-93.9584864088608,-1.0606986,4.5839868,17.99588,11.878774,-0.8420198,-6.1971207,11.252494,-15.755504,-14.2051115,24.211021,-25.39216,9.085906,-0.8276257,-2.5891473,7.003267,-4.2597766,23.91016,-3.1124532,30.899477,-17.116488,0.17958778,-4.366463,-13.241097,-20.546371,14.499386,33.183872,20.676472,7.954944,-15.827873
56,-4.330537796020508,12.658669471740723,76.58842468261719,4.815855381944246,-10.54465210041098,-94.06857872381423,-1.1708918,4.758262,18.045797,11.983373,-0.63317645,-6.0111,10.941675,-15.670263,-14.079143,24.652626,-25.603071,8.959495,-0.9116363,-2.5511837,7.0838246,-4.3481894,23.936895,-3.190691,30.996729,-17.18487,0.23928124,-4.3193736,-13.334588,-20.494736,14.408711,33.222916,20.527855,7.9731526,-15.887038
57,-4.410654544830322,12.853317260742188,76.57640838623047,4.789640277864194,-10.669857211699467,-94.17027222814887,-1.1936718,4.9182057,18.08519,12.0195875,-0.4208364,-5.8825135,10.726029,-15.585065,-13.987275,25.032198,-25.798742,8.847485,-0.99301606,-2.5178258,7.186274,-4.425185,23.976028,-3.2942624,31.111513,-17.300264,0.28237486,-4.2873545,-13.446418,-20.441113,14.332007,33.28399,20.381233,8.016769,-15.952985
58,-4.492947101593018,13.039580345153809,76.56219482421875,4.767002413346418,-10.8337481557632,-94.27137711532005,-1.1321633,5.0626907,18.123655,11.986977,-0.20194167,-5.8000607,10.593457,-15.501887,-13.918916,25.3565,-25.979614,8.749877,-1.0593868,-2.5121863,7.3084035,-4.5050282,24.059467,-3.4367702,31.247185,-17.47462,0.31789353,-4.257411,-13.581157,-20.3552,14.251599,33.3752,20.226076,8.084587,-16.020426
59,-4.579924583435059,13.217888832092285,76.54891967773438,4.748258073386628,-11.011849362028148,-94.38204709799949,-1.024308,5.1974163,18.171844,11.91141,0.01793565,-5.7450614,10.492096,-15.421262,-13.846625,25.656258,-26.141428,8.657474,-1.1309559,-2.494737,7.437717,-4.540125,24.132803,-3.5508463,31.36609,-17.672728,0.3453215,-4.246736,-13.740706,-20.291006,14.208815,33.468983,20.073524,8.177444,-16.081526
60,-4.662330150604248,13.393610954284668,76.53340911865234,4.736668001185027,-11.179898872855455,-94.5121725137545,-0.90618527,5.326769,18.240265,11.816049,0.23459393,-5.6979046,10.370369,-15.3429575,-13.743703,25.962368,-26.280508,8.560855,-1.1836239,-2.4827106,7.547456,-4.5505652,24.221125,-3.6560793,31.49145,-17.89791,0.36395392,-4.2573767,-13.910689,-20.214052,14.174923,33.569977,19.890936,8.289897,-16.120955
61,-4.732512474060059,13.553630828857422,76.52008819580078,4.734110416316806,-11.344310744874674,-94.66619327003036,-0.7623163,5.4454184,18.333319,11.688178,0.4512591,-5.6556044,10.233226,-15.272381,-13.604544,26.278946,-26.395502,8.456,-1.2246585,-2.4595258,7.6417637,-4.521662,24.294233,-3.7325091,31.622005,-18.14449,0.37075976,-4.299893,-14.103596,-20.14674,14.168233,33.682224,19.667473,8.436763,-16.141193
62,-4.806495666503906,13.716144561767578,76.50675201416016,4.741423963717535,-11.513901417427423,-94.83861332795163,-0.5815269,5.5519366,18.444983,11.521325,0.6689233,-5.6279783,10.102058,-15.2086,-13.442837,26.591114,-26.48865,8.348686,-1.2544354,-2.4397724,7.7275953,-4.4609175,24.37351,-3.7952166,31.759016,-18.42271,0.36774358,-4.3669095,-14.322215,-20.067297,14.181029,33.814907,19.409573,8.613417,-16.147047
63,-4.875426769256592,13.877114295959473,76.49221801757812,4.749327011847988,-11.667761850081876,-95.0242840257399,-0.40476695,5.6590486,18.570887,11.344512,0.8822903,-5.6145196,9.951338,-15.139735,-13.261284,26.897427,-26.558971,8.244324,-1.2729574,-2.4076068,7.792783,-4.3771043,24.440365,-3.8404765,31.894262,-18.70228,0.35722473,-4.4422154,-14.547837,-19.99603,14.211491,33.946754,19.153746,8.792614,-16.13339
64,-4.933984756469727,14.03538703918457,76.48088073730469,4.749438392515486,-11.78511804193022,-95.21761345837149,-0.27484977,5.780309,18.706093,11.190582,1.0837178,-5.614523,9.755445,-15.058558,-13.062126,27.197958,-26.605928,8.1489105,-1.2801118,-2.363322,7.823037,-4.2771544,24.50211,-3.8696883,32.017666,-18.963217,0.34315065,-4.509845,-14.766545,-19.926048,14.252427,34.06778,18.929516,8.945319,-16.095379
65,-4.991058826446533,14.187211036682129,76.47259521484375,4.737638140634901,-11.84573172543169,-95.42428699436049,-0.20993993,5.921098,18.856827,11.054498,1.2777036,-5.631222,9.488089,-14.956995,-12.834976,27.490194,-26.617907,8.060959,-1.2619832,-2.2848258,7.802028,-4.1690125,24.534515,-3.892337,32.13859,-19.197044,0.32062346,-4.568465,-14.953301,-19.888002,14.294926,34.149883,18.754158,9.0589285,-16.017555
66,-5.043585777282715,14.339314460754395,76.46343231201172,4.7204633008834795,-11.86559268654732,-95.64472627186312,-0.18472977,6.0736837,19.0229,10.922463,1.4669567,-5.6638927,9.168477,-14.84155,-12.582759,27.777828,-26.600573,7.978545,-1.2358252,-2.1996448,7.735812,-4.030844,24.573502,-3.8969514,32.249905,-19.427904,0.29219684,-4.626717,-15.148961,-19.836662,14.357609,34.24021,18.602211,9.14548,-15.910626
67,-5.094277381896973,14.490625381469727,76.45404052734375,4.698536996426867,-11.87783368794121,-95.86527525737627,-0.17787148,6.234198,19.188879,10.817885,1.6388181,-5.705589,8.8446245,-14.718898,-12.329129,28.056023,-26.571735,7.9060154,-1.1960546,-2.101515,7.6655183,-3.8930202,24.597692,-3.889943,32.35373,-19.640245,0.26217246,-4.679217,-15.331253,-19.799852,14.423182,34.307472,18.4665,9.232045,-15.796718
68,-5.140857219696045,14.638702392578125,76.43981170654297,4.67418632126727,-11.91560920416992,-96.07387874132144,-0.16660726,6.3985763,19.340187,10.761525,1.7820957,-5.7495375,8.563202,-14.59848,-12.096626,28.323652,-26.551197,7.8480115,-1.13596,-1.9994859,7.629968,-3.793874,24.607395,-3.8835754,32.461365,-19.826395,0.23574303,-4.72071,-15.473617,-19.783077,14.470704,34.320374,18.33213,9.34485,-15.699548
69,-5.191405296325684,14.785090446472168,76.4239273071289,4.650351448240009,-11.98385101062228,-96.26957812778492,-0.14505446,6.565135,19.475832,10.753756,1.8965801,-5.7958097,8.333647,-14.482133,-11.889405,28.575035,-26.544624,7.8165593,-1.1004219,-1.900719,7.62385,-3.6616976,24.615534,-3.8315213,32.52262,-19.999472,0.21761815,-4.7495193,-15.6743765,-19.760153,14.566469,34.37516,18.206207,9.483704,-15.629483
70,-5.235249042510986,14.929306030273438,76.40644073486328,4.624171089093116,-12.066309265522627,-96.45955295304279,-0.12397825,6.7379885,19.603348,10.783975,1.9877999,-5.8478503,8.129206,-14.364459,-11.694443,28.81759,-26.541073,7.8053923,-1.0478599,-1.8011225,7.639322,-3.5537663,24.616098,-3.7710335,32.583744,-20.15168,0.20189239,-4.7690835,-15.844737,-19.744677,14.653518,34.38183,18.07874,9.645601,-15.568495
71,-5.283566951751709,15.07574462890625,76.38477325439453,4.593620306911678,-12.163569436386947,-96.63705473163407,-0.10990171,6.917187,19.716982,10.860664,2.0515416,-5.9022536,7.951029,-14.244725,-11.515049,29.05226,-26.536415,7.792151,-1.0078361,-1.6961068,7.6720786,-3.4335253,24.608473,-3.6796665,32.618565,-20.27878,0.19012652,-4.784343,-16.029884,-19.730886,14.761845,34.39868,17.971024,9.808748,-15.522326
72,-5.320134162902832,15.2145357131958,76.36400604248047,4.556569533688499,-12.276615961933382,-96.79557488247748,-0.10973981,7.1034184,19.811464,10.992138,2.0845358,-5.955913,7.7971687,-14.122524,-11.35331,29.286665,-26.528374,7.754209,-0.98237485,-1.5821729,7.7226315,-3.3099523,24.589746,-3.5643492,32.634098,-20.373388,0.18108118,-4.7989626,-16.221594,-19.719627,14.881226,34.43158,17.891993,9.957535,-15.492675
73,-5.36329984664917,15.354992866516113,76.33720397949219,4.517030817723418,-12.412302606893874,-96.93431116978552,-0.11408308,7.2903566,19.887012,11.175213,2.0873306,-6.0047603,7.675732,-14.0047655,-11.209986,29.524788,-26.522089,7.6867304,-0.96794224,-1.4633433,7.793998,-3.1937687,24.556135,-3.426918,32.642456,-20.43182,0.1748205,-4.8165026,-16.418665,-19.712168,15.018147,34.49003,17.849638,10.087132,-15.495183
74,-5.403270721435547,15.503144264221191,76.30619049072266,4.4745140977909,-12.567864409691824,-97.05602857109444,-0.12318859,7.480325,19.945719,11.407481,2.0612128,-6.0517507,7.5836644,-13.887356,-11.084062,29.763323,-26.51741,7.6008015,-0.94023085,-1.3440062,7.8852234,-3.1093948,24.520828,-3.2990508,32.657787,-20.46762,0.17068848,-4.8300295,-16.595766,-19.712147,15.142349,34.546444,17.832146,10.208074,-15.518536
75,-5.433001518249512,15.640867233276367,76.2775650024414,4.417293488775507,-12.729572178680455,-97.16141159359567,-0.15404874,7.685966,19.985874,11.69047,2.0069616,-6.1042976,7.5076966,-13.758068,-10.9741535,29.990509,-26.500257,7.498,-0.93205523,-1.2058997,7.988753,-3.0144625,24.472519,-3.1441123,32.647495,-20.47259,0.16787806,-4.8377333,-16.778782,-19.716343,15.273603,34.603493,17.833612,10.323302,-15.539603
76,-5.459326267242432,15.779064178466797,76.24996948242188,4.337650056287197,-12.883722235761514,-97.25106330593727,-0.22373617,7.920001,20.005426,12.026139,1.9251207,-6.1699376,7.43509,-13.604831,-10.879652,30.193642,-26.455887,7.380071,-0.9427807,-1.0368878,8.095392,-2.9112134,24.40968,-2.9736927,32.61126,-20.446867,0.16342068,-4.8309526,-16.958605,-19.72461,15.387527,34.64211,17.837357,10.437495,-15.528002
77,-5.493049144744873,15.93503475189209,76.21822357177734,4.237001203100352,-13.030893352931622,-97.32786818675115,-0.32750955,8.17736,20.007519,12.405584,1.825023,-6.242153,7.362673,-13.428306,-10.795592,30.376541,-26.38088,7.243761,-0.9686435,-0.835025,8.20912,-2.8026078,24.323586,-2.7857423,32.545845,-20.372412,0.15618044,-4.804725,-17.134554,-19.739704,15.473338,34.66205,17.843048,10.54714,-15.465084
78,-5.519689559936523,16.078758239746094,76.18994140625,4.120428302033473,-13.176955811988755,-97.3905244194085,-0.45807642,8.453486,19.991842,12.828509,1.704493,-6.3200755,7.2979646,-13.234536,-10.724249,30.54293,-26.282845,7.0892158,-0.99096155,-0.61419535,8.333069,-2.7119474,24.234884,-2.6056662,32.46865,-20.26649,0.14768305,-4.7618647,-17.28638,-19.759687,15.517711,34.654163,17.853027,10.652146,-15.365862
79,-5.539541244506836,16.214982986450195,76.16207885742188,3.9789794110092807,-13.316053607026852,-97.4341470323138,-0.62490845,8.758964,19.951843,13.2999935,1.5517875,-6.419778,7.240317,-13.01435,-10.67465,30.684547,-26.165514,6.9226127,-1.0083455,-0.38174593,8.455309,-2.6460342,24.17372,-2.4567585,32.394386,-20.174,0.13942763,-4.707515,-17.405783,-19.775812,15.523952,34.61026,17.861952,10.761683,-15.256144
80,-5.557747840881348,16.361143112182617,76.13226318359375,3.802660380615155,-13.442497515098355,-97.45340379394187,-0.839405,9.105984,19.88058,13.830012,1.3526161,-6.5576816,7.1900144,-12.756109,-10.656601,30.79076,-26.031328,6.7501235,-1.0535681,-0.11157453,8.567471,-2.5687337,24.102674,-2.3023312,32.309616,-20.09857,0.13050418,-4.65057,-17.521927,-19.796345,15.539463,34.544415,17.868822,10.885045,-15.16854
81,-5.582495212554932,16.513368606567383,76.10073852539062,3.5956737187633823,-13.558710951900219,-97.45327093806804,-1.0977988,9.48714,19.779055,14.415786,1.1154345,-6.734001,7.143257,-12.467912,-10.665784,30.870575,-25.878098,6.574581,-1.10706,0.18901633,8.675424,-2.5050662,24.037458,-2.1655178,32.22887,-20.063818,0.11932683,-4.5857706,-17.625177,-19.818562,15.547073,34.441765,17.872696,11.034349,-15.116227
82,-5.601566791534424,16.662416458129883,76.06922912597656,3.363562492382359,-13.666460524191237,-97.43512867303363,-1.3918262,9.894541,19.651182,15.045292,0.84698665,-6.9423256,7.101352,-12.152139,-10.69924,30.925001,-25.70515,6.392496,-1.1602441,0.50804263,8.779872,-2.4685662,23.992317,-2.0567367,32.16132,-20.062218,0.10614268,-4.5115433,-17.704618,-19.83605,15.531667,34.30189,17.874596,11.2006,-15.08116
83,-5.630346775054932,16.807323455810547,76.03801727294922,3.096872210550591,-13.75946141715658,-97.38739960634913,-1.725136,10.33759,19.494333,15.713548,0.52991056,-7.189021,7.0713773,-11.798908,-10.766353,30.937012,-25.520115,6.201621,-1.2404544,0.85046864,8.867702,-2.410249,23.952759,-1.9529974,32.07334,-20.065275,0.09571977,-4.4349437,-17.771051,-19.85395,15.5153,34.148205,17.872099,11.363938,-15.042748
84,-5.6565656661987305,16.940475463867188,76.00545501708984,2.789625643049492,-13.830710128399184,-97.2996070380838,-2.100387,10.824383,19.307243,16.41406,0.14771144,-7.479816,7.060407,-11.39895,-10.875418,30.889696,-25.331215,5.999779,-1.3471105,1.2085714,8.91093,-2.3562124,23.930763,-1.888505,32.01326,-20.06883,0.086112715,-4.358292,-17.80571,-19.86545,15.497217,33.999454,17.864262,11.501252,-14.982443
85,-5.6880903244018555,17.076597213745117,75.97099304199219,2.428151708504775,-13.868255669915154,-97.16315437433983,-2.5453749,11.358447,19.049261,17.137285,-0.29848638,-7.8257084,7.0538273,-10.935057,-11.031972,30.790447,-25.146294,5.775782,-1.4947913,1.5960389,8.902538,-2.2834525,23.92057,-1.8499439,31.958162,-20.052109,0.08229415,-4.283536,-17.810541,-19.87357,15.482931,33.84876,17.838333,11.614831,-14.8954735
86,-5.7308030128479,17.20949363708496,75.93956756591797,2.022862725440423,-13.878822105168412,-96.98639880117578,-3.0485895,11.92978,18.735973,17.889286,-0.80405354,-8.220809,7.0550694,-10.419055,-11.22935,30.643549,-24.959755,5.5348287,-1.674587,2.0080497,8.855985,-2.201663,23.924656,-1.8355093,31.910112,-20.028122,0.08202478,-4.2093444,-17.789507,-19.877108,15.469167,33.690086,17.800734,11.713345,-14.792168
87,-5.770999431610107,17.327590942382812,75.91487884521484,1.6000790529109727,-13.883870456924859,-96.78362616564924,-3.549852,12.525897,18.451801,18.67728,-1.3792766,-8.644256,7.0985103,-9.885905,-11.458119,30.425451,-24.75768,5.299564,-1.8726388,2.41771,8.788754,-2.120118,23.936638,-1.8454393,31.879944,-20.018759,0.0793238,-4.1341333,-17.75133,-19.875443,15.455452,33.546665,17.770432,11.786788,-14.674827
88,-5.815616607666016,17.42657470703125,75.8965072631836,1.1901419308439505,-13.904116223965453,-96.56864337030603,-3.9979222,13.141354,18.27974,19.52463,-2.0333166,-9.07406,7.214778,-9.368463,-11.708739,30.116884,-24.527523,5.092359,-2.0544572,2.7734642,8.722126,-2.0484674,24.008614,-1.9040152,31.861324,-20.074501,0.07317155,-4.062564,-17.662575,-19.85764,15.398604,33.399055,17.76021,11.826906,-14.532415
89,-5.85706090927124,17.516525268554688,75.8907470703125,0.7916444626771862,-13.94127236134567,-96.3271034266131,-4.379383,13.784141,18.273127,20.387796,-2.7912164,-9.551236,7.4223995,-8.869276,-11.997,29.694519,-24.26247,4.9215946,-2.2452703,3.0809917,8.644251,-1.9878142,24.112396,-2.0058408,31.87889,-20.200424,0.051302034,-3.9838557,-17.548285,-19.821514,15.327516,33.29021,17.798838,11.810704,-14.359743
90,-5.893157958984375,17.601186752319336,75.8970718383789,0.3928213426867185,-13.984824569460772,-96.05699628644695,-4.722972,14.457734,18.381483,21.273937,-3.6419842,-10.069301,7.7007537,-8.372737,-12.320422,29.173283,-23.969433,4.7757964,-2.4528883,3.361953,8.550534,-1.9249676,24.230057,-2.137841,31.91778,-20.36935,0.018089687,-3.900013,-17.412838,-19.774582,15.250288,33.21003,17.870197,11.750387,-14.162118
91,-5.931182384490967,17.684934616088867,75.90821075439453,0.0038196652304846607,-14.03779648180979,-95.79009242095225,-5.0545096,15.154833,18.52481,22.311926,-4.5438414,-10.535275,8.023855,-7.883343,-12.6430235,28.588306,-23.654196,4.6468935,-2.6478713,3.615925,8.457665,-1.8764762,24.36764,-2.2890692,31.972958,-20.551172,-0.010360372,-3.8286037,-17.26866,-19.711231,15.155294,33.149002,17.924929,11.68378,-13.964842
92,-5.968058109283447,17.76755714416504,75.9205093383789,-0.36722988349860114,-14.104039184277056,-95.55839823496987,-5.388703,15.864893,18.619226,23.604683,-5.447426,-10.8576,8.364909,-7.4047546,-12.929568,27.976963,-23.323467,4.5260816,-2.8094451,3.8532283,8.382238,-1.8507959,24.5115,-2.4365907,32.03647,-20.705498,-0.01903001,-3.786348,-17.142206,-19.629904,15.04492,33.10966,17.917152,11.648305,-13.7960205
93,-5.998220443725586,17.841588973999023,75.93911743164062,-0.7267317405359183,-14.189705063381291,-95.36132844899586,-5.735166,16.617239,18.675026,25.208622,-6.3294683,-11.006351,8.738438,-6.9269776,-13.183268,27.32013,-22.966982,4.4105754,-2.9394085,4.0847816,8.328244,-1.8580438,24.65994,-2.5864332,32.121666,-20.823807,-0.00370323,-3.7778478,-17.042238,-19.527002,14.9191265,33.100418,17.815117,11.6584215,-13.667294
94,-6.016692161560059,17.921186447143555,75.96133422851562,-1.0789797370013354,-14.291394078047318,-95.18462495722216,-6.07654,17.414831,18.71758,27.04165,-7.2104177,-11.02896,9.150866,-6.4477696,-13.418556,26.607433,-22.583525,4.304323,-3.0484905,4.30777,8.285959,-1.8893572,24.813889,-2.7443056,32.227367,-20.923605,0.027252773,-3.7937114,-16.958002,-19.401167,14.779322,33.121326,17.649576,11.692167,-13.563141
95,-6.0336432456970215,17.994382858276367,75.98748016357422,-1.413636194990077,-14.399125214350438,-95.03950804679401,-6.3877263,18.202734,18.685268,28.997202,-8.10533,-10.952487,9.56948,-5.982673,-13.617791,25.877668,-22.19218,4.208362,-3.1304564,4.5076594,8.249411,-1.9257112,24.969545,-2.8885295,32.32729,-21.006536,0.07030607,-3.8288088,-16.889297,-19.257864,14.631214,33.168865,17.461317,11.731422,-13.470138
96,-6.047613143920898,18.062828063964844,76.01644897460938,-1.7183432347598084,-14.502896901085812,-94.93693891026295,-6.6456423,18.91859,18.520716,30.970856,-9.032265,-10.808576,9.95765,-5.5494714,-13.764087,25.180525,-21.813517,4.1239805,-3.1789794,4.672371,8.213192,-1.9470488,25.11971,-2.9955688,32.393246,-21.07242,0.12168683,-3.8786936,-16.83172,-19.104593,14.4799385,33.23345,17.292631,11.75893,-13.37555
97,-6.057769775390625,18.135047912597656,76.04315948486328,-1.9927239782487194,-14.606189135945712,-94.88034185676449,-6.8620553,19.565762,18.198395,33.011986,-10.031189,-10.550708,10.323399,-5.1446853,-13.853279,24.50372,-21.442623,4.047277,-3.1878242,4.8047614,8.180983,-1.9572346,25.258589,-3.0561783,32.42556,-21.109957,0.18718769,-3.956602,-16.778337,-18.943727,14.312424,33.309875,17.151337,11.768862,-13.272
98,-6.055819034576416,18.19815444946289,76.0727310180664,-2.2433289099762406,-14.712900604980982,-94.86372615882784,-7.0415316,20.167091,17.750338,35.14197,-11.079521,-10.182503,10.681297,-4.7613063,-13.895259,23.829762,-21.071272,3.9789944,-3.1619914,4.913982,8.153923,-1.9641378,25.385637,-3.0828462,32.436924,-21.12015,0.26604658,-4.060105,-16.73272,-18.776093,14.1321535,33.401955,17.018034,11.771482,-13.167903
99,-6.039529800415039,18.259719848632812,76.09745025634766,-2.4648987859743885,-14.813557375480167,-94.88421921823586,-7.163402,20.686121,17.208914,37.246967,-12.105544,-9.813901,11.000001,-4.4148912,-13.894509,23.208004,-20.720896,3.9272301,-3.112366,4.995568,8.122856,-1.9524225,25.500963,-3.083736,32.41717,-21.1225,0.34492847,-4.160856,-16.704319,-18.6088,13.968847,33.51227,16.893614,11.772933,-13.074084
100,-6.020601272583008,18.326196670532227,76.12191009521484,-2.650869397076809,-14.898390870069317,-94.93866982963492,-7.2096477,21.087421,16.61085,39.222122,-13.040967,-9.555536,11.248054,-4.121734,-13.8562,22.686646,-20.412094,3.899803,-3.050146,5.0459814,8.079969,-1.9057318,25.604282,-3.0659692,32.35393,-21.136421,0.41077593,-4.2309427,-16.702253,-18.451971,13.853765,33.64085,16.782436,11.779673,-13.001134
101,-5.996930122375488,18.394311904907227,76.13723754882812,-2.79203938575063,-14.966154641188952,-95.0366847604418,-7.1774073,21.354502,15.953699,41.08125,-13.889433,-9.430069,11.409167,-3.8941028,-13.769726,22.29275,-20.15607,3.8990808,-2.969572,5.0583844,8.023855,-1.8170623,25.69314,-3.023952,32.235615,-21.167768,0.46360952,-4.256771,-16.727743,-18.311218,13.795619,33.787273,16.678867,11.802826,-12.957438
102,-5.9585113525390625,18.452285766601562,76.15487670898438,-2.8946706965504863,-15.021750486342592,-95.1764270431289,-7.0768366,21.506104,15.229203,42.87679,-14.684591,-9.384333,11.500658,-3.721975,-13.637878,21.999762,-19.941805,3.9203103,-2.8672202,5.0395417,7.9597397,-1.6959376,25.765596,-2.9557726,32.070103,-21.205524,0.5091002,-4.255671,-16.772892,-18.186884,13.778062,33.946136,16.586226,11.836677,-12.935158
103,-5.911865711212158,18.50945472717285,76.16947174072266,-2.9733342384995947,-15.064343075824375,-95.33785214883841,-6.9108458,21.562578,14.467573,44.56885,-15.406254,-9.414494,11.54112,-3.5876489,-13.483935,21.776052,-19.756845,3.9605331,-2.749824,5.013267,7.8903537,-1.5623513,25.812822,-2.883557,31.88213,-21.242182,0.5417056,-4.245553,-16.816456,-18.100538,13.788128,34.092953,16.524181,11.86412,-12.918874
104,-5.854106426239014,18.566959381103516,76.17558288574219,-3.0479343501015794,-15.093707530327626,-95.49989740000932,-6.6827326,21.544703,13.697668,46.116302,-16.034182,-9.515505,11.548355,-3.4743898,-13.331267,21.59274,-19.590256,4.016789,-2.644212,4.9787965,7.815992,-1.4075586,25.856346,-2.8067396,31.6787,-21.277668,0.55960244,-4.2467294,-16.873539,-18.022692,13.826094,34.245403,16.49794,11.863141,-12.896851
105,-5.786582946777344,18.619728088378906,76.17943572998047,-3.1129835592762083,-15.112764110784218,-95.6673390879177,-6.381539,21.438473,12.908616,47.514748,-16.55057,-9.72348,11.523949,-3.3865721,-13.17785,21.451317,-19.443468,4.096362,-2.543195,4.937037,7.740194,-1.2323073,25.896448,-2.733626,31.459955,-21.319723,0.55852455,-4.2679996,-16.94134,-17.964539,13.897821,34.400524,16.520666,11.821978,-12.870368
106,-5.712947368621826,18.674983978271484,76.18122100830078,-3.1623566542192116,-15.120676016460301,-95.84779907620114,-6.0082736,21.239946,12.094983,48.78929,-16.97447,-10.03005,11.458833,-3.3295276,-13.013848,21.364965,-19.321602,4.19824,-2.4067197,4.897203,7.6581445,-1.0872759,25.911098,-2.7027545,31.258213,-21.363522,0.53677464,-4.291202,-16.979013,-17.954075,13.966666,34.524113,16.581427,11.757824,-12.838174
107,-5.63183069229126,18.73097801208496,76.17884063720703,-3.2102702942331356,-15.111373641211246,-96.02562949126941,-5.581641,20.986519,11.290478,49.93201,-17.33352,-10.361597,11.356814,-3.2881863,-12.851687,21.318552,-19.216585,4.3069406,-2.2973008,4.850612,7.5711293,-0.9031704,25.92451,-2.6454034,31.021873,-21.40206,0.5080494,-4.3159246,-17.03376,-17.955812,14.070057,34.647686,16.673582,11.683737,-12.801088
108,-5.546732425689697,18.788040161132812,76.17266845703125,-3.2688462008457604,-15.078517638346744,-96.18736964650806,-5.1211815,20.71814,10.527414,50.933105,-17.652924,-10.642973,11.22066,-3.2457485,-12.702361,21.298723,-19.120945,4.4066286,-2.2068286,4.809415,7.4718976,-0.72323525,25.928131,-2.58295,30.786816,-21.416737,0.47616634,-4.3272505,-17.072058,-17.970474,14.16363,34.741154,16.773674,11.620782,-12.746117
109,-5.452335834503174,18.84214973449707,76.16023254394531,-3.3464698610176167,-15.01431528167413,-96.3294469369877,-4.649691,20.440046,9.784051,51.837322,-17.906261,-10.855456,11.044211,-3.193353,-12.569689,21.300806,-19.030306,4.492967,-2.1507316,4.7857447,7.3556266,-0.5237764,25.913246,-2.4995692,30.530804,-21.40111,0.44429615,-4.3227715,-17.101568,-18.011774,14.265258,34.802902,16.885475,11.574037,-12.6683035
110,-5.350881576538086,18.89406967163086,76.14810180664062,-3.436382639652614,-14.924574581984405,-96.45947657285221,-4.1494875,20.134892,9.051167,52.631462,-18.088293,-11.03758,10.829261,-3.1397989,-12.447294,21.330107,-18.948204,4.574307,-2.0972836,4.7760954,7.219391,-0.34609488,25.8738,-2.4348035,30.291227,-21.360638,0.4041341,-4.3016887,-17.108057,-18.080017,14.35244,34.83507,17.00628,11.534361,-12.570117
111,-5.240344524383545,18.945758819580078,76.13209533691406,-3.5269720349175944,-14.822654813564329,-96.5788332497701,-3.586921,19.811996,8.374005,53.22496,-18.257107,-11.197575,10.58824,-3.0974429,-12.332118,21.393421,-18.88129,4.6541877,-2.0459902,4.7725935,7.0815387,-0.19160075,25.809765,-2.377421,30.069735,-21.296503,0.3552526,-4.2709613,-17.091387,-18.17268,14.421475,34.834446,17.14311,11.499265,-12.46361
112,-5.119545936584473,18.986753463745117,76.11316680908203,-3.6089170245327664,-14.722472524443575,-96.68764721860413,-2.9282572,19.482265,7.796872,53.525105,-18.469606,-11.3417015,10.33349,-3.0776184,-12.221162,21.496365,-18.83523,4.7358584,-1.9944209,4.761338,6.9576554,-0.06658238,25.729221,-2.3208027,29.87404,-21.211962,0.2969428,-4.2366033,-17.054644,-18.274628,14.462932,34.806084,17.297304,11.465178,-12.360323
113,-4.9938764572143555,19.030738830566406,76.0935287475586,-3.6904008267592077,-14.624380880623505,-96.7855022255023,-2.158563,19.148056,7.306172,53.570812,-18.705324,-11.448754,10.067162,-3.072449,-12.114457,21.635874,-18.810503,4.817719,-1.9444947,4.7522855,6.8489904,0.033954494,25.622692,-2.2558155,29.701479,-21.108175,0.22379364,-4.202164,-16.996256,-18.391645,14.477108,34.743496,17.48459,11.437729,-12.264271
114,-4.861002445220947,19.073619842529297,76.06742095947266,-3.7712306796117496,-14.522226720602154,-96.87222856742034,-1.300571,18.806683,6.881401,53.3897,-18.943832,-11.520345,9.782869,-3.078984,-12.013299,21.810135,-18.803673,4.8986588,-1.8998829,4.744619,6.7472496,0.11459143,25.494768,-2.1855476,29.548523,-20.984274,0.13825807,-4.163586,-16.922548,-18.519373,14.470213,34.655884,17.696619,11.415811,-12.169878
115,-4.72219705581665,19.118864059448242,76.04035949707031,-3.837586451109577,-14.418908488731208,-96.94930206014106,-0.379526,18.46275,6.5553393,52.87352,-19.243029,-11.596503,9.481942,-3.1146965,-11.916651,22.024712,-18.815607,4.98224,-1.8602399,4.724585,6.658341,0.17112128,25.351744,-2.1158462,29.41486,-20.832716,0.051012505,-4.117263,-16.834972,-18.655422,14.446464,34.54883,17.907717,11.3880415,-12.073147
116,-4.580255031585693,19.161670684814453,76.00798034667969,-3.8743359672611217,-14.317076450428171,-97.0175587382831,0.5801684,18.118263,6.3617253,51.911472,-19.659527,-11.7173,9.165193,-3.198082,-11.823235,22.284546,-18.84619,5.072496,-1.8242182,4.676879,6.588043,0.19784442,25.203447,-2.054535,29.301373,-20.647999,-0.027085422,-4.059695,-16.733368,-18.793983,14.407537,34.426453,18.092205,11.342851,-11.969941
117,-4.433465480804443,19.202903747558594,75.97369384765625,-3.8878417091678252,-14.210760510050475,-97.07677411058496,1.5997361,17.773914,6.291487,50.322437,-20.263136,-11.964168,8.826561,-3.320156,-11.734532,22.590437,-18.89344,5.169928,-1.7930322,4.6047606,6.532065,0.19304399,25.05229,-1.9978557,29.20558,-20.411173,-0.09320814,-3.9775012,-16.617472,-18.932331,14.352957,34.29113,18.237432,11.277154,-11.8484535
118,-4.283623218536377,19.24590492248535,75.94203186035156,-3.8825111101776195,-14.100282125598344,-97.12609364095873,2.6848662,17.42133,6.332928,48.204697,-20.9991,-12.29554,8.466546,-3.4767387,-11.650358,22.94149,-18.959066,5.2728224,-1.7678031,4.51014,6.4883537,0.16138656,24.898026,-1.9428554,29.126818,-20.133005,-0.15233058,-3.8768578,-16.488935,-19.070112,14.281973,34.14241,18.35817,11.196648,-11.714405
119,-4.125179290771484,19.287504196166992,75.9194107055664,-3.834274614552909,-13.997579769226972,-97.1670423590848,3.7868052,17.046757,6.5139966,45.87224,-21.742607,-12.566257,8.100338,-3.6922734,-11.566435,23.331535,-19.044344,5.3818507,-1.7462558,4.3743863,6.4676538,0.10574981,24.749258,-1.8998607,29.068047,-19.853876,-0.20537905,-3.783964,-16.348791,-19.202295,14.194081,33.979347,18.469063,11.102961,-11.589546
120,-3.9739396572113037,19.329864501953125,75.90896606445312,-3.720657400460542,-13.915050752142081,-97.20108266716502,4.8545194,16.636143,6.858516,43.645405,-22.374113,-12.626761,7.7413387,-3.991793,-11.477485,23.758625,-19.15235,5.4976926,-1.7256383,4.1750546,6.4805408,0.029577238,24.619833,-1.8800623,29.032265,-19.617027,-0.25321314,-3.7251773,-16.199106,-19.321362,14.087906,33.802734,18.583181,10.997469,-11.495461
121,-3.8212337493896484,19.370838165283203,75.90479278564453,-3.5376958350274483,-13.862101571946518,-97.22584871113774,5.8805857,16.204523,7.424036,41.5786,-22.91298,-12.390847,7.403911,-4.3776913,-11.385505,24.221573,-19.285822,5.6238246,-1.7103782,3.9044404,6.53613,-0.06713122,24.519718,-1.8862591,29.023108,-19.429285,-0.2974207,-3.7123387,-16.04254,-19.42056,13.963514,33.615128,18.724741,10.871916,-11.440425
122,-3.6692049503326416,19.419782638549805,75.905517578125,-3.2951546001513847,-13.830593357484787,-97.24221446159866,6.8872275,15.740988,8.175487,39.515675,-23.411453,-11.951687,7.0783305,-4.8405046,-11.289756,24.72028,-19.441978,5.7593126,-1.699414,3.5667865,6.6265836,-0.18507127,24.4501,-1.9136087,29.037237,-19.274534,-0.33656648,-3.7303977,-15.878575,-19.49695,13.819726,33.418003,18.877459,10.727725,-11.411719
123,-3.5108776092529297,19.471145629882812,75.90477752685547,-2.985330834137086,-13.806213626731944,-97.25739856735345,7.864236,15.197682,8.994409,37.46501,-23.801203,-11.4260235,6.7393613,-5.387215,-11.179898,25.25914,-19.617441,5.898368,-1.6915735,3.1526413,6.736745,-0.30645627,24.41816,-1.9487611,29.0561,-19.161102,-0.36560163,-3.7674587,-15.718607,-19.53751,13.665199,33.22427,18.9946,10.578693,-11.401629
124,-3.358013868331909,19.533100128173828,75.91217803955078,-2.604364337476286,-13.774061132258263,-97.27820890200114,8.803146,14.533267,9.763755,35.429035,-24.010012,-10.932203,6.3647933,-6.022439,-11.045858,25.835983,-19.805994,6.0351486,-1.661794,2.671029,6.852474,-0.44737944,24.407627,-2.0070164,29.083612,-19.090136,-0.382678,-3.807146,-15.541089,-19.560534,13.483473,33.013752,19.033794,10.443565,-11.398036
125,-3.1912784576416016,19.591554641723633,75.92882537841797,-2.139314824862873,-13.745045656158567,-97.30089946638934,9.727456,13.7253,10.511404,33.387535,-24.01159,-10.474028,5.9602532,-6.767739,-10.885077,26.467611,-20.019043,6.167453,-1.6172199,2.1085353,6.9884496,-0.61100507,24.417715,-2.0841558,29.126373,-19.074034,-0.38470128,-3.8508165,-15.35331,-19.563429,13.269607,32.78608,18.964186,10.326522,-11.396443
126,-3.0368638038635254,19.673940658569336,75.9537353515625,-1.593325859219578,-13.721672416131213,-97.324036729655,10.632869,12.7998,11.277749,31.33437,-23.840858,-9.996238,5.5369816,-7.613933,-10.699415,27.142714,-20.252048,6.299675,-1.5277166,1.460328,7.1441894,-0.8402517,24.46527,-2.2260487,29.216429,-19.114857,-0.37578747,-3.8982282,-15.123083,-19.543158,12.982343,32.524063,18.80439,10.221032,-11.39542
127,-2.866651773452759,19.755903244018555,75.9920883178711,-0.9961174248660615,-13.676547691456289,-97.35601120770585,11.480802,11.791289,11.972191,29.278063,-23.510323,-9.534572,5.0811844,-8.516656,-10.486025,27.813715,-20.475214,6.4353786,-1.4260911,0.75679374,7.2899084,-1.0574168,24.546335,-2.3720756,29.287245,-19.18651,-0.3568662,-3.953018,-14.887518,-19.496256,12.700301,32.261417,18.617437,10.119352,-11.41361
128,-2.687743902206421,19.831392288208008,76.04960632324219,-0.3752368616100179,-13.581463199049484,-97.40447338833849,12.23924,10.735358,12.509104,27.227116,-23.03353,-9.12977,4.5733485,-9.430868,-10.242416,28.443747,-20.65865,6.5772867,-1.3073963,0.03185131,7.3935366,-1.2395242,24.652275,-2.5128918,29.311575,-19.262003,-0.33251008,-4.010353,-14.641686,-19.43067,12.448554,32.002842,18.453455,10.018202,-11.460188
129,-2.5152721405029297,19.920488357543945,76.11145782470703,0.2987275023380581,-13.430802496943217,-97.4692554822128,12.946204,9.57148,12.851768,25.089163,-22.336092,-8.811828,3.992575,-10.396846,-9.956149,29.056948,-20.8152,6.726638,-1.1629014,-0.7447921,7.4541874,-1.3916903,24.782051,-2.6548405,29.285309,-19.329792,-0.29838198,-4.068597,-14.36498,-19.346924,12.206864,31.720026,18.30607,9.939236,-11.545194
130,-2.3551502227783203,20.00473976135254,76.17875671386719,1.021769706831693,-13.236796041918547,-97.54320450074799,13.626455,8.304262,13.056358,22.858168,-21.422728,-8.561858,3.3545663,-11.413035,-9.631453,29.655176,-20.949343,6.8807797,-0.9977224,-1.5699044,7.486356,-1.5280277,24.935802,-2.803877,29.225655,-19.404308,-0.2543057,-4.129472,-14.063914,-19.245275,11.96781,31.417578,18.155346,9.877654,-11.66015
131,-2.192437171936035,20.09123992919922,76.24469757080078,1.7116141071136743,-12.998718815044922,-97.62365299424813,14.214183,7.0737233,13.180673,20.711414,-20.43989,-8.345734,2.6921313,-12.372276,-9.293317,30.173086,-21.02729,7.035526,-0.8260631,-2.3602765,7.4799542,-1.6397679,25.110928,-2.953999,29.137943,-19.499018,-0.21128237,-4.1932926,-13.76625,-19.13546,11.770676,31.143862,18.03004,9.790422,-11.786548
132,-2.0258021354675293,20.184804916381836,76.30738067626953,2.2876763489493093,-12.718209710571374,-97.70945407108832,14.632614,6.0172944,13.287783,18.844646,-19.545416,-8.126969,2.0404394,-13.174587,-8.970452,30.545086,-21.015173,7.1872497,-0.6611565,-3.0352633,7.4271517,-1.7158625,25.302025,-3.096151,29.024654,-19.62673,-0.18021761,-4.2613053,-13.499327,-19.031439,11.657543,30.94403,17.96308,9.634079,-11.906249
133,-1.8658946752548218,20.27989387512207,76.37237548828125,2.7431855126975395,-12.37626640255881,-97.80567240514804,14.811869,5.1631556,13.380571,17.360033,-18.773474,-7.8870625,1.3743672,-13.806623,-8.658857,30.77133,-20.908485,7.334143,-0.50218946,-3.578112,7.306915,-1.7453372,25.508476,-3.2320952,28.878029,-19.796028,-0.17074475,-4.3429985,-13.248203,-18.941092,11.640097,30.819532,17.957548,9.376109,-12.019842
134,-1.7054375410079956,20.3670597076416,76.43720245361328,3.1167002207012224,-11.980241699074982,-97.91220517583858,14.798966,4.4394727,13.441514,16.170109,-18.060675,-7.6438203,0.68544656,-14.319995,-8.34941,30.8862,-20.726639,7.477777,-0.34350368,-4.029698,7.1322546,-1.7365962,25.729143,-3.364049,28.698349,-19.99786,-0.17476852,-4.435494,-13.001626,-18.865421,11.696925,30.743599,18.00175,9.046917,-12.134915
135,-1.5551815032958984,20.449905395507812,76.49883270263672,3.409751910384014,-11.572186152789811,-98.02355319591112,14.682137,3.8358746,13.502723,15.19792,-17.42578,-7.4109716,0.026346952,-14.722621,-8.059727,30.89513,-20.481247,7.6210523,-0.18826964,-4.4006243,6.945676,-1.7052318,25.954676,-3.482574,28.498156,-20.214622,-0.17698993,-4.5211287,-12.791098,-18.808767,11.819845,30.718292,18.104704,8.698153,-12.243326
136,-1.4094163179397583,20.5417423248291,76.55775451660156,3.623036728942115,-11.193109687693967,-98.13449071923701,14.542131,3.348267,13.590664,14.373115,-16.886946,-7.2034593,-0.5493658,-15.0189905,-7.8097215,30.802475,-20.183924,7.7666802,-0.040734023,-4.697966,6.7891126,-1.6659501,26.171291,-3.5758216,28.290783,-20.427004,-0.16261151,-4.581985,-12.650029,-18.777884,12.003459,30.747042,18.275373,8.381307,-12.337441
137,-1.2689661979675293,20.633060455322266,76.6111068725586,3.7448248938930546,-10.841162762752369,-98.2556612493311,14.355257,3.0109754,13.716815,13.73601,-16.470785,-7.024409,-1.040349,-15.189882,-7.5985775,30.593554,-19.822704,7.9093313,0.10806645,-4.9028635,6.6609173,-1.6225095,26.372803,-3.645396,28.077925,-20.64695,-0.12884459,-4.6073484,-12.592282,-18.781336,12.266637,30.84843,18.533976,8.09465,-12.4204
138,-1.1340371370315552,20.729644775390625,76.66641998291016,3.784501031488686,-10.500276817759442,-98.3892445611088,14.079982,2.8174322,13.864614,13.326256,-16.169998,-6.8614035,-1.472927,-15.248845,-7.4169106,30.281153,-19.401588,8.050969,0.26010075,-5.0182934,6.544051,-1.568368,26.55812,-3.6952286,27.85488,-20.875391,-0.08424057,-4.608594,-12.595386,-18.82032,12.606628,31.01029,18.87225,7.816234,-12.493915
139,-0.9989268183708191,20.831050872802734,76.71774291992188,3.7755592793973816,-10.190409453509927,-98.5165290801904,13.779971,2.7055833,14.015655,13.048033,-15.938102,-6.7090497,-1.8267622,-15.245829,-7.274864,29.892008,-18.946047,8.2049265,0.39981842,-5.0838594,6.4558535,-1.5007764,26.720697,-3.715951,27.625269,-21.074984,-0.03140121,-4.6002674,-12.6472435,-18.891644,12.988789,31.199022,19.257286,7.5670166,-12.548696
140,-0.8789982795715332,20.933778762817383,76.76713562011719,3.751747893740988,-9.930723256068394,-98.61794811911182,13.517286,2.616124,14.151368,12.809828,-15.730963,-6.5633225,-2.084859,-15.232514,-7.18063,29.458567,-18.484783,8.384535,0.51199603,-5.13577,6.41376,-1.4185467,26.850977,-3.6992528,27.393917,-21.207087,0.027094191,-4.596596,-12.734612,-18.98803,13.376657,31.380407,19.655304,7.3680634,-12.57645
141,-0.7643831968307495,21.03251075744629,76.81527709960938,3.7083850056900434,-9.732615231842821,-98.68965651121461,13.301278,2.5560367,14.274256,12.618619,-15.550941,-6.4237485,-2.2261012,-15.209514,-7.1428742,28.968845,-18.010542,8.594785,0.58760446,-5.1737566,6.4293056,-1.3151525,26.94305,-3.6294177,27.154657,-21.245764,0.09697097,-4.60692,-12.876417,-19.109818,13.783835,31.561913,20.079733,7.224097,-12.5774765
142,-0.6538562178611755,21.128841400146484,76.85990905761719,3.636889229980462,-9.58393722300287,-98.74243409974311,13.099428,2.553352,14.389953,12.516444,-15.416928,-6.2920437,-2.2639751,-15.156194,-7.1543384,28.40956,-17.515095,8.828395,0.6384133,-5.1823316,6.487247,-1.2007647,26.995358,-3.5202143,26.91845,-21.211634,0.17586902,-4.619224,-13.079967,-19.250334,14.219846,31.769445,20.53465,7.123455,-12.556765
143,-0.5427578687667847,21.2165470123291,76.89928436279297,3.5525275836062065,-9.468376591524368,-98.77741367290949,12.9084,2.578623,14.485308,12.468947,-15.312918,-6.1678796,-2.2388957,-15.095559,-7.1961718,27.8245,-17.023132,9.079783,0.6673223,-5.1696973,6.57467,-1.0684036,27.015478,-3.3807938,26.67932,-21.143827,0.2530026,-4.62489,-13.306453,-19.422731,14.662284,31.965157,20.994274,7.065938,-12.514062
144,-0.4371700882911682,21.301143646240234,76.93897247314453,3.4735830848830394,-9.369523416952882,-98.79587458056378,12.727482,2.5987375,14.547757,12.435871,-15.221586,-6.0503235,-2.1899226,-15.044672,-7.252,27.252905,-16.558437,9.342979,0.7013128,-5.152642,6.6658444,-0.9616296,27.004288,-3.2663891,26.485403,-21.07298,0.31182465,-4.602025,-13.518884,-19.602615,15.053849,32.146507,21.401337,7.048567,-12.447544
145,-0.3370456099510193,21.380271911621094,76.97245788574219,3.3977678879666238,-9.287703532465828,-98.7942247279292,12.551517,2.6118994,14.569245,12.425684,-15.148655,-5.9425607,-2.109739,-15.005773,-7.328677,26.685923,-16.121128,9.638145,0.739362,-5.136198,6.7606544,-0.87815243,26.965582,-3.1767812,26.338682,-21.003908,0.34770775,-4.5394735,-13.722575,-19.78779,15.392673,32.31502,21.746172,7.0873547,-12.345553
146,-0.24462391436100006,21.467130661010742,77.00125885009766,3.318304878633112,-9.230087018285452,-98.77280539193913,12.384616,2.6303465,14.5584345,12.448553,-15.098309,-5.843676,-1.9830409,-14.967802,-7.431867,26.107054,-15.699995,9.960728,0.7757704,-5.114934,6.868155,-0.8113371,26.900959,-3.0991073,26.22869,-20.922054,0.36878756,-4.4479275,-13.931756,-19.978514,15.69596,32.478035,22.050865,7.1781306,-12.212928
147,-0.15454553067684174,21.5474910736084,77.02831268310547,3.242473245391113,-9.190191778320742,-98.73930467182403,12.234539,2.6445959,14.528027,12.477419,-15.056232,-5.7468166,-1.8375238,-14.935579,-7.542319,25.549858,-15.303395,10.268702,0.8136987,-5.089113,6.980661,-0.7643382,26.815607,-3.0405266,26.151718,-20.833769,0.3811885,-4.3449445,-14.126728,-20.168894,15.956378,32.631145,22.318024,7.287243,-12.074444
148,-0.07134374231100082,21.623388290405273,77.05303955078125,3.1768055794890473,-9.161895103164449,-98.70143525921489,12.115531,2.6433794,14.491406,12.471126,-15.000015,-5.6451306,-1.6993604,-14.914503,-7.641256,25.044746,-14.937578,10.520531,0.8580429,-5.061325,7.0906076,-0.74364984,26.71795,-3.0119112,26.107653,-20.747112,0.39089873,-4.2471876,-14.286471,-20.35041,16.163923,32.77092,22.547829,7.3807454,-11.954182
149,0.011963295750319958,21.684316635131836,77.07498931884766,3.119506307471361,-9.14894902543769,-98.657730236525,12.036368,2.6255195,14.445852,12.420295,-14.92915,-5.536875,-1.5639538,-14.902227,-7.730792,24.594158,-14.603888,10.71005,0.9076443,-5.032777,7.198626,-0.7483415,26.613104,-3.0202823,26.101522,-20.668097,0.3966555,-4.1555986,-14.405724,-20.516502,16.317385,32.895763,22.73553,7.449254,-11.854634
150,0.09095103293657303,21.751188278198242,77.09814453125,3.071145199285705,-9.152788665060813,-98.60563526700874,11.985834,2.5964339,14.386535,12.351201,-14.853906,-5.4256234,-1.4212791,-14.896678,-7.8194065,24.18418,-14.298624,10.858023,0.96032035,-5.006465,7.3071527,-0.77453935,26.502258,-3.0591936,26.13131,-20.59366,0.39666164,-4.0621157,-14.497892,-20.665945,16.420595,33.01315,22.879814,7.5099797,-11.763826
151,0.1692151576280594,21.816303253173828,77.11714935302734,3.0316756829853695,-9.164092345129571,-98.54949769770673,11.95292,2.553873,14.323597,12.263962,-14.771417,-5.3130746,-1.2921313,-14.903066,-7.898683,23.827095,-14.023185,10.963443,1.0202637,-4.9864516,7.411072,-0.82540494,26.388195,-3.1192744,26.18572,-20.518894,0.39610595,-3.9706714,-14.567063,-20.79681,16.469492,33.12844,22.98818,7.568847,-11.684364
152,0.23905488848686218,21.892471313476562,77.13213348388672,3.006148543952782,-9.173058277204495,-98.49471189292926,11.924309,2.4962475,14.267386,12.163446,-14.67975,-5.200692,-1.1978742,-14.923568,-7.960539,23.534723,-13.77857,11.024875,1.0919696,-4.977568,7.505253,-0.9040033,26.274431,-3.191563,26.253214,-20.439232,0.40013528,-3.8851395,-14.617922,-20.907057,16.460215,33.24792,23.06849,7.63214,-11.618751
153,0.3090742826461792,21.959102630615234,77.14887237548828,2.994039657977443,-9.182657028071663,-98.44683092465185,11.903746,2.4266021,14.22528,12.052144,-14.58113,-5.0876794,-1.1437604,-14.955506,-7.996525,23.318865,-13.569163,11.02121,1.1815153,-4.9800215,7.5943265,-1.0128995,26.166925,-3.2789738,26.334871,-20.36079,0.404867,-3.807535,-14.651861,-20.991325,16.386961,33.371662,23.122692,7.7009177,-11.586667
154,0.3776320815086365,22.022661209106445,77.16365814208984,2.991982230326138,-9.196033947116542,-98.40174743558737,11.895713,2.344561,14.190193,11.926942,-14.475391,-4.973726,-1.1182444,-14.997083,-8.014222,23.168556,-13.392187,10.95995,1.2704109,-5.0069737,7.679959,-1.1228956,26.090874,-3.3644881,26.410824,-20.296593,0.41326448,-3.7404048,-14.682966,-21.032202,16.267786,33.508606,23.148455,7.7695985,-11.581146
155,0.44091054797172546,22.085514068603516,77.17888641357422,3.0057514348820598,-9.204900258699626,-98.34971070922896,11.890772,2.2439628,14.150657,11.782708,-14.357059,-4.860729,-1.1203485,-15.059626,-8.026883,23.07104,-13.243737,10.883463,1.3891362,-5.0266776,7.7467685,-1.304274,25.971758,-3.4973881,26.543106,-20.203842,0.42476767,-3.6668885,-14.667772,-21.07805,16.068844,33.638474,23.134653,7.84289,-11.560448
156,0.5052012205123901,22.143619537353516,77.19223022460938,3.038893819286384,-9.20005669957652,-98.28084791426525,11.875622,2.1179905,14.094744,11.619472,-14.22273,-4.7506943,-1.1503563,-15.155035,-8.047428,23.01504,-13.119979,10.833868,1.4825201,-5.0731454,7.7870703,-1.4725524,25.862398,-3.604381,26.653448,-20.09645,0.46010554,-3.5991287,-14.650079,-21.100185,15.8473835,33.78832,23.089275,7.9148827,-11.489311
157,0.5670422315597534,22.201736450195312,77.20358276367188,3.1009754524659363,-9.175158170186993,-98.19488775448501,11.851018,1.9542071,14.022234,11.418477,-14.059856,-4.6407986,-1.2222989,-15.294662,-8.070884,23.013231,-13.026285,10.818835,1.5508791,-5.1561775,7.794241,-1.6282676,25.766674,-3.6844518,26.735186,-19.981075,0.5329272,-3.5359437,-14.624972,-21.093678,15.584467,33.958416,22.994244,7.989512,-11.332771
158,0.6201242804527283,22.259422302246094,77.21222686767578,3.1860044062035673,-9.136549276650266,-98.09643067272155,11.819321,1.7608485,13.938161,11.193635,-13.877864,-4.5310593,-1.3309916,-15.468754,-8.09281,23.064785,-12.961631,10.816693,1.613654,-5.2627125,7.7712975,-1.8028855,25.663652,-3.7653298,26.823662,-19.849161,0.629969,-3.4722748,-14.586987,-21.0603,15.265607,34.151928,22.847153,8.065903,-11.118829
159,0.6689201593399048,22.312685012817383,77.21820068359375,3.2778126643934202,-9.09400309190561,-97.98168911398653,11.78662,1.5586889,13.839419,10.956044,-13.68667,-4.4278297,-1.4475359,-15.659714,-8.127185,23.139217,-12.912559,10.826195,1.6523453,-5.3862534,7.734807,-1.9613991,25.58016,-3.8232937,26.892082,-19.70439,0.7329578,-3.4187632,-14.547243,-21.012104,14.947332,34.353943,22.69777,8.135825,-10.903381
160,0.7189800143241882,22.368881225585938,77.22364044189453,3.360979604152581,-9.057553737792343,-97.84769158171738,11.751266,1.3698575,13.722472,10.736769,-13.507348,-4.337231,-1.542849,-15.846377,-8.18837,23.205944,-12.865846,10.845863,1.695804,-5.507129,7.685057,-2.161582,25.4838,-3.909304,27.010857,-19.514147,0.8111474,-3.3631666,-14.500733,-20.939142,14.624508,34.58221,22.550776,8.191027,-10.740077
161,0.7602285146713257,22.415233612060547,77.231689453125,3.4368782276570227,-9.02246889821962,-97.68661281038939,11.707842,1.1932957,13.581515,10.531389,-13.335788,-4.2620735,-1.6206896,-16.035275,-8.283184,23.268263,-12.822141,10.880088,1.7202623,-5.631922,7.621586,-2.3703234,25.390867,-3.9920318,27.145922,-19.269142,0.86074996,-3.317273,-14.452209,-20.85212,14.318477,34.825375,22.426888,8.235726,-10.646032
162,0.7970909476280212,22.468185424804688,77.23613739013672,3.510373018644084,-8.986097340998565,-97.50266140400927,11.657533,1.0198498,13.419929,10.33051,-13.165463,-4.1985044,-1.691964,-16.231869,-8.403584,23.338037,-12.78671,10.928088,1.7289057,-5.7652054,7.5457535,-2.583703,25.306032,-4.068784,27.28433,-18.98505,0.8959271,-3.2811391,-14.391864,-20.754766,14.0130625,35.070946,22.314823,8.273453,-10.58998
163,0.836784303188324,22.52096176147461,77.23876953125,3.577834184205378,-8.960956673838323,-97.30981759587371,11.616415,0.85878044,13.247785,10.138331,-13.002833,-4.143144,-1.73827,-16.422441,-8.539914,23.398846,-12.754078,10.981631,1.7203782,-5.8945904,7.4767146,-2.777406,25.241531,-4.1283712,27.40581,-18.706375,0.9272945,-3.2535412,-14.328465,-20.669964,13.746105,35.306328,22.233852,8.295862,-10.560433
164,0.8698134422302246,22.56632423400879,77.2408218383789,3.6309798377760543,-8.959746477682652,-97.12213382439734,11.600802,0.7186475,13.075484,9.95864,-12.853973,-4.0925946,-1.7395556,-16.590853,-8.683553,23.429998,-12.716196,11.032242,1.7220073,-6.008771,7.4120474,-2.9961553,25.167486,-4.213114,27.574387,-18.446354,0.9554539,-3.2118258,-14.286958,-20.560112,13.514772,35.58634,22.154789,8.287986,-10.549718
165,0.8981582522392273,22.607192993164062,77.24420166015625,3.6693612773807787,-8.986712583945389,-96.93844255589491,11.618154,0.6004312,12.900243,9.787517,-12.718966,-4.047531,-1.6884414,-16.733232,-8.838049,23.429838,-12.674493,11.081028,1.6975496,-6.1006145,7.3695807,-3.1752782,25.111704,-4.273085,27.721342,-18.23617,0.98667496,-3.166639,-14.26839,-20.463842,13.370287,35.87355,22.111525,8.247424,-10.5628605
166,0.9241733551025391,22.650375366210938,77.24600982666016,3.695900358449354,-9.034658457417775,-96.75293088520256,11.6574745,0.50025094,12.718151,9.627378,-12.597054,-4.0093155,-1.5965149,-16.859459,-9.005945,23.40917,-12.632594,11.131569,1.6581722,-6.1768336,7.340298,-3.338226,25.068447,-4.3242307,27.86388,-18.0531,1.0160458,-3.1189458,-14.25786,-20.376219,13.281044,36.165268,22.093548,8.180892,-10.601038
167,0.9423398375511169,22.690074920654297,77.24937438964844,3.7129218408484217,-9.098992439227468,-96.57297732337139,11.71308,0.41639486,12.538728,9.479719,-12.485536,-3.975105,-1.4723514,-16.967316,-9.178235,23.363556,-12.584729,11.178362,1.6245428,-6.2442937,7.3212895,-3.4987404,25.032547,-4.373288,28.013374,-17.883144,1.0477948,-3.0766885,-14.254883,-20.294657,13.230794,36.462353,22.10609,8.096891,-10.650799
168,0.9587054252624512,22.730239868164062,77.25447082519531,3.7196145773603453,-9.175108806962683,-96.40593828960796,11.777783,0.34799537,12.371178,9.3490715,-12.384454,-3.9421442,-1.3249865,-17.054548,-9.345541,23.289433,-12.52584,11.215803,1.6149155,-6.3065925,7.318508,-3.65754,25.00776,-4.417683,28.159864,-17.721064,1.0886613,-3.053874,-14.245546,-20.241617,13.206746,36.737766,22.168535,8.006715,-10.694816
169,0.9734888672828674,22.769838333129883,77.26083374023438,3.717566079375562,-9.270881522342833,-96.25286503974695,11.866424,0.2956759,12.215167,9.225105,-12.289504,-3.9104488,-1.1398011,-17.117504,-9.510086,23.176628,-12.4526,11.242108,1.6458536,-6.367189,7.3280096,-3.8472784,24.981897,-4.478482,28.34763,-17.546257,1.1348071,-3.0492866,-14.233137,-20.19675,13.202265,37.018875,22.285255,7.9020863,-10.736249
170,0.987347424030304,22.81126594543457,77.2667236328125,3.703473637351312,-9.385888417698597,-96.10982197804344,11.978974,0.25908205,12.0669,9.1058655,-12.201,-3.8812907,-0.91755325,-17.159239,-9.675154,23.030422,-12.368832,11.260481,1.7046967,-6.421885,7.349291,-4.0571446,24.954718,-4.5505257,28.566378,-17.367048,1.184321,-3.0571725,-14.2207365,-20.161646,13.224728,37.306274,22.447647,7.7808437,-10.781226
171,1.0036051273345947,22.849658966064453,77.27421569824219,3.6827657017951454,-9.502306380262045,-95.97793920043982,12.078907,0.2382951,11.929756,9.022526,-12.130791,-3.8537996,-0.69147426,-17.184902,-9.833006,22.87086,-12.279206,11.272388,1.7752658,-6.4677253,7.3720694,-4.263889,24.925982,-4.621322,28.783867,-17.203592,1.2399348,-3.0692232,-14.222019,-20.136063,13.269625,37.596943,22.620356,7.656687,-10.824683
172,1.0172786712646484,22.89716339111328,77.28096008300781,3.659068159793713,-9.60268912586723,-95.85748173253401,12.137022,0.23148131,11.807237,8.990629,-12.08271,-3.8268642,-0.49288952,-17.198006,-9.976682,22.713108,-12.186277,11.279272,1.8399916,-6.503501,7.389622,-4.436971,24.900337,-4.6724906,28.957283,-17.077337,1.3060509,-3.079911,-14.245973,-20.12028,13.329645,37.878963,22.767988,7.5442877,-10.85989
173,1.0258160829544067,22.94748878479004,77.28855895996094,3.633571401033889,-9.68345706867506,-95.75071982194655,12.151418,0.23802646,11.702539,9.006708,-12.054494,-3.7997684,-0.32653138,-17.199718,-10.103293,22.55734,-12.090847,11.279229,1.9042789,-6.535925,7.415728,-4.551315,24.88813,-4.6922913,29.036331,-16.99765,1.3947686,-3.091087,-14.270985,-20.115349,13.3838825,38.112274,22.861969,7.4517684,-10.887215
174,1.0325767993927002,22.9987735748291,77.29762268066406,3.6032453993610742,-9.753528567456359,-95.65576899471252,12.135887,0.25930592,11.612372,9.064468,-12.04512,-3.7731807,-0.1753408,-17.186008,-10.218231,22.393385,-11.98987,11.272151,1.9485325,-6.5489645,7.4024725,-4.684396,24.86018,-4.70989,29.174704,-16.955683,1.4849218,-3.0916197,-14.385081,-20.106386,13.522687,38.443657,22.960299,7.3514524,-10.936272
175,1.0416971445083618,23.0523681640625,77.30400848388672,3.5675090982639537,-9.81378984242382,-95.57022728685754,12.085263,0.29448807,11.532768,9.174533,-12.059143,-3.748163,-0.043828692,-17.16216,-10.32224,22.233528,-11.886309,11.262847,2.0013788,-6.5607705,7.403973,-4.7712107,24.844635,-4.709081,29.240082,-16.930773,1.5821903,-3.0990074,-14.485807,-20.10454,13.635323,38.723812,23.039356,7.2652183,-10.955354
176,1.0499062538146973,23.10851287841797,77.3093490600586,3.5270011754316952,-9.86488103165462,-95.49134004944432,11.991837,0.34425452,11.459064,9.352731,-12.104137,-3.7258432,0.06616875,-17.12929,-10.418431,22.083488,-11.779512,11.255792,2.0514464,-6.5654855,7.401306,-4.8346324,24.833342,-4.7043414,29.285332,-16.912611,1.6683797,-3.1089659,-14.598441,-20.106348,13.744424,38.99667,23.134676,7.1864557,-10.936719
177,1.054987907409668,23.176319122314453,77.31258392333984,3.477954135097967,-9.90113718288239,-95.41853670879475,11.845357,0.41308746,11.390281,9.608146,-12.184735,-3.7094355,0.15238734,-17.084387,-10.508525,21.936022,-11.665051,11.25173,2.0860624,-6.556019,7.38107,-4.857553,24.823088,-4.6865497,29.304016,-16.896881,1.7448395,-3.1236842,-14.753379,-20.113157,13.8656645,39.302155,23.269361,7.1095066,-10.863201
178,1.0613478422164917,23.240924835205078,77.31645202636719,3.420491614386194,-9.924055096336632,-95.35358134483545,11.652553,0.49965772,11.328953,9.931527,-12.296632,-3.697693,0.21550989,-17.025368,-10.590567,21.791422,-11.543867,11.247942,2.1243715,-6.5380006,7.3552485,-4.8584495,24.818523,-4.667276,29.296312,-16.8907,1.8179712,-3.1421144,-14.916514,-20.124752,13.972746,39.599277,23.416685,7.039979,-10.743917
179,1.0662412643432617,23.305635452270508,77.32011413574219,3.3617484325207347,-9.944622672297188,-95.2945647868942,11.43083,0.5954631,11.2733345,10.308316,-12.431428,-3.6848378,0.26215512,-16.96225,-10.663995,21.66351,-11.425865,11.244916,2.1673293,-6.5173197,7.3353615,-4.849106,24.819792,-4.6509557,29.277372,-16.899948,1.8775269,-3.159453,-15.079575,-20.140322,14.073164,39.870346,23.557089,6.9821796,-10.6134615
180,1.072137475013733,23.36981773376465,77.3201675415039,3.306508759429171,-9.974065039448963,-95.23974325569928,11.2004,0.6906906,11.22228,10.718841,-12.57824,-3.6648333,0.29684165,-16.90473,-10.727197,21.570524,-11.319165,11.242721,2.2159317,-6.500251,7.33499,-4.839265,24.825632,-4.638155,29.25833,-16.92825,1.9141212,-3.1722562,-15.228869,-20.15894,14.1721115,40.088947,23.668705,6.9410844,-10.506081
181,1.0785250663757324,23.44341468811035,77.31578063964844,3.2507627941028963,-10.01421918220687,-95.18797294262158,10.9371395,0.79598105,11.175357,11.216585,-12.762655,-3.6360066,0.31643325,-16.849586,-10.781113,21.522453,-11.2272415,11.2456665,2.263267,-6.4796953,7.3566732,-4.8226805,24.838089,-4.6274834,29.235926,-16.985554,1.9201347,-3.1773348,-15.373193,-20.185055,14.283528,40.25431,23.744974,6.9203696,-10.433638
182,1.085172176361084,23.523319244384766,77.3079833984375,3.193288039384927,-10.059335679518563,-95.1402070738679,10.64437,0.91123194,11.133004,11.783791,-12.976529,-3.601343,0.32087314,-16.792902,-10.826619,21.506306,-11.143625,11.251957,2.3170476,-6.4553204,7.394074,-4.805235,24.856268,-4.6256914,29.212029,-17.065453,1.9019717,-3.176703,-15.509221,-20.21483,14.389883,40.37449,23.792913,6.9170036,-10.375523
183,1.0902661085128784,23.611780166625977,77.29792022705078,3.1426550656953594,-10.109305305500401,-95.09820076080334,10.363968,1.0164089,11.0948515,12.332481,-13.177841,-3.5643337,0.31324312,-16.744759,-10.860368,21.516335,-11.069456,11.253141,2.3743806,-6.4396086,7.44685,-4.7764077,24.881458,-4.6161604,29.174421,-17.15699,1.8733242,-3.1789296,-15.627416,-20.253567,14.495707,40.443134,23.837023,6.9246364,-10.322736
184,1.095296025276184,23.69472312927246,77.28805541992188,3.109907458838375,-10.164338614771355,-95.06391476312476,10.14015,1.0892909,11.062117,12.771139,-13.323064,-3.5235813,0.29702932,-16.716673,-10.878198,21.546265,-11.005339,11.240913,2.444396,-6.447668,7.511272,-4.74867,24.903004,-4.596586,29.135216,-17.238094,1.8455138,-3.1886349,-15.717803,-20.289768,14.584166,40.467243,23.883415,6.935522,-10.264963
185,1.1054713726043701,23.77315902709961,77.28060150146484,3.0932639984288803,-10.231667990230434,-95.03820863575544,9.981528,1.1307522,11.034583,13.102303,-13.414746,-3.4783015,0.2832572,-16.706272,-10.88063,21.592342,-10.953132,11.211203,2.5228221,-6.476386,7.59194,-4.7112217,24.921158,-4.55994,29.089361,-17.318506,1.8184313,-3.210184,-15.781718,-20.328012,14.666738,40.43955,23.945885,6.9514675,-10.20056
186,1.1147675514221191,23.85052490234375,77.27461242675781,3.0915557404817755,-10.309096863497068,-95.02028542780073,9.865093,1.1498609,11.01236,13.367181,-13.47212,-3.4280345,0.26744062,-16.710278,-10.869087,21.657343,-10.9112625,11.1692295,2.6070268,-6.519042,7.6886096,-4.6640596,24.93663,-4.5080643,29.036133,-17.402155,1.7866117,-3.2406752,-15.825301,-20.371363,14.74724,40.36219,24.015902,6.9752045,-10.134591
187,1.122052788734436,23.94247817993164,77.26823425292969,3.108595102878637,-10.382273594605547,-95.009668761784,9.788598,1.136922,10.99669,13.530796,-13.476434,-3.37603,0.22590254,-16.73661,-10.840227,21.751318,-10.878619,11.120248,2.6935446,-6.5844884,7.794339,-4.602839,24.948313,-4.43323,28.961336,-17.465984,1.7562852,-3.275504,-15.848261,-20.420418,14.822618,40.243793,24.084408,7.001228,-10.070536
188,1.1253547668457031,24.043699264526367,77.2634048461914,3.1540839558323737,-10.437392976719469,-95.00612377468808,9.748285,1.0826843,10.988866,13.562226,-13.410858,-3.3258696,0.13439947,-16.794956,-10.790373,21.886578,-10.855384,11.069516,2.7850342,-6.683477,7.896447,-4.546336,24.953255,-4.3410454,28.87823,-17.485874,1.7309895,-3.3079329,-15.853818,-20.464085,14.881243,40.10887,24.133,7.022071,-10.011653
189,1.132169246673584,24.145944595336914,77.26082611083984,3.2416855806854437,-10.480320781389835,-95.02123123615114,9.779907,0.96535105,11.000727,13.406811,-13.253047,-3.2750683,-0.013000275,-16.901037,-10.701154,22.081324,-10.850567,11.02039,2.877688,-6.822668,8.003332,-4.463226,24.948982,-4.203505,28.75597,-17.448143,1.7127105,-3.3365786,-15.848492,-20.513527,14.941473,39.95021,24.163946,7.036769,-9.957283
190,1.137760043144226,24.241512298583984,77.26016235351562,3.36228848146606,-10.515497348351257,-95.05103727164509,9.872263,0.7967371,11.027539,13.098953,-13.019216,-3.2233574,-0.20104541,-17.042646,-10.5814,22.318003,-10.859908,10.969195,2.9819348,-6.997476,8.111241,-4.3818564,24.933815,-4.0487304,28.62942,-17.366186,1.6962702,-3.3588402,-15.830426,-20.553316,14.989691,39.77722,24.1733,7.04626,-9.907426
191,1.1421535015106201,24.34466552734375,77.26156616210938,3.491009028382685,-10.525350913920153,-95.07258491328888,9.957147,0.61514485,11.04633,12.728017,-12.743878,-3.1770084,-0.4289575,-17.192865,-10.464262,22.56866,-10.864147,10.911227,3.0760572,-7.1916347,8.21001,-4.30406,24.913082,-3.878852,28.495934,-17.256435,1.6847473,-3.3869016,-15.800319,-20.581135,15.022382,39.59341,24.170706,7.053293,-9.865127
192,1.136622667312622,24.463483810424805,77.265869140625,3.600912073059419,-10.49322998902077,-95.0623639360249,9.964637,0.46004507,11.034442,12.386138,-12.462417,-3.1421509,-0.6894822,-17.324364,-10.38527,22.793287,-10.84168,10.842098,3.135962,-7.386844,8.290973,-4.2295837,24.890625,-3.691491,28.34978,-17.134785,1.6813636,-3.434597,-15.75985,-20.596872,15.038761,39.39973,24.167791,7.0605063,-9.833029
193,1.122195839881897,24.587007522583008,77.27501678466797,3.693129453028558,-10.416747403456936,-95.02119129646614,9.892022,0.33132482,10.991941,12.074318,-12.175836,-3.1196804,-0.98791885,-17.43577,-10.343549,22.996666,-10.793315,10.762165,3.1721103,-7.590597,8.347695,-4.1795363,24.87442,-3.5006397,28.21164,-17.005875,1.6879711,-3.510649,-15.702393,-20.59596,15.028337,39.19809,24.169474,7.071854,-9.812091
194,1.0949325561523438,24.724781036376953,77.28562927246094,3.779238809789917,-10.304042883241268,-94.95919439710543,9.773197,0.21094242,10.929185,11.746957,-11.865685,-3.1066225,-1.3242763,-17.54073,-10.32386,23.193007,-10.727799,10.673375,3.1807387,-7.808135,8.389053,-4.1272616,24.861486,-3.2828937,28.057318,-16.859251,1.7042465,-3.6107786,-15.637598,-20.579512,15.00491,38.98711,24.170887,7.084914,-9.800519
195,1.072455644607544,24.86061668395996,77.30194091796875,3.850086068895724,-10.154810263292275,-94.86671736880972,9.58543,0.112021476,10.839233,11.444238,-11.548041,-3.102637,-1.6882564,-17.63044,-10.339955,23.364855,-10.63922,10.5731125,3.1591601,-8.031449,8.41778,-4.073072,24.854237,-3.0591435,27.884104,-16.704971,1.7247944,-3.7115002,-15.561103,-20.54652,14.960952,38.76621,24.158442,7.091803,-9.796658
196,1.0325274467468262,25.021957397460938,77.31948852539062,3.894984276644487,-9.968424384346605,-94.73434564411122,9.30857,0.046910193,10.715208,11.201231,-11.237072,-3.1073585,-2.068274,-17.694347,-10.40621,23.49087,-10.519791,10.458678,3.1035626,-8.253773,8.437842,-4.015457,24.856745,-2.8463943,27.686563,-16.552343,1.744762,-3.790897,-15.467495,-20.494373,14.88717,38.532616,24.115185,7.0846863,-9.797886
197,0.9856439232826233,25.189075469970703,77.34132385253906,3.9162985974299622,-9.737133030553595,-94.55374280892102,8.927025,0.018243112,10.548856,11.027271,-10.933586,-3.1221857,-2.4675481,-17.732716,-10.52747,23.565475,-10.367135,10.328638,3.0015423,-8.489921,8.437936,-3.94973,24.882421,-2.6390977,27.462994,-16.400831,1.766553,-3.849387,-15.36794,-20.39203,14.773503,38.30843,24.021301,7.0594797,-9.797129
198,0.9274500608444214,25.369733810424805,77.36699676513672,3.9156875126897392,-9.463967747546983,-94.33171451392445,8.455088,0.01871924,10.345611,10.903219,-10.630969,-3.1468291,-2.8892806,-17.750542,-10.696338,23.598648,-10.185057,10.184584,2.8820133,-8.733127,8.422606,-3.911285,24.92706,-2.4665635,27.239864,-16.25584,1.7894269,-3.891901,-15.227321,-20.273579,14.606492,38.056576,23.899168,7.024142,-9.794863
199,0.8615934252738953,25.563304901123047,77.39630126953125,3.8964993882350347,-9.163348086366229,-94.08383701060883,7.9207845,0.04535237,10.118843,10.812794,-10.326925,-3.1782014,-3.3246799,-17.747831,-10.908451,23.600002,-9.978732,10.028652,2.747163,-8.976432,8.408309,-3.8791437,24.990446,-2.3185015,26.999172,-16.12224,1.8110156,-3.9132085,-15.065618,-20.142897,14.415388,37.78249,23.761076,6.9781914,-9.807436
200,0.7912186980247498,25.755456924438477,77.43073272705078,3.857916412777462,-8.84974228913281,-93.824786550816,7.3492336,0.09537994,9.881812,10.746072,-10.022672,-3.213203,-3.7659233,-17.726011,-11.158551,23.58149,-9.754501,9.863082,2.6071973,-9.212193,8.411234,-3.8447633,25.072292,-2.1988318,26.733557,-16.008224,1.8278565,-3.9051194,-14.894371,-20.007881,14.224384,37.486908,23.623648,6.9216533,-9.851397
201,0.7155473828315735,25.966384887695312,77.46337890625,3.7984174195554083,-8.523019117471874,-93.54554448925576,6.733458,0.17153378,9.625391,10.708115,-9.716025,-3.2516515,-4.2168193,-17.686146,-11.458858,23.551811,-9.506923,9.658213,2.4571936,-9.441023,8.440497,-3.8169222,25.1711,-2.1058986,26.446136,-15.902901,1.8406423,-3.869584,-14.702172,-19.870516,14.02462,37.151325,23.479687,6.8508453,-9.942062
202,0.633625328540802,26.186859130859375,77.49723052978516,3.7195862462415286,-8.176393899004085,-93.24307155605501,6.0646057,0.27353308,9.345542,10.701399,-9.40721,-3.295233,-4.680176,-17.628088,-11.808297,23.503866,-9.235727,9.422898,2.2950003,-9.664388,8.486573,-3.7965493,25.28555,-2.0380976,26.13804,-15.805842,1.8509141,-3.8098192,-14.485144,-19.729527,13.808202,36.777332,23.32569,6.767856,-10.066883
203,0.5458694696426392,26.4190616607666,77.53169250488281,3.6251074450545717,-7.814518136932891,-92.94037129722282,5.3680396,0.39605916,9.063212,10.70462,-9.096783,-3.344008,-5.142979,-17.549425,-12.182799,23.417784,-8.950756,9.217384,2.134766,-9.875857,8.537549,-3.7646224,25.416794,-2.0001,25.800673,-15.741555,1.8559823,-3.719936,-14.264865,-19.59235,13.600763,36.395424,23.183119,6.681037,-10.200176
204,0.4593859910964966,26.64727020263672,77.56918334960938,3.523887277796991,-7.4420613937069096,-92.66081979517848,4.670787,0.53294724,8.799669,10.693472,-8.783653,-3.397507,-5.593394,-17.449787,-12.556499,23.276007,-8.662415,9.102372,1.9907287,-10.067744,8.583619,-3.699673,25.565226,-1.9957709,25.421467,-15.734672,1.8535948,-3.5944855,-14.058017,-19.469612,13.426664,36.029663,23.074175,6.5990353,-10.315568
205,0.3659267723560333,26.884368896484375,77.6052017211914,3.406641567179193,-7.051438257771024,-92.40368462372412,3.9571373,0.6942796,8.552717,10.680103,-8.473932,-3.4558492,-6.050538,-17.323055,-12.95359,23.080921,-8.353389,9.032887,1.8634448,-10.231751,8.628792,-3.5975497,25.730877,-2.0230873,24.983986,-15.801302,1.84257,-3.4362686,-13.85322,-19.365728,13.273214,35.662037,22.99789,6.5263257,-10.396232
206,0.26541420817375183,27.120769500732422,77.6424560546875,3.273154244444593,-6.643201479442288,-92.15901519167676,3.2195802,0.8791315,8.312587,10.672346,-8.166553,-3.5189908,-6.5132737,-17.173563,-13.376763,22.8394,-8.024821,8.997489,1.7473253,-10.372419,8.678113,-3.4688988,25.912535,-2.0815759,24.497042,-15.925087,1.8240824,-3.247119,-13.642108,-19.281176,13.132522,35.281475,22.94743,6.458288,-10.458706
207,0.17482608556747437,27.351364135742188,77.67633819580078,3.1422974088063564,-6.23496542933241,-91.93577788791286,2.5022194,1.0653507,8.090188,10.632117,-7.8462176,-3.5861297,-6.9365253,-17.00527,-13.768597,22.530966,-7.709481,9.106347,1.6469434,-10.49983,8.724528,-3.317751,26.108007,-2.1771767,23.98946,-16.08391,1.7988429,-3.0209537,-13.444034,-19.22062,13.036069,34.919636,22.935818,6.389994,-10.526768
208,0.08219146728515625,27.585786819458008,77.7035140991211,3.0268667014836583,-5.844717166409553,-91.74191409222495,1.8449287,1.2325535,7.8969593,10.531168,-7.502789,-3.656654,-7.2752976,-16.822577,-14.070841,22.135445,-7.4408946,9.469845,1.5661695,-10.622701,8.761355,-3.1452622,26.313297,-2.3139377,23.486568,-16.254753,1.7679112,-2.7519534,-13.278507,-19.189487,13.016723,34.60742,22.97944,6.3168397,-10.624274
209,-0.012734091840684414,27.815622329711914,77.72654724121094,2.933223839878329,-5.461210184760398,-91.58607557604448,1.246143,1.3804193,7.7426677,10.349881,-7.125356,-3.7314444,-7.5015793,-16.61086,-14.297028,21.520334,-7.1759014,10.245315,1.5096726,-10.740901,8.780066,-2.9425275,26.528818,-2.5009694,22.980545,-16.4377,1.7207882,-2.428735,-13.147449,-19.193033,13.09185,34.350525,23.083836,6.232232,-10.771017
210,-0.10962310433387756,28.043216705322266,77.75021362304688,2.851562514364265,-5.081228710695819,-91.46085699654506,0.68994325,1.5172923,7.619377,10.107568,-6.7224507,-3.8102,-7.6438847,-16.375858,-14.469147,20.736568,-6.9162455,11.330449,1.4731976,-10.851203,8.787597,-2.7102199,26.754217,-2.731787,22.46013,-16.641916,1.660337,-2.0580525,-13.041541,-19.232544,13.242564,34.132107,23.242096,6.140508,-10.949476
211,-0.19918742775917053,28.2557315826416,77.7753677368164,2.786131963789852,-4.734040645968499,-91.35159972462628,0.19628184,1.6371038,7.5131097,9.829924,-6.310511,-3.89053,-7.74757,-16.152887,-14.541089,20.053186,-6.7697635,12.446321,1.4483308,-10.955119,8.801084,-2.4676218,26.981821,-2.9874818,21.951668,-16.856834,1.6050501,-1.6618996,-12.961527,-19.304314,13.44633,33.94706,23.44947,6.0529637,-11.1276865
212,-0.28657227754592896,28.46579933166504,77.79790496826172,2.733157606298272,-4.44739445133014,-91.2442338975894,-0.22200501,1.7402201,7.409693,9.553712,-5.910833,-3.971164,-7.8652577,-15.974145,-14.46604,19.754799,-6.850676,13.31497,1.425289,-11.049016,8.834431,-2.2320828,27.200796,-3.2471933,21.482069,-17.06985,1.5733337,-1.2612494,-12.912893,-19.403957,13.682851,33.795918,23.699368,5.9806757,-11.274588
213,-0.3758430778980255,28.663475036621094,77.81610107421875,2.6858150290240648,-4.229352610652923,-91.1410001799294,-0.55859095,1.8375795,7.310678,9.288715,-5.5292463,-4.0547767,-8.017562,-15.81444,-14.173151,19.897945,-7.2195106,13.883964,1.4007403,-11.122881,8.890329,-1.9909567,27.407804,-3.5139105,21.040472,-17.281763,1.5724483,-0.8371299,-12.908453,-19.533386,13.97194,33.696198,24.005558,5.9183154,-11.387634
214,-0.4649944603443146,28.86969757080078,77.82921600341797,2.6427779377199365,-4.063739200350737,-91.04774238357003,-0.82775795,1.9309868,7.2219973,9.025665,-5.158966,-4.1417675,-8.180386,-15.661131,-13.709848,20.350388,-7.81282,14.294547,1.378739,-11.176069,8.959418,-1.7399895,27.603483,-3.7938464,20.619616,-17.495304,1.5911212,-0.38601863,-12.94564,-19.694204,14.31915,33.6456,24.36578,5.8623023,-11.482215
215,-0.5512315630912781,29.069814682006836,77.83619689941406,2.61401996637145,-3.941670106992686,-90.95609812682618,-1.0443946,2.0076585,7.1361837,8.76903,-4.8034415,-4.227558,-8.336334,-15.56133,-13.202904,21.107826,-8.550307,14.561681,1.3624715,-11.217646,9.037754,-1.5076584,27.781013,-4.0711684,20.25038,-17.698372,1.6201612,0.048066165,-13.005623,-19.87874,14.680694,33.615097,24.749191,5.826224,-11.55435
216,-0.6344592571258545,29.247024536132812,77.84259796142578,2.609757471264724,-3.8547460190583824,-90.85766187129597,-1.2206889,2.0519679,7.0464945,8.516492,-4.461415,-4.307306,-8.4635515,-15.567131,-12.777166,22.157564,-9.346293,14.70101,1.3548386,-11.258131,9.12015,-1.3246899,27.93112,-4.331036,19.967718,-17.876604,1.6507887,0.42151687,-13.072445,-20.075699,15.012856,33.581417,25.123028,5.8231487,-11.601038
217,-0.723655104637146,29.424036026000977,77.8387222290039,2.63668853959529,-3.8147028425253824,-90.74620460258667,-1.3414564,2.0522087,6.9483457,8.258825,-4.130177,-4.379121,-8.556207,-15.702133,-12.434601,23.545353,-10.210429,14.692052,1.3519322,-11.305615,9.213142,-1.2007574,28.049248,-4.575584,19.7916,-18.018236,1.6922188,0.72607076,-13.163068,-20.282917,15.3218775,33.565304,25.500805,5.8554077,-11.614741
218,-0.809728741645813,29.61142349243164,77.8234634399414,2.693019003344743,-3.8224979022892343,-90.62658404186513,-1.4006945,2.0125494,6.8472524,7.9893966,-3.8051164,-4.4447107,-8.611085,-15.9399805,-12.115061,25.232138,-11.160217,14.535383,1.3520563,-11.35629,9.315601,-1.1196417,28.136744,-4.8108373,19.702648,-18.130438,1.746861,0.9845669,-13.2836685,-20.50205,15.626852,33.577724,25.890553,5.9163027,-11.600726
219,-0.885339081287384,29.788928985595703,77.80425262451172,2.7727986016870685,-3.8535209047022296,-90.50691416500952,-1.4366109,1.9433063,6.750738,7.7360163,-3.4973013,-4.5049477,-8.613598,-16.262405,-11.848525,27.080542,-12.124868,14.278628,1.3616287,-11.404595,9.410631,-1.0734011,28.193598,-5.0281205,19.680439,-18.227472,1.7921786,1.1992842,-13.401247,-20.725025,15.902045,33.580288,26.248505,6.005267,-11.575285
220,-0.9612329006195068,29.960866928100586,77.77716827392578,2.8711450099711193,-3.8827806942382326,-90.39581582034262,-1.4881699,1.8574873,6.6661887,7.527605,-3.218949,-4.561124,-8.558923,-16.650185,-11.664882,28.976454,-13.040054,13.968795,1.3870248,-11.444762,9.479565,-1.055454,28.221054,-5.2197523,19.706825,-18.322508,1.8059027,1.3734647,-13.487058,-20.940691,16.12212,33.54191,26.528175,6.1209064,-11.554758
221,-1.0373735427856445,30.118667602539062,77.74411010742188,2.9896892363032506,-3.9080253926244004,-90.28836888101738,-1.5683532,1.7529769,6.588987,7.3832273,-2.9770896,-4.6095076,-8.451353,-17.121887,-11.5803,30.964233,-13.92416,13.557436,1.4237268,-11.477698,9.51733,-1.0741265,28.219664,-5.388924,19.799047,-18.424635,1.7777393,1.5037541,-13.545938,-21.14212,16.278782,33.464424,26.707987,6.2779546,-11.537022
222,-1.1189948320388794,30.284107208251953,77.70524597167969,3.1285804086794053,-3.9419772069528305,-90.18181309651447,-1.6525565,1.6223936,6.517371,7.2782383,-2.761497,-4.650797,-8.282091,-17.68452,-11.573577,33.064987,-14.793427,13.036995,1.4689579,-11.510101,9.532677,-1.1296556,28.191027,-5.5385046,19.961432,-18.524855,1.721816,1.5904187,-13.5942,-21.328981,16.386568,33.36975,26.812553,6.4711742,-11.516001
223,-1.197888970375061,30.441024780273438,77.65969848632812,3.2894451927410593,-3.9810643520235915,-90.0889997460841,-1.7282695,1.4736842,6.4631453,7.184018,-2.5615234,-4.6935873,-8.02835,-18.302086,-11.623606,35.134216,-15.585765,12.517706,1.5316428,-11.543102,9.526805,-1.2037483,28.138248,-5.6587815,20.156815,-18.610231,1.6504714,1.6411004,-13.619707,-21.499062,16.453945,33.2556,26.865797,6.6686935,-11.501261
224,-1.2754844427108765,30.588293075561523,77.609619140625,3.466712231437694,-4.021376274856195,-90.02292033498323,-1.7862588,1.3171337,6.4384174,7.0785084,-2.3697197,-4.7452803,-7.6740785,-18.929995,-11.713346,37.037354,-16.24249,12.110112,1.6206207,-11.576769,9.501312,-1.276651,28.065899,-5.73944,20.34466,-18.66872,1.5779508,1.6640232,-13.610838,-21.648483,16.489767,33.119408,26.892817,6.8384004,-11.502636
225,-1.358581304550171,30.731794357299805,77.55335235595703,3.6666957907817097,-4.067272895407251,-89.98971354667106,-1.8131921,1.1444045,6.451005,6.9484034,-2.1844416,-4.807822,-7.220534,-19.621252,-11.896052,38.870243,-16.746431,11.781859,1.743648,-11.617923,9.460788,-1.3460027,27.976145,-5.7776933,20.517427,-18.70963,1.5088004,1.6649122,-13.565337,-21.774635,16.492401,32.953014,26.89161,6.9817634,-11.5329275
226,-1.4455101490020752,30.87109375,77.49591827392578,3.8917181901933713,-4.119023717280475,-89.98171979976583,-1.8193234,0.9539402,6.4929347,6.810395,-2.0110145,-4.8766327,-6.6740575,-20.380152,-12.164796,40.666824,-17.132324,11.491017,1.8921807,-11.666087,9.402514,-1.4193854,27.86975,-5.7771072,20.694115,-18.737297,1.4358349,1.6381744,-13.492401,-21.87683,16.460123,32.764088,26.850803,7.1121264,-11.5832815
227,-1.5330657958984375,31.010488510131836,77.43602752685547,4.118707998446875,-4.165258914524529,-89.9912441065641,-1.8254128,0.7679305,6.55054,6.676568,-1.8464105,-4.9531145,-6.0351977,-21.089975,-12.414129,42.21711,-17.42486,11.340107,2.0512934,-11.70849,9.31639,-1.487579,27.748524,-5.735126,20.87009,-18.729143,1.3549595,1.5749358,-13.397642,-21.953377,16.401735,32.573124,26.782604,7.2149615,-11.63181
228,-1.6245238780975342,31.14114761352539,77.37556457519531,4.332406211927974,-4.1943847887098284,-90.01109509220841,-1.8888569,0.61345357,6.6102324,6.63738,-1.729285,-5.038779,-5.3151503,-21.625034,-12.538906,43.319904,-17.650705,11.43725,2.2048657,-11.732761,9.191077,-1.5400976,27.615131,-5.6478615,21.040577,-18.663397,1.2621775,1.4662039,-13.289285,-22.002419,16.328497,32.40366,26.697659,7.275831,-11.656824
229,-1.7259186506271362,31.26375961303711,77.31782531738281,4.540632655524529,-4.198499220840732,-90.04657456145915,-1.98731,0.4797887,6.6801863,6.632291,-1.627326,-5.1335783,-4.510742,-21.962355,-12.486433,44.014793,-17.775047,11.886593,2.3549905,-11.745932,9.015206,-1.5663377,27.471914,-5.512071,21.194237,-18.527708,1.1542314,1.2987654,-13.161567,-22.021133,16.23936,32.25812,26.598116,7.273107,-11.648888
230,-1.8376820087432861,31.38335609436035,77.26520538330078,4.747939476654409,-4.184690825474765,-90.09959987563803,-2.0972757,0.35922846,6.7641883,6.629057,-1.5274993,-5.2370024,-3.6284366,-22.158615,-12.322505,44.391926,-17.804173,12.609188,2.5066836,-11.752392,8.795973,-1.5717888,27.319603,-5.3285937,21.335339,-18.33697,1.0336844,1.0812033,-13.016951,-22.008888,16.13231,32.129936,26.477524,7.220053,-11.621111
231,-1.9545753002166748,31.500329971313477,77.21465301513672,4.930013719765751,-4.163582330629587,-90.15740391389768,-2.2108386,0.2747677,6.84368,6.6269407,-1.4273634,-5.349392,-2.6939938,-22.211151,-12.119258,44.324474,-17.82602,13.439636,2.649458,-11.735914,8.55196,-1.571628,27.157074,-5.1006107,21.481628,-18.110844,0.9050743,0.83729345,-12.87259,-21.966253,16.01461,32.023617,26.336859,7.154003,-11.585492
232,-2.076176404953003,31.621200561523438,77.16474914550781,5.062997152227298,-4.1461072258660066,-90.20735662795573,-2.3215487,0.24863905,6.9000115,6.628267,-1.3261498,-5.4709826,-1.732691,-22.121284,-11.947282,43.683395,-17.925177,14.210033,2.7723703,-11.679732,8.300857,-1.5811096,26.98237,-4.8306837,21.651478,-17.86787,0.7731182,0.5905112,-12.747644,-21.895237,15.89528,31.94537,26.178127,7.1127605,-11.55416
233,-2.2064197063446045,31.737443923950195,77.12194061279297,5.141887171248803,-4.128882484698765,-90.24592497781863,-2.4314537,0.28988805,6.9269037,6.6321716,-1.2230308,-5.605737,-0.727032,-21.83259,-11.743133,42.22729,-18.133238,14.962985,2.8725939,-11.577103,8.034777,-1.6019106,26.793024,-4.508241,21.850267,-17.613842,0.63026524,0.33047268,-12.64182,-21.795237,15.778528,31.899424,26.000662,7.101617,-11.527162
234,-2.358356237411499,31.84819793701172,77.09981536865234,5.088447656291778,-4.068763083317819,-90.33280413035047,-2.677441,0.53345394,6.959041,6.854756,-1.2300498,-5.7862587,0.2784234,-21.177013,-11.502358,40.027206,-18.358665,15.000033,3.0018742,-11.357008,7.7132697,-1.626927,26.589037,-4.134082,22.067532,-17.33596,0.47502714,0.05034423,-12.545882,-21.66401,15.659254,31.879318,25.803383,7.1007338,-11.500427
235,-2.5076775550842285,31.949111938476562,77.09320831298828,5.008217160318274,-4.022231120865603,-90.40741936057925,-3.0061991,0.8157515,6.9678707,7.282079,-1.342894,-5.9664636,1.3129028,-20.48088,-11.320354,37.56095,-18.602232,15.000033,3.106522,-11.114569,7.3969245,-1.6587616,26.372461,-3.730831,22.300262,-17.03029,0.32518563,-0.22087379,-12.472168,-21.507002,15.535415,31.884678,25.589886,7.1132483,-11.476317
236,-2.6654796600341797,32.05889892578125,77.09564971923828,4.93292201941092,-4.007167192113707,-90.46255995472495,-3.2674465,1.0767739,6.95815,7.6227255,-1.4080558,-6.1299963,2.3390343,-19.903072,-11.355087,35.275414,-18.829426,15.000033,3.1816177,-10.875465,7.115326,-1.7040782,26.146494,-3.3235126,22.546734,-16.69231,0.19752833,-0.4541556,-12.424858,-21.33418,15.400749,31.905697,25.362408,7.1417584,-11.457589
237,-2.8104374408721924,32.16612243652344,77.09701538085938,4.866713281417617,-4.022610966358826,-90.49717816272543,-3.455444,1.3080561,6.9336343,7.8605995,-1.4166071,-6.274426,3.3310244,-19.478687,-11.713708,33.26051,-19.067532,15.000033,3.235831,-10.643359,6.8700504,-1.7847699,25.9083,-2.9138966,22.824154,-16.31882,0.09504684,-0.6475583,-12.39144,-21.147797,15.238446,31.92855,25.124704,7.1953554,-11.4458275
238,-2.953855276107788,32.285797119140625,77.09496307373047,4.79451070914082,-4.060049975151174,-90.5170352008994,-3.599996,1.5346636,6.8943806,8.045203,-1.3948029,-6.4076886,4.307074,-19.116596,-12.312981,31.292892,-19.322613,15.000033,3.2738621,-10.40421,6.648781,-1.8956039,25.656681,-2.4944272,23.129559,-15.912713,0.009161121,-0.8142704,-12.367569,-20.948605,15.05253,31.954615,24.87479,7.2708216,-11.43846
