unveil-humanoid-operators/unveil-humanoid-operators.github.io/feature-analysis-animation/data/feature_matrix_instances/weight_ankle_rom_climbing_box_A099.csv
Frame,root_translateX,root_translateY,root_translateZ,root_rotateX,root_rotateY,root_rotateZ,left_hip_pitch_joint_dof,left_hip_roll_joint_dof,left_hip_yaw_joint_dof,left_knee_joint_dof,left_ankle_pitch_joint_dof,left_ankle_roll_joint_dof,right_hip_pitch_joint_dof,right_hip_roll_joint_dof,right_hip_yaw_joint_dof,right_knee_joint_dof,right_ankle_pitch_joint_dof,right_ankle_roll_joint_dof,waist_yaw_joint_dof,waist_roll_joint_dof,waist_pitch_joint_dof,left_shoulder_pitch_joint_dof,left_shoulder_roll_joint_dof,left_shoulder_yaw_joint_dof,left_elbow_joint_dof,left_wrist_roll_joint_dof,left_wrist_pitch_joint_dof,left_wrist_yaw_joint_dof,right_shoulder_pitch_joint_dof,right_shoulder_roll_joint_dof,right_shoulder_yaw_joint_dof,right_elbow_joint_dof,right_wrist_roll_joint_dof,right_wrist_pitch_joint_dof,right_wrist_yaw_joint_dof
0,0.5699156522750854,2.0734572410583496,125.19804382324219,0.6660600419720906,0.5085366267473898,-86.99930290983264,2.0341847,1.4501561,10.153083,6.982007,-10.35376,-2.180201,2.222707,-7.337596,-9.647675,8.267815,-9.541119,6.612919,-1.5005099,-0.6464231,8.7479315,-2.0562322,11.366578,-40.12416,59.795822,-0.8545988,5.452617,5.9097424,-5.6014104,-11.777053,47.471386,63.775146,10.460464,7.2233124,-7.505162
1,0.609497606754303,2.0631356239318848,125.19791412353516,0.6722930530023965,0.5805895455755723,-86.99023305282269,1.9612598,1.4057796,10.149302,6.981492,-10.349786,-2.1396358,2.162332,-7.379605,-9.653945,8.247067,-9.5235815,6.646763,-1.4780414,-0.6628714,8.799317,-2.0867808,11.3779125,-40.096127,59.746258,-0.87502044,5.446488,5.915771,-5.6576095,-11.773619,47.497337,63.822685,10.493868,7.209542,-7.5113006
2,0.6494676470756531,2.048443555831909,125.198486328125,0.6781588497185305,0.6522096604532908,-86.98092667451705,1.8889146,1.3620209,10.145156,6.979985,-10.344424,-2.0993624,2.1030543,-7.4208994,-9.660946,8.224185,-9.504666,6.680548,-1.4551632,-0.67997515,8.851105,-2.123769,11.385131,-40.06707,59.707005,-0.8916837,5.4398437,5.9209146,-5.709841,-11.774597,47.524765,63.863815,10.533418,7.1958175,-7.5195556
3,0.6868466734886169,2.0326919555664062,125.19823455810547,0.6824747641161263,0.7247264818535292,-86.97218160360084,1.816313,1.3194791,10.141236,6.979114,-10.341319,-2.0586283,2.043535,-7.4608665,-9.666824,8.201443,-9.486426,6.7142777,-1.4307965,-0.6949962,8.900702,-2.1635633,11.39059,-40.039356,59.67284,-0.9147829,5.42996,5.9269776,-5.7577653,-11.778019,47.550026,63.899517,10.561497,7.1841865,-7.5241537
4,0.7264413833618164,2.0227248668670654,125.19599151611328,0.6775866914621729,0.7996510727165207,-86.96244184504951,1.7336823,1.2869191,10.134787,6.999999,-10.354379,-2.017201,1.9880332,-7.491573,-9.67362,8.171236,-9.4665985,6.7474127,-1.407797,-0.6982526,8.945802,-2.2024903,11.39466,-40.01461,59.639603,-0.9527263,5.4137025,5.936885,-5.8045387,-11.782504,47.571396,63.932568,10.561807,7.1785755,-7.519862
5,0.7701816558837891,2.004021644592285,125.19084167480469,0.6648885651762904,0.8755760806654154,-86.95435132080338,1.6502513,1.2619759,10.1289425,7.028535,-10.378879,-1.9761894,1.935291,-7.514622,-9.676694,8.13883,-9.447765,6.7791104,-1.3904287,-0.6931087,8.988152,-2.239877,11.399853,-39.98304,59.609932,-1.0168837,5.3826632,5.9511466,-5.850121,-11.789993,47.596428,63.958584,10.518244,7.1799984,-7.501103
6,0.8189992904663086,1.9821279048919678,125.18647766113281,0.6500492922265786,0.9519910182976312,-86.94720000134191,1.5363894,1.2445179,10.123139,7.1275144,-10.4459095,-1.935338,1.8844491,-7.53568,-9.676722,8.105673,-9.430183,6.810031,-1.3641334,-0.6848046,9.021843,-2.2764847,11.402136,-39.967674,59.5877,-1.1043391,5.3423357,5.9717565,-5.88422,-11.793845,47.608482,63.98135,10.438338,7.1869507,-7.4731374
7,0.8679367303848267,1.9617044925689697,125.18147277832031,0.6335476337078785,1.0321820025076016,-86.93942229153967,1.3515854,1.2399352,10.114356,7.3728514,-10.591193,-1.8920026,1.8328737,-7.5558996,-9.678041,8.068841,-9.41205,6.842019,-1.3535076,-0.67411864,9.063227,-2.3153212,11.410129,-39.92716,59.555523,-1.1812398,5.304244,5.986483,-5.9319897,-11.80778,47.6343,63.99598,10.362055,7.1966534,-7.4420404
8,0.9162363409996033,1.9379714727401733,125.1768569946289,0.6193615887393144,1.1186924600622095,-86.92937070076657,1.1584973,1.2307343,10.102673,7.620206,-10.734422,-1.8421935,1.7768818,-7.5802765,-9.68413,8.029462,-9.393891,6.877568,-1.3372792,-0.66597927,9.096958,-2.3537188,11.420503,-39.896755,59.514748,-1.2328235,5.2835126,5.9951916,-5.971535,-11.825298,47.652195,64.00093,10.314084,7.2070546,-7.4192634
9,0.9638791084289551,1.9212056398391724,125.17044830322266,0.6078082391350513,1.213231624196798,-86.91504739383478,0.9455232,1.2174631,10.08558,7.889276,-10.882695,-1.7828515,1.7155513,-7.6097236,-9.698746,7.9857926,-9.37532,6.9175744,-1.3170685,-0.66167897,9.12592,-2.3981736,11.432193,-39.87292,59.465134,-1.2455076,5.289371,5.9944096,-6.0110035,-11.843451,47.662365,64.00223,10.3062525,7.2201004,-7.4075036
10,1.0138168334960938,1.8980202674865723,125.1643295288086,0.5976707201284994,1.3139710230675679,-86.89793081905441,0.72605926,1.2002597,10.064914,8.15782,-11.030143,-1.7163539,1.6511,-7.6421804,-9.718982,7.937874,-9.356505,6.960674,-1.2944727,-0.6594464,9.149471,-2.4484446,11.443408,-39.85411,59.413353,-1.23419,5.3122864,5.9877234,-6.051438,-11.858944,47.666626,64.00444,10.320895,7.2356286,-7.4019327
11,1.0689924955368042,1.8659257888793945,125.16012573242188,0.5873336724807346,1.4185708283779428,-86.88117326942464,0.5013119,1.1821775,10.044122,8.430317,-11.17966,-1.6478885,1.5836608,-7.675639,-9.73896,7.8891163,-9.337474,7.00559,-1.2728326,-0.65720016,9.172805,-2.4972737,11.459945,-39.832703,59.352707,-1.2138054,5.3379946,5.9767632,-6.091424,-11.87938,47.670124,63.996445,10.347387,7.248846,-7.3982224
12,1.1283659934997559,1.8338747024536133,125.15474700927734,0.575206286123109,1.5249656306128343,-86.86806038069243,0.27965972,1.1648432,10.027111,8.695891,-11.328467,-1.5828954,1.5157803,-7.7074165,-9.752971,7.8370056,-9.315188,7.0509224,-1.244606,-0.6524448,9.186741,-2.5547066,11.467677,-39.822315,59.31726,-1.208985,5.3504505,5.9696517,-6.1362586,-11.888248,47.670906,64.008446,10.374001,7.25086,-7.3948407
13,1.1858292818069458,1.803745150566101,125.1503677368164,0.5593624255400742,1.6325460124673585,-86.85934832046033,0.060514465,1.1510452,10.014445,8.956304,-11.477492,-1.5230894,1.4450096,-7.735861,-9.759327,7.785998,-9.290779,7.09486,-1.2220958,-0.6437267,9.211763,-2.6079423,11.488809,-39.79538,59.26675,-1.2189074,5.3444223,5.959659,-6.184811,-11.911197,47.672962,63.99958,10.397093,7.240602,-7.387411
14,1.2437738180160522,1.773604393005371,125.1455307006836,0.541009056568747,1.7428290961366255,-86.85342743128422,-0.15894167,1.1391238,10.004418,9.21333,-11.626288,-1.4655863,1.372609,-7.761927,-9.76125,7.73203,-9.263617,7.1384134,-1.1943191,-0.6314183,9.22846,-2.66967,11.504228,-39.77794,59.236378,-1.2439284,5.3267155,5.951577,-6.237213,-11.927095,47.67376,64.00495,10.427024,7.2187247,-7.381147
15,1.3019343614578247,1.744369387626648,125.1368179321289,0.5227647327915927,1.8551628717360231,-86.84965249599884,-0.37935075,1.1255311,9.996434,9.472353,-11.77865,-1.4086932,1.2999077,-7.7894096,-9.760154,7.6764464,-9.235622,7.1850104,-1.1657991,-0.6198427,9.242952,-2.730829,11.520064,-39.760464,59.207596,-1.2619064,5.3077397,5.9422326,-6.290136,-11.942674,47.672894,64.007904,10.457403,7.195142,-7.374391
16,1.3650875091552734,1.7124155759811401,125.12744903564453,0.5119108521227109,1.9689650505544547,-86.84745692780149,-0.597709,1.1020771,9.9913645,9.730685,-11.933784,-1.3505917,1.2269028,-7.826721,-9.75605,7.622648,-9.209905,7.2383413,-1.1372211,-0.6179106,9.257316,-2.783295,11.542733,-39.74276,59.165016,-1.2570312,5.2976637,5.9299946,-6.340331,-11.964408,47.672134,63.99643,10.487412,7.17894,-7.3661838
17,1.4286370277404785,1.6751652956008911,125.11736297607422,0.5049107805241368,2.0853469770838067,-86.84538979708765,-0.81251144,1.0723149,9.987215,9.984605,-12.0903015,-1.2935376,1.1564479,-7.869595,-9.751466,7.5655518,-9.185637,7.3012166,-1.1040117,-0.6222447,9.2615,-2.8401597,11.557028,-39.732544,59.140343,-1.2218287,5.2949924,5.9123473,-6.392585,-11.978224,47.670567,63.9966,10.524579,7.1673884,-7.3552237
18,1.493546962738037,1.6370937824249268,125.10447692871094,0.49955957098133763,2.203731326093249,-86.8440120368258,-1.0250733,1.0387374,9.984096,10.236612,-12.249205,-1.2374864,1.0876435,-7.915654,-9.74582,7.5064816,-9.162275,7.371017,-1.0704696,-0.63013494,9.263688,-2.8919067,11.573467,-39.721172,59.109997,-1.1620477,5.2990003,5.8905973,-6.443007,-11.994373,47.66812,63.988045,10.565334,7.1610856,-7.3432145
19,1.5612810850143433,1.594089388847351,125.08712005615234,0.5073762766358231,2.3241421987751765,-86.84769813256837,-1.235603,0.98867476,9.988485,10.484287,-12.408316,-1.1764383,0.8966214,-7.9992166,-9.716273,7.7025404,-9.27239,7.444517,-1.0332214,-0.65178883,9.260398,-2.946591,11.585823,-39.715584,59.08856,-1.0991197,5.305117,5.8725076,-6.496823,-12.006602,47.66521,63.98484,10.59884,7.156464,-7.3313694
20,1.6329874992370605,1.553161382675171,125.06684875488281,0.5353610707488701,2.4446400614176453,-86.85924836395264,-1.4449325,0.91422474,10.00439,10.730313,-12.568136,-1.1048926,0.554415,-8.133058,-9.654754,8.214312,-9.544833,7.5169396,-0.9909923,-0.6953046,9.270888,-2.9934776,11.61932,-39.71329,59.03262,-1.0493449,5.3131537,5.859159,-6.5443935,-12.039196,47.65285,63.9427,10.608001,7.1559916,-7.317393
21,1.7043547630310059,1.5174338817596436,125.0436782836914,0.5725483977435993,2.5666861809858443,-86.87686599283886,-1.6569993,0.82749325,10.027479,10.979427,-12.730383,-1.0203294,0.16243298,-8.287836,-9.577947,8.823185,-9.869143,7.582079,-0.94647706,-0.7461762,9.276841,-3.0532436,11.641871,-39.727306,58.993965,-1.0163225,5.323233,5.8619504,-6.6039057,-12.060355,47.642056,63.92028,10.582843,7.157068,-7.3040214
22,1.777620553970337,1.4770927429199219,125.01976776123047,0.6180808934292249,2.690026674144326,-86.89907770892604,-1.8703166,0.7296702,10.056386,11.230305,-12.894679,-0.9261117,-0.26625326,-8.459856,-9.488858,9.504287,-10.235095,7.643683,-0.9035567,-0.8041365,9.280434,-3.119813,11.656693,-39.747597,58.96551,-0.9885391,5.335567,5.874612,-6.6735177,-12.073422,47.63311,63.910645,10.531686,7.1602135,-7.2902055
23,1.8510570526123047,1.435346007347107,124.99259948730469,0.6790837547694378,2.8093041350294308,-86.9273957310876,-2.0741374,0.6116752,10.094563,11.473863,-13.058598,-0.8268356,-0.74715614,-8.659933,-9.382814,10.300087,-10.65023,7.7092104,-0.85107374,-0.88028497,9.292126,-3.188405,11.674381,-39.770416,58.934917,-0.9721597,5.3447156,5.8887405,-6.742458,-12.088415,47.610588,63.888275,10.48008,7.1629505,-7.2776833
24,1.9305298328399658,1.3903316259384155,124.96037292480469,0.7626588836025404,2.919294889096216,-86.96260109618144,-2.258725,0.46521792,10.144734,11.701477,-13.219247,-0.72728944,-1.282826,-8.895886,-9.2575655,11.225534,-11.1100855,7.785876,-0.7877641,-0.9833365,9.319243,-3.25334,11.700862,-39.77901,58.899223,-0.967976,5.34232,5.8942413,-6.809636,-12.111641,47.565838,63.84566,10.451941,7.1597705,-7.2663307
25,2.0103840827941895,1.3460793495178223,124.92233276367188,0.869873492415763,3.024276891505803,-87.0031017444216,-2.4249728,0.28874275,10.20699,11.907366,-13.374055,-0.63015115,-1.8753297,-9.169981,-9.114038,12.277834,-11.627707,7.8731294,-0.7240423,-1.1124449,9.350694,-3.3144264,11.722866,-39.757423,58.88005,-0.9827453,5.317755,5.888889,-6.8837132,-12.132831,47.513584,63.801052,10.4666195,7.14782,-7.254393
26,2.0899477005004883,1.3033337593078613,124.87779998779297,0.9969356050008562,3.125269219799843,-87.04874187995539,-2.577088,0.08690141,10.279762,12.098253,-13.525505,-0.53240615,-2.520326,-9.476983,-8.952236,13.444543,-12.197206,7.9672446,-0.6560463,-1.2637239,9.387821,-3.3737972,11.742907,-39.717587,58.8707,-1.0124478,5.2781067,5.87726,-6.9629397,-12.1544485,47.45184,63.75174,10.507639,7.129918,-7.241869
27,2.171058177947998,1.2624366283416748,124.83050537109375,1.1458534692285618,3.2119234015598113,-87.10318470398019,-2.7102194,-0.14139311,10.363655,12.285497,-13.679853,-0.42974675,-3.224111,-9.818832,-8.765281,14.754179,-12.800071,8.071375,-0.5813754,-1.440252,9.448284,-3.4339547,11.767735,-39.6639,58.850048,-1.0368892,5.239682,5.861836,-7.0419555,-12.183619,47.37266,63.679543,10.549604,7.1107793,-7.234585
28,2.2586586475372314,1.2268459796905518,124.77185821533203,1.3186478048596038,3.2743781701291255,-87.1697460824163,-2.8199456,-0.3974437,10.459269,12.481249,-13.842464,-0.31776264,-3.9829977,-10.195984,-8.547877,16.213549,-13.410346,8.188827,-0.49921492,-1.6444466,9.5440035,-3.50323,11.794616,-39.60339,58.81432,-1.0399048,5.216263,5.8461285,-7.1242685,-12.216156,47.277386,63.587296,10.575638,7.091658,-7.2388244
29,2.34297251701355,1.2002824544906616,124.70535278320312,1.5296909985518106,3.3080558135345064,-87.25796053671141,-2.8894565,-0.69850755,10.5744095,12.664499,-14.008081,-0.19166444,-4.805759,-10.624363,-8.291796,17.850124,-14.066531,8.315291,-0.40276697,-1.8912313,9.674121,-3.582093,11.81432,-39.52958,58.770878,-1.0024897,5.2180514,5.8294487,-7.213456,-12.239677,47.167515,63.48965,10.582526,7.0712533,-7.260909
30,2.4285635948181152,1.1754093170166016,124.63260650634766,1.7742796759188126,3.3189790151566845,-87.36332143917262,-2.9272764,-1.0387548,10.705764,12.840118,-14.176531,-0.0548767,-5.6840878,-11.09741,-8.000403,19.634617,-14.762285,8.450341,-0.28180966,-2.1775258,9.848583,-3.660235,11.855766,-39.445354,58.684326,-0.93424153,5.2389393,5.805517,-7.288433,-12.287759,47.015976,63.334415,10.565192,7.053882,-7.2917595
31,2.518970251083374,1.137199878692627,124.55787658691406,2.025567962426856,3.313987453056274,-87.46812386133882,-2.9567688,-1.3865895,10.8367605,13.034478,-14.356533,0.08515833,-6.614643,-11.584597,-7.683026,21.542768,-15.415429,8.602794,-0.16878794,-2.4712782,10.046297,-3.750169,11.8929205,-39.360935,58.600616,-0.87508476,5.2573543,5.786059,-7.37788,-12.328911,46.866066,63.181213,10.548848,7.034397,-7.328761
32,2.609029769897461,1.0958243608474731,124.47931671142578,2.257217047982236,3.2989298179767577,-87.55493802989496,-3.00152,-1.710414,10.951719,13.274474,-14.556315,0.22104543,-7.5911007,-12.054884,-7.349843,23.548088,-15.945515,8.782087,-0.07727103,-2.7443433,10.266228,-3.8606737,11.928679,-39.29109,58.52429,-0.85632694,5.2568913,5.7759132,-7.484036,-12.364564,46.7166,63.02819,10.532607,7.0143223,-7.3632655
33,2.698305130004883,1.0613900423049927,124.4045639038086,2.472977570668952,3.270277618400973,-87.6203803020747,-3.0565512,-2.01653,11.050083,13.552084,-14.770552,0.35698694,-8.610633,-12.514741,-7.001934,25.661905,-16.363123,8.998594,-0.001639297,-3.0028806,10.522776,-3.985795,11.987526,-39.24871,58.42127,-0.90246934,5.2330785,5.775264,-7.5967817,-12.417367,46.55504,62.840538,10.497696,7.0006733,-7.3888426
34,2.7915663719177246,1.0386985540390015,124.32960510253906,2.683616743629813,3.2263775317035317,-87.67351305386903,-3.1125224,-2.3165245,11.138495,13.857939,-14.997173,0.4937992,-9.6727,-12.9724045,-6.6348667,27.884993,-16.699387,9.246443,0.058055863,-3.257306,10.809654,-4.1239815,12.055539,-39.217403,58.30534,-0.98951334,5.19447,5.7819967,-7.7223735,-12.472294,46.391987,62.637566,10.451771,6.990487,-7.4122744
35,2.8797290325164795,1.0121338367462158,124.25570678710938,2.873465930710639,3.1759374636740434,-87.71543414678251,-3.1864893,-2.5867538,11.214237,14.215451,-15.249972,0.623908,-10.782055,-13.402474,-6.2506495,30.19409,-16.907475,9.510558,0.10345365,-3.4922316,11.11294,-4.2725844,12.130085,-39.195103,58.189644,-1.0854115,5.148225,5.792786,-7.8571672,-12.526895,46.226295,62.431217,10.425435,6.972846,-7.438775
36,2.9639127254486084,0.988068163394928,124.18193817138672,3.027030152067709,3.1277152982225793,-87.74705407752435,-3.295859,-2.8046618,11.274806,14.647905,-15.542725,0.7400445,-11.93916,-13.780567,-5.852276,32.5577,-16.939356,9.77411,0.13478968,-3.6912658,11.419432,-4.427072,12.209861,-39.17876,58.08413,-1.1581763,5.1016297,5.804214,-7.995486,-12.579616,46.06026,62.227398,10.4524,6.9373693,-7.473512
37,3.0446457862854004,0.9617539048194885,124.1084213256836,3.1408010544763,3.084380673033884,-87.7752732304281,-3.4433553,-2.967333,11.3264885,15.152994,-15.8760195,0.8392495,-13.167241,-14.099334,-5.4155455,35.012157,-16.760178,10.052883,0.15293713,-3.8502355,11.72692,-4.5877237,12.29308,-39.168953,57.988556,-1.1979989,5.051066,5.8244,-8.144996,-12.628997,45.908283,62.034035,10.493728,6.9006834,-7.4812884
38,3.127013921737671,0.9324050545692444,124.03718566894531,3.222095246175446,3.041044514570156,-87.79730696547881,-3.6184092,-3.0859292,11.368265,15.71479,-16.242954,0.9261975,-14.456445,-14.367926,-4.948007,37.55807,-16.402142,10.3470955,0.15646704,-3.9773896,12.041044,-4.756405,12.379394,-39.165485,57.90027,-1.221123,4.9944944,5.852209,-8.307853,-12.675083,45.76609,61.84936,10.548434,6.861802,-7.4715266
39,3.2044131755828857,0.9040701389312744,123.96539306640625,3.271846674412661,2.9951012033945856,-87.79961506397437,-3.8248067,-3.1595569,11.388883,16.347935,-16.640371,1.0017464,-15.7642565,-14.59569,-4.49887,40.12553,-15.923853,10.615936,0.14035214,-4.074821,12.358941,-4.937439,12.463475,-39.16742,57.835247,-1.2389212,4.9406233,5.8713794,-8.468415,-12.714122,45.605946,61.66673,10.703922,6.7831554,-7.5169907
40,3.273608446121216,0.8733019232749939,123.89517974853516,3.290986567464908,2.9438397688266256,-87.76888098621663,-4.0676193,-3.1876957,11.374624,17.06916,-17.07238,1.0687556,-17.04537,-14.790009,-4.1190114,42.63862,-15.37971,10.818765,0.10502377,-4.148012,12.683209,-5.1240826,12.561761,-39.17915,57.78282,-1.2648492,4.9000998,5.8637667,-8.606113,-12.753308,45.394913,61.464413,11.048205,6.6271815,-7.6886344
41,3.335905075073242,0.8365881443023682,123.82496643066406,3.2821112689038765,2.8850232213042166,-87.70433081338777,-4.343079,-3.1762393,11.327592,17.872068,-17.531023,1.1318598,-18.299282,-14.956643,-3.8073196,45.092667,-14.710977,11.011179,0.0469568,-4.1986423,13.018612,-5.325752,12.6675415,-39.2041,57.753544,-1.3055485,4.874805,5.8134584,-8.724461,-12.789802,45.14395,61.256622,11.688682,6.348669,-8.029996
42,3.3935108184814453,0.7974240779876709,123.75386810302734,3.2427454965119358,2.8207297307999775,-87.6119471005065,-4.649758,-3.123655,11.252249,18.749846,-18.017263,1.1882082,-19.545685,-15.091705,-3.5441446,47.52598,-13.912926,11.191961,-0.031523213,-4.2238,13.363596,-5.5393233,12.781293,-39.240803,57.741398,-1.3528606,4.860052,5.733358,-8.828934,-12.824452,44.86135,61.043472,12.546932,5.974348,-8.490357
43,3.4427971839904785,0.7536952495574951,123.68116760253906,3.1647427649656175,2.7546165821979542,-87.48830164057746,-4.9914694,-3.0184295,11.140496,19.708006,-18.538624,1.2268116,-20.764883,-15.196091,-3.3568165,49.91708,-13.116705,11.235079,-0.13176198,-4.217503,13.704005,-5.7525444,12.902789,-39.27783,57.74544,-1.3976502,4.8538976,5.6505313,-8.911898,-12.855986,44.523636,60.804977,13.435558,5.574749,-9.003017
44,3.47902774810791,0.7010895609855652,123.61146545410156,3.0408348549880753,2.690191064662893,-87.33009469226444,-5.371841,-2.85058,10.982916,20.752775,-19.104448,1.2381796,-21.935314,-15.272294,-3.2762039,52.24043,-12.45028,11.013693,-0.25451115,-4.1744347,14.025658,-5.9536433,13.031252,-39.303383,57.765606,-1.4292529,4.8543854,5.5921044,-8.967749,-12.882158,44.106052,60.524086,14.169136,5.225021,-9.505413
45,3.5120110511779785,0.6391780972480774,123.53659057617188,2.8634893735601024,2.629886014901022,-87.12789704386569,-5.7975206,-2.6130965,10.771292,21.894375,-19.718184,1.2137959,-23.071627,-15.341418,-3.34225,54.54747,-11.961124,10.374541,-0.4105391,-4.0889845,14.325459,-6.14209,13.166498,-39.319237,57.809917,-1.4421916,4.8621187,5.5679374,-8.990988,-12.90083,43.572235,60.188545,14.748618,4.923544,-10.034112
46,3.5301737785339355,0.5697436928749084,123.45930480957031,2.6377405128160625,2.57174602067937,-86.88593817074964,-6.260432,-2.3167632,10.51063,23.118822,-20.371042,1.1601983,-24.175009,-15.405291,-3.535803,56.82783,-11.572088,9.4199705,-0.5952735,-3.964999,14.611452,-6.3248186,13.308436,-39.332302,57.877068,-1.4436959,4.8777833,5.562924,-8.985627,-12.911253,42.942123,59.811054,15.254595,4.6380444,-10.60623
47,3.5376064777374268,0.48794448375701904,123.37519073486328,2.3739900797675415,2.5129051074661666,-86.62158403337313,-6.7445397,-1.9737154,10.215548,24.401388,-21.056581,1.0857158,-25.20729,-15.441433,-3.797463,58.96875,-11.234252,8.407091,-0.7883575,-3.810926,14.885512,-6.497582,13.455827,-39.334515,57.95186,-1.4399974,4.899375,5.5664115,-8.96525,-12.913967,42.281048,59.416637,15.628182,4.403571,-11.134917
48,3.537583827972412,0.391366183757782,123.28287506103516,2.08328478915751,2.4504827580594055,-86.3525862450056,-7.240332,-1.5948277,9.900896,25.730223,-21.770184,0.9991419,-26.135899,-15.419521,-4.0633655,60.869186,-10.900788,7.596924,-0.9713594,-3.636012,15.148661,-6.656557,13.607311,-39.31592,58.019516,-1.437835,4.9251127,5.5676994,-8.943882,-12.910413,41.65406,59.031006,15.808648,4.2574887,-11.534171
49,3.531768560409546,0.2883923351764679,123.18575286865234,1.7529166544481536,2.3862916646328856,-86.07150226841127,-7.753831,-1.1656818,9.554563,27.11245,-22.51904,0.8949582,-26.939302,-15.337162,-4.367183,62.5042,-10.569044,7.0364466,-1.15186,-3.426806,15.398642,-6.8004913,13.761596,-39.270115,58.085167,-1.440607,4.9562693,5.5619373,-8.917265,-12.89929,41.048798,58.642956,15.708024,4.2445374,-11.77464
50,3.5194966793060303,0.17686395347118378,123.0751953125,1.3812392571438745,2.32185070937894,-85.7731821333722,-8.285478,-0.6880451,9.173082,28.548317,-23.301228,0.76997036,-27.642262,-15.205098,-4.7235293,63.936283,-10.264392,6.5960064,-1.3374972,-3.182857,15.635668,-6.9314537,13.918388,-39.20141,58.155064,-1.4433874,4.9931564,5.5555754,-8.883408,-12.879931,40.443035,58.24789,15.385303,4.3362975,-11.905509
51,3.5015885829925537,0.06314815580844879,122.9547348022461,0.9955949355920127,2.2535042589855707,-85.47840906129237,-8.816735,-0.19421735,8.785391,30.012314,-24.1005,0.6363695,-28.282545,-15.004891,-5.0410595,65.191475,-9.980375,6.275917,-1.5097338,-2.9315434,15.864427,-7.049201,14.078335,-39.115204,58.214397,-1.4395535,5.0321712,5.5545006,-8.85488,-12.855111,39.886055,57.874035,14.999706,4.460014,-11.958982
52,3.4767649173736572,-0.05966732278466225,122.82331085205078,0.6243672414825037,2.1770693610544987,-85.20856587695032,-9.329425,0.28428325,8.419045,31.47754,-24.899826,0.509619,-28.899597,-14.7138815,-5.2257004,66.294014,-9.705835,6.0834785,-1.6516286,-2.7008517,16.08921,-7.1501436,14.243049,-39.01152,58.24485,-1.419256,5.069948,5.56437,-8.845256,-12.829648,39.43155,57.54837,14.712594,4.5427337,-11.968258
53,3.4442265033721924,-0.19676172733306885,122.6769790649414,0.2631197149673585,2.0879093909852298,-84.96193407864914,-9.828147,0.7568336,8.069491,32.95696,-25.702147,0.39254287,-29.486263,-14.294845,-5.2522855,67.22993,-9.471019,6.0569077,-1.7659448,-2.487315,16.31225,-7.229604,14.414063,-38.882168,58.241634,-1.3733469,5.1095266,5.590487,-8.855386,-12.806051,39.102463,57.275917,14.545794,4.575803,-11.900685
54,3.4123427867889404,-0.33824294805526733,122.51664733886719,-0.09942776780370391,1.989176267767097,-84.72992669368618,-10.321098,1.2363162,7.7251134,34.45984,-26.515165,0.27853632,-30.029335,-13.761304,-5.170332,67.99424,-9.270095,6.1887717,-1.8610783,-2.279478,16.531065,-7.287422,14.592203,-38.72578,58.21014,-1.3075541,5.1515794,5.6282663,-8.878489,-12.784645,38.87113,57.039337,14.422451,4.593986,-11.752646
55,3.378087282180786,-0.4788393974304199,122.34181213378906,-0.443247552699255,1.8877798476793788,-84.52280335675883,-10.797041,1.6992489,7.4046574,35.95774,-27.329748,0.16862926,-30.558409,-13.168461,-5.000311,68.62184,-9.0380745,6.4163613,-1.9273546,-2.093073,16.742928,-7.3303833,14.778466,-38.55742,58.14843,-1.2394624,5.188807,5.667879,-8.91301,-12.768023,38.709457,56.83005,14.350973,4.5908813,-11.602044
56,3.347151756286621,-0.6322352290153503,122.154296875,-0.7483500194091317,1.7904412963393825,-84.35090348194119,-11.246016,2.1225104,7.1275806,37.42633,-28.139452,0.06375938,-31.101875,-12.573518,-4.762246,69.14734,-8.709987,6.6753197,-1.9539834,-1.9433326,16.945461,-7.365392,14.973634,-38.393322,58.05411,-1.1861604,5.213996,5.6999373,-8.955145,-12.7599,38.588634,56.635567,14.340387,4.560445,-11.52647
57,3.316671848297119,-0.7958314418792725,121.95172119140625,-1.0022692498630947,1.6961633334194703,-84.22590005410791,-11.657655,2.4954858,6.907641,38.853916,-28.94524,-0.031016221,-31.668772,-11.96898,-4.4225726,69.57281,-8.2872715,6.9917088,-1.9279367,-1.8411845,17.137852,-7.3907714,15.177718,-38.23666,57.923893,-1.1427913,5.2279534,5.7238727,-9.003717,-12.764958,38.518124,56.455605,14.431142,4.4876676,-11.557471
58,3.2768874168395996,-0.9642521142959595,121.73345947265625,-1.2172031314071452,1.6014415068158292,-84.13937802283101,-12.04223,2.8353722,6.731397,40.260986,-29.752712,-0.11624257,-32.24,-11.329658,-3.9819565,69.8819,-7.800339,7.387867,-1.8560878,-1.7747087,17.322487,-7.4050927,15.390621,-38.081562,57.758602,-1.1044695,5.2336383,5.74414,-9.055943,-12.78479,38.506207,56.2873,14.606991,4.3807077,-11.649226
59,3.2369635105133057,-1.1354734897613525,121.50183868408203,-1.410198640975183,1.5093195793816847,-84.07138150356063,-12.420081,3.1594417,6.5778685,41.671547,-30.561478,-0.19910127,-32.8028,-10.687032,-3.509264,70.079865,-7.224116,7.794512,-1.7572112,-1.7265263,17.50113,-7.41401,15.613045,-37.928535,57.563465,-1.0855945,5.226847,5.758518,-9.108396,-12.818912,38.52007,56.121475,14.786966,4.2680755,-11.763618
60,3.20206880569458,-1.3070027828216553,121.25482177734375,-1.5980599545799583,1.4230768508918101,-84.00216389110165,-12.8108015,3.483762,6.426168,43.1085,-31.37035,-0.28725347,-33.347473,-10.074817,-3.0729191,70.17215,-6.531437,8.14106,-1.6484228,-1.6787987,17.676077,-7.424183,15.845833,-37.780582,57.34335,-1.101274,5.203478,5.7648997,-9.154471,-12.864093,38.52362,55.944836,14.889945,4.1790743,-11.862897
61,3.167891025543213,-1.4876238107681274,120.99853515625,-1.784414078255807,1.3438705266038053,-83.9365939751158,-13.212878,3.8164346,6.29025,44.573093,-32.18854,-0.37754345,-33.88339,-9.486046,-2.6680717,70.15981,-5.7070074,8.400331,-1.5233263,-1.6272542,17.845133,-7.432212,16.090055,-37.634697,57.08756,-1.1677016,5.1558294,5.757327,-9.194204,-12.919573,38.505413,55.7529,14.881325,4.126242,-11.951863
62,3.1174607276916504,-1.6722239255905151,120.72688293457031,-1.9603647021763182,1.269689216542991,-83.88169740333625,-13.618927,4.1487827,6.1739206,46.058056,-33.0154,-0.46695665,-34.411556,-8.909761,-2.2634106,70.03942,-4.7666073,8.61294,-1.3753427,-1.581479,18.008142,-7.4366198,16.346134,-37.49304,56.797256,-1.2740872,5.0883727,5.7387085,-9.229685,-12.985498,38.48342,55.552883,14.807667,4.0925813,-12.045922
63,3.0646231174468994,-1.8562734127044678,120.44359588623047,-2.124049773525555,1.1995348493119427,-83.82148723604175,-14.036597,4.4681344,6.043068,47.565006,-33.830788,-0.5640843,-34.9113,-8.373971,-1.8871592,69.80685,-3.726694,8.808149,-1.2215769,-1.5460457,18.16906,-7.444979,16.613268,-37.362335,56.495197,-1.3917233,5.015414,5.7200146,-9.263241,-13.059646,38.46837,55.357307,14.711098,4.06269,-12.123406
64,3.009941339492798,-2.048917770385742,120.14793395996094,-2.2741245383601263,1.1325118005059058,-83.73978898092338,-14.474075,4.761359,5.8657737,49.09757,-34.615173,-0.67959607,-35.361874,-7.907544,-1.5681137,69.45862,-2.6061153,9.012703,-1.079241,-1.5263197,18.330988,-7.467138,16.889832,-37.251495,56.2078,-1.494118,4.950917,5.7128305,-9.30024,-13.139273,38.471085,55.184483,14.632576,4.0205426,-12.162711
65,2.948901653289795,-2.244112014770508,119.84147644042969,-2.4142400862227125,1.0662920313989872,-83.64012682716628,-14.923742,5.02868,5.638288,50.650387,-35.381996,-0.8217783,-35.766354,-7.5089,-1.3071301,68.99354,-1.3799596,9.236405,-0.9487813,-1.518846,18.494993,-7.50129,17.17439,-37.159935,55.931686,-1.576341,4.899618,5.724118,-9.35023,-13.222185,38.507263,55.04901,14.580104,3.9581618,-12.161371
66,2.884765148162842,-2.432873010635376,119.52580261230469,-2.543845757011664,1.0022151339045011,-83.52851129435233,-15.384028,5.273609,5.378765,52.22487,-36.136612,-0.985018,-36.13399,-7.166761,-1.0890329,68.41422,-0.049029738,9.461847,-0.82315844,-1.5228243,18.658415,-7.545101,17.466578,-37.084385,55.65947,-1.652837,4.853483,5.7467866,-9.410452,-13.306948,38.568108,54.94271,14.532973,3.88481,-12.130055
67,2.8140616416931152,-2.631930351257324,119.19638061523438,-2.6544032500888144,0.9449963461373759,-83.3927908208688,-15.872923,5.48457,5.086275,53.833313,-36.844997,-1.1565145,-36.45654,-6.894083,-0.915715,67.72236,1.3339903,9.678931,-0.70682335,-1.5478114,18.81911,-7.6049047,17.765638,-37.025455,55.40864,-1.720022,4.807606,5.7708373,-9.464649,-13.391966,38.62463,54.846333,14.487838,3.810794,-12.067159
68,2.7440013885498047,-2.8327796459198,118.85964965820312,-2.737527170625417,0.8994155736718361,-83.22051742120381,-16.40732,5.649564,4.7595553,55.48552,-37.4782,-1.3233877,-36.724915,-6.7042227,-0.7901136,66.91898,2.7168705,9.876241,-0.60317534,-1.6028196,18.974989,-7.689166,18.070303,-36.986393,55.198128,-1.7755562,4.757015,5.7863345,-9.494825,-13.475185,38.646233,54.73904,14.440628,3.7462015,-11.970703
69,2.662050485610962,-3.0362493991851807,118.51728057861328,-2.7874589915520094,0.8683294673014623,-83.01389151732523,-16.991386,5.763658,4.41186,57.19073,-38.041183,-1.4765795,-36.943485,-6.6245136,-0.73231465,66.00466,4.107682,10.056673,-0.51227397,-1.6923412,19.120014,-7.7990894,18.380104,-36.975964,55.028744,-1.8206286,4.694585,5.7946763,-9.5036335,-13.555271,38.628162,54.631622,14.39402,3.6843405,-11.823188
70,2.5745508670806885,-3.2380528450012207,118.16912841796875,-2.809534665398933,0.8487242991839176,-82.77767140677541,-17.615887,5.831399,4.0412273,58.942425,-38.544674,-1.6258681,-37.11645,-6.6401653,-0.73530734,64.98095,5.526706,10.221716,-0.4310028,-1.8112519,19.256649,-7.9317803,18.694353,-36.99059,54.89343,-1.8545132,4.6248083,5.7999463,-9.497551,-13.631677,38.583473,54.530655,14.347993,3.6227398,-11.6312895
71,2.480102300643921,-3.441420078277588,117.81594848632812,-2.8118804098528036,0.8363833978135986,-82.50355439802287,-18.276676,5.854544,3.6242228,60.7273,-38.970284,-1.7885011,-37.232975,-6.702539,-0.7624655,63.848194,6.9394975,10.3583975,-0.3592574,-1.9545975,19.395193,-8.094004,19.011446,-37.020428,54.803253,-1.8797739,4.560211,5.7968607,-9.467459,-13.704691,38.511246,54.413277,14.296417,3.5776923,-11.429445
72,2.3810389041900635,-3.656508445739746,117.4620361328125,-2.8024356886210557,0.8270811934738884,-82.18296773247802,-18.970549,5.833583,3.1379092,62.534428,-39.29859,-1.9826038,-37.28268,-6.764166,-0.7769507,62.607143,8.311456,10.453602,-0.29599127,-2.1163857,19.546434,-8.29205,19.328896,-37.05449,54.769,-1.8969038,4.5133166,5.779979,-9.399786,-13.774153,38.408325,54.250996,14.232229,3.5658984,-11.252054
73,2.269792079925537,-3.8641769886016846,117.10908508300781,-2.779491254383024,0.8287601481431197,-81.81411277167528,-19.702106,5.762434,2.5824978,64.3618,-39.521366,-2.2225685,-37.271084,-6.836566,-0.78841704,61.24532,9.657836,10.500387,-0.24345146,-2.3005714,19.70357,-8.528578,19.644995,-37.087032,54.801376,-1.8942604,4.4851027,5.7456007,-9.291321,-13.839066,38.25504,54.03265,14.140658,3.6085355,-11.100303
74,2.1438333988189697,-4.0843048095703125,116.75344848632812,-2.739385679121443,0.8404859359025479,-81.40118587544742,-20.468315,5.6378517,1.9724383,66.21375,-39.6514,-2.5006568,-37.201622,-6.939139,-0.8125555,59.76853,10.987605,10.504537,-0.20110442,-2.508739,19.863066,-8.802373,19.959112,-37.126343,54.895527,-1.8759775,4.4694715,5.697501,-9.149605,-13.899825,38.05993,53.77709,14.029869,3.6908085,-10.95841
75,2.01371431350708,-4.305480003356934,116.39995574951172,-2.6886076269495702,0.8450088319978813,-80.94555751698648,-21.254604,5.4635577,1.3059555,68.0914,-39.6974,-2.8027477,-37.0595,-7.038391,-0.81964993,58.202854,12.25649,10.473713,-0.16383468,-2.7305155,20.04101,-9.111578,20.26962,-37.179443,55.03639,-1.8636476,4.468345,5.6416597,-8.974995,-13.957793,37.860985,53.495846,13.925331,3.7763746,-10.835364
76,1.8683691024780273,-4.535722255706787,116.04122924804688,-2.633331490002894,0.8251059900856247,-80.4482098480942,-22.045639,5.2432375,0.5813937,69.994774,-39.670727,-3.1160524,-36.830322,-7.102616,-0.7795574,56.5756,13.419198,10.414335,-0.1274595,-2.956225,20.25293,-9.453115,20.574585,-37.25168,55.20913,-1.8774874,4.4840345,5.583749,-8.771175,-14.016585,37.697224,53.20454,13.852308,3.8287823,-10.740158
77,1.7142452001571655,-4.764155864715576,115.67219543457031,-2.5794199909552993,0.7725279061192993,-79.90609207442944,-22.849247,4.9702287,-0.21368542,71.95144,-39.541225,-3.4461818,-36.49749,-7.1211596,-0.6858183,54.865387,14.455955,10.318637,-0.090580925,-3.1792326,20.515335,-9.83611,20.871775,-37.35246,55.425278,-1.935645,4.5155296,5.531274,-8.542017,-14.078091,37.576443,52.90516,13.847669,3.8293905,-10.687715
78,1.5487868785858154,-4.9890570640563965,115.29483795166016,-2.522189799404335,0.6976360330266999,-79.31949769147221,-23.662867,4.637187,-1.069277,73.94906,-39.31446,-3.8064194,-36.07402,-7.1168337,-0.5547013,53.07015,15.39253,10.182781,-0.055199362,-3.4056036,20.815195,-10.260405,21.16012,-37.47731,55.690437,-2.022722,4.562143,5.479072,-8.283589,-14.142895,37.478214,52.5884,13.887767,3.8010223,-10.669055
79,1.3802061080932617,-5.2209553718566895,114.9033203125,-2.452989112555549,0.6110004577839121,-78.6952294849232,-24.45987,4.249104,-1.9546866,75.93442,-39.05459,-4.192526,-35.58944,-7.108337,-0.38863966,51.242397,16.25029,10.020412,-0.021443859,-3.6431766,21.125292,-10.707982,21.44008,-37.611088,55.978146,-2.1086695,4.625928,5.4141655,-7.9865227,-14.212008,37.400852,52.247215,13.911714,3.7697759,-10.657608
80,1.1994280815124512,-5.467116355895996,114.50748443603516,-2.3630383870814007,0.5228874504723883,-78.04022174908792,-25.215214,3.81447,-2.8412306,77.854675,-38.823814,-4.595941,-35.072796,-7.113635,-0.19021739,49.433018,17.052185,9.845018,0.009220676,-3.9001608,21.4192,-11.160065,21.713678,-37.73704,56.26002,-2.1636484,4.709226,5.3232474,-7.641302,-14.286254,37.34409,51.873123,13.85867,3.761714,-10.627026
81,1.013145923614502,-5.720085144042969,114.09318542480469,-2.250854711563908,0.4309068494807177,-77.35122189075486,-25.92505,3.3327193,-3.7319427,79.69974,-38.617603,-5.0191755,-34.528793,-7.124598,0.063581355,47.653778,17.755043,9.613937,0.03567697,-4.1813636,21.702751,-11.621284,21.981878,-37.846195,56.55004,-2.183665,4.8231745,5.1912494,-7.2474093,-14.36602,37.30294,51.467854,13.705225,3.7734015,-10.5598345
82,0.8157730102539062,-5.983004570007324,113.66712188720703,-2.120940541591763,0.330605651189646,-76.62659788415891,-26.599396,2.799104,-4.6370926,81.49936,-38.41345,-5.467521,-33.946384,-7.1413994,0.36562964,45.884518,18.360672,9.330801,0.058709476,-4.482286,21.986223,-12.097436,22.245058,-37.94941,56.85397,-2.1835358,4.963078,5.0286765,-6.808625,-14.451643,37.27856,51.032734,13.486271,3.794103,-10.473662
83,0.6237735152244568,-6.2655558586120605,113.23064422607422,-1.9745122215666013,0.22894796502836265,-75.87501452137091,-27.234373,2.2213764,-5.5410624,83.25516,-38.239815,-5.930711,-33.326866,-7.190003,0.6680868,44.119774,18.961874,9.081876,0.079583675,-4.7967105,22.249868,-12.56952,22.505358,-38.056664,57.129063,-2.1594195,5.1073947,4.8604956,-6.3243184,-14.544381,37.280857,50.559753,13.229202,3.8394473,-10.394362
84,0.4241829216480255,-6.563653945922852,112.78010559082031,-1.812351843556971,0.13293642165041972,-75.10565589467154,-27.827917,1.6099458,-6.429458,84.97042,-38.129093,-6.396114,-32.67194,-7.292329,0.92458004,42.353237,19.65114,8.957532,0.09869125,-5.1191945,22.473812,-13.016378,22.766552,-38.17548,57.33,-2.1070197,5.234675,4.7117224,-5.7942286,-14.64713,37.31964,50.042427,12.959459,3.9251034,-10.34752
85,0.22347481548786163,-6.8800740242004395,112.3162612915039,-1.633996565467744,0.04419857753330609,-74.32091523518338,-28.36559,0.9734126,-7.2957735,86.62212,-38.112614,-6.853365,-31.973969,-7.4470205,1.1299924,40.56585,20.442661,8.994519,0.117251836,-5.450909,22.655699,-13.4385805,23.03214,-38.309658,57.46145,-2.0154793,5.337161,4.581921,-5.222343,-14.760936,37.39999,49.483753,12.683657,4.0604453,-10.342455
86,0.02581738494336605,-7.208303451538086,111.83590698242188,-1.4400593771184933,-0.041662401042263576,-73.51631658404479,-28.853802,0.3098457,-8.150479,88.21914,-38.16708,-7.307333,-31.235386,-7.640122,1.3088157,38.7654,21.290222,9.144177,0.13421588,-5.79437,22.806036,-13.841325,23.303345,-38.45133,57.535435,-1.8888441,5.4271345,4.459936,-4.6085277,-14.886858,37.516064,48.885155,12.388135,4.2356,-10.363946
87,-0.17629685997962952,-7.549783706665039,111.33609008789062,-1.2336331131156908,-0.1265130263480155,-72.6904779513717,-29.322742,-0.38778844,-9.004383,89.81249,-38.238953,-7.768092,-30.475958,-7.870529,1.4606175,36.99292,22.1928,9.372051,0.14685084,-6.143282,22.92604,-14.21703,23.581459,-38.597904,57.52041,-1.7538035,5.5132523,4.354424,-3.9389617,-15.026658,37.6588,48.225544,12.069977,4.4388285,-10.400832
88,-0.37857145071029663,-7.900628566741943,110.81926727294922,-1.0176173056037796,-0.21213031183194916,-71.84185323588733,-29.800415,-1.1282718,-9.8675995,91.4526,-38.275917,-8.248724,-29.71531,-8.13685,1.5843402,35.28878,23.149382,9.643916,0.15321216,-6.4915314,23.017345,-14.558793,23.867819,-38.747143,57.384617,-1.6370323,5.6041074,4.2741175,-3.1992898,-15.182909,37.818523,47.48292,11.72729,4.6577783,-10.441908
89,-0.5808281898498535,-8.263970375061035,110.28119659423828,-0.7918983150916368,-0.29580944402118353,-70.95913909965255,-30.285894,-1.9156599,-10.740929,93.1385,-38.276005,-8.758131,-28.95152,-8.444691,1.6736102,33.639626,24.240896,9.999516,0.14712843,-6.841097,23.079205,-14.867977,24.163162,-38.89672,57.121994,-1.5379696,5.711921,4.234101,-2.3868558,-15.35807,37.988693,46.65175,11.350195,4.8966594,-10.4874
90,-0.7861046195030212,-8.645755767822266,109.71944427490234,-0.5565685845018771,-0.37820507853815255,-70.04700391076071,-30.764078,-2.7434223,-11.620841,94.84891,-38.264763,-9.288964,-28.17975,-8.784857,1.7364689,32.03753,25.437574,10.447432,0.13287069,-7.1926627,23.11222,-15.147629,24.468172,-39.04806,56.74585,-1.4450425,5.829268,4.225624,-1.5045844,-15.553535,38.171314,45.736526,10.943067,5.1601453,-10.541544
91,-0.9871701002120972,-9.03701114654541,109.13580322265625,-0.3130580026500305,-0.46625018432149234,-69.12803160089642,-31.240557,-3.6097953,-12.509136,96.60512,-38.233166,-9.833652,-27.415634,-9.138581,1.7895674,30.529848,26.575096,10.902661,0.12423452,-7.5404234,23.119865,-15.394978,24.784649,-39.20645,56.256203,-1.3693614,5.9353523,4.221638,-0.55019754,-15.772542,38.3671,44.734615,10.524302,5.436816,-10.599883
92,-1.1973072290420532,-9.43012809753418,108.53137969970703,-0.06216160638885425,-0.5668138758640706,-68.22430875741942,-31.719315,-4.518883,-13.396231,98.42566,-38.169357,-10.376417,-26.666952,-9.492577,1.8424765,29.149279,27.494366,11.275032,0.1353805,-7.8791804,23.107208,-15.605699,25.115187,-39.37593,55.650654,-1.3211223,6.0094523,4.1952605,0.48203978,-16.019491,38.57406,43.638706,10.111835,5.715369,-10.65846
93,-1.4011133909225464,-9.837705612182617,107.88623046875,0.19574402668457744,-0.6775630756778543,-67.32640821811432,-32.217846,-5.4876666,-14.292884,100.331535,-38.052998,-10.920193,-25.937553,-9.845561,1.9056041,27.908112,28.143599,11.531415,0.16468959,-8.206633,23.07767,-15.778696,25.461092,-39.549988,54.91423,-1.3035368,6.0508213,4.1329665,1.6063316,-16.299189,38.777912,42.42773,9.667056,6.0031013,-10.711717
94,-1.6037739515304565,-10.256718635559082,107.21988677978516,0.4621233050864583,-0.7970552997460683,-66.42756063778592,-32.72052,-6.5136266,-15.19681,102.30607,-37.898495,-11.478014,-25.21978,-10.20735,1.9663028,26.78214,28.613253,11.719147,0.20880586,-8.526641,23.032158,-15.915383,25.823395,-39.726902,54.047623,-1.3095316,6.0696397,4.0514297,2.8251357,-16.615198,38.971558,41.09731,9.194007,6.303509,-10.763354
95,-1.804444432258606,-10.682262420654297,106.52571868896484,0.7399763946878916,-0.9334792251158018,-65.5533108212669,-33.18325,-7.5678406,-16.086344,104.31478,-37.749603,-12.057156,-24.514023,-10.584437,1.9981457,25.772585,28.950657,11.865456,0.2784386,-8.84418,22.972862,-16.01987,26.205587,-39.926285,53.073685,-1.3411791,6.0614915,3.968899,4.124531,-16.969667,39.166798,39.666306,8.777093,6.5998464,-10.824546
96,-2.003890037536621,-11.117643356323242,105.79935455322266,1.0316290120296499,-1.0948655884009328,-64.72945201791366,-33.564026,-8.618125,-16.94154,106.321075,-37.64898,-12.661568,-23.818228,-10.982435,1.9753644,24.876678,29.204836,11.998486,0.38348922,-9.164636,22.901503,-16.092756,26.612396,-40.165485,52.01232,-1.398806,6.022036,3.9031494,5.4882345,-17.363653,39.378098,38.157524,8.500786,6.8748264,-10.9072895
97,-2.1953651905059814,-11.571455955505371,105.04356384277344,1.3371520620813016,-1.2867315891560984,-63.94665781230227,-33.856533,-9.676945,-17.77227,108.31983,-37.60302,-13.305615,-23.125048,-11.402518,1.8965409,24.105064,29.321993,12.093202,0.52424395,-9.4864025,22.82745,-16.133842,27.048096,-40.45229,50.84213,-1.5068657,5.947562,3.8470175,6.9365983,-17.799715,39.60745,36.542374,8.41538,7.1297,-11.042386
98,-2.3773725032806396,-12.03874397277832,104.26163482666016,1.6568149153412741,-1.504648031746913,-63.19641898641664,-34.076912,-10.754247,-18.581781,110.329155,-37.595055,-13.982352,-22.4333,-11.844582,1.7723088,23.451078,29.300676,12.144512,0.6974355,-9.809679,22.752058,-16.141516,27.515278,-40.776596,49.553013,-1.6590406,5.842091,3.794318,8.476564,-18.280628,39.83815,34.810436,8.466967,7.3719006,-11.216806
99,-2.5453596115112305,-12.513826370239258,103.44854736328125,1.9936931618821296,-1.7407839665397145,-62.50542700522513,-34.223335,-11.810436,-19.340382,112.35139,-37.631294,-14.659059,-21.751427,-12.30581,1.5953637,22.888323,29.266396,12.212467,0.90563107,-10.141657,22.662659,-16.10764,28.014975,-41.122704,48.177616,-1.8029327,5.712635,3.764497,10.066812,-18.806606,40.06232,33.018963,8.581265,7.592818,-11.376449
100,-2.7013254165649414,-13.004829406738281,102.6136245727539,2.3547359279401054,-1.988219002152011,-61.90049567021922,-34.309258,-12.767211,-19.924667,114.382355,-37.714447,-15.000033,-21.087372,-12.79156,1.3674433,22.392618,29.34364,12.364402,1.1481221,-10.489085,22.54445,-16.024876,28.547262,-41.47607,46.75155,-1.8889158,5.5656414,3.7771742,11.663544,-19.373388,40.28081,31.229597,8.684588,7.783957,-11.465984
101,-2.8370633125305176,-13.514846801757812,101.74179077148438,2.8063683929116348,-2.2780186274577265,-61.36216864681073,-34.3183,-13.677587,-20.27597,116.409874,-37.84129,-15.000033,-20.487967,-13.375561,1.1356335,22.12503,29.502748,12.672432,1.4150823,-10.921545,22.42052,-15.897131,29.11673,-41.867245,45.268574,-1.9058337,5.4010806,3.8399394,13.283613,-19.97784,40.519817,29.435163,8.799233,7.9467506,-11.506636
102,-2.964787483215332,-14.037604331970215,100.844482421875,3.3692653695467856,-2.6122278857178953,-60.90662855342384,-34.24811,-14.5825815,-20.448074,118.41604,-37.993645,-15.000033,-19.943958,-14.063742,0.94353646,22.057121,29.694475,13.101222,1.7303464,-11.459798,22.306269,-15.721865,29.724895,-42.289062,43.708355,-1.8789631,5.216261,3.941967,14.934594,-20.61899,40.77372,27.618546,8.949649,8.083426,-11.515732
103,-3.0808727741241455,-14.561346054077148,99.91637420654297,3.9684243759557076,-2.9591384429973964,-60.529164576532914,-34.12922,-15.432339,-20.521578,120.428535,-38.166924,-15.000033,-19.428282,-14.789013,0.7216174,22.096045,29.878965,13.551874,2.064133,-12.029568,22.175747,-15.4833975,30.368706,-42.676506,42.095985,-1.8126918,5.01345,4.0702596,16.575968,-21.290844,41.004387,25.818247,9.06567,8.189315,-11.433355
104,-3.1867363452911377,-15.095361709594727,98.96746063232422,4.585549035749609,-3.3040833869768904,-60.22960401079616,-33.981144,-16.20504,-20.506891,122.45359,-38.33962,-15.000033,-18.927,-15.537261,0.44799608,22.201786,29.986916,13.939901,2.3922615,-12.614408,22.018196,-15.165419,31.043175,-42.964306,40.4622,-1.7115283,4.7944193,4.211962,18.162422,-21.98366,41.17754,24.07989,9.077644,8.2604885,-11.199533
105,-3.2853403091430664,-15.633131980895996,97.99335479736328,5.224898935145606,-3.634790342935751,-59.99949600696622,-33.83858,-16.905008,-20.382166,124.50109,-38.500237,-15.000033,-18.424154,-16.327938,0.06600985,22.32339,30.000067,14.284622,2.7000096,-13.224849,21.810148,-14.760373,31.746656,-43.154873,38.809853,-1.5473126,4.543299,4.3679466,19.68564,-22.689558,41.316074,22.420195,8.941666,8.271041,-10.765163
106,-3.362119674682617,-16.172861099243164,96.98446655273438,5.90059440343888,-3.9593278028158867,-59.8372417431352,-33.684765,-17.54352,-20.139378,126.56658,-38.66955,-15.000033,-17.946457,-17.16786,-0.3964562,22.527744,29.955711,14.6157675,2.9925468,-13.874084,21.557016,-14.270552,32.479107,-43.273197,37.128525,-1.32588,4.2647657,4.543589,21.158316,-23.403488,41.440113,20.831793,8.704254,8.228646,-10.173194
107,-3.4281980991363525,-16.721391677856445,95.95262908935547,6.612165414037666,-4.3018142228668195,-59.752148296210734,-33.450096,-18.110083,-19.798723,128.63399,-38.870853,-15.000033,-17.517593,-18.034052,-0.8342146,22.922335,29.824139,14.87012,3.2769241,-14.551196,21.298954,-13.691508,33.23581,-43.285194,35.43033,-1.1005251,3.9908798,4.7327366,22.566256,-24.117203,41.512657,19.325392,8.430628,8.178232,-9.500737
108,-3.487337350845337,-17.2782039642334,94.89630126953125,7.359929852622265,-4.687054911214139,-59.75354902304725,-33.065533,-18.593916,-19.383453,130.68121,-39.123417,-15.000033,-17.071554,-18.90053,-1.1709687,23.426254,29.700092,14.983292,3.5604098,-15.244146,21.076288,-13.013954,34.008858,-43.152138,33.72732,-0.9218656,3.7531803,4.929044,23.895786,-24.8196,41.49749,17.911375,8.1849785,8.166732,-8.824608
109,-3.537221908569336,-17.83720588684082,93.80843353271484,8.173171277296833,-5.117263271798643,-59.83203859364879,-32.551746,-19.008625,-18.849812,132.71832,-39.424023,-15.000033,-16.6589,-19.801596,-1.3618358,24.105762,29.652933,14.943379,3.8341923,-15.988572,20.87988,-12.232309,34.795197,-42.876827,32.021404,-0.79589695,3.5553896,5.141614,25.14907,-25.502655,41.390457,16.592577,7.9603786,8.217843,-8.113429
110,-3.5773766040802,-18.394142150878906,92.69021606445312,9.042876869204443,-5.577258350720127,-59.982538089014334,-31.93103,-19.356638,-18.197319,134.75249,-39.77068,-15.000033,-16.255743,-20.735857,-1.4723107,24.896433,29.662153,14.784621,4.0929823,-16.780704,20.690603,-11.343148,35.591667,-42.475113,30.311375,-0.6994275,3.3823516,5.3693504,26.324236,-26.161108,41.217125,15.378403,7.7286506,8.301764,-7.343003
111,-3.603787660598755,-18.957761764526367,91.55365753173828,9.922904491516942,-6.067846282035138,-60.22307020668188,-31.135162,-19.613455,-17.506886,136.75977,-40.18587,-15.000033,-15.758307,-21.638277,-1.5664918,25.668339,29.602072,14.512294,4.353021,-17.555649,20.533642,-10.340888,36.385784,-41.92629,28.612019,-0.6357937,3.233664,5.5904474,27.396051,-26.787481,40.98657,14.295536,7.523814,8.386557,-6.6006503
112,-3.6196470260620117,-19.51185417175293,90.40513610839844,10.773838843820027,-6.588192195960791,-60.57119612513971,-30.097443,-19.759134,-16.845242,138.71658,-40.693497,-15.000033,-15.147726,-22.450735,-1.6755892,26.456375,29.25892,14.131269,4.634099,-18.257797,20.434225,-9.226847,37.159145,-41.21304,26.943804,-0.6091387,3.1118886,5.7833385,28.338478,-27.37301,40.70728,13.374303,7.380094,8.442041,-5.9746723
113,-3.621218681335449,-20.059200286865234,89.2193603515625,11.690268229656679,-7.198580712282199,-60.99638671446126,-28.781466,-19.86334,-16.143793,140.63417,-41.305424,-15.000033,-14.59068,-23.27333,-1.6758516,27.661856,28.93901,13.63607,4.9250636,-18.985283,20.450932,-8.021126,37.904453,-40.32145,25.334225,-0.65310085,3.011223,5.919382,29.18051,-27.909925,40.366413,12.579216,7.266737,8.482531,-5.4520626
114,-3.617141008377075,-20.603750228881836,87.9930419921875,12.659371393118265,-7.875832171601002,-61.4986965779565,-27.226744,-19.90773,-15.384443,142.52156,-42.014416,-15.000033,-14.013462,-24.098803,-1.6071783,29.076406,28.66281,13.028743,5.2255526,-19.729792,20.549263,-6.692033,38.614666,-39.25456,23.759724,-0.741524,2.9329693,6.017582,29.918709,-28.393013,39.969643,11.92257,7.1787505,8.51787,-4.998231
115,-3.61012601852417,-21.163192749023438,86.77428436279297,13.674765234003186,-8.582412384646954,-62.0796983109031,-25.459097,-19.949018,-14.584634,144.33868,-42.784035,-15.000033,-13.235449,-24.960907,-1.5572298,30.410446,27.450413,12.397708,5.534544,-20.476154,20.701735,-5.2565045,39.276207,-38.07977,22.240704,-0.8378335,2.884529,6.1176825,30.518673,-28.820261,39.554253,11.466866,7.184357,8.51769,-4.675569
116,-3.6099274158477783,-21.726097106933594,85.5889892578125,14.761990299223802,-9.29838867339572,-62.72918926003121,-23.50804,-20.082697,-13.743933,146.04973,-43.559807,-15.000033,-12.112787,-25.936985,-1.5789008,31.499151,24.231361,11.856329,5.845599,-21.248121,20.901943,-3.8151598,39.873005,-36.91198,20.859957,-0.94245464,2.8733864,6.2579727,30.956188,-29.193552,39.15575,11.262961,7.350465,8.453184,-4.5476837
117,-3.5652716159820557,-22.269739151000977,84.31527709960938,16.025508407683404,-10.045556469949977,-63.44751708443513,-21.386091,-20.374434,-12.7758665,147.67653,-44.328182,-15.000033,-10.414192,-27.192228,-1.7431469,32.25017,17.679924,11.487399,6.1923676,-22.12318,21.169594,-2.3797498,40.399094,-35.7851,19.601006,-1.0691777,2.926153,6.446795,31.305634,-29.518372,38.72341,11.245167,7.7064047,8.306969,-4.65868
118,-3.5103981494903564,-22.79726219177246,83.03120422363281,17.403682584802038,-10.804728273221029,-64.25476594145935,-19.101261,-20.723751,-11.708236,149.23305,-45.120182,-15.000033,-8.351605,-28.65295,-2.0310817,32.846928,8.609053,11.277473,6.589948,-23.041239,21.488306,-0.9482713,40.84601,-34.67126,18.46927,-1.2217057,3.0293546,6.6664057,31.56791,-29.795837,38.24828,11.404471,8.210206,8.096574,-4.9627624
119,-3.4461662769317627,-23.307397842407227,81.82791900634766,18.682587921121662,-11.509914563218258,-65.16227668028615,-16.668575,-20.98654,-10.713421,150.67271,-45.945248,-15.000033,-6.4479723,-30.040823,-2.3019934,33.575466,-0.78642374,11.173011,7.009507,-23.823135,21.798298,0.48319417,41.184162,-33.55007,17.525303,-1.3201818,3.130503,6.9161973,31.617592,-30.014107,37.82546,11.879845,8.822311,7.845516,-5.388368
120,-3.3689894676208496,-23.780832290649414,80.73238372802734,19.671060638123215,-12.122429645605703,-66.17048898720388,-14.085867,-21.04659,-9.954335,151.94617,-46.80373,-15.000033,-5.1440682,-31.050844,-2.361482,34.654808,-8.338799,11.028111,7.419985,-24.310858,22.054409,1.8993644,41.36786,-32.41481,16.853458,-1.2797698,3.1773965,7.1940336,31.322645,-30.150564,37.54861,12.826389,9.502248,7.57861,-5.865715
121,-3.266759157180786,-24.236040115356445,79.73545837402344,20.296382578350595,-12.65862065221111,-67.28656066328413,-11.244097,-20.821964,-9.550497,153.05688,-47.75225,-15.000033,-4.396363,-31.593273,-2.243813,35.9274,-13.631862,10.665927,7.8594556,-24.408333,22.246632,3.172039,41.362705,-31.408094,16.573565,-1.0958197,3.1435742,7.527533,30.674826,-30.174887,37.395702,14.301448,10.341521,7.24144,-6.4223475
122,-3.1483001708984375,-24.667858123779297,78.79923248291016,20.689438956615124,-13.16536976055625,-68.51418143254685,-8.175961,-20.393755,-9.353534,154.01974,-48.76765,-15.000033,-3.9648733,-31.813936,-1.9783264,37.288815,-17.812172,10.148271,8.309185,-24.234861,22.403772,4.359668,41.165077,-30.440775,16.627224,-0.77339464,3.062446,7.8937063,29.694109,-30.088284,37.354927,16.261496,11.317106,6.8363204,-7.0824285
123,-3.0425374507904053,-25.112682342529297,78.01351928710938,20.964261911710775,-13.662589225425005,-69.84130466045464,-5.10792,-19.924417,-9.160866,154.7925,-49.668964,-15.000033,-3.84955,-31.76074,-1.4007772,38.85167,-21.111101,9.63979,8.815854,-23.918034,22.587887,5.425559,40.750244,-29.497322,17.020012,-0.32357833,2.9704952,8.260482,28.483114,-29.887735,37.376514,18.604418,12.213065,6.481504,-7.7616816
124,-2.967587947845459,-25.513240814208984,77.34268188476562,21.22699260731031,-14.157198066714436,-71.24812461409599,-2.4026148,-19.595926,-8.789962,155.30629,-50.000305,-15.000033,-4.0495048,-31.498983,-0.3667332,40.752193,-23.725964,9.333289,9.336204,-23.59712,22.837158,6.466625,40.091858,-28.411678,17.676289,0.2800861,2.9034414,8.573186,27.048418,-29.58994,37.485188,21.277657,12.826313,6.300304,-8.388704
125,-2.885087490081787,-25.83550453186035,76.72027587890625,21.46027999025692,-14.610041208413126,-72.83396047266088,0.10081406,-19.452738,-8.335387,155.52797,-50.000305,-15.000033,-4.7953844,-30.909395,1.4124359,43.27929,-25.469938,9.310465,9.914814,-23.236729,23.173279,7.53652,39.132713,-27.05254,18.617737,1.2185442,2.8398752,8.758857,25.263851,-29.216372,37.758583,24.423079,13.1173115,6.37457,-8.944792
126,-2.8006234169006348,-26.145320892333984,76.2345962524414,21.60989086497465,-15.038652243941389,-74.57387109835574,2.6354275,-19.422554,-7.9715133,155.5397,-50.000305,-15.000033,-5.9504943,-29.992643,3.7512476,46.316883,-26.346867,9.41642,10.524635,-22.76401,23.565052,8.553153,37.85444,-25.517317,19.89628,2.4432166,2.7675295,8.854644,23.168858,-28.777538,38.158546,27.987738,13.207032,6.6316743,-9.478151
127,-2.7276318073272705,-26.477649688720703,75.88380432128906,21.733416047566838,-15.514172094047689,-76.25409440954483,5.025123,-19.499758,-7.69507,155.47241,-49.85793,-15.000033,-7.0098934,-29.028149,6.08483,49.3817,-26.807058,9.530326,11.016291,-22.273857,23.972345,9.40862,36.324448,-24.003292,21.460186,3.6165564,2.7385652,8.979884,21.032295,-28.27428,38.530636,31.6278,13.120382,6.9658165,-10.012759
128,-2.6882712841033936,-26.82591438293457,75.62238311767578,21.89842823757817,-16.103872667545208,-77.66606804775412,6.879975,-19.650982,-7.411583,155.40251,-49.017014,-15.000033,-7.509386,-28.316227,7.8671165,51.92282,-27.2661,9.592107,11.253779,-21.881407,24.369545,10.071511,34.674,-22.681067,23.172338,4.392307,2.8135438,9.2608,19.105806,-27.704021,38.72988,35.029686,12.876977,7.2676835,-10.566525
129,-2.6695547103881836,-27.183727264404297,75.40116882324219,22.12630614967063,-16.907037156142696,-78.72343105174352,8.3920145,-19.944443,-7.2821665,155.37654,-47.733006,-15.000033,-7.239441,-27.954622,8.880385,53.7686,-27.72375,9.627676,11.168398,-21.67643,24.868221,10.634385,32.994595,-21.485947,24.939642,4.7013083,3.061341,9.81942,17.390135,-27.048365,38.80255,38.234894,12.307122,7.552186,-11.167484
130,-2.6542115211486816,-27.534671783447266,75.19682312011719,22.383733444769636,-17.85287613497926,-79.55122045882025,9.6009245,-20.346327,-7.2922535,155.3299,-46.0188,-15.000033,-6.5004253,-27.7672,9.425955,55.17949,-27.966696,9.679331,10.847289,-21.621523,25.465101,11.068642,31.319065,-20.363886,26.805721,4.6410465,3.4387157,10.561718,15.740464,-26.301064,38.819412,41.38585,11.454215,7.8675656,-11.787866
131,-2.635646343231201,-27.870792388916016,75.01493072509766,22.645092480447126,-18.756030073778227,-80.25561969740414,10.406765,-20.68529,-7.2433767,155.29613,-43.97101,-15.000033,-5.6243176,-27.641933,9.7574005,56.27528,-28.10626,9.739155,10.426643,-21.635046,25.96251,11.449969,29.687689,-19.400932,28.608479,4.23587,3.8317008,11.299909,14.228213,-25.48474,38.644096,44.31574,10.6499,8.144877,-12.362431
132,-2.6037344932556152,-28.19706153869629,74.87277221679688,22.88471687972647,-19.433569754335643,-80.93460100373262,10.704234,-20.79821,-6.933708,155.30853,-41.685272,-15.000033,-4.9419875,-27.493225,10.141762,57.181503,-28.260073,9.791971,10.020382,-21.628798,26.177824,11.671705,28.158861,-18.760595,30.348291,3.4086595,4.124568,11.850073,12.920081,-24.647266,38.140915,46.826847,10.230075,8.306646,-12.8327
133,-2.5609946250915527,-28.51650047302246,74.77922058105469,23.068005140846864,-19.81360343937452,-81.53932031903088,10.402483,-20.617138,-6.326625,155.41801,-39.203266,-15.000033,-4.5782576,-27.297243,10.628959,57.942513,-28.401821,9.843427,9.603883,-21.585358,26.02585,11.716483,26.780254,-18.54894,31.988403,1.8212208,4.344988,12.235839,11.887749,-23.820438,37.146797,48.795326,10.265618,8.330921,-13.173143
134,-2.520282745361328,-28.840673446655273,74.71808624267578,23.203084481166055,-20.001804639582968,-82.03200563038371,9.584835,-20.227196,-5.542353,155.58838,-36.46389,-15.000033,-4.3482256,-27.098747,11.079133,58.489475,-28.486834,9.891721,9.154025,-21.542862,25.63065,11.647174,25.561844,-18.678658,33.52864,-0.42296913,4.5271215,12.534736,11.108478,-23.014194,35.75472,50.291714,10.583908,8.253091,-13.416084
135,-2.4776811599731445,-29.153654098510742,74.68627166748047,23.332245047772652,-20.081954224163333,-82.52586667336828,8.408265,-19.686598,-4.6115274,155.7279,-33.40557,-15.000033,-4.123323,-26.931469,11.482859,58.78533,-28.60946,9.908764,8.770681,-21.496206,25.118074,11.549732,24.48884,-18.980566,34.967396,-2.699738,4.5820007,12.628268,10.51305,-22.246788,34.221127,51.402855,11.158584,8.0783,-13.592993
136,-2.4232912063598633,-29.47459602355957,74.6789321899414,23.500977669654354,-20.13822323013045,-83.13749034524676,7.0282707,-19.048283,-3.5624533,155.74194,-29.956635,-15.000033,-3.772126,-26.831049,11.831477,58.788383,-28.862127,9.8687725,8.539304,-21.444595,24.612642,11.516623,23.529545,-19.268595,36.292767,-4.3713923,4.4358926,12.390664,10.026103,-21.541346,32.81741,52.21491,11.96833,7.813357,-13.734403
137,-2.3660740852355957,-29.798709869384766,74.69940185546875,23.722251060159035,-20.1494607672579,-83.93588579090577,5.46957,-18.27082,-2.3469229,155.6097,-26.095655,-15.000033,-3.2977655,-26.787008,12.136913,58.45245,-29.3086,9.744475,8.494055,-21.37592,24.102085,11.560151,22.663925,-19.508707,37.51828,-5.337309,3.9914317,11.617113,9.667891,-20.913317,31.528158,52.663124,13.183678,7.4204826,-13.845559
138,-2.2975716590881348,-30.121889114379883,74.73847198486328,23.957669759163096,-20.078520760781718,-84.84895815043008,3.70644,-17.303885,-1.0035093,155.37695,-21.873589,-15.000033,-2.7652655,-26.761074,12.394937,57.814407,-29.88407,9.546143,8.565918,-21.282434,23.521717,11.63684,21.885313,-19.774641,38.649757,-5.9123783,3.3278031,10.422524,9.462533,-20.36671,30.260372,52.716686,14.764737,6.912103,-13.900305
139,-2.2257492542266846,-30.4615535736084,74.79781341552734,24.17971842802921,-19.986950083882046,-85.77968972551415,1.7865722,-16.188341,0.3238861,155.04233,-17.291965,-15.000033,-2.135263,-26.75822,12.574964,56.957203,-30.489658,9.3086195,8.676576,-21.176998,22.920597,11.750317,21.178593,-20.040844,39.66498,-6.080237,2.6248703,9.167741,9.339511,-19.903233,29.17483,52.518696,16.378126,6.372597,-13.887123
140,-2.154917001724243,-30.814424514770508,74.88043212890625,24.369195878863867,-19.937466361655044,-86.62697540242372,-0.28094652,-14.965514,1.5073715,154.60791,-12.33321,-15.000033,-1.3711878,-26.793991,12.644903,55.959755,-31.023842,9.077531,8.727982,-21.078342,22.340895,11.922121,20.52209,-20.26103,40.534504,-5.80003,2.053872,8.2161045,9.21617,-19.522312,28.451332,52.229656,17.696184,5.8858113,-13.805931
141,-2.0698447227478027,-31.15595817565918,74.98481750488281,24.526324550704356,-19.94100148688722,-87.33145037378956,-2.6011844,-13.519847,2.564215,154.08699,-6.790313,-15.000033,-0.40407583,-26.929853,12.5167675,54.719532,-31.517357,8.866212,8.649465,-21.012571,21.755234,12.178649,19.906834,-20.414427,41.240368,-4.8576226,1.5982955,7.604312,9.095352,-19.22323,28.179565,51.841866,18.753061,5.4568787,-13.64487
142,-1.996518850326538,-31.493398666381836,75.107666015625,24.643882567188054,-19.958437936523048,-87.95208266654667,-5.1222563,-11.829838,3.492778,153.45433,-0.72836864,-15.000033,0.7238181,-27.100292,12.214093,53.235405,-32.005676,8.644592,8.486793,-20.945103,21.134254,12.50465,19.330807,-20.513592,41.810173,-3.3281574,1.1715657,7.169943,9.008747,-19.001904,28.26665,51.29987,19.689922,5.050392,-13.411819
143,-1.9348299503326416,-31.837575912475586,75.24107360839844,24.691077542527506,-19.976587513413286,-88.56528530411232,-7.6540384,-10.107493,4.2232347,152.69907,5.4440236,-15.000033,1.8484322,-27.166454,11.90842,51.75026,-32.387676,8.417369,8.32104,-20.811111,20.519028,12.851951,18.779903,-20.568222,42.290855,-1.5935758,0.850986,6.9699464,8.920905,-18.85005,28.613346,50.693428,20.336174,4.685382,-13.145535
144,-1.8714226484298706,-32.16884231567383,75.39102172851562,24.666387436073606,-19.98943088002003,-89.2515910587311,-10.020986,-8.606279,4.7486067,151.81375,11.31061,-15.000033,2.8116112,-27.034883,11.788642,50.50124,-32.56186,8.191134,8.236113,-20.56699,19.960825,13.16517,18.231937,-20.590666,42.738495,-0.035744704,0.72212446,7.052741,8.789371,-18.758272,29.12096,50.119072,20.519403,4.377141,-12.888239
145,-2.1002860069274902,-32.225547790527344,75.68136596679688,24.621917168976584,-18.97115897186478,-87.48639995414693,-20.406971,18.42983,2.7392058,150.78592,30.000067,12.356381,2.186165,-27.820591,10.2627735,49.52225,-32.196163,8.037666,6.075161,-21.429993,17.82782,13.316742,18.025417,-20.6769,43.036278,1.3229346,0.8807354,7.5169806,8.788209,-18.723476,29.645475,49.201836,20.127838,4.166136,-12.621804
146,-1.950353980064392,-32.64757537841797,75.70420837402344,22.80715899082015,-19.1242349020204,-89.08059713450892,-19.170605,23.074884,1.4982666,150.47656,30.000067,15.000033,3.0284467,-24.90948,10.752505,48.937042,-31.989262,7.326494,6.732402,-19.057657,17.482595,13.8157835,17.530558,-20.657068,43.184895,2.7723494,1.3184397,8.399194,8.429497,-18.67558,30.710257,48.93381,19.272251,3.909238,-12.37701
147,-1.7964797019958496,-33.064048767089844,75.78140258789062,22.036490595593918,-19.496297669441606,-90.88674328104085,-17.45793,23.482866,1.6815865,149.7111,30.000067,15.000033,4.0170527,-23.204523,11.699586,48.401814,-31.690594,6.9151816,7.6390924,-17.488281,17.542295,14.026177,16.72085,-20.637054,43.66492,4.088376,1.818592,9.36682,8.1478195,-18.799805,31.787853,48.57548,18.090971,3.730078,-12.146536
148,-1.6634695529937744,-33.434356689453125,75.89671325683594,21.487026552589764,-19.801686745307116,-92.38002580025875,-16.46994,23.439146,2.0987785,148.85358,30.000067,15.000033,4.8671203,-21.935818,12.495124,47.886677,-31.294418,6.6151533,8.287701,-16.24585,17.534029,14.193034,15.946193,-20.51038,44.135094,4.9141164,2.2184472,10.039892,7.919504,-18.996119,32.822227,48.12893,16.790283,3.613642,-11.944131
149,-1.544859528541565,-33.754150390625,76.05024719238281,21.301910338116855,-20.058794573261512,-93.53060218617712,-16.18919,22.64726,2.9802282,147.80757,30.000067,15.000033,5.6018825,-21.313904,13.115864,47.39154,-30.78169,6.4872427,8.662921,-15.503136,17.515596,14.316792,15.205064,-20.212482,44.605766,5.171552,2.4730804,10.3605795,7.6709714,-19.210873,33.85341,47.685303,15.23081,3.5600364,-11.777072
150,-1.4319486618041992,-34.045047760009766,76.24046325683594,21.378497472335606,-20.283286926540082,-94.45286276116025,-16.409376,21.270004,4.148933,146.56984,30.000067,15.000033,6.2326922,-21.1345,13.638784,46.957752,-30.149693,6.487711,8.862341,-15.116743,17.512701,14.399954,14.493808,-19.781057,45.06954,5.007759,2.6666489,10.498419,7.3691864,-19.419788,34.93789,47.28968,13.375166,3.5576773,-11.638659
151,-1.3466519117355347,-34.29838562011719,76.4525146484375,21.497836355269023,-20.45290252093599,-95.23099532130553,-17.00736,19.861423,5.185698,145.22844,30.000067,15.000033,6.7801175,-21.065496,14.068993,46.518772,-29.452152,6.511813,8.95222,-14.853794,17.47892,14.430407,13.818873,-19.298674,45.545574,4.5187325,2.7986157,10.483686,7.042599,-19.604685,35.987537,46.935963,11.538936,3.5914583,-11.53009
152,-1.307646632194519,-34.53142547607422,76.67215728759766,21.46806928328517,-20.544324699717137,-95.94136857133392,-17.86076,18.995312,5.744053,143.89153,30.000067,15.000033,7.2413473,-20.805618,14.427666,46.036427,-28.756931,6.460319,8.998814,-14.502147,17.367523,14.396811,13.194802,-18.855755,46.048607,3.7957678,2.8713582,10.344676,6.735441,-19.750635,36.90402,46.600533,10.037948,3.649428,-11.452064
153,-1.3382929563522339,-34.72809600830078,76.90108489990234,21.23161121142383,-20.507117352019883,-96.54263080976807,-19.323742,17.033792,5.6142397,142.49348,30.000067,12.352856,7.5491815,-20.283638,14.701561,45.485844,-28.034443,6.310325,8.982765,-14.029918,17.117825,14.285907,12.635552,-18.433382,46.59458,2.7126055,2.8522618,10.017784,6.450684,-19.840967,37.65603,46.28142,8.899562,3.7524762,-11.41435
154,-1.419982671737671,-34.89790725708008,77.12760925292969,20.873634547810582,-20.35871236154388,-97.0074028490548,-21.195148,14.755075,5.024669,141.05157,30.000067,8.537872,7.7020736,-19.634111,14.887485,44.909653,-27.268513,6.112899,8.886974,-13.528203,16.757404,14.112481,12.14356,-18.008263,47.164173,1.264735,2.763168,9.508574,6.164772,-19.869846,38.288155,46.008575,7.9686923,3.8995285,-11.411285
155,-1.5053108930587769,-35.06383514404297,77.34342956542969,20.445557097301002,-20.188995080659666,-97.42969230090576,-22.996634,12.495206,4.262885,139.59633,30.000067,4.6271253,7.8315763,-18.927687,15.02077,44.31096,-26.51561,5.891915,8.782034,-12.9877615,16.383595,13.906505,11.714854,-17.663431,47.72124,-0.27345738,2.6824374,8.951272,5.8873878,-19.848171,38.81396,45.79544,7.2879667,4.0467916,-11.422204
156,-1.5530076026916504,-35.241371154785156,77.53506469726562,20.056350818494266,-20.104230643419537,-97.90944436898776,-24.33503,10.451707,3.64652,138.11627,30.000067,1.5544835,8.095795,-18.297323,15.1425,43.682728,-25.834946,5.6800795,8.745633,-12.446299,16.120556,13.689595,11.344312,-17.483673,48.236397,-1.625987,2.6763756,8.484504,5.6366606,-19.797264,39.241035,45.63793,6.9012823,4.1513906,-11.427137
157,-1.5512893199920654,-35.44053649902344,77.70889282226562,19.78318187946698,-20.176639092992293,-98.50475550629845,-25.078281,8.592177,3.32064,136.55495,30.000067,-0.32591873,8.605904,-17.833803,15.283036,43.00077,-25.25546,5.4993196,8.825919,-11.937787,16.061558,13.462232,11.028173,-17.492647,48.706863,-2.8213494,2.7607443,8.133213,5.432809,-19.736599,39.549263,45.51395,6.919157,4.201846,-11.423446
158,-1.5267550945281982,-35.654232025146484,77.86874389648438,19.571982760193404,-20.338764555112785,-99.15246534140127,-25.507786,6.71238,3.0747325,134.9192,30.000067,-1.6676208,9.261798,-17.47017,15.415419,42.270172,-24.740833,5.326946,8.973219,-11.450202,16.129158,13.206566,10.767036,-17.647633,49.15461,-3.9733338,2.8959756,7.829953,5.27728,-19.671347,39.736034,45.402702,7.288429,4.2236953,-11.421246
159,-1.5074398517608643,-35.86265563964844,78.0204849243164,19.36120110984283,-20.49695914685506,-99.77437255348062,-25.869553,4.7037787,2.7154217,133.25131,30.000067,-3.0917354,9.918121,-17.131142,15.498054,41.523956,-24.254633,5.135172,9.120423,-10.977209,16.203594,12.920061,10.563003,-17.929523,49.583763,-4.931225,3.0559607,7.574551,5.156474,-19.598402,39.837105,45.306458,7.8070827,4.228159,-11.419413
160,-1.5211966037750244,-36.04658889770508,78.16883087158203,19.084248008629373,-20.558734535701156,-100.28713587080205,-26.366882,2.6514602,2.1031709,131.62526,30.000067,-5.027911,10.42715,-16.74078,15.486039,40.804325,-23.76633,4.9011135,9.196485,-10.515268,16.169853,12.613032,10.4314,-18.316895,49.97809,-5.5479894,3.2154367,7.361355,5.057804,-19.518373,39.892895,45.2179,8.277045,4.2267942,-11.416088
161,-1.5679564476013184,-36.19749069213867,78.31350708007812,18.69561084002423,-20.504614861945583,-100.65597889178471,-27.016447,0.76369107,1.2083124,130.09665,30.000067,-7.5281043,10.759271,-16.25417,15.333002,40.11424,-23.267332,4.606007,9.167965,-10.033531,15.992344,12.268087,10.358585,-18.823118,50.360176,-5.750607,3.3737328,7.1968694,4.977862,-19.426455,39.89341,45.148182,8.6882515,4.2158957,-11.40625
162,-1.627928614616394,-36.32572555541992,78.44507598876953,18.222761596542604,-20.38115639581121,-100.92483144697295,-27.694384,-0.8517446,0.14837177,128.65367,30.000067,-10.165889,10.98837,-15.697157,15.066054,39.435596,-22.776217,4.266809,9.099141,-9.518167,15.722183,11.859413,10.324864,-19.488976,50.76965,-5.6343994,3.5373728,7.090582,4.9154534,-19.287268,39.79584,45.147198,9.117579,4.188456,-11.392471
163,-1.7011699676513672,-36.44529724121094,78.57154846191406,17.698892672051414,-20.195532439116153,-101.12419942695456,-28.373287,-2.212212,-0.9783125,127.24914,30.000067,-12.61412,11.123946,-15.102162,14.747498,38.77356,-22.30056,3.915692,8.992379,-9.006516,15.381184,11.449001,10.343555,-20.237211,51.13979,-5.2810893,3.6951773,7.0189457,4.850641,-19.114536,39.674065,45.202606,9.526897,4.15523,-11.385967
164,-1.7730382680892944,-36.554420471191406,78.6919937133789,17.173289366420157,-19.953624062428535,-101.28373909115591,-29.03713,-3.3858619,-2.0802796,125.822845,30.000067,-14.598433,11.172941,-14.515512,14.440525,38.13645,-21.848825,3.5861561,8.858805,-8.532537,14.9867935,11.070658,10.402165,-21.010277,51.441635,-4.7709866,3.833326,6.969528,4.769983,-18.927868,39.585922,45.30906,9.872786,4.127171,-11.398586
165,-1.8359850645065308,-36.65049362182617,78.802001953125,16.655550243363265,-19.65106749239604,-101.41341529222274,-29.765474,-3.6121316,-2.9320683,124.408676,30.000067,-15.000033,11.131495,-13.943407,14.157568,37.525635,-21.426775,3.2819207,8.708525,-8.094566,14.536727,10.713963,10.491638,-21.828314,51.683865,-4.02392,3.9485824,6.951993,4.6793675,-18.73129,39.528355,45.46712,10.145345,4.106149,-11.4411335
166,-1.9014922380447388,-36.72672653198242,78.89962768554688,16.10878198798744,-19.282930982357346,-101.48698706195204,-30.54971,-3.5748975,-3.7323916,122.98706,30.000067,-15.000033,11.000496,-13.354867,13.852378,36.924793,-21.022755,2.986589,8.510421,-7.6610556,14.016475,10.364843,10.600995,-22.697044,51.881447,-3.0237799,4.047361,6.968828,4.5891814,-18.542171,39.489586,45.657715,10.374051,4.0884204,-11.504923
167,-1.96937894821167,-36.79277420043945,78.98945617675781,15.56571123431461,-18.85837010178512,-101.50187994922021,-31.333313,-3.594376,-4.51689,121.51992,30.000067,-15.000033,10.786372,-12.786057,13.523571,36.346367,-20.636562,2.7105074,8.22803,-7.264323,13.446318,10.045962,10.711111,-23.52115,52.022587,-1.9385681,4.1290903,6.995969,4.483411,-18.390774,39.518658,45.855274,10.571404,4.077483,-11.573001
168,-2.0235116481781006,-36.89231491088867,79.04370880126953,14.818245537139283,-18.547084795392415,-101.73042532967779,-31.429472,-3.3774564,-5.438775,120.422195,28.147879,-15.000033,10.720341,-11.885818,13.344292,35.743744,-20.238382,2.3831396,8.140708,-6.5834284,12.991195,9.769387,10.832443,-24.355816,52.10899,-0.9889109,4.199897,7.0335445,4.374473,-18.232141,39.554356,46.11243,10.711375,4.0677085,-11.622889
169,-2.0780746936798096,-36.990169525146484,79.07970428466797,13.939861390445683,-18.253472550847274,-102.02481517257493,-31.290901,-2.9466538,-6.440569,119.423965,25.705969,-15.000033,10.6731615,-10.800223,13.209778,35.11265,-19.807737,2.0305774,8.169042,-5.757904,12.547916,9.50706,10.988888,-25.24366,52.151737,-0.17399122,4.260949,7.090349,4.248519,-18.018902,39.565643,46.469666,10.765366,4.0540094,-11.663473
170,-2.140484094619751,-37.06687545776367,79.10232543945312,12.994258001086527,-17.93246350815405,-102.30796195504774,-31.075853,-2.37637,-7.4598,118.46968,22.9103,-15.000033,10.590648,-9.64162,13.072384,34.45971,-19.355042,1.6751729,8.1205845,-4.8909197,12.074414,9.30425,11.14026,-26.028088,52.117058,0.6428612,4.3064914,7.1513324,4.062533,-17.828165,39.694862,46.876453,10.785727,4.043818,-11.707495
171,-2.1974830627441406,-37.14264678955078,79.11912536621094,12.068212572192872,-17.608028641898834,-102.5571917730273,-30.815086,-1.6009345,-8.320291,117.46043,20.087578,-15.000033,10.503692,-8.52009,12.938588,33.80276,-18.911629,1.3475503,8.034253,-4.0601425,11.605135,9.121993,11.287181,-26.755589,52.05513,1.3508329,4.334521,7.2077737,3.8673012,-17.655115,39.86306,47.29814,10.785205,4.0430827,-11.728698
172,-2.24241042137146,-37.22254943847656,79.13619995117188,11.256100796339265,-17.307999751916476,-102.75540006250623,-30.515247,-0.6265098,-8.850028,116.29347,17.544918,-15.000033,10.442396,-7.5530124,12.822253,33.17685,-18.519276,1.0799534,7.903611,-3.358199,11.180074,8.952278,11.424223,-27.404543,51.991943,1.8612391,4.3417864,7.2417493,3.680422,-17.502146,40.048874,47.708843,10.790143,4.058063,-11.703745
173,-2.2731683254241943,-37.30486297607422,79.14698028564453,10.596185425367421,-17.03944398356432,-102.89229240092924,-30.137815,0.52305055,-8.979424,114.92966,15.214251,-15.000033,10.405995,-6.7879357,12.732138,32.612072,-18.202509,0.88620335,7.725593,-2.8321223,10.80769,8.802136,11.563833,-27.969683,51.917706,2.1271553,4.321898,7.251044,3.498621,-17.352835,40.243027,48.115463,10.800603,4.092509,-11.614605
174,-2.290595769882202,-37.38005447387695,79.14983367919922,10.048542376538315,-16.791632779975277,-102.98423143084551,-29.659067,1.7604232,-8.806878,113.4133,12.965757,-15.000033,10.376255,-6.1696253,12.665417,32.109085,-17.950747,0.7493903,7.504365,-2.4341686,10.4739,8.672496,11.701195,-28.459286,51.827755,2.2057142,4.2775874,7.245041,3.3139656,-17.212637,40.460804,48.527164,10.805956,4.1426344,-11.477992
175,-2.2952680587768555,-37.449440002441406,79.14522552490234,9.584907763239656,-16.563991937796846,-103.04907730530373,-29.099916,2.952402,-8.432489,111.77409,11.008797,-15.000033,10.348199,-5.6572595,12.617996,31.667053,-17.757769,0.6547292,7.258181,-2.1267037,10.17971,8.55563,11.835358,-28.892422,51.7373,2.151984,4.220907,7.2217326,3.1285102,-17.080723,40.699387,48.950172,10.805967,4.200365,-11.322616
176,-2.289836883544922,-37.51828384399414,79.13081359863281,9.167002616406242,-16.354902492904078,-103.10596907791872,-28.491692,3.9972122,-7.965152,110.049225,9.546578,-15.000033,10.320279,-5.2018666,12.585741,31.274956,-17.6104,0.58550996,7.0056124,-1.8650535,9.924655,8.443879,11.962991,-29.286781,51.66245,2.0223858,4.1640544,7.179269,2.944342,-16.957424,40.95781,49.38998,10.80211,4.257523,-11.177031
177,-2.2801499366760254,-37.58680725097656,79.11190795898438,8.81123737080608,-16.16473880905835,-103.14865563240767,-27.853148,4.9106216,-7.368406,108.22688,8.803109,-15.000033,10.280408,-4.8233676,12.569109,30.95932,-17.52184,0.550742,6.7421246,-1.6635935,9.711766,8.331204,12.073852,-29.634317,51.613335,1.774425,4.099419,7.1149945,2.7624807,-16.852201,41.24385,49.84236,10.795079,4.3148656,-11.042252
178,-2.2628908157348633,-37.65109634399414,79.08299255371094,8.520257067621458,-15.987847535506285,-103.1668982796159,-27.160757,5.7043376,-6.6408715,106.30171,8.608511,-15.000033,10.223243,-4.526487,12.565967,30.721039,-17.493895,0.5518803,6.4594154,-1.5304155,9.531758,8.221277,12.170948,-29.932144,51.5832,1.3971423,4.0243406,7.0306506,2.5829077,-16.76199,41.553326,50.30546,10.78359,4.3758745,-10.905038
179,-2.2427427768707275,-37.71240997314453,79.04722595214844,8.233504534641227,-15.818332954759466,-103.17577468798646,-26.391197,6.3137984,-5.9393215,104.331154,8.567339,-15.000033,10.163948,-4.235557,12.571323,30.50302,-17.492382,0.5601475,6.1710176,-1.3982742,9.369097,8.105069,12.247622,-30.20151,51.585014,0.99914426,3.9567308,6.9336715,2.4179127,-16.692715,41.865856,50.7687,10.765874,4.438924,-10.771789
180,-2.2233834266662598,-37.7668571472168,79.00196838378906,7.895011581242129,-15.65213845082547,-103.19275655509541,-25.528269,6.6907578,-5.4129214,102.36777,8.282603,-15.000033,10.122422,-3.8783493,12.582077,30.2449,-17.48215,0.5476888,5.8876853,-1.2166982,9.209592,8.002142,12.33362,-30.464455,51.593967,0.6792387,3.9168081,6.829745,2.256005,-16.612759,42.17557,51.259445,10.744043,4.4982877,-10.652938
181,-2.2111291885375977,-37.81955337524414,78.95211791992188,7.478747386440714,-15.498565963385284,-103.23796140983266,-24.562761,6.7361217,-5.176668,100.44713,7.6495786,-15.000033,10.110794,-3.416126,12.612201,29.9362,-17.44732,0.503772,5.6352706,-0.93191266,9.077816,7.865048,12.373823,-30.70277,51.654675,0.46725044,3.9059613,6.7049494,2.1283128,-16.577456,42.439,51.72059,10.692935,4.558078,-10.538753
182,-2.1911206245422363,-37.872161865234375,78.89563751220703,7.007428683612156,-15.353733168321508,-103.29775443763947,-23.523912,6.543899,-5.1367316,98.541214,6.8741474,-15.000033,10.117262,-2.880198,12.658767,29.596413,-17.400892,0.4410685,5.3872533,-0.6018526,8.944271,7.7731056,12.446569,-30.945799,51.691406,0.26103172,3.9209447,6.572898,1.9812032,-16.5036,42.745434,52.253265,10.660033,4.6083436,-10.4513
183,-2.1761903762817383,-37.92214584350586,78.83191680908203,6.5018017223613,-15.20043275339174,-103.33886522248059,-22.447468,6.3588,-5.1280637,96.60353,6.027734,-15.000033,10.1388,-2.3123071,12.692894,29.202633,-17.347996,0.370814,5.136649,-0.23854373,8.808606,7.652954,12.491078,-31.179884,51.791424,0.1376778,3.9500291,6.4445434,1.8708208,-16.457575,43.01398,52.76142,10.608558,4.6644554,-10.362196
184,-2.1603217124938965,-37.967308044433594,78.76158142089844,5.996056060150376,-15.021227019272889,-103.32907774959392,-21.358854,6.397106,-4.970681,94.5768,5.1830277,-15.000033,10.168315,-1.7681837,12.686948,28.745373,-17.303724,0.3074026,4.8504276,0.09363312,8.626698,7.5479937,12.560237,-31.451998,51.930893,0.08877845,3.9910944,6.353489,1.7753015,-16.378963,43.29238,53.305317,10.574751,4.7233624,-10.284906
185,-2.150425672531128,-38.0262451171875,78.69195556640625,5.499229626523046,-14.815869193554038,-103.259351559562,-20.2372,6.7055516,-4.588594,92.4639,4.2518587,-15.000033,10.216368,-1.2646917,12.628577,28.213726,-17.272373,0.26046115,4.52877,0.39494923,8.399715,7.4288573,12.623156,-31.770021,52.153736,0.16981868,4.043026,6.3094854,1.7277211,-16.309214,43.561832,53.833157,10.548239,4.7947607,-10.21463
186,-2.142230272293091,-38.08838653564453,78.6261978149414,5.002089717613907,-14.593787199187016,-103.1473281592746,-19.06669,7.1574345,-4.062083,90.282265,3.2321782,-15.000033,10.287126,-0.78065354,12.5351,27.615921,-17.24834,0.2245574,4.176357,0.6894407,8.148293,7.2905545,12.661881,-32.104206,52.45629,0.36486518,4.1059833,6.2952847,1.727885,-16.272,43.825123,54.32688,10.524331,4.8777194,-10.149657
187,-2.12431001663208,-38.14497375488281,78.55024719238281,4.507119986610703,-14.353407967383934,-103.00304429562121,-17.870413,7.689938,-3.4265866,87.99482,2.3186202,-15.000033,10.364143,-0.3125364,12.424277,26.969667,-17.229769,0.19111542,3.8212867,0.9673432,7.8684688,7.154912,12.716387,-32.483715,52.790367,0.56876564,4.179469,6.304145,1.7511357,-16.21858,44.073383,54.845097,10.518527,4.9573455,-10.092263
188,-2.110440731048584,-38.198604583740234,78.48004913330078,4.01475878557068,-14.094075491172418,-102.83571485365715,-16.673162,8.246221,-2.725235,85.56693,1.7028619,-15.000033,10.434766,0.14525443,12.313259,26.284271,-17.210188,0.15014134,3.4760637,1.2274945,7.581312,7.0136304,12.793747,-32.870743,53.13387,0.7262383,4.257688,6.311304,1.7843405,-16.137955,44.269012,55.390682,10.513753,5.027561,-10.0289755
189,-2.094320297241211,-38.2443733215332,78.41180419921875,3.5351465913118454,-13.814341753515421,-102.6443288203659,-15.487588,8.775048,-1.9723105,82.933,1.5199344,-15.000033,10.489134,0.581442,12.213023,25.573862,-17.190105,0.10632555,3.1286662,1.4695948,7.285867,6.851324,12.860621,-33.25417,53.52427,0.84509164,4.3410716,6.3357086,1.8372811,-16.06494,44.434616,55.943417,10.521852,5.0859365,-9.957199
190,-2.0788276195526123,-38.29185104370117,78.33216094970703,3.0692381697520577,-13.515110092804859,-102.42541380417893,-14.2906,9.306873,-1.1331688,80.13287,1.6298964,-15.000033,10.538161,0.99500364,12.112263,24.827911,-17.171442,0.06344189,2.773106,1.695993,6.9770417,6.6676197,12.913204,-33.64214,53.969826,0.9557292,4.430862,6.379901,1.916247,-16.006319,44.57816,56.495163,10.543074,5.1381226,-9.881382
191,-2.0517380237579346,-38.33156967163086,78.24765014648438,2.5958657724693768,-13.199926113457808,-102.18462463186339,-13.060452,10.079803,0.039190102,77.298874,1.8077792,-14.436859,10.599639,1.3983614,11.99643,24.017206,-17.152378,0.0151998345,2.398542,1.9359103,6.6666665,6.4780774,12.947702,-33.992535,54.43122,1.0504769,4.5187306,6.401418,2.0152001,-15.968831,44.6943,57.0253,10.572221,5.193669,-9.801916
192,-2.010497808456421,-38.37249755859375,78.16165924072266,2.20277833173952,-12.869840631025182,-101.89020868227433,-11.754284,10.984169,1.5778557,74.512115,1.8669019,-13.537268,10.633578,1.6841697,11.81756,23.259663,-17.224539,-0.021808382,2.052798,2.0802877,6.3378267,6.2749743,13.016968,-34.43335,54.87482,1.0411159,4.6029778,6.379602,2.1556919,-15.879705,44.69515,57.573288,10.596791,5.2520585,-9.731048
193,-1.9696189165115356,-38.412113189697266,78.07270050048828,1.8072407496587595,-12.519442648598396,-101.59412069739406,-10.341893,12.076642,3.4413254,71.81608,2.0031958,-12.4622755,10.699373,1.9598776,11.606985,22.402145,-17.338032,-0.08556924,1.6853474,2.2336884,6.0099216,6.0884175,13.077468,-34.805653,55.29342,0.9690605,4.6684914,6.2771506,2.3043728,-15.796806,44.658386,58.097946,10.618465,5.3268113,-9.653518
194,-1.9115709066390991,-38.438514709472656,77.96446990966797,1.411396996520076,-12.149735310423004,-101.29010912979189,-8.824082,13.273639,5.580097,69.16088,2.219352,-11.277825,10.79147,2.2256515,11.371388,21.457441,-17.47837,-0.16539885,1.3091189,2.3952527,5.6757383,5.901426,13.122477,-35.147987,55.716198,0.839275,4.722048,6.123883,2.480068,-15.732822,44.585663,58.5919,10.647074,5.4129148,-9.572305
195,-1.8650336265563965,-38.4671516418457,77.85224151611328,0.98544692011261,-11.772156516803909,-100.94446844695558,-7.2381644,14.427858,7.743765,66.57926,1.9727323,-10.192582,10.883199,2.5183656,11.093677,20.498594,-17.591135,-0.24100876,0.94980234,2.578223,5.3374143,5.702365,13.181468,-35.520687,56.11805,0.68137217,4.783753,5.944609,2.686585,-15.641031,44.42544,59.09144,10.673833,5.4961405,-9.501739
196,-1.824150562286377,-38.498390197753906,77.7334976196289,0.4974735949782497,-11.394022155763535,-100.5226851894213,-5.64834,15.4055605,9.64457,64.08195,0.75477713,-9.426439,10.94268,2.8750103,10.755538,19.601633,-17.622368,-0.29536566,0.49075708,2.8265626,5.014079,5.5307293,13.214683,-35.792046,56.465916,0.5946533,4.865381,5.7537065,2.8994439,-15.588048,44.29971,59.556755,10.746604,5.5742683,-9.456105
197,-1.7719868421554565,-38.53168869018555,77.6148910522461,-0.1153765464578909,-11.014380761038105,-100.01464395686958,-4.058641,16.297997,11.220171,61.73499,-1.9227799,-9.051469,10.96067,3.3691897,10.357908,18.77819,-17.549004,-0.33617428,0.015936907,3.1933064,4.6963663,5.348961,13.2531805,-36.07274,56.74722,0.5540599,4.996751,5.5401764,3.1514597,-15.520231,44.07712,60.00534,10.803896,5.651433,-9.446899
198,-1.7099794149398804,-38.55817413330078,77.49027252197266,-0.8180393585719248,-10.623411863189057,-99.44111023093215,-2.4625394,17.158354,12.59825,59.47443,-5.6252866,-8.95832,10.95259,3.9602442,9.909359,17.987768,-17.402489,-0.3714614,-0.48267493,3.6406677,4.382302,5.1717863,13.302329,-36.33726,56.968014,0.5411062,5.1617675,5.2967687,3.4226599,-15.423716,43.783344,60.459076,10.850793,5.7273107,-9.464903
199,-1.6482610702514648,-38.58031463623047,77.379638671875,-1.494216428814405,-10.216219681098456,-98.81430618594048,-0.9283863,17.834713,13.768072,57.125553,-9.47696,-9.055066,10.905692,4.517425,9.4023905,17.25991,-17.219873,-0.38813937,-1.0335252,4.05796,4.0720525,5.006368,13.344683,-36.56358,57.177032,0.5518685,5.311815,5.067313,3.6992204,-15.3315935,43.5171,60.918926,10.971072,5.782568,-9.491072
200,-1.5871055126190186,-38.588287353515625,77.29911804199219,-2.029822737090491,-9.792738033720891,-98.14430230573834,0.47611672,18.177395,14.710072,54.53442,-12.634878,-9.226591,10.799483,4.912152,8.82822,16.640265,-17.051376,-0.3732031,-1.6026535,4.327644,3.7570405,4.830625,13.381203,-36.809307,57.434055,0.55783635,5.4011374,4.8996677,3.9903424,-15.24186,43.290684,61.39893,11.216017,5.7944417,-9.504508
201,-1.5284316539764404,-38.59474182128906,77.25687408447266,-2.418323054843474,-9.33260671417553,-97.40613890643891,1.7029494,18.16381,15.345669,51.611214,-14.98937,-9.437166,10.589271,5.1324873,8.159718,16.160797,-16.892519,-0.32124504,-2.201085,4.4379315,3.401852,4.6416516,13.41862,-37.095085,57.74269,0.5290117,5.397148,4.8087063,4.2915,-15.136584,43.105618,61.923504,11.639483,5.7337766,-9.514712
202,-1.4643474817276,-38.602020263671875,77.23540496826172,-2.720612034118903,-8.846404740127099,-96.60378034670225,2.7972617,17.922956,15.701294,48.460674,-16.974218,-9.691106,10.293906,5.2447267,7.410522,15.79963,-16.726955,-0.24359834,-2.8336718,4.4525123,3.0165503,4.449009,13.456501,-37.395893,58.074963,0.48420328,5.3317347,4.768837,4.599671,-15.01344,42.949932,62.48756,12.197853,5.6194015,-9.527123
203,-1.4048964977264404,-38.60756301879883,77.22432708740234,-2.9175623147725696,-8.383264675446656,-95.78851257538203,3.8293736,17.516016,15.895599,45.236916,-18.57721,-9.937575,9.996798,5.2376194,6.632658,15.507481,-16.576962,-0.15109156,-3.4550753,4.3613777,2.656664,4.2515388,13.49302,-37.70753,58.43879,0.46583754,5.256458,4.767003,4.91611,-14.873077,42.808178,63.081562,12.793523,5.4991984,-9.515671
204,-1.3421603441238403,-38.60822677612305,77.2304458618164,-2.991831932634271,-7.993078562136064,-95.01034887652315,4.864405,16.990677,16.04673,42.09404,-19.779398,-10.138495,9.779115,5.1010923,5.8778195,15.242062,-16.468771,-0.054037377,-4.017293,4.1485457,2.3777628,4.0448284,13.528396,-38.032516,58.845512,0.515261,5.2229834,4.790541,5.24277,-14.709529,42.6549,63.69988,13.32177,5.4212394,-9.455481
205,-1.2848597764968872,-38.61381912231445,77.26090240478516,-2.92080269147793,-7.706218319197846,-94.25497073360732,5.89576,16.329306,16.102077,39.065994,-20.533699,-10.268707,9.680652,4.802477,5.1253924,15.003874,-16.425314,0.04519901,-4.5240855,3.769358,2.210506,3.8130515,13.565051,-38.39982,59.340023,0.6817453,5.226237,4.8655844,5.5782223,-14.514682,42.505627,64.357574,13.815384,5.376526,-9.333003
206,-1.2242804765701294,-38.61649703979492,77.31147003173828,-2.7208908438333483,-7.495862526535335,-93.50213230602324,6.8991346,15.525081,16.010372,36.07415,-20.871977,-10.342706,9.653646,4.3590436,4.3596344,14.818848,-16.430588,0.15196402,-4.9959064,3.2414024,2.115525,3.5645597,13.603997,-38.801735,59.90417,0.9313038,5.2452407,4.988776,5.915983,-14.28507,42.363445,65.06208,14.30762,5.347075,-9.164542
207,-1.170411467552185,-38.612979888916016,77.36441802978516,-2.4429714768858672,-7.325793287099163,-92.79242107815138,7.9013886,14.634824,15.889978,33.10944,-20.891104,-10.385092,9.649368,3.834199,3.6372774,14.676026,-16.449223,0.2697968,-5.41095,2.6413236,2.048679,3.3257267,13.642851,-39.189713,60.45659,1.1746405,5.307546,5.1030235,6.2489524,-14.023923,42.19212,65.79122,14.702705,5.367008,-8.971033
208,-1.122428059577942,-38.604637145996094,77.43382263183594,-2.136412775365536,-7.157863482929327,-92.16710325873711,8.922694,13.720977,15.85786,30.163387,-20.688559,-10.410144,9.61415,3.2916567,3.0185747,14.569103,-16.448364,0.3988623,-5.7466416,2.0483067,1.9700549,3.1191552,13.6770935,-39.51473,60.91779,1.3219305,5.439789,5.1514907,6.5706553,-13.739899,41.95784,66.51851,14.909271,5.4697995,-8.773274
209,-1.069527268409729,-38.600711822509766,77.51801300048828,-1.7780699960692348,-7.007722504211676,-91.6524128477006,10.002121,12.770069,15.975072,27.208176,-20.213074,-10.426363,9.554927,2.7087893,2.5389242,14.5169325,-16.43069,0.5476239,-5.976804,1.4386659,1.8949386,2.947899,13.702984,-39.760403,61.282646,1.3343215,5.686658,5.114425,6.8941016,-13.4358225,41.64541,67.2395,14.840572,5.697138,-8.552454
210,-1.0105526447296143,-38.597434997558594,77.61662292480469,-1.3501854505075737,-6.888801654800927,-91.2218284706017,11.099213,11.783977,16.147535,24.262321,-19.449186,-10.397254,9.492256,2.0606256,2.1628659,14.520215,-16.412579,0.71309966,-6.118726,0.78332263,1.8412654,2.7964263,13.7198715,-39.953884,61.593002,1.2653596,6.0209665,5.024761,7.2178345,-13.111955,41.277138,67.963066,14.5680895,6.017783,-8.30315
211,-0.9422309398651123,-38.593109130859375,77.71896362304688,-0.9141789319296842,-6.7563314177884095,-90.83681711425646,12.116732,10.835176,16.274197,21.401035,-18.538141,-10.2896185,9.392562,1.4068255,1.8404578,14.54056,-16.379694,0.8812224,-6.2165227,0.15546165,1.7737972,2.6611574,13.727446,-40.10687,61.836555,1.1656884,6.3609505,4.9040504,7.5263667,-12.776877,40.862373,68.66822,14.223413,6.359427,-8.067794
212,-0.8503642678260803,-38.583900451660156,77.8272933959961,-0.5361289228382075,-6.564491253408261,-90.45805224335045,12.983146,9.969472,16.275225,18.676954,-17.609385,-10.097787,9.23085,0.80953854,1.5209057,14.519429,-16.305908,1.0373352,-6.3146605,-0.36794534,1.6568475,2.5389957,13.725717,-40.230534,61.999207,1.0859203,6.624648,4.7731614,7.8064404,-12.446666,40.409977,69.327385,13.941074,6.6527743,-7.891314
213,-0.7365009188652039,-38.568992614746094,77.93482208251953,-0.21506336858016992,-6.294953201438683,-90.09587884053764,13.724753,9.12452,16.138876,16.008808,-16.595526,-9.836956,8.973688,0.2681189,1.2124455,14.477033,-16.188389,1.1731266,-6.4101706,-0.7679725,1.4732399,2.437863,13.711886,-40.31956,62.059723,1.0259516,6.801466,4.614585,8.060639,-12.133013,39.90871,69.9442,13.732861,6.893545,-7.8031354
214,-0.6196094751358032,-38.537254333496094,78.03865051269531,0.0727717822735286,-5.971373635394403,-89.76282013465122,14.390542,8.263758,15.929508,13.357183,-15.439068,-9.546859,8.642412,-0.24139117,0.93516695,14.427886,-16.036968,1.2967997,-6.4846287,-1.0772445,1.2476778,2.3544583,13.684174,-40.371033,62.03012,0.9629208,6.9311604,4.4248295,8.300639,-11.840089,39.356266,70.5117,13.536554,7.1164393,-7.7731357
215,-0.5030197501182556,-38.479042053222656,78.12659454345703,0.29826821188031827,-5.607925148161721,-89.42081389328284,14.930178,7.474738,15.684661,10.873777,-14.2991705,-9.2632675,8.290488,-0.68256474,0.6510001,14.307336,-15.84575,1.4164774,-6.5617228,-1.2878326,1.0058609,2.2712476,13.64541,-40.398006,61.940926,0.91410285,7.007618,4.2448716,8.528465,-11.573892,38.774956,70.98492,13.377941,7.309951,-7.7585044
216,-0.3816709816455841,-38.40983963012695,78.19429779052734,0.4322570231040182,-5.219524080978723,-89.03175845360894,15.256908,6.8693085,15.4326935,8.783245,-13.370885,-9.008093,7.9701405,-1.0213093,0.3195318,14.0554285,-15.611964,1.5407983,-6.6657944,-1.3945484,0.77411926,2.1723695,13.601961,-40.41329,61.81872,0.89566123,7.024534,4.1152573,8.749605,-11.340523,38.185543,71.31375,13.280576,7.4624405,-7.7162514
217,-0.2690017819404602,-38.33617401123047,78.24297332763672,0.4598283498051872,-4.786456509859278,-88.58806275079986,15.286862,6.4936943,15.196453,7.2229548,-12.728195,-8.784875,7.670092,-1.2425957,-0.07206432,13.649873,-15.325424,1.6805263,-6.8068657,-1.3767717,0.535209,2.0639758,13.558722,-40.42592,61.653698,0.9153313,6.9582677,4.0394425,8.965801,-11.148413,37.57513,71.48645,13.265884,7.575621,-7.639883
218,-0.138499453663826,-38.24646759033203,78.26487731933594,0.3742171337265146,-4.301471700248604,-88.09530427802888,14.63309,6.4259834,14.900191,7.0106926,-12.763721,-8.587606,7.3308024,-1.3426049,-0.5191481,13.194893,-15.02794,1.829258,-6.9886065,-1.216044,0.2852978,1.9575468,13.5186405,-40.423866,61.42373,0.9629388,6.8197265,3.9970949,9.18397,-11.004935,36.937485,71.50768,13.315602,7.656126,-7.5498805
219,-0.010805783793330193,-38.14380645751953,78.27696228027344,0.2521005415124738,-3.8181548719296083,-87.5783474463838,13.865215,6.436631,14.575734,7.0276875,-12.917221,-8.403309,7.03672,-1.3947538,-0.9916059,12.643073,-14.702005,1.9724821,-7.1695776,-1.0116944,0.074033834,1.8348227,13.48062,-40.401062,61.155224,1.027716,6.6538577,3.9946778,9.40177,-10.89468,36.299103,71.39033,13.399402,7.6959314,-7.4466314
220,0.10283065587282181,-38.018104553222656,78.27761840820312,0.1271740445565312,-3.3831016231901523,-87.04537177326536,13.136089,6.456754,14.194896,7.047371,-13.096048,-8.221716,6.837563,-1.4305693,-1.4761631,12.004957,-14.359417,2.0936365,-7.3458867,-0.8195082,-0.049512256,1.6974069,13.4519415,-40.32388,60.851048,1.1056398,6.50633,4.0362444,9.617119,-10.822871,35.71445,71.13262,13.495706,7.689243,-7.328367
221,0.2054729014635086,-37.885093688964844,78.26961517333984,-0.011366378742964072,-3.0003096086825116,-86.47352721528412,12.442202,6.497075,13.721989,7.068846,-13.32621,-8.036287,6.7472253,-1.4369352,-1.984772,11.264377,-14.010827,2.1855938,-7.541662,-0.6402636,-0.07331312,1.5412117,13.438162,-40.17256,60.503296,1.2214097,6.388704,4.1331286,9.833966,-10.786242,35.17584,70.70962,13.613083,7.6211095,-7.169838
222,0.2987433969974518,-37.755252838134766,78.26375579833984,-0.17046278357935474,-2.647833796147333,-85.86810080226219,11.762089,6.5676546,13.184304,7.093228,-13.587382,-7.8506403,6.751064,-1.4014279,-2.5196738,10.398289,-13.636782,2.2596195,-7.7367587,-0.45733717,-0.025043115,1.3578953,13.434026,-39.98433,60.123394,1.3659998,6.2775655,4.2801704,10.049317,-10.76846,34.64455,70.14806,13.752462,7.497092,-6.981084
223,0.38171225786209106,-37.613521575927734,78.25908660888672,-0.33231118623782635,-2.3309971355502084,-85.27152933738617,11.108685,6.6459403,12.631012,7.1417856,-13.8460655,-7.676417,6.848965,-1.3435788,-3.0595715,9.413919,-13.201137,2.325462,-7.895807,-0.2818131,0.08422587,1.1635286,13.437585,-39.780045,59.721867,1.4882799,6.1654315,4.4559226,10.250751,-10.766158,34.16353,69.510315,13.887482,7.344379,-6.8125067
224,0.44044262170791626,-37.462860107421875,78.23692321777344,-0.4417173407893349,-2.0453859185960943,-84.73775164310007,10.511959,6.666737,12.12695,7.176178,-14.036272,-7.5207267,6.740549,-1.3415179,-3.562109,8.926389,-12.990114,2.3972547,-7.986748,-0.15756458,0.22115287,0.9840778,13.446577,-39.5688,59.31105,1.5362924,6.044156,4.639671,10.421993,-10.777951,33.803265,68.86641,14.003909,7.189372,-6.717146
225,0.5007771849632263,-37.313255310058594,78.2236099243164,-0.5232947990394963,-1.8156267090300464,-84.25157169379666,9.9940605,6.6621046,11.654786,7.2007103,-14.149164,-7.3900466,6.5709023,-1.3691142,-4.062528,8.692656,-12.871706,2.469678,-8.01178,-0.05965351,0.41953334,0.81623155,13.460945,-39.344387,58.87355,1.5069488,5.913484,4.838208,10.567903,-10.806548,33.5587,68.1907,14.106431,7.0337625,-6.7122087
226,0.5556979179382324,-37.16482925415039,78.22245025634766,-0.5955459255941264,-1.636761964818964,-83.79323608966514,9.534141,6.655248,11.191085,7.2350507,-14.219232,-7.280227,6.4369755,-1.4020832,-4.5681663,8.496018,-12.750285,2.5375495,-8.005919,0.02972602,0.6865794,0.67018676,13.490395,-39.079647,58.38597,1.4293804,5.776674,5.056237,10.699454,-10.877523,33.428925,67.44001,14.209393,6.867131,-6.7658296
227,0.6085078120231628,-37.02153015136719,78.23027038574219,-0.6537472181685183,-1.4761682831393363,-83.3930933758097,9.11335,6.6372685,10.7775345,7.261852,-14.243203,-7.188957,6.296411,-1.4447255,-5.021768,8.334758,-12.623763,2.6058035,-7.960276,0.10366858,0.96725386,0.547058,13.523787,-38.800575,57.90497,1.2919747,5.630237,5.27359,10.78629,-10.967914,33.433945,66.71499,14.292357,6.692296,-6.8623652
228,0.657086193561554,-36.886756896972656,78.24591827392578,-0.6897413604291156,-1.302522640214125,-83.08143115254185,8.71504,6.600167,10.456007,7.262488,-14.21811,-7.1136475,6.1117496,-1.4997356,-5.366157,8.196738,-12.484195,2.679114,-7.865655,0.16070707,1.2166842,0.4533509,13.558,-38.522457,57.466846,1.0905013,5.47097,5.4657044,10.804397,-11.070435,33.581264,66.0941,14.326132,6.5141535,-6.981591
229,0.6986633539199829,-36.74904251098633,78.27074432373047,-0.696884794753507,-1.1073821237085255,-82.87219837488759,8.338645,6.536378,10.248171,7.2247024,-14.121021,-7.0624495,5.8642945,-1.5766245,-5.573586,8.093913,-12.33018,2.7614205,-7.69267,0.18776058,1.418843,0.3738037,13.585163,-38.26697,57.100513,0.78527117,5.283491,5.6347766,10.740349,-11.16299,33.899467,65.61599,14.344664,6.2973847,-7.1571364
230,0.7416631579399109,-36.61951446533203,78.29618072509766,-0.6816496414261353,-0.9085650724350408,-82.74704837991911,7.990154,6.4579287,10.127863,7.1643167,-13.962979,-7.0352407,5.579152,-1.6699107,-5.6776686,8.02403,-12.164248,2.8485138,-7.49387,0.20073922,1.6080443,0.34322992,13.620299,-37.967262,56.742496,0.4053323,5.0735064,5.7846723,10.605875,-11.29169,34.42226,65.20493,14.364787,6.055716,-7.38414
231,0.7795931100845337,-36.48904800415039,78.32146453857422,-0.659183216206771,-0.7127398659996195,-82.68816686406116,7.6493263,6.3842735,10.064042,7.1316304,-13.804903,-7.0160136,5.277152,-1.7618303,-5.7130456,7.969852,-11.993002,2.9333942,-7.251958,0.20958383,1.7877114,0.33099282,13.653972,-37.67925,56.418705,0.005321968,4.8709383,5.911321,10.416763,-11.422243,35.00858,64.86559,14.282228,5.8551927,-7.595331
232,0.8191138505935669,-36.36317443847656,78.34569549560547,-0.6455252948500014,-0.5265074123894198,-82.67853005202264,7.321363,6.326074,10.029251,7.123883,-13.679156,-6.98697,4.9778204,-1.8365906,-5.7146707,7.9172406,-11.82455,3.009343,-6.9818068,0.22452092,1.9611512,0.3258646,13.680709,-37.419525,56.142025,-0.35157293,4.705539,6.0090184,10.173682,-11.530827,35.558243,64.61008,14.006225,5.762767,-7.725164
233,0.8585251569747925,-36.23530197143555,78.36795043945312,-0.6390744850320009,-0.34816900668757705,-82.72477732215302,7.018116,6.2790403,10.01651,7.11668,-13.580471,-6.9443417,4.679579,-1.8913115,-5.6848807,7.86476,-11.661549,3.0781689,-6.722673,0.25343814,2.1306655,0.37225568,13.710675,-37.119858,55.870754,-0.6544152,4.5799623,6.0606375,9.8674,-11.653822,36.1323,64.43431,13.471465,5.81906,-7.7425613
234,0.8913851380348206,-36.11058807373047,78.38765716552734,-0.6334766576627977,-0.17526274140342257,-82.83258159581192,6.737283,6.2352686,10.041683,7.110358,-13.49103,-6.896385,4.376984,-1.934702,-5.6077695,7.8138566,-11.496919,3.143407,-6.42173,0.28099653,2.288488,0.43415385,13.735802,-36.83807,55.638874,-0.9463202,4.48096,6.0786557,9.508084,-11.765006,36.713657,64.35074,12.724885,5.9770756,-7.686022
235,0.9237196445465088,-35.993927001953125,78.40375518798828,-0.6288774027237789,-0.013014876035006048,-82.9834597665072,6.480767,6.195877,10.112944,7.105021,-13.408781,-6.8421755,4.071937,-1.9686033,-5.4911265,7.7747774,-11.333435,3.201305,-6.1069293,0.3077188,2.4424536,0.50215673,13.75629,-36.583794,55.451443,-1.194181,4.4139986,6.0856524,9.100759,-11.862937,37.280746,64.32643,11.915704,6.1842785,-7.591322
236,0.9491491913795471,-35.87765884399414,78.421142578125,-0.6261262560500445,0.13323928249793585,-83.15866688328317,6.251014,6.162483,10.238156,7.099013,-13.329662,-6.7808948,3.7708836,-1.9948397,-5.3424644,7.7499285,-11.170162,3.2469652,-5.787337,0.3333428,2.6008878,0.5567022,13.772229,-36.389275,55.31858,-1.369525,4.384629,6.1055527,8.661109,-11.9420395,37.78359,64.32197,11.182508,6.389399,-7.495342
237,0.9752223491668701,-35.752235412597656,78.4410629272461,-0.6257160289081629,0.26303382868457054,-83.36364732101387,6.048934,6.1356387,10.438467,7.094661,-13.255671,-6.7061462,3.4667034,-2.011342,-5.15522,7.7482815,-11.006235,3.2749891,-5.5038633,0.36749232,2.7732532,0.63024914,13.792971,-36.20133,55.20284,-1.4316475,4.414964,6.142885,8.173103,-12.038194,38.284203,64.320724,10.5416155,6.606366,-7.3948812
238,1.004749059677124,-35.6295166015625,78.4623031616211,-0.626861816824218,0.37891055093251885,-83.60475576696308,5.8741975,6.1133966,10.703356,7.090689,-13.1878805,-6.619913,3.1596465,-2.0169375,-4.928487,7.763353,-10.840572,3.2889717,-5.20072,0.40372723,2.9506266,0.6952206,13.812592,-36.07164,55.130928,-1.4190274,4.4956512,6.1893806,7.652117,-12.128553,38.73426,64.34363,9.908464,6.851818,-7.272309
239,1.0279393196105957,-35.50212860107422,78.48320770263672,-0.629158571097698,0.4807454117326148,-83.86544043669602,5.7220078,6.0962124,10.993477,7.0876637,-13.124048,-6.5347786,2.8606186,-2.0138402,-4.678332,7.7871313,-10.678749,3.2969449,-4.88558,0.43501264,3.1255147,0.74309623,13.827404,-36.009327,55.124355,-1.3791507,4.5836983,6.235027,7.1101327,-12.194024,39.10718,64.38657,9.337016,7.087017,-7.1477785
240,1.0524702072143555,-35.37881088256836,78.50277709960938,-0.6325598527753814,0.5685001685523252,-84.12906288260722,5.589665,6.084295,11.269513,7.0837684,-13.061525,-6.4629855,2.5828326,-2.0043793,-4.4207296,7.8067417,-10.524074,3.306882,-4.6286693,0.4665415,3.3050642,0.8226197,13.853447,-35.942097,55.138134,-1.3398643,4.6361623,6.2616987,6.5636463,-12.285356,39.459103,64.38103,8.914511,7.2807074,-7.03904
