unveil-humanoid-operators/unveil-humanoid-operators.github.io/feature-analysis-animation/data/feature_matrix_instances/weight_ankle_peak_vel_gesture_A036_salute_004__A036.csv
Frame,root_translateX,root_translateY,root_translateZ,root_rotateX,root_rotateY,root_rotateZ,left_hip_pitch_joint_dof,left_hip_roll_joint_dof,left_hip_yaw_joint_dof,left_knee_joint_dof,left_ankle_pitch_joint_dof,left_ankle_roll_joint_dof,right_hip_pitch_joint_dof,right_hip_roll_joint_dof,right_hip_yaw_joint_dof,right_knee_joint_dof,right_ankle_pitch_joint_dof,right_ankle_roll_joint_dof,waist_yaw_joint_dof,waist_roll_joint_dof,waist_pitch_joint_dof,left_shoulder_pitch_joint_dof,left_shoulder_roll_joint_dof,left_shoulder_yaw_joint_dof,left_elbow_joint_dof,left_wrist_roll_joint_dof,left_wrist_pitch_joint_dof,left_wrist_yaw_joint_dof,right_shoulder_pitch_joint_dof,right_shoulder_roll_joint_dof,right_shoulder_yaw_joint_dof,right_elbow_joint_dof,right_wrist_roll_joint_dof,right_wrist_pitch_joint_dof,right_wrist_yaw_joint_dof
0,0.07691393047571182,1.0961580276489258,78.06648254394531,-0.2409626585792309,3.424930525494889,-91.22319843426324,-4.2492485,7.807925,13.379838,13.110315,-11.982891,-7.621438,-6.069685,-4.3935685,-5.3002667,12.112101,-9.284988,5.869812,4.633683,3.5112684,3.582502,-10.14191,14.355411,-51.637054,77.307884,-5.8983674,-2.544865,-3.8609116,5.7660127,-17.512075,26.088028,55.736267,-2.9462163,0.7956728,3.0572903
1,0.08351198583841324,1.0943448543548584,78.06127166748047,-0.27958027513555056,3.442441571880981,-91.1546748021673,-4.454212,7.8629313,13.272391,13.478298,-12.170021,-7.541595,-6.0112762,-4.3777013,-5.3867884,11.989877,-9.226382,5.9567766,4.582017,3.5592532,3.5712795,-10.115051,14.346871,-51.622902,77.27406,-5.9713798,-2.5624611,-3.883162,5.8376613,-17.511173,25.964687,55.79375,-2.6395895,0.74392927,3.0885065
2,0.09282467514276505,1.0939126014709473,78.05633544921875,-0.3165795589279923,3.4591790669778497,-91.0873580823448,-4.653889,7.9157543,13.165579,13.838302,-12.352608,-7.4619136,-5.9517093,-4.3621273,-5.471686,11.866749,-9.168475,6.042547,4.5526357,3.6013887,3.5622857,-10.104466,14.339285,-51.64678,77.24731,-6.0625763,-2.5802455,-3.9074605,5.919997,-17.500965,25.81383,55.845104,-2.3419044,0.68852246,3.1198685
3,0.11078543215990067,1.0910955667495728,78.04833984375,-0.35726615672474565,3.477718093941598,-91.01763802198386,-4.862762,7.971616,13.056672,14.210501,-12.541752,-7.382296,-5.894646,-4.344678,-5.56011,11.745153,-9.109333,6.1303997,4.5150003,3.6453469,3.5496118,-10.088005,14.335853,-51.66885,77.2152,-6.158789,-2.597073,-3.9303668,5.997103,-17.484888,25.663088,55.90711,-2.050161,0.6387049,3.1544845
4,0.12687364220619202,1.0841180086135864,78.03871154785156,-0.40697275718987463,3.5001273430358544,-90.94145621271957,-5.0923657,8.034581,12.941044,14.609492,-12.745473,-7.3015776,-5.8329544,-4.323117,-5.6604443,11.605927,-9.035906,6.224583,4.491085,3.6929982,3.5337536,-10.067013,14.334308,-51.668232,77.1679,-6.2173223,-2.6091185,-3.9519951,6.092967,-17.454449,25.457685,55.967182,-1.7925525,0.6017423,3.202853
5,0.15583910048007965,1.0841503143310547,78.03207397460938,-0.4695851794425851,3.5289635602797627,-90.85788555046832,-5.350023,8.110051,12.818221,15.043229,-12.966614,-7.222981,-5.7681885,-4.292898,-5.776114,11.446591,-8.942996,6.326955,4.4372206,3.7556381,3.5098805,-10.0265665,14.335978,-51.636185,77.10198,-6.2424455,-2.6181774,-3.9546242,6.1849947,-17.429184,25.262768,56.025894,-1.5550762,0.5855558,3.25686
6,0.18306943774223328,1.0820047855377197,78.02383422851562,-0.5409899958706038,3.5623780088267094,-90.76909402401009,-5.6271734,8.193549,12.690257,15.501057,-13.200105,-7.1458497,-5.701638,-4.257029,-5.9025187,11.273434,-8.836163,6.4352517,4.418168,3.8133068,3.483908,-9.994642,14.343581,-51.605347,77.02425,-6.2156506,-2.6213267,-3.9480424,6.297192,-17.371452,24.988846,56.081787,-1.3687377,0.5807557,3.3193355
7,0.20872338116168976,1.083662509918213,78.01721954345703,-0.6161852652756807,3.5964177901841907,-90.6756912440879,-5.915933,8.276786,12.556647,15.976601,-13.444285,-7.063948,-5.632633,-4.2224674,-6.034335,11.095036,-8.727418,6.5465736,4.373903,3.8820634,3.457757,-9.944735,14.352773,-51.540142,76.93321,-6.2154245,-2.6244092,-3.9581137,6.4078045,-17.321037,24.718264,56.15062,-1.1778613,0.5828168,3.3978915
8,0.24546562135219574,1.086916208267212,78.0056381225586,-0.6891636630218065,3.626773303523518,-90.57839199455398,-6.2052956,8.3497,12.417981,16.457752,-13.696545,-6.9710174,-5.5605946,-4.1968093,-6.1659083,10.92,-8.628016,6.658065,4.344897,3.9481502,3.4380984,-9.900149,14.36922,-51.49387,76.837204,-6.315409,-2.6279516,-4.017151,6.5360374,-17.251802,24.38002,56.24519,-0.99327207,0.581239,3.5069861
9,0.2896279990673065,1.0918195247650146,77.99854278564453,-0.7619548706455357,3.653633674971784,-90.47523847688811,-6.502597,8.415966,12.269889,16.959347,-13.96287,-6.8677506,-5.480714,-4.1773367,-6.2990394,10.739469,-8.539576,6.7649975,4.3184814,4.0227513,3.4272408,-9.843157,14.38746,-51.40175,76.72168,-6.5126886,-2.6306398,-4.1438932,6.6868424,-17.179129,23.98638,56.350727,-0.79815286,0.5686238,3.647697
10,0.34296485781669617,1.099714994430542,77.98873901367188,-0.836352342135271,3.678673590684862,-90.36656443024437,-6.804338,8.477071,12.114514,17.469532,-14.240153,-6.7568884,-5.393996,-4.1616645,-6.435675,10.551762,-8.456378,6.8701963,4.300827,4.1013556,3.4213624,-9.782749,14.410268,-51.297153,76.58998,-6.792649,-2.6289012,-4.318559,6.858312,-17.093287,23.533438,56.466824,-0.6083084,0.55102855,3.8142898
11,0.40267041325569153,1.1028163433074951,77.97266387939453,-0.907203100898915,3.700724259496761,-90.25655962304907,-7.105654,8.525645,11.958283,17.982285,-14.520101,-6.6346893,-5.3159285,-4.158082,-6.5707293,10.388057,-8.384409,6.982231,4.285102,4.1787367,3.421346,-9.72081,14.435414,-51.19537,76.45986,-7.0952215,-2.6296406,-4.5125628,7.0341377,-17.001976,23.044489,56.612167,-0.4235031,0.5439384,4.0093307
12,0.46596744656562805,1.1067911386489868,77.95601654052734,-0.9696160472383539,3.7180696507341175,-90.14945502539675,-7.399589,8.555198,11.809044,18.487839,-14.798184,-6.498184,-5.2469883,-4.1721582,-6.6987267,10.250584,-8.314016,7.108747,4.2732887,4.2465863,3.427631,-9.660431,14.46278,-51.119595,76.338936,-7.35959,-2.6310804,-4.696431,7.202624,-16.906918,22.529531,56.805588,-0.25006407,0.56216437,4.2355285
13,0.5288680195808411,1.117261528968811,77.94456481933594,-1.0218492470952598,3.730343882191207,-90.04660029070719,-7.6826186,8.563257,11.667514,18.976295,-15.070997,-6.350517,-5.2005787,-4.207133,-6.8188257,10.1661625,-8.255654,7.254889,4.265645,4.303036,3.4428072,-9.5911,14.490664,-51.0387,76.225525,-7.553991,-2.6378942,-4.8520026,7.3665175,-16.807407,21.982733,57.04062,-0.06389317,0.5911045,4.4857254
14,0.6041165590286255,1.1241991519927979,77.9293441772461,-1.0667102677143898,3.738288645968094,-89.94565840863095,-7.9598002,8.554099,11.530323,19.457054,-15.343433,-6.192136,-5.1680136,-4.2590146,-6.9335785,10.11701,-8.205681,7.415444,4.261638,4.3526154,3.4657743,-9.515558,14.518567,-50.953884,76.116486,-7.716567,-2.6483006,-4.9981823,7.5306854,-16.702545,21.401072,57.31061,0.12950252,0.629295,4.7611213
15,0.7006770372390747,1.134229063987732,77.91642761230469,-1.1063077470251896,3.7423494893262483,-89.84511613426916,-8.229415,8.528653,11.397484,19.932974,-15.612515,-6.0143056,-5.1470256,-4.326379,-7.0444183,10.101236,-8.168779,7.5841074,4.2630486,4.3975453,3.49102,-9.448225,14.547586,-50.904446,76.01396,-7.8574066,-2.653102,-5.161742,7.688814,-16.595007,20.796238,57.63133,0.27785552,0.7112323,5.076914
16,0.8054177165031433,1.141997218132019,77.90473937988281,-1.1428698331174334,3.7429725197973696,-89.74344685600565,-8.491145,8.488583,11.268666,20.409206,-15.877005,-5.808257,-5.1379337,-4.408234,-7.1524267,10.120985,-8.151133,7.754672,4.2748976,4.440259,3.514401,-9.387967,14.577035,-50.869453,75.90693,-7.921629,-2.64027,-5.369682,7.8385415,-16.489016,20.174892,58.0138,0.3268941,0.8706593,5.448727
17,0.9074191451072693,1.1527681350708008,77.88690185546875,-1.1836564798027227,3.740468425961449,-89.64232273387547,-8.749614,8.444035,11.142876,20.9041,-16.147375,-5.563335,-5.135935,-4.4957356,-7.263448,10.168459,-8.149288,7.926341,4.2947655,4.4900537,3.5308547,-9.331531,14.606853,-50.874542,75.801506,-7.918324,-2.6151385,-5.610999,7.990113,-16.385452,19.539286,58.45443,0.33589384,1.1007483,5.9110713
18,1.0274808406829834,1.1654390096664429,77.87120056152344,-1.2257584869714588,3.7343488803187603,-89.54189156271163,-9.003382,8.391702,11.020234,21.409048,-16.420704,-5.286981,-5.141328,-4.591744,-7.375076,10.242388,-8.159732,8.102013,4.3225865,4.5441046,3.5447223,-9.276614,14.636308,-50.905487,75.696594,-7.852347,-2.5810645,-5.87739,8.1441,-16.28319,18.883453,58.945446,0.30729496,1.3881179,6.4463687
19,1.1609091758728027,1.172536015510559,77.85073852539062,-1.2549515855980111,3.724408047243982,-89.43824458101595,-9.240239,8.310406,10.90345,21.884068,-16.67291,-4.9971576,-5.1665874,-4.714386,-7.476413,10.367364,-8.196667,8.28131,4.360489,4.5861745,3.5637321,-9.242142,14.666644,-50.952896,75.58648,-7.740572,-2.527042,-6.199708,8.277989,-16.188059,18.21057,59.49636,0.10387042,1.7545404,6.9931636
20,1.2995834350585938,1.1801170110702515,77.83201599121094,-1.257652685728125,3.710360468615265,-89.32743697369914,-9.449487,8.179697,10.795068,22.293488,-16.882656,-4.7118216,-5.2217007,-4.8814945,-7.556555,10.562054,-8.270331,8.463894,4.4054503,4.6035795,3.5966852,-9.248956,14.700047,-51.021248,75.46489,-7.619652,-2.4427714,-6.60864,8.3720255,-16.111273,17.529112,60.111206,-0.40891653,2.2203934,7.4939747
21,1.4541270732879639,1.1990571022033691,77.81702423095703,-1.22693433883916,3.6891358258020177,-89.20811773168356,-9.633495,7.989715,10.694677,22.647469,-17.059381,-4.4130845,-5.2972965,-5.1008334,-7.605302,10.814771,-8.386184,8.650816,4.461513,4.599773,3.6434002,-9.291905,14.741635,-51.124622,75.30961,-7.44491,-2.3175,-7.1213026,8.477966,-16.042728,16.777683,60.742275,-1.2909836,2.8087342,7.9337263
22,1.6071279048919678,1.2210910320281982,77.80300903320312,-1.1706047652283016,3.6616493347712247,-89.08249397160532,-9.796404,7.753038,10.601597,22.96122,-17.211472,-4.0986834,-5.390517,-5.362775,-7.6306,11.11777,-8.535435,8.842114,4.522436,4.580644,3.7005522,-9.36137,14.790801,-51.258312,75.12835,-7.2220545,-2.161368,-7.7188644,8.586172,-15.98403,15.9806185,61.402378,-2.4618392,3.4979558,8.353862
23,1.7824620008468628,1.2422882318496704,77.78467559814453,-1.0959003253176842,3.6339351152899195,-88.95207273630896,-9.927336,7.4809537,10.519658,23.196423,-17.310347,-3.8098955,-5.5276566,-5.6602983,-7.6474347,11.5087385,-8.716014,9.035284,4.6005063,4.5282335,3.7728674,-9.479858,14.848065,-51.41519,74.9546,-7.0507355,-1.9912806,-8.378597,8.605364,-15.954479,15.235065,62.17323,-3.858664,4.2399335,8.783402
24,1.9668337106704712,1.263972282409668,77.76591491699219,-1.0095806931135056,3.6117885424683718,-88.81840959257829,-10.016305,7.185378,10.452363,23.317345,-17.328548,-3.5879512,-5.735453,-5.9866967,-7.67008,12.026161,-8.924345,9.227648,4.699255,4.430041,3.866934,-9.6736145,14.915297,-51.60862,74.82231,-7.061521,-1.8230109,-9.077377,8.448132,-15.986815,14.64807,63.127754,-5.4149604,4.988433,9.250571
25,2.1592509746551514,1.2979177236557007,77.74590301513672,-0.9123941396549003,3.5922733042282977,-88.65949166975864,-10.054244,6.861407,10.382646,23.304363,-17.236523,-3.4736898,-5.975386,-6.347983,-7.721277,12.615562,-9.154727,9.440032,4.8059735,4.301377,3.9878728,-9.945109,14.992618,-51.815983,74.712845,-7.313253,-1.6439052,-9.843319,8.136625,-16.087805,14.269231,64.36291,-7.2664776,5.7787595,9.771598
26,2.349393606185913,1.3228576183319092,77.72981262207031,-0.8005681961055671,3.5734084127244206,-88.48212593925723,-10.048247,6.5053253,10.314443,23.181341,-17.056948,-3.434954,-6.251063,-6.7468386,-7.7855043,13.281898,-9.410338,9.6656475,4.9143066,4.1481643,4.1327167,-10.279454,15.081115,-52.041943,74.61215,-7.7405744,-1.4462404,-10.676534,7.708551,-16.256027,14.046675,65.80359,-9.3962755,6.613027,10.346419
27,2.5469613075256348,1.3733482360839844,77.71585845947266,-0.6731692859547485,3.56364193655878,-88.33077385995058,-10.007794,6.1271167,10.284385,22.966522,-16.834574,-3.4036007,-6.637282,-7.1723957,-7.8191166,14.119674,-9.691742,9.8600235,5.042796,3.94383,4.2989717,-10.658537,15.18197,-52.27804,74.54302,-8.219706,-1.249542,-11.511649,7.1061363,-16.52474,13.92896,67.25627,-11.505447,7.400088,10.965708
28,2.7582123279571533,1.4355539083480835,77.70042419433594,-0.5272049887542105,3.571516358671377,-88.24989242588101,-9.942152,5.734652,10.329831,22.676376,-16.61439,-3.3112152,-7.208333,-7.614928,-7.7768016,15.221228,-9.9989605,9.977949,5.202717,3.6704876,4.486594,-11.069971,15.297873,-52.548557,74.526245,-8.670829,-1.0798165,-12.284673,6.272691,-16.945425,13.875233,68.51917,-13.284964,8.056704,11.609631
29,2.9867923259735107,1.4900553226470947,77.68170928955078,-0.3389970525497874,3.595112063713256,-88.22675448543589,-9.839867,5.2909255,10.449218,22.28806,-16.40564,-3.1255863,-7.9732275,-8.106254,-7.5931168,16.605745,-10.36513,10.029014,5.3920693,3.3091362,4.699178,-11.518019,15.42759,-52.872665,74.54664,-9.105907,-0.9514343,-12.973852,5.178117,-17.557976,14.062444,69.74032,-14.8931055,8.596418,12.457313
30,3.2084426879882812,1.5677958726882935,77.66747283935547,-0.11361958927849923,3.631607210938861,-88.2455950720893,-9.694209,4.7969103,10.627513,21.788343,-16.17898,-2.887327,-8.889551,-8.641703,-7.303602,18.204626,-10.771418,10.027185,5.59071,2.8873305,4.9387145,-11.985232,15.568997,-53.194157,74.57781,-9.534793,-0.84793925,-13.616184,3.8581321,-18.362707,14.48169,70.949165,-16.404316,9.047097,13.4611635
31,3.427619457244873,1.6666783094406128,77.65023803710938,0.10870157600225344,3.688980112802175,-88.34707008448629,-9.53478,4.3216457,10.885074,21.23097,-15.935151,-2.639488,-9.964501,-9.158673,-7.0089064,19.999208,-11.141554,9.927262,5.7899995,2.4529538,5.201654,-12.447249,15.726316,-53.488422,74.638885,-9.932406,-0.75491005,-14.237502,2.3500314,-19.345848,14.803333,71.77787,-17.384266,9.372872,14.239625
32,3.6569888591766357,1.770076870918274,77.64891052246094,0.28700709964137594,3.775838191380603,-88.57176097763809,-9.392735,3.934865,11.242577,20.670994,-15.6741085,-2.4242585,-11.204791,-9.600271,-6.811869,21.977257,-11.407178,9.679086,5.9989376,2.0479472,5.4849176,-12.881291,15.904872,-53.722755,74.745865,-10.247347,-0.65639126,-14.863396,0.70583725,-20.491192,14.673652,71.847015,-17.401434,9.560204,14.405019
33,3.887526035308838,1.8838584423065186,77.65475463867188,0.4098035678623556,3.909222170696605,-88.9406445102782,-9.305923,3.6585817,11.71898,20.144485,-15.40344,-2.2494411,-12.69802,-10.059327,-6.901258,24.286667,-11.492494,9.198742,6.2327313,1.652206,5.785134,-13.2971325,16.111456,-53.855545,74.915825,-10.423115,-0.5481978,-15.515756,-1.0599022,-21.820591,13.933103,71.02169,-16.040945,9.549186,13.6515255
34,4.101839065551758,2.0152509212493896,77.67923736572266,0.502264982789707,4.0801516240055795,-89.42820197410326,-9.246778,3.4489148,12.300713,19.60917,-15.116875,-2.0924706,-14.404291,-10.556344,-7.163414,26.879892,-11.464592,8.498544,6.4894114,1.2418003,6.0967264,-13.69877,16.347675,-53.926414,75.13754,-10.5019045,-0.43972403,-16.177872,-2.9405637,-23.35553,12.795545,69.49623,-13.64436,9.329642,12.265821
35,4.3180389404296875,2.1482207775115967,77.71278381347656,0.5702337686313059,4.257559072825066,-90.00601365931851,-9.151308,3.2860982,12.956825,19.007334,-14.796774,-1.9518169,-16.143284,-10.898139,-7.2624955,29.463972,-11.463955,7.7006392,6.7503886,0.8568452,6.409493,-14.047833,16.607,-53.996944,75.38742,-10.554266,-0.33481902,-16.816479,-4.9171267,-25.062847,11.464089,67.41688,-10.916913,8.97991,10.74161
36,4.52332067489624,2.2975921630859375,77.75008392333984,0.6136381566876179,4.41070641349736,-90.64637730125754,-8.96103,3.158259,13.654105,18.29387,-14.431509,-1.8277491,-17.741524,-10.849154,-6.8771944,31.753859,-11.620529,6.9771476,7.00664,0.53593045,6.709714,-14.308785,16.87544,-54.11713,75.65375,-10.628681,-0.23524979,-17.397305,-7.006634,-26.871008,10.1383295,64.951996,-8.548494,8.662034,9.543161
37,4.716304302215576,2.448671817779541,77.80424499511719,0.6339195376993129,4.548147737338436,-91.3851524322147,-8.6933975,3.0741246,14.422685,17.48082,-14.023022,-1.722862,-19.286453,-10.296534,-5.86828,33.882355,-12.03303,6.3139124,7.266034,0.2565131,6.986672,-14.498763,17.145037,-54.289272,76.01218,-10.758014,-0.14922117,-17.944216,-9.304646,-28.738207,8.829444,62.102848,-6.5757923,8.487029,8.654292
38,4.8988752365112305,2.5781569480895996,77.8688735961914,0.6241909646091794,4.679716674323836,-92.22350443391817,-8.371405,3.0414877,15.265501,16.591648,-13.578696,-1.639731,-20.817942,-9.33251,-4.4536543,35.953083,-12.605251,5.6810436,7.5142775,-0.009324712,7.2209806,-14.6172,17.413755,-54.47535,76.483864,-10.900155,-0.07320559,-18.463942,-11.835064,-30.667418,7.5097055,58.86769,-4.6717987,8.368607,7.851186
39,5.077243328094482,2.688204288482666,77.94587707519531,0.5714732191796439,4.776347308815057,-93.08226027766345,-7.943945,3.0458548,16.109922,15.5966015,-13.094855,-1.5745053,-22.098713,-8.027079,-2.84972,37.648552,-13.169187,5.2491617,7.7172594,-0.22673249,7.3917823,-14.616324,17.674482,-54.685146,76.97772,-11.00858,0.0072015077,-18.895498,-14.541842,-32.64544,6.314767,55.42901,-2.9646966,8.22389,7.261328
40,5.224226474761963,2.759577989578247,78.04594421386719,0.46611316163900307,4.808524522774195,-93.88186633737514,-7.3533754,3.0672023,16.883574,14.450176,-12.562247,-1.5270228,-22.89714,-6.483037,-1.2567052,38.642418,-13.563182,5.1752253,7.841031,-0.36114016,7.4845986,-14.4520855,17.916416,-54.917366,77.40552,-11.027459,0.102582626,-19.177113,-17.384357,-34.64348,5.3809824,51.966255,-1.5818344,7.97663,7.011924
41,5.36592960357666,2.788358449935913,78.15553283691406,0.29683550571593414,4.741799871860264,-94.63500197209511,-6.506597,3.1045802,17.592072,13.051443,-11.938662,-1.5039761,-23.119255,-4.581389,0.46854547,38.832966,-13.77705,5.62163,7.877734,-0.39087448,7.5166783,-14.10638,18.129002,-55.229683,77.78178,-10.94504,0.2156188,-19.232418,-20.413437,-36.623962,4.775551,48.432266,-0.66496885,7.64418,7.302663
42,5.494545936584473,2.7802019119262695,78.27964782714844,0.07944351963167036,4.598182862500522,-95.37149599117265,-5.45265,3.150566,18.269655,11.434405,-11.230648,-1.5083106,-22.884396,-2.3585489,2.392403,38.400913,-13.910837,6.451747,7.839142,-0.34542158,7.486341,-13.610732,18.307472,-55.605953,78.16222,-10.798245,0.3368578,-19.11371,-23.671026,-38.57669,4.464264,44.761215,-0.10444809,7.2715564,7.9915857
43,5.635626316070557,2.7421035766601562,78.402587890625,-0.15775978601072302,4.434479595283713,-96.03734189705061,-4.3596835,3.1861315,18.883394,9.782865,-10.515393,-1.5281929,-22.298397,-0.17052397,4.2193513,37.41451,-13.944951,7.3589964,7.732708,-0.2552904,7.364762,-12.995171,18.452467,-55.909744,78.48351,-10.572773,0.472628,-18.949772,-27.117586,-40.514885,4.416678,41.099392,0.3512234,6.818105,8.70435
44,5.755125522613525,2.6693272590637207,78.51824188232422,-0.3878274565172361,4.308640448387745,-96.57962361603879,-3.4031484,3.2040353,19.398676,8.304611,-9.877037,-1.546519,-21.487694,1.6436868,5.6491866,35.937344,-13.828667,8.04641,7.552494,-0.14908616,7.118792,-12.276115,18.570755,-55.99393,78.67283,-10.254962,0.6287963,-18.870325,-30.649544,-42.46826,4.5965505,37.5246,0.96228766,6.2397127,9.073789
45,5.868396282196045,2.58882212638855,78.61295318603516,-0.6347856373360551,4.215143181029423,-97.00503238327501,-2.662512,3.2740283,19.822912,7.2168245,-9.436472,-1.557031,-20.383362,3.0589306,6.6375704,33.768734,-13.511697,8.504496,7.3365054,0.032897137,6.7643247,-11.437664,18.663761,-55.854557,78.62776,-9.746229,0.83008116,-18.882854,-34.42474,-44.41283,5.0754266,34.144882,1.8095573,5.484073,8.969255
46,6.009209632873535,2.4850645065307617,78.68717956542969,-0.8924099265170774,4.129232131320588,-97.33389585737675,-2.3674393,3.501428,20.146992,7.1187096,-9.518639,-1.5676448,-18.947298,4.2153134,7.3621793,30.893667,-12.994985,8.862929,7.0748634,0.2817695,6.3217125,-10.471638,18.73097,-55.540115,78.39216,-9.067977,1.066649,-18.93031,-38.380913,-46.325993,5.8590193,30.776627,2.767505,4.575519,8.599002
47,6.124100685119629,2.3830301761627197,78.74594116210938,-1.0940491922624005,4.082889769966462,-97.53488532209087,-2.1379786,3.6447766,20.359863,7.029018,-9.593001,-1.5681969,-17.369719,5.0577316,7.823089,27.667604,-12.2951,9.055568,6.7499757,0.5032248,5.812592,-9.462108,18.779007,-55.086277,78.07611,-8.449173,1.2896004,-19.044024,-42.560436,-48.230106,6.904412,27.481106,3.7130811,3.5907714,8.127708
48,6.235889911651611,2.2715189456939697,78.77120208740234,-1.1832742682622215,4.110031883574827,-97.5778742218284,-2.0349362,3.6345835,20.423576,6.951844,-9.649093,-1.5574374,-15.861133,5.5520873,7.9965663,24.486973,-11.451807,9.019219,6.347606,0.62403786,5.258356,-8.479936,18.817892,-54.484264,77.76829,-8.072998,1.4529587,-19.253334,-46.986816,-50.17683,8.161002,24.301033,4.5246797,2.6141407,7.725853
49,6.349230766296387,2.1552698612213135,78.77747344970703,-1.1237186581673078,4.229697326068839,-97.44212409437996,-2.0900273,3.423998,20.320724,6.8962617,-9.676774,-1.5240022,-14.406866,5.6090984,7.740961,21.288532,-10.387236,8.809452,5.8686905,0.61816883,4.6323395,-7.512311,18.855019,-53.722935,77.43385,-8.00244,1.5425307,-19.622011,-51.593945,-52.190285,9.580906,21.076374,4.9930363,1.6540055,7.5225983
50,6.465054988861084,2.045792818069458,78.7574234008789,-0.9495301387057616,4.4197398793350935,-97.14878497591833,-2.265649,3.056883,20.077589,6.8611794,-9.687724,-1.471131,-12.918894,5.31785,7.073665,17.929037,-9.122496,8.461475,5.351084,0.53230274,3.949225,-6.547343,18.891827,-52.83971,77.0217,-8.13761,1.5895352,-20.115967,-56.349575,-54.26733,11.181743,17.747847,5.251735,0.6752125,7.4037247
51,6.577376365661621,1.9324240684509277,78.7100601196289,-0.7254711309128754,4.655065225129309,-96.7327188987406,-2.5256746,2.6208808,19.72116,6.841347,-9.696053,-1.4239826,-11.532622,4.9078774,6.2067986,14.74536,-7.8793697,7.86166,4.8259287,0.42345738,3.2842171,-5.6442,18.926334,-51.868355,76.60172,-8.399613,1.6080784,-20.618849,-61.37089,-56.427414,13.04351,14.538263,5.674304,-0.30163747,7.1881127
52,6.686577320098877,1.836685061454773,78.64789581298828,-0.5350457705151325,4.914067736611808,-96.23068059039927,-2.8361115,2.2236907,19.27365,6.830972,-9.7146845,-1.4107262,-10.413831,4.59086,5.3649025,12.116363,-6.8886385,6.87073,4.3158283,0.36754683,2.7026646,-4.8561573,18.953835,-50.853657,76.23871,-8.7288685,1.6184679,-21.012835,-66.811,-58.704544,15.278699,11.684689,6.6326776,-1.2614282,6.711173
53,6.7809834480285645,1.7438554763793945,78.58934020996094,-0.4224786645464958,5.225787493763711,-95.60111599196148,-3.2432618,1.9144684,18.684883,6.8368287,-9.747361,-1.4547492,-9.724255,4.415076,4.5382953,10.33723,-6.2825785,5.1043816,3.7435932,0.39334378,2.1719282,-4.16297,18.970057,-49.689194,75.96384,-9.150886,1.6136167,-21.294922,-72.93118,-61.178596,18.06538,9.174753,8.346528,-2.1131291,5.885753
54,6.877523422241211,1.651005506515503,78.52049255371094,-0.3784314887710283,5.594561130705635,-94.8464000959586,-3.7491205,1.6787487,17.954853,6.8569202,-9.782496,-1.5450329,-9.438264,4.2929,3.6040115,9.350653,-5.9985604,2.7227523,3.1406212,0.50242996,1.6471688,-3.5436738,18.966784,-48.40949,75.750534,-9.688256,1.5903512,-21.522821,-79.675804,-63.85482,21.442108,6.8352013,10.596719,-2.9128385,4.840521
55,6.9175028800964355,1.5567117929458618,78.50236511230469,-0.38896671379107656,5.9607668397716855,-94.06492949532274,-4.2574162,1.5098305,17.18146,6.8812695,-9.815873,-1.653923,-9.370519,4.1908755,2.6525676,8.844106,-5.899689,0.40383992,2.6718001,0.6705995,1.1731105,-3.0639458,18.933249,-47.250637,75.631165,-10.266308,1.5653154,-21.662346,-86.69633,-66.62725,25.22953,4.677449,13.061186,-3.866926,3.7447593
56,6.959347248077393,1.4598567485809326,78.50953674316406,-0.4157471888497742,6.26125900761231,-93.35184237140713,-4.6669965,1.3713416,16.466648,6.894063,-9.841114,-1.7484552,-9.266228,4.066765,1.8019116,8.358087,-5.78992,-1.1581527,2.4635174,0.8229158,0.80231124,-2.786865,18.865038,-46.40521,75.65893,-10.796398,1.5507779,-21.668133,-93.608536,-69.34694,29.1324,2.749812,15.366149,-5.1686444,2.7696571
57,6.992156028747559,1.3591104745864868,78.5059585571289,-0.4254155946800056,6.479585457019186,-92.67168640356367,-4.9610763,1.220919,15.779569,6.8933973,-9.856775,-1.8287957,-8.957969,3.8682222,1.0669711,7.554718,-5.5407386,-1.6276183,2.4258878,0.8740084,0.55095786,-2.7495623,18.78188,-45.8801,75.93675,-11.346143,1.5240525,-21.49216,-100.59597,-71.95305,33.15612,1.259016,17.386497,-6.9798694,1.9184707
58,7.044728755950928,1.2546916007995605,78.48789978027344,-0.4211742109449055,6.646388139351434,-91.99098952349692,-5.186387,1.0580953,15.088268,6.8848395,-9.865961,-1.906007,-8.665623,3.6127934,0.40677273,6.8578286,-5.353719,-1.4159135,2.4493244,0.8117036,0.3607998,-2.8729496,18.700027,-45.51296,76.44766,-11.921109,1.4774708,-21.160055,-107.766075,-74.42111,37.34783,0.09945043,19.218544,-9.157114,1.1377685
59,7.114060878753662,1.1583189964294434,78.4657974243164,-0.4137676338749333,6.767910343876959,-91.40639821455513,-5.3386087,0.9043838,14.496634,6.8714933,-9.87775,-1.9551127,-8.656433,3.3642983,-0.13149045,6.818339,-5.4794602,-0.9410774,2.5563385,0.6635831,0.18654667,-3.023497,18.620106,-45.20778,77.04826,-12.377158,1.449328,-20.724304,-114.8279,-76.693,41.552982,-0.98119473,21.005972,-11.428408,0.5182384
60,7.193272590637207,1.0784590244293213,78.45381164550781,-0.4228493045636875,6.851646268951967,-91.01498625930365,-5.417268,0.79224026,14.105523,6.858052,-9.899774,-1.9548869,-8.638386,3.1944177,-0.469954,6.800434,-5.526781,-0.62212884,2.8032117,0.4902494,0.011788002,-3.098239,18.52811,-44.89881,77.58737,-12.578102,1.4749255,-20.239225,-121.30018,-78.698944,45.451107,-2.229414,22.847895,-13.524559,0.14248359
61,7.282071590423584,1.0126063823699951,78.45787048339844,-0.4562183967497549,6.898786641603856,-90.8857271914999,-5.418438,0.7363752,13.989613,6.847172,-9.931007,-1.8770938,-8.633786,3.1323118,-0.53648245,6.813843,-5.4446907,-0.51868016,3.2532334,0.33546492,-0.1288192,-3.0790257,18.404526,-44.513252,78.01231,-12.379032,1.5941333,-19.645117,-126.994095,-80.38988,48.80556,-3.5865347,24.859562,-15.447794,0.061827477
62,7.356259822845459,0.9358407258987427,78.47319030761719,-0.5051881355997296,6.906777318820932,-90.95267679981818,-5.3441634,0.7202719,14.078444,6.8317437,-9.965983,-1.7414246,-8.633841,3.1366684,-0.3826113,6.8521957,-5.270687,-0.42642796,3.830297,0.19320855,-0.22777717,-3.0069625,18.248621,-44.06892,78.39031,-11.894633,1.7807058,-18.938456,-132.02632,-81.75778,51.599964,-4.8511243,26.94732,-17.311613,0.22800976
63,7.427830219268799,0.8401963710784912,78.48926544189453,-0.5660563488488535,6.876815694550861,-91.11026072684214,-5.209671,0.732834,14.255337,6.8175354,-10.0147705,-1.5983294,-8.654801,3.1782417,-0.1369694,7.0062456,-5.134132,-0.3684252,4.3850994,0.05057993,-0.33670604,-2.8473687,18.075663,-43.56892,78.722755,-11.305027,1.976396,-18.25461,-136.44716,-82.83567,53.926434,-6.0082836,28.956182,-19.012701,0.5582859
64,7.494091987609863,0.7329256534576416,78.50389099121094,-0.6350247419593871,6.808925942053358,-91.25400009578371,-5.030955,0.7626404,14.404228,6.817608,-10.091879,-1.4970952,-8.839419,3.2346187,0.062152263,7.6348696,-5.309598,-0.35808995,4.824999,-0.08077108,-0.4946492,-2.5745227,17.904692,-43.078552,78.969505,-10.799481,2.1218476,-17.737282,-140.0423,-83.68187,55.72256,-7.156402,30.569626,-20.455967,0.9395184
65,7.56210994720459,0.6253955364227295,78.50792694091797,-0.7126585476367231,6.6867420172144305,-91.40746716468273,-4.7804403,0.813929,14.542642,6.824759,-10.205595,-1.4470098,-8.821617,3.320608,0.25277987,7.999868,-5.4134383,-0.40912598,5.1257925,-0.22557198,-0.69936574,-2.1208627,17.751305,-42.52839,79.06872,-10.298515,2.2120054,-17.402084,-142.8154,-84.37729,56.960835,-8.252403,31.78368,-21.566935,1.3457122
66,7.6209211349487305,0.5175362825393677,78.51526641845703,-0.8007029107324414,6.515026294530537,-91.60882670982583,-4.4585805,0.8908125,14.715867,6.8331356,-10.345079,-1.4234577,-8.695895,3.440307,0.4814515,8.266918,-5.4958286,-0.5083261,5.3807993,-0.36649528,-0.90422916,-1.5308162,17.618118,-41.939518,79.00583,-9.737316,2.2782474,-17.184515,-144.75475,-84.97782,57.583797,-9.282945,32.716377,-22.40947,1.8020304
67,7.66398811340332,0.4096943736076355,78.52799987792969,-0.8827292422880828,6.325096642223885,-91.77165506492923,-4.116936,0.96604186,14.84957,6.8410664,-10.4855175,-1.4240513,-8.483437,3.551458,0.6682943,8.428157,-5.5731506,-0.6256841,5.5350175,-0.5129577,-1.1190829,-0.89603925,17.51412,-41.398277,78.883255,-9.317817,2.3014398,-17.082302,-146.03012,-85.532455,57.75299,-10.29598,33.51079,-23.077106,2.3115098
68,7.693306922912598,0.2924012839794159,78.53580474853516,-0.9428087311414716,6.149286070495341,-91.80985112729509,-3.8092463,1.0120438,14.869268,6.847348,-10.601476,-1.4456764,-8.209591,3.6143084,0.73250926,8.478803,-5.6613336,-0.7314047,5.5404716,-0.67413384,-1.3710617,-0.29293466,17.448969,-40.976345,78.80226,-9.216338,2.2649026,-17.09718,-146.8723,-86.07273,57.72022,-11.329455,34.31267,-23.668304,2.8767653
69,7.711719036102295,0.17232485115528107,78.54293823242188,-0.9774751587778691,5.991797813594287,-91.70242106784752,-3.5427299,1.0249022,14.756365,6.852817,-10.68916,-1.5030516,-7.8531384,3.6249032,0.65175164,8.376113,-5.7604017,-0.8284416,5.4010663,-0.8463234,-1.6765261,0.2544918,17.431736,-40.797134,78.76951,-9.592823,2.13644,-17.312931,-147.42528,-86.61457,57.690006,-12.3887005,35.223015,-24.2056,3.5185392
70,7.718865394592285,0.04686722531914711,78.54103088378906,-0.995652047083809,5.83711059368991,-91.49476166353999,-3.2902348,1.0177767,14.550049,6.8561134,-10.76046,-1.5919442,-7.4109335,3.6067977,0.4684684,8.137012,-5.862466,-0.92862767,5.17798,-1.0202849,-2.0105135,0.7780107,17.460806,-40.81541,78.72618,-10.308579,1.939079,-17.709202,-147.78236,-87.15787,57.74428,-13.414482,36.165848,-24.642086,4.2084527
71,7.712353706359863,-0.08304078131914139,78.53736877441406,-1.0016660216234068,5.688206299417273,-91.2004456329978,-3.0568342,0.99058485,14.262225,6.857958,-10.81744,-1.6809735,-6.9339104,3.56359,0.19869721,7.843512,-5.9699078,-1.0170003,4.8914766,-1.1956537,-2.3513274,1.2857157,17.52687,-40.88541,78.69118,-11.138799,1.7362834,-18.130522,-148.01628,-87.68629,57.880077,-14.344899,37.003933,-24.978405,4.882592
72,7.705477714538574,-0.21039065718650818,78.52853393554688,-0.9984717368752838,5.548046784582124,-90.83305202781528,-2.8480875,0.9431036,13.904529,6.861358,-10.862766,-1.7390498,-6.4713216,3.4965317,-0.14104034,7.574542,-6.0836163,-1.0772135,4.553826,-1.373708,-2.6762662,1.7891653,17.616629,-40.84794,78.68161,-11.850769,1.5849154,-18.415531,-148.17018,-88.17583,58.060135,-15.127708,37.594868,-25.219852,5.4782147
73,7.684168338775635,-0.3312261700630188,78.51908111572266,-0.9816921433094529,5.412354929962131,-90.35262371429293,-2.6615348,0.8672662,13.438622,6.8643985,-10.893569,-1.7531192,-6.00416,3.3963237,-0.58873326,7.3161807,-6.202057,-1.1003593,4.136013,-1.5633352,-2.9942272,2.2848494,17.723293,-40.663044,78.738525,-12.427925,1.485199,-18.519278,-148.2311,-88.61017,58.303413,-15.743724,37.780647,-25.321024,5.94333
74,7.660831451416016,-0.4561006426811218,78.5145034790039,-0.9514977452449034,5.28119580876995,-89.76653023047476,-2.4958858,0.7662521,12.87197,6.867084,-10.908748,-1.7418213,-5.514765,3.2677498,-1.1400584,7.0355496,-6.323896,-1.0968117,3.6375084,-1.7570701,-3.3170006,2.7658458,17.845682,-40.416092,78.85065,-12.982576,1.4079888,-18.526743,-148.20546,-88.984055,58.648407,-16.204062,37.66587,-25.307785,6.313107
75,7.646537780761719,-0.5860185623168945,78.50667572021484,-0.9176015073509941,5.163466785925112,-89.15934219967082,-2.3530889,0.6552277,12.285334,6.8691926,-10.913882,-1.7213259,-5.1139927,3.1289668,-1.7170124,6.907249,-6.516314,-1.0790339,3.1131575,-1.9334898,-3.623916,3.247248,17.975912,-40.102028,78.94569,-13.440423,1.3639948,-18.468702,-148.15395,-89.29568,59.074684,-16.514349,37.50331,-25.290802,6.658381
76,7.642899513244629,-0.7061181664466858,78.49874877929688,-0.8889491924141184,5.0684759577761085,-88.61545271326808,-2.2370193,0.54894024,11.759512,6.8705792,-10.913532,-1.7072706,-4.8178573,2.9971523,-2.2363899,6.9041953,-6.74059,-1.0582001,2.6141233,-2.072786,-3.890091,3.7425094,18.1033,-39.71275,78.95442,-13.728345,1.3638003,-18.374338,-148.1176,-89.54678,59.53597,-16.68544,37.5486,-25.374224,7.053912
77,7.6489129066467285,-0.8076112866401672,78.49291229248047,-0.8663783294291896,5.008499774175087,-88.12477172598604,-2.1678596,0.44583002,11.284084,6.870958,-10.900514,-1.7050614,-4.586484,2.8706431,-2.7077823,6.907269,-6.926441,-1.0363238,2.1110833,-2.1684294,-4.1039457,4.2620425,18.220373,-39.18592,78.86343,-13.774349,1.425564,-18.203682,-148.08022,-89.744316,60.031437,-16.665173,37.90452,-25.593622,7.5671763
78,7.6706156730651855,-0.8876878619194031,78.48676300048828,-0.8448594933375547,4.975355103402835,-87.65310763003885,-2.1377,0.3393969,10.826702,6.8701982,-10.87476,-1.7059046,-4.4004784,2.741675,-3.1634507,6.9145126,-7.086836,-1.0075665,1.5919695,-2.2337923,-4.28013,4.788924,18.324749,-38.548656,78.72178,-13.635559,1.5378929,-17.956099,-148.01598,-89.89584,60.571003,-16.477371,38.428226,-25.88772,8.146092
79,7.712630748748779,-0.972858190536499,78.48373413085938,-0.8248344636310255,4.947883079651583,-87.24857551289499,-2.107804,0.23757568,10.435356,6.8697104,-10.853711,-1.7039698,-4.2394114,2.621024,-3.5509663,6.9265175,-7.227289,-0.97195596,1.1328183,-2.2793386,-4.4300723,5.293057,18.412884,-37.931343,78.554504,-13.437664,1.6673403,-17.718922,-147.94777,-90.00705,61.11973,-16.244898,39.00728,-26.2138,8.687502
80,7.741617202758789,-1.0496891736984253,78.48065185546875,-0.8072656333922874,4.904532947477922,-86.95960609736527,-2.0405006,0.1482996,10.158374,6.869663,-10.85293,-1.6931411,-4.081062,2.5192072,-3.8171868,6.940342,-7.351975,-0.9297839,0.809846,-2.3152666,-4.5633297,5.740041,18.480597,-37.465088,78.391014,-13.3060465,1.7782725,-17.577366,-147.8941,-90.08449,61.63815,-16.094345,39.52501,-26.531672,9.087391
81,7.779587268829346,-1.1187102794647217,78.48065185546875,-0.791079790187717,4.841248696000313,-86.80642191339044,-1.9268808,0.06995811,10.015007,6.871396,-10.876619,-1.667772,-3.924198,2.4354532,-3.93469,6.9587135,-7.4654355,-0.8737641,0.6509671,-2.3446636,-4.6786933,6.111527,18.522945,-37.203568,78.245346,-13.280325,1.8702902,-17.583742,-147.85008,-90.134415,62.12095,-16.077719,39.951183,-26.858402,9.30395
82,7.834774017333984,-1.1801618337631226,78.4770278930664,-0.7756650572104359,4.769026648245185,-86.76086381416793,-1.7870504,-0.0011018568,9.977648,6.873872,-10.916101,-1.6320807,-3.8583724,2.3581278,-3.939284,7.1485705,-7.6520567,-0.80590785,0.6170746,-2.3643694,-4.770502,6.4177117,18.537422,-37.07443,78.113464,-13.289621,1.9578806,-17.680012,-147.80342,-90.16195,62.58569,-16.131805,40.34644,-27.20858,9.398397
83,7.895358085632324,-1.2518683671951294,78.46995544433594,-0.7646259831163502,4.689294639340149,-86.7983829395437,-1.6280476,-0.05819744,10.023086,6.8771954,-10.970021,-1.595309,-3.842094,2.2950356,-3.866574,7.425983,-7.8643026,-0.7414443,0.6812165,-2.37288,-4.8410997,6.6659203,18.527327,-37.027245,77.996704,-13.305715,2.026236,-17.786177,-147.75778,-90.17007,63.021175,-16.212675,40.72845,-27.538563,9.419535
84,7.964266777038574,-1.3171066045761108,78.45158386230469,-0.7608022105105526,4.603416248885111,-86.89447483984209,-1.4561172,-0.09557707,10.128174,6.881041,-11.037071,-1.5665307,-3.8305018,2.2542589,-3.7523086,7.69957,-8.050606,-0.69559735,0.80991656,-2.3705666,-4.8901896,6.8732347,18.501528,-36.996166,77.88366,-13.292208,2.0612733,-17.821611,-147.68909,-90.16504,63.378197,-16.27947,41.11623,-27.80099,9.41924
85,8.016077041625977,-1.3843026161193848,78.44343566894531,-0.7695345446604909,4.504076201829957,-87.08673486831213,-1.2554891,-0.10220389,10.331966,6.8854423,-11.125456,-1.5493599,-3.8287263,2.2484326,-3.5678592,7.986847,-8.204809,-0.6803597,1.0445296,-2.351941,-4.9132543,7.043485,18.465557,-36.99714,77.75755,-13.216261,2.0534914,-17.761883,-147.61194,-90.1473,63.67365,-16.323397,41.52563,-27.987175,9.391166
86,8.068060874938965,-1.4459847211837769,78.4333267211914,-0.7899809459296765,4.3976437673387645,-87.34864842194608,-1.0390521,-0.08503597,10.605626,6.891853,-11.228265,-1.5376467,-3.8251684,2.26972,-3.3315094,8.255121,-8.319461,-0.6848444,1.3189615,-2.3315856,-4.852593,7.1257505,18.461214,-36.999973,77.61307,-13.121369,2.0102088,-17.679878,-147.42883,-90.144806,63.703266,-16.41993,41.92022,-28.069546,9.316837
87,8.12453556060791,-1.4870131015777588,78.42034912109375,-0.8072668190901405,4.288628899992635,-87.64232929763024,-0.81864166,-0.06421704,10.911733,6.897991,-11.337798,-1.5293065,-3.832512,2.2970338,-3.065729,8.533606,-8.434301,-0.69087106,1.642438,-2.3105679,-4.805226,7.2320576,18.456436,-37.009216,77.43632,-13.020106,1.9554529,-17.556402,-147.24086,-90.141884,63.73374,-16.498642,42.33058,-28.150858,9.223492
88,8.166362762451172,-1.523989200592041,78.40977478027344,-0.81375396961834,4.199395173124314,-87.87275135892335,-0.638002,-0.059474103,11.151839,6.902243,-11.432597,-1.5195073,-3.8325,2.3084543,-2.8514552,8.757832,-8.545477,-0.6794923,1.9312667,-2.2985883,-4.772008,7.327963,18.450048,-37.01813,77.267166,-12.999519,1.9024127,-17.4224,-147.07123,-90.13755,63.763084,-16.565825,42.693695,-28.205954,9.125103
89,8.200343132019043,-1.5498377084732056,78.39871978759766,-0.8041958432852313,4.138567216142372,-88.02185751306729,-0.5120583,-0.07808996,11.308583,6.9046273,-11.509932,-1.5074705,-3.822031,2.2966397,-2.7009346,8.903649,-8.652519,-0.6403606,2.1670897,-2.3014667,-4.7496214,7.3909206,18.444298,-37.019104,77.12342,-13.126186,1.8475853,-17.272768,-146.93216,-90.13298,63.786846,-16.616695,42.99894,-28.230644,9.008499
90,8.228384017944336,-1.5758857727050781,78.39010620117188,-0.7851938000820812,4.096599629267756,-88.12566980703743,-0.4229462,-0.10921118,11.418339,6.9059916,-11.577203,-1.494854,-3.8064308,2.2732615,-2.5868247,8.994873,-8.751838,-0.5850482,2.3735712,-2.3138204,-4.723795,7.4167337,18.438437,-37.01221,76.99652,-13.355226,1.7842294,-17.10398,-146.82693,-90.127304,63.801968,-16.657423,43.263702,-28.224482,8.861032
91,8.249114036560059,-1.6038522720336914,78.38168334960938,-0.7651692963203117,4.062095235414521,-88.18046089689494,-0.355031,-0.14456478,11.4746275,6.908785,-11.634124,-1.4815998,-3.7764683,2.243769,-2.519737,9.046932,-8.839776,-0.52778846,2.5341322,-2.3249528,-4.68887,7.411949,18.43243,-37.00142,76.88534,-13.59972,1.7229116,-16.949608,-146.7511,-90.12039,63.807358,-16.701313,43.491356,-28.186066,8.708547
92,8.25887680053711,-1.6257455348968506,78.37432861328125,-0.7527723775776197,4.022761198238967,-88.1790708881647,-0.2903486,-0.17710279,11.467386,6.9095144,-11.676424,-1.4673644,-3.7175877,2.2136486,-2.5135732,9.068364,-8.910796,-0.4828348,2.6301847,-2.323265,-4.641416,7.385764,18.426435,-36.994186,76.788635,-13.770989,1.6758893,-16.84597,-146.69708,-90.11255,63.803608,-16.76193,43.68578,-28.114717,8.579919
93,8.260704040527344,-1.6523394584655762,78.364013671875,-0.7512744938311099,3.971739347917608,-88.09074056683559,-0.22627917,-0.20519197,11.362125,6.911004,-11.7003565,-1.4537629,-3.6114235,2.182186,-2.5999653,9.047944,-8.960851,-0.4561007,2.6368113,-2.3060803,-4.579176,7.3380003,18.420315,-36.9964,76.7118,-13.836475,1.6548694,-16.823977,-146.67067,-90.103615,63.790287,-16.848341,43.842,-27.993296,8.49689
94,8.273934364318848,-1.674241542816162,78.35953521728516,-0.755887622153161,3.914759177624564,-87.92513552130535,-0.16956791,-0.23211068,11.170968,6.912314,-11.707502,-1.4403656,-3.4637132,2.1476643,-2.7658443,8.978119,-8.991281,-0.43943813,2.5726798,-2.2765875,-4.505013,7.2642097,18.414507,-37.00885,76.65368,-13.839694,1.6521577,-16.863188,-146.67184,-90.09423,63.767162,-16.951998,43.96072,-27.821743,8.44675
95,8.285138130187988,-1.7016493082046509,78.35551452636719,-0.7640563405737236,3.8607679507104073,-87.74035890800556,-0.121033855,-0.2571143,10.95858,6.9144473,-11.709293,-1.4240041,-3.306389,2.113873,-2.9539814,8.884981,-9.007732,-0.42600206,2.4859512,-2.2368798,-4.4267197,7.167708,18.408981,-37.033325,76.60436,-13.814907,1.6502815,-16.915783,-146.68196,-90.08451,63.736008,-17.06546,44.054176,-27.632654,8.403637
96,8.303584098815918,-1.716313123703003,78.35334014892578,-0.7721181112698544,3.8194942883680825,-87.59843365127482,-0.080717586,-0.2803661,10.79377,6.916007,-11.716158,-1.4013841,-3.1771286,2.0842936,-3.103006,8.802773,-9.019094,-0.4083333,2.4298062,-2.1892734,-4.3548255,7.0561466,18.403442,-37.073,76.55265,-13.795123,1.6306138,-16.930748,-146.67691,-90.07432,63.699516,-17.174732,44.134212,-27.464867,8.340007
97,8.32932186126709,-1.7311185598373413,78.35270690917969,-0.778851103521738,3.7976625675345996,-87.51050979537173,-0.054330155,-0.30423644,10.689649,6.917888,-11.7304945,-1.3667372,-3.0879674,2.056219,-3.2054167,8.739249,-9.028183,-0.38200548,2.409523,-2.1340368,-4.2973375,6.9329963,18.397747,-37.137436,76.49642,-13.784576,1.5798966,-16.89356,-146.64638,-90.06355,63.658993,-17.270874,44.20261,-27.342632,8.242583
98,8.355185508728027,-1.7518384456634521,78.35247802734375,-0.7865936966863337,3.7865713915742027,-87.4433310142175,-0.0376661,-0.32752928,10.609127,6.9196815,-11.746428,-1.3234979,-3.0134225,2.0295007,-3.292841,8.672268,-9.028312,-0.3515865,2.4254754,-2.0781584,-4.2579474,6.7439547,18.384857,-37.30963,76.498314,-13.82429,1.5046744,-16.82959,-146.55241,-90.04217,63.573814,-17.36313,44.231083,-27.212975,8.126506
99,8.381218910217285,-1.7656335830688477,78.3520278930664,-0.7940913138818374,3.790087416788187,-87.42083282303071,-0.03203145,-0.3464721,10.575781,6.92077,-11.766073,-1.2825477,-2.982049,2.0091085,-3.3343694,8.640927,-9.033745,-0.32395512,2.4888473,-2.024619,-4.251826,6.571632,18.370436,-37.499397,76.49169,-13.866632,1.4311934,-16.732203,-146.41888,-90.02198,63.49424,-17.433968,44.2312,-27.114683,8.015646
100,8.402891159057617,-1.7774807214736938,78.3509521484375,-0.8027204366590768,3.795172018717881,-87.4434465571764,-0.024081169,-0.3559666,10.588391,6.9221673,-11.790817,-1.254503,-2.9796925,2.0011408,-3.3226366,8.642299,-9.042629,-0.30555958,2.6028905,-1.9761531,-4.25686,6.401335,18.354488,-37.680614,76.480255,-13.915121,1.3802195,-16.606112,-146.26999,-90.003525,63.422012,-17.50545,44.204605,-27.001247,7.9096584
101,8.424087524414062,-1.7833902835845947,78.35075378417969,-0.813496658073895,3.800856084257276,-87.52426012931053,-0.010526437,-0.3540487,10.659242,6.923996,-11.823935,-1.2425041,-3.0105147,2.0096977,-3.239838,8.682281,-9.055216,-0.30138907,2.7484586,-1.922571,-4.253552,6.2782316,18.346031,-37.75878,76.40747,-13.916216,1.3584194,-16.435753,-146.16331,-89.99491,63.39211,-17.57798,44.175915,-26.893208,7.82607
102,8.44479751586914,-1.789169430732727,78.34546661376953,-0.8263564292980322,3.8098725921846337,-87.66221464789386,0.0056355484,-0.34195817,10.788031,6.926111,-11.864681,-1.2414255,-3.0754733,2.0324419,-3.09187,8.7579,-9.070211,-0.30718943,2.9558904,-1.8751434,-4.25598,6.1394057,18.336712,-37.825825,76.33215,-13.911535,1.3610532,-16.216139,-146.0408,-89.98671,63.3653,-17.658823,44.10722,-26.758444,7.737333
103,8.465873718261719,-1.7899891138076782,78.34358215332031,-0.8389010068557217,3.8214155686702145,-87.81945563719768,0.020053733,-0.32525423,10.93841,6.9270263,-11.904439,-1.2475019,-3.1560009,2.0607073,-2.9233441,8.84711,-9.085033,-0.31450373,3.1825716,-1.8335334,-4.260721,5.9955344,18.326164,-37.87911,76.25989,-13.90743,1.3711482,-15.995986,-145.91518,-89.97883,63.340683,-17.741411,44.02544,-26.618567,7.63398
104,8.481157302856445,-1.7916146516799927,78.34064483642578,-0.8501255032213593,3.833100599615035,-87.9562131579472,0.02854515,-0.30874193,11.07194,6.927655,-11.935702,-1.2568505,-3.230018,2.0854597,-2.7811441,8.924742,-9.0962,-0.31487718,3.3887563,-1.8004459,-4.2624445,5.84929,18.315859,-37.916656,76.201614,-13.906562,1.3708915,-15.820886,-145.79984,-89.97209,63.317196,-17.824429,43.953873,-26.484327,7.4996295
105,8.492374420166016,-1.7912834882736206,78.33547973632812,-0.8613261821870499,3.8430354636938113,-88.07366389299816,0.033638515,-0.2897542,11.191425,6.9273677,-11.956717,-1.2723006,-3.2916837,2.1084032,-2.6669414,8.980295,-9.096926,-0.30523553,3.572796,-1.7729951,-4.255217,5.697369,18.305367,-37.93692,76.156425,-13.909039,1.3506594,-15.706161,-145.69922,-89.96584,63.293747,-17.918598,43.916138,-26.360743,7.311527
106,8.49912166595459,-1.7794225215911865,78.33330535888672,-0.8730101561509064,3.8517969348237893,-88.18604845964539,0.035613492,-0.2666574,11.310069,6.9286876,-11.972381,-1.2944775,-3.3487635,2.1330388,-2.5628405,9.024071,-9.089605,-0.29039624,3.7462838,-1.7491387,-4.2404866,5.539194,18.295235,-37.936455,76.12216,-13.913442,1.3177074,-15.631485,-145.61052,-89.96029,63.270752,-18.02131,43.899353,-26.24194,7.0839596
107,8.5026216506958,-1.7662346363067627,78.33147430419922,-0.882596673529908,3.8610546504548906,-88.27305584434488,0.032097097,-0.24681488,11.403938,6.9279423,-11.980965,-1.3161721,-3.398095,2.1531055,-2.4847934,9.055744,-9.079955,-0.2733794,3.8851886,-1.7310998,-4.219973,5.379481,18.285376,-37.91726,76.10372,-13.928962,1.279779,-15.587328,-145.53706,-89.955246,63.247536,-18.117992,43.871483,-26.12383,6.8529987
108,8.504045486450195,-1.7534312009811401,78.3299560546875,-0.8871382545384319,3.87188901190978,-88.3110093253227,0.017666753,-0.23817965,11.445885,6.927293,-11.983019,-1.3299781,-3.4319606,2.1611652,-2.452195,9.068838,-9.071362,-0.25690055,3.9621873,-1.7200482,-4.1943474,5.222866,18.276152,-37.88612,76.10656,-13.970061,1.2438619,-15.564738,-145.48239,-89.950714,63.223022,-18.19085,43.800312,-26.00301,6.6568384
109,8.502527236938477,-1.7419934272766113,78.33121490478516,-0.884007208509545,3.8837585957179934,-88.28040043939578,-0.011136398,-0.24621029,11.413867,6.9258776,-11.976507,-1.331612,-3.4463344,2.151863,-2.4835272,9.060518,-9.0659,-0.23906437,3.9468057,-1.724938,-4.1450953,5.018445,18.258474,-37.82037,76.17896,-14.05834,1.211007,-15.590254,-145.4384,-89.94266,63.167145,-18.237837,43.62306,-25.855131,6.4860983
110,8.4940767288208,-1.7294913530349731,78.33287048339844,-0.875927195402877,3.8950617450735963,-88.19151411301938,-0.051733978,-0.26579428,11.320268,6.926374,-11.962665,-1.3254262,-3.438036,2.1295192,-2.5705314,9.024258,-9.057805,-0.21900949,3.866657,-1.7339276,-4.0991673,4.8423142,18.24273,-37.755806,76.25627,-14.184915,1.1765455,-15.643429,-145.41087,-89.93518,63.10785,-18.240997,43.414474,-25.715902,6.385909
111,8.488441467285156,-1.7170270681381226,78.33214569091797,-0.8660075418525996,3.9081819166949354,-88.0778620443366,-0.09615153,-0.2899275,11.202846,6.923359,-11.942325,-1.3177025,-3.422421,2.1020205,-2.680722,8.9778385,-9.049686,-0.2016493,3.7519948,-1.7444137,-4.0509295,4.6883984,18.229723,-37.695858,76.323586,-14.320688,1.1443847,-15.686521,-145.3939,-89.928154,63.04737,-18.23677,43.21641,-25.585045,6.304488
112,8.485674858093262,-1.7124742269515991,78.33033752441406,-0.8578063470721253,3.923908482778703,-87.97346493480484,-0.14043245,-0.30949235,11.099709,6.9225936,-11.922275,-1.3146131,-3.4103847,2.078052,-2.781392,8.933789,-9.042098,-0.19220531,3.6527588,-1.7523375,-4.025095,4.5791507,18.224302,-37.667015,76.3668,-14.423106,1.1122825,-15.690603,-145.38075,-89.924324,63.01714,-18.241669,43.097073,-25.481606,6.2255516
113,8.481094360351562,-1.7068809270858765,78.32917785644531,-0.8520483868357945,3.9426059267362494,-87.85573451279632,-0.18674758,-0.3264684,10.991155,6.922193,-11.895473,-1.3172075,-3.394463,2.0544558,-2.894656,8.883207,-9.033491,-0.19453034,3.5293674,-1.7646148,-3.9931662,4.455091,18.220354,-37.64005,76.43245,-14.508238,1.0777293,-15.66171,-145.36201,-89.920395,62.987675,-18.279089,43.051815,-25.383354,6.096477
114,8.475064277648926,-1.7010986804962158,78.33143615722656,-0.8468363913930541,3.963551706616738,-87.72245835862536,-0.23572528,-0.3431716,10.872223,6.9208956,-11.862334,-1.3227243,-3.3724384,2.0291486,-3.0223527,8.823239,-9.023617,-0.2053209,3.3795846,-1.7814078,-3.9615262,4.331314,18.21769,-37.61771,76.51373,-14.58436,1.0416421,-15.610617,-145.34229,-89.91648,62.95894,-18.33062,43.066578,-25.295687,5.947644
115,8.465350151062012,-1.6928062438964844,78.33010864257812,-0.841812464325381,3.9840898450006637,-87.59605300195213,-0.2821153,-0.35881788,10.760379,6.920744,-11.83196,-1.3288653,-3.3518596,2.005153,-3.1432738,8.767266,-9.015756,-0.21708022,3.2259955,-1.7985755,-3.9306405,4.2147646,18.216043,-37.602276,76.6027,-14.630582,1.0008299,-15.544017,-145.32657,-89.91247,62.930267,-18.387451,43.09538,-25.221706,5.804158
116,8.461848258972168,-1.6898274421691895,78.33411407470703,-0.8371455611475724,4.00139557100918,-87.501295053922,-0.3202277,-0.37154594,10.67527,6.9230785,-11.813046,-1.3335832,-3.3378372,1.986544,-3.2338269,8.7231,-9.010281,-0.22227879,3.0914128,-1.8117462,-3.8990285,4.1090317,18.21529,-37.59747,76.69379,-14.626735,0.9512136,-15.469462,-145.32109,-89.90831,62.90037,-18.440628,43.088253,-25.163225,5.6878786
117,8.463530540466309,-1.6841586828231812,78.33673095703125,-0.833465187552365,4.01630994655581,-87.4457796918519,-0.34738487,-0.38100058,10.622417,6.923525,-11.80744,-1.3377875,-3.3321261,1.9746346,-3.2876587,8.690189,-9.007543,-0.21701084,2.9774837,-1.8178184,-3.8650084,4.0154037,18.215403,-37.611076,76.789505,-14.545179,0.88241047,-15.376662,-145.32986,-89.903755,62.867844,-18.496206,43.02096,-25.123493,5.6053977
118,8.460466384887695,-1.680639386177063,78.33392333984375,-0.8295357443245311,4.029783860061448,-87.41813211746387,-0.3673458,-0.38859704,10.593648,6.92379,-11.8112135,-1.342206,-3.3311133,1.9670143,-3.3147452,8.662794,-9.005723,-0.20594302,2.8817377,-1.8205295,-3.8297894,3.9324458,18.216305,-37.64604,76.89027,-14.401727,0.79808503,-15.264094,-145.34708,-89.89859,62.832935,-18.554495,42.916656,-25.097702,5.5470023
119,8.45654010772705,-1.6808476448059082,78.33070373535156,-0.826365733404978,4.041649331222401,-87.4127749441668,-0.38068876,-0.39277154,10.585405,6.922502,-11.818319,-1.3447448,-3.3367655,1.9643703,-3.3193297,8.646326,-9.004165,-0.19508204,2.8135195,-1.823546,-3.7987187,3.8570383,18.217775,-37.696674,76.99054,-14.249958,0.7169579,-15.153867,-145.36488,-89.89309,62.79707,-18.60457,42.80028,-25.078009,5.509188
120,8.450246810913086,-1.6830897331237793,78.32730865478516,-0.8258749163715182,4.052189694718846,-87.42457217015763,-0.3877848,-0.3910064,10.5948515,6.917711,-11.822797,-1.3436329,-3.3520322,1.9685785,-3.3055315,8.646491,-9.001952,-0.190536,2.7835197,-1.8294168,-3.777684,3.786707,18.219511,-37.74989,77.0824,-14.138216,0.66055894,-15.07121,-145.37512,-89.887634,62.76236,-18.636515,42.697247,-25.057371,5.489195
121,8.446307182312012,-1.6868306398391724,78.32841491699219,-0.8282050836193279,4.061454423417424,-87.46306709981945,-0.3924761,-0.38028842,10.632238,6.919349,-11.828851,-1.3342849,-3.3858805,1.9823656,-3.2614603,8.676755,-9.000218,-0.19793603,2.7991126,-1.8384693,-3.7675035,3.7244673,18.221218,-37.79295,77.159195,-14.074784,0.6435177,-15.027317,-145.37727,-89.882545,62.72995,-18.642466,42.610302,-25.037914,5.489026
122,8.443033218383789,-1.687827706336975,78.33287048339844,-0.8324303055292565,4.069587579419963,-87.52849949869125,-0.39034167,-0.36302733,10.696807,6.919996,-11.835987,-1.3191211,-3.4354334,2.003858,-3.1883106,8.732717,-9.000102,-0.21264447,2.848663,-1.8484025,-3.764711,3.6726613,18.222939,-37.821217,77.222885,-14.029764,0.6558295,-15.010406,-145.37665,-89.8775,62.69938,-18.631704,42.53138,-25.02602,5.5078864
123,8.44178581237793,-1.6878763437271118,78.33448791503906,-0.8360230757975271,4.077104617798574,-87.59993812088229,-0.38655445,-0.34532613,10.766742,6.92061,-11.843333,-1.3061596,-3.4851253,2.0261989,-3.110164,8.789468,-8.999253,-0.22530875,2.909873,-1.8588948,-3.767193,3.62889,18.22444,-37.83369,77.27746,-13.9983425,0.67938894,-15.010907,-145.3756,-89.87338,62.671074,-18.613478,42.469936,-25.020393,5.536511
124,8.437979698181152,-1.6858669519424438,78.33458709716797,-0.8364129808642954,4.083876338379908,-87.65475500058591,-0.38503265,-0.3330846,10.818991,6.9211993,-11.84953,-1.3035791,-3.5176876,2.0416112,-3.052555,8.821111,-8.994722,-0.22636588,2.960607,-1.8698075,-3.773473,3.5890129,18.225975,-37.833584,77.32978,-13.977162,0.69543034,-15.020304,-145.37521,-89.86977,62.644592,-18.59927,42.436443,-25.018625,5.5656457
125,8.432563781738281,-1.6878325939178467,78.33451843261719,-0.8319738496081582,4.0887328307339486,-87.68607365122125,-0.3851603,-0.3293548,10.84586,6.9207635,-11.854614,-1.3179181,-3.5231817,2.0468562,-3.0247798,8.814288,-8.983865,-0.20954736,2.9987931,-1.8821744,-3.784194,3.550472,18.227688,-37.82269,77.38453,-13.970828,0.69606364,-15.045773,-145.37532,-89.866554,62.619835,-18.591415,42.445633,-25.02026,5.5979137
126,8.421030044555664,-1.6896939277648926,78.33525085449219,-0.8250829695324523,4.091419367371419,-87.70379910868742,-0.38528785,-0.33017254,10.857858,6.9205427,-11.859192,-1.3432839,-3.509481,2.046561,-3.0147183,8.781277,-8.967428,-0.18118334,3.0309536,-1.895361,-3.798366,3.5139577,18.229614,-37.801888,77.44105,-13.983719,0.68898976,-15.089388,-145.37741,-89.86378,62.596535,-18.586395,42.49113,-25.025867,5.6369314
127,8.40868854522705,-1.694517970085144,78.33529663085938,-0.8176578028890753,4.09287585958417,-87.71167976896702,-0.38537243,-0.33264583,10.859218,6.9198513,-11.862008,-1.3690395,-3.4864252,2.0438638,-3.015475,8.7351055,-8.948294,-0.15048753,3.0523782,-1.9070433,-3.8130207,3.4800813,18.231834,-37.773552,77.496284,-14.00905,0.68019307,-15.133845,-145.38254,-89.86137,62.57436,-18.579826,42.547157,-25.032608,5.6733603
128,8.401582717895508,-1.6964703798294067,78.33342742919922,-0.8125474688604714,4.093857530813111,-87.71197311221331,-0.38560906,-0.3331031,10.853074,6.9190454,-11.861669,-1.384407,-3.4596303,2.0435877,-3.0211236,8.680851,-8.925095,-0.12694117,3.0461705,-1.916912,-3.8154104,3.4408216,18.236492,-37.713486,77.55486,-14.029211,0.6726155,-15.167283,-145.3895,-89.85745,62.53277,-18.569025,42.59439,-25.036453,5.7017694
129,8.39179801940918,-1.6991376876831055,78.33393096923828,-0.8096418826769174,4.095450263183493,-87.70318355662182,-0.38725728,-0.33208323,10.836019,6.918938,-11.858885,-1.3861372,-3.4415112,2.0444398,-3.0312715,8.641358,-8.910123,-0.11438305,3.032355,-1.9217075,-3.826242,3.4238021,18.239092,-37.683582,77.59101,-14.078227,0.6791209,-15.157997,-145.39641,-89.85591,62.513466,-18.562374,42.59201,-25.035227,5.690388
130,8.382410049438477,-1.6974115371704102,78.33322143554688,-0.8089960651261318,4.096164192437028,-87.68112250244049,-0.38983557,-0.3299479,10.803804,6.9189143,-11.852853,-1.3801057,-3.4156861,2.0461922,-3.0525718,8.58889,-8.891185,-0.10756999,2.9878266,-1.9253758,-3.8243816,3.4015355,18.244629,-37.628212,77.62772,-14.144698,0.690463,-15.133246,-145.4035,-89.8536,62.478912,-18.557852,42.570522,-25.028246,5.6509285
131,8.374199867248535,-1.697882056236267,78.33480834960938,-0.8067871306151579,4.097300772188142,-87.65816262692033,-0.39555734,-0.32895765,10.773807,6.924358,-11.847824,-1.3686135,-3.3932748,2.0459616,-3.0744066,8.542585,-8.875035,-0.1009178,2.9441912,-1.9294863,-3.8273668,3.389017,18.250463,-37.580425,77.65582,-14.201048,0.7007454,-15.097755,-145.40814,-89.852,62.44739,-18.551,42.5438,-25.02295,5.6153197
132,8.370786666870117,-1.700813889503479,78.33212280273438,-0.8040119113033881,4.100914717986404,-87.6424969187375,-0.4026373,-0.32803097,10.757776,6.928441,-11.841072,-1.3545842,-3.3760495,2.045792,-3.0916677,8.500379,-8.8579445,-0.089417346,2.8999608,-1.9367553,-3.8260164,3.3831525,18.262436,-37.513783,77.67224,-14.2140665,0.7021643,-15.06171,-145.4096,-89.85013,62.3959,-18.5388,42.530884,-25.023829,5.608666
133,8.361244201660156,-1.7059485912322998,78.33307647705078,-0.7957345885374492,4.108568434049634,-87.63168722998473,-0.41453797,-0.3317472,10.760637,6.93265,-11.829636,-1.3362948,-3.3629365,2.0404012,-3.1065607,8.457857,-8.838141,-0.069536485,2.8705347,-1.9517137,-3.834961,3.3825185,18.276619,-37.465645,77.68539,-14.174097,0.6906526,-15.016962,-145.4146,-89.849625,62.349987,-18.516693,42.540092,-25.034832,5.6531153
134,8.35311508178711,-1.7107605934143066,78.33573913574219,-0.7838707031690001,4.118212173128738,-87.62179926781477,-0.42926762,-0.33875772,10.774243,6.936892,-11.814239,-1.3131444,-3.3493774,2.0316231,-3.1216629,8.411044,-8.815205,-0.044863094,2.8239558,-1.9727397,-3.8343024,3.4068003,18.306736,-37.381557,77.661896,-14.076778,0.67147154,-14.962041,-145.38304,-89.85248,62.23896,-18.49391,42.569065,-25.050083,5.7346177
135,8.339517593383789,-1.7131586074829102,78.33963775634766,-0.7730742519250905,4.1276681827483115,-87.61921168079189,-0.44242445,-0.34433883,10.79242,6.941179,-11.801832,-1.2889215,-3.339568,2.0246205,-3.1309588,8.37017,-8.791972,-0.020113098,2.7738647,-1.9988552,-3.833461,3.464953,18.36817,-37.30156,77.58995,-13.99153,0.65674144,-14.912996,-145.25552,-89.86859,62.025005,-18.492283,42.58863,-25.059475,5.8209124
136,8.335186004638672,-1.714220643043518,78.34275817871094,-0.7678655841910107,4.133788211834828,-87.63004896484706,-0.448363,-0.34358844,10.809151,6.9439125,-11.798079,-1.2674176,-3.3340464,2.0254474,-3.1284778,8.3406315,-8.769325,-0.00019765386,2.7525275,-2.0190933,-3.8318303,3.5061915,18.420517,-37.245594,77.53315,-13.9447775,0.64688855,-14.892298,-145.17252,-89.892555,61.875916,-18.493927,42.58271,-25.067036,5.866746
137,8.327006340026855,-1.7128989696502686,78.34076690673828,-0.7709436450425994,4.134747972347704,-87.65851646173772,-0.4452493,-0.3340094,10.8193445,6.9476676,-11.806289,-1.2454444,-3.334872,2.03677,-3.1131618,8.328734,-8.74669,0.012868454,2.7509117,-2.025272,-3.8246381,3.543072,18.45807,-37.189762,77.47999,-13.941534,0.64454234,-14.904329,-145.12088,-89.914604,61.774708,-18.50386,42.5331,-25.072767,5.854124
138,8.325115203857422,-1.7128897905349731,78.33897399902344,-0.7791827462776911,4.13249309870552,-87.70050157216531,-0.4350172,-0.31861585,10.827489,6.94974,-11.82157,-1.2224816,-3.3403802,2.055513,-3.0878205,8.328713,-8.723492,0.021842888,2.7619581,-2.0210621,-3.8138673,3.5761895,18.48289,-37.137974,77.43163,-13.967852,0.64520586,-14.938258,-145.08577,-89.93208,61.699512,-18.516653,42.45384,-25.07756,5.8057623
139,8.323617935180664,-1.7166309356689453,78.33758544921875,-0.7891789001143046,4.128632502587417,-87.74847023155608,-0.42273924,-0.3011602,10.84007,6.9532285,-11.843296,-1.2059336,-3.3465545,2.076778,-3.054173,8.332144,-8.702049,0.029723028,2.7796388,-2.012122,-3.8031662,3.6034656,18.49796,-37.09666,77.389275,-14.005149,0.6484328,-14.982929,-145.05942,-89.94498,61.640842,-18.53091,42.376034,-25.079195,5.7469764
140,8.322525024414062,-1.7142573595046997,78.33540344238281,-0.7970474892127285,4.125189529399619,-87.79449834741337,-0.41059083,-0.28623796,10.863822,6.954669,-11.867314,-1.2031109,-3.3504076,2.0956988,-3.0135956,8.33153,-8.68485,0.0394092,2.7999313,-2.003481,-3.7969866,3.6215928,18.504202,-37.076267,77.35654,-14.036743,0.653692,-15.026814,-145.04727,-89.95194,61.605442,-18.542746,42.330585,-25.07661,5.70137
141,8.31956672668457,-1.7129106521606445,78.33401489257812,-0.8019333774439347,4.121709182517479,-87.84007023360833,-0.39843416,-0.2746643,10.905198,6.955201,-11.898586,-1.2219965,-3.3482563,2.111574,-2.96026,8.321593,-8.672259,0.054978378,2.8219063,-1.9963096,-3.79447,3.6341488,18.508099,-37.084194,77.324646,-14.062986,0.6627567,-15.072399,-145.033,-89.95698,61.574883,-18.556585,42.34033,-25.064808,5.676101
142,8.31719970703125,-1.7122570276260376,78.33142852783203,-0.8058557440605307,4.117597112747916,-87.88806809049001,-0.38499847,-0.26406923,10.958954,6.9555783,-11.936997,-1.2567697,-3.3420138,2.1268914,-2.895201,8.305922,-8.662221,0.073777795,2.8472059,-1.988901,-3.793296,3.6455603,18.509712,-37.106087,77.28905,-14.084608,0.6760194,-15.124181,-145.02371,-89.95958,61.55515,-18.57411,42.384495,-25.045975,5.6583605
143,8.315472602844238,-1.7126891613006592,78.32940673828125,-0.8089935511420118,4.113884272887737,-87.93312002437305,-0.3729464,-0.2543799,11.014196,6.954992,-11.972559,-1.2939277,-3.3385985,2.1409984,-2.831625,8.295342,-8.656824,0.08854326,2.8647437,-1.9812089,-3.7882476,3.655193,18.50999,-37.121277,77.252525,-14.09869,0.6892599,-15.174815,-145.02817,-89.95987,61.548397,-18.590055,42.43168,-25.03276,5.6393437
144,8.312084197998047,-1.712327241897583,78.328125,-0.8107695661201721,4.111757214705188,-87.9676053261034,-0.3665344,-0.24544361,11.057429,6.9564633,-11.99739,-1.3198192,-3.3429387,2.1525438,-2.7845242,8.297392,-8.657237,0.09218665,2.8751705,-1.9791651,-3.7856436,3.660151,18.509964,-37.130848,77.22602,-14.111114,0.69862425,-15.213775,-145.03181,-89.959816,61.54426,-18.597343,42.445515,-25.02949,5.6218333
145,8.307894706726074,-1.7097129821777344,78.32542419433594,-0.8115259588039077,4.111826161191598,-87.99540704106474,-0.36543837,-0.235722,11.091689,6.9566507,-12.006318,-1.3313695,-3.3602982,2.1629646,-2.7524164,8.317762,-8.664373,0.078497715,2.887319,-1.980415,-3.7848654,3.6625838,18.509819,-37.14119,77.20116,-14.131043,0.7068882,-15.241037,-145.0387,-89.95962,61.53815,-18.597393,42.406715,-25.035091,5.6088552
146,8.306835174560547,-1.7035149335861206,78.32408142089844,-0.8110280371498906,4.113768933532212,-88.01608509170646,-0.36897716,-0.22610691,11.119303,6.956236,-12.00479,-1.3355235,-3.3865252,2.1715446,-2.731538,8.351146,-8.678066,0.052896228,2.8943498,-1.9850044,-3.7844937,3.6611621,18.509672,-37.15076,77.179146,-14.157688,0.71353984,-15.257768,-145.04529,-89.95933,61.53112,-18.594612,42.331944,-25.048838,5.59704
147,8.303175926208496,-1.697751522064209,78.3241958618164,-0.8095503402414805,4.116077199717786,-88.03265540086267,-0.3747536,-0.21807517,11.143434,6.9575334,-11.999073,-1.3346635,-3.4163458,2.1784792,-2.7169113,8.39165,-8.695455,0.024560627,2.8983667,-1.9920002,-3.7827537,3.6568155,18.509367,-37.160122,77.16224,-14.174172,0.7191816,-15.2726965,-145.04729,-89.95869,61.522667,-18.59087,42.256187,-25.065222,5.5823236
148,8.298823356628418,-1.6979262828826904,78.32573699951172,-0.8079070532385803,4.11659647973871,-88.04831405246433,-0.37733048,-0.2127881,11.167084,6.9579177,-11.99297,-1.3314227,-3.4422333,2.1844275,-2.7030702,8.429437,-8.711515,0.0028206904,2.8962166,-1.9996246,-3.7775474,3.64927,18.509216,-37.168705,77.155365,-14.171419,0.72333884,-15.293926,-145.04166,-89.95818,61.51484,-18.59196,42.220085,-25.079584,5.56089
149,8.293362617492676,-1.6929380893707275,78.32601928710938,-0.8056193625951347,4.113402351745064,-88.06251912367935,-0.37377515,-0.21177217,11.191621,6.9586387,-11.986048,-1.3229986,-3.4615664,2.1883745,-2.6910863,8.46662,-8.728902,-0.009238664,2.8865254,-2.0085258,-3.766859,3.6379306,18.509157,-37.178196,77.16366,-14.1386175,0.7250131,-15.325675,-145.02779,-89.957565,61.50733,-18.597946,42.248997,-25.08705,5.525948
150,8.2887601852417,-1.6838834285736084,78.3220443725586,-0.8024481904178039,4.107558704893267,-88.0741429257772,-0.366258,-0.21403793,11.215107,6.959069,-11.976205,-1.309289,-3.4769802,2.1908917,-2.6827881,8.503523,-8.746865,-0.016695239,2.8701332,-2.019471,-3.7530808,3.6219125,18.509233,-37.189007,77.186165,-14.084792,0.72391206,-15.364047,-145.00826,-89.95678,61.50004,-18.605967,42.322838,-25.090965,5.483556
151,8.29065227508545,-1.682577133178711,78.32489013671875,-0.7998070188574783,4.102024498065742,-88.08555587342441,-0.35961336,-0.21681276,11.236833,6.9593043,-11.967614,-1.2965305,-3.4930131,2.1931052,-2.6743693,8.540428,-8.763685,-0.022952858,2.8513942,-2.030913,-3.73899,3.601871,18.509418,-37.20068,77.21453,-14.023464,0.7216229,-15.406128,-144.98589,-89.95596,61.492886,-18.61202,42.4081,-25.098734,5.44843
152,8.28738784790039,-1.675414800643921,78.32343292236328,-0.7985853989412778,4.099408251514117,-88.09950803229084,-0.35834864,-0.21748368,11.256141,6.9594364,-11.964261,-1.2909989,-3.5130258,2.1968148,-2.661395,8.57439,-8.775671,-0.031377826,2.8344305,-2.0424242,-3.7264392,3.5779011,18.509748,-37.214783,77.24046,-13.96974,0.7204606,-15.448299,-144.96283,-89.95505,61.48409,-18.617754,42.471127,-25.119171,5.436954
153,8.279895782470703,-1.67007315158844,78.31993865966797,-0.8003695965755573,4.101573586908822,-88.11851859072962,-0.36509067,-0.21437363,11.272283,6.958577,-11.970124,-1.2974575,-3.5410995,2.2038524,-2.6404355,8.607882,-8.781926,-0.044456437,2.8216577,-2.0516734,-3.7150862,3.5536702,18.509985,-37.227543,77.25699,-13.934032,0.7218196,-15.48975,-144.93932,-89.954445,61.475735,-18.621296,42.498974,-25.161062,5.464829
154,8.285536766052246,-1.6617053747177124,78.32070922851562,-0.8041223029217807,4.106930999771587,-88.1407957877085,-0.37731147,-0.20917007,11.286197,6.9572434,-11.9820795,-1.3114834,-3.5749068,2.2133136,-2.6141868,8.641462,-8.784358,-0.060001127,2.810273,-2.0593011,-3.7033029,3.529174,18.510212,-37.239124,77.26704,-13.9056,0.72527814,-15.531284,-144.9148,-89.95406,61.467907,-18.622265,42.50938,-25.220175,5.5202518
155,8.285094261169434,-1.6489098072052002,78.32328796386719,-0.8074525726017302,4.1133539006661035,-88.16260092589584,-0.39148155,-0.20424624,11.299277,6.9565134,-11.993968,-1.3256959,-3.6086085,2.2215755,-2.5881348,8.671013,-8.784275,-0.073774695,2.797844,-2.0662785,-3.692488,3.5013955,18.510563,-37.252033,77.275536,-13.873234,0.72983426,-15.571437,-144.89066,-89.95392,61.459232,-18.621618,42.51055,-25.28181,5.576805
156,8.279684066772461,-1.6427712440490723,78.31989288330078,-0.807834845238486,4.118614251279737,-88.1796772231882,-0.40278125,-0.2024885,11.312578,6.9560566,-11.999074,-1.3325852,-3.6354952,2.2256634,-2.5681703,8.691952,-8.783474,-0.08175635,2.7852073,-2.075182,-3.6866336,3.4696581,18.511045,-37.26406,77.28704,-13.81858,0.7350613,-15.607369,-144.86815,-89.9539,61.450996,-18.622368,42.506084,-25.325653,5.60599
157,8.287553787231445,-1.639451503753662,78.32490539550781,-0.8034109684810302,4.1219292962470835,-88.19054602025528,-0.40956658,-0.20545053,11.327019,6.9553895,-11.993982,-1.3298055,-3.6531725,2.2233367,-2.5561135,8.701002,-8.782361,-0.080580525,2.7709835,-2.0869684,-3.6868339,3.4343343,18.511627,-37.274345,77.30265,-13.722802,0.7431751,-15.641938,-144.84955,-89.95387,61.443844,-18.623362,42.48799,-25.342958,5.5926914
158,8.28083324432373,-1.6307241916656494,78.32090759277344,-0.7959648427109484,4.124548905307644,-88.19713988866822,-0.4141523,-0.21185267,11.341288,6.954748,-11.983275,-1.3214027,-3.6655464,2.2165096,-2.549175,8.702182,-8.780793,-0.07316561,2.7544873,-2.100438,-3.689487,3.3937325,18.512375,-37.286026,77.320786,-13.59863,0.753092,-15.675862,-144.83337,-89.9538,61.436012,-18.626362,42.454338,-25.342422,5.548749
159,8.2776517868042,-1.6233060359954834,78.32245635986328,-0.7880244380735083,4.127038096367311,-88.20028791371153,-0.4194987,-0.21868946,11.353556,6.9550376,-11.9699135,-1.3095863,-3.674893,2.208252,-2.5464568,8.699128,-8.777156,-0.06479229,2.7414489,-2.116064,-3.6925807,3.3381748,18.516098,-37.31014,77.34632,-13.476238,0.76038194,-15.706127,-144.80922,-89.95408,61.418102,-18.63691,42.416172,-25.328808,5.488627
160,8.27566909790039,-1.6159404516220093,78.32421875,-0.7825492221338561,4.1283316328800534,-88.20341505233242,-0.4252905,-0.22307386,11.36454,6.9550543,-11.957048,-1.2966877,-3.684448,2.2024152,-2.5447922,8.699814,-8.771752,-0.06091682,2.7283158,-2.128176,-3.697912,3.2784991,18.521925,-37.336964,77.375854,-13.405615,0.75838023,-15.725895,-144.77545,-89.95557,61.396786,-18.655506,42.39923,-25.313875,5.433497
161,8.277108192443848,-1.6111780405044556,78.33036041259766,-0.7806324848285413,4.129846530800264,-88.20568056377341,-0.4337183,-0.22307195,11.375355,6.9553223,-11.945991,-1.2797257,-3.697074,2.1996858,-2.5462322,8.708441,-8.7649145,-0.06479543,2.715151,-2.1402416,-3.7101002,3.2081552,18.536728,-37.3965,77.41428,-13.419689,0.74307585,-15.736108,-144.6916,-89.96473,61.335346,-18.692276,42.41712,-25.295538,5.38546
162,8.281648635864258,-1.6055169105529785,78.33527374267578,-0.7807405877580853,4.1310902259260525,-88.20565842845821,-0.44388708,-0.22041607,11.385168,6.9560256,-11.93449,-1.258614,-3.7096357,2.1986184,-2.5518026,8.719495,-8.756177,-0.07295937,2.6897767,-2.144064,-3.7107878,3.1572993,18.565485,-37.44024,77.41173,-13.460366,0.7228055,-15.727742,-144.64316,-89.98226,61.29393,-18.744228,42.474464,-25.278967,5.3320475
163,8.275492668151855,-1.5903602838516235,78.33572387695312,-0.7813403028000667,4.1309415106054,-88.20561614660866,-0.4531357,-0.2186604,11.391147,6.956605,-11.922231,-1.2400726,-3.7210088,2.1975343,-2.5566132,8.730457,-8.746565,-0.08053336,2.6686068,-2.1455328,-3.708303,3.1063802,18.59845,-37.476383,77.40303,-13.516126,0.69798326,-15.711599,-144.6317,-89.99649,61.288956,-18.786205,42.53698,-25.270302,5.284631
164,8.277841567993164,-1.5808210372924805,78.33694458007812,-0.7808870929474023,4.1285496464587546,-88.2071316639611,-0.4596645,-0.22104642,11.390128,6.9573507,-11.908778,-1.230747,-3.7286658,2.1951485,-2.5563686,8.736224,-8.735804,-0.08258601,2.6545131,-2.1489742,-3.7011623,3.060868,18.632704,-37.480278,77.38944,-13.554256,0.67163235,-15.6892185,-144.63689,-90.006676,61.293835,-18.804739,42.581253,-25.275599,5.259868
165,8.281410217285156,-1.5711936950683594,78.33656311035156,-0.7781973011645323,4.123363867208208,-88.20942434567355,-0.4633797,-0.2306166,11.37455,6.957527,-11.889302,-1.2366889,-3.7323315,2.1902466,-2.5495374,8.7349205,-8.722118,-0.07576551,2.6447754,-2.1581388,-3.688126,3.016529,18.662256,-37.437065,77.38147,-13.558074,0.6355975,-15.64668,-144.64742,-90.012596,61.292522,-18.791574,42.603683,-25.303066,5.27575
166,8.290241241455078,-1.5600268840789795,78.3371353149414,-0.7739898791289836,4.11598876057286,-88.21197786394963,-0.46541056,-0.244999,11.348415,6.9580965,-11.866128,-1.2529225,-3.7321794,2.183798,-2.5386844,8.727547,-8.7053175,-0.063344866,2.635865,-2.171403,-3.6691122,2.976955,18.696333,-37.362034,77.36807,-13.550734,0.5917163,-15.588381,-144.65602,-90.01699,61.278233,-18.758131,42.615845,-25.345823,5.3207617
167,8.2861967086792,-1.5498583316802979,78.3323745727539,-0.7706625808111598,4.106743193093404,-88.21721032282493,-0.46480703,-0.2590499,11.325612,6.959169,-11.847599,-1.2695725,-3.730215,2.1778383,-2.5251777,8.720083,-8.690548,-0.050478574,2.6352282,-2.1802115,-3.6502006,2.9307816,18.720768,-37.284763,77.36615,-13.558685,0.5534647,-15.537953,-144.66351,-90.019066,61.262127,-18.722456,42.616028,-25.387087,5.366798
168,8.293194770812988,-1.5392396450042725,78.3369369506836,-0.7705713230079824,4.095858815215522,-88.2274207730796,-0.46036854,-0.26776215,11.320319,6.9598403,-11.841346,-1.2766665,-3.7285607,2.1747065,-2.510249,8.718665,-8.683266,-0.042316027,2.644914,-2.1787422,-3.633039,2.8827107,18.73987,-37.22446,77.36634,-13.606381,0.5363505,-15.521083,-144.669,-90.01931,61.24664,-18.706924,42.605095,-25.410608,5.3862
169,8.29665470123291,-1.52756667137146,78.33417510986328,-0.7757873327048334,4.082136502581491,-88.24566133887244,-0.4501755,-0.26737013,11.342567,6.9610744,-11.855842,-1.2731091,-3.7254863,2.1769624,-2.4938374,8.723174,-8.686859,-0.043201197,2.674419,-2.160702,-3.620719,2.8240645,18.747545,-37.19893,77.379135,-13.736167,0.5532892,-15.565432,-144.67561,-90.0185,61.23989,-18.717922,42.572697,-25.406504,5.363453
170,8.308351516723633,-1.5207897424697876,78.33331298828125,-0.784636383716964,4.066050554566978,-88.26986261168238,-0.4347412,-0.26125106,11.382672,6.9613037,-11.883918,-1.2638476,-3.7205162,2.1828196,-2.475131,8.730475,-8.697478,-0.04936638,2.712766,-2.13112,-3.6063142,2.766562,18.753513,-37.179493,77.38746,-13.9181,0.5941967,-15.650514,-144.68533,-90.01696,61.23338,-18.747404,42.525314,-25.387047,5.314686
171,8.324347496032715,-1.5135810375213623,78.33536529541016,-0.7930418831748943,4.050932839300531,-88.29211337675527,-0.42099035,-0.2562115,11.422558,6.9618683,-11.912343,-1.2472478,-3.7182212,2.1869564,-2.4582436,8.7421875,-8.7102375,-0.053774994,2.7533908,-2.1001883,-3.6005988,2.728315,18.75586,-37.171463,77.387886,-14.077067,0.6299457,-15.716496,-144.69003,-90.01601,61.230553,-18.771124,42.487762,-25.372686,5.2727847
172,8.33425521850586,-1.5007753372192383,78.33155059814453,-0.7981361855771696,4.036610478453368,-88.31263606476901,-0.40949053,-0.25642586,11.4522915,6.9634714,-11.92967,-1.2227842,-3.7193284,2.186675,-2.4394,8.757942,-8.718064,-0.049817108,2.7895257,-2.0725486,-3.5894072,2.6821167,18.758286,-37.163963,77.387024,-14.178009,0.6547362,-15.743452,-144.69368,-90.01476,61.22732,-18.79631,42.458065,-25.362612,5.2330737
173,8.347779273986816,-1.4908852577209473,78.33271026611328,-0.7973627817725192,4.0261241531946945,-88.32723470152933,-0.40486664,-0.2653701,11.464265,6.966428,-11.928803,-1.1830071,-3.7278576,2.178973,-2.4204192,8.78005,-8.718321,-0.032967392,2.8155353,-2.05495,-3.5778227,2.6394107,18.76093,-37.15843,77.38155,-14.17773,0.6539999,-15.694778,-144.69426,-90.01323,61.223633,-18.812513,42.449875,-25.368671,5.2107267
174,8.351590156555176,-1.482149600982666,78.33118438720703,-0.7928493262570894,4.018549670919046,-88.33804779873108,-0.4040584,-0.27982068,11.4662485,6.9683757,-11.91614,-1.131294,-3.7415228,2.1661599,-2.401705,8.806217,-8.71396,-0.0077836937,2.8383763,-2.0440555,-3.5680733,2.6055741,18.76369,-37.153595,77.36864,-14.102839,0.63700163,-15.592975,-144.69078,-90.011475,61.219658,-18.819012,42.456806,-25.385756,5.2013927
175,8.365034103393555,-1.475391149520874,78.33058166503906,-0.7881177307905075,4.010590043415968,-88.34704375155587,-0.40344584,-0.29611665,11.46331,6.970767,-11.901744,-1.081516,-3.756629,2.151674,-2.3841844,8.8359,-8.710769,0.019407714,2.8587587,-2.033473,-3.5581121,2.5797515,18.766447,-37.1495,77.34934,-13.997007,0.61133724,-15.473346,-144.68431,-90.009605,61.21526,-18.820438,42.473106,-25.406918,5.1989684
176,8.380332946777344,-1.4652495384216309,78.32929229736328,-0.7857349560969094,3.9989529714484155,-88.35572668738065,-0.398486,-0.3108316,11.46102,6.973433,-11.89479,-1.0450976,-3.7689679,2.1386662,-2.369118,8.8695545,-8.715882,0.04217081,2.8810117,-2.0172122,-3.5454392,2.5590029,18.769238,-37.14493,77.32579,-13.899722,0.58469206,-15.37345,-144.67564,-90.00763,61.2105,-18.818392,42.491932,-25.422646,5.198339
177,8.3953857421875,-1.4528549909591675,78.33016204833984,-0.7887536924859128,3.980670357263728,-88.36477736508502,-0.38465613,-0.32181442,11.456411,6.975314,-11.901714,-1.0320294,-3.772747,2.130066,-2.3583124,8.901647,-8.73003,0.05900871,2.903287,-1.9913689,-3.5256224,2.5403402,18.772043,-37.14106,77.30016,-13.817422,0.55193204,-15.306776,-144.66751,-90.005554,61.204952,-18.816633,42.520145,-25.433937,5.20704
178,8.414772033691406,-1.4426190853118896,78.3299331665039,-0.794752110863062,3.9573636965723784,-88.37326908421495,-0.36498922,-0.33110625,11.448032,6.977166,-11.91623,-1.033312,-3.7708588,2.1235428,-2.3503716,8.9340515,-8.750302,0.07334379,2.9266715,-1.95956,-3.5005612,2.5231645,18.774908,-37.137413,77.27304,-13.730108,0.5116231,-15.256906,-144.6595,-90.00337,61.198715,-18.8136,42.558357,-25.441998,5.2266445
179,8.43435001373291,-1.4298696517944336,78.32711791992188,-0.7999656082713085,3.9333244294215963,-88.3809240342811,-0.34455773,-0.34181252,11.443692,6.9791765,-11.928381,-1.0356852,-3.77031,2.1150465,-2.3423512,8.97063,-8.772699,0.085752144,2.9475248,-1.924879,-3.4742343,2.5066862,18.77781,-37.13516,77.24462,-13.655765,0.47635323,-15.214561,-144.65045,-90.00112,61.19181,-18.809198,42.592186,-25.44317,5.2345867
180,8.449329376220703,-1.4216386079788208,78.32489776611328,-0.7992571932771576,3.9133855646479554,-88.38745459676741,-0.32901704,-0.35797334,11.45133,6.9803886,-11.9263935,-1.0253022,-3.779262,2.099769,-2.3300245,9.017445,-8.794834,0.097079284,2.9703817,-1.8941187,-3.4550798,2.4904933,18.780882,-37.131878,77.21496,-13.603042,0.46213126,-15.170742,-144.63438,-89.9987,61.185295,-18.805468,42.600937,-25.429745,5.2080693
181,8.46558952331543,-1.4108600616455078,78.32561492919922,-0.7892071321866473,3.898453036692916,-88.39114876160336,-0.31970268,-0.3836748,11.475096,6.981327,-11.903168,-0.9946251,-3.8009048,2.0732105,-2.3112624,9.079065,-8.816235,0.103996895,2.9902728,-1.8692468,-3.445038,2.4767933,18.783657,-37.12964,77.181274,-13.592531,0.47794646,-15.123975,-144.61333,-89.996445,61.17903,-18.812534,42.571617,-25.40531,5.137734
182,8.4819974899292,-1.3966851234436035,78.3281021118164,-0.7723936064918486,3.8868805040704033,-88.39270956579259,-0.31476083,-0.41629046,11.510301,6.9825163,-11.866135,-0.95214826,-3.8315096,2.0386007,-2.288411,9.152141,-8.838859,0.107345045,3.009462,-1.8480585,-3.4421365,2.4658914,18.786263,-37.128944,77.14273,-13.613126,0.5168217,-15.077121,-144.58652,-89.99422,61.173138,-18.829342,42.512066,-25.370035,5.0320797
183,8.49954605102539,-1.3864589929580688,78.33336639404297,-0.755711422168671,3.879012940360443,-88.39653369190711,-0.31486908,-0.44820452,11.552268,6.983745,-11.826449,-0.9088213,-3.8693771,2.0039668,-2.2638702,9.229066,-8.861229,0.11390318,3.028121,-1.8247552,-3.442518,2.453718,18.788813,-37.12904,77.10307,-13.641786,0.5673928,-15.029639,-144.54758,-89.99206,61.168507,-18.840517,42.438473,-25.31781,4.8885612
184,8.52473258972168,-1.3794280290603638,78.338623046875,-0.7454832368650032,3.875523450810645,-88.406683798278,-0.31975165,-0.47205308,11.596107,6.9837875,-11.795295,-0.87571204,-3.9127343,1.9768679,-2.2404685,9.301695,-8.8814945,0.13043062,3.0489836,-1.7963367,-3.4444792,2.4348686,18.7916,-37.126205,77.06953,-13.649362,0.6179368,-14.981972,-144.48833,-89.98997,61.1667,-18.828825,42.36592,-25.242414,4.7048836
185,8.545267105102539,-1.3663551807403564,78.33501434326172,-0.7432196312074157,3.87524531949574,-88.4217524783143,-0.32746577,-0.48773003,11.639229,6.984124,-11.777434,-0.8569194,-3.9543817,1.957889,-2.2244449,9.361164,-8.900756,0.15442397,3.0741713,-1.7640086,-3.4509106,2.4041157,18.794655,-37.1195,77.0501,-13.619256,0.6709,-14.939315,-144.41158,-89.98792,61.16746,-18.807068,42.372925,-25.16144,4.4998674
186,8.561610221862793,-1.350581169128418,78.32589721679688,-0.7457851218454893,3.8781384060648043,-88.44007691993329,-0.3384067,-0.49794868,11.684192,6.9843283,-11.76581,-0.8463676,-3.996075,1.9440297,-2.2127116,9.411309,-8.917833,0.18371736,3.1004407,-1.7285186,-3.461656,2.3629699,18.798313,-37.10881,77.04324,-13.567013,0.7292678,-14.902403,-144.32309,-89.98577,61.170216,-18.773233,42.43886,-25.074924,4.276381
187,8.579092025756836,-1.336089015007019,78.32787322998047,-0.7530091245128637,3.8862521317351795,-88.46643483539512,-0.35676065,-0.50061744,11.735315,6.9830313,-11.756277,-0.8390731,-4.051293,1.9367191,-2.193468,9.468032,-8.931154,0.22539744,3.1218638,-1.6891003,-3.4698992,2.3167624,18.802288,-37.08962,77.04169,-13.511224,0.78159714,-14.862371,-144.2146,-89.984085,61.177216,-18.691732,42.413086,-24.94896,3.9961617
188,8.593478202819824,-1.3149008750915527,78.33061981201172,-0.7641094594573231,3.903893090432824,-88.50961011021218,-0.3913518,-0.49274066,11.800919,6.983986,-11.747334,-0.8306848,-4.1403933,1.9382349,-2.150979,9.554792,-8.941639,0.28655946,3.1271477,-1.6597483,-3.4747026,2.265238,18.81098,-37.035812,77.0497,-13.458835,0.8209172,-14.806705,-144.04137,-89.98219,61.19741,-18.527977,42.08666,-24.750439,3.5513337
189,8.607866287231445,-1.2843836545944214,78.33035278320312,-0.7850759551101192,3.9379444626100213,-88.56325023684329,-0.4504424,-0.46789312,11.874392,6.985512,-11.741188,-0.8266393,-4.276998,1.9555503,-2.0925462,9.683531,-8.941905,0.34150252,3.0713644,-1.6208106,-3.462039,2.2693403,18.85334,-36.833866,77.00152,-13.350259,0.82631725,-14.743518,-143.83565,-89.97727,61.249992,-18.324379,41.36262,-24.507664,2.836067
190,8.619278907775879,-1.2447655200958252,78.32866668701172,-0.8174681116602046,3.980647793485108,-88.62538935842184,-0.52382636,-0.42526796,11.953455,6.9881444,-11.739177,-0.8278817,-4.4331217,1.9896342,-2.0235772,9.818002,-8.92301,0.39520064,3.011005,-1.5688758,-3.4290428,2.2998614,18.925863,-36.634914,76.89775,-13.278789,0.8116593,-14.660108,-143.68678,-89.97728,61.355328,-18.050734,40.445034,-24.186556,2.0417643
191,8.636229515075684,-1.1977097988128662,78.33505249023438,-0.8433753073364941,4.02318499909483,-88.70335210688916,-0.59861124,-0.3857953,12.046146,6.9868937,-11.729196,-0.8200966,-4.6072125,2.0183625,-1.9308164,9.977477,-8.920256,0.5027899,2.9588904,-1.5272986,-3.381138,2.3356152,19.020357,-36.457577,76.76862,-13.224314,0.7956279,-14.577194,-143.52625,-89.98693,61.53278,-17.68982,39.355076,-23.784777,1.1883162
192,8.632566452026367,-1.1511790752410889,78.34271240234375,-0.846744853482497,4.05380436404132,-88.80294221652075,-0.6646817,-0.36734155,12.158966,6.990668,-11.707289,-0.7892535,-4.7868004,2.0223503,-1.8029412,10.164445,-8.960436,0.7190711,2.9163644,-1.505273,-3.3045065,2.3575213,19.107271,-36.30478,76.639755,-13.168507,0.7905947,-14.49975,-143.29239,-90.00451,61.74578,-17.219044,38.166958,-23.28591,0.36600742
193,8.63627815246582,-1.0997552871704102,78.34548950195312,-0.8228987868443776,4.071831507184063,-88.92388154007452,-0.7178437,-0.37645376,12.291801,6.98929,-11.658829,-0.72636974,-4.9701176,1.9912969,-1.6770139,10.380041,-9.063649,1.0517651,2.8740833,-1.5078889,-3.196352,2.3799899,19.19266,-36.149082,76.49224,-13.0876665,0.79900676,-14.420699,-142.99545,-90.0298,61.995083,-16.622961,36.814972,-22.66523,-0.3858165
194,8.63395881652832,-1.0343661308288574,78.34252166748047,-0.7815559507253748,4.082545759478648,-89.06368162721658,-0.7663458,-0.40083668,12.44187,6.9866285,-11.59222,-0.64106625,-5.1649837,1.9384072,-1.5471395,10.626934,-9.213823,1.4737498,2.829432,-1.527268,-3.0634422,2.4057434,19.280218,-35.983707,76.327545,-12.987745,0.8133682,-14.338441,-142.63855,-90.062096,62.27398,-15.918892,35.297188,-21.932434,-1.1085368
195,8.619650840759277,-0.9615156650543213,78.34071350097656,-0.7294372415825543,4.0833458530277005,-89.22460171441917,-0.80405194,-0.43353078,12.610607,6.9837556,-11.52409,-0.5471702,-5.3753605,1.8806387,-1.3391007,10.915588,-9.388023,1.9878714,2.7953181,-1.5559807,-2.903525,2.4202526,19.371819,-35.856987,76.158646,-12.909199,0.8364755,-14.2729,-142.17673,-90.09756,62.562138,-15.131547,33.782593,-21.129795,-1.8388858
196,8.598686218261719,-0.8884300589561462,78.33891296386719,-0.6727064655402026,4.071522432061969,-89.40909889258592,-0.8258299,-0.46780604,12.799754,6.980804,-11.469504,-0.45810747,-5.606536,1.835522,-0.9783145,11.260859,-9.566289,2.5979855,2.7854576,-1.586381,-2.7157214,2.412838,19.466526,-35.800846,75.997055,-12.874953,0.8716412,-14.243784,-141.55676,-90.132576,62.83092,-14.281791,32.43661,-20.300875,-2.62
197,8.577089309692383,-0.8108507990837097,78.33279418945312,-0.5995591361728153,4.042429065609655,-89.62009395876625,-0.82578486,-0.5170993,13.010713,6.9770083,-11.433988,-0.3732462,-5.826691,1.8085849,-0.39916238,11.601043,-9.733821,3.3927133,2.7991934,-1.6318681,-2.4967778,2.3812094,19.564936,-35.82444,75.84597,-12.913647,0.92547905,-14.272207,-140.73235,-90.16744,63.063644,-13.375218,31.335213,-19.435387,-3.5530825
198,8.563436508178711,-0.7335978746414185,78.3244400024414,-0.5131303599162723,3.999057131420613,-89.85565805591402,-0.80974406,-0.5776362,13.24191,6.9751444,-11.410384,-0.2868724,-6.047906,1.7950231,0.33862457,11.963444,-9.918392,4.342846,2.8283944,-1.689902,-2.252804,2.3334646,19.666937,-35.909954,75.701324,-13.005155,0.99455863,-14.342445,-139.69281,-90.20546,63.23271,-12.405325,30.383701,-18.515627,-4.5844755
199,8.549217224121094,-0.6508456468582153,78.31427001953125,-0.440339812818346,3.9497434617181817,-90.11076731772773,-0.78512913,-0.6190383,13.490389,6.9738665,-11.392784,-0.20460875,-6.321753,1.7971607,1.1240153,12.453347,-10.147776,5.2765136,2.8735256,-1.7320982,-1.9963528,2.2727973,19.76909,-36.045643,75.56805,-13.098346,1.066306,-14.417861,-138.42696,-90.24815,63.27878,-11.388568,29.48317,-17.576921,-5.529039
200,8.537649154663086,-0.5649696588516235,78.30757904052734,-0.4058361776967675,3.902853899138249,-90.38034491959577,-0.7615562,-0.6134075,13.753607,6.9757776,-11.377392,-0.13171718,-6.6966944,1.8159212,1.850661,13.165765,-10.436233,6.0217533,2.9334161,-1.7312495,-1.7390895,2.203005,19.865398,-36.21483,75.4509,-13.138432,1.1280363,-14.4614105,-136.91022,-90.2972,63.127365,-10.340882,28.526344,-16.656103,-6.2011733
201,8.531811714172363,-0.4814342260360718,78.31378936767578,-0.41683126266559994,3.857317199623854,-90.67367335667167,-0.7363868,-0.55094737,14.047155,6.9813104,-11.3639555,-0.063802585,-7.199224,1.9038979,2.6469636,14.139343,-10.753514,6.5675325,3.0084126,-1.6840984,-1.4734427,2.1224828,19.95176,-36.408012,75.35661,-13.105543,1.1815155,-14.457069,-135.07878,-90.3544,62.701126,-9.235315,27.52409,-15.795836,-6.518495
202,8.528007507324219,-0.4043629467487335,78.32157897949219,-0.45599971396477973,3.8094924378660022,-90.98989699615348,-0.7070763,-0.45183176,14.368025,6.990527,-11.355077,0.00084820983,-7.7895494,2.0475016,3.5196548,15.302116,-11.091864,6.999075,3.0912216,-1.6098256,-1.1995938,2.0302927,20.028254,-36.627552,75.28852,-13.027601,1.2309204,-14.42484,-132.86256,-90.42249,61.95234,-8.090863,26.505474,-14.972264,-6.589536
203,8.508269309997559,-0.3230259418487549,78.33755493164062,-0.5085152045117076,3.7645718792117133,-91.30877812181458,-0.68038,-0.33690697,14.685763,7.0002627,-11.348088,0.053462993,-8.420684,2.1354795,4.187938,16.579706,-11.487761,7.2817225,3.1716697,-1.5197022,-0.93871135,1.9239581,20.09708,-36.89069,75.2506,-12.93768,1.265826,-14.381328,-130.24939,-90.50323,60.871353,-6.994076,25.389568,-14.123696,-6.509482
204,8.501363754272461,-0.23281826078891754,78.34381103515625,-0.5605568738205687,3.727388781787732,-91.6099595826267,-0.6630745,-0.2255278,14.969861,7.0092916,-11.342509,0.08501768,-9.054475,2.0433326,4.3759804,17.905067,-11.977001,7.371845,3.2437391,-1.4227731,-0.71017355,1.7986771,20.161373,-37.223755,75.24494,-12.874519,1.2755752,-14.344122,-127.26069,-90.59602,59.484024,-6.0238514,24.100824,-13.185982,-6.370378
205,8.50158405303955,-0.1492430567741394,78.34795379638672,-0.6056286885966878,3.7006770744774244,-91.89683750644099,-0.65869665,-0.1266713,15.21406,7.0155125,-11.337899,0.08868265,-9.720039,1.6915405,3.9315689,19.361586,-12.612992,7.203569,3.3199754,-1.3220931,-0.5141659,1.6470879,20.223326,-37.6589,75.271545,-12.85645,1.2504207,-14.32139,-123.92409,-90.69577,57.821552,-5.1925,22.540241,-12.124778,-6.167602
206,8.481435775756836,-0.07779502868652344,78.35043334960938,-0.6471438513451958,3.681443635788485,-92.1773330727086,-0.66284436,-0.03474979,15.4349785,7.0200953,-11.334726,0.07171974,-10.420161,1.127972,3.0454514,20.941833,-13.358026,6.805492,3.4077804,-1.2157264,-0.33627066,1.4678003,20.282997,-38.189735,75.324684,-12.869764,1.1983474,-14.304013,-120.25905,-90.794914,55.899025,-4.455875,20.775658,-10.988586,-5.849673
207,8.46895980834961,-0.011171529069542885,78.3576431274414,-0.6884456405508296,3.6664831628687624,-92.43804590753396,-0.6707198,0.055653337,15.635931,7.0246673,-11.331785,0.04559717,-11.08262,0.42464745,1.952437,22.454584,-14.119053,6.27705,3.4946098,-1.1043806,-0.17352737,1.2738732,20.338556,-38.75175,75.390236,-12.871797,1.1372553,-14.282842,-116.28998,-90.88813,53.73411,-3.8108222,18.982664,-9.834401,-5.4414353
208,8.461071014404297,0.04998460039496422,78.3690185546875,-0.7374667446437622,3.652617342513304,-92.6657599964742,-0.67847776,0.15532446,15.819317,7.0325136,-11.3283615,0.021065313,-11.638674,-0.3223806,0.8743574,23.709465,-14.796308,5.726376,3.567437,-0.98413384,-0.024163198,1.073014,20.388756,-39.29472,75.45992,-12.834372,1.0841032,-14.248512,-112.0361,-90.970024,51.33934,-3.2528481,17.33656,-8.715033,-4.978461
209,8.449114799499512,0.10860293358564377,78.3823013305664,-0.8026985342800981,3.6382605765542664,-92.86327759134124,-0.6825723,0.27616662,15.994405,7.0425763,-11.324838,-0.0020893102,-12.079062,-1.1048745,-0.21220548,24.685312,-15.38179,5.1432157,3.627188,-0.84522116,0.11472688,0.8689105,20.432716,-39.801018,75.53145,-12.7063055,1.0399191,-14.190943,-107.50115,-91.03428,48.72424,-2.7963407,15.880014,-7.6095524,-4.495319
210,8.432960510253906,0.15424029529094696,78.39735412597656,-0.8804367421857644,3.6253012002341585,-93.03573346819728,-0.6866432,0.41263714,16.156637,7.0558577,-11.321062,-0.029133437,-12.435611,-1.9585246,-1.4033328,25.484062,-15.929163,4.4895196,3.6843255,-0.6874757,0.24434653,0.6517153,20.47051,-40.30821,75.60819,-12.523016,0.99673223,-14.1179695,-102.690735,-91.0731,45.89491,-2.4422555,14.518099,-6.503205,-3.9710534
211,8.41676139831543,0.19355088472366333,78.41488647460938,-0.962869639642185,3.6160302971559726,-93.17306994306591,-0.69474256,0.55200505,16.287102,7.069157,-11.314772,-0.057185944,-12.709317,-2.8349771,-2.5972111,26.10072,-16.430069,3.8360813,3.7404525,-0.51768154,0.3629149,0.41885665,20.500652,-40.817863,75.6834,-12.355543,0.9596302,-14.047098,-97.62286,-91.0797,42.856445,-2.1684952,13.219646,-5.4560037,-3.3668504
212,8.394969940185547,0.22734026610851288,78.42697143554688,-1.041232857832038,3.6126668464053306,-93.26531835279195,-0.71129966,0.6810748,16.367176,7.081352,-11.300274,-0.08322854,-12.906226,-3.6855054,-3.6919122,26.529827,-16.870441,3.2528374,3.7954402,-0.34307784,0.46821526,0.16674519,20.521654,-41.338463,75.75211,-12.283666,0.93319964,-13.99532,-92.31586,-91.046684,39.614517,-1.9527001,11.953549,-4.5305204,-2.6448724
213,8.369743347167969,0.2591339349746704,78.44220733642578,-1.120283903621042,3.618786703897602,-93.29960098417132,-0.74241716,0.8026981,16.380274,7.0930376,-11.272931,-0.10589279,-13.014679,-4.5117006,-4.715211,26.728693,-17.250013,2.7448757,3.8381047,-0.15528812,0.5556883,-0.10702787,20.532318,-41.88272,75.81481,-12.37355,0.92332125,-13.97782,-86.7701,-90.965195,36.175434,-1.7943696,10.692705,-3.7707608,-1.8379602
214,8.340018272399902,0.275140643119812,78.4585189819336,-1.2046913758460331,3.632612103185871,-93.28495965240243,-0.7849754,0.92471707,16.339674,7.1046205,-11.23586,-0.12734526,-13.040614,-5.3253226,-5.7105603,26.721834,-17.574572,2.2824304,3.872513,0.052010972,0.6289462,-0.3966961,20.530798,-42.43166,75.86873,-12.558143,0.92639196,-13.981665,-80.998375,-90.82697,32.556374,-1.7150935,9.460554,-3.1385512,-0.9605408
215,8.314006805419922,0.29215264320373535,78.47795867919922,-1.2844800098928941,3.6482197825942273,-93.24391429595454,-0.8285821,1.0397322,16.272102,7.115014,-11.197658,-0.14980815,-13.022439,-6.0955687,-6.597403,26.606657,-17.83747,1.880157,3.9182484,0.2659428,0.6975034,-0.7037317,20.516851,-42.97959,75.91482,-12.751869,0.9299983,-13.982335,-75.05204,-90.624825,28.794317,-1.7234133,8.298364,-2.57705,0.05332902
216,8.277328491210938,0.29907694458961487,78.49266815185547,-1.3490494984556052,3.659658076485264,-93.19908883196129,-0.8651438,1.1401873,16.204254,7.1273685,-11.168412,-0.17527501,-13.000192,-6.794622,-7.292758,26.478441,-18.030216,1.5508417,3.9955118,0.47348788,0.7713681,-1.0230235,20.489918,-43.49985,75.94776,-12.847423,0.9226002,-13.955382,-69.00061,-90.35309,24.945063,-1.8256851,7.245051,-2.031309,1.2709485
217,8.245532989501953,0.30129536986351013,78.50154876708984,-1.3948720621070272,3.6665041572642885,-93.15209228066892,-0.8916945,1.2206643,16.137922,7.1392837,-11.149764,-0.20401879,-12.983717,-7.4255857,-7.7844234,26.342428,-18.194721,1.2645755,4.1058774,0.67787856,0.84857774,-1.3500313,20.448711,-43.995823,75.9642,-12.805899,0.8967024,-13.89103,-62.905254,-90.00318,21.067621,-2.030196,6.3298664,-1.4899162,2.7471898
218,8.204268455505371,0.30185216665267944,78.51242065429688,-1.4276482869075775,3.671443568249878,-93.0922000303054,-0.91347235,1.286168,16.060707,7.150292,-11.136223,-0.23498699,-12.958923,-8.000394,-8.1129465,26.158745,-18.319756,1.0232998,4.234635,0.88809115,0.92490137,-1.6788026,20.39149,-44.455112,75.96087,-12.670376,0.8605886,-13.80334,-56.81196,-89.562836,17.219372,-2.3332183,5.520077,-0.9870944,4.4274025
219,8.152472496032715,0.3021671772003174,78.51235961914062,-1.4502277594780364,3.6731994466930313,-93.02383549283823,-0.9300205,1.3439826,15.977837,7.163754,-11.128125,-0.26862648,-12.922113,-8.505313,-8.273532,25.933077,-18.313541,0.8864212,4.3748713,1.0999669,1.006801,-2.0191467,20.320866,-44.89522,75.9458,-12.526487,0.8234376,-13.704516,-50.778057,-89.01807,13.4663725,-2.7150564,4.7595677,-0.5355692,6.21656
220,8.099895477294922,0.30222761631011963,78.50757598876953,-1.4657388998670169,3.67053254114926,-92.951417508524,-0.93846816,1.4010899,15.894519,7.176095,-11.121713,-0.3055249,-12.867496,-8.926442,-8.261264,25.669102,-18.08348,0.9134212,4.5194516,1.3082564,1.1010386,-2.370295,20.240442,-45.298714,75.91801,-12.425336,0.7957345,-13.607061,-44.864407,-88.35435,9.879656,-3.1583745,3.9929097,-0.14704181,8.020687
221,8.032125473022461,0.2943969964981079,78.50962829589844,-1.4726458492859646,3.6602667649729894,-92.87360470488507,-0.9382963,1.4571617,15.810342,7.194125,-11.119577,-0.34136498,-12.784514,-9.250085,-8.039436,25.349478,-17.646233,1.1532707,4.659654,1.5104616,1.2109655,-2.7288089,20.154232,-45.666145,75.86935,-12.409056,0.7880043,-13.518653,-39.11705,-87.54825,6.5256853,-3.6635592,3.2386768,0.16827337,9.928118
222,7.957178115844727,0.2870159149169922,78.5013198852539,-1.4705098377580714,3.6439699176168663,-92.78888890568219,-0.9283165,1.5090497,15.7229805,7.211584,-11.119357,-0.37763807,-12.6756935,-9.486714,-7.6194067,24.97168,-17.037354,1.5635298,4.784123,1.7008297,1.3279202,-3.085661,20.0655,-45.98774,75.8057,-12.438331,0.7916559,-13.429249,-33.601616,-86.58267,3.470331,-4.2409854,2.4986112,0.41547805,11.94837
223,7.880101203918457,0.2681266665458679,78.49523162841797,-1.4628912412704391,3.627503577821028,-92.70134946316853,-0.9162904,1.5606478,15.635598,7.2310457,-11.124275,-0.4231604,-12.558532,-9.658814,-7.066489,24.570446,-16.197102,2.0690467,4.886252,1.8678104,1.4427205,-3.4405313,19.978508,-46.25909,75.75126,-12.466821,0.7880453,-13.324339,-28.40325,-85.460434,0.7791934,-4.8767242,1.6944419,0.6089871,13.8705845
224,7.79935359954834,0.2532654106616974,78.48674774169922,-1.4536433844042451,3.616835789211155,-92.61527631615242,-0.95637894,1.6297755,15.549538,7.35594,-11.189737,-0.48726657,-12.451779,-9.787712,-6.444942,24.180983,-15.063484,2.596853,4.9681997,2.002747,1.5475285,-3.7963824,19.897366,-46.480755,75.7267,-12.44556,0.7594176,-13.191118,-23.591242,-84.203415,-1.4991089,-5.5451984,0.7539255,0.76829845,15.484028
225,7.723782062530518,0.23452094197273254,78.47616577148438,-1.4573101884699866,3.617258018628561,-92.53611257527264,-1.0630777,1.7353778,15.467324,7.6050763,-11.32914,-0.5779028,-12.416934,-9.8434,-5.680721,23.896204,-13.411927,3.0391588,5.041964,2.116262,1.6367496,-4.1606135,19.824482,-46.661804,75.738075,-12.323968,0.6948697,-13.013611,-19.166012,-82.84194,-3.3419917,-6.245708,-0.41209733,0.91682565,16.74863
226,7.627151012420654,0.20845180749893188,78.4648666381836,-1.468439518412426,3.6243586861440606,-92.46060315371554,-1.1794466,1.8563389,15.388357,7.8638177,-11.480087,-0.68822724,-12.422768,-9.82095,-4.7630677,23.668486,-11.345205,3.4815996,5.114163,2.2105367,1.7162831,-4.5331044,19.760645,-46.810143,75.77002,-12.141487,0.6077176,-12.804653,-15.108416,-81.39871,-4.759248,-6.959941,-1.7366469,1.0457487,17.771452
227,7.519309043884277,0.18898905813694,78.44969177246094,-1.4603362368952861,3.628962252774655,-92.37926597510891,-1.2793024,1.9569306,15.308567,8.099305,-11.620579,-0.8056092,-12.349218,-9.781065,-3.8466382,23.321182,-9.294191,4.127817,5.182423,2.2702818,1.7958893,-4.9046416,19.705553,-46.924725,75.80587,-11.981453,0.5159828,-12.596031,-11.424067,-79.8896,-5.7874575,-7.635643,-3.0495543,1.1361442,18.559992
228,7.410227298736572,0.15852206945419312,78.43373107910156,-1.4047784651251771,3.6218863821923004,-92.28238497478507,-1.3365939,1.9995632,15.223801,8.277195,-11.726833,-0.9169218,-12.076446,-9.789711,-3.0833359,22.675453,-7.6928306,5.159828,5.2400293,2.2753787,1.8842418,-5.2645226,19.659014,-47.00149,75.83199,-11.927576,0.43691638,-12.419416,-8.110611,-78.325676,-6.4722457,-8.223285,-4.181725,1.1727375,19.120293
229,7.295556545257568,0.11735145002603531,78.4056396484375,-1.270600849860187,3.596220313609378,-92.16356297024842,-1.3265125,1.9424314,15.135908,8.361863,-11.779305,-1.0126058,-11.485595,-9.889331,-2.4996827,21.51037,-6.6421065,6.8667927,5.2878766,2.1948576,1.9870161,-5.6092644,19.621386,-47.021297,75.84207,-12.007063,0.37527588,-12.294702,-5.103727,-76.72656,-6.85638,-8.722099,-5.0382195,1.1332356,19.374321
230,7.169127464294434,0.07631542533636093,78.37295532226562,-1.0721399949305632,3.5575634478895037,-92.02889380447859,-1.2618954,1.804214,15.048022,8.3666,-11.788528,-1.0999689,-10.660965,-10.053251,-2.0304399,19.955797,-5.9063983,9.055418,5.335386,2.0435236,2.0995526,-5.9468884,19.592789,-47.000942,75.8407,-12.176266,0.32169095,-12.20359,-2.3562052,-75.11357,-6.9754095,-9.1414585,-5.7158575,1.0486399,19.343811
231,7.029183864593506,0.03956473246216774,78.33413696289062,-0.8521388095714401,3.5159717634183063,-91.88752965420136,-1.1752907,1.6412228,14.956794,8.3327,-11.776005,-1.191564,-9.790669,-10.241469,-1.6954253,18.361832,-5.407037,11.175973,5.382305,1.8705012,2.2127352,-6.273253,19.570845,-46.96214,75.82838,-12.389181,0.27249452,-12.119485,0.10543571,-73.4903,-6.8615813,-9.447143,-6.3348374,0.9801798,19.184368
232,6.898101329803467,-0.002399517223238945,78.28996276855469,-0.6635485854168637,3.482208299279168,-91.74868021680044,-1.109805,1.5253286,14.8573065,8.324362,-11.774852,-1.3019934,-9.0784855,-10.394386,-1.4963267,17.115582,-5.0842323,12.683544,5.423872,1.7316941,2.3147771,-6.580379,19.551159,-46.911385,75.80966,-12.587369,0.22398598,-12.013668,2.2492106,-71.8474,-6.5411077,-9.605169,-7.0207057,0.9847668,19.052755
233,6.754245758056641,-0.049281924962997437,78.25430297851562,-0.5253463172556028,3.4608496923164895,-91.61142998813904,-1.0821326,1.4825124,14.744776,8.367092,-11.798248,-1.4404514,-8.605148,-10.486335,-1.4535375,16.388128,-5.008516,13.370867,5.455373,1.6406208,2.3953836,-6.8708043,19.530817,-46.8496,75.79612,-12.782911,0.17848046,-11.873986,4.0917153,-70.178635,-6.0380096,-9.6231165,-7.8179297,1.107551,19.005972
234,6.585060119628906,-0.09763568639755249,78.23092651367188,-0.4141013981997156,3.4458589421591723,-91.47196768305521,-1.0730957,1.4814944,14.621701,8.436101,-11.833169,-1.5985655,-8.26609,-10.540808,-1.5608982,15.975231,-5.185005,13.551137,5.477776,1.5703852,2.4587529,-7.1488776,19.509,-46.775482,75.79291,-13.000213,0.13585058,-11.716199,5.684371,-68.485466,-5.3761106,-9.504783,-8.6577835,1.3080009,18.958803
235,6.42482852935791,-0.14936959743499756,78.21121978759766,-0.3261693701771099,3.4319659777957368,-91.33460505457522,-1.0791476,1.517651,14.491762,8.535609,-11.881517,-1.7657797,-7.984594,-10.560002,-1.7682526,15.701559,-5.4680204,13.461731,5.491234,1.5223144,2.512573,-7.4110894,19.484678,-46.695988,75.797585,-13.207084,0.0888654,-11.552311,7.0457144,-66.765465,-4.578147,-9.208359,-9.4967165,1.512585,18.854208
236,6.256649494171143,-0.20059707760810852,78.19822692871094,-0.2564246718979565,3.414280692244502,-91.20403970856562,-1.0940197,1.5836554,14.35919,8.66383,-11.942384,-1.9314361,-7.681826,-10.54892,-2.0262983,15.386631,-5.709729,13.340524,5.496413,1.4947839,2.5655427,-7.64498,19.455124,-46.580956,75.801506,-13.333254,0.03218809,-11.394496,8.198872,-65.01316,-3.6697009,-8.698918,-10.2924595,1.6513468,18.633202
237,6.082876205444336,-0.2513805329799652,78.19416809082031,-0.2114093912506275,3.3884602056193462,-91.07930391395317,-1.121308,1.6908835,14.219402,8.839484,-12.024635,-2.094999,-7.339359,-10.497673,-2.3646104,15.004662,-5.8926086,13.182867,5.4913735,1.4998453,2.624586,-7.850218,19.418024,-46.42465,75.80745,-13.353887,-0.04259719,-11.245372,9.171555,-63.21055,-2.664503,-7.956942,-11.0344095,1.6842542,18.248825
238,5.905339241027832,-0.2925979495048523,78.18765258789062,-0.19253846722122922,3.3582769704001687,-90.95862702017205,-1.1623317,1.8398927,14.071478,9.056059,-12.124857,-2.2615638,-6.9971113,-10.404103,-2.794149,14.643006,-6.088767,12.8866825,5.475353,1.5297292,2.6822298,-8.038357,19.374336,-46.252655,75.82936,-13.318216,-0.13064618,-11.097288,9.986481,-61.351154,-1.5845089,-7.00967,-11.74909,1.6599872,17.74245
