unveil-humanoid-operators/unveil-humanoid-operators.github.io/feature-analysis-animation/data/feature_matrix_instances/weight_ankle_peak_vel_gesture_A260_confusion_R_001__A260.csv
Frame,root_translateX,root_translateY,root_translateZ,root_rotateX,root_rotateY,root_rotateZ,left_hip_pitch_joint_dof,left_hip_roll_joint_dof,left_hip_yaw_joint_dof,left_knee_joint_dof,left_ankle_pitch_joint_dof,left_ankle_roll_joint_dof,right_hip_pitch_joint_dof,right_hip_roll_joint_dof,right_hip_yaw_joint_dof,right_knee_joint_dof,right_ankle_pitch_joint_dof,right_ankle_roll_joint_dof,waist_yaw_joint_dof,waist_roll_joint_dof,waist_pitch_joint_dof,left_shoulder_pitch_joint_dof,left_shoulder_roll_joint_dof,left_shoulder_yaw_joint_dof,left_elbow_joint_dof,left_wrist_roll_joint_dof,left_wrist_pitch_joint_dof,left_wrist_yaw_joint_dof,right_shoulder_pitch_joint_dof,right_shoulder_roll_joint_dof,right_shoulder_yaw_joint_dof,right_elbow_joint_dof,right_wrist_roll_joint_dof,right_wrist_pitch_joint_dof,right_wrist_yaw_joint_dof
0,0.18497425317764282,1.8659780025482178,77.68281555175781,-0.3872995398526401,3.390182445385985,-92.24182314098013,-1.5998719,6.7243834,16.369783,15.177192,-16.965826,-5.2053576,-3.6127439,-4.4473,-13.260394,15.12452,-14.999633,3.0935946,-2.3786135,0.9197563,4.0275517,1.2308173,21.003544,-47.474796,54.611256,11.015936,-3.3979933,7.552252,-0.010032136,-20.855486,39.531544,52.951153,-1.5685871,-2.10754,-3.1486137
1,0.19008828699588776,1.8691645860671997,77.68248748779297,-0.37028327026226715,3.412468286419399,-92.24239429899673,-1.6224906,6.6980166,16.374865,15.163781,-16.951088,-5.1916747,-3.6931312,-4.484312,-13.249201,15.235709,-15.045518,3.0820906,-2.4001799,0.9071322,4.0299063,1.2624756,21.04428,-47.44236,54.543274,11.037367,-3.3870769,7.5264897,0.0058994903,-20.87778,39.23129,52.831886,-1.3313681,-2.292144,-3.0176904
2,0.19344353675842285,1.8741670846939087,77.68209838867188,-0.3542719362496172,3.4346425784433827,-92.24185762353757,-1.6464757,6.673112,16.378826,15.15315,-16.937342,-5.1777306,-3.7731128,-4.52044,-13.239046,15.347028,-15.091779,3.0686343,-2.4088535,0.8964499,4.0310435,1.2778338,21.075415,-47.427334,54.49342,11.059308,-3.3755622,7.500419,0.028175946,-20.899845,38.94168,52.73237,-1.1173491,-2.463703,-2.8721287
3,0.19915786385536194,1.8802049160003662,77.68104553222656,-0.33659515187127714,3.457014105507994,-92.24346912336523,-1.6686146,6.6455765,16.384981,15.13847,-16.922186,-5.1643286,-3.8540587,-4.558245,-13.226758,15.457895,-15.137023,3.059273,-2.438376,0.8849407,4.0263443,1.3004802,21.0918,-47.39074,54.459114,11.078093,-3.3693008,7.478576,0.030508235,-20.914995,38.63476,52.614292,-0.849157,-2.6614478,-2.7543883
4,0.20615355670452118,1.883037805557251,77.68174743652344,-0.31514785481999336,3.4796569244838786,-92.2504307285153,-1.6842897,6.611059,16.396921,15.11025,-16.901917,-5.1523433,-3.936996,-4.6003222,-13.209017,15.567229,-15.179786,3.0599468,-2.4343019,0.86299974,4.0284686,1.2992681,21.116463,-47.38756,54.429977,11.070775,-3.3723302,7.463517,0.061498865,-20.952063,38.162724,52.36252,-0.47002226,-2.925267,-2.6919758
5,0.21236886084079742,1.886633276939392,77.6825180053711,-0.2885188564557315,3.5001798513931477,-92.26315379085533,-1.6890609,6.5675344,16.414299,15.06561,-16.876707,-5.1448355,-4.0175514,-4.6474195,-13.185537,15.671702,-15.219398,3.076681,-2.4466631,0.83643055,4.032285,1.3063926,21.138708,-47.364735,54.4032,11.03437,-3.3925939,7.4607186,0.09352484,-21.003744,37.572716,52.014553,0.106214866,-3.2889662,-2.7034955
6,0.22042836248874664,1.8934717178344727,77.68109893798828,-0.2585224343648463,3.519204494992224,-92.27994479728716,-1.6865455,6.5178347,16.435612,15.0095825,-16.848139,-5.1404986,-4.097028,-4.698253,-13.157904,15.773726,-15.257457,3.1047156,-2.461581,0.80662876,4.03888,1.3138381,21.15874,-47.33559,54.379333,10.978105,-3.4249086,7.466403,0.13832256,-21.069069,36.881252,51.58351,0.8164838,-3.7242248,-2.763103
7,0.23042555153369904,1.899552345275879,77.67866516113281,-0.22645959640419003,3.5419517984770574,-92.30118614941527,-1.6851424,6.4648476,16.462418,14.947728,-16.815918,-5.1333084,-4.184707,-4.751727,-13.125635,15.8792925,-15.293852,3.1343439,-2.4780698,0.77100104,4.0428195,1.3195993,21.178019,-47.304756,54.362362,10.918292,-3.4584157,7.473025,0.16929081,-21.15333,36.11897,51.039715,1.5566993,-4.1770287,-2.8550947
8,0.24066385626792908,1.906813621520996,77.67851257324219,-0.19404534930639286,3.573488376421364,-92.32699202014507,-1.6943042,6.4116244,16.496315,14.88669,-16.78054,-5.1173763,-4.2906003,-4.807137,-13.088208,15.996364,-15.329864,3.1559196,-2.4984426,0.72817135,4.038651,1.3277376,21.19775,-47.2695,54.35202,10.876135,-3.4823983,7.4727645,0.1675706,-21.263817,35.313953,50.344395,2.2165053,-4.592352,-2.9664533
9,0.2524529695510864,1.9169787168502808,77.6791763305664,-0.16161220302040588,3.617703614629157,-92.35533401898144,-1.7212458,6.3596215,16.536522,14.830797,-16.742056,-5.0883627,-4.423099,-4.8654594,-13.047691,16.133865,-15.368132,3.164231,-2.524607,0.67833513,4.022636,1.3419067,21.21851,-47.222298,54.345375,10.856778,-3.4951723,7.4607816,0.14259702,-21.407152,34.46149,49.483196,2.824483,-4.966141,-3.109109
10,0.2669106721878052,1.9261362552642822,77.68009185791016,-0.1284355698605035,3.6711508285235595,-92.38685945498139,-1.7604804,6.3073106,16.582548,14.778199,-16.701735,-5.05035,-4.5744405,-4.9263415,-13.003301,16.284609,-15.406858,3.1650758,-2.5553646,0.6237111,3.9999883,1.3597475,21.240873,-47.166214,54.34021,10.848736,-3.502232,7.442061,0.10531685,-21.585747,33.552452,48.467613,3.4240162,-5.324071,-3.2845016
11,0.2813012897968292,1.9390358924865723,77.68228912353516,-0.09414023824159531,3.7275065140992307,-92.42559757196564,-1.7987487,6.252448,16.636627,14.718063,-16.656952,-5.009974,-4.733355,-4.9884696,-12.950963,16.43698,-15.443023,3.1661139,-2.5900702,0.5628836,3.9760997,1.3786967,21.265894,-47.111294,54.338696,10.850067,-3.5027778,7.423312,0.042668737,-21.802813,32.602722,47.300182,3.9156327,-5.6546416,-3.467185
12,0.2980138063430786,1.9562429189682007,77.681884765625,-0.05869669233685739,3.7803799637995326,-92.47554337672747,-1.8243513,6.1932406,16.700747,14.642911,-16.60682,-4.973856,-4.8905377,-5.0509357,-12.885613,16.584713,-15.475372,3.1743588,-2.6282809,0.49474898,3.9568398,1.3959527,21.295141,-47.067802,54.34331,10.858118,-3.496212,7.4112234,-0.0654718,-22.061756,31.63367,45.987896,4.2065754,-5.9449778,-3.6330798
13,0.3175014853477478,1.9746651649475098,77.6826171875,-0.021483173932815965,3.8298052623607584,-92.53667362525117,-1.8360677,6.1283984,16.773634,14.549711,-16.54978,-4.944367,-5.0405717,-5.1128254,-12.806885,16.715916,-15.501196,3.1931698,-2.6743484,0.41798556,3.9401515,1.4157622,21.32966,-47.033348,54.350967,10.881288,-3.4749393,7.408008,-0.21351573,-22.365988,30.647047,44.514503,4.202353,-6.1859856,-3.7747626
14,0.33870717883110046,1.9891068935394287,77.68373107910156,0.017099052285008458,3.8785359933490153,-92.6071247948843,-1.8394839,6.0591903,16.85502,14.442719,-16.486452,-4.9178205,-5.1919627,-5.175467,-12.716848,16.843035,-15.523617,3.2183154,-2.7275262,0.33375582,3.9241223,1.4400296,21.36979,-47.002472,54.35925,10.918988,-3.4417076,7.4097433,-0.39328358,-22.717636,29.635534,42.878998,3.9798844,-6.383801,-3.90742
15,0.3615805506706238,2.005918025970459,77.68580627441406,0.056043008846374316,3.924663192019476,-92.68849206929096,-1.8334916,5.987886,16.947313,14.326227,-16.420788,-4.8917394,-5.343819,-5.237481,-12.615408,16.96902,-15.542934,3.2454026,-2.782353,0.24470095,3.9138052,1.4621978,21.41615,-46.982094,54.37185,10.951204,-3.411426,7.4138923,-0.602663,-23.115759,28.597317,41.0961,3.6883838,-6.5483766,-4.0402703
16,0.3856000304222107,2.023045063018799,77.688720703125,0.09427062246848965,3.966261335816621,-92.78243031820898,-1.8175397,5.917385,17.053427,14.205704,-16.356966,-4.863785,-5.4953895,-5.2971754,-12.502422,17.096739,-15.559044,3.2699008,-2.8326185,0.15327932,3.9140704,1.4753203,21.469322,-46.97988,54.39275,10.958201,-3.399133,7.417982,-0.8483749,-23.557266,27.534079,39.18815,3.4829178,-6.690509,-4.181792
17,0.4136223793029785,2.0414626598358154,77.69225311279297,0.13132588646472523,4.001800526754127,-92.88825642344354,-1.7895727,5.848156,17.17343,14.080387,-16.29534,-4.8329573,-5.6438565,-5.3540535,-12.379381,17.224886,-15.571551,3.2901359,-2.8791716,0.05854903,3.92561,1.4784955,21.530436,-46.999996,54.425713,10.920993,-3.4176097,7.4158306,-1.136009,-24.040367,26.44656,37.151028,3.3892713,-6.8152432,-4.324985
18,0.44252052903175354,2.0602402687072754,77.69593048095703,0.16802062406677104,4.032478755930198,-93.00538288355612,-1.7505763,5.7787027,17.305975,13.948551,-16.234222,-4.800663,-5.7893744,-5.4087524,-12.246132,17.35044,-15.579688,3.3086827,-2.9261475,-0.041593667,3.9435863,1.4775375,21.599901,-47.036922,54.467995,10.854299,-3.455804,7.410317,-1.4519249,-24.564837,25.332241,34.970318,3.3266444,-6.9154963,-4.4674883
19,0.47194185853004456,2.076388120651245,77.70073699951172,0.20448322763496152,4.06111762222184,-93.13585389552775,-1.7036314,5.7082944,17.451761,13.810285,-16.172394,-4.7681484,-5.93968,-5.4620695,-12.099027,17.48149,-15.586456,3.327553,-2.9694285,-0.1457356,3.9675453,1.4725947,21.676785,-47.085087,54.513947,10.789485,-3.493139,7.413071,-1.8166059,-25.130465,24.20405,32.688774,3.3126826,-6.9850826,-4.6248803
20,0.5030845999717712,2.103703737258911,77.70252227783203,0.24151971193295443,4.090188224288332,-93.281565820374,-1.6508276,5.6359053,17.611351,13.664545,-16.108587,-4.736619,-6.098309,-5.514179,-11.934591,17.617743,-15.593142,3.348867,-3.0071745,-0.25296238,3.9953518,1.4644446,21.759161,-47.137814,54.559948,10.757795,-3.5091527,7.435766,-2.23817,-25.736622,23.071438,30.33817,3.355671,-7.017931,-4.8129535
21,0.5479666590690613,2.1341047286987305,77.70340728759766,0.2783158377465124,4.121126468670646,-93.44295882736829,-1.5940299,5.5616894,17.783993,13.511877,-16.042366,-4.708059,-6.2713346,-5.565088,-11.752029,17.768497,-15.601075,3.3732932,-3.043503,-0.36318648,4.0246367,1.4535574,21.84493,-47.197556,54.611183,10.782399,-3.4916842,7.492816,-2.7071714,-26.381546,21.930357,27.891626,3.4847395,-6.992546,-5.032012
22,0.5810906887054443,2.1511566638946533,77.7065200805664,0.31467864764716924,4.152165866238273,-93.61885441804706,-1.5318573,5.4860597,17.969519,13.352912,-15.974992,-4.681235,-6.4530034,-5.6141286,-11.553323,17.926477,-15.608422,3.3997362,-3.079402,-0.4770735,4.054936,1.4395529,21.933264,-47.26615,54.671494,10.841597,-3.4540136,7.5742526,-3.2301672,-27.065119,20.783493,25.35135,3.6894636,-6.9189343,-5.275714
23,0.6166119575500488,2.1715025901794434,77.70651245117188,0.35191022438523095,4.181660083524705,-93.80936137484409,-1.4617269,5.4084616,18.16976,13.1869545,-15.906217,-4.6527457,-6.642705,-5.662374,-11.338359,18.094841,-15.617002,3.4274945,-3.1103861,-0.5941823,4.0851417,1.4263295,22.023937,-47.331993,54.733177,10.900793,-3.4134374,7.654939,-3.816182,-27.788471,19.643423,22.771206,3.909413,-6.838586,-5.549304
24,0.6562359929084778,2.1954290866851807,77.70639038085938,0.3912457773689054,4.207503806146613,-94.01403720517584,-1.3814523,5.3283267,18.386904,13.014612,-15.837255,-4.6190724,-6.8375306,-5.710349,-11.107332,18.272419,-15.626247,3.4558158,-3.1354668,-0.7155851,4.1113896,1.422222,22.117304,-47.37891,54.788548,10.928018,-3.3875296,7.7095046,-4.441819,-28.554714,18.51678,20.174736,4.0712495,-6.79266,-5.8572645
25,0.6982166767120361,2.2240755558013916,77.706298828125,0.4325652644416732,4.22994098011203,-94.23741796146709,-1.2893206,5.246164,18.626339,12.834875,-15.768213,-4.5773964,-7.040356,-5.756971,-10.854584,18.462051,-15.636309,3.4827478,-3.1505556,-0.83897394,4.1358333,1.426684,22.214235,-47.407867,54.83264,10.908715,-3.37842,7.7254806,-5.15377,-29.365988,17.425333,17.58719,4.181293,-6.8065214,-6.213233
26,0.743553876876831,2.246821641921997,77.70854187011719,0.4752180417450083,4.249634038559003,-94.47793196820038,-1.1865833,5.1617007,18.885511,12.647116,-15.698148,-4.530298,-7.2499456,-5.801675,-10.582134,18.659945,-15.645642,3.509224,-3.1620014,-0.96448,4.1565423,1.4416896,22.314762,-47.420788,54.86902,10.863253,-3.3777916,7.7179146,-5.9391046,-30.22197,16.364681,14.980611,4.2656665,-6.853788,-6.6112604
27,0.7882446050643921,2.2807695865631104,77.71060943603516,0.5197677412287779,4.266148434282362,-94.72711184590447,-1.0758305,5.0731335,19.153692,12.453569,-15.627482,-4.4823008,-7.4633822,-5.847296,-10.3008795,18.867466,-15.65783,3.5388823,-3.174715,-1.092918,4.1732054,1.4676744,22.418278,-47.414272,54.899574,10.80649,-3.387032,7.703263,-6.776753,-31.121185,15.322581,12.379117,4.317135,-6.8981805,-7.026767
28,0.8344988226890564,2.3007431030273438,77.71305847167969,0.5669297153761127,4.279109731324265,-94.9764724300444,-0.9596943,4.9787765,19.420061,12.255937,-15.555828,-4.438071,-7.6755295,-5.8962603,-10.022251,19.081436,-15.67434,3.575249,-3.1896973,-1.2236531,4.189157,1.5018988,22.523724,-47.386593,54.924747,10.754886,-3.407668,7.6985507,-7.7004128,-32.060406,14.298649,9.858356,4.339544,-6.903738,-7.435885
29,0.8825575113296509,2.3207473754882812,77.71418762207031,0.6184757215514426,4.28935938630807,-95.22735146967256,-0.8372989,4.875112,19.68532,12.0494,-15.48077,-4.4001946,-7.888307,-5.9509387,-9.747561,19.302284,-15.696414,3.6236951,-3.206323,-1.3600949,4.2022862,1.5428952,22.630095,-47.335873,54.95245,10.698991,-3.449379,7.7077193,-8.715608,-33.03724,13.30249,7.4101453,4.2839117,-6.849605,-7.8546815
30,0.9300429224967957,2.3422656059265137,77.7136001586914,0.6732878309611472,4.296847086283017,-95.48310535192435,-0.70763767,4.764295,19.953936,11.834669,-15.4030905,-4.3658576,-8.103121,-6.0093136,-9.471422,19.53114,-15.723281,3.6808574,-3.2255752,-1.5014095,4.2095747,1.5945965,22.736605,-47.26154,54.98097,10.63634,-3.508241,7.721718,-9.823786,-34.05039,12.344994,5.0177984,4.1651945,-6.758873,-8.289212
31,0.978807270526886,2.3649978637695312,77.71134185791016,0.728258751725556,4.299504194704688,-95.73804300019073,-0.5723651,4.651437,20.220966,11.619237,-15.326353,-4.331119,-8.314052,-6.0672107,-9.1949415,19.764671,-15.751614,3.7372227,-3.2566783,-1.6429081,4.2077036,1.6625869,22.843058,-47.16576,55.00239,10.586767,-3.565562,7.7379065,-10.994446,-35.0989,11.416267,2.6913266,4.07027,-6.662496,-8.700448
32,1.0280468463897705,2.4027271270751953,77.70445251464844,0.7799629116266875,4.295425805359371,-95.98679009610653,-0.43435758,4.541906,20.481468,11.414102,-15.256085,-4.291917,-8.51671,-6.121342,-8.918951,20.002699,-15.780105,3.7832928,-3.301715,-1.777188,4.1998224,1.7461373,22.949617,-47.057076,55.005096,10.569603,-3.6026254,7.7537456,-12.256592,-36.17907,10.517025,0.49702638,4.091361,-6.592765,-9.050767
33,1.0802083015441895,2.4257962703704834,77.70082092285156,0.8269844520055092,4.282912217412427,-96.2309493313764,-0.28934634,4.437152,20.737558,11.216465,-15.191563,-4.2455807,-8.711328,-6.169587,-8.638311,20.249828,-15.807454,3.8128748,-3.3636394,-1.9045702,4.183278,1.8516302,23.056843,-46.928406,54.985096,10.612428,-3.6133115,7.7706547,-13.611164,-37.291107,9.651655,-1.5710576,4.2632456,-6.568277,-9.325122
34,1.1320087909698486,2.443920612335205,77.6969223022461,0.8718675969788354,4.263349482598017,-96.4724238476313,-0.13890411,4.334499,20.99076,11.025378,-15.132032,-4.1946816,-8.9002,-6.2144246,-8.354242,20.5058,-15.835641,3.8322835,-3.4397802,-2.027874,4.1579995,1.9762752,23.16502,-46.78032,54.948,10.695689,-3.6080008,7.7890835,-15.067584,-38.4351,8.834172,-3.52544,4.5327206,-6.5707855,-9.546483
35,1.1817290782928467,2.4581258296966553,77.69645690917969,0.9159982204019398,4.239203866171684,-96.70610487327417,0.012375741,4.231552,21.235481,10.839844,-15.075442,-4.1433315,-9.0788965,-6.258777,-8.077537,20.756033,-15.862999,3.8508763,-3.5296478,-2.1465874,4.1251802,2.114554,23.273163,-46.62166,54.898396,10.775274,-3.5922709,7.80521,-16.606396,-39.607304,8.065489,-5.365232,4.850871,-6.5771646,-9.733481
36,1.2331355810165405,2.481372117996216,77.69490051269531,0.9611789817529954,4.212821110593754,-96.92655560874566,0.15972438,4.12583,21.466112,10.658618,-15.019267,-4.0955105,-9.2442665,-6.305795,-7.8188133,20.989668,-15.890365,3.877838,-3.630192,-2.2601442,4.086727,2.2573934,23.379263,-46.46481,54.843376,10.805364,-3.5716698,7.815478,-18.209345,-40.800747,7.342626,-7.0861125,5.1666474,-6.564389,-9.904575
37,1.283064365386963,2.506334066390991,77.69137573242188,1.008179765694375,4.18291253707538,-97.13451524397648,0.30431262,4.0162597,21.68234,10.481101,-14.962775,-4.053859,-9.393604,-6.3562627,-7.579693,21.202362,-15.91788,3.9161823,-3.7408538,-2.371395,4.0441008,2.401173,23.481796,-46.31312,54.7853,10.750777,-3.5424845,7.814747,-19.886915,-42.012947,6.6680593,-8.686171,5.443439,-6.516776,-10.043944
38,1.3337996006011963,2.5301127433776855,77.6874771118164,1.056149373551223,4.14880518693563,-97.33203213014339,0.44793648,3.9040506,21.88693,10.308196,-14.907749,-4.0156198,-9.52956,-6.4088936,-7.354825,21.401031,-15.945526,3.9606712,-3.861227,-2.480085,3.9963956,2.5485003,23.579971,-46.161358,54.723286,10.644419,-3.5034134,7.806746,-21.653465,-43.243603,6.0518417,-10.167269,5.712382,-6.449277,-10.148152
39,1.3845481872558594,2.550105333328247,77.68539428710938,1.1034392763960725,4.113915858834821,-97.5162803187819,0.58586556,3.7922065,22.078121,10.14162,-14.854023,-3.976898,-9.655945,-6.4632983,-7.14476,21.589539,-15.972479,4.00824,-3.9911633,-2.5829484,3.9409258,2.6979203,23.673265,-46.011154,54.663845,10.53904,-3.4640281,7.801753,-23.48766,-44.490383,5.4991174,-11.535736,6.0246387,-6.387129,-10.252933
40,1.4383190870285034,2.565546989440918,77.67935180664062,1.1477147486024915,4.081575310347299,-97.68420207519767,0.71267724,3.6842453,22.254353,9.986628,-14.804359,-3.9339373,-9.777116,-6.518325,-6.9501424,21.772583,-15.997986,4.055648,-4.128011,-2.6760204,3.8759532,2.8476057,23.760935,-45.864166,54.61228,10.490019,-3.4339492,7.809757,-25.364788,-45.74778,5.0089207,-12.80191,6.4296827,-6.353884,-10.394572
41,1.485028624534607,2.6017377376556396,77.67230987548828,1.1899533973391467,4.052071089717009,-97.83596501121322,0.82855266,3.5791416,22.417074,9.842667,-14.758639,-3.8843036,-9.895005,-6.576214,-6.770449,21.954966,-16.024225,4.104444,-4.2695203,-2.761997,3.8011124,2.9928463,23.84328,-45.72575,54.57532,10.530268,-3.417117,7.839596,-27.285824,-47.01445,4.5861945,-13.962425,6.92819,-6.3567624,-10.601297
42,1.5358145236968994,2.624532699584961,77.66714477539062,1.2307626848817375,4.023762770555407,-97.97274574609646,0.93672454,3.47547,22.566814,9.705615,-14.714542,-3.8305066,-10.006876,-6.6367855,-6.60557,22.132868,-16.050755,4.1554446,-4.4160376,-2.842137,3.7190003,3.1341114,23.920355,-45.593765,54.548462,10.62531,-3.4078069,7.884145,-29.265444,-48.290752,4.233186,-15.020033,7.4964976,-6.3838305,-10.846328
43,1.5893105268478394,2.6262636184692383,77.6647720336914,1.2681649444615037,3.9972053657621824,-98.09373851598805,1.0327691,3.3769064,22.699966,9.582798,-14.67554,-3.775857,-10.1115055,-6.69651,-6.4564137,22.300545,-16.074352,4.204891,-4.5687094,-2.912413,3.633053,3.2743926,23.991234,-45.462456,54.524296,10.725555,-3.4014947,7.9298353,-31.297937,-49.572594,3.9427342,-15.989328,8.145968,-6.4304705,-11.083478
44,1.6404417753219604,2.6320111751556396,77.66175842285156,1.3007589415126468,3.9729705699926834,-98.19811555074132,1.1132476,3.286292,22.813019,9.478673,-14.6431,-3.723646,-10.207989,-6.752567,-6.323593,22.453333,-16.092455,4.249001,-4.7281866,-2.970119,3.5462902,3.414906,24.054554,-45.327267,54.49724,10.780456,-3.3934875,7.963295,-33.371994,-50.85283,3.7022347,-16.88315,8.887052,-6.491365,-11.265996
45,1.681700348854065,2.64982271194458,77.65608978271484,1.327148747185137,3.952843072201928,-98.28190105006527,1.1702524,3.2064676,22.900566,9.402921,-14.620872,-3.6742074,-10.297972,-6.8039403,-6.209381,22.590816,-16.104126,4.2840166,-4.8996224,-3.0157542,3.4577339,3.5549414,24.109722,-45.184578,54.469574,10.775185,-3.3792663,7.9784913,-35.48655,-52.12782,3.5003479,-17.70624,9.749577,-6.5598116,-11.357785
46,1.7279161214828491,2.6714999675750732,77.65464782714844,1.3486617062531177,3.9359522350657716,-98.34687266309597,1.210573,3.1343946,22.966356,9.345009,-14.6040745,-3.6259513,-10.382298,-6.8525934,-6.112522,22.717566,-16.111803,4.3128853,-5.078085,-3.0521646,3.3687513,3.6890042,24.15732,-45.040585,54.446182,10.736551,-3.3624833,7.984114,-37.644547,-53.396828,3.3419242,-18.458542,10.71557,-6.638852,-11.389061
47,1.779388666152954,2.689095973968506,77.65323638916016,1.3670033533597632,3.9189479847661977,-98.40064894648312,1.2447124,3.066855,23.019833,9.295576,-14.590339,-3.5791533,-10.455349,-6.899599,-6.0290756,22.82815,-16.114603,4.3417706,-5.254931,-3.0829744,3.2834284,3.817556,24.197746,-44.897728,54.42526,10.680734,-3.3504374,7.989336,-39.836605,-54.660957,3.2375822,-19.15211,11.727989,-6.737354,-11.411145
48,1.8294472694396973,2.7003564834594727,77.65231323242188,1.3842296653844448,3.8985838262695647,-98.45128888398605,1.2859601,2.9996161,23.070812,9.238956,-14.57422,-3.5344567,-10.514746,-6.94626,-5.9545603,22.924541,-16.115082,4.3766694,-5.422922,-3.1114137,3.2047894,3.942697,24.231157,-44.75718,54.404495,10.6239605,-3.3503654,8.003421,-42.051266,-55.922943,3.1967895,-19.799364,12.732649,-6.865721,-11.475333
49,1.8750261068344116,2.7132368087768555,77.65189361572266,1.400283663637627,3.8721720045733465,-98.49957775948103,1.3421319,2.930531,23.120956,9.165617,-14.551654,-3.492565,-10.5540905,-6.993243,-5.89089,23.00068,-16.111935,4.4221206,-5.582324,-3.1394043,3.135563,4.065242,24.257715,-44.615185,54.383556,10.565872,-3.3687499,8.03044,-44.285976,-57.188396,3.222796,-20.401117,13.746368,-7.0395603,-11.591757
50,1.920678973197937,2.7284789085388184,77.65049743652344,1.4146045902727695,3.842183165949686,-98.54189433135068,1.4049013,2.8620944,23.165503,9.085494,-14.52669,-3.4520864,-10.577061,-7.040025,-5.839332,23.059156,-16.10517,4.473826,-5.734647,-3.1640573,3.074643,4.1829605,24.2773,-44.47346,54.362225,10.499602,-3.400151,8.064717,-46.547882,-58.458595,3.3103402,-20.956676,14.790154,-7.2498894,-11.733325
51,1.965681791305542,2.737262010574341,77.65074157714844,1.4264896345739944,3.812724517885342,-98.57866127325909,1.4678508,2.7955337,23.20424,9.000045,-14.499533,-3.4132838,-10.59407,-7.0848584,-5.795227,23.107882,-16.0958,4.5246334,-5.8739896,-3.1812813,3.0206523,4.2912893,24.28982,-44.34286,54.340622,10.430405,-3.4345222,8.101289,-48.83886,-59.726738,3.453753,-21.473541,15.813714,-7.4713693,-11.895017
52,2.0094451904296875,2.753068208694458,77.64956665039062,1.4368513155495761,3.7879905615384395,-98.61082779427433,1.5165842,2.7339404,23.237167,8.931046,-14.476826,-3.3735187,-10.615384,-7.127584,-5.753217,23.15423,-16.084822,4.5676646,-5.997188,-3.1907308,2.9703913,4.3862095,24.295444,-44.23283,54.32099,10.36294,-3.4614127,8.135634,-51.160206,-60.982063,3.6467812,-21.962807,16.765799,-7.678108,-12.07194
53,2.0539731979370117,2.7709407806396484,77.6491928100586,1.4450959876596994,3.7701882770927737,-98.63602760231105,1.5486735,2.6773582,23.26127,8.87622,-14.457527,-3.3315666,-10.643674,-7.16788,-5.7145877,23.199594,-16.072493,4.598463,-6.1077514,-3.1943278,2.9213457,4.4698997,24.294624,-44.137894,54.302296,10.297542,-3.4757843,8.172928,-53.516537,-62.21955,3.886345,-22.421198,17.615267,-7.8566084,-12.268378
54,2.0981733798980713,2.7839932441711426,77.65062713623047,1.4512507692606267,3.7567429091071944,-98.65450672689595,1.5702578,2.6246474,23.277826,8.828861,-14.439236,-3.2886477,-10.674265,-7.2060995,-5.6811686,23.241934,-16.059067,4.621522,-6.209154,-3.1951284,2.8749092,4.5447598,24.288172,-44.05234,54.285625,10.232641,-3.4837012,8.214263,-55.90395,-63.43904,4.1730385,-22.851068,18.39285,-8.022584,-12.483797
55,2.140021800994873,2.7975127696990967,77.65035247802734,1.455994219289256,3.744621711887612,-98.67142786194972,1.5881951,2.574488,23.292747,8.785269,-14.422478,-3.2465856,-10.70329,-7.242233,-5.64893,23.277184,-16.042494,4.6435194,-6.296329,-3.1935637,2.8350215,4.6053877,24.277042,-43.987213,54.276825,10.169483,-3.49185,8.248809,-58.311363,-64.63464,4.504376,-23.25537,19.136637,-8.193759,-12.706396
56,2.1805036067962646,2.8136157989501953,77.65003204345703,1.4602170842945181,3.730874992466649,-98.69176198418718,1.607519,2.5263684,23.312271,8.743809,-14.407725,-3.2077072,-10.727566,-7.275788,-5.6139154,23.303614,-16.02192,4.6708403,-6.365677,-3.191664,2.8047457,4.6487327,24.262028,-43.95008,54.281483,10.111601,-3.5066075,8.266082,-60.72878,-65.798096,4.8774514,-23.641283,19.884111,-8.387756,-12.922567
57,2.223093032836914,2.834412097930908,77.64989471435547,1.4635753710597486,3.7152259780317953,-98.71361713582853,1.6305604,2.47824,23.334806,8.698508,-14.392821,-3.1735506,-10.745232,-7.3076777,-5.5776186,23.318342,-15.996241,4.705976,-6.4207454,-3.190407,2.7848535,4.6722198,24.243969,-43.94381,54.30447,10.057874,-3.5299716,8.258427,-63.157356,-66.9221,5.2895684,-24.00116,20.657454,-8.611472,-13.119643
58,2.264509439468384,2.8526768684387207,77.6484146118164,1.465944504216759,3.699141830114059,-98.73547126004004,1.6517233,2.4324055,23.358103,8.657043,-14.380433,-3.1429837,-10.758056,-7.3374763,-5.5414143,23.322374,-15.9657135,4.74514,-6.4655256,-3.191505,2.772629,4.6803036,24.223778,-43.960594,54.342075,10.007297,-3.5581934,8.233651,-65.60186,-68.00445,5.7389297,-24.334816,21.430092,-8.854222,-13.305495
59,2.305790901184082,2.866020679473877,77.64824676513672,1.4680024395890532,3.6821376163482693,-98.76261892139568,1.6740134,2.3889902,23.387337,8.618412,-14.369785,-3.1115801,-10.76972,-7.36447,-5.5004997,23.32333,-15.933626,4.785773,-6.4944887,-3.1969526,2.7677083,4.678106,24.20243,-43.99518,54.38756,9.962957,-3.5893526,8.2042,-68.0522,-69.04342,6.2180133,-24.654978,22.166021,-9.107746,-13.498958
60,2.3468403816223145,2.878791570663452,77.64826202392578,1.4706093545928036,3.663831834669425,-98.8009794011059,1.7032293,2.3461568,23.427551,8.5751705,-14.356566,-3.0746694,-10.78358,-7.387999,-5.449966,23.327608,-15.902695,4.825239,-6.5015035,-3.2101567,2.7695177,4.669741,24.181059,-44.043224,54.43503,9.92786,-3.621388,8.182737,-70.49649,-70.03808,6.7188983,-24.9741,22.826267,-9.363891,-13.718559
61,2.385427713394165,2.8918182849884033,77.64894104003906,1.4738869424779812,3.6440323290617056,-98.85373226897906,1.7388693,2.3058457,23.482702,8.53225,-14.343164,-3.0286038,-10.800129,-7.407103,-5.387266,23.336266,-15.873253,4.8642917,-6.482727,-3.231914,2.777196,4.659041,24.160778,-44.101757,54.480404,9.90941,-3.6585748,8.170448,-72.92643,-70.98734,7.2326293,-25.295513,23.409727,-9.621495,-13.97103
62,2.4240193367004395,2.9078304767608643,77.65184020996094,1.477338112221132,3.6229522563449694,-98.91738303622682,1.7793063,2.2677972,23.548933,8.489664,-14.329688,-2.9766397,-10.816625,-7.422201,-5.3155375,23.344328,-15.843053,4.903887,-6.4429483,-3.26157,2.7913022,4.6448097,24.142382,-44.171688,54.52569,9.904662,-3.700247,8.161188,-75.33968,-71.88988,7.7521243,-25.61203,23.931734,-9.884381,-14.246239
63,2.463627576828003,2.923849105834961,77.65294647216797,1.4812545044767091,3.6009683720812764,-98.98692306586267,1.8203416,2.231216,23.620506,8.450768,-14.318749,-2.9248774,-10.835942,-7.4352727,-5.2380686,23.356419,-15.814527,4.941654,-6.393207,-3.3004553,2.8119738,4.624522,24.126873,-44.254642,54.57645,9.897731,-3.7373018,8.157389,-77.741905,-72.747826,8.27699,-25.920958,24.385483,-10.151386,-14.536952
64,2.497410535812378,2.941462993621826,77.65343475341797,1.4854991166480749,3.5783924188223963,-99.05732559060318,1.856269,2.1963773,23.69127,8.42208,-14.314211,-2.8794196,-10.859764,-7.4478564,-5.1583853,23.375587,-15.789385,4.975234,-6.3410115,-3.3472974,2.8405793,4.59494,24.114815,-44.35396,54.63603,9.873563,-3.7606423,8.160708,-80.13658,-73.563675,8.805138,-26.216764,24.763487,-10.421277,-14.837967
65,2.5311837196350098,2.958064317703247,77.65196228027344,1.48977205584828,3.5555746944267375,-99.12608727829931,1.885135,2.163748,23.757345,8.405228,-14.316709,-2.8422537,-10.88892,-7.460154,-5.0780883,23.402086,-15.767513,5.003686,-6.2871513,-3.4018662,2.8788066,4.5524898,24.106323,-44.478725,54.708794,9.822912,-3.763167,8.181668,-82.525925,-74.338196,9.329849,-26.490297,25.012568,-10.690189,-15.144402
66,2.568777322769165,2.981135368347168,77.64985656738281,1.494029072809549,3.5322429483767457,-99.19611952063619,1.9077562,2.134113,23.82258,8.401703,-14.326944,-2.8100388,-10.921064,-7.4709945,-4.9953856,23.432009,-15.7471485,5.028316,-6.226651,-3.4641383,2.925737,4.499847,24.10121,-44.62498,54.79096,9.756262,-3.7514231,8.215841,-84.901695,-75.07161,9.844413,-26.742826,25.154217,-10.9585905,-15.462972
67,2.6047606468200684,3.0015459060668945,77.64675903320312,1.4995069297819712,3.5078941896413274,-99.27145385986518,1.9321744,2.103916,23.892805,8.398807,-14.338933,-2.780773,-10.958342,-7.481583,-4.907499,23.47121,-15.731181,5.050529,-6.159121,-3.5353239,2.9787583,4.4412165,24.100157,-44.77912,54.876038,9.684565,-3.7363157,8.242675,-87.25326,-75.7658,10.350655,-26.995508,25.29099,-11.232132,-15.804357
68,2.6398439407348633,3.024573564529419,77.64410400390625,1.5076583172813496,3.4819898859228733,-99.35570343075487,1.964976,2.069789,23.973612,8.38515,-14.347001,-2.752434,-11.001252,-7.4931116,-4.811908,23.52188,-15.720733,5.0716515,-6.086618,-3.6168504,3.034619,4.3838797,24.104294,-44.923798,54.955894,9.620706,-3.728892,8.241511,-89.580986,-76.42554,10.858691,-27.260666,25.530518,-11.520065,-16.175915
69,2.67537784576416,3.047074317932129,77.63978576660156,1.519269316230248,3.453403464390827,-99.45041654529706,2.00963,2.0303888,24.067072,8.357777,-14.350695,-2.726589,-11.051386,-7.506408,-4.7075973,23.590374,-15.720659,5.090551,-6.008035,-3.7075405,3.0943568,4.328355,24.115025,-45.057755,55.024727,9.562526,-3.7298484,8.191384,-91.89264,-77.05316,11.369944,-27.537872,25.875584,-11.821262,-16.584234
70,2.7134668827056885,3.065798044204712,77.6343994140625,1.5333661168359989,3.4227231682853057,-99.55334505575335,2.0616403,1.9878012,24.169935,8.322795,-14.35246,-2.7036357,-11.106922,-7.520518,-4.596259,23.671118,-15.7275,5.1070237,-5.923548,-3.8066947,3.1589694,4.2735553,24.13298,-45.187496,55.085255,9.505479,-3.7340348,8.107999,-94.18976,-77.64939,11.880823,-27.814686,26.279486,-12.133895,-17.022905
71,2.746340751647949,3.084449052810669,77.6295166015625,1.5488828103857337,3.392130382304663,-99.66304664605029,2.1172187,1.9433889,24.279882,8.283324,-14.352834,-2.6798587,-11.167511,-7.533973,-4.478617,23.758282,-15.735317,5.1238685,-5.8324184,-3.9135642,3.2257154,4.2208962,24.157549,-45.314583,55.140945,9.456122,-3.74327,8.025264,-96.4525,-78.21416,12.389409,-28.100136,26.768507,-12.4664755,-17.482126
72,2.7804155349731445,3.1054670810699463,77.62268829345703,1.5646838438204416,3.3637382916689544,-99.77823250803775,2.1716974,1.8990072,24.394712,8.244151,-14.352621,-2.6515484,-11.232688,-7.545423,-4.355402,23.845938,-15.738117,5.1439185,-5.73591,-4.0278273,3.291279,4.172762,24.187416,-45.438473,55.196968,9.421479,-3.759747,7.9771967,-98.66332,-78.74792,12.895259,-28.40048,27.370253,-12.827362,-17.950846
73,2.8136866092681885,3.124729871749878,77.61782836914062,1.5820331857677656,3.338522019214129,-99.90061904802272,2.2230942,1.8536031,24.51634,8.207775,-14.352965,-2.6153688,-11.307122,-7.556214,-4.2248144,23.939089,-15.7362585,5.169328,-5.6321244,-4.151103,3.3547456,4.1291122,24.221268,-45.5628,55.256943,9.413817,-3.7899163,7.9841456,-100.81828,-79.25114,13.394704,-28.712563,28.135769,-13.231889,-18.43512
74,2.852142333984375,3.1466920375823975,77.6138687133789,1.601338876613674,3.3152199062988004,-100.03035398924358,2.2755876,1.8058116,24.64539,8.168232,-14.351583,-2.5740073,-11.388912,-7.56677,-4.0870724,24.03804,-15.731988,5.198257,-5.5232315,-4.2828627,3.4166584,4.090254,24.258362,-45.684174,55.318787,9.426845,-3.8307977,8.02437,-102.9244,-79.725266,13.88522,-29.031448,29.036625,-13.674377,-18.933392
75,2.8849265575408936,3.1677284240722656,77.60980987548828,1.6187636954878735,3.292514919935459,-100.16298294830015,2.3282835,1.7606864,24.776598,8.128419,-14.349815,-2.5331938,-11.469582,-7.572965,-3.9463072,24.13164,-15.723104,5.2272296,-5.414413,-4.4170485,3.476647,4.0565915,24.298286,-45.796314,55.37867,9.437126,-3.870476,8.068379,-104.97539,-80.17076,14.366865,-29.36163,29.979212,-14.130427,-19.425692
76,2.9178714752197266,3.1881675720214844,77.60637664794922,1.6312085651173995,3.2691303689599738,-100.29431532035842,2.382776,1.7211344,24.905617,8.086039,-14.34654,-2.4984481,-11.540312,-7.5717535,-3.8062477,24.208712,-15.70737,5.253,-5.3112884,-4.548452,3.5341914,4.030071,24.340736,-45.890804,55.431087,9.422302,-3.8968503,8.086654,-106.96663,-80.58741,14.840146,-29.705431,30.870298,-14.5735855,-19.89451
77,2.9532861709594727,3.205906629562378,77.6053695678711,1.638021148368473,3.2453280663341455,-100.42423604447474,2.439862,1.6877911,25.03206,8.038086,-14.340231,-2.472643,-11.602003,-7.561572,-3.6650088,24.270206,-15.684914,5.2725506,-5.215863,-4.675135,3.5876105,4.0146375,24.385475,-45.95851,55.470703,9.367189,-3.906351,8.062332,-108.90252,-80.9743,15.303046,-30.055292,31.732708,-15.010064,-20.333958
78,2.9849634170532227,3.226019859313965,77.60318756103516,1.641090542862057,3.221595235585835,-100.55471932740991,2.4991117,1.6584524,25.158371,7.9852285,-14.331059,-2.4523172,-11.657639,-7.544741,-3.5214143,24.319782,-15.656165,5.2883654,-5.1259503,-4.7996225,3.6370878,4.0096397,24.432474,-46.004444,55.500626,9.287466,-3.9055412,8.014008,-110.781105,-81.33069,15.753793,-30.409056,32.598656,-15.448806,-20.753807
79,3.016324281692505,3.2422072887420654,77.60391235351562,1.640032813012649,3.1967814223143294,-100.68422635622308,2.5577428,1.6350081,25.282888,7.9362936,-14.323522,-2.4337437,-11.703225,-7.52246,-3.3810637,24.352648,-15.620681,5.305236,-5.045463,-4.921825,3.683998,4.012293,24.481672,-46.04047,55.528534,9.205024,-3.8976455,7.9657393,-112.597626,-81.65951,16.196678,-30.779562,33.3978,-15.86444,-21.161673
80,3.0503311157226562,3.261807918548584,77.60250091552734,1.6345724448813008,3.169756757801524,-100.811354434814,2.6130545,1.6186036,25.404305,7.900086,-14.322813,-2.4130855,-11.73499,-7.496407,-3.2493548,24.363888,-15.577898,5.3279705,-4.9771223,-5.042302,3.7296438,4.0196366,24.53273,-46.077454,55.562515,9.143772,-3.885888,7.941335,-114.35147,-81.96686,16.640919,-31.180208,34.059498,-16.231182,-21.56668
81,3.0831735134124756,3.273038148880005,77.60293579101562,1.6241917372245942,3.1390242959566472,-100.93748336388957,2.667017,1.6104195,25.523815,7.876962,-14.32896,-2.3888104,-11.748651,-7.4655337,-3.126644,24.347603,-15.525655,5.3600426,-4.919054,-5.158577,3.7756016,4.0314355,24.584524,-46.122272,55.60552,9.108363,-3.8719137,7.9578624,-116.048256,-82.25855,17.089457,-31.61166,34.552517,-16.531548,-22.002459
82,3.1119275093078613,3.2861177921295166,77.60555267333984,1.6089318459764133,3.1054830653353096,-101.06277093321633,2.71941,1.6099224,25.641596,7.8649507,-14.341324,-2.3632023,-11.747708,-7.4296923,-3.0103033,24.309032,-15.465373,5.398198,-4.868063,-5.2704945,3.820501,4.0469203,24.636158,-46.170544,55.65518,9.086469,-3.8539395,7.9988613,-117.69149,-82.53747,17.54285,-32.06485,34.920055,-16.781515,-22.457792
83,3.1462512016296387,3.305853843688965,77.60769653320312,1.5907149564982743,3.0716817226655517,-101.18386796020096,2.7702994,1.612991,25.754992,7.8549247,-14.353806,-2.3377836,-11.738009,-7.391579,-2.90134,24.255371,-15.400022,5.4368005,-4.825414,-5.3791327,3.862069,4.0636325,24.687471,-46.216976,55.70644,9.075162,-3.8299975,8.037272,-119.277306,-82.80555,18.00277,-32.540295,35.207508,-17.004004,-22.876629
84,3.181255578994751,3.3320624828338623,77.6087646484375,1.5710411703049805,3.0402857904744596,-101.29771511959433,2.8154454,1.6180466,25.86116,7.847657,-14.366312,-2.3143392,-11.724041,-7.3537784,-2.8009431,24.192045,-15.331388,5.4702992,-4.792873,-5.485349,3.897971,4.080049,24.738894,-46.25531,55.754013,9.071549,-3.7983956,8.046172,-120.803375,-83.06416,18.47154,-33.032627,35.46124,-17.221584,-23.202
85,3.2141380310058594,3.351855993270874,77.60974884033203,1.549965426955581,3.01204617921847,-101.40361381749278,2.8559039,1.6234491,25.959454,7.837886,-14.37633,-2.2936752,-11.706777,-7.3166065,-2.709716,24.119493,-15.260416,5.4981937,-4.7725883,-5.5897303,3.9271746,4.095511,24.791052,-46.28372,55.79621,9.080226,-3.749425,8.004963,-122.27107,-83.314995,18.953808,-33.546616,35.7219,-17.454744,-23.411783
86,3.2448747158050537,3.3681094646453857,77.6136703491211,1.5267920743522656,2.9855208862324285,-101.50327475172422,2.8925946,1.6311793,26.051207,7.8287334,-14.385809,-2.2748413,-11.683038,-7.278756,-2.626978,24.03366,-15.184899,5.5230746,-4.7638927,-5.690362,3.951128,4.1125393,24.843945,-46.304707,55.833607,9.10088,-3.6871634,7.9321723,-123.68777,-83.56003,19.449896,-34.076534,35.959934,-17.684572,-23.538681
87,3.2778208255767822,3.3823773860931396,77.61860656738281,1.5018137624238683,2.9600132857976793,-101.59660366713403,2.9240282,1.6421379,26.137087,7.8255563,-14.396629,-2.256533,-11.655732,-7.2405553,-2.5516415,23.941492,-15.107381,5.544175,-4.7623715,-5.7881002,3.9702163,4.1314073,24.897566,-46.32109,55.86878,9.122927,-3.6302283,7.8599625,-125.050514,-83.798195,19.956127,-34.62281,36.104755,-17.875824,-23.60835
88,3.310687780380249,3.402263641357422,77.62538146972656,1.4750904403690324,2.93467643804959,-101.68335380857182,2.9550877,1.6545198,26.217773,7.8188987,-14.402101,-2.2375019,-11.624299,-7.2022157,-2.4829671,23.843407,-15.027153,5.560768,-4.765524,-5.8823385,3.98515,4.153733,24.951862,-46.334435,55.902527,9.134653,-3.597121,7.820481,-126.35672,-84.02753,20.464838,-35.180237,36.08907,-17.992651,-23.647116
89,3.341315269470215,3.4225893020629883,77.63162231445312,1.446487358204934,2.909101684718099,-101.76349250652494,2.9810398,1.6721315,26.29389,7.820994,-14.40759,-2.2182508,-11.589667,-7.1630716,-2.4221222,23.742174,-14.944912,5.568863,-4.7746634,-5.973108,3.995039,4.1822686,25.00664,-46.34257,55.935226,9.135614,-3.5974882,7.825927,-127.60046,-84.24749,20.973637,-35.753475,35.867992,-18.018135,-23.66057
90,3.374302864074707,3.441175937652588,77.63752746582031,1.4156287036629631,2.8837115731135023,-101.83700585303043,3.0029058,1.6938434,26.364815,7.82827,-14.412241,-2.1991904,-11.551454,-7.123238,-2.369081,23.636074,-14.860486,5.5701513,-4.793151,-6.0600753,3.9991217,4.2180552,25.06184,-46.342796,55.96539,9.131398,-3.6199987,7.8580117,-128.78482,-84.45937,21.483633,-36.344135,35.488552,-17.973068,-23.634396
91,3.405367612838745,3.4573276042938232,77.64405822753906,1.383789335289779,2.8593249272559085,-101.90419868672114,3.0204706,1.717034,26.429476,7.839063,-14.417277,-2.1789975,-11.509634,-7.08397,-2.3211584,23.523191,-14.773421,5.572271,-4.819721,-6.143591,3.998851,4.257102,25.117464,-46.33767,55.99228,9.119657,-3.651529,7.903282,-129.91277,-84.66271,21.991041,-36.939404,35.014076,-17.879818,-23.565952
92,3.4360952377319336,3.4757046699523926,77.64958953857422,1.3520085548226692,2.836713469248472,-101.96530644476739,3.0307057,1.7406884,26.486595,7.8585854,-14.427411,-2.1564798,-11.465556,-7.046788,-2.2754605,23.40432,-14.684651,5.5829663,-4.8550262,-6.2233834,3.9954798,4.29756,25.173487,-46.328075,56.01378,9.097913,-3.6789947,7.9482574,-130.989,-84.85729,22.489862,-37.52661,34.511944,-17.76015,-23.451551
93,3.4675440788269043,3.495835542678833,77.65497589111328,1.3205146528841805,2.816102454386888,-102.018545897395,3.0359387,1.7623163,26.533619,7.879398,-14.438652,-2.1313524,-11.417681,-7.0124545,-2.2312274,23.276554,-14.593506,5.6066766,-4.904354,-6.30003,3.987997,4.3415527,25.230007,-46.312695,56.029873,9.058144,-3.7021716,7.999654,-132.01477,-85.044754,22.978388,-38.112827,33.978294,-17.610868,-23.24778
94,3.496748924255371,3.5131778717041016,77.66239929199219,1.288708934934381,2.7970808735686528,-102.06435057365375,3.0353866,1.784015,26.571861,7.9053836,-14.452531,-2.1043003,-11.365394,-6.980146,-2.1900446,23.139544,-14.499005,5.6385384,-4.965568,-6.3736677,3.975987,4.3892913,25.2871,-46.291798,56.041393,9.003915,-3.726981,8.061176,-132.98245,-85.22594,23.456226,-38.70187,33.38275,-17.425398,-22.969519
95,3.5267252922058105,3.531972646713257,77.67057800292969,1.2564646132159853,2.779465174630227,-102.10647244552165,3.0272467,1.8082248,26.606089,7.9424696,-14.472361,-2.0753555,-11.313368,-6.948555,-2.1522987,23.00138,-14.404501,5.67219,-5.0313163,-6.443778,3.960655,4.437801,25.344646,-46.26494,56.048332,8.951501,-3.749568,8.115237,-133.88864,-85.40002,23.919865,-39.275394,32.75897,-17.218164,-22.700106
96,3.5616934299468994,3.5507760047912598,77.67617797851562,1.223249167190937,2.762923549441228,-102.14848782955714,3.010242,1.8381822,26.640917,7.9978094,-14.502859,-2.0447023,-11.263689,-6.91582,-2.118877,22.864569,-14.310496,5.701251,-5.0927105,-6.5099697,3.9433804,4.4833555,25.402163,-46.23252,56.05064,8.917936,-3.7659476,8.144346,-134.72206,-85.56363,24.363594,-39.817787,32.13391,-17.002722,-22.523815
97,3.5955984592437744,3.572219133377075,77.681884765625,1.1883433635543421,2.748950145379824,-102.18867769708844,2.979592,1.8756546,26.674704,8.076246,-14.546728,-2.0098484,-11.217772,-6.882116,-2.0940802,22.728754,-14.21685,5.7240705,-5.153289,-6.571892,3.9213562,4.5273137,25.459528,-46.186935,56.0465,8.908559,-3.7758036,8.136542,-135.4733,-85.71667,24.790356,-40.342773,31.4637,-16.750013,-22.470348
98,3.628488540649414,3.5895605087280273,77.68634796142578,1.152140085278953,2.737172188893304,-102.22599032348981,2.937295,1.9193816,26.706026,8.17444,-14.601634,-1.9716493,-11.172362,-6.847696,-2.0764856,22.589268,-14.1216,5.743996,-5.2167883,-6.629896,3.89449,4.571305,25.51677,-46.12995,56.0367,8.9137945,-3.7809594,8.103672,-136.14873,-85.85973,25.201624,-40.85557,30.749388,-16.461899,-22.4908
99,3.657986879348755,3.6096339225769043,77.69184875488281,1.1157921738622572,2.7246072412299274,-102.26534539129756,2.8922591,1.9653432,26.739103,8.282185,-14.662146,-1.9348477,-11.129718,-6.812777,-2.0570273,22.456205,-14.029096,5.7623286,-5.2761407,-6.684042,3.868409,4.6138825,25.573414,-46.07366,56.02433,8.929312,-3.7807865,8.063969,-136.76192,-85.98949,25.587091,-41.31238,30.089867,-16.197205,-22.551842
100,3.6896142959594727,3.6328394412994385,77.69493865966797,1.0805328456691357,2.7082042608406427,-102.3117088563638,2.8500466,2.0120697,26.778477,8.398606,-14.727562,-1.9044493,-11.090331,-6.7773643,-2.0270174,22.336748,-13.942519,5.7803297,-5.326843,-6.734841,3.8475235,4.65463,25.628426,-46.02814,56.013565,8.95013,-3.7745428,8.035982,-137.32451,-86.10136,25.932554,-41.675446,29.584587,-16.01454,-22.621801
101,3.7221522331237793,3.6516637802124023,77.69705963134766,1.0453476399908026,2.6864673912030326,-102.3656111599635,2.809914,2.0620568,26.824036,8.529125,-14.79983,-1.8849962,-11.053409,-6.7400446,-1.9840907,22.232044,-13.862135,5.7978234,-5.3680134,-6.7818494,3.8331907,4.6932607,25.680794,-45.99558,56.006756,8.982824,-3.758083,8.024772,-137.82547,-86.18926,26.230862,-41.93219,29.268278,-15.942115,-22.724586
102,3.7554714679718018,3.6703438758850098,77.70075225830078,1.009910504276577,2.6613098973329308,-102.42480438968796,2.7690291,2.1156197,26.873758,8.673651,-14.879457,-1.8728638,-11.019048,-6.7010913,-1.9330486,22.139214,-13.786913,5.8142667,-5.404978,-6.8244414,3.8222423,4.7316446,25.72991,-45.968136,56.002254,9.027603,-3.7332232,8.020785,-138.25912,-86.25259,26.486483,-42.1016,29.082933,-15.943527,-22.867226
103,3.7904434204101562,3.6907613277435303,77.70065307617188,0.9770597536358879,2.6345228297448298,-102.48964506198126,2.731355,2.166571,26.929493,8.819744,-14.959066,-1.8604467,-10.988859,-6.6640153,-1.8751955,22.056374,-13.716079,5.830546,-5.4394627,-6.863522,3.813507,4.770235,25.775372,-45.943455,55.997612,9.070025,-3.7082744,8.02008,-138.64183,-86.297356,26.702375,-42.19583,28.98788,-15.98185,-22.994059
104,3.823395013809204,3.709332227706909,77.70150756835938,0.9485717504739404,2.608095253056879,-102.56048627728852,2.709316,2.2052388,26.99301,8.932191,-15.023786,-1.8402086,-10.963903,-6.631195,-1.8125846,21.981117,-13.648468,5.8473244,-5.4707055,-6.8998375,3.8060672,4.807383,25.816967,-45.922318,55.99238,9.095376,-3.691361,8.018672,-138.98665,-86.33309,26.880764,-42.229935,28.94205,-16.021524,-23.049953
105,3.859243154525757,3.7274703979492188,77.7012710571289,0.9259744470700912,2.5837058758820364,-102.63822758088868,2.6979854,2.2317677,27.065336,9.019049,-15.075386,-1.8073211,-10.947556,-6.6046066,-1.7451141,21.915476,-13.585123,5.8628907,-5.4925575,-6.9356465,3.80089,4.8350916,25.855198,-45.912598,55.9902,9.098019,-3.6802883,8.012836,-139.30315,-86.36576,27.015263,-42.17903,28.96831,-16.07183,-22.999016
106,3.8942325115203857,3.7435665130615234,77.70233154296875,0.9077230960778571,2.5599699455760168,-102.7224127050425,2.6950457,2.2495112,27.145468,9.08838,-15.117912,-1.7666191,-10.937825,-6.582297,-1.672085,21.859583,-13.526057,5.8774896,-5.504497,-6.971057,3.7985024,4.8541737,25.890131,-45.914425,55.99196,9.086273,-3.6720684,8.005538,-139.58046,-86.39705,27.105625,-42.04946,29.080181,-16.146313,-22.878675
107,3.930821180343628,3.7591006755828857,77.70496368408203,0.892536182085144,2.5339372887206553,-102.81153179219697,2.7061594,2.2588015,27.23189,9.135792,-15.151422,-1.7254213,-10.929809,-6.5625105,-1.5934169,21.810942,-13.470206,5.895081,-5.5111313,-7.0053015,3.797704,4.8722353,25.92127,-45.920017,55.99562,9.065617,-3.6738987,8.003072,-139.79668,-86.42855,27.165485,-41.89648,29.215797,-16.217073,-22.745066
108,3.9652276039123535,3.7718324661254883,77.70719909667969,0.8787198521364376,2.5026965723585204,-102.90429541671429,2.7351227,2.2607453,27.322962,9.159131,-15.1765585,-1.6908472,-10.917719,-6.5431905,-1.5091695,21.76633,-13.416376,5.919565,-5.5160165,-7.0363126,3.7980375,4.896175,25.94764,-45.922775,55.998882,9.041301,-3.6930737,8.011508,-139.93427,-86.461105,27.214575,-41.77068,29.310614,-16.256884,-22.655643
109,4.002130031585693,3.7838690280914307,77.707763671875,0.8662107235655903,2.4639176832551577,-103.0032554936558,2.7914264,2.2522454,27.422253,9.14574,-15.189293,-1.6672782,-10.898338,-6.5229716,-1.4160109,21.723598,-13.363478,5.95623,-5.516736,-7.064158,3.8005686,4.9256353,25.96846,-45.92885,56.006176,9.006492,-3.74525,8.040474,-139.99438,-86.494484,27.267433,-41.67572,29.346739,-16.256311,-22.621857
110,4.038113117218018,3.7941298484802246,77.70681762695312,0.8558390290967457,2.4196896134808763,-103.10821758083274,2.8689625,2.2343156,27.529163,9.102928,-15.191427,-1.6501253,-10.875658,-6.5033975,-1.3149225,21.685522,-13.31279,6.001641,-5.510831,-7.0885544,3.8059235,4.955968,25.9832,-45.94088,56.017628,8.96133,-3.8222075,8.083909,-139.99925,-86.5286,27.325392,-41.583603,29.359518,-16.231014,-22.615534
111,4.0747904777526855,3.803842782974243,77.70697784423828,0.8472485746761058,2.373755759213942,-103.2135096201589,2.9529948,2.21164,27.636463,9.050323,-15.189536,-1.6329647,-10.852811,-6.486187,-1.2128394,21.652582,-13.264708,6.046481,-5.501539,-7.109357,3.8117478,4.986429,25.991606,-45.948063,56.027565,8.920147,-3.8949835,8.124635,-139.9597,-86.56233,27.388609,-41.503197,29.35873,-16.192564,-22.634212
112,4.113663196563721,3.8168323040008545,77.70529174804688,0.8403815923740832,2.3299055282130623,-103.3133553680836,3.029414,2.188199,27.736853,9.007001,-15.1900835,-1.609162,-10.834941,-6.4738135,-1.1161922,21.628208,-13.22105,6.0814953,-5.493788,-7.1266108,3.8154042,5.01779,25.993795,-45.938366,56.02909,8.897084,-3.9348419,8.145474,-139.88759,-86.594505,27.454777,-41.443882,29.357283,-16.1516,-22.67477
113,4.154693126678467,3.8282346725463867,77.70430755615234,0.8352766957436738,2.288086950769673,-103.4099559834448,3.096182,2.165601,27.83151,8.978815,-15.195425,-1.5756311,-10.822947,-6.466214,-1.0250349,21.613966,-13.181984,6.1002464,-5.486406,-7.1397185,3.816269,5.053039,25.989546,-45.902287,56.018967,8.908443,-3.921352,8.135897,-139.7715,-86.62299,27.523623,-41.413616,29.355024,-16.10884,-22.758055
114,4.192677021026611,3.836031913757324,77.70233917236328,0.8319725048431131,2.246643196343206,-103.50508765183024,3.1610618,2.1409757,27.923138,8.95375,-15.201082,-1.5362337,-10.814123,-6.462456,-0.93645656,21.607197,-13.14629,6.108974,-5.479071,-7.149114,3.815267,5.0926723,25.97995,-45.847187,55.999714,8.941921,-3.8740783,8.107051,-139.6019,-86.64397,27.590816,-41.40654,29.34173,-16.058893,-22.877428
115,4.228391170501709,3.8412883281707764,77.70326232910156,0.8302136555726886,2.206945318300342,-103.59290181381006,3.2195468,2.1151607,28.00726,8.934485,-15.208582,-1.4953194,-10.808312,-6.462828,-0.853098,21.606434,-13.11424,6.117634,-5.476077,-7.154518,3.8135211,5.131292,25.963676,-45.785534,55.97578,8.972587,-3.8244066,8.074077,-139.41777,-86.66509,27.661589,-41.40611,29.330196,-16.004004,-22.991556
116,4.26549768447876,3.8526508808135986,77.70365142822266,0.8289954286857651,2.1702757778793376,-103.66736696934943,3.2708044,2.0872357,28.07951,8.915246,-15.214648,-1.457105,-10.804244,-6.467034,-0.7771867,21.60717,-13.084612,6.1357846,-5.4833302,-7.155864,3.8111851,5.1666064,25.943941,-45.73037,55.947144,8.97264,-3.8033526,8.052421,-139.2375,-86.68743,27.726545,-41.40246,29.32462,-15.945808,-23.056835
117,4.303727149963379,3.866607666015625,77.70166015625,0.8280744857898797,2.1377228731434474,-103.72483072075694,3.30961,2.058678,28.136335,8.902432,-15.222262,-1.4232506,-10.800979,-6.4755826,-0.71018475,21.60696,-13.056177,6.168646,-5.5053735,-7.1531587,3.8072987,5.200786,25.922215,-45.681717,55.909405,8.918861,-3.8314257,8.048183,-139.06572,-86.71647,27.78967,-41.401844,29.343437,-15.88628,-23.058622
118,4.339303970336914,3.877669095993042,77.70184326171875,0.8277433001328387,2.1082770804411157,-103.7690275733222,3.3390846,2.0288699,28.180851,8.894677,-15.230959,-1.39132,-10.799926,-6.488305,-0.6503979,21.609161,-13.030347,6.2100663,-5.5352993,-7.1467695,3.8027709,5.2337155,25.89909,-45.63597,55.86184,8.831237,-3.8877273,8.052135,-138.88669,-86.75321,27.850859,-41.40681,29.377,-15.825033,-23.02236
119,4.377659797668457,3.8885984420776367,77.70185852050781,0.8285617411843477,2.080392164467865,-103.8057887438928,3.3634458,1.9980129,28.218287,8.889896,-15.240159,-1.3595194,-10.800698,-6.504481,-0.5966278,21.614893,-13.007501,6.2533827,-5.565837,-7.140192,3.7991588,5.2599235,25.875296,-45.598106,55.813854,8.745953,-3.941683,8.056932,-138.70529,-86.79477,27.902117,-41.407066,29.397154,-15.758804,-22.963448
120,4.418684005737305,3.900768280029297,77.69817352294922,0.8310699711685325,2.0524989942327085,-103.84097084660173,3.3860052,1.9663266,28.254318,8.888478,-15.250594,-1.3260243,-10.804,-6.5237355,-0.54731715,21.62663,-12.989174,6.2915783,-5.5902557,-7.135557,3.798704,5.2759824,25.851198,-45.57049,55.771862,8.70061,-3.9625378,8.055268,-138.52502,-86.83676,27.932482,-41.38749,29.375895,-15.684058,-22.896742
121,4.457420825958252,3.9132416248321533,77.69357299804688,0.8351448312074922,2.023422216647778,-103.87354222323387,3.408553,1.9339747,28.28764,8.8893795,-15.261652,-1.2906214,-10.808439,-6.5461597,-0.5051531,21.645086,-12.977429,6.3211145,-5.6099477,-7.132805,3.802328,5.2812157,25.827063,-45.550476,55.735245,8.717962,-3.932126,8.04146,-138.34645,-86.87591,27.933334,-41.34252,29.295353,-15.589621,-22.813536
122,4.494093894958496,3.9278547763824463,77.68973541259766,0.8408644657449372,1.9942784981778094,-103.90145808112572,3.4285076,1.9007404,28.316257,8.8932705,-15.273212,-1.2540926,-10.814438,-6.5722876,-0.46969432,21.669024,-12.970754,6.346226,-5.6292243,-7.1309276,3.8085763,5.279517,25.80308,-45.535625,55.699463,8.773949,-3.8701613,8.020774,-138.15945,-86.91164,27.904604,-41.278915,29.170927,-15.480365,-22.709152
123,4.529686450958252,3.941009998321533,77.68627166748047,0.8479683012641535,1.9667930896615369,-103.92809906301235,3.4464285,1.8656546,28.344269,8.897066,-15.284419,-1.216508,-10.824213,-6.600597,-0.43574294,21.69739,-12.965703,6.371964,-5.647928,-7.130015,3.8152552,5.2743764,25.779491,-45.52827,55.666893,8.835211,-3.8028672,8.002271,-137.96089,-86.945045,27.852686,-41.208897,29.031273,-15.376777,-22.603022
124,4.563503742218018,3.951303005218506,77.68185424804688,0.856733087882548,1.9426696997022217,-103.95728588144313,3.463492,1.8271592,28.375864,8.894568,-15.292026,-1.177829,-10.840028,-6.629587,-0.39794403,21.728994,-12.958403,6.4033074,-5.6648355,-7.131001,3.8202257,5.2680864,25.75652,-45.532547,55.641003,8.867454,-3.7565224,7.9952245,-137.7507,-86.9779,27.787977,-41.141727,28.904781,-15.299201,-22.51548
125,4.599643707275391,3.9640471935272217,77.67845153808594,0.8675531289133166,1.92317425526646,-103.99034292458055,3.4849837,1.781127,28.413496,8.870811,-15.289878,-1.1364545,-10.863073,-6.6594005,-0.3545257,21.763224,-12.946661,6.4442487,-5.678812,-7.1336064,3.8229067,5.2602277,25.734991,-45.55665,55.6212,8.854816,-3.7342255,8.005631,-137.53404,-87.01071,27.720423,-41.07577,28.803312,-15.257226,-22.447348
126,4.638803005218506,3.9761147499084473,77.67472076416016,0.8809877344726871,1.9070993429153458,-104.025442004643,3.5028195,1.7321869,28.454384,8.847677,-15.285921,-1.0929025,-10.893533,-6.691149,-0.30762327,21.804,-12.934663,6.491193,-5.688481,-7.1386,3.8244648,5.247227,25.712952,-45.598446,55.609413,8.817922,-3.723352,8.027606,-137.31052,-87.046776,27.64359,-41.00753,28.712446,-15.238869,-22.390184
127,4.678082466125488,3.9890668392181396,77.67066192626953,0.8946463008109218,1.8925012051946564,-104.06042458089125,3.5196278,1.6821133,28.495207,8.82208,-15.280492,-1.050407,-10.926507,-6.723308,-0.2605498,21.845943,-12.922336,6.537966,-5.6937127,-7.144492,3.826624,5.229872,25.691517,-45.645844,55.603767,8.775349,-3.7261477,8.051641,-137.086,-87.08245,27.562231,-40.944454,28.612307,-15.232765,-22.351164
128,4.716526508331299,3.9967362880706787,77.66780853271484,0.9064760431095983,1.8773819959656082,-104.09359212452242,3.5356958,1.6341355,28.53205,8.797909,-15.275989,-1.0121862,-10.958041,-6.754161,-0.21547765,21.886328,-12.91051,6.5781116,-5.694112,-7.1503468,3.8309004,5.20931,25.671076,-45.685966,55.603527,8.746902,-3.7448046,8.068484,-136.8613,-87.1139,27.47695,-40.89647,28.481989,-15.2278,-22.33683
129,4.756381511688232,4.008159160614014,77.66600036621094,0.9149732081562946,1.8613796561741105,-104.12390850984252,3.549332,1.5912088,28.56299,8.7793665,-15.274351,-0.9820109,-10.986341,-6.7823977,-0.17439497,21.92202,-12.898191,6.6088552,-5.691056,-7.1532464,3.8380785,5.188776,25.65254,-45.71133,55.60575,8.740228,-3.788774,8.075196,-136.64076,-87.137825,27.390944,-40.86188,28.30437,-15.218858,-22.35436
130,4.7932047843933105,4.019588470458984,77.66424560546875,0.9215993558326459,1.8455203916379772,-104.15239759182448,3.5615714,1.5504297,28.590221,8.762265,-15.273764,-0.95713186,-11.014388,-6.8092136,-0.13542256,21.956602,-12.885842,6.633933,-5.685313,-7.1548443,3.8465874,5.167003,25.634613,-45.729156,55.61303,8.744225,-3.8540199,8.077028,-136.41476,-87.15543,27.295862,-40.83703,28.092524,-15.212553,-22.397707
131,4.830524444580078,4.037074565887451,77.66070556640625,0.9287286156776488,1.8298692895565576,-104.18068155498484,3.5735211,1.5086368,28.617071,8.744472,-15.272627,-0.9312237,-11.043655,-6.836887,-0.09557098,21.993067,-12.87518,6.6565976,-5.6763554,-7.1556396,3.8601525,5.148794,25.626331,-45.74335,55.607708,8.750801,-3.9216776,8.074911,-136.24971,-87.15994,27.251825,-40.80967,27.875504,-15.213592,-22.45708
132,4.86763334274292,4.050800800323486,77.65586853027344,0.9388061571232347,1.8144606886539325,-104.20980062462786,3.59041,1.4601724,28.646852,8.714479,-15.26508,-0.89792055,-11.076473,-6.867887,-0.05173051,22.035295,-12.868228,6.6802735,-5.666642,-7.16143,3.8772264,5.13018,25.623037,-45.756413,55.59762,8.754602,-3.973957,8.0714445,-136.1288,-87.15978,27.235214,-40.790108,27.68963,-15.226701,-22.519753
133,4.906891822814941,4.062652111053467,77.65245819091797,0.952032379027616,1.7986424141589574,-104.23893620287774,3.6059985,1.4082476,28.679102,8.688062,-15.2591505,-0.8515827,-11.111894,-6.902999,-0.0031548326,22.084118,-12.866703,6.704479,-5.658943,-7.172521,3.906019,5.1077714,25.621979,-45.76688,55.57838,8.753215,-4.0086823,8.068492,-136.05057,-87.15839,27.23189,-40.782673,27.557865,-15.253659,-22.574432
134,4.947189807891846,4.078312397003174,77.64946746826172,0.9701309619894706,1.7828363536288108,-104.26916538108397,3.6314876,1.3445882,28.714817,8.638506,-15.241437,-0.7964045,-11.152899,-6.943765,0.051725633,22.143581,-12.872126,6.7284956,-5.6449866,-7.192476,3.927045,5.077754,25.621138,-45.786068,55.57247,8.744568,-4.039418,8.057168,-135.9539,-87.15536,27.22754,-40.795288,27.429344,-15.298242,-22.647083
135,4.986742973327637,4.091587066650391,77.64698028564453,0.9845093536545781,1.7684005043493096,-104.29806887869744,3.6475334,1.289748,28.74851,8.606791,-15.232098,-0.74309003,-11.189669,-6.9804244,0.10189225,22.191957,-12.871463,6.7524786,-5.632307,-7.2101207,3.9552898,5.0528054,25.620909,-45.799816,55.560574,8.744273,-4.053674,8.054953,-135.90178,-87.15285,27.225307,-40.817333,27.339588,-15.341009,-22.710163
136,5.026468753814697,4.102949619293213,77.64430236816406,1.000154494242129,1.7560725401775905,-104.33136883286636,3.6682553,1.2307243,28.785698,8.560045,-15.215043,-0.70020235,-11.230277,-7.016459,0.15285408,22.24087,-12.868262,6.7793555,-5.6105046,-7.234828,3.9772003,5.023354,25.620928,-45.817673,55.565624,8.75145,-4.0510497,8.058231,-135.85239,-87.14916,27.222145,-40.856762,27.229626,-15.388724,-22.793907
137,5.065208435058594,4.110584735870361,77.64089965820312,1.0139155953510317,1.7454253292931765,-104.37002548576348,3.6964846,1.1703523,28.826187,8.493349,-15.18815,-0.6758598,-11.26948,-7.047746,0.20019628,22.279898,-12.856705,6.810689,-5.5785937,-7.2629027,3.9952443,4.993385,25.621166,-45.83975,55.586727,8.773186,-4.019695,8.078924,-135.81836,-87.14429,27.216606,-40.91606,27.123667,-15.438715,-22.886848
138,5.10089635848999,4.129730224609375,77.63749694824219,1.026110961952459,1.7359046722099327,-104.41269459341174,3.7258854,1.1115986,28.869307,8.422811,-15.159632,-0.663463,-11.307029,-7.0755973,0.24541372,22.311176,-12.839137,6.845012,-5.538417,-7.294231,4.013042,4.9623923,25.621635,-45.865944,55.618034,8.805651,-3.963728,8.114338,-135.80138,-87.137886,27.208616,-40.99236,27.027216,-15.4915085,-22.985935
139,5.136969089508057,4.142464637756348,77.6347427368164,1.0381741962043651,1.7297892289527372,-104.45459819044503,3.7512038,1.053517,28.91182,8.351713,-15.129174,-0.65036225,-11.347774,-7.102658,0.29029387,22.340822,-12.818798,6.878516,-5.4955444,-7.328704,4.0268135,4.930181,25.622305,-45.894104,55.65539,8.838667,-3.901276,8.147204,-135.80043,-87.13019,27.19884,-41.079975,26.915497,-15.537122,-23.09793
140,5.177330493927002,4.156935214996338,77.63217163085938,1.0512954713966356,1.729100908260477,-104.49071162887373,3.765096,0.9967808,28.950315,8.289593,-15.099968,-0.6239037,-11.396897,-7.1318054,0.33672428,22.376225,-12.800088,6.907438,-5.4568443,-7.3668437,4.0321183,4.8963957,25.623194,-45.92095,55.696304,8.861686,-3.8523922,8.15837,-135.81294,-87.12117,27.188421,-41.175865,26.759897,-15.565062,-23.232494
141,5.214479446411133,4.171561241149902,77.63243103027344,1.066055704977988,1.7363562219182789,-104.52066186289296,3.7602882,0.94284916,28.985071,8.244749,-15.074334,-0.5762846,-11.461052,-7.1637425,0.3882504,22.424393,-12.78458,6.928719,-5.4199347,-7.4100137,4.024663,4.859775,25.624191,-45.94205,55.741234,8.875243,-3.8232281,8.128327,-135.84082,-87.11223,27.178177,-41.278545,26.541002,-15.572357,-23.405735
142,5.250190258026123,4.188426971435547,77.63115692138672,1.0821517099193174,1.7504461269548814,-104.5467847998614,3.7419062,0.89047116,29.017706,8.210745,-15.050817,-0.51562566,-11.53646,-7.197325,0.44301462,22.480059,-12.769958,6.9450603,-5.384283,-7.458063,4.0075397,4.81967,25.625475,-45.955666,55.793232,8.885596,-3.805415,8.067615,-135.88376,-87.10235,27.168743,-41.394123,26.272692,-15.563954,-23.61392
143,5.285424709320068,4.207000732421875,77.62957000732422,1.0988477369911562,1.7677035043580291,-104.56760573162923,3.7166066,0.838986,29.045763,8.181454,-15.027957,-0.4531098,-11.614317,-7.232505,0.49447525,22.535254,-12.755896,6.96162,-5.357877,-7.5086026,3.9878833,4.7794113,25.626966,-45.962036,55.850945,8.891924,-3.7970765,8.005113,-135.93454,-87.092575,27.161547,-41.518562,25.977596,-15.540588,-23.834919
144,5.31826114654541,4.222405910491943,77.62979125976562,1.1157599774059916,1.7841364647135893,-104.58179507896163,3.6967034,0.7839808,29.06672,8.138185,-14.998002,-0.3997954,-11.683818,-7.269598,0.5355296,22.580235,-12.74104,6.9836173,-5.349307,-7.5592885,3.9714081,4.743524,25.62875,-45.963894,55.913284,8.89201,-3.7968507,7.9721084,-135.98581,-87.082756,27.157587,-41.647774,25.681143,-15.504235,-24.044481
145,5.350773811340332,4.236968040466309,77.6259765625,1.1331822943173464,1.7973700607216463,-104.5887222727321,3.6844869,0.7254657,29.07987,8.08232,-14.962787,-0.36041033,-11.738858,-7.308857,0.5639987,22.607931,-12.723532,7.0154276,-5.3614697,-7.6113687,3.9593055,4.71462,25.630896,-45.96497,55.98206,8.884725,-3.8067217,7.9853206,-136.03741,-87.07299,27.15675,-41.78237,25.362146,-15.444764,-24.242273
146,5.381167888641357,4.251734733581543,77.62461853027344,1.151017018328671,1.8091508354230286,-104.5889010248849,3.6753182,0.6652349,29.086151,8.020015,-14.924442,-0.32859302,-11.785779,-7.3501363,0.5832923,22.626268,-12.705442,7.053265,-5.389397,-7.6653295,3.9479213,4.6922736,25.633543,-45.966873,56.056755,8.869574,-3.8266892,8.03063,-136.09286,-87.06297,27.158632,-41.923233,25.018217,-15.363896,-24.436884
147,5.412368297576904,4.2670369148254395,77.62340545654297,1.168339356916707,1.821913142072956,-104.58210791203777,3.662786,0.605954,29.085232,7.9591804,-14.885558,-0.29858425,-11.829288,-7.3927016,0.5943142,22.639797,-12.686905,7.089896,-5.427106,-7.7184343,3.9380746,4.674517,25.6368,-45.969273,56.13218,8.84658,-3.8517096,8.090671,-136.14449,-87.05245,27.164368,-42.066467,24.697878,-15.285687,-24.616426
148,5.4438018798828125,4.284875869750977,77.62318420410156,1.1838166549314961,1.8380212038818873,-104.56796086765436,3.644,0.5491915,29.076841,7.9013324,-14.845847,-0.26467875,-11.875524,-7.435748,0.5980552,22.655918,-12.669437,7.1180816,-5.470101,-7.765936,3.9278107,4.661058,25.640245,-45.97044,56.202496,8.815371,-3.875784,8.14594,-136.18721,-87.042595,27.17464,-42.20172,24.460196,-15.238735,-24.765371
149,5.4741339683532715,4.29630184173584,77.62218475341797,1.1974627568113496,1.8597891893534366,-104.54472316709023,3.6099272,0.49774083,29.05899,7.859866,-14.81173,-0.22459361,-11.927259,-7.4803586,0.5926406,22.676191,-12.653489,7.1331034,-5.517172,-7.8088155,3.9152312,4.6505938,25.643911,-45.96884,56.26717,8.771946,-3.9014552,8.195692,-136.21582,-87.03316,27.190304,-42.32835,24.347578,-15.24827,-24.871752
150,5.502607822418213,4.317287445068359,77.62321472167969,1.2124236189708844,1.8898187737636407,-104.51013355500112,3.5631137,0.44439086,29.029968,7.821007,-14.776114,-0.18035398,-11.989775,-7.53042,0.57740724,22.705704,-12.642639,7.140364,-5.5827446,-7.846853,3.8951423,4.6462593,25.651297,-45.960648,56.331596,8.708417,-3.9404004,8.247638,-136.25433,-87.015625,27.230812,-42.446518,24.321825,-15.300339,-24.955671
151,5.532156467437744,4.337845325469971,77.62477111816406,1.2227931268376657,1.9175656472025078,-104.47292859987459,3.5124824,0.4005294,28.99785,7.7968946,-14.747007,-0.13730517,-12.043093,-7.5755453,0.55737704,22.72384,-12.626332,7.1455736,-5.6472807,-7.877377,3.8765018,4.6541257,25.658878,-45.94681,56.379047,8.65752,-3.9617763,8.2873955,-136.29742,-86.99973,27.277357,-42.536724,24.341486,-15.367283,-24.998755
152,5.559721946716309,4.350611209869385,77.62610626220703,1.2317586439834944,1.9431211089144247,-104.43491060851227,3.4631827,0.36028647,28.964672,7.77592,-14.718625,-0.09719898,-12.089292,-7.6177044,0.53666204,22.733183,-12.605988,7.1564918,-5.7368603,-7.8874702,3.8750231,4.711959,25.695795,-45.882553,56.349304,8.636903,-3.9635339,8.303288,-136.56538,-86.9338,27.524652,-42.547256,24.3151,-15.405141,-25.05052
153,5.586725234985352,4.365176200866699,77.62825012207031,1.238457114101418,1.9647173965899207,-104.39519338371888,3.4182417,0.3239989,28.929588,7.755289,-14.688828,-0.060934328,-12.125096,-7.655899,0.51569974,22.730328,-12.579472,7.176183,-5.829296,-7.879993,3.8869388,4.7931123,25.755919,-45.80868,56.27001,8.637362,-3.9317598,8.288584,-137.01671,-86.84975,27.948818,-42.496883,24.23192,-15.399226,-25.111593
154,5.610734939575195,4.380941867828369,77.6309585571289,1.2431679186893745,1.9844064058160895,-104.35211435418044,3.37348,0.29203492,28.891108,7.7384,-14.659291,-0.026890261,-12.152776,-7.6912622,0.49210736,22.716614,-12.547502,7.2005334,-5.9148264,-7.8703923,3.902246,4.86393,25.811731,-45.746445,56.20145,8.649701,-3.8772178,8.2552805,-137.45107,-86.79531,28.367266,-42.44857,24.133276,-15.372951,-25.17202
155,5.6329216957092285,4.39901876449585,77.63251495361328,1.2460289508531113,2.0038558990357043,-104.30969812858287,3.329243,0.26306018,28.852873,7.7213297,-14.6293545,0.0054132915,-12.176835,-7.7237535,0.46685588,22.696527,-12.51268,7.2255244,-5.990084,-7.8604093,3.9190838,4.9254217,25.861559,-45.6958,56.143307,8.667559,-3.8231795,8.216382,-137.85495,-86.76921,28.758415,-42.406292,24.032467,-15.34188,-25.232452
156,5.65683126449585,4.417662143707275,77.63375091552734,1.248040080874225,2.024874099881286,-104.27169630666685,3.2856603,0.23581208,28.818796,7.7029624,-14.60139,0.03638647,-12.201406,-7.75359,0.44103822,22.674374,-12.477601,7.2472,-6.049644,-7.851219,3.93479,4.978057,25.904812,-45.66181,56.09441,8.681599,-3.792765,8.185202,-138.21205,-86.76663,29.102226,-42.37166,23.937859,-15.321138,-25.292934
157,5.679665565490723,4.435669422149658,77.63401794433594,1.249768797208846,2.0486536117766567,-104.23819041958234,3.2341442,0.21417198,28.788702,7.699957,-14.5841875,0.06702496,-12.229754,-7.781762,0.41261768,22.653624,-12.443864,7.2652454,-6.1001344,-7.843322,3.9467525,5.025993,25.939035,-45.640976,56.05589,8.692708,-3.7958796,8.167901,-138.49532,-86.784065,29.372103,-42.349056,23.856152,-15.318541,-25.356964
158,5.698863983154297,4.450851917266846,77.63638305664062,1.250575939976113,2.074034079865555,-104.20735509288168,3.1828194,0.19421577,28.761242,7.695579,-14.568233,0.09689113,-12.257753,-7.8078203,0.38170478,22.629295,-12.408822,7.2815404,-6.145808,-7.834901,3.9569035,5.072036,25.966223,-45.627304,56.023983,8.705341,-3.8189843,8.156567,-138.71962,-86.81835,29.582552,-42.334946,23.779917,-15.323731,-25.421633
159,5.716818332672119,4.463963031768799,77.63961791992188,1.2495509928668471,2.0991379349729846,-104.18057627257511,3.1327527,0.17774339,28.737139,7.6917334,-14.553512,0.123871714,-12.283427,-7.82985,0.3528487,22.600595,-12.372352,7.2954946,-6.1825666,-7.826207,3.96665,5.112893,25.98775,-45.61971,55.99898,8.71546,-3.8500388,8.144591,-138.89848,-86.864426,29.740456,-42.324295,23.697235,-15.323788,-25.473957
160,5.735357761383057,4.477360248565674,77.64497375488281,1.2460564377618917,2.1220669552487568,-104.15891232116054,3.0869083,0.16530967,28.717218,7.688141,-14.539684,0.14580172,-12.303595,-7.8459806,0.33062333,22.564756,-12.333001,7.306686,-6.2063875,-7.816949,3.9774814,5.1458898,26.004324,-45.61677,55.98087,8.718854,-3.8772194,8.125436,-139.03996,-86.91626,29.848137,-42.312233,23.59439,-15.306035,-25.500107
161,5.7538161277771,4.48817777633667,77.6495132446289,1.2385345083594896,2.141582054356484,-104.14402318238541,3.0470886,0.1586915,28.702824,7.684543,-14.526985,0.15974905,-12.316444,-7.854094,0.3173692,22.520725,-12.28995,7.312943,-6.215444,-7.804358,3.9904037,5.172139,26.01607,-45.615814,55.96514,8.713909,-3.9012792,8.094354,-139.15015,-86.96989,29.906452,-42.294586,23.458502,-15.259922,-25.48949
162,5.771214962005615,4.498247146606445,77.65148162841797,1.2279712212364433,2.158905969237439,-104.13483663595578,3.0124693,0.15641208,28.693169,7.679249,-14.514575,0.16764075,-12.323988,-7.855863,0.31037107,22.470427,-12.244128,7.315267,-6.2143464,-7.788547,4.0043397,5.195267,26.02341,-45.615753,55.950436,8.703005,-3.927266,8.055823,-139.23212,-87.02417,29.92078,-42.269924,23.2992,-15.194267,-25.450724
163,5.7859206199646,4.5112104415893555,77.65425109863281,1.2165363748635454,2.176018208466527,-104.12847268665583,2.978084,0.1566074,28.685764,7.6763697,-14.503663,0.17466938,-12.329558,-7.854752,0.30630055,22.415346,-12.197301,7.3176303,-6.2082124,-7.7727222,4.0181727,5.2151303,26.026989,-45.618427,55.941452,8.6886,-3.9495533,8.016736,-139.28629,-87.0777,29.898727,-42.24159,23.136997,-15.12482,-25.399748
164,5.800870895385742,4.524355888366699,77.65603637695312,1.2065418542586623,2.1948113038730637,-104.12196551308357,2.9412653,0.15613605,28.67819,7.6747775,-14.49216,0.18605806,-12.337003,-7.8545814,0.3020095,22.358788,-12.151668,7.3242974,-6.200636,-7.759634,4.0315294,5.2296357,26.027792,-45.62862,55.942677,8.671305,-3.962516,7.9839253,-139.30986,-87.12836,29.847675,-42.21099,22.988575,-15.067642,-25.353708
165,5.818614959716797,4.538772106170654,77.65666961669922,1.1985278046171284,2.217007158608282,-104.11410059033042,2.8991823,0.15476035,28.668901,7.675258,-14.479502,0.20380662,-12.34648,-7.855492,0.29738092,22.295902,-12.105246,7.3384814,-6.193657,-7.7495227,4.0439444,5.2403674,26.026241,-45.64468,55.95493,8.653421,-3.9598672,7.960486,-139.31285,-87.175644,29.771147,-42.170372,22.851557,-15.023904,-25.309944
166,5.832001686096191,4.551344871520996,77.65924072265625,1.1913348148816427,2.241212155506717,-104.10656122278293,2.8540902,0.15357345,28.659622,7.6778665,-14.4667015,0.22494304,-12.356807,-7.8559527,0.29400748,22.228254,-12.058301,7.357289,-6.1842165,-7.7404113,4.056331,5.247906,26.022533,-45.665787,55.974186,8.633547,-3.946129,7.94221,-139.29796,-87.219154,29.670675,-42.11825,22.71745,-14.986235,-25.262611
167,5.844161510467529,4.562859535217285,77.662841796875,1.184617003611134,2.26457135555377,-104.10071095151092,2.8103852,0.15275949,28.652143,7.681459,-14.454937,0.24718381,-12.36694,-7.856212,0.29055,22.16197,-12.013483,7.3754387,-6.171852,-7.732992,4.0686088,5.2515764,26.01717,-45.692875,55.99848,8.60896,-3.9322088,7.9249845,-139.26155,-87.257484,29.553219,-42.068836,22.601706,-14.956841,-25.22109
168,5.855669021606445,4.575301170349121,77.6663818359375,1.1784808078659057,2.2843484855107588,-104.09810818371209,2.7720804,0.15230402,28.648579,7.68477,-14.445061,0.2682126,-12.3766775,-7.8564672,0.28590286,22.105064,-11.974393,7.3876033,-6.155288,-7.727415,4.0812316,5.2513194,26.010773,-45.726883,56.024582,8.577729,-3.9291353,7.9046226,-139.20042,-87.28866,29.427876,-42.0344,22.517927,-14.938001,-25.195583
169,5.8674492835998535,4.59083366394043,77.67064666748047,1.1722708355757374,2.3002782624491585,-104.09826222109652,2.7374563,0.15340884,28.648869,7.69173,-14.439488,0.28938097,-12.386387,-7.8573895,0.27623147,22.060265,-11.943084,7.389984,-6.1334586,-7.7206926,4.0959263,5.247447,26.00653,-45.770676,56.04605,8.531684,-3.9452271,7.874181,-139.15346,-87.30172,29.339924,-42.00642,22.489897,-14.939095,-25.190958
170,5.878931522369385,4.602490425109863,77.67181396484375,1.1664677818768228,2.313654984272229,-104.1006672517279,2.7102668,0.15300573,28.65203,7.690032,-14.430449,0.31141615,-12.396373,-7.8587103,0.26347804,22.023659,-11.917773,7.3862295,-6.105618,-7.715255,4.1117344,5.2383404,26.002396,-45.824818,56.068817,8.4746275,-3.9725723,7.838242,-139.09268,-87.30711,29.254139,-41.987103,22.505188,-14.95609,-25.200842
171,5.887711048126221,4.610953330993652,77.67232513427734,1.1613904914824045,2.3239407957795417,-104.10660040550371,2.677109,0.15878205,28.658792,7.715115,-14.437482,0.3303062,-12.405548,-7.8593183,0.25469655,21.992544,-11.895076,7.382175,-6.080929,-7.709636,4.135642,5.238777,26.001457,-45.853233,56.075996,8.43849,-3.9989095,7.803196,-139.09215,-87.30642,29.227041,-41.958164,22.517694,-14.975387,-25.234074
172,5.897841930389404,4.621138572692871,77.6708755493164,1.1571836315524866,2.3309391758120865,-104.11738079523401,2.6482983,0.16527425,28.669704,7.7441707,-14.448241,0.3427836,-12.414839,-7.8576236,0.25712526,21.968,-11.874028,7.383576,-6.0497055,-7.7062926,4.155902,5.238362,26.000378,-45.89129,56.08535,8.411916,-4.010538,7.785107,-139.08716,-87.30438,29.19537,-41.931732,22.477242,-14.97294,-25.271238
173,5.9061384201049805,4.628626346588135,77.67086791992188,1.153940611217974,2.3328189659478715,-104.13569691154946,2.6314116,0.16950916,28.68708,7.765596,-14.457566,0.34420162,-12.423172,-7.8526673,0.27701193,21.950672,-11.85424,7.394499,-6.0146203,-7.705637,4.177278,5.2432194,25.99946,-45.92165,56.09073,8.415932,-3.9985423,7.790515,-139.0925,-87.30236,29.170284,-41.90495,22.350315,-14.939699,-25.328402
174,5.9134111404418945,4.6355977058410645,77.66889953613281,1.1513675732230466,2.3303905403419263,-104.1599779206347,2.6272988,0.17081425,28.710098,7.7742267,-14.462269,0.3377064,-12.430005,-7.8449464,0.3089154,21.939066,-11.835913,7.410946,-5.9738708,-7.7072678,4.198265,5.2488585,25.998373,-45.955765,56.096157,8.43509,-3.97152,7.81386,-139.09508,-87.29967,29.143248,-41.88111,22.170681,-14.885567,-25.401081
175,5.922920227050781,4.6438446044921875,77.66548156738281,1.150159244689598,2.3269321676065946,-104.18309871736565,2.6260884,0.17016095,28.731558,7.7802167,-14.46626,0.3319319,-12.437615,-7.838696,0.34089112,21.933054,-11.8203535,7.4271607,-5.9379053,-7.7097883,4.215221,5.257048,25.99757,-45.97563,56.101105,8.46178,-3.9478834,7.831127,-139.11024,-87.297775,29.126606,-41.852592,22.006712,-14.838386,-25.46247
176,5.93020486831665,4.648776054382324,77.66328430175781,1.1498423217211053,2.3255422563072266,-104.20684806968764,2.6191993,0.17115554,28.75381,7.794467,-14.474075,0.33429828,-12.44989,-7.8331766,0.36993358,21.931087,-11.806732,7.4367037,-5.897394,-7.7199087,4.229844,5.262393,25.995993,-46.009575,56.106968,8.470156,-3.9305418,7.850012,-139.10945,-87.2942,29.098896,-41.837173,21.855228,-14.792294,-25.512787
177,5.937047958374023,4.655184268951416,77.66215515136719,1.1515410452338717,2.3273160587409576,-104.22406052418549,2.6055367,0.17080843,28.76908,7.8132825,-14.482912,0.35185468,-12.467849,-7.832895,0.38679466,21.936943,-11.797996,7.4355416,-5.865458,-7.7323,4.234124,5.26804,25.994457,-46.02486,56.11447,8.463161,-3.9400327,7.8406744,-139.11739,-87.29165,29.082773,-41.820145,21.78313,-14.779381,-25.522926
178,5.943804740905762,4.662020683288574,77.66360473632812,1.154486705148382,2.331443430342115,-104.24132094820206,2.5866022,0.17099431,28.784147,7.83813,-14.494372,0.37833053,-12.492051,-7.8341794,0.4007539,21.949661,-11.792023,7.427622,-5.8332067,-7.749381,4.23458,5.2726398,25.993225,-46.035484,56.12353,8.445911,-3.9642045,7.8228216,-139.12695,-87.2901,29.067808,-41.804665,21.739555,-14.778758,-25.512445
179,5.948825359344482,4.668267726898193,77.665771484375,1.1587605619930386,2.3367546872163016,-104.25619806813647,2.5666094,0.17018488,28.797346,7.86277,-14.505421,0.404601,-12.517784,-7.837097,0.4127233,21.965128,-11.788434,7.4198937,-5.805049,-7.769374,4.2317104,5.2742305,25.990389,-46.04758,56.138573,8.423409,-3.9915888,7.801621,-139.13171,-87.28738,29.041584,-41.79133,21.721453,-14.7826805,-25.48452
180,5.953679084777832,4.675084114074707,77.66738891601562,1.1621221181688317,2.3378978813945115,-104.26247426188203,2.5540967,0.16774419,28.80323,7.8785486,-14.51124,0.42133397,-12.531979,-7.8412924,0.41894272,21.973557,-11.784613,7.419196,-5.7917957,-7.790866,4.2294674,5.2799263,25.987097,-46.0526,56.150726,8.414289,-3.9965997,7.785185,-139.13463,-87.28512,29.017284,-41.779884,21.714624,-14.780363,-25.463497
181,5.956981182098389,4.680943489074707,77.66665649414062,1.1659753814016702,2.334781617473058,-104.25940197207909,2.5521955,0.16087943,28.801554,7.87854,-14.507838,0.42390436,-12.53401,-7.848072,0.4210526,21.974644,-11.78131,7.4314117,-5.792984,-7.8149996,4.228577,5.289999,25.983402,-46.052254,56.1601,8.4213705,-3.971176,7.7728486,-139.1357,-87.28322,28.996105,-41.77272,21.714458,-14.764411,-25.454826
182,5.959044933319092,4.685749053955078,77.66502380371094,1.1702464074537133,2.328962534785983,-104.24907167632739,2.5566719,0.15087391,28.793837,7.8691835,-14.49891,0.41798764,-12.528157,-7.857342,0.41908446,21.971186,-11.778795,7.4515133,-5.8053746,-7.841449,4.226733,5.3042154,25.979155,-46.047066,56.16655,8.437995,-3.9255555,7.761484,-139.13527,-87.28158,28.976786,-41.76817,21.72921,-14.740861,-25.448938
183,5.960501670837402,4.689333438873291,77.66304016113281,1.1732548082433332,2.3223069713303484,-104.23615389246248,2.5618026,0.14316073,28.78399,7.861135,-14.490739,0.40957522,-12.518519,-7.865227,0.41429242,21.965565,-11.776143,7.4700766,-5.823242,-7.8686438,4.223754,5.317327,25.9751,-46.042393,56.17591,8.455993,-3.8805325,7.755343,-139.13947,-87.28038,28.965212,-41.765762,21.749302,-14.724097,-25.442478
184,5.960718154907227,4.693815231323242,77.66156005859375,1.1737377062075462,2.3152525076721995,-104.22217290986487,2.5650384,0.14089446,28.773119,7.859593,-14.48631,0.40510875,-12.507144,-7.870376,0.405361,21.959974,-11.773067,7.4780807,-5.8473754,-7.895209,4.220231,5.3310766,25.972643,-46.039696,56.18196,8.4733,-3.8421352,7.7611895,-139.1487,-87.27978,28.95624,-41.76689,21.776901,-14.719612,-25.427822
185,5.960762977600098,4.697695255279541,77.66178894042969,1.1703957137483465,2.308268932446949,-104.20744086971352,2.5637577,0.14724764,28.761734,7.8700204,-14.488319,0.40719727,-12.494926,-7.8709474,0.39208928,21.95567,-11.768837,7.46949,-5.881725,-7.917834,4.21985,5.348008,25.966068,-46.040558,56.184036,8.489243,-3.8139107,7.7933545,-139.16562,-87.27817,28.93911,-41.77137,21.823391,-14.736563,-25.39377
186,5.960206508636475,4.702075004577637,77.66422271728516,1.1635619163850544,2.301048143625675,-104.19157903618482,2.558994,0.16137168,28.749638,7.8912687,-14.496383,0.41186118,-12.479934,-7.8674445,0.37524855,21.94948,-11.762696,7.4502616,-5.921416,-7.9390163,4.2188334,5.362189,25.96105,-46.05032,56.190002,8.501203,-3.7940607,7.845533,-139.18521,-87.27694,28.92267,-41.775295,21.88363,-14.770114,-25.343964
187,5.95711088180542,4.701735973358154,77.66648864746094,1.155840382514694,2.2936306084808598,-104.17496559762965,2.5525575,0.17818178,28.736116,7.9170136,-14.506758,0.41620964,-12.462847,-7.86271,0.3552098,21.940893,-11.7569895,7.4292502,-5.960736,-7.9609656,4.215354,5.371097,25.955927,-46.066963,56.199818,8.505177,-3.7821155,7.894311,-139.20386,-87.275795,28.90763,-41.785168,21.937971,-14.8077755,-25.29602
188,5.955630302429199,4.70258092880249,77.66930389404297,1.1482515233879538,2.285697103745921,-104.15702532921678,2.5449731,0.1951326,28.71925,7.946054,-14.519295,0.41696143,-12.4416275,-7.858804,0.33086926,21.92527,-11.751661,7.4153347,-5.9969664,-7.9840946,4.2095804,5.374428,25.947098,-46.087406,56.213024,8.4990425,-3.77684,7.9241214,-139.22131,-87.27435,28.893673,-41.80376,21.97468,-14.840818,-25.259007
189,5.953668594360352,4.705595016479492,77.67052459716797,1.1407858219418967,2.276947919016377,-104.13548081350251,2.5390577,0.20995376,28.69574,7.9705367,-14.52949,0.41235825,-12.412319,-7.856764,0.2975719,21.896828,-11.747203,7.4114566,-6.0277953,-8.007824,4.198406,5.3592014,25.93024,-46.119183,56.249645,8.47544,-3.7782533,7.9289308,-139.22203,-87.273964,28.87367,-41.834023,21.993113,-14.867517,-25.22814
190,5.949779033660889,4.708614349365234,77.67106628417969,1.1328834218428514,2.2675551234148728,-104.11131323655331,2.530685,0.2263119,28.667355,8.001102,-14.543287,0.40443203,-12.378143,-7.8552566,0.25749776,21.86121,-11.744023,7.4127674,-6.0601077,-8.031653,4.1840577,5.326035,25.889053,-46.144176,56.318256,8.454367,-3.7883759,7.9152045,-139.21704,-87.27897,28.855993,-41.876183,21.999016,-14.896695,-25.210682
191,5.946208953857422,4.710227012634277,77.67269897460938,1.1248647630983188,2.257877195398371,-104.0888302954361,2.5206907,0.24447711,28.640242,8.037055,-14.559849,0.3956612,-12.34255,-7.852902,0.21873634,21.822733,-11.739361,7.4161115,-6.0920696,-8.056842,4.174257,5.2981324,25.854523,-46.1563,56.371613,8.435695,-3.8059032,7.893457,-139.24481,-87.28493,28.862537,-41.919563,21.99214,-14.923824,-25.209974
192,5.942044258117676,4.709974765777588,77.67453002929688,1.1169370932720886,2.248295213351482,-104.07254619927281,2.5143802,0.26270783,28.620628,8.068751,-14.573535,0.38875568,-12.311025,-7.847749,0.18983614,21.789824,-11.732222,7.418408,-6.1126857,-8.083686,4.1651974,5.2628217,25.819935,-46.178883,56.426186,8.409954,-3.8335745,7.8769655,-139.29549,-87.289215,28.885439,-41.966072,21.965961,-14.942602,-25.225214
193,5.937166690826416,4.71170711517334,77.67568969726562,1.1086791782547725,2.2385640423432682,-104.06298449051219,2.5070403,0.28407025,28.609495,8.107806,-14.58979,0.3845156,-12.285032,-7.8396635,0.17264672,21.76649,-11.721859,7.4198637,-6.1200137,-8.111997,4.1562696,5.217362,25.783014,-46.21753,56.4865,8.369652,-3.8809512,7.866384,-139.36702,-87.288,28.92261,-42.01603,21.894863,-14.943468,-25.26489
194,5.931889057159424,4.7156548500061035,77.677978515625,1.1002876832926942,2.228556512984951,-104.05800208462342,2.5001066,0.30733526,28.60382,8.149934,-14.606447,0.38146913,-12.2618685,-7.829495,0.16283439,21.747997,-11.709179,7.421766,-6.131838,-8.147268,4.1522985,5.1977353,25.778435,-46.234158,56.502342,8.327994,-3.9418724,7.8522453,-139.41838,-87.28622,28.92315,-42.075516,21.791964,-14.933134,-25.327225
195,5.927912712097168,4.71649169921875,77.67850494384766,1.0921285909072207,2.2190677606977562,-104.05810843280614,2.4927025,0.33182356,28.603664,8.195201,-14.625864,0.3787524,-12.240302,-7.817339,0.15941359,21.72873,-11.695104,7.4225984,-6.1354823,-8.184359,4.1475534,5.1717257,25.773966,-46.259037,56.51874,8.284447,-4.0004463,7.8423615,-139.47537,-87.283005,28.924606,-42.142353,21.702133,-14.925376,-25.388145
196,5.924067497253418,4.717080116271973,77.6787109375,1.0846100692609417,2.210979062227507,-104.06419222967223,2.4894762,0.35367408,28.608877,8.229836,-14.6419115,0.37559322,-12.220937,-7.8032746,0.1617792,21.707254,-11.683044,7.42084,-6.1326385,-8.222398,4.140386,5.1450286,25.76937,-46.2855,56.529778,8.253842,-4.0375714,7.8408346,-139.5327,-87.27872,28.928524,-42.21674,21.667583,-14.938107,-25.43088
197,5.920590877532959,4.718230724334717,77.67863464355469,1.078177021211299,2.2047689232464274,-104.07779565308037,2.4865377,0.3744924,28.621098,8.263103,-14.66099,0.3721864,-12.205905,-7.7874217,0.17197353,21.68486,-11.675391,7.4140096,-6.123507,-8.262749,4.131696,5.1158776,25.764513,-46.3119,56.537037,8.248935,-4.042457,7.849832,-139.59721,-87.27355,28.934803,-42.29992,21.721136,-14.98639,-25.443138
198,5.917081832885742,4.716756343841553,77.67984008789062,1.0736719691424939,2.2000902327198655,-104.09671800248107,2.4846408,0.3928763,28.63872,8.292946,-14.680618,0.36915243,-12.195135,-7.771347,0.18896961,21.66413,-11.671301,7.403871,-6.114582,-8.313541,4.1126966,5.0975757,25.762869,-46.32271,56.53979,8.271523,-4.0273767,7.8628244,-139.64003,-87.27122,28.93539,-42.389095,21.814249,-15.060252,-25.452044
199,5.914102077484131,4.716706275939941,77.68069458007812,1.066404949987164,2.195491541599251,-104.12191165609478,2.4838595,0.41534802,28.66189,8.323198,-14.701575,0.36461642,-12.182779,-7.7497053,0.21037094,21.636719,-11.663505,7.3940096,-6.092697,-8.349561,4.1141825,5.0591645,25.757242,-46.349762,56.53272,8.278073,-4.0074506,7.887117,-139.73364,-87.264175,28.945192,-42.4894,21.956072,-15.129462,-25.43486
200,5.908875465393066,4.714415073394775,77.68133544921875,1.0584240785613355,2.190620386143663,-104.14647612020558,2.4850054,0.43769145,28.683924,8.349695,-14.72025,0.35861787,-12.167528,-7.727446,0.22958682,21.604618,-11.650974,7.3897214,-6.0736537,-8.389426,4.1040225,5.0357175,25.75068,-46.36041,56.521027,8.268482,-4.002236,7.9085193,-139.8038,-87.25739,28.962784,-42.58298,22.04743,-15.1716385,-25.447435
201,5.905298233032227,4.714796543121338,77.68175506591797,1.0477652354203733,2.183578557295549,-104.17274057363429,2.4898832,0.4628789,28.70645,8.374252,-14.738079,0.34981677,-12.147034,-7.701417,0.24776705,21.566397,-11.6317835,7.3942275,-6.0538754,-8.425454,4.096289,5.023475,25.740654,-46.345016,56.495235,8.231232,-4.0244036,7.9290047,-139.88031,-87.24956,28.995302,-42.675037,22.093334,-15.178198,-25.494957
202,5.89918851852417,4.715123176574707,77.68306732177734,1.0351826492389684,2.1752528996685885,-104.20166000333211,2.497328,0.49036828,28.73066,8.397507,-14.75568,0.33896902,-12.123367,-7.672357,0.26682717,21.523298,-11.608061,7.4045086,-6.041084,-8.457788,4.093457,5.024631,25.721716,-46.28625,56.456688,8.192852,-4.062529,7.948507,-139.99057,-87.23738,29.062355,-42.759167,22.118143,-15.166177,-25.57223
203,5.894904136657715,4.714890003204346,77.6843032836914,1.0221969575088368,2.168764828689874,-104.23016064780126,2.5043993,0.51752067,28.754572,8.416948,-14.770731,0.32779014,-12.099803,-7.6428394,0.28446352,21.476616,-11.581556,7.4148016,-6.0373216,-8.485972,4.091379,5.0320153,25.69687,-46.208305,56.414745,8.165342,-4.0960393,7.9680624,-140.1201,-87.223145,29.151283,-42.837696,22.13421,-15.143576,-25.654099
204,5.89056921005249,4.713983058929443,77.68757629394531,1.0093219990883364,2.1671879724823553,-104.25488448269623,2.507206,0.54263043,28.775873,8.430944,-14.78094,0.31797424,-12.079679,-7.615474,0.29818633,21.428707,-11.554845,7.4193926,-6.0429573,-8.507206,4.0867558,5.035687,25.664345,-46.135864,56.381622,8.162277,-4.1046805,7.9883676,-140.26843,-87.20691,29.266031,-42.901855,22.15104,-15.1189575,-25.717747
205,5.886298179626465,4.715954780578613,77.6907958984375,0.9978937432446163,2.172815671229187,-104.27566034926494,2.5026817,0.5648875,28.795065,8.4407215,-14.786493,0.3102511,-12.067874,-7.591772,0.30815107,21.383759,-11.52962,7.4164205,-6.0539374,-8.518874,4.0746827,5.021474,25.61128,-46.087482,56.379505,8.190118,-4.072332,8.01565,-140.46674,-87.186775,29.44508,-42.95311,22.165363,-15.088565,-25.762339
206,5.881654262542725,4.713674068450928,77.69412994384766,0.9870049334267454,2.183483165268095,-104.293923489219,2.4964929,0.583388,28.812895,8.439456,-14.784538,0.30374336,-12.059802,-7.570158,0.31524807,21.336594,-11.502647,7.4090586,-6.066625,-8.528498,4.0568767,5.000169,25.555292,-46.056244,56.388157,8.233544,-4.012243,8.047938,-140.64613,-87.177444,29.61826,-43.009808,22.175556,-15.04923,-25.794935
207,5.878114223480225,4.7121806144714355,77.69696044921875,0.9750654545583414,2.195820422618444,-104.30925744169986,2.4879196,0.6029629,28.827919,8.438181,-14.78151,0.29726714,-12.050764,-7.5485225,0.31892538,21.285908,-11.474702,7.3991547,-6.083401,-8.537373,4.0389833,4.9801188,25.503368,-46.02746,56.393513,8.280567,-3.9508197,8.074775,-140.79391,-87.18081,29.763395,-43.063786,22.193989,-15.01206,-25.810776
208,5.8734660148620605,4.7086358070373535,77.69877624511719,0.9607886135281675,2.206514474955179,-104.32130938733575,2.4806178,0.6254356,28.83871,8.437981,-14.779192,0.2898698,-12.033732,-7.5246816,0.31829515,21.225262,-11.443441,7.388665,-6.103395,-8.544145,4.0254645,4.964975,25.456541,-45.99363,56.387455,8.3166275,-3.9147096,8.086535,-140.91487,-87.194786,29.87799,-43.10217,22.232151,-14.986971,-25.804455
209,5.868586540222168,4.703857898712158,77.70125579833984,0.9427121435352176,2.214246272958025,-104.3291207844755,2.4796436,0.6499569,28.843584,8.429473,-14.771542,0.28023115,-12.006202,-7.4976997,0.31192788,21.153065,-11.409239,7.3746085,-6.130345,-8.548124,4.0176125,4.9617743,25.42078,-45.94527,56.35778,8.341061,-3.9118626,8.0736265,-141.00432,-87.21548,29.95537,-43.120457,22.29371,-14.980115,-25.76975
210,5.864065647125244,4.699747085571289,77.7070083618164,0.9222466748657031,2.22095109923203,-104.33306516223657,2.4795349,0.6772609,28.843771,8.421285,-14.763711,0.2691918,-11.971647,-7.468628,0.3005957,21.07224,-11.372723,7.3571234,-6.157132,-8.548189,4.0135183,4.9510837,25.375854,-45.89506,56.334873,8.363768,-3.9289422,8.044254,-141.09708,-87.25202,30.036592,-43.123924,22.375856,-14.986669,-25.716105
211,5.858888626098633,4.697822570800781,77.71358489990234,0.901072778947017,2.22798841704911,-104.33525192525208,2.4792218,0.705102,28.842152,8.412398,-14.755762,0.25924355,-11.933638,-7.4393897,0.287174,20.984358,-11.332831,7.34287,-6.1854796,-8.547341,4.010801,4.9413095,25.334026,-45.85141,56.31013,8.375871,-3.9576333,8.013776,-141.16197,-87.294174,30.093279,-43.115,22.463932,-14.995093,-25.64665
212,5.852950096130371,4.696654796600342,77.72103881835938,0.8811825890648847,2.23674486362983,-104.33765111426192,2.475919,0.7322229,28.841913,8.406021,-14.75016,0.25291824,-11.8961935,-7.4116974,0.27441588,20.892593,-11.289429,7.338485,-6.2141156,-8.546338,4.0082517,4.930368,25.294601,-45.82469,56.29072,8.371442,-3.9906125,7.997698,-141.20015,-87.33959,30.125893,-43.092888,22.551405,-14.99516,-25.568455
213,5.848426818847656,4.694295883178711,77.72745513916016,0.863483039017541,2.248089749218077,-104.33943612962302,2.4659944,0.7591255,28.842842,8.408223,-14.750694,0.25417492,-11.857997,-7.3866706,0.26266968,20.79146,-11.239265,7.3527317,-6.242571,-8.546062,4.0048046,4.9169006,25.256891,-45.82361,56.28036,8.342649,-4.0317345,8.0051985,-141.21054,-87.38538,30.131466,-43.051746,22.637592,-14.984601,-25.46954
214,5.841695308685303,4.692777156829834,77.7325210571289,0.8467518799837205,2.261061981206942,-104.33979748081315,2.4559987,0.7837158,28.843536,8.406116,-14.750264,0.2606546,-11.817676,-7.3633227,0.2506118,20.68141,-11.183457,7.379802,-6.2735453,-8.544993,4.000998,4.9029474,25.220161,-45.838898,56.275127,8.294754,-4.08308,8.026407,-141.1983,-87.431946,30.11256,-42.99215,22.72839,-14.968089,-25.350037
215,5.8363494873046875,4.690104007720947,77.73629760742188,0.8301504328307971,2.274414585758325,-104.34144434311904,2.4447093,0.8086066,28.845594,8.4061775,-14.751066,0.2652422,-11.779951,-7.3400326,0.23876011,20.575645,-11.129336,7.404327,-6.3048034,-8.542989,3.9986038,4.888416,25.18385,-45.858604,56.27275,8.242712,-4.134575,8.048117,-141.15979,-87.48001,30.079466,-42.928196,22.811775,-14.947929,-25.23761
216,5.833303928375244,4.68916654586792,77.73841094970703,0.8127500038358473,2.286771308009104,-104.347092445198,2.4364915,0.8331635,28.850393,8.40325,-14.750703,0.26075548,-11.748393,-7.3153243,0.22739339,20.484674,-11.082885,7.4109173,-6.334283,-8.539149,3.9993505,4.8727746,25.14758,-45.871555,56.27055,8.200446,-4.176028,8.057189,-141.09544,-87.530525,30.045498,-42.868404,22.876839,-14.926706,-25.160006
217,5.828337669372559,4.687104225158691,77.74261474609375,0.7930787865056751,2.2969068473543346,-104.35679515171013,2.4353921,0.85701394,28.857681,8.389335,-14.74397,0.24130483,-11.723764,-7.2879863,0.21381591,20.41473,-11.047747,7.3898406,-6.361142,-8.531672,4.005418,4.854403,25.111155,-45.87716,56.26895,8.162663,-4.2063613,8.049374,-141.01001,-87.58394,30.017908,-42.815353,22.912683,-14.896652,-25.130098
218,5.826236248016357,4.678107261657715,77.74715423583984,0.771922715398298,2.305814042106711,-104.36943955123014,2.4398348,0.87985206,28.866901,8.366766,-14.732921,0.21196479,-11.70395,-7.2589154,0.19872078,20.35834,-11.01963,7.3511496,-6.385893,-8.521138,4.015325,4.8332996,25.074474,-45.881737,56.269634,8.124561,-4.23047,8.031867,-140.90944,-87.6396,29.99645,-42.761833,22.92782,-14.859776,-25.131819
219,5.825191497802734,4.677427291870117,77.75018310546875,0.7519416294229179,2.315484273658412,-104.38541034943214,2.4443874,0.90086937,28.879217,8.342819,-14.7214575,0.18246216,-11.690406,-7.23047,0.18788971,20.310555,-10.995577,7.309272,-6.4070296,-8.510709,4.025984,4.8110104,25.037394,-45.88429,56.270973,8.101935,-4.2471256,8.008589,-140.79251,-87.69632,29.981749,-42.709606,22.939394,-14.832523,-25.149897
220,5.8236541748046875,4.673927307128906,77.75255584716797,0.7356366768777096,2.3278384170368573,-104.40521448655856,2.4459298,0.917924,28.895851,8.32029,-14.710832,0.16262043,-11.684826,-7.2049065,0.1873546,20.26767,-10.972834,7.2786283,-6.4227858,-8.503729,4.0344415,4.788703,24.999842,-45.884346,56.271645,8.11047,-4.2552853,7.9834476,-140.65569,-87.75203,29.973898,-42.660244,22.962223,-14.83147,-25.16943
221,5.821118354797363,4.6708502769470215,77.75450134277344,0.7237966763787846,2.3450586121260115,-104.42920261917646,2.442437,0.9302013,28.917019,8.298301,-14.700482,0.15642034,-11.690066,-7.182941,0.19948037,20.228884,-10.951211,7.2625484,-6.433488,-8.500598,4.038323,4.767885,24.96151,-45.88003,56.271675,8.174892,-4.250889,7.951851,-140.49384,-87.80543,29.974983,-42.61749,23.012709,-14.873718,-25.188019
222,5.8200554847717285,4.6699042320251465,77.75605773925781,0.7150050608150179,2.3655434810138107,-104.45698391128934,2.437238,0.9378354,28.942225,8.2725935,-14.687988,0.15835941,-11.705033,-7.163298,0.2209438,20.197327,-10.932476,7.253486,-6.440018,-8.499072,4.0398507,4.747354,24.922174,-45.87223,56.271656,8.279767,-4.2359786,7.913536,-140.31024,-87.85641,29.984434,-42.577328,23.07825,-14.946135,-25.213032
223,5.82075309753418,4.662525177001953,77.75877380371094,0.7087738248139603,2.385660345103178,-104.4880801745528,2.4337099,0.94236594,28.971256,8.245618,-14.67567,0.16330938,-11.723034,-7.1454234,0.24873824,20.169853,-10.914506,7.2497287,-6.442485,-8.499834,4.0419455,4.7261605,24.882336,-45.86263,56.270893,8.381544,-4.2179136,7.879171,-140.11542,-87.904594,29.998606,-42.535126,23.131054,-15.019878,-25.243538
224,5.822441577911377,4.66328239440918,77.75914764404297,0.7042178613260922,2.401816515773259,-104.52220395652395,2.437647,0.94368374,29.003744,8.212723,-14.661754,0.16625732,-11.739314,-7.12836,0.28009096,20.14729,-10.897299,7.2493696,-6.4408736,-8.502452,4.0481467,4.703601,24.84299,-45.85345,56.267258,8.43604,-4.2038183,7.859382,-139.91864,-87.94993,30.012205,-42.481007,23.143955,-15.066115,-25.278538
225,5.823322772979736,4.666231155395508,77.76065063476562,0.7017629834643027,2.411779882289954,-104.56040062673432,2.4538813,0.9404282,29.04161,8.170362,-14.64534,0.16694187,-11.75003,-7.111739,0.31644705,20.126322,-10.878518,7.254965,-6.434983,-8.506699,4.06036,4.6805153,24.804947,-45.842155,56.256355,8.421477,-4.192623,7.8591933,-139.7135,-87.99396,30.024584,-42.413387,23.095964,-15.070726,-25.323572
226,5.823276996612549,4.667558670043945,77.7629623413086,0.7016256228014615,2.4179432767913824,-104.60264108482431,2.4771824,0.9336958,29.084204,8.123807,-14.62835,0.16760933,-11.758982,-7.0962386,0.3586195,20.108414,-10.859279,7.266521,-6.425238,-8.513428,4.0762053,4.6577625,24.768635,-45.828472,56.239765,8.364617,-4.1812673,7.872199,-139.49626,-88.0371,30.035797,-42.335693,23.007298,-15.0512295,-25.377121
227,5.823098659515381,4.663273334503174,77.76337432861328,0.7027566047356629,2.4234435963794376,-104.64600101013347,2.5029676,0.9242857,29.128092,8.073126,-14.610008,0.16727524,-11.770471,-7.081757,0.40242103,20.096853,-10.8422985,7.278275,-6.411452,-8.522427,4.0937567,4.6338778,24.734575,-45.817738,56.222836,8.293979,-4.1744747,7.8915224,-139.27588,-88.07663,30.039677,-42.255566,22.908442,-15.026202,-25.427788
228,5.8229875564575195,4.657181262969971,77.76416778564453,0.7036604544890073,2.4314638233929093,-104.68776685865369,2.5243347,0.91449165,29.16948,8.023362,-14.591899,0.16477099,-11.788458,-7.068532,0.44351697,20.093864,-10.830187,7.2845383,-6.395351,-8.53416,4.1102047,4.6087723,24.703413,-45.81336,56.211327,8.238864,-4.176687,7.91058,-139.06323,-88.108444,30.030437,-42.18229,22.830671,-15.014408,-25.463545
229,5.826870441436768,4.655755043029785,77.76362609863281,0.7041166736872664,2.443623801148953,-104.72700533604473,2.53916,0.90393347,29.207563,7.974238,-14.574203,0.15849234,-11.815816,-7.0563197,0.4805812,20.10175,-10.823772,7.2803154,-6.37759,-8.547566,4.125224,4.5848126,24.675655,-45.81326,56.201992,8.202618,-4.197477,7.9331565,-138.8553,-88.1296,30.004593,-42.1122,22.786783,-15.021552,-25.473537
230,5.828150272369385,4.652672290802002,77.76311492919922,0.7051017761435192,2.458003463474758,-104.76545822231027,2.550254,0.8923556,29.244055,7.9260087,-14.557363,0.14947553,-11.850957,-7.045441,0.51618654,20.121117,-10.82299,7.2698164,-6.3596134,-8.56103,4.1436744,4.5730767,24.66399,-45.810226,56.17056,8.171635,-4.2304616,7.9594293,-138.6934,-88.13483,30.004818,-42.03036,22.758875,-15.037552,-25.46722
231,5.8302531242370605,4.649535179138184,77.76209259033203,0.7060483403737227,2.4720140720672834,-104.80332100570993,2.5602486,0.88085943,29.279688,7.880913,-14.542155,0.14054821,-11.886133,-7.03534,0.55075413,20.141773,-10.823397,7.260951,-6.3409758,-8.577928,4.1702104,4.5584235,24.661905,-45.809525,56.136818,8.148828,-4.259666,7.9810038,-138.5718,-88.134834,30.010681,-41.952896,22.737312,-15.053094,-25.459496
232,5.834549903869629,4.6465630531311035,77.76029968261719,0.7064482503050109,2.4835922075309926,-104.83864093156666,2.5710053,0.8707814,29.312592,7.8414946,-14.529944,0.13478711,-11.914705,-7.0264473,0.5823874,20.155403,-10.821578,7.261767,-6.3250823,-8.59573,4.205617,4.5428534,24.660934,-45.811714,56.10768,8.143556,-4.267387,7.9921174,-138.4901,-88.13414,30.014673,-41.90008,22.70922,-15.059571,-25.46792
233,5.836200714111328,4.644473075866699,77.76038360595703,0.7085458883922006,2.4921569637537653,-104.87647104242853,2.588198,0.85785764,29.348574,7.7984996,-14.5168085,0.1329796,-11.939272,-7.019779,0.6158155,20.16582,-10.819721,7.27787,-6.305078,-8.623669,4.231682,4.5227256,24.660053,-45.819675,56.09884,8.159337,-4.2414865,7.9791903,-138.4097,-88.13221,30.016384,-41.851574,22.643671,-15.070994,-25.504301
234,5.841341972351074,4.64148473739624,77.75621032714844,0.7115077908979847,2.4986097654217105,-104.91425980625434,2.6094735,0.84278286,29.38464,7.753104,-14.503185,0.13365623,-11.960145,-7.015271,0.64839184,20.172686,-10.817371,7.3039007,-6.281479,-8.657518,4.2566986,4.4970307,24.65943,-45.834877,56.103058,8.192489,-4.1911077,7.9498076,-138.34073,-88.128944,30.014322,-41.814995,22.554424,-15.081757,-25.559076
235,5.846329212188721,4.638834476470947,77.75373840332031,0.7143748910607511,2.5041935133245024,-104.95216537430521,2.6303682,0.82863516,29.420635,7.711149,-14.490802,0.13570943,-11.979155,-7.010352,0.6830576,20.177956,-10.814031,7.331346,-6.2567067,-8.695163,4.279583,4.465802,24.659094,-45.857857,56.121994,8.231968,-4.136634,7.9135466,-138.28554,-88.124016,30.008411,-41.799065,22.463264,-15.097706,-25.627943
236,5.851421356201172,4.635274887084961,77.75328826904297,0.7159212045609142,2.51020928667545,-104.99054229684373,2.6387086,0.82274646,29.456347,7.6994014,-14.493968,0.13782842,-11.99811,-7.0026236,0.72311157,20.183014,-10.809079,7.351724,-6.2322984,-8.734038,4.2986617,4.4298716,24.65913,-45.887783,56.15826,8.267573,-4.1005473,7.8796463,-138.24313,-88.11829,29.99949,-41.812664,22.38997,-15.12644,-25.708092
237,5.855711460113525,4.632325649261475,77.75251007080078,0.7161317589319739,2.516809826516559,-105.03089056507233,2.6423879,0.8205374,29.492796,7.697411,-14.501232,0.14068504,-12.016263,-6.990465,0.7727824,20.18476,-10.799955,7.363055,-6.2094584,-8.774097,4.3134513,4.3888597,24.659657,-45.92691,56.2189,8.299341,-4.0950174,7.845131,-138.21803,-88.110695,29.98711,-41.860374,22.34919,-15.175978,-25.803686
238,5.859118461608887,4.629428863525391,77.75314331054688,0.716054118531946,2.5237153829045518,-105.07616915185078,2.6462586,0.8188838,29.533773,7.696599,-14.509482,0.14435072,-12.036749,-6.9745717,0.83366364,20.187996,-10.78923,7.3697753,-6.1720605,-8.817062,4.3199825,4.313596,24.66102,-46.015427,56.332745,8.302236,-4.1198854,7.803145,-138.18709,-88.094574,29.958906,-41.94368,22.316751,-15.236987,-25.911415
239,5.864292621612549,4.622698783874512,77.75314331054688,0.7138860474642734,2.5311993662817645,-105.1165026506782,2.6487384,0.81913674,29.56992,7.6960645,-14.516593,0.14811566,-12.053818,-6.9584584,0.88940674,20.186987,-10.77702,7.372778,-6.1402674,-8.858422,4.323517,4.2490196,24.662743,-46.104683,56.441826,8.303261,-4.145547,7.776865,-138.17651,-88.07718,29.929625,-42.04228,22.298372,-15.2980585,-26.01277
240,5.869352340698242,4.616297721862793,77.75371551513672,0.7100600787954265,2.5392979135465494,-105.14945228231572,2.6494558,0.8210469,29.600325,7.696859,-14.523874,0.15064493,-12.066754,-6.944636,0.9328431,20.182194,-10.765082,7.37313,-6.1238437,-8.900527,4.324146,4.2138104,24.664045,-46.149826,56.521328,8.326846,-4.153777,7.768286,-138.18793,-88.06766,29.914034,-42.141987,22.273373,-15.357833,-26.114683
241,5.874475002288818,4.609443664550781,77.75395965576172,0.705628103820324,2.549975449522179,-105.18009011470194,2.6487725,0.8236682,29.631678,7.695601,-14.529225,0.15118285,-12.081536,-6.9329133,0.96929324,20.178179,-10.754388,7.366969,-6.1056976,-8.942563,4.3206153,4.172906,24.66571,-46.193886,56.605125,8.345203,-4.1556287,7.781367,-138.20183,-88.05742,29.89923,-42.261894,22.227192,-15.414727,-26.224552
