unveil-humanoid-operators/unveil-humanoid-operators.github.io/feature-analysis-animation/data/feature_matrix_instances/weight_ankle_rom_walking_A060_walk_arc_cw_start_004__A060.csv
Frame,root_translateX,root_translateY,root_translateZ,root_rotateX,root_rotateY,root_rotateZ,left_hip_pitch_joint_dof,left_hip_roll_joint_dof,left_hip_yaw_joint_dof,left_knee_joint_dof,left_ankle_pitch_joint_dof,left_ankle_roll_joint_dof,right_hip_pitch_joint_dof,right_hip_roll_joint_dof,right_hip_yaw_joint_dof,right_knee_joint_dof,right_ankle_pitch_joint_dof,right_ankle_roll_joint_dof,waist_yaw_joint_dof,waist_roll_joint_dof,waist_pitch_joint_dof,left_shoulder_pitch_joint_dof,left_shoulder_roll_joint_dof,left_shoulder_yaw_joint_dof,left_elbow_joint_dof,left_wrist_roll_joint_dof,left_wrist_pitch_joint_dof,left_wrist_yaw_joint_dof,right_shoulder_pitch_joint_dof,right_shoulder_roll_joint_dof,right_shoulder_yaw_joint_dof,right_elbow_joint_dof,right_wrist_roll_joint_dof,right_wrist_pitch_joint_dof,right_wrist_yaw_joint_dof
0,-0.1541576236486435,-2.3733184337615967,77.92573547363281,0.4474070275719729,-3.152824741218514,87.39899438555328,5.3499155,6.601097,9.249478,15.694396,-17.281797,-9.160072,3.2768779,-7.8852377,-2.8374765,14.242309,-14.552016,10.356222,-2.6494365,-2.512365,8.954051,-1.9874071,15.309418,-25.399319,65.55718,4.601852,2.9407477,-1.0823052,0.5399152,-12.727929,16.310354,62.05154,-3.0721953,3.295602,9.514966
1,-0.15773120522499084,-2.379912853240967,77.91214752197266,0.4657395539281183,-3.119267645072021,87.34226659759597,5.2985954,6.586068,9.296077,15.753905,-17.364534,-9.130459,3.054699,-7.9056735,-2.7493563,14.592324,-14.755051,10.301672,-2.5983877,-2.528747,8.991199,-1.9689214,15.317028,-25.349678,65.50063,4.5725107,2.9135177,-1.0648088,0.5144205,-12.725264,16.288883,62.038784,-3.0599966,3.3044732,9.523536
2,-0.16309908032417297,-2.3852293491363525,77.89684295654297,0.48331143031536816,-3.0893352136840297,87.2850204067414,5.255404,6.571992,9.344353,15.80427,-17.44185,-9.104242,2.8403776,-7.923765,-2.661151,14.93374,-14.952769,10.246454,-2.5477095,-2.5423932,9.0295925,-1.9553633,15.319149,-25.299067,65.4531,4.5401254,2.8825424,-1.0439789,0.49152884,-12.723694,16.266603,62.023983,-3.0467484,3.3143535,9.530563
3,-0.169102743268013,-2.3889222145080566,77.88184356689453,0.502557857917944,-3.0520071901143973,87.22881486904386,5.1958575,6.555533,9.389212,15.872826,-17.529861,-9.071147,2.6114576,-7.945079,-2.5728133,15.289835,-15.158612,10.193451,-2.4950855,-2.5575442,9.061021,-1.9437214,15.318337,-25.253702,65.4084,4.5140376,2.857426,-1.0268451,0.46905681,-12.723255,16.248693,62.01155,-3.032337,3.3230166,9.539294
4,-0.1748988926410675,-2.392439603805542,77.86441040039062,0.527164495406225,-2.996294086373923,87.17413746615445,5.09512,6.533687,9.4261675,15.986861,-17.64447,-9.021051,2.345225,-7.9749026,-2.483435,15.682777,-15.385095,10.145895,-2.450776,-2.5769525,9.082676,-1.9307008,15.314412,-25.188015,65.36059,4.515854,2.845555,-1.0240952,0.43503788,-12.72397,16.242508,62.00731,-3.0220249,3.3279145,9.556029
5,-0.17930535972118378,-2.3914334774017334,77.84127807617188,0.5587997182612605,-2.9257499985261157,87.11877076506734,4.9600306,6.5019326,9.45529,16.144407,-17.79104,-8.950723,2.0356455,-8.016849,-2.3888261,16.134098,-15.646377,10.104466,-2.4043906,-2.6051054,9.08876,-1.9178462,15.30785,-25.128313,65.315834,4.539678,2.8575976,-1.0383409,0.39797923,-12.727719,16.264658,62.013367,-3.0024967,3.3274817,9.583739
6,-0.18467548489570618,-2.3910977840423584,77.81452178955078,0.5964330740852767,-2.844163349098572,87.06278175760353,4.802483,6.463181,9.479042,16.327461,-17.959818,-8.865855,1.6953106,-8.0666895,-2.290569,16.625486,-15.931163,10.067959,-2.3604238,-2.6378174,9.08461,-1.9027296,15.298049,-25.06502,65.27051,4.5821238,2.8865042,-1.0653918,0.35754842,-12.735803,16.309483,62.02547,-2.9763155,3.3233721,9.620078
7,-0.19143082201480865,-2.392179012298584,77.78703308105469,0.6342110770250853,-2.740031993063357,87.0124711553927,4.5939665,6.4254932,9.494014,16.562891,-18.148815,-8.768904,1.3281022,-8.118825,-2.1975718,17.123837,-16.21702,10.036113,-2.3218842,-2.6700222,9.062339,-1.88876,15.285923,-25.002605,65.228546,4.6274924,2.914845,-1.0944006,0.3198887,-12.747002,16.357634,62.034508,-2.9475932,3.3197713,9.651919
8,-0.2021239846944809,-2.391988515853882,77.75872802734375,0.667596277881514,-2.6017070585230053,86.97402715063942,4.3100996,6.3968024,9.497304,16.868004,-18.35356,-8.662473,0.9369434,-8.16815,-2.118564,17.596582,-16.48064,10.008431,-2.2902145,-2.6980014,9.013455,-1.8794998,15.273359,-24.946228,65.19463,4.6604114,2.9254928,-1.1142688,0.29084638,-12.75794,16.387644,62.033836,-2.9218972,3.3205786,9.66529
9,-0.21573510766029358,-2.4006764888763428,77.72882080078125,0.6979662045056957,-2.4080572319438756,86.94974143076482,3.909615,6.377076,9.485036,17.272371,-18.582851,-8.540054,0.48873287,-8.218117,-2.0550606,18.059105,-16.724546,9.985625,-2.2685504,-2.724525,8.91963,-1.8769301,15.261749,-24.895798,65.16888,4.679851,2.908893,-1.1191021,0.26931518,-12.766164,16.393707,62.01913,-2.898616,3.3255868,9.651381
10,-0.22706754505634308,-2.4030580520629883,77.70217895507812,0.7264018383905994,-2.1715165977039517,86.93631088421408,3.4156313,6.3630605,9.459305,17.761673,-18.835854,-8.402279,-0.0063081942,-8.270002,-2.0028887,18.520105,-16.957306,9.967786,-2.2593758,-2.7488732,8.791518,-1.8782275,15.24681,-24.841587,65.15019,4.6975527,2.8752449,-1.1160157,0.24918039,-12.77392,16.38865,61.997597,-2.8774679,3.3329759,9.619362
11,-0.23703442513942719,-2.395580530166626,77.67658233642578,0.7483288607163859,-1.9307131770822692,86.93106069540322,2.9085298,6.3566947,9.427347,18.270197,-19.092655,-8.263218,-0.4811671,-8.3161,-1.961894,18.93875,-17.169584,9.95336,-2.251281,-2.767334,8.661218,-1.8814718,15.230928,-24.795618,65.139435,4.704636,2.8391852,-1.1121446,0.2367845,-12.779505,16.374853,61.976616,-2.8591058,3.344624,9.581414
12,-0.24888038635253906,-2.387350559234619,77.6525650024414,0.7576056972535815,-1.7243521666547572,86.93150006498419,2.4676592,6.3601737,9.396187,18.733124,-19.332825,-8.137226,-0.8662028,-8.348341,-1.9327259,19.269049,-17.350489,9.94025,-2.2411308,-2.7749038,8.561857,-1.8792793,15.214671,-24.755865,65.13348,4.7001724,2.8144383,-1.1156355,0.23117849,-12.783865,16.360172,61.968204,-2.8453634,3.3620195,9.549993
13,-0.26304686069488525,-2.373102903366089,77.62850952148438,0.7505596259254652,-1.557680716716272,86.94112689830246,2.0968037,6.380787,9.362585,19.152857,-19.555191,-8.029723,-1.1472721,-8.359982,-1.9201403,19.495754,-17.494007,9.923047,-2.2315671,-2.7646272,8.49896,-1.8764883,15.193562,-24.723454,65.136665,4.6765184,2.8056443,-1.1302935,0.22988307,-12.789127,16.351898,61.977264,-2.8338895,3.392266,9.524706
14,-0.2805684804916382,-2.349182605743408,77.60977172851562,0.731342895374144,-1.4114730290764388,86.95989536127524,1.758942,6.4151325,9.324446,19.557768,-19.769474,-7.9328904,-1.361294,-8.357131,-1.9222237,19.645905,-17.608265,9.903973,-2.2235057,-2.7405443,8.455209,-1.8750294,15.167797,-24.699463,65.14985,4.636109,2.805161,-1.1508235,0.2346299,-12.795831,16.344938,61.996696,-2.8243709,3.432353,9.499705
15,-0.29982706904411316,-2.3236687183380127,77.59390258789062,0.7061973112896278,-1.288192538662809,86.97929571168994,1.4715261,6.4496493,9.290547,19.923588,-19.971066,-7.8414187,-1.5124291,-8.350909,-1.9300395,19.73269,-17.700064,9.891936,-2.2143886,-2.7139013,8.431728,-1.8580738,15.1480665,-24.6748,65.15804,4.5952263,2.8082263,-1.1734885,0.24735446,-12.801014,16.332708,62.020138,-2.8190744,3.4689176,9.481341
16,-0.32192304730415344,-2.2851738929748535,77.57949829101562,0.6848766172580026,-1.1900816157875018,86.99093263887492,1.2525706,6.471565,9.269661,20.225332,-20.155527,-7.749836,-1.6053398,-8.351853,-1.9346521,19.770119,-17.776554,9.89616,-2.2068875,-2.6853511,8.425544,-1.8286804,15.115611,-24.632847,65.18035,4.5770693,2.8071904,-1.1897179,0.2654572,-12.809744,16.31385,62.048206,-2.8193424,3.4890099,9.475433
17,-0.3508416414260864,-2.2334647178649902,77.56755065917969,0.6667594613084517,-1.1263332861558124,86.992903080898,1.1179079,6.480282,9.264366,20.454224,-20.32225,-7.6565595,-1.6232464,-8.359551,-1.9355235,19.746073,-17.836088,9.920091,-2.200108,-2.6516256,8.44436,-1.7850537,15.061133,-24.565168,65.222534,4.5947104,2.7998915,-1.1889514,0.29019892,-12.824078,16.279762,62.08496,-2.8307798,3.4892933,9.4823675
18,-0.38533198833465576,-2.1736323833465576,77.5565185546875,0.6480436529736278,-1.092910057305925,86.98949928978712,1.0561341,6.4813805,9.270183,20.620451,-20.471083,-7.5643554,-1.5676495,-8.369536,-1.9369065,19.654335,-17.874039,9.958421,-2.1923554,-2.6141481,8.487221,-1.7274573,14.996914,-24.483374,65.27474,4.6328063,2.7901785,-1.1787105,0.3223096,-12.840231,16.233166,62.128437,-2.8505707,3.476543,9.500095
19,-0.42478591203689575,-2.125560760498047,77.54451751708984,0.6316122905636685,-1.0720091878667413,86.98199499109035,1.0345247,6.472613,9.284894,20.74793,-20.61035,-7.474684,-1.4797658,-8.386943,-1.9366133,19.535423,-17.902027,10.008102,-2.1859803,-2.5775802,8.535132,-1.6602895,14.9293995,-24.401026,65.33404,4.672156,2.7811055,-1.1750474,0.36122447,-12.860379,16.192106,62.17077,-2.8677075,3.453512,9.526989
20,-0.4665784537792206,-2.0586512088775635,77.53457641601562,0.6221272918400265,-1.0461605562257512,86.97114800916569,1.0295708,6.450028,9.30669,20.841614,-20.73728,-7.3881974,-1.3939321,-8.416502,-1.9320878,19.416195,-17.924873,10.065016,-2.183094,-2.5465996,8.56941,-1.5896193,14.866441,-24.336674,65.39832,4.6882105,2.775498,-1.1939503,0.40752336,-12.888225,16.174107,62.20278,-2.8709164,3.4230518,9.562414
21,-0.512959361076355,-1.9815696477890015,77.52726745605469,0.6170487610658143,-1.0138425931134265,86.95572729015691,1.0400543,6.414587,9.337775,20.901155,-20.853268,-7.304969,-1.3087943,-8.457522,-1.9228032,19.289127,-17.939157,10.129158,-2.1859639,-2.513141,8.586794,-1.5177672,14.795307,-24.284975,65.47681,4.6685133,2.77243,-1.2357848,0.4637709,-12.935091,16.188366,62.222385,-2.8468914,3.377512,9.61969
22,-0.569665253162384,-1.8986022472381592,77.5220718383789,0.6167083681099605,-0.9832633420381269,86.93575898444766,1.0796831,6.3669257,9.378326,20.918983,-20.9558,-7.224254,-1.2085521,-8.5082445,-1.9095876,19.142986,-17.943178,10.2017765,-2.1925085,-2.4800184,8.598831,-1.4355896,14.725091,-24.240175,65.55706,4.626248,2.7712808,-1.2954471,0.5304862,-12.996886,16.222752,62.230404,-2.8050427,3.3180356,9.696157
23,-0.6299166679382324,-1.8030272722244263,77.51586151123047,0.622036205466151,-0.9517508859202789,86.91420144164003,1.1323882,6.306957,9.422675,20.918373,-21.053736,-7.1474757,-1.1112808,-8.571335,-1.8941888,19.00941,-17.948967,10.282973,-2.201472,-2.4496758,8.604292,-1.3526069,14.656704,-24.213474,65.63933,4.585086,2.7737024,-1.3735721,0.6104145,-13.071653,16.26935,62.216892,-2.7627695,3.26231,9.767379
24,-0.6951115727424622,-1.7188903093338013,77.50605773925781,0.635718015414826,-0.9164482586973939,86.89420901689529,1.1919744,6.232412,9.465207,20.903435,-21.145052,-7.074815,-1.0308007,-8.648731,-1.8763963,18.911871,-17.964615,10.370793,-2.2103312,-2.426048,8.601896,-1.2785959,14.592907,-24.21782,65.72392,4.568056,2.7812414,-1.4709821,0.70650893,-13.15662,16.317726,62.173298,-2.7397542,3.2277424,9.808356
25,-0.7651196718215942,-1.621436357498169,77.49501037597656,0.6545379943636208,-0.8758033912684056,86.87152461341094,1.2552563,6.147689,9.507324,20.879889,-21.231825,-7.008341,-0.9658823,-8.735266,-1.8530248,18.841803,-17.986193,10.462306,-2.2116134,-2.406855,8.590852,-1.2093936,14.533859,-24.253405,65.80817,4.5793447,2.7974987,-1.5827364,0.8163937,-13.248824,16.371002,62.108162,-2.7324178,3.2177346,9.808789
26,-0.836713433265686,-1.5150319337844849,77.4833984375,0.679440669826993,-0.831473980126661,86.84635184147102,1.3276271,6.052032,9.550977,20.840742,-21.312395,-6.947139,-0.9103111,-8.831902,-1.8248754,18.790262,-18.010744,10.559042,-2.2084668,-2.3925169,8.571605,-1.1429838,14.479813,-24.31647,65.894135,4.605421,2.820547,-1.7100401,0.93819684,-13.347973,16.431988,62.025127,-2.7340183,3.2232575,9.782634
27,-0.9069522023200989,-1.4085643291473389,77.46968841552734,0.7142213866920658,-0.7860514191884153,86.82776410643933,1.4076744,5.9369693,9.591307,20.787329,-21.388186,-6.8876553,-0.8736218,-8.949221,-1.7992997,18.787582,-18.05129,10.6674,-2.2133217,-2.3902307,8.545946,-1.0865089,14.433755,-24.40643,65.98182,4.6515927,2.8439116,-1.863493,1.0785,-13.454198,16.489437,61.902542,-2.7585878,3.2431011,9.741986
28,-0.9781033992767334,-1.2834606170654297,77.4508285522461,0.7680637437226278,-0.7417712212903463,86.82491183385271,1.4929782,5.794447,9.623218,20.722956,-21.461748,-6.8263264,-0.8660716,-9.098183,-1.7835768,18.864624,-18.120872,10.793763,-2.2383099,-2.406868,8.516153,-1.0479772,14.400736,-24.526024,66.07078,4.719332,2.8609672,-2.0542192,1.2457845,-13.566593,16.530329,61.71623,-2.821191,3.2762082,9.699891
29,-1.0553734302520752,-1.169559121131897,77.4293212890625,0.8381645821670467,-0.7060210587263326,86.84396194979352,1.5962421,5.622647,9.641777,20.638071,-21.529474,-6.759516,-0.8616828,-9.280102,-1.7890744,18.993147,-18.210958,10.94965,-2.2887063,-2.4442978,8.485382,-1.0164183,14.382783,-24.666996,66.157974,4.824249,2.859485,-2.288404,1.4460624,-13.684532,16.552439,61.45235,-2.9518003,3.3354123,9.660189
30,-1.1378984451293945,-1.0506141185760498,77.4041748046875,0.922271432904303,-0.6752724440935761,86.87896910098382,1.7143303,5.4258733,9.650562,20.5349,-21.591759,-6.690136,-0.8634397,-9.489663,-1.8090111,19.166597,-18.317379,11.12843,-2.3575573,-2.499794,8.452159,-0.9899972,14.380211,-24.831512,66.24103,4.959067,2.8461661,-2.5597997,1.6746701,-13.807402,16.561237,61.124165,-3.1350794,3.417139,9.616307
31,-1.224068284034729,-0.9224755764007568,77.37378692626953,1.0246318937061312,-0.636036344168253,86.92037750837329,1.8217846,5.2051787,9.657473,20.43228,-21.655895,-6.624436,-0.9282413,-9.728079,-1.8227088,19.455242,-18.463467,11.308882,-2.4373775,-2.5748475,8.411913,-0.98939043,14.396033,-25.03677,66.31963,5.0931997,2.8431754,-2.8608255,1.9210176,-13.934901,16.557152,60.752064,-3.3134801,3.4951649,9.565023
32,-1.3115671873092651,-0.7868024706840515,77.3372802734375,1.1479727544790457,-0.5748302181552551,86.95877740869689,1.8948419,4.9607897,9.670748,20.34596,-21.727438,-6.5684433,-1.1101048,-9.996226,-1.8091393,19.923294,-18.669611,11.469653,-2.5201201,-2.6709692,8.360546,-1.0339546,14.434045,-25.30049,66.39058,5.196277,2.8731842,-3.1846895,2.1773376,-14.065195,16.538218,60.35268,-3.4319823,3.543375,9.503634
33,-1.4037083387374878,-0.6527386903762817,77.29536437988281,1.296292875516697,-0.4750637850769253,86.99986818861635,1.9102228,4.686224,9.684106,20.279581,-21.805971,-6.5229464,-1.4284351,-10.299453,-1.7689648,20.576082,-18.951141,11.608618,-2.6048698,-2.793237,8.280759,-1.1286793,14.495945,-25.639786,66.45537,5.2512774,2.9525712,-3.5303106,2.4466243,-14.199534,16.502337,59.913277,-3.5006366,3.5668921,9.429854
34,-1.4930102825164795,-0.5402390956878662,77.24529266357422,1.468239620688961,-0.3482757159306476,87.0460833064089,1.8866014,4.3831697,9.696291,20.224842,-21.889048,-6.4848948,-1.8508021,-10.635182,-1.7102135,21.3791,-19.291958,11.736246,-2.694398,-2.939846,8.1808405,-1.2617632,14.580934,-26.042755,66.51083,5.277475,3.066193,-3.9021838,2.7341614,-14.336674,16.44903,59.426773,-3.541324,3.5756743,9.346721
35,-1.588950514793396,-0.42569035291671753,77.18812561035156,1.6557562427467254,-0.22334450470099185,87.0831898836198,1.862779,4.0632625,9.722883,20.178131,-21.978565,-6.45449,-2.3551872,-10.993051,-1.6224363,22.341307,-19.667614,11.850703,-2.7868025,-3.106011,8.093597,-1.4302313,14.690598,-26.484446,66.55267,5.296942,3.189839,-4.301001,3.0277262,-14.47332,16.381641,58.92961,-3.5153866,3.5499873,9.255521
36,-1.6905913352966309,-0.3146543800830841,77.12345123291016,1.8532941093861355,-0.12882528673555615,87.09657189767697,1.876226,3.7386038,9.779197,20.137756,-22.07737,-6.432024,-2.9194977,-11.361805,-1.4957151,23.471542,-20.054169,11.950842,-2.8810294,-3.2878978,8.05171,-1.6301426,14.8284,-26.940351,66.57493,5.3298736,3.2991092,-4.7276654,3.314429,-14.604279,16.304087,58.45844,-3.3846931,3.4699771,9.158253
37,-1.7914643287658691,-0.20656104385852814,77.05439758300781,2.0656518591401736,-0.05415808263955132,87.08119853227502,1.9205602,3.4020784,9.873438,20.092192,-22.181156,-6.4210205,-3.5510077,-11.744886,-1.3283867,24.760727,-20.471313,12.033847,-2.9726076,-3.4931688,8.0418,-1.8598553,14.996774,-27.417437,66.584854,5.36569,3.3790593,-5.1869974,3.5909538,-14.727376,16.221806,58.02502,-3.1157947,3.3074138,9.055988
38,-1.891161322593689,-0.10493379086256027,76.97959899902344,2.295768553425954,0.010204877935421384,87.04517585295142,1.9794284,3.0495856,9.995545,20.047274,-22.2907,-6.4197702,-4.2528214,-12.1437,-1.124985,26.19924,-20.920685,12.102844,-3.0642006,-3.7238808,8.05368,-2.1185973,15.195915,-27.92236,66.57839,5.4002547,3.4456358,-5.677912,3.862297,-14.841706,16.13194,57.61072,-2.737792,3.0799296,8.94807
39,-1.9940659999847412,-0.002590770600363612,76.90190887451172,2.530061636106364,0.03408640244498254,86.99341077600626,2.0805438,2.6948135,10.134629,20.014463,-22.409695,-6.421026,-4.9966774,-12.546594,-0.8865142,27.796938,-21.34545,12.167315,-3.1653306,-3.9696605,8.123979,-2.4062405,15.426938,-28.435743,66.5358,5.4583488,3.5203283,-6.1921124,4.1242814,-14.944257,16.02846,57.2123,-2.3045151,2.8362894,8.832545
40,-2.094637870788574,0.09654088318347931,76.81837463378906,2.7598429266506423,-0.012602318105118386,86.93004639285459,2.2517145,2.350235,10.27824,20.005663,-22.542522,-6.4159102,-5.7517014,-12.9390745,-0.61335397,29.559574,-21.690315,12.235479,-3.2862213,-4.221186,8.289117,-2.7193565,15.691493,-28.932076,66.43473,5.5705824,3.6241314,-6.7218995,4.3728623,-15.029929,15.905492,56.82653,-1.870888,2.6253831,8.705791
41,-2.200756311416626,0.19121375679969788,76.73151397705078,2.9868121091440045,-0.13810645343844563,86.85568375189754,2.5012815,2.0098555,10.425225,20.022545,-22.689173,-6.4012523,-6.497343,-13.32546,-0.318261,31.476973,-21.962132,12.339323,-3.4345815,-4.483765,8.556545,-3.055667,15.992366,-29.410604,66.26698,5.7621865,3.7669942,-7.2923303,4.5977426,-15.095041,15.761472,56.459717,-1.4315004,2.4594595,8.566989
42,-2.303640842437744,0.28529831767082214,76.64476013183594,3.2144274290086883,-0.32613690444973537,86.76767411064979,2.8141532,1.667915,10.580693,20.057049,-22.84664,-6.3815756,-7.248537,-13.707077,0.00049261714,33.541546,-22.179901,12.469351,-3.6030698,-4.7634554,8.906381,-3.416007,16.330832,-29.884422,66.04309,6.01155,3.9349105,-7.89937,4.800924,-15.139407,15.600491,56.115585,-0.964475,2.3121452,8.416734
43,-2.4078238010406494,0.3750273585319519,76.5599365234375,3.436353938817025,-0.5699700737208161,86.66544749197017,3.1842134,1.3361859,10.743116,20.105816,-23.013777,-6.3601584,-8.026586,-14.063679,0.3618628,35.7614,-22.303417,12.574641,-3.7796075,-5.052293,9.334351,-3.8015385,16.70477,-30.348028,65.76791,6.2803655,4.113641,-8.49197,4.996856,-15.163084,15.425683,55.785492,-0.49931157,2.1747613,8.253263
44,-2.5102643966674805,0.4639620780944824,76.47570037841797,3.6443633025662714,-0.8630745138370582,86.54851118670547,3.6068187,1.027387,10.911862,20.163544,-23.188332,-6.341298,-8.851931,-14.379682,0.7843077,38.14167,-22.289381,12.606042,-3.9531524,-5.3408227,9.836137,-4.217515,17.11065,-30.800282,65.45081,6.5239553,4.289949,-9.01782,5.1999116,-15.166301,15.2404,55.46106,-0.065816335,2.038856,8.074535
45,-2.612715244293213,0.5527174472808838,76.38700866699219,3.837685366626205,-1.2042855605904579,86.41369496082152,4.076485,0.7425551,11.089953,20.236856,-23.37109,-6.323197,-9.738581,-14.647109,1.2760392,40.71659,-22.118145,12.5874605,-4.119674,-5.6281796,10.416394,-4.6707864,17.54362,-31.226051,65.09541,6.7427864,4.46665,-9.486778,5.406843,-15.149152,15.035539,55.140766,0.3291128,1.9107695,7.877928
46,-2.711442470550537,0.6346954703330994,76.30077362060547,4.020171024453433,-1.5968699581093517,86.26180302797816,4.5979185,0.47491524,11.277004,20.324717,-23.562151,-6.304706,-10.6668215,-14.868126,1.8198972,43.46421,-21.809492,12.543058,-4.284615,-5.9177,11.074878,-5.161038,18.001945,-31.633926,64.69989,6.9557524,4.649788,-9.918419,5.611944,-15.111935,14.812344,54.8297,0.70075434,1.7921158,7.6643066
47,-2.808759927749634,0.704276442527771,76.2122802734375,4.189703378409314,-2.040774821936327,86.0988521464195,5.182083,0.22342888,11.466199,20.409044,-23.758192,-6.289375,-11.604959,-15.04122,2.3970351,46.301807,-21.375177,12.42234,-4.4499,-6.20887,11.800934,-5.68147,18.487288,-32.05512,64.26659,7.150254,4.8294225,-10.274819,5.8244147,-15.057459,14.590224,54.530403,1.053243,1.6672333,7.438225
48,-2.9055655002593994,0.7830151319503784,76.12809753417969,4.349220307226199,-2.5356284264523694,85.9308554253408,5.8365617,-0.012188844,11.650159,20.480232,-23.960701,-6.280009,-12.523558,-15.165948,2.9893708,49.15017,-20.82614,12.172008,-4.6176343,-6.501343,12.58413,-6.217083,19.002714,-32.513454,63.784374,7.320879,5.001289,-10.518988,6.0564523,-14.989068,14.387453,54.24231,1.3899018,1.5207547,7.2042785
49,-2.998368501663208,0.8676572442054749,76.04154205322266,4.497089971016567,-3.1072774907380802,85.74809639661927,6.601955,-0.23469505,11.837092,20.519867,-24.16647,-6.274544,-13.424752,-15.228516,3.6331034,52.06226,-20.078611,11.758678,-4.7841983,-6.7986174,13.456556,-6.767124,19.550653,-33.022385,63.23869,7.4696302,5.1732116,-10.6338625,6.303015,-14.911596,14.208631,53.963894,1.7140638,1.3363831,6.961761
50,-3.0899899005889893,0.9586864113807678,75.9537582397461,4.634254039119798,-3.7472584642137425,85.55062701895872,7.462272,-0.44285718,12.027393,20.538248,-24.376066,-6.2723246,-14.316621,-15.229239,4.313369,55.049408,-19.144638,11.226886,-4.9498286,-7.0984206,14.413567,-7.333261,20.130169,-33.56607,62.625114,7.599287,5.349205,-10.642866,6.56335,-14.824829,14.044087,53.690887,2.0233612,1.12665,6.710038
51,-3.1766958236694336,1.0511374473571777,75.85904693603516,4.757942348943979,-4.404488314987293,85.3600058566505,8.345108,-0.6319688,12.2027445,20.557693,-24.59057,-6.2785325,-15.185378,-15.203212,4.9440827,57.97902,-18.18319,10.627748,-5.1239567,-7.395611,15.389359,-7.9175982,20.739218,-34.133522,61.977154,7.6934075,5.503508,-10.567481,6.850907,-14.724671,13.89432,53.424004,2.3137057,0.91865087,6.45374
52,-3.248089075088501,1.144796371459961,75.76468658447266,4.8682693684080975,-5.027668316660447,85.19799863987515,9.177299,-0.79685533,12.345534,20.602732,-24.81224,-6.2984805,-16.022455,-15.193874,5.4491067,60.724674,-17.364475,9.999387,-5.3165274,-7.685768,16.31761,-8.523257,21.375402,-34.715015,61.328716,7.734745,5.6111827,-10.428864,7.177567,-14.603625,13.761035,53.166195,2.5819974,0.73949635,6.196536
53,-3.314711093902588,1.247295618057251,75.66783142089844,4.974527092906568,-5.637513888675711,85.05903480296325,9.980347,-0.9473802,12.459573,20.678812,-25.045631,-6.33859,-16.832996,-15.238128,5.8378043,63.35625,-16.69453,9.27081,-5.515422,-7.9889116,17.217346,-9.166495,22.04215,-35.330204,60.686787,7.719926,5.657212,-10.221063,7.5421686,-14.460754,13.665107,52.910793,2.84638,0.5903278,5.933979
54,-3.368917465209961,1.3597317934036255,75.57183074951172,5.074526275597733,-6.250038290660502,84.93565717677721,10.780421,-1.0834945,12.552551,20.772593,-25.28816,-6.394231,-17.62583,-15.317895,6.147831,65.91533,-16.100735,8.431027,-5.7207584,-8.303841,18.111156,-9.842082,22.740074,-35.980915,60.031506,7.655354,5.6574,-9.936595,7.937628,-14.2961855,13.601155,52.661453,3.1019444,0.45842707,5.664968
55,-3.4159295558929443,1.4798086881637573,75.48066711425781,5.147608895191369,-6.8073883877097545,84.8475330924274,11.50919,-1.1826137,12.613596,20.885614,-25.533773,-6.454496,-18.409193,-15.398184,6.3570805,68.254944,-15.646542,7.6037693,-5.9604945,-8.596513,18.935501,-10.519256,23.45946,-36.621563,59.362694,7.548161,5.6328964,-9.594185,8.366536,-14.103411,13.528388,52.440342,3.3079898,0.35062742,5.397059
56,-3.4469854831695557,1.6238542795181274,75.39826965332031,5.170139962910983,-7.2517318809398015,84.8152236769123,12.097616,-1.2202367,12.631863,21.021976,-25.777863,-6.5083637,-19.190046,-15.436603,6.4441185,70.22788,-15.39576,6.9184003,-6.2626395,-8.832537,19.624836,-11.173243,24.185465,-37.20822,58.693863,7.4049926,5.6044335,-9.209809,8.82925,-13.8738575,13.406252,52.274597,3.4232934,0.27403292,5.136318
57,-3.4656715393066406,1.7744619846343994,75.32813262939453,5.143432584292016,-7.579289437103705,84.85651818981893,12.525065,-1.1924183,12.59453,21.209902,-26.034332,-6.5500894,-19.969862,-15.4633665,6.389394,71.83869,-15.458932,6.381932,-6.639715,-9.01363,20.16684,-11.826896,24.915394,-37.773544,58.060608,7.193582,5.559811,-8.763443,9.336895,-13.5990505,13.236465,52.16421,3.4402196,0.23475201,4.8739543
58,-3.479537010192871,1.9428412914276123,75.26819610595703,5.075630178751784,-7.817120504135826,84.95755719001576,12.827637,-1.1089947,12.510979,21.443188,-26.302988,-6.5864596,-20.749716,-15.488763,6.2168775,73.16262,-15.778705,5.929647,-7.073596,-9.155507,20.59197,-12.495075,25.649176,-38.334602,57.46343,6.9199724,5.491961,-8.252605,9.883069,-13.277501,13.03612,52.1055,3.3779411,0.2281017,4.608303
59,-3.4842000007629395,2.130328416824341,75.23111724853516,4.956752400531377,-7.953954106956787,85.09127694026624,13.028417,-0.9650307,12.404271,21.65971,-26.550821,-6.626037,-21.535353,-15.444204,5.967489,74.15357,-16.163933,5.5911274,-7.549311,-9.238878,20.898575,-13.136728,26.372032,-38.810875,56.869812,6.6564875,5.430047,-7.7183867,10.446075,-12.913316,12.78676,52.116627,3.2353337,0.2456141,4.356941
60,-3.485827922821045,2.323146343231201,75.21623992919922,4.7732367934765625,-7.9786685318993245,85.23090301950991,13.146976,-0.75486577,12.29686,21.80448,-26.748487,-6.6774683,-22.332663,-15.259893,5.6766806,74.761635,-16.421703,5.3937583,-8.053228,-9.240107,21.084883,-13.7138,27.06158,-39.117737,56.25897,6.476395,5.404295,-7.2002115,11.006798,-12.515816,12.470868,52.213604,3.012616,0.27915135,4.137584
61,-3.484469175338745,2.534372329711914,75.23119354248047,4.506958798797346,-7.858368709665606,85.39401766792031,13.125009,-0.45311046,12.171325,21.913052,-26.903845,-6.7407374,-23.164774,-14.904831,5.336186,74.94719,-16.513103,5.3783693,-8.610321,-9.125481,21.119392,-14.231662,27.701939,-39.24229,55.677525,6.398461,5.409901,-6.6820593,11.576163,-12.085453,12.067149,52.392845,2.6696582,0.32585442,3.9519715
62,-3.477617025375366,2.7687880992889404,75.27143096923828,4.16960254117772,-7.6087208698567945,85.58591237007981,12.971581,-0.070490986,12.020824,21.99958,-27.027962,-6.8122196,-24.024876,-14.43036,4.933854,74.742325,-16.53773,5.516349,-9.217801,-8.906189,21.01428,-14.715676,28.288563,-39.2233,55.150837,6.388149,5.434941,-6.1487556,12.16538,-11.619946,11.592494,52.646122,2.221927,0.3915721,3.7930694
63,-3.468369960784912,3.017052173614502,75.33104705810547,3.800835309237093,-7.2912209688864,85.7605990125999,12.810939,0.34279147,11.8856,21.971575,-27.093317,-6.89436,-24.87203,-13.890813,4.499488,74.2018,-16.508118,5.7329087,-9.819827,-8.626383,20.833117,-15.160697,28.817144,-39.058235,54.627533,6.432416,5.499654,-5.640726,12.755719,-11.131162,11.08641,52.980217,1.7556205,0.4811947,3.66544
64,-3.461359739303589,3.280130386352539,75.40425109863281,3.438682628413225,-6.968359040240593,85.87286563619284,12.768469,0.7367001,11.808281,21.734673,-27.071007,-6.9897623,-25.663229,-13.337209,4.062374,73.38246,-16.436329,5.954323,-10.364706,-8.330554,20.638111,-15.568442,29.286716,-38.755188,54.056282,6.502855,5.6237364,-5.1989007,13.330526,-10.643194,10.5889015,53.395462,1.3596263,0.59974635,3.574321
65,-3.4516799449920654,3.561964511871338,75.48854064941406,3.0805437811750394,-6.643322611752811,85.92101842593661,12.857529,1.1117433,11.792321,21.266352,-26.953806,-7.1070576,-26.383743,-12.752702,3.6218178,72.25471,-16.316233,6.1997747,-10.855558,-8.010839,20.43277,-15.917306,29.690548,-38.261448,53.41552,6.616763,5.8389993,-4.82364,13.899664,-10.164298,10.084971,53.884872,1.063895,0.7581086,3.5179756
66,-3.439558744430542,3.8630242347717285,75.58130645751953,2.7107970350585346,-6.288131011066656,85.92546556649945,13.016952,1.4885086,11.819093,20.61731,-26.75716,-7.243245,-27.052567,-12.123198,3.1672037,70.79637,-16.144281,6.494286,-11.318471,-7.644426,20.189014,-16.220497,30.02675,-37.59587,52.7452,6.7691045,6.1256833,-4.4971952,14.47205,-9.694994,9.564541,54.441326,0.8238122,0.95073324,3.4972303
67,-3.4264814853668213,4.180927753448486,75.6768798828125,2.3443599239953743,-5.91898436264508,85.87517306019794,13.262033,1.8479007,11.900847,19.799976,-26.484621,-7.3843503,-27.67174,-11.496008,2.7067058,69.07479,-15.933366,6.772435,-11.737219,-7.254258,19.921219,-16.488794,30.299824,-36.820316,52.048145,6.9510303,6.426862,-4.234388,15.033877,-9.246418,9.071652,55.056156,0.6171342,1.1581779,3.523179
68,-3.407604694366455,4.520204544067383,75.77957153320312,1.9979030073974038,-5.551766947366388,85.75911767353521,13.605351,2.1709828,12.050135,18.831762,-26.14293,-7.5171437,-28.241919,-10.910905,2.2456448,67.158394,-15.695178,6.974319,-12.097931,-6.862632,19.643684,-16.730259,30.519333,-35.995903,51.319534,7.151544,6.6854587,-4.049743,15.572646,-8.836738,8.651028,55.71825,0.4230013,1.3612418,3.6076972
69,-3.399470090866089,4.861595630645752,75.8816146850586,1.6737573771282728,-5.195036796105671,85.56311182987368,14.085911,2.4430063,12.285173,17.655012,-25.701244,-7.64087,-28.744379,-10.348629,1.7814904,65.016655,-15.422703,7.112977,-12.392501,-6.4718657,19.36244,-16.921648,30.685156,-35.074837,50.53371,7.417586,6.904245,-3.980054,16.085434,-8.4763975,8.307471,56.436264,0.25941026,1.5562302,3.7547188
70,-3.378662109375,5.2164411544799805,75.98135375976562,1.360340706743022,-4.838839935781647,85.29826922920302,14.682927,2.6747434,12.596666,16.28141,-25.166126,-7.7668133,-29.174574,-9.785123,1.303532,62.61945,-15.109571,7.2168474,-12.636923,-6.0665574,19.068348,-17.061045,30.796402,-34.03792,49.69113,7.7385645,7.1068945,-4.007646,16.580357,-8.167205,8.021467,57.20697,0.13307373,1.7532395,3.9596837
71,-3.3600471019744873,5.587019443511963,76.0742416381836,1.0502667705892796,-4.471432715357792,84.99111692385222,15.331756,2.8838274,12.956155,14.808507,-24.588423,-7.898481,-29.55213,-9.247201,0.80043614,60.03426,-14.767822,7.2520432,-12.8520565,-5.641475,18.752993,-17.187204,30.867096,-32.99225,48.819088,8.013723,7.2684574,-4.0642447,17.063034,-7.910675,7.8008475,57.999718,0.006275487,1.9534062,4.2226605
72,-3.3378958702087402,5.96389627456665,76.15750122070312,0.7386534481168315,-4.080847649872335,84.66846957967235,15.964431,3.0907078,13.334049,13.338854,-24.020716,-8.038018,-29.896204,-8.76004,0.25814062,57.325916,-14.408393,7.1876144,-13.055947,-5.1930428,18.409992,-17.32891,30.918867,-32.04072,47.932747,8.147168,7.3658514,-4.0812488,17.538582,-7.705221,7.6502137,58.785126,-0.16095775,2.1571786,4.543722
73,-3.306898593902588,6.351177215576172,76.22791290283203,0.4184601504914984,-3.6682254078392367,84.32554340473423,16.619839,3.291806,13.740796,11.796779,-23.423822,-8.188638,-30.185274,-8.302596,-0.3452918,54.45094,-14.030709,7.022101,-13.24227,-4.7201753,18.039074,-17.470194,30.964586,-31.187622,47.005814,8.101145,7.3932147,-4.049288,18.004084,-7.5520005,7.5879717,59.57498,-0.35834858,2.3624785,4.9298787
74,-3.2676749229431152,6.7443718910217285,76.28057861328125,0.09201643720921313,-3.2374370550835763,83.95460322812511,17.3173,3.4767594,14.186101,10.150297,-22.778488,-8.352405,-30.401863,-7.846276,-1.0137186,51.371365,-13.624505,6.7855234,-13.407908,-4.224806,17.644766,-17.586351,31.007296,-30.377117,46.014957,7.932344,7.3639493,-4.0031567,18.454866,-7.450038,7.605312,60.379776,-0.57274365,2.568673,5.3792343
75,-3.229921340942383,7.143377304077148,76.31690216064453,-0.2360983690222107,-2.78318896582071,83.57609476340434,17.970072,3.6559346,14.638997,8.553625,-22.165981,-8.525079,-30.575453,-7.4073133,-1.7294112,48.168945,-13.18575,6.4950376,-13.5713,-3.7126558,17.229124,-17.702606,31.058819,-29.635859,44.98719,7.6733074,7.2852926,-3.9404414,18.894207,-7.3913965,7.663705,61.168396,-0.8423564,2.7775993,5.8778973
76,-3.1805663108825684,7.542364120483398,76.33055114746094,-0.5511473809833887,-2.301761940897182,83.20822435792628,18.20273,3.9173489,15.047208,7.803675,-22.002306,-8.698106,-30.736,-7.008366,-2.468057,44.924885,-12.713856,6.1664963,-13.743052,-3.1994228,16.79636,-17.835052,31.131912,-28.983824,43.94133,7.369264,7.1647563,-3.8590293,19.325016,-7.36008,7.7225547,61.911446,-1.2069788,2.9902418,6.4114995
77,-3.1176931858062744,7.94385290145874,76.32122039794922,-0.8538331129212382,-1.779633225248743,82.84024161040142,18.090117,4.249931,15.412984,7.714145,-22.195108,-8.86027,-30.89013,-6.6267495,-3.231137,41.60666,-12.201949,5.791737,-13.91305,-2.6824996,16.331797,-17.980165,31.236858,-28.440023,42.862007,6.9893985,7.001581,-3.764535,19.745775,-7.3489323,7.7843337,62.61392,-1.7252132,3.2059689,7.0013766
78,-3.056278705596924,8.340055465698242,76.29235076904297,-1.1428907456125565,-1.2270814680576758,82.46828487213236,17.937012,4.573239,15.764692,7.649049,-22.409294,-9.013503,-31.001745,-6.2413473,-4.0355067,38.158833,-11.643266,5.3828783,-14.076059,-2.1700199,15.842365,-18.124577,31.377686,-27.990826,41.732944,6.5226693,6.793077,-3.6588583,20.15264,-7.3568296,7.864315,63.291214,-2.3635337,3.4196224,7.645943
79,-2.984250068664551,8.739270210266113,76.24383544921875,-1.399602416884576,-0.6770040795816069,82.12013937571729,17.770845,4.866013,16.087938,7.6073303,-22.636,-9.164828,-31.045145,-5.8843656,-4.8751726,34.641376,-11.03912,4.9817896,-14.249977,-1.6959642,15.364928,-18.270561,31.55624,-27.608976,40.575134,6.0440645,6.543663,-3.5339115,20.546894,-7.373865,7.941731,63.92748,-3.024905,3.6285954,8.295613
80,-2.8991925716400146,9.125689506530762,76.17655181884766,-1.6032294995539131,-0.1615376255445727,81.82468252298709,17.619612,5.1075315,16.367802,7.5902257,-22.869087,-9.319918,-30.999737,-5.5937824,-5.7414846,31.121332,-10.3916025,4.6260834,-14.4513035,-1.2952969,14.935396,-18.433846,31.774164,-27.278734,39.42066,5.6213937,6.2577333,-3.380386,20.930452,-7.3856497,7.993383,64.5081,-3.6139839,3.8330212,8.898799
81,-2.8050503730773926,9.513940811157227,76.0916976928711,-1.73806830224628,0.3205038416458193,81.59036445194397,17.476809,5.285468,16.59736,7.605089,-23.108067,-9.471746,-30.847984,-5.3882055,-6.677373,27.544165,-9.683558,4.338138,-14.683675,-0.9879235,14.554909,-18.62716,32.036396,-27.01109,38.26576,5.2676587,5.9286675,-3.1963844,21.301113,-7.384152,8.021932,65.02927,-4.122707,4.0432754,9.455572
82,-2.7008707523345947,9.894824981689453,75.98843383789062,-1.8038864078371766,0.7760675194757701,81.41155963822729,17.340382,5.40017,16.774664,7.6492796,-23.358896,-9.612673,-30.584806,-5.238243,-7.6759567,23.866135,-8.900366,4.1072474,-14.945304,-0.77124864,14.210151,-18.838312,32.34516,-26.812876,37.094353,4.9496064,5.5568395,-2.9879076,21.658562,-7.3679934,8.037017,65.5018,-4.5981627,4.2573166,9.986211
83,-2.584040641784668,10.279777526855469,75.8644027709961,-1.8014772438906357,1.1832780340146332,81.29467316000186,17.245874,5.4506235,16.894333,7.701874,-23.619558,-9.748972,-30.236229,-5.128458,-8.64666,20.220005,-8.071381,3.9099612,-15.242924,-0.64544594,13.9142,-19.05542,32.69546,-26.667694,35.929108,4.6624327,5.1572256,-2.7560623,22.006346,-7.3342695,8.02387,65.934456,-5.0269337,4.45896,10.46714
84,-2.453850507736206,10.656157493591309,75.7247085571289,-1.7402352795945537,1.5244693068017052,81.24074064366461,17.223701,5.445691,16.956924,7.744187,-23.888054,-9.889981,-29.84679,-5.052201,-9.495741,16.766441,-7.2412477,3.7103832,-15.576872,-0.60007477,13.677549,-19.27354,33.077732,-26.56286,34.80047,4.4009833,4.7443967,-2.500764,22.34814,-7.2808414,7.9651656,66.336754,-5.395681,4.6325397,10.874367
85,-2.3111119270324707,11.047256469726562,75.56625366210938,-1.624898580492899,1.8068741179147978,81.25573514517234,17.259518,5.396775,16.960695,7.781214,-24.170994,-10.040929,-29.433704,-5.0305586,-10.185329,13.494621,-6.4050784,3.4818406,-15.946795,-0.6278113,13.497199,-19.513098,33.489063,-26.516356,33.711304,4.1773925,4.3127127,-2.2105649,22.687197,-7.2048903,7.8576345,66.70188,-5.7070374,4.7800126,11.206905
86,-2.165984630584717,11.435968399047852,75.3968734741211,-1.456289479996247,2.0389141186761703,81.33101965265098,17.343746,5.304211,16.913956,7.8176866,-24.466316,-10.197877,-28.963812,-5.0527687,-10.772576,10.301114,-5.5249233,3.2397537,-16.34522,-0.7265949,13.366213,-19.78419,33.928528,-26.53741,32.660015,3.98753,3.857069,-1.8876625,23.020473,-7.1048374,7.708757,67.03041,-5.9657917,4.909556,11.474219
87,-2.0158777236938477,11.825629234313965,75.21672058105469,-1.2585704228147259,2.2154626515800824,81.43049791889386,17.497559,5.1844735,16.848177,7.849827,-24.767748,-10.361446,-28.398403,-5.062604,-11.29983,7.1626344,-4.577604,2.9892702,-16.746727,-0.8738858,13.285157,-20.04375,34.381733,-26.581839,31.654537,3.820872,3.3930593,-1.5507197,23.339338,-6.9850097,7.513569,67.343124,-6.1622243,5.0153923,11.667625
88,-1.857506275177002,12.2305908203125,75.02908325195312,-1.0583246571334477,2.335899004715681,81.51287786017141,17.738575,5.0601034,16.799913,7.872046,-25.06699,-10.533515,-29.097752,-5.3095922,-11.671977,7.063005,-5.1275897,2.730479,-17.123062,-1.0356543,13.252607,-20.272533,34.829742,-26.616692,30.726257,3.6535532,2.935173,-1.2177655,23.635912,-6.855566,7.266678,67.65876,-6.285085,5.0915847,11.779486
89,-1.6909433603286743,12.646719932556152,74.83290100097656,-0.8749074186142235,2.4029368769640724,81.56826358387885,18.066263,4.9525824,16.783733,7.8823886,-25.370388,-10.716565,-29.685701,-5.5303445,-11.946674,7.004737,-5.6068473,2.4018936,-17.461855,-1.1881,13.271922,-20.486368,35.261913,-26.648067,29.888496,3.4857042,2.4756148,-0.87819916,23.916243,-6.722117,6.942275,67.97372,-6.322613,5.126718,11.7988405
90,-1.5228550434112549,13.07869815826416,74.63469696044922,-0.7116330220727194,2.4298807858006612,81.59880326760113,18.458782,4.867374,16.800442,7.8892565,-25.681738,-10.913554,-30.177795,-5.7361474,-12.1218195,6.9626403,-6.007966,1.9959054,-17.761375,-1.3252649,13.334515,-20.685793,35.67168,-26.680883,29.128279,3.3407595,2.0093794,-0.5250149,24.182552,-6.5839405,6.548981,68.27703,-6.2824306,5.1302824,11.734307
91,-1.365768551826477,13.511621475219727,74.4350357055664,-0.5703183926206217,2.432294814853696,81.58513716096392,18.90671,4.7998714,16.862823,7.8884463,-25.980293,-11.1267605,-30.570925,-5.9099445,-12.3228655,6.9477935,-6.305405,1.5683637,-18.01105,-1.4388663,13.422637,-20.861284,36.047363,-26.699736,28.464386,3.2096405,1.5553268,-0.1815682,24.418232,-6.4485025,6.1282783,68.58734,-6.181959,5.1189346,11.607629
92,-1.216109037399292,13.957060813903809,74.23328399658203,-0.4504584854662302,2.4240454768379602,81.51033070208561,19.398008,4.744111,16.980507,7.8874865,-26.251875,-11.35823,-30.84694,-6.039168,-12.677013,6.950239,-6.460004,1.1762087,-18.205423,-1.5217309,13.519271,-20.991358,36.373856,-26.678602,27.909443,3.0902305,1.1322402,0.12867422,24.60887,-6.3286963,5.7224536,68.91799,-6.0385685,5.1106462,11.441368
93,-1.0657374858856201,14.425365447998047,74.02682495117188,-0.34681180090760705,2.386090352472163,81.36350236169461,19.958431,4.6845264,17.163992,7.885107,-26.50487,-11.602624,-30.97051,-6.1296506,-13.267857,6.9745455,-6.460565,0.86713225,-18.343204,-1.5783498,13.640373,-21.068779,36.640537,-26.603403,27.46693,2.9817662,0.7335884,0.40782085,24.755053,-6.2360067,5.3213596,69.27557,-5.827684,5.098027,11.212349
94,-0.9119535088539124,14.903155326843262,73.81639862060547,-0.25913734027020513,2.3207285047187356,81.15481494515896,20.585505,4.625718,17.40713,7.8738527,-26.740139,-11.86094,-30.958818,-6.183376,-14.012423,7.0208545,-6.318431,0.5971313,-18.42788,-1.6016209,13.783838,-21.091892,36.835457,-26.476831,27.131432,2.9033005,0.35221457,0.6666552,24.867323,-6.175157,4.9071264,69.64753,-5.5476103,5.0748076,10.921378
95,-0.7617303133010864,15.399831771850586,73.60930633544922,-0.20123540662457606,2.271656789553013,80.9001682803558,21.220343,4.5906677,17.693167,7.8623943,-26.937864,-12.145041,-30.875116,-6.182689,-14.787975,7.0886765,-6.0416074,0.2909487,-18.465542,-1.5720434,13.908202,-21.07927,36.951767,-26.31665,26.92517,2.8583543,0.0063398173,0.8945562,24.944502,-6.142253,4.5190725,70.02185,-5.246981,5.060506,10.626877
96,-0.5983028411865234,15.926295280456543,73.40154266357422,-0.18464486987397602,2.2821824696450808,80.61470376126242,21.807133,4.60215,18.006264,7.8545628,-27.07583,-12.46679,-30.786024,-6.118548,-15.469331,7.1790247,-5.632205,-0.12921207,-18.46084,-1.4776102,13.971814,-21.027811,36.997215,-26.134302,26.84684,2.853633,-0.2847809,1.0816529,24.984587,-6.1269865,4.1994514,70.38831,-4.9745855,5.0759263,10.386133
97,-0.42573282122612,16.479482650756836,73.19853973388672,-0.21021237749565058,2.3616033710240907,80.28359749164258,22.34121,4.656991,18.367996,7.849223,-27.16216,-12.83738,-31.249651,-6.1507854,-15.990315,8.550832,-5.763835,-0.7591497,-18.401028,-1.3192245,13.970193,-20.950077,36.99626,-25.939518,26.898561,2.8668768,-0.51847076,1.2138504,24.983614,-6.122621,3.9394813,70.74694,-4.7400045,5.1349254,10.198241
98,-0.23627401888370514,17.045093536376953,73.000244140625,-0.24953580779188705,2.4749257043534083,79.92547901391265,22.859985,4.7200217,18.753277,7.843449,-27.204275,-13.2417965,-32.442394,-6.3845696,-16.388845,11.689191,-6.6761713,-1.5060747,-18.307308,-1.1211408,13.936536,-20.786253,36.938053,-25.678677,27.020983,2.9297652,-0.70356405,1.2906959,24.939,-6.1311007,3.7022116,71.10165,-4.534765,5.2231765,10.034899
99,-0.043974027037620544,17.59483528137207,72.82167053222656,-0.2756159384092088,2.601709258031499,79.60105907758062,23.36773,4.7770095,19.082169,7.8378587,-27.176006,-13.654209,-33.55961,-6.6277037,-16.728628,14.747251,-7.3687263,-2.1822042,-18.23245,-0.92121977,13.86782,-20.586931,36.7983,-25.393293,27.269424,3.038738,-0.8374634,1.3395327,24.868292,-6.1591797,3.539634,71.4444,-4.3443747,5.3217645,9.914793
100,0.16362696886062622,18.149641036987305,72.65152740478516,-0.28331195792558056,2.7322372544488007,79.35105821785572,23.86289,4.836758,19.29893,7.830524,-27.049541,-14.054875,-34.568607,-6.8840594,-16.986652,17.534758,-7.7271776,-2.6067367,-18.201332,-0.7272637,13.775286,-20.377634,36.571674,-25.106112,27.648201,3.19021,-0.9164574,1.3817637,24.773037,-6.2014723,3.46658,71.76956,-4.179322,5.410396,9.857524
101,0.38957831263542175,18.728595733642578,72.49246978759766,-0.28446145912585524,2.9005310736216203,79.1866743175968,24.292633,4.9286194,19.388334,7.8449755,-26.837027,-14.444312,-35.5347,-7.163747,-17.14061,20.056238,-7.607833,-2.6821551,-18.216553,-0.5231855,13.6371565,-20.150833,36.272575,-24.82217,28.136644,3.3900435,-0.9273894,1.4069563,24.646498,-6.24723,3.4843285,72.08125,-4.0379033,5.4875736,9.882713
102,0.6377291679382324,19.33203125,72.34375762939453,-0.28732123327808795,3.103498558376488,79.07728428794529,24.679363,5.0503197,19.39048,7.859261,-26.537983,-14.833452,-36.504787,-7.4625874,-17.197548,22.491625,-7.173587,-2.5270758,-18.253977,-0.3032639,13.459378,-19.902184,35.911793,-24.537098,28.731306,3.6284451,-0.87563175,1.4082432,24.485838,-6.293891,3.5811627,72.38174,-3.9202197,5.5630436,9.973914
103,0.9078065752983093,19.960811614990234,72.2143325805664,-0.29509836821485125,3.284379649708061,78.9853804728516,25.09014,5.1505322,19.285324,7.862325,-26.140242,-15.000033,-37.40716,-7.742178,-17.178297,24.862268,-6.7382274,-2.2962558,-18.283651,-0.08332484,13.294293,-19.59024,35.48604,-24.215952,29.397738,3.9127436,-0.78337896,1.411524,24.290579,-6.3429136,3.7535832,72.66839,-3.8403232,5.6329556,10.094393
104,1.1959525346755981,20.620161056518555,72.09615325927734,-0.31219644134391344,3.3844598012069564,78.87512415858578,25.598297,5.2277756,19.133272,7.8666043,-25.640398,-15.000033,-38.159653,-7.9576206,-17.114443,27.175716,-6.611086,-2.145855,-18.279863,0.12205865,13.195268,-19.223412,34.998203,-23.854181,30.141254,4.21849,-0.6733138,1.4430045,24.060822,-6.40025,3.998287,72.93672,-3.8111126,5.6931767,10.207974
105,1.4872223138809204,21.287254333496094,71.9920425415039,-0.3151836704659564,3.402335541191023,78.77292414120512,26.209206,5.2767653,18.93173,7.862333,-25.044147,-15.000033,-38.81516,-8.148282,-16.971565,29.56065,-6.999746,-2.1437175,-18.274317,0.287769,13.158044,-18.777885,34.44152,-23.427515,30.955069,4.5821676,-0.5422996,1.5020968,23.793118,-6.4702673,4.3437757,73.188576,-3.8435574,5.737201,10.316323
106,1.7708120346069336,21.957687377929688,71.88978576660156,-0.3332214521292503,3.355002104291841,78.67101791693703,26.90549,5.3445864,18.70954,7.8569,-24.356544,-15.000033,-39.37468,-8.280434,-16.757227,31.954372,-7.69169,-2.2106824,-18.2582,0.4504406,13.174983,-18.267635,33.814762,-22.950161,31.846,4.995252,-0.38157508,1.5761902,23.486074,-6.5543065,4.784611,73.42627,-3.927092,5.7687764,10.437101
107,2.057358503341675,22.650197982788086,71.7964859008789,-0.35032008557079125,3.265244868590882,78.53788941642036,27.655775,5.4135513,18.504354,7.866046,-23.554913,-15.000033,-39.807533,-8.349397,-16.514908,34.20975,-8.415865,-2.2579367,-18.198565,0.60341626,13.21157,-17.694603,33.126648,-22.439924,32.786316,5.403287,-0.20344798,1.6741198,23.144009,-6.6479287,5.2683463,73.64709,-4.0426793,5.799258,10.557269
108,2.3568947315216064,23.3579158782959,71.70918273925781,-0.34461418172959635,3.161481585749268,78.34710121925275,28.421503,5.4554543,18.343676,7.9036913,-22.614239,-15.000033,-40.095345,-8.366533,-16.287401,36.194874,-8.910063,-2.1936166,-18.065414,0.73521584,13.228346,-17.079723,32.39632,-21.929758,33.760227,5.7341948,-0.0201346,1.8057493,22.771702,-6.745521,5.7389536,73.84647,-4.173308,5.840256,10.662929
109,2.6728157997131348,24.083171844482422,71.62718200683594,-0.32084968659448515,3.067658087520355,78.09687804559186,29.091536,5.4875436,18.223927,8.168421,-21.663103,-15.000033,-40.219612,-8.341414,-16.117521,37.822933,-9.046435,-1.8913172,-17.864735,0.85303086,13.207243,-16.399607,31.62964,-21.398016,34.75127,5.9744477,0.17422432,1.9828573,22.36203,-6.8399134,6.189403,74.02752,-4.3510084,5.9017406,10.748985
110,2.9976413249969482,24.81084442138672,71.55596160888672,-0.29260930651006034,2.967858174467403,77.79997981912118,29.335587,5.6398406,18.099174,9.428951,-21.112524,-15.000033,-40.20761,-8.269783,-15.974977,39.201763,-8.997376,-1.4371538,-17.606392,0.9623851,13.171412,-15.655785,30.827045,-20.845812,35.766083,6.150818,0.38382554,2.197021,21.913507,-6.9303546,6.6468296,74.192055,-4.574515,5.975149,10.821932
111,3.339934825897217,25.550519943237305,71.4999771118164,-0.2584009491598228,2.833481622093978,77.45659556892859,29.495136,5.824935,18.000443,10.974622,-20.529905,-15.000033,-40.101006,-8.139759,-15.806192,40.47364,-8.942807,-1.0576619,-17.274487,1.0537817,13.142604,-14.873697,29.999937,-20.318035,36.79689,6.2688694,0.5947341,2.4279857,21.437447,-7.016787,7.113411,74.33482,-4.7744675,6.0439854,10.8864155
112,3.6993589401245117,26.2857608795166,71.45343780517578,-0.22234676162290176,2.640378070416928,77.07493777172222,29.490118,6.1006775,17.90586,13.01754,-19.959408,-15.000033,-39.939606,-7.938467,-15.571717,41.768135,-9.052347,-0.979146,-16.859636,1.1261652,13.142457,-14.088245,29.168776,-19.86803,37.842552,6.321479,0.7929506,2.6560163,20.94566,-7.098262,7.5888605,74.44928,-4.883093,6.091875,10.94607
113,4.079465866088867,27.039798736572266,71.41523742675781,-0.20846815751081732,2.39152853578842,76.65895848286608,29.32337,6.4923224,17.804344,15.5701885,-19.392061,-15.000033,-39.742825,-7.6322756,-15.2697115,43.112274,-9.319432,-1.3653344,-16.368038,1.2029257,13.166416,-13.282803,28.34751,-19.515896,38.877518,6.2848845,0.99915564,2.894877,20.44584,-7.1723285,8.081868,74.53881,-4.8787804,6.1156583,11.004664
114,4.468569755554199,27.798526763916016,71.379638671875,-0.23149594981730143,2.11612377969846,76.22791658738822,29.01254,6.98072,17.678705,18.510721,-18.789507,-15.000033,-39.49259,-7.232516,-14.9581785,44.419697,-9.653012,-2.0647578,-15.828219,1.3048515,13.197424,-12.436123,27.536448,-19.229853,39.896744,6.163917,1.2130594,3.1476111,19.928919,-7.2354803,8.592509,74.60473,-4.800107,6.1236334,11.059944
115,4.873298645019531,28.56077003479004,71.34691619873047,-0.2836405015730207,1.8309548278382017,75.81443975050715,28.532372,7.5527606,17.4958,21.771675,-18.109966,-15.000033,-39.169846,-6.792221,-14.69135,45.646103,-10.098155,-2.8333168,-15.262979,1.4285649,13.23752,-11.5777445,26.736555,-18.986685,40.931797,5.99537,1.3896848,3.3786535,19.380424,-7.2905536,9.106039,74.63896,-4.666662,6.117459,11.105882
116,5.287386894226074,29.33029556274414,71.31845092773438,-0.3505502817227545,1.5470378436879997,75.44171870236096,27.86272,8.1921425,17.224478,25.294626,-17.325521,-15.000033,-38.75528,-6.365014,-14.504762,46.756275,-10.708343,-3.425528,-14.689082,1.5628085,13.292353,-10.7319565,25.94842,-18.757442,42.010857,5.8179555,1.4845899,3.5523195,18.787395,-7.3391848,9.609101,74.63248,-4.500089,6.098236,11.137737
117,5.7084736824035645,30.09682273864746,71.29730987548828,-0.4064950760448063,1.243182098757799,75.12665675104458,27.011686,8.874961,16.818659,29.095259,-16.357323,-15.000033,-38.223244,-5.9943027,-14.396243,47.78574,-11.594272,-3.7827349,-14.122626,1.6753075,13.368977,-9.882211,25.170776,-18.524065,43.146053,5.626974,1.4582573,3.6582134,18.163252,-7.372084,10.097229,74.58023,-4.2820644,6.070157,11.127261
118,6.127048492431641,30.8309383392334,71.27801513671875,-0.459754871797917,0.9196012113189854,74.84747638745806,26.006512,9.585868,16.28826,33.1406,-15.217555,-15.000033,-37.594334,-5.644202,-14.33657,48.749382,-12.70512,-4.0378084,-13.544871,1.7738836,13.461148,-9.020435,24.404806,-18.304874,44.321327,5.4085894,1.3440758,3.7154326,17.510511,-7.3872547,10.579654,74.49051,-4.009363,6.0315256,11.085109
119,6.549088001251221,31.540691375732422,71.26433563232422,-0.5449666805244024,0.6151591474600238,74.56422255047848,24.849842,10.332704,15.684287,37.335247,-14.020659,-15.000033,-36.913715,-5.249392,-14.315029,49.578835,-13.854205,-4.2314878,-12.917287,1.9037732,13.556994,-8.177524,23.65608,-18.119663,45.517677,5.188686,1.2073014,3.732507,16.797186,-7.4042125,11.066314,74.37651,-3.7242167,5.9742675,11.066687
120,6.959465980529785,32.235389709472656,71.25841522216797,-0.6702071090634917,0.3736844259404575,74.24276025502091,23.526812,11.092928,15.066015,41.600433,-12.885045,-14.8280325,-36.245983,-4.7768674,-14.30133,50.227863,-14.863208,-4.397101,-12.213508,2.0901413,13.634115,-7.374571,22.931103,-17.97855,46.708855,4.992908,1.11252,3.7173285,15.990572,-7.4508657,11.573232,74.24681,-3.4674718,5.8910995,11.131947
121,7.356222629547119,32.909576416015625,71.26667022705078,-0.7167312664677998,0.23415801093131405,73.89920567536623,21.976084,11.758483,14.529413,46.002487,-11.827719,-14.012308,-35.689564,-4.3623114,-14.198693,50.77483,-15.734751,-4.497091,-11.445004,2.237619,13.643699,-6.615129,22.23587,-17.895454,47.880062,4.8068714,1.06554,3.6719356,15.083104,-7.5331817,12.092308,74.09941,-3.2389758,5.7598424,11.330842
122,7.741397857666016,33.568359375,71.28724670410156,-0.786562077090356,0.1467687891643645,73.5237954523178,20.240551,12.4976,14.017801,50.62414,-10.836187,-13.067506,-35.134113,-3.8998828,-14.102928,51.162613,-16.529816,-4.5483727,-10.60864,2.4242184,13.639803,-5.8752284,21.56914,-17.85034,49.037563,4.623681,1.0362651,3.5908809,14.093254,-7.646685,12.626081,73.92604,-3.019513,5.592345,11.626227
123,8.129403114318848,34.220584869384766,71.31536865234375,-0.8713385560938239,0.08673069599185325,73.11723544476453,18.375605,13.2491255,13.489219,55.2503,-9.858624,-11.89201,-34.565872,-3.395103,-13.9943285,51.427418,-17.266657,-4.5747023,-9.727481,2.6236832,13.622385,-5.1339374,20.928547,-17.799301,50.191113,4.475493,1.033079,3.4709892,13.023725,-7.802876,13.220097,73.72847,-2.8155117,5.4319677,11.947883
124,8.497332572937012,34.848751068115234,71.35295867919922,-0.9627257786739721,0.030303336541043096,72.68111353080188,16.4343,13.943465,12.91349,59.657055,-8.831199,-10.400216,-33.97071,-2.8534584,-13.85264,51.603973,-17.961725,-4.598529,-8.832433,2.8134894,13.594238,-4.359709,20.309101,-17.687618,51.33871,4.397791,1.0643754,3.3075135,11.876185,-8.02162,13.925953,73.50438,-2.6327405,5.321896,12.229211
125,8.867633819580078,35.48744201660156,71.39827728271484,-1.0653873827098863,-0.025383169618649268,72.20819762159296,14.325802,14.606177,12.282009,63.958607,-7.57176,-8.245639,-33.34708,-2.265363,-13.672153,51.69742,-18.620802,-4.6240253,-7.92202,3.0019171,13.562868,-3.539261,19.701998,-17.481564,52.4611,4.42059,1.1471853,3.0710247,10.634856,-8.311633,14.790714,73.25924,-2.4549725,5.2822433,12.518521
126,9.229194641113281,36.11600875854492,71.45709991455078,-1.182552313993345,-0.06835519455995462,71.70073762493058,12.04843,15.280557,11.640495,68.214584,-6.1445537,-5.5589843,-32.699615,-1.6349168,-13.461747,51.688786,-19.233894,-4.6392736,-6.995663,3.204265,13.52497,-2.681174,19.103432,-17.201525,53.55674,4.521404,1.2708311,2.7716494,9.30389,-8.667119,15.793536,72.98413,-2.2821448,5.2880464,12.83593
127,9.586039543151855,36.74601745605469,71.52847290039062,-1.3059486939130553,-0.1002576074078092,71.17778664159974,9.76997,15.899206,11.00964,72.16783,-4.8854847,-3.0032582,-32.026325,-0.98942477,-13.227504,51.581833,-19.794971,-4.6424565,-6.0868225,3.4109623,13.4712105,-1.7882427,18.516632,-16.875275,54.649162,4.656196,1.4023151,2.4640846,7.913186,-9.082821,16.884314,72.65485,-2.1430595,5.313229,13.073185
128,9.934416770935059,37.36489486694336,71.61200714111328,-1.4202306703348246,-0.12354070003215471,70.65450031924837,7.6600356,16.343739,10.366544,75.5832,-4.1623964,-1.2890407,-31.325912,-0.35842162,-12.968615,51.381004,-20.29818,-4.631722,-5.2234497,3.6029544,13.394504,-0.86238027,17.949554,-16.53383,55.76012,4.777642,1.5096427,2.2031748,6.49224,-9.555041,18.01058,72.24644,-2.0664759,5.3311243,13.121601
129,10.279214859008789,37.98731994628906,71.71255493164062,-1.5204283550871192,-0.13957570150898294,70.12640928658928,5.818506,16.557964,9.7258625,78.39151,-4.2243733,-0.8137172,-30.600697,0.25562277,-12.678883,51.092194,-20.744293,-4.6078467,-4.400988,3.768376,13.296664,0.10221286,17.407513,-16.180973,56.89685,4.875183,1.5781933,2.0079997,5.0146565,-10.088164,19.225359,71.77457,-2.0366135,5.3253274,12.95831
130,10.610392570495605,38.6019287109375,71.83137512207031,-1.6124318807088627,-0.1477294785721401,69.58642100906349,4.131482,16.58765,9.076989,80.77633,-4.86888,-1.1536744,-29.8493,0.8642201,-12.356624,50.712963,-21.13612,-4.5715933,-3.6063478,3.9153767,13.186109,1.106698,16.889101,-15.803168,58.039932,4.969443,1.6276269,1.846045,3.4743862,-10.677524,20.541304,71.236336,-2.0449708,5.3130965,12.6423025
131,10.919534683227539,39.20133590698242,71.97135925292969,-1.6847966213512207,-0.14740429446107592,69.04171835763812,2.4597375,16.430716,8.364787,82.86115,-5.7792454,-1.8010858,-29.068403,1.4496534,-12.000096,50.24549,-21.47924,-4.5215955,-2.841825,4.0378814,13.063322,2.1384037,16.391794,-15.407724,59.17823,5.0671015,1.6779125,1.696586,1.9304974,-11.305523,21.830734,70.585625,-2.1365848,5.3178425,12.181469
132,11.23103141784668,39.80230712890625,72.13249969482422,-1.7231254932116338,-0.1374373288597074,68.49996043258086,0.6650243,16.063908,7.5243616,84.74749,-6.617471,-2.260837,-28.252363,1.9930516,-11.606151,49.68687,-21.77611,-4.45617,-2.1031728,4.124936,12.924853,3.1749966,15.914394,-15.01249,60.311775,5.1720448,1.7496736,1.5413167,0.4413692,-11.953007,22.952713,69.785255,-2.3607259,5.364953,11.578835
133,11.54061222076416,40.40415573120117,72.31198120117188,-1.715931672664122,-0.10874566095688767,67.9623806588225,-1.3142879,15.400515,6.495065,86.45276,-7.3750305,-2.4022033,-27.41155,2.4784088,-11.171069,49.04161,-22.030605,-4.371134,-1.3838032,4.157704,12.757088,4.204132,15.460766,-14.6327095,61.47523,5.25931,1.8290168,1.3892659,-1.0136498,-12.621066,23.894537,68.856895,-2.7810042,5.485921,10.795413
134,11.850794792175293,41.0103874206543,72.51333618164062,-1.6751801774865125,-0.06544963946480868,67.42445451796443,-3.3842607,14.470199,5.3435826,87.925476,-8.195362,-2.4928215,-26.54282,2.919003,-10.699553,48.30924,-22.240902,-4.2707705,-0.6812961,4.1434016,12.566716,5.2364063,15.032912,-14.260916,62.66117,5.3345947,1.9133743,1.2469207,-2.458393,-13.315894,24.716288,67.81748,-3.3561769,5.6675205,9.839824
135,12.1631498336792,41.61080551147461,72.72813415527344,-1.6222153551282106,-0.026096448571864144,66.88525228445788,-5.4509363,13.414642,4.1796694,89.14724,-8.966432,-2.6454778,-25.624554,3.3389466,-10.200477,47.48535,-22.401873,-4.165493,0.003732536,4.109853,12.377954,6.2766075,14.627254,-13.883632,63.821545,5.4468446,2.034622,1.0942845,-3.8491342,-14.027656,25.382086,66.65014,-3.9771843,5.855552,8.78152
136,12.477055549621582,42.232330322265625,72.96182250976562,-1.5752065905438841,-0.008753333614581216,66.3478518813629,-7.424661,12.382609,3.1008518,90.08699,-9.575445,-2.968874,-24.629887,3.7579758,-9.681531,46.561226,-22.510216,-4.0631795,0.67022246,4.07992,12.209947,7.3234334,14.239139,-13.49125,64.91866,5.645522,2.2233229,0.91314876,-5.146713,-14.741585,25.84821,65.35059,-4.540871,5.990705,7.6852994
137,12.793785095214844,42.849205017089844,73.20842742919922,-1.536666884837892,-0.013554125650376433,65.81229161670724,-9.306645,11.387798,2.1013207,90.7248,-9.964529,-3.5543633,-23.552877,4.179865,-9.13884,45.525852,-22.558521,-3.9567032,1.3182851,4.053734,12.057995,8.379354,13.867047,-13.063787,65.95238,5.9789615,2.5043492,0.6964291,-6.3524933,-15.4571905,26.089994,63.915432,-5.081833,6.089827,6.4893394
138,13.10312271118164,43.46931457519531,73.46611022949219,-1.497913243013385,-0.032877956305696544,65.27740387745781,-11.133565,10.374731,1.1308352,91.07513,-10.206997,-4.316132,-22.402544,4.5927544,-8.568605,44.382385,-22.549685,-3.8440888,1.9453765,4.0186543,11.911528,9.445212,13.512826,-12.607329,66.94526,6.410842,2.8542304,0.45446476,-7.4917684,-16.183327,26.134293,62.36835,-5.637396,6.175453,5.1806307
139,13.422266960144043,44.084510803222656,73.72383117675781,-1.460312659991232,-0.0722460007073007,64.74240436150566,-12.88487,9.394988,0.21084122,91.167854,-10.389478,-5.095309,-21.183058,4.9928637,-7.9776187,43.153397,-22.497679,-3.7389483,2.5505548,3.982147,11.779805,10.51812,13.177586,-12.154482,67.88751,6.8638306,3.2354476,0.19460875,-8.552547,-16.913269,26.008076,60.737373,-6.110547,6.1887574,3.8952384
140,13.745914459228516,44.71574020385742,73.98849487304688,-1.425222730784784,-0.13693774363434985,64.20685392312959,-14.541577,8.500147,-0.63734436,91.030846,-10.591101,-5.7316875,-19.895472,5.3772874,-7.37261,41.85474,-22.41245,-3.653658,3.1325338,3.9492638,11.669892,11.594429,12.864125,-11.737792,68.77251,7.260222,3.611543,-0.07318619,-9.53172,-17.632221,25.736605,59.063396,-6.409552,6.063929,2.7664976
141,14.069991111755371,45.347564697265625,74.25294494628906,-1.3937318919790325,-0.23160356937736593,63.67015781406688,-16.114336,7.686948,-1.4288651,90.664444,-10.819966,-6.173732,-18.528257,5.7475176,-6.754546,40.47487,-22.28944,-3.5878005,3.687476,3.9192195,11.582892,12.678542,12.576374,-11.335837,69.60557,7.5854206,3.991186,-0.34228346,-10.426551,-18.33103,25.280714,57.356995,-6.5503325,5.742459,1.7992284
142,14.39649772644043,45.98115539550781,74.51773834228516,-1.3643681484927117,-0.3518436452710112,63.13262295029626,-17.611446,6.941561,-2.1776545,90.05376,-11.033477,-6.50436,-17.085571,6.102083,-6.1191463,39.011654,-22.126022,-3.5315228,4.214148,3.8863664,11.512168,13.775831,12.316603,-10.934861,70.38668,7.8797045,4.388242,-0.61925673,-11.246347,-19.012398,24.638735,55.61604,-6.5784473,5.265029,0.9293478
143,14.725966453552246,46.62453842163086,74.77996063232422,-1.3340135333207106,-0.48890470151742726,62.596072173345966,-19.014708,6.2984405,-2.858348,89.202194,-11.230464,-6.76499,-15.589448,6.4331827,-5.4647527,37.48905,-21.931782,-3.4821715,4.716948,3.8521001,11.455086,14.878914,12.084624,-10.585519,71.10577,8.142845,4.7739134,-0.91244537,-12.006247,-19.67357,23.89538,53.85611,-6.43304,4.7110543,0.18867917
144,15.061174392700195,47.27751922607422,75.0363540649414,-1.299040110961357,-0.6337616445365414,62.062363775091036,-20.307524,5.7891006,-3.4428566,88.11442,-11.411609,-6.9992003,-14.066075,6.732709,-4.790743,35.93788,-21.720072,-3.437901,5.1977267,3.8169365,11.407486,15.980173,11.879641,-10.336574,71.755974,8.375758,5.119562,-1.2285084,-12.727653,-20.308058,23.137928,52.098038,-6.0531487,4.15988,-0.39060584
145,15.39724063873291,47.92865753173828,75.2846908569336,-1.2539176229246844,-0.7876735092805669,61.530306855076255,-21.475613,5.421278,-3.9074798,86.7588,-11.596422,-7.2456737,-12.50844,6.995889,-4.0877447,34.34702,-21.484238,-3.3995614,5.652042,3.778251,11.369715,17.080208,11.703022,-10.197772,72.347206,8.562681,5.4211206,-1.5662929,-13.410061,-20.906666,22.349691,50.348637,-5.3585873,3.574602,-0.77918005
146,15.731027603149414,48.59130859375,75.51998138427734,-1.2003420883017768,-0.9532607644143919,61.00019455197972,-22.533077,5.1699986,-4.271203,85.14085,-11.782256,-7.4813123,-10.911814,7.2230525,-3.3608146,32.713135,-21.224117,-3.3631618,6.0765233,3.7342653,11.341291,18.185688,11.557866,-10.139695,72.87719,8.708626,5.69668,-1.9217231,-14.056667,-21.46767,21.501257,48.61157,-4.399297,2.9305606,-0.99645627
147,16.0644474029541,49.25263214111328,75.73908996582031,-1.1446463572500272,-1.1230972625909843,60.47554501415909,-23.505255,5.0247593,-4.556953,83.31372,-11.919946,-7.642225,-9.297602,7.4161644,-2.6277122,31.060747,-20.953447,-3.321222,6.4750366,3.6876488,11.318797,19.289156,11.443679,-10.152714,73.34232,8.845707,5.936227,-2.2953715,-14.685105,-21.993658,20.655087,46.88734,-3.31137,2.3281474,-1.0856831
148,16.394664764404297,49.92071533203125,75.93912506103516,-1.0941574939295018,-1.2902203251598485,59.96016609576344,-24.417103,4.968554,-4.796119,81.3344,-11.971859,-7.675527,-7.6892505,7.57818,-1.9080518,29.41965,-20.689123,-3.2669365,6.8484306,3.6422455,11.298624,20.384789,11.356252,-10.224725,73.73636,9.006485,6.1312404,-2.6873307,-15.321206,-22.490353,19.883234,45.180916,-2.2260973,1.8676206,-1.0966403
149,16.731767654418945,50.589698791503906,76.11653900146484,-1.0452422089155815,-1.4536399868785226,59.4583478177118,-25.280237,4.988774,-4.987346,79.207695,-11.909404,-7.5458455,-6.0780716,7.703723,-1.2064065,27.770157,-20.421135,-3.1910753,7.1876698,3.5973806,11.279836,21.47565,11.293838,-10.352102,74.05909,9.192895,6.2650337,-3.1046534,-15.967818,-22.955574,19.188204,43.482594,-1.0863525,1.587806,-1.011891
150,17.069738388061523,51.262359619140625,76.27110290527344,-0.9947355111326212,-1.6165918985735475,58.96717739562205,-26.076658,5.0835876,-5.1108108,76.90615,-11.76687,-7.3007383,-4.4581866,7.7920313,-0.51497746,26.10752,-20.146458,-3.096619,7.491404,3.5518093,11.264346,22.562817,11.257047,-10.536806,74.31623,9.390416,6.346274,-3.5430582,-16.618542,-23.38609,18.541477,41.793602,0.14950022,1.4371486,-0.82088655
151,17.402915954589844,51.93520736694336,76.39899444580078,-0.9507273540925496,-1.778866196537833,58.48006878028053,-26.78821,5.260466,-5.1652813,74.43236,-11.589679,-6.9984827,-2.8539677,7.8556185,0.16759275,24.47651,-19.886375,-2.9981885,7.7722898,3.5094688,11.253163,23.636871,11.243168,-10.777966,74.51053,9.605423,6.404205,-3.9853272,-17.28497,-23.791271,17.969841,40.13253,1.3250879,1.3768338,-0.5869893
152,17.72991180419922,52.603912353515625,76.50245666503906,-0.9217877022808102,-1.9404630223362265,57.99034804223012,-27.39803,5.5270023,-5.151447,71.78775,-11.421952,-6.6981225,-1.2844112,7.907262,0.8442114,22.913292,-19.66226,-2.9124353,8.043043,3.4790099,11.248174,24.687155,11.2442,-11.07387,74.64522,9.847867,6.4678235,-4.4143257,-17.963957,-24.184952,17.494905,38.502693,2.2799,1.364683,-0.3710633
153,18.054821014404297,53.27511978149414,76.5763931274414,-0.9061080278067014,-2.098775895943972,57.49397568233805,-27.904848,5.8901587,-5.0516047,68.95396,-11.28367,-6.4022775,0.24460176,7.941841,1.5164595,21.421658,-19.47817,-2.8314276,8.306687,3.463608,11.248941,25.71034,11.255785,-11.441146,74.71261,10.149008,6.5510187,-4.842058,-18.660986,-24.576637,17.127716,36.895573,2.981491,1.4185373,-0.15641463
154,18.375965118408203,53.93955612182617,76.62109375,-0.8979888764265017,-2.254955450984868,56.99553310402752,-28.311165,6.325966,-4.862413,65.92902,-11.1503,-6.1003838,1.7411265,7.953242,2.1809952,19.989967,-19.327482,-2.7509973,8.557275,3.4622655,11.25684,26.707724,11.277705,-11.876618,74.71768,10.495716,6.635124,-5.271024,-19.364422,-24.967052,16.852688,35.29462,3.5115283,1.5508039,0.0776224
155,18.69419288635254,54.6208381652832,76.63761138916016,-0.9066788725350016,-2.4153729273243654,56.502085840693816,-28.613834,6.807511,-4.6108794,62.745026,-10.9974785,-5.823265,3.206175,7.9598894,2.8349588,18.636967,-19.215628,-2.6972413,8.791702,3.4824042,11.275819,27.67626,11.308091,-12.35285,74.68117,10.826378,6.702333,-5.668621,-20.063225,-25.358862,16.66286,33.70759,3.8916533,1.707286,0.2789748
156,19.015377044677734,55.299739837646484,76.62493133544922,-0.9421802270203335,-2.5864631167004806,56.02097018863924,-28.812407,7.313089,-4.3303885,59.433365,-10.800601,-5.5987267,4.6343365,7.981198,3.4736283,17.39528,-19.154142,-2.6944761,9.005732,3.5330873,11.309668,28.612722,11.342542,-12.840973,74.62454,11.080572,6.735482,-6.0017667,-20.740187,-25.754559,16.548273,32.137543,4.1389875,1.8331777,0.39646745
157,19.334531784057617,55.97932434082031,76.5861587524414,-1.0117827383644067,-2.770821786759965,55.56216556313387,-28.914423,7.855415,-4.021494,55.97475,-10.542027,-5.3765326,6.0416527,8.02562,4.095333,16.239557,-19.128609,-2.770518,9.190774,3.623095,11.360603,29.516193,11.380732,-13.362972,74.543106,11.235094,6.726279,-6.2584834,-21.408617,-26.157219,16.531113,30.589912,4.230849,1.9119705,0.39466766
158,19.653430938720703,56.66042709350586,76.52044677734375,-1.1107155504441817,-2.965893556344432,55.12031912453832,-28.91518,8.434087,-3.6673908,52.35188,-10.236133,-5.169082,7.425387,8.085283,4.702567,15.167894,-19.139671,-2.9052129,9.350891,3.7498786,11.427442,30.385592,11.422475,-13.925867,74.43073,11.324454,6.68647,-6.456527,-22.068502,-26.566416,16.607096,29.055914,4.166654,1.9710138,0.30977798
159,19.978111267089844,57.34027099609375,76.42939758300781,-1.2317474258913375,-3.1710231740537997,54.67898417719229,-28.800508,9.017145,-3.2802644,48.598934,-9.895259,-5.0888195,8.774644,8.153498,5.3017845,14.201997,-19.208975,-3.052381,9.501355,3.9052365,11.508741,31.219433,11.46242,-14.478315,74.30497,11.374946,6.6294885,-6.606959,-22.696598,-26.97827,16.732199,27.525629,4.0083103,2.0266197,0.19716491
160,20.308000564575195,58.03242874145508,76.31266784667969,-1.3673168257259964,-3.3852545039480932,54.22054009930681,-28.551601,9.579128,-2.8741813,44.73445,-9.523907,-5.2436585,10.072344,8.223972,5.899924,13.373861,-19.358435,-3.1674616,9.657293,4.080673,11.602923,32.01628,11.492924,-14.968514,74.184166,11.412353,6.568514,-6.720091,-23.27728,-27.386866,16.86444,26.000874,3.8170855,2.0904295,0.11196172
161,20.632205963134766,58.72793197631836,76.17232513427734,-1.524712393093853,-3.6229328343789744,53.74081666284004,-28.12349,10.133096,-2.4315252,40.65575,-9.070292,-5.709897,11.351476,8.3072,6.505477,12.646742,-19.579342,-3.2439492,9.816407,4.284076,11.719223,32.787186,11.510682,-15.405951,74.05513,11.429616,6.505405,-6.782995,-23.821987,-27.789902,17.01023,24.478386,3.5579975,2.179811,0.06368806
162,20.957870483398438,59.42732620239258,76.00137329101562,-1.7066659901654222,-3.8821838743625663,53.24540066126912,-27.521818,10.694673,-1.9496123,36.340775,-8.515709,-6.4108987,12.61424,8.404382,7.119608,12.012376,-19.86016,-3.306178,9.974333,4.520295,11.856214,33.52919,11.515454,-15.810212,73.91524,11.418142,6.4338217,-6.794265,-24.338028,-28.185944,17.186764,22.962067,3.214725,2.2826974,0.024936395
163,21.281856536865234,60.12961959838867,75.80973815917969,-1.900986728500263,-4.138632600833147,52.72958626356918,-26.79961,11.246465,-1.464912,31.917366,-7.906403,-7.225206,13.79854,8.498634,7.738572,11.541191,-20.218645,-3.3604333,10.140971,4.7744184,11.994637,34.224773,11.503201,-16.140919,73.79642,11.402486,6.3549047,-6.7809057,-24.81095,-28.573122,17.375296,21.468119,2.873379,2.3715677,-0.0057218173
164,21.612701416015625,60.8384895324707,75.60460662841797,-2.097454337650852,-4.3683917251999596,52.18812947941001,-26.013206,11.770635,-1.0130394,27.522606,-7.295539,-8.036619,14.839902,8.579759,8.3579,11.308075,-20.674904,-3.4165535,10.326113,5.0344567,12.114871,34.854847,11.467562,-16.35927,73.73311,11.406324,6.270001,-6.769484,-25.199615,-28.945835,17.546705,19.990244,2.6094215,2.419293,-0.030450435
165,21.943286895751953,61.5483512878418,75.38265228271484,-2.310996740255385,-4.571290544101861,51.60539865544863,-25.105639,12.291866,-0.5994424,22.975952,-6.647058,-8.853984,15.730451,8.676615,8.991626,11.328762,-21.240185,-3.4827962,10.54083,5.3137283,12.215728,35.434204,11.40178,-16.435131,73.714516,11.439081,6.166711,-6.7621427,-25.543036,-29.306768,17.710028,18.550709,2.4392388,2.4198182,-0.044423718
166,22.263469696044922,62.26884078979492,75.14641571044922,-2.5679384252129998,-4.773438329503457,50.97035638497688,-24.002787,12.840767,-0.18652672,18.155857,-5.8870974,-9.745356,16.530767,8.8235035,9.6625805,11.538436,-21.885143,-3.5632765,10.790822,5.6463766,12.311287,35.97241,11.301554,-16.398478,73.728645,11.486935,6.0487995,-6.744522,-25.828093,-29.655098,17.871655,17.128965,2.314536,2.3879726,-0.047763873
167,22.579191207885742,63.00141143798828,74.89659881591797,-2.873578609221153,-4.9881500694435905,50.286136173507906,-22.767656,13.4180975,0.245079,13.361951,-5.046379,-10.672697,17.278248,9.019958,10.376559,11.88718,-22.567116,-3.6610196,11.076489,6.0438366,12.407227,36.44759,11.169762,-16.291176,73.79954,11.542889,5.9414554,-6.718369,-26.059093,-29.987425,18.037865,15.766805,2.2567883,2.3259165,-0.049878847
168,22.8858642578125,63.738948822021484,74.63726043701172,-3.2055823148632308,-5.212116100025508,49.57705767053825,-21.480026,13.998792,0.70832795,8.896827,-4.1596804,-11.573379,17.976068,9.233483,11.111165,12.359137,-23.263624,-3.771658,11.379957,6.4830537,12.499265,36.831764,11.012889,-16.153341,73.95674,11.599948,5.8698335,-6.6871204,-26.156862,-30.292349,18.185158,14.433084,2.2574368,2.235978,-0.062287148
169,23.19417381286621,64.48783111572266,74.37096405029297,-3.547123425289491,-5.432046839539804,48.838881248735355,-21.192514,14.605192,0.9692974,6.889045,-4.439562,-12.448621,18.574356,9.451264,11.856237,13.036939,-24.025803,-3.8986757,11.70526,6.9467926,12.575025,37.133026,10.832674,-15.968983,74.21096,11.65256,5.8232126,-6.656955,-26.173512,-30.567888,18.32936,13.1757965,2.3604472,2.117176,-0.10252009
170,23.51755142211914,65.24761199951172,74.0994873046875,-3.870044889652437,-5.631200992720343,48.090792409427934,-21.675423,15.200856,1.0442706,6.7481384,-5.597324,-13.299747,19.04088,9.659044,12.581678,13.959048,-24.879923,-4.031336,12.032322,7.395855,12.630003,37.352814,10.628555,-15.720306,74.55167,11.706056,5.794237,-6.6257744,-26.085203,-30.811184,18.458958,11.957265,2.5373764,1.967874,-0.16245556
171,23.837982177734375,65.98847198486328,73.83320617675781,-4.096157446602414,-5.774332833485806,47.41916100477696,-22.051643,15.6274805,1.1079111,6.661181,-6.471199,-14.008924,19.360893,9.77495,13.195546,15.075603,-25.787663,-4.134949,12.288197,7.721022,12.671214,37.438145,10.415497,-15.439927,74.97638,11.769344,5.813106,-6.585412,-25.86488,-31.012558,18.549828,10.767622,2.7297533,1.7865441,-0.21676938
172,24.16288185119629,66.7144546508789,73.57623291015625,-4.157570759079414,-5.827685522725078,46.90176488211104,-22.321308,15.753432,1.1179678,6.642127,-6.879972,-14.434646,19.535778,9.718079,13.619395,16.30228,-26.696285,-4.1769543,12.415237,7.818927,12.706838,37.345787,10.225783,-15.163796,75.467224,11.847543,5.9103756,-6.5317993,-25.527369,-31.156992,18.582794,9.640104,2.8908932,1.570677,-0.23841947
173,24.48891258239746,67.40357971191406,73.3471450805664,-4.018905015545772,-5.775899141620981,46.569530651539985,-22.42877,15.529004,1.1135056,6.6828794,-6.7350645,-14.480931,19.560003,9.4410515,13.813949,17.617281,-27.631804,-4.14025,12.389471,7.6392245,12.750108,37.054024,10.066789,-14.868202,76.04287,11.923512,6.092292,-6.4577045,-25.053686,-31.24376,18.532648,8.542345,3.0162268,1.2980843,-0.21344039
174,24.82815170288086,68.10012817382812,73.14571380615234,-3.706286243290046,-5.628145478947847,46.381213782596156,-22.408241,14.998348,1.1052824,6.786791,-6.1515656,-14.249637,19.43303,8.976213,13.819895,19.05499,-28.607563,-4.038998,12.263974,7.213505,12.776114,36.624058,9.982328,-14.564855,76.659256,11.985999,6.343553,-6.3890705,-24.433186,-31.258072,18.403584,7.484924,3.1200156,0.9746919,-0.16573396
175,25.185903549194336,68.81409454345703,72.96662139892578,-3.260863571799154,-5.397080957022302,46.298700191796335,-22.362679,14.201657,1.0080142,6.931819,-5.226339,-13.900304,19.18193,8.370653,13.694718,20.59585,-29.54001,-3.8899019,12.055553,6.610353,12.77711,36.045856,9.917426,-14.2801485,77.30802,12.097646,6.6632156,-6.3203635,-23.649454,-31.233221,18.219296,6.454303,3.1929102,0.6478339,-0.1013805
176,25.5271053314209,69.51226806640625,72.82728576660156,-2.73056467650405,-5.095751264697382,46.28310382221372,-22.374268,13.222582,0.7324178,7.0700583,-4.0552225,-13.564064,18.829235,7.6774397,13.497712,22.228718,-30.342796,-3.709295,11.803212,5.8931494,12.724299,35.34468,9.873959,-14.0721445,77.9479,12.296113,7.0476065,-6.265264,-22.715563,-31.164164,18.006067,5.5001545,3.219237,0.3621783,-0.034735706
177,25.882762908935547,70.21429443359375,72.71308898925781,-2.0875419241185567,-4.673913777781561,46.360637849507995,-23.626345,11.995902,-0.1027154,9.540797,-3.7300327,-13.182268,18.342842,6.851881,13.210022,23.917376,-31.042768,-3.4768066,11.494332,5.011495,12.569814,34.51497,9.865915,-13.941887,78.58592,12.589875,7.5303874,-6.2232766,-21.609882,-31.022438,17.75626,4.589316,3.1878486,0.12498238,0.021555098
178,26.262266159057617,70.93280792236328,72.61075592041016,-1.3314631957131258,-4.153039284689429,46.53504489044517,-25.043436,10.507827,-1.1388835,12.29576,-3.154478,-12.75121,17.746752,5.88812,12.8334465,25.659037,-31.657692,-3.1909275,11.124917,3.9652,12.329089,33.580708,9.918315,-13.876256,79.20765,12.950525,8.0989895,-6.2055974,-20.379227,-30.794216,17.489004,3.7684727,3.114913,-0.088356,0.07038871
179,26.648637771606445,71.67314910888672,72.52629089355469,-0.5323720576896243,-3.6394720632635877,46.74370405769605,-26.267931,8.943427,-2.0632284,14.781512,-2.3736937,-12.381558,17.127184,4.8779,12.438432,27.499357,-32.095974,-2.890385,10.738152,2.8792634,12.075769,32.572254,10.0168495,-13.919553,79.772026,13.353257,8.6841545,-6.2259765,-19.029343,-30.50881,17.219728,3.0948725,2.9885082,-0.28032959,0.13341406
180,27.0577335357666,72.4419937133789,72.45536041259766,0.25046920136923134,-3.230989617653778,46.927877192654535,-27.16047,7.491753,-2.6357388,16.865452,-1.6642568,-12.1440325,16.554651,3.9036796,12.081559,29.493752,-32.27428,-2.6116085,10.374534,1.847377,11.878178,31.515747,10.151728,-14.107405,80.25375,13.771353,9.211655,-6.2912393,-17.584055,-30.1543,16.956808,2.6563008,2.7763407,-0.4550999,0.23927341
181,27.470436096191406,73.22805786132812,72.40007019042969,1.0422330554191224,-2.9605322616513825,47.080712187131816,-27.709091,6.159001,-2.8163674,18.584736,-1.0913699,-11.995488,16.10586,2.9373565,11.7923765,31.604902,-32.227047,-2.3188887,10.03986,0.85412425,11.7511835,30.414896,10.316188,-14.498593,80.64613,14.225728,9.716771,-6.4400816,-16.042871,-29.722233,16.722359,2.4920337,2.4901183,-0.6461977,0.4050999
182,27.87872886657715,74.01142883300781,72.37458038330078,1.8706239889162795,-2.7674906332520295,47.23573740616379,-28.035461,4.879589,-2.7626212,20.102627,-0.5783271,-11.866529,15.713401,1.9386916,11.531278,33.81944,-31.981174,-2.009723,9.707864,-0.15269703,11.652251,29.24456,10.503937,-15.055614,80.97981,14.723194,10.215343,-6.655355,-14.392806,-29.207708,16.508772,2.5458105,2.132983,-0.8420655,0.61317915
183,28.318933486938477,74.79491424560547,72.37437438964844,2.683890370572973,-2.6048317676457615,47.393564132323135,-28.191175,3.7232141,-2.5387304,21.421932,-0.16434354,-11.794792,15.224608,0.9723385,11.246466,36.240444,-31.43933,-1.7656432,9.36484,-1.139184,11.560656,28.014608,10.712064,-15.679375,81.230095,15.204176,10.639015,-6.8660407,-12.706233,-28.609177,16.310806,2.8256583,1.6780155,-0.98023635,0.8358193
184,28.76845359802246,75.5660171508789,72.39466857910156,3.4284196272060683,-2.426499797905028,47.554387529659536,-28.23563,2.7384188,-2.203528,22.532457,0.12437881,-11.845155,14.493353,0.10503553,10.886477,38.966953,-30.49892,-1.6606139,8.99535,-2.069235,11.457741,26.737667,10.941514,-16.26668,81.37261,15.610273,10.920052,-6.997155,-11.065037,-27.927803,16.126925,3.3495672,1.1004881,-0.9980704,1.046777
185,29.22593116760254,76.31536865234375,72.43073272705078,4.084691224543337,-2.1978953389983014,47.72201578329132,-28.203959,1.9493269,-1.7115681,23.396439,0.27202225,-12.057884,13.433969,-0.6161141,10.417245,42.114338,-29.08307,-1.766928,8.599608,-2.9261065,11.315158,25.393116,11.195972,-16.841002,81.409584,16.011791,11.047515,-7.0659785,-9.435568,-27.14842,15.943141,4.126765,0.36216617,-0.8822033,1.2620631
186,29.682409286499023,77.0525894165039,72.4808120727539,4.682574526376098,-1.9496444677540987,47.89618508318051,-28.073956,1.3050598,-1.0577278,24.028152,0.29310676,-12.4047575,12.14386,-1.2432442,9.863657,45.58823,-27.251373,-2.0134418,8.18021,-3.7348816,11.144725,23.986872,11.477385,-17.438307,81.35298,16.411337,11.056582,-7.096836,-7.8032193,-26.266245,15.774916,5.1597333,-0.51577085,-0.6669284,1.4931136
187,30.144071578979492,77.78385925292969,72.54081726074219,5.240294615427042,-1.7339323187425517,48.069988544628266,-27.809338,0.7335552,-0.35699096,24.466543,0.21758263,-12.857523,10.756242,-1.8518499,9.266224,49.174496,-25.103237,-2.2564116,7.7248325,-4.5128255,10.99077,22.568935,11.784179,-17.97504,81.19428,16.650265,10.952315,-7.023262,-6.234051,-25.306837,15.654166,6.4166694,-1.4822482,-0.358512,1.7053597
188,30.610239028930664,78.5149917602539,72.61100769042969,5.775214076273277,-1.6034698291365521,48.235566189570285,-27.372557,0.16817701,0.27446085,24.758371,0.07424832,-13.384067,9.400574,-2.50657,8.6777,52.677135,-22.746748,-2.3583488,7.222081,-5.2723975,10.900996,21.188536,12.110643,-18.366268,80.91622,16.575218,10.745265,-6.781553,-4.7986336,-24.315306,15.611776,7.867896,-2.4755237,0.03933681,1.860581
189,31.07213592529297,79.24887084960938,72.68168640136719,6.263945985750648,-1.5689356646876262,48.39568300166497,-26.704458,-0.37094527,0.81531537,24.823374,-0.1154498,-14.086755,8.074135,-3.185779,8.088936,56.1102,-20.049902,-2.2642207,6.6693373,-5.9793987,10.891013,19.844788,12.443313,-18.577063,80.51533,16.142466,10.391304,-6.3115263,-3.4745693,-23.318293,15.637136,9.512536,-3.4926975,0.5630941,1.9293299
190,31.533870697021484,79.9916763305664,72.75418853759766,6.700423690971293,-1.6028033206599397,48.5521011181484,-25.842888,-0.86419886,1.3241334,24.669048,-0.38121182,-14.936863,6.7200136,-3.8459475,7.489014,59.563747,-17.006708,-2.0406108,6.0717554,-6.62249,10.935534,18.513832,12.778788,-18.654325,79.9933,15.450386,9.9044695,-5.6686254,-2.2199008,-22.32277,15.718045,11.34645,-4.549984,1.2068741,1.9400159
191,31.97471809387207,80.75343322753906,72.81730651855469,7.204699319371515,-1.7082146956567157,48.71827863009882,-24.826765,-1.4883667,1.951465,24.344624,-0.6884881,-15.000033,5.3953543,-4.6147037,6.9463167,62.98658,-13.952545,-1.711734,5.4152884,-7.319412,11.037884,17.183199,13.127313,-18.649555,79.40531,14.544303,9.3351345,-4.9537864,-1.0618576,-21.348082,15.868818,13.319195,-5.6130342,1.9039395,1.936859
192,32.4181022644043,81.50194549560547,72.87110900878906,7.734885373970993,-1.8720148141926076,48.85539011366758,-23.833778,-2.1675963,2.487195,24.182768,-1.1447415,-15.000033,4.126721,-5.417567,6.5111475,66.294365,-11.162099,-1.3930773,4.7365723,-8.042893,11.177882,15.84059,13.505438,-18.616138,78.80063,13.466984,8.7347555,-4.269326,-0.025431462,-20.41854,16.099997,15.374794,-6.6429133,2.5861251,1.9590653
193,32.861328125,82.24044036865234,72.91411590576172,8.305754375427064,-2.1116795822863015,48.94522728533781,-22.900297,-2.898665,2.8926706,24.32031,-1.8280942,-15.000033,2.902066,-6.278022,6.218266,69.56102,-8.520356,-1.110063,4.052394,-8.811462,11.375236,14.499328,13.922991,-18.553043,78.16174,12.182676,8.075958,-3.6434362,0.8901444,-19.547861,16.410448,17.501175,-7.6237516,3.2801468,1.9772099
194,33.3028564453125,82.96964263916016,72.94766998291016,8.898192573592228,-2.423941266109377,48.99503212688854,-21.956598,-3.6570702,3.2025056,24.623056,-2.68865,-15.000033,1.7062837,-7.1789594,6.033973,72.798225,-5.928912,-0.8322939,3.3623748,-9.6005,11.631623,13.1647215,14.378636,-18.446257,77.45953,10.685367,7.337373,-3.036725,1.7122499,-18.737297,16.784027,19.708355,-8.567751,4.009374,1.982442
195,33.73857498168945,83.68363952636719,72.97344970703125,9.459006176170117,-2.770015897049725,49.021819424230074,-21.010502,-4.389582,3.4447012,24.988428,-3.6134794,-15.000033,0.5425291,-8.061863,5.8822994,75.87887,-3.7248075,-0.6025054,2.6635761,-10.351354,11.9098,11.81072,14.8717575,-18.328493,76.72691,9.060777,6.5823045,-2.4435418,2.4518108,-17.99244,17.20497,21.977163,-9.479199,4.6978407,2.040335
196,34.16373062133789,84.39444732666016,73.00297546386719,9.936517023483573,-3.1103537064348385,49.04574419225818,-20.072529,-5.04402,3.6450834,25.318966,-4.494963,-15.000033,-0.591887,-8.880315,5.6830263,78.686035,-2.2558677,-0.46860805,1.9525503,-11.004039,12.17487,10.409843,15.4012165,-18.238064,75.99679,7.388274,5.875223,-1.8526727,3.1275775,-17.320272,17.653364,24.280066,-10.362974,5.267927,2.214742
197,34.5836296081543,85.08941650390625,73.03890228271484,10.353556159344363,-3.4459099667959374,49.080255840141426,-19.133904,-5.643088,3.815293,25.593153,-5.311697,-15.000033,-1.6913813,-9.729434,5.4041066,81.24479,-1.7248827,-0.45569125,1.2136831,-11.580741,12.4298725,8.947888,15.975335,-18.21196,75.27267,5.549451,5.198416,-1.2701383,3.7186732,-16.735153,18.163584,26.615805,-11.195952,5.7366233,2.5349567
198,34.99896240234375,85.77178955078125,73.0838394165039,10.755255553677355,-3.796017652271939,49.121490425473574,-18.163826,-6.2478786,3.9763331,25.813282,-6.093,-14.705774,-2.7619255,-10.656327,5.101766,83.62482,-1.9284203,-0.5408445,0.44781396,-12.126848,12.696079,7.443289,16.592722,-18.227144,74.535934,3.5439956,4.5198917,-0.7038768,4.2333837,-16.23965,18.724354,28.981716,-11.978961,6.1312103,2.9597871
199,35.39970016479492,86.42617797851562,73.13832092285156,11.07247348806899,-4.144098515093304,49.147513192629546,-17.182152,-6.760004,4.081541,26.01183,-6.862427,-14.35794,-3.8339634,-11.485962,4.799988,85.76146,-2.5879042,-0.72623956,-0.3114999,-12.570711,12.963624,5.920438,17.234915,-18.222393,73.7759,1.6319156,3.901309,-0.13043149,4.730002,-15.817874,19.250416,31.358511,-12.757272,6.388152,3.4459631
200,35.81315994262695,87.0751953125,73.21318054199219,11.260489145291842,-4.475801246319241,49.14516046237676,-16.188766,-7.1229877,4.117316,26.17345,-7.616329,-14.032416,-4.933383,-12.057671,4.521018,87.58673,-3.4275799,-0.9976035,-1.039713,-12.86253,13.223326,4.395147,17.87748,-18.130663,73.00322,0.07712058,3.4043386,0.4883797,5.2642975,-15.44614,19.65793,33.736126,-13.581822,6.4438725,3.9496105
201,36.22788619995117,87.71167755126953,73.3117904663086,11.2831374004374,-4.791719335070467,49.126391347948854,-15.205599,-7.299369,4.0593867,26.337233,-8.373797,-13.742105,-6.073199,-12.323291,4.234305,89.088745,-4.5979204,-1.4481306,-1.7460257,-12.958958,13.47444,2.8278265,18.517284,-17.979893,72.2705,-1.1228343,3.0608687,1.208417,5.8359313,-15.115506,19.95591,36.15325,-14.565914,6.2076607,4.5108266
202,36.647911071777344,88.34471130371094,73.43034362792969,11.171481865169289,-5.098432027010132,49.09407103550736,-14.226726,-7.3193336,3.9258564,26.50146,-9.13368,-13.471175,-7.240813,-12.354283,3.935566,90.29962,-6.1664476,-2.040256,-2.4382281,-12.895808,13.724737,1.2153643,19.160608,-17.790724,71.577095,-2.0878785,2.8347995,2.0136948,6.4183083,-14.8280735,20.17646,38.612736,-15.650626,5.734943,5.1258154
203,37.07620620727539,88.95955657958984,73.56690216064453,10.983944799563945,-5.390341484647256,49.02248213885736,-13.21389,-7.235311,3.7743251,26.588078,-9.859448,-13.205604,-8.428924,-12.185098,3.6770406,91.22043,-7.7274537,-2.5714438,-3.0939007,-12.74171,13.974098,-0.3757081,19.79747,-17.484129,70.866325,-2.735305,2.6926312,2.8406186,7.021968,-14.57619,20.276232,41.059357,-16.631563,5.186475,5.689347
204,37.516761779785156,89.5786361694336,73.72052001953125,10.7807110443376,-5.662020018385745,48.88528967108827,-12.128177,-7.1041107,3.6611476,26.519907,-10.514852,-12.931098,-9.631138,-11.867217,3.5031466,91.851906,-8.874723,-2.8528686,-3.6927795,-12.564555,14.216344,-1.8854998,20.410873,-16.979229,70.09393,-2.980574,2.6051853,3.6260033,7.651221,-14.345954,20.215832,43.448257,-17.311872,4.7289724,6.1043773
205,37.966583251953125,90.1948013305664,73.89404296875,10.567179324399309,-5.908695333285459,48.68087548511844,-10.964085,-6.9294763,3.586124,26.272482,-11.089501,-12.644886,-10.861661,-11.407705,3.4068794,92.17416,-9.44744,-2.793029,-4.2309656,-12.365735,14.44469,-3.3241324,20.989508,-16.227243,69.27018,-2.6828141,2.6152253,4.3969917,8.316451,-14.122637,19.977505,45.79897,-17.695517,4.3528695,6.353949
206,38.40962219238281,90.80716705322266,74.08043670654297,10.316454051657427,-6.136286121245209,48.4221415686318,-9.7404995,-6.6875362,3.5279765,25.886587,-11.603041,-12.3565445,-12.11642,-10.790476,3.3590229,92.1885,-9.676344,-2.5115516,-4.71963,-12.113754,14.659105,-4.7317095,21.53942,-15.281851,68.44258,-1.9283884,2.7355094,5.1786046,9.007139,-13.904066,19.586658,48.141453,-17.876083,3.992995,6.489485
207,38.85187911987305,91.41084289550781,74.27417755126953,10.043356287497952,-6.353935571767576,48.10431466442844,-8.457146,-6.396012,3.5112495,25.38677,-12.066351,-12.070087,-13.362472,-10.040248,3.3715954,91.92807,-9.744978,-2.1407382,-5.1592026,-11.82779,14.863145,-6.0912757,22.071491,-14.217647,67.61441,-0.97119546,2.8901544,5.9016194,9.696428,-13.696965,19.067944,50.444324,-17.791191,3.7337723,6.5241313
208,39.30856704711914,92.02037811279297,74.47200775146484,9.763391149894879,-6.569890424207825,47.72232846215929,-7.1091266,-6.0733476,3.5592923,24.79121,-12.487584,-11.7901125,-14.565311,-9.181009,3.4595013,91.4253,-9.836695,-1.8138764,-5.551147,-11.52691,15.0635805,-7.3858895,22.598051,-13.112922,66.78824,-0.07009995,2.9894044,6.498108,10.359522,-13.513332,18.444712,52.668484,-17.376902,3.6579456,6.470784
209,39.77665710449219,92.63542175292969,74.67098236083984,9.479817579745683,-6.7926824593243,47.25749666944903,-5.681309,-5.7184243,3.6897721,24.096905,-12.864141,-11.512781,-15.726047,-8.155287,3.683092,90.67671,-9.973945,-1.550373,-5.875571,-11.213505,15.27437,-8.599274,23.11366,-11.913713,65.93312,0.8518827,3.0292182,6.9343376,11.001793,-13.352071,17.710768,54.81801,-16.531513,3.801065,6.2964687
210,40.24605941772461,93.24884033203125,74.86571502685547,9.187313371348429,-7.017547173901627,46.71880960031888,-4.178134,-5.3287473,3.8900812,23.293333,-13.193038,-11.241892,-16.849934,-6.9772644,4.020316,89.666016,-10.071525,-1.2879255,-6.140063,-10.878781,15.489731,-9.749302,23.615664,-10.602755,65.0605,1.8837765,3.0469317,7.2513356,11.632727,-13.209224,16.856926,56.906975,-15.315141,4.1080217,6.0019283
211,40.7220573425293,93.8591537475586,75.05941772460938,8.884966753083509,-7.234506003756491,46.142886721854964,-2.625841,-4.9192977,4.136258,22.388908,-13.480944,-10.9933195,-17.913881,-5.78213,4.363727,88.40776,-10.150426,-1.0388453,-6.382529,-10.523959,15.690901,-10.855108,24.124866,-9.312347,64.20364,2.788825,3.0180848,7.494808,12.239703,-13.097526,15.8952465,58.902435,-13.904564,4.525654,5.649836
212,41.20669937133789,94.46529388427734,75.24726104736328,8.56923217267598,-7.432988509689808,45.566200229800984,-1.0512073,-4.5029535,4.4035726,21.391632,-13.733782,-10.78184,-18.90067,-4.6985636,4.602518,86.915794,-10.229598,-0.8133015,-6.638126,-10.150713,15.863803,-11.923714,24.67013,-8.174226,63.376938,3.3291674,2.9187775,7.706082,12.820102,-13.035405,14.833302,60.7558,-12.476179,5.004527,5.309408
213,41.69655990600586,95.0661392211914,75.41738891601562,8.230303505168619,-7.622123320857112,44.97271744138661,0.5729043,-4.070311,4.7053123,20.274668,-13.947452,-10.608913,-19.793978,-3.6981173,4.7427893,85.16427,-10.322398,-0.5729112,-6.9017105,-9.753379,16.023445,-12.931029,25.260231,-7.1964946,62.55455,3.4048774,2.7206285,7.8876166,13.370254,-13.029114,13.645436,62.454746,-10.977259,5.5911727,4.9968634
214,42.19397735595703,95.67937469482422,75.58129119873047,7.870450399138689,-7.803847696144128,44.35224088021611,2.2523425,-3.6207714,5.050525,19.035383,-14.118103,-10.471609,-20.60461,-2.7326624,4.831544,83.1512,-10.4173975,-0.3274159,-7.161687,-9.3330555,16.175417,-13.875154,25.888048,-6.3189287,61.72425,3.1465805,2.4407,8.013439,13.897846,-13.073097,12.334615,64.01695,-9.342701,6.2883267,4.669336
215,42.701297760009766,96.29060363769531,75.73289489746094,7.502816185056739,-7.955704153383113,43.749548775586526,3.9180255,-3.1765375,5.406678,17.739624,-14.254579,-10.3741,-21.359137,-1.8938468,4.8149858,80.9226,-10.491381,-0.15066116,-7.444455,-8.901193,16.292269,-14.775875,26.556507,-5.553931,60.899857,2.6763496,2.1247888,8.079545,14.420224,-13.16436,10.956676,65.43266,-7.7300944,6.987221,4.319375
216,43.210968017578125,96.89671325683594,75.86592102050781,7.137499066961452,-8.055546877615228,43.20919657976209,5.5005746,-2.756846,5.738861,16.452894,-14.366913,-10.317374,-22.08425,-1.2662566,4.6354504,78.52366,-10.523583,-0.11031891,-7.7748194,-8.470214,16.347805,-15.655946,27.274973,-4.922145,60.096073,2.1082187,1.819453,8.082284,14.956973,-13.300009,9.5667925,66.68935,-6.299514,7.580772,3.950271
217,43.72245407104492,97.48960876464844,75.97935485839844,6.761808491359114,-8.096498386032776,42.741960088646,6.9956875,-2.3514574,6.0359106,15.165934,-14.444951,-10.313243,-22.78119,-0.84289896,4.2675567,75.94526,-10.489131,-0.19675498,-8.168663,-8.032835,16.337372,-16.503777,28.052744,-4.431567,59.303024,1.3751923,1.5121895,8.000728,15.504286,-13.481198,8.127035,67.79198,-5.097545,8.057759,3.5545316
218,44.2509880065918,98.09696960449219,76.07744598388672,6.370632582644295,-8.088767395588464,42.32472389477958,8.433149,-1.9502902,6.3157396,13.856496,-14.488048,-10.355037,-23.42975,-0.56899893,3.7334914,73.163475,-10.407476,-0.36724272,-8.612763,-7.5849237,16.276068,-17.31256,28.888117,-4.073231,58.51424,0.4393205,1.1887162,7.8380427,16.057793,-13.704233,6.6290483,68.74321,-4.038422,8.474103,3.1413999
219,44.7794303894043,98.68997192382812,76.15226745605469,5.985693501155452,-8.036096152735189,41.95029411028771,9.798854,-1.5714806,6.5850544,12.564811,-14.518455,-10.41365,-24.026709,-0.44909254,3.044577,70.208595,-10.322382,-0.6334028,-9.085873,-7.147609,16.167097,-18.089151,29.767202,-3.8168375,57.725674,-0.5130335,0.893339,7.6294923,16.622076,-13.955693,5.1722507,69.55554,-3.0862873,8.812283,2.7433798
220,45.318912506103516,99.27688598632812,76.20433044433594,5.6282977642943885,-7.943294188158904,41.61170125433957,11.07484,-1.2334212,6.849562,11.341056,-14.564529,-10.459775,-24.569284,-0.4866017,2.2116778,67.10881,-10.277439,-1.0072584,-9.567585,-6.740486,16.013369,-18.851988,30.678165,-3.644283,56.945217,-1.3059423,0.667613,7.4158015,17.197866,-14.222192,3.856928,70.24058,-2.2062843,9.056733,2.3906186
221,45.858829498291016,99.86072540283203,76.23416137695312,5.29710446150386,-7.8058406018871995,41.31704047047518,12.259757,-0.9352619,7.1040015,10.179544,-14.620792,-10.4828825,-25.05096,-0.715257,1.1664293,63.855236,-10.299191,-1.528135,-10.06124,-6.3631663,15.808733,-19.604141,31.621704,-3.5723624,56.172676,-1.9154834,0.52571785,7.193957,17.783913,-14.508559,2.7016425,70.80893,-1.3930937,9.179701,2.076337
222,46.40473556518555,100.44123077392578,76.24342346191406,4.981283348619385,-7.622517329512093,41.0656847707108,13.363432,-0.66623205,7.3452506,9.060364,-14.677154,-10.497006,-25.459019,-1.0858825,-0.08768954,60.43142,-10.366729,-2.146215,-10.573837,-6.0036273,15.556595,-20.347847,32.602257,-3.6124923,55.40904,-2.4335566,0.44390148,6.9502025,18.378267,-14.821967,1.654122,71.2543,-0.66640115,9.19958,1.7925128
223,46.9486083984375,101.02033996582031,76.2283706665039,4.689894824120767,-7.40167096808451,40.837503928630944,14.397634,-0.43182224,7.5812874,7.983533,-14.741931,-10.510092,-25.786964,-1.484611,-1.4259118,56.848717,-10.44627,-2.746166,-11.088982,-5.6697383,15.269979,-21.059422,33.604717,-3.7039537,54.62802,-2.8249466,0.40464592,6.709496,18.974838,-15.146304,0.7115666,71.5706,-0.02900431,9.170344,1.5655051
224,47.496421813964844,101.59270477294922,76.19478607177734,4.436707306649873,-7.15000356728456,40.612195245896935,15.130879,-0.20833296,7.8204236,7.469812,-15.094055,-10.530156,-26.037914,-1.8159336,-2.7146688,53.111294,-10.495535,-3.2276874,-11.586179,-5.3707423,14.9627285,-21.736898,34.61325,-3.8014774,53.822227,-3.0612702,0.38982582,6.50035,19.567179,-15.463093,-0.13393824,71.751495,0.5159591,9.1461735,1.4149568
225,48.04982376098633,102.15992736816406,76.13964080810547,4.2297978155126925,-6.8662970996945445,40.38921328031486,15.607046,-0.013120415,8.056358,7.417901,-15.68419,-10.549043,-26.214832,-2.0936043,-3.9741607,49.17199,-10.517856,-3.610991,-12.056948,-5.1135244,14.632595,-22.386465,35.623154,-3.9101686,52.989605,-3.085071,0.41221803,6.327529,20.159325,-15.7725315,-0.873483,71.76989,0.9457038,9.14947,1.3501205
226,48.60432052612305,102.7225112915039,76.06281280517578,4.063569812085182,-6.54661610876991,40.17850176140148,16.0358,0.1323918,8.283676,7.3735867,-16.268606,-10.565261,-26.308914,-2.3453612,-5.2584624,45.014473,-10.513607,-3.926629,-12.508814,-4.890626,14.275597,-23.021753,36.63783,-4.0595136,52.141407,-2.9293616,0.473487,6.1798596,20.753578,-16.082441,-1.5123119,71.636314,1.2683142,9.150733,1.3558549
227,49.169456481933594,103.2787094116211,75.96976470947266,3.925466708668573,-6.200572971911641,39.978860426395364,16.426212,0.24984938,8.5071125,7.343923,-16.845196,-10.5951395,-26.3135,-2.5173254,-6.4793,40.679035,-10.415664,-4.1106987,-12.949088,-4.6934185,13.903179,-23.67438,37.650803,-4.2399325,51.31473,-2.692326,0.5399711,6.0614944,21.337534,-16.38029,-2.077544,71.40165,1.523976,9.125816,1.4146776
228,49.73272705078125,103.82635498046875,75.85857391357422,3.806150780889716,-5.839830778552467,39.79006750677714,16.790657,0.357376,8.729609,7.3288393,-17.407032,-10.651766,-26.221214,-2.56859,-7.543386,36.19885,-10.151516,-4.108506,-13.36978,-4.517684,13.517256,-24.245771,38.65022,-4.402352,50.4286,-2.4563687,0.57733625,5.9795327,21.91158,-16.643812,-2.6080315,71.11931,1.750827,9.05032,1.5052012
229,50.30552291870117,104.36674499511719,75.73014831542969,3.7201198981441563,-5.445731867449352,39.62363129868837,17.104744,0.4349318,8.94409,7.3286834,-17.960775,-10.723094,-26.009542,-2.4327972,-8.370612,31.388033,-9.626309,-3.80961,-13.769573,-4.371713,13.097898,-24.744371,39.63882,-4.564205,49.481564,-2.2184484,0.5781533,5.9336004,22.486189,-16.864624,-3.1151977,70.77144,1.9243687,8.913482,1.6330408
230,50.89273452758789,104.89555358886719,75.58450317382812,3.688253465379143,-5.03026537343835,39.49264161279398,17.380823,0.45465264,9.130351,7.339954,-18.504818,-10.797058,-25.64038,-2.2015412,-9.01308,26.186163,-8.845138,-3.299381,-14.167552,-4.286255,12.660035,-25.293114,40.61296,-4.75914,48.577187,-1.9259297,0.56194717,5.9193525,23.058292,-17.04551,-3.576971,70.33254,2.0339048,8.7295475,1.8022065
231,51.49188232421875,105.4167251586914,75.42025756835938,3.715515901455967,-4.652486198441039,39.40147801635111,17.689592,0.41681215,9.268529,7.3591213,-19.02362,-10.884464,-25.089193,-2.0403168,-9.595064,20.835194,-7.8900123,-2.7849698,-14.568729,-4.277813,12.243778,-25.81154,41.567627,-4.9644217,47.65568,-1.6415356,0.53152287,5.94673,23.631233,-17.183117,-4.0031743,69.84276,2.139163,8.5126095,1.9868178
232,52.09799575805664,105.92096710205078,75.24066162109375,3.803328064911473,-4.368073404667197,39.348217731623706,18.099842,0.32672778,9.346021,7.3810053,-19.501274,-10.995733,-24.363195,-2.0516837,-10.267673,15.637305,-6.868152,-2.426613,-14.97893,-4.358653,11.893029,-26.268126,42.498386,-5.1627593,46.702774,-1.427826,0.49079806,6.0244994,24.202478,-17.274075,-4.400263,69.33936,2.2985995,8.277008,2.1605403
233,52.71221923828125,106.41632080078125,75.03815460205078,3.9508029201534693,-4.19665159084898,39.3548741533055,18.628254,0.19078276,9.345228,7.4096527,-19.943638,-11.141043,-23.34265,-2.2042882,-11.014535,10.302977,-5.685535,-2.2274013,-15.413609,-4.5385847,11.623904,-26.68171,43.407173,-5.3643293,45.730762,-1.2820787,0.44199228,6.173578,24.788233,-17.316555,-4.7677407,68.78771,2.5036912,8.027849,2.3298044
234,53.342288970947266,106.90791320800781,74.81475830078125,4.17713193809625,-4.114760036609015,39.42449903065748,19.245842,-0.020914858,9.263731,7.444529,-20.356487,-11.304528,-23.065275,-2.5869892,-11.773724,6.952574,-5.4521813,-2.0132816,-15.873043,-4.8321524,11.409236,-27.067339,44.295864,-5.5758348,44.747616,-1.1773998,0.3834416,6.3823996,25.389233,-17.310455,-5.1031084,68.177284,2.7312994,7.7575254,2.503928
235,53.995216369628906,107.40774536132812,74.58464813232422,4.434458846231815,-4.077429926735736,39.46907115196449,19.920897,-0.26437917,9.182052,7.486002,-20.730942,-11.48554,-24.029484,-3.1832268,-12.650458,6.762906,-6.6263885,-1.7517245,-16.287014,-5.170421,11.230759,-27.411594,45.149757,-5.763995,43.754467,-1.1256921,0.31259894,6.614125,25.958817,-17.261656,-5.412201,67.58992,3.0170093,7.46041,2.660144
236,54.66057586669922,107.91808319091797,74.34952545166016,4.657932117989657,-4.0307996365157654,39.38881451152095,20.615715,-0.47311822,9.198557,7.5384827,-21.063297,-11.691175,-24.79084,-3.6129766,-13.824001,6.694028,-7.4678364,-1.5268509,-16.571661,-5.4549074,11.071212,-27.67488,45.9502,-5.8889976,42.73326,-1.1483376,0.2255897,6.8367996,26.44755,-17.181171,-5.708428,67.11022,3.3962867,7.1307096,2.7762496
237,55.32227325439453,108.41995239257812,74.11190032958984,4.844732641457223,-3.965586126591658,39.16226344054076,21.317556,-0.6460871,9.341395,7.603477,-21.350891,-11.921652,-25.293156,-3.9808095,-15.513625,6.7116766,-7.9110765,-1.4116188,-16.701536,-5.674904,10.932681,-27.874403,46.690514,-5.9482183,41.689846,-1.2573056,0.12136564,7.051218,26.855936,-17.073551,-5.9981394,66.73314,3.930275,6.7369976,2.8460784
238,55.97179412841797,108.90937805175781,73.875,5.018229253491713,-3.896489641297934,38.828665046108874,22.030174,-0.8153151,9.573024,7.6780705,-21.590069,-12.1729765,-25.532505,-4.3505974,-17.566618,6.7194843,-8.0137205,-1.447991,-16.707245,-5.859892,10.814116,-28.010105,47.373173,-5.9534435,40.62716,-1.4390756,0.00082039525,7.2729745,27.208223,-16.938599,-6.2805905,66.42442,4.5833898,6.289707,2.8860514
239,56.59752655029297,109.39042663574219,73.63563537597656,5.158087950119679,-3.817901995895409,38.396043680415595,22.756182,-0.96687543,9.876643,7.7583985,-21.78166,-12.448382,-25.586159,-4.6439147,-19.541584,6.7184067,-7.8984575,-1.6979735,-16.611269,-5.9880257,10.708718,-28.04766,47.981762,-5.8757324,39.55028,-1.649607,-0.13554615,7.489947,27.486721,-16.787539,-6.5557833,66.21394,5.2470717,5.8534636,2.9067073
240,57.19358444213867,109.87309265136719,73.39351654052734,5.225010882665319,-3.723133317971368,37.864871117038305,23.499212,-1.0644563,10.248172,7.8444524,-21.92684,-12.755708,-25.56231,-4.7564135,-21.002834,6.7593293,-7.6986723,-2.190986,-16.430042,-6.007817,10.613164,-27.933388,48.492966,-5.6774726,38.45175,-1.85071,-0.2881168,7.693823,27.670038,-16.638771,-6.826206,66.13752,5.8136635,5.491313,2.916748
241,57.794368743896484,110.3695068359375,73.15152740478516,5.186426827982892,-3.609994076089955,37.16992822376655,24.279465,-1.087283,10.743854,7.939059,-22.073637,-13.119807,-25.485006,-4.5868425,-21.770248,6.9220634,-7.482782,-3.006011,-16.112246,-5.8664107,10.542332,-27.663374,48.885582,-5.3204756,37.33646,-2.033488,-0.46228132,7.879865,27.73999,-16.512524,-7.1119943,66.220436,6.2603393,5.210856,2.9146276
