unveil-humanoid-operators/unveil-humanoid-operators.github.io/feature-analysis-animation/data/feature_matrix_instances/weight_root_translate_peak_vel_walking_A030_walk_sideway_135_stop_001__A030.csv
Frame,root_translateX,root_translateY,root_translateZ,root_rotateX,root_rotateY,root_rotateZ,left_hip_pitch_joint_dof,left_hip_roll_joint_dof,left_hip_yaw_joint_dof,left_knee_joint_dof,left_ankle_pitch_joint_dof,left_ankle_roll_joint_dof,right_hip_pitch_joint_dof,right_hip_roll_joint_dof,right_hip_yaw_joint_dof,right_knee_joint_dof,right_ankle_pitch_joint_dof,right_ankle_roll_joint_dof,waist_yaw_joint_dof,waist_roll_joint_dof,waist_pitch_joint_dof,left_shoulder_pitch_joint_dof,left_shoulder_roll_joint_dof,left_shoulder_yaw_joint_dof,left_elbow_joint_dof,left_wrist_roll_joint_dof,left_wrist_pitch_joint_dof,left_wrist_yaw_joint_dof,right_shoulder_pitch_joint_dof,right_shoulder_roll_joint_dof,right_shoulder_yaw_joint_dof,right_elbow_joint_dof,right_wrist_roll_joint_dof,right_wrist_pitch_joint_dof,right_wrist_yaw_joint_dof
0,1.964056134223938,-0.17773623764514923,79.06160736083984,-0.5010699452670826,0.2793536628285058,175.22891866492884,-9.365799,2.90412,-0.6482276,16.47343,-5.99279,-1.9642215,-2.1417859,-5.2436643,-19.166922,15.211926,-11.160573,-0.68545866,-3.1224346,1.332228,13.726889,-13.016066,9.182766,-43.576504,76.38696,-12.88674,-4.659223,2.1760628,-9.300324,-15.671646,40.33404,64.881966,-1.6841477,3.0298061,-9.278828
1,1.933104157447815,-0.3094925880432129,79.01751708984375,-0.25358683563632056,0.26652361938139735,175.23363286698327,-9.271477,2.5162406,-0.52911335,16.351748,-5.973905,-1.9486473,-2.8765678,-5.8897223,-18.946438,16.89268,-11.862741,-0.5804602,-3.2271914,1.0321225,13.676255,-13.014107,9.194436,-43.742046,76.26465,-12.935893,-4.7159095,2.2178898,-9.156513,-15.687851,40.2396,64.77388,-1.6783024,3.029213,-9.298138
2,1.899653434753418,-0.4418022036552429,78.96926879882812,-0.015617169590962859,0.25299445189253866,175.24384809645494,-9.18312,2.1358397,-0.42154112,16.238403,-5.957989,-1.9372356,-3.5958955,-6.5377703,-18.755201,18.541544,-12.5578575,-0.47736713,-3.3046663,0.7342568,13.627237,-13.002208,9.23274,-43.96092,76.114235,-13.007299,-4.7699428,2.2542758,-8.993383,-15.701274,40.096798,64.66075,-1.6924207,3.02645,-9.313573
3,1.8736783266067505,-0.5761714577674866,78.91587829589844,0.2245687447825083,0.2371380253187207,175.24840394746917,-9.093976,1.7559062,-0.30800307,16.126099,-5.945206,-1.9219184,-4.329183,-7.17919,-18.483267,20.185848,-13.240486,-0.4055366,-3.401556,0.4412303,13.584801,-12.987186,9.2738905,-44.137196,75.95186,-13.059103,-4.8212295,2.2979953,-8.861572,-15.705746,39.98584,64.56513,-1.691307,3.0197947,-9.333451
4,1.8495112657546997,-0.7112624049186707,78.86003875732422,0.4817168737958356,0.21749714486810823,175.23535341298216,-8.99471,1.3663245,-0.16930869,16.00251,-5.9327035,-1.8943524,-5.103171,-7.7986765,-18.01947,21.842073,-13.897407,-0.38980785,-3.4435723,0.14115804,13.5647545,-12.984494,9.352837,-44.340694,75.73163,-13.104012,-4.8555417,2.3608232,-8.726665,-15.708966,39.821754,64.442375,-1.6919551,3.004162,-9.362399
5,1.830128788948059,-0.8436259031295776,78.79994201660156,0.7682808529206808,0.19197201027087565,175.1908566449786,-8.878755,0.95712245,0.0150200585,15.861177,-5.923228,-1.8461133,-5.9403825,-8.400795,-17.351759,23.559422,-14.53234,-0.44994903,-3.4684536,-0.17326055,13.572635,-12.978067,9.471108,-44.504173,75.42662,-13.11142,-4.8667088,2.4538007,-8.623394,-15.710381,39.654106,64.30463,-1.6748085,2.9742692,-9.406347
6,1.8159667253494263,-0.9744548201560974,78.73699951171875,1.0758012319206365,0.16255213472645624,175.12416691948394,-8.752759,0.5331671,0.23070468,15.707757,-5.915823,-1.783226,-6.8186016,-8.97688,-16.533682,25.301994,-15.141479,-0.5601775,-3.4878712,-0.49539456,13.5966835,-12.977949,9.598318,-44.630226,75.08896,-13.090094,-4.8674817,2.568496,-8.549227,-15.709511,39.49733,64.16613,-1.6396753,2.934806,-9.462439
7,1.8073433637619019,-1.1027393341064453,78.67157745361328,1.3869394761486389,0.13252198552630312,175.06026151576637,-8.626264,0.10678344,0.44240752,15.545673,-5.899812,-1.7187169,-7.693927,-9.4848175,-15.558357,26.956253,-15.699799,-0.6735121,-3.5009565,-0.8050528,13.628497,-12.99929,9.717502,-44.740597,74.76744,-13.058058,-4.8689165,2.6867743,-8.486761,-15.706646,39.34601,64.02997,-1.5977973,2.8947048,-9.518373
8,1.8044805526733398,-1.2238770723342896,78.6075439453125,1.6837593746114434,0.10502545840083084,175.0237751021936,-8.5007715,-0.30873284,0.61548835,15.362937,-5.8603997,-1.665899,-8.524252,-9.885589,-14.420881,28.416767,-16.187008,-0.7435495,-3.5108128,-1.0893402,13.66711,-13.03275,9.857439,-44.85704,74.46078,-13.037471,-4.8808174,2.7868218,-8.425268,-15.701873,39.198982,63.896076,-1.5586997,2.8624287,-9.561524
9,1.7960492372512817,-1.3353955745697021,78.5470962524414,1.9741250977486156,0.07861561300817788,175.00985914775544,-8.37658,-0.72130454,0.7550996,15.164905,-5.7960353,-1.6216401,-9.334561,-10.15674,-13.016714,29.715464,-16.593946,-0.7628883,-3.5224686,-1.3499377,13.709424,-13.092615,9.996757,-44.981674,74.19798,-13.030399,-4.915488,2.8631995,-8.371257,-15.695359,39.065212,63.76845,-1.5167143,2.840025,-9.590097
10,1.7894057035446167,-1.4383798837661743,78.49090576171875,2.2632204116587054,0.05239617361415758,175.00883646956243,-8.250223,-1.1337286,0.8753855,14.950208,-5.712039,-1.5811052,-10.1261635,-10.310036,-11.390453,30.88957,-16.93329,-0.7465513,-3.5278172,-1.5929111,13.757827,-13.178027,10.1342,-45.110336,73.96538,-13.027809,-4.9638405,2.927223,-8.323649,-15.687601,38.934433,63.642612,-1.4727974,2.8229764,-9.609941
11,1.7875382900238037,-1.5392504930496216,78.44352722167969,2.5296831839596456,0.029815737047141307,175.0385010231994,-8.131757,-1.5241051,0.95534205,14.727519,-5.614856,-1.5547416,-10.834563,-10.3761635,-9.758036,31.86827,-17.228256,-0.6890728,-3.5340025,-1.8009692,13.808163,-13.280931,10.266485,-45.222736,73.768135,-13.0250435,-5.011164,2.9860044,-8.274936,-15.677958,38.8161,63.52596,-1.4308355,2.810906,-9.622217
12,1.7907170057296753,-1.634366750717163,78.40200805664062,2.752203757590088,0.0146356659179814,175.1167255511228,-8.031201,-1.871147,0.97452325,14.506678,-5.512239,-1.5527922,-11.400877,-10.400349,-8.331618,32.5781,-17.50603,-0.59307396,-3.5511303,-1.9519583,13.850262,-13.409143,10.357388,-45.291637,73.65007,-13.012669,-5.046206,3.0485656,-8.2197275,-15.667929,38.727688,63.43251,-1.3905418,2.8038406,-9.628686
13,1.7877893447875977,-1.7174019813537598,78.36836242675781,2.931396088159512,0.009720037355690157,175.25044181538877,-7.9450746,-2.1761935,0.92740697,14.273583,-5.3977094,-1.5816493,-11.805133,-10.380856,-7.0886097,32.944916,-17.778805,-0.41847685,-3.5746796,-2.0547984,13.889349,-13.545852,10.453904,-45.338215,73.5642,-12.994088,-5.0633173,3.1162176,-8.150152,-15.652367,38.650227,63.35317,-1.3535448,2.800342,-9.6325445
14,1.7817625999450684,-1.7843899726867676,78.3408432006836,3.077368791513117,0.01216909661574856,175.42934316475544,-7.868433,-2.448681,0.82597387,14.027114,-5.2696075,-1.6341532,-12.083175,-10.316769,-5.940695,33.03451,-18.037725,-0.18602014,-3.6107981,-2.1186135,13.927353,-13.686517,10.562049,-45.356476,73.500534,-12.969994,-5.0691333,3.1842992,-8.080594,-15.627159,38.595295,63.293114,-1.3153377,2.8008049,-9.632885
15,1.7722185850143433,-1.8454535007476807,78.32281494140625,3.18513976676579,0.017197543103308312,175.64541607413665,-7.8079944,-2.6797593,0.67655605,13.7954035,-5.1420584,-1.7004713,-12.269938,-10.260019,-4.996183,32.985165,-18.275623,0.009296275,-3.6523466,-2.1346567,13.96346,-13.834472,10.652324,-45.324734,73.481735,-12.944004,-5.0629063,3.2487519,-8.012813,-15.596559,38.56786,63.25768,-1.29132,2.8066459,-9.621831
16,1.7699792385101318,-1.8891029357910156,78.3133544921875,3.2496235858393043,0.01998098716811571,175.89046198198622,-7.770939,-2.8612814,0.48606458,13.6067705,-5.0283184,-1.7708681,-12.403414,-10.258379,-4.3627286,32.933987,-18.481901,0.075922154,-3.678831,-2.092916,13.999778,-13.998161,10.695941,-45.235893,73.52838,-12.921998,-5.0431924,3.3054774,-7.9334393,-15.574294,38.556107,63.23358,-1.3002735,2.8196685,-9.589904
17,1.7663981914520264,-1.921796441078186,78.31315612792969,3.262740522356854,0.019735515696262498,176.16821550780165,-7.757405,-2.9847713,0.24977995,13.469589,-4.93334,-1.8460687,-12.480878,-10.349713,-4.1467185,32.89996,-18.673454,-0.04283994,-3.699308,-1.9902141,14.040448,-14.152298,10.730721,-45.068565,73.6093,-12.901921,-5.002077,3.344897,-7.8540087,-15.545935,38.567776,63.24339,-1.3579521,2.8433924,-9.5271225
18,1.76352059841156,-1.9461568593978882,78.31838989257812,3.229834919818737,0.01947586589404977,176.48095357520194,-7.7644844,-3.0574589,-0.032922097,13.370481,-4.8502564,-1.9301783,-12.4899,-10.501881,-4.26377,32.816166,-18.85007,-0.28476265,-3.7115293,-1.83056,14.082622,-14.3085,10.748271,-44.841442,73.735374,-12.882541,-4.9435086,3.3725092,-7.765894,-15.517041,38.5965,63.274677,-1.4521886,2.8761814,-9.440432
19,1.7654048204421997,-1.9570751190185547,78.33069610595703,3.167061281470172,0.02014463948621289,176.8183007570164,-7.7883105,-3.0961134,-0.3497822,13.293989,-4.771753,-2.0187905,-12.451703,-10.656124,-4.5359545,32.68639,-18.97236,-0.56247705,-3.7379742,-1.6386797,14.125799,-14.455116,10.754755,-44.54477,73.873505,-12.863737,-4.875074,3.3996813,-7.701272,-15.476936,38.67171,63.332413,-1.5537626,2.9085987,-9.350021
20,1.7700997591018677,-1.9567785263061523,78.3449478149414,3.09124006858635,0.022368468444203322,177.17005843992243,-7.8319845,-3.118079,-0.6885565,13.238473,-4.692609,-2.1074636,-12.390584,-10.755283,-4.784188,32.51881,-18.99965,-0.791315,-3.7736328,-1.4392854,14.167206,-14.592203,10.748748,-44.20544,74.00183,-12.855386,-4.8041205,3.4398692,-7.6700425,-15.421005,38.79327,63.407547,-1.6388059,2.9311984,-9.275975
21,1.780724287033081,-1.9432401657104492,78.36088562011719,2.997293038523591,0.023949570092229335,177.53991058475373,-7.8941393,-3.120206,-1.0567225,13.202719,-4.6117735,-2.1991465,-12.315127,-10.797137,-5.0112295,32.34728,-18.925722,-0.99767756,-3.8037155,-1.226546,14.21462,-14.726726,10.729263,-43.83059,74.12158,-12.870111,-4.7206783,3.502442,-7.6596146,-15.356655,38.942947,63.48826,-1.6921859,2.9370522,-9.223772
22,1.7935428619384766,-1.9200407266616821,78.37825012207031,2.8800388830459034,0.02578376665380368,177.9313491871714,-7.9760513,-3.0969853,-1.4575623,13.191628,-4.5328746,-2.2949746,-12.212103,-10.808815,-5.2961116,32.159264,-18.77164,-1.2114476,-3.8005283,-0.9888554,14.274831,-14.865544,10.706264,-43.44943,74.22772,-12.910935,-4.622542,3.5776906,-7.6297784,-15.312138,39.080933,63.532585,-1.7389812,2.9336622,-9.177911
23,1.8104287385940552,-1.8879128694534302,78.39839172363281,2.753102250997603,0.03316154351372115,178.33324887773864,-8.074382,-3.0595655,-1.8718576,13.192918,-4.453004,-2.3878067,-12.0726385,-10.775433,-5.5736666,31.88874,-18.531658,-1.355076,-3.8425877,-0.7458154,14.322517,-14.987456,10.665444,-42.99775,74.333145,-12.944081,-4.5359764,3.6521695,-7.6588016,-15.242688,39.309135,63.61877,-1.7869735,2.9315865,-9.139316
24,1.8372516632080078,-1.8485255241394043,78.41840362548828,2.6318157931870467,0.05152314399124321,178.73461665023567,-8.186115,-3.0200112,-2.2807863,13.195095,-4.3698387,-2.4706128,-11.889601,-10.683514,-5.776842,31.471037,-18.200813,-1.3502953,-3.853798,-0.5159519,14.357618,-15.114315,10.62812,-42.615738,74.409966,-12.9998,-4.4783735,3.7109542,-7.6817484,-15.175388,39.522587,63.670288,-1.8969569,2.9417386,-9.093292
25,1.8610066175460815,-1.7997602224349976,78.44032287597656,2.51833112902191,0.08666233789465029,179.1370434325387,-8.320021,-2.9809172,-2.6806374,13.202846,-4.2842903,-2.5325193,-11.654486,-10.501593,-5.8413773,30.838501,-17.713032,-1.1227269,-3.8573394,-0.30172008,14.37065,-15.233028,10.595661,-42.26562,74.45371,-13.07189,-4.4565005,3.7472568,-7.7198305,-15.104977,39.766632,63.702007,-2.0995834,2.9742236,-9.029637
26,1.8781914710998535,-1.7406013011932373,78.46324157714844,2.4060295536358716,0.1342820313022328,179.54492984398095,-8.474458,-2.9368773,-3.081355,13.219663,-4.196785,-2.5804439,-11.369833,-10.247534,-5.814022,30.032524,-17.092188,-0.7327268,-3.8517253,-0.09505011,14.370386,-15.342424,10.572101,-41.937576,74.46232,-13.164187,-4.45797,3.7691717,-7.7688384,-15.03461,40.034515,63.71328,-2.3687716,3.0206673,-8.954999
27,1.9008679389953613,-1.6673110723495483,78.48456573486328,2.2952716957813863,0.1845020979584293,179.95124848844773,-8.629544,-2.8859055,-3.4832726,13.2308655,-4.104339,-2.6335597,-11.053238,-9.980099,-5.7949505,29.171476,-16.466658,-0.3043093,-3.799181,0.105892844,14.376521,-15.458061,10.5637245,-41.698166,74.42329,-13.275411,-4.4761558,3.784471,-7.7847233,-14.9934225,40.246788,63.651306,-2.6469119,3.066023,-8.885107
28,1.9258018732070923,-1.5856471061706543,78.50457763671875,2.186353229924382,0.22710060413648384,-179.6509742976333,-8.76704,-2.8262866,-3.8870273,13.225338,-4.00557,-2.7111578,-10.721015,-9.756111,-5.8896875,28.370836,-15.961428,0.039242238,-3.8211539,0.29284075,14.382217,-15.535452,10.565663,-41.413723,74.343925,-13.347094,-4.5115457,3.8019404,-7.884421,-14.909382,40.540325,63.653473,-2.8205976,3.0928836,-8.854935
29,1.9521564245224,-1.4890494346618652,78.52403259277344,2.078826812150159,0.254864849468161,-179.2621797569895,-8.878621,-2.7569199,-4.29628,13.20201,-3.9014537,-2.8209853,-10.358435,-9.589925,-6.14349,27.647234,-15.619455,0.27354476,-3.806657,0.46257615,14.407162,-15.61349,10.589679,-41.234154,74.2053,-13.425744,-4.564562,3.8225827,-7.9754524,-14.819863,40.760006,63.622814,-2.907987,3.0916526,-8.863142
30,1.978283166885376,-1.3823872804641724,78.54338073730469,1.9727909251129596,0.27465775015790544,-178.87903633476546,-8.975953,-2.6789007,-4.709633,13.168153,-3.7936316,-2.9518192,-9.963697,-9.449043,-6.4960146,26.944874,-15.369534,0.46230412,-3.7844625,0.61767495,14.442625,-15.677705,10.63634,-41.109577,74.00675,-13.504066,-4.636293,3.8418493,-8.07796,-14.724706,40.95778,63.573586,-2.937192,3.0732586,-8.899164
31,2.0059685707092285,-1.2697911262512207,78.55435943603516,1.868827085821445,0.29721886225268573,-178.5028354286984,-9.0673,-2.593968,-5.1199236,13.1138735,-3.6749327,-3.0943563,-9.571603,-9.319201,-6.899797,26.26863,-15.163471,0.6156961,-3.7587306,0.7643015,14.478959,-15.730986,10.703622,-41.034893,73.76948,-13.573079,-4.7137723,3.8598971,-8.194067,-14.624145,41.139404,63.515846,-2.9304833,3.0508077,-8.9536495
32,2.029428482055664,-1.1536871194839478,78.56803131103516,1.7676049907358329,0.333523026243893,-178.1349181145604,-9.16307,-2.503891,-5.519909,13.034374,-3.5408428,-3.2393508,-9.218756,-9.187681,-7.3053503,25.62599,-14.954725,0.7421399,-3.7299256,0.90869033,14.505881,-15.779264,10.786425,-41.0066,73.51845,-13.622267,-4.784198,3.8772895,-8.324034,-14.520129,41.3067,63.459305,-2.910424,3.0373156,-9.017112
33,2.056307077407837,-1.0324020385742188,78.58253479003906,1.6760643607918753,0.39127723589766933,-177.76761251948813,-9.275621,-2.4181387,-5.9114466,12.933023,-3.3841183,-3.3692973,-8.924297,-9.06585,-7.714495,25.037777,-14.754831,0.83346176,-3.70119,1.044782,14.512148,-15.832025,10.883226,-41.05176,73.25348,-13.651247,-4.846452,3.892768,-8.4630785,-14.412477,41.45096,63.398857,-2.8707435,3.0346818,-9.094077
34,2.092426061630249,-0.9040024280548096,78.60354614257812,1.5915234504859608,0.4629491556386913,-177.40296879148906,-9.39715,-2.3323724,-6.297066,12.812161,-3.2097054,-3.49409,-8.66627,-8.955832,-8.149007,24.494797,-14.581256,0.88833004,-3.6697605,1.1722982,14.505388,-15.885797,10.993016,-41.16197,72.967354,-13.662213,-4.9067283,3.906812,-8.610929,-14.3012905,41.57106,63.331554,-2.8053443,3.0364444,-9.187215
35,2.128002882003784,-0.7747094631195068,78.62652587890625,1.5009446696096584,0.5367594097660382,-177.05693729792395,-9.504347,-2.2279692,-6.671047,12.659493,-3.0287368,-3.6456065,-8.421313,-8.833944,-8.587897,23.961874,-14.398999,0.9246905,-3.627723,1.307956,14.504251,-15.930336,11.10928,-41.29046,72.67878,-13.659774,-4.964145,3.922767,-8.775108,-14.189505,41.68727,63.266994,-2.7302232,3.0430934,-9.28415
36,2.1690833568573,-0.6469027400016785,78.65351867675781,1.390436923163715,0.6006765342877066,-176.7455519512659,-9.575939,-2.0861213,-7.0274744,12.466749,-2.8545022,-3.8555758,-8.165289,-8.675976,-9.009991,23.400337,-14.170954,0.9598536,-3.568249,1.4698803,14.526633,-15.957406,11.222281,-41.38867,72.41064,-13.648725,-5.0184727,3.9442108,-8.9637,-14.082193,41.8223,63.21572,-2.6597514,3.0554035,-9.372321
37,2.210437059402466,-0.5142015814781189,78.68436431884766,1.2533970088149284,0.6563226667816443,-176.47087931764628,-9.620356,-1.9023288,-7.372081,12.239917,-2.675363,-4.1010346,-7.89741,-8.475274,-9.4157,22.79651,-13.878473,0.99608463,-3.4883034,1.6703507,14.5758705,-15.970472,11.324439,-41.446346,72.165764,-13.619761,-5.072078,3.9767451,-9.178179,-13.9833145,41.967865,63.17875,-2.6030285,3.0772152,-9.45026
38,2.253946304321289,-0.3870684504508972,78.71566772460938,1.0975293952303253,0.7085727317659493,-176.22521740547793,-9.646045,-1.6860504,-7.705562,11.98364,-2.4908493,-4.3754997,-7.6295915,-8.245824,-9.813284,22.170273,-13.543727,1.0239239,-3.391521,1.9003903,14.641462,-15.978852,11.413138,-41.491177,71.944786,-13.57685,-5.125643,4.0176826,-9.411758,-13.894503,42.117924,63.148304,-2.5491567,3.107319,-9.523751
39,2.3031792640686035,-0.25864464044570923,78.74781799316406,0.9309059866045982,0.7500439394407632,-176.00955770192297,-9.625309,-1.4383012,-8.014368,11.670863,-2.3215334,-4.7354755,-7.3597965,-7.995149,-10.192368,21.540382,-13.193516,1.043329,-3.2815077,2.14575,14.721276,-15.977862,11.485556,-41.516262,71.76245,-13.527879,-5.1751137,4.0577855,-9.656465,-13.816767,42.29504,63.117516,-2.4863634,3.1390748,-9.591045
40,2.349851369857788,-0.13424411416053772,78.77599334716797,0.7608651524078563,0.7736056571500594,-175.82489824308402,-9.531783,-1.1586546,-8.284406,11.277443,-2.188967,-5.237888,-7.077117,-7.727455,-10.544273,20.909517,-12.851502,1.0542687,-3.1536064,2.3975365,14.813701,-15.975356,11.527112,-41.52823,71.64735,-13.486952,-5.2176337,4.088487,-9.890889,-13.76556,42.511814,63.061337,-2.4042618,3.1666372,-9.648769
41,2.3945841789245605,-0.013138196431100368,78.80023193359375,0.5788399017165684,0.7761779570739532,-175.68169620239115,-9.317472,-0.8221014,-8.507002,10.714232,-2.070323,-5.978295,-6.7765136,-7.4305444,-10.8684225,20.269897,-12.507466,1.0627868,-3.028857,2.6592853,14.922031,-15.938579,11.56195,-41.488712,71.57403,-13.434995,-5.25225,4.1121693,-10.154908,-13.709383,42.815735,63.028423,-2.2854855,3.192474,-9.702589
42,2.4366822242736816,0.11317316442728043,78.81902313232422,0.38180980605955483,0.7614588030601398,-175.57575225991565,-9.008892,-0.4328818,-8.687477,10.015871,-1.9563183,-6.900965,-6.4577823,-7.1028643,-11.16984,19.609468,-12.149311,1.0660629,-2.865518,2.9425073,15.047361,-15.90398,11.570148,-41.45316,71.56039,-13.384335,-5.281261,4.132785,-10.407302,-13.680532,43.13658,62.97139,-2.1529644,3.2191381,-9.74705
43,2.4782347679138184,0.2432323545217514,78.8321762084961,0.18794131049111862,0.7326438224573433,-175.48637401115113,-8.684205,-0.037944485,-8.83231,9.331677,-1.8833684,-7.8352647,-6.139895,-6.7716618,-11.445164,18.972675,-11.810238,1.0519255,-2.7293363,3.2166412,15.176051,-15.84548,11.564288,-41.368984,71.589424,-13.344079,-5.3021364,4.1388993,-10.671943,-13.651376,43.527866,62.918182,-2.0028405,3.2366195,-9.784404
44,2.5223941802978516,0.3710704445838928,78.84246826171875,0.018476516203506377,0.6927221706213599,-175.39310510659521,-8.436065,0.3101803,-8.950411,8.844887,-1.9099985,-8.609152,-5.839495,-6.4662247,-11.691548,18.40124,-11.521294,1.0092922,-2.6037953,3.4498377,15.299087,-15.788002,11.543824,-41.28692,71.669624,-13.353288,-5.3112884,4.120038,-10.917788,-13.625464,43.931824,62.842724,-1.8631322,3.233953,-9.8082075
45,2.561352491378784,0.49851247668266296,78.8515853881836,-0.12175033285562345,0.6375557216330108,-175.29675031910742,-8.256377,0.60651344,-9.053133,8.549012,-2.0493557,-9.224051,-5.560553,-6.188095,-11.901617,17.915764,-11.300386,0.9283933,-2.473609,3.6351085,15.420603,-15.735891,11.512722,-41.221478,71.80107,-13.440899,-5.307449,4.0714664,-11.133724,-13.606151,44.33985,62.728394,-1.7445592,3.20509,-9.811657
46,2.597501039505005,0.6275616884231567,78.8581771850586,-0.24196900850175984,0.5675662481301178,-175.2060256726398,-8.119354,0.8722608,-9.132981,8.392692,-2.286797,-9.755555,-5.2940106,-5.9252687,-12.0799675,17.493147,-11.128262,0.81875205,-2.3603182,3.7879581,15.541733,-15.676658,11.462491,-41.13249,71.98778,-13.575208,-5.2935266,3.9999967,-11.344771,-13.586858,44.794422,62.60232,-1.626277,3.1571112,-9.80131
47,2.6306607723236084,0.749049723148346,78.86210632324219,-0.33893821014431474,0.492231549867766,-175.11249779801665,-8.059808,1.095971,-9.174341,8.427684,-2.60873,-10.141789,-5.046681,-5.691586,-12.240636,17.130476,-10.991361,0.6988976,-2.262558,3.9043865,15.6542015,-15.617766,11.39269,-41.04184,72.22653,-13.721359,-5.2693105,3.911664,-11.54267,-13.567396,45.253185,62.46622,-1.5101299,3.098123,-9.785781
48,2.6557278633117676,0.8677906394004822,78.86779022216797,-0.4105470744527013,0.42120396040500946,-175.0078034967872,-8.117478,1.2662573,-9.164412,8.716114,-3.0070596,-10.32089,-4.825801,-5.5002894,-12.3979645,16.825134,-10.876538,0.58700895,-2.1863766,3.9800005,15.751244,-15.55842,11.3130455,-40.96697,72.50167,-13.847405,-5.233774,3.8118465,-11.720882,-13.548944,45.680756,62.319653,-1.398778,3.0367332,-9.774258
49,2.6798903942108154,0.9879875779151917,78.87142944335938,-0.4540270591000922,0.3573765564422998,-174.88009598037198,-8.322303,1.3652712,-9.16141,9.278482,-3.5051389,-10.227019,-4.636636,-5.3582544,-12.560514,16.586529,-10.7845745,0.48109913,-2.1434283,4.011226,15.832306,-15.498209,11.223836,-40.89203,72.81686,-13.94024,-5.182819,3.6973016,-11.889003,-13.530245,46.094227,62.163425,-1.2746221,2.9705684,-9.770859
50,2.699127435684204,1.1026092767715454,78.875732421875,-0.47492176228167193,0.295501721972774,-174.73717019954768,-8.641953,1.4095386,-9.157735,10.071393,-4.09923,-9.9092045,-4.4728765,-5.253261,-12.721203,16.41251,-10.721655,0.37363532,-2.1287432,4.0043674,15.901139,-15.436687,11.121831,-40.814495,73.17653,-14.020029,-5.1181564,3.5667546,-12.048461,-13.509521,46.503338,61.999638,-1.1447401,2.8965774,-9.770235
51,2.7185916900634766,1.210381031036377,78.88497924804688,-0.484027593787527,0.2324116265315407,-174.59996472278985,-9.016612,1.4448159,-9.04134,11.046746,-4.7320805,-9.476697,-4.3179946,-5.1672573,-12.871499,16.268822,-10.6762295,0.273538,-2.1296082,3.9689662,15.961014,-15.358436,11.024089,-40.75409,73.54673,-14.091696,-5.0459085,3.4268563,-12.189223,-13.488378,46.878033,61.828938,-1.0345404,2.822224,-9.76774
52,2.733522891998291,1.3091938495635986,78.89585876464844,-0.49137411102284156,0.16455824096556318,-174.48980894607695,-9.395098,1.5192957,-8.698829,12.176382,-5.3553133,-9.036279,-4.1650834,-5.0856457,-13.001102,16.140787,-10.641185,0.18991967,-2.1544669,3.920117,16.007053,-15.260199,10.906541,-40.694717,73.939415,-14.1426525,-4.977241,3.287267,-12.314844,-13.455991,47.216293,61.680252,-0.9640343,2.7553318,-9.762162
53,2.73987078666687,1.3992011547088623,78.90547180175781,-0.506158183962843,0.08822625518124809,-174.40611328112215,-9.766402,1.7024088,-7.941406,13.490799,-5.9925694,-8.663127,-4.0026827,-4.995802,-13.11693,16.01115,-10.611144,0.122439206,-2.1939814,3.8605628,16.047075,-15.135524,10.786235,-40.648518,74.33896,-14.168608,-4.9105225,3.1515255,-12.419494,-13.413279,47.495934,61.54096,-0.9523,2.6925786,-9.743937
54,2.734525203704834,1.4878655672073364,78.90987396240234,-0.5254122722472047,0.00562576579272565,-174.3400505186671,-10.15992,1.9766535,-6.889664,15.007074,-6.6675425,-8.273862,-3.8370469,-4.903257,-13.222133,15.891286,-10.589199,0.06595466,-2.254632,3.787331,16.079662,-14.98775,10.663146,-40.609188,74.754395,-14.173662,-4.844865,3.0136974,-12.511191,-13.359566,47.73488,61.413895,-0.98220354,2.6314178,-9.717913
55,2.7248616218566895,1.5678770542144775,78.91081237792969,-0.5433134775708961,-0.07916044157832097,-174.30107853921638,-10.560158,2.2528796,-5.8901343,16.618746,-7.3126,-7.7451735,-3.6736379,-4.8135767,-13.301802,15.780815,-10.572922,0.020746201,-2.323967,3.7020772,16.095686,-14.818395,10.537472,-40.596504,75.1706,-14.182375,-4.7769976,2.8682163,-12.583326,-13.293456,47.930805,61.307644,-1.035037,2.5799143,-9.699059
56,2.704023838043213,1.640791416168213,78.9136734008789,-0.5543209708409705,-0.16216613147408507,-174.29887343671362,-10.942544,2.419413,-5.280453,18.190248,-7.8466225,-6.9670105,-3.5193515,-4.731771,-13.340609,15.683095,-10.561585,-0.013578997,-2.388715,3.6066291,16.086313,-14.633724,10.408833,-40.63835,75.58373,-14.227334,-4.7104983,2.707963,-12.633898,-13.2144785,48.085464,61.234795,-1.0876284,2.545934,-9.702232
57,2.6770780086517334,1.7015546560287476,78.916259765625,-0.553113198955919,-0.24820529002997113,-174.33171478097606,-11.371698,2.3769662,-5.2223525,19.888529,-8.235774,-5.748781,-3.3756032,-4.6671557,-13.338909,15.613917,-10.563927,-0.0333433,-2.4505348,3.4927156,16.054499,-14.435481,10.276637,-40.74346,76.00593,-14.337503,-4.6462064,2.532543,-12.658011,-13.120972,48.190796,61.192215,-1.1453207,2.53516,-9.739675
58,2.6439168453216553,1.7532970905303955,78.92051696777344,-0.5516903819762913,-0.3393014776451692,-174.3971875001591,-11.822865,2.1893957,-5.4948726,21.688225,-8.487757,-4.218939,-3.2318215,-4.603307,-13.304735,15.554551,-10.571526,-0.042000666,-2.513174,3.37037,16.003828,-14.22038,10.14015,-40.896652,76.43773,-14.488174,-4.5826817,2.3452332,-12.660038,-13.013187,48.249294,61.18025,-1.2162834,2.5419471,-9.80045
59,2.6012797355651855,1.792869210243225,78.92413330078125,-0.5559669704995643,-0.4250797026810841,-174.50244585710877,-12.152654,1.967657,-5.8599405,23.188591,-8.605206,-2.7448404,-3.0878446,-4.527018,-13.232819,15.476889,-10.5679,-0.04490265,-2.5667539,3.2545276,15.925852,-13.989338,9.999404,-41.09454,76.855576,-14.635982,-4.518827,2.1447942,-12.642767,-12.892167,48.270992,61.202133,-1.2866305,2.5579033,-9.865242
60,2.544238805770874,1.8262639045715332,78.92280578613281,-0.5609212930544955,-0.49281409570510637,-174.65323820257683,-12.244204,1.8288724,-6.0960193,24.0394,-8.645342,-1.6777543,-2.9528964,-4.4408307,-13.115524,15.369657,-10.544657,-0.045018367,-2.6025522,3.147912,15.80991,-13.741622,9.854945,-41.325138,77.234604,-14.727902,-4.453721,1.9298165,-12.611589,-12.760792,48.26727,61.265133,-1.3411436,2.5742834,-9.915012
61,2.474888563156128,1.8546034097671509,78.92239379882812,-0.5500558420560682,-0.5398220604840364,-174.8651836404727,-12.028054,1.7923491,-6.1816325,24.043165,-8.625883,-1.146283,-2.8398924,-4.3623557,-12.93123,15.2508745,-10.507441,-0.038250867,-2.6097531,3.0327954,15.649375,-13.474788,9.708474,-41.605583,77.5748,-14.766003,-4.3878117,1.6817515,-12.562679,-12.619094,48.244675,61.36924,-1.365413,2.5863423,-9.952448
62,2.397714614868164,1.8709537982940674,78.92759704589844,-0.5203367715576548,-0.5707032235831943,-175.1293761314591,-11.59956,1.7922091,-6.227103,23.461084,-8.544771,-0.94421554,-2.7492852,-4.299792,-12.687893,15.13634,-10.466315,-0.022466013,-2.5967205,2.9019508,15.449636,-13.189881,9.561059,-41.932682,77.88659,-14.769725,-4.321681,1.4071041,-12.494952,-12.467058,48.196167,61.5109,-1.371048,2.599616,-9.985299
63,2.309753179550171,1.8755005598068237,78.94467163085938,-0.4870094548604506,-0.5832310960035207,-175.41425321087402,-11.08983,1.8258871,-6.218931,22.63175,-8.445836,-0.915607,-2.6714063,-4.241471,-12.422972,15.007727,-10.418174,-0.003306566,-2.584273,2.7757955,15.219189,-12.896307,9.412662,-42.28204,78.16259,-14.731344,-4.255562,1.141501,-12.413654,-12.306617,48.111786,61.68054,-1.3814746,2.6211274,-10.001954
64,2.2280399799346924,1.8670085668563843,78.96511840820312,-0.46681774206936544,-0.5759803799952664,-175.68829429999974,-10.623876,1.8905193,-6.141677,21.880733,-8.370201,-0.90733,-2.5968251,-4.1749516,-12.173787,14.846974,-10.359542,0.0134915225,-2.5929496,2.67677,14.966845,-12.602011,9.262329,-42.624966,78.393616,-14.638721,-4.189319,0.92067474,-12.32225,-12.141115,47.98129,61.866627,-1.42125,2.6580255,-9.991026
65,2.1262612342834473,1.8463226556777954,78.98048400878906,-0.4691506238332895,-0.5435498272113504,-175.96209290311666,-10.215321,2.0056117,-5.956001,21.250677,-8.336297,-0.9215061,-2.5264509,-4.088027,-11.935134,14.641292,-10.286733,0.025409002,-2.6224904,2.6190271,14.681945,-12.293746,9.107512,-42.95017,78.56995,-14.469931,-4.1196804,0.74481213,-12.21693,-11.973267,47.799904,62.071724,-1.5143703,2.7162673,-9.939766
66,2.027695894241333,1.8283840417861938,78.98687744140625,-0.4849909578381706,-0.48864705179384577,-176.2462652640723,-9.797624,2.1637003,-5.6808095,20.570143,-8.313306,-1.0305427,-2.46422,-3.9894967,-11.692104,14.403108,-10.202231,0.03562156,-2.6636329,2.5902417,14.364314,-11.974784,8.947522,-43.278324,78.70115,-14.241774,-4.0482163,0.59778243,-12.0943,-11.804099,47.573715,62.295647,-1.6431116,2.7909417,-9.857173
67,1.9326939582824707,1.80814528465271,78.99274444580078,-0.5029941167404158,-0.4220458746623656,-176.50921855806504,-9.38827,2.3227158,-5.388662,19.870756,-8.275513,-1.1846105,-2.400965,-3.8963068,-11.468264,14.144847,-10.10935,0.046672553,-2.721898,2.5734074,14.039017,-11.673672,8.784415,-43.613743,78.803276,-13.984281,-3.9821699,0.49100852,-11.961427,-11.634706,47.31089,62.522606,-1.7637625,2.8727067,-9.764177
68,1.8496582508087158,1.7835372686386108,79.00213623046875,-0.5108612126705889,-0.35380661575951056,-176.71922405359263,-9.006297,2.4431522,-5.153262,19.186768,-8.199443,-1.3293868,-2.3289802,-3.8261526,-11.287645,13.880985,-10.012371,0.061906256,-2.8045292,2.5501413,13.731237,-11.41736,8.622571,-43.957058,78.889854,-13.725855,-3.9279861,0.43601644,-11.826884,-11.46675,47.02089,62.738213,-1.8321682,2.9525595,-9.682138
69,1.770081877708435,1.7600934505462646,79.01292419433594,-0.5052759347618149,-0.2776671544919138,-176.87207603063968,-8.652397,2.5225816,-4.9870143,18.499485,-8.072116,-1.4635656,-2.254964,-3.7826345,-11.150255,13.610478,-9.908047,0.08401729,-2.9200969,2.5174377,13.437295,-11.199689,8.46535,-44.309822,78.95134,-13.482562,-3.8980422,0.43250683,-11.688619,-11.300032,46.697544,62.933067,-1.8477628,3.0339892,-9.613681
70,1.688712239265442,1.740561842918396,79.02696228027344,-0.4928969253150798,-0.19101023924671703,-176.98320275673296,-8.320722,2.5822928,-4.8545103,17.805227,-7.9099283,-1.6081203,-2.1795635,-3.7562287,-11.045883,13.325682,-9.79494,0.1112175,-3.0629222,2.4843082,13.147736,-11.0076275,8.3139105,-44.668354,78.979126,-13.23417,-3.8840275,0.4756006,-11.543972,-11.134843,46.340034,63.11577,-1.8295088,3.1199162,-9.548545
71,1.6142292022705078,1.7180399894714355,79.0433578491211,-0.4759653662852415,-0.10963826153089148,-177.04993047569556,-8.016904,2.6200285,-4.7585497,17.151558,-7.7370586,-1.7400858,-2.0895884,-3.7454019,-10.981014,13.037462,-9.682434,0.13764822,-3.2199123,2.4509113,12.880264,-10.859025,8.169911,-45.035503,78.987946,-12.966638,-3.8624828,0.56940436,-11.394029,-10.972347,45.962692,63.290386,-1.7661102,3.2009943,-9.488573
72,1.5410579442977905,1.6977403163909912,79.0618896484375,-0.45666307423987923,-0.048961019496988986,-177.0696359827058,-7.7459397,2.6326308,-4.7014756,16.584427,-7.5756483,-1.8378736,-1.9722561,-3.748298,-10.961591,12.757391,-9.580481,0.15704706,-3.3787282,2.416833,12.652564,-10.771683,8.035386,-45.414574,78.992195,-12.666383,-3.80941,0.7180289,-11.24142,-10.815159,45.580536,63.462788,-1.6461883,3.2676172,-9.435709
73,1.4727178812026978,1.6808549165725708,79.0810317993164,-0.42873482843399446,-0.014322350988804125,-177.0305725630722,-7.507618,2.608156,-4.6874146,16.10908,-7.418277,-1.8911185,-1.8228809,-3.774689,-10.9994545,12.493479,-9.495438,0.1688715,-3.5483556,2.3710217,12.474913,-10.750785,7.9123373,-45.81203,78.98588,-12.282283,-3.6976323,0.97952527,-11.081844,-10.664075,45.17507,63.619663,-1.4422233,3.3154795,-9.3898735
74,1.413488745689392,1.6636189222335815,79.09784698486328,-0.39326995397059783,0.002862698910142395,-176.9375840289197,-7.300105,2.553054,-4.7143297,15.703656,-7.257626,-1.912646,-1.6480359,-3.8212478,-11.088098,12.236804,-9.420085,0.17611404,-3.731578,2.317022,12.337041,-10.785899,7.8014407,-46.22618,78.96152,-11.840444,-3.544886,1.3318404,-10.914136,-10.519334,44.745422,63.75975,-1.1686515,3.3504484,-9.350098
75,1.3611781597137451,1.6468921899795532,79.11203002929688,-0.3648741860532641,0.007166479014538807,-176.81307417263628,-7.1289177,2.4906583,-4.7752824,15.379902,-7.118843,-1.9172451,-1.4505599,-3.8655598,-11.208948,11.970457,-9.342549,0.1800556,-3.907187,2.2774122,12.226669,-10.868667,7.7017756,-46.640724,78.92851,-11.435501,-3.3958886,1.6593342,-10.746841,-10.383355,44.33596,63.90579,-0.8736457,3.3782725,-9.316664
76,1.3139621019363403,1.6254022121429443,79.12295532226562,-0.358483754706413,0.0033106241816391593,-176.67931357079635,-6.9994273,2.443745,-4.8631186,15.151709,-7.0287166,-1.9204551,-1.2293938,-3.8839579,-11.343758,11.669848,-9.248945,0.1817886,-4.055009,2.2760735,12.132521,-10.991901,7.611723,-47.039513,78.896805,-11.1630535,-3.298267,1.8476455,-10.588476,-10.258927,43.99269,64.0777,-0.60370916,3.4050245,-9.290069
77,1.2684463262557983,1.599894642829895,79.13176727294922,-0.37607014746103273,-0.009029026042091272,-176.52798505748098,-6.916817,2.40879,-4.989964,15.026914,-6.99094,-1.9228337,-0.9890605,-3.8781047,-11.500354,11.349896,-9.1459055,0.18134342,-4.176451,2.317924,12.054777,-11.162258,7.5297203,-47.416798,78.88025,-11.0646515,-3.2766867,1.8600106,-10.43845,-10.14992,43.716743,64.279625,-0.33726203,3.425779,-9.279213
78,1.227529764175415,1.5771510601043701,79.13603973388672,-0.4119644836985829,-0.03185690611438952,-176.3515991821611,-6.876335,2.3775651,-5.155401,14.997003,-6.992863,-1.9185812,-0.72111166,-3.8540492,-11.685332,11.000958,-9.030415,0.17824014,-4.2812977,2.3930657,11.999716,-11.380892,7.4550767,-47.779423,78.86948,-11.082571,-3.3033438,1.7602082,-10.292397,-10.057908,43.488686,64.49783,-0.05947457,3.4397027,-9.280762
79,1.1912068128585815,1.5582598447799683,79.13941955566406,-0.46262691312526344,-0.06296106630553197,-176.1748111230263,-6.865166,2.358505,-5.329894,15.040841,-7.0303025,-1.9124817,-0.4404243,-3.8101919,-11.873207,10.63644,-8.90459,0.17414594,-4.360989,2.4955008,11.962835,-11.6321535,7.388054,-48.132168,78.84047,-11.164263,-3.3479414,1.5852253,-10.156554,-9.981348,43.324398,64.73111,0.17300951,3.4586008,-9.277052
80,1.1619161367416382,1.5387166738510132,79.1363754272461,-0.4955519973214531,-0.0953454309283509,-176.02895166540998,-6.860826,2.331308,-5.467189,15.108446,-7.0835557,-1.9041817,-0.32486013,-3.8117998,-12.015399,10.60793,-8.946591,0.17661323,-4.402539,2.5887249,11.93139,-11.896812,7.332969,-48.475655,78.766914,-11.2542715,-3.380286,1.3714745,-10.037596,-9.918209,43.24321,64.9801,0.30449593,3.494715,-9.250709
81,1.1364179849624634,1.5214999914169312,79.12928009033203,-0.5471203035996082,-0.12992022688864036,-175.91245927379285,-6.8802304,2.3344038,-5.581768,15.236742,-7.1739497,-1.9004982,-0.21135576,-3.7818837,-12.132634,10.564117,-8.971936,0.1780984,-4.4336505,2.7151816,11.918297,-12.164756,7.3075557,-48.79454,78.61569,-11.354334,-3.400311,1.0978501,-9.941814,-9.883701,43.28354,65.23902,0.30315235,3.5544353,-9.1941185
82,1.1133183240890503,1.5028835535049438,79.11956024169922,-0.6113631047513475,-0.16862575143195643,-175.8133984385475,-6.9294004,2.3558152,-5.68545,15.437521,-7.303853,-1.8986591,-0.09449071,-3.7296698,-12.235366,10.506041,-8.984057,0.17884122,-4.3891754,2.8606794,11.903819,-12.478377,7.2719364,-49.184597,78.465034,-11.522213,-3.4216585,0.75783324,-9.860111,-9.831227,43.355362,65.556564,0.18874341,3.6243668,-9.121637
83,1.0928006172180176,1.484566569328308,79.10813903808594,-0.6788351192958073,-0.21741197452199607,-175.73026157803136,-6.984995,2.386236,-5.77404,15.677437,-7.45587,-1.896526,0.029706126,-3.6679204,-12.322579,10.442284,-8.98754,0.18214236,-4.3614664,3.0201342,11.926533,-12.791748,7.263134,-49.456066,78.246475,-11.647371,-3.4313345,0.39813152,-9.809594,-9.812768,43.52063,65.858734,0.02240104,3.7060745,-9.029329
84,1.0790274143218994,1.474141001701355,79.09601593017578,-0.7413792105274531,-0.28080455633816587,-175.66168099637048,-7.0217667,2.4187374,-5.843658,15.915496,-7.608188,-1.892049,0.16170028,-3.6084058,-12.393202,10.386182,-8.9896145,0.1909874,-4.280693,3.170342,11.954475,-13.10427,7.2567563,-49.717777,78.00388,-11.756086,-3.4181497,0.07928735,-9.758445,-9.7934,43.708736,66.15617,-0.13259435,3.789604,-8.935668
85,1.065901756286621,1.4637677669525146,79.08174896240234,-0.7994436542039538,-0.36657779626081255,-175.6152358058745,-7.0327396,2.4561226,-5.8847723,16.15964,-7.7675023,-1.8837453,0.30607533,-3.5499806,-12.437257,10.341221,-8.987727,0.20755541,-4.151673,3.3106947,11.993616,-13.413694,7.2484746,-49.93815,77.73714,-11.833347,-3.3716931,-0.19547,-9.722266,-9.755209,43.943726,66.475296,-0.26829186,3.8797581,-8.841993
86,1.0536121129989624,1.4518190622329712,79.0693130493164,-0.8585604355504155,-0.47104949421166886,-175.58871466822305,-7.029226,2.502259,-5.902844,16.422022,-7.939425,-1.8732026,0.4647039,-3.484892,-12.459335,10.295253,-8.97742,0.22953232,-3.9939473,3.4564967,12.070428,-13.738712,7.2475424,-50.064686,77.43045,-11.852372,-3.3003342,-0.4585886,-9.712254,-9.729975,44.2107,66.792274,-0.44059205,3.9787865,-8.731364
87,1.0462478399276733,1.4412803649902344,79.05812072753906,-0.9145724308071558,-0.5788862546962864,-175.5667247272367,-7.0186224,2.5479279,-5.915155,16.676836,-8.105693,-1.8627671,0.6233161,-3.4215608,-12.477958,10.251889,-8.967886,0.25300056,-3.8446074,3.5959587,12.145493,-14.050994,7.2531652,-50.12753,77.10298,-11.841879,-3.2259455,-0.6903067,-9.725268,-9.695213,44.545494,67.116936,-0.60500145,4.075065,-8.619734
88,1.0379141569137573,1.4362186193466187,79.04898834228516,-0.9632586394767885,-0.6764156957464063,-175.53362620638472,-7.0093646,2.5841436,-5.9394584,16.902878,-8.250913,-1.8546867,0.7721863,-3.3677545,-12.512168,10.209856,-8.96699,0.2736277,-3.720653,3.7195027,12.209256,-14.348599,7.2719226,-50.130978,76.76331,-11.794198,-3.1676497,-0.88006324,-9.76295,-9.644953,44.91083,67.437416,-0.7631159,4.152745,-8.507111
89,1.0291880369186401,1.435891032218933,79.04246520996094,-1.0014235783582128,-0.7624326423848239,-175.48446286052746,-7.002333,2.6071343,-5.980141,17.095955,-8.370521,-1.8502301,0.9105611,-3.328955,-12.568044,10.170965,-8.980372,0.2902173,-3.5817983,3.8251436,12.261491,-14.650146,7.2941003,-50.109642,76.41579,-11.741349,-3.1295578,-1.032196,-9.792619,-9.604551,45.26695,67.71684,-0.9241013,4.2046714,-8.379398
90,1.027394413948059,1.4390588998794556,79.03522491455078,-1.0314724455340902,-0.8434278595245979,-175.4278637082634,-6.9941797,2.6217527,-6.027856,17.2685,-8.473882,-1.8479656,1.0422616,-3.30096,-12.63479,10.136435,-9.003274,0.3042913,-3.4774582,3.91342,12.307225,-14.92921,7.337662,-49.997524,76.0433,-11.662997,-3.1069496,-1.1519011,-9.858269,-9.541671,45.699917,68.01242,-1.0676671,4.2388945,-8.244761
91,1.0217115879058838,1.4421645402908325,79.02511596679688,-1.058170497604129,-0.9171201757808022,-175.36859209895587,-6.988167,2.6336021,-6.0802546,17.424557,-8.565992,-1.8458576,1.1650404,-3.2765775,-12.70702,10.102947,-9.027934,0.3164908,-3.3494668,3.9947577,12.344414,-15.213864,7.379919,-49.90156,75.67655,-11.53693,-3.0881424,-1.2234219,-9.915283,-9.489094,46.088055,68.26151,-1.2330785,4.2714033,-8.11988
92,1.0118403434753418,1.451146125793457,79.01642608642578,-1.0862418603910624,-0.9807700268957567,-175.31158886605948,-6.986796,2.6484826,-6.134756,17.566145,-8.65061,-1.8419886,1.2755744,-3.248112,-12.777259,10.068361,-9.046649,0.32590216,-3.2572007,4.070196,12.368941,-15.468086,7.446311,-49.794605,75.298325,-11.311707,-3.0650551,-1.2327403,-10.002991,-9.414231,46.46657,68.502686,-1.4113387,4.314813,-8.032183
93,0.9987905621528625,1.462742567062378,79.00983428955078,-1.116146575775785,-1.031846700819292,-175.25151331622723,-6.9948926,2.6643555,-6.198291,17.69516,-8.726891,-1.8339211,1.3727143,-3.2158632,-12.851964,10.031001,-9.05544,0.33435732,-3.1569533,4.1433825,12.374524,-15.715071,7.5186496,-49.733738,74.92879,-10.974303,-3.0464253,-1.174001,-10.088214,-9.337355,46.76934,68.69883,-1.6490355,4.385617,-7.991179
94,0.9925312399864197,1.474531888961792,79.00465393066406,-1.1452616272921172,-1.0723843288693757,-175.18797407187395,-7.010902,2.6793196,-6.269777,17.812046,-8.794596,-1.8231876,1.4580134,-3.1831257,-12.931652,9.993019,-9.059431,0.3413032,-3.041681,4.2169394,12.364532,-15.970704,7.5742993,-49.705547,74.58608,-10.550933,-3.0341656,-1.0544728,-10.159797,-9.279729,47.011597,68.83488,-1.9304231,4.473233,-7.9808946
95,0.9933409094810486,1.4886456727981567,78.99750518798828,-1.1721042810618285,-1.106778908564199,-175.13349899007682,-7.026099,2.6970468,-6.3338566,17.914274,-8.856744,-1.8137128,1.5332804,-3.1485775,-13.003606,9.954493,-9.062028,0.34627992,-2.9513009,4.278394,12.350076,-16.199266,7.655292,-49.666904,74.22991,-10.069534,-3.0037677,-0.88172257,-10.264612,-9.19746,47.246937,68.96577,-2.1878357,4.552115,-7.9875593
96,0.9956004023551941,1.5078063011169434,78.98995208740234,-1.1959195225708437,-1.139663689947011,-175.10056535705982,-7.033642,2.7216141,-6.3754478,18.002981,-8.91836,-1.8094139,1.6015545,-3.1106932,-13.05516,9.915007,-9.067146,0.34883848,-2.8369756,4.337069,12.341879,-16.443958,7.712022,-49.675465,73.915215,-9.584415,-2.936911,-0.6601872,-10.365533,-9.141049,47.421364,69.03154,-2.3805513,4.600384,-7.98762
97,0.9978668689727783,1.528698205947876,78.9832534790039,-1.2157923751745816,-1.1692645027004778,-175.0947833025774,-7.032987,2.7548423,-6.388435,18.074827,-8.980807,-1.813833,1.6579572,-3.069563,-13.08226,9.878262,-9.07903,0.34831637,-2.7211833,4.388448,12.339435,-16.689655,7.762635,-49.71284,73.6159,-9.054756,-2.8134577,-0.3450833,-10.485226,-9.091603,47.5667,69.05843,-2.4887023,4.606867,-7.9855633
98,1.0000381469726562,1.548315405845642,78.97628784179688,-1.2327174553947124,-1.1942341987251288,-175.1086372147148,-7.0269957,2.79467,-6.381675,18.129671,-9.041144,-1.8241502,1.7046126,-3.0253146,-13.092102,9.840393,-9.093472,0.34514457,-2.6095238,4.4307857,12.337733,-16.9282,7.818726,-49.77462,73.32197,-8.478704,-2.6463823,0.049931366,-10.626404,-9.037426,47.687004,69.05684,-2.5383012,4.5851955,-7.9901614
99,1.002478837966919,1.5697195529937744,78.97080993652344,-1.2465075415675653,-1.2194085906641436,-175.13536161959811,-7.0144653,2.8373435,-6.36176,18.174255,-9.097765,-1.834631,1.7438918,-2.9814174,-13.087454,9.809859,-9.110233,0.340319,-2.5130234,4.4544077,12.341898,-17.13077,7.916004,-49.83315,73.01077,-7.931712,-2.4622061,0.4291,-10.805201,-8.944386,47.78108,69.05956,-2.5406137,4.5461936,-7.9943604
100,1.0044538974761963,1.5925744771957397,78.9662094116211,-1.2589960684295551,-1.249877602199718,-175.16788590049777,-6.9934053,2.8808787,-6.3359947,18.214201,-9.1485615,-1.8395339,1.7835115,-2.9381368,-13.072,9.784128,-9.123848,0.3348697,-2.4212022,4.475403,12.358251,-17.32261,7.9997187,-49.865845,72.74799,-7.480053,-2.2972395,0.70061076,-10.985276,-8.865695,47.828655,69.00979,-2.5078337,4.506849,-7.9835787
101,1.0064505338668823,1.6162313222885132,78.96522521972656,-1.268684566632022,-1.2897215573354284,-175.2075705862496,-6.9581094,2.9238534,-6.3023133,18.24734,-9.192399,-1.835152,1.8249816,-2.8976367,-13.041611,9.768183,-9.134872,0.3307214,-2.33851,4.491324,12.391961,-17.501318,8.07109,-49.848278,72.539665,-7.165424,-2.1842754,0.84835434,-11.168393,-8.80036,47.819263,68.90354,-2.425709,4.4656043,-7.9417677
102,1.0096122026443481,1.6426153182983398,78.96106719970703,-1.2751326979171007,-1.3354113577962854,-175.2570832463662,-6.9103966,2.9678493,-6.258166,18.270699,-9.229865,-1.8254173,1.8644423,-2.8590002,-12.996112,9.761817,-9.146079,0.32676747,-2.2790024,4.4881797,12.4414625,-17.635387,8.189939,-49.788574,72.31728,-6.9419193,-2.0953355,0.9170712,-11.391302,-8.694976,47.769787,68.79817,-2.297256,4.4134254,-7.881745
103,1.0192196369171143,1.6648825407028198,78.95697784423828,-1.2817657937105669,-1.380097826534554,-175.3114444660461,-6.8633986,3.0139494,-6.209967,18.293978,-9.264772,-1.8155745,1.8998431,-2.819109,-12.944707,9.757546,-9.155559,0.3194766,-2.2258964,4.48586,12.492669,-17.759974,8.290837,-49.734215,72.13854,-6.7504835,-1.9861957,0.9139503,-11.612762,-8.607792,47.70634,68.64503,-2.1419983,4.36217,-7.830915
104,1.025343656539917,1.68899667263031,78.95305633544922,-1.290607475739664,-1.4168253971508795,-175.36564880386896,-6.8287563,3.062902,-6.163809,18.324268,-9.299541,-1.8109125,1.9267464,-2.7760704,-12.896335,9.753268,-9.164609,0.30526814,-2.1859252,4.4797015,12.535318,-17.853539,8.405197,-49.715984,71.9623,-6.530705,-1.8039284,0.8404649,-11.846296,-8.508039,47.664158,68.48395,-1.9891322,4.317267,-7.821647
105,1.024889349937439,1.716127634048462,78.95016479492188,-1.3033462030304863,-1.4405793078908087,-175.422528336512,-6.8155828,3.116463,-6.1172605,18.369106,-9.335717,-1.8120613,1.9390898,-2.7280335,-12.849116,9.747012,-9.171104,0.28073928,-2.1377106,4.49617,12.559712,-17.959091,8.439575,-49.706184,71.86505,-6.3175673,-1.5230675,0.7151808,-12.042122,-8.476487,47.637936,68.2317,-1.8194575,4.2908664,-7.8681264
106,1.0318129062652588,1.7387604713439941,78.94882202148438,-1.3177737109095853,-1.4565196622479457,-175.4833442545888,-6.814079,3.173429,-6.0681453,18.420065,-9.370511,-1.816461,1.9408619,-2.676947,-12.799666,9.7416315,-9.176168,0.24852578,-2.0944161,4.510179,12.579642,-18.037495,8.477671,-49.695324,71.769554,-6.1252136,-1.1700245,0.5259005,-12.252276,-8.439039,47.606247,67.96298,-1.6387296,4.270199,-7.9532614
107,1.0380955934524536,1.766724705696106,78.94755554199219,-1.3333946909211722,-1.4715634181787645,-175.54070482145454,-6.813951,3.2316709,-6.0244207,18.471598,-9.404474,-1.8245178,1.943107,-2.624013,-12.755088,9.735753,-9.180901,0.21433724,-2.0770872,4.51457,12.598607,-18.100235,8.526602,-49.751377,71.7127,-5.852912,-0.79813683,0.24460638,-12.471234,-8.387821,47.602226,67.6823,-1.4711231,4.2495565,-8.05235
108,1.0404537916183472,1.797353982925415,78.9466323852539,-1.3488522818878619,-1.4929270570469557,-175.587358960168,-6.805769,3.2884827,-5.993545,18.520258,-9.439593,-1.8366647,1.9584506,-2.5702813,-12.722225,9.72768,-9.187408,0.1838598,-2.0717714,4.498845,12.616518,-18.134695,8.629758,-50.010983,71.668816,-5.4324255,-0.4505608,-0.15225719,-12.727301,-8.26985,47.61508,67.4723,-1.3471189,4.2078648,-8.141958
109,1.0389100313186646,1.8318299055099487,78.94354248046875,-1.3670683675299764,-1.5217791591924419,-175.6227074570161,-6.7896442,3.346266,-5.978353,18.569454,-9.479181,-1.8537216,1.9919298,-2.5116298,-12.702382,9.709108,-9.189539,0.15958989,-2.1081514,4.49128,12.642056,-18.200115,8.677157,-50.395657,71.78142,-4.7495594,-0.15906157,-0.64588845,-12.956631,-8.2104,47.702065,67.19045,-1.2726381,4.1614933,-8.206472
110,1.0362392663955688,1.8676873445510864,78.93930053710938,-1.385750847322773,-1.5543169709993605,-175.6503058216624,-6.7677784,3.4041781,-5.9739356,18.61527,-9.5188465,-1.8753643,2.0335872,-2.4511154,-12.691553,9.689051,-9.191279,0.13806118,-2.1097014,4.454918,12.655914,-18.260252,8.758011,-51.01084,71.94963,-3.9359457,0.11147522,-1.2295767,-13.190742,-8.09366,47.755726,66.94297,-1.255833,4.099661,-8.268097
111,1.0375914573669434,1.9046183824539185,78.93550109863281,-1.404340273833494,-1.5906935836401885,-175.6683766083634,-6.7424355,3.460312,-5.979123,18.661158,-9.558976,-1.8997746,2.0851154,-2.3909955,-12.69102,9.666229,-9.196437,0.11655325,-2.1487494,4.4203744,12.673981,-18.323433,8.823002,-51.747684,72.16775,-3.0368826,0.35953677,-1.9615724,-13.427909,-7.9837685,47.850616,66.68575,-1.2410315,4.0310726,-8.329428
112,1.0267740488052368,1.9444892406463623,78.93144226074219,-1.4202332702998146,-1.6305396240534478,-175.67520423813218,-6.7135744,3.511481,-5.992239,18.704744,-9.596877,-1.9251965,2.143704,-2.3356133,-12.701681,9.64621,-9.211251,0.09217466,-2.201557,4.3853106,12.692755,-18.397133,8.874521,-52.668564,72.39555,-2.1707623,0.59161496,-2.8939173,-13.658914,-7.879169,47.948517,66.4274,-1.1970638,3.9519904,-8.398671
113,1.0203264951705933,1.9849677085876465,78.9278793334961,-1.4327627477560572,-1.6782679587887324,-175.6675027765966,-6.677355,3.5566864,-6.0157795,18.746656,-9.633009,-1.9520413,2.2176795,-2.2859159,-12.728126,9.625082,-9.237495,0.06466001,-2.2714324,4.3493533,12.71758,-18.485256,8.913157,-53.792885,72.63947,-1.2826021,0.81618553,-4.116559,-13.884122,-7.7823257,48.05071,66.16472,-1.1048523,3.8553653,-8.482002
114,1.0073298215866089,2.0306310653686523,78.92414093017578,-1.4428239860770156,-1.732423350824629,-175.6472685222474,-6.6348825,3.5971847,-6.0493903,18.787441,-9.668541,-1.9808719,2.3025455,-2.2407527,-12.768044,9.60791,-9.275124,0.035428863,-2.3466449,4.307881,12.74482,-18.584427,8.942485,-55.121647,72.912796,-0.35076308,1.0177517,-5.576629,-14.103572,-7.6850357,48.148575,65.900116,-0.99062485,3.743177,-8.573901
115,1.0034079551696777,2.0711772441864014,78.92047119140625,-1.4517119734341244,-1.7843173787200577,-175.62014034980632,-6.593625,3.6348212,-6.0879865,18.824778,-9.701108,-2.0105443,2.3880267,-2.1972847,-12.813368,9.5896,-9.315224,0.0039013915,-2.43184,4.265153,12.767572,-18.67998,8.960667,-56.604683,73.18436,0.49209148,1.1744494,-7.112055,-14.314053,-7.591861,48.24846,65.63202,-0.87765443,3.6300075,-8.663847
116,0.9952687621116638,2.111826181411743,78.91881561279297,-1.4604054073233297,-1.8249880252102895,-175.59190812758405,-6.560743,3.671207,-6.1261053,18.855637,-9.728592,-2.0397322,2.4599402,-2.154157,-12.855631,9.573644,-9.35338,-0.030330287,-2.5295715,4.2252846,12.779377,-18.758879,8.966998,-58.195,73.42232,1.1100265,1.2768732,-8.559158,-14.512319,-7.508774,48.35741,65.356895,-0.7866129,3.5305457,-8.74153
117,0.9858419895172119,2.1522057056427,78.91738891601562,-1.4689086960308235,-1.8524958595047436,-175.56249526866665,-6.537865,3.7064157,-6.1632795,18.879486,-9.750125,-2.0695832,2.5169919,-2.111267,-12.892982,9.5576935,-9.3889885,-0.0673887,-2.615396,4.1816454,12.7714,-18.830738,8.958878,-60.047665,73.62375,1.5396068,1.3443483,-10.007903,-14.693443,-7.4223986,48.44196,65.081985,-0.7408386,3.4485147,-8.807611
118,0.9725623726844788,2.191765308380127,78.91613006591797,-1.4770184120606036,-1.8715179824170622,-175.5293897240279,-6.521313,3.7397234,-6.202054,18.89786,-9.766935,-2.1002083,2.5655096,-2.069224,-12.929886,9.541911,-9.424617,-0.10695279,-2.7162735,4.138315,12.753115,-18.890238,8.935654,-62.102734,73.80349,1.8377612,1.383003,-11.500637,-14.863452,-7.3402066,48.53478,64.799965,-0.717372,3.3775344,-8.867147
119,0.9514322280883789,2.230938673019409,78.9129409790039,-1.4843326581904757,-1.8828630602284415,-175.49461838672352,-6.510468,3.7717092,-6.241975,18.91173,-9.780511,-2.1292152,2.605859,-2.028007,-12.967182,9.527417,-9.458245,-0.14906245,-2.8139546,4.0956173,12.730878,-18.935228,8.897479,-64.138176,73.97308,1.8432165,1.384721,-12.800173,-15.024622,-7.264704,48.615955,64.52052,-0.7013055,3.3102615,-8.914693
120,0.9304877519607544,2.2711262702941895,78.90949249267578,-1.4909880440671803,-1.8874013599238575,-175.46024586423874,-6.5051546,3.8026755,-6.2826066,18.92264,-9.791825,-2.1541896,2.6393328,-1.9872285,-13.00569,9.513851,-9.487094,-0.19374056,-2.9406016,4.062031,12.71759,-18.948517,8.859031,-65.86145,74.124664,1.4171512,1.3452365,-13.668765,-15.189049,-7.2082653,48.7278,64.244774,-0.6626613,3.242574,-8.945919
121,0.9096778035163879,2.306567907333374,78.90702819824219,-1.4972187558071683,-1.8811411835842806,-175.42712292509572,-6.510759,3.8331797,-6.323925,18.931856,-9.800622,-2.172245,2.65929,-1.9467517,-13.04668,9.50489,-9.510545,-0.24265283,-3.0030859,4.022783,12.699715,-18.963654,8.795289,-67.45102,74.29566,0.16595428,1.251936,-13.980063,-15.339349,-7.147962,48.750202,63.983707,-0.6244328,3.1649587,-8.948531
122,0.8867912292480469,2.3469035625457764,78.90432739257812,-1.503774341449995,-1.8650048912111046,-175.39393875490381,-6.5263944,3.863426,-6.366483,18.940254,-9.807345,-2.1854174,2.6684442,-1.9059716,-13.08833,9.497378,-9.529023,-0.29639888,-3.1045358,3.9924152,12.685846,-18.950243,8.721736,-68.85594,74.45882,-1.6776097,1.1069503,-13.884533,-15.499928,-7.097186,48.814625,63.73206,-0.562035,3.0870104,-8.9314375
123,0.8675850033760071,2.3865065574645996,78.90296936035156,-1.507984404903186,-1.847475107970076,-175.359920217769,-6.5384803,3.89138,-6.4094396,18.939884,-9.810538,-2.198701,2.6767995,-1.8673612,-13.130081,9.491351,-9.546845,-0.3496258,-3.196321,3.966983,12.672614,-18.919521,8.643745,-69.969505,74.608055,-3.4856849,0.9362447,-13.557465,-15.649248,-7.0564156,48.864147,63.495724,-0.50371754,3.0123634,-8.910892
124,0.8482267260551453,2.4312050342559814,78.89896392822266,-1.5074057288882392,-1.8373410539283224,-175.32415883624384,-6.5349727,3.91491,-6.452017,18.926813,-9.810575,-2.2170384,2.6936693,-1.833536,-13.169773,9.4873905,-9.568013,-0.39861774,-3.2966511,3.9509072,12.667251,-18.861948,8.59717,-70.59245,74.70024,-4.6028843,0.77943236,-13.168863,-15.784766,-7.035237,48.92426,63.27522,-0.45631617,2.948102,-8.904511
125,0.8343583941459656,2.4769368171691895,78.89701843261719,-1.500031675204041,-1.8375531926335955,-175.28793460606866,-6.5067677,3.9330037,-6.4917383,18.889252,-9.803653,-2.2427378,2.7202306,-1.8065412,-13.2051115,9.489469,-9.594517,-0.44112456,-3.3354475,3.9354584,12.663085,-18.789652,8.576693,-70.67884,74.739235,-4.781725,0.64781445,-12.653159,-15.888344,-7.028203,48.91261,63.074593,-0.44511357,2.8902745,-8.912329
126,0.8092821836471558,2.519667387008667,78.89749908447266,-1.4874848366889757,-1.8429069733943737,-175.2515571711733,-6.463182,3.9468899,-6.529423,18.834602,-9.79172,-2.2728603,2.7510567,-1.7849251,-13.237357,9.496365,-9.623435,-0.4797777,-3.3183792,3.9187918,12.650494,-18.712927,8.541376,-70.356834,74.77542,-4.4112034,0.52354205,-11.951327,-15.963683,-7.0213118,48.842064,62.902733,-0.45469692,2.8357675,-8.929899
127,0.771958589553833,2.5640721321105957,78.8984603881836,-1.4727864629702883,-1.8510126533301092,-175.21163874740247,-6.4145727,3.9579263,-6.570037,18.777277,-9.778479,-2.3045332,2.7869494,-1.7653313,-13.270924,9.503418,-9.655435,-0.51762533,-3.3155696,3.9116385,12.641951,-18.629694,8.515961,-69.745415,74.778656,-3.7898746,0.42304787,-11.24425,-16.031357,-7.0207834,48.777424,62.757755,-0.47343034,2.7912252,-8.956785
128,0.7376446723937988,2.6113011837005615,78.89746856689453,-1.458181939102401,-1.8584626661894408,-175.165264173822,-6.370827,3.9674838,-6.617882,18.729057,-9.766423,-2.334883,2.825111,-1.7456026,-13.309709,9.510481,-9.692102,-0.5578103,-3.3229532,3.9127066,12.631645,-18.556158,8.503012,-69.08891,74.75005,-3.2717347,0.35161477,-10.71204,-16.082468,-7.0243936,48.7081,62.637306,-0.4999457,2.7591562,-8.996266
129,0.7049932479858398,2.6560287475585938,78.89785766601562,-1.441192188153529,-1.867277840373633,-175.11143452643205,-6.3265414,3.9725978,-6.6727066,18.6843,-9.752488,-2.3624816,2.8683236,-1.728672,-13.354305,9.518049,-9.736365,-0.59992445,-3.3563888,3.92281,12.624437,-18.49255,8.502236,-68.346275,74.67453,-2.8645368,0.31545126,-10.432801,-16.120005,-7.032333,48.644154,62.539837,-0.5465861,2.7450686,-9.056261
130,0.6692208051681519,2.7044546604156494,78.89676666259766,-1.4212144698492006,-1.8779373130801091,-175.05188091987733,-6.2785535,3.9737291,-6.732534,18.6378,-9.735719,-2.389125,2.915866,-1.7149447,-13.402735,9.5274935,-9.787252,-0.6426827,-3.358675,3.9333875,12.612799,-18.440592,8.517775,-67.5093,74.55367,-2.443677,0.3101255,-10.299394,-16.125305,-7.0455537,48.52695,62.45885,-0.62144226,2.7439055,-9.132615
131,0.6316398978233337,2.754114866256714,78.89369201660156,-1.4042685989574728,-1.886253384386473,-174.98755912627863,-6.242423,3.9761274,-6.799198,18.60963,-9.725268,-2.416724,2.963717,-1.697363,-13.4552555,9.533923,-9.83778,-0.6879173,-3.340174,3.9503694,12.596466,-18.399942,8.543931,-66.662025,74.42146,-2.0773327,0.31218153,-10.220687,-16.107897,-7.0624814,48.372345,62.399143,-0.6975276,2.7477171,-9.208021
132,0.5985479354858398,2.80350661277771,78.88981628417969,-1.396093368195817,-1.8875316072917319,-174.9196816447779,-6.231337,3.9852586,-6.874318,18.613901,-9.726739,-2.447053,3.007442,-1.6690674,-13.511917,9.533047,-9.8817625,-0.7373663,-3.3597896,3.9858618,12.583223,-18.352465,8.594475,-65.81654,74.286354,-1.8074754,0.2990508,-10.105926,-16.092398,-7.089688,48.25414,62.36508,-0.7348275,2.7506046,-9.266332
133,0.5685937404632568,2.8511970043182373,78.885498046875,-1.3977858151421934,-1.876024310157643,-174.84529172517745,-6.2562456,4.000812,-6.9614806,18.657503,-9.74158,-2.4809046,3.042197,-1.6284361,-13.575671,9.522068,-9.917367,-0.7912979,-3.3218446,4.0282664,12.546581,-18.33722,8.628589,-65.157005,74.201706,-1.7005513,0.27112404,-9.9568815,-16.043068,-7.1111617,48.05143,62.362103,-0.755149,2.743714,-9.305897
134,0.5320361256599426,2.902222156524658,78.880615234375,-1.4065292001426415,-1.8557221308959229,-174.76491936657374,-6.3055677,4.020901,-7.0586853,18.727777,-9.764707,-2.517042,3.0729406,-1.5789186,-13.645485,9.501561,-9.947124,-0.8487032,-3.3056107,4.0873566,12.507268,-18.32947,8.666996,-64.49629,74.1256,-1.6665267,0.23580685,-9.81619,-15.987248,-7.138754,47.851967,62.385715,-0.7546155,2.7360234,-9.333202
135,0.49329930543899536,2.9541027545928955,78.87564849853516,-1.4218909951063703,-1.8367774618542652,-174.68455065025162,-6.3678765,4.047007,-7.159838,18.827993,-9.801552,-2.5544865,3.10627,-1.5208123,-13.71574,9.477536,-9.972747,-0.91003865,-3.313,4.1612244,12.481668,-18.314377,8.727186,-63.796482,74.047195,-1.7133801,0.18672742,-9.644414,-15.931796,-7.185179,47.683495,62.425213,-0.7260398,2.7337422,-9.345503
136,0.4585777819156647,3.0031206607818604,78.86935424804688,-1.4428432755174518,-1.8290484195908236,-174.61022549502727,-6.4298315,4.080718,-7.25844,18.95681,-9.855477,-2.5923703,3.1495326,-1.4551631,-13.780785,9.454918,-9.996076,-0.97568405,-3.2707613,4.235166,12.46278,-18.309977,8.770808,-63.14293,74.02811,-1.899906,0.116102204,-9.398059,-15.866371,-7.2256637,47.491196,62.500538,-0.6769257,2.7377484,-9.343906
137,0.421735554933548,3.0520644187927246,78.86197662353516,-1.470381945064385,-1.8360211889573432,-174.53911547350893,-6.488914,4.122588,-7.3572063,19.118093,-9.931155,-2.630532,3.2068436,-1.3815665,-13.843048,9.435837,-10.018243,-1.0484077,-3.268132,4.324765,12.480197,-18.289371,8.836834,-62.39428,74.02584,-2.1939292,0.01326834,-9.081205,-15.81556,-7.2950726,47.372375,62.58918,-0.5798795,2.756406,-9.323195
138,0.3912496864795685,3.102891445159912,78.85176086425781,-1.504343504808841,-1.8520230119732324,-174.46952289329533,-6.5512705,4.171674,-7.4579453,19.309483,-10.024834,-2.6695614,3.2734628,-1.2998773,-13.904115,9.417153,-10.0381,-1.1271865,-3.2383988,4.4194636,12.508107,-18.278734,8.89549,-61.675102,74.07406,-2.6277661,-0.11685286,-8.708951,-15.754927,-7.3686357,47.241768,62.706234,-0.45581776,2.7822862,-9.287493
139,0.35723814368247986,3.153498888015747,78.8422622680664,-1.543101258550283,-1.8736652440028543,-174.40888529803672,-6.618462,4.2272773,-7.5535426,19.526838,-10.130295,-2.7093203,3.3451986,-1.2111204,-13.95711,9.395445,-10.053826,-1.2062997,-3.197755,4.5207586,12.544798,-18.264729,8.943598,-60.931664,74.15254,-3.1316369,-0.26063836,-8.271337,-15.698351,-7.4444757,47.12691,62.85307,-0.3165861,2.8125536,-9.238172
140,0.3209322392940521,3.203979969024658,78.83195495605469,-1.5846999075268358,-1.8975314888568187,-174.36461911940285,-6.6908965,4.288877,-7.6369023,19.763165,-10.239869,-2.7496634,3.4168096,-1.1160984,-13.9956455,9.368193,-10.063724,-1.2800443,-3.1561701,4.6296163,12.588103,-18.231201,8.986914,-60.12407,74.22981,-3.643235,-0.40334424,-7.756882,-15.652257,-7.529567,47.051933,63.02028,-0.17244372,2.8445165,-9.177377
141,0.2857714891433716,3.2540299892425537,78.82244873046875,-1.6286931842095063,-1.9214377745879898,-174.33847074595027,-6.7745442,4.355813,-7.7067814,20.024948,-10.354349,-2.7884576,3.4848332,-1.0143234,-14.017922,9.334725,-10.065745,-1.3455794,-3.1023784,4.7427735,12.636479,-18.18495,9.019986,-59.26789,74.32111,-4.1706643,-0.54433054,-7.1371746,-15.621977,-7.6132936,47.01059,63.222652,-0.015197079,2.8730233,-9.104271
142,0.260282427072525,3.3037333488464355,78.81266784667969,-1.6760516632162397,-1.9476009723990813,-174.32653887994059,-6.8634167,4.428906,-7.7664814,20.304777,-10.474758,-2.8265762,3.5531008,-0.9054203,-14.02758,9.295025,-10.060219,-1.4064841,-3.0219538,4.8567934,12.686958,-18.134577,9.039879,-58.39813,74.44087,-4.7465167,-0.69285756,-6.4263887,-15.602113,-7.684322,46.977093,63.46982,0.15227067,2.8996668,-9.019173
143,0.23281681537628174,3.348313331604004,78.80122375488281,-1.7270332888543682,-1.9792961353902019,-174.32783498715764,-6.953379,4.5086985,-7.8166437,20.604586,-10.602152,-2.8678467,3.625671,-0.790884,-14.02533,9.2533655,-10.053601,-1.4660205,-2.9995496,4.990116,12.754836,-18.042616,9.065611,-57.38135,74.52935,-5.302005,-0.8499801,-5.6799254,-15.597571,-7.7884607,47.044067,63.71329,0.32859838,2.9380267,-8.923596
144,0.20617994666099548,3.397217273712158,78.78877258300781,-1.7815779757785206,-2.0193419896235247,-174.34116124889024,-7.0364556,4.5959883,-7.8576617,20.918095,-10.73513,-2.9164083,3.7062883,-0.67250484,-14.012007,9.212592,-10.050501,-1.5279539,-2.9494967,5.127956,12.820427,-17.924824,9.093003,-56.343987,74.57875,-5.8636217,-1.0099865,-4.9485435,-15.574738,-7.9073243,47.093685,63.947395,0.45775905,2.9903743,-8.819026
145,0.17647799849510193,3.446256637573242,78.7763671875,-1.8415784160152349,-2.071125437411425,-174.36570876108757,-7.106306,4.693817,-7.8899164,21.242477,-10.876705,-2.9754355,3.7989557,-0.54798186,-13.989168,9.175901,-10.05551,-1.5981693,-2.8714108,5.270428,12.880887,-17.780565,9.116017,-55.27433,74.59654,-6.4462943,-1.1754797,-4.2311716,-15.5395775,-8.022844,47.120564,64.19739,0.51566637,3.0629878,-8.698603
146,0.14296890795230865,3.49320650100708,78.76374053955078,-1.906179559222364,-2.1323793610982196,-174.40208021537066,-7.1678023,4.800826,-7.9130425,21.579626,-11.025728,-3.0419633,3.9005604,-0.41757378,-13.955927,9.140895,-10.064801,-1.6730185,-2.7454054,5.4102125,12.931108,-17.623724,9.12836,-54.211773,74.60771,-7.0685315,-1.3471236,-3.5040095,-15.499442,-8.110614,47.105366,64.489784,0.5151562,3.147475,-8.565181
147,0.11345279961824417,3.535935401916504,78.75146484375,-1.9715571523769306,-2.1972278432244896,-174.45187079025547,-7.2332683,4.9115357,-7.926461,21.93826,-11.177692,-3.1107743,4.0040016,-0.28547254,-13.909345,9.103342,-10.071719,-1.7417312,-2.6982508,5.569575,13.00013,-17.412598,9.150252,-52.98131,74.55943,-7.618758,-1.5219561,-2.7906086,-15.475309,-8.244252,47.20632,64.7539,0.5314248,3.2407503,-8.432818
148,0.0826524868607521,3.5794522762298584,78.73863220214844,-2.0327165460819288,-2.259965522035229,-174.5163157714711,-7.314387,5.0191636,-7.9296136,22.325089,-11.3267765,-3.1769323,4.1032043,-0.1572556,-13.84661,9.0596695,-10.071247,-1.7935817,-2.6010962,5.719144,13.06339,-17.194654,9.173415,-51.797653,74.48142,-8.130439,-1.687622,-2.1078134,-15.438192,-8.37854,47.248123,65.00232,0.54137677,3.3217344,-8.314911
149,0.057298045605421066,3.6199796199798584,78.72491455078125,-2.0949408629064705,-2.318562079346681,-174.596522310241,-7.412423,5.130563,-7.921496,22.740871,-11.486051,-3.238546,4.1976266,-0.025231509,-13.765338,9.004744,-10.059822,-1.825471,-2.46508,5.8639474,13.115638,-16.9639,9.190868,-50.62774,74.36847,-8.564862,-1.8307873,-1.4469497,-15.401246,-8.493052,47.243294,65.26166,0.5424687,3.386936,-8.218752
150,0.034550461918115616,3.6528117656707764,78.71253204345703,-2.15863774771128,-2.376263551443603,-174.6915387930482,-7.517146,5.246888,-7.9022017,23.172272,-11.651485,-3.298428,4.292073,0.11054692,-13.667483,8.938188,-10.039139,-1.8429816,-2.3688438,6.0213175,13.178173,-16.689796,9.2171955,-49.355865,74.1888,-8.9141,-1.9593711,-0.80406344,-15.369393,-8.643161,47.300827,65.48822,0.5583626,3.4499197,-8.13499
151,0.012483242899179459,3.6892507076263428,78.70083618164062,-2.212100049628394,-2.4354053223755896,-174.79966453971807,-7.638785,5.351407,-7.874573,23.640486,-11.8006525,-3.3589606,4.381776,0.23227184,-13.557139,8.876509,-10.017835,-1.8488013,-2.2431931,6.1657596,13.2423525,-16.406927,9.244849,-48.10971,73.99321,-9.253359,-2.0929475,-0.19953205,-15.33488,-8.797191,47.32542,65.70218,0.5782384,3.5060697,-8.057074
152,-0.016290433704853058,3.730552911758423,78.69084930419922,-2.2442690484472116,-2.4981998893335455,-174.91915094320817,-7.779603,5.428685,-7.840785,24.15015,-11.906867,-3.4225523,4.4618993,0.32284158,-13.438668,8.836149,-10.004371,-1.845444,-2.086792,6.282376,13.308265,-16.130617,9.265292,-46.924797,73.82669,-9.629331,-2.2548425,0.34503904,-15.317389,-8.928794,47.313053,65.9339,0.620838,3.5536106,-7.9808707
153,-0.034047115594148636,3.762498140335083,78.68370819091797,-2.2531549481481368,-2.5617782394707693,-175.05451239873832,-7.9388947,5.4778523,-7.795673,24.694546,-11.971048,-3.484616,4.5295324,0.38085213,-13.311735,8.813746,-9.997003,-1.832274,-1.9717107,6.387904,13.396728,-15.822484,9.2937765,-45.666985,73.64141,-10.010294,-2.4616146,0.8052601,-15.319862,-9.101595,47.368572,66.12167,0.73149276,3.595986,-7.903868
154,-0.04503931850194931,3.7873945236206055,78.67790222167969,-2.2380845574420736,-2.626179651271325,-175.2059355241673,-8.119973,5.4992414,-7.737535,25.283232,-12.010031,-3.5459113,4.5856295,0.40783453,-13.173667,8.808298,-9.995375,-1.8077793,-1.8236674,6.468086,13.488568,-15.508765,9.321481,-44.438786,73.4554,-10.412555,-2.6953647,1.2005922,-15.325079,-9.2789545,47.39411,66.29586,0.86727864,3.6290133,-7.8292575
155,-0.05909343063831329,3.812934160232544,78.67478942871094,-2.1949983082307813,-2.6960034229170144,-175.36602568973714,-8.325591,5.484051,-7.6735325,25.928505,-12.01121,-3.615732,4.5781765,0.3836544,-13.02505,8.950682,-10.06806,-1.7716563,-1.670185,6.518584,13.590209,-15.195633,9.34773,-43.261013,73.28711,-10.822739,-2.93388,1.5631908,-15.337872,-9.46083,47.409832,66.4578,1.0160824,3.6626592,-7.7563677
156,-0.06782505661249161,3.8364953994750977,78.67249298095703,-2.114608554941245,-2.7756508414520176,-175.52835495391605,-8.5604,5.4183016,-7.608021,26.645554,-11.963107,-3.7027423,4.432595,0.2776706,-12.8646345,9.416988,-10.3063755,-1.7229658,-1.5150228,6.5269923,13.70411,-14.898566,9.372605,-42.189228,73.15979,-11.241005,-3.1548276,1.9261386,-15.351003,-9.644452,47.40508,66.6031,1.1548567,3.7058547,-7.6841135
157,-0.07994373887777328,3.8572516441345215,78.67318725585938,-2.006978619874331,-2.873171906790904,-175.69172152069734,-8.818339,5.3114085,-7.5394664,27.443607,-11.862653,-3.7977924,4.297096,0.13309172,-12.691109,9.905133,-10.550515,-1.6613015,-1.3627919,6.5031404,13.84023,-14.621199,9.395326,-41.2329,73.07735,-11.70093,-3.3611307,2.2949948,-15.368901,-9.828928,47.37901,66.73589,1.2817196,3.7643535,-7.6097975
158,-0.08956789970397949,3.8722102642059326,78.67810821533203,-1.8720413783992693,-2.98366379220878,-175.85940349178114,-9.09994,5.1651883,-7.4658794,28.313435,-11.716134,-3.9005475,4.1575665,-0.049704876,-12.505369,10.432818,-10.809062,-1.5866643,-1.2087462,6.449171,13.993539,-14.35662,9.415348,-40.36512,73.03037,-12.191017,-3.56227,2.6536467,-15.391418,-10.014222,47.333176,66.857025,1.4049886,3.8322368,-7.5348945
159,-0.09775210916996002,3.8880255222320557,78.68284606933594,-1.7296176593138526,-3.1019959447027388,-176.01736213526652,-9.41259,4.9966373,-7.421097,29.245754,-11.529364,-4.03976,4.043293,-0.23910624,-12.32626,10.930938,-11.055407,-1.5084639,-1.0586413,6.3857093,14.156051,-14.106032,9.433338,-39.58916,73.021935,-12.647136,-3.7451894,3.0042474,-15.413894,-10.19982,47.268074,66.9667,1.5251226,3.9002144,-7.4645615
160,-0.10624931007623672,3.89941668510437,78.68889617919922,-1.598677413749084,-3.222756025229468,-176.15219213424152,-9.766042,4.8219204,-7.4383197,30.236088,-11.310045,-4.2441335,3.966508,-0.40899143,-12.171757,11.366241,-11.275716,-1.4364024,-0.916422,6.3321233,14.319523,-13.869642,9.450226,-38.906128,73.053314,-13.001904,-3.8959157,3.3495948,-15.431092,-10.38478,47.181793,67.06359,1.6415297,3.9591799,-7.4038367
161,-0.11376990377902985,3.9119179248809814,78.69429016113281,-1.4794518021592504,-3.342721962669787,-176.2549201436103,-10.180667,4.640561,-7.5105543,31.315914,-11.03423,-4.5190077,3.9263818,-0.56023073,-12.051099,11.731005,-11.46364,-1.3729694,-0.78807473,6.2883916,14.481837,-13.654376,9.467269,-38.32565,73.13092,-13.230371,-3.999047,3.7002761,-15.441109,-10.567465,47.05834,67.15179,1.7523329,4.005503,-7.355069
162,-0.12200071662664413,3.9240617752075195,78.6999740600586,-1.3633955437815903,-3.4654906721695506,-176.3346916092611,-10.648707,4.443765,-7.6259913,32.48592,-10.709086,-4.8504024,3.9142933,-0.7065682,-11.952719,12.048952,-11.629605,-1.3136832,-0.6689116,6.2457294,14.646961,-13.458745,9.485205,-37.844273,73.252525,-13.371144,-4.064746,4.0528026,-15.449049,-10.747583,46.90526,67.23348,1.8607355,4.044173,-7.315292
163,-0.13292895257472992,3.9332826137542725,78.70585632324219,-1.2585647630761287,-3.5961794201876827,-176.40428326187623,-11.128599,4.236175,-7.8109612,33.6788,-10.390264,-5.2394037,3.936402,-0.83828354,-11.865173,12.321805,-11.780108,-1.2584288,-0.55013347,6.2125545,14.816407,-13.270093,9.504391,-37.4417,73.40559,-13.451986,-4.1160297,4.388667,-15.453864,-10.926062,46.74782,67.29729,1.9630818,4.0806103,-7.281533
164,-0.1526147425174713,3.9395081996917725,78.70792388916016,-1.1731684546625292,-3.7397865685795826,-176.47630711726734,-11.577716,4.022737,-8.091503,34.82475,-10.131353,-5.688066,3.9999917,-0.9446346,-11.777086,12.55027,-11.922069,-1.2068186,-0.42411005,6.1975384,14.991933,-13.074806,9.52507,-37.095634,73.577,-13.499506,-4.1764374,4.6890965,-15.458334,-11.105165,46.6155,67.33951,2.0592573,4.11648,-7.250745
165,-0.1802394688129425,3.9407334327697754,78.70310974121094,-1.1129724913512247,-3.9139251791069927,-176.53949543363754,-11.980937,3.7905354,-8.505287,35.951984,-9.916797,-6.255529,4.1328154,-1.0174415,-11.698447,12.724335,-12.0582075,-1.1651273,-0.29758462,6.2011747,15.18324,-12.8791485,9.545753,-36.821293,73.78943,-13.49745,-4.2609115,4.952277,-15.468154,-11.259602,46.505795,67.37868,2.1454768,4.1564856,-7.2301836
166,-0.20699599385261536,3.9424080848693848,78.6941909790039,-1.0728020696723863,-4.110357570996532,-176.59193269870642,-12.361816,3.5385845,-9.027393,37.086876,-9.733307,-6.923856,4.322638,-1.0645016,-11.631028,12.846794,-12.184605,-1.131338,-0.17505693,6.225686,15.397142,-12.680552,9.576024,-36.612602,74.01853,-13.433474,-4.3520875,5.184982,-15.455947,-11.449026,46.410965,67.34923,2.2259474,4.201832,-7.214697
167,-0.24014413356781006,3.9369001388549805,78.68366241455078,-1.0439530247440219,-4.296305203665071,-176.65994466603297,-12.729281,3.2919037,-9.588411,38.143402,-9.629478,-7.579304,4.517168,-1.0972854,-11.551726,12.93599,-12.296382,-1.093035,-0.037898857,6.2641788,15.597581,-12.470629,9.608584,-36.449142,74.247444,-13.360643,-4.4291353,5.388379,-15.451265,-11.640265,46.343452,67.30784,2.3069448,4.240471,-7.19579
168,-0.28230464458465576,3.926717758178711,78.67498779296875,-1.0183484210219766,-4.438521418724522,-176.77040954666487,-13.093799,3.0787091,-10.118813,39.0321,-9.650105,-8.106391,4.664146,-1.1259038,-11.437129,13.009536,-12.387826,-1.0380379,0.122587964,6.3152056,15.756653,-12.232456,9.639641,-36.2881,74.44303,-13.320287,-4.4710946,5.5613546,-15.470355,-11.834848,46.327244,67.2711,2.3977182,4.2635956,-7.162216
169,-0.32655391097068787,3.904954671859741,78.66634368896484,-1.0028170521838902,-4.526729450308342,-176.9294619268596,-13.46264,2.890617,-10.650295,39.745323,-9.854391,-8.482056,4.752746,-1.1421617,-11.283963,13.061728,-12.452019,-0.9624294,0.30816656,6.389536,15.865142,-11.968052,9.665479,-36.13284,74.60362,-13.328858,-4.46692,5.7039585,-15.521737,-12.035363,46.384068,67.24171,2.5054226,4.26337,-7.102018
170,-0.3786870837211609,3.869983673095703,78.65702819824219,-0.9998342039054054,-4.57929470927493,-177.12327753322506,-13.826584,2.7216985,-11.202259,40.319946,-10.1988325,-8.762502,4.8115716,-1.1421384,-11.103723,13.083145,-12.491924,-0.87326366,0.51285934,6.486637,15.937775,-11.6833515,9.68562,-35.99786,74.74168,-13.3603735,-4.4257965,5.8177757,-15.594284,-12.24234,46.498207,67.209015,2.623935,4.246806,-7.024001
171,-0.4331265091896057,3.8329362869262695,78.65029907226562,-0.9955810812347216,-4.605868350226693,-177.348400675985,-14.173782,2.607621,-11.690356,40.73118,-10.570336,-8.948802,4.84545,-1.1425799,-10.89542,13.091173,-12.520888,-0.774795,0.73408794,6.587087,15.983747,-11.374707,9.700589,-35.864025,74.86666,-13.399082,-4.372393,5.9003468,-15.678692,-12.452834,46.64047,67.17539,2.7464278,4.225302,-6.948153
172,-0.49146580696105957,3.7842483520507812,78.64798736572266,-0.9765346075446062,-4.6162407798345,-177.60138368496675,-14.492953,2.584994,-12.032145,40.952652,-10.8538065,-9.0430765,4.861779,-1.160005,-10.6584215,13.099138,-12.550507,-0.6712226,0.9680718,6.6709023,16.011827,-11.036704,9.712369,-35.715393,74.98384,-13.43368,-4.3282304,5.949883,-15.765453,-12.661033,46.781788,67.14087,2.865093,4.213765,-6.895047
173,-0.5572040677070618,3.73012638092041,78.64712524414062,-0.9401392406297066,-4.610476887041948,-177.89324757067513,-14.769027,2.6864777,-12.18058,40.934467,-11.039708,-9.062279,4.8618503,-1.1950477,-10.381183,13.101708,-12.577547,-0.5605437,1.2218952,6.7362375,16.021494,-10.659811,9.722747,-35.540005,75.084564,-13.459115,-4.3033,5.957101,-15.861098,-12.86279,46.936802,67.11743,2.9951646,4.209,-6.874992
174,-0.6395451426506042,3.67063570022583,78.65070343017578,-0.8941828035735064,-4.584164425692089,-178.22159333479894,-15.0129595,2.8881464,-12.191125,40.702118,-11.178863,-8.998679,4.8459697,-1.2389803,-10.068042,13.087115,-12.594226,-0.44168234,1.4926147,6.7911906,16.008682,-10.24673,9.732091,-35.347843,75.16695,-13.48233,-4.2841024,5.9255614,-15.972218,-13.056591,47.11566,67.10783,3.135022,4.2054744,-6.8760076
175,-0.7225050926208496,3.6024081707000732,78.65863800048828,-0.8384900812208147,-4.539535437105949,-178.5633582480049,-15.254878,3.1382265,-12.133577,40.3461,-11.249074,-8.819189,4.8048606,-1.297592,-9.741186,13.087545,-12.619736,-0.32009366,1.7643499,6.8299613,15.977465,-9.8107605,9.739907,-35.15394,75.24646,-13.506295,-4.257926,5.872741,-16.087257,-13.238869,47.27858,67.09979,3.2503247,4.2110324,-6.8847256
176,-0.8189698457717896,3.5348641872406006,78.66427612304688,-0.7736681358332749,-4.47910935179814,-178.89526335780778,-15.522924,3.385771,-12.077588,39.952137,-11.226807,-8.490012,4.7450466,-1.3735361,-9.423263,13.102844,-12.655876,-0.20127843,2.0228007,6.847531,15.931686,-9.367632,9.744988,-34.974472,75.34097,-13.533283,-4.2122083,5.8162904,-16.195343,-13.405396,47.385662,67.0837,3.3086607,4.233062,-6.8881474
177,-0.9234576225280762,3.464362859725952,78.67453002929688,-0.6929109707736713,-4.398417445021932,-179.21927255071856,-15.83087,3.628234,-12.011698,39.52027,-11.096172,-7.950887,4.6508007,-1.4754534,-9.111415,13.153803,-12.714978,-0.08510098,2.2725627,6.835402,15.866319,-8.918792,9.74607,-34.807407,75.45587,-13.561283,-4.139443,5.7603736,-16.293596,-13.552257,47.42022,67.05969,3.2785654,4.283721,-6.880829
178,-1.0266298055648804,3.3880884647369385,78.68424987792969,-0.5982213993559439,-4.297354100017473,-179.54463239688766,-16.162554,3.8869328,-11.904886,39.015026,-10.878117,-7.2371383,4.5323534,-1.5980997,-8.796852,13.216643,-12.782791,0.030901175,2.5194259,6.79741,15.780362,-8.459168,9.742773,-34.649826,75.585205,-13.592189,-4.047944,5.6962147,-16.390366,-13.67823,47.404263,67.0423,3.1847749,4.353069,-6.8705387
179,-1.131813645362854,3.3058578968048096,78.69095611572266,-0.5023238590515037,-4.1847768426629885,-179.85913240980778,-16.507107,4.1466236,-11.79775,38.477474,-10.606866,-6.4570007,4.3986397,-1.7295774,-8.492229,13.29692,-12.860779,0.14491412,2.7514095,6.743161,15.67753,-7.9909863,9.736535,-34.511715,75.73234,-13.62901,-3.948424,5.6225314,-16.500668,-13.752202,47.350586,67.0637,3.071846,4.4201035,-6.866154
180,-1.2452685832977295,3.2310571670532227,78.69387817382812,-0.41901174001871083,-4.071284920342009,179.84945137225918,-16.850058,4.3932652,-11.734028,37.943893,-10.311753,-5.7187905,4.272359,-1.8551693,-8.211086,13.376101,-12.937102,0.25497028,2.9501855,6.69319,15.576781,-7.516442,9.727598,-34.391167,75.88627,-13.670171,-3.8516912,5.5360737,-16.608067,-13.814488,47.2821,67.075066,2.9922254,4.46856,-6.871682
181,-1.3643741607666016,3.1494367122650146,78.69664764404297,-0.3521767622454957,-3.9532157804884998,179.58921953069597,-17.203283,4.6282187,-11.719295,37.417538,-9.973333,-5.0136166,4.1464767,-1.9726988,-7.9633393,13.46358,-13.014172,0.35675672,3.109382,6.648916,15.470519,-7.0323057,9.718687,-34.304726,76.05314,-13.728513,-3.7639616,5.443714,-16.714386,-13.851654,47.189323,67.091515,2.9578428,4.4899354,-6.8960757
182,-1.4788687229156494,3.060244560241699,78.69977569580078,-0.29419942965892604,-3.8279061788274817,179.35218675665823,-17.569328,4.8553505,-11.729538,36.88133,-9.586392,-4.295709,4.0152965,-2.0894775,-7.7397985,13.561664,-13.094702,0.45264184,3.2336972,6.60473,15.359779,-6.5377665,9.708597,-34.237003,76.22894,-13.795632,-3.6785707,5.34364,-16.816122,-13.879679,47.07116,67.09842,2.9446802,4.4964776,-6.932368
183,-1.6099913120269775,2.9602479934692383,78.69974517822266,-0.24238107821010463,-3.7033036088296964,179.1258372558764,-17.924473,5.0660143,-11.769127,36.338898,-9.197091,-3.6190243,3.8916662,-2.2059083,-7.5251102,13.657587,-13.176654,0.55052036,3.3556292,6.56106,15.255201,-6.053867,9.692585,-34.183334,76.41307,-13.851632,-3.5860262,5.2225266,-16.901886,-13.911592,46.918262,67.071884,2.9305375,4.497814,-6.964861
184,-1.7512331008911133,2.8557229042053223,78.69735717773438,-0.19321402475750082,-3.5868824210824304,178.89781063478733,-18.244074,5.2516847,-11.844401,35.792545,-8.848775,-3.037969,3.7857764,-2.3235838,-7.3036427,13.742977,-13.259745,0.65837526,3.481234,6.516892,15.155496,-5.5660734,9.673546,-34.13128,76.582695,-13.889557,-3.4760172,5.068871,-16.986805,-13.935556,46.77543,67.03817,2.922383,4.5000753,-6.986043
185,-1.8885608911514282,2.746685743331909,78.69208526611328,-0.14988079193636034,-3.4821873419517604,178.66591447217695,-18.513966,5.415879,-11.969292,35.223557,-8.556118,-2.5935824,3.7043278,-2.4372191,-7.072426,13.8103075,-13.341288,0.7791318,3.6019142,6.4692955,15.063026,-5.0703635,9.6611805,-34.079212,76.73309,-13.915257,-3.3424215,4.8713512,-17.076147,-13.944242,46.671047,66.994514,2.934788,4.5075054,-6.9938636
186,-2.0335569381713867,2.6337950229644775,78.68375396728516,-0.11238304786876123,-3.3848703428900286,178.4362489281699,-18.74835,5.560944,-12.138619,34.634434,-8.290784,-2.2485428,3.6402452,-2.548647,-6.8393455,13.866679,-13.422533,0.90843314,3.7419322,6.426325,14.98869,-4.6014967,9.625635,-34.000786,76.898674,-13.874827,-3.1930869,4.642239,-17.147173,-13.962996,46.482796,66.90865,2.8923972,4.516489,-6.973323
187,-2.1839537620544434,2.5101194381713867,78.67489624023438,-0.0747703779058504,-3.2915876124530565,178.2081101516945,-18.96351,5.681066,-12.331958,34.05664,-8.030708,-1.9402076,3.5842748,-2.6669466,-6.604919,13.923999,-13.508874,1.0426298,3.8756108,6.3835535,14.911544,-4.1331167,9.581543,-33.944817,77.065056,-13.846798,-3.03831,4.393284,-17.217102,-13.978298,46.33722,66.82116,2.8871734,4.522014,-6.959155
188,-2.3328380584716797,2.3840885162353516,78.66754150390625,-0.0299350699533824,-3.1986053818933455,177.9805326583683,-19.175468,5.770064,-12.526892,33.52235,-7.755076,-1.6049641,3.5271626,-2.8022346,-6.3691063,13.994282,-13.605498,1.1782966,4.001187,6.3289986,14.8351755,-3.646603,9.551202,-33.89497,77.19949,-13.824468,-2.8852096,4.1348424,-17.290623,-13.984537,46.23516,66.738174,2.9111047,4.520487,-6.9594526
189,-2.484219789505005,2.2500698566436768,78.65811920166016,0.02470102261897198,-3.1039889016360616,177.75263843888658,-19.387453,5.8075476,-12.762961,33.033157,-7.44498,-1.2378036,3.462105,-2.9582415,-6.1297035,14.08298,-13.712583,1.3112774,4.147504,6.2800446,14.752557,-3.2272422,9.451002,-33.86348,77.42127,-13.7759285,-2.734237,3.8662941,-17.352184,-13.998904,46.126427,66.65542,2.937425,4.5125427,-6.97133
190,-2.654494524002075,2.104799509048462,78.65193939208984,0.0866665884695142,-3.0091636253850136,177.52509140473876,-19.5917,5.8038926,-13.036401,32.574886,-7.115089,-0.86764973,3.3924425,-3.1308253,-5.8870826,14.187927,-13.830508,1.4446198,4.2797303,6.2081757,14.679741,-2.7572246,9.407713,-33.838036,77.55576,-13.7238245,-2.5685003,3.5715077,-17.42142,-14.002926,46.065166,66.56276,2.9962773,4.4985094,-6.995568
191,-2.827998399734497,1.9475709199905396,78.64391326904297,0.14967983347301175,-2.91890341833852,177.29966506762366,-19.788218,5.8022146,-13.261987,32.16175,-6.797487,-0.4811518,3.335422,-3.3124187,-5.646395,14.28744,-13.951521,1.5857885,4.4228024,6.1552644,14.593856,-2.3544617,9.274357,-33.820187,77.7952,-13.680871,-2.4296832,3.2890952,-17.478334,-14.011567,46.009407,66.48534,3.062915,4.4783998,-7.023099
192,-3.0065841674804688,1.7864747047424316,78.63285827636719,0.210076022272745,-2.8367101854933026,177.07816007380222,-19.974497,5.8435993,-13.352715,31.799704,-6.52517,-0.06558672,3.3018265,-3.4987576,-5.41244,14.371179,-14.073899,1.7423266,4.557178,6.101121,14.511262,-1.9307828,9.152959,-33.792545,77.99929,-13.687402,-2.3266556,3.0320055,-17.527912,-14.018345,45.9793,66.406044,3.1450071,4.45396,-7.0522823
193,-3.1915829181671143,1.6120609045028687,78.61997985839844,0.27227063634011667,-2.7645184961412728,176.85601728476163,-20.148006,5.93563,-13.286083,31.485428,-6.2917557,0.39837155,3.2974794,-3.6962843,-5.1835346,14.427089,-14.191938,1.9275651,4.688824,6.0418077,14.435891,-1.4834753,9.04483,-33.752098,78.16679,-13.769804,-2.2785916,2.8097184,-17.570822,-14.024188,45.97044,66.32463,3.2569957,4.419667,-7.088419
194,-3.386461019515991,1.4293603897094727,78.60311889648438,0.33616671444332585,-2.700178245052631,176.63396472667196,-20.311865,6.05811,-13.108443,31.221022,-6.0889616,0.8983325,3.314485,-3.9051075,-4.958323,14.465364,-14.308635,2.1339328,4.8158646,5.9974685,14.353624,-1.064551,8.874603,-33.70381,78.38934,-13.903538,-2.2778213,2.6176455,-17.606474,-14.033576,45.989307,66.25639,3.3941617,4.377995,-7.1317663
195,-3.5862185955047607,1.2498893737792969,78.58250427246094,0.3917253499298449,-2.6414875769507775,176.42155089958874,-20.467999,6.210794,-12.836203,31.01267,-5.937456,1.3989346,3.3469558,-4.1107044,-4.7425475,14.501799,-14.432029,2.337469,4.9386644,5.958056,14.270288,-0.6493432,8.703643,-33.653137,78.60151,-14.042298,-2.28588,2.4356341,-17.631065,-14.0434885,46.02415,66.18446,3.5240688,4.336624,-7.1671963
196,-3.799582004547119,1.0620439052581787,78.55882263183594,0.4279971166889328,-2.586787846999049,176.2283476788611,-20.619677,6.393901,-12.487467,30.869473,-5.8590074,1.8646338,3.3920507,-4.297603,-4.5421166,14.54655,-14.567237,2.514193,5.050029,5.930481,14.181562,-0.2489389,8.53375,-33.600582,78.806816,-14.138686,-2.2716246,2.2509627,-17.641626,-14.052201,46.07175,66.10839,3.6118193,4.3043566,-7.180523
197,-4.021550178527832,0.860107421875,78.5320053100586,0.44270114110308595,-2.532286226520149,176.04689338930933,-20.762405,6.63767,-12.008401,30.782148,-5.888735,2.2838428,3.4436257,-4.4612265,-4.3484864,14.602319,-14.713046,2.6500416,5.15789,5.9160323,14.08106,0.13926235,8.365451,-33.538124,79.005035,-14.177164,-2.2243824,2.061816,-17.639254,-14.058592,46.146168,66.02938,3.6462228,4.2862425,-7.161165
198,-4.243709087371826,0.66806560754776,78.49391174316406,0.4409559316521313,-2.4805118552807546,175.87513690718094,-20.892614,6.9334655,-11.41084,30.747215,-6.0047073,2.6749156,3.5060067,-4.6099324,-4.1616135,14.661558,-14.866338,2.7606533,5.26059,5.9113436,13.973184,0.5204559,8.198085,-33.46539,79.193504,-14.183226,-2.1616738,1.8745793,-17.625381,-14.061991,46.24354,65.94844,3.64386,4.2768493,-7.1191525
199,-4.474578380584717,0.46752527356147766,78.45286560058594,0.4237327109163208,-2.4387975869828695,175.73050078862275,-21.01461,7.223198,-10.810976,30.778973,-6.139889,3.0489004,3.5892544,-4.748402,-3.999654,14.725192,-15.0321865,2.8667102,5.3418746,5.915197,13.869398,0.8869138,8.033563,-33.39921,79.37271,-14.173316,-2.0956788,1.688402,-17.60296,-14.061744,46.34245,65.86853,3.6240883,4.268304,-7.071143
200,-4.717895984649658,0.25741448998451233,78.40914154052734,0.39121627001784626,-2.4146710515650094,175.6305082164027,-21.13509,7.4492116,-10.3244705,30.8918,-6.2261853,3.4186478,3.7046347,-4.881346,-3.8811002,14.792536,-15.2147045,2.988593,5.3866153,5.9269705,13.781748,1.2301393,7.8758755,-33.36121,79.54205,-14.167563,-2.0385327,1.5025439,-17.571753,-14.056365,46.41748,65.78773,3.6045575,4.2531667,-7.0337715
201,-4.95944881439209,0.05065520107746124,78.3538589477539,0.34194899996534567,-2.4129403183385243,175.58692489393246,-21.261002,7.603116,-9.971332,31.097795,-6.249094,3.7928636,3.8603745,-5.008217,-3.8165028,14.863646,-15.419156,3.1324263,5.382408,5.945159,13.71736,1.5474786,7.7292414,-33.337006,79.702995,-14.15249,-1.9874718,1.2956898,-17.53525,-14.045858,46.467926,65.70406,3.5819414,4.2288513,-7.010419
202,-5.208333969116211,-0.15542049705982208,78.29395294189453,0.2760930988489469,-2.428571484993903,175.5879154199226,-21.387272,7.714478,-9.693034,31.383297,-6.240417,4.1641865,4.049673,-5.1280727,-3.7941494,14.937895,-15.641191,3.2871306,5.344671,5.9586797,13.678503,1.8719519,7.6384964,-33.324806,79.79877,-14.124994,-1.9324107,1.0691105,-17.486149,-14.035099,46.496468,65.59484,3.548836,4.1995826,-6.9916134
203,-5.456923484802246,-0.3691948354244232,78.22917938232422,0.1961858160629587,-2.454274582117832,175.615697139439,-21.507652,7.782656,-9.487999,31.731346,-6.203711,4.5221004,4.2578335,-5.243808,-3.7992527,15.021093,-15.874031,3.44727,5.2835135,5.991055,13.637013,2.1598501,7.5157185,-33.350212,79.9229,-14.115271,-1.8929962,0.87586594,-17.431623,-14.013961,46.512592,65.511185,3.5174994,4.1674485,-6.978107
204,-5.715600490570068,-0.5908464789390564,78.1583251953125,0.10609890476809954,-2.482455068707422,175.65239881995933,-21.613338,7.8062296,-9.353579,32.12068,-6.141286,4.855901,4.4689827,-5.3594475,-3.8167675,15.1214485,-16.113155,3.6071827,5.2279468,6.032749,13.588281,2.4371312,7.3964243,-33.46071,80.0271,-14.163018,-1.87332,0.7533465,-17.361193,-13.987501,46.493343,65.44632,3.494028,4.1341953,-6.967524
205,-5.983630657196045,-0.8226800560951233,78.08169555664062,0.011255840688093668,-2.512042329451286,175.70327037179902,-21.740498,7.743297,-9.338549,32.617985,-6.0076594,5.292755,4.676989,-5.483309,-3.8513527,15.253264,-16.367983,3.7664554,5.1612387,6.0681834,13.543479,2.7343729,7.320135,-33.668224,80.05546,-14.302418,-1.8791963,0.7327542,-17.268713,-13.966166,46.445145,65.36665,3.4864285,4.0984683,-6.959206
206,-6.258270740509033,-1.0669621229171753,78.00054931640625,-0.09233226593624444,-2.5467243221456664,175.77439595421785,-21.87915,7.6079893,-9.4255295,33.20598,-5.8125253,5.793524,4.892488,-5.6096926,-3.9085188,15.406346,-16.637068,3.9273381,5.123303,6.1245084,13.474899,2.971009,7.1971083,-34.014977,80.1467,-14.5266695,-1.9141933,0.7968793,-17.148638,-13.928867,46.32174,65.3288,3.471776,4.0573125,-6.9559746
207,-6.535104751586914,-1.3059712648391724,77.9100112915039,-0.21331204995749814,-2.586094657084676,175.8495807872797,-21.956,7.4803824,-9.516342,33.747223,-5.648999,6.0994754,5.1212792,-5.7229004,-3.973873,15.558048,-16.902065,4.0881014,5.0663486,6.1880655,13.418208,3.2308908,7.1110225,-34.361004,80.16562,-14.737468,-1.9505213,0.8717714,-17.02507,-13.899203,46.208515,65.28612,3.474492,4.0200067,-6.954163
208,-6.821650981903076,-1.5609846115112305,77.81597137451172,-0.36065451001406107,-2.629381763897491,175.91293029643577,-21.90099,7.4414973,-9.517667,34.111492,-5.617202,5.954407,5.3700795,-5.8075604,-4.0338845,15.682252,-17.142859,4.2474895,5.0191464,6.272439,13.367037,3.5011435,7.0489006,-34.678112,80.133995,-14.874496,-1.97114,0.8993955,-16.902384,-13.875207,46.100723,65.260704,3.489348,3.991403,-6.9524765
209,-7.119174480438232,-1.825974702835083,77.71906280517578,-0.5413385470412607,-2.6776681681078123,175.95964427768553,-21.666796,7.5359635,-9.392727,34.228508,-5.7341805,5.132208,5.6418543,-5.8524003,-4.0852346,15.774981,-17.365725,4.397071,5.0510125,6.403022,13.289837,3.715682,6.9476037,-35.041683,80.1506,-14.936563,-1.9720784,0.86900413,-16.763134,-13.835215,45.932796,65.30021,3.5059044,3.9701667,-6.953953
210,-7.42507791519165,-2.0953924655914307,77.61604309082031,-0.7485130361787736,-2.7301127830048855,175.99916973500532,-21.307533,7.7151284,-9.1893215,34.192123,-5.9484496,3.826046,5.932837,-5.8683295,-4.1357665,15.84724,-17.576586,4.5404162,5.036379,6.5442963,13.237384,3.9771605,6.897454,-35.311855,80.05403,-14.907276,-1.9554205,0.79841274,-16.640778,-13.811699,45.836216,65.32704,3.5646977,3.9590049,-6.9556065
211,-7.72172212600708,-2.36179518699646,77.50740814208984,-0.970241608565032,-2.7834838687746424,176.0370449164604,-20.908371,7.920501,-8.943495,34.124058,-6.2654495,2.4084375,6.2340374,-5.874475,-4.185217,15.906903,-17.760445,4.6928873,5.0836325,6.7113194,13.15852,4.1941767,6.8171945,-35.6688,80.01037,-14.884969,-1.9444984,0.72577095,-16.499992,-13.770755,45.65935,65.41729,3.5958157,3.9496882,-6.959567
212,-8.036544799804688,-2.647763967514038,77.40386199951172,-1.1943274093432397,-2.8349465117838597,176.078515906702,-20.552708,8.0918455,-8.700695,34.14587,-6.696252,1.2473966,6.5377064,-5.890269,-4.233465,15.961077,-17.902353,4.869701,5.067947,6.871855,13.099617,4.4625454,6.775459,-35.963184,79.89276,-14.855837,-1.9470727,0.661535,-16.378927,-13.746361,45.53297,65.51075,3.6198945,3.9462683,-6.9615993
213,-8.362747192382812,-2.948746919631958,77.30208587646484,-1.4227607198404995,-2.890005640922879,176.11785753730243,-20.233246,8.23185,-8.450767,34.2635,-7.287622,0.39485985,6.855042,-5.9143033,-4.278482,15.999548,-18.003181,5.0762115,5.107076,7.0467257,13.018301,4.704529,6.7160025,-36.376354,79.82548,-14.886718,-1.97927,0.6319132,-16.236893,-13.710506,45.32058,65.66767,3.57575,3.940707,-6.9544435
214,-8.683570861816406,-3.2554142475128174,77.20477294921875,-1.660126563821738,-2.948449629948046,176.15482952974762,-19.914337,8.367759,-8.177371,34.418713,-8.018997,-0.33361316,7.186325,-5.9389668,-4.321012,16.022705,-18.069418,5.303711,5.135099,7.232087,12.937571,4.956166,6.656459,-36.80097,79.74686,-14.92331,-2.029188,0.6176368,-16.0994,-13.674735,45.10723,65.861824,3.502952,3.9382052,-6.940385
215,-9.011869430541992,-3.5772945880889893,77.11542510986328,-1.8986187003044301,-2.9986054813733225,176.20104095362487,-19.625618,8.474912,-7.9236574,34.617256,-8.806383,-0.92620146,7.504978,-5.9735465,-4.3628945,16.055384,-18.093376,5.54557,5.1655912,7.4217105,12.848416,5.198363,6.594014,-37.223465,79.67764,-14.961175,-2.081845,0.59518534,-15.963083,-13.638561,44.863087,66.088295,3.4261646,3.941002,-6.939693
216,-9.339742660522461,-3.9135239124298096,77.0328369140625,-2.130259487453618,-3.0289015856232773,176.2681167150139,-19.39755,8.527563,-7.735334,34.86659,-9.568314,-1.370019,7.784128,-6.0271835,-4.4060545,16.123724,-18.068478,5.7949214,5.190528,7.6070065,12.748915,5.4227276,6.5309935,-37.60365,79.62223,-14.989182,-2.1217952,0.5400131,-15.83358,-13.605382,44.58361,66.337036,3.3770907,3.952521,-6.972011
217,-9.665289878845215,-4.258400917053223,76.9568862915039,-2.35593021251635,-3.0333947047424847,176.36557476648954,-19.247131,8.507519,-7.641757,35.180725,-10.315847,-1.624465,8.032488,-6.0999317,-4.462036,16.203848,-17.991762,6.0571876,5.19542,7.787956,12.63722,5.636146,6.474751,-37.927876,79.571144,-15.006317,-2.1484497,0.4365566,-15.707083,-13.5784025,44.266422,66.60543,3.38273,3.9714012,-7.0594893
218,-9.990806579589844,-4.611744403839111,76.89155578613281,-2.5793492294089444,-3.019505580916066,176.48486884346644,-19.152271,8.429344,-7.6178823,35.547344,-11.08353,-1.7088549,8.262005,-6.186593,-4.525853,16.28695,-17.867731,6.332786,5.2113256,7.9722056,12.507165,5.8217783,6.40893,-38.247208,79.55271,-15.026067,-2.1703534,0.3030558,-15.575405,-13.551907,43.88622,66.908615,3.411102,3.9954345,-7.186255
219,-10.315119743347168,-4.977926731109619,76.84019470214844,-2.7961873843366534,-2.995090703120266,176.60996715811066,-19.0876,8.314842,-7.625739,35.939747,-11.827254,-1.697761,8.442352,-6.288414,-4.573655,16.437752,-17.69908,6.606657,5.2275367,8.152355,12.376342,5.992891,6.342526,-38.528404,79.53957,-15.033539,-2.180729,0.15880397,-15.451229,-13.530681,43.49032,67.22094,3.4305372,4.031101,-7.3136535
220,-10.640546798706055,-5.358831405639648,76.79864501953125,-3.0022136531002652,-2.968224983403087,176.7253708970577,-19.027397,8.186503,-7.625766,36.32954,-12.50159,-1.6655458,8.543409,-6.4067416,-4.5817533,16.720331,-17.491331,6.8637543,5.2245092,8.317237,12.264542,6.17624,6.2980475,-38.728752,79.48445,-15.010747,-2.1712701,0.021753164,-15.354447,-13.519803,43.138718,67.51985,3.414691,4.085817,-7.4034977
221,-10.964269638061523,-5.744917392730713,76.77304077148438,-3.1996098860527247,-2.9358142189217724,176.8359038697608,-18.990885,8.038541,-7.6264195,36.744946,-13.103173,-1.5892576,8.575213,-6.5397544,-4.552605,17.111858,-17.231611,7.1252894,5.310096,8.481731,12.140014,6.2841077,6.224383,-38.9819,79.50523,-14.980452,-2.1348526,-0.09940438,-15.236547,-13.513723,42.673653,67.818405,3.282302,4.1670403,-7.4456325
222,-11.282426834106445,-6.1373138427734375,76.75739288330078,-3.3894445499772488,-2.8951418576799104,176.94667333480544,-18.983183,7.8603835,-7.6427693,37.188858,-13.652583,-1.4431602,8.547141,-6.6868463,-4.4947934,17.592556,-16.922916,7.3908587,5.380576,8.6392765,12.023922,6.382294,6.1488914,-39.16704,79.521736,-14.914484,-2.0758219,-0.22023574,-15.134605,-13.520428,42.227806,68.10924,3.111407,4.273301,-7.4610105
223,-11.592986106872559,-6.534603118896484,76.74922943115234,-3.5652076062862377,-2.8559750435381814,177.04243728771243,-18.953968,7.668337,-7.641989,37.58877,-14.137199,-1.2971776,8.4338875,-6.8516207,-4.394594,18.219727,-16.589096,7.612996,5.4466586,8.78159,11.922919,6.488384,6.090925,-39.293617,79.504654,-14.848253,-2.0148826,-0.33566713,-15.058056,-13.53328,41.817955,68.40363,2.9406946,4.378079,-7.454497
224,-11.90411376953125,-6.944032669067383,76.7555160522461,-3.7197501233468993,-2.8279117531086313,177.10786542599,-18.855112,7.4795117,-7.5908556,37.876015,-14.54709,-1.2207313,8.2075,-7.03907,-4.237962,19.055395,-16.25658,7.7439103,5.5184164,8.905381,11.839668,6.6097546,6.050206,-39.370323,79.44688,-14.816727,-1.9749521,-0.43847516,-15.015577,-13.5472765,41.46528,68.716156,2.811247,4.4551654,-7.4320335
225,-12.21265697479248,-7.3578925132751465,76.77373504638672,-3.857278106681022,-2.811499090645238,177.12976265567383,-18.683195,7.3085613,-7.4836354,38.041367,-14.874689,-1.2610604,7.8583875,-7.23975,-3.9925587,20.10333,-15.9089985,7.802054,5.690432,9.026875,11.758705,6.6749196,5.9830413,-39.479603,79.43368,-14.852871,-1.9613179,-0.52628875,-14.963687,-13.587018,41.054432,69.029594,2.7070549,4.489677,-7.394616
226,-12.517528533935547,-7.781773567199707,76.80433654785156,-3.9778476363725357,-2.802106531935237,177.11902885173768,-18.461548,7.1413207,-7.335003,38.11706,-15.1273365,-1.3707442,7.4068274,-7.4545927,-3.675582,21.321302,-15.534393,7.8031287,5.849176,9.133996,11.698284,6.760945,5.928066,-39.504433,79.3731,-14.910374,-1.9594653,-0.60715455,-14.953088,-13.635674,40.72552,69.35899,2.6563988,4.496994,-7.3423643
227,-12.82376480102539,-8.214111328125,76.8487777709961,-4.066079841827782,-2.8014886382929847,177.09591468234146,-18.180119,6.9498963,-7.1410165,38.092243,-15.315008,-1.4761877,6.8715253,-7.7074556,-3.3468242,22.697298,-15.1583605,7.6948657,5.994132,9.207181,11.653594,6.8667417,5.8970666,-39.48449,79.272156,-14.981205,-1.9739407,-0.67228043,-14.983677,-13.672448,40.45594,69.71305,2.6111832,4.499343,-7.268181
228,-13.122570037841797,-8.644465446472168,76.9089126586914,-4.107038470006625,-2.811486364570255,177.0807552475473,-17.828876,6.70694,-6.8993134,37.954605,-15.445386,-1.5033016,6.2760854,-8.023538,-3.0667546,24.209103,-14.802984,7.4248414,6.179307,9.24859,11.618012,6.9285135,5.852393,-39.51169,79.21055,-15.063008,-2.0150106,-0.70922804,-14.996861,-13.749832,40.154465,70.0291,2.5070949,4.5185056,-7.1559644
229,-13.422374725341797,-9.083540916442871,76.98291778564453,-4.082366763819754,-2.8372304701603843,177.06531694838552,-17.392464,6.3989444,-6.5816956,37.69026,-15.508188,-1.4234011,5.6008997,-8.416326,-2.7766302,25.89216,-14.463614,6.959555,6.337748,9.227627,11.606643,7.0081735,5.825843,-39.51556,79.12137,-15.158589,-2.082826,-0.7194161,-15.049971,-13.815898,39.92787,70.37694,2.3830056,4.5541825,-7.0249157
230,-13.72100830078125,-9.532387733459473,77.06808471679688,-4.001523732812009,-2.875684642826188,177.04270200109508,-16.8809,6.038283,-6.1988087,37.303658,-15.49936,-1.2771899,4.8516827,-8.873386,-2.469898,27.71907,-14.118411,6.334255,6.5018845,9.155464,11.613736,7.0856967,5.8092737,-39.513268,79.02304,-15.274452,-2.1743798,-0.7063616,-15.127753,-13.880419,39.733116,70.74321,2.2375727,4.5962825,-6.873108
231,-14.019319534301758,-9.982312202453613,77.16561889648438,-3.89094476722315,-2.916391861498858,177.0352342512975,-16.325232,5.6368747,-5.806943,36.81884,-15.439888,-1.0952059,4.0819263,-9.388572,-2.2841387,29.593767,-13.774128,5.5952263,6.6550508,9.054596,11.620456,7.160049,5.803289,-39.504547,78.922356,-15.374451,-2.285013,-0.6705452,-15.241083,-13.9367,39.566967,71.116295,2.054074,4.647541,-6.6740084
232,-14.314216613769531,-10.430387496948242,77.27363586425781,-3.778743753773354,-2.94905374209309,177.0658846173806,-15.754728,5.209248,-5.4629245,36.260063,-15.351434,-0.908605,3.3430753,-9.960919,-2.3563201,31.431364,-13.446026,4.784042,6.78676,8.951343,11.6078,7.22545,5.806028,-39.498188,78.830154,-15.425469,-2.4100149,-0.6122035,-15.385803,-13.9884815,39.404793,71.46761,1.7998335,4.711285,-6.39966
233,-14.611872673034668,-10.87983512878418,77.38404083251953,-3.6635667937061536,-2.9819474513147113,177.13968672248177,-15.142933,4.74827,-5.169266,35.59998,-15.230676,-0.707932,2.6677887,-10.623282,-2.7381368,33.197063,-13.066795,3.9426982,6.9405875,8.85584,11.585958,7.2645845,5.832241,-39.559105,78.7339,-15.402575,-2.5422878,-0.5333478,-15.493338,-14.109274,39.174545,71.70602,1.4227784,4.8023567,-6.00593
234,-14.911770820617676,-11.319412231445312,77.49870300292969,-3.533014973345982,-3.0172348972400553,177.24526273859112,-14.4854555,4.2502174,-4.902142,34.83729,-15.069141,-0.4817868,2.0236835,-11.380758,-3.3508985,34.952095,-12.661859,3.0279396,7.073918,8.751269,11.559249,7.3111076,5.882771,-39.636276,78.61209,-15.328824,-2.6857002,-0.43335816,-15.610314,-14.255031,38.958855,71.8991,0.9700061,4.911681,-5.5225143
235,-15.207582473754883,-11.752811431884766,77.61226654052734,-3.4013865263348695,-3.0359382963424406,177.3811117453295,-13.840749,3.737975,-4.6777196,34.033504,-14.88051,-0.2585884,1.368604,-12.188964,-4.1362886,36.75616,-12.397191,1.9532034,7.1978664,8.6387205,11.5218525,7.3475165,5.9538736,-39.689175,78.48828,-15.243062,-2.8484077,-0.3126378,-15.760865,-14.410119,38.7577,72.04839,0.50298584,5.0136123,-5.009582
236,-15.488483428955078,-12.175389289855957,77.71829223632812,-3.284373471968146,-3.019113100472864,177.54596680533757,-13.267014,3.2367222,-4.511691,33.252308,-14.679763,-0.068235904,0.65985775,-12.997405,-5.0328875,38.668247,-12.43837,0.635863,7.3212385,8.524695,11.470048,7.363064,6.04675,-39.681522,78.37323,-15.1893425,-3.0380783,-0.17287715,-15.955246,-14.579497,38.57403,72.13126,0.08412675,5.086416,-4.526147
237,-15.758631706237793,-12.584275245666504,77.81845092773438,-3.1930970963910346,-2.9550586227860096,177.74734208909967,-12.783292,2.7571955,-4.4188566,32.502186,-14.465016,0.07839213,-0.13843529,-13.84396,-6.1486826,40.76816,-12.868729,-1.1348321,7.4466977,8.422085,11.390982,7.352816,6.1631575,-39.62159,78.269356,-15.175243,-3.2800426,-0.010521895,-16.191456,-14.766433,38.41535,72.14165,-0.29805255,5.1350765,-4.054873
238,-16.022674560546875,-12.984763145446777,77.9127197265625,-3.1182576893038307,-2.8562601240991707,177.98384885083698,-12.35631,2.286901,-4.387407,31.757479,-14.234445,0.19609375,-0.98131096,-14.74184,-7.462464,43.006237,-13.610057,-3.2552757,7.56987,8.325435,11.290651,7.3243837,6.3036923,-39.525093,78.16885,-15.179845,-3.5622244,0.17368239,-16.461704,-14.972988,38.274128,72.086685,-0.6712969,5.1682506,-3.5751514
