unveil-humanoid-operators/unveil-humanoid-operators.github.io/feature-analysis-animation/data/feature_matrix_instances/weight_ankle_rom_walking_A020_Turn_Start_Walk_0315_001__A020.csv
Frame,root_translateX,root_translateY,root_translateZ,root_rotateX,root_rotateY,root_rotateZ,left_hip_pitch_joint_dof,left_hip_roll_joint_dof,left_hip_yaw_joint_dof,left_knee_joint_dof,left_ankle_pitch_joint_dof,left_ankle_roll_joint_dof,right_hip_pitch_joint_dof,right_hip_roll_joint_dof,right_hip_yaw_joint_dof,right_knee_joint_dof,right_ankle_pitch_joint_dof,right_ankle_roll_joint_dof,waist_yaw_joint_dof,waist_roll_joint_dof,waist_pitch_joint_dof,left_shoulder_pitch_joint_dof,left_shoulder_roll_joint_dof,left_shoulder_yaw_joint_dof,left_elbow_joint_dof,left_wrist_roll_joint_dof,left_wrist_pitch_joint_dof,left_wrist_yaw_joint_dof,right_shoulder_pitch_joint_dof,right_shoulder_roll_joint_dof,right_shoulder_yaw_joint_dof,right_elbow_joint_dof,right_wrist_roll_joint_dof,right_wrist_pitch_joint_dof,right_wrist_yaw_joint_dof
0,-0.45463308691978455,2.7260689735412598,78.48223876953125,1.5763845565061874,-3.3050524567109734,-76.76805727623812,3.6018872,2.8496115,6.053696,9.945431,-11.343653,-6.029957,9.78515,-8.312636,-31.354843,7.1809626,-11.232436,5.7506695,-1.1702573,-0.748763,7.843613,0.48276013,15.48079,-41.15408,52.74986,10.7021675,-1.9393342,-0.7182468,-7.5783896,-12.307602,42.313828,59.945065,-18.726427,-0.07614319,8.745308
1,-0.43983012437820435,2.7483372688293457,78.48779296875,1.5634925442899787,-3.2487615439995667,-76.82622371828482,3.364581,2.8718936,6.1209793,10.311843,-11.506122,-5.869375,9.669973,-8.314617,-31.27025,7.204982,-11.194444,5.731478,-1.2791449,-0.7176516,7.8148346,0.47419342,15.496394,-41.16634,52.705635,10.621741,-1.9423063,-0.74421626,-7.666841,-12.3100395,42.26693,59.910954,-18.706959,-0.075250044,8.74254
2,-0.4239400029182434,2.7765769958496094,78.4889907836914,1.5530318894523256,-3.1936041964040545,-76.88521893552767,3.1334128,2.8914602,6.1891203,10.668924,-11.663455,-5.711834,9.455327,-8.382697,-31.17006,7.479327,-11.288612,5.7134438,-1.3334931,-0.69908357,7.800095,0.44156352,15.540609,-41.22407,52.651375,10.525732,-1.9494116,-0.7751484,-7.7248077,-12.322612,42.14292,59.84609,-18.720072,-0.08177858,8.74941
3,-0.4015233516693115,2.805347442626953,78.48934173583984,1.5429039256184098,-3.12943106919682,-76.95037093137515,2.882617,2.9121811,6.263125,11.047182,-11.832153,-5.5482635,9.212514,-8.46089,-31.060417,7.789576,-11.397791,5.6950884,-1.4153649,-0.67477787,7.7700887,0.41481912,15.56918,-41.267056,52.60985,10.439771,-1.9518142,-0.80158436,-7.7929397,-12.334454,42.054146,59.785255,-18.716118,-0.08206054,8.749112
4,-0.37567025423049927,2.8349146842956543,78.48855590820312,1.531198843401073,-3.044596486111977,-77.0307702133936,2.5857434,2.938591,6.3514004,11.476342,-12.0278425,-5.3699975,8.927163,-8.544643,-30.9319,8.126035,-11.512006,5.675924,-1.4925315,-0.6465946,7.7256737,0.37397686,15.601811,-41.345383,52.570095,10.364303,-1.936934,-0.82013917,-7.8623652,-12.353392,41.95477,59.699764,-18.69338,-0.07245011,8.740019
5,-0.34458622336387634,2.8698654174804688,78.48625946044922,1.5172208730594938,-2.9329659236628007,-77.12257984530368,2.230454,2.968357,6.450446,11.965116,-12.256567,-5.176175,8.585519,-8.63985,-30.784931,8.505671,-11.638696,5.657392,-1.5820613,-0.61211705,7.6584544,0.32667416,15.63366,-41.44766,52.53031,10.291305,-1.8964278,-0.83507,-7.9348216,-12.378791,41.857174,59.587563,-18.645052,-0.045782648,8.715118
6,-0.3135340213775635,2.905514717102051,78.482666015625,1.5026792087705187,-2.8018513754788,-77.22301760795276,1.834432,3.000108,6.5577173,12.494624,-12.507179,-4.971267,8.197833,-8.746567,-30.622902,8.929053,-11.77925,5.638847,-1.6673009,-0.5733871,7.578318,0.2718011,15.673264,-41.58183,52.482475,10.216901,-1.8367419,-0.8471174,-7.992517,-12.422733,41.74097,59.43308,-18.585983,-0.007218087,8.681475
7,-0.28018051385879517,2.9488422870635986,78.47535705566406,1.484029497466556,-2.6606220408087977,-77.34197853462646,1.4119757,3.0407255,6.6812744,13.061734,-12.774703,-4.7553625,7.793884,-8.846097,-30.443535,9.345022,-11.911929,5.616944,-1.7826849,-0.52648526,7.4854403,0.2169169,15.694584,-41.701397,52.452957,10.179428,-1.7759567,-0.8465746,-8.080177,-12.453272,41.666824,59.298744,-18.5064,0.033402473,8.642954
8,-0.24915216863155365,2.9912307262420654,78.46817016601562,1.4596286929590034,-2.5181329556358474,-77.48990163964612,0.9792238,3.0970476,6.8298416,13.658171,-13.051611,-4.5280643,7.3868766,-8.929966,-30.241522,9.739054,-12.027705,5.5890794,-1.881725,-0.4715471,7.395491,0.14046325,15.719147,-41.863525,52.43485,10.179394,-1.7268827,-0.8214997,-8.155719,-12.49494,41.576,59.14156,-18.439472,0.06387206,8.61503
9,-0.21415159106254578,3.039895534515381,78.46157836914062,1.425233997421534,-2.3714163137162054,-77.66492675896235,0.5228962,3.173007,7.000488,14.303265,-13.34301,-4.2878957,6.9747825,-8.99443,-30.021637,10.109375,-12.125433,5.5533595,-1.9774743,-0.40479454,7.306299,0.047799323,15.748092,-42.06412,52.42194,10.248386,-1.6905041,-0.76655275,-8.229968,-12.549516,41.488445,58.96659,-18.384174,0.08008277,8.602114
10,-0.17626935243606567,3.0907578468322754,78.45468139648438,1.3834173846771252,-2.2180222816688464,-77.863034244709,0.0397701,3.265822,7.189874,14.9959955,-13.650012,-4.035607,6.550117,-9.04468,-29.784475,10.467567,-12.210582,5.512035,-2.0785725,-0.32758355,7.214,-0.053830337,15.779327,-42.28882,52.411552,10.3714285,-1.6600649,-0.6891053,-8.308869,-12.612364,41.411804,58.779015,-18.330412,0.08863092,8.597381
11,-0.13514059782028198,3.1380486488342285,78.44934844970703,1.3364749648999887,-2.0666390355361886,-78.09120914899509,-0.43466845,3.3716233,7.40511,15.68943,-13.960884,-3.7743287,6.126267,-9.079582,-29.520779,10.803246,-12.280223,5.4683123,-2.218194,-0.24501015,7.1200457,-0.1434459,15.7948475,-42.463814,52.41803,10.521941,-1.6417019,-0.60201144,-8.425598,-12.640466,41.382748,58.632027,-18.266706,0.09554318,8.588574
12,-0.09495670348405838,3.183786630630493,78.44261169433594,1.290323379976594,-1.925510199364204,-78.35635876469777,-0.8738553,3.4875054,7.6536303,16.355185,-14.267979,-3.5067148,5.7150583,-9.09941,-29.220955,11.108798,-12.332803,5.4254074,-2.312793,-0.16274561,7.0403185,-0.2511149,15.81806,-42.67253,52.434948,10.619042,-1.6347787,-0.50810504,-8.505262,-12.681812,41.307503,58.444702,-18.196785,0.10461406,8.576189
13,-0.0573154017329216,3.229576349258423,78.4355239868164,1.243413829078448,-1.7946216681541651,-78.65743318394046,-1.2809558,3.6124723,7.933708,16.998974,-14.573499,-3.222741,5.3171434,-9.10422,-28.885141,11.383047,-12.368837,5.3862724,-2.3988018,-0.080303535,6.9793663,-0.35602206,15.845775,-42.853355,52.45258,10.678116,-1.6532669,-0.4046315,-8.57921,-12.72944,41.2299,58.234264,-18.104383,0.119549476,8.559694
14,-0.017846977338194847,3.2844252586364746,78.42655944824219,1.1937680345667232,-1.6702625962930795,-78.99173506999631,-1.6666322,3.7487123,8.242331,17.632082,-14.879353,-2.9244983,4.9298363,-9.091974,-28.518343,11.623239,-12.385113,5.3488007,-2.481441,0.0053331917,6.9323797,-0.45939988,15.879906,-43.01834,52.468456,10.718048,-1.6914344,-0.28952923,-8.64993,-12.783344,41.15779,58.00143,-17.992424,0.13731526,8.541377
15,0.027250271290540695,3.3305530548095703,78.41876983642578,1.1424512675177416,-1.5558709792740184,-79.36383885807622,-2.0158894,3.8980417,8.585076,18.235455,-15.18076,-2.6331596,4.550474,-9.064079,-28.116547,11.843581,-12.388583,5.3083253,-2.5655391,0.0942242,6.897394,-0.55171466,15.917924,-43.159245,52.479412,10.74178,-1.727922,-0.18461947,-8.718242,-12.837511,41.092274,57.761383,-17.870682,0.15332054,8.518544
16,0.07358886301517487,3.376772880554199,78.40955352783203,1.0859446306475395,-1.4544312072870287,-79.77837262381927,-2.3165464,4.062714,8.967768,18.79662,-15.476429,-2.3690681,4.1729493,-9.024624,-27.675076,12.06519,-12.389383,5.260457,-2.69372,0.18840066,6.865697,-0.618182,15.926901,-43.21505,52.511005,10.773363,-1.7446196,-0.114946395,-8.8280735,-12.846925,41.08045,57.584435,-17.739357,0.16321442,8.48491
17,0.12561026215553284,3.4207961559295654,78.40093994140625,1.0249653955744418,-1.3788155244181757,-80.23591705934179,-2.5404325,4.2419415,9.392767,19.29068,-15.762174,-2.1388996,3.8212755,-8.968155,-27.195053,12.269763,-12.38031,5.205773,-2.7437308,0.28232166,6.8625817,-0.7022791,15.972607,-43.35789,52.520752,10.734635,-1.7225463,-0.072479926,-8.865976,-12.8965435,40.991985,57.33694,-17.612225,0.16163114,8.44136
18,0.1778358370065689,3.4704909324645996,78.38973999023438,0.9595400813294274,-1.3240102561170006,-80.73399169373447,-2.7070167,4.4368973,9.85615,19.743963,-16.044746,-1.9311025,3.4920716,-8.893087,-26.679028,12.451953,-12.358362,5.1460814,-2.8311894,0.38362935,6.87497,-0.7602718,15.999169,-43.417973,52.53922,10.69825,-1.6834956,-0.060090866,-8.94017,-12.921303,40.95959,57.13104,-17.46231,0.15299414,8.385343
19,0.22490091621875763,3.526388168334961,78.37858581542969,0.8949065053477727,-1.2646374937209126,-81.27322483584113,-2.8536053,4.6424065,10.357287,20.167587,-16.321907,-1.7389634,3.1371198,-8.812209,-26.123037,12.649311,-12.337418,5.079303,-2.9289784,0.48722574,6.8816886,-0.80765474,16.018877,-43.453728,52.563786,10.65421,-1.6394027,-0.06970865,-9.020234,-12.935174,40.934444,56.938972,-17.312378,0.14198636,8.33273
20,0.2788175940513611,3.5606868267059326,78.37049865722656,0.8371421008094572,-1.1749282843363582,-81.85693695493175,-3.0259097,4.8536325,10.897761,20.59195,-16.594532,-1.5555263,2.700992,-8.742355,-25.519453,12.913826,-12.338429,5.003559,-3.0070784,0.58100563,6.8678937,-0.8609253,16.044477,-43.511513,52.583126,10.601122,-1.5947024,-0.09489407,-9.0934105,-12.9487095,40.886284,56.734467,-17.16201,0.14011507,8.297156
21,0.32885605096817017,3.592923164367676,78.35901641845703,0.7802701983736268,-1.0445991321553962,-82.48408885312541,-3.2448483,5.0757985,11.473545,21.034986,-16.869484,-1.3796005,2.170543,-8.679776,-24.869331,13.248286,-12.3622,4.919745,-3.0843322,0.67255276,6.819732,-0.9049536,16.07548,-43.563,52.592953,10.546617,-1.5541505,-0.15508464,-9.163831,-12.958901,40.817993,56.531258,-17.02151,0.14498483,8.294463
22,0.387665331363678,3.648832082748413,78.34402465820312,0.72632523873114,-0.8889362616812173,-83.15444328501545,-3.4837484,5.30971,12.085813,21.481009,-17.145508,-1.2143528,1.575854,-8.615749,-24.175135,13.626823,-12.397812,4.8286796,-3.1611917,0.762602,6.751046,-0.9410974,16.108973,-43.60376,52.59624,10.4859295,-1.5112392,-0.245803,-9.239766,-12.962239,40.745106,56.334877,-16.877293,0.15419893,8.312127
23,0.4525626599788666,3.7094836235046387,78.32859802246094,0.6759839388840709,-0.7211343652779131,-83.86560403286352,-3.7147908,5.5482507,12.736724,21.904602,-17.41256,-1.060008,0.93770635,-8.549892,-23.43948,14.037913,-12.440193,4.728043,-3.2354636,0.8411254,6.6780553,-0.972341,16.156153,-43.65558,52.59114,10.420324,-1.4731585,-0.33367512,-9.320122,-12.9558935,40.662334,56.141315,-16.738873,0.16439375,8.328159
24,0.5150991678237915,3.7781853675842285,78.31009674072266,0.6366438080281167,-0.5543280673537088,-84.61596080247392,-3.911801,5.784609,13.428749,22.282537,-17.661505,-0.9168776,0.27551973,-8.48178,-22.664604,14.472706,-12.485767,4.615561,-3.3257673,0.90884936,6.6106367,-1.0041281,16.1951,-43.716534,52.60389,10.359106,-1.4494462,-0.3843217,-9.392738,-12.939525,40.575603,55.94118,-16.631638,0.1742171,8.319151
25,0.5728448033332825,3.8381223678588867,78.2939453125,0.6090858930148674,-0.3840270735792791,-85.40970689043938,-4.0779653,6.017058,14.16783,22.613338,-17.890293,-0.7878094,-0.42505777,-8.414615,-21.84409,14.946072,-12.536794,4.4920797,-3.416511,0.95953727,6.5493646,-1.0429885,16.232681,-43.802773,52.63448,10.293652,-1.4506748,-0.38288963,-9.468843,-12.914738,40.487293,55.73432,-16.546757,0.18591921,8.273715
26,0.6407890915870667,3.90399432182312,78.27556610107422,0.5900920694630497,-0.205611326474764,-86.24637609798671,-4.2242875,6.2486615,14.95145,22.909641,-18.104607,-0.6717968,-1.1715976,-8.346842,-20.978342,15.465304,-12.596836,4.3590126,-3.4937146,0.9883196,6.4889016,-1.0835924,16.292334,-43.926437,52.661068,10.214928,-1.4674581,-0.34931865,-9.552719,-12.864523,40.377167,55.537613,-16.483025,0.19791889,8.20493
27,0.7047317028045654,3.955258846282959,78.26133728027344,0.5765253735281985,-0.03219025914139852,-87.11632751953849,-4.3331976,6.4775395,15.769463,23.163937,-18.304298,-0.56356436,-1.9171631,-8.264408,-20.083195,15.971365,-12.649497,4.2148013,-3.5878434,1.0039344,6.4361663,-1.1158857,16.362333,-44.059017,52.68436,10.143295,-1.4817771,-0.3026197,-9.634182,-12.794412,40.256294,55.351166,-16.438324,0.20412682,8.129072
28,0.7674449682235718,4.018829345703125,78.24581909179688,0.5664800755417577,0.12340757352303082,-88.01028452586428,-4.3900084,6.701677,16.611954,23.373192,-18.490885,-0.45781133,-2.6279912,-8.160919,-19.171919,16.432953,-12.686275,4.0581555,-3.7018104,1.011407,6.399201,-1.1466649,16.435045,-44.206696,52.710217,10.089534,-1.4740479,-0.2594299,-9.708287,-12.712998,40.119038,55.180843,-16.396397,0.19641852,8.06393
29,0.8311989903450012,4.067028045654297,78.237548828125,0.5635252646179425,0.2576834350970003,-88.92955696269627,-4.385795,6.9163127,17.482933,23.527096,-18.659744,-0.35687166,-3.3055265,-8.041261,-18.24091,16.859468,-12.711502,3.882611,-3.8361444,1.0080855,6.3834443,-1.1784408,16.511496,-44.37471,52.736248,10.049215,-1.4324536,-0.21110076,-9.766329,-12.619194,39.947037,55.022083,-16.401909,0.1690495,8.026928
30,0.8991774916648865,4.127070903778076,78.23035430908203,0.5700231988476663,0.3782105839055766,-89.87812322457455,-4.330756,7.1217456,18.386286,23.631374,-18.81195,-0.26265773,-3.9672997,-7.908033,-17.284954,17.268215,-12.729163,3.6914997,-3.983942,0.9924182,6.3840857,-1.2123399,16.592539,-44.564224,52.764286,10.018162,-1.3695849,-0.1524152,-9.824355,-12.513575,39.756096,54.88003,-16.430994,0.12713437,8.0044155
31,0.9590181708335876,4.179587364196777,78.22357940673828,0.5757688842537398,0.4883226536079321,-90.8507441743766,-4.2339125,7.3226805,19.312935,23.696548,-18.95308,-0.1693955,-4.5949564,-7.7513294,-16.3167,17.623043,-12.724554,3.4981704,-4.140889,0.96933,6.392018,-1.2460265,16.67918,-44.77489,52.796593,10.003843,-1.3020604,-0.10638219,-9.876494,-12.398143,39.55834,54.750225,-16.412788,0.07962752,7.9684644
32,1.0242195129394531,4.231950283050537,78.21912384033203,0.5771727318983497,0.5913365166500574,-91.8424416894485,-4.106074,7.5247617,20.253082,23.73704,-19.09077,-0.07136973,-5.171539,-7.5623994,-15.348905,17.891653,-12.684858,3.315738,-4.3039255,0.94450754,6.397431,-1.2753096,16.772486,-45.00452,52.834946,10.014144,-1.2465996,-0.09649341,-9.902099,-12.275344,39.353115,54.61669,-16.294315,0.03583064,7.8912826
33,1.0896583795547485,4.269959926605225,78.21947479248047,0.5732138378916584,0.6843660597796271,-92.85917499353341,-3.9407282,7.728753,21.209026,23.75093,-19.22814,0.035266932,-5.690688,-7.3386903,-14.374071,18.066479,-12.607474,3.136093,-4.46828,0.9180001,6.403608,-1.2989681,16.873579,-45.254066,52.88188,10.067013,-1.2091907,-0.13219807,-9.904458,-12.14656,39.14514,54.473957,-15.998788,0.0018610078,7.756265
34,1.14877188205719,4.293216228485107,78.2241439819336,0.566837688398634,0.7670265856880499,-93.90135603858278,-3.7349474,7.929847,22.184898,23.73217,-19.36082,0.14597973,-6.162998,-7.0883603,-13.388745,18.168295,-12.500215,2.9558272,-4.6368484,0.88711774,6.414293,-1.3177694,16.982954,-45.52303,52.933144,10.1540785,-1.1805005,-0.20015411,-9.89233,-12.012781,38.93465,54.329548,-15.573182,-0.029493812,7.581517
35,1.2075196504592896,4.337627410888672,78.22394561767578,0.5582688827511452,0.8458947630189321,-94.95603425932751,-3.5029151,8.127202,23.174313,23.68529,-19.483847,0.25390756,-6.595068,-6.820061,-12.411721,18.205448,-12.365984,2.7947147,-4.816105,0.8545328,6.4218783,-1.3351061,17.100483,-45.81173,52.981598,10.240237,-1.1539677,-0.28924698,-9.859659,-11.875866,38.722298,54.189693,-15.137792,-0.06894957,7.392427
36,1.2660670280456543,4.36292839050293,78.23279571533203,0.5470990147519049,0.9274951063983186,-96.00994720645878,-3.2585192,8.3194,24.170458,23.613573,-19.591597,0.35268596,-6.9917383,-6.54207,-11.461713,18.180796,-12.205924,2.6726708,-5.0115113,0.82231027,6.4192443,-1.3550608,17.225637,-46.12127,53.02135,10.290826,-1.1229656,-0.38795605,-9.814053,-11.740159,38.519527,54.07184,-14.797473,-0.12658754,7.2139606
37,1.323656678199768,4.384891510009766,78.24449157714844,0.5390798193315356,1.0115404709816476,-97.0634675773562,-2.9953296,8.496319,25.178375,23.502523,-19.675888,0.4423884,-7.3499193,-6.246836,-10.490566,18.071417,-12.00373,2.6271734,-5.225106,0.78460085,6.4045773,-1.3787051,17.358162,-46.457333,53.04878,10.288811,-1.0794696,-0.5081852,-9.747401,-11.607433,38.328007,53.96469,-14.585632,-0.21063378,7.0488358
38,1.381944179534912,4.40642786026001,78.2577896118164,0.5325323824277619,1.0950559319646156,-98.12251419107713,-2.7093008,8.660174,26.199617,23.354595,-19.741266,0.5255813,-7.6669116,-5.937315,-9.504499,17.882349,-11.765198,2.6363235,-5.4536405,0.7425187,6.381697,-1.4055833,17.498014,-46.819134,53.068478,10.253518,-1.0291078,-0.6510413,-9.657706,-11.478601,38.14245,53.86237,-14.444403,-0.31323603,6.885116
39,1.433246374130249,4.425220489501953,78.27481079101562,0.5159134739602059,1.1803232457918615,-99.18230124619156,-2.4198163,8.830961,27.222586,23.20378,-19.803057,0.59997606,-7.9548607,-5.6367965,-8.604564,17.669353,-11.529589,2.630408,-5.692725,0.71086043,6.353961,-1.4334337,17.644123,-47.192333,53.08184,10.213809,-0.98527735,-0.7889719,-9.556471,-11.355197,37.961933,53.77991,-14.341307,-0.41933078,6.7270417
40,1.4786158800125122,4.4505085945129395,78.28948211669922,0.47701511100685984,1.2694839196039416,-100.23824884553517,-2.1464849,9.030159,28.235418,23.085648,-19.877834,0.6635658,-8.229376,-5.366393,-7.8924565,17.48989,-11.334567,2.5396209,-5.939445,0.70476824,6.32421,-1.461469,17.795115,-47.56435,53.092636,10.194718,-0.961764,-0.89450485,-9.454036,-11.239828,37.784206,53.73269,-14.247708,-0.51386565,6.578512
41,1.5236619710922241,4.461826801300049,78.30938720703125,0.40865397653397145,1.3610703125925716,-101.29342165373859,-1.8868834,9.269206,29.239851,23.003616,-19.969526,0.7133285,-8.496012,-5.0761113,-7.258335,17.323265,-11.15902,2.3648858,-6.199659,0.7344151,6.292141,-1.4868327,17.944582,-47.938293,53.108517,10.187354,-0.97069395,-0.9433925,-9.331973,-11.135827,37.606094,53.70724,-14.171769,-0.59849495,6.4420815
42,1.5600714683532715,4.480478763580322,78.33018493652344,0.3187420178700477,1.453910833438466,-102.34905930838516,-1.6332207,9.535616,30.240568,22.942526,-20.070368,0.7514065,-8.7486315,-4.7730904,-6.6941133,17.15192,-10.992666,2.1361275,-6.4677877,0.7865148,6.257394,-1.5104561,18.104399,-48.325657,53.118843,10.180123,-1.0010895,-0.9559183,-9.197228,-11.035303,37.425915,53.708244,-14.121392,-0.67985135,6.314831
43,1.5963772535324097,4.490116596221924,78.35102081298828,0.2158426606140649,1.5509747448020559,-103.39839348840285,-1.3968669,9.818844,31.23148,22.909725,-20.177416,0.7838023,-8.987602,-4.5614557,-6.455085,17.03445,-10.888994,1.8272507,-6.743857,0.85879225,6.21959,-1.5420601,18.254734,-48.697273,53.133686,10.208975,-1.0362046,-0.97104824,-9.056175,-10.951263,37.247444,53.731766,-14.092441,-0.7465963,6.194343
44,1.6379644870758057,4.498254299163818,78.36868286132812,0.10911306699842618,1.6558136127332053,-104.43453538585447,-1.1890987,10.1074,32.20554,22.911617,-20.287941,0.8165874,-9.215565,-4.5463586,-6.7961497,17.031551,-10.904841,1.4122571,-7.007093,0.9341646,6.180558,-1.5846716,18.419725,-49.051693,53.127235,10.297098,-1.0555508,-1.0285145,-8.917331,-10.872964,37.042427,53.785454,-14.093144,-0.789926,6.078075
45,1.6794102191925049,4.5209527015686035,78.38372039794922,-5.677089722561892e-05,1.777181862750904,-105.45462335670554,-1.0284839,10.401929,33.157703,22.961323,-20.406359,0.86088824,-9.457858,-4.7942147,-7.884487,17.226871,-11.099504,0.81811327,-7.2720056,1.0183059,6.1331463,-1.6399648,18.5835,-49.367344,53.107018,10.48116,-1.0532422,-1.1534652,-8.770082,-10.809508,36.81513,53.858875,-14.13197,-0.8034255,5.9532666
46,1.7199410200119019,4.543137550354004,78.39960479736328,-0.1157134654799794,1.911266492040462,-106.46306074510747,-0.9027619,10.707049,34.093292,23.0493,-20.53137,0.91117203,-9.690333,-5.23967,-9.550185,17.56281,-11.442981,0.08315894,-7.537711,1.1144711,6.0785084,-1.7061347,18.74586,-49.658897,53.07838,10.73609,-1.0403472,-1.3198831,-8.601852,-10.760455,36.560814,53.94401,-14.216534,-0.79305506,5.825871
47,1.7499346733093262,4.551519393920898,78.41678619384766,-0.23775065804860912,2.042992561337634,-107.4640442482833,-0.7822998,11.021835,35.01923,23.15829,-20.657179,0.94792837,-9.846964,-5.786765,-11.541852,17.898304,-11.856897,-0.6501749,-7.7933598,1.2205434,6.0304747,-1.7841291,18.906387,-49.937134,53.048378,11.0082655,-1.0265204,-1.4909047,-8.433788,-10.727774,36.297344,54.048264,-14.320363,-0.7654267,5.7209487
48,1.7865068912506104,4.563070297241211,78.43254089355469,-0.3681767995913999,2.1567164538432935,-108.46136579517761,-0.6378154,11.347308,35.941936,23.272398,-20.777876,0.9512178,-9.874325,-6.3319917,-13.611284,18.096045,-12.247369,-1.2404368,-8.0330515,1.3372623,6.000522,-1.8694146,19.06413,-50.207485,53.02238,11.245638,-1.0208132,-1.6298254,-8.252355,-10.713537,36.01856,54.154305,-14.456465,-0.726316,5.6644316
49,1.8166290521621704,4.563260555267334,78.44681549072266,-0.5135770083571138,2.2408750828452817,-109.44465285881606,-0.45893857,11.691451,36.852707,23.393793,-20.894419,0.91398585,-9.717266,-6.876698,-15.827033,18.093233,-12.5915985,-1.6261996,-8.285298,1.4768317,5.9921107,-1.9692845,19.17862,-50.457047,53.046852,11.442658,-1.0295342,-1.7275338,-8.072396,-10.717568,35.75585,54.281555,-14.645851,-0.6673893,5.678952
50,1.8555290699005127,4.581684112548828,78.46192932128906,-0.6716826731715861,2.305247665568553,-110.41562539927193,-0.2615833,12.052964,37.751404,23.52962,-21.008657,0.8472725,-9.411782,-7.4528894,-18.28225,17.977278,-12.930566,-1.8878983,-8.489698,1.621135,6.0115933,-2.0864027,19.33773,-50.753723,53.0361,11.598825,-1.0401282,-1.8048728,-7.8471622,-10.746697,35.41465,54.38042,-14.91257,-0.5926978,5.7537947
51,1.8818321228027344,4.5892839431762695,78.4755630493164,-0.8330383850114893,2.366850403408088,-111.39601863432894,-0.058866717,12.423299,38.65691,23.678175,-21.119316,0.75838023,-9.056029,-8.002563,-20.76547,17.830376,-13.254619,-2.1013849,-8.681662,1.7783836,6.0397425,-2.2036517,19.489342,-51.01031,53.018394,11.751246,-1.0530193,-1.8649645,-7.6397095,-10.79812,35.097805,54.49786,-15.131737,-0.5150588,5.8386774
52,1.9046087265014648,4.591649055480957,78.48938751220703,-0.9870646828499337,2.4429189246273713,-112.40759590289113,0.13651292,12.791638,39.58838,23.837454,-21.22516,0.65474623,-8.755201,-8.481093,-23.060528,17.732439,-13.556653,-2.3443956,-8.82485,1.9400353,6.062197,-2.3292549,19.633324,-51.231865,52.988678,11.905481,-1.063081,-1.9095925,-7.4426656,-10.870969,34.784832,54.62376,-15.241794,-0.45086396,5.8923125
53,1.9303709268569946,4.592315673828125,78.5006332397461,-1.1374006469766953,2.5347495554255004,-113.4447028302747,0.32258245,13.160238,40.548542,24.006893,-21.326164,0.5374539,-8.514675,-8.892732,-25.171347,17.68453,-13.83799,-2.629102,-8.921127,2.1110008,6.083231,-2.4721732,19.769697,-51.42322,52.946384,12.062861,-1.0690917,-1.9398999,-7.266288,-10.966137,34.476257,54.76172,-15.192401,-0.40370208,5.8867607
54,1.9604504108428955,4.607845306396484,78.50739288330078,-1.288098706598797,2.634288868614201,-114.49962059258037,0.5055205,13.533711,41.52801,24.18947,-21.423487,0.4030732,-8.291517,-9.260217,-27.191635,17.647968,-14.100703,-2.9196544,-8.983089,2.2934291,6.1038218,-2.626587,19.898407,-51.586864,52.89684,12.217276,-1.0733685,-1.9546591,-7.062453,-11.0816965,34.139397,54.88045,-15.079329,-0.36436298,5.851528
55,1.97568678855896,4.615602493286133,78.51515197753906,-1.4274156042819375,2.745478961132292,-115.59161443345236,0.687248,13.898912,42.528408,24.380129,-21.513506,0.25356567,-8.129344,-9.581479,-29.035604,17.65345,-14.341936,-3.2227798,-9.011748,2.4684112,6.102384,-2.784375,19.983376,-51.693214,52.88524,12.379939,-1.0785729,-1.9493263,-6.9360723,-11.177794,33.86442,55.09785,-14.8791275,-0.33229086,5.8160315
56,1.9933050870895386,4.635786056518555,78.51991271972656,-1.5443349013518366,2.872582921742487,-116.73987068008988,0.8697205,14.242925,43.551537,24.572983,-21.592686,0.09058372,-8.067083,-9.85245,-30.617725,17.718412,-14.55762,-3.545369,-8.935712,2.6258752,6.089133,-2.9409628,20.086193,-51.790382,52.834793,12.532536,-1.0809677,-1.9248642,-6.8127213,-11.3213415,33.586945,55.30588,-14.662554,-0.3073356,5.837784
57,2.0040550231933594,4.658962726593018,78.51945495605469,-1.6365429448735267,3.021831899178994,-117.95643089963373,1.0643803,14.561201,44.652477,24.75181,-21.658237,-0.08996661,-8.122645,-10.06861,-31.901974,17.837362,-14.736965,-3.8907914,-8.783962,2.7673736,6.048802,-3.0693102,20.198647,-51.833096,52.745464,12.701619,-1.0823632,-1.8729575,-6.6604548,-11.505194,33.318336,55.482773,-14.465053,-0.28964993,5.9426804
58,2.019148826599121,4.68080472946167,78.51449584960938,-1.7097454582031675,3.1899009430711707,-119.2290225726289,1.2673881,14.858374,45.81246,24.924116,-21.712027,-0.28673002,-8.276713,-10.239181,-32.93686,17.998743,-14.884703,-4.2570195,-8.591708,2.893657,5.9664116,-3.1671913,20.291073,-51.80607,52.6607,12.886272,-1.083901,-1.7971635,-6.3880095,-11.6725,32.977356,55.592995,-14.402483,-0.2759794,6.098451
59,2.021627426147461,4.687993049621582,78.50790405273438,-1.7650070403243514,3.367491042409106,-120.54009630333765,1.4546049,15.1362295,46.92086,25.122849,-21.759594,-0.48907614,-8.521864,-10.387297,-33.761612,18.230959,-15.027704,-4.6426353,-8.311837,2.998782,5.893603,-3.2847273,20.381767,-51.759056,52.563618,13.050292,-1.0832419,-1.7122658,-6.410394,-11.875945,32.849083,55.940296,-14.0442505,-0.2689991,6.253895
60,2.024150848388672,4.694692611694336,78.50180053710938,-1.8048474548107272,3.5449546182361855,-121.8722169124557,1.6005392,15.402745,47.865734,25.382408,-21.807642,-0.6866783,-8.837951,-10.525776,-34.418312,18.53644,-15.184346,-5.046446,-8.021029,3.0943086,5.808632,-3.3582873,20.460005,-51.62568,52.448124,13.174114,-1.0827492,-1.6438913,-6.3249803,-12.077381,32.66893,56.219288,-13.858936,-0.24982344,6.3749285
61,2.033198118209839,4.714028835296631,78.48529052734375,-1.8315772017425476,3.732046806664805,-123.23792148812623,1.6826744,15.67083,48.627872,25.728373,-21.866386,-0.8642742,-9.250474,-10.653356,-34.889214,18.935888,-15.362304,-5.484897,-7.6862555,3.1778753,5.713321,-3.410882,20.52324,-51.42192,52.3231,13.254043,-1.0828424,-1.5967628,-6.275916,-12.270855,32.52022,56.559776,-13.690769,-0.22343017,6.4370046
62,2.0306668281555176,4.731931209564209,78.4665298461914,-1.8441870304279888,3.930063456772986,-124.64062011448833,1.7196124,15.934751,49.26198,26.133743,-21.929,-1.0310656,-9.756755,-10.76094,-35.161797,19.410265,-15.547041,-5.9547024,-7.3057246,3.2494771,5.607907,-3.441247,20.577057,-51.15048,52.180805,13.303109,-1.0832309,-1.5604343,-6.253373,-12.472964,32.40324,56.940254,-13.529888,-0.19304056,6.468141
63,2.027747392654419,4.7414398193359375,78.44567108154297,-1.8372336174775425,4.117294418684476,-126.0495631552377,1.7439657,16.175634,49.767376,26.562542,-21.98101,-1.2131743,-10.310624,-10.8634405,-35.281704,19.94303,-15.7363825,-6.424325,-6.9082546,3.293723,5.502207,-3.4478989,20.617678,-50.825943,52.03815,13.311852,-1.0817864,-1.5261835,-6.2507157,-12.664236,32.311855,57.354343,-13.433495,-0.15519409,6.489276
64,2.0193612575531006,4.763697147369385,78.41939544677734,-1.8042790176507437,4.272527943492902,-127.43364356791004,1.7894773,16.371628,50.14356,26.972477,-22.003895,-1.4370308,-10.861354,-10.972208,-35.29561,20.506763,-15.92132,-6.861773,-6.5226846,3.3004112,5.411368,-3.4273214,20.647825,-50.461006,51.898636,13.270172,-1.0764936,-1.4863538,-6.2527337,-12.842151,32.239586,57.77594,-13.456455,-0.10620665,6.52454
65,1.9996453523635864,4.776721954345703,78.38858032226562,-1.7381883092707677,4.391325456866952,-128.79415027831442,1.8570302,16.51976,50.367767,27.36669,-21.99409,-1.721411,-11.416495,-11.087254,-35.17544,21.115047,-16.110338,-7.26634,-6.1405735,3.2581117,5.3426576,-3.3813102,20.668562,-50.05201,51.761868,13.164368,-1.0587134,-1.438549,-6.307334,-13.000382,32.223423,58.25356,-13.57063,-0.045776006,6.5762715
66,1.9721152782440186,4.791826248168945,78.35285949707031,-1.6438403169232854,4.486247910248601,-130.14452740180155,1.9291096,16.631557,50.446835,27.761295,-21.960192,-2.0492637,-11.994436,-11.198052,-34.91042,21.769175,-16.300253,-7.6528773,-5.7825994,3.1838427,5.2763677,-3.278772,20.682524,-49.563736,51.6105,13.006265,-1.0332578,-1.3910162,-6.201213,-13.142253,32.108665,58.610863,-13.979288,0.029637586,6.6410756
67,1.936943769454956,4.7999491691589355,78.31555938720703,-1.5292981513838477,4.562136643556749,-131.4713553911581,2.0091832,16.708181,50.425014,28.143154,-21.907581,-2.3939033,-12.570034,-11.310517,-34.57079,22.442514,-16.474346,-8.01178,-5.4199834,3.0857356,5.2357545,-3.168225,20.6933,-49.056816,51.452812,12.818982,-1.0149071,-1.3397169,-6.243019,-13.301516,32.130653,59.068485,-14.29993,0.10931775,6.7107997
68,1.8831977844238281,4.811256408691406,78.27609252929688,-1.4035031549781738,4.623105131899109,-132.76187327336106,2.1027179,16.74924,50.346466,28.493639,-21.840456,-2.728397,-13.117146,-11.430948,-34.227074,23.106726,-16.614655,-8.332822,-5.075316,2.968505,5.1949472,-3.0432177,20.695663,-48.55458,51.312344,12.625921,-1.0188904,-1.2845666,-6.2705374,-13.440141,32.14182,59.50392,-14.698107,0.19409719,6.78385
69,1.8339321613311768,4.820898056030273,78.23442077636719,-1.2545140100651302,4.668683145484383,-134.01343001832964,2.203462,16.738657,50.18654,28.81092,-21.748367,-3.0581305,-13.643901,-11.580506,-33.88024,23.783285,-16.733805,-8.610793,-4.7158785,2.8047714,5.145382,-2.9316306,20.69046,-48.10496,51.214428,12.406555,-1.0535336,-1.2167102,-6.3093767,-13.520286,32.12265,59.970894,-15.187703,0.2864763,6.8525367
70,1.7761403322219849,4.831881046295166,78.19135284423828,-1.0830528295839792,4.698337859561406,-135.23256243728036,2.3110163,16.683325,49.933266,29.102058,-21.633446,-3.394031,-14.158684,-11.74616,-33.499897,24.473774,-16.830751,-8.850428,-4.4372945,2.6398203,5.120614,-2.748838,20.676994,-47.5355,51.076565,12.206968,-1.1152977,-1.1533682,-6.3459845,-13.651402,32.183186,60.373745,-15.748964,0.3925413,6.93533
71,1.7005304098129272,4.8303608894348145,78.15350341796875,-0.9122731921489236,4.715096132447136,-136.42104104414935,2.434927,16.617378,49.650314,29.377783,-21.518023,-3.7171504,-14.63927,-11.891793,-33.106956,25.12917,-16.877014,-9.056625,-4.1529527,2.4712105,5.0937448,-2.56679,20.654644,-47.008114,50.961666,11.98948,-1.1830983,-1.088619,-6.333804,-13.7727995,32.19625,60.72266,-16.37566,0.49576038,7.0265017
72,1.6168222427368164,4.8314385414123535,78.11396789550781,-0.7657452660364887,4.720578038708248,-137.58020795534813,2.5851853,16.576782,49.40155,29.649473,-21.424116,-4.008188,-15.061667,-11.981277,-32.724102,25.699818,-16.843246,-9.234496,-3.8760092,2.3227944,5.064692,-2.3825595,20.625254,-46.523254,50.87252,11.776207,-1.2414281,-1.0311902,-6.3366694,-13.871081,32.21601,61.065998,-16.951788,0.58359426,7.12394
73,1.5253657102584839,4.831214427947998,78.07492065429688,-0.6406452039699302,4.711492549362296,-138.7133194683566,2.761941,16.556768,49.18335,29.91972,-21.353045,-4.2448435,-15.426531,-12.036115,-32.383736,26.218142,-16.728735,-9.441739,-3.6324852,2.208252,5.0362854,-2.169504,20.577723,-46.038208,50.793377,11.57982,-1.287693,-0.98227966,-6.3251777,-13.978308,32.25248,61.3627,-17.504332,0.6542871,7.230769
74,1.415245771408081,4.8285136222839355,78.03357696533203,-0.524962030538867,4.687378195270043,-139.8190225274382,2.9620986,16.540758,48.969166,30.178991,-21.292439,-4.4428124,-15.744169,-12.067803,-32.065872,26.695288,-16.54584,-9.655893,-3.3694735,2.089522,5.0001073,-1.9598134,20.537964,-45.625534,50.73528,11.364928,-1.3256339,-0.9335685,-6.3043904,-14.039304,32.244904,61.65935,-18.0744,0.7109295,7.3389373
75,1.2999852895736694,4.826918601989746,77.99508666992188,-0.4347056020853647,4.652950937651923,-140.89196685192817,3.187622,16.554304,48.78696,30.427792,-21.247643,-4.639796,-16.005014,-12.021594,-31.716309,27.056301,-16.289879,-9.761754,-3.1720738,2.0100822,4.9704027,-1.7172506,20.475536,-45.16868,50.69046,11.186225,-1.3668059,-0.9005939,-6.293689,-14.116168,32.29756,61.906155,-18.588404,0.76239246,7.4598665
76,1.1780247688293457,4.831608295440674,77.95038604736328,-0.38473416115097625,4.612493463704584,-141.92690875924686,3.440467,16.620441,48.66493,30.666359,-21.223843,-4.8737416,-16.203308,-11.845645,-31.278166,27.235006,-15.9620075,-9.64406,-2.9962406,1.9672929,4.938459,-1.4857789,20.408068,-44.753456,50.680923,11.0211,-1.4114628,-0.8833552,-6.264461,-14.183847,32.342304,62.08953,-19.036455,0.8118944,7.5925574
77,1.0404106378555298,4.8344502449035645,77.90670776367188,-0.3864029295277141,4.563408289212886,-142.91822534868493,3.7224584,16.746727,48.601784,30.883202,-21.223856,-5.1572056,-16.321426,-11.497951,-30.71237,27.163034,-15.527102,-9.220768,-2.8733652,1.9845517,4.909801,-1.2550733,20.316034,-44.338436,50.709415,10.8829,-1.4681909,-0.88712585,-6.2277665,-14.260915,32.42059,62.19772,-19.400864,0.8703431,7.7496595
78,0.8923236131668091,4.834230422973633,77.86719512939453,-0.4275526186517657,4.5024208465681905,-143.87035422293556,4.0329623,16.917345,48.586475,31.080153,-21.243696,-5.469236,-16.36661,-11.01871,-30.053904,26.897758,-15.003906,-8.56903,-2.7715094,2.0393846,4.8807535,-1.0311375,20.217178,-43.95999,50.76876,10.755727,-1.5302203,-0.90594494,-6.18169,-14.328945,32.49928,62.252518,-19.705114,0.9310258,7.9236875
79,0.731712818145752,4.843161106109619,77.81831359863281,-0.4897715879672672,4.4324584332837365,-144.79232445805903,4.371711,17.121496,48.633717,31.274738,-21.27632,-5.796712,-16.362188,-10.474848,-29.360182,26.546865,-14.464692,-7.8136635,-2.6692162,2.0983768,4.849241,-0.8084103,20.151443,-43.6402,50.83276,10.636796,-1.5844818,-0.9373206,-6.123341,-14.365619,32.544624,62.26572,-19.95637,0.97552425,8.09309
80,0.55569988489151,4.863394260406494,77.76716613769531,-0.5577431284949791,4.357187820027114,-145.69354015421365,4.737368,17.352657,48.757637,31.488342,-21.31722,-6.1267076,-16.334526,-9.931117,-28.690632,26.221535,-13.97831,-7.080665,-2.631544,2.1747353,4.813274,-0.566077,20.05014,-43.275223,50.940624,10.580488,-1.6284177,-0.98238075,-6.075929,-14.412612,32.64175,62.236763,-20.121548,0.991,8.242569
81,0.3715868592262268,4.8923468589782715,77.70941925048828,-0.626937520544171,4.272777749595305,-146.5757263475547,5.148684,17.601465,48.981194,31.706596,-21.369352,-6.463305,-16.27438,-9.396781,-28.049109,25.920694,-13.534967,-6.3377166,-2.5866308,2.2403626,4.7728734,-0.33289894,19.9666,-42.97211,51.074528,10.533288,-1.6573364,-1.0437084,-6.004985,-14.44219,32.6947,62.1538,-20.221884,0.9662207,8.36879
82,0.1763891875743866,4.915233135223389,77.64928436279297,-0.7056125039204142,4.178341444004746,-147.43438622831252,5.601282,17.872349,49.291733,31.924969,-21.433655,-6.810898,-16.172756,-8.843235,-27.406572,25.600607,-13.105939,-5.5416884,-2.5683634,2.3127666,4.730806,-0.093029976,19.885614,-42.685455,51.232353,10.510083,-1.677613,-1.1230628,-5.9254766,-14.462631,32.745235,62.018837,-20.253012,0.9133258,8.481162
83,-0.03138599544763565,4.947082996368408,77.59318542480469,-0.795327570407874,4.083437524646378,-148.26911183949832,6.0609765,18.177317,49.650352,32.17565,-21.49982,-7.156742,-16.061472,-8.280845,-26.774559,25.311056,-12.730581,-4.8019567,-2.564958,2.3898,4.682648,0.14871097,19.811443,-42.416172,51.407627,10.540056,-1.6812098,-1.2025485,-5.8385363,-14.473756,32.78955,61.84303,-20.220362,0.8424918,8.575585
84,-0.24095340073108673,4.978323936462402,77.53816986083984,-0.8992400206806967,3.9975600306905092,-149.0796431362997,6.4928355,18.530447,50.017273,32.491573,-21.557735,-7.488269,-15.972832,-7.7158327,-26.166586,25.099043,-12.44967,-4.2267795,-2.6012743,2.4836485,4.6203604,0.38919806,19.70467,-42.11835,51.62829,10.671168,-1.6644541,-1.2651109,-5.75742,-14.479001,32.859818,61.64675,-20.131615,0.7657926,8.647291
85,-0.466399222612381,5.019026279449463,77.4799575805664,-1.0255513218660302,3.9255313200266593,-149.8646521756902,6.892259,18.94238,50.397923,32.87787,-21.611145,-7.8072505,-15.920096,-7.14247,-25.59078,24.982416,-12.284744,-3.8595035,-2.6406164,2.5918515,4.539092,0.61821103,19.592451,-41.84413,51.88083,10.922776,-1.614005,-1.3042055,-5.660296,-14.4732485,32.91501,61.410946,-19.97997,0.6792598,8.694411
86,-0.6991878151893616,5.067772388458252,77.4232177734375,-1.1713177854107732,3.8609846073368645,-150.62497018011098,7.2774878,19.404602,50.808353,33.320293,-21.663998,-8.1186495,-15.885719,-6.55751,-25.040663,24.933151,-12.210034,-3.6370068,-2.6944613,2.7130415,4.444694,0.843091,19.478838,-41.584015,52.15929,11.269711,-1.5368613,-1.3308477,-5.5539217,-14.457065,32.96535,61.13558,-19.763689,0.5793481,8.719835
87,-0.9375370740890503,5.117348670959473,77.37114715576172,-1.322126892518213,3.797581010139654,-151.36334336996828,7.650801,19.899166,51.226887,33.813446,-21.703163,-8.415066,-15.856037,-5.9703865,-24.507538,24.925226,-12.195018,-3.5073664,-2.7663743,2.8335814,4.344176,1.0629395,19.354998,-41.31956,52.466927,11.655785,-1.4513606,-1.3482428,-5.4451933,-14.426925,33.00888,60.845646,-19.51966,0.47439808,8.7266
88,-1.1872228384017944,5.1722517013549805,77.31774139404297,-1.4627774948540546,3.7295252440088746,-152.08276023882817,8.013131,20.408705,51.631226,34.35336,-21.715986,-8.689341,-15.816856,-5.3923755,-23.981749,24.93502,-12.209831,-3.4188654,-2.8468244,2.9346552,4.249211,1.2785327,19.239397,-41.050865,52.78195,12.012788,-1.3740324,-1.360653,-5.331754,-14.382718,33.028103,60.551994,-19.28609,0.3718285,8.718841
89,-1.4390385150909424,5.240797519683838,77.26343536376953,-1.582681938380415,3.6598272989965457,-152.78143936761944,8.365628,20.915405,52.02738,34.924328,-21.701773,-8.93969,-15.783393,-4.839325,-23.458906,24.991255,-12.270286,-3.3879714,-2.946845,3.005263,4.1540923,1.491727,19.119156,-40.759163,53.123047,12.352706,-1.3100572,-1.3550048,-5.2245226,-14.315082,33.031532,60.26626,-19.057413,0.26623937,8.695292
90,-1.6993392705917358,5.3223042488098145,77.21174621582031,-1.6925884155043567,3.5907012796462285,-153.4589138517607,8.708938,21.432701,52.42364,35.530228,-21.66463,-9.169746,-15.757261,-4.300848,-22.944328,25.095463,-12.383688,-3.432472,-3.0616238,3.0544572,4.0580783,1.7036602,19.006107,-40.4588,53.479053,12.69567,-1.2493281,-1.3347846,-5.1188335,-14.227563,33.01839,59.97498,-18.818089,0.15540193,8.655058
91,-1.9720457792282104,5.407400608062744,77.16355895996094,-1.8088790916760504,3.5143065608695734,-154.11944040017679,9.039998,21.992434,52.798515,36.204258,-21.603912,-9.380176,-15.701049,-3.748966,-22.443312,25.180658,-12.50828,-3.502791,-3.1885452,3.102715,3.9688094,1.9152191,18.90079,-40.155807,53.832386,13.011907,-1.1883548,-1.3253329,-5.0116014,-14.119786,32.987988,59.690277,-18.596495,0.053686075,8.597534
92,-2.2534024715423584,5.49708366394043,77.11542510986328,-1.9479813913664008,3.422615627640534,-154.76721690588138,9.356852,22.624718,53.13108,36.97617,-21.517378,-9.572162,-15.577135,-3.1563816,-21.960585,25.179438,-12.601526,-3.549166,-3.3231905,3.1701198,3.894098,2.123544,18.804564,-39.861336,54.16732,13.26832,-1.1241057,-1.3517206,-4.8974395,-13.991995,32.935883,59.422176,-18.42316,-0.024622997,8.521663
93,-2.5419301986694336,5.590407371520996,77.06900787353516,-2.1093340767478748,3.3106793568381194,-155.3969514413679,9.669566,23.32492,53.426548,37.837673,-21.409618,-9.756685,-15.377067,-2.5241332,-21.4962,25.085735,-12.658723,-3.5499783,-3.4657955,3.2557118,3.8417053,2.329244,18.720781,-39.571545,54.481712,13.463123,-1.0525833,-1.4326591,-4.7744684,-13.849269,32.860085,59.160896,-18.296343,-0.069369085,8.412853
94,-2.833012104034424,5.693464279174805,77.02296447753906,-2.285238654174067,3.183465463844695,-156.00824473271823,9.978489,24.077108,53.69357,38.770844,-21.276451,-9.9306,-15.1189165,-1.8653322,-21.045893,24.929325,-12.699127,-3.534409,-3.6218557,3.3493369,3.8034542,2.5310242,18.642925,-39.280033,54.791447,13.612382,-0.97695285,-1.5498421,-4.6547284,-13.679804,32.76747,58.91913,-18.203087,-0.090356655,8.273825
95,-3.124948501586914,5.809662818908691,76.9754638671875,-2.4807117166289023,3.0470100005532617,-156.612666398613,10.267003,24.895517,53.917004,39.79316,-21.103733,-10.074556,-14.806395,-1.1717874,-20.607498,24.699265,-12.717318,-3.5292468,-3.7813978,3.459633,3.7720242,2.7320063,18.576202,-39.003094,55.0777,13.7081585,-0.9036727,-1.6754131,-4.5318613,-13.492,32.658455,58.69999,-18.147575,-0.10313778,8.137221
96,-3.4278829097747803,5.919666290283203,76.93074035644531,-2.701004294143,2.9074073709317685,-157.22155437382742,10.520503,25.791428,54.082127,40.915165,-20.873423,-10.169616,-14.443195,-0.43507215,-20.178793,24.384047,-12.708105,-3.5612547,-3.9376905,3.594929,3.7390716,2.9315565,18.522814,-38.756947,55.32847,13.740451,-0.8393232,-1.7808797,-4.4085073,-13.287814,32.54103,58.517185,-18.129179,-0.12316191,8.034112
97,-3.747008800506592,6.034901142120361,76.89199829101562,-2.9518252809232144,2.761758402705586,-157.8333186044687,10.763738,26.76029,54.21692,42.100773,-20.58001,-10.271772,-14.01732,0.35431305,-19.764431,23.967049,-12.666995,-3.6326504,-4.092932,3.7612846,3.7026365,3.1365364,18.484379,-38.546753,55.540924,13.692226,-0.78039193,-1.8617803,-4.278871,-13.067836,32.409233,58.373512,-18.166265,-0.15463382,7.9798436
98,-4.066234588623047,6.155500411987305,76.8544921875,-3.227611881444761,2.607679531152694,-158.44314427040635,10.997354,27.792276,54.319405,43.348915,-20.228945,-10.373701,-13.530589,1.1882681,-19.360487,23.456387,-12.596374,-3.731217,-4.248896,3.9516327,3.6680565,3.3461032,18.461458,-38.36353,55.718994,13.573594,-0.72478616,-1.9322412,-4.1436667,-12.832003,32.262012,58.260082,-18.251757,-0.18916428,7.9555283
99,-4.382256507873535,6.288377285003662,76.81869506835938,-3.5170154670576874,2.451775377563375,-159.05698370096349,11.168618,28.89202,54.329197,44.72059,-19.815872,-10.362772,-13.002338,2.0515065,-18.95224,22.867521,-12.495874,-3.8621712,-4.3992324,4.154832,3.637292,3.5493138,18.454708,-38.201733,55.85972,13.414958,-0.6811144,-1.9918512,-4.012602,-12.582632,32.110046,58.171852,-18.351788,-0.22349879,7.9414697
100,-4.702810764312744,6.425335884094238,76.78252410888672,-3.8096491502162397,2.300783435791996,-159.6810131422566,11.222447,30.06464,54.18496,46.271748,-19.332048,-10.126789,-12.450828,2.9292867,-18.526154,22.215046,-12.364629,-4.030435,-4.5372844,4.3607955,3.6120348,3.7366836,18.464628,-38.054386,55.95915,13.248491,-0.658095,-2.040267,-3.8957267,-12.324133,31.965485,58.104034,-18.431074,-0.2541782,7.9177656
101,-5.021114349365234,6.561251163482666,76.74874114990234,-4.114740771774024,2.152733624419305,-160.3137817293285,11.161614,31.341663,53.9081,48.02696,-18.75904,-9.652857,-11.856944,3.8372574,-18.087286,21.46797,-12.190477,-4.249709,-4.6649256,4.5779815,3.5940108,3.9086647,18.492754,-37.92656,56.01421,13.064057,-0.6598138,-2.08163,-3.7891676,-12.057714,31.828062,58.055527,-18.47552,-0.27904037,7.881793
102,-5.3559184074401855,6.7114129066467285,76.71854400634766,-4.432753292605458,2.005069196468443,-160.95293576539882,11.006692,32.703876,53.519447,49.936756,-18.093914,-8.999407,-11.215146,4.7754354,-17.636517,20.624668,-11.975151,-4.5132737,-4.7849374,4.807386,3.582071,4.070848,18.539734,-37.818954,56.02512,12.850573,-0.6810712,-2.1152883,-3.6853151,-11.783069,31.689997,58.023464,-18.508698,-0.3001445,7.8437777
103,-5.672116756439209,6.8555145263671875,76.69110870361328,-4.740642876450026,1.8635691957976706,-161.60431252611284,10.724304,34.081665,52.95707,51.945847,-17.34819,-8.1622505,-10.564891,5.7050934,-17.155891,19.748953,-11.740771,-4.794538,-4.8898916,5.0278616,3.57386,4.2207108,18.603495,-37.718906,55.993572,12.639895,-0.7167023,-2.1335707,-3.5990515,-11.504966,31.563995,58.007618,-18.535917,-0.32106188,7.803285
104,-5.981133460998535,7.0001678466796875,76.66458129882812,-5.016695645921603,1.7347717159317566,-162.2741126538988,10.273601,35.406433,52.154045,54.004997,-16.53474,-7.137637,-9.94678,6.5882335,-16.63038,18.906504,-11.5111475,-5.0666504,-4.9742618,5.220852,3.56671,4.3543143,18.68015,-37.613758,55.92385,12.462687,-0.76187104,-2.128629,-3.5393248,-11.231122,31.45941,58.00208,-18.567835,-0.34515625,7.760265
105,-6.285266399383545,7.149463653564453,76.63387298583984,-5.261165127847311,1.616176758231178,-162.96186748404833,9.627428,36.69259,51.07526,56.142204,-15.604577,-5.926391,-9.355962,7.4264636,-16.059122,18.09605,-11.290999,-5.326638,-5.0372963,5.3887677,3.561839,4.470361,18.76702,-37.51196,55.81431,12.341806,-0.82084966,-2.1039877,-3.4961402,-10.965316,31.367882,57.99667,-18.613586,-0.3708697,7.717092
106,-6.5849385261535645,7.294242858886719,76.60314178466797,-5.4824065626056075,1.5068103301618447,-163.66579827542114,8.793819,37.957462,49.756977,58.36427,-14.555066,-4.534796,-8.779682,8.232429,-15.449841,17.300325,-11.074826,-5.5864115,-5.080551,5.5396056,3.559138,4.568455,18.86309,-37.41788,55.667175,12.255757,-0.8946713,-2.0616577,-3.4653091,-10.709017,31.287868,57.992325,-18.664167,-0.39702836,7.6740527
107,-6.871660232543945,7.441470623016357,76.57183074951172,-5.6795113193780224,1.414761900935901,-164.38995572316585,7.779572,39.150368,48.234966,60.60221,-13.472524,-2.9648888,-8.243113,8.997054,-14.8057165,16.548082,-10.862952,-5.8426967,-5.1022534,5.67292,3.5559025,4.6482086,18.965473,-37.309288,55.488167,12.172204,-0.97379845,-1.9921368,-3.4609392,-10.466263,31.238613,57.99444,-18.703783,-0.42785183,7.627738
108,-7.14502477645874,7.581221103668213,76.54210662841797,-5.843323727975638,1.348139299142936,-165.14053302227776,6.603609,40.207867,46.55421,62.778137,-12.438445,-1.2121352,-7.770969,9.703954,-14.126076,15.867678,-10.6557865,-6.0923557,-5.099584,5.7803073,3.549157,4.7101445,19.070145,-37.161552,55.283287,12.060389,-1.0487158,-1.8858619,-3.5000706,-10.243035,31.244364,58.0102,-18.711542,-0.46743262,7.57481
109,-7.409271717071533,7.724560737609863,76.5166015625,-5.974485321350175,1.3134363394168684,-165.92329841918814,5.314142,41.248577,44.892006,64.99773,-11.407359,1.0150768,-7.380643,10.355116,-13.410579,15.271634,-10.451536,-6.3415127,-5.0680094,5.8638864,3.5355024,4.7451825,19.174759,-36.972115,55.048546,11.891658,-1.1109582,-1.7407135,-3.5886192,-10.044114,31.315115,58.03555,-18.67022,-0.52217644,7.515967
110,-7.668621063232422,7.865532398223877,76.49658203125,-6.079165313848011,1.304446548728866,-166.73612121513375,3.8879163,42.27457,43.18834,67.261375,-10.355559,3.6454365,-7.053542,10.961666,-12.661399,14.739051,-10.248288,-6.5905676,-5.00931,5.930658,3.5193484,4.755941,19.27798,-36.751198,54.783707,11.690836,-1.1681912,-1.5616026,-3.712068,-9.869733,31.437525,58.061325,-18.594227,-0.5880882,7.453715
111,-7.904659271240234,8.000494956970215,76.47844696044922,-6.158033852550374,1.3115906275234737,-167.56897307536087,2.2215834,43.009953,41.099457,69.34542,-9.395532,6.1037064,-6.770266,11.520111,-11.887106,14.261541,-10.051936,-6.8281126,-4.933486,5.9799814,3.5066566,4.7581754,19.377028,-36.495113,54.50457,11.50522,-1.2353163,-1.3492935,-3.8648496,-9.721117,31.602901,58.09651,-18.508497,-0.65359885,7.3862977
112,-8.128254890441895,8.129642486572266,76.46216583251953,-6.2083812051506175,1.3280741359678463,-168.4088325987754,0.21291195,43.11756,38.260445,71.03954,-8.624225,7.7639456,-6.517423,12.0219345,-11.099053,13.8370075,-9.872151,-7.0417495,-4.8545313,6.0098977,3.5017211,4.767419,19.468073,-36.198853,54.22662,11.382928,-1.3268641,-1.1044374,-4.0360355,-9.597605,31.800632,58.143814,-18.440773,-0.7068901,7.3127065
113,-8.340909004211426,8.243523597717285,76.45072174072266,-6.223837243713363,1.3590737225216356,-169.25681317188528,-2.1153443,42.422874,34.568794,72.338104,-8.07936,8.437261,-6.316344,12.4553585,-10.301688,13.493578,-9.722113,-7.222173,-4.7711587,6.016797,3.5034459,4.7852902,19.546665,-35.847725,53.9499,11.369401,-1.4496984,-0.7976167,-4.233529,-9.501086,32.043278,58.20861,-18.385069,-0.74404466,7.222536
114,-8.55207347869873,8.35112190246582,76.44551086425781,-6.2051082574864,1.4067851911802527,-170.11375209739896,-4.590162,41.028507,30.329006,73.38277,-7.7375274,8.421565,-6.1760435,12.82406,-9.496312,13.2412,-9.603777,-7.376802,-4.6829276,6.001694,3.5101569,4.8018193,19.610931,-35.4479,53.67297,11.429717,-1.5946087,-0.437419,-4.460354,-9.432839,32.333595,58.289345,-18.329016,-0.77168065,7.119678
115,-8.756326675415039,8.447040557861328,76.44364166259766,-6.159318292924989,1.4587924806704662,-170.96522006165068,-7.0488014,38.998154,25.806211,74.19929,-7.624174,7.8101435,-6.07036,13.140071,-8.691119,13.064908,-9.517293,-7.5179043,-4.5881557,5.97107,3.5235906,4.796568,19.65419,-35.049,53.423965,11.486532,-1.7522391,-0.07986654,-4.68238,-9.394814,32.622837,58.363396,-18.301554,-0.7937803,7.0262666
116,-8.960763931274414,8.538089752197266,76.44944763183594,-6.094809277294979,1.500999340685142,-171.79979903325278,-9.357328,36.43108,21.231663,74.80307,-7.7676682,6.7126603,-5.9616013,13.419127,-7.889209,12.928159,-9.452345,-7.6586146,-4.520319,5.925425,3.550065,4.79337,19.68897,-34.649143,53.19392,11.47424,-1.9141182,0.21367575,-4.898141,-9.370608,32.905613,58.441246,-18.322348,-0.8127614,6.9588194
117,-9.164502143859863,8.621716499328613,76.46000671386719,-6.007589750937882,1.5318739693159416,-172.6150379619117,-11.522449,33.0464,16.332922,75.1396,-8.388727,4.9709735,-5.8636103,13.656174,-7.090398,12.865723,-9.424906,-7.8063216,-4.488582,5.8581214,3.5911915,4.8017397,19.721758,-34.234123,52.97783,11.395501,-2.082398,0.42754805,-5.1123776,-9.353031,33.190052,58.534813,-18.422167,-0.83087456,6.919486
118,-9.361433029174805,8.699589729309082,76.47148132324219,-5.90513193140774,1.5400322740112666,-173.43071009301298,-13.336044,28.967436,11.297998,75.27754,-9.577997,2.6822815,-5.752501,13.866806,-6.278366,12.849346,-9.419076,-7.955681,-4.4619513,5.7761216,3.6606512,4.8127527,19.751913,-33.808533,52.77443,11.277686,-2.259897,0.59311646,-5.329029,-9.342699,33.47484,58.643665,-18.584154,-0.84627753,6.899294
119,-9.570598602294922,8.782665252685547,76.48583221435547,-5.8116483226913145,1.5108176269012907,-174.2617743051863,-14.630556,24.940317,6.8005486,75.36224,-11.044528,0.3056698,-5.567995,14.088655,-5.444026,12.786422,-9.392669,-8.100109,-4.407982,5.7029104,3.769439,4.8047957,19.775084,-33.417774,52.595295,11.086017,-2.440021,0.7210326,-5.534746,-9.342122,33.7264,58.749466,-18.758831,-0.8563735,6.899142
120,-9.782660484313965,8.86434555053711,76.49984741210938,-5.740814427817453,1.4485672777472878,-175.10698069907434,-15.497144,21.64544,3.310497,75.48093,-12.33495,-1.801523,-5.2882113,14.337535,-4.595755,12.618931,-9.319959,-8.230123,-4.3325267,5.652517,3.913898,4.780555,19.79412,-33.07687,52.43205,10.792648,-2.616675,0.81894475,-5.7280245,-9.349904,33.937553,58.840767,-18.891273,-0.8574716,6.9180636
121,-9.991045951843262,8.941290855407715,76.51698303222656,-5.690162611170369,1.3576370770042687,-175.95518182035045,-16.092167,19.208601,0.8261033,75.559906,-13.207235,-3.8150177,-4.911701,14.603531,-3.746268,12.335486,-9.198439,-8.340693,-4.2576284,5.624608,4.0957265,4.7555494,19.813784,-32.767265,52.272633,10.347199,-2.7902277,0.8828078,-5.9103975,-9.365854,34.106655,58.918015,-18.981573,-0.84600824,6.968169
122,-10.204381942749023,9.017962455749512,76.53070831298828,-5.64896171985842,1.2477128081104327,-176.80162582479562,-16.548754,17.294937,-1.0416313,75.5379,-13.843887,-5.872891,-4.470063,14.870036,-2.8964899,11.978782,-9.045943,-8.43681,-4.1608095,5.6068807,4.298244,4.7012753,19.827785,-32.518326,52.144817,9.771435,-2.9624598,0.91298825,-6.075804,-9.384941,34.21047,58.991352,-19.062525,-0.8260735,7.0457
123,-10.416522026062012,9.09521198272705,76.54171752929688,-5.6113702071513,1.1392672386745433,-177.64638004862027,-16.998505,15.807558,-2.4590085,75.49648,-14.335263,-7.6371183,-4.013032,15.129872,-2.0462396,11.600131,-8.881367,-8.521636,-4.0782394,5.5952168,4.505164,4.650854,19.845049,-32.293644,52.010654,9.173841,-3.131644,0.9100516,-6.2404356,-9.412237,34.319057,59.04998,-19.096987,-0.80084956,7.125171
124,-10.638089179992676,9.177726745605469,76.55384063720703,-5.573210491992516,1.0505337188041306,-178.4911928778952,-17.541567,14.648078,-3.5712817,75.52223,-14.780571,-8.762428,-3.5831306,15.3788805,-1.1932071,11.241288,-8.721005,-8.59877,-3.9955196,5.5817223,4.6917453,4.5907536,19.868252,-32.12384,51.8713,8.646622,-3.2945042,0.88235176,-6.3976617,-9.445943,34.437984,59.08149,-19.070213,-0.7756478,7.1818795
125,-10.850996971130371,9.260053634643555,76.5690689086914,-5.531009103860206,0.9824389367740746,-179.3342018237015,-18.225698,13.845717,-4.34484,75.65246,-15.1187935,-9.067609,-3.1892688,15.612408,-0.33841076,10.91742,-8.56634,-8.665606,-3.915191,5.56029,4.856517,4.518877,19.899239,-32.01304,51.728245,8.184626,-3.456274,0.81586593,-6.5490656,-9.484009,34.568935,59.08443,-18.963888,-0.74834335,7.2049255
126,-11.067291259765625,9.345417976379395,76.58013916015625,-5.486246252869726,0.9287531961403785,179.8262880634518,-19.0246,13.411612,-4.749327,75.821884,-15.29624,-8.780614,-2.8145957,15.831519,0.51552474,10.610438,-8.413605,-8.721347,-3.8467462,5.533427,5.0148234,4.454939,19.95082,-31.94104,51.557945,7.746155,-3.6154017,0.70932615,-6.690177,-9.538692,34.711853,59.04738,-18.789381,-0.7169583,7.2105064
127,-11.276049613952637,9.424704551696777,76.58942413330078,-5.44502366027022,0.8941576601256078,178.9866988797412,-19.902063,13.226811,-4.9208198,75.96873,-15.443038,-8.16232,-2.4679906,16.045097,1.3671305,10.325888,-8.268729,-8.772285,-3.7712665,5.507953,5.1562314,4.3872476,20.01715,-31.923937,51.371056,7.370397,-3.75986,0.59569174,-6.8210845,-9.60139,34.853447,58.983906,-18.579014,-0.6886871,7.211117
128,-11.492916107177734,9.508066177368164,76.59700012207031,-5.413510882108526,0.8831843665989036,178.1435044246895,-20.817465,13.172456,-4.9948416,76.032616,-15.687285,-7.476789,-2.1585536,16.262047,2.2146804,10.070536,-8.138546,-8.824231,-3.6891155,5.4926486,5.2733903,4.3188953,20.09209,-31.953959,51.168377,7.101401,-3.8789594,0.50652486,-6.9515657,-9.667508,35.005344,58.91186,-18.357386,-0.66967314,7.218298
129,-11.704566955566406,9.587837219238281,76.59902954101562,-5.397091438714358,0.8995017604567255,177.29555226666753,-21.776743,13.302132,-4.92753,76.01755,-16.10079,-6.716966,-1.8831383,16.48815,3.0588095,9.827639,-8.014947,-8.873696,-3.6015172,5.4934897,5.363008,4.2507324,20.175722,-32.035168,50.943737,6.96846,-3.96468,0.4466607,-7.0820956,-9.736898,35.173706,58.82857,-18.122786,-0.6630294,7.2347527
130,-11.918764114379883,9.668794631958008,76.59765625,-5.390770868092707,0.9393937590974993,176.44442456413086,-22.792826,13.641378,-4.673263,75.94693,-16.61952,-5.776458,-1.6382473,16.717117,3.9007046,9.598822,-7.8970423,-8.918927,-3.510827,5.503306,5.4289703,4.1822524,20.268372,-32.165733,50.700195,6.944305,-4.0250874,0.4013657,-7.211828,-9.809961,35.354797,58.73227,-17.863943,-0.6649104,7.2537956
131,-12.135103225708008,9.748490333557129,76.59493255615234,-5.385581378826266,0.99629549597872,175.5914915740041,-23.833796,14.028242,-4.364384,75.78604,-17.150839,-4.7712674,-1.4347346,16.940662,4.737625,9.426059,-7.8071814,-8.967512,-3.417652,5.512511,5.4775295,4.116249,20.36894,-32.331142,50.44557,6.985215,-4.0736847,0.3716261,-7.339306,-9.886862,35.543896,58.624725,-17.592678,-0.67038804,7.2749186
132,-12.343249320983887,9.83152961730957,76.58575439453125,-5.37330981498896,1.0645103325097598,174.73837105140007,-24.87229,14.30513,-4.130177,75.50148,-17.590994,-3.8105068,-1.2823606,17.152138,5.5664005,9.346553,-7.764596,-9.026916,-3.322885,5.512783,5.514971,4.0564194,20.4753,-32.515415,50.187126,7.0492435,-4.1237864,0.35838586,-7.461182,-9.9664755,35.735153,58.50558,-17.32161,-0.6746506,7.297688
133,-12.560733795166016,9.906583786010742,76.57827758789062,-5.351783245123021,1.1515102884596267,173.8835370614864,-25.926035,14.487946,-3.9468617,75.101006,-17.92295,-2.8409345,-1.1951458,17.351147,6.3863473,9.370641,-7.7741413,-9.095459,-3.2276058,5.501442,5.5342484,3.9971712,20.58842,-32.729774,49.925983,7.1480765,-4.1780553,0.36760285,-7.5845013,-10.049652,35.93705,58.376293,-17.03844,-0.677772,7.321252
134,-12.778367042541504,9.980741500854492,76.5692367553711,-5.325899613198683,1.2576941960831953,173.02682258698454,-26.99856,14.637948,-3.757751,74.596016,-18.199797,-1.831983,-1.162617,17.542788,7.1987996,9.474889,-7.823748,-9.169249,-3.1309648,5.4831524,5.5355263,3.9378526,20.70854,-32.977863,49.657894,7.2965813,-4.229609,0.3969962,-7.7055387,-10.135587,36.14756,58.232258,-16.743528,-0.68178594,7.3464913
135,-13.002983093261719,10.06199836730957,76.56150817871094,-5.296947671225472,1.3669044068614793,172.17219444998287,-28.046892,14.672268,-3.6423287,73.95878,-18.406189,-0.9193844,-1.1603105,17.730448,8.002619,9.650521,-7.910366,-9.253331,-3.0332534,5.4588647,5.5331993,3.89022,20.83103,-33.23028,49.387714,7.4582434,-4.2777095,0.43529785,-7.818886,-10.223535,36.353275,58.083504,-16.460651,-0.68489313,7.3736396
136,-13.232781410217285,10.142291069030762,76.55292510986328,-5.2657354972364905,1.4630309125916767,171.32358941409427,-29.028671,14.511204,-3.6825113,73.16044,-18.517893,-0.23675413,-1.1608218,17.916578,8.797714,9.882869,-8.027692,-9.352755,-2.9346037,5.431603,5.5420175,3.8640466,20.94827,-33.457882,49.122543,7.5966907,-4.321895,0.47142458,-7.915181,-10.310119,36.53966,57.934353,-16.215101,-0.6850377,7.4031987
137,-13.47383975982666,10.222512245178223,76.54711151123047,-5.234051800897503,1.5424507389324158,170.48187755766403,-29.938759,14.164764,-3.874776,72.189384,-18.505695,0.1971534,-1.1671749,18.106277,9.580049,10.185952,-8.179879,-9.48313,-2.837169,5.4041495,5.5637956,3.8573277,21.055666,-33.660244,48.86862,7.707139,-4.367804,0.5089419,-7.9954214,-10.394078,36.711,57.792168,-16.019905,-0.68237114,7.4315896
138,-13.713847160339355,10.300094604492188,76.53441619873047,-5.20021415917446,1.613749193000782,169.64473165286736,-30.793482,13.670648,-4.18387,71.05849,-18.377522,0.4527375,-1.1882914,18.297245,10.351878,10.558045,-8.366837,-9.636797,-2.7406237,5.375321,5.590211,3.8630455,21.152126,-33.850006,48.62811,7.809058,-4.4140925,0.55227554,-8.064517,-10.474997,36.873505,57.655884,-15.859271,-0.6776819,7.4592566
139,-13.956477165222168,10.382745742797852,76.5214614868164,-5.161277659436815,1.6785195566987388,168.81078732857657,-31.586817,12.996825,-4.64923,69.783875,-18.165693,0.5343585,-1.2079793,18.482975,11.121639,10.9633665,-8.575376,-9.784505,-2.6420736,5.3420296,5.6191454,3.883644,21.234827,-34.017986,48.404434,7.9011135,-4.4499297,0.59199655,-8.122681,-10.551867,37.014477,57.526096,-15.717682,-0.6698504,7.4924183
140,-14.210287094116211,10.464258193969727,76.51204681396484,-5.114494830608442,1.738334104963466,167.97861892032387,-32.308407,12.113827,-5.3119335,68.37733,-17.902174,0.44723853,-1.2079782,18.656366,11.898624,11.363416,-8.791608,-9.897111,-2.5391195,5.3013773,5.6480913,3.9220476,21.300001,-34.153652,48.201694,7.983156,-4.464699,0.61869913,-8.172532,-10.624331,37.122684,57.407772,-15.578554,-0.6579261,7.5369616
141,-14.477190017700195,10.546504974365234,76.49887084960938,-5.060146221197052,1.792844551947711,167.14625272303232,-32.951267,10.987619,-6.2150207,66.8376,-17.615288,0.1971578,-1.1887916,18.819462,12.687117,11.763172,-9.020598,-9.968299,-2.4303792,5.254849,5.6764464,3.9801106,21.344362,-34.254745,48.019474,8.055197,-4.449169,0.63138443,-8.211062,-10.690678,37.180897,57.304787,-15.442668,-0.6405724,7.597533
142,-14.748069763183594,10.631392478942871,76.48587036132812,-4.999850745173618,1.8407180830491574,166.31380633300984,-33.506176,9.661585,-7.336729,65.15775,-17.284756,-0.20938061,-1.1547813,18.975172,13.483369,12.173632,-9.2650175,-10.013327,-2.3161905,5.204277,5.7049513,4.053426,21.366837,-34.327763,47.861755,8.117684,-4.4113755,0.6350907,-8.23992,-10.75096,37.19973,57.218594,-15.317469,-0.6186405,7.6696568
143,-15.01745319366455,10.71072769165039,76.47232818603516,-4.9339815177964415,1.8821214697384236,165.48321435386202,-33.96176,8.220816,-8.623417,63.343334,-16.873417,-0.76782984,-1.098111,19.11993,14.282457,12.574877,-9.511976,-10.036565,-2.2002552,5.146252,5.73212,4.1375685,21.36747,-34.37103,47.740116,8.172386,-4.3665214,0.6291966,-8.276804,-10.787487,37.213066,57.162785,-15.196506,-0.59480387,7.7434664
144,-15.297664642333984,10.796403884887695,76.46246337890625,-4.862974840835526,1.9172968450116534,164.65705674395755,-34.31046,6.744932,-10.020861,61.39809,-16.34265,-1.4780362,-1.0106717,19.249657,15.079411,12.945698,-9.747898,-10.042111,-2.0745168,5.0834117,5.763889,4.224923,21.353062,-34.394485,47.652008,8.216541,-4.3296156,0.61226994,-8.304265,-10.829977,37.243908,57.0906,-15.070932,-0.5702743,7.81585
145,-15.587699890136719,10.887473106384277,76.45384979248047,-4.7863725797267,1.9407682463043454,163.8353959338612,-34.535652,5.1778436,-11.612459,59.31103,-15.683835,-2.3575752,-0.875875,19.360714,15.875694,13.267195,-9.965227,-10.021677,-1.9445384,5.0178843,5.806921,4.3174443,21.31299,-34.380802,47.60596,8.251557,-4.3078456,0.57632065,-8.321236,-10.885992,37.305862,56.995674,-14.93278,-0.5416882,7.88379
146,-15.880661010742188,10.98334789276123,76.44279479980469,-4.705060999462778,1.9533655040683677,163.01588987546666,-34.625954,3.5238848,-13.413224,57.07606,-14.926784,-3.3944366,-0.7006211,19.457129,16.673927,13.553807,-10.172498,-9.977192,-1.8092587,4.945997,5.857522,4.422656,21.256992,-34.333576,47.591473,8.275749,-4.2914767,0.5240242,-8.334541,-10.934332,37.37803,56.90156,-14.793561,-0.509863,7.9493093
147,-16.1777286529541,11.082754135131836,76.4356460571289,-4.621114913702785,1.9665556372713002,162.1982704852319,-34.600246,1.9389704,-15.260898,54.708168,-14.084987,-4.552884,-0.51427144,19.546364,17.470442,13.835337,-10.379275,-9.927885,-1.6685345,4.877528,5.90518,4.525055,21.172691,-34.27161,47.61834,8.29854,-4.2739277,0.47189754,-8.348049,-10.9870405,37.46936,56.804653,-14.64961,-0.48077807,8.018277
148,-16.483386993408203,11.18879222869873,76.42884063720703,-4.536582309863473,1.9919229180724727,161.38249705679308,-34.488873,0.5653289,-16.98406,52.21253,-13.160462,-5.803675,-0.3462502,19.635725,18.261185,14.141467,-10.595465,-9.892536,-1.5156624,4.8144026,5.9389544,4.616948,21.070341,-34.222973,47.677387,8.3219385,-4.2468157,0.4352367,-8.370282,-11.038312,37.574047,56.713127,-14.505547,-0.46171254,8.095018
149,-16.78907585144043,11.29340934753418,76.41976165771484,-4.454572029195574,2.0301402565022517,160.56527402611232,-34.274517,-0.60553473,-18.61372,49.51499,-12.066791,-7.2651052,-0.19118586,19.72822,19.057806,14.461207,-10.815779,-9.870537,-1.346406,4.7602444,5.957555,4.6987844,20.949251,-34.19324,47.77116,8.329514,-4.211115,0.4219853,-8.396803,-11.089999,37.6894,56.625008,-14.359316,-0.4562632,8.17991
150,-17.09837532043457,11.400413513183594,76.41294860839844,-4.375963819643685,2.0744957728298896,159.74632354347432,-33.947117,-1.6340365,-20.223911,46.6125,-10.819456,-8.918112,-0.032941256,19.821737,19.860064,14.778679,-11.033934,-9.854165,-1.1615674,4.7145643,5.9679985,4.7734847,20.808764,-34.171856,47.90022,8.3229475,-4.169909,0.4225598,-8.423672,-11.142987,37.81444,56.535793,-14.212218,-0.46006492,8.27119
151,-17.413660049438477,11.514225006103516,76.40266418457031,-4.297802644034459,2.1262114926580984,158.9306301476957,-33.569454,-2.476601,-21.687466,43.62668,-9.553064,-10.531549,0.11316812,19.915472,20.64616,15.119359,-11.258942,-9.849867,-0.9681462,4.673664,5.9718895,4.8403115,20.650957,-34.150993,48.05468,8.341002,-4.1185174,0.42589086,-8.462814,-11.198352,37.960228,56.448635,-14.06244,-0.46807897,8.370347
152,-17.734169006347656,11.635947227478027,76.39399719238281,-4.215786157973083,2.1871292182385047,158.12397263872273,-33.214878,-3.0983117,-22.86085,40.688835,-8.399092,-11.874425,0.23032174,20.007774,21.39343,15.508489,-11.499643,-9.863589,-0.7744191,4.6321983,5.9707,4.89983,20.479734,-34.122192,48.223007,8.421444,-4.052262,0.42058906,-8.527845,-11.257372,38.13911,56.36685,-13.907598,-0.47519955,8.478805
153,-18.049766540527344,11.756437301635742,76.3823471069336,-4.124948297385179,2.2558261405203623,157.32657109464097,-32.90294,-3.4939363,-23.699099,37.803673,-7.34639,-12.917344,0.31227833,20.095045,22.099085,15.962584,-11.766385,-9.900285,-0.5821163,4.5845814,5.968171,4.9531355,20.29784,-34.082798,48.402035,8.586839,-3.9639115,0.40040866,-8.620593,-11.320509,38.358627,56.28772,-13.742531,-0.47885513,8.600115
154,-18.36526870727539,11.88469123840332,76.36820983886719,-4.0314021131689195,2.330355688767143,156.5340557071517,-32.59872,-3.7009063,-24.25918,34.90234,-6.321306,-13.784538,0.37284276,20.182116,22.776306,16.460283,-12.048516,-9.955319,-0.38610128,4.5366282,5.965669,5.0023613,20.106081,-34.036247,48.592773,8.811825,-3.8578687,0.37155405,-8.73497,-11.387473,38.612545,56.208706,-13.568604,-0.4820356,8.7328005
155,-18.6850528717041,12.015644073486328,76.35614013671875,-3.947014094447305,2.412481629518757,155.74494396887977,-32.304153,-3.7536836,-24.54273,32.025425,-5.3711634,-14.474365,0.4189135,20.28091,23.423452,16.984247,-12.331879,-10.019515,-0.18393898,4.4998035,5.959347,5.051757,19.90579,-33.98219,48.78916,9.064542,-3.7467525,0.3417239,-8.869204,-11.458714,38.8887,56.132225,-13.39803,-0.48812014,8.870398
156,-19.006505966186523,12.149693489074707,76.33838653564453,-3.8817531933637413,2.5038464409472425,154.95903386591954,-32.019867,-3.6827793,-24.554125,29.210613,-4.5451283,-14.981972,0.4663259,20.395952,24.04172,17.495344,-12.594565,-10.083584,0.026325012,4.4837065,5.945797,5.1048503,19.698738,-33.92119,48.984215,9.312416,-3.6431737,0.31864652,-9.019773,-11.533999,39.174404,56.05746,-13.242747,-0.5005048,9.006578
157,-19.335933685302734,12.28450870513916,76.32052612304688,-3.8138518603522704,2.6013306269544327,154.1692198856561,-31.754026,-3.4906602,-24.157595,26.479324,-3.9093175,-15.000033,0.49788427,20.509127,24.62595,18.047602,-12.872343,-10.142088,0.2516397,4.4685774,5.9266143,5.165441,19.484993,-33.84915,49.17706,9.562387,-3.5514727,0.30890304,-9.187345,-11.614334,39.474712,55.983223,-13.101925,-0.52269155,9.144146
158,-19.660188674926758,12.436708450317383,76.29664611816406,-3.7740847935834916,2.7166055089922896,153.37991721659108,-31.524658,-3.1486797,-23.463516,23.82971,-3.4338048,-15.000033,0.52291226,20.646805,25.176752,18.57527,-13.121231,-10.206561,0.48728356,4.480056,5.8923583,5.2313466,19.265013,-33.7677,49.36995,9.82605,-3.4645252,0.30661628,-9.374064,-11.700369,39.79449,55.910004,-12.969356,-0.5520011,9.285337
159,-19.99137306213379,12.592120170593262,76.26954650878906,-3.768491079474741,2.8302432941861264,152.59754321449248,-31.271152,-2.7292717,-22.608751,21.233007,-3.0083606,-15.000033,0.56609905,20.814394,25.708096,19.072891,-13.332558,-10.274246,0.7273557,4.5247984,5.8620005,5.2983074,19.040852,-33.684765,49.558254,10.078794,-3.3773274,0.30132538,-9.57523,-11.790561,40.115654,55.83757,-12.854043,-0.5828982,9.422576
160,-20.32603645324707,12.751022338867188,76.24181365966797,-3.793828894075246,2.9168285026705725,151.82675488736666,-30.920477,-2.3026857,-21.727757,18.637978,-2.5087235,-15.000033,0.65516067,21.010044,26.236937,19.548231,-13.506177,-10.340779,0.9686583,4.601004,5.860409,5.3607645,18.815958,-33.610485,49.73798,10.29439,-3.28497,0.28251237,-9.7862015,-11.881979,40.419167,55.76624,-12.765474,-0.61001897,9.548463
161,-20.66826820373535,12.917155265808105,76.20968627929688,-3.854595973283628,2.981198392440955,151.07046828119135,-30.492064,-1.8685228,-20.822718,16.057262,-1.9127579,-15.000033,0.7802787,21.24134,26.767986,20.006493,-13.638538,-10.401194,1.2101685,4.713474,5.8832235,5.4165826,18.593416,-33.553535,49.904552,10.489764,-3.1871233,0.24430075,-10.010959,-11.972896,40.7077,55.69648,-12.718468,-0.63234186,9.668172
162,-21.008636474609375,13.091527938842773,76.17207336425781,-3.950721984484492,3.033385964136085,150.32653135715066,-30.00872,-1.393845,-19.833744,13.494732,-1.2766981,-15.000033,0.9308615,21.505484,27.29133,20.442646,-13.730793,-10.458213,1.4530114,4.8604608,5.9193425,5.470555,18.374372,-33.507114,50.05857,10.670056,-3.0859787,0.19306661,-10.24974,-12.062949,40.986076,55.628834,-12.706803,-0.6529304,9.783067
163,-21.35228729248047,13.270330429077148,76.13389587402344,-4.072935182495371,3.0576605747103636,149.59387327505402,-29.406391,-0.8968499,-18.81321,10.880468,-0.5793339,-15.000033,1.1257058,21.790127,27.798063,20.860415,-13.795531,-10.520125,1.696173,5.0319552,5.9817967,5.5279503,18.159084,-33.458427,50.202595,10.79126,-2.9802692,0.13722563,-10.498284,-12.150898,41.24493,55.567978,-12.699427,-0.672648,9.879583
164,-21.701324462890625,13.45822525024414,76.09037780761719,-4.211268751955459,3.03958309529945,148.87228711564376,-28.569853,-0.37863612,-17.81505,8.023819,0.2631227,-15.000033,1.3878992,22.078716,28.280434,21.250967,-13.84293,-10.594866,1.9385813,5.2154865,6.0831914,5.5980744,17.954754,-33.394573,50.331707,10.809278,-2.868231,0.08464251,-10.750996,-12.231795,41.470654,55.51892,-12.668619,-0.6926131,9.943787
165,-22.05379295349121,13.652624130249023,76.04307556152344,-4.362224720194203,2.9740644546430475,148.16611352074963,-28.435076,-0.16065723,-16.817146,7.0032425,0.15669261,-15.000033,1.715033,22.3705,28.729967,21.630688,-13.880636,-10.684253,2.172516,5.4146285,6.230275,5.676004,17.751238,-33.311428,50.452156,10.680403,-2.7397797,0.034142055,-11.0149,-12.308591,41.670666,55.485806,-12.595971,-0.7146078,9.965186
166,-22.417512893676758,13.853934288024902,75.99554443359375,-4.52092494505694,2.8789652530057492,147.48267542599368,-28.617384,-0.063998275,-15.818094,6.8753724,-0.3910632,-15.000033,2.08334,22.662117,29.144613,22.003202,-13.906457,-10.782152,2.3925524,5.6234407,6.405984,5.758794,17.549692,-33.216267,50.564983,10.43888,-2.5990524,-0.01663012,-11.28966,-12.38036,41.847,55.466362,-12.501646,-0.73769623,9.953151
167,-22.779287338256836,14.063243865966797,75.94684600830078,-4.687346275238933,2.7688993488005322,146.8216237917858,-28.74552,0.053689186,-14.876954,6.7987404,-0.94469845,-15.000033,2.483967,22.950802,29.527876,22.352234,-13.910948,-10.886982,2.613738,5.816779,6.595532,5.8774242,17.413313,-33.12142,50.618195,10.147214,-2.462991,-0.065900505,-11.563263,-12.424998,41.968914,55.45934,-12.415394,-0.76031584,9.92326
168,-23.145790100097656,14.282276153564453,75.9065170288086,-4.793091766774703,2.6823715883352746,146.20659682655938,-28.803701,0.12948994,-14.01814,6.6859903,-1.4544027,-15.000033,2.8494656,23.16787,29.856112,22.734476,-13.932219,-10.9869175,2.7950046,5.9406743,6.756818,6.0042152,17.278618,-33.006683,50.684864,9.897312,-2.3572505,-0.099885546,-11.819656,-12.462646,42.058773,55.45376,-12.350197,-0.77498746,9.889531
169,-23.517568588256836,14.504262924194336,75.86775970458984,-4.893388288870648,2.5833080422271877,145.61775759925294,-28.79885,0.21487506,-13.249702,6.636286,-2.0181704,-15.000033,3.2561238,23.359867,30.149757,23.068056,-13.927875,-11.081574,2.964892,6.0453734,6.9219027,6.146286,17.156897,-32.87552,50.750977,9.660112,-2.290807,-0.11024777,-12.055749,-12.4898615,42.093243,55.45171,-12.313062,-0.7799687,9.855915
170,-23.88838005065918,14.741076469421387,75.8381576538086,-4.948907329394236,2.50106102554481,145.0734387662771,-28.713602,0.26442084,-12.538415,6.5363736,-2.56002,-15.000033,3.6477156,23.491228,30.386885,23.400229,-13.924444,-11.168796,3.1046474,6.100186,7.0699797,6.293175,17.039904,-32.72795,50.825512,9.412875,-2.2558734,-0.10462047,-12.283456,-12.509036,42.08511,55.460316,-12.288164,-0.77732354,9.811139
171,-24.27050018310547,14.989437103271484,75.81218719482422,-4.99354602443261,2.434026359768333,144.5563289532286,-28.599577,0.3125281,-11.922558,6.5186186,-3.075046,-15.000033,4.0258718,23.60568,30.59285,23.731974,-13.903917,-11.272657,3.228599,6.134407,7.1901636,6.4445043,16.9304,-32.579636,50.910965,9.227445,-2.230445,-0.09713316,-12.489354,-12.519192,42.044086,55.469765,-12.287715,-0.7719738,9.761087
172,-24.65663719177246,15.249263763427734,75.7938232421875,-4.98429088612822,2.423432794320642,144.0757137162322,-28.44171,0.3226848,-11.413323,6.479372,-3.4314246,-15.000033,4.310486,23.67238,30.761183,24.140139,-13.897142,-11.404764,3.318571,6.1149063,7.23599,6.5673923,16.782461,-32.429623,51.068806,9.194082,-2.2025015,-0.10086657,-12.675139,-12.520502,41.99198,55.492195,-12.321646,-0.7677634,9.707447
173,-25.051143646240234,15.516124725341797,75.7826156616211,-4.938895748666815,2.471312275429607,143.63278734881075,-28.245407,0.32106236,-11.033684,6.462538,-3.6485815,-15.000033,4.5010467,23.711802,30.889164,24.61882,-13.894768,-11.5906315,3.389618,6.0510626,7.194448,6.66609,16.612007,-32.298134,51.296677,9.324466,-2.1680658,-0.11291764,-12.831563,-12.502826,41.91287,55.535797,-12.401659,-0.76636565,9.64484
174,-25.44439697265625,15.786319732666016,75.77589416503906,-4.856094271305147,2.5608486538149218,143.22445130273866,-27.995949,0.30509835,-10.765848,6.456765,-3.7604103,-15.000033,4.6252375,23.717344,30.978188,25.147757,-13.893911,-11.815097,3.446775,5.92811,7.0976667,6.780176,16.479788,-32.179058,51.51648,9.566342,-2.1320167,-0.13441624,-12.957339,-12.469669,41.79459,55.578205,-12.5215,-0.7659582,9.574537
175,-25.83656883239746,16.070499420166016,75.77393341064453,-4.735581486803441,2.6843383241702132,142.83514223881997,-27.71735,0.25810897,-10.594358,6.4608703,-3.7538555,-15.000033,4.7030897,23.682013,31.05136,25.70345,-13.884316,-12.037855,3.4957275,5.753137,6.9610386,6.9134245,16.391224,-32.08382,51.70415,9.89334,-2.0903697,-0.17148791,-13.056717,-12.43162,41.66153,55.602898,-12.653216,-0.7633705,9.50205
176,-26.250288009643555,16.373857498168945,75.77101135253906,-4.5291822040673475,2.8121550547155403,142.45079882900953,-27.403103,0.06772504,-10.475266,6.4881177,-3.6255183,-14.57676,4.753757,23.556948,31.129675,26.344467,-13.915411,-12.209551,3.5458057,5.493247,6.819213,7.033764,16.328623,-32.02985,51.889065,10.278957,-2.0485687,-0.23093306,-13.144102,-12.393241,41.533344,55.61624,-12.767018,-0.76148427,9.435481
177,-26.67918586730957,16.688793182373047,75.77269744873047,-4.28727416168179,3.0009241433896148,142.07610020111062,-27.100023,-0.17533416,-10.486772,6.5233307,-3.318765,-14.184064,4.7443614,23.388754,31.213724,26.980183,-13.920993,-12.334556,3.6024964,5.2028165,6.6006403,7.081905,16.22804,-32.04134,52.164043,10.758962,-2.009758,-0.30263245,-13.24399,-12.306996,41.373417,55.690327,-12.890097,-0.7635091,9.37535
178,-27.109920501708984,16.98944664001465,75.79502868652344,-4.013454696392191,3.2333824127259163,141.71233849706195,-26.794441,-0.457437,-10.61894,6.5905833,-2.8650959,-13.819741,4.6916904,23.183056,31.299778,27.619345,-13.906067,-12.432615,3.646383,4.87296,6.335967,7.1402106,16.162447,-32.09107,52.411495,11.32007,-1.967387,-0.39170885,-13.321007,-12.227716,41.222225,55.738483,-13.000755,-0.76205724,9.315555
179,-27.543445587158203,17.300018310546875,75.83003234863281,-3.6719584524502844,3.4692850230037537,141.3566516275515,-26.452318,-0.80561364,-10.749231,6.592864,-2.2821329,-13.503526,4.6360316,22.895723,31.388067,28.274311,-13.88331,-12.49113,3.6982088,4.4681063,6.0629873,7.1875296,16.114262,-32.17327,52.66259,11.91749,-1.9200907,-0.49896333,-13.380287,-12.146993,41.076283,55.77434,-13.097253,-0.757951,9.257495
180,-27.98370933532715,17.603240966796875,75.8725814819336,-3.3200636887031045,3.6467716625026902,140.98436142043377,-26.095428,-1.1503165,-10.796183,6.595305,-1.6763451,-13.270817,4.6796403,22.571058,31.501549,28.866158,-13.803972,-12.50964,3.7963064,4.045283,5.81647,7.200895,16.053648,-32.295094,52.970554,12.495728,-1.8634245,-0.6195929,-13.44657,-12.014118,40.933376,55.87143,-13.186496,-0.75324947,9.197153
181,-28.43702507019043,17.919353485107422,75.92752838134766,-2.943616650980837,3.763832605345998,140.58151793023194,-25.72677,-1.5060443,-10.756511,6.563522,-1.0159584,-13.173657,4.841926,22.187658,31.649937,29.3772,-13.676175,-12.484204,3.9221506,3.597763,5.630493,7.2330923,16.017036,-32.411293,53.241173,13.082837,-1.797205,-0.77575004,-13.491499,-11.916057,40.856094,55.913696,-13.229408,-0.7386384,9.138692
182,-28.91147804260254,18.263378143310547,75.98968505859375,-2.5226901308021397,3.8537305850112853,140.16762727846432,-25.338167,-1.900773,-10.66974,6.486947,-0.26342455,-13.176068,5.070612,21.73446,31.814928,29.847593,-13.5197735,-12.414926,4.0736933,3.1042156,5.4698973,7.254596,15.99106,-32.551888,53.51229,13.6921835,-1.7242687,-0.95869553,-13.513707,-11.836529,40.80617,55.923435,-13.243353,-0.7178562,9.082695
183,-29.40579605102539,18.635883331298828,76.05084228515625,-2.0791188668151763,3.91676208208025,139.7734986699367,-24.916595,-2.3111985,-10.5062275,6.4087877,0.49622282,-13.172391,5.337061,21.248095,31.968367,30.312965,-13.322142,-12.303032,4.2205305,2.586155,5.3301754,7.2681704,15.972244,-32.702084,53.795105,14.266744,-1.6450744,-1.150285,-13.5054455,-11.771678,40.767136,55.910416,-13.246567,-0.695488,9.030714
184,-29.903804779052734,19.01288414001465,76.10858917236328,-1.6216256969637781,3.9491754667934624,139.42953643414845,-24.437191,-2.7206614,-10.229261,6.343408,1.191658,-13.054088,5.611663,20.752216,32.083797,30.816975,-13.076753,-12.1472025,4.329523,2.0518336,5.21147,7.288428,15.959724,-32.837437,54.087933,14.756736,-1.5582069,-1.3326039,-13.460101,-11.717744,40.729046,55.87895,-13.252777,-0.67391235,8.984332
185,-30.398637771606445,19.389026641845703,76.16960144042969,-1.1530558554586896,3.935191078480214,139.14195481376953,-23.890625,-3.1108482,-9.782793,6.3166313,1.8039151,-12.779343,5.922734,20.252916,32.16695,31.340363,-12.786038,-11.985796,4.41971,1.5033004,5.106432,7.2906356,15.948583,-33.002243,54.436752,15.113881,-1.4677422,-1.5033352,-13.373109,-11.652272,40.666668,55.86967,-13.257339,-0.6621378,8.938408
186,-30.895503997802734,19.773462295532227,76.23516845703125,-0.6656640119867996,3.876749615082427,138.8925830861241,-23.281263,-3.494667,-9.200982,6.300113,2.3735113,-12.407349,6.2807193,19.736532,32.22842,31.867554,-12.452745,-11.803809,4.4856133,0.93507975,5.0260878,7.2967563,15.942923,-33.167286,54.803394,15.386495,-1.3696612,-1.672418,-13.254737,-11.585708,40.61299,55.857456,-13.250527,-0.65106034,8.893897
187,-31.401611328125,20.166921615600586,76.30274963378906,-0.17913255545241752,3.7916710227487243,138.66594080438546,-22.641422,-3.87458,-8.5916,6.299912,2.8802905,-11.989226,6.646186,19.223648,32.262077,32.41405,-12.051169,-11.522459,4.5122285,0.3704093,4.980474,7.3266563,15.942387,-33.264126,55.144047,15.643178,-1.2642037,-1.8389171,-13.1135025,-11.550708,40.586903,55.79565,-13.25796,-0.63632286,8.863048
188,-31.908645629882812,20.56725311279297,76.36730194091797,0.30375340003156726,3.699313805123454,138.4467513421718,-21.990229,-4.2703333,-8.0519085,6.2921324,3.3216836,-11.576539,6.9723625,18.719843,32.26472,33.014843,-11.571155,-11.059858,4.596229,-0.20875812,4.9220486,7.299936,15.942458,-33.41141,55.54934,15.873439,-1.1426,-1.9757006,-12.97592,-11.455919,40.48583,55.808956,-13.339576,-0.62837166,8.84053
189,-32.41627502441406,20.970529556274414,76.43720245361328,0.7562313324442199,3.5942976174062586,138.23948261327007,-21.330547,-4.669421,-7.625687,6.28888,3.700691,-11.231217,7.2527075,18.269695,32.217106,33.698833,-11.01441,-10.515907,4.638769,-0.7587988,4.898773,7.3029957,15.942495,-33.439533,55.91977,16.154959,-1.0095457,-2.1020365,-12.8279705,-11.398682,40.418217,55.76267,-13.480494,-0.61517566,8.842848
190,-32.909881591796875,21.372222900390625,76.50057983398438,1.1935559876429391,3.46930733718692,138.04813460258984,-20.651888,-5.0770354,-7.25235,6.28897,4.024398,-10.912726,7.5099864,17.85527,32.132233,34.44454,-10.392666,-9.888478,4.6658254,-1.287838,4.8976154,7.3146133,15.94194,-33.42318,56.283188,16.42915,-0.8647499,-2.2135487,-12.658009,-11.378157,40.3709,55.680267,-13.656076,-0.6004432,8.859703
191,-33.39738082885742,21.77082633972168,76.55960083007812,1.6276483190438324,3.3426486817365357,137.8605785653366,-19.97947,-5.496662,-6.9011188,6.296285,4.2766304,-10.529381,7.7538967,17.437094,32.05682,35.17373,-9.693564,-8.946574,4.717701,-1.8349249,4.900613,7.288458,15.937954,-33.382042,56.6734,16.715515,-0.71141046,-2.3127537,-12.505679,-11.29842,40.252914,55.63972,-13.896921,-0.58838904,8.892951
192,-33.87535095214844,22.174280166625977,76.61161041259766,2.0836269454232474,3.2344906862476948,137.6670207006223,-19.338957,-5.9449854,-6.535917,6.3137927,4.441225,-9.984986,7.9875197,16.968521,32.04035,35.832672,-8.923845,-7.4554696,4.7449718,-2.3894176,4.906226,7.2808285,15.933029,-33.29731,56.99579,16.994343,-0.5517526,-2.3962061,-12.3793745,-11.253593,40.19437,55.564255,-14.0935335,-0.5642993,8.926237
193,-34.346614837646484,22.564449310302734,76.66018676757812,2.5638520670390914,3.148884556012582,137.48188114638987,-18.743738,-6.4341393,-6.173758,6.3531466,4.513934,-9.197423,8.20639,16.494198,32.15594,36.45924,-8.130683,-5.440259,4.755599,-2.9641404,4.912645,7.267274,15.925093,-33.167736,57.275593,17.284618,-0.38516772,-2.4639034,-12.279793,-11.218344,40.146557,55.470634,-14.274152,-0.5238,8.969403
194,-34.816165924072266,22.949199676513672,76.70997619628906,3.0543591528077503,3.074511202821631,137.3056281531871,-18.171726,-6.9561734,-5.831268,6.3962197,4.515648,-8.237489,8.411518,16.041191,32.365067,37.090504,-7.3433356,-2.9892724,4.7381544,-3.547557,4.9263554,7.256816,15.90997,-32.964817,57.520996,17.602268,-0.21263233,-2.5195785,-12.213376,-11.181642,40.11303,55.374836,-14.459595,-0.47325125,9.025778
195,-35.2872428894043,23.3266658782959,76.75899505615234,3.5438433291700067,3.008653288361169,137.10551795365245,-17.618076,-7.4826665,-5.4748282,6.4496737,4.437407,-7.2401657,8.611806,15.556853,32.555378,37.681736,-6.5453386,0.032687318,4.70199,-4.120992,4.941321,7.2509956,15.882047,-32.716785,57.72625,17.901064,-0.036966756,-2.564193,-12.196098,-11.141983,40.132156,55.292572,-14.619088,-0.42640555,9.0784445
196,-35.749183654785156,23.700273513793945,76.79847717285156,4.022482354967341,2.9509490336961517,136.8501058843051,-17.069319,-7.9815297,-5.0702667,6.5012965,4.274282,-6.339595,8.80283,14.994091,32.61413,38.214497,-5.710467,3.756591,4.705605,-4.6716404,4.957615,7.2248626,15.856435,-32.51271,57.89023,18.120731,0.140227,-2.598831,-12.20247,-11.124669,40.175743,55.19568,-14.74232,-0.39900583,9.118724
197,-36.198486328125,24.05927276611328,76.8310546875,4.494614587134148,2.9142359597421583,136.5342895011804,-16.53486,-8.447336,-4.604182,6.5492897,4.0017495,-5.545141,9.010935,14.336948,32.549774,38.6468,-4.8134637,8.644336,4.711216,-5.201007,4.9696217,7.199987,15.81609,-32.276623,57.99742,18.29946,0.33019042,-2.6281908,-12.272231,-11.119728,40.29607,55.10433,-14.820668,-0.3962433,9.153629
198,-36.646636962890625,24.4107723236084,76.8595199584961,4.953075853428881,2.8975704749922495,136.17767389148537,-16.264378,-8.902138,-4.0681877,7.117556,3.3493226,-4.7954288,9.176366,13.684675,32.39527,39.150795,-3.9346058,14.4663925,4.744091,-5.7074003,4.978245,7.1587505,15.774376,-32.052803,58.059193,18.431036,0.53298396,-2.647545,-12.374576,-11.133672,40.442352,55.00158,-14.869107,-0.4104749,9.186829
199,-37.062068939208984,24.833127975463867,76.87321472167969,5.157805540257486,2.705335520754138,135.97864539459965,-16.273111,-9.135228,-3.7657926,8.7346525,2.0636933,-4.213263,9.343442,13.179742,30.558668,39.628983,-2.7718482,15.000033,4.618588,-5.974331,5.116857,7.08396,15.739873,-31.871294,58.106396,18.478258,0.7158391,-2.6541476,-12.489947,-11.157183,40.600616,54.881924,-14.888602,-0.43475124,9.198332
200,-37.4615478515625,25.25821304321289,76.88843536376953,5.194689609067494,2.4643705327512824,135.76910954329182,-16.339996,-9.182821,-3.5313513,10.603999,0.6254749,-3.7620728,9.263306,12.761267,28.314346,40.378433,-1.4501123,15.000033,4.4029117,-6.0500813,5.290134,7.0242324,15.689892,-31.667719,58.12217,18.436935,0.8445292,-2.6507053,-12.637475,-11.197909,40.8514,54.761047,-14.854247,-0.4613483,9.167386
201,-37.85396194458008,25.662607192993164,76.90815734863281,5.217842819024124,2.279757779742627,135.41138429640134,-16.259335,-9.140176,-3.1950383,12.050457,-0.6128686,-3.4282632,8.806378,12.294828,26.038557,41.595417,0.12737165,15.000033,4.301187,-6.0969567,5.4143777,6.945185,15.634212,-31.547853,58.128082,18.20171,0.91165453,-2.6274781,-12.798722,-11.257152,41.13138,54.64877,-14.765241,-0.49730742,9.0842085
202,-38.244712829589844,26.06121253967285,76.93441009521484,5.217255700774963,2.145977998358827,134.9324756500072,-16.103254,-9.004079,-2.773029,13.244091,-1.7595654,-3.200122,8.030223,11.7052965,23.611807,43.143646,1.9865707,15.000033,4.297885,-6.117808,5.4998803,6.8528614,15.597532,-31.502005,58.101322,17.807852,0.9355041,-2.589989,-12.9837675,-11.3099375,41.42053,54.556404,-14.639775,-0.54651076,8.961419
203,-38.63851547241211,26.435882568359375,76.96662139892578,5.213849537553966,2.0687022545293394,134.360810830628,-15.856335,-8.821177,-2.2816567,14.128433,-2.7663307,-3.0158424,6.930773,10.944751,21.138287,45.024197,3.6801672,15.000033,4.3397098,-6.1238794,5.538399,6.7554746,15.563775,-31.498922,58.047596,17.395409,0.9312399,-2.5421805,-13.169972,-11.369392,41.713634,54.465256,-14.509906,-0.5994241,8.818959
204,-39.03086853027344,26.79846954345703,77.01107025146484,5.244847869970555,2.0353378321852342,133.74143158645975,-15.4720335,-8.664954,-1.7499576,14.6194725,-3.571552,-2.8086476,5.56527,10.002931,18.803673,47.21787,4.6883655,15.000033,4.4022226,-6.1469707,5.5379133,6.636314,15.533053,-31.563929,57.985775,17.08701,0.9167364,-2.486196,-13.321104,-11.436187,41.944645,54.365345,-14.427668,-0.6496371,8.679732
205,-39.440887451171875,27.134952545166016,77.07013702392578,5.377237681231264,2.015307997093315,133.09233836942147,-14.83188,-8.633294,-1.1767697,14.529401,-4.0864773,-2.5533621,3.9950573,8.893029,16.870214,49.82647,4.596152,15.000033,4.471592,-6.254251,5.5249605,6.4998627,15.518983,-31.721323,57.914066,16.88848,0.88666517,-2.415737,-13.4480915,-11.483369,42.098667,54.281864,-14.416479,-0.7027204,8.540872
206,-39.8613395690918,27.44651222229004,77.12696075439453,5.6144242725236335,1.9868734855280636,132.43212093883966,-13.934255,-8.741358,-0.57911766,13.907119,-4.339541,-2.2784338,2.309495,7.6218596,15.322413,52.736645,3.6659214,15.000033,4.527689,-6.440337,5.5184946,6.3471403,15.513213,-31.963665,57.830387,16.737694,0.83513993,-2.3308833,-13.553738,-11.533831,42.209568,54.198784,-14.441646,-0.758023,8.393251
207,-40.297386169433594,27.75457763671875,77.18763732910156,5.885801139997015,1.9482013957820206,131.80498043147546,-12.898961,-8.926329,-0.017637553,13.004822,-4.4427743,-1.9970324,0.6022405,6.203041,13.916749,55.62966,2.3707004,15.000033,4.551875,-6.6485167,5.5190263,6.166016,15.520453,-32.26961,57.73249,16.660637,0.78096503,-2.2484689,-13.619028,-11.585871,42.235355,54.10492,-14.499265,-0.80639756,8.251223
208,-40.71866226196289,28.067134857177734,77.24754333496094,6.120118710807342,1.905139188041096,131.24449544706124,-11.868273,-9.106349,0.46303,12.103631,-4.522065,-1.722262,-1.0600209,4.630545,12.374382,58.22615,1.2042431,15.000033,4.5214543,-6.8188705,5.517503,5.9550467,15.544459,-32.60287,57.612984,16.685606,0.74251723,-2.185095,-13.63474,-11.629073,42.153446,54.000103,-14.579743,-0.83791924,8.12612
209,-41.139400482177734,28.385141372680664,77.3092269897461,6.301164763828475,1.853009071025032,130.75331927789594,-10.846404,-9.26441,0.854426,11.221876,-4.5834126,-1.449101,-2.6624694,2.8142269,10.530967,60.488625,0.203885,15.000033,4.432468,-6.9378295,5.511434,5.715408,15.587903,-32.976254,57.47212,16.849283,0.72441524,-2.1435697,-13.595142,-11.65939,41.949154,53.88769,-14.705823,-0.8481466,8.024975
210,-41.559810638427734,28.711963653564453,77.37036895751953,6.464509550893276,1.77896815541028,130.32765171498863,-9.754333,-9.444484,1.1644108,10.221011,-4.564532,-1.1699477,-4.201318,0.775655,8.551323,62.569145,-0.9012327,15.000033,4.288908,-7.037368,5.5143137,5.4508867,15.656997,-33.40797,57.30521,17.123173,0.71757436,-2.1164567,-13.5050535,-11.675676,41.629215,53.768627,-14.878378,-0.84351397,7.9407077
211,-41.97985076904297,29.031471252441406,77.42598724365234,6.61394989782611,1.6844775634148836,129.98038914855422,-8.628896,-9.647856,1.3879533,9.170017,-4.4997683,-0.8978232,-5.6491404,-1.3163484,6.625082,64.47394,-2.0449896,15.000033,4.070467,-7.120748,5.5298214,5.168363,15.743299,-33.846264,57.106804,17.447838,0.7190362,-2.104004,-13.386482,-11.675194,41.235172,53.652428,-15.0421295,-0.8293579,7.860242
212,-42.39322280883789,29.354080200195312,77.47319030761719,6.749849850300036,1.5777808592676512,129.71846793511426,-7.515526,-9.867703,1.5272427,8.14188,-4.4259114,-0.6453888,-7.0127354,-3.2771883,4.9330087,66.20565,-3.1372268,15.000033,3.7836018,-7.1931167,5.559524,4.8595967,15.844771,-34.26875,56.87723,17.752878,0.7268942,-2.105332,-13.2449,-11.662141,40.781467,53.533657,-15.148845,-0.81188744,7.7728353
213,-42.80326461791992,29.68018913269043,77.5134506225586,6.867227527801836,1.4679351685537119,129.5473595444504,-6.427444,-10.097453,1.5774084,7.137779,-4.3370543,-0.41510317,-8.337362,-5.1062627,3.4296324,67.78079,-4.1138673,15.000033,3.4223208,-7.2496085,5.5953135,4.524523,15.95821,-34.669903,56.613075,18.060629,0.7547578,-2.1253464,-13.072445,-11.637512,40.25189,53.398922,-15.181222,-0.7820753,7.680654
214,-43.21748352050781,30.004682540893555,77.54749298095703,6.961611230723272,1.3469151977970748,129.46563106284265,-5.7160354,-10.31886,1.6002111,6.912728,-4.634318,-0.20300436,-9.613843,-6.8712273,2.0089135,69.19502,-5.032684,15.000033,2.9852092,-7.2858467,5.6393566,4.1625643,16.08287,-35.067024,56.320606,18.393362,0.7986429,-2.1623676,-12.868483,-11.601766,39.644363,53.25369,-15.16481,-0.740374,7.5880914
215,-43.61921691894531,30.322214126586914,77.56986999511719,7.03863332003522,1.207536354915658,129.45842185418212,-5.082828,-10.533742,1.5589322,6.870708,-5.0134473,-0.008118527,-10.814908,-8.468853,0.7580741,70.42172,-5.9553714,15.000033,2.4909766,-7.308233,5.7019863,3.773273,16.220543,-35.45962,56.005062,18.687939,0.83012027,-2.2070396,-12.6397915,-11.557302,38.992573,53.106808,-15.123368,-0.7065692,7.4871054
216,-44.01949691772461,30.651411056518555,77.59315490722656,7.068728844352323,1.06191851702135,129.4801280509939,-4.4532914,-10.686699,1.4725312,6.8477674,-5.4006996,0.15845303,-11.949338,-9.766474,-0.25358215,71.41522,-6.904929,15.000033,1.987434,-7.291504,5.778229,3.3545554,16.375696,-35.846783,55.6731,18.879538,0.82036865,-2.2492762,-12.395875,-11.507727,38.33404,52.96867,-15.078185,-0.7004445,7.368511
217,-44.38728713989258,31.009212493896484,77.62218475341797,6.954843601369181,0.9542620953583086,129.46069997356048,-3.8764336,-10.624408,1.3864113,6.867813,-5.815823,0.25373095,-13.099139,-10.864457,-1.4772263,72.14096,-7.8538976,13.459235,1.541156,-7.1626577,5.8388653,2.9002132,16.554352,-36.23062,55.323074,18.939032,0.7570537,-2.2931259,-12.129917,-11.452175,37.66312,52.826145,-15.031343,-0.7256113,7.2381396
218,-44.736289978027344,31.366121292114258,77.64419555664062,6.82189598323167,0.8501470384967027,129.47637372240825,-3.3154607,-10.539394,1.2666333,6.899155,-6.229071,0.32765898,-14.244697,-11.7121935,-2.5588734,72.67342,-8.834133,11.475382,1.075071,-7.027767,5.9096656,2.4230294,16.755892,-36.61029,54.9399,18.905085,0.6581292,-2.3434007,-11.841185,-11.392488,36.967575,52.679283,-14.97125,-0.7722469,7.0999837
219,-45.08017349243164,31.72110939025879,77.66065216064453,6.686895394868348,0.7483307792539156,129.5098164485802,-2.7644234,-10.449784,1.1331105,6.93815,-6.6406035,0.39089695,-15.36943,-12.301454,-3.4037404,72.99851,-9.75093,9.751388,0.60886776,-6.897907,5.9912586,1.926252,16.97846,-36.983967,54.53101,18.812216,0.5374688,-2.3886092,-11.53627,-11.331488,36.26847,52.54037,-14.901049,-0.8397953,6.936472
220,-45.424930572509766,32.08189010620117,77.66985321044922,6.561639130919408,0.6472102773427487,129.54329869727115,-2.2120461,-10.364252,1.0029485,6.9713397,-7.0449634,0.4479632,-16.44786,-12.717691,-4.0874333,73.10043,-10.50739,8.469254,0.1606747,-6.783592,6.084647,1.4146986,17.218714,-37.346436,54.102997,18.698124,0.4087369,-2.4168453,-11.221345,-11.272031,35.587692,52.420506,-14.82406,-0.9275344,6.730017
221,-45.7570686340332,32.437416076660156,77.67359161376953,6.448352977573408,0.5474842358166971,129.57792923821927,-1.666261,-10.284102,0.8767615,7.011719,-7.4492745,0.49501163,-17.474983,-12.960023,-4.619077,72.94829,-11.042486,7.7608867,-0.272026,-6.687398,6.1895566,0.8850604,17.474617,-37.69781,53.65752,18.559664,0.268492,-2.4263651,-10.895524,-11.216477,34.92451,52.313347,-14.741904,-1.047281,6.4769177
222,-46.085872650146484,32.798404693603516,77.67076110839844,6.341457740454043,0.4496959392854034,129.62135355174235,-1.1269064,-10.206785,0.7468516,7.0561237,-7.8508835,0.531452,-18.473703,-13.001364,-4.9767723,72.55388,-11.394892,7.4895215,-0.6963314,-6.602956,6.305186,0.33416227,17.74521,-38.04138,53.193386,18.381443,0.11169305,-2.4232926,-10.55419,-11.166029,34.270546,52.21338,-14.652142,-1.1954011,6.186728
223,-46.41710662841797,33.16676712036133,77.66545104980469,6.2402203551294875,0.3518784176216633,129.66485552267724,-0.5885101,-10.130984,0.6201736,7.1015925,-8.24872,0.5660306,-19.45102,-12.889093,-5.1888156,71.96409,-11.625303,7.4357953,-1.1017698,-6.5266013,6.4314556,-0.23218115,18.028082,-38.374825,52.713055,18.184547,-0.05027628,-2.4071658,-10.199915,-11.121466,33.63636,52.13585,-14.551391,-1.3485094,5.861467
224,-46.750919342041016,33.552711486816406,77.65845489501953,6.144470002084958,0.2518682256768343,129.69999879135582,-0.11688441,-10.053176,0.51556796,7.295378,-8.722341,0.60703564,-20.412172,-12.668478,-5.278887,71.22594,-11.798073,7.3838224,-1.4784769,-6.4548917,6.568419,-0.8098508,18.320147,-38.694706,52.220398,17.989506,-0.20605813,-2.3772962,-9.839776,-11.08301,33.037132,52.09925,-14.430666,-1.4831387,5.5026674
225,-47.07675552368164,33.92378234863281,77.64818572998047,6.055514020043832,0.14340509170525848,129.72541435050297,0.275539,-9.974753,0.43518096,7.6749806,-9.287532,0.6609821,-21.36427,-12.306121,-5.2025156,70.34367,-11.915815,7.301841,-1.8258231,-6.389035,6.721873,-1.4066659,18.620825,-39.00485,51.71685,17.790972,-0.35166872,-2.331371,-9.474461,-11.051018,32.481125,52.106186,-14.318601,-1.5867099,5.121404
226,-47.39436340332031,34.29646301269531,77.63134002685547,5.9735100499854665,0.02911020341904422,129.74549049295177,0.68226385,-9.899857,0.3589788,8.039121,-9.838938,0.7228157,-22.298986,-11.802174,-4.9612956,69.29346,-11.949526,7.289945,-2.1490877,-6.329832,6.8898916,-2.0232942,18.929583,-39.30475,51.201473,17.582602,-0.49358386,-2.2704167,-9.101236,-11.0254345,31.960377,52.148315,-14.20771,-1.6739506,4.713129
227,-47.713462829589844,34.67422866821289,77.60800170898438,5.895274903320815,-0.07974520289899949,129.76080217460765,1.1054913,-9.825916,0.28907722,8.362632,-10.370216,0.782715,-23.198631,-11.245093,-4.651723,68.08295,-11.916741,7.326829,-2.448484,-6.2725835,7.058884,-2.6445925,19.242743,-39.58396,50.678963,17.383253,-0.6365538,-2.1977177,-8.721606,-11.007099,31.462725,52.230675,-14.041903,-1.7631018,4.2560167
228,-48.04365539550781,35.07722473144531,77.59139251708984,5.817378483298701,-0.171324693866141,129.7715739741061,1.5336406,-9.749982,0.23017326,8.64839,-10.890967,0.8306177,-24.048546,-10.721674,-4.3708754,66.72,-11.835242,7.39489,-2.7236366,-6.2108808,7.2154984,-3.2568352,19.55448,-39.831467,50.156002,17.212202,-0.78536195,-2.1164422,-8.332824,-10.995675,30.973888,52.353054,-13.767783,-1.8735625,3.7289429
229,-48.37197494506836,35.46617126464844,77.56327056884766,5.737410492091222,-0.24679254753772675,129.77563271130077,1.9730552,-9.667259,0.18457174,8.889315,-11.403601,0.8553145,-24.84456,-10.224066,-4.1166673,65.19283,-11.711398,7.5262065,-2.971004,-6.1409273,7.3597555,-3.864674,19.861845,-40.049084,49.641094,17.086626,-0.94706887,-2.0232244,-7.933437,-10.991757,30.496359,52.522907,-13.285822,-2.0394764,3.086465
230,-48.698760986328125,35.85183334350586,77.52872467041016,5.657637740525263,-0.31092010913735507,129.7738606934798,2.4212751,-9.580265,0.15043397,9.097414,-11.909183,0.8646966,-25.590511,-9.719546,-3.845973,63.497288,-11.535115,7.7154436,-3.192019,-6.0652013,7.4964986,-4.4761524,20.164001,-40.240776,49.135506,16.992891,-1.1173787,-1.9169772,-7.5240736,-10.99644,30.034882,52.738285,-12.655534,-2.2462718,2.3543992
231,-49.02657699584961,36.25636291503906,77.49174499511719,5.583080758609796,-0.35711400445910313,129.7711490885453,2.8680344,-9.497981,0.123258,9.273402,-12.398392,0.87752444,-26.28718,-9.2561655,-3.5943522,61.653423,-11.299443,7.8941126,-3.3936915,-5.987782,7.6195,-5.0828304,20.457216,-40.39781,48.634373,16.905174,-1.2839521,-1.8037647,-7.1093607,-11.009169,29.581514,52.988125,-12.05578,-2.436402,1.6171466
232,-49.35515213012695,36.66600799560547,77.45692443847656,5.518403836922134,-0.3787307138096281,129.7721705755919,3.3005412,-9.428408,0.098454446,9.423452,-12.864998,0.91224515,-26.936531,-8.877953,-3.3990083,59.681904,-10.99593,7.99582,-3.582828,-5.91251,7.7217298,-5.675719,20.735971,-40.50949,48.135456,16.799206,-1.4344275,-1.6893153,-6.695502,-11.0287285,29.127617,53.26453,-11.664282,-2.546269,0.9566977
233,-49.68910217285156,37.07018280029297,77.41699981689453,5.467581109625889,-0.3704008824634646,129.77453063850538,3.713177,-9.37423,0.08241107,9.54497,-13.306272,0.9782015,-27.551647,-8.589226,-3.2570205,57.582623,-10.618323,7.9939547,-3.7562351,-5.839952,7.7972164,-6.260945,20.996683,-40.57519,47.643204,16.67147,-1.5664102,-1.567418,-6.2807283,-11.054094,28.669182,53.563145,-11.564179,-2.5346324,0.35275623
234,-50.018455505371094,37.46851348876953,77.3698959350586,5.42681673405515,-0.3367340624187327,129.77673542418046,4.1141524,-9.3319025,0.074599974,9.635031,-13.72546,1.0637374,-28.12564,-8.365683,-3.1557615,55.343266,-10.170998,7.9295664,-3.9109278,-5.766688,7.849959,-6.8439665,21.23829,-40.598854,47.16516,16.535118,-1.6865634,-1.4366306,-5.864528,-11.08475,28.211369,53.89221,-11.64521,-2.4378116,-0.2255123
235,-50.35613250732422,37.88010787963867,77.32207489013672,5.390367306073806,-0.28577868604907225,129.78511630897913,4.502926,-9.292927,0.060381576,9.712152,-14.131299,1.155194,-28.631107,-8.206858,-3.11837,52.964493,-9.663012,7.8404336,-4.055304,-5.6919165,7.8871965,-7.4172716,21.459553,-40.578568,46.705727,16.387922,-1.7960442,-1.3100693,-5.4527,-11.120304,27.757652,54.26109,-11.799707,-2.3063476,-0.712976
236,-50.69689178466797,38.29745101928711,77.27300262451172,5.351522365884406,-0.22563913240759184,129.8058962351313,4.8867097,-9.25319,0.024926474,9.781726,-14.525754,1.2394304,-29.04338,-8.110842,-3.1689017,50.4505,-9.10196,7.764637,-4.1974654,-5.613729,7.9165807,-7.9713254,21.659029,-40.511066,46.267685,16.229425,-1.8961872,-1.2009243,-5.0506544,-11.159738,27.312109,54.678387,-11.919883,-2.193242,-1.0448602
237,-51.03834915161133,38.716163635253906,77.22029113769531,5.312656559950614,-0.15281066871169302,129.8420317946603,5.2576375,-9.216411,-0.03732303,9.849395,-14.910168,1.3199565,-29.366861,-8.0753565,-3.2970338,47.775814,-8.451525,7.7114615,-4.3403497,-5.534141,7.9358,-8.511052,21.835945,-40.392323,45.855503,16.057123,-1.9830239,-1.1164021,-4.660177,-11.201996,26.863966,55.154514,-11.94501,-2.1144278,-1.1994004
238,-51.376461029052734,39.141334533691406,77.16790771484375,5.276483526636984,-0.06530580441312296,129.8901903231612,5.6154847,-9.183929,-0.11818947,9.910551,-15.28294,1.4012241,-29.606915,-8.094657,-3.5008507,44.938183,-7.716812,7.666404,-4.479563,-5.4537797,7.9419045,-9.0395565,21.990324,-40.2239,45.469807,15.872901,-2.0573423,-1.0479555,-4.278456,-11.247043,26.414827,55.683792,-11.94409,-2.0415277,-1.2129035
239,-51.71220397949219,39.568275451660156,77.11402130126953,5.237149375342224,0.026511040278016377,129.94712887212427,5.977145,-9.144414,-0.21228947,9.959214,-15.644274,1.4714522,-29.737467,-8.15963,-3.8167064,41.967957,-6.967321,7.633594,-4.613095,-5.369024,7.942701,-9.546989,22.122097,-40.01332,45.10736,15.679548,-2.1276927,-0.9852837,-3.9044778,-11.2943325,25.989534,56.24873,-12.002154,-1.962211,-1.107793
