unveil-humanoid-operators/unveil-humanoid-operators.github.io/feature-analysis-animation/data/feature_matrix_instances/weight_ankle_rom_walking_A256_walk_hands_on_back_180_start_R_001__A256.csv
Frame,root_translateX,root_translateY,root_translateZ,root_rotateX,root_rotateY,root_rotateZ,left_hip_pitch_joint_dof,left_hip_roll_joint_dof,left_hip_yaw_joint_dof,left_knee_joint_dof,left_ankle_pitch_joint_dof,left_ankle_roll_joint_dof,right_hip_pitch_joint_dof,right_hip_roll_joint_dof,right_hip_yaw_joint_dof,right_knee_joint_dof,right_ankle_pitch_joint_dof,right_ankle_roll_joint_dof,waist_yaw_joint_dof,waist_roll_joint_dof,waist_pitch_joint_dof,left_shoulder_pitch_joint_dof,left_shoulder_roll_joint_dof,left_shoulder_yaw_joint_dof,left_elbow_joint_dof,left_wrist_roll_joint_dof,left_wrist_pitch_joint_dof,left_wrist_yaw_joint_dof,right_shoulder_pitch_joint_dof,right_shoulder_roll_joint_dof,right_shoulder_yaw_joint_dof,right_elbow_joint_dof,right_wrist_roll_joint_dof,right_wrist_pitch_joint_dof,right_wrist_yaw_joint_dof
0,0.19054819643497467,1.9718763828277588,78.05976104736328,-1.1040042023434289,4.495048537738428,-93.41176686644378,0.5244998,2.8281195,15.998341,11.622316,-16.754307,-0.8380163,-0.48740757,-3.6374106,-9.418533,9.568833,-12.783144,5.026865,-3.0909543,0.881763,1.4321448,13.921471,9.151509,-85.06078,41.308495,34.23705,10.924956,14.392236,17.448603,-8.396037,75.47814,42.75655,-30.95319,-9.344032,5.8313856
1,0.20215833187103271,1.9562331438064575,78.05860900878906,-1.1101784552487757,4.504758658444559,-93.41063193687634,0.5289584,2.824109,16.000639,11.619145,-16.765186,-0.84956133,-0.4884879,-3.6405973,-9.418888,9.5741205,-12.784709,5.025609,-3.0905483,0.8806566,1.4289111,13.923608,9.156261,-85.06038,41.30838,34.27817,10.917889,14.384986,17.454096,-8.403281,75.47761,42.74367,-30.990032,-9.342585,5.83975
2,0.2127145379781723,1.9411447048187256,78.05816650390625,-1.1167389700947268,4.514565788416984,-93.4093836240379,0.53400457,2.820175,16.002884,11.614523,-16.775671,-0.8628059,-0.48935854,-3.643501,-9.419158,9.578772,-12.785635,5.023242,-3.0898962,0.87990683,1.4255878,13.92594,9.160636,-85.05993,41.308846,34.321224,10.909604,14.376866,17.458908,-8.409443,75.476875,42.732098,-31.027601,-9.341867,5.84821
3,0.22474874556064606,1.924587368965149,78.05738067626953,-1.1228263004500463,4.524169874010658,-93.40838161700857,0.53851414,2.8162067,16.005323,11.611589,-16.78633,-0.87272644,-0.49040952,-3.6468449,-9.419522,9.584612,-12.787879,5.0230827,-3.0891423,0.8796254,1.4234351,13.928923,9.181928,-85.05837,41.28983,34.36228,10.903364,14.369312,17.467892,-8.437535,75.47477,42.696938,-31.063118,-9.33997,5.8586454
4,0.23482581973075867,1.9078774452209473,78.05586242675781,-1.1282742089129982,4.533171722705817,-93.40796255799545,0.5427384,2.812189,16.007849,11.61087,-16.796707,-0.87457,-0.48833844,-3.6508677,-9.42034,9.586321,-12.789855,5.028483,-3.0893724,0.8795508,1.4213672,13.93059,9.188657,-85.057076,41.287144,34.39296,10.899815,14.368924,17.472023,-8.445996,75.47361,42.685383,-31.091852,-9.339862,5.866562
5,0.24495548009872437,1.8913626670837402,78.05488586425781,-1.1325084304613906,4.540981092524113,-93.40879804373728,0.54442936,2.808949,16.01128,11.618764,-16.808695,-0.8621575,-0.48370913,-3.656259,-9.421388,9.586724,-12.793884,5.0423064,-3.0905354,0.87979,1.4204285,13.932193,9.192406,-85.054535,41.2862,34.40988,10.901024,14.378256,17.476631,-8.450797,75.47114,42.68028,-31.112896,-9.340354,5.873895
6,0.25650936365127563,1.8754549026489258,78.05339050292969,-1.1361876379980214,4.547923153794325,-93.41057446936702,0.54600036,2.8057644,16.015463,11.6290865,-16.819847,-0.83971846,-0.4764011,-3.662495,-9.422823,9.584485,-12.798664,5.0621758,-3.0913873,0.88065857,1.4202982,13.933395,9.194083,-85.051895,41.285942,34.41721,10.905526,14.393677,17.47946,-8.453062,75.46892,42.678925,-31.125204,-9.341552,5.8808346
7,0.2647222578525543,1.8589040040969849,78.05181884765625,-1.139591514537488,4.55513666671777,-93.41180167547724,0.54735905,2.8023946,16.018549,11.639443,-16.831528,-0.8179143,-0.46854588,-3.6687694,-9.424797,9.581357,-12.803482,5.0833044,-3.0940552,0.8816298,1.4211962,13.934242,9.197205,-85.046524,41.28416,34.424328,10.910709,14.409681,17.481487,-8.457671,75.46381,42.67662,-31.139606,-9.34348,5.8884826
8,0.2733337879180908,1.8413431644439697,78.0495376586914,-1.143458507069919,4.5636811215729205,-93.41139897894047,0.5507238,2.7983003,16.019703,11.641444,-16.841297,-0.8073611,-0.4614822,-3.6739573,-9.427284,9.577036,-12.806984,5.1009727,-3.0980036,0.88338417,1.420555,13.934433,9.19931,-85.04448,41.2832,34.433754,10.916006,14.421259,17.484226,-8.461005,75.46101,42.6754,-31.15821,-9.344388,5.8913336
9,0.2836565673351288,1.8223786354064941,78.04830169677734,-1.1480972299816525,4.573577152010265,-93.4081852828826,0.55776376,2.7929196,16.017374,11.631665,-16.84972,-0.8137493,-0.45418078,-3.6776783,-9.430992,9.569744,-12.808001,5.1139126,-3.1049445,0.886004,1.4190881,13.933688,9.200931,-85.043915,41.280125,34.449265,10.92127,14.427297,17.487595,-8.463719,75.45788,42.672028,-31.187796,-9.344238,5.8898067
10,0.2910308837890625,1.8051031827926636,78.04534149169922,-1.1531614536435357,4.584062285683198,-93.40303280801706,0.5688809,2.7858794,16.012634,11.6113,-16.85572,-0.83038235,-0.4461768,-3.6807098,-9.435664,9.560338,-12.807715,5.124727,-3.109783,0.8900609,1.4188966,13.93042,9.205765,-85.04794,41.27189,34.46801,10.927681,14.429742,17.493246,-8.472258,75.44685,42.661682,-31.228153,-9.343769,5.8854647
11,0.2993459701538086,1.7893526554107666,78.04434204101562,-1.1580817048664487,4.595786308434021,-93.3974832471869,0.5782235,2.7793868,16.007513,11.591078,-16.861353,-0.8496216,-0.4393551,-3.6831303,-9.440565,9.550253,-12.806615,5.1342835,-3.1170733,0.89368904,1.4165158,13.927684,9.208576,-85.05283,41.26762,34.485645,10.933405,14.4303055,17.49717,-8.477396,75.44208,42.656845,-31.263704,-9.343277,5.8796806
12,0.30709975957870483,1.7734878063201904,78.04186248779297,-1.1627963367627059,4.608623192661368,-93.39290131980718,0.58213294,2.774819,16.00389,11.57918,-16.867844,-0.8638008,-0.4352097,-3.6849318,-9.444924,9.541857,-12.805881,5.1433887,-3.122688,0.8959129,1.4127191,13.926431,9.210396,-85.057594,41.266544,34.504528,10.937368,14.426909,17.501377,-8.480731,75.43886,42.652115,-31.292551,-9.343101,5.878283
13,0.31434735655784607,1.7592817544937134,78.03946685791016,-1.1672148322647942,4.623680107480003,-93.38965868129526,0.5774322,2.7731473,16.002476,11.579485,-16.875761,-0.87068135,-0.43384662,-3.6856835,-9.448432,9.532237,-12.804342,5.1524334,-3.1195922,0.89751136,1.4061611,13.922646,9.215061,-85.07279,41.267815,34.51963,10.938345,14.4193325,17.505411,-8.488643,75.4324,42.641205,-31.307407,-9.344799,5.8845725
14,0.3169979155063629,1.7445766925811768,78.03934478759766,-1.171325212208696,4.640387514889382,-93.38696031333981,0.5671264,2.7733555,16.002176,11.586634,-16.884293,-0.8744061,-0.43590558,-3.6858315,-9.451528,9.524164,-12.803035,5.1609464,-3.1202567,0.89675504,1.3977344,13.921713,9.21709,-85.080986,41.275078,34.5394,10.935904,14.406072,17.508438,-8.491645,75.43167,42.63565,-31.316307,-9.347098,5.8950934
15,0.322610080242157,1.729651927947998,78.03778839111328,-1.175363265601087,4.656975492669664,-93.38448618038146,0.5573583,2.7737749,16.002384,11.592878,-16.890858,-0.87688905,-0.4380612,-3.6858315,-9.454824,9.516721,-12.801396,5.168543,-3.1191773,0.89602566,1.3896515,13.920312,9.218805,-85.09111,41.28253,34.55758,10.933877,14.391679,17.509829,-8.493915,75.43233,42.6311,-31.322123,-9.349342,5.905063
16,0.3296854794025421,1.713983178138733,78.03712463378906,-1.179154757592557,4.671046860319409,-93.38158256505268,0.55292994,2.7731242,16.002617,11.594002,-16.894863,-0.88002604,-0.4381535,-3.6866584,-9.459026,9.511324,-12.799338,5.174995,-3.1155636,0.8971092,1.3842945,13.91938,9.222348,-85.10657,41.284695,34.571907,10.935901,14.380783,17.510952,-8.498306,75.43363,42.627357,-31.330875,-9.350747,5.9089446
17,0.33638906478881836,1.6983574628829956,78.03695678710938,-1.1826523374617939,4.681691046290119,-93.37779155519307,0.5562609,2.7708867,16.002275,11.587035,-16.895077,-0.88473994,-0.43578243,-3.6890507,-9.465225,9.510394,-12.797925,5.1799626,-3.1160479,0.9002165,1.3849665,13.920796,9.225498,-85.11419,41.280865,34.590904,10.940966,14.368812,17.509916,-8.502235,75.4377,42.628017,-31.350035,-9.353164,5.906215
18,0.33979928493499756,1.6834877729415894,78.03763580322266,-1.1859035006647933,4.690315613923628,-93.37368238044546,0.5636752,2.7678835,16.001951,11.576512,-16.89337,-0.88985807,-0.43167883,-3.692099,-9.472694,9.511548,-12.796438,5.183674,-3.1173878,0.90427834,1.3892982,13.923147,9.226472,-85.11835,41.274483,34.611282,10.949302,14.355679,17.507154,-8.503557,75.44296,42.6317,-31.374182,-9.354668,5.899561
19,0.34439289569854736,1.6675388813018799,78.03797149658203,-1.1886689577035718,4.6977641536205,-93.3698446703139,0.57371444,2.7643976,16.002216,11.563195,-16.889208,-0.894172,-0.42798266,-3.6957188,-9.47946,9.51595,-12.79572,5.186693,-3.119573,0.9081908,1.394104,13.926253,9.227846,-85.12253,41.267067,34.627754,10.957816,14.346012,17.504852,-8.505551,75.45215,42.636364,-31.397066,-9.355487,5.890057
20,0.3497496247291565,1.6506423950195312,78.03833770751953,-1.1915200663130714,4.705254846435304,-93.36714277908169,0.58285314,2.7620764,16.003448,11.551832,-16.884584,-0.89659184,-0.42394724,-3.6980422,-9.483621,9.518749,-12.793958,5.1892624,-3.120605,0.91072595,1.3966984,13.929578,9.229159,-85.12473,41.262268,34.639027,10.962913,14.341316,17.503405,-8.507557,75.46047,42.63921,-31.41325,-9.355402,5.8830924
21,0.35461509227752686,1.6350957155227661,78.03862762451172,-1.194141105125483,4.712401598617364,-93.36710707125005,0.5916511,2.7605672,16.007147,11.543005,-16.878567,-0.89463353,-0.42017224,-3.6991897,-9.482811,9.521247,-12.792011,5.1922617,-3.1187506,0.91135263,1.3965299,13.934141,9.2317705,-85.12424,41.25904,34.643482,10.962155,14.343582,17.50449,-8.511785,75.470436,42.64078,-31.625212,-9.348309,5.926828
22,0.3586510121822357,1.6204029321670532,78.03951263427734,-1.1965420103306565,4.718749992558869,-93.3687799934449,0.6017688,2.7593539,16.012707,11.533869,-16.870796,-0.8895881,-0.415782,-3.6995687,-9.478726,9.523506,-12.789577,5.1952286,-3.1129696,0.9113486,1.3958791,13.938108,9.23408,-85.122154,41.25689,34.643185,10.957161,14.349902,17.50722,-8.515832,75.4757,42.64226,-31.97056,-9.337769,6.0053463
23,0.36203733086586,1.6069799661636353,78.0405502319336,-1.199060149421759,4.725505811903143,-93.36953371058914,0.6105335,2.7588606,16.017273,11.525865,-16.8632,-0.8860161,-0.41239607,-3.6995358,-9.475175,9.527,-12.787408,5.1966543,-3.1068308,0.91086555,1.3945014,13.940684,9.235411,-85.12074,41.25785,34.640896,10.95208,14.358454,17.509945,-8.51823,75.47582,42.640633,-32.041897,-9.334539,6.021638
24,0.3618627190589905,1.5886561870574951,78.0416488647461,-1.2021702085186288,4.733871402816792,-93.36663687362059,0.61719173,2.7587795,16.018229,11.51609,-16.856066,-0.8884337,-0.41257873,-3.699453,-9.475965,9.534673,-12.78666,5.1950164,-3.1041977,0.9106047,1.391716,13.942965,9.236967,-85.11904,41.260468,34.642017,10.949002,14.366095,17.513372,-8.520776,75.469086,42.626244,-31.433477,-9.351104,5.879317
25,0.36581432819366455,1.5766726732254028,78.04194641113281,-1.206609039582705,4.744548255381828,-93.35883207228949,0.62131363,2.7591512,16.014196,11.502589,-16.848825,-0.9005251,-0.41844392,-3.6991756,-9.482662,9.549022,-12.7873125,5.1885505,-3.105922,0.9097442,1.3901645,13.942286,9.238579,-85.11914,41.267544,34.645817,10.951486,14.374214,17.506838,-8.522383,75.45413,42.593414,-29.514746,-9.412188,5.4374914
26,0.36907467246055603,1.561738133430481,78.04280853271484,-1.2117402385027967,4.7567936006187574,-93.34740044399697,0.62408847,2.7600665,16.006702,11.48561,-16.84076,-0.9190498,-0.42780468,-3.6983137,-9.493361,9.567653,-12.789028,5.1784687,-3.1132367,0.9086822,1.3885651,13.939419,9.240444,-85.125305,41.27628,34.64226,10.960689,14.3888855,17.494051,-8.5222845,75.440186,42.550198,-26.672987,-9.527892,4.782694
27,0.3721839487552643,1.550506353378296,78.04312896728516,-1.2165279184703668,4.769354125943221,-93.33492862724258,0.62622553,2.7606988,15.998055,11.468804,-16.83334,-0.93809485,-0.43752542,-3.6980593,-9.505244,9.586687,-12.791599,5.1679244,-3.1217399,0.9084197,1.3843055,13.938463,9.241515,-85.126465,41.28524,34.645992,10.966764,14.399436,17.484575,-8.52091,75.41891,42.51212,-24.026001,-9.669844,4.180937
28,0.36953863501548767,1.5338743925094604,78.04341888427734,-1.2193739962098218,4.780646015024958,-93.32367196534848,0.6296023,2.759847,15.990404,11.453702,-16.826712,-0.9516865,-0.4457376,-3.6994898,-9.515418,9.606647,-12.797805,5.1599274,-3.1305294,0.90890974,1.3784337,13.938235,9.243329,-85.135185,41.28853,34.643017,10.974119,14.414945,17.479475,-8.517507,75.41275,42.49504,-22.665749,-9.7558365,3.8703547
29,0.36901506781578064,1.5170085430145264,78.04366302490234,-1.219480307324918,4.790609313398027,-93.31462519172759,0.6349048,2.756804,15.984462,11.440296,-16.82092,-0.9577519,-0.4515425,-3.7033062,-9.522834,9.6266365,-12.808138,5.1541057,-3.1399128,0.91136456,1.3687068,13.941043,9.244144,-85.140045,41.28517,34.644238,10.975647,14.428502,17.488815,-8.516081,75.41392,42.50105,-23.229042,-9.73168,3.993896
30,0.36949101090431213,1.5015809535980225,78.04363250732422,-1.2177395316245476,4.7997867722558265,-93.3062602102819,0.6414763,2.7521644,15.978884,11.427281,-16.815388,-0.95952445,-0.456905,-3.708982,-9.529109,9.648829,-12.82237,5.14923,-3.1468713,0.91545117,1.3569411,13.943483,9.245002,-85.147835,41.2777,34.646492,10.97435,14.441963,17.505234,-8.515604,75.41648,42.521816,-25.01298,-9.644997,4.395176
31,0.3688271939754486,1.488053560256958,78.04301452636719,-1.21530232604385,4.808171208670239,-93.29798176675418,0.6485674,2.7473676,15.973464,11.415229,-16.810656,-0.9594475,-0.45929295,-3.714555,-9.53544,9.6670065,-12.836203,5.147042,-3.1525164,0.9203661,1.3461411,13.945285,9.245567,-85.15565,41.268784,34.649727,10.972221,14.453405,17.52158,-8.516876,75.41862,42.546,-27.127144,-9.555501,4.87597
32,0.36748766899108887,1.4757128953933716,78.04301452636719,-1.2134666848512676,4.815515600872446,-93.28869083293586,0.65416735,2.7441735,15.967762,11.407065,-16.808046,-0.95989126,-0.45919546,-3.7189982,-9.542944,9.680243,-12.8471775,5.149337,-3.1580532,0.9244749,1.3387411,13.946741,9.245869,-85.160446,41.262325,34.654297,10.971357,14.460759,17.534857,-8.519132,75.41577,42.563538,-28.684753,-9.499282,5.233045
33,0.36562973260879517,1.4620020389556885,78.04278564453125,-1.2118563275655483,4.821633060931247,-93.2781278645457,0.6592761,2.742137,15.962001,11.401324,-16.80713,-0.9598761,-0.45468011,-3.72216,-9.55212,9.685822,-12.854307,5.159712,-3.1653786,0.92693156,1.337174,13.946158,9.245977,-85.16232,41.25862,34.657883,10.973687,14.464873,17.536047,-8.520494,75.41565,42.572853,-29.45705,-9.469681,5.4145184
34,0.36378124356269836,1.450781226158142,78.04147338867188,-1.210021470950757,4.826607532716038,-93.26663717188691,0.66412663,2.7406642,15.956158,11.397439,-16.807384,-0.958697,-0.44668993,-3.7247226,-9.562526,9.685303,-12.858709,5.1762185,-3.1673436,0.9291887,1.338357,13.943966,9.246184,-85.160324,41.256416,34.668026,10.974204,14.460942,17.540665,-8.524005,75.39904,42.57333,-29.931816,-9.449556,5.531454
35,0.36035671830177307,1.438900351524353,78.04037475585938,-1.2085926886828333,4.831182564472501,-93.25499932265791,0.6682177,2.7400494,15.949963,11.395068,-16.808485,-0.95886856,-0.43728825,-3.7261822,-9.573054,9.681765,-12.861938,5.192214,-3.1725233,0.9305341,1.3400502,13.943304,9.246303,-85.15862,41.254986,34.674152,10.976891,14.457732,17.540306,-8.525873,75.39351,42.575893,-30.230242,-9.43157,5.605986
36,0.35899800062179565,1.4299201965332031,78.0392074584961,-1.2080422148888408,4.83580227918439,-93.24378131678836,0.6700532,2.7412453,15.942812,11.396679,-16.811682,-0.9629246,-0.43023017,-3.726321,-9.58271,9.682126,-12.867689,5.201087,-3.1756139,0.93275654,1.340962,13.941505,9.246472,-85.15682,41.25426,34.67859,10.977036,14.451103,17.539389,-8.52831,75.38767,42.577007,-30.501017,-9.41729,5.6732926
37,0.35497552156448364,1.4188790321350098,78.03791046142578,-1.2091013668100787,4.841033200674647,-93.233151574194,0.6672446,2.7452302,15.934197,11.405448,-16.818226,-0.97313285,-0.42624414,-3.7238884,-9.591213,9.686054,-12.875348,5.1993976,-3.1770349,0.9364941,1.3402013,13.938977,9.246789,-85.15724,41.254204,34.67835,10.974412,14.442069,17.540571,-8.5322485,75.38235,42.57649,-30.749268,-9.406724,5.732166
38,0.35129448771476746,1.4092047214508057,78.03653717041016,-1.2109232653306874,4.846175647815193,-93.22306626802421,0.66313,2.750614,15.924892,11.416387,-16.825731,-0.9875645,-0.4246432,-3.720187,-9.598538,9.693778,-12.88505,5.1913376,-3.177247,0.93958116,1.3377273,13.937757,9.246884,-85.15864,41.25643,34.67545,10.970558,14.430958,17.537819,-8.533226,75.38394,42.577785,-30.899973,-9.399149,5.7679186
39,0.3478284776210785,1.398048758506775,78.03431701660156,-1.212524661245957,4.850963982016277,-93.21318477949693,0.65894896,2.7559679,15.915385,11.427769,-16.833927,-1.0024675,-0.42289948,-3.7164419,-9.605799,9.701676,-12.895942,5.1814523,-3.176852,0.94294703,1.3352621,13.936646,9.247058,-85.16017,41.25814,34.67146,10.966825,14.419106,17.536198,-8.534881,75.38578,42.578773,-31.00596,-9.393005,5.79111
40,0.34452885389328003,1.387435793876648,78.03207397460938,-1.2127113788716768,4.8550474857124275,-93.20388294326354,0.6553215,2.760199,15.906572,11.44036,-16.843254,-1.0142803,-0.41826662,-3.714149,-9.613567,9.705835,-12.907026,5.174455,-3.1751823,0.9451696,1.3332202,13.935152,9.247118,-85.16109,41.25888,34.667534,10.964442,14.408044,17.535234,-8.535389,75.387276,42.580112,-31.101316,-9.386328,5.811761
41,0.34002605080604553,1.3769347667694092,78.0303955078125,-1.2111330872024664,4.858044881236544,-93.19447847406072,0.6532588,2.7623243,15.897686,11.453218,-16.853983,-1.0214921,-0.41054407,-3.7141855,-9.622712,9.707833,-12.920555,5.171056,-3.1748497,0.9470966,1.3334965,13.9313,9.247287,-85.162636,41.25659,34.662193,10.964419,14.396154,17.537582,-8.536899,75.389694,42.57934,-31.204285,-9.377586,5.831251
42,0.3352494537830353,1.3670859336853027,78.02896118164062,-1.2075793836817377,4.859881975956642,-93.18658138649901,0.65625626,2.7613974,15.890489,11.458568,-16.861752,-1.026144,-0.4018013,-3.7166038,-9.631083,9.710161,-12.936447,5.1690283,-3.1701713,0.9469539,1.3336194,13.928361,9.247388,-85.16404,41.25477,34.659664,10.964377,14.383347,17.536554,-8.538159,75.3923,42.579525,-31.270725,-9.370256,5.8465466
43,0.33108752965927124,1.3570122718811035,78.02741241455078,-1.203601206217984,4.860986311304775,-93.17879792983398,0.65897924,2.760567,15.883636,11.466133,-16.870787,-1.0298704,-0.3914734,-3.7191787,-9.639571,9.710865,-12.952143,5.168424,-3.1653724,0.94689566,1.334199,13.925519,9.247528,-85.165306,41.252087,34.656292,10.965343,14.372067,17.536797,-8.540206,75.39647,42.57852,-31.321177,-9.36316,5.8556013
44,0.32637616991996765,1.3489789962768555,78.02604675292969,-1.200181531069077,4.861770947265012,-93.17099086725047,0.662843,2.7607267,15.877204,11.472437,-16.878399,-1.0341773,-0.37987977,-3.7203372,-9.647996,9.70856,-12.964528,5.1692953,-3.1608303,0.94740504,1.3343483,13.924648,9.247717,-85.16459,41.24968,34.65355,10.966265,14.36429,17.53594,-8.542801,75.40259,42.577446,-31.35881,-9.358063,5.8599052
45,0.32006701827049255,1.3395212888717651,78.024658203125,-1.1973540457148093,4.861747924216612,-93.16280809861713,0.6674003,2.7623396,15.871549,11.478784,-16.885334,-1.0393847,-0.36659685,-3.7200253,-9.656401,9.703103,-12.973252,5.1730413,-3.1550605,0.94931483,1.3344499,13.926282,9.247871,-85.1614,41.2476,34.652325,10.966936,14.361997,17.536552,-8.544322,75.40757,42.57778,-31.387821,-9.35651,5.857288
46,0.3138333261013031,1.331110954284668,78.02348327636719,-1.1949315541983039,4.8611195200300035,-93.15458709470063,0.67307687,2.764669,15.866472,11.484312,-16.891273,-1.0447431,-0.35135686,-3.71863,-9.6650305,9.69406,-12.979062,5.1791873,-3.1523194,0.95141,1.3346586,13.931457,9.248309,-85.15086,41.24439,34.65423,10.967313,14.363096,17.534937,-8.547264,75.41939,42.57822,-31.399654,-9.356769,5.8474755
47,0.30995386838912964,1.3223817348480225,78.02196502685547,-1.1925416891263163,4.860310821900629,-93.14659759131966,0.6789403,2.767609,15.861508,11.489843,-16.896746,-1.0500772,-0.33520502,-3.7162802,-9.673126,9.683071,-12.983293,5.1848636,-3.1556509,0.953035,1.3340865,13.939871,9.249358,-85.1329,41.24005,34.65885,10.967223,14.363314,17.534546,-8.552739,75.43613,42.57636,-31.402626,-9.3574705,5.8355393
48,0.3027097284793854,1.3134366273880005,78.02090454101562,-1.190803990353035,4.860086361874415,-93.13968257519998,0.6838063,2.7711112,15.856419,11.495624,-16.901833,-1.0552145,-0.32178533,-3.713128,-9.679614,9.676049,-12.989198,5.1872478,-3.1506746,0.9556144,1.3321201,13.943546,9.249747,-85.12943,41.239143,34.658512,10.9678135,14.360916,17.53431,-8.554522,75.440025,42.57698,-31.400434,-9.358963,5.8281565
49,0.2947034537792206,1.3041706085205078,78.02018737792969,-1.1907068918075157,4.860230043732496,-93.13346089348663,0.68562853,2.7769122,15.84998,11.506196,-16.908407,-1.0596157,-0.30786753,-3.7069995,-9.684422,9.666838,-12.993671,5.1842847,-3.1522174,0.959095,1.3269936,13.949112,9.250363,-85.12557,41.237797,34.658478,10.968209,14.351408,17.535738,-8.556813,75.445625,42.5773,-31.389004,-9.360802,5.8235464
50,0.2889000475406647,1.2952632904052734,78.01900482177734,-1.1911858438568228,4.860882757529825,-93.12830468354372,0.68640023,2.7839024,15.843176,11.517821,-16.914808,-1.0641178,-0.29557678,-3.6993883,-9.687424,9.660077,-12.999141,5.1779504,-3.1538544,0.96271235,1.3199205,13.955266,9.251193,-85.125114,41.237885,34.658405,10.968481,14.33839,17.537241,-8.5595665,75.449104,42.577244,-31.366253,-9.363342,5.8204403
51,0.27944403886795044,1.2842828035354614,78.01793670654297,-1.1916654678613767,4.861629523806715,-93.12319310701912,0.68729657,2.7907374,15.836345,11.528677,-16.920704,-1.0688525,-0.28417024,-3.6919045,-9.690626,9.654401,-13.005014,5.171224,-3.1550634,0.9658523,1.3126869,13.960354,9.251549,-85.12625,41.238213,34.657063,10.969517,14.325293,17.540058,-8.560591,75.44878,42.576675,-31.344833,-9.364476,5.819661
52,0.27530571818351746,1.27701997756958,78.01801300048828,-1.1908814701530215,4.86243575054064,-93.1174914359852,0.6898754,2.7959104,15.829801,11.534517,-16.923885,-1.0741524,-0.27328873,-3.6864762,-9.695672,9.650149,-13.01223,5.166989,-3.1555307,0.9682216,1.3062378,13.965122,9.251936,-85.126976,41.2373,34.6547,10.971806,14.315905,17.543018,-8.561552,75.44685,42.57452,-31.331627,-9.362359,5.821779
53,0.2680749297142029,1.2700167894363403,78.01699829101562,-1.1884080631366045,4.8634670554527775,-93.11053545959871,0.6929812,2.7992883,15.82315,11.53726,-16.925932,-1.0807288,-0.26344854,-3.684267,-9.704346,9.647962,-13.021055,5.167094,-3.156038,0.9686883,1.3014919,13.969403,9.252221,-85.12524,41.233246,34.65063,10.977219,14.3113985,17.54691,-8.562144,75.44345,42.568768,-31.33344,-9.354055,5.827689
54,0.2594279944896698,1.2631582021713257,78.0176010131836,-1.185053966311959,4.86465530852748,-93.10273100490512,0.6970565,2.80144,15.816366,11.536714,-16.926401,-1.0881454,-0.25442716,-3.6840003,-9.715428,9.647413,-13.031135,5.169651,-3.1565406,0.9683721,1.2969426,13.975299,9.252783,-85.119804,41.226974,34.648705,10.984137,14.3082285,17.5519,-8.563121,75.43603,42.561024,-31.344791,-9.342209,5.8384485
55,0.2518464922904968,1.2569290399551392,78.0171127319336,-1.1811178582053217,4.865613347245578,-93.09527135034445,0.7010887,2.8033319,15.810016,11.536146,-16.926676,-1.0953099,-0.24574894,-3.6841211,-9.725944,9.647365,-13.041369,5.1720014,-3.1581318,0.967297,1.293483,13.97938,9.253159,-85.11492,41.221523,34.645287,10.99017,14.307628,17.555904,-8.563693,75.42986,42.553402,-31.355993,-9.330036,5.8489313
56,0.24327805638313293,1.2490034103393555,78.01607513427734,-1.1773270721173406,4.865723845434969,-93.0889592377297,0.7071857,2.8050218,15.804583,11.533767,-16.925663,-1.1011195,-0.2379995,-3.6830163,-9.733121,9.648744,-13.0515175,5.171525,-3.159694,0.96691364,1.2915738,13.982731,9.254393,-85.10725,41.2175,34.64792,10.990671,14.306024,17.55992,-8.565432,75.41824,42.54482,-31.36365,-9.323148,5.860899
57,0.2344403862953186,1.2434333562850952,78.01542663574219,-1.1734077062886943,4.865076093023754,-93.08375452764314,0.7128075,2.807034,15.799563,11.53385,-16.924978,-1.1044785,-0.2324146,-3.6803114,-9.735717,9.652853,-13.061514,5.167035,-3.1625934,0.96661663,1.2895918,13.983421,9.255525,-85.10588,41.216034,34.65026,10.98439,14.321136,17.563276,-8.567133,75.41264,42.538994,-31.358849,-9.319534,5.867016
58,0.22524826228618622,1.2369025945663452,78.01403045654297,-1.1693340879138365,4.863859552187149,-93.07919969408145,0.7184367,2.8092504,15.794984,11.535508,-16.924734,-1.1062443,-0.22795929,-3.6767569,-9.735581,9.658449,-13.071313,5.160035,-3.1669242,0.96633554,1.2880785,13.982568,9.255848,-85.10638,41.21655,34.654015,10.973023,14.346887,17.564598,-8.567663,75.41141,42.53462,-31.345129,-9.3179865,5.870993
59,0.21765322983264923,1.2313423156738281,78.01258087158203,-1.165405798340079,4.862081529294615,-93.07606669635028,0.7258824,2.8115077,15.791779,11.534856,-16.923027,-1.1083286,-0.22251926,-3.6725414,-9.733865,9.662024,-13.079956,5.152091,-3.1702332,0.9660652,1.2870345,13.981554,9.256559,-85.110886,41.221283,34.652973,10.9644,14.359558,17.56485,-8.56919,75.41016,42.531002,-31.326958,-9.318552,5.873365
60,0.20794552564620972,1.2249425649642944,78.01272583007812,-1.1618097089093617,4.8596356113507095,-93.07477803472655,0.7349975,2.8148017,15.790702,11.533028,-16.92163,-1.1125954,-0.21553518,-3.6679325,-9.731983,9.664016,-13.088967,5.144692,-3.1756256,0.9656906,1.2868568,13.982876,9.256807,-85.114655,41.23223,34.6417,10.966265,14.333923,17.566545,-8.569729,75.40985,42.529182,-31.311563,-9.321057,5.8734
61,0.1970055252313614,1.2164584398269653,78.01234436035156,-1.1586353495118231,4.855541167025079,-93.07663240345094,0.7494463,2.8186734,15.793309,11.525684,-16.917868,-1.1199025,-0.20283654,-3.6627347,-9.729715,9.659056,-13.09659,5.1388392,-3.1784346,0.96491474,1.2868228,13.985735,9.257307,-85.12853,41.255165,34.61078,10.987411,14.243968,17.57068,-8.570871,75.40942,42.52773,-31.292007,-9.326429,5.870166
62,0.18770723044872284,1.2132580280303955,78.01300048828125,-1.1558590455089899,4.850239837342501,-93.08053596089948,0.76515394,2.824033,15.798373,11.5197115,-16.915379,-1.1291676,-0.18697621,-3.6568613,-9.726725,9.6502905,-13.103748,5.133462,-3.1830702,0.9644564,1.2890905,13.991345,9.257731,-85.14203,41.28632,34.57291,11.019257,14.109513,17.572289,-8.571706,75.40965,42.528847,-31.269428,-9.335682,5.865339
63,0.1788175255060196,1.2115118503570557,78.01276397705078,-1.1533050712688013,4.8454829438420965,-93.08531612713516,0.7812586,2.8295732,15.804034,11.511175,-16.911823,-1.1392887,-0.17212903,-3.650501,-9.723397,9.641744,-13.110535,5.127201,-3.1831937,0.9640516,1.2890874,13.995878,9.258344,-85.164024,41.317547,34.524494,11.054004,13.974968,17.576643,-8.57287,75.409195,42.529232,-31.248104,-9.343555,5.8578944
64,0.16786234080791473,1.2016807794570923,78.01306915283203,-1.151009014748448,4.843118566505787,-93.08915734611482,0.7934108,2.8354,15.807884,11.503052,-16.9088,-1.149227,-0.16384204,-3.643973,-9.720175,9.639168,-13.117808,5.1186504,-3.180245,0.96387774,1.2875125,13.998296,9.259005,-85.18556,41.34016,34.47518,11.07788,13.885355,17.58263,-8.57405,75.40634,42.526928,-31.236776,-9.347542,5.850244
65,0.15651246905326843,1.1968533992767334,78.01229095458984,-1.1492705144759212,4.843980662986385,-93.09110957039069,0.7970201,2.8425786,15.80856,11.502019,-16.909592,-1.1583422,-0.16385478,-3.6367233,-9.717435,9.644185,-13.1250725,5.1051493,-3.1751406,0.9643135,1.2841612,13.997059,9.259968,-85.20497,41.35006,34.42425,11.084796,13.857375,17.58755,-8.575663,75.40181,42.52158,-31.238613,-9.346382,5.843556
66,0.14400926232337952,1.1919054985046387,78.01160430908203,-1.1480781690275257,4.84696191690441,-93.0923154091407,0.7970793,2.85033,15.807828,11.501473,-16.911005,-1.1673361,-0.17088324,-3.6290884,-9.714664,9.657312,-13.133896,5.088176,-3.173126,0.9642104,1.2805604,13.994814,9.260781,-85.21445,41.352383,34.373085,11.080377,13.8635025,17.589243,-8.5769415,75.400475,42.517014,-31.249151,-9.342103,5.8369675
67,0.13279516994953156,1.1885197162628174,78.01084899902344,-1.1467206286597742,4.850164679042512,-93.09340068825257,0.7968774,2.857811,15.806767,11.4997225,-16.911983,-1.1770636,-0.17718075,-3.6213605,-9.71242,9.667137,-13.141,5.0725937,-3.1722405,0.9635926,1.2773741,13.994623,9.260942,-85.21527,41.34997,34.333973,11.073134,13.878933,17.588392,-8.5771675,75.40066,42.513023,-31.258608,-9.3385,5.831778
68,0.12454789876937866,1.1892083883285522,78.00991821289062,-1.1443290570248754,4.853432200507064,-93.09544369446805,0.79751146,2.8641675,15.807029,11.495925,-16.91161,-1.1883922,-0.18162355,-3.6147122,-9.710331,9.672928,-13.148475,5.0631704,-3.1739333,0.9618618,1.2753849,13.992061,9.261283,-85.21666,41.349987,34.29314,11.068451,13.892357,17.589024,-8.57762,75.4009,42.51044,-31.267467,-9.336789,5.8257055
69,0.11307431757450104,1.1869227886199951,78.00878143310547,-1.140217419675728,4.8552171782014115,-93.09789466011145,0.8015879,2.86809,15.808658,11.48767,-16.908646,-1.2028675,-0.17962626,-3.610092,-9.709983,9.668632,-13.154697,5.0639353,-3.1739697,0.95871764,1.2754326,13.990477,9.261797,-85.21623,41.348854,34.26935,11.070674,13.891921,17.588272,-8.578279,75.39918,42.507927,-31.264055,-9.341308,5.820659
70,0.09987544268369675,1.1845710277557373,78.00841522216797,-1.1351807891157226,4.856922704181239,-93.10054710383636,0.80656266,2.8708882,15.810876,11.477065,-16.904488,-1.2196395,-0.17463364,-3.606357,-9.710872,9.658487,-13.160417,5.0712943,-3.1737907,0.9549448,1.2760646,13.990633,9.26222,-85.2133,41.346344,34.25649,11.075301,13.89137,17.588703,-8.578793,75.39586,42.505474,-31.257126,-9.348126,5.8155847
71,0.09174066036939621,1.1840956211090088,78.00770568847656,-1.129888008264419,4.85769086311186,-93.10433385963721,0.8137962,2.873384,15.814346,11.464285,-16.899117,-1.2357048,-0.16735843,-3.6021523,-9.710642,9.644833,-13.164754,5.0791373,-3.173092,0.95080346,1.2801003,13.988461,9.262996,-85.20523,41.34236,34.25081,11.079381,13.885681,17.58666,-8.579641,75.387474,42.50378,-31.252567,-9.357596,5.8143206
72,0.08161907643079758,1.184003472328186,78.00825500488281,-1.125842527609439,4.859118703162857,-93.10932720153244,0.8177346,2.8782568,15.818529,11.456896,-16.896137,-1.2481183,-0.16344069,-3.5958898,-9.707396,9.634616,-13.1690645,5.081204,-3.1719193,0.947843,1.2819612,13.988683,9.263409,-85.20123,41.341297,34.24339,11.083116,13.880829,17.58653,-8.580024,75.38392,42.502197,-31.250813,-9.358747,5.811721
73,0.06729692965745926,1.18242347240448,78.00796508789062,-1.122955391327203,4.8603327305598025,-93.11636502522066,0.81991214,2.8858304,15.824363,11.455342,-16.895826,-1.2549601,-0.1610851,-3.5866923,-9.699365,9.6261215,-13.171991,5.0759797,-3.1699567,0.9463073,1.2843776,13.989081,9.26369,-85.199,41.3432,34.235718,11.085195,13.872405,17.585985,-8.580212,75.38242,42.501255,-31.256863,-9.351981,5.810897
74,0.0565948486328125,1.1799272298812866,78.00764465332031,-1.1214513943506201,4.861364234129372,-93.12614815596488,0.82164896,2.8959696,15.832466,11.456619,-16.896671,-1.2584882,-0.15883502,-3.5743036,-9.687166,9.615642,-13.172263,5.066467,-3.1672425,0.94580466,1.2883235,13.988576,9.264166,-85.195274,41.34595,34.2289,11.086722,13.859775,17.586718,-8.580427,75.38067,42.499653,-31.271612,-9.338258,5.811476
75,0.04538845270872116,1.1796966791152954,78.00665283203125,-1.1202473940790936,4.86244701940166,-93.13591602916968,0.82172257,2.907082,15.840387,11.46058,-16.898764,-1.2610736,-0.156637,-3.5612063,-9.674807,9.604988,-13.172335,5.053976,-3.1644957,0.94523346,1.2923868,13.987784,9.265324,-85.1906,41.348698,34.22513,11.08703,13.846431,17.586727,-8.580798,75.38011,42.497883,-31.284178,-9.322875,5.81192
76,0.03278498351573944,1.1793453693389893,78.0067367553711,-1.1180746180706385,4.864456523626716,-93.14370861458347,0.82278407,2.9159951,15.84653,11.459623,-16.897985,-1.2650205,-0.15676971,-3.5507205,-9.665511,9.599003,-13.175499,5.0399566,-3.1630073,0.94340646,1.2936728,13.988182,9.265841,-85.18948,41.35095,34.221004,11.087952,13.839169,17.588085,-8.580873,75.380615,42.4972,-31.287445,-9.312811,5.810412
77,0.020099638029932976,1.17888605594635,78.00723266601562,-1.1159078002913527,4.866851984752291,-93.15025288278,0.8234007,2.9250739,15.85141,11.457962,-16.89637,-1.2708467,-0.15836968,-3.5413632,-9.65926,9.597083,-13.181149,5.0211453,-3.1599667,0.94065064,1.2935472,13.988084,9.266577,-85.18944,41.35197,34.2219,11.088707,13.835077,17.589409,-8.580896,75.3824,42.49329,-31.272057,-9.305452,5.8062105
78,0.007976382039487362,1.1774522066116333,78.007080078125,-1.1133662574983203,4.869706612497644,-93.15534996302067,0.82417595,2.9334729,15.854892,11.453654,-16.892744,-1.2771546,-0.16182718,-3.5333166,-9.655485,9.599555,-13.189221,4.9983044,-3.1578922,0.9367221,1.2918911,13.987636,9.26805,-85.19182,41.352207,34.224678,11.089384,13.835156,17.590075,-8.580809,75.38699,42.48948,-31.243837,-9.301044,5.7997026
79,-0.0043115816079080105,1.1770051717758179,78.00804138183594,-1.110296266708238,4.873272931769601,-93.16010796556543,0.82536155,2.9403586,15.857979,11.446798,-16.8884,-1.284514,-0.164138,-3.5260968,-9.652419,9.598398,-13.196371,4.9773083,-3.1556954,0.9319317,1.2890215,13.988286,9.269739,-85.19476,41.35141,34.22521,11.090086,13.837243,17.591446,-8.580625,75.391785,42.48668,-31.217474,-9.298463,5.7931876
80,-0.017886804416775703,1.17593252658844,78.00819396972656,-1.105343778801792,4.8777067735669295,-93.16518112382794,0.8308017,2.9436142,15.861447,11.428672,-16.879908,-1.2933718,-0.16412881,-3.5201437,-9.648537,9.589005,-13.2008,4.964293,-3.152367,0.9261384,1.2855196,13.989478,9.270926,-85.196266,41.350273,34.219784,11.08983,13.838596,17.59117,-8.580454,75.39558,42.485134,-31.204065,-9.298449,5.7904315
81,-0.031507041305303574,1.1745611429214478,78.00733947753906,-1.0995888237292435,4.882999033372456,-93.17163644388543,0.8392061,2.9445171,15.866206,11.402493,-16.869497,-1.3068267,-0.15955032,-3.5132978,-9.643134,9.5659895,-13.1991,4.9608073,-3.1475418,0.9192596,1.2808118,13.992796,9.272354,-85.19479,41.34842,34.20495,11.087855,13.837,17.592113,-8.58022,75.39865,42.484966,-31.21632,-9.302917,5.792692
82,-0.04486154764890671,1.1739375591278076,78.00584411621094,-1.0928544023855624,4.888654985375162,-93.1788509362369,0.85294163,2.9425068,15.871894,11.364436,-16.854479,-1.3235003,-0.15242721,-3.50676,-9.637062,9.535446,-13.194242,4.9636803,-3.14247,0.91100216,1.2751334,13.998289,9.273866,-85.1895,41.345375,34.184837,11.084453,13.833686,17.592611,-8.580026,75.401634,42.487503,-31.24432,-9.311285,5.798378
83,-0.056069377809762955,1.1724762916564941,78.00492858886719,-1.0840058604505713,4.895404651050951,-93.18490205117372,0.86613405,2.9373026,15.876303,11.324114,-16.839205,-1.3378108,-0.14335068,-3.502816,-9.63165,9.498721,-13.188867,4.971595,-3.1395638,0.9012273,1.2696793,14.003463,9.275706,-85.18161,41.34206,34.16514,11.080111,13.832443,17.591623,-8.579802,75.40502,42.489693,-31.271982,-9.319347,5.804968
84,-0.0671711415052414,1.1713618040084839,78.0041275024414,-1.0720767299088396,4.90341858766734,-93.18787330749825,0.8793225,2.9267194,15.877484,11.279427,-16.82199,-1.3439705,-0.13414781,-3.504438,-9.628416,9.461048,-13.187444,4.983293,-3.1397936,0.88991797,1.2648886,14.005997,9.276753,-85.17656,41.33967,34.149445,11.076865,13.8382435,17.589905,-8.5796995,75.40652,42.49182,-31.285639,-9.322395,5.8091526
85,-0.0775936022400856,1.1712532043457031,78.00244140625,-1.0557344595803169,4.911881286456131,-93.18752339190647,0.89188975,2.9096942,15.874994,11.233531,-16.803593,-1.3376756,-0.123771384,-3.513437,-9.627531,9.422522,-13.190771,4.998921,-3.1438391,0.87559885,1.2618957,14.006076,9.277831,-85.17234,41.338066,34.140823,11.073894,13.856372,17.58689,-8.579527,75.40724,42.491684,-31.276829,-9.317587,5.809158
86,-0.08870875835418701,1.1707297563552856,78.00167083740234,-1.0357013801095505,4.920784615041512,-93.18471433439775,0.9068394,2.8865316,15.870193,11.180176,-16.781221,-1.3229067,-0.1125744,-3.5284843,-9.628179,9.382795,-13.197442,5.019082,-3.150699,0.85864127,1.2601026,14.004831,9.278531,-85.169044,41.33684,34.135765,11.071042,13.883512,17.583143,-8.579365,75.40655,42.491863,-31.255768,-9.307684,5.8066063
87,-0.09818121045827866,1.1710543632507324,78.00022888183594,-1.0148434682930045,4.932402357398718,-93.17974641149364,0.9160799,2.8619537,15.862768,11.130939,-16.762384,-1.3064537,-0.101717904,-3.5454504,-9.630496,9.3385315,-13.205086,5.042552,-3.1588337,0.84210306,1.2564981,14.003145,9.278856,-85.1677,41.336514,34.13311,11.069434,13.90953,17.5792,-8.579247,75.40505,42.49153,-31.231243,-9.297249,5.8040013
88,-0.10623309016227722,1.1694624423980713,77.99883270263672,-0.9936157727944428,4.947429480834333,-93.17258661869354,0.9249366,2.8351684,15.8535,11.073439,-16.74267,-1.2948174,-0.091606356,-3.5629964,-9.634465,9.288156,-13.212231,5.0688887,-3.1683326,0.8258962,1.2521607,14.001075,9.27928,-85.16754,41.338387,34.131977,11.069069,13.926363,17.575281,-8.579033,75.40091,42.489902,-31.215233,-9.290733,5.805044
89,-0.11477812379598618,1.1685773134231567,77.99537658691406,-0.9726123233903468,4.967765107432421,-93.16448164316132,0.9285204,2.8075633,15.84364,11.01282,-16.725151,-1.292124,-0.08279805,-3.5799062,-9.639278,9.226419,-13.216109,5.09752,-3.1776392,0.8110715,1.2422358,14.002319,9.279377,-85.169914,41.34245,34.136246,11.071263,13.928196,17.571558,-8.579021,75.39669,42.48842,-31.206224,-9.290397,5.809039
90,-0.1225297823548317,1.1687555313110352,77.99080657958984,-0.9521483124282838,4.991917101514176,-93.15592129157075,0.927931,2.7799947,15.833252,10.951739,-16.710318,-1.2944119,-0.07584613,-3.5965123,-9.644484,9.159295,-13.220552,5.128606,-3.1883092,0.79811037,1.2296897,14.005095,9.2793045,-85.17276,41.347954,34.14448,11.074592,13.921491,17.568874,-8.579133,75.393326,42.486748,-31.202122,-9.292701,5.813483
91,-0.12934860587120056,1.1696935892105103,77.98651885986328,-0.9304323873688093,5.018995286138832,-93.1420289582143,0.9256625,2.7486339,15.817358,10.884158,-16.69382,-1.2948779,-0.06898043,-3.6155806,-9.653857,9.087818,-13.224491,5.1634417,-3.195849,0.78509074,1.2158489,14.005963,9.278614,-85.18422,41.355453,34.150764,11.080436,13.911711,17.567444,-8.579894,75.37886,42.481647,-31.20271,-9.297245,5.823483
92,-0.13402122259140015,1.170643925666809,77.98079681396484,-0.9133660048862313,5.047953964808122,-93.12367783913088,0.90261126,2.7264585,15.794414,10.856368,-16.699282,-1.2892431,-0.06376807,-3.630799,-9.6664915,9.017997,-13.229169,5.201307,-3.2051938,0.7787466,1.2046369,14.006926,9.27768,-85.1932,41.36033,34.153603,11.086015,13.9061,17.565168,-8.580822,75.365685,42.476673,-31.206207,-9.297389,5.832461
93,-0.136476069688797,1.171919822692871,77.9745101928711,-0.8998027298159175,5.079869604666007,-93.10023869524474,0.8607941,2.711113,15.763413,10.860629,-16.723124,-1.2740905,-0.057898875,-3.642698,-9.6827345,8.942165,-13.231793,5.245643,-3.21542,0.7768093,1.1950352,14.007684,9.276195,-85.20089,41.36304,34.1518,11.091964,13.905726,17.564444,-8.582232,75.34787,42.469433,-31.215643,-9.29327,5.842773
94,-0.13943900167942047,1.1723192930221558,77.966064453125,-0.888656128294237,5.114916494467553,-93.07282244120262,0.80475825,2.7004316,15.726364,10.887262,-16.760452,-1.2529333,-0.052267928,-3.6523106,-9.701668,8.861423,-13.233405,5.295311,-3.2273118,0.77759385,1.1859549,14.009019,9.274964,-85.2059,41.36437,34.14816,11.098295,13.907207,17.564041,-8.583314,75.33016,42.45942,-31.228214,-9.286565,5.8543763
95,-0.14055119454860687,1.172303557395935,77.95841979980469,-0.8799091221882459,5.150070232848301,-93.03960831825125,0.7372619,2.693127,15.682597,10.936147,-16.809866,-1.229621,-0.050491497,-3.661869,-9.725284,8.791801,-13.239272,5.344359,-3.2454677,0.7826667,1.1791912,14.011054,9.273917,-85.20881,41.36397,34.141266,11.104861,13.909351,17.561213,-8.584188,75.31818,42.45227,-31.241577,-9.276799,5.864578
96,-0.13929788768291473,1.17142653465271,77.94847106933594,-0.8761874023227968,5.183343172150889,-92.99851854556728,0.6542539,2.6931634,15.630325,11.020603,-16.877085,-1.2085601,-0.054378998,-3.6702566,-9.756408,8.742811,-13.251333,5.386368,-3.2620294,0.7985023,1.1803486,14.006901,9.272014,-85.21728,41.364372,34.132328,11.10955,13.9096155,17.554111,-8.585759,75.29707,42.448082,-31.262526,-9.2675495,5.877545
97,-0.13270322978496552,1.1723742485046387,77.93754577636719,-0.8777164532841655,5.215121578225771,-92.94676663719585,0.5553544,2.6998692,15.566799,11.137719,-16.961622,-1.1914526,-0.067954056,-3.6777058,-9.797096,8.721758,-13.272191,5.4182925,-3.2865229,0.8245688,1.1873655,13.999998,9.269017,-85.22982,41.36628,34.119633,11.11299,13.908272,17.542744,-8.588121,75.279785,42.447437,-31.283258,-9.254285,5.88986
98,-0.12571096420288086,1.1709778308868408,77.92747497558594,-0.8840788364590516,5.246463576692857,-92.88620894887981,0.4388623,2.7138045,15.493387,11.290281,-17.065279,-1.1759591,-0.08726918,-3.6831493,-9.845678,8.717765,-13.298055,5.443766,-3.3195622,0.858625,1.1992686,13.992056,9.266353,-85.24078,41.36766,34.10473,11.115249,13.905769,17.526276,-8.590143,75.26998,42.450264,-31.303118,-9.23723,5.901618
99,-0.1151830330491066,1.171418309211731,77.91627502441406,-0.8916497411422301,5.274277916583272,-92.82251580899356,0.31935912,2.7283633,15.417307,11.458677,-17.175343,-1.1593721,-0.11076852,-3.6915996,-9.896948,8.734781,-13.331704,5.4678845,-3.3504646,0.8973213,1.2156978,13.982789,9.261408,-85.25522,41.36978,34.08535,11.118033,13.904953,17.508205,-8.593774,75.25932,42.4558,-31.328642,-9.220877,5.9113817
100,-0.10432770848274231,1.1706061363220215,77.90592193603516,-0.8968906858253408,5.295067231909889,-92.76181756795306,0.20975997,2.7379932,15.346232,11.627581,-17.281618,-1.1391104,-0.13944833,-3.7074914,-9.944686,8.78332,-13.379957,5.495304,-3.3728232,0.9335904,1.2345772,13.974095,9.254434,-85.27011,41.374588,34.0591,11.121607,13.90825,17.49257,-8.598779,75.250336,42.4623,-31.36326,-9.208263,5.916834
101,-0.09180986881256104,1.1662224531173706,77.8960952758789,-0.8998031526419737,5.306792357739834,-92.70539542291604,0.10992712,2.744224,15.281635,11.804418,-17.386213,-1.1149647,-0.16829261,-3.730388,-9.988007,8.858219,-13.440666,5.5273604,-3.3912942,0.9667744,1.2570269,13.970567,9.249774,-85.27824,41.37456,34.028313,11.127005,13.91507,17.480947,-8.602034,75.24893,42.476818,-31.41821,-9.202181,5.9148216
102,-0.07334482669830322,1.1605294942855835,77.88456726074219,-0.902887543390285,5.311742388361126,-92.6499853055996,0.012444452,2.750045,15.2193575,11.996133,-17.494022,-1.0882492,-0.19947118,-3.7577202,-10.030046,8.958369,-13.51278,5.561265,-3.4002805,1.002389,1.2849712,13.963451,9.238152,-85.29536,41.38257,33.98549,11.135114,13.92799,17.467804,-8.609912,75.2484,42.49213,-31.482964,-9.200133,5.907325
103,-0.05217385292053223,1.1521809101104736,77.87406158447266,-0.902832094637179,5.313060772595205,-92.59507898524497,-0.07742649,2.7493646,15.159363,12.184063,-17.59704,-1.0583763,-0.23747624,-3.7931542,-10.071124,9.085369,-13.595741,5.5964727,-3.4077399,1.0356799,1.3124369,13.959222,9.222578,-85.30531,41.393322,33.943115,11.141435,13.941649,17.458414,-8.620223,75.24918,42.50461,-31.547876,-9.197638,5.8993087
104,-0.03140152618288994,1.1397700309753418,77.86566925048828,-0.897608197086171,5.313999269742485,-92.53997251955026,-0.145606,2.733972,15.101292,12.328552,-17.680485,-1.024934,-0.28571644,-3.8394313,-10.111933,9.238688,-13.68854,5.632294,-3.4153898,1.0651034,1.3354939,13.9558735,9.217969,-85.30621,41.38927,33.902267,11.143597,13.951953,17.448053,-8.623289,75.2499,42.5204,-31.594784,-9.191275,5.8943486
105,-0.0037669960875064135,1.1297235488891602,77.85665893554688,-0.8871074731277057,5.314980687256276,-92.4831220359973,-0.19738029,2.7049024,15.0438,12.438246,-17.746181,-0.98873085,-0.344749,-3.8969126,-10.154062,9.418111,-13.790303,5.667726,-3.4240055,1.0937024,1.3568213,13.947539,9.196855,-85.29797,41.395977,33.862347,11.140231,13.966987,17.437546,-8.637236,75.24814,42.520454,-31.616247,-9.176484,5.896542
106,0.02319849655032158,1.1148836612701416,77.84736633300781,-0.8720648150668966,5.314515007287048,-92.42556904082899,-0.23451805,2.664199,14.987809,12.522369,-17.798384,-0.94962656,-0.41303822,-3.964648,-10.19664,9.624328,-13.901907,5.7034,-3.4314487,1.1195638,1.3756063,13.939149,9.175494,-85.28185,41.399296,33.82364,11.133028,13.984085,17.42543,-8.651564,75.247444,42.517666,-31.618402,-9.15669,5.902481
107,0.049987588077783585,1.0972648859024048,77.84042358398438,-0.8521260819555546,5.312670625648093,-92.36964416059052,-0.25395694,2.6114454,14.935335,12.575648,-17.83633,-0.9058332,-0.49053723,-4.042623,-10.236428,9.85615,-14.023818,5.7409954,-3.432481,1.1414233,1.3885056,13.9342,9.168896,-85.26974,41.38786,33.780033,11.126372,13.994766,17.41905,-8.656092,75.24271,42.522335,-31.618767,-9.137651,5.904635
108,0.08587439358234406,1.0778865814208984,77.83402252197266,-0.8270575213218843,5.30940417507536,-92.31776495862124,-0.2541701,2.5467105,14.8882065,12.597758,-17.862759,-0.85547066,-0.57821935,-4.130935,-10.270728,10.117351,-14.159528,5.7820816,-3.4389877,1.15881,1.401357,13.932955,9.143605,-85.237686,41.39961,33.74503,11.114332,13.983903,17.412846,-8.673995,75.23836,42.51378,-31.628723,-9.128444,5.9055657
109,0.12390199303627014,1.0548899173736572,77.82562255859375,-0.7955849615745094,5.302961188614874,-92.27176494315711,-0.2261791,2.4670162,14.8484535,12.575215,-17.871744,-0.79688025,-0.6683174,-4.230268,-10.29994,10.396205,-14.306294,5.8288255,-3.4336448,1.1715289,1.4043294,13.9423065,9.130047,-85.21433,41.403873,33.702568,11.104073,13.945426,17.414202,-8.6841755,75.22884,42.516285,-31.644354,-9.13068,5.893621
110,0.16161078214645386,1.0289889574050903,77.817138671875,-0.758433712065448,5.293584311742577,-92.22937678583942,-0.17346403,2.3737993,14.813849,12.513644,-17.86477,-0.7319033,-0.7616446,-4.3402905,-10.32575,10.693417,-14.462689,5.8798075,-3.4265509,1.1758572,1.4036034,13.956461,9.115327,-85.17965,41.41947,33.663128,11.087308,13.884097,17.420414,-8.696056,75.21585,42.511734,-31.665756,-9.14109,5.8787913
111,0.20062260329723358,1.0031495094299316,77.80840301513672,-0.7171570812696209,5.285998803873788,-92.18920172096335,-0.11344162,2.2712722,14.782547,12.435226,-17.851362,-0.66228265,-0.87683433,-4.4608,-10.344479,11.034291,-14.634996,5.9309134,-3.4207203,1.178756,1.4003203,13.972358,9.094197,-85.14445,41.438515,33.623386,11.07424,13.822343,17.427923,-8.714707,75.2048,42.50369,-31.692305,-9.15298,5.8616776
112,0.24129995703697205,0.9721380472183228,77.80001068115234,-0.6736456865119532,5.28452802516444,-92.1489369959589,-0.062179253,2.1644666,14.752103,12.360839,-17.840654,-0.5911484,-1.0326599,-4.5920715,-10.353151,11.445332,-14.829868,5.9780803,-3.414806,1.1806418,1.3970999,13.983363,9.0809,-85.12207,41.445984,33.581264,11.070571,13.781656,17.431608,-8.727301,75.19535,42.500122,-31.72608,-9.160194,5.846243
113,0.2865084707736969,0.9466881155967712,77.79063415527344,-0.627424486295034,5.292129299408561,-92.10828248551817,-0.023323238,2.0533416,14.722991,12.292102,-17.83213,-0.5133179,-1.2335647,-4.735642,-10.351421,11.927984,-15.049286,6.0191107,-3.4118962,1.1825271,1.3913802,13.9892645,9.072615,-85.11126,41.441643,33.536377,11.080772,13.771835,17.429337,-8.735612,75.18952,42.49998,-31.777737,-9.159593,5.833905
114,0.33444473147392273,0.922626793384552,77.77995300292969,-0.5773136801742907,5.3059716647801745,-92.06825716378019,0.01090333,1.935344,14.696227,12.22021,-17.822294,-0.42919582,-1.4642314,-4.890808,-10.340861,12.458072,-15.286616,6.056361,-3.4119368,1.1828296,1.3835963,13.991681,9.058505,-85.10508,41.439877,33.4903,11.099293,13.78011,17.426868,-8.750338,75.184555,42.490307,-31.84612,-9.154947,5.824512
115,0.38973140716552734,0.898384690284729,77.7666244506836,-0.5242178454526865,5.321549366154315,-92.02900927620624,0.04866062,1.8097981,14.670284,12.13645,-17.81094,-0.35004047,-1.7304447,-5.056733,-10.3187895,13.058376,-15.543474,6.0918217,-3.4122791,1.1798358,1.3796203,13.991107,9.042441,-85.10415,41.43969,33.44634,11.119152,13.793085,17.421799,-8.767761,75.182495,42.481544,-31.90511,-9.150371,5.814873
116,0.44409292936325073,0.8728973865509033,77.75212860107422,-0.4682094143793118,5.334198474736229,-91.99057391041872,0.08967642,1.677648,14.643348,12.048855,-17.80026,-0.28720424,-2.0333893,-5.2323227,-10.283111,13.741691,-15.818941,6.1272397,-3.4122124,1.1706058,1.3859469,13.988025,9.033446,-85.10349,41.435688,33.409817,11.132334,13.795664,17.412561,-8.777669,75.1847,42.484848,-31.932554,-9.150944,5.8035765
117,0.49856850504875183,0.8478730916976929,77.73607635498047,-0.40880584506933443,5.343083942257595,-91.9524396898068,0.13915737,1.5364325,14.613418,11.947813,-17.789434,-0.25153148,-2.369031,-5.418963,-10.23003,14.502229,-16.12006,6.1574507,-3.411528,1.1527805,1.4057487,13.9808235,9.026671,-85.09888,41.433537,33.38421,11.133671,13.782899,17.399765,-8.785272,75.189415,42.494442,-31.907835,-9.158254,5.791572
118,0.5586407780647278,0.8266826868057251,77.71824645996094,-0.3457585816638463,5.350507150679025,-91.91488491232953,0.19383068,1.3866354,14.582064,11.836351,-17.77838,-0.23438956,-2.7383826,-5.6179905,-10.160635,15.335406,-16.44435,6.1821127,-3.4158406,1.128955,1.4352471,13.972251,9.014672,-85.08621,41.435932,33.369495,11.128121,13.762438,17.38422,-8.798857,75.20142,42.504005,-31.848255,-9.169703,5.778993
119,0.6151221990585327,0.8066983222961426,77.69998931884766,-0.27966410406411324,5.356876148067783,-91.87888362805333,0.25143844,1.2308472,14.552602,11.720494,-17.766333,-0.2176065,-3.1502032,-5.828685,-10.080008,16.257713,-16.777735,6.2097597,-3.4180484,1.1007829,1.4703951,13.960007,9.007246,-85.08312,41.43868,33.354805,11.122445,13.740345,17.367832,-8.8072405,75.214676,42.522705,-31.79087,-9.18282,5.7650995
120,0.6791895031929016,0.7851633429527283,77.67880249023438,-0.21179182452153916,5.362621410586918,-91.84518419930109,0.30700088,1.0729839,14.527914,11.611862,-17.756153,-0.18318951,-3.6112123,-6.049363,-9.993628,17.282444,-17.10492,6.248774,-3.4228876,1.0691066,1.5085765,13.946002,8.998428,-85.09258,41.453533,33.33492,11.122086,13.723513,17.34912,-8.816798,75.24039,42.541195,-31.763956,-9.192661,5.7488804
121,0.741760790348053,0.7627967596054077,77.65967559814453,-0.1388897776403656,5.366948286417488,-91.81265691421244,0.360785,0.9092054,14.50886,11.510975,-17.74726,-0.1247047,-4.1187906,-6.286049,-9.904087,18.407885,-17.43344,6.3045163,-3.4294841,1.030694,1.5480238,13.928098,8.980119,-85.127655,41.496803,33.30304,11.131992,13.716932,17.335844,-8.834793,75.28109,42.551186,-31.785862,-9.196501,5.7304373
122,0.8061997890472412,0.7415295839309692,77.6375503540039,-0.0611619945225168,5.369858295612184,-91.78149706012229,0.4146711,0.7387446,14.493877,11.413252,-17.739079,-0.05187822,-4.671675,-6.539108,-9.806165,19.630573,-17.76855,6.3690834,-3.431868,0.98731947,1.5924653,13.90411,8.964084,-85.18365,41.5499,33.26598,11.147139,13.713149,17.321054,-8.848899,75.32397,42.568504,-31.837791,-9.2004,5.7121735
123,0.8778319954872131,0.7236445546150208,77.61692810058594,0.01582117826903509,5.3732506627359555,-91.75418965496425,0.4679278,0.568406,14.482908,11.317016,-17.731104,0.028122736,-5.277387,-6.7993736,-9.69393,20.958029,-18.088669,6.431037,-3.4339995,0.9439953,1.6384765,13.882487,8.947965,-85.24383,41.602203,33.228477,11.162909,13.711259,17.30721,-8.861765,75.36854,42.589745,-31.902218,-9.202869,5.6894565
124,0.9465161561965942,0.7028771638870239,77.59618377685547,0.08630138560049354,5.3788740686739605,-91.73317964842133,0.5202809,0.40476346,14.475897,11.219611,-17.722036,0.10943786,-5.944048,-7.0569882,-9.561575,22.39933,-18.373236,6.479389,-3.438265,0.9075278,1.6828157,13.870732,8.926393,-85.29308,41.64571,33.194134,11.174007,13.710559,17.295456,-8.877676,75.41343,42.609776,-31.958979,-9.203561,5.6586394
125,1.0179111957550049,0.6848645210266113,77.57537078857422,0.14888469010319186,5.387952764205691,-91.72047245289885,0.5673585,0.25018898,14.474099,11.128739,-17.7152,0.19464403,-6.6717405,-7.307967,-9.406647,23.95483,-18.62751,6.5141416,-3.4461808,0.87928694,1.7314166,13.860544,8.912152,-85.310936,41.65434,33.21595,10.925033,14.105011,17.275011,-8.888586,75.45868,42.644978,-32.019035,-9.2039175,5.6114464
126,1.0920475721359253,0.6659206748008728,77.55615997314453,0.20660703438473424,5.399343186626176,-91.71377047277026,0.6121713,0.10036145,14.476754,11.03909,-17.707792,0.2857536,-7.453665,-7.5574193,-9.2322,25.61375,-18.85747,6.5383844,-3.4636867,0.85285085,1.7814618,13.854888,8.897178,-85.30708,41.65113,33.27594,10.504528,14.766705,17.250282,-8.900932,75.52023,42.681023,-32.080082,-9.199612,5.5500216
127,1.1621590852737427,0.640870988368988,77.54045104980469,0.26235802425200405,5.4111840116751235,-91.71074740398504,0.66139454,-0.048937216,14.48214,10.939482,-17.695555,0.37593964,-8.291985,-7.809765,-9.038706,27.380032,-19.044273,6.546838,-3.4877744,0.8291787,1.8258852,13.870418,8.877372,-85.30282,41.649776,33.27769,10.417847,14.895289,17.233849,-8.9174795,75.580284,42.71505,-32.127666,-9.195907,5.493383
128,1.2369797229766846,0.6176597476005554,77.523193359375,0.3184852093917294,5.421474173829153,-91.70848204190902,0.72313803,-0.20150493,14.487775,10.816396,-17.6734,0.4583153,-9.183468,-8.06744,-8.828114,29.246164,-19.166832,6.5356956,-3.5040517,0.8090452,1.8556573,13.921689,8.8508,-85.33854,41.66912,33.11885,11.173317,13.695872,17.241234,-8.936293,75.61199,42.740707,-32.144463,-9.196659,5.460569
129,1.3131260871887207,0.6010421514511108,77.5065689086914,0.37522677590098874,5.430718991261921,-91.70472485139875,0.80016035,-0.35995296,14.490916,10.658562,-17.63361,0.5305305,-10.130472,-8.327253,-8.595702,31.221863,-19.227112,6.5139155,-3.5030048,0.80008507,1.8576152,14.028588,8.806383,-85.45747,41.728542,32.77415,13.357529,10.202886,17.28575,-8.957759,75.60386,42.76077,-32.33122,-9.196518,5.5005345
130,1.387940764427185,0.5824345350265503,77.49227142333984,0.43156225911557705,5.439718582808043,-91.70138046413217,0.8873705,-0.52134156,14.493519,10.476711,-17.581602,0.5981264,-11.130299,-8.585736,-8.343272,33.30062,-19.230883,6.482719,-3.490338,0.8005588,1.8389176,14.180731,8.748134,-85.634056,41.816116,32.517265,16.584177,5.0386877,17.356607,-8.976137,75.56669,42.784,-32.629948,-9.19617,5.5885367
131,1.4619859457015991,0.5613664388656616,77.47828674316406,0.4873365564911141,5.446643912493518,-91.70179968944481,0.98524606,-0.6832048,14.499803,10.280974,-17.52614,0.6610366,-12.173758,-8.844412,-8.082832,35.454453,-19.16311,6.427286,-3.476266,0.7979942,1.8220923,14.341415,8.676104,-85.80604,41.922695,32.553883,19.854696,-0.17576502,17.437796,-8.991429,75.50836,42.798702,-32.63613,-9.207246,5.6334567
132,1.5349013805389404,0.5345309376716614,77.46099090576172,0.5430672470058213,5.449830098110653,-91.70945900582674,1.0926806,-0.8431921,14.514351,10.08375,-17.477148,0.7199557,-13.252569,-9.1066065,-7.82574,37.657547,-19.009285,6.331554,-3.4740574,0.77762294,1.8313783,14.472289,8.600848,-85.90243,42.025116,32.74911,22.162434,-3.7369316,17.509314,-9.001675,75.44306,42.7933,-31.942099,-9.241009,5.543715
133,1.6103506088256836,0.5109642148017883,77.44253540039062,0.5990484735483552,5.447529079434282,-91.72680510477178,1.215781,-1.0028433,14.540205,9.8765545,-17.431715,0.7734389,-14.37591,-9.372748,-7.566963,39.933968,-18.745634,6.2046533,-3.4892828,0.73012406,1.8789598,14.558165,8.554306,-85.88275,42.083046,32.821804,23.160336,-4.858112,17.565716,-9.003772,75.36994,42.754494,-29.92805,-9.323251,5.1912026
134,1.6822980642318726,0.48474952578544617,77.42231750488281,0.654795034562599,5.441173489737535,-91.75145825591368,1.3529706,-1.162561,14.573972,9.65602,-17.38578,0.8217661,-15.542641,-9.639694,-7.304559,42.28366,-18.383936,6.0525026,-3.5142133,0.6666574,1.9514775,14.615571,8.489512,-85.79171,42.151134,32.75533,23.416218,-4.513593,17.61295,-9.000872,75.28073,42.69481,-26.978035,-9.463318,4.66483
135,1.7513089179992676,0.45182904601097107,77.39933013916016,0.70994761491261,5.433592073277777,-91.77941712831282,1.4923724,-1.3192123,14.61123,9.442147,-17.348406,0.86841047,-16.730446,-9.907975,-7.0540557,44.648544,-17.965326,5.852516,-3.5468335,0.59686404,2.0334384,14.663754,8.436004,-85.6744,42.20225,32.65469,23.340645,-3.6088855,17.659857,-8.994003,75.18602,42.636185,-24.201935,-9.623909,4.192213
136,1.8178119659423828,0.41229012608528137,77.3749008178711,0.7641765553306127,5.427935849642178,-91.80688900146728,1.6248786,-1.4708257,14.647698,9.2482195,-17.324556,0.91831493,-17.91824,-10.179898,-6.830627,46.971695,-17.531199,5.5811844,-3.5812316,0.53042006,2.109198,14.717584,8.399406,-85.583084,42.235977,32.63106,23.34451,-3.052283,17.718176,-8.987568,75.09099,42.598076,-22.711422,-9.729662,3.9908316
137,1.886690616607666,0.3767431378364563,77.34931945800781,0.8202719438073278,5.425465169424293,-91.8340116977587,1.7440567,-1.6200541,14.683167,9.08395,-17.319681,0.9746753,-19.126833,-10.457646,-6.6169925,49.284946,-17.075611,5.2200813,-3.6188586,0.46733975,2.1768298,14.78423,8.369076,-85.52191,42.26091,32.714542,23.479914,-3.0159736,17.792871,-8.982379,74.99946,42.586315,-23.123014,-9.729849,4.1848936
138,1.9508448839187622,0.3329985737800598,77.32247161865234,0.8774113298473689,5.424398196299171,-91.86246165338376,1.857568,-1.7673833,14.719833,8.93636,-17.327513,1.0347847,-20.358765,-10.740772,-6.4138823,51.602932,-16.580872,4.786755,-3.6575375,0.4044113,2.243969,14.851982,8.340282,-85.47246,42.280834,32.845566,23.546387,-3.0391123,17.881018,-8.978287,74.900375,42.586388,-24.741568,-9.672737,4.6352224
139,2.0146050453186035,0.2797182500362396,77.29435729980469,0.9305305724642545,5.422965145027288,-91.89065131659052,1.9673731,-1.9054649,14.756302,8.808298,-17.348646,1.0902913,-21.566998,-11.031465,-6.262197,53.8484,-16.073952,4.3079143,-3.6988142,0.343717,2.3095264,14.915944,8.321524,-85.434456,42.292896,33.001377,23.57945,-3.0797775,17.969482,-8.976541,74.80283,42.59225,-26.68791,-9.610127,5.15303
140,2.072911024093628,0.2236032783985138,77.26594543457031,0.9724667374659036,5.419193812955116,-91.91678234018714,2.0777457,-2.0249102,14.790967,8.698207,-17.381475,1.1314121,-22.70451,-11.333293,-6.203274,55.945045,-15.582724,3.8064394,-3.735831,0.29153013,2.374231,14.963739,8.305066,-85.41673,42.3119,33.15585,23.613153,-3.0961182,18.04754,-8.974939,74.701614,42.59585,-28.086346,-9.57295,5.5499387
141,2.130251884460449,0.16281810402870178,77.23872375488281,1.0057561294304342,5.413560760582986,-91.9428798282684,2.1907494,-2.1282368,14.82764,8.602233,-17.42534,1.1536522,-23.775578,-11.666009,-6.2510843,57.917522,-15.077582,3.2538786,-3.7739174,0.24098688,2.4360926,14.99856,8.294239,-85.412056,42.337063,33.331528,23.64876,-3.0891933,18.116274,-8.972462,74.605415,42.59604,-28.717781,-9.549524,5.777179
142,2.1849873065948486,0.0930975005030632,77.21244049072266,1.0322774861619448,5.406437605857146,-91.96909878921167,2.3046064,-2.2186544,14.865841,8.521615,-17.480862,1.1627141,-24.8002,-12.030003,-6.383012,59.796635,-14.558901,2.641734,-3.8045022,0.19323786,2.4969943,15.0193405,8.284296,-85.427864,42.37182,33.531048,23.669147,-3.0776572,18.182411,-8.967461,74.49874,42.59567,-29.049349,-9.526224,5.937429
143,2.2336318492889404,0.015352565795183182,77.18732452392578,1.0462229247539792,5.396838665525391,-91.99007162611039,2.4187217,-2.2902884,14.897284,8.458126,-17.546356,1.1646129,-25.754116,-12.399694,-6.5840955,61.51488,-14.108478,2.0249286,-3.8323843,0.159833,2.5569654,15.027831,8.272885,-85.46719,42.41267,33.70329,23.687475,-3.0430686,18.237097,-8.958161,74.39151,42.60439,-29.219011,-9.505781,6.0549297
144,2.278075933456421,-0.06587684899568558,77.1636962890625,1.0413035139679916,5.383593265009673,-92.00108997645877,2.5319796,-2.3359911,14.914161,8.416115,-17.621412,1.1650436,-26.612568,-12.743244,-6.838381,63.003063,-13.806341,1.463962,-3.8793197,0.14826107,2.616731,15.030049,8.264974,-85.50869,42.44853,33.804455,23.713715,-2.9710455,18.267248,-8.950837,74.31933,42.620987,-29.35696,-9.4908495,6.152554
145,2.3211357593536377,-0.16008968651294708,77.14654541015625,1.0153834146265108,5.362948801790852,-91.99890161545292,2.6437824,-2.352295,14.911675,8.405689,-17.709557,1.1648322,-27.354345,-13.078923,-7.181199,64.253624,-13.721153,0.9503362,-3.9380696,0.16415359,2.6798036,15.016981,8.256156,-85.57763,42.488434,33.805927,23.752443,-2.842551,18.272377,-8.944094,74.26375,42.649166,-29.463587,-9.486475,6.2322435
146,2.362485885620117,-0.2605224847793579,77.13267517089844,0.9716591666569289,5.336626334096052,-91.9868982172604,2.7532988,-2.3423111,14.895143,8.425181,-17.811846,1.160824,-27.99659,-13.410688,-7.6064773,65.30341,-13.79703,0.4648771,-3.9922214,0.20464726,2.7442386,14.985089,8.238317,-85.689445,42.543667,33.72958,23.798756,-2.6673148,18.261612,-8.933642,74.20513,42.68773,-29.48279,-9.489624,6.283534
147,2.4046733379364014,-0.3641106188297272,77.1199951171875,0.9117847376255653,5.311981427006587,-91.9704938223275,2.8620293,-2.309512,14.872668,8.456021,-17.920893,1.1527984,-28.576515,-13.681517,-8.036473,66.15365,-13.926241,0.05721357,-4.0638447,0.26151055,2.805737,14.955548,8.224641,-85.776886,42.58671,33.62942,23.844103,-2.4834926,18.230808,-8.928096,74.18281,42.729313,-29.46415,-9.493205,6.31382
148,2.4450314044952393,-0.4810844957828522,77.11145782470703,0.8367414795716301,5.296560561316668,-91.95594612443189,2.9687119,-2.256043,14.852777,8.484522,-18.032566,1.1406326,-29.132889,-13.832457,-8.395571,66.80171,-13.996756,-0.22345817,-4.107179,0.33919695,2.857422,14.927866,8.203502,-85.86675,42.628765,33.522152,23.887547,-2.311664,18.195164,-8.922415,74.15965,42.76721,-29.471008,-9.495151,6.334221
149,2.4760491847991943,-0.6075326204299927,77.10535430908203,0.7417019459950385,5.291798329642088,-91.94153763503613,3.0692205,-2.176039,14.834988,8.5154,-18.148525,1.1248546,-29.668571,-13.847694,-8.683607,67.236946,-13.999168,-0.3535525,-4.141187,0.44147864,2.898492,14.906284,8.179877,-85.929634,42.65627,33.410515,23.927067,-2.1511836,18.144064,-8.919367,74.15862,42.80334,-29.517347,-9.491288,6.338689
150,2.511011838912964,-0.7306670546531677,77.10191345214844,0.6276884029623329,5.294193566086042,-91.92562787566878,3.1626132,-2.0693562,14.816133,8.559556,-18.273792,1.1052408,-30.167408,-13.754314,-8.936282,67.46214,-13.98267,-0.35843575,-4.1681924,0.5670607,2.931846,14.885268,8.15349,-85.98028,42.675747,33.277626,23.964668,-1.9889007,18.077631,-8.919647,74.17745,42.83825,-29.571146,-9.484494,6.3243275
151,2.546970844268799,-0.8691585659980774,77.09956359863281,0.5046411667040086,5.302354042393508,-91.91213285226198,3.2620022,-1.950369,14.79891,8.5918045,-18.396597,1.0807453,-30.64239,-13.560872,-9.132573,67.499504,-13.925443,-0.2628589,-4.1888566,0.7023612,2.9598234,14.873134,8.1249275,-86.01075,42.689583,33.15924,23.998766,-1.851465,18.006998,-8.923653,74.20907,42.870033,-29.621368,-9.4798,6.30747
152,2.576490640640259,-1.013563632965088,77.10034942626953,0.38320262278762207,5.3149797544322075,-91.90506113552414,3.3723412,-1.8317316,14.786785,8.604477,-18.514374,1.050303,-31.10569,-13.27655,-9.251073,67.3705,-13.806428,-0.09230169,-4.2023783,0.8360337,2.9850073,14.876125,8.100754,-86.016174,42.689716,33.089375,24.028978,-1.7671192,17.944849,-8.929875,74.243095,42.89765,-29.65953,-9.482683,6.304822
153,2.599330425262451,-1.166060209274292,77.10000610351562,0.2618148577428641,5.330347589675713,-91.90571959915513,3.5034165,-1.7135458,14.780407,8.582076,-18.619053,1.013949,-31.557173,-12.874823,-9.267668,67.064186,-13.622182,0.1652636,-4.2193866,0.9638565,3.0073764,14.902058,8.057443,-85.97673,42.70667,33.08986,24.053194,-1.7492229,17.886295,-8.946044,74.30482,42.9132,-29.67242,-9.493011,6.3179007
154,2.6152231693267822,-1.3301434516906738,77.09725952148438,0.13662956412987748,5.349090654665237,-91.91206273354777,3.6471937,-1.5895656,14.778399,8.539479,-18.717876,0.97205603,-31.990135,-12.362274,-9.198114,66.57216,-13.38482,0.5166531,-4.230578,1.0971642,3.0269117,14.943708,8.010652,-85.90707,42.714817,33.14019,24.07561,-1.7857982,17.830025,-8.97035,74.37779,42.920998,-29.67459,-9.510072,6.340686
155,2.6319377422332764,-1.4943044185638428,77.09030151367188,0.014080403273036553,5.374717196556356,-91.92146353139235,3.795581,-1.4673092,14.778981,8.483614,-18.81482,0.9244033,-32.40596,-11.798223,-9.08174,65.92023,-13.095742,0.92816216,-4.2264366,1.2263484,3.042196,14.990911,7.9849434,-85.836044,42.700356,33.201035,24.09175,-1.84474,17.784327,-8.987679,74.43626,42.92909,-29.672771,-9.531817,6.3713083
156,2.64670991897583,-1.6639407873153687,77.08109283447266,-0.09988846173546997,5.4105369664892615,-91.93142382621866,3.9379907,-1.3532265,14.780184,8.425749,-18.915648,0.870692,-32.80521,-11.240709,-8.958367,65.13298,-12.75432,1.3668957,-4.2375164,1.3394005,3.0534728,15.041636,7.9470716,-85.74073,42.700928,33.24798,24.092459,-1.8975462,17.747332,-9.018847,74.50368,42.920128,-29.65956,-9.552191,6.4065294
157,2.6539533138275146,-1.836510419845581,77.06922149658203,-0.20484392640590238,5.457957738767567,-91.9420016341107,4.0724673,-1.247643,14.781463,8.366584,-19.020864,0.8090361,-33.188446,-10.682327,-8.821315,64.199356,-12.34756,1.8556404,-4.233286,1.4387379,3.0585241,15.091859,7.920946,-85.652,42.695724,33.262672,24.073244,-1.939817,17.730167,-9.044539,74.54076,42.90471,-29.641401,-9.575094,6.452125
158,2.658257007598877,-2.0194690227508545,77.05357360839844,-0.3034816234411383,5.514926222711294,-91.95400831432275,4.2037296,-1.1473894,14.783549,8.301528,-19.127707,0.7400127,-33.552032,-10.101231,-8.652589,63.109325,-11.88065,2.400168,-4.227368,1.5264698,3.058609,15.147767,7.8974333,-85.54793,42.689415,33.268055,24.037418,-1.9869243,17.724844,-9.072972,74.57199,42.879982,-29.612837,-9.600153,6.5064197
159,2.658437490463257,-2.2065677642822266,77.03614044189453,-0.3943011649573544,5.579366765030263,-91.96623086707046,4.3352838,-1.055357,14.787075,8.227684,-19.234934,0.6672549,-33.8903,-9.532095,-8.476162,61.88826,-11.378181,2.9425504,-4.21647,1.604213,3.0555022,15.199866,7.8831143,-85.45552,42.677444,33.266403,24.000845,-2.0324934,17.729858,-9.094622,74.58639,42.85702,-29.588463,-9.625462,6.56138
160,2.659539222717285,-2.399653673171997,77.01471710205078,-0.4760783333535509,5.649630063732545,-91.97759925895474,4.4695926,-0.9736953,14.792767,8.142816,-19.341257,0.5944073,-34.199142,-9.008609,-8.317491,60.562855,-10.864018,3.425086,-4.209517,1.6719784,3.0515409,15.241356,7.874043,-85.38519,42.664337,33.264664,23.97733,-2.0712554,17.740297,-9.111468,74.588905,42.839043,-29.578617,-9.647842,6.608299
161,2.6586544513702393,-2.592984676361084,76.98907470703125,-0.5478230063248665,5.727530271182302,-91.98794412904324,4.6056027,-0.9039328,14.801435,8.043689,-19.446302,0.52031505,-34.483448,-8.531575,-8.171453,59.131348,-10.330576,3.8373244,-4.2107234,1.7279847,3.0458164,15.272649,7.866639,-85.33488,42.65272,33.265896,23.969994,-2.1042187,17.758484,-9.127536,74.57849,42.82185,-29.591595,-9.667113,6.6464376
162,2.6548986434936523,-2.798215866088867,76.96092224121094,-0.6102860874236636,5.813227356911433,-91.9975597750732,4.7423363,-0.8444526,14.812502,7.932915,-19.551062,0.44375885,-34.741116,-8.085638,-8.028576,57.57978,-9.767638,4.207892,-4.2133737,1.772377,3.0373716,15.296336,7.8616285,-85.30302,42.64293,33.26496,23.971914,-2.13275,17.785978,-9.13998,74.552704,42.805744,-29.619244,-9.684383,6.679761
163,2.645026922225952,-3.0053229331970215,76.92879486083984,-0.665108448531634,5.902159199374243,-92.00629375033189,4.883328,-0.7934328,14.823987,7.8152547,-19.655212,0.36840293,-34.95967,-7.6795425,-7.908545,55.917683,-9.194077,4.5382257,-4.2182045,1.8104057,3.0301054,15.310453,7.8575344,-85.288124,42.636253,33.26218,23.980282,-2.154219,17.814997,-9.15137,74.519646,42.791508,-29.64758,-9.699559,6.7079344
164,2.632986068725586,-3.2188289165496826,76.89298248291016,-0.7134457439359411,5.989878208929973,-92.01375554835583,5.0234437,-0.7468608,14.834117,7.713612,-19.767675,0.29789105,-35.126457,-7.3218427,-7.831585,54.15196,-8.627313,4.8298936,-4.2262726,1.846045,3.0265484,15.314014,7.8544054,-85.29093,42.633217,33.255573,23.993162,-2.1652677,17.84116,-9.160676,74.48722,42.7833,-29.66505,-9.711896,6.729381
165,2.6230084896087646,-3.436495304107666,76.8559341430664,-0.7548823276874617,6.07556887954148,-92.01967767059884,5.125075,-0.6952426,14.842113,7.7130094,-19.933254,0.23500857,-35.239094,-7.016633,-7.8025846,52.27151,-8.070982,5.074918,-4.2355285,1.8808634,3.0300903,15.301333,7.8507233,-85.318726,42.63611,33.238358,24.01445,-2.161276,17.86484,-9.171064,74.44647,42.776577,-29.666395,-9.721488,6.745026
166,2.609327793121338,-3.661386728286743,76.81620025634766,-0.7885560007125568,6.16135763737856,-92.02405562673815,5.2319584,-0.6520626,14.848329,7.7107887,-20.09881,0.17768231,-35.302456,-6.757155,-7.812453,50.273403,-7.511964,5.2760634,-4.2507052,1.9109899,3.037761,15.276479,7.847157,-85.36509,42.643272,33.213085,24.043976,-2.1451037,17.887943,-9.179484,74.4029,42.77417,-29.65807,-9.728012,6.753692
167,2.594799757003784,-3.8885979652404785,76.77527618408203,-0.81619729278558,6.246898386254834,-92.02703138240791,5.3443513,-0.6137999,14.8541765,7.708825,-20.26537,0.120423846,-35.315346,-6.5343843,-7.8610616,48.176834,-6.9487534,5.4513793,-4.2623744,1.9378686,3.0463042,15.244641,7.843071,-85.42948,42.657078,33.191776,24.072905,-2.1237426,17.908596,-9.187434,74.36039,42.773197,-29.646301,-9.731678,6.7572613
168,2.5751430988311768,-4.1234049797058105,76.7313461303711,-0.8392986854572131,6.331678187197545,-92.02875641591052,5.4636607,-0.5771301,14.861287,7.706036,-20.432024,0.057791695,-35.27527,-6.339024,-7.948253,45.996696,-6.376976,5.6191325,-4.2725053,1.9597942,3.0519238,15.214172,7.8392587,-85.497505,42.67685,33.18869,24.091377,-2.1055598,17.924519,-9.193806,74.33587,42.774303,-29.638597,-9.731429,6.7556124
169,2.552654266357422,-4.365302085876465,76.68644714355469,-0.8581404557237511,6.413806077132555,-92.0305792127079,5.592236,-0.5424128,14.870416,7.7014923,-20.599665,-0.0096361395,-35.172928,-6.1709533,-8.081722,43.71403,-5.798732,5.7831006,-4.282956,1.9756825,3.0561364,15.1838255,7.8363714,-85.57054,42.70714,33.21143,24.091623,-2.0904884,17.935265,-9.197903,74.33973,42.77831,-29.640547,-9.7241335,6.7432714
170,2.5243189334869385,-4.614377975463867,76.6391372680664,-0.8711318447521906,6.4936330089376435,-92.03111022148568,5.729227,-0.5115617,14.879901,7.696186,-20.768656,-0.07948727,-35.008297,-6.0314894,-8.260745,41.319275,-5.2105083,5.936172,-4.29555,1.9853908,3.0607936,15.15167,7.834383,-85.6507,42.745556,33.253162,24.080463,-2.075294,17.938833,-9.200061,74.36507,42.78725,-29.644106,-9.711149,6.7218122
171,2.4952914714813232,-4.868741512298584,76.58969116210938,-0.8766972792250511,6.57299487348865,-92.02594017659598,5.8734303,-0.4861624,14.886721,7.6878924,-20.934553,-0.15389906,-34.793945,-5.914027,-8.472101,38.84471,-4.6010647,6.080042,-4.3145647,1.986795,3.06461,15.122671,7.833637,-85.71934,42.78299,33.30802,24.067808,-2.0663965,17.938225,-9.200422,74.398224,42.795288,-29.646414,-9.698931,6.703613
172,2.462722063064575,-5.130216598510742,76.54052734375,-0.872328678529406,6.654333147465224,-92.01073788663712,6.0189285,-0.4669321,14.888628,7.6841154,-21.098495,-0.23508538,-34.54488,-5.813537,-8.701651,36.32636,-3.9615014,6.216477,-4.331573,1.9787782,3.0594034,15.104634,7.8336043,-85.79099,42.813393,33.351078,24.07153,-2.0584018,17.945576,-9.199264,74.425964,42.79704,-29.639095,-9.689029,6.692932
173,2.427056074142456,-5.394473075866699,76.48941040039062,-0.8555444097735865,6.736145613661169,-91.98318291120026,6.170509,-0.45674193,14.885869,7.6777067,-21.258015,-0.32297817,-34.249744,-5.733269,-8.961214,33.737988,-3.2765586,6.350275,-4.3619366,1.9562459,3.053923,15.097354,7.834528,-85.82137,42.8329,33.40485,24.087996,-2.06941,17.94939,-9.197978,74.44374,42.790867,-29.626804,-9.689959,6.7054048
174,2.384824752807617,-5.665522575378418,76.43382263183594,-0.8251402704959594,6.816296939094004,-91.94344795685478,6.3294296,-0.4576005,14.877225,7.6717143,-21.416174,-0.4158606,-33.90016,-5.673361,-9.254447,31.062193,-2.550441,6.482299,-4.3965316,1.9193695,3.043629,15.099401,7.8374596,-85.85298,42.846317,33.450092,24.119795,-2.08291,17.956558,-9.194887,74.46613,42.779175,-29.603312,-9.692046,6.72402
175,2.3347394466400146,-5.947610855102539,76.37515258789062,-0.7813755220471367,6.894115802611768,-91.89073144755086,6.495996,-0.47010285,14.856895,7.6650887,-21.568438,-0.513694,-33.51116,-5.6250334,-9.555883,28.343733,-1.8007654,6.606962,-4.4407253,1.869339,3.034411,15.107505,7.841243,-85.86805,42.85535,33.50693,24.15083,-2.1024256,17.964724,-9.191461,74.480934,42.763206,-29.580324,-9.697466,6.7499924
176,2.2820136547088623,-6.236927032470703,76.31167602539062,-0.7246981975379359,6.969269220529862,-91.82360036429881,6.6692038,-0.49456197,14.818706,7.6582713,-21.710815,-0.6162468,-33.100475,-5.5828624,-9.839857,25.632715,-1.0476799,6.7171693,-4.4964433,1.8098769,3.0265977,15.120349,7.845106,-85.87569,42.85941,33.570877,24.175276,-2.1169367,17.974705,-9.188235,74.49101,42.746166,-29.555029,-9.701927,6.772844
177,2.2294116020202637,-6.531865119934082,76.24635314941406,-0.6536431514182894,7.042135437084256,-91.7402121588143,6.8485374,-0.53311056,14.759681,7.650585,-21.845142,-0.7242832,-32.668953,-5.55147,-10.101089,22.92209,-0.26123086,6.8185945,-4.5662503,1.7374599,3.018168,15.142494,7.8519697,-85.87269,42.85469,33.647175,24.190586,-2.1248448,17.989195,-9.182916,74.495834,42.72668,-29.52318,-9.705558,6.7946525
178,2.1656877994537354,-6.834965705871582,76.17803192138672,-0.562446560232182,7.108836571878953,-91.63622268387671,7.038149,-0.5913381,14.678,7.642515,-21.972834,-0.8363803,-32.203983,-5.5400496,-10.35379,20.189608,0.5583447,6.914014,-4.655815,1.6469682,3.0138154,15.17455,7.8639107,-85.8506,42.83679,33.740494,24.199745,-2.133818,18.005167,-9.174412,74.49275,42.707836,-29.488907,-9.711451,6.8204346
179,2.108098268508911,-7.1386871337890625,76.10896301269531,-0.44700995026789947,7.163158965606789,-91.50789399033314,7.2450056,-0.6733703,14.570756,7.63287,-22.087934,-0.9494339,-31.704721,-5.5521064,-10.601316,17.4669,1.3430872,6.989825,-4.7635207,1.533707,3.020372,15.205103,7.8784204,-85.82646,42.820156,33.8363,24.204967,-2.1425092,18.024172,-9.164652,74.48569,42.684566,-29.4623,-9.715665,6.842553
180,2.043564558029175,-7.45266580581665,76.0352783203125,-0.3038153673040829,7.199672806373736,-91.35317645410154,7.475267,-0.78233606,14.436196,7.6214337,-22.185257,-1.0605419,-31.168198,-5.5913725,-10.84649,14.778503,2.0258627,7.031173,-4.8918886,1.3956224,3.0447788,15.227984,7.8970304,-85.80585,42.803375,33.931557,24.20831,-2.1560202,18.039545,-9.152687,74.48105,42.66748,-29.452173,-9.716849,6.8540664
181,1.9744157791137695,-7.771204948425293,75.9594497680664,-0.13293178823910334,7.220885697278177,-91.17172239985413,7.7257366,-0.9179384,14.273978,7.60857,-22.265617,-1.1687223,-30.589602,-5.6593904,-11.083346,12.096962,2.5893455,7.0125,-5.036905,1.23353,3.085258,15.238528,7.910135,-85.79747,42.802944,34.02257,24.20866,-2.1739717,18.059406,-9.144127,74.47607,42.643593,-29.467686,-9.712906,6.8483486
182,1.9014266729354858,-8.100522994995117,75.88420104980469,0.06181864929226468,7.22972688285639,-90.96662820130149,7.9923806,-1.0758147,14.086421,7.594248,-22.33014,-1.2759687,-29.945019,-5.749302,-11.317771,9.356766,3.1027381,6.945535,-5.1981716,1.0503075,3.1377013,15.242079,7.9209075,-85.79289,42.809437,34.114845,24.205036,-2.1957946,18.080141,-9.136883,74.47026,42.61889,-29.49978,-9.705902,6.830838
183,1.826715111732483,-8.43325138092041,75.80924987792969,0.2667615225688047,7.226268220752552,-90.74718562168427,8.276646,-1.2389164,13.881288,7.581043,-22.378069,-1.3866205,-29.291637,-5.853886,-11.565517,6.7072954,3.5389497,6.8694596,-5.369048,0.860017,3.1990628,15.242582,7.930377,-85.79182,42.82042,34.201202,24.202133,-2.215741,18.100422,-9.130383,74.465706,42.59435,-29.539467,-9.696542,6.8116574
184,1.75309419631958,-8.77755069732666,75.73190307617188,0.4784261890006448,7.20912330646086,-90.51863895909354,8.580969,-1.4029615,13.66298,7.568516,-22.40637,-1.502725,-29.766792,-6.203093,-11.718871,6.6247096,2.6413035,6.83132,-5.544773,0.6625038,3.2671185,15.245773,7.9581084,-85.79304,42.812347,34.27739,24.202976,-2.228863,18.115093,-9.111146,74.4643,42.584072,-29.575321,-9.68591,6.8007665
185,1.65343177318573,-9.135414123535156,75.65946960449219,0.6868316225214022,7.181709941722752,-90.28895858232787,8.902919,-1.55714,13.439941,7.5578275,-22.415077,-1.6263338,-30.194216,-6.5428195,-11.92684,6.5619807,1.7278562,6.829035,-5.7188044,0.47231188,3.3351219,15.254206,7.984706,-85.80576,42.80426,34.369175,24.207037,-2.2512376,18.129286,-9.092361,74.47158,42.578552,-29.601942,-9.670936,6.79978
186,1.5766650438308716,-9.494946479797363,75.58692932128906,0.8897177572177017,7.148989456200479,-90.06063922774358,9.236886,-1.6993464,13.214859,7.5488815,-22.405872,-1.7573665,-30.582863,-6.872048,-12.171434,6.516296,0.7846006,6.8415904,-5.8855047,0.28843594,3.4020433,15.264521,8.025871,-85.8268,42.784,34.472054,24.211699,-2.2810545,18.138838,-9.062881,74.48391,42.587082,-29.62439,-9.652316,6.8034163
187,1.5013909339904785,-9.859428405761719,75.52122497558594,1.0766799994142802,7.118846457393629,-89.84159716070444,9.57326,-1.8169416,12.994101,7.541939,-22.378887,-1.8982341,-30.927217,-7.1705832,-12.405835,6.4790645,-0.10603006,6.872679,-6.0390015,0.12258142,3.4622862,15.27417,8.07496,-85.85037,42.753746,34.517105,24.225494,-2.276201,18.144705,-9.02689,74.499214,42.603294,-29.646963,-9.634839,6.808625
188,1.416412353515625,-10.224760055541992,75.46121978759766,1.2536066118614537,7.09473838248577,-89.63185582678958,9.907644,-1.9167114,12.776785,7.5347834,-22.333212,-2.0475497,-31.226233,-7.438208,-12.577236,6.462392,-0.8757643,6.929523,-6.1821647,-0.03083978,3.5139706,15.279576,8.104651,-85.86908,42.740086,34.43596,24.255987,-2.1918426,18.148624,-9.004565,74.51672,42.60598,-29.672226,-9.621666,6.8129663
189,1.306715726852417,-10.603373527526855,75.40677642822266,1.4225383874475106,7.072159747136777,-89.42523040939408,10.245558,-1.9996011,12.557514,7.527585,-22.268345,-2.2074263,-31.469477,-7.6742344,-12.705419,6.4450603,-1.5188935,7.059313,-6.319867,-0.17468521,3.56012,15.279894,8.131797,-85.88449,42.72549,34.13077,24.315174,-1.971824,18.145733,-8.983339,74.5433,42.606094,-29.70277,-9.614849,6.8112636
190,1.2232320308685303,-10.98287296295166,75.3487319946289,1.5846722845145,7.0492212183658465,-89.2226431935902,10.588844,-2.0683522,12.337742,7.521976,-22.185755,-2.3768365,-31.658995,-7.8810697,-12.8064375,6.428873,-2.0687735,7.2438316,-6.452685,-0.30931067,3.6015582,15.278192,8.16436,-85.898636,42.69965,33.663094,24.39519,-1.6539428,18.1363,-8.956888,74.57923,42.61596,-29.736675,-9.611997,6.80427
191,1.1303306818008423,-11.37205982208252,75.29720306396484,1.7177341834661282,7.043939074732053,-89.04532337820336,10.917895,-2.0999837,12.137769,7.517515,-22.0868,-2.5558662,-31.804358,-8.023796,-12.83429,6.420525,-2.4939725,7.386112,-6.5568485,-0.41309127,3.6274543,15.274433,8.18567,-85.907326,42.68483,33.20951,24.471355,-1.3386871,18.12706,-8.938843,74.606834,42.613865,-29.768312,-9.612089,6.804136
192,1.0267221927642822,-11.769412994384766,75.25279235839844,1.7929606555146633,7.07139940348199,-88.91732792392457,11.215989,-2.0639415,11.981272,7.517602,-21.97626,-2.7461772,-31.904417,-8.0573,-12.746113,6.4159346,-2.7601855,7.3878593,-6.609996,-0.45644417,3.62623,15.274489,8.203635,-85.91104,42.670223,32.94025,24.527708,-1.1261885,18.114645,-8.923212,74.62429,42.61238,-29.779186,-9.61266,6.8147073
193,0.9136854410171509,-12.172266960144043,75.21723937988281,1.8059187372497125,7.141095666549817,-88.85385205720188,11.471756,-1.9585161,11.879416,7.523866,-21.856884,-2.9471667,-31.963377,-7.9637713,-12.467766,6.4328365,-2.869624,7.1834273,-6.597885,-0.43301913,3.5918972,15.279525,8.219062,-85.91136,42.652466,32.935646,24.561913,-1.0594424,18.099152,-8.909675,74.630974,42.613197,-29.767553,-9.612829,6.836398
194,0.8202872276306152,-12.570757865905762,75.18590545654297,1.7661447943625121,7.242586993351529,-88.84043373486145,11.698714,-1.7938819,11.820328,7.5330205,-21.725424,-3.1594386,-31.973503,-7.7647867,-12.044567,6.456749,-2.832222,6.8371773,-6.5311813,-0.3567191,3.5319436,15.28718,8.240841,-85.90753,42.629265,33.095585,24.581793,-1.0819365,18.080898,-8.890692,74.62571,42.617615,-29.74287,-9.614535,6.8685236
195,0.7259758710861206,-12.968832015991211,75.16799926757812,1.684492759745787,7.367264812080336,-88.85209856116396,11.905624,-1.5780463,11.788219,7.545911,-21.577707,-3.3821332,-31.944729,-7.498977,-11.600718,6.480434,-2.6465852,6.449205,-6.434589,-0.23676372,3.4524226,15.295477,8.267507,-85.89718,42.59639,33.317204,24.592836,-1.1420293,18.060871,-8.867424,74.6036,42.62717,-29.708904,-9.620029,6.909649
196,0.6002581715583801,-13.366186141967773,75.16569519042969,1.5756906937962527,7.500940959384415,-88.86063564106546,12.107789,-1.323799,11.763356,7.561896,-21.409422,-3.613563,-31.887115,-7.2087255,-11.261679,6.5054297,-2.3147182,6.121415,-6.339211,-0.09129039,3.3627882,15.302929,8.287367,-85.875595,42.568165,33.494022,24.59869,-1.1844804,18.045242,-8.849464,74.56703,42.627747,-29.668234,-9.627628,6.958275
197,0.485948383808136,-13.782368659973145,75.16353607177734,1.422530186726846,7.655315717338085,-88.86438402565763,12.291995,-1.0085241,11.748541,7.5815105,-21.223516,-3.8613768,-31.793505,-6.867697,-11.056618,6.5106626,-1.76856,5.8962927,-6.244855,0.09623452,3.252895,15.315039,8.302259,-85.833984,42.53901,33.62,24.598072,-1.2075573,18.03508,-8.83497,74.51335,42.621407,-29.612387,-9.641423,7.018715
198,0.37412992119789124,-14.208695411682129,75.16339874267578,1.228937892617724,7.829438425142277,-88.87348225590863,12.459866,-0.6398942,11.748259,7.6055098,-21.022123,-4.1228595,-31.66718,-6.474197,-10.918443,6.5188856,-1.0372025,5.7161136,-6.1408315,0.32198063,3.1268191,15.328902,8.319746,-85.77235,42.505043,33.74765,24.587206,-1.2378398,18.027931,-8.816196,74.43802,42.61182,-29.546518,-9.660921,7.0925446
199,0.23004372417926788,-14.648496627807617,75.1737289428711,1.010213708555954,8.005789205862675,-88.89015284809769,12.630794,-0.23905541,11.760267,7.633863,-20.795515,-4.387706,-31.51198,-6.0582867,-10.84528,6.521612,-0.23126526,5.524919,-6.030449,0.57422787,2.9955778,15.338569,8.333878,-85.71207,42.469017,33.853046,24.575832,-1.2616616,18.017633,-8.79895,74.3556,42.60818,-29.481749,-9.680314,7.1667113
200,0.09289239346981049,-15.095800399780273,75.18663024902344,0.7973274812473286,8.16742060174166,-88.91000622193606,12.823256,0.15467583,11.774919,7.664584,-20.53277,-4.641726,-31.344328,-5.670571,-10.82931,6.5331655,0.5282249,5.268853,-5.921005,0.82014483,2.870714,15.335205,8.343873,-85.66935,42.438442,33.914276,24.570316,-1.2651526,18.002724,-8.784069,74.27014,42.609386,-29.437082,-9.693121,7.232988
201,-0.029447725042700768,-15.537324905395508,75.2022705078125,0.5809177866383156,8.318013382466074,-88.93985833182171,13.033788,0.5499397,11.801503,7.697682,-20.241697,-4.880825,-31.170622,-5.3039474,-10.887356,6.5444264,1.2402489,4.887268,-5.800945,1.0755512,2.7511632,15.3112545,8.351152,-85.65331,42.407684,33.915745,24.571695,-1.2441692,17.979092,-8.767292,74.161995,42.62498,-29.414888,-9.700028,7.299495
202,-0.16458210349082947,-15.997491836547852,75.22098541259766,0.3547522665781612,8.462612173903182,-88.97543612477317,13.256302,0.9565356,11.837056,7.7337375,-19.924246,-5.1114435,-30.98369,-4.9435735,-11.018851,6.557037,1.9580677,4.424818,-5.685764,1.3424234,2.629718,15.278851,8.351565,-85.64829,42.379982,33.867947,24.578804,-1.2017986,17.954575,-8.757253,74.05591,42.642136,-29.402517,-9.6987705,7.3619156
203,-0.31193628907203674,-16.473360061645508,75.24113464355469,0.13189160938238906,8.585945035989639,-89.00395964784697,13.325456,1.4022188,11.858984,8.16507,-19.768414,-5.3415384,-30.762897,-4.600476,-11.199746,6.5728025,2.6482549,3.9804633,-5.551834,1.607623,2.5248384,15.2278595,8.34472,-85.67862,42.365185,33.800545,24.588167,-1.1513331,17.926165,-8.74288,73.91547,42.664104,-29.415676,-9.701463,7.4186354
204,-0.4559851288795471,-16.952667236328125,75.26213836669922,-0.0753719320107488,8.674852715735673,-89.01410943744418,13.216485,1.8848736,11.845748,9.071056,-19.796696,-5.5784283,-30.490353,-4.2844253,-11.40287,6.5942044,3.2834423,3.6522987,-5.4503493,1.8431318,2.442242,15.181711,8.336022,-85.700066,42.35901,33.744946,24.60001,-1.0997502,17.89161,-8.734987,73.82763,42.681866,-29.441816,-9.701423,7.4418516
205,-0.6117827892303467,-17.44217300415039,75.2853775024414,-0.26951022343722186,8.725931095808278,-88.99302563272376,13.132448,2.3696036,11.785219,10.022563,-19.790556,-5.830561,-30.153355,-4.0037003,-11.655053,6.620662,3.8678575,3.4852138,-5.352534,2.0579214,2.3875113,15.125662,8.313137,-85.752716,42.380188,33.698875,24.616915,-1.046421,17.859718,-8.721288,73.72344,42.695408,-29.499289,-9.709463,7.434435
206,-0.7634860277175903,-17.936738967895508,75.31208038330078,-0.45805723030519696,8.747582123585563,-88.94836146160048,13.070489,2.8608706,11.688843,11.004862,-19.750576,-6.092251,-29.979458,-3.795385,-11.945545,7.116076,4.167499,3.4195905,-5.2966766,2.255846,2.3529103,15.074809,8.294487,-85.787766,42.398132,33.66219,24.638535,-0.9916445,17.815878,-8.713572,73.66313,42.70579,-29.563192,-9.715552,7.396229
207,-0.9195374250411987,-18.436628341674805,75.3434829711914,-0.636482399448992,8.742817057753413,-88.90078241867577,13.003843,3.3492098,11.58162,12.062759,-19.674004,-6.3471556,-30.06626,-3.6629145,-12.207965,8.261014,4.0672064,3.3974013,-5.248631,2.4351735,2.339529,15.019655,8.28153,-85.822815,42.417156,33.631275,24.655392,-0.938459,17.762224,-8.709909,73.63987,42.718693,-29.645334,-9.719589,7.3421483
208,-1.0862433910369873,-18.942790985107422,75.37886810302734,-0.8005981665554129,8.714491169693142,-88.86969955323723,12.911039,3.825519,11.486928,13.231122,-19.5552,-6.5783854,-30.088007,-3.512865,-12.406335,9.3168545,3.9376283,3.3599875,-5.168912,2.5996563,2.3459773,14.950132,8.261472,-85.89125,42.454945,33.594887,24.665167,-0.8850267,17.696348,-8.706097,73.647095,42.746742,-29.749304,-9.718733,7.2854447
209,-1.245469093322754,-19.449708938598633,75.41854858398438,-0.9468743031035891,8.655906304575758,-88.85871227913297,12.807469,4.284443,11.407506,14.495136,-19.39127,-6.7881804,-30.059654,-3.34084,-12.516325,10.322845,3.7484686,3.3131196,-5.0722,2.7423615,2.3796918,14.868852,8.232679,-85.9765,42.50937,33.55858,24.663567,-0.82860535,17.603573,-8.703402,73.73287,42.797554,-29.865374,-9.70565,7.219134
210,-1.4043910503387451,-19.956363677978516,75.4633560180664,-1.0795054481243966,8.568467281635174,-88.85638858848985,12.696964,4.7356696,11.329361,15.844318,-19.185425,-6.9813304,-29.9793,-3.1530437,-12.5746975,11.284824,3.508913,3.282918,-4.9791007,2.8651776,2.4382455,14.781548,8.190028,-86.06189,42.585064,33.52714,24.652832,-0.77031404,17.488306,-8.703743,73.89244,42.865032,-29.993736,-9.682972,7.1386533
211,-1.5710303783416748,-20.46714973449707,75.51698303222656,-1.203783686439784,8.466738370569107,-88.85760690964861,12.543877,5.1890383,11.249133,17.309196,-18.934347,-7.144687,-29.846546,-2.9503021,-12.611612,12.171171,3.244691,3.2441332,-4.888249,2.9748015,2.505989,14.694145,8.152465,-86.14349,42.659916,33.503918,24.63628,-0.7239169,17.36688,-8.707446,74.07847,42.933887,-30.136097,-9.660748,7.0582614
212,-1.741002082824707,-20.98639678955078,75.57215118408203,-1.3262559442415736,8.36652708084532,-88.85741621206506,12.310943,5.6557236,11.163102,18.922554,-18.634317,-7.2663927,-29.657097,-2.7351642,-12.657765,12.94332,2.9837291,3.1694813,-4.8093176,3.0762637,2.564163,14.615602,8.116435,-86.210655,42.736313,33.487774,24.616728,-0.6989716,17.262138,-8.712888,74.25737,42.98899,-30.297953,-9.646207,6.9875517
213,-1.9170969724655151,-21.504961013793945,75.63098907470703,-1.446929526639564,8.268877973243544,-88.85790261139856,12.002319,6.133997,11.074858,20.68105,-18.275194,-7.354204,-29.41111,-2.509743,-12.712314,13.601798,2.732573,3.058378,-4.7380795,3.1668005,2.6109188,14.547184,8.084243,-86.265724,42.819668,33.465694,24.592995,-0.6924626,17.170277,-8.718192,74.43737,43.034477,-30.488453,-9.643827,6.928086
214,-2.0893685817718506,-22.024145126342773,75.69344329833984,-1.5640734424029905,8.167464137722774,-88.86177416570371,11.637312,6.62037,10.985006,22.560772,-17.856377,-7.4102964,-29.11398,-2.272745,-12.760417,14.170165,2.4727407,2.9218574,-4.658814,3.2483358,2.6556761,14.4791975,8.066395,-86.323555,42.897324,33.44247,24.564138,-0.7038445,17.085945,-8.720832,74.6115,43.075703,-30.710407,-9.651631,6.8781786
215,-2.2651872634887695,-22.547452926635742,75.76189422607422,-1.6830008905348492,8.06808206783653,-88.86456784759295,11.203399,7.1213555,10.885296,24.553827,-17.383299,-7.4158025,-28.774813,-2.0230887,-12.811546,14.653958,2.1911697,2.7489543,-4.6046467,3.3257184,2.6885898,14.426182,8.045691,-86.357704,42.97313,33.441006,24.535194,-0.73350215,17.011957,-8.723169,74.79904,43.109684,-30.921324,-9.6563635,6.8284345
216,-2.439093828201294,-23.07516860961914,75.83763885498047,-1.809655980121549,7.975379495422698,-88.86297738082229,10.689758,7.6437035,10.769386,26.65353,-16.86239,-7.352505,-28.397636,-1.7574071,-12.874936,15.051402,1.877926,2.5286362,-4.5453253,3.4191124,2.7117229,14.373365,8.0354185,-86.38709,43.017097,33.49697,24.506723,-0.8011321,16.962122,-8.724435,74.90738,43.1261,-31.12323,-9.662966,6.7943
217,-2.611863374710083,-23.60319709777832,75.91665649414062,-1.9438193267175745,7.895054243430867,-88.85505542129516,10.077074,8.19189,10.636873,28.888983,-16.293497,-7.1827955,-27.98942,-1.4758337,-12.948902,15.367421,1.5129215,2.2341082,-4.4936414,3.5273254,2.7150648,14.328072,8.032241,-86.39811,43.024662,33.645023,24.481668,-0.9286386,16.939941,-8.725128,74.93897,43.118977,-31.30069,-9.6677,6.781956
218,-2.7836430072784424,-24.13100242614746,76.00003814697266,-2.0842685886164296,7.82482878429381,-88.8427111232368,9.375843,8.762255,10.490319,31.2488,-15.668391,-6.927839,-27.54622,-1.1793057,-13.0288105,15.599526,1.10717,1.8794061,-4.457874,3.645275,2.6972764,14.294434,8.029684,-86.396736,43.010025,33.848125,24.46181,-1.0951852,16.942238,-8.726468,74.93716,43.09375,-31.45671,-9.666932,6.7783227
219,-2.954498767852783,-24.652114868164062,76.08101654052734,-2.2297916760550027,7.753550465037302,-88.8332419110075,8.631958,9.339914,10.333501,33.652405,-14.983206,-6.6576514,-27.062155,-0.8687781,-13.111488,15.752799,0.6893916,1.5152057,-4.4204674,3.7695484,2.679512,14.262272,8.029107,-86.387985,42.98761,34.05793,24.437876,-1.2636828,16.95456,-8.728372,74.90258,43.06062,-31.60606,-9.667513,6.7731338
220,-3.1245498657226562,-25.179582595825195,76.1623764038086,-2.3796790800699945,7.671701894861886,-88.83215201938172,7.882184,9.911339,10.166815,36.034966,-14.240876,-6.442523,-26.528637,-0.54417825,-13.196542,15.822653,0.29410183,1.1916541,-4.3782516,3.8962958,2.6764162,14.227801,8.029769,-86.38185,42.969734,34.208015,24.408394,-1.3860419,16.968924,-8.7305565,74.86576,43.034344,-31.755678,-9.667475,6.7434626
221,-3.2949142456054688,-25.70629119873047,76.23973846435547,-2.53628537009543,7.575984277992423,-88.84354642149225,7.1301446,10.470944,9.981251,38.408245,-13.444654,-6.3171306,-25.935766,-0.19824618,-13.285564,15.795649,-0.074749865,0.9167883,-4.3344574,4.0269947,2.6891673,14.193361,8.03069,-86.37599,42.96001,34.27713,24.373722,-1.4416089,16.983412,-8.733302,74.83675,43.016407,-31.903671,-9.664255,6.6685944
222,-3.4623522758483887,-26.229068756103516,76.31764221191406,-2.698053486752835,7.472391814956078,-88.86382676659022,6.351361,11.023023,9.777887,40.810314,-12.598969,-6.2408395,-25.291761,0.1665042,-13.376743,15.677604,-0.43321088,0.665482,-4.2808595,4.165634,2.711126,14.156408,8.032138,-86.3697,42.949707,34.308002,24.331575,-1.4637609,17.008614,-8.740751,74.77972,42.99355,-32.060936,-9.663629,6.572142
223,-3.6240861415863037,-26.7511043548584,76.39790344238281,-2.854461590302737,7.3631995153612575,-88.88959489255807,5.5447936,11.566269,9.576455,43.216957,-11.708651,-6.167083,-24.617533,0.5336345,-13.460069,15.502188,-0.7798657,0.43752164,-4.2308216,4.2932806,2.7405922,14.121731,8.032563,-86.36307,42.943974,34.303722,24.289808,-1.4636341,17.030926,-8.748724,74.74034,42.975895,-32.195606,-9.657452,6.4699965
224,-3.7913217544555664,-27.268997192382812,76.47227478027344,-2.997166978242873,7.251390940492736,-88.91507195139455,4.7059345,12.106096,9.393889,45.606747,-10.779052,-6.0449233,-23.933222,0.88662016,-13.530167,15.300084,-1.1119016,0.23249714,-4.186044,4.4019117,2.7782755,14.088647,8.03225,-86.35783,42.940563,34.281345,24.249554,-1.4616041,17.04393,-8.753726,74.72378,42.97017,-32.299534,-9.648617,6.391201
225,-3.9487314224243164,-27.78411293029785,76.54766082763672,-3.126466090447817,7.135197300693664,-88.93917527285849,3.8209088,12.656653,9.2294655,48.020115,-9.830564,-5.815837,-23.227352,1.2280762,-13.588088,15.051798,-1.4208552,0.054253176,-4.1392746,4.4910836,2.8291705,14.053138,8.031519,-86.355515,42.937435,34.236763,24.210241,-1.4596289,17.045992,-8.757973,74.72133,42.974926,-32.36735,-9.639095,6.351261
226,-4.10552453994751,-28.288021087646484,76.62036895751953,-3.2460125699560307,7.014114171076303,-88.96422171864,2.8922164,13.217577,9.075938,50.461277,-8.857792,-5.513545,-22.495548,1.564414,-13.637393,14.750258,-1.7105399,-0.09932439,-4.092105,4.5656013,2.8915033,14.016657,8.03015,-86.35448,42.93501,34.165085,24.171211,-1.4487373,17.041483,-8.762525,74.73003,42.988182,-32.40741,-9.6277485,6.3326235
227,-4.259864807128906,-28.79448890686035,76.6876220703125,-3.3558715163000112,6.892640276807743,-88.9911053855595,1.9422112,13.779167,8.941157,52.85364,-7.8259635,-5.222494,-21.765318,1.8898921,-13.676672,14.440728,-1.9947767,-0.23800516,-4.05148,4.6286364,2.9582741,13.98083,8.027086,-86.35759,42.939133,34.080868,24.13176,-1.4344223,17.031631,-8.769234,74.75534,43.007416,-32.431805,-9.614394,6.3191175
228,-4.404677867889404,-29.292695999145508,76.75354766845703,-3.4512734482096787,6.774001944020415,-89.02271539218046,0.9960922,14.325705,8.835626,55.119858,-6.699872,-5.027248,-21.068243,2.1935456,-13.700722,14.180304,-2.2931988,-0.37037492,-4.016027,4.6745505,3.0220249,13.946859,8.02243,-86.36913,42.9591,34.002583,24.090387,-1.4253368,17.024096,-8.776493,74.79049,43.02738,-32.46067,-9.599456,6.297106
229,-4.554050445556641,-29.783048629760742,76.80818176269531,-3.5327380615693773,6.658671077958899,-89.05939480176572,0.05019451,14.91051,8.819596,57.282845,-5.366404,-4.902938,-20.411922,2.4734137,-13.710857,13.984168,-2.611006,-0.49554092,-3.9837387,4.704994,3.08584,13.910264,8.019679,-86.39143,42.997616,33.937763,24.043098,-1.4250156,17.013031,-8.779821,74.82236,43.058052,-32.501198,-9.590077,6.269117
230,-4.697229385375977,-30.267131805419922,76.8575668334961,-3.602509828003522,6.545425103154397,-89.10002401449606,-0.9090489,15.53375,8.86751,59.37957,-3.881368,-4.8044024,-19.778921,2.7357268,-13.710042,13.8198805,-2.9367967,-0.6101666,-3.9578912,4.721024,3.1424093,13.877099,8.004886,-86.45528,43.06336,33.841488,24.005175,-1.4080845,17.00489,-8.791795,74.89755,43.086594,-32.518932,-9.56963,6.222034
231,-4.833045959472656,-30.747764587402344,76.90679168701172,-3.658567553313156,6.432897595587883,-89.14612572824362,-1.8667792,16.083366,8.86022,61.348873,-2.463383,-4.8063593,-19.158503,2.9816816,-13.694052,13.668854,-3.2634652,-0.71847206,-3.9261653,4.7236795,3.202607,13.841726,7.989147,-86.50777,43.13441,33.76559,23.95903,-1.4077312,16.999815,-8.801389,74.95045,43.11601,-32.554337,-9.553067,6.182742
232,-4.966301441192627,-31.22627067565918,76.95584869384766,-3.6974454043882896,6.321859555370175,-89.19776807999713,-2.8145664,16.42837,8.675769,63.13407,-1.3302972,-5.008367,-18.544811,3.2092342,-13.65926,13.518999,-3.5874636,-0.82395023,-3.8870902,4.7118297,3.2604365,13.809805,7.975422,-86.54309,43.19605,33.70977,23.908676,-1.4263521,17.0064,-8.807935,74.986885,43.139362,-32.607754,-9.533046,6.1473618
233,-5.097757816314697,-31.694974899291992,77.00144958496094,-3.716003365165514,6.212464038254483,-89.25565946756392,-3.7397423,16.502272,8.280645,64.71618,-0.49504137,-5.581982,-17.937586,3.4146104,-13.604088,13.368408,-3.9094217,-0.9184587,-3.8378446,4.6791854,3.3171105,13.779748,7.967305,-86.555786,43.24605,33.681538,23.849922,-1.4753485,17.023756,-8.811097,75.00448,43.15615,-32.68591,-9.507124,6.1183853
234,-5.224799633026123,-32.164093017578125,77.0475845336914,-3.715963200796631,6.105963713111636,-89.31834842459448,-4.653221,16.361135,7.7413187,66.13798,0.13477908,-6.4546347,-17.344288,3.595845,-13.5320015,13.2316475,-4.2344484,-1.0017414,-3.7842789,4.626923,3.368128,13.754038,7.9540443,-86.56221,43.302876,33.662487,23.787888,-1.5395045,17.054161,-8.814981,75.021645,43.16396,-32.776398,-9.471651,6.0870347
235,-5.343900680541992,-32.635738372802734,77.09232330322266,-3.697727832427646,5.999886156556726,-89.38727930309916,-5.5689297,16.051254,7.100394,67.424324,0.5018085,-7.3654246,-16.76818,3.7514582,-13.441076,13.1235485,-4.569441,-1.0890026,-3.725182,4.5611405,3.4197893,13.7311535,7.9504004,-86.559135,43.343117,33.653397,23.727104,-1.6055046,17.08531,-8.815732,75.024605,43.17102,-32.868263,-9.439015,6.0592523
236,-5.462458610534668,-33.107357025146484,77.134033203125,-3.6690716734499147,5.902034882525025,-89.45307337395973,-6.520534,15.632651,6.384871,68.60251,0.5556686,-8.0461645,-16.220737,3.883979,-13.3437,13.05586,-4.9167204,-1.1967887,-3.6732733,4.491276,3.4569206,13.714354,7.9433765,-86.54826,43.382557,33.641434,23.669971,-1.6559371,17.130386,-8.8166895,75.0195,43.168663,-32.95356,-9.408113,6.0270433
237,-5.569771766662598,-33.57047653198242,77.17237854003906,-3.6239847462526353,5.806877536770801,-89.52424447470878,-7.512249,15.031893,5.5248127,69.66105,0.21881668,-8.402005,-15.706657,3.9891317,-13.226597,13.048995,-5.28519,-1.3378843,-3.6193404,4.414366,3.4881911,13.704247,7.932461,-86.53157,43.41418,33.620567,23.624212,-1.6742876,17.17824,-8.818006,74.99718,43.161884,-33.030293,-9.387215,5.9928966
238,-5.669436454772949,-34.03718185424805,77.21282196044922,-3.5646561174899016,5.714743002558912,-89.59905138832276,-8.523578,14.249629,4.5386286,70.59227,-0.45745984,-8.579965,-15.224563,4.0694027,-13.094401,13.0989275,-5.672844,-1.5015373,-3.5630522,4.3297124,3.5127409,13.6993,7.9233418,-86.51197,43.43601,33.593567,23.58614,-1.6729251,17.234837,-8.819177,74.96112,43.14834,-33.104885,-9.370435,5.9554205
239,-5.77328634262085,-34.4973030090332,77.2492904663086,-3.500383492641654,5.622292746104782,-89.6754582891385,-9.516389,13.459017,3.6107059,71.40734,-1.3203174,-8.666008,-14.747884,4.1383066,-12.957431,13.158761,-6.0597315,-1.6683835,-3.5046086,4.2472835,3.5370908,13.696739,7.9136558,-86.4917,43.45463,33.571987,23.548784,-1.6713203,17.294127,-8.820576,74.9149,43.131203,-33.164513,-9.353748,5.920332
240,-5.869908809661865,-34.956878662109375,77.28738403320312,-3.4392965330051952,5.527381884142269,-89.75078666081163,-10.463439,12.837918,2.917018,72.11432,-2.2170908,-8.747299,-14.255343,4.2066836,-12.825731,13.190166,-6.4295053,-1.8187433,-3.4483948,4.1737065,3.5645316,13.696637,7.9054723,-86.47359,43.47194,33.563416,23.507109,-1.6860845,17.350273,-8.821575,74.87419,43.11317,-33.19032,-9.330593,5.889566
241,-5.95248556137085,-35.41827392578125,77.32209777832031,-3.383671850643572,5.429104959886097,-89.82636691849625,-11.357624,12.425874,2.4928231,72.7,-3.156167,-8.882722,-13.752978,4.2741723,-12.702262,13.21003,-6.784456,-1.9564946,-3.3928301,4.111513,3.5945883,13.697987,7.8995113,-86.45734,43.488678,33.579536,23.455746,-1.7286726,17.404123,-8.821931,74.838295,43.09675,-33.170097,-9.298203,5.865429
242,-6.043006896972656,-35.87364959716797,77.35302734375,-3.3284689915936974,5.329171129541261,-89.90262445012075,-12.221117,12.139109,2.2411013,73.162506,-4.1986775,-9.009814,-13.247505,4.3356667,-12.581565,13.226744,-7.129882,-2.0890815,-3.3366482,4.056468,3.6254041,13.701761,7.8938313,-86.440605,43.503902,33.614475,23.398542,-1.7884048,17.458117,-8.821675,74.79906,43.079395,-33.116558,-9.260842,5.846928
