unveil-humanoid-operators/unveil-humanoid-operators.github.io/feature-analysis-animation/data/feature_matrix_instances/weight_ankle_peak_vel_gesture_A276_greetings_hat_R_003__A276.csv
Frame,root_translateX,root_translateY,root_translateZ,root_rotateX,root_rotateY,root_rotateZ,left_hip_pitch_joint_dof,left_hip_roll_joint_dof,left_hip_yaw_joint_dof,left_knee_joint_dof,left_ankle_pitch_joint_dof,left_ankle_roll_joint_dof,right_hip_pitch_joint_dof,right_hip_roll_joint_dof,right_hip_yaw_joint_dof,right_knee_joint_dof,right_ankle_pitch_joint_dof,right_ankle_roll_joint_dof,waist_yaw_joint_dof,waist_roll_joint_dof,waist_pitch_joint_dof,left_shoulder_pitch_joint_dof,left_shoulder_roll_joint_dof,left_shoulder_yaw_joint_dof,left_elbow_joint_dof,left_wrist_roll_joint_dof,left_wrist_pitch_joint_dof,left_wrist_yaw_joint_dof,right_shoulder_pitch_joint_dof,right_shoulder_roll_joint_dof,right_shoulder_yaw_joint_dof,right_elbow_joint_dof,right_wrist_roll_joint_dof,right_wrist_pitch_joint_dof,right_wrist_yaw_joint_dof
0,0.0769592672586441,2.2152154445648193,78.36376190185547,0.15400971839384822,-0.6207821807621182,-92.77878624992856,0.4751813,9.006951,25.628593,12.180893,-10.578273,-3.8298833,2.3917842,-7.521369,-26.462238,8.432969,-9.027096,4.028651,-1.5780985,-0.6836638,3.5696752,6.1421576,26.737932,-33.43499,49.87298,11.424178,0.96585345,-5.833807,6.363537,-22.77478,30.958965,50.23493,-14.09143,-3.06825,1.7904274
1,0.07717214524745941,2.214332342147827,78.3636245727539,0.15607034121874552,-0.6203313096336373,-92.77893222643488,0.4735258,9.006624,25.630028,12.184817,-10.580439,-3.8328109,2.3812,-7.5284348,-26.462362,8.45674,-9.040231,4.030951,-1.5863818,-0.70371294,3.5837214,6.1631465,26.765144,-33.395016,49.84309,11.455764,0.95663285,-5.855756,6.223742,-22.779188,30.746063,50.055542,-13.92029,-3.05659,1.731791
2,0.07585465162992477,2.2161500453948975,78.36312866210938,0.1590883803115599,-0.6195217670279879,-92.77870107872647,0.47066912,9.006506,25.631596,12.190324,-10.583219,-3.835463,2.3697999,-7.536221,-26.46278,8.481611,-9.054097,4.033008,-1.575646,-0.72511566,3.5979564,6.1626124,26.793755,-33.37684,49.82725,11.482381,0.9452846,-5.879133,6.1051517,-22.777422,30.511269,49.888767,-13.777601,-3.0477705,1.6928355
3,0.07474297285079956,2.2163798809051514,78.36231994628906,0.16123173800411233,-0.6193578699933954,-92.77914227434056,0.46862447,9.006685,25.632843,12.1958885,-10.586375,-3.838701,2.3588274,-7.5431485,-26.462467,8.506169,-9.06712,4.035482,-1.560668,-0.7506398,3.6120236,6.155313,26.823853,-33.367424,49.81746,11.508964,0.9348824,-5.9002194,5.968386,-22.772213,30.259546,49.696907,-13.5995035,-3.0391903,1.6193041
4,0.07143472880125046,2.2151074409484863,78.36254119873047,0.1618464814947899,-0.6205907457786161,-92.78084808099328,0.46866184,9.007508,25.63363,12.199648,-10.587987,-3.843456,2.3494122,-7.5487432,-26.460646,8.529641,-9.078021,4.039206,-1.5357016,-0.785719,3.630372,6.1376653,26.863483,-33.373215,49.809532,11.537095,0.92690486,-5.9175487,5.792245,-22.767054,29.963116,49.42759,-13.330649,-3.0313563,1.4616321
5,0.06793631613254547,2.216001510620117,78.36280059814453,0.16277351542887342,-0.622574374387531,-92.78335886769325,0.46909758,9.009226,25.631504,12.203299,-10.589319,-3.8514776,2.3408117,-7.5520005,-26.457275,8.551882,-9.085376,4.044405,-1.5094974,-0.8284317,3.6515145,6.1177177,26.91271,-33.38978,49.798843,11.567023,0.92280823,-5.929352,5.5744934,-22.767021,29.633465,49.079704,-12.972254,-3.0287685,1.1875436
6,0.06577048450708389,2.215402603149414,78.36226654052734,0.1629578844054124,-0.625116590052128,-92.78654263377587,0.47044852,9.011375,25.627468,12.205433,-10.589455,-3.8617368,2.3329616,-7.5536246,-26.45276,8.573086,-9.090169,4.050732,-1.4802908,-0.8771024,3.6770463,6.098478,26.974977,-33.414806,49.778057,11.596845,0.921639,-5.9382734,5.3337626,-22.77709,29.27402,48.66322,-12.548702,-3.0314667,0.83176184
7,0.06285185366868973,2.2176172733306885,78.36163330078125,0.1626366222693401,-0.6298378822118923,-92.79181915757076,0.47447023,9.01466,25.62591,12.208161,-10.590004,-3.8711345,2.3277886,-7.554176,-26.446644,8.592001,-9.093902,4.057663,-1.4746168,-0.9282255,3.6987863,6.0883017,27.020647,-33.41378,49.772533,11.639081,0.9192017,-5.9434876,5.0213447,-22.79373,28.926378,48.20211,-12.016259,-3.0312116,0.43513438
8,0.05875039100646973,2.2213354110717773,78.36126708984375,0.16329892984569155,-0.6382304518071276,-92.80078315852737,0.48362407,9.019297,25.631447,12.213,-10.592532,-3.8764942,2.3258984,-7.5548778,-26.438284,8.611391,-9.100903,4.064701,-1.4609097,-0.9891121,3.7228951,6.068943,27.06906,-33.41583,49.77622,11.682647,0.9142041,-5.948894,4.661153,-22.823994,28.542341,47.65233,-11.353123,-3.0223064,0.048930146
9,0.05541727691888809,2.2252283096313477,78.36053466796875,0.16439567075311376,-0.6515436342951625,-92.81240999933539,0.49966657,9.02476,25.645414,12.21945,-10.596591,-3.8759067,2.3286338,-7.557381,-26.42938,8.632609,-9.1133375,4.0737343,-1.4189463,-1.062306,3.7618012,6.0400186,27.14698,-33.437695,49.760178,11.720834,0.9041584,-5.959252,4.297971,-22.894594,28.082542,46.96254,-10.525667,-3.0125842,-0.3039347
10,0.052961282432079315,2.231292486190796,78.3593978881836,0.16665996038329858,-0.6687013434071606,-92.82633057320157,0.52147436,9.030669,25.665512,12.22547,-10.600475,-3.8713827,2.3360133,-7.56008,-26.419676,8.652496,-9.128035,4.0843267,-1.3942702,-1.142079,3.8019495,6.027232,27.225405,-33.433807,49.740387,11.768029,0.88979465,-5.9703,3.8774257,-22.987993,27.618948,46.19719,-9.54703,-3.0033758,-0.65869266
11,0.04922860115766525,2.235403537750244,78.35779571533203,0.16820432139279848,-0.6874754529599909,-92.84500876455081,0.5450647,9.039283,25.690323,12.235227,-10.607452,-3.8657854,2.3436372,-7.561237,-26.405241,8.672776,-9.143269,4.0926085,-1.3627093,-1.2274603,3.8402996,6.075105,27.301378,-33.372375,49.674023,11.875632,0.87842697,-5.98251,3.4165642,-23.105623,27.129871,45.3303,-8.483144,-2.980575,-1.0261133
12,0.047338344156742096,2.226055860519409,78.35865783691406,0.1680049795955857,-0.7054486526726035,-92.87089358446644,0.5663018,9.05257,25.718094,12.252158,-10.619843,-3.86194,2.3476164,-7.5580916,-26.382181,8.6921425,-9.155185,4.094696,-1.3467603,-1.3126101,3.8856676,5.996473,27.388083,-33.411324,49.70584,11.850609,0.8726552,-5.9901595,2.8857107,-23.251184,26.645544,44.352814,-7.3916936,-2.9284935,-1.4228112
13,0.044814009219408035,2.2283949851989746,78.35769653320312,0.162990829067918,-0.7215500616144841,-92.90354267940245,0.5819272,9.071936,25.747139,12.278894,-10.639445,-3.8590493,2.3445585,-7.5508256,-26.349785,8.716118,-9.167385,4.0872602,-1.3124034,-1.4021034,3.922762,6.024699,27.472315,-33.35896,49.649357,11.922758,0.8795454,-5.9992423,2.3247566,-23.423298,26.13234,43.250145,-6.2923646,-2.8441937,-1.8441025
14,0.04246382787823677,2.233268976211548,78.35623168945312,0.1585531000104364,-0.7370080588166553,-92.94187539549162,0.5957817,9.0954685,25.778776,12.311138,-10.663574,-3.8560185,2.3390317,-7.5394006,-26.31034,8.739105,-9.177848,4.0730953,-1.2845598,-1.4946029,3.9588125,6.0425186,27.559551,-33.30863,49.602776,11.97428,0.89311296,-6.0069485,1.7109162,-23.625267,25.61446,42.039093,-5.1484466,-2.7366188,-2.2873015
15,0.04277700558304787,2.2346341609954834,78.35612487792969,0.1512364245982602,-0.7536477351363587,-92.98791053874365,0.6113997,9.121552,25.816431,12.34752,-10.690879,-3.8555996,2.3265064,-7.529018,-26.262127,8.775271,-9.191224,4.0577593,-1.2533592,-1.5908476,3.9954927,6.0581703,27.64991,-33.255775,49.55731,12.02481,0.910703,-6.0144053,1.0523198,-23.857866,25.079683,40.70939,-3.9489799,-2.6103115,-2.7602935
16,0.04205218702554703,2.236112117767334,78.35469818115234,0.1444944978722367,-0.7733531927760442,-93.04338346910508,0.63539934,9.147218,25.863693,12.380502,-10.716862,-3.8604836,2.3162067,-7.5177846,-26.205643,8.808651,-9.2017765,4.046648,-1.2166593,-1.6907427,4.0365853,6.0525475,27.744678,-33.21733,49.527668,12.06391,0.92902446,-6.021895,0.3503336,-24.121094,24.524012,39.253258,-2.6826882,-2.4700902,-3.2717927
17,0.04234128072857857,2.2422618865966797,78.35367584228516,0.14019709812407544,-0.795689878281986,-93.10980472053721,0.66902506,9.172144,25.921366,12.4080515,-10.739971,-3.875061,2.303067,-7.507327,-26.138714,8.8493595,-9.21137,4.041778,-1.1730329,-1.7946084,4.079791,6.0210333,27.844473,-33.19866,49.518703,12.094726,0.9496209,-6.0363235,-0.39123595,-24.416822,23.951334,37.674637,-1.3487241,-2.338261,-3.863485
18,0.04609038308262825,2.239145517349243,78.35298919677734,0.134040239855418,-0.8200779572796194,-93.18597511705293,0.7086712,9.19817,25.987709,12.434503,-10.762566,-3.8967683,2.2874851,-7.49634,-26.06243,8.8947735,-9.219521,4.039991,-1.1356156,-1.9009907,4.127811,5.8853264,27.956095,-33.267586,49.592884,12.029818,0.971792,-6.0530934,-1.1831694,-24.747038,23.375044,35.975643,0.050168213,-2.2092807,-4.5191545
19,0.04506351426243782,2.246526002883911,78.35067749023438,0.1298026022684074,-0.8475491869775464,-93.26905320165831,0.7541031,9.224341,26.061869,12.462,-10.787229,-3.9174972,2.2707903,-7.4871993,-25.979277,8.946475,-9.2303705,4.039376,-1.0674113,-2.016117,4.16821,5.928546,28.060284,-33.183746,49.523804,12.141822,0.9970788,-6.0662303,-1.9862806,-25.108297,22.74677,34.13038,1.5146163,-2.0441604,-5.1566105
20,0.04462133347988129,2.247898817062378,78.34890747070312,0.1264074351211415,-0.8792311159256802,-93.3565356394775,0.804534,9.250514,26.143179,12.492604,-10.815749,-3.9291484,2.2547748,-7.481456,-25.892397,9.004536,-9.247262,4.0379796,-1.0169361,-2.1333086,4.2158613,5.8844438,28.172298,-33.166756,49.52714,12.145245,1.0155787,-6.0547566,-2.8566296,-25.499426,22.109781,32.145092,3.0537636,-1.7995554,-5.7058053
21,0.04708876460790634,2.2486226558685303,78.34647369384766,0.12543231173864677,-0.9163321821063033,-93.4496554309073,0.86028117,9.27714,26.234102,12.530064,-10.850355,-3.9269168,2.239782,-7.480661,-25.800789,9.069695,-9.271579,4.0353746,-0.9662697,-2.258996,4.2676554,5.8054857,28.293333,-33.178894,49.559784,12.084736,1.0254037,-6.0095916,-3.7710297,-25.91958,21.443218,29.9955,4.6803656,-1.4335066,-6.140088
22,0.05044030398130417,2.2500858306884766,78.34358215332031,0.1276791616302485,-0.9580548858547754,-93.54940655507382,0.92186666,9.304,26.334251,12.571905,-10.889396,-3.9159727,2.2246928,-7.4835143,-25.70332,9.142797,-9.302359,4.0325027,-0.9067921,-2.3940876,4.3166733,5.7770405,28.418127,-33.14821,49.555443,12.051863,1.0311519,-5.9429984,-4.7167363,-26.369164,20.744604,27.687841,6.3891525,-0.97359115,-6.508715
23,0.0517696738243103,2.258042097091675,78.3409423828125,0.13023301210951388,-1.0020428233805299,-93.65166279139235,0.9878804,9.330306,26.43807,12.612309,-10.929572,-3.9034421,2.2108862,-7.487037,-25.603292,9.21722,-9.333957,4.029642,-0.8495482,-2.5322666,4.361105,5.774845,28.545382,-33.093143,49.53289,12.037151,1.037807,-5.8709893,-5.714246,-26.84675,20.026203,25.255598,8.153241,-0.48187953,-6.848859
24,0.05605359375476837,2.2572476863861084,78.33739471435547,0.1314602655964504,-1.0460782954190653,-93.75263204613948,1.0560802,9.355474,26.539831,12.647754,-10.968521,-3.8963752,2.1995482,-7.488612,-25.503546,9.28749,-9.362097,4.0270214,-0.80756384,-2.6680825,4.400609,5.721256,28.678604,-33.081608,49.552925,11.980091,1.049457,-5.8079767,-6.792757,-27.350355,19.304575,22.733269,9.948189,-0.019201463,-7.1945996
25,0.060611724853515625,2.2580678462982178,78.334716796875,0.12999430210674845,-1.0900765927052614,-93.85182172171608,1.1264255,9.3803425,26.639492,12.678004,-11.007823,-3.8965962,2.1902223,-7.4873343,-25.404192,9.354077,-9.386212,4.025029,-0.76191276,-2.8052514,4.423963,5.756583,28.806492,-32.994064,49.507244,12.03688,1.0745128,-5.762961,-7.9173408,-27.879404,18.565859,20.071928,11.76952,0.42956248,-7.5625825
26,0.06649361550807953,2.25890851020813,78.33261108398438,0.12849516349156773,-1.1350478113820184,-93.95101099833353,1.2013873,9.403725,26.739876,12.701667,-11.046332,-3.9002397,2.1822424,-7.485023,-25.303684,9.420351,-9.408942,4.0235324,-0.7396616,-2.9411652,4.4375954,5.722331,28.938292,-32.965546,49.52826,12.0310335,1.1048628,-5.722695,-9.120704,-28.435366,17.843277,17.287794,13.634581,0.88642967,-7.939132
27,0.07287436723709106,2.259148120880127,78.32938385009766,0.12570803535070668,-1.180557961834688,-94.05003107003685,1.2777766,9.426363,26.838932,12.72401,-11.083779,-3.9063613,2.1767478,-7.481998,-25.20332,9.483445,-9.429898,4.0215297,-0.71763617,-3.0741951,4.4418116,5.7390337,29.065678,-32.893818,49.512276,12.065065,1.1348976,-5.6853666,-10.392012,-29.012665,17.09563,14.452691,15.534099,1.2999381,-8.293853
28,0.08013981580734253,2.261827230453491,78.32672882080078,0.12438379003586005,-1.2260248736216721,-94.14855674986717,1.3561615,9.446363,26.93518,12.741563,-11.115359,-3.9137928,2.175247,-7.478379,-25.104069,9.539269,-9.4472275,4.0180697,-0.7064164,-3.1990378,4.442207,5.7539005,29.190083,-32.82257,49.500275,12.061846,1.1547674,-5.6442113,-11.778222,-29.603804,16.327518,11.672774,17.461061,1.6185744,-8.5973625
29,0.0861002504825592,2.2640249729156494,78.3269271850586,0.12425571679301275,-1.2712219022752638,-94.24869398054601,1.436595,9.463592,27.02834,12.754655,-11.139258,-3.9242303,2.1743374,-7.4753933,-25.004232,9.594703,-9.46439,4.011141,-0.6960122,-3.3177443,4.4353647,5.8271556,29.306383,-32.69787,49.44376,12.058561,1.1618593,-5.5892525,-13.281477,-30.200432,15.53039,8.916644,19.408524,1.853311,-8.842954
30,0.09191347658634186,2.2595953941345215,78.32722473144531,0.12443376175330602,-1.3166343487962595,-94.34977247826625,1.5196352,9.4785795,27.119255,12.7629595,-11.157116,-3.9376414,2.176109,-7.471785,-24.904074,9.64558,-9.478822,4.001795,-0.70160264,-3.4308603,4.4180794,5.8888593,29.418804,-32.582256,49.406708,11.9985485,1.159383,-5.524715,-14.914428,-30.80035,14.735595,6.17183,21.377056,2.024478,-9.044748
31,0.09842066466808319,2.2591280937194824,78.3260498046875,0.125606870500129,-1.3623574344796328,-94.44786210210428,1.6036929,9.49192,27.207952,12.769143,-11.173806,-3.9502828,2.1822534,-7.4681344,-24.806892,9.690541,-9.491033,3.9937556,-0.7214566,-3.536473,4.3895307,5.9408355,29.527422,-32.479824,49.389053,11.926717,1.1530861,-5.4722857,-16.689304,-31.404009,13.949305,3.5537221,23.374336,2.0977829,-9.193736
32,0.10423312336206436,2.256088972091675,78.32466888427734,0.126521384073467,-1.4089419964473369,-94.53907722193422,1.6885267,9.503552,27.295086,12.7729225,-11.192438,-3.958432,2.1944153,-7.4653955,-24.715492,9.72921,-9.502624,3.990706,-0.7497012,-3.6329515,4.3484845,6.028707,29.627464,-32.355087,49.355206,11.931533,1.1496187,-5.4547,-18.614944,-32.013588,13.174433,1.1773703,25.406982,2.0398483,-9.277219
33,0.10974424332380295,2.2516040802001953,78.32323455810547,0.12860286939117319,-1.4561351820323762,-94.62297055522639,1.7739989,9.514573,27.382702,12.775756,-11.215766,-3.9598315,2.216026,-7.461912,-24.63055,9.753857,-9.50986,3.995242,-0.80034924,-3.7167718,4.29449,6.083364,29.722769,-32.269806,49.36681,11.971865,1.1487641,-5.4928355,-20.739822,-32.63116,12.432854,-0.9313496,27.542292,1.7939222,-9.237277
34,0.11600466817617416,2.2472949028015137,78.32128143310547,0.13028976768448092,-1.5040408544320882,-94.70148997326129,1.8600516,9.524777,27.469868,12.777785,-11.241648,-3.9568667,2.2440944,-7.4583597,-24.550272,9.76988,-9.514682,4.004784,-0.8531953,-3.791457,4.224615,6.2244763,29.803686,-32.11697,49.323856,12.14165,1.1502118,-5.572725,-23.046234,-33.257915,11.713277,-2.8243728,29.757349,1.4019601,-9.08218
35,0.12408904731273651,2.2413480281829834,78.31954956054688,0.1327909970049899,-1.5525162993786326,-94.7739454460645,1.9459984,9.532824,27.552082,12.778392,-11.267148,-3.9529035,2.2759347,-7.456408,-24.475515,9.784017,-9.520187,4.015505,-0.92438686,-3.8506145,4.150241,6.295382,29.878517,-32.02998,49.344227,12.241514,1.1488506,-5.6523137,-25.52486,-33.88663,11.0546875,-4.481198,31.91474,0.9701033,-8.9127035
36,0.13144275546073914,2.2356386184692383,78.31751251220703,0.13500533683549082,-1.601541961202518,-94.83978009904412,2.0316014,9.537189,27.624763,12.775682,-11.288661,-3.9513013,2.309352,-7.4565196,-24.40726,9.801395,-9.528965,4.0232863,-0.99016595,-3.8986495,4.074946,6.3768625,29.940926,-31.936384,49.35254,12.314732,1.1461811,-5.694626,-28.121347,-34.5127,10.443578,-5.8912907,33.87551,0.59933025,-8.831271
37,0.13988424837589264,2.2289443016052246,78.3176040649414,0.13769787199947842,-1.6518078971011791,-94.90008381734572,2.1188686,9.536376,27.688084,12.76743,-11.303773,-3.952573,2.3425493,-7.460452,-24.343742,9.8274,-9.543877,4.025307,-1.0486274,-3.9336488,4.0025725,6.4606595,29.988756,-31.842514,49.353275,12.336858,1.1396458,-5.6815987,-30.866808,-35.126076,9.878745,-7.03167,35.604965,0.3033063,-8.888693
38,0.14872407913208008,2.2248854637145996,78.31684875488281,0.14132072293627598,-1.703038030776547,-94.95476674956943,2.206854,9.531966,27.743906,12.7562685,-11.315749,-3.9550703,2.3773005,-7.467026,-24.285048,9.857084,-9.562426,4.024292,-1.1048075,-3.9561644,3.9307091,6.5308146,30.022821,-31.762257,49.36443,12.319526,1.1302093,-5.6354303,-33.77692,-35.72207,9.3703165,-7.916163,37.167263,0.026642442,-9.022686
39,0.15695475041866302,2.2193431854248047,78.31672668457031,0.14440165061676077,-1.753572159248116,-95.00114932563451,2.291589,9.525865,27.79044,12.744781,-11.326517,-3.958871,2.4150188,-7.4744163,-24.234951,9.884712,-9.580702,4.0246453,-1.1619937,-3.9700387,3.8568876,6.609554,30.043238,-31.67,49.36857,12.308344,1.1226144,-5.578386,-36.81913,-36.310585,8.943261,-8.559485,38.585297,-0.23702681,-9.174003
40,0.1655055731534958,2.2112863063812256,78.31501007080078,0.14626704533813994,-1.801624659708094,-95.03658624864443,2.368006,9.520646,27.825586,12.737722,-11.339692,-3.9640362,2.4571538,-7.48076,-24.197403,9.904005,-9.594315,4.0308647,-1.226766,-3.972545,3.7841034,6.6596336,30.05375,-31.594015,49.390537,12.290959,1.1203275,-5.53268,-39.918346,-36.90104,8.6125145,-9.02326,39.872654,-0.49229535,-9.287968
41,0.1741528958082199,2.2052199840545654,78.314453125,0.14524944749178811,-1.847428304922431,-95.06127018763156,2.4381418,9.515758,27.849394,12.730445,-11.353909,-3.9728558,2.5041027,-7.485491,-24.172703,9.913197,-9.600645,4.045821,-1.3001864,-3.9650493,3.7149029,6.6958203,30.055944,-31.519085,49.417576,12.2983675,1.1266804,-5.5025516,-43.150665,-37.512344,8.384719,-9.239332,41.008152,-0.71829295,-9.36226
42,0.1819053590297699,2.197957992553711,78.31449890136719,0.14381460009255637,-1.8914170530761953,-95.07631807915763,2.5022504,9.510939,27.862398,12.7252445,-11.369854,-3.9844918,2.5555227,-7.4892745,-24.159128,9.914373,-9.6018095,4.066579,-1.3586574,-3.9421008,3.655213,6.752328,30.044003,-31.41892,49.409863,12.36071,1.1395032,-5.479399,-46.430424,-38.137955,8.217825,-9.291796,41.972385,-0.9208957,-9.429157
43,0.18990567326545715,2.1896519660949707,78.3131332397461,0.13999870494836436,-1.932673642315172,-95.08023763457913,2.5572274,9.506457,27.864803,12.72599,-11.386752,-3.9944203,2.609469,-7.4936204,-24.156862,9.91121,-9.60235,4.0888834,-1.4072475,-3.9094818,3.6050222,6.8150454,30.019464,-31.300997,49.379032,12.437396,1.1541046,-5.4593387,-49.742382,-38.779346,8.135291,-9.208084,42.892715,-1.1323915,-9.465589
44,0.197653129696846,2.181213140487671,78.31237030029297,0.13817224313796295,-1.9699629321457521,-95.07174587401556,2.5994022,9.502911,27.856554,12.737819,-11.405118,-3.998046,2.662806,-7.4998045,-24.16586,9.908762,-9.606928,4.108358,-1.4517095,-3.8688128,3.5655224,6.8408527,29.988117,-31.202341,49.356,12.456451,1.1649592,-5.4390635,-53.04636,-39.43601,8.15882,-9.037169,43.886562,-1.3866166,-9.450111
45,0.20368844270706177,2.1724133491516113,78.30923461914062,0.13698964438866715,-2.0040856071727338,-95.05237945493236,2.6278915,9.50132,27.840149,12.766391,-11.426732,-3.9917424,2.7162042,-7.508162,-24.18388,9.905797,-9.615018,4.1240406,-1.4873934,-3.8204148,3.538682,6.82945,29.95288,-31.120953,49.333344,12.407068,1.1727927,-5.419086,-56.34488,-40.106575,8.283656,-8.770392,45.002354,-1.6982135,-9.36188
46,0.20992039144039154,2.1621999740600586,78.30768585205078,0.1373874667952809,-2.035096178458695,-95.02206370280851,2.6448476,9.50072,27.814821,12.806611,-11.450287,-3.9787216,2.7705097,-7.5179877,-24.211535,9.901238,-9.625206,4.1381326,-1.503611,-3.767425,3.5226462,6.8619366,29.90789,-30.985994,49.247147,12.387203,1.181328,-5.4026766,-59.639393,-40.792,8.488237,-8.4010105,46.17545,-2.043875,-9.214501
47,0.21381299197673798,2.1543238162994385,78.30635833740234,0.1365525929497558,-2.0614889140965476,-94.9775122777446,2.650665,9.499412,27.775814,12.850054,-11.472659,-3.9647627,2.8260474,-7.528449,-24.253809,9.892544,-9.63627,4.151297,-1.5143716,-3.7107754,3.519078,6.8457317,29.860554,-30.885216,49.18207,12.320087,1.1861129,-5.385311,-62.913292,-41.48637,8.784089,-7.976517,47.354008,-2.401633,-9.039662
48,0.21670758724212646,2.1442935466766357,78.304443359375,0.1349758327768083,-2.081479720918601,-94.91519524914543,2.6435251,9.496233,27.717829,12.892811,-11.492609,-3.955569,2.8818185,-7.5395937,-24.315407,9.879816,-9.648245,4.164299,-1.5179757,-3.658148,3.5232484,6.824045,29.81,-30.78753,49.113106,12.2605505,1.1856747,-5.36637,-66.13577,-42.19108,9.165127,-7.5383635,48.48479,-2.7496905,-8.8680105
49,0.21955138444900513,2.1336631774902344,78.30318450927734,0.13139484873026122,-2.0947736128760455,-94.83282298174431,2.6237228,9.490031,27.638578,12.931256,-11.508667,-3.9541106,2.940281,-7.550865,-24.399965,9.858434,-9.659623,4.1780934,-1.5261189,-3.609446,3.5321288,6.785026,29.758121,-30.702312,49.052734,12.181308,1.1788459,-5.34389,-69.27573,-42.9104,9.624818,-7.1255527,49.566788,-3.0812304,-8.715774
50,0.22160890698432922,2.1230955123901367,78.3030014038086,0.1262121016684923,-2.1021548100723946,-94.73263954859246,2.5916982,9.4817095,27.541142,12.96912,-11.52201,-3.9568775,3.000719,-7.562344,-24.504234,9.829974,-9.670773,4.1919875,-1.5295166,-3.5647852,3.5477016,6.7330027,29.705786,-30.624582,48.99097,12.088384,1.1672351,-5.3194995,-72.374596,-43.645386,10.168555,-6.6886783,50.62724,-3.4073775,-8.563433
51,0.22354598343372345,2.1142868995666504,78.30087280273438,0.12103024827469679,-2.104085485337802,-94.61816812615793,2.5495954,9.471019,27.429276,13.005024,-11.532105,-3.959723,3.060614,-7.5749106,-24.622295,9.799736,-9.68289,4.2044997,-1.5227736,-3.5254378,3.5681968,6.659469,29.653452,-30.567913,48.942097,11.995983,1.1518612,-5.296087,-75.3985,-44.387264,10.774089,-6.2545195,51.65068,-3.7360647,-8.394142
52,0.22145049273967743,2.1024842262268066,78.30040740966797,0.11796625579702952,-2.1008079262442583,-94.49290226676993,2.5000584,9.458298,27.306412,13.037828,-11.538489,-3.9586506,3.1187212,-7.587866,-24.74869,9.7682085,-9.693884,4.21389,-1.4996313,-3.4952161,3.5895345,6.5932574,29.598528,-30.511738,48.893055,11.95419,1.1344641,-5.2769394,-78.3049,-45.12491,11.409433,-5.849175,52.617947,-4.0736375,-8.189412
53,0.21706582605838776,2.0891129970550537,78.30078887939453,0.11409199702317557,-2.090687675628276,-94.35610619234998,2.4416387,9.442696,27.171774,13.064883,-11.539312,-3.9514148,3.1731927,-7.6012845,-24.88317,9.734948,-9.702391,4.2180996,-1.4679337,-3.4763494,3.6083477,6.5221214,29.5428,-30.461819,48.8575,11.961641,1.1120516,-5.267812,-81.1119,-45.851593,12.080471,-5.452713,53.520496,-4.4200964,-7.9357147
54,0.21173594892024994,2.076382875442505,78.30226135253906,0.11027567743597781,-2.074032011608745,-94.20630003947714,2.3729172,9.42467,27.023783,13.089625,-11.53626,-3.9405687,3.2244475,-7.615767,-25.028242,9.701693,-9.710561,4.218481,-1.4362783,-3.4685273,3.6235893,6.4485116,29.487461,-30.415325,48.83365,11.999379,1.0850564,-5.2651033,-83.832634,-46.566257,12.794732,-5.0583572,54.36605,-4.770819,-7.6455135
55,0.20742961764335632,2.064368963241577,78.30442810058594,0.10805302891096018,-2.054856070405448,-94.04639183254676,2.3011653,9.403732,26.866405,13.10828,-11.528951,-3.9292023,3.2785387,-7.630259,-25.182777,9.663361,-9.717595,4.218932,-1.4031196,-3.4717598,3.6375337,6.3797107,29.432264,-30.374779,48.819424,12.050202,1.0594257,-5.256493,-86.44234,-47.264343,13.531376,-4.6918664,55.162098,-5.1248198,-7.3379393
56,0.2034236639738083,2.051133155822754,78.30580139160156,0.10586098894042363,-2.036886830732006,-93.8792414962957,2.2325485,9.379848,26.703625,13.11984,-11.518168,-3.920329,3.3406203,-7.6441483,-25.345581,9.617477,-9.724486,4.223122,-1.3684751,-3.486115,3.653888,6.2999725,29.379066,-30.362703,48.831074,12.075983,1.0407088,-5.228547,-88.91821,-47.938915,14.266897,-4.3738613,55.91483,-5.480846,-7.0315514
57,0.19506873190402985,2.0386741161346436,78.30613708496094,0.1047915997370574,-2.0217690842728793,-93.70303409027603,2.1689343,9.352171,26.534927,13.123412,-11.504046,-3.9147933,3.41374,-7.657855,-25.518496,9.562632,-9.732002,4.2321043,-1.3367376,-3.5132363,3.6748478,6.232435,29.326965,-30.360258,48.851433,12.084901,1.029573,-5.1692705,-91.25912,-48.589664,14.995704,-4.104693,56.58886,-5.8481717,-6.729809
58,0.18578551709651947,2.0238897800445557,78.30631256103516,0.1046104478510966,-2.007140563214675,-93.51721663098374,2.107173,9.321017,26.358805,13.119466,-11.486156,-3.9109542,3.4938202,-7.6717825,-25.701536,9.501528,-9.739809,4.2439156,-1.3129127,-3.552196,3.697771,6.158345,29.278189,-30.378914,48.89514,12.069442,1.0228469,-5.0879574,-93.479416,-49.2167,15.724221,-3.8728588,57.191013,-6.224405,-6.423663
59,0.1755249798297882,2.0037384033203125,78.30577850341797,0.1045491805518684,-1.9914311763595436,-93.32584769547366,2.0455847,9.287659,26.177454,13.109717,-11.464493,-3.9081786,3.5790913,-7.683678,-25.890701,9.431225,-9.744314,4.257861,-1.2910068,-3.6019006,3.7170396,6.0936685,29.231655,-30.404728,48.94986,12.055491,1.0221852,-5.005858,-95.56629,-49.81881,16.437634,-3.6769729,57.788822,-6.5911927,-6.1117387
60,0.165482297539711,1.984444260597229,78.30683898925781,0.1049593300664607,-1.9731303187033873,-93.13319852518853,1.9824862,9.253776,25.993225,13.09572,-11.439467,-3.9058921,3.6658976,-7.692489,-26.081984,9.352933,-9.744195,4.2734184,-1.2672498,-3.6616578,3.7271,6.0449224,29.1866,-30.430288,49.011803,12.060544,1.0291159,-4.94377,-97.50406,-50.393238,17.1189,-3.519061,58.449062,-6.9284773,-5.791959
61,0.15213491022586823,1.9673374891281128,78.3082275390625,0.10691645526370616,-1.9505470660522644,-92.93709130895218,1.9169023,9.217707,25.803696,13.07422,-11.408768,-3.9031618,3.7531486,-7.6988173,-26.2774,9.265599,-9.737837,4.2921243,-1.2493242,-3.7323873,3.725976,5.986247,29.146185,-30.479052,49.106255,12.054306,1.0475935,-4.9040823,-99.28997,-50.937515,17.767832,-3.3948298,59.2081,-7.236557,-5.467885
62,0.13845430314540863,1.950537919998169,78.30892181396484,0.10843938482203856,-1.9249983475826433,-92.73644965519193,1.8498522,9.178991,25.608753,13.045393,-11.373019,-3.9005702,3.8438718,-7.7024765,-26.478186,9.16693,-9.725634,4.3138027,-1.2387286,-3.8138366,3.7154055,5.9517074,29.108137,-30.521446,49.204227,12.060879,1.076003,-4.877798,-100.93357,-51.455246,18.38798,-3.2986038,60.021645,-7.5229187,-5.138736
63,0.12332388758659363,1.929210901260376,78.31128692626953,0.10934554538535182,-1.899068144506238,-92.53677774752902,1.783151,9.141543,25.413788,13.016565,-11.33672,-3.8996203,3.9349947,-7.7036643,-26.67852,9.066696,-9.712784,4.335023,-1.2313792,-3.9008873,3.7008414,5.912999,29.074059,-30.579872,49.321426,12.062642,1.1049823,-4.864175,-102.44492,-51.94623,18.970613,-3.2319403,60.835953,-7.7772894,-4.79636
64,0.10625281929969788,1.9077069759368896,78.31234741210938,0.1105660898899607,-1.8752983309701798,-92.34356771230522,1.7199697,9.10805,25.224747,12.991135,-11.302727,-3.9019024,4.024179,-7.702482,-26.872746,8.972977,-9.704026,4.352631,-1.2194172,-3.9902053,3.685364,5.8903003,29.041866,-30.63436,49.434734,12.08725,1.1263322,-4.863986,-103.82997,-52.412838,19.506662,-3.196662,61.59643,-7.9897985,-4.432954
65,0.09125140309333801,1.8869975805282593,78.31330871582031,0.10871833043346846,-1.854240488293458,-92.15572989974984,1.6596638,9.079425,25.039858,12.971089,-11.271388,-3.909504,4.1123447,-7.6982846,-27.062218,8.886093,-9.700828,4.3649864,-1.2036752,-4.081389,3.6697826,5.8821416,29.010622,-30.68598,49.547306,12.141117,1.1375469,-4.8811326,-105.086754,-52.857197,19.98944,-3.187787,62.286713,-8.144152,-4.037703
66,0.07454416900873184,1.8659534454345703,78.3148193359375,0.10701985138211062,-1.8344584300486961,-91.97106315918894,1.6011592,9.053994,24.857298,12.953886,-11.241414,-3.9210393,4.199048,-7.6920476,-27.248703,8.805235,-9.702071,4.374095,-1.1872029,-4.1750727,3.6526108,5.890318,28.979706,-30.73377,49.659878,12.219306,1.1431782,-4.914212,-106.21176,-53.28207,20.419945,-3.203432,62.934925,-8.249873,-3.6194515
67,0.05588305741548538,1.8465148210525513,78.31639862060547,0.10292694164210396,-1.8159925807742012,-91.7938643875751,1.5449064,9.031806,24.681528,12.940817,-11.214606,-3.9327137,4.2837877,-7.6836996,-27.427998,8.727301,-9.70402,4.381943,-1.1677932,-4.2694764,3.634948,5.90389,28.950403,-30.785355,49.775143,12.300266,1.1448697,-4.9548545,-107.21601,-53.688442,20.808664,-3.249318,63.555126,-8.336114,-3.1993892
68,0.037250276654958725,1.8262898921966553,78.31607055664062,0.09989592758405202,-1.7988643892994494,-91.62831771844357,1.4900419,9.013859,24.517023,12.9360075,-11.193846,-3.940876,4.363553,-7.6746206,-27.595255,8.654044,-9.704529,4.390406,-1.1425788,-4.3619184,3.6175954,5.925432,28.92308,-30.837145,49.88431,12.374051,1.1445047,-4.9952335,-108.10961,-54.076614,21.163637,-3.3291438,64.16176,-8.432725,-2.7981267
69,0.021933354437351227,1.8040987253189087,78.3160629272461,0.0972102260067157,-1.7824474922116482,-91.47381567072729,1.4346814,9.000042,24.363352,12.94143,-11.180332,-3.9428926,4.4375286,-7.6649847,-27.750364,8.586117,-9.703417,4.4007525,-1.1121203,-4.4523454,3.5994246,5.9649787,28.897203,-30.883038,49.98063,12.45315,1.1402037,-5.037954,-108.88753,-54.44681,21.483643,-3.4435701,64.77761,-8.552829,-2.4116068
70,0.0052912887185812,1.7839405536651611,78.31613159179688,0.09367226510007617,-1.7669002978442885,-91.32871052825851,1.3798879,8.99,24.218626,12.954272,-11.171994,-3.9412935,4.506662,-7.654771,-27.895296,8.523721,-9.7019825,4.4116983,-1.0785465,-4.5406747,3.581281,6.013016,28.873158,-30.931265,50.07342,12.531725,1.1314765,-5.0856075,-109.54974,-54.799587,21.764666,-3.5861578,65.38868,-8.679262,-2.0318537
71,-0.012192830443382263,1.764782190322876,78.31546020507812,0.08970210245957096,-1.7535914318571841,-91.19560849680678,1.3301951,8.983368,24.085379,12.969771,-11.16713,-3.9399245,4.5730586,-7.642802,-28.028908,8.464458,-9.70054,4.4212503,-1.0383701,-4.625694,3.5652535,6.071909,28.850307,-30.97369,50.15504,12.601921,1.1232591,-5.131263,-110.1134,-55.136826,22.01461,-3.752165,65.95352,-8.79767,-1.6740088
72,-0.030529644340276718,1.7483714818954468,78.31562805175781,0.08486950400496114,-1.7439742784617682,-91.0772323857855,1.2911376,8.9792185,23.966547,12.981649,-11.163443,-3.942592,4.6388736,-7.6285014,-28.14986,8.406547,-9.69966,4.4274898,-0.9888383,-4.7060213,3.554222,6.1319118,28.828932,-31.01303,50.227287,12.644665,1.1201375,-5.167494,-110.599815,-55.459724,22.245892,-3.9355416,66.43086,-8.894656,-1.3533875
73,-0.04469335451722145,1.7318745851516724,78.31656646728516,0.07811329066469838,-1.7396709547369187,-90.97558568488037,1.2689544,8.977422,23.86477,12.982385,-11.159275,-3.9530208,4.705728,-7.6113744,-28.257177,8.351525,-9.701819,4.4288306,-0.9268213,-4.7802057,3.5494578,6.195995,28.80794,-31.046875,50.28619,12.648276,1.1256505,-5.1896415,-111.00734,-55.769936,22.461222,-4.135262,66.79712,-8.968641,-1.0860251
74,-0.05834152176976204,1.7129037380218506,78.31694030761719,0.07045796724342919,-1.7394757873281992,-90.88865748676173,1.258819,8.978896,23.7778,12.978403,-11.156718,-3.968345,4.772167,-7.591678,-28.35172,8.299189,-9.705556,4.4266534,-0.8529548,-4.8484926,3.5493922,6.27502,28.785637,-31.06793,50.32585,12.633918,1.1367702,-5.2026744,-111.3297,-56.068756,22.657228,-4.3525825,67.07853,-9.028188,-0.8608659
75,-0.07019604742527008,1.6919136047363281,78.31634521484375,0.06329350903850424,-1.7405452354795397,-90.81364980279034,1.2506882,8.982994,23.701149,12.97947,-11.156526,-3.982226,4.8348236,-7.5709977,-28.43477,8.248507,-9.708028,4.423448,-0.77116644,-4.911849,3.553088,6.3520536,28.763454,-31.088789,50.3601,12.612582,1.147719,-5.2137766,-111.579384,-56.354843,22.831696,-4.580589,67.3086,-9.075899,-0.65221447
76,-0.08330956846475601,1.675722360610962,78.31476593017578,0.05706996180742328,-1.7402133474322758,-90.7474759168945,1.2350882,8.988859,23.629944,12.994698,-11.15916,-3.9884129,4.889586,-7.551714,-28.50732,8.199226,-9.706497,4.4218097,-0.6849002,-4.971158,3.5597646,6.419095,28.743498,-31.1148,50.3944,12.602741,1.1528723,-5.2306304,-111.77089,-56.625896,22.98403,-4.814535,67.520874,-9.113732,-0.4350727
77,-0.0940355584025383,1.6625512838363647,78.31536865234375,0.05208961689097802,-1.7387097913019578,-90.69096673543397,1.208977,8.9966545,23.56277,13.031186,-11.16574,-3.984365,4.9367814,-7.534343,-28.568058,8.149878,-9.6994705,4.4241214,-0.5925369,-5.026375,3.56862,6.4893613,28.725687,-31.137089,50.41628,12.624364,1.147678,-5.2584634,-111.89697,-56.880287,23.111042,-5.0541415,67.7299,-9.146186,-0.20445739
78,-0.1050969809293747,1.6517175436019897,78.31348419189453,0.05091109267834685,-1.7371929357417282,-90.64514223432144,1.1780323,9.006626,23.502115,13.081509,-11.175141,-3.9736707,4.9777794,-7.5179377,-28.617077,8.1021,-9.68924,4.428301,-0.49569604,-5.076811,3.5808911,6.5469704,28.711874,-31.169914,50.43933,12.645874,1.1357183,-5.2916923,-111.95551,-57.116547,23.213816,-5.301498,67.91537,-9.170709,0.026452858
79,-0.11412103474140167,1.6403347253799438,78.31426239013672,0.04815215287725257,-1.7339723961775884,-90.60747557370247,1.1430604,9.019196,23.449375,13.138569,-11.187105,-3.9594865,5.0108967,-7.5015187,-28.657125,8.057674,-9.67739,4.4306464,-0.39690015,-5.122258,3.5964022,6.613787,28.700132,-31.188616,50.44704,12.677912,1.1253917,-5.3247013,-111.965836,-57.336903,23.29821,-5.5454526,68.057144,-9.180095,0.25660682
80,-0.12434573471546173,1.6334468126296997,78.31463623046875,0.04419826839851777,-1.7274168550463191,-90.57546033232308,1.1053193,9.034481,23.405766,13.193514,-11.200251,-3.9448826,5.0337934,-7.484291,-28.691353,8.021532,-9.667904,4.4272923,-0.30045447,-5.161964,3.615991,6.6835933,28.69023,-31.192724,50.446663,12.705728,1.1243383,-5.350816,-111.948555,-57.542934,23.370024,-5.7743387,68.13598,-9.167292,0.484856
81,-0.13343176245689392,1.626276969909668,78.31476593017578,0.03596593774364528,-1.7167920586044243,-90.55060589836307,1.0641389,9.05542,23.374449,13.24937,-11.21774,-3.929265,5.0440545,-7.465404,-28.717207,7.9962635,-9.661238,4.415279,-0.20510355,-5.1946235,3.6392267,6.748007,28.682636,-31.188105,50.442184,12.718702,1.1400442,-5.3662977,-111.90487,-57.736153,23.434387,-5.9908333,68.136566,-9.122387,0.7277326
82,-0.14065708220005035,1.6222331523895264,78.31329345703125,0.02566400622160064,-1.7032268661078285,-90.53353677974701,1.0190756,9.080827,23.353708,13.308445,-11.238741,-3.9114285,5.0434027,-7.4455147,-28.73437,7.980319,-9.657016,4.3972664,-0.10723658,-5.2203703,3.665831,6.8231893,28.675684,-31.163853,50.42056,12.738443,1.1667349,-5.3757486,-111.825096,-57.917747,23.48753,-6.1972713,68.07296,-9.053004,0.9800426
83,-0.14652499556541443,1.6214585304260254,78.31324005126953,0.015364801076289587,-1.6872095549088983,-90.52032909552935,0.9715406,9.105759,23.33772,13.364681,-11.258006,-3.8936718,5.0353794,-7.4267,-28.748306,7.9679565,-9.652375,4.377956,-0.0121494355,-5.241765,3.6980674,6.883967,28.671268,-31.143223,50.40659,12.744483,1.1914208,-5.3831706,-111.717415,-58.08513,23.5257,-6.389625,67.97036,-8.977335,1.2079098
84,-0.15196117758750916,1.6233940124511719,78.31429290771484,0.006536098102941468,-1.6689774568137676,-90.50696199322083,0.9226119,9.125995,23.320536,13.412636,-11.271045,-3.8783767,5.0246296,-7.4100513,-28.764927,7.951419,-9.643836,4.361744,0.07763121,-5.2602034,3.7370653,6.943035,28.668468,-31.116646,50.394115,12.751769,1.2019355,-5.3939743,-111.58981,-58.23624,23.545456,-6.559804,67.85325,-8.91357,1.3772941
85,-0.1572551131248474,1.6263214349746704,78.31381225585938,0.0017647161027102007,-1.6501493724180971,-90.49338086758499,0.8750619,9.139045,23.30218,13.44901,-11.27612,-3.865906,5.0110254,-7.3985586,-28.785927,7.936298,-9.635774,4.3504667,0.15749209,-5.2756,3.7838874,6.9893303,28.668324,-31.09221,50.395542,12.738556,1.1884929,-5.415151,-111.442894,-58.362816,23.547148,-6.713369,67.71062,-8.857764,1.4741518
86,-0.1604091078042984,1.63283371925354,78.31460571289062,-0.001366851320796707,-1.630002733686291,-90.48136552451012,0.82694817,9.148422,23.285124,13.479291,-11.277331,-3.8551447,4.9938083,-7.3895855,-28.808393,7.9210577,-9.62654,4.341402,0.23153569,-5.287423,3.8374693,7.027931,28.670652,-31.065338,50.40323,12.713082,1.1601048,-5.442267,-111.273125,-58.470474,23.534119,-6.8532605,67.53606,-8.803084,1.5182624
87,-0.1625877171754837,1.6440130472183228,78.31547546386719,-0.00453651281543343,-1.6058094095873612,-90.46979513990931,0.77455646,9.1549225,23.268217,13.503241,-11.272694,-3.8459358,4.9693227,-7.3820596,-28.830055,7.904914,-9.613425,4.3330126,0.29425985,-5.2927003,3.8955095,7.06993,28.673477,-31.030462,50.40601,12.695521,1.1308129,-5.4624753,-111.10217,-58.545776,23.513021,-6.945708,67.35192,-8.762153,1.5272534
88,-0.1629779040813446,1.6564842462539673,78.31608581542969,-0.007227254228836167,-1.5752052511001742,-90.45755661673137,0.7137145,9.160346,23.249912,13.522146,-11.261826,-3.8383117,4.937736,-7.3720646,-28.84892,7.8784437,-9.589219,4.323602,0.34531128,-5.2891498,3.957738,7.095926,28.67664,-31.008781,50.415318,12.685057,1.1143275,-5.4619927,-110.9463,-58.5894,23.489553,-6.9720445,67.18621,-8.748524,1.5176251
89,-0.16412799060344696,1.6716532707214355,78.31897735595703,-0.011283212212405878,-1.5370498580037752,-90.44491036952073,0.6438662,9.164393,23.22973,13.534911,-11.244165,-3.835219,4.8978925,-7.3586864,-28.863134,7.8398232,-9.551803,4.3134604,0.39413768,-5.2808046,4.024658,7.1033607,28.681568,-31.0039,50.43112,12.703454,1.1153455,-5.4309173,-110.775276,-58.624268,23.443436,-6.9537263,67.05245,-8.770199,1.4977901
90,-0.16500888764858246,1.6923271417617798,78.3218002319336,-0.015416650278459083,-1.4928671827308022,-90.43223749925214,0.5685019,9.16565,23.208673,13.538478,-11.218787,-3.835632,4.85422,-7.3420362,-28.874674,7.7837687,-9.501212,4.3033695,0.44146666,-5.2684855,4.0959764,7.093929,28.688477,-31.014053,50.45455,12.739174,1.1262013,-5.378217,-110.584656,-58.648952,23.374384,-6.8974104,66.93518,-8.8182535,1.4575008
91,-0.16522440314292908,1.7146142721176147,78.3249282836914,-0.019841310668025414,-1.4439294832120302,-90.41872448626484,0.48510706,9.166074,23.187355,13.540138,-11.1885605,-3.833677,4.8013644,-7.326465,-28.885733,7.729302,-9.446094,4.291998,0.48325026,-5.2538366,4.172846,7.072058,28.697134,-31.029074,50.482323,12.773553,1.1433275,-5.3196,-110.38609,-58.664246,23.286634,-6.794294,66.82942,-8.880738,1.3843267
92,-0.16483262181282043,1.739660620689392,78.32836151123047,-0.022865805280547446,-1.3915226996188812,-90.40347495172111,0.39467597,9.1648655,23.167059,13.539801,-11.15303,-3.8231244,4.738777,-7.315033,-28.899103,7.6839147,-9.394117,4.2784157,0.5180871,-5.2359815,4.259818,7.0448947,28.70546,-31.036327,50.505547,12.7918215,1.1629232,-5.2717338,-110.21485,-58.67077,23.203512,-6.6240935,66.73339,-8.948182,1.2653537
93,-0.16429731249809265,1.7696765661239624,78.33296966552734,-0.023157359356091287,-1.3353613321470388,-90.38612610672826,0.29571804,9.163122,23.148966,13.540707,-11.112953,-3.7996604,4.6715984,-7.304961,-28.916155,7.6359715,-9.339177,4.261565,0.54160064,-5.220653,4.3501606,7.0139976,28.71496,-31.033672,50.532238,12.785798,1.1900969,-5.2409496,-110.02558,-58.672783,23.091896,-6.4131155,66.645256,-9.01442,1.0983326
94,-0.16458287835121155,1.8058233261108398,78.33760070800781,-0.02305462518316833,-1.275230480273289,-90.36730492504019,0.1893442,9.160466,23.132421,13.539884,-11.067409,-3.7675154,4.5991583,-7.2954893,-28.93516,7.5841556,-9.279687,4.242234,0.55623907,-5.205618,4.450425,6.9672875,28.726757,-31.03102,50.565388,12.759865,1.2247188,-5.217599,-109.84425,-58.669342,22.966219,-6.1468887,66.571915,-9.0851145,0.8916006
95,-0.16475465893745422,1.8426302671432495,78.34332275390625,-0.022013189703955393,-1.2114995151422152,-90.34699723197453,0.07720992,9.1551075,23.114782,13.53373,-11.015765,-3.7332258,4.518322,-7.2885075,-28.95569,7.5361314,-9.219645,4.2219653,0.5656837,-5.1892743,4.557028,6.9219356,28.739986,-31.019394,50.589096,12.734828,1.2556272,-5.1940827,-109.65273,-58.660877,22.82044,-5.8356233,66.50077,-9.166936,0.6416645
96,-0.16366618871688843,1.8797497749328613,78.34703063964844,-0.02039436958178798,-1.1447600160037346,-90.32532806900971,-0.039020453,9.145126,23.093447,13.519241,-10.958227,-3.7033885,4.4294395,-7.2839847,-28.977417,7.490785,-9.158128,4.2023168,0.56470716,-5.1751733,4.672506,6.8782578,28.761086,-30.996859,50.599247,12.7120495,1.2711531,-5.1619473,-109.43755,-58.64338,22.635807,-5.488483,66.42238,-9.2606945,0.3498131
97,-0.1597185879945755,1.9224435091018677,78.35228729248047,-0.017811946836340006,-1.0764804700608137,-90.300136016472,-0.15677075,9.128125,23.064587,13.492166,-10.893226,-3.6815717,4.336273,-7.2817726,-29.003187,7.444886,-9.09466,4.1850276,0.5720764,-5.146436,4.802437,6.8197293,28.779001,-30.986572,50.598896,12.701715,1.2623786,-5.1168966,-109.272934,-58.622322,22.489307,-5.058167,66.354294,-9.377195,0.0033520206
98,-0.15911376476287842,1.9731405973434448,78.35678100585938,-0.01276124303748762,-1.0057800570528472,-90.2720894416594,-0.27738735,9.105539,23.03081,13.454939,-10.821252,-3.663589,4.2381516,-7.2817564,-29.032282,7.398266,-9.028938,4.1688623,0.5734284,-5.1152153,4.940893,6.7552667,28.799744,-30.975336,50.59224,12.695612,1.2377505,-5.062505,-109.10333,-58.590794,22.324753,-4.577502,66.28843,-9.50574,-0.39014286
99,-0.1556769758462906,2.0289528369903564,78.3624267578125,-0.010015282673236365,-0.9307781364900342,-90.24553996560694,-0.40612778,9.0828285,22.998491,13.417197,-10.745958,-3.6447177,4.127751,-7.283463,-29.059015,7.358229,-8.962184,4.1506314,0.5817012,-5.0713534,5.092409,6.679222,28.813837,-30.964626,50.575253,12.681099,1.2089126,-5.010496,-108.9816,-58.564663,22.196404,-4.0283537,66.21406,-9.656747,-0.8253682
100,-0.15204918384552002,2.0858042240142822,78.3692398071289,-0.008720090816726766,-0.8492542113239407,-90.22494649758356,-0.5478083,9.064868,22.974302,13.387319,-10.670195,-3.6201558,3.99815,-7.286488,-29.077679,7.3311253,-8.895728,4.1270957,0.58404034,-5.0260744,5.2504516,6.6199274,28.826645,-30.92274,50.532482,12.652159,1.1889488,-4.9694457,-108.86153,-58.537006,22.05802,-3.4421756,66.10118,-9.825369,-1.286166
101,-0.14835967123508453,2.14829158782959,78.37506866455078,-0.008178105731022569,-0.7598226471842023,-90.21168823922325,-0.705025,9.054321,22.960995,13.368233,-10.594935,-3.5886679,3.8474274,-7.289157,-29.086199,7.316077,-8.827886,4.0965385,0.5785341,-4.9779987,5.4184523,6.572426,28.83812,-30.843296,50.46223,12.591671,1.1814072,-4.9447193,-108.75237,-58.510868,21.916552,-2.8139,65.93574,-10.02893,-1.7874545
102,-0.14327119290828705,2.2156577110290527,78.38153839111328,-0.010416118709276704,-0.6639893030570859,-90.20341246139975,-0.8758227,9.048262,22.954548,13.357264,-10.519285,-3.5527768,3.6796196,-7.292293,-29.087732,7.3100114,-8.758351,4.061001,0.5858198,-4.9179845,5.5981493,6.5187044,28.841858,-30.755589,50.374287,12.510544,1.1793197,-4.930768,-108.69411,-58.499817,21.819487,-2.1175277,65.739365,-10.266997,-2.3334887
103,-0.13636980950832367,2.288635730743408,78.38809204101562,-0.011614691483993494,-0.5638081048335983,-90.19860428831615,-1.05495,9.043504,22.951786,13.348448,-10.44153,-3.513424,3.4977407,-7.2976966,-29.085197,7.3138394,-8.689166,4.022816,0.5813701,-4.8576245,5.788098,6.4824333,28.842928,-30.635647,50.26409,12.439732,1.1792493,-4.9216166,-108.61896,-58.491673,21.691414,-1.4079609,65.53108,-10.499652,-2.8927052
104,-0.1278717815876007,2.3637943267822266,78.39509582519531,-0.013842924595642896,-0.4617523652887059,-90.19630591058858,-1.2385008,9.037076,22.949661,13.338663,-10.361174,-3.47161,3.3073232,-7.305591,-29.081629,7.3229346,-8.619748,3.9841647,0.5944937,-4.782613,5.987417,6.4220886,28.840406,-30.55784,50.159664,12.367222,1.176631,-4.911599,-108.60272,-58.492188,21.610132,-0.64309067,65.340836,-10.703107,-3.440174
105,-0.11935967206954956,2.4424164295196533,78.40113067626953,-0.013185185186292988,-0.36168634219061424,-90.195628825169,-1.4216688,9.02732,22.946947,13.326814,-10.2778,-3.4253738,3.1109614,-7.319055,-29.07821,7.3437166,-8.554874,3.945339,0.6004553,-4.7021165,6.1998115,6.3763237,28.835018,-30.47135,50.035473,12.33184,1.1704705,-4.902563,-108.57971,-58.49612,21.509771,0.13179585,65.17018,-10.863482,-3.9761548
106,-0.11118213832378387,2.528052568435669,78.4065170288086,-0.011481240559691536,-0.26119227391353184,-90.19810694639085,-1.6076038,9.016446,22.946177,13.314163,-10.191516,-3.3750927,2.9051704,-7.336489,-29.072525,7.3748093,-8.492027,3.9050725,0.5961768,-4.6238794,6.425106,6.3389215,28.825098,-30.363728,49.901,12.322739,1.1625272,-4.89535,-108.52919,-58.506203,21.362455,0.91133386,65.0059,-10.992581,-4.507162
107,-0.10289090126752853,2.6145708560943604,78.41168975830078,-0.01163164696167667,-0.15334876647613252,-90.20298554049154,-1.8048761,9.00567,22.946802,13.301649,-10.102373,-3.3246007,2.685893,-7.354259,-29.064444,7.4079876,-8.425942,3.8643372,0.6034651,-4.532606,6.653249,6.290459,28.816204,-30.287745,49.7635,12.297532,1.155792,-4.885793,-108.52985,-58.518024,21.258123,1.7385596,64.849525,-11.108559,-5.0279217
108,-0.0909053385257721,2.705353260040283,78.41925811767578,-0.012392919010116207,-0.03151994728244943,-90.20921815275726,-2.0213048,8.996294,22.94809,13.288226,-10.009541,-3.2777343,2.4482615,-7.3691754,-29.054049,7.4363832,-8.350958,3.8239627,0.6020877,-4.437531,6.876528,6.252664,28.803894,-30.204752,49.623955,12.2672415,1.1519227,-4.8693566,-108.50526,-58.536377,21.135536,2.540667,64.70408,-11.217055,-5.5309224
109,-0.08063921332359314,2.8035781383514404,78.4244155883789,-0.01636793784975542,0.1068343889726201,-90.21852920649805,-2.2585104,8.988977,22.950846,13.271181,-9.912321,-3.2373748,2.1882598,-7.379542,-29.038298,7.459751,-8.26521,3.7844863,0.6014989,-4.336003,7.094161,6.210713,28.790602,-30.13635,49.489586,12.212251,1.1560265,-4.8405786,-108.490295,-58.559315,21.020689,3.350778,64.565506,-11.317291,-6.0090833
110,-0.07089616358280182,2.9052577018737793,78.43028259277344,-0.020956717520064342,0.2575606066513334,-90.23065023634977,-2.5125332,8.983308,22.954979,13.251934,-9.811275,-3.2008457,1.910946,-7.386652,-29.018635,7.4778657,-8.16977,3.7453754,0.60153604,-4.2375546,7.3107696,6.1514144,28.765846,-30.07414,49.379444,12.153331,1.1655897,-4.80025,-108.409584,-58.61466,20.845964,4.1185384,64.44117,-11.399996,-6.4662757
111,-0.05956660211086273,3.0077462196350098,78.43685150146484,-0.02537015008649351,0.41839272833785174,-90.24279515195593,-2.781389,8.977118,22.959631,13.233477,-9.706627,-3.1638143,1.6182457,-7.3950267,-28.999336,7.498363,-8.071942,3.7060318,0.6100997,-4.1284785,7.5251665,6.0865254,28.743425,-30.03938,49.268333,12.07707,1.1720761,-4.759709,-108.3566,-58.677975,20.705214,4.8957143,64.33417,-11.480718,-6.911662
112,-0.046072885394096375,3.1130146980285645,78.44313049316406,-0.028007807250686172,0.5871306162990593,-90.25222214942175,-3.0634665,8.968602,22.964392,13.218562,-9.597767,-3.1218817,1.3127232,-7.409026,-28.984913,7.526868,-7.977645,3.6659083,0.613079,-4.0123444,7.7377734,6.0360565,28.724295,-30.008102,49.14517,11.998208,1.1671484,-4.7272477,-108.31824,-58.737324,20.584742,5.6586103,64.249275,-11.563715,-7.3487067
113,-0.03477180376648903,3.2214348316192627,78.44743347167969,-0.0276563320605108,0.7631680590383705,-90.25910892355654,-3.358895,8.957872,22.971624,13.208839,-9.4841795,-3.0721524,0.99547523,-7.4295883,-28.976276,7.5613947,-7.885558,3.6253524,0.61518013,-3.8944614,7.9505105,5.9856763,28.702875,-29.984972,49.024628,11.918009,1.1445043,-4.7019863,-108.248344,-58.814777,20.446568,6.371304,64.1979,-11.649331,-7.7781124
114,-0.019718192517757416,3.3327229022979736,78.45325469970703,-0.025425174141284205,0.9477514607717832,-90.26462966496454,-3.6726313,8.947856,22.980104,13.211793,-9.371053,-3.017726,0.6512274,-7.462386,-28.969316,7.6328,-7.8094397,3.5848331,0.6127123,-3.770666,8.162916,5.9410625,28.684593,-29.970547,48.898006,11.827363,1.1099433,-4.681652,-108.180626,-58.89364,20.315025,7.0661774,64.170235,-11.736372,-8.197977
115,-0.004367233254015446,3.447779655456543,78.45777893066406,-0.022729870808367136,1.1409303374943882,-90.26743179483933,-3.995184,8.934213,22.986134,13.206438,-9.249916,-2.9629712,0.3047683,-7.49283,-28.966555,7.684334,-7.7228527,3.5431573,0.60720676,-3.6462379,8.370177,5.898296,28.668095,-29.966019,48.777233,11.734881,1.0734279,-4.6648927,-108.0952,-58.980278,20.176193,7.730087,64.15727,-11.817344,-8.60452
116,0.00885735359042883,3.5616657733917236,78.46168518066406,-0.018602920971189454,1.3430783045244226,-90.26638535935213,-4.3239174,8.915534,22.985344,13.187368,-9.120911,-2.912222,-0.049775027,-7.522943,-28.96628,7.730259,-7.6313214,3.4993927,0.5922076,-3.5213654,8.566935,5.870964,28.655203,-29.962122,48.657726,11.649102,1.0451756,-4.6520514,-108.01135,-59.056686,20.046963,8.378459,64.14382,-11.887533,-8.99436
117,0.01936269737780094,3.6776905059814453,78.46759796142578,-0.013304956723218228,1.555604296842951,-90.26139362773834,-4.6586113,8.889606,22.975218,13.149078,-8.981352,-2.8665113,-0.4144414,-7.5531764,-28.968302,7.7708178,-7.533741,3.4522696,0.5742881,-3.402822,8.751336,5.84523,28.642506,-29.967354,48.557426,11.563305,1.0296377,-4.6369996,-107.88896,-59.146503,19.899796,8.984017,64.1474,-11.9435005,-9.366817
118,0.029440369457006454,3.79142689704895,78.47315216064453,-0.006401001731505413,1.777750632864328,-90.2530357688521,-5.0017962,8.858218,22.958654,13.09946,-8.834347,-2.8235495,-0.79060405,-7.5850034,-28.972643,7.8107476,-7.433203,3.4025567,0.5535207,-3.28704,8.926355,5.82142,28.631613,-29.983442,48.469563,11.4742775,1.0208199,-4.62186,-107.74316,-59.244976,19.745356,9.556269,64.16819,-11.989576,-9.723609
119,0.042041003704071045,3.910703182220459,78.4770278930664,0.0004861639461126177,2.0066747078056446,-90.24083125095194,-5.349255,8.823835,22.939024,13.037936,-8.6794405,-2.782708,-1.169376,-7.614665,-28.980556,7.839882,-7.32694,3.3524687,0.532077,-3.1708593,9.09457,5.8001456,28.623316,-30.008862,48.38905,11.402461,1.0135347,-4.6155844,-107.57563,-59.350063,19.576828,10.094718,64.178986,-12.0240135,-10.063634
120,0.05475754290819168,4.028830051422119,78.48160552978516,0.006644602245737616,2.2395557072492545,-90.22425142932846,-5.6994004,8.790078,22.919695,12.9700575,-8.519712,-2.7433248,-1.5451102,-7.640406,-28.99283,7.8561583,-7.216816,3.3040533,0.51100004,-3.05224,9.258015,5.779774,28.619154,-30.04385,48.31311,11.365685,1.0027592,-4.6264434,-107.3849,-59.458187,19.384726,10.596719,64.151825,-12.044103,-10.3860445
121,0.06128617003560066,4.14562463760376,78.48555755615234,0.011801138871715485,2.4790727442120546,-90.20257569121597,-6.0559464,8.757419,22.900196,12.89482,-8.352172,-2.7074401,-1.9191345,-7.6606083,-29.009974,7.8547096,-7.100851,3.2578497,0.48656082,-2.928743,9.41528,5.7667413,28.620785,-30.084967,48.23389,11.3882475,0.9830375,-4.6675143,-107.176865,-59.562237,19.16656,11.062598,64.06839,-12.045788,-10.690401
122,0.07100769132375717,4.260599613189697,78.48796844482422,0.016541510691002227,2.725555365827809,-90.17630665248446,-6.4190426,8.724634,22.879135,12.812212,-8.177581,-2.6747522,-2.2946746,-7.677534,-29.031397,7.8416896,-6.981019,3.2127264,0.45658696,-2.8032851,9.565796,5.761199,28.629004,-30.13153,48.15411,11.452143,0.95845276,-4.730667,-106.949486,-59.661762,18.925083,11.494051,63.945934,-12.030718,-10.977028
123,0.07795604318380356,4.379343032836914,78.48975372314453,0.020746456036985335,2.972321176146253,-90.14655065661731,-6.777807,8.690828,22.858376,12.718676,-7.9988656,-2.6411178,-2.6633885,-7.691137,-29.05683,7.8158574,-6.8560233,3.1682744,0.42303544,-2.6784143,9.713095,5.7626753,28.64252,-30.17992,48.077854,11.517788,0.9379004,-4.7935977,-106.70036,-59.75694,18.665846,11.89885,63.80805,-12.00656,-11.245701
124,0.08481858670711517,4.491628646850586,78.4919662475586,0.024162633535525797,3.212622400226106,-90.11445878010156,-7.123839,8.656088,22.839832,12.616197,-7.821695,-2.6023855,-3.0164077,-7.700972,-29.086216,7.776252,-6.725445,3.1239815,0.38815004,-2.5563567,9.860471,5.769572,28.65883,-30.226519,48.010826,11.546319,0.93038017,-4.8338866,-106.428314,-59.848232,18.396318,12.285915,63.67885,-11.981107,-11.496271
125,0.09206639975309372,4.6054511070251465,78.49327087402344,0.026483789540885056,3.4460814518072085,-90.0780157581335,-7.455647,8.6197815,22.825394,12.501331,-7.646294,-2.5518208,-3.3530533,-7.7076,-29.122799,7.723354,-6.5887823,3.0794892,0.35032564,-2.4360356,10.008081,5.7789345,28.675789,-30.275444,47.95781,11.519646,0.94247663,-4.8391457,-106.13263,-59.935406,18.118635,12.654171,63.56007,-11.954391,-11.726084
126,0.0992683693766594,4.717288970947266,78.4955062866211,0.027975451379428615,3.675837536703198,-90.03744548513151,-7.7784624,8.582257,22.813618,12.376622,-7.4713693,-2.4934285,-3.6775296,-7.7109995,-29.165592,7.657583,-6.4463863,3.0350473,0.30864373,-2.3145556,10.15429,5.789879,28.692093,-30.328665,47.918076,11.460084,0.9677622,-4.823229,-105.82448,-60.014706,17.838129,13.007141,63.44059,-11.92389,-11.936356
127,0.10788841545581818,4.828521728515625,78.49778747558594,0.029076413980109055,3.90061688509181,-89.99701889800245,-8.089595,8.543922,22.801624,12.242531,-7.2942634,-2.4391363,-3.990604,-7.710645,-29.208275,7.5811825,-6.3008313,2.9912007,0.2697768,-2.196877,10.299023,5.8021617,28.709005,-30.379734,47.890076,11.392107,0.9962984,-4.8023734,-105.488945,-60.093586,17.540722,13.338054,63.32511,-11.891119,-12.132004
128,0.11461848765611649,4.935503005981445,78.49967193603516,0.029956889235083915,4.1192667767422755,-89.96111570640747,-8.387758,8.505783,22.786423,12.102687,-7.114362,-2.4009657,-4.2936025,-7.7061014,-29.244484,7.4968605,-6.1541696,2.948472,0.23738913,-2.0821106,10.443357,5.8131666,28.726732,-30.426315,47.872463,11.332645,1.0176088,-4.793579,-105.149124,-60.16832,17.24514,13.663737,63.218403,-11.860574,-12.3192835
129,0.11777368932962418,5.039273738861084,78.5015640258789,0.030689716483133147,4.333340669217469,-89.93082227703913,-8.671494,8.46565,22.765314,11.95053,-6.9268794,-2.3891768,-4.5867586,-7.695566,-29.272144,7.399223,-6.004056,2.9072587,0.21290992,-1.969689,10.586293,5.824586,28.745352,-30.465302,47.86546,11.281051,1.0279243,-4.8019176,-104.80751,-60.23904,16.948315,13.984037,63.117657,-11.828501,-12.497009
130,0.12244375050067902,5.14319372177124,78.5032730102539,0.03117010450182471,4.542799606541049,-89.90387295353428,-8.941763,8.423595,22.740314,11.786254,-6.7335377,-2.394967,-4.869011,-7.679855,-29.294987,7.287511,-5.8493834,2.8672347,0.19375919,-1.8595185,10.72803,5.8378096,28.764835,-30.498234,47.868282,11.229828,1.0332317,-4.818404,-104.46056,-60.305637,16.649378,14.296037,63.02177,-11.794861,-12.662898
131,0.12367197871208191,5.245007514953613,78.50152587890625,0.03119131592587064,4.743951853627999,-89.87956892853141,-9.202376,8.384821,22.715685,11.628142,-6.545667,-2.4018428,-5.1415696,-7.662444,-29.314678,7.177755,-5.698431,2.827697,0.17844942,-1.7527449,10.870758,5.848073,28.78591,-30.531023,47.88069,11.18497,1.0372925,-4.8385916,-104.10177,-60.36758,16.352535,14.601047,62.937477,-11.768427,-12.82128
132,0.12725524604320526,5.340083599090576,78.5018539428711,0.030433311358879316,4.932802078086914,-89.85724183757678,-9.4550495,8.353268,22.695902,11.490027,-6.3722134,-2.393219,-5.39887,-7.643018,-29.334166,7.0709896,-5.552177,2.7877648,0.16623741,-1.6498876,11.016995,5.859201,28.808298,-30.562038,47.894848,11.160553,1.0441082,-4.858455,-103.72362,-60.424652,16.060877,14.901264,62.870705,-11.75861,-12.976777
133,0.1296684890985489,5.4355149269104,78.50215911865234,0.029252191638627596,5.108614183247496,-89.83705910951467,-9.7033415,8.33149,22.683765,11.38229,-6.218756,-2.3589976,-5.663976,-7.6354256,-29.350096,7.025349,-5.4403553,2.7476304,0.15626723,-1.5514967,11.168031,5.8662887,28.832819,-30.59538,47.91552,11.159014,1.0572386,-4.8805914,-103.32338,-60.476273,15.778068,15.195358,62.82575,-11.777273,-13.124585
134,0.12765267491340637,5.52925443649292,78.50176239013672,0.02754590658630957,5.273511658358947,-89.81924456016304,-9.944288,8.316281,22.67654,11.292977,-6.0783195,-2.3098469,-5.9294157,-7.633677,-29.362728,7.014916,-5.349453,2.7075207,0.1488315,-1.4554414,11.32241,5.8712544,28.858381,-30.628704,47.942284,11.174528,1.0737041,-4.9062324,-102.91424,-60.52032,15.509928,15.487825,62.79769,-11.817259,-13.265009
135,0.12540282309055328,5.624081611633301,78.49977111816406,0.025256822552474724,5.42842821017025,-89.80308748862097,-10.177149,8.305168,22.669676,11.216275,-5.947428,-2.2601967,-6.1814427,-7.6299596,-29.375065,7.004623,-5.262161,2.6673982,0.14475234,-1.363601,11.477494,5.8774805,28.885136,-30.66015,47.970436,11.199948,1.087531,-4.9281693,-102.491516,-60.559296,15.242267,15.777523,62.781437,-11.856938,-13.408176
136,0.11836107820272446,5.715536117553711,78.49752807617188,0.022604816609605394,5.574211311909931,-89.78782485017831,-10.397064,8.294503,22.659166,11.139489,-5.8192687,-2.2245553,-6.4216666,-7.6258655,-29.3873,6.995112,-5.179186,2.6276762,0.14487785,-1.2770079,11.63115,5.8866477,28.912851,-30.689524,47.99533,11.225917,1.0929486,-4.9395003,-102.05709,-60.594723,14.967172,16.066133,62.77163,-11.87517,-13.564842
137,0.11056505888700485,5.802916526794434,78.49514770507812,0.019414480388304577,5.709473114925428,-89.77301232802,-10.604369,8.283896,22.641996,11.065475,-5.695423,-2.2086265,-6.6486325,-7.621398,-29.399902,6.9869637,-5.102163,2.5872242,0.14847808,-1.1924675,11.785713,5.8998833,28.939093,-30.716854,48.018658,11.259038,1.0839701,-4.935455,-101.62637,-60.62535,14.698225,16.359404,62.77875,-11.864518,-13.731459
138,0.10835564136505127,5.889769554138184,78.49291229248047,0.01573971026885871,5.834210973207659,-89.7591223987483,-10.800193,8.274883,22.621145,10.9970045,-5.5774965,-2.2040412,-6.8625574,-7.616265,-29.412296,6.9803596,-5.030279,2.546342,0.15572885,-1.1102552,11.941356,5.913605,28.963518,-30.743872,48.044254,11.3004,1.0650542,-4.9205084,-101.192116,-60.651127,14.433554,16.653929,62.801544,-11.8369055,-13.904643
139,0.10416121035814285,5.972653865814209,78.48920440673828,0.011354729403268588,5.952006628956664,-89.74690207392763,-10.9878,8.268871,22.60018,10.935028,-5.4654346,-2.2042732,-7.066363,-7.609387,-29.424557,6.9741883,-4.961768,2.5069306,0.16805501,-1.032224,12.092311,5.927348,28.985922,-30.768686,48.06729,11.336615,1.046038,-4.9018455,-100.75356,-60.671036,14.171589,16.955193,62.819008,-11.802034,-14.095571
140,0.09622040390968323,6.050986289978027,78.4847640991211,0.005849465695663071,6.065963005346215,-89.7371190974417,-11.170624,8.268149,22.582972,10.88039,-5.3589587,-2.2029605,-7.262619,-7.5993195,-29.436775,6.967455,-4.8954825,2.4710014,0.18625051,-0.95922405,12.232873,5.9392357,29.006392,-30.790668,48.083523,11.352255,1.0365797,-4.886624,-100.30814,-60.68281,13.907704,17.268663,62.80925,-11.769949,-14.315576
141,0.08503634482622147,6.128108978271484,78.48135375976562,-0.0015713330768431758,6.17680647478225,-89.73051600767002,-11.350754,8.2746725,22.570232,10.837248,-5.259586,-2.1981158,-7.4523497,-7.5857673,-29.449335,6.9614024,-4.8315163,2.4405391,0.21182151,-0.8890296,12.362656,5.9490843,29.023224,-30.80852,48.090252,11.338214,1.0411167,-4.8749237,-99.86944,-60.683167,13.65208,17.607498,62.740803,-11.741612,-14.576665
142,0.07497472316026688,6.2010884284973145,78.47904968261719,-0.010364394005791854,6.282843490751622,-89.72652197493342,-11.526222,8.286951,22.560099,10.803762,-5.166723,-2.1933103,-7.6341696,-7.569586,-29.461815,6.956313,-4.770804,2.4140491,0.24112853,-0.82797,12.482609,5.962205,29.039614,-30.817102,48.09045,11.307037,1.0542911,-4.8627954,-99.39914,-60.6722,13.370255,17.944172,62.62962,-11.709019,-14.869353
143,0.06596596539020538,6.268130302429199,78.47642517089844,-0.019228247255181897,6.384222401404486,-89.72372282377718,-11.694526,8.301679,22.551638,10.773545,-5.078247,-2.1901975,-7.8081923,-7.551886,-29.473654,6.9512973,-4.712633,2.3882136,0.2724924,-0.7687886,12.594836,5.9727373,29.053587,-30.827429,48.086296,11.2651415,1.0693896,-4.8540926,-98.94557,-60.651558,13.110936,18.299377,62.537518,-11.679004,-15.173949
144,0.053585220128297806,6.335060119628906,78.47451782226562,-0.026497482061522665,6.481492110718404,-89.7207271675664,-11.854077,8.315314,22.54416,10.741637,-4.992391,-2.190299,-7.97482,-7.5340195,-29.483849,6.94534,-4.656585,2.3597028,0.2998832,-0.72008365,12.696783,5.986526,29.068525,-30.835175,48.080925,11.229834,1.0808822,-4.850377,-98.47102,-60.621315,12.843689,18.643108,62.516853,-11.652451,-15.46874
145,0.03958490118384361,6.4024152755737305,78.47010803222656,-0.031692765745208115,6.575815119813901,-89.71764314205623,-12.006429,8.327788,22.537874,10.707916,-4.9085407,-2.1944804,-8.136649,-7.5159755,-29.491598,6.940006,-4.602479,2.3260632,0.32739976,-0.6750158,12.78986,5.996466,29.083624,-30.852165,48.074184,11.193237,1.0888772,-4.854197,-98.00955,-60.586315,12.604672,18.994745,62.61103,-11.638096,-15.763263
146,0.023422542959451675,6.463948726654053,78.46763610839844,-0.03569483030149011,6.666847413357729,-89.71507762693822,-12.152254,8.340764,22.532837,10.675909,-4.8282614,-2.201733,-8.29205,-7.4968996,-29.497696,6.934584,-4.550631,2.289552,0.35641146,-0.6360853,12.873429,6.0046306,29.099405,-30.873615,48.064774,11.153173,1.0961237,-4.8633795,-97.54615,-60.546078,12.377118,19.34868,62.780514,-11.631846,-16.063457
147,0.0060900552198290825,6.522255897521973,78.46497344970703,-0.039138910741628535,6.751819774365849,-89.71227107306832,-12.287319,8.353302,22.52854,10.641695,-4.7511535,-2.2109153,-8.438242,-7.4779897,-29.503027,6.9294906,-4.5022016,2.253984,0.3856377,-0.6027972,12.950211,6.012727,29.115005,-30.894003,48.051983,11.118899,1.0994735,-4.8766146,-97.086136,-60.501637,12.159243,19.705774,62.96857,-11.624459,-16.346558
148,-0.009300747886300087,6.57265567779541,78.46239471435547,-0.042886767969981185,6.828199207747901,-89.70845488140775,-12.407409,8.3646145,22.52392,10.601241,-4.6760483,-2.2209206,-8.568418,-7.4580703,-29.509428,6.9181147,-4.4555445,2.2229803,0.41697726,-0.570622,13.023632,6.0232897,29.126438,-30.90784,48.03212,11.10372,1.0956122,-4.8931994,-96.65001,-60.458603,11.963686,20.076351,63.122112,-11.606843,-16.590986
149,-0.024126240983605385,6.622325420379639,78.45793151855469,-0.04732737765406941,6.89553741108569,-89.70233609368992,-12.511832,8.373995,22.518387,10.553861,-4.6041784,-2.2298915,-8.68982,-7.4420557,-29.515831,6.9184346,-4.4206786,2.1976352,0.44257197,-0.5503957,13.090392,6.0403295,29.136913,-30.9048,48.01073,11.113985,1.0788829,-4.9120536,-96.18239,-60.404476,11.736676,20.436598,63.221073,-11.579983,-16.781874
150,-0.040202006697654724,6.670273303985596,78.4549560546875,-0.051963349795118276,6.954952649906097,-89.69464931640609,-12.602333,8.3818865,22.512383,10.500633,-4.5349298,-2.2389677,-8.796207,-7.4247165,-29.522757,6.912505,-4.3873835,2.1758122,0.4689266,-0.53304744,13.152677,6.0597363,29.143866,-30.893959,47.983635,11.143067,1.052165,-4.9354396,-95.73103,-60.3484,11.526482,20.811617,63.302696,-11.549539,-16.935375
151,-0.05590086057782173,6.717973232269287,78.45155334472656,-0.056321137537594906,7.007035909141826,-89.68788605433986,-12.680702,8.389877,22.507181,10.446119,-4.468719,-2.2512875,-8.891447,-7.40759,-29.529755,6.9075603,-4.358834,2.1569645,0.49460813,-0.5200696,13.209597,6.078207,29.14725,-30.882023,47.955544,11.178474,1.0269299,-4.959378,-95.2895,-60.290035,11.327771,21.181297,63.366142,-11.50185,-17.068644
152,-0.07286898791790009,6.759054183959961,78.44979095458984,-0.060093646943970555,7.051926242613781,-89.68451845009973,-12.745843,8.398435,22.504196,10.389045,-4.403155,-2.2699678,-8.976814,-7.390149,-29.536684,6.90323,-4.333455,2.1403868,0.5181723,-0.51211894,13.26111,6.096671,29.147226,-30.871664,47.926556,11.210839,1.0146937,-4.9805155,-94.86094,-60.230236,11.143164,21.531374,63.412346,-11.423643,-17.198982
153,-0.09046738594770432,6.796941757202148,78.44839477539062,-0.06266895630512273,7.089217325375247,-89.68612350835589,-12.797256,8.408188,22.50463,10.331976,-4.339517,-2.298032,-9.050931,-7.372498,-29.544327,6.8985453,-4.311656,2.1286287,0.5489151,-0.50334615,13.310365,6.111999,29.14346,-30.869915,47.88876,11.243514,1.0242691,-5.0023932,-94.47767,-60.1841,11.007155,21.880325,63.434593,-11.297494,-17.324488
154,-0.107864148914814,6.82985782623291,78.44689178466797,-0.0642640785207762,7.118925105983373,-89.69111167109865,-12.833539,8.417489,22.507742,10.269354,-4.275505,-2.3330493,-9.114147,-7.3551126,-29.552485,6.894656,-4.294314,2.1211407,0.56732154,-0.5122668,13.349027,6.1313863,29.134235,-30.857843,47.85976,11.281489,1.0482187,-5.0204434,-94.04381,-60.117916,10.826762,22.182407,63.414867,-11.130477,-17.435726
155,-0.12544384598731995,6.862065315246582,78.44618225097656,-0.06616280130274851,7.142299439972065,-89.69705107932711,-12.862506,8.428862,22.510723,10.213378,-4.217391,-2.3701136,-9.167648,-7.3366175,-29.559544,6.891346,-4.2798553,2.112717,0.59403366,-0.51472634,13.387109,6.1444306,29.125181,-30.858595,47.823708,11.310183,1.0714403,-5.037155,-93.67676,-60.069023,10.708454,22.494171,63.41263,-10.961811,-17.54665
156,-0.14671410620212555,6.893740653991699,78.44515228271484,-0.06930263366153672,7.160706742880267,-89.70149905400302,-12.891018,8.44394,22.510998,10.173484,-4.1701965,-2.4042187,-9.21355,-7.316113,-29.563772,6.888221,-4.2661223,2.0979486,0.60776967,-0.5270632,13.414885,6.1506186,29.111952,-30.86189,47.811222,11.318742,1.080368,-5.041358,-93.28238,-60.00123,10.559765,22.75502,63.43443,-10.820463,-17.665897
157,-0.16745805740356445,6.924103260040283,78.44300842285156,-0.0747159681737461,7.174542937598737,-89.70376567446532,-12.922649,8.464855,22.5072,10.156384,-4.136262,-2.4349394,-9.253216,-7.292159,-29.563301,6.8869996,-4.252651,2.070951,0.6221989,-0.53492546,13.439915,6.141199,29.102201,-30.88873,47.81084,11.285499,1.0656586,-5.0336447,-92.93187,-59.93925,10.449407,23.004377,63.52357,-10.724876,-17.808325
158,-0.18838945031166077,6.9483489990234375,78.44375610351562,-0.08149160489043984,7.182788181527098,-89.70512893538937,-12.953723,8.490352,22.500717,10.156556,-4.1128254,-2.46464,-9.284475,-7.2656107,-29.559582,6.886268,-4.2403283,2.0360925,0.64289635,-0.53969955,13.463441,6.120919,29.096441,-30.934124,47.813404,11.225607,1.0368145,-5.018327,-92.61885,-59.8926,10.3736925,23.241642,63.660664,-10.654257,-17.964554
159,-0.20354948937892914,6.968810558319092,78.44293975830078,-0.08825900786304954,7.185772993494559,-89.70625232564267,-12.978143,8.516198,22.494066,10.161974,-4.0961957,-2.4925427,-9.307144,-7.2394624,-29.555676,6.885923,-4.230497,2.0034597,0.65511096,-0.5531771,13.476764,6.09898,29.088882,-30.977922,47.826538,11.164805,1.0067888,-4.998026,-92.2959,-59.833534,10.280089,23.440918,63.788548,-10.589117,-18.111645
160,-0.2201952040195465,6.984469890594482,78.44107818603516,-0.09356324922281875,7.18300919707456,-89.70761432287175,-12.99225,8.539235,22.48913,10.166191,-4.085044,-2.517907,-9.320106,-7.217223,-29.554716,6.8869214,-4.2257686,1.9834934,0.67247796,-0.5627385,13.489474,6.0794764,29.082903,-31.0131,47.820766,11.132831,0.9875243,-4.986565,-92.03216,-59.794964,10.223568,23.635418,63.890575,-10.511912,-18.229275
161,-0.2356816530227661,6.997402191162109,78.4388427734375,-0.09724306912051596,7.174546654296112,-89.70965413060365,-12.992248,8.557633,22.487284,10.161437,-4.077257,-2.539619,-9.322068,-7.1996164,-29.55838,6.8878093,-4.226181,1.9818966,0.6813893,-0.5805209,13.490718,6.0642943,29.070799,-31.033625,47.816486,11.141688,0.9849362,-4.978595,-91.76239,-59.745552,10.143423,23.792604,63.93731,-10.411458,-18.310701
162,-0.24981126189231873,7.009479522705078,78.43754577636719,-0.09980505767064324,7.160363570099094,-89.71188063552977,-12.982423,8.574072,22.4872,10.156812,-4.0762205,-2.5583315,-9.314636,-7.185662,-29.564627,6.890056,-4.231094,1.9922079,0.685575,-0.6004511,13.48645,6.052501,29.054762,-31.042278,47.806812,11.17824,0.9911673,-4.9735265,-91.52042,-59.696938,10.073235,23.929516,63.95866,-10.299827,-18.368097
163,-0.2648175060749054,7.017398834228516,78.43602752685547,-0.10167085154938307,7.1407367101546795,-89.71394285236072,-12.965385,8.589425,22.486902,10.155464,-4.0797954,-2.5760896,-9.298357,-7.173171,-29.571411,6.8929443,-4.239461,2.006214,0.69459015,-0.6185386,13.479841,6.0395308,29.041225,-31.048044,47.78705,11.220389,0.9998382,-4.9737644,-91.323685,-59.664574,10.031282,24.055763,63.964226,-10.190968,-18.405073
164,-0.2791914939880371,7.021938323974609,78.4343032836914,-0.10285784808053547,7.116103651816096,-89.71544549032406,-12.944394,8.605145,22.484638,10.162625,-4.087065,-2.594865,-9.2742815,-7.160871,-29.576616,6.895146,-4.248949,2.01575,0.7025326,-0.64030033,13.466711,6.024912,29.025549,-31.045588,47.769833,11.252004,1.0049297,-4.9765816,-91.14421,-59.63461,9.992683,24.156712,63.946384,-10.09777,-18.424194
165,-0.29408541321754456,7.024674892425537,78.4324951171875,-0.10269605941099834,7.086786108470012,-89.71632824087703,-12.920285,8.620262,22.479952,10.179317,-4.0979857,-2.6158385,-9.244911,-7.1498055,-29.579308,6.9005046,-4.2614856,2.020107,0.7015124,-0.6693047,13.443864,6.0096335,28.998844,-31.021027,47.76566,11.2749815,1.0016788,-4.984337,-90.97566,-59.593452,9.948758,24.227877,63.888226,-10.024661,-18.42135
166,-0.307325154542923,7.025750160217285,78.43212890625,-0.10165235264277826,7.052420482577759,-89.71685291666425,-12.892243,8.635503,22.473623,10.205196,-4.114142,-2.6378798,-9.207565,-7.1393757,-29.580708,6.905298,-4.275608,2.023161,0.7044456,-0.69743055,13.417975,5.9974923,28.97532,-30.985907,47.74926,11.293917,0.9948058,-5.0005083,-90.85271,-59.564808,9.930489,24.289404,63.805984,-9.96497,-18.397074
167,-0.32021287083625793,7.022818088531494,78.43164825439453,-0.10042461416428572,7.0124043307853565,-89.71680150595795,-12.858171,8.650836,22.4664,10.236753,-4.13418,-2.6589065,-9.161985,-7.129801,-29.581955,6.9111767,-4.2924013,2.0235434,0.70833313,-0.72686994,13.388694,5.9824347,28.955732,-30.954094,47.729435,11.302817,0.99042296,-5.0149026,-90.756294,-59.545074,9.927674,24.331072,63.719086,-9.91452,-18.360144
168,-0.33118507266044617,7.0186920166015625,78.43069458007812,-0.100474021216314,6.9661556316639475,-89.71607420825454,-12.817171,8.667427,22.4586,10.273015,-4.1579843,-2.6769757,-9.105606,-7.1194577,-29.583961,6.915395,-4.310661,2.0198529,0.70264673,-0.7556417,13.35498,5.9601545,28.928131,-30.929594,47.721275,11.302761,0.99377155,-5.0167084,-90.67846,-59.518867,9.938839,24.34882,63.64326,-9.870643,-18.320791
169,-0.3430350422859192,7.011011123657227,78.43167114257812,-0.10260480668962847,6.913259785673316,-89.71458228222286,-12.769046,8.686477,22.45004,10.315405,-4.185465,-2.691837,-9.038756,-7.1081657,-29.587042,6.920602,-4.332025,2.0079572,0.698743,-0.78380567,13.320405,5.9348645,28.913326,-30.928236,47.701515,11.277593,1.0124129,-5.0033507,-90.61557,-59.504723,9.961937,24.339376,63.589653,-9.836306,-18.282272
170,-0.35294926166534424,7.001875877380371,78.43344116210938,-0.10633486565824157,6.854420299021378,-89.71172329454599,-12.71543,8.70768,22.439754,10.36453,-4.2167,-2.704378,-8.959543,-7.094647,-29.591637,6.9198866,-4.352353,1.9897839,0.6836635,-0.8061944,13.276647,5.8932314,28.881908,-30.941214,47.70791,11.233837,1.0379014,-4.975426,-90.60651,-59.476376,10.031095,24.330732,63.536602,-9.817035,-18.2405
171,-0.3610198497772217,6.989919185638428,78.43482971191406,-0.10954888864743578,6.789585526400893,-89.70893158174522,-12.653485,8.727776,22.430141,10.415548,-4.252004,-2.7146473,-8.876248,-7.0852346,-29.595314,6.930428,-4.3810363,1.9734033,0.67208403,-0.83600515,13.234891,5.8597255,28.869286,-30.95338,47.6934,11.191821,1.065149,-4.948374,-90.58726,-59.465256,10.083805,24.278921,63.495968,-9.79439,-18.188768
172,-0.3697432577610016,6.974422931671143,78.43702697753906,-0.11066628903446453,6.718856156482178,-89.70649211131595,-12.580857,8.743899,22.422346,10.462168,-4.2902365,-2.7226038,-8.7825,-7.077654,-29.598347,6.9355416,-4.4087844,1.9666816,0.6586613,-0.8641303,13.1894655,5.8275285,28.852125,-30.962324,47.681885,11.168066,1.082857,-4.927676,-90.61486,-59.453045,10.1772995,24.224537,63.462986,-9.765233,-18.124624
173,-0.37736088037490845,6.956760406494141,78.43704223632812,-0.10872442970065206,6.640006669482517,-89.70426389596567,-12.494808,8.754804,22.416477,10.504664,-4.333284,-2.726126,-8.677401,-7.0738854,-29.600737,6.9387755,-4.4381733,1.9742892,0.64294827,-0.8971007,13.145233,5.7994175,28.838516,-30.9611,47.666298,11.173357,1.0873661,-4.918761,-90.66038,-59.445496,10.279763,24.147339,63.45031,-9.723831,-18.03744
174,-0.38398170471191406,6.937346458435059,78.4383773803711,-0.10505288579528184,6.553656733264341,-89.70202054038715,-12.398085,8.763034,22.411777,10.546804,-4.381415,-2.7259932,-8.562291,-7.07334,-29.60282,6.9436617,-4.47129,1.991154,0.62275594,-0.92182535,13.100916,5.7767687,28.817486,-30.952724,47.644707,11.199127,1.0832584,-4.917022,-90.790535,-59.436993,10.455116,24.08709,63.45705,-9.681121,-17.934443
175,-0.38847991824150085,6.917510986328125,78.43814849853516,-0.1005313639013388,6.464514707698535,-89.70034702256004,-12.295148,8.768799,22.408314,10.586645,-4.4311357,-2.726285,-8.442689,-7.0743375,-29.603933,6.947499,-4.5046916,2.0106723,0.6022062,-0.9528202,13.052841,5.752651,28.801178,-30.942648,47.626667,11.227531,1.0766736,-4.915381,-90.91556,-59.433346,10.622734,23.990984,63.455807,-9.630782,-17.830872
176,-0.3928099274635315,6.895893096923828,78.43879699707031,-0.0967208105941764,6.377652505711961,-89.69987296231982,-12.191057,8.773773,22.405897,10.622258,-4.47874,-2.7312472,-8.324634,-7.0750704,-29.603436,6.9515414,-4.537862,2.0262082,0.582973,-0.987077,12.997772,5.730109,28.788403,-30.929998,47.61127,11.2474,1.0725533,-4.9090056,-91.04371,-59.435196,10.794329,23.865093,63.425316,-9.574914,-17.74472
177,-0.3949790596961975,6.87416410446167,78.43865966796875,-0.09376177299717484,6.2936558853104385,-89.70055606926559,-12.087154,8.77815,22.404598,10.6554575,-4.5242624,-2.7427797,-8.208989,-7.0756464,-29.601137,6.95492,-4.569744,2.0352163,0.5667521,-1.0130272,12.935812,5.7047706,28.771744,-30.92087,47.598022,11.253404,1.0731976,-4.8988647,-91.23262,-59.444744,11.028646,23.742876,63.365013,-9.510778,-17.68898
178,-0.3964500427246094,6.8530097007751465,78.44239807128906,-0.09114353204366164,6.210345064739311,-89.70220059180228,-11.980342,8.781163,22.404383,10.684842,-4.568639,-2.7583468,-8.093508,-7.0769906,-29.597345,6.959923,-4.6027627,2.041436,0.55366594,-1.0407981,12.86664,5.6740437,28.754744,-30.914759,47.59336,11.253449,1.0760556,-4.8854127,-91.42921,-59.463158,11.27497,23.59158,63.281918,-9.43581,-17.65001
179,-0.3967185616493225,6.825672626495361,78.44373321533203,-0.08847028883021685,6.127363128357728,-89.70479868975185,-11.8713665,8.783316,22.40515,10.711824,-4.612956,-2.7755804,-7.9772053,-7.0787687,-29.592497,6.964714,-4.635806,2.0480168,0.54307383,-1.0709959,12.793702,5.6402016,28.739683,-30.908947,47.594677,11.248991,1.0765138,-4.868312,-91.632256,-59.488464,11.522267,23.413347,63.182613,-9.364564,-17.61182
180,-0.39772459864616394,6.796565532684326,78.4476318359375,-0.08531943304194994,6.044320734516893,-89.70843907424043,-11.761051,8.784566,22.406412,10.737957,-4.6585164,-2.7919981,-7.8601403,-7.0813336,-29.586872,6.96813,-4.66758,2.0582428,0.5329282,-1.1044235,12.719908,5.6076756,28.728304,-30.898746,47.599056,11.242417,1.070054,-4.8471184,-91.8442,-59.516087,11.762656,23.213226,63.073425,-9.3120365,-17.558094
181,-0.3959712088108063,6.7667059898376465,78.44881439208984,-0.08175600574338032,5.9602767412529065,-89.71317867056564,-11.647484,8.784967,22.407682,10.760761,-4.7040753,-2.808328,-7.740039,-7.0839167,-29.580647,6.9692416,-4.6980863,2.072941,0.5239571,-1.1349281,12.646976,5.5754695,28.718706,-30.887135,47.604225,11.224341,1.0512892,-4.8152804,-92.102684,-59.54702,12.031766,23.014414,62.946533,-9.287667,-17.486734
182,-0.39690685272216797,6.736958980560303,78.44951629638672,-0.07767845958716738,5.87587473855122,-89.71895550183126,-11.53217,8.784484,22.4092,10.783017,-4.7511973,-2.8253164,-7.622371,-7.0897446,-29.573023,6.978351,-4.7323294,2.09061,0.51188874,-1.1712779,12.571146,5.5464234,28.713226,-30.868515,47.613396,11.198243,1.0244449,-4.7740207,-92.36074,-59.574684,12.289079,22.788063,62.79497,-9.279974,-17.404675
183,-0.396356463432312,6.708616256713867,78.45068359375,-0.07361653953786516,5.792599928986951,-89.72574498699103,-11.417251,8.784032,22.412096,10.805556,-4.799736,-2.8410015,-7.5032783,-7.0943427,-29.564749,6.9822526,-4.764291,2.110075,0.49793142,-1.2105923,12.49311,5.520248,28.711231,-30.844507,47.624897,11.178509,0.9976746,-4.7388883,-92.62682,-59.59984,12.53832,22.537138,62.647106,-9.281089,-17.313457
184,-0.3924074172973633,6.680531978607178,78.45299530029297,-0.06980125145958055,5.711852493946473,-89.73335115266208,-11.307524,8.784929,22.41691,10.834018,-4.8525214,-2.8532803,-7.388808,-7.1001496,-29.555357,6.989486,-4.7985206,2.130635,0.48636883,-1.243925,12.415273,5.4993844,28.710571,-30.81618,47.629414,11.181489,0.9788532,-4.7273173,-92.94498,-59.628483,12.817668,22.284216,62.537243,-9.285026,-17.215572
185,-0.39000001549720764,6.650717735290527,78.45291137695312,-0.06634474504483732,5.6342013537926405,-89.74235441669694,-11.205476,8.788296,22.42431,10.873311,-4.912547,-2.860507,-7.2780333,-7.105377,-29.544806,6.996482,-4.8342414,2.152397,0.47887826,-1.2728524,12.337335,5.4797354,28.71019,-30.784435,47.63103,11.223939,0.9702696,-4.754151,-93.299324,-59.66123,13.108932,22.016768,62.47345,-9.287565,-17.10964
186,-0.3867630958557129,6.6218719482421875,78.4527816772461,-0.06318269508069936,5.558917048206461,-89.7526438577794,-11.108091,8.793088,22.433796,10.917997,-4.9767036,-2.8641899,-7.1704082,-7.110621,-29.533098,7.0037074,-4.870941,2.1757379,0.47014713,-1.3091706,12.255668,5.460999,28.711641,-30.744316,47.640182,11.29579,0.96808887,-4.8045,-93.6289,-59.691822,13.358594,21.700937,62.430992,-9.2891,-16.993425
187,-0.3825746476650238,6.5911760330200195,78.4542465209961,-0.059672775342869605,5.485356624295059,-89.76305611363496,-11.012268,8.797331,22.444687,10.96388,-5.0424566,-2.8667252,-7.064578,-7.1166744,-29.52066,7.0113354,-4.9075046,2.199832,0.4618653,-1.3443573,12.172644,5.44342,28.715923,-30.70471,47.650185,11.362785,0.9702098,-4.854583,-93.98417,-59.725403,13.619326,21.372025,62.40731,-9.296811,-16.87096
188,-0.3773688077926636,6.558834075927734,78.45569610595703,-0.05556224899935902,5.413191800020011,-89.77247730010615,-10.9144945,8.7991295,22.456028,11.003269,-5.104998,-2.8705342,-6.959124,-7.123871,-29.508003,7.0190115,-4.9427404,2.2238388,0.44786033,-1.3882836,12.083155,5.427017,28.722542,-30.664658,47.673157,11.397452,0.9756572,-4.8752537,-94.31083,-59.754555,13.847757,21.004875,62.381992,-9.310527,-16.74229
189,-0.37296295166015625,6.5275044441223145,78.45658111572266,-0.05022555741856435,5.341995782719698,-89.78043919418512,-10.813993,8.797499,22.468134,11.037278,-5.1652536,-2.8755898,-6.8536677,-7.133034,-29.49403,7.026823,-4.9752007,2.2490325,0.43639293,-1.4234259,11.992796,5.4150524,28.733139,-30.631317,47.68859,11.376336,0.984711,-4.858561,-94.70344,-59.79075,14.133549,20.652447,62.37469,-9.3438,-16.611385
190,-0.3681136667728424,6.493983268737793,78.45848846435547,-0.04384518503131064,5.272168800320367,-89.78760047149083,-10.711512,8.793116,22.481657,11.065485,-5.2230153,-2.8808079,-6.7490177,-7.1440673,-29.478907,7.0361514,-5.007027,2.2754164,0.42184103,-1.4636729,11.896566,5.4019885,28.745129,-30.599977,47.71569,11.320716,0.9983452,-4.815941,-95.0871,-59.825153,14.40424,20.269766,62.376404,-9.387055,-16.47438
191,-0.363355815410614,6.4613471031188965,78.45893859863281,-0.03781756030610285,5.20410911698988,-89.79445190261423,-10.6109085,8.788787,22.494873,11.093955,-5.280941,-2.8870945,-6.656692,-7.1613584,-29.463467,7.07058,-5.051743,2.3003573,0.4064304,-1.5031134,11.799081,5.391139,28.759552,-30.5707,47.744427,11.262128,1.0134923,-4.7672076,-95.48895,-59.8606,14.683677,19.876568,62.380707,-9.431015,-16.33254
192,-0.3579328954219818,6.428474426269531,78.45755004882812,-0.033520852762813205,5.138222672686225,-89.80152353829651,-10.5130005,8.786421,22.506386,11.121821,-5.3379993,-2.8954208,-6.580767,-7.185409,-29.449343,7.1394386,-5.1169996,2.321104,0.3875803,-1.5447658,11.701103,5.380023,28.775995,-30.542892,47.779972,11.230443,1.027473,-4.72923,-95.894745,-59.89522,14.957302,19.467749,62.374474,-9.462473,-16.185406
193,-0.3525006175041199,6.395140171051025,78.45594024658203,-0.03144794049608875,5.0746583372519085,-89.80883881383832,-10.417933,8.786164,22.515789,11.148953,-5.3944488,-2.9068391,-6.5056877,-7.206699,-29.440577,7.204711,-5.184271,2.3339062,0.3637206,-1.5906261,11.601475,5.3700547,28.792974,-30.51421,47.82519,11.245926,1.0421174,-4.709955,-96.290085,-59.925972,15.207479,19.036264,62.349937,-9.4691,-16.029572
194,-0.3485416769981384,6.363536357879639,78.4557876586914,-0.03083859186326057,5.013100729454733,-89.81610924355857,-10.327027,8.787914,22.523203,11.178971,-5.4521613,-2.920541,-6.4325843,-7.2269115,-29.43554,7.269802,-5.25359,2.341125,0.34344462,-1.6267576,11.505808,5.363194,28.816553,-30.493227,47.859608,11.282387,1.0575218,-4.70371,-96.75828,-59.9633,15.513384,18.627398,62.32812,-9.466343,-15.869124
195,-0.3420437276363373,6.328816890716553,78.45724487304688,-0.03106854974940859,4.953405470205368,-89.82349878712405,-10.238224,8.79073,22.530346,11.209424,-5.509485,-2.9347703,-6.3572483,-7.243783,-29.431082,7.324103,-5.3173814,2.348788,0.32015485,-1.6671966,11.408557,5.3571825,28.841433,-30.471384,47.901386,11.321758,1.0699872,-4.693975,-97.21385,-60.000095,15.804631,18.192513,62.300884,-9.466729,-15.70721
196,-0.3336730897426605,6.291983127593994,78.45889282226562,-0.03133165872423507,4.895103541050036,-89.83116011808801,-10.152124,8.794435,22.538303,11.243285,-5.567231,-2.947784,-6.277493,-7.25666,-29.424328,7.363338,-5.371908,2.3629494,0.29153892,-1.7147826,11.309444,5.352481,28.865644,-30.444304,47.952934,11.341854,1.0750875,-4.6683416,-97.637695,-60.03478,16.071592,17.720667,62.270817,-9.487541,-15.549544
197,-0.3280722200870514,6.259332656860352,78.45991516113281,-0.031982650769500236,4.8387809329786196,-89.83876994119956,-10.070752,8.800186,22.54664,11.284173,-5.626359,-2.958568,-6.1928287,-7.2641764,-29.414143,7.384602,-5.4152055,2.386699,0.26767656,-1.756434,11.21599,5.3561616,28.897215,-30.417734,47.987633,11.326119,1.069408,-4.6202064,-98.10871,-60.080982,16.392513,17.25061,62.26837,-9.551191,-15.411167
198,-0.3217827379703522,6.224961757659912,78.46028900146484,-0.03296955709789344,4.784276570568503,-89.84635938379562,-9.99344,8.807381,22.555069,11.329736,-5.6860623,-2.9682395,-6.1030536,-7.2668676,-29.402576,7.387461,-5.447725,2.4163723,0.24182764,-1.8034301,11.122017,5.359973,28.929882,-30.389961,48.029686,11.291543,1.0560626,-4.553951,-98.55909,-60.130817,16.699753,16.74688,62.274376,-9.638723,-15.281361
199,-0.314766526222229,6.189701557159424,78.46126556396484,-0.034259935078490365,4.730746056233145,-89.8546660546659,-9.916851,8.814995,22.564278,11.375649,-5.7462835,-2.9782162,-6.0121827,-7.2675548,-29.389736,7.3842263,-5.4760146,2.4475844,0.21489277,-1.8528584,11.026855,5.3645396,28.962852,-30.360186,48.076904,11.258013,1.0400006,-4.490731,-99.001595,-60.18215,16.99732,16.225801,62.261906,-9.724146,-15.141027
200,-0.30798715353012085,6.154601097106934,78.46141815185547,-0.036342774145303625,4.677148930612269,-89.86445362520033,-9.838463,8.822866,22.574785,11.418723,-5.807415,-2.990122,-5.9214444,-7.267542,-29.376396,7.3813834,-5.503948,2.4758866,0.19603582,-1.8953528,10.933624,5.376375,29.000633,-30.32879,48.110615,11.247914,1.0260282,-4.455109,-99.48605,-60.242176,17.325342,15.725419,62.21237,-9.785423,-14.971639
201,-0.30231064558029175,6.121133327484131,78.46215057373047,-0.039347653603794365,4.623216959125588,-89.87633991146316,-9.757374,8.831044,22.587639,11.457573,-5.8698173,-3.0056565,-5.830924,-7.266031,-29.361868,7.379079,-5.531256,2.4997423,0.17666353,-1.9388031,10.835514,5.3901615,29.035963,-30.29145,48.15269,11.275186,1.0142776,-4.454445,-99.96328,-60.29821,17.633299,15.222187,62.09337,-9.800933,-14.753982
202,-0.2952689528465271,6.087088584899902,78.46121978759766,-0.04323798916164492,4.569447180536385,-89.889785664405,-9.675786,8.840229,22.602226,11.496029,-5.933889,-3.0236566,-5.7397456,-7.2626295,-29.345985,7.3736906,-5.555752,2.5216873,0.15902646,-1.9789919,10.736282,5.4117117,29.071302,-30.247105,48.190746,11.328222,1.0023638,-4.477828,-100.45901,-60.353725,17.948624,14.726171,61.92906,-9.791175,-14.50415
203,-0.28682032227516174,6.050469398498535,78.46043395996094,-0.04684670613266062,4.5161892325052575,-89.90370933417421,-9.592112,8.847772,22.617123,11.529303,-5.996326,-3.0407748,-5.6487956,-7.2597136,-29.33047,7.368469,-5.5804,2.5431921,0.1339634,-2.0255976,10.633428,5.4335475,29.101574,-30.195923,48.240902,11.383832,0.99223477,-4.5048676,-100.928246,-60.40084,18.237259,14.207213,61.742275,-9.779147,-14.2464905
204,-0.27898043394088745,6.01517391204834,78.46158599853516,-0.049196127431103596,4.463546788937712,-89.9170437990854,-9.507822,8.8527155,22.630188,11.560291,-6.0570474,-3.0537949,-5.5590143,-7.2601767,-29.316725,7.3667583,-5.607175,2.5657501,0.108322516,-2.0719793,10.534863,5.4565234,29.13361,-30.14532,48.28368,11.417358,0.98565066,-4.5228486,-101.42015,-60.450092,18.552399,13.686824,61.57612,-9.795622,-14.010088
205,-0.27304115891456604,5.980570316314697,78.46141052246094,-0.04942912059039096,4.411492384410975,-89.92854469734819,-9.421743,8.852706,22.639893,11.585664,-6.114682,-3.0605996,-5.469798,-7.265346,-29.306704,7.3683767,-5.636429,2.5891306,0.086815104,-2.1166136,10.444037,5.483288,29.171164,-30.096582,48.307858,11.413086,0.9818657,-4.523705,-101.95428,-60.509872,18.917255,13.170342,61.44341,-9.853616,-13.808883
206,-0.2651129364967346,5.943419456481934,78.46276092529297,-0.0483667725418079,4.359983260563436,-89.93909208644659,-9.33474,8.849349,22.647371,11.607371,-6.170455,-3.0633373,-5.383445,-7.2750072,-29.298775,7.3777165,-5.6700935,2.6127949,0.062252767,-2.1674418,10.353832,5.509893,29.207243,-30.044992,48.334927,11.388445,0.980626,-4.513652,-102.46872,-60.571686,19.268967,12.628751,61.316284,-9.932096,-13.623957
207,-0.25351470708847046,5.904664993286133,78.46469116210938,-0.046940068092936924,4.309076965447536,-89.95076235500176,-9.245505,8.845248,22.656178,11.624698,-6.2238445,-3.0651453,-5.29457,-7.2831216,-29.290455,7.379755,-5.699854,2.6375213,0.038335513,-2.2204926,10.263619,5.534102,29.242886,-29.995344,48.365513,11.36751,0.98391706,-4.5080857,-102.97981,-60.63578,19.6192,12.076389,61.19306,-10.017982,-13.439316
208,-0.24205420911312103,5.864182472229004,78.46553039550781,-0.045719203705949285,4.25888266815955,-89.96553455085653,-9.156442,8.843542,22.66941,11.644773,-6.27876,-3.0689266,-5.2072453,-7.2898154,-29.277662,7.3822813,-5.729737,2.6644714,0.018186357,-2.2735548,10.171639,5.558005,29.277359,-29.947533,48.39931,11.379948,0.993823,-4.5218477,-103.48862,-60.70083,19.964668,11.521379,61.06908,-10.097417,-13.239263
209,-0.23290464282035828,5.824150085449219,78.46663665771484,-0.044702416110692464,4.209418692165459,-89.98496438848149,-9.064198,8.843619,22.68971,11.662032,-6.3323116,-3.07583,-5.1176248,-7.292064,-29.258665,7.376042,-5.754907,2.6959069,0.0020243106,-2.3263628,10.076903,5.5816164,29.310024,-29.90077,48.438572,11.443166,1.0163593,-4.56853,-103.99399,-60.765636,20.304724,10.9606,60.94772,-10.169892,-13.02029
210,-0.2258925437927246,5.785379886627197,78.46685791015625,-0.04349363712332481,4.160486500112221,-90.00763056016108,-8.969303,8.844636,22.714897,11.676208,-6.384363,-3.0841668,-5.0256753,-7.2912955,-29.23579,7.361193,-5.775381,2.7306824,-0.011859682,-2.3797004,9.980588,5.6051164,29.34078,-29.85422,48.481537,11.539243,1.0484556,-4.6371303,-104.49762,-60.830036,20.641962,10.393004,60.829723,-10.242009,-12.790961
211,-0.21866443753242493,5.744914531707764,78.4670639038086,-0.04284084968018285,4.112337905594973,-90.03109539941512,-8.875812,8.847099,22.740824,11.692661,-6.437147,-3.0926342,-4.935342,-7.289954,-29.211874,7.348374,-5.7967153,2.7642028,-0.024733385,-2.4329126,9.883491,5.62634,29.370092,-29.811308,48.528255,11.639945,1.0787642,-4.704913,-105.00088,-60.893734,20.97573,9.826893,60.705883,-10.310462,-12.551715
212,-0.2109164595603943,5.702911853790283,78.46687316894531,-0.042666141559700096,4.064914952050043,-90.05281822453719,-8.786875,8.85068,22.76406,11.715711,-6.492566,-3.099743,-4.8481617,-7.2902727,-29.190247,7.3421063,-5.821604,2.7920904,-0.037770983,-2.486338,9.786385,5.644773,29.398628,-29.773895,48.577072,11.718398,1.0959587,-4.7492275,-105.50396,-60.95673,21.30455,9.269532,60.566624,-10.372028,-12.303379
213,-0.20332546532154083,5.665219783782959,78.46715545654297,-0.043939076211548335,4.0197940249799275,-90.07285252005812,-8.706237,8.857132,22.783957,11.748514,-6.5513797,-3.1048627,-4.7675014,-7.2915554,-29.171164,7.34441,-5.8499,2.8113914,-0.051175777,-2.539592,9.688584,5.659199,29.426865,-29.743608,48.62849,11.767973,1.0931824,-4.75647,-106.00781,-61.019943,21.627626,8.722288,60.388493,-10.425715,-12.043559
214,-0.19643434882164001,5.62632417678833,78.46707916259766,-0.0461338723731027,3.9765579241508036,-90.0922850074286,-8.631615,8.865873,22.80224,11.789069,-6.6131444,-3.1087952,-4.691382,-7.293222,-29.15321,7.352141,-5.880209,2.8250782,-0.06394979,-2.5932739,9.589997,5.670856,29.454906,-29.718824,48.682404,11.80335,1.0778679,-4.7412124,-106.51162,-61.083828,21.946167,8.180406,60.183258,-10.473554,-11.772869
215,-0.18967080116271973,5.584579944610596,78.46836853027344,-0.04828312803212976,3.9317775021326664,-90.1102391619858,-8.554978,8.874137,22.819155,11.829401,-6.6754436,-3.1125553,-4.6132803,-7.295716,-29.136568,7.3622146,-5.9133654,2.8373747,-0.0780077,-2.6477377,9.49187,5.682897,29.481796,-29.695404,48.737278,11.828449,1.0601041,-4.7229753,-107.00493,-61.145428,22.250181,7.6422505,59.994232,-10.516062,-11.49574
216,-0.18234531581401825,5.541558265686035,78.46945190429688,-0.04910505132909667,3.882342938890975,-90.12584853928605,-8.469372,8.878981,22.83473,11.863932,-6.737335,-3.1171403,-4.52712,-7.2998967,-29.12159,7.3714404,-5.9496083,2.8526003,-0.09000876,-2.7005484,9.397968,5.694104,29.50966,-29.676924,48.788536,11.842122,1.0500262,-4.722628,-107.500984,-61.2066,22.554071,7.1166883,59.86923,-10.555527,-11.218291
217,-0.1735834926366806,5.494629859924316,78.47006225585938,-0.04822905745778692,3.827163879436989,-90.13808230919649,-8.37194,8.879286,22.848202,11.890145,-6.7981935,-3.1230917,-4.428853,-7.3056235,-29.109486,7.376007,-5.9883475,2.871689,-0.10503819,-2.7535298,9.306858,5.7089405,29.536982,-29.656748,48.83717,11.846615,1.0518357,-4.7538447,-107.98261,-61.261997,22.838844,6.5941787,59.831127,-10.584205,-10.925808
218,-0.1688251495361328,5.4472527503967285,78.47004699707031,-0.04626396953516035,3.7679072377580787,-90.14766460759509,-8.266872,8.876781,22.859852,11.911895,-6.859351,-3.1298492,-4.3238106,-7.3134604,-29.09934,7.381888,-6.031831,2.892595,-0.12510732,-2.8076043,9.217208,5.725726,29.563656,-29.635612,48.88627,11.839058,1.0596378,-4.802585,-108.45056,-61.309433,23.104202,6.074935,59.849762,-10.602792,-10.620137
219,-0.16168943047523499,5.401065826416016,78.4709243774414,-0.04366949281587462,3.705908582468122,-90.15634280979513,-8.158095,8.873322,22.870928,11.933014,-6.9210105,-3.136611,-4.21797,-7.323458,-29.089176,7.394885,-6.08006,2.9144588,-0.15456131,-2.8677773,9.12552,5.7456584,29.585178,-29.608633,48.943523,11.825731,1.0685154,-4.8442316,-108.87548,-61.343864,23.324327,5.5497117,59.880783,-10.6202,-10.327507
220,-0.15609580278396606,5.354074478149414,78.47107696533203,-0.04111548532675265,3.642394176753363,-90.16596167059657,-8.0479145,8.870985,22.882757,11.955119,-6.982384,-3.142811,-4.1124806,-7.3336086,-29.077467,7.4113073,-6.128591,2.936623,-0.1718045,-2.9195902,9.043339,5.763409,29.61282,-29.594963,48.98368,11.80107,1.0728527,-4.863362,-109.35829,-61.38314,23.598583,5.0726023,59.90559,-10.659219,-10.083722
221,-0.14949358999729156,5.3068037033081055,78.47146606445312,-0.03864525104075706,3.5768346933034736,-90.1772422936532,-7.9372234,8.870526,22.896025,11.980709,-7.0443416,-3.1480072,-4.008654,-7.3431964,-29.062668,7.4330983,-6.1779504,2.9589062,-0.18368356,-2.9731095,8.965623,5.7743216,29.641302,-29.592524,49.026577,11.750571,1.0692904,-4.8386793,-109.843735,-61.422394,23.87463,4.617207,59.905327,-10.720178,-9.893629
222,-0.14374110102653503,5.258978366851807,78.47078704833984,-0.035920273938926196,3.508959234305284,-90.18914972922741,-7.825477,8.87112,22.909777,12.010151,-7.1081343,-3.1526687,-3.9079962,-7.3550563,-29.045504,7.4666667,-6.232621,2.9817789,-0.19463289,-3.0295403,8.890749,5.783428,29.667683,-29.593237,49.07246,11.683607,1.0613171,-4.785009,-110.31426,-61.459473,24.133858,4.17259,59.897484,-10.793976,-9.740704
223,-0.13867886364459991,5.211958885192871,78.47003936767578,-0.0330147011263859,3.4400343047132163,-90.20074500750192,-7.7111363,8.871129,22.9233,12.0371,-7.170647,-3.1571803,-3.8050926,-7.3670588,-29.029203,7.5004807,-6.2876806,3.0050306,-0.20931484,-3.0887225,8.813704,5.789132,29.690615,-29.597172,49.125423,11.629111,1.0546769,-4.7280984,-110.75441,-61.491253,24.365458,3.728884,59.88487,-10.871138,-9.615324
224,-0.13314221799373627,5.163343906402588,78.47000122070312,-0.029637063321008402,3.3718516258984654,-90.21107352622091,-7.5925446,8.86826,22.935902,12.055089,-7.2290053,-3.1619,-3.6979666,-7.3797116,-29.016666,7.529586,-6.3409443,3.028687,-0.22091527,-3.1432707,8.734327,5.794319,29.71444,-29.609575,49.17166,11.617491,1.0552061,-4.6973042,-111.198296,-61.52244,24.606821,3.302711,59.8792,-10.948059,-9.511735
225,-0.127280130982399,5.113111972808838,78.47052001953125,-0.02554567501056734,3.305415225343378,-90.21980088424192,-7.4711747,8.862044,22.947348,12.0658,-7.2844057,-3.1668873,-3.5887814,-7.395166,-29.008898,7.559343,-6.3956375,3.0525434,-0.23831096,-3.1986806,8.645536,5.8019347,29.735245,-29.627155,49.220238,11.682958,1.0683535,-4.704271,-111.60048,-61.54686,24.816616,2.8712034,59.878155,-11.023109,-9.439431
226,-0.1213330551981926,5.059487819671631,78.47157287597656,-0.0208029314132717,3.239699342626584,-90.22749022397325,-7.3439555,8.85211,22.958473,12.064179,-7.3336725,-3.1719372,-3.4734457,-7.410321,-29.00498,7.5797877,-6.445701,3.0767384,-0.24992657,-3.247873,8.555477,5.809203,29.7589,-29.658813,49.258526,11.796538,1.0894021,-4.7361236,-112.02159,-61.57077,25.050577,2.4659429,59.88708,-11.104817,-9.402546
227,-0.11690445244312286,5.003429412841797,78.4734878540039,-0.016292368898269204,3.1728137346195053,-90.23442763846175,-7.215993,8.842848,22.96839,12.064535,-7.384382,-3.177172,-3.356839,-7.425752,-29.002024,7.603181,-6.498236,3.1014342,-0.26770452,-3.3002312,8.462945,5.8183765,29.77837,-29.681437,49.300415,11.913288,1.1101768,-4.7692327,-112.40222,-61.588985,25.246414,2.0568626,59.886467,-11.178335,-9.367816
228,-0.11251318454742432,4.950347900390625,78.47537231445312,-0.01303344849436145,3.102790406267032,-90.24087694974428,-7.0873537,8.836723,22.977089,12.07113,-7.4393034,-3.1825485,-3.2334633,-7.4362555,-28.998365,7.617439,-6.547077,3.1266239,-0.28075162,-3.3486195,8.377351,5.831731,29.797703,-29.6901,49.329742,11.9828615,1.1222539,-4.787292,-112.799805,-61.608025,25.456299,1.6720613,59.876045,-11.240864,-9.310982
229,-0.10881730169057846,4.896725177764893,78.47531127929688,-0.011514986076190689,3.0288421430470915,-90.24625468793434,-6.95791,8.834029,22.983976,12.084139,-7.4987884,-3.1883407,-3.1027951,-7.440953,-28.994455,7.623061,-6.59251,3.1531014,-0.29894948,-3.4001997,8.296003,5.8485684,29.810738,-29.670572,49.35977,11.98452,1.1203138,-4.7796955,-113.15842,-61.624565,25.622908,1.2860177,59.842113,-11.27935,-9.219555
230,-0.1057581976056099,4.843136310577393,78.47662353515625,-0.01114717573459538,2.951886121394657,-90.25060548474308,-6.827738,8.8341055,22.989254,12.102219,-7.5618505,-3.194543,-2.9658318,-7.4414907,-28.990774,7.6212296,-6.63487,3.180549,-0.3171982,-3.4509919,8.219092,5.865874,29.82085,-29.636486,49.386406,11.944513,1.1096054,-4.7593255,-113.50655,-61.640842,25.776394,0.9119553,59.79545,-11.303078,-9.111148
231,-0.10409550368785858,4.789195537567139,78.47695922851562,-0.011130910298688592,2.8731454800845952,-90.2552358174942,-6.6960344,8.835621,22.994144,12.122793,-7.62625,-3.2005265,-2.8249388,-7.4397397,-28.986416,7.614935,-6.6761804,3.2075193,-0.32650515,-3.494547,8.149461,5.886491,29.832434,-29.598972,49.395966,11.895373,1.0982956,-4.737268,-113.893906,-61.661716,25.969233,0.5682357,59.75181,-11.329513,-8.997708
232,-0.10048484802246094,4.732797622680664,78.47657775878906,-0.010924006708262145,2.793812149120435,-90.26146533762441,-6.5622,8.8376,22.99974,12.142963,-7.689344,-3.2057567,-2.6819978,-7.4368324,-28.980299,7.6052914,-6.717152,3.232548,-0.3374101,-3.5424526,8.075414,5.9036226,29.842144,-29.56944,49.41356,11.861569,1.0953208,-4.7159595,-114.24816,-61.680855,26.136574,0.21648891,59.70584,-11.361644,-8.880704
233,-0.09837982058525085,4.6752238273620605,78.47679138183594,-0.010100245414729278,2.713610701033267,-90.27001854051473,-6.4282994,8.842016,23.005869,12.169202,-7.753644,-3.20903,-2.5403843,-7.4344163,-28.970957,7.5992246,-6.761916,3.2540998,-0.35233805,-3.597326,7.9950433,5.9185543,29.850227,-29.547438,49.440956,11.85138,1.1072704,-4.6986237,-114.560486,-61.696575,26.271456,-0.14620957,59.64849,-11.402794,-8.762605
234,-0.09978796541690826,4.6183576583862305,78.47745513916016,-0.00906878602756806,2.6321410198005246,-90.28007505573002,-6.2927103,8.84818,23.01227,12.198031,-7.8178086,-3.210957,-2.394641,-7.429451,-28.959867,7.586879,-6.805133,3.2733169,-0.35755825,-3.646495,7.91947,5.93503,29.861391,-29.531176,49.45301,11.851877,1.1276393,-4.6863775,-114.910034,-61.71693,26.447128,-0.47994825,59.592747,-11.455936,-8.64585
235,-0.1014210432767868,4.564051151275635,78.47709655761719,-0.0078539975576137,2.54997486639422,-90.29061178184907,-6.153893,8.853295,23.019127,12.222276,-7.880048,-3.2139595,-2.245361,-7.423097,-28.948627,7.5684137,-6.8459454,3.2928216,-0.36291406,-3.696706,7.8426228,5.951406,29.871971,-29.51781,49.46674,11.854991,1.1466607,-4.6700325,-115.24052,-61.7368,26.607992,-0.81710166,59.54569,-11.508886,-8.521579
236,-0.09991131722927094,4.507379055023193,78.4773178100586,-0.006111449908152053,2.468137285367418,-90.30061701226039,-6.0099907,8.85477,23.026722,12.233937,-7.9373574,-3.2203805,-2.0969825,-7.4183297,-28.938107,7.55174,-6.886549,3.3152206,-0.3700524,-3.7460995,7.7668066,5.969366,29.881796,-29.502762,49.48059,11.856576,1.1537781,-4.6448565,-115.55704,-61.756306,26.755905,-1.163096,59.5258,-11.556594,-8.385988
237,-0.09881815314292908,4.450447082519531,78.47824096679688,-0.00337369571658963,2.3851347374399223,-90.30937673750165,-5.8571687,8.850309,23.034723,12.227389,-7.988172,-3.2319214,-1.9429715,-7.4138556,-28.930403,7.5282383,-6.9236426,3.343418,-0.37101015,-3.7882311,7.6982136,5.9910917,29.893784,-29.490597,49.48209,11.84933,1.1413946,-4.598665,-115.90179,-61.78214,26.933365,-1.5013349,59.546604,-11.599242,-8.242926
238,-0.09804433584213257,4.392943382263184,78.47879791259766,0.00016040925074572442,2.3013193441040674,-90.3175590975133,-5.697048,8.841493,23.043242,12.206825,-8.033409,-3.2469532,-1.7862586,-7.4103246,-28.923815,7.5024347,-6.959539,3.3754628,-0.3789425,-3.8341012,7.627561,6.0159636,29.902748,-29.474747,49.490227,11.838752,1.1169769,-4.533784,-116.20244,-61.805717,27.07015,-1.861569,59.58605,-11.631976,-8.087651
239,-0.09836985170841217,4.334622383117676,78.4806900024414,0.0036204649577774094,2.219406570127983,-90.32621176397262,-5.5376005,8.832722,23.052387,12.18276,-8.076862,-3.2630804,-1.6313341,-7.405564,-28.916813,7.474764,-6.9934716,3.4058666,-0.39732677,-3.886367,7.547704,6.0426817,29.906982,-29.451385,49.512573,11.838195,1.091497,-4.4777665,-116.43471,-61.82028,27.143766,-2.249048,59.631176,-11.660688,-7.9179997
