unveil-humanoid-operators/unveil-humanoid-operators.github.io/feature-analysis-animation/data/feature_matrix_instances/weight_ankle_peak_vel_kneeling_A193.csv
Frame,root_translateX,root_translateY,root_translateZ,root_rotateX,root_rotateY,root_rotateZ,left_hip_pitch_joint_dof,left_hip_roll_joint_dof,left_hip_yaw_joint_dof,left_knee_joint_dof,left_ankle_pitch_joint_dof,left_ankle_roll_joint_dof,right_hip_pitch_joint_dof,right_hip_roll_joint_dof,right_hip_yaw_joint_dof,right_knee_joint_dof,right_ankle_pitch_joint_dof,right_ankle_roll_joint_dof,waist_yaw_joint_dof,waist_roll_joint_dof,waist_pitch_joint_dof,left_shoulder_pitch_joint_dof,left_shoulder_roll_joint_dof,left_shoulder_yaw_joint_dof,left_elbow_joint_dof,left_wrist_roll_joint_dof,left_wrist_pitch_joint_dof,left_wrist_yaw_joint_dof,right_shoulder_pitch_joint_dof,right_shoulder_roll_joint_dof,right_shoulder_yaw_joint_dof,right_elbow_joint_dof,right_wrist_roll_joint_dof,right_wrist_pitch_joint_dof,right_wrist_yaw_joint_dof
0,0.5547565221786499,1.195839285850525,77.99908447265625,0.7577473724227384,-1.7174358655053945,-89.00323741249423,3.0293617,2.4093475,6.9161325,9.31869,-11.672695,-1.9668874,5.2233944,-5.5676794,-12.40974,9.258069,-13.220375,4.933505,-2.8057249,0.75533026,3.1505327,6.067539,14.359702,-28.141436,60.999542,-3.0266228,-4.359198,0.073129356,4.8444233,-11.506374,18.804998,66.09543,17.496338,-6.1658654,-6.4678726
1,0.5685846209526062,1.1998345851898193,78.000732421875,0.7819245831769731,-1.6981116504564668,-88.82940060315623,2.9692268,2.3316267,6.7580404,9.307144,-11.631364,-1.9253058,5.2424974,-5.638875,-12.575246,9.262377,-13.235776,4.96511,-3.0008757,0.71679074,3.140243,5.970011,14.384837,-28.210135,61.07092,-3.1398761,-4.347732,0.013391524,4.8090672,-11.500541,18.649372,66.12146,17.498585,-6.1611605,-6.5264196
2,0.5872524976730347,1.1964608430862427,78.00261688232422,0.8043926893524115,-1.677800393527754,-88.65640075210446,2.9096692,2.2539482,6.6004386,9.29291,-11.589658,-1.8848363,5.259284,-5.7101045,-12.739698,9.269546,-13.253128,4.99667,-3.1248276,0.668852,3.131495,5.839652,14.438575,-28.36441,61.145653,-3.2891808,-4.3329268,-0.05153332,4.816926,-11.476904,18.401718,66.11904,17.471622,-6.1547647,-6.582524
3,0.6067830920219421,1.1970924139022827,78.00416564941406,0.8278751763593335,-1.6597683608580598,-88.48164300885848,2.85016,2.175384,6.442265,9.2824,-11.547426,-1.8423356,5.279189,-5.7819214,-12.90612,9.27494,-13.268339,5.028314,-3.27726,0.6187031,3.1243367,5.7198057,14.486757,-28.486341,61.217808,-3.4087384,-4.319786,-0.10709351,4.8032155,-11.451436,18.188856,66.13279,17.456924,-6.153554,-6.635791
4,0.6240805387496948,1.2036559581756592,78.00586700439453,0.8513831866796313,-1.6472974553044666,-88.30225817674236,2.791068,2.094573,6.2825003,9.2802515,-11.5033045,-1.7947243,5.307622,-5.8552036,-13.07776,9.275177,-13.278996,5.06016,-3.4268007,0.5609754,3.1287563,5.585679,14.541039,-28.616665,61.2905,-3.4792976,-4.308705,-0.13983126,4.791419,-11.422036,17.964767,66.137245,17.445406,-6.162837,-6.672912
5,0.6450945734977722,1.209498405456543,78.0093994140625,0.874607201928227,-1.6444644083703763,-88.11763633241374,2.7461486,2.0091834,6.121983,9.267716,-11.446832,-1.7403167,5.350171,-5.931735,-13.256683,9.269663,-13.285853,5.0915895,-3.5811021,0.49586818,3.1484969,5.4411373,14.598826,-28.751879,61.36428,-3.471233,-4.2989497,-0.1349382,4.781488,-11.391994,17.732428,66.1309,17.442284,-6.189537,-6.6823626
6,0.6679748296737671,1.2158949375152588,78.01326751708984,0.898067985037216,-1.6485721248605123,-87.92907356943493,2.7105045,1.9209179,5.9607987,9.249838,-11.382603,-1.6810952,5.402528,-6.01021,-13.440918,9.259778,-13.2895,5.1227,-3.7372959,0.42589587,3.179827,5.2888646,14.6598,-28.89216,61.43767,-3.408199,-4.2902164,-0.10367675,4.775133,-11.361673,17.4925,66.11436,17.444809,-6.228335,-6.6716948
7,0.696998119354248,1.2220001220703125,78.0193862915039,0.9196891105537888,-1.6520819411366223,-87.73737316076485,2.6552167,1.8337343,5.797144,9.267076,-11.331418,-1.6194243,5.455251,-6.088058,-13.627056,9.245765,-13.287145,5.1550303,-3.8869436,0.34900284,3.217864,5.1255126,14.732398,-29.037304,61.502113,-3.337036,-4.284364,-0.072138496,4.77042,-11.328449,17.246386,66.08586,17.44722,-6.2664046,-6.660041
8,0.728694498538971,1.2332593202590942,78.02471160888672,0.9372410217351018,-1.6478817108450958,-87.54288599257667,2.5499701,1.7519722,5.6290255,9.36399,-11.316499,-1.557713,5.499136,-6.162412,-13.811806,9.224906,-13.27347,5.190066,-4.0393257,0.26981467,3.2576494,4.953572,14.810573,-29.163465,61.553333,-3.295587,-4.2845626,-0.06584979,4.757678,-11.296837,17.018658,66.04743,17.4511,-6.2901683,-6.666767
9,0.7572919130325317,1.2525036334991455,78.0303955078125,0.9510295122884778,-1.6362197228540751,-87.34326216857491,2.384062,1.6770228,5.4523654,9.562351,-11.347981,-1.4985894,5.5356207,-6.232276,-13.99441,9.195725,-13.246319,5.228878,-4.1959395,0.18974732,3.2979865,4.768072,14.887824,-29.262667,61.59657,-3.2945008,-4.2949305,-0.1024349,4.737707,-11.270457,16.8186,65.99728,17.462101,-6.2943206,-6.701672
10,0.7901923060417175,1.2715227603912354,78.03571319580078,0.9603160100932298,-1.6202191740664036,-87.13901212705896,2.1702259,1.6064354,5.269339,9.84436,-11.415621,-1.4401478,5.5672655,-6.2996535,-14.176424,9.161659,-13.209486,5.2704487,-4.348436,0.10346344,3.3432775,4.573539,14.978246,-29.35235,61.622303,-3.3155222,-4.3117685,-0.16595976,4.7170076,-11.244426,16.62687,65.93198,17.476053,-6.286772,-6.7520514
11,0.828177273273468,1.2900426387786865,78.0418472290039,0.9662203189338732,-1.5969677526613006,-86.93563124341377,1.9290853,1.5384059,5.0878754,10.161659,-11.499791,-1.3781254,5.5909514,-6.363597,-14.358368,9.120158,-13.163612,5.3129115,-4.508106,0.022113567,3.389146,4.3663177,15.060036,-29.428165,61.6508,-3.3432465,-4.3311434,-0.22569288,4.686798,-11.224621,16.449059,65.86006,17.488049,-6.2724156,-6.8059955
12,0.8656743168830872,1.3108350038528442,78.04700469970703,0.9676700665581269,-1.5631730394780947,-86.73836647786284,1.668559,1.4730979,4.9152007,10.492116,-11.589053,-1.3083948,5.6019363,-6.423247,-14.540771,9.0713215,-13.110532,5.3543615,-4.6588426,-0.056688733,3.4381537,4.151889,15.15436,-29.519947,61.665108,-3.3776484,-4.3450108,-0.25569215,4.6546936,-11.203646,16.2539,65.774376,17.48175,-6.2565875,-6.8483963
13,0.9112085103988647,1.3360987901687622,78.05292510986328,0.9643867970030727,-1.5159774368671397,-86.54639382825803,1.3874606,1.4098238,4.7518888,10.831,-11.680969,-1.228824,5.5992694,-6.4783535,-14.727594,9.0110235,-13.048301,5.3945146,-4.808655,-0.13120815,3.4868035,3.931532,15.25636,-29.622597,61.669544,-3.415778,-4.3512506,-0.24323717,4.615614,-11.181435,16.039581,65.67836,17.45024,-6.2364626,-6.8737555
14,0.9599916934967041,1.3728649616241455,78.05829620361328,0.9562197922651052,-1.4577708294607583,-86.35769305199751,1.0803005,1.3492236,4.59437,11.1950865,-11.783368,-1.1418043,5.584643,-6.529628,-14.917044,8.942688,-12.978026,5.434328,-4.9594526,-0.20067392,3.5348725,3.6995196,15.356271,-29.727379,61.673832,-3.4586854,-4.354456,-0.20368482,4.569065,-11.159945,15.817954,65.57453,17.402395,-6.210859,-6.890589
15,1.0058643817901611,1.4088459014892578,78.06443786621094,0.9451453011703034,-1.3932034035411534,-86.17572221547182,0.75624204,1.2911117,4.4442687,11.577099,-11.89367,-1.0496907,5.560386,-6.5773325,-15.1016445,8.869819,-12.90162,5.4738517,-5.1050854,-0.26583764,3.5865479,3.4538581,15.455457,-29.83668,61.67747,-3.505556,-4.3575115,-0.1515899,4.5160365,-11.1403475,15.600819,65.46472,17.350842,-6.1873803,-6.9074793
16,1.0558202266693115,1.445443034172058,78.07054901123047,0.9280326489409734,-1.3267699649787932,-86.00387110209677,0.42317766,1.2358912,4.3032036,11.972848,-12.010796,-0.9550525,5.5277762,-6.62224,-15.273798,8.796715,-12.820728,5.5133686,-5.2416754,-0.32736441,3.6462302,3.1959088,15.555608,-29.948427,61.677433,-3.5533733,-4.363479,-0.10202399,4.4565535,-11.124575,15.403214,65.35179,17.309504,-6.17386,-6.9328485
17,1.1095083951950073,1.4880623817443848,78.0753402709961,0.9083080723267891,-1.2621710701249786,-85.84106118438373,0.085418,1.1805823,4.1689615,12.381564,-12.135065,-0.8568559,5.488846,-6.6671047,-15.432663,8.730742,-12.741233,5.5527163,-5.370506,-0.38677788,3.7160563,2.9269183,15.658445,-30.06533,61.67124,-3.6157324,-4.3780103,-0.050831705,4.3916316,-11.114402,15.231242,65.23598,17.283035,-6.1714373,-6.9752045
18,1.1677683591842651,1.5297235250473022,78.0797119140625,0.887305411653659,-1.1961205571043072,-85.68631441738438,-0.2619791,1.1261132,4.04155,12.80517,-12.266805,-0.7542175,5.4424553,-6.711164,-15.581619,8.665508,-12.658604,5.591981,-5.4934244,-0.44303504,3.7941554,2.6485016,15.764086,-30.186426,61.657227,-3.68913,-4.397713,0.0066505736,4.32153,-11.1094055,15.077738,65.11401,17.26486,-6.175936,-7.027373
19,1.2292886972427368,1.5806008577346802,78.084228515625,0.8582872771141458,-1.1228676676558376,-85.54270041514928,-0.62455344,1.077968,3.925811,13.243236,-12.404991,-0.6496453,5.3838744,-6.749037,-15.720024,8.596008,-12.568846,5.631256,-5.6100245,-0.49204952,3.87688,2.3560994,15.864902,-30.303406,61.644974,-3.7455654,-4.412743,0.057758085,4.2425604,-11.109321,14.938468,64.98768,17.250383,-6.1876187,-7.0756326
20,1.2979618310928345,1.6385115385055542,78.0870132446289,0.8216743889094514,-1.0366232910431745,-85.41368968462025,-1.0072387,1.0417334,3.8265736,13.694114,-12.5480585,-0.5455373,5.3076334,-6.7755466,-15.846891,8.516606,-12.466821,5.6705437,-5.7114835,-0.5345935,3.965839,2.0562043,15.976667,-30.417553,61.616833,-3.7629473,-4.4110646,0.086583145,4.158852,-11.111928,14.798731,64.84698,17.233673,-6.2062287,-7.1033397
21,1.3624546527862549,1.6907297372817993,78.091064453125,0.7751056355962124,-0.9338201944321382,-85.29905312725892,-1.4176046,1.0196062,3.7460337,14.164966,-12.699115,-0.44022226,5.211207,-6.7889676,-15.962916,8.423723,-12.350968,5.710055,-5.8021264,-0.56842697,4.056847,1.7413298,16.088211,-30.51464,61.58677,-3.6984444,-4.379292,0.08066848,4.0663757,-11.116368,14.665128,64.697205,17.212093,-6.2378073,-7.1005754
22,1.4345256090164185,1.7516415119171143,78.0932846069336,0.7197368882085885,-0.8183095733324411,-85.19749032204275,-1.8501545,1.0084257,3.681088,14.653511,-12.858038,-0.33270457,5.1036572,-6.7904873,-16.068903,8.307999,-12.218646,5.7497306,-5.8933163,-0.5887897,4.143063,1.393814,16.164728,-30.588669,61.59795,-3.567832,-4.33043,0.056138404,3.953788,-11.123063,14.554258,64.55943,17.190931,-6.2821016,-7.0826097
23,1.512597918510437,1.8225470781326294,78.09429931640625,0.6564431292308637,-0.695214180952711,-85.11039299431145,-2.2936168,1.0056789,3.6287708,15.146857,-13.018537,-0.22679327,4.9762278,-6.7865744,-16.16157,8.201523,-12.082763,5.7893963,-5.952712,-0.60997397,4.246991,1.0569063,16.288944,-30.692877,61.54931,-3.4658163,-4.2814493,0.023916725,3.8531382,-11.134746,14.419649,64.38524,17.168411,-6.3239365,-7.055217
24,1.5899101495742798,1.8949471712112427,78.09317016601562,0.5880479031949322,-0.5701755152375891,-85.03913001757266,-2.7376578,1.0094976,3.5858872,15.6348505,-13.175525,-0.12658869,4.8401275,-6.777122,-16.239931,8.093045,-11.938281,5.828901,-6.0198803,-0.62351,4.3562136,0.72347325,16.406668,-30.794172,61.49939,-3.4400637,-4.2626395,0.015642453,3.7238266,-11.148033,14.311159,64.22596,17.161114,-6.3559394,-7.048765
25,1.6736879348754883,1.9723063707351685,78.0929946899414,0.5119425949806911,-0.44773465347376923,-84.9840943950843,-3.181045,1.020176,3.5505967,16.12561,-13.33074,-0.032932673,4.6997566,-6.7613153,-16.304363,7.9849887,-11.785978,5.867877,-6.0818496,-0.6287303,4.4778576,0.39227465,16.52983,-30.922068,61.437603,-3.5528889,-4.2901044,0.039426472,3.5755396,-11.165609,14.215774,64.0713,17.168192,-6.3743267,-7.0676184
26,1.7625640630722046,2.0570929050445557,78.0917739868164,0.4288324930377918,-0.3239438895972883,-84.94456264354456,-3.6254723,1.0382209,3.5249357,16.613865,-13.484179,0.0562236,4.551249,-6.738775,-16.355515,7.8758454,-11.625395,5.906602,-6.1380763,-0.6259523,4.6084404,0.057549123,16.653635,-31.066212,61.370605,-3.7536933,-4.347604,0.08198689,3.410179,-11.187914,14.132295,63.91996,17.185522,-6.3850904,-7.101132
27,1.861491084098816,2.1309571266174316,78.09087371826172,0.3392989288953283,-0.1916812955940159,-84.91997553591271,-4.074955,1.0629997,3.5112488,17.091087,-13.633192,0.14058788,4.386908,-6.7112923,-16.39225,7.763792,-11.457022,5.9454546,-6.188445,-0.6176703,4.7431645,-0.27608958,16.777746,-31.205008,61.292904,-3.9542904,-4.4084806,0.1317993,3.2328749,-11.212559,14.053313,63.76349,17.210882,-6.3894196,-7.139682
28,1.9464168548583984,2.2156267166137695,78.08950805664062,0.24878151728608663,-0.04407136358238651,-84.90968716312892,-4.528703,1.0931512,3.5121005,17.538809,-13.771374,0.2195673,4.1994133,-6.6801496,-16.413107,7.646725,-11.281552,5.984719,-6.233849,-0.6077299,4.875657,-0.60337377,16.901226,-31.313807,61.200966,-4.064194,-4.4460382,0.17782333,3.0462742,-11.237155,13.971526,63.597576,17.240746,-6.389296,-7.1746435
29,2.037987232208252,2.3063364028930664,78.08697509765625,0.15467549660188762,0.12163190722846952,-84.91061187560125,-4.9921045,1.1305059,3.5251558,17.958912,-13.898426,0.2890511,4.0004315,-6.6394134,-16.422607,7.4924293,-11.083374,6.025038,-6.2757277,-0.59412575,5.005541,-0.9283533,17.022644,-31.38508,61.09735,-4.027424,-4.4440136,0.21927199,2.8473194,-11.260493,13.89354,63.42973,17.254091,-6.3861256,-7.2106357
30,2.131744623184204,2.407916307449341,78.08250427246094,0.0564179880960736,0.30122346196000355,-84.92435649108373,-5.4629235,1.1747574,3.5501716,18.357664,-14.016038,0.3498839,3.7889075,-6.591111,-16.41962,7.314036,-10.868424,6.066132,-6.314191,-0.57689124,5.134488,-1.2526602,17.142258,-31.431265,60.985504,-3.9025428,-4.4195623,0.26166868,2.6339,-11.283649,13.820857,63.262676,17.25862,-6.3790207,-7.2506995
31,2.234161376953125,2.5103533267974854,78.07811737060547,-0.042647351066521254,0.49138161766510347,-84.95626129451836,-5.9304743,1.223133,3.5924156,18.727118,-14.124762,0.40859672,3.5417285,-6.547017,-16.395647,7.1704063,-10.665423,6.1070666,-6.347368,-0.56069577,5.262628,-1.5667316,17.261765,-31.458672,60.859592,-3.7704883,-4.3963943,0.30305883,2.41179,-11.304267,13.740825,63.08064,17.29698,-6.365708,-7.2827544
32,2.3424413204193115,2.6006875038146973,78.07373809814453,-0.13987948915297735,0.6887863607581083,-85.01181894693849,-6.3844237,1.272736,3.6569316,19.05916,-14.225221,0.47209325,3.2338498,-6.518311,-16.342316,7.1256766,-10.506629,6.146594,-6.3733134,-0.5512437,5.3892684,-1.8613955,17.384483,-31.474657,60.714462,-3.7130322,-4.398075,0.34175134,2.1862202,-11.3198805,13.63966,62.868587,17.410692,-6.343236,-7.295609
33,2.4511003494262695,2.701240301132202,78.06900024414062,-0.23466988895705,0.8881044618942392,-85.0921825490395,-6.8158255,1.3239787,3.7454484,19.350706,-14.318814,0.5434789,2.858418,-6.509468,-16.256073,7.2094035,-10.409011,6.184259,-6.388235,-0.55440885,5.518852,-2.1338549,17.512712,-31.47755,60.550083,-3.7625842,-4.4385586,0.37693167,1.9547836,-11.330797,13.52966,62.63639,17.587337,-6.312202,-7.291725
34,2.559898614883423,2.8065249919891357,78.06392669677734,-0.32970600015234236,1.0923529338544364,-85.19434120838085,-7.230292,1.3793837,3.8544924,19.60244,-14.404538,0.6184525,2.4245222,-6.51377,-16.141685,7.393787,-10.356951,6.220584,-6.394815,-0.5661265,5.650482,-2.3872032,17.647226,-31.464176,60.365734,-3.871973,-4.5025616,0.40918046,1.7167293,-11.337514,13.41305,62.38422,17.81242,-6.271539,-7.276111
35,2.672739267349243,2.9065630435943604,78.0595932006836,-0.4249919774208217,1.3105044798031775,-85.31753401062828,-7.6467133,1.438919,3.9815714,19.828789,-14.480835,0.6932849,1.9480305,-6.521713,-16.004816,7.6181192,-10.317997,6.2564225,-6.399266,-0.5778246,5.776757,-2.6221094,17.789427,-31.441654,60.155056,-4.005745,-4.5697527,0.4391715,1.4730141,-11.3360195,13.2585535,62.100227,18.123503,-6.22653,-7.2383943
36,2.7872724533081055,3.00650691986084,78.05484771728516,-0.5210626691407998,1.5515643121102545,-85.46108805723031,-8.083025,1.502831,4.1241493,20.041695,-14.547122,0.76435214,1.4279686,-6.528995,-15.849027,7.8581734,-10.27348,6.292666,-6.406151,-0.5825131,5.8893685,-2.8408213,17.94124,-31.419579,59.913673,-4.1280837,-4.6196804,0.4680824,1.2234886,-11.3212185,13.032139,61.77515,18.556768,-6.182702,-7.169056
37,2.908283233642578,3.1173038482666016,78.04830932617188,-0.6208965102879125,1.8244363796135874,-85.62202506734212,-8.548649,1.5732696,4.279244,20.238268,-14.60131,0.82844377,0.85892546,-6.5322876,-15.680085,8.106105,-10.21906,6.327684,-6.4201183,-0.57555604,5.98164,-3.0424302,18.10389,-31.395926,59.632473,-4.2357817,-4.6404924,0.49579242,0.9645478,-11.289474,12.71617,61.410023,19.155027,-6.134065,-7.0467324
38,3.0278234481811523,3.2280445098876953,78.04358673095703,-0.723844332256189,2.1217146376439935,-85.80150835038926,-9.032539,1.6497312,4.4487553,20.41505,-14.645184,0.888538,0.24220276,-6.5343447,-15.494319,8.377945,-10.164956,6.3619323,-6.4361687,-0.5641507,6.059214,-3.2269938,18.278101,-31.369692,59.317265,-4.346704,-4.64506,0.5220287,0.693151,-11.241758,12.32875,61.01679,19.886358,-6.0815988,-6.883421
39,3.150712728500366,3.350832939147949,78.04097747802734,-0.8247873936618045,2.427946894403575,-86.00561100708667,-9.519093,1.728764,4.6372657,20.57767,-14.680804,0.9501932,-0.4101203,-6.5388207,-15.28192,8.68113,-10.115226,6.3988953,-6.445046,-0.5559594,6.1327124,-3.3968441,18.46488,-31.34875,58.98396,-4.455498,-4.650087,0.5476421,0.41656163,-11.177128,11.891685,60.586815,20.674944,-6.0343533,-6.720362
40,3.2748184204101562,3.4599437713623047,78.0372543334961,-0.9188573828568241,2.7278680042357615,-86.24008456236413,-9.992666,1.8064119,4.8497405,20.731382,-14.710041,1.0190308,-1.0858713,-6.5486307,-15.032895,9.022512,-10.0735035,6.4418535,-6.437074,-0.55898935,6.21306,-3.5538702,18.665071,-31.34121,58.64775,-4.5564055,-4.6722627,0.5732625,0.1393119,-11.093332,11.425677,60.11907,21.445257,-6.0069184,-6.597276
41,3.4028544425964355,3.573989152908325,78.03350067138672,-1.0089529309656873,3.0275147568844543,-86.51284430022751,-10.461532,1.8870081,5.0904284,20.878986,-14.733597,1.0957965,-1.7988731,-6.5585566,-14.740379,9.408643,-10.036457,6.4851646,-6.4085665,-0.5699381,6.3004413,-3.6966786,18.880579,-31.349447,58.30252,-4.6519256,-4.7193694,0.5963217,-0.13987881,-10.986542,10.901818,59.60119,22.209398,-5.992645,-6.5048757
42,3.530580520629883,3.706331253051758,78.02732849121094,-1.0967961813010418,3.331513375840014,-86.81855256258059,-10.929101,1.9710087,5.35575,21.015293,-14.749452,1.1779504,-2.5487688,-6.566686,-14.411329,9.830919,-10.001468,6.5292244,-6.3646297,-0.58768713,6.389675,-3.8244314,19.112263,-31.369886,57.942863,-4.744073,-4.7812285,0.61727464,-0.4257739,-10.85653,10.318684,59.041176,22.995583,-5.988577,-6.4288383
43,3.659639596939087,3.841634750366211,78.02141571044922,-1.1761109954159563,3.622913672270518,-87.14343330001688,-11.375842,2.0490153,5.638922,21.141825,-14.759892,1.2660942,-3.3050306,-6.582448,-14.05559,10.28304,-9.980134,6.585951,-6.310455,-0.62286747,6.4835796,-3.9395552,19.358505,-31.399536,57.585697,-4.8261604,-4.847685,0.64157516,-0.7187842,-10.708809,9.74256,58.466698,23.755245,-6.016124,-6.400644
44,3.78985595703125,3.968270778656006,78.01703643798828,-1.2404612436016056,3.885101430154428,-87.47347431876373,-11.780342,2.1119733,5.9332376,21.254585,-14.764093,1.3607683,-4.039983,-6.6148205,-13.682694,10.762774,-9.985833,6.666606,-6.253478,-0.6830002,6.5856237,-4.0430627,19.61577,-31.432123,57.24641,-4.8905816,-4.9086647,0.6744304,-1.0174081,-10.550442,9.243619,57.901955,24.441677,-6.096847,-6.4508266
45,3.924420118331909,4.085232734680176,78.01254272460938,-1.2845736974878876,4.118802350768332,-87.81975962409243,-12.139062,2.1566775,6.2518244,21.347433,-14.757643,1.4657174,-4.753235,-6.670622,-13.296177,11.252849,-10.002898,6.7857075,-6.1894026,-0.7711389,6.697497,-4.1311555,19.881578,-31.461208,56.916897,-4.9429584,-4.963681,0.72338414,-1.3240448,-10.382425,8.828535,57.346203,25.063984,-6.250227,-6.6071486
46,4.063995838165283,4.210838794708252,78.00626373291016,-1.3133259002206665,4.331504464999655,-88.18474784281987,-12.462879,2.1881702,6.5936284,21.424166,-14.742583,1.5796466,-5.4593587,-6.742671,-12.890144,11.763112,-10.032438,6.9324484,-6.1185756,-0.8799622,6.817016,-4.204208,20.155525,-31.488443,56.593895,-4.983859,-5.017711,0.78358954,-1.6385496,-10.204324,8.467304,56.7876,25.641018,-6.461888,-6.8454647
47,4.195181846618652,4.334591865539551,77.998291015625,-1.3345421253921232,4.517485284344416,-88.54134726099525,-12.751581,2.2087557,6.9310803,21.494009,-14.726845,1.6955601,-6.1473823,-6.818973,-12.460183,12.318369,-10.103046,7.0801425,-6.054812,-1.0018287,6.942628,-4.2681203,20.436409,-31.51896,56.298103,-4.996785,-5.0688477,0.84179926,-1.9522097,-10.021981,8.174499,56.231453,26.14131,-6.7018685,-7.118032
48,4.327451705932617,4.4594550132751465,77.98886108398438,-1.3554074613606437,4.670768310674328,-88.86279128425339,-13.004987,2.2202291,7.2366924,21.565865,-14.717958,1.8064332,-6.8010035,-6.887369,-12.002885,12.932914,-10.241592,7.2021737,-6.0133433,-1.128384,7.073109,-4.327622,20.722288,-31.5554,56.049583,-4.964281,-5.1153135,0.8845976,-2.2548232,-9.845088,7.9667287,55.681175,26.534603,-6.938334,-7.377439
49,4.462103366851807,4.578793048858643,77.97859191894531,-1.3678644448677766,4.785904686770144,-89.14757988906729,-13.211769,2.212695,7.512329,21.628368,-14.712244,1.9114219,-7.4171686,-6.948703,-11.487186,13.567592,-10.458666,7.311209,-6.000438,-1.2645857,7.213155,-4.3801384,21.01159,-31.596891,55.85143,-4.8621244,-5.1632795,0.9055668,-2.5462568,-9.6779175,7.857463,55.133022,26.795128,-7.172617,-7.626122
50,4.589385032653809,4.679957389831543,77.9659652709961,-1.3704734679286157,4.8677094208735925,-89.40823432538514,-13.376621,2.1879508,7.769889,21.682247,-14.707951,2.0139031,-8.004155,-7.0080876,-10.925049,14.227474,-10.738413,7.4145646,-6.007517,-1.4095174,7.362323,-4.424086,21.303114,-31.641088,55.692844,-4.7061095,-5.21176,0.9124508,-2.8272913,-9.518655,7.8367076,54.58226,26.946947,-7.416143,-7.8839545
51,4.71651029586792,4.778791427612305,77.95263671875,-1.379652978558951,4.926113549579886,-89.63900333646403,-13.5205,2.1650853,7.997266,21.747435,-14.7117605,2.1132677,-8.572163,-7.064634,-10.375156,15.012089,-11.071827,7.4770203,-6.0266905,-1.5474154,7.5104985,-4.46621,21.595203,-31.689514,55.57425,-4.538217,-5.24805,0.9137419,-3.0880764,-9.37009,7.8846664,54.03118,27.03472,-7.6517744,-8.129788
52,4.837206840515137,4.867711067199707,77.94534301757812,-1.4101290857725268,4.971245043327522,-89.83421764621113,-13.664356,2.1616368,8.18313,21.843645,-14.73021,2.209247,-9.128412,-7.1201057,-9.895522,16.013767,-11.449014,7.461772,-6.0495434,-1.6620177,7.6484427,-4.513914,21.885262,-31.744709,55.49567,-4.4009905,-5.2596927,0.9171316,-3.3169458,-9.235256,7.9810348,53.478405,27.104662,-7.861851,-8.341087
53,4.951443195343018,4.946696758270264,77.94193267822266,-1.4651271751874175,5.0061439265631815,-89.99628814723981,-13.81227,2.1829576,8.328402,21.972826,-14.762277,2.3046205,-9.683584,-7.1758194,-9.472215,17.239702,-11.855943,7.3670654,-6.072791,-1.7509036,7.7706604,-4.5749097,22.172451,-31.819664,55.468235,-4.304612,-5.2384615,0.92116207,-3.5110414,-9.11722,8.141505,52.918285,27.168411,-8.054078,-8.529001
54,5.058499813079834,5.029524803161621,77.93780517578125,-1.5328694008086308,5.025083936242977,-90.12678251456647,-13.95326,2.2151253,8.439281,22.125078,-14.805723,2.3992035,-10.226437,-7.2411194,-9.08056,18.63624,-12.298992,7.2050447,-6.1003447,-1.8243974,7.883311,-4.6447754,22.45571,-31.909733,55.489326,-4.226156,-5.1929116,0.9226519,-3.6734462,-9.015205,8.369392,52.350185,27.202932,-8.232589,-8.69925
55,5.164002418518066,5.108358383178711,77.9279556274414,-1.6031695673485793,5.0241609420913695,-90.21836597625757,-14.077348,2.242687,8.513446,22.28674,-14.855032,2.4889548,-10.742863,-7.3400273,-8.757711,20.231695,-12.808723,6.9591656,-6.134635,-1.8902825,7.9929276,-4.716919,22.73237,-31.994934,55.54371,-4.161697,-5.1352973,0.92763513,-3.8034375,-8.928936,8.624566,51.78409,27.201014,-8.375655,-8.821798
56,5.26362419128418,5.174317359924316,77.91998291015625,-1.6654202235713713,4.999658498253754,-90.26355743002503,-14.176983,2.2499235,8.54854,22.44988,-14.908067,2.5696955,-11.211036,-7.496488,-8.54109,22.039284,-13.408279,6.61387,-6.1768503,-1.9564776,8.106644,-4.78518,22.99828,-32.05534,55.61663,-4.1064515,-5.077889,0.94251037,-3.8995366,-8.857474,8.865875,51.228516,27.155933,-8.461212,-8.866556
57,5.364774703979492,5.239211559295654,77.90738677978516,-1.7156538350506185,4.937671852381505,-90.25815082501015,-14.231833,2.2298055,8.542435,22.604147,-14.963633,2.6379974,-11.622036,-7.7321143,-8.445596,24.107092,-14.139006,6.1267076,-6.2292585,-2.0276217,8.233519,-4.8560166,23.251404,-32.101513,55.72253,-4.062594,-5.0169935,0.9723317,-3.96024,-8.80389,9.102271,50.684025,27.05195,-8.473343,-8.813164
58,5.46018123626709,5.290759563446045,77.89458465576172,-1.7541754063977855,4.84314534626953,-90.20553437831063,-14.247869,2.1846912,8.498449,22.75212,-15.021076,2.6976817,-11.972817,-8.047505,-8.440492,26.384785,-14.970973,5.5136795,-6.2903023,-2.103729,8.367799,-4.932493,23.490921,-32.13988,55.86695,-4.0309944,-4.9486,1.0127268,-3.9849622,-8.768706,9.348139,50.144974,26.897697,-8.427066,-8.681716
59,5.544404983520508,5.341221809387207,77.88072204589844,-1.7793715070570906,4.740261733158819,-90.10991237469608,-14.256404,2.114541,8.422003,22.900259,-15.076088,2.7553995,-12.257274,-8.429056,-8.497279,28.754221,-15.821108,4.8491874,-6.3554153,-2.1847246,8.493093,-5.0069275,23.715126,-32.14767,56.02674,-4.006061,-4.884914,1.0565927,-3.9765437,-8.746876,9.569632,49.61575,26.721415,-8.347691,-8.502928
60,5.619826316833496,5.3789472579956055,77.86762237548828,-1.79225749088318,4.653739508930825,-89.97597812189287,-14.290475,2.0225253,8.31768,23.057278,-15.125563,2.8172245,-12.473655,-8.854318,-8.593547,31.105978,-16.609318,4.2101974,-6.41906,-2.2683215,8.592669,-5.0716414,23.921844,-32.101074,56.179096,-3.980717,-4.837938,1.0967344,-3.93777,-8.729173,9.731712,49.10137,26.55,-8.260654,-8.308017
61,5.691025733947754,5.4215922355651855,77.84976959228516,-1.7966783946512301,4.585762130002048,-89.79872838816321,-14.354974,1.9115733,8.180007,23.22642,-15.166984,2.8861537,-12.610622,-9.332165,-8.774537,33.448395,-17.341518,3.5998702,-6.484916,-2.3538854,8.659847,-5.1277337,24.109741,-31.993185,56.338,-3.9548368,-4.8137465,1.1260555,-3.866345,-8.710475,9.823886,48.60132,26.367805,-8.161456,-8.083512
62,5.7654643058776855,5.458221435546875,77.82884216308594,-1.7926129555564727,4.524568235384997,-89.57759048415437,-14.438652,1.7813714,8.008116,23.412996,-15.207786,2.9578686,-12.669761,-9.870007,-9.036473,35.830738,-18.05382,2.9821262,-6.5539856,-2.44269,8.703318,-5.180581,24.278978,-31.837593,56.5137,-3.9307685,-4.8051023,1.1507431,-3.7641401,-8.69079,9.864152,48.1179,26.165304,-8.041799,-7.820817
63,5.835582733154297,5.485265254974365,77.80315399169922,-1.7774219855289286,4.474473449595428,-89.32475144294605,-14.536163,1.6300017,7.813309,23.59877,-15.24354,3.0274098,-12.668676,-10.429053,-9.288539,38.199333,-18.700428,2.3779163,-6.616831,-2.5348377,8.728099,-5.228331,24.43024,-31.643015,56.67921,-3.907624,-4.8042736,1.1838936,-3.6430357,-8.671276,9.860455,47.663654,25.979256,-7.921508,-7.5591884
64,5.904312610626221,5.513271331787109,77.77427673339844,-1.748283781041699,4.4398120991905445,-89.05226000528516,-14.65115,1.4577397,7.6065407,23.783224,-15.27959,3.0895958,-12.631618,-10.968134,-9.445196,40.510498,-19.238884,1.812317,-6.663837,-2.6298146,8.739408,-5.2697487,24.564966,-31.41865,56.807003,-3.8848586,-4.8035073,1.2384437,-3.5148137,-8.6536,9.820486,47.25057,25.847227,-7.819603,-7.337917
65,5.969639301300049,5.545223236083984,77.74234771728516,-1.701390065150141,4.417494978251276,-88.7580169170767,-14.770816,1.2593198,7.388689,23.949703,-15.31014,3.1392713,-12.562068,-11.484196,-9.505394,42.786976,-19.663857,1.2782786,-6.6906643,-2.7284737,8.74232,-5.30627,24.682768,-31.162245,56.88691,-3.8507593,-4.794505,1.3210269,-3.3714564,-8.637543,9.731685,46.86833,25.786322,-7.736606,-7.155108
66,6.023760795593262,5.572499752044678,77.70881652832031,-1.64037231406526,4.40646994839978,-88.4375255930397,-14.89867,1.0377939,7.1543474,24.105194,-15.3350525,3.1800702,-12.449575,-11.986267,-9.515518,45.044567,-19.992706,0.7732693,-6.7026205,-2.8292859,8.733085,-5.3377676,24.783146,-30.870705,56.934296,-3.8099272,-4.783426,1.4236469,-3.2102048,-8.622849,9.594131,46.514854,25.773903,-7.663291,-6.9938855
67,6.07763671875,5.591429233551025,77.67172241210938,-1.57401285919063,4.415079407780429,-88.09943351111177,-15.058703,0.8056773,6.9049683,24.27873,-15.365842,3.2205102,-12.2987995,-12.444874,-9.462127,47.22564,-20.212944,0.33087,-6.703955,-2.92668,8.703223,-5.3617234,24.864685,-30.552917,56.960632,-3.7851791,-4.7843246,1.5376111,-3.0496576,-8.610991,9.435605,46.21318,25.791113,-7.6032686,-6.870861
68,6.13288688659668,5.607870578765869,77.63455200195312,-1.511629051097308,4.451940311343928,-87.75255307542825,-15.2729645,0.5748508,6.642419,24.49457,-15.410703,3.2690291,-12.116264,-12.829849,-9.330805,49.273785,-20.311985,-0.014846035,-6.7038383,-3.0176868,8.646059,-5.3628616,24.938267,-30.209427,56.961124,-3.8003933,-4.8104815,1.6524858,-2.911662,-8.603784,9.287962,45.98678,25.818611,-7.5604305,-6.8027344
69,6.186166763305664,5.6216254234313965,77.5897445678711,-1.453500568286469,4.524163599685974,-87.39064476034791,-15.546372,0.3432803,6.359214,24.745354,-15.463006,3.3266444,-11.904213,-13.11962,-9.105736,51.18727,-20.300804,-0.22704884,-6.7061357,-3.1012638,8.548972,-5.3416414,24.999146,-29.835073,56.94256,-3.8779314,-4.8761373,1.7755413,-2.7934391,-8.602063,9.151443,45.84838,25.85848,-7.542225,-6.7991824
70,6.232974529266357,5.642323017120361,77.53971862792969,-1.39637869201552,4.625725469518364,-87.01210742646907,-15.872503,0.10776895,6.057085,25.032778,-15.52674,3.3888159,-11.662061,-13.324008,-8.807201,53.000107,-20.183315,-0.32331723,-6.696932,-3.1774213,8.41708,-5.3181815,25.037966,-29.445766,56.918777,-4.0026917,-4.9714165,1.9104561,-2.679875,-8.604822,9.003824,45.780838,25.91757,-7.544502,-6.849422
71,6.270738124847412,5.660175800323486,77.48814392089844,-1.342697353696537,4.746153042767508,-86.63326034046547,-16.237322,-0.12387109,5.7524004,25.356295,-15.604867,3.4560978,-11.391181,-13.458873,-8.466454,54.701244,-19.9277,-0.35310504,-6.697242,-3.2457888,8.278944,-5.2447996,25.085669,-29.00745,56.830883,-4.127797,-5.070893,2.0342116,-2.601852,-8.616669,8.881048,45.772137,25.990429,-7.5535765,-6.940093
72,6.3206377029418945,5.680364608764648,77.4322738647461,-1.2952043039981616,4.874736110776914,-86.27042716899005,-16.631145,-0.34373462,5.461212,25.72339,-15.704795,3.529266,-11.093938,-13.5454855,-8.114103,56.28045,-19.50376,-0.3685134,-6.6716747,-3.302271,8.151945,-5.1629605,25.133694,-28.583384,56.708576,-4.2296352,-5.152096,2.1338918,-2.5455232,-8.6404505,8.765772,45.788445,26.066998,-7.554918,-7.055344
73,6.362418174743652,5.70280647277832,77.37095642089844,-1.257709054799161,5.010350610188554,-85.92903846687898,-17.056389,-0.54475176,5.187305,26.143618,-15.835101,3.6099439,-10.769135,-13.574495,-7.744268,57.738686,-18.927416,-0.3788539,-6.609944,-3.3416107,8.043112,-5.0781717,25.17531,-28.166492,56.546135,-4.2920175,-5.2038407,2.1980124,-2.5138505,-8.675637,8.6461935,45.83337,26.14676,-7.542658,-7.2040734
74,6.405967712402344,5.722365379333496,77.30537414550781,-1.2271071788060306,5.158398658037666,-85.60051757197742,-17.519184,-0.7330195,4.922811,26.614767,-15.989006,3.6974669,-10.417933,-13.536807,-7.344594,59.082226,-18.20873,-0.35293403,-6.5255256,-3.3668354,7.941678,-4.9771156,25.213121,-27.740366,56.337936,-4.334148,-5.239874,2.2369578,-2.5061014,-8.723731,8.529533,45.91587,26.235212,-7.5248327,-7.389781
75,6.442043781280518,5.745237827301025,77.2359848022461,-1.198490532083101,5.317931706187703,-85.2787722881627,-18.013556,-0.91838825,4.664164,27.125484,-16.160698,3.7893367,-10.043863,-13.458036,-6.940067,60.307945,-17.30357,-0.28638494,-6.4291954,-3.3839877,7.8396087,-4.86553,25.25029,-27.333155,56.11114,-4.3742294,-5.2754207,2.2699108,-2.516814,-8.787649,8.432025,46.0229,26.326935,-7.508428,-7.5890255
76,6.480319976806641,5.7785539627075195,77.1570053100586,-1.165088418935801,5.487997891350737,-84.95765688778371,-18.531618,-1.1123111,4.408839,27.660349,-16.340668,3.8831842,-9.650853,-13.365159,-6.5532446,61.411587,-16.167791,-0.17483123,-6.3259273,-3.402005,7.727174,-4.7581973,25.286776,-26.982891,55.902626,-4.4321675,-5.325885,2.3173933,-2.5378368,-8.866134,8.363047,46.142067,26.413506,-7.500551,-7.77848
77,6.517454147338867,5.790578365325928,77.07569885253906,-1.126546352443269,5.671003797615814,-84.637310876158,-19.075369,-1.3153979,4.1557612,28.21923,-16.529346,3.9794464,-9.244113,-13.258443,-6.1825647,62.39561,-14.749591,-0.011982333,-6.2136774,-3.4212878,7.597177,-4.652459,25.323498,-26.697824,55.710453,-4.5198994,-5.398288,2.3882236,-2.569231,-8.962254,8.33559,46.282764,26.494837,-7.507158,-7.9595127
78,6.557901382446289,5.815568447113037,76.98548126220703,-1.0863489563709952,5.86668251616278,-84.32043521461885,-19.648285,-1.5220736,3.9064517,28.810816,-16.731977,4.079373,-8.820646,-13.120895,-5.8138275,63.25931,-13.084463,0.20495753,-6.0892577,-3.437321,7.456309,-4.5444617,25.360264,-26.460964,55.519855,-4.6254888,-5.4835496,2.4703455,-2.6133754,-9.076651,8.339621,46.44628,26.574669,-7.5228844,-8.141662
79,6.5980224609375,5.850271224975586,76.89073944091797,-1.0422094056240576,6.069608348386809,-84.0049578917313,-20.241772,-1.7349125,3.662532,29.426178,-16.942482,4.1819363,-8.374596,-12.954192,-5.448379,63.997013,-11.260318,0.47492743,-5.960646,-3.4515293,7.316517,-4.4396396,25.397707,-26.263287,55.34065,-4.729885,-5.5727654,2.5524096,-2.6674528,-9.20471,8.354907,46.60768,26.65171,-7.5376306,-8.313839
80,6.634708404541016,5.885247707366943,76.78646850585938,-0.9918548012288712,6.274219259291637,-83.68889765824261,-20.848532,-1.9562978,3.4257145,30.059784,-17.156536,4.2860427,-7.8996463,-12.760893,-5.0878234,64.60266,-9.36425,0.79547447,-5.834918,-3.4664092,7.1892858,-4.344176,25.437046,-26.096828,55.183628,-4.8141046,-5.6570115,2.6230912,-2.729526,-9.338713,8.359716,46.74391,26.723408,-7.5417786,-8.4650135
81,6.672163963317871,5.909763813018799,76.68136596679688,-0.9315884248286798,6.4777350542186785,-83.36849202805776,-21.463442,-2.1935415,3.1941416,30.707945,-17.371447,4.3979135,-7.3834743,-12.548056,-4.733428,65.06257,-7.369827,1.2022337,-5.714512,-3.4861202,7.0772247,-4.2589054,25.480625,-25.970287,55.049606,-4.8765364,-5.742057,2.6845357,-2.801081,-9.474301,8.351236,46.85825,26.781044,-7.530588,-8.595912
82,6.707830905914307,5.949161052703857,76.56900024414062,-0.8642188543140127,6.683455531001786,-83.04601980224734,-22.092503,-2.441877,2.9673603,31.376768,-17.591543,4.5164957,-6.8340364,-12.303922,-4.374816,65.38461,-5.248429,1.6928709,-5.5947614,-3.510158,6.9736295,-4.1810117,25.529758,-25.885193,54.933994,-4.926106,-5.8296285,2.7413542,-2.8844917,-9.612414,8.3384285,46.96329,26.826324,-7.5107512,-8.711842
83,6.741061687469482,5.998004913330078,76.44696044921875,-0.7976375837357841,6.895128937303753,-82.72746933787286,-22.745398,-2.6867871,2.7491121,32.075436,-17.822134,4.629117,-6.276331,-12.008658,-4.0014052,65.598946,-3.0843682,2.2025561,-5.4731693,-3.5328457,6.877557,-4.1106567,25.583126,-25.821978,54.83833,-4.960623,-5.9050283,2.7856853,-2.9776757,-9.750435,8.318887,47.047653,26.873138,-7.489082,-8.808673
84,6.768331050872803,6.032876491546631,76.31990051269531,-0.739882083440239,7.116737353244642,-82.41928796952295,-23.430195,-2.913767,2.5435257,32.809643,-18.067144,4.722168,-5.7337418,-11.647126,-3.6073675,65.733475,-0.95928764,2.6625779,-5.3471518,-3.54979,6.7869825,-4.04945,25.638727,-25.761877,54.767826,-4.977704,-5.9536047,2.810487,-3.0800023,-9.88643,8.289555,47.102776,26.933262,-7.4732714,-8.8832245
85,6.7863383293151855,6.084174156188965,76.18087768554688,-0.6879871402701838,7.35358144391433,-82.12682744657111,-24.153017,-3.121966,2.3613136,33.57718,-18.326206,4.7907166,-5.2204156,-11.22397,-3.185483,65.797,1.1305354,3.036423,-5.214665,-3.5638,6.6991534,-3.9986572,25.695444,-25.701153,54.722855,-4.962835,-5.9643817,2.8141341,-3.1956863,-10.020101,8.247965,47.12232,27.009108,-7.4600363,-8.9268265
86,6.813994884490967,6.137639045715332,76.03970336914062,-0.6400994723478924,7.601983533284305,-81.84557066318371,-24.908,-3.3175716,2.1967442,34.375153,-18.596832,4.8407097,-4.7207794,-10.74671,-2.7409365,65.77457,3.2227035,3.367622,-5.0778155,-3.576486,6.614407,-3.960059,25.751823,-25.649794,54.70744,-4.9207606,-5.9478374,2.8014429,-3.3260744,-10.148092,8.1963005,47.11732,27.092264,-7.4481406,-8.9451685
87,6.84124755859375,6.198402404785156,75.88551330566406,-0.6062215349990295,7.852457277404586,-81.56779144691359,-25.685444,-3.496835,2.0294735,35.208183,-18.880697,4.8744783,-4.2111354,-10.209717,-2.2914681,65.65339,5.2883763,3.6989872,-4.939836,-3.5770593,6.538546,-3.9287975,25.810326,-25.60624,54.717625,-4.8791747,-5.9207783,2.772225,-3.4619448,-10.275303,8.140475,47.094776,27.184496,-7.44572,-8.9534645
88,6.859462738037109,6.262250900268555,75.72895812988281,-0.5957359308964489,8.095421302272529,-81.28600832680772,-26.474083,-3.6567771,1.8386828,36.079803,-19.178934,4.8953414,-3.6703312,-9.605186,-1.8499398,65.42456,7.2971387,4.076237,-4.8043423,-3.5558116,6.4769983,-3.901491,25.87236,-25.56996,54.75241,-4.8660984,-5.9002466,2.727227,-3.5952206,-10.401985,8.0870285,47.06374,27.286648,-7.461837,-8.967541
89,6.866236686706543,6.319089889526367,75.57061767578125,-0.6157985676451523,8.3272468377619,-80.99530254522101,-27.272882,-3.7934237,1.6131655,36.998386,-19.493793,4.9003754,-3.0895934,-8.928044,-1.4235886,65.076294,9.26531,4.4826536,-4.669265,-3.505831,6.4288883,-3.8852696,25.935163,-25.547535,54.828426,-4.8882623,-5.8932095,2.6524887,-3.7231512,-10.519078,8.030362,47.034576,27.410086,-7.512621,-8.991533
90,6.869129657745361,6.376643657684326,75.40652465820312,-0.6596490049737284,8.55350647527438,-80.70060886392082,-28.086157,-3.9110622,1.3652194,37.95767,-19.822958,4.888672,-2.483332,-8.189016,-1.000893,64.62011,11.199862,4.8985167,-4.5334625,-3.4350924,6.3916163,-3.8803647,25.99942,-25.538136,54.942093,-4.930967,-5.8897576,2.5527785,-3.851216,-10.627914,7.9686174,47.001488,27.549496,-7.589155,-9.017256
91,6.863555431365967,6.4411749839782715,75.23373413085938,-0.7155976049138684,8.778143756000341,-80.40964077534926,-28.91029,-4.0193624,1.1101184,38.93921,-20.161041,4.8672223,-1.8620584,-7.4040713,-0.5677367,64.07565,13.05433,5.3609705,-4.40285,-3.3593361,6.3638835,-3.8798754,26.065765,-25.529146,55.07628,-4.986713,-5.881948,2.4579253,-3.9900525,-10.731421,7.9145274,46.96193,27.675516,-7.6654024,-9.045526
92,6.86244535446167,6.513806343078613,75.05602264404297,-0.7723140306703294,9.00491369270491,-80.13006953504036,-29.742374,-4.127581,0.8633821,39.925354,-20.503164,4.843304,-1.2352335,-6.588921,-0.109452985,63.46347,14.779279,5.9079046,-4.284515,-3.2974684,6.3403554,-3.885253,26.12661,-25.508503,55.230938,-5.0436306,-5.8627453,2.400458,-4.1566505,-10.821922,7.8814044,46.9255,27.753122,-7.718104,-9.080817
93,6.861547946929932,6.578494548797607,74.8736572265625,-0.8306257139376423,9.232463961192929,-79.86182296226852,-30.581804,-4.2366095,0.6241551,40.91728,-20.849005,4.82122,-0.5891705,-5.746656,0.37019154,62.769318,16.35247,6.5737195,-4.185168,-3.2417977,6.3370194,-3.8610234,26.202587,-25.453924,55.351566,-5.115085,-5.824561,2.3916879,-4.3437386,-10.933138,7.8797746,46.85842,27.782663,-7.7211475,-9.114212
94,6.853839874267578,6.6561384201049805,74.67958068847656,-0.8941191265079786,9.459357489873751,-79.60129030949814,-31.42932,-4.343573,0.3863865,41.92101,-21.200245,4.796579,0.07617352,-4.8761306,0.8696665,61.991688,17.79826,7.3235664,-4.1029825,-3.191035,6.345541,-3.8275054,26.279726,-25.377048,55.47718,-5.1967053,-5.7743106,2.4168346,-4.555658,-11.043652,7.903298,46.78429,27.77261,-7.697346,-9.15151
95,6.843217372894287,6.734488010406494,74.48003387451172,-0.9552633037351234,9.689850968842158,-79.35030815489337,-32.284157,-4.4516683,0.15766609,42.925644,-21.553608,4.764225,0.73125637,-3.9865487,1.4036405,61.169476,19.138235,8.0907345,-4.0274777,-3.1498346,6.3580723,-3.796055,26.360397,-25.299362,55.609528,-5.2745414,-5.7195487,2.4474628,-4.778669,-11.153249,7.9409637,46.702637,27.747555,-7.6737547,-9.192151
96,6.8209991455078125,6.826568603515625,74.27098083496094,-1.0067962011962759,9.928277439268607,-79.11028836040423,-33.145084,-4.563875,-0.054601096,43.919514,-21.906025,4.719029,1.3468572,-3.0879798,1.9835536,60.341843,20.395498,8.808155,-3.9482486,-3.1236546,6.366194,-3.7788548,26.447336,-25.2423,55.751698,-5.3341756,-5.667847,2.4553852,-5.0001626,-11.259355,7.981023,46.61497,27.73063,-7.677995,-9.2358885
97,6.798819541931152,6.915671348571777,74.0566635131836,-1.0457354849608804,10.179530743318633,-78.8812527687243,-34.016407,-4.6831636,-0.24975087,44.89861,-22.255802,4.6607027,1.9137645,-2.192321,2.6032162,59.512356,21.560959,9.429108,-3.8628795,-3.1167994,6.365628,-3.7789023,26.542515,-25.2108,55.90507,-5.3721023,-5.620729,2.436003,-5.2189646,-11.360078,8.020265,46.520893,27.723953,-7.722627,-9.279852
98,6.770761489868164,7.005427837371826,73.83930969238281,-1.0747491526168265,10.439848684528517,-78.66203998975783,-34.896564,-4.8083878,-0.43019658,45.867844,-22.60413,4.5924044,2.4490628,-1.3015156,3.2546263,58.664703,22.628567,9.989696,-3.77585,-3.1281877,6.3617396,-3.7903864,26.646425,-25.196054,56.066986,-5.397131,-5.574072,2.403285,-5.440392,-11.455374,8.062873,46.419556,27.715563,-7.7913365,-9.324914
99,6.746420860290527,7.088223934173584,73.6158447265625,-1.0954643654791205,10.700350650501312,-78.45279538854818,-35.777225,-4.9345593,-0.59332436,46.833004,-22.953703,4.5139003,2.9650393,-0.40955707,3.9468212,57.803886,23.627497,10.549734,-3.686976,-3.1548033,6.360879,-3.811422,26.758804,-25.196587,56.234623,-5.412003,-5.527039,2.3566854,-5.6614017,-11.544746,8.108791,46.311573,27.707273,-7.8684716,-9.377281
100,6.713394641876221,7.183199405670166,73.38428497314453,-1.109925192083433,10.952066330337875,-78.25380069244817,-36.64962,-5.056739,-0.736898,47.79896,-23.306696,4.424894,3.473911,0.49263045,4.690785,56.93722,24.58412,11.171687,-3.5956278,-3.1933784,6.3692756,-3.8419714,26.878986,-25.213295,56.406685,-5.420515,-5.478899,2.2959425,-5.8786206,-11.627585,8.157437,46.19748,27.7007,-7.9385195,-9.442956
101,6.677394390106201,7.276362895965576,73.14844512939453,-1.1172151683533997,11.193560205395562,-78.06415808697025,-37.510136,-5.172718,-0.85754716,48.76223,-23.665258,4.317699,3.9864457,1.4302182,5.5207896,56.05108,25.500656,11.897338,-3.4995644,-3.245884,6.3881116,-3.8839097,27.006485,-25.245811,56.58792,-5.411553,-5.4309216,2.2124877,-6.08943,-11.702851,8.211243,46.075394,27.69425,-7.9993615,-9.532084
102,6.630332946777344,7.379910945892334,72.90298461914062,-1.1158424214692284,11.428825693054124,-77.88353709675238,-38.362877,-5.285742,-0.95696044,49.72051,-24.027136,4.195371,4.497768,2.3860197,6.4228015,55.14698,26.36073,12.683461,-3.4003043,-3.3146012,6.414012,-3.9370117,27.141516,-25.293505,56.77834,-5.3863783,-5.383161,2.1094854,-6.2969494,-11.771224,8.269595,45.94672,27.687277,-8.058763,-9.639061
103,6.588164806365967,7.468384742736816,72.65119171142578,-1.1075818289060184,11.65760838922994,-77.71320002767516,-39.213425,-5.398324,-1.0406563,50.68371,-24.389013,4.0734916,4.994179,3.309409,7.3349166,54.254734,27.162388,13.467548,-3.3021123,-3.3940344,6.447205,-3.9987822,27.283709,-25.358839,56.96879,-5.3693457,-5.332748,2.0037315,-6.504077,-11.832675,8.327319,45.81501,27.68338,-8.115825,-9.745091
104,6.539356708526611,7.5657172203063965,72.39314270019531,-1.0942780754872563,11.879779723427445,-77.55489280290023,-40.066883,-5.5124116,-1.1144323,51.659885,-24.745413,3.9674232,5.4589014,4.152984,8.19341,53.40366,27.906414,14.188884,-3.2086692,-3.478662,6.4870872,-4.068183,27.43275,-25.44515,57.151875,-5.3850346,-5.2769284,1.9123235,-6.71431,-11.88763,8.378656,45.68418,27.685598,-8.169657,-9.831858
105,6.497992038726807,7.6606035232543945,72.13021850585938,-1.0825611295112918,12.099486036831816,-77.40680350920016,-40.930428,-5.626089,-1.1899786,52.653923,-25.097662,3.8735862,5.886493,4.930512,8.996006,52.58367,28.610657,14.814296,-3.1223302,-3.5607538,6.5292096,-4.1461625,27.589195,-25.56009,57.326725,-5.4519014,-5.206633,1.8450334,-6.93024,-11.935567,8.416715,45.561497,27.703823,-8.221047,-9.891701
106,6.441802024841309,7.768503665924072,71.85841369628906,-1.0716895081973372,12.315429095336887,-77.26929823836333,-41.801792,-5.734871,-1.2639246,53.66643,-25.449686,3.7834346,6.2621155,5.5368433,9.567117,51.7809,29.289188,15.000033,-3.0393481,-3.6452243,6.575158,-4.2340875,27.752789,-25.700914,57.49728,-5.552924,-5.126064,1.7910228,-7.148649,-11.975414,8.445376,45.441788,27.733435,-8.270009,-9.935415
107,6.383389949798584,7.873693943023682,71.5694351196289,-0.8915650811514271,12.532630264778952,-77.16924011634997,-42.642902,-5.946181,-1.1580396,54.587616,-25.754343,3.7389627,6.519286,5.8432536,10.045177,51.20812,29.79432,15.000033,-2.9330428,-3.9138582,6.606012,-4.3321614,27.92833,-25.856562,57.66968,-5.659474,-5.0524735,1.7328637,-7.3640485,-12.005764,8.47641,45.314945,27.756153,-8.313434,-9.973859
108,6.331141948699951,7.981559753417969,71.26949310302734,-0.6936281387047872,12.732302571896508,-77.09099102324498,-43.470837,-6.1521463,-1.0055176,55.5104,-26.060253,3.7258162,6.685857,6.0387335,10.413825,50.849354,30.000067,15.000033,-2.8221462,-4.2053695,6.6573462,-4.4316034,28.110891,-26.007143,57.832623,-5.7424216,-5.002224,1.6602017,-7.576878,-12.033152,8.521745,45.16964,27.751802,-8.351335,-10.01333
109,6.274733543395996,8.103959083557129,70.96578216552734,-0.4906307836001384,12.91193137614059,-77.03586259078227,-44.280426,-6.341523,-0.8137398,56.432674,-26.369202,3.7499402,6.7819967,6.0963736,10.614806,50.638985,30.000067,15.000033,-2.707215,-4.506684,6.7329035,-4.531638,28.295784,-26.146881,57.989376,-5.7944384,-4.990254,1.5640894,-7.7882133,-12.065015,8.586814,44.998894,27.729805,-8.384832,-10.055151
110,6.21970272064209,8.224747657775879,70.65943908691406,-0.28923436415078296,13.075330296325673,-77.00063599792892,-45.07538,-6.512182,-0.59733886,57.35623,-26.679724,3.8035798,6.849864,6.046339,10.687014,50.44415,30.000067,15.000033,-2.5901887,-4.809741,6.828468,-4.6349583,28.480717,-26.283947,58.14104,-5.830246,-5.004445,1.4539292,-7.9973564,-12.102758,8.666057,44.807117,27.697762,-8.413595,-10.094306
111,6.16660213470459,8.350906372070312,70.34915161132812,-0.10015880774728753,13.222408872169794,-76.97956108244475,-45.85956,-6.6599703,-0.37628332,58.29059,-26.99241,3.8740604,6.895106,5.9660196,10.713938,50.262432,30.000067,15.000033,-2.473408,-5.1014743,6.9439373,-4.745264,28.664045,-26.422161,58.2861,-5.85187,-5.0211563,1.3443793,-8.199803,-12.145636,8.754842,44.602234,27.633299,-8.433862,-10.130348
112,6.112815856933594,8.478309631347656,70.03889465332031,0.06627974093814709,13.352705013072505,-76.96677410084871,-46.636948,-6.781848,-0.17033291,59.2468,-27.30886,3.9483619,6.924421,5.9315867,10.779529,50.090366,30.000067,15.000033,-2.359736,-5.368435,7.0796967,-4.866204,28.84473,-26.566257,58.42304,-5.8626003,-5.016914,1.2501645,-8.39101,-12.190247,8.8489275,44.391895,27.513842,-8.442041,-10.162567
113,6.051303863525391,8.602202415466309,69.72657775878906,0.19888705924482952,13.47033809739379,-76.95282544597033,-47.415985,-6.878131,0.0016227869,60.2331,-27.629446,4.030002,6.97334,5.9566407,10.882538,49.810986,30.000067,15.000033,-2.25383,-5.5980906,7.232165,-5.005887,29.022282,-26.731083,58.55921,-5.8511887,-4.97875,1.1790986,-8.566203,-12.236224,8.945989,44.17017,27.320948,-8.428954,-10.1970215
114,5.993640899658203,8.72266674041748,69.41278076171875,0.3059147294803183,13.573765948682006,-76.94327274501619,-48.18956,-6.9521513,0.15250131,61.238262,-27.950726,4.124353,7.0292697,6.001699,10.985338,49.461384,30.000067,15.000033,-2.1514473,-5.800316,7.4018583,-5.162975,29.195898,-26.911802,58.69589,-5.819594,-4.921525,1.1224393,-8.727965,-12.2842455,9.046931,43.935764,27.069687,-8.399317,-10.231947
115,5.927521705627441,8.847589492797852,69.09122467041016,0.3783056766427782,13.656624705855704,-76.96387351909277,-48.958725,-6.976535,0.29108867,62.28477,-28.29294,4.211375,7.0123467,6.0655317,11.077429,49.273544,30.000067,15.000033,-2.0355866,-5.9718113,7.5938473,-5.323878,29.365454,-27.082348,58.822372,-5.791585,-4.8637705,1.0694233,-8.886301,-12.331935,9.154695,43.706814,26.78873,-8.370765,-10.25548
116,5.854477882385254,8.989616394042969,68.75596618652344,0.45303445305709816,13.708434911267785,-77.0254319455929,-49.698593,-6.9674478,0.46054804,63.34329,-28.647345,4.284051,6.863697,6.1459465,11.212224,49.47968,30.000067,15.000033,-1.9058532,-6.1534944,7.815034,-5.473743,29.531992,-27.214638,58.92712,-5.7911463,-4.8237257,1.0106158,-9.055147,-12.378452,9.273583,43.505424,26.50474,-8.362003,-10.256458
117,5.78891134262085,9.12018871307373,68.41194915771484,0.5716062385041514,13.717932046796497,-77.13400233133792,-50.38991,-6.9466743,0.7049863,64.396164,-29.009964,4.341542,6.521036,6.199276,11.372005,50.26817,30.000067,15.000033,-1.758499,-6.389352,8.076896,-5.603809,29.697292,-27.290121,59.002934,-5.8249254,-4.8077564,0.93638015,-9.237248,-12.420567,9.406005,43.3348,26.207212,-8.383829,-10.2288885
118,5.716462135314941,9.254171371459961,68.06785583496094,0.7134583132642203,13.689577295723428,-77.27593679302812,-51.040287,-6.9098463,0.99504167,65.451004,-29.379961,4.389695,6.0506306,6.240757,11.5480385,51.45409,30.000067,15.000033,-1.6039342,-6.6552205,8.37663,-5.71883,29.863071,-27.323273,59.053402,-5.880135,-4.8052907,0.8542889,-9.429288,-12.457483,9.552135,43.187393,25.88718,-8.425363,-10.180457
119,5.6425628662109375,9.392122268676758,67.7111587524414,0.8176747888496017,13.637787679353929,-77.43522590018678,-51.67177,-6.829834,1.2621334,66.528656,-29.761923,4.4298778,5.5782743,6.358757,11.801232,52.723003,30.000067,15.000033,-1.4585713,-6.8847933,8.6992855,-5.82247,30.028282,-27.332972,59.080704,-5.94697,-4.809354,0.77960867,-9.6305275,-12.492543,9.711011,43.062737,25.575212,-8.471713,-10.119927
120,5.565838813781738,9.542630195617676,67.35814666748047,0.825511340292288,13.580544924602089,-77.59966245891913,-52.309196,-6.680475,1.4405004,67.64565,-30.157442,4.4638844,5.210936,6.64429,12.193489,53.78987,30.000067,15.000033,-1.3350372,-7.0139456,9.025608,-5.9210253,30.18997,-27.33988,59.089943,-6.016643,-4.8132253,0.7278149,-9.839706,-12.532143,9.881828,42.959843,25.303034,-8.507667,-10.055644
121,5.495710849761963,9.680002212524414,67.02755737304688,0.6793965779892441,13.519756093369114,-77.77241405221626,-52.954746,-6.429512,1.4741216,68.8153,-30.571037,4.487026,5.022957,7.203631,12.816325,54.52343,30.000067,15.000033,-1.2298546,-6.9838767,9.356149,-6.021005,30.335976,-27.343483,59.08907,-6.08315,-4.8133516,0.7134012,-10.05802,-12.581743,10.068344,42.880085,25.084684,-8.534539,-9.980926
122,5.430595874786377,9.816871643066406,66.7004165649414,0.42037583586193267,13.450285759660968,-77.9608240006451,-53.60058,-6.100345,1.4040272,70.02355,-30.998327,4.4983716,4.9239435,7.9669185,13.606058,55.128433,30.000067,15.000033,-1.1342639,-6.8356357,9.695141,-6.1231475,30.465487,-27.33829,59.079082,-6.1526103,-4.8144517,0.7250832,-10.282296,-12.642366,10.268995,42.8201,24.90374,-8.557796,-9.893599
123,5.359044075012207,9.960161209106445,66.36670684814453,0.13907485609152026,13.380193008549172,-78.1607258868269,-54.25628,-5.75001,1.314649,71.24541,-31.4283,4.506219,4.768567,8.760957,14.3914995,55.829437,30.000067,15.000033,-1.0522944,-6.6577587,10.031935,-6.2183714,30.598167,-27.333178,59.0435,-6.232408,-4.8216677,0.73883224,-10.501079,-12.714439,10.475065,42.76404,24.746943,-8.567525,-9.807675
124,5.287687301635742,10.103765487670898,66.01485443115234,-0.06768025450844505,13.314692732117457,-78.36640078483187,-54.926403,-5.4363165,1.2984313,72.45538,-31.850058,4.5207496,4.425639,9.410507,15.001282,56.825645,30.000067,15.000033,-0.98179555,-6.546899,10.350675,-6.3278265,30.732065,-27.35673,59.008316,-6.3275714,-4.842457,0.73555434,-10.707613,-12.780775,10.667646,42.714737,24.59108,-8.556603,-9.739995
125,5.206119060516357,10.261200904846191,65.63542175292969,-0.17853659803364882,13.257261403784762,-78.58956371252931,-55.613186,-5.159396,1.3839616,73.65016,-32.268112,4.545914,3.8592641,9.854034,15.367933,58.16287,30.000067,15.000033,-0.92001414,-6.5316873,10.648193,-6.4417953,30.877462,-27.40786,58.96159,-6.4571233,-4.885782,0.7084478,-10.914129,-12.833681,10.851575,42.680504,24.429615,-8.516059,-9.695926
126,5.128157615661621,10.419066429138184,65.24311065673828,-0.2432766046644231,13.200434860596143,-78.82585348088847,-56.309383,-4.892381,1.5198925,74.84499,-32.68781,4.5759954,3.156193,10.188957,15.585065,59.708622,30.000067,15.000033,-0.87130815,-6.5642776,10.934038,-6.557927,31.032597,-27.477919,58.90227,-6.6132045,-4.9453135,0.6690233,-11.125063,-12.87116,11.031303,42.66747,24.269695,-8.453711,-9.667741
127,5.048863887786865,10.58441162109375,64.83613586425781,-0.26807294217082756,13.130486045430482,-79.04221692422598,-57.0008,-4.655982,1.6844428,76.042046,-33.099686,4.6082816,2.3847637,10.476731,15.727427,61.371807,30.000067,15.000033,-0.84967935,-6.627943,11.217942,-6.6929765,31.18639,-27.573391,58.85321,-6.760345,-5.00468,0.6234642,-11.31901,-12.894517,11.192198,42.666313,24.112919,-8.386293,-9.650387
128,4.972906112670898,10.738781929016113,64.4163818359375,-0.257855092763499,13.034579330877905,-79.20680765439589,-57.673355,-4.468381,1.8570747,77.24028,-33.495403,4.639624,1.606797,10.779257,15.868082,63.07312,30.000067,15.000033,-0.86854684,-6.717101,11.523629,-6.817836,31.384493,-27.684845,58.759335,-6.8753943,-5.0415907,0.56837237,-11.462552,-12.908451,11.317433,42.637768,23.969425,-8.327777,-9.634269
129,4.893812656402588,10.89527416229248,63.98270034790039,-0.1944637973290185,12.918085488399306,-79.31483791410196,-58.33355,-4.3410263,2.060236,78.43827,-33.869072,4.674158,0.78967524,11.098914,16.011036,64.86166,30.000067,15.000033,-0.93387616,-6.8412266,11.836187,-6.9625764,31.59103,-27.826883,58.669518,-6.9344363,-5.048312,0.51209664,-11.562608,-12.908026,11.405509,42.6023,23.83147,-8.281551,-9.6204
130,4.806807994842529,11.051681518554688,63.533897399902344,-0.08379667044515622,12.78014435974865,-79.37761246976196,-58.9798,-4.2629642,2.2930932,79.637314,-34.22979,4.710973,-0.06577904,11.409292,16.120209,66.734566,30.000067,15.000033,-1.0401042,-6.9992585,12.156444,-7.123745,31.806332,-27.99783,58.579723,-6.9571404,-5.036316,0.4519186,-11.628141,-12.89523,11.462117,42.564663,23.698532,-8.239695,-9.611635
131,4.724079132080078,11.200454711914062,63.072509765625,0.03368948110676135,12.602649865825489,-79.39041407174345,-59.596073,-4.2202682,2.5048954,80.85079,-34.584206,4.7392817,-0.8554383,11.731171,16.209873,68.54574,30.000067,15.000033,-1.1827316,-7.147628,12.49839,-7.320282,32.00812,-28.198874,58.518894,-6.963511,-5.025071,0.3884735,-11.654002,-12.874806,11.489193,42.521976,23.575888,-8.204682,-9.612195
132,4.640488624572754,11.346261024475098,62.60677719116211,0.12102964825134532,12.371817180897244,-79.35323747985761,-60.16933,-4.202024,2.6500077,82.08623,-34.937767,4.748291,-1.4995792,12.085987,16.29331,70.18036,30.000067,15.000033,-1.3432693,-7.2681165,12.887323,-7.528573,32.24841,-28.427774,58.434334,-6.9915276,-5.0263186,0.31162128,-11.621515,-12.842394,11.469932,42.445248,23.466837,-8.177179,-9.61993
133,4.545753479003906,11.485743522644043,62.13813018798828,0.16378114441396102,12.074969996136067,-79.26561951165439,-60.689655,-4.2050033,2.7103062,83.35168,-35.287163,4.730838,-1.9864082,12.469758,16.364536,71.62147,30.000067,15.000033,-1.5287523,-7.3383512,13.329819,-7.76178,32.494766,-28.679764,58.35961,-7.029925,-5.051702,0.21922034,-11.534978,-12.80155,11.4140215,42.34212,23.375284,-8.167559,-9.650254
134,4.446526050567627,11.62497329711914,61.66244125366211,0.1842484629131998,11.725736827971275,-79.13150147224684,-61.16925,-4.2383933,2.717017,84.63833,-35.63088,4.692828,-2.369649,12.870608,16.41974,72.94314,30.000067,15.000033,-1.7375,-7.381468,13.812452,-8.022106,32.74761,-28.961527,58.29394,-7.0701194,-5.090738,0.11435609,-11.396319,-12.753156,11.319175,42.21563,23.29811,-8.171485,-9.697367
135,4.343949794769287,11.761870384216309,61.18649673461914,0.2007541550226252,11.351443238416211,-78.95902647692944,-61.629223,-4.3020635,2.698809,85.92857,-35.972137,4.643874,-2.671014,13.302755,16.478481,74.16862,30.000067,15.000033,-1.9667381,-7.41609,14.307116,-8.310863,32.999393,-29.266031,58.239067,-7.1190033,-5.133066,0.010320629,-11.215596,-12.7003,11.194885,42.075718,23.233034,-8.170734,-9.739152
136,4.238950252532959,11.886680603027344,60.7035026550293,0.23161807755246658,10.978207834111979,-78.75462680811354,-62.08873,-4.3965325,2.6835537,87.20526,-36.31514,4.5944386,-2.897025,13.772979,16.561104,75.30351,30.000067,15.000033,-2.2126215,-7.463433,14.788006,-8.625385,33.253906,-29.589197,58.18721,-7.1888556,-5.1676292,-0.08128755,-11.001792,-12.6448555,11.047581,41.930157,23.176874,-8.146969,-9.75236
137,4.128380298614502,12.007365226745605,60.21181869506836,0.28238808200568927,10.603219650904721,-78.50961992033633,-62.540714,-4.531185,2.674207,88.461494,-36.663544,4.547945,-3.0272489,14.346588,16.741816,76.32926,30.000067,15.000033,-2.4777002,-7.5385265,15.266149,-8.951973,33.541965,-29.933702,58.105278,-7.3100157,-5.189685,-0.15527612,-10.746195,-12.579353,10.867033,41.76303,23.12947,-8.092197,-9.7229395
138,4.019722938537598,12.114742279052734,59.71388244628906,0.3440399469436337,10.214905698188373,-78.2235909625163,-62.978355,-4.705604,2.6605988,89.70683,-37.014812,4.4991775,-3.0560968,14.995968,16.99112,77.23981,30.000067,15.000033,-2.7730978,-7.6253943,15.74628,-9.290066,33.838776,-30.284967,58.012627,-7.457861,-5.2069836,-0.21730003,-10.4567795,-12.509072,10.666804,41.583782,23.094347,-8.017792,-9.6681385
139,3.9007771015167236,12.231705665588379,59.20481872558594,0.41373066654908963,9.82921033443832,-77.91761854585054,-63.425453,-4.8984733,2.6505234,90.94947,-37.362625,4.44541,-3.0461476,15.606847,17.175632,78.101616,30.000067,15.000033,-3.0753329,-7.7211227,16.209114,-9.645864,34.14684,-30.652634,57.913048,-7.598999,-5.2186766,-0.2815865,-10.136341,-12.434949,10.445825,41.40284,23.067589,-7.932396,-9.601623
140,3.7777047157287598,12.343474388122559,58.68190383911133,0.4881469708019762,9.4635351920256,-77.61489563249089,-63.909927,-5.087629,2.6518621,92.19986,-37.693333,4.3834906,-3.0792286,16.071243,17.16536,78.99877,30.000067,15.000033,-3.3639655,-7.821391,16.634735,-10.014829,34.467678,-31.032772,57.802536,-7.6922903,-5.223718,-0.36267447,-9.790257,-12.357514,10.207332,41.231308,23.046062,-7.844873,-9.537294
141,3.6530706882476807,12.455440521240234,58.14533233642578,0.5785628311275657,9.120200644174579,-77.31819197725271,-64.43991,-5.2725563,2.6789513,93.464836,-38.007366,4.310997,-3.1788588,16.334457,16.91722,79.95183,30.000067,15.000033,-3.6382089,-7.933422,17.016468,-10.400749,34.80554,-31.441063,57.680065,-7.7188725,-5.2185707,-0.4713462,-9.413948,-12.277292,9.945212,41.067154,23.016981,-7.748075,-9.475141
142,3.5328733921051025,12.562993049621582,57.59972381591797,0.6836495347697783,8.793616673683488,-77.0188683972554,-65.00386,-5.457145,2.7251952,94.73845,-38.31041,4.229842,-3.3115256,16.457937,16.51109,80.925255,30.000067,15.000033,-3.9048476,-8.0574255,17.363968,-10.801581,35.1611,-31.873165,57.541485,-7.7026362,-5.204473,-0.5982555,-9.003995,-12.193247,9.658613,40.90174,22.98669,-7.640165,-9.408251
143,3.4008774757385254,12.669745445251465,57.046836853027344,0.7821743141049439,8.488806422310939,-76.72296063500602,-65.598755,-5.6355977,2.7683582,96.00917,-38.600193,4.144419,-3.4609418,16.490713,15.995435,81.89954,30.000067,15.000033,-4.1580186,-8.179137,17.678856,-11.209822,35.530247,-32.300186,57.386673,-7.672844,-5.1888256,-0.72666657,-8.5742445,-12.1066475,9.362256,40.74523,22.978575,-7.5384555,-9.342519
144,3.260594129562378,12.77975845336914,56.49005126953125,0.8538223583406371,8.210591920443843,-76.43601949389273,-66.22168,-5.798203,2.7852395,97.266975,-38.87627,4.058169,-3.6135669,16.488926,15.418827,82.860954,30.000067,15.000033,-4.393349,-8.283706,17.963362,-11.615145,35.90592,-32.68673,57.21559,-7.6537156,-5.1788297,-0.83988017,-8.139506,-12.019281,9.073325,40.608273,23.01741,-7.460097,-9.283983
145,3.1206159591674805,12.882159233093262,55.93921661376953,0.8837523644557446,7.96779882130294,-76.15934299270688,-66.88419,-5.942912,2.7591116,98.5152,-39.134304,3.9752786,-3.7727747,16.433777,14.750701,83.8078,30.000067,15.000033,-4.613747,-8.355576,18.20459,-12.0130825,36.285,-33.02726,57.029793,-7.6335726,-5.1744847,-0.93917733,-7.6989546,-11.933889,8.80384,40.496754,23.122879,-7.412947,-9.23474
146,2.9892101287841797,12.985077857971191,55.396697998046875,0.8875442946023803,7.7566553302406875,-75.89066621834833,-67.585434,-6.0754633,2.7059748,99.7574,-39.376293,3.8921008,-3.9487875,16.30525,13.988461,84.7604,30.000067,15.000033,-4.8219094,-8.404956,18.404291,-12.410989,36.66793,-33.33825,56.83281,-7.6049113,-5.172956,-1.0310563,-7.247918,-11.851396,8.545214,40.405666,23.278553,-7.3866315,-9.191828
147,2.8488569259643555,13.081031799316406,54.85807800292969,0.889853297998629,7.560807675120501,-75.62924369387247,-68.299034,-6.202117,2.651703,100.9793,-39.606747,3.8010576,-4.1202574,16.147232,13.212174,85.71067,30.000067,15.000033,-5.0123158,-8.455777,18.587908,-12.815203,37.051426,-33.61448,56.628624,-7.595124,-5.177445,-1.1066275,-6.7957153,-11.769561,8.283194,40.330963,23.455563,-7.370789,-9.153611
148,2.7115156650543213,13.173812866210938,54.315025329589844,0.9151606882403325,7.362651960256619,-75.37383706400922,-68.99828,-6.3318334,2.6221232,102.16841,-39.831436,3.694949,-4.2639556,16.001188,12.49518,86.64069,30.000067,15.000033,-5.18048,-8.532514,18.779316,-13.235485,37.43129,-33.854984,56.42686,-7.635293,-5.191339,-1.156455,-6.3544216,-11.686579,8.004182,40.272205,23.62302,-7.3556566,-9.119295
149,2.5601015090942383,13.268242835998535,53.776241302490234,0.9686341999601588,7.1626013110610645,-75.12186251025835,-69.684616,-6.4650946,2.6235871,103.32107,-40.05267,3.5696058,-4.3822484,15.899319,11.860406,87.55762,30.000067,15.000033,-5.323668,-8.639611,18.978624,-13.683568,37.805504,-34.064034,56.23137,-7.746754,-5.2188625,-1.1755383,-5.9207454,-11.600604,7.696506,40.228046,23.773443,-7.3386965,-9.088638
150,2.4176368713378906,13.361285209655762,53.235496520996094,1.0377741079067497,6.967306082953111,-74.87424037990638,-70.36829,-6.5983334,2.6417973,104.444176,-40.266598,3.4301217,-4.481512,15.813533,11.265002,88.46113,30.000067,15.000033,-5.44332,-8.76351,19.174545,-14.156549,38.172836,-34.244785,56.043613,-7.90922,-5.2574077,-1.169379,-5.490477,-11.510349,7.3685913,40.200584,23.922333,-7.3252726,-9.061999
151,2.2703840732574463,13.447734832763672,52.69489288330078,1.1183597424083944,6.771462091830925,-74.6374121250368,-71.04233,-6.7258415,2.671634,105.54477,-40.474075,3.283584,-4.567582,15.717222,10.689872,89.35329,30.000067,15.000033,-5.5408654,-8.902011,19.373064,-14.639895,38.529537,-34.38895,55.869102,-8.085356,-5.300017,-1.1439098,-5.0746884,-11.417493,7.0381384,40.19667,24.073164,-7.3176208,-9.040107
152,2.123070240020752,13.541152954101562,52.15960693359375,1.2059327621769,6.569974384757053,-74.41757955288533,-71.69878,-6.843339,2.7076812,106.62408,-40.675156,3.136982,-4.638752,15.578235,10.115372,90.228325,30.000067,15.000033,-5.619531,-9.04722,19.578705,-15.12469,38.858353,-34.487553,55.724228,-8.234668,-5.34095,-1.1039282,-4.6826615,-11.325976,6.7262316,40.22158,24.23258,-7.3176174,-9.024275
153,1.9685330390930176,13.625269889831543,51.6240348815918,1.31184991637395,6.354501051198023,-74.21304175167111,-72.33058,-6.954531,2.7598176,107.68964,-40.877113,2.993078,-4.687164,15.36028,9.531927,91.08638,30.000067,15.000033,-5.6736217,-9.215504,19.802446,-15.60124,39.183834,-34.53631,55.579506,-8.359838,-5.3744044,-1.0462968,-4.306003,-11.228311,6.419384,40.269955,24.386368,-7.328772,-9.012722
154,1.81407630443573,13.697463035583496,51.091915130615234,1.4328703111894774,6.131085961461226,-74.02216770563801,-72.94484,-7.0582633,2.8254266,108.73652,-41.07744,2.8478496,-4.715117,15.087088,8.950135,91.92746,30.000067,15.000033,-5.708788,-9.393263,20.03147,-16.090761,39.46843,-34.53645,55.473713,-8.465159,-5.4084377,-0.9663606,-3.9448762,-11.136878,6.1220837,40.347366,24.54079,-7.349249,-9.008198
155,1.6599081754684448,13.773819923400879,50.56782913208008,1.5464337996456095,5.915482450913762,-73.85133158750975,-73.55301,-7.143298,2.8826048,109.75749,-41.26099,2.6977477,-4.739335,14.816437,8.385762,92.75377,30.000067,15.000033,-5.721476,-9.572306,20.261732,-16.568573,39.756973,-34.499077,55.378883,-8.564091,-5.4436197,-0.8809815,-3.6143646,-11.037688,5.8438444,40.451756,24.713701,-7.372566,-9.007378
156,1.5049500465393066,13.852283477783203,50.06671142578125,1.628093467790141,5.722821801591047,-73.7056204164978,-74.16664,-7.198359,2.9075043,110.74614,-41.4093,2.5391204,-4.7817307,14.610935,7.853864,93.572,30.000067,15.000033,-5.7323823,-9.699258,20.459612,-17.090508,39.92924,-34.44327,55.435764,-8.627108,-5.496173,-0.79173046,-3.3353388,-10.977691,5.6316257,40.606438,24.944641,-7.393069,-9.0195465
157,1.3604167699813843,13.92814826965332,49.59334945678711,1.668573644020999,5.556808838024338,-73.58862633482973,-74.78653,-7.2191195,2.8922555,111.69753,-41.516003,2.3714726,-4.8352304,14.528317,7.3861284,94.37235,30.000067,15.000033,-5.708681,-9.805227,20.65651,-17.600197,40.1417,-34.39658,55.49917,-8.672591,-5.5714583,-0.70269793,-3.1005945,-10.902766,5.437033,40.779922,25.241617,-7.4061265,-9.038996
158,1.217843770980835,14.003340721130371,49.13840103149414,1.680915291289474,5.408140706323672,-73.49520959576674,-75.40632,-7.214916,2.8474178,112.61813,-41.590805,2.1955483,-4.894007,14.5026865,6.940534,95.15511,30.000067,15.000033,-5.6816635,-9.89321,20.843643,-18.08659,40.350845,-34.31093,55.59589,-8.687372,-5.665511,-0.606492,-2.923149,-10.831013,5.2947717,40.996147,25.595184,-7.4193616,-9.074176
159,1.0853569507598877,14.074789047241211,48.70032501220703,1.6828235780133298,5.271172280158631,-73.41731306066447,-76.018845,-7.19786,2.788595,113.50362,-41.64871,2.014775,-4.9668193,14.502931,6.5176454,95.93565,30.000067,15.000033,-5.6487684,-9.939662,21.000612,-18.638042,40.416115,-34.202114,55.86301,-8.702326,-5.7512608,-0.5167271,-2.7739577,-10.808848,5.210057,41.255592,25.970797,-7.432783,-9.109718
160,0.9415842294692993,14.147125244140625,48.26840591430664,1.6959722318445591,5.139592311559593,-73.34578031402464,-76.61643,-7.1817207,2.7331614,114.352455,-41.70766,1.8293414,-5.0614305,14.433034,6.064668,96.72212,30.000067,15.000033,-5.5884137,-10.009819,21.174068,-19.140718,40.51653,-33.995033,56.081135,-8.797707,-5.770582,-0.47803476,-2.6465552,-10.767983,5.117023,41.528183,26.266972,-7.4427834,-9.103304
161,0.8013330698013306,14.21916675567627,47.847511291503906,1.7263827337913122,5.017140015515695,-73.28400252228613,-77.20341,-7.163767,2.6891663,115.16175,-41.770508,1.6420712,-5.1886992,14.278891,5.581307,97.53193,30.000067,15.000033,-5.4901185,-10.089031,21.309614,-19.719282,40.53277,-33.810528,56.447895,-9.001084,-5.71397,-0.4958629,-2.5152748,-10.757593,5.073042,41.841694,26.520311,-7.4581895,-9.063579
162,0.6672351360321045,14.290973663330078,47.435428619384766,1.7648589405873665,4.90342049668206,-73.23329686404017,-77.77918,-7.1396513,2.64891,115.93267,-41.829338,1.4519348,-5.3369813,14.076553,5.0850463,98.35193,30.000067,15.000033,-5.4379187,-10.177931,21.4757,-20.168709,40.545498,-33.333004,56.75701,-9.151986,-5.596456,-0.5757601,-2.472861,-10.727974,5.053239,42.195595,26.660164,-7.471918,-8.990351
163,0.526391327381134,14.358280181884766,47.03569412231445,1.8033501634154983,4.792636155438145,-73.18590383404081,-78.336555,-7.115248,2.6019452,116.670364,-41.881878,1.2566104,-5.481796,13.866532,4.593843,99.15155,30.000067,15.000033,-5.370623,-10.269233,21.617006,-20.621681,40.52187,-32.847782,57.117157,-9.409976,-5.455955,-0.6563551,-2.4496334,-10.712521,5.0931416,42.590603,26.814224,-7.4880357,-8.915571
164,0.38650497794151306,14.412347793579102,46.651668548583984,1.8341912685451487,4.676575416753647,-73.13349285847704,-78.86576,-7.0946355,2.53799,117.37652,-41.922634,1.054282,-5.5911136,13.691175,4.12706,99.89325,30.000067,15.000033,-5.319648,-10.344575,21.7549,-21.020632,40.45377,-32.26922,57.46177,-9.757734,-5.3244767,-0.70200086,-2.4663022,-10.709583,5.188572,43.018833,26.991093,-7.5012302,-8.854134
165,0.24800607562065125,14.466110229492188,46.28554916381836,1.8540223901815807,4.551699369790139,-73.07141115283628,-79.363884,-7.08074,2.453695,118.05188,-41.950573,0.8446687,-5.653052,13.571719,3.6953733,100.56427,30.000067,15.000033,-5.261019,-10.4033785,21.90045,-21.397747,40.339966,-31.60575,57.801197,-10.273805,-5.197988,-0.7029905,-2.4995978,-10.721338,5.3332896,43.462654,27.181746,-7.510803,-8.813298
166,0.10509529709815979,14.526823043823242,45.933387756347656,1.8644154697706816,4.42226118431055,-73.0046592213245,-79.83689,-7.069637,2.350867,118.69841,-41.96992,0.6277805,-5.6896358,13.470659,3.2708178,101.189415,30.000067,15.000033,-5.248698,-10.432607,22.03238,-21.718159,40.125443,-30.774925,58.178204,-10.875021,-5.0706964,-0.6711198,-2.5980704,-10.768234,5.5793824,43.9703,27.377607,-7.5235834,-8.796106
167,-0.0330311618745327,14.580367088317871,45.59811782836914,1.8689848621265983,4.291895763261103,-72.93957921781552,-80.28456,-7.061635,2.2333345,119.312935,-41.980564,0.40496317,-5.7038507,13.390595,2.8734064,101.770775,30.000067,15.000033,-5.1845965,-10.447975,22.168543,-22.077515,39.89858,-30.025888,58.5574,-11.534099,-4.949298,-0.6292532,-2.6699977,-10.821955,5.7897468,44.44852,27.613596,-7.521035,-8.754122
168,-0.1706458330154419,14.627771377563477,45.28228759765625,1.8712833070720665,4.16609885219586,-72.88288640367766,-80.71131,-7.053229,2.104122,119.899185,-41.98364,0.17657503,-5.7228904,13.294148,2.4734967,102.33064,30.000067,15.000033,-5.141777,-10.425308,22.27291,-22.417105,39.593884,-29.316462,58.960476,-12.074914,-4.861671,-0.5740364,-2.7707758,-10.90374,6.010836,44.94483,27.932426,-7.5059104,-8.6895275
169,-0.3115282356739044,14.673185348510742,44.979881286621094,1.8726480705977397,4.045136985630481,-72.83025873491637,-81.11728,-7.0500484,1.9652373,120.45072,-41.971592,-0.056385595,-5.741554,13.185301,2.0758586,102.861046,30.000067,15.000033,-5.051169,-10.406493,22.379412,-22.7523,39.343567,-28.750217,59.2886,-12.5688925,-4.7995462,-0.5182214,-2.8491197,-10.961208,6.158178,45.397694,28.367949,-7.460589,-8.564403
170,-0.45500117540359497,14.71804428100586,44.69474411010742,1.8703297944919441,3.926953824816436,-72.77994684289237,-81.50236,-7.0515842,1.8144019,120.97186,-41.945606,-0.2935499,-5.7553754,13.071251,1.6813459,103.358864,30.000067,15.000033,-4.987909,-10.350955,22.456316,-23.067444,39.002876,-28.184559,59.650818,-12.987214,-4.7707343,-0.43809286,-2.968138,-11.041724,6.3315763,45.883938,28.896576,-7.400794,-8.420173
171,-0.5920649766921997,14.754234313964844,44.428707122802734,1.8688109412368583,3.811416004960399,-72.74380097017655,-81.861855,-7.0456815,1.6548723,121.4649,-41.921135,-0.53410304,-5.7630844,12.960662,1.3070076,103.831116,30.000067,15.000033,-4.8899527,-10.287379,22.523577,-23.382488,38.66738,-27.72429,59.987698,-13.356708,-4.752991,-0.36647207,-3.0755007,-11.118235,6.46651,46.350273,29.42881,-7.335102,-8.260533
172,-0.7314689755439758,14.780280113220215,44.1755485534668,1.8711179607820474,3.698644833060608,-72.73387302452882,-82.19341,-7.0194054,1.4890709,121.93339,-41.908585,-0.777203,-5.7640915,12.862887,0.9697832,104.28446,30.000067,15.000033,-4.772238,-10.218369,22.572315,-23.670452,38.34332,-27.360111,60.291977,-13.640085,-4.736056,-0.31990084,-3.1855474,-11.192459,6.582275,46.812714,29.880629,-7.283896,-8.113594
173,-0.8748778104782104,14.815462112426758,43.93592071533203,1.8784166673119298,3.589361188690908,-72.75504383438061,-82.49342,-6.9682665,1.3164344,122.37767,-41.915157,-1.0238397,-5.7530894,12.79037,0.6824177,104.7132,30.000067,15.000033,-4.633403,-10.146652,22.602806,-23.913328,38.047016,-27.100767,60.540813,-13.82708,-4.7188897,-0.30110168,-3.2993674,-11.261679,6.670494,47.27391,30.240974,-7.246704,-7.9717054
174,-1.0179104804992676,14.846059799194336,43.70555114746094,1.8883393945967764,3.4834549335615814,-72.80061199620212,-82.765205,-6.9003153,1.1355281,122.797,-41.933598,-1.273558,-5.7323213,12.734058,0.43326324,105.11558,30.000067,15.000033,-4.478667,-10.065553,22.61435,-24.117905,37.755314,-26.92571,60.748917,-13.924315,-4.7068343,-0.29944488,-3.419777,-11.33138,6.737843,47.735897,30.552118,-7.216389,-7.827941
175,-1.157731294631958,14.867719650268555,43.487159729003906,1.9012506016641642,3.3799615054324827,-72.8648467261994,-83.01386,-6.816378,0.94901067,123.189445,-41.954185,-1.5232979,-5.7143526,12.671958,0.20067844,105.506065,30.000067,15.000033,-4.316721,-9.995883,22.618393,-24.258995,37.520542,-26.804207,60.875477,-13.96932,-4.6902905,-0.3282574,-3.5527127,-11.387006,6.807225,48.18564,30.806395,-7.200233,-7.700674
176,-1.3047040700912476,14.896350860595703,43.279197692871094,1.9156432760985,3.277593885475289,-72.94168619654248,-83.24583,-6.721938,0.7592362,123.56001,-41.966644,-1.7697121,-5.707165,12.587258,-0.031929806,105.89631,30.000067,15.000033,-4.1565924,-9.913778,22.602093,-24.394611,37.258205,-26.724716,61.013885,-13.958994,-4.6723704,-0.38005608,-3.695945,-11.455449,6.9054365,48.625664,31.004427,-7.207425,-7.617024
177,-1.4539916515350342,14.928393363952637,43.07814407348633,1.93300738551041,3.175644292021796,-73.03146602672244,-83.46383,-6.614849,0.5673753,123.916466,-41.978897,-2.0129871,-5.708887,12.475977,-0.26825473,106.29157,30.000067,15.000033,-3.9973466,-9.838775,22.567316,-24.488674,37.032356,-26.696362,61.09955,-13.893157,-4.633413,-0.4944059,-3.8481412,-11.522308,7.0363617,49.04726,31.138643,-7.249016,-7.586691
178,-1.604015588760376,14.950106620788574,42.89409637451172,1.9589045830961822,3.0852492028586185,-73.14827087910062,-83.67532,-6.4807997,0.3768354,124.25335,-41.99113,-2.2535663,-5.7277946,12.313267,-0.49697205,106.690254,30.000067,15.000033,-3.8309534,-9.774134,22.503067,-24.52914,36.839844,-26.71311,61.126842,-13.76367,-4.5805993,-0.6589568,-4.013692,-11.58773,7.1950216,49.457664,31.214104,-7.318357,-7.5969276
179,-1.7617173194885254,14.984718322753906,42.719364166259766,1.995455430205772,3.0205335025558178,-73.30333954066083,-83.89078,-6.3117695,0.18648997,124.55394,-41.98498,-2.4971952,-5.8156185,12.023477,-0.75161475,107.12384,30.000067,15.000033,-3.6418157,-9.741521,22.426954,-24.48966,36.72193,-26.7286,61.05302,-13.621674,-4.530082,-0.8228198,-4.1976757,-11.631037,7.362304,49.844727,31.230915,-7.3919616,-7.6205883
180,-1.9153788089752197,15.026349067687988,42.570106506347656,2.027076972966279,2.957860332712856,-73.46698584946526,-84.08058,-6.139207,-0.012990536,124.8011,-41.945118,-2.7359226,-5.9449883,11.688441,-1.0288686,107.56824,30.000067,15.000033,-3.467494,-9.68459,22.361351,-24.439518,36.546917,-26.71176,61.009335,-13.4803915,-4.5198846,-0.9074835,-4.401624,-11.697489,7.555747,50.217415,31.218243,-7.449879,-7.645169
181,-2.0661747455596924,15.078178405761719,42.449676513671875,2.062997050483035,2.896654838858141,-73.64593615650487,-84.2411,-5.957908,-0.21218081,124.98373,-41.858547,-2.972178,-6.1373844,11.238022,-1.3547828,108.05554,30.000067,15.000033,-3.2713897,-9.63017,22.336882,-24.373999,36.38026,-26.682653,60.93347,-13.349458,-4.549625,-0.9050485,-4.6193733,-11.760806,7.738072,50.552357,31.132141,-7.4880505,-7.6631856
182,-2.218402147293091,15.136495590209961,42.3549690246582,2.102688785581449,2.8346052578331458,-73.83596208226697,-84.37346,-5.7694917,-0.41097066,125.113434,-41.73686,-3.2046764,-6.371019,10.704084,-1.7108085,108.56862,30.000067,15.000033,-3.0702078,-9.584386,22.34009,-24.26912,36.238464,-26.643343,60.805798,-13.213079,-4.6030655,-0.84805924,-4.859671,-11.814985,7.9260373,50.864464,30.978148,-7.519181,-7.687145
183,-2.3852593898773193,15.21323299407959,42.283546447753906,2.128832765838721,2.771123994570854,-74.02077093076336,-84.48173,-5.58922,-0.6273139,125.20499,-41.59788,-3.4307966,-6.6027956,10.219317,-2.0487561,109.04462,30.000067,15.000033,-2.8940594,-9.531951,22.354406,-24.106256,36.10646,-26.57105,60.642017,-13.101722,-4.674753,-0.7537043,-5.1132207,-11.863578,8.116748,51.15675,30.815596,-7.5354195,-7.7029624
184,-2.5482640266418457,15.276893615722656,42.23663330078125,2.1237316922815195,2.7084073082791638,-74.18778947449181,-84.57389,-5.4325438,-0.88037294,125.27325,-41.45406,-3.6485028,-6.8055835,9.905338,-2.3273153,109.42974,30.000067,15.000033,-2.7652361,-9.460861,22.36254,-23.866793,35.977154,-26.44878,60.451077,-13.050168,-4.7570944,-0.6401521,-5.3685665,-11.906771,8.301541,51.43048,30.700876,-7.5287166,-7.6952
185,-2.7047648429870605,15.336858749389648,42.21240234375,2.0711767879601695,2.6476720631212185,-74.33950398942957,-84.648224,-5.2989564,-1.1898148,125.318306,-41.303738,-3.8546238,-6.9757886,9.805293,-2.5392315,109.698074,30.000067,15.000033,-2.67491,-9.369129,22.372526,-23.532576,35.86655,-26.26282,60.208843,-13.101611,-4.8592987,-0.47783333,-5.623687,-11.935942,8.4630165,51.681847,30.65053,-7.478365,-7.6461616
186,-2.860576629638672,15.404349327087402,42.20103073120117,1.982945928224765,2.58961272012068,-74.48411150083172,-84.70682,-5.1798167,-1.5429715,125.33242,-41.14046,-4.051797,-7.1394916,9.843341,-2.7142951,109.89312,30.000067,15.000033,-2.656038,-9.237655,22.366947,-23.103796,35.69986,-25.95875,59.965813,-13.180403,-4.9916368,-0.25699508,-5.919711,-11.977543,8.665029,51.95255,30.646076,-7.4008484,-7.5825505
187,-3.0160014629364014,15.46827220916748,42.200565338134766,1.8871137192569076,2.5359849340559664,-74.61750479174938,-84.75567,-5.0724406,-1.9071511,125.325356,-40.97405,-4.248352,-7.290725,9.981959,-2.8491106,110.03162,30.000067,15.000033,-2.640601,-9.105308,22.35369,-22.663605,35.552567,-25.699488,59.715714,-13.295647,-5.118161,-0.0617968,-6.183158,-12.011486,8.833049,52.17244,30.651995,-7.322985,-7.5082173
188,-3.166821241378784,15.530747413635254,42.206851959228516,1.8106309151897877,2.488716382646259,-74.73582679511668,-84.80217,-4.974387,-2.2510743,125.30254,-40.814182,-4.4521804,-7.427791,10.183448,-2.944171,110.137474,30.000067,15.000033,-2.6543558,-8.979113,22.305386,-22.229424,35.40006,-25.498459,59.499844,-13.372967,-5.2171116,0.04157961,-6.4240265,-12.048965,9.006254,52.359158,30.65271,-7.285444,-7.4551272
189,-3.3260624408721924,15.588151931762695,42.214256286621094,1.7558203039372502,2.4571645019927413,-74.84171747845727,-84.85154,-4.8784833,-2.5712407,125.25924,-40.6639,-4.660693,-7.5567493,10.487065,-2.9741352,110.19968,30.000067,15.000033,-2.6853426,-8.8636265,22.215143,-21.817827,35.2589,-25.407463,59.322525,-13.434036,-5.287068,0.025842471,-6.628361,-12.08851,9.1691,52.499447,30.670956,-7.3055434,-7.4182887
190,-3.4898524284362793,15.650041580200195,42.226009368896484,1.710889592811532,2.437939513780958,-74.9367796941108,-84.899414,-4.7886653,-2.8821752,125.19374,-40.51607,-4.871964,-7.6781473,10.893984,-2.9488328,110.2125,30.000067,15.000033,-2.7184875,-8.768696,22.10768,-21.392874,35.17896,-25.40392,59.118534,-13.518346,-5.332171,-0.077056475,-6.792699,-12.110771,9.295081,52.5788,30.69851,-7.358131,-7.380608
191,-3.6533026695251465,15.69648551940918,42.233272552490234,1.6800877824744054,2.4136330650415587,-75.01541354732608,-84.936264,-4.7158794,-3.1810744,125.11739,-40.369366,-5.093926,-7.777874,11.31605,-2.9163423,110.20449,30.000067,15.000033,-2.787482,-8.676935,21.974117,-20.961288,35.075405,-25.40699,58.951843,-13.551899,-5.35375,-0.22777882,-6.9449306,-12.141307,9.444036,52.638298,30.69731,-7.4235086,-7.367587
192,-3.8200511932373047,15.746299743652344,42.23783493041992,1.667967067064438,2.367839464506459,-75.07245461555821,-84.9538,-4.6684947,-3.4658523,125.04326,-40.223854,-5.336011,-7.8467216,11.654973,-2.9292896,110.210625,30.000067,15.000033,-2.8464975,-8.599357,21.847467,-20.552896,34.973305,-25.435017,58.79884,-13.525456,-5.336687,-0.405608,-7.045823,-12.173168,9.559495,52.636444,30.595625,-7.4682913,-7.3768053
193,-3.988985300064087,15.795528411865234,42.238773345947266,1.6728083036653545,2.2975983344198703,-75.10543599995896,-84.94819,-4.6521473,-3.7402852,124.97284,-40.078384,-5.601772,-7.8761888,11.915723,-2.9878268,110.22259,30.000067,15.000033,-2.8954136,-8.513619,21.715893,-20.215664,34.80566,-25.494822,58.732788,-13.395146,-5.2700233,-0.62189853,-7.0894217,-12.229245,9.652324,52.569695,30.37115,-7.4779477,-7.430893
194,-4.155267238616943,15.835592269897461,42.23466491699219,1.694237583913614,2.211544001580202,-75.11754303608954,-84.923996,-4.659568,-4.0035105,124.898445,-39.933617,-5.886101,-7.874785,12.138201,-3.0696325,110.230896,30.000067,15.000033,-2.9309304,-8.447159,21.588835,-19.893671,34.663517,-25.596792,58.661785,-13.210215,-5.153428,-0.8928832,-7.078934,-12.2782345,9.704531,52.42979,30.045877,-7.4682035,-7.5135303
195,-4.33221435546875,15.882308959960938,42.22157669067383,1.7358282082442207,2.109224728842228,-75.11238076380535,-84.880714,-4.685555,-4.2482924,124.82423,-39.793724,-6.1850452,-7.850525,12.290071,-3.18366,110.25138,30.000067,15.000033,-2.9816556,-8.432166,21.482231,-19.4997,34.625404,-25.671019,58.492096,-13.010041,-5.0165544,-1.184688,-7.0604377,-12.290689,9.733573,52.26271,29.658442,-7.4630094,-7.589596
196,-4.50214958190918,15.921756744384766,42.207115173339844,1.7979993890144166,1.9907287651478784,-75.0934135794526,-84.82085,-4.724757,-4.470343,124.75189,-39.661938,-6.4937725,-7.811243,12.34371,-3.3398805,110.30149,30.000067,15.000033,-3.0159461,-8.390839,21.349869,-19.22241,34.45536,-25.826324,58.496628,-12.800297,-4.925134,-1.4130427,-6.963,-12.355307,9.739722,52.07038,29.294231,-7.4807386,-7.635917
197,-4.675971031188965,15.958440780639648,42.181358337402344,1.8855547005422564,1.8525131036349518,-75.05711174799336,-84.74134,-4.7826815,-4.665843,124.6832,-39.539806,-6.8189025,-7.7552524,12.275222,-3.5491133,110.39106,30.000067,15.000033,-3.0551262,-8.386805,21.23795,-18.920801,34.333805,-25.969494,58.466442,-12.602872,-4.862808,-1.6156405,-6.834616,-12.404126,9.700122,51.853382,28.897821,-7.5402536,-7.6240635
198,-4.84682559967041,15.989520072937012,42.1488151550293,1.9960039417129931,1.695126230994614,-75.00236462217805,-84.64184,-4.8595004,-4.8376126,124.617134,-39.428085,-7.159478,-7.6767163,12.108679,-3.8024173,110.50784,30.000067,15.000033,-3.094779,-8.40283,21.132185,-18.631277,34.21636,-26.129827,58.45369,-12.398857,-4.816549,-1.8024975,-6.6603527,-12.455488,9.62597,51.601192,28.46655,-7.626715,-7.5791874
199,-5.017139911651611,16.018383026123047,42.11322784423828,2.1238879879121875,1.5238229649157051,-74.93629747479606,-84.52441,-4.9472866,-4.9878254,124.54968,-39.321186,-7.5018015,-7.5785856,11.875005,-4.0803456,110.638306,30.000067,15.000033,-3.1352196,-8.435635,21.029942,-18.341824,34.108425,-26.30418,58.449585,-12.195796,-4.785637,-1.9447798,-6.4623756,-12.50576,9.531526,51.347805,28.055777,-7.711317,-7.522126
200,-5.195830821990967,16.046039581298828,42.08100891113281,2.263777682252411,1.3437193365329299,-74.8665690336286,-84.38953,-5.0371547,-5.1184263,124.482185,-39.217167,-7.832114,-7.4612923,11.606974,-4.3632154,110.766685,30.000067,15.000033,-3.1690645,-8.4770155,20.926035,-18.061935,33.99891,-26.505758,58.468002,-12.001566,-4.770784,-2.0116384,-6.255472,-12.55902,9.42356,51.124382,27.721228,-7.764066,-7.472322
201,-5.363130569458008,16.06971549987793,42.0458869934082,2.422152953743454,1.151407680596867,-74.78841242951444,-84.23597,-5.1311855,-5.219503,124.41455,-39.116817,-8.142237,-7.319005,11.281284,-4.65946,110.89637,30.000067,15.000033,-3.2238562,-8.546265,20.819998,-17.745543,33.92598,-26.72132,58.468765,-11.82015,-4.772576,-1.9771997,-6.068239,-12.598399,9.324534,50.95128,27.474142,-7.774328,-7.4369016
202,-5.533878326416016,16.086872100830078,42.01309585571289,2.5987230659305562,0.9447757470690575,-74.69956959519807,-84.063385,-5.234415,-5.2931027,124.34705,-39.021725,-8.440503,-7.149706,10.891396,-4.9759016,111.033966,30.000067,15.000033,-3.2594776,-8.622885,20.71551,-17.474781,33.841656,-27.012922,58.51887,-11.655367,-4.7935457,-1.8595645,-5.8435388,-12.647199,9.185273,50.776535,27.287365,-7.7532907,-7.3972526
203,-5.704061985015869,16.099822998046875,41.982940673828125,2.7808512222161434,0.7313635614772493,-74.61038468661522,-83.8736,-5.338414,-5.3572345,124.275215,-38.929012,-8.738488,-6.965855,10.497428,-5.2870355,111.16218,30.000067,15.000033,-3.289475,-8.705764,20.61207,-17.202024,33.75464,-27.287815,58.579216,-11.489271,-4.823548,-1.7091035,-5.613573,-12.694401,9.040523,50.634903,27.153423,-7.723621,-7.359397
204,-5.8703155517578125,16.115795135498047,41.962135314941406,2.9561528588315373,0.516375970999208,-74.53080057564871,-83.66584,-5.4358225,-5.4303384,124.19095,-38.83651,-9.047281,-6.777624,10.161244,-5.568125,111.26521,30.000067,15.000033,-3.385292,-8.827346,20.516893,-16.808172,33.737984,-27.355507,58.553085,-11.292849,-4.848193,-1.5936244,-5.4982214,-12.701224,8.997223,50.62564,27.075232,-7.7180777,-7.3395605
205,-6.031610488891602,16.11812400817871,41.948204040527344,3.120707227952294,0.3128786811731362,-74.46827409238415,-83.454185,-5.51616,-5.5179014,124.091484,-38.742477,-9.372722,-6.6085668,9.88326,-5.8183136,111.349556,30.000067,15.000033,-3.3377664,-8.883875,20.414345,-16.520657,33.613155,-27.528252,58.59578,-11.0923815,-4.8838286,-1.4624027,-5.2059913,-12.754776,8.801384,50.525528,27.04936,-7.710415,-7.297861
206,-6.188014984130859,16.131668090820312,41.942138671875,3.280756599008213,0.10711702068246569,-74.41273180002052,-83.225555,-5.591378,-5.610354,123.98196,-38.65011,-9.707521,-6.436629,9.643273,-6.0498643,111.4158,30.000067,15.000033,-3.3361137,-8.961574,20.315653,-16.176,33.51393,-27.559767,58.61657,-10.862041,-4.9261384,-1.3383092,-4.998921,-12.787606,8.678148,50.536602,27.107258,-7.72047,-7.269014
207,-6.35213041305542,16.143451690673828,41.943275451660156,3.439206947802845,-0.10127619718033329,-74.36511863195496,-82.97982,-5.66242,-5.7058477,123.86781,-38.558144,-10.046206,-6.2528944,9.438175,-6.257261,111.45343,30.000067,15.000033,-3.3197324,-9.029023,20.213331,-15.847716,33.36886,-27.544792,58.67826,-10.625345,-4.966488,-1.2223696,-4.784706,-12.830384,8.560018,50.58688,27.17113,-7.7261157,-7.246161
208,-6.513891220092773,16.152732849121094,41.94865417480469,3.600744745157063,-0.3142847750934781,-74.32582594788096,-82.7174,-5.7303643,-5.7990494,123.751945,-38.460293,-10.380525,-6.0626717,9.2621765,-6.4342117,111.48482,30.000067,15.000033,-3.3011749,-9.107705,20.106695,-15.501089,33.21658,-27.469507,58.746025,-10.414064,-4.9880233,-1.1374896,-4.5771704,-12.871499,8.4759445,50.68487,27.178915,-7.719551,-7.2368793
209,-6.674488544464111,16.147817611694336,41.96248245239258,3.7583766346614924,-0.5344027436808646,-74.30005783658395,-82.433,-5.7895603,-5.897096,123.64042,-38.359528,-10.70636,-5.8512135,9.132852,-6.575602,111.48134,30.000067,15.000033,-3.2765424,-9.176467,19.990812,-15.157716,33.00573,-27.313858,58.86618,-10.213263,-4.989086,-1.0805286,-4.375126,-12.9274645,8.428702,50.84052,27.115496,-7.692135,-7.2467
210,-6.828083038330078,16.14118003845215,41.98520278930664,3.9132900754728372,-0.7598719473021592,-74.28725836411915,-82.12608,-5.839129,-5.9994984,123.53037,-38.261,-11.028947,-5.6203046,9.0476,-6.68219,111.443825,30.000067,15.000033,-3.2438352,-9.243546,19.870163,-14.803263,32.76636,-27.084757,59.006294,-10.0224905,-4.974975,-1.0460936,-4.176627,-12.988997,8.409865,51.046036,27.01464,-7.6510897,-7.270473
211,-6.980890274047852,16.139732360839844,42.00768280029297,4.078007490148859,-0.9849186378063717,-74.27675524292395,-81.81002,-5.8950934,-6.0939903,123.41046,-38.15334,-11.3551,-5.389667,8.971647,-6.769018,111.400566,30.000067,15.000033,-3.2096004,-9.324849,19.744415,-14.444118,32.52327,-26.832098,59.150208,-9.85798,-4.9529715,-1.0377917,-3.9764373,-13.051701,8.413619,51.282166,26.886309,-7.6078615,-7.299416
212,-7.144281387329102,16.13603401184082,42.03633117675781,4.265018611235936,-1.206287779402941,-74.25808266295256,-81.49056,-5.971255,-6.170246,123.27156,-38.033504,-11.692872,-5.157359,8.872368,-6.8501616,111.35152,30.000067,15.000033,-3.1803555,-9.433407,19.61234,-14.093629,32.293343,-26.609625,59.292248,-9.735106,-4.9315557,-1.0581354,-3.7675288,-13.113932,8.434732,51.529102,26.742699,-7.5740204,-7.3249435
213,-7.297979354858398,16.132204055786133,42.07109451293945,4.4791301523889455,-1.423787498724422,-74.2303045963666,-81.16663,-6.060067,-6.2120743,123.10423,-37.901554,-12.013028,-4.9272137,8.740683,-6.924958,111.299385,30.000067,15.000033,-3.155866,-9.580276,19.475906,-13.739379,32.09279,-26.409071,59.416412,-9.680065,-4.9082265,-1.1251987,-3.5512033,-13.170367,8.476626,51.79384,26.582363,-7.55936,-7.344329
214,-7.457881927490234,16.117713928222656,42.10957717895508,4.710810405791269,-1.6397585553229617,-74.19816606768876,-80.83028,-6.169482,-6.2449136,122.92081,-37.779606,-12.345435,-4.688861,8.604696,-6.9807205,111.24083,30.000067,15.000033,-3.1421103,-9.739439,19.32617,-13.402353,31.859821,-26.203894,59.577587,-9.661157,-4.885513,-1.2252358,-3.3340204,-13.241562,8.551723,52.091766,26.405727,-7.5553174,-7.365324
215,-7.62043571472168,16.106325149536133,42.1413459777832,4.958278154940709,-1.8524074028419575,-74.16130177564008,-80.494606,-6.3032603,-6.275061,122.72801,-37.635746,-12.715053,-4.4525776,8.455362,-7.0343604,111.17633,30.000067,15.000033,-3.1238754,-9.91683,19.173431,-13.081118,31.643396,-26.04296,59.734653,-9.658084,-4.8628197,-1.3330399,-3.0982075,-13.3121,8.627771,52.381607,26.211294,-7.5450892,-7.3841095
216,-7.776411533355713,16.09423828125,42.17765808105469,5.216690668699252,-2.0592258857168226,-74.11859752588379,-80.174904,-6.468292,-6.31252,122.53299,-37.439747,-13.149244,-4.2215314,8.290106,-7.094483,111.11586,30.000067,15.000033,-3.1030555,-10.108651,19.01888,-12.779847,31.45709,-25.956202,59.878914,-9.635357,-4.8440247,-1.4181048,-2.8426137,-13.379265,8.693718,52.641693,26.001505,-7.5135345,-7.4020863
217,-7.937301158905029,16.07088279724121,42.21196746826172,5.488926136926643,-2.2632145988939536,-74.06691777467717,-79.86724,-6.6493783,-6.344147,122.34081,-37.20128,-13.619159,-3.990787,8.109229,-7.1685066,111.05386,30.000067,15.000033,-3.0816765,-10.312877,18.860352,-12.506943,31.291744,-25.962519,60.02247,-9.58868,-4.8319855,-1.4703039,-2.5635254,-13.446019,8.752197,52.867756,25.766932,-7.4487195,-7.422963
218,-8.104598999023438,16.055622100830078,42.248043060302734,5.775050993977933,-2.463885291711524,-74.00787789951798,-79.56795,-6.8484664,-6.368323,122.14506,-36.92878,-14.120087,-3.7626648,7.9148545,-7.2430677,110.993515,30.000067,15.000033,-3.0576084,-10.537246,18.699335,-12.250737,31.156353,-26.040424,60.15542,-9.537349,-4.8227754,-1.5080993,-2.265164,-13.507712,8.806188,53.072853,25.507614,-7.3619633,-7.444765
219,-8.2669038772583,16.036039352416992,42.28592300415039,6.070020403146241,-2.6566308497328355,-73.94713586959676,-79.28052,-7.1087704,-6.428793,121.94304,-36.61441,-14.741199,-3.5393481,7.7065043,-7.3239107,110.9316,30.000067,15.000033,-3.0315275,-10.778468,18.538378,-12.001607,31.061075,-26.159473,60.26193,-9.474636,-4.813448,-1.540334,-1.9550562,-13.559214,8.85084,53.258408,25.24587,-7.2715025,-7.460056
220,-8.422805786132812,16.01527214050293,42.32352828979492,6.374202326968449,-2.837336723260223,-73.88927859694782,-79.0231,-7.354066,-6.3780093,121.73045,-36.242584,-15.000033,-3.3267062,7.48048,-7.388015,110.87407,30.000067,15.000033,-3.0023668,-11.026712,18.378607,-11.762348,30.99927,-26.294516,60.343132,-9.390623,-4.8025846,-1.5736201,-1.6361111,-13.601901,8.879214,53.423748,25.00548,-7.194962,-7.46148
221,-8.571016311645508,15.994972229003906,42.3643684387207,6.689493589605861,-3.008973407087057,-73.83247392799926,-78.80438,-7.5784726,-6.232616,121.518105,-35.797504,-15.000033,-3.1203718,7.2320824,-7.44202,110.81896,30.000067,15.000033,-2.9961245,-11.2921715,18.22533,-11.502076,30.983194,-26.408733,60.36766,-9.260037,-4.791155,-1.6078584,-1.3477776,-13.620035,8.899831,53.59651,24.788492,-7.1384764,-7.448806
222,-8.701528549194336,15.975435256958008,42.410396575927734,7.138855746172266,-3.1945562893105612,-73.74424517904939,-78.587746,-7.813252,-5.8891997,121.24765,-35.264194,-15.000033,-2.8749409,6.832935,-7.444146,110.77683,30.000067,15.000033,-2.984132,-11.680077,18.082197,-11.330105,30.964264,-26.648575,60.433865,-9.138375,-4.7835546,-1.6311855,-0.9820489,-13.6634245,8.8839445,53.694653,24.613935,-7.0847335,-7.4195642
223,-8.826720237731934,15.960651397705078,42.45652770996094,7.62053983950348,-3.373349459886851,-73.65579062746518,-78.36686,-8.12406,-5.5314517,120.946686,-34.705414,-15.000033,-2.6317296,6.3978467,-7.419021,110.73877,30.000067,15.000033,-3.0252752,-12.108702,17.943913,-11.11243,30.961693,-26.777859,60.458153,-8.951149,-4.7740026,-1.6581585,-0.70749766,-13.680825,8.885768,53.862183,24.415821,-7.0455194,-7.384612
224,-8.93800163269043,15.94045639038086,42.50605773925781,8.141681753001246,-3.5408395687440333,-73.57078725338144,-78.11533,-8.560623,-5.17743,120.59726,-34.162937,-15.000033,-2.3883884,5.9107075,-7.367872,110.70611,30.000067,15.000033,-2.9428692,-12.550318,17.804438,-11.042109,30.95375,-27.112902,60.568886,-8.854662,-4.7582684,-1.6855042,-0.22227126,-13.763418,8.802968,53.854443,24.24302,-6.9972253,-7.328457
225,-9.026704788208008,15.923163414001465,42.56263732910156,8.726955868970489,-3.7025350142084,-73.49384156108586,-77.820526,-9.227485,-4.797637,120.13967,-33.678177,-15.000033,-2.137464,5.3454113,-7.2573934,110.68324,30.000067,15.000033,-2.9195735,-13.063955,17.662905,-10.911753,30.943535,-27.292841,60.655975,-8.68826,-4.7372103,-1.7203118,0.16584292,-13.832534,8.770777,53.929043,24.023994,-6.9698825,-7.272445
226,-9.101744651794434,15.901519775390625,42.623573303222656,9.366704884577157,-3.865005160539371,-73.43187052545247,-77.48618,-10.062664,-4.4042754,119.61443,-33.24785,-15.000033,-1.8715358,4.718611,-7.09863,110.66467,30.000067,15.000033,-2.898439,-13.633843,17.523237,-10.781665,30.936752,-27.436792,60.75107,-8.496078,-4.712614,-1.7567419,0.5406047,-13.89811,8.756978,54.017406,23.78891,-6.957365,-7.2143836
227,-9.163793563842773,15.872305870056152,42.688114166259766,10.013135120791862,-4.02409434658906,-73.38739574209598,-77.1109,-10.868253,-4.062021,119.14467,-32.823597,-15.000033,-1.605451,4.0921593,-6.9138055,110.64103,30.000067,15.000033,-2.8761742,-14.220313,17.37921,-10.642174,30.932423,-27.529816,60.854332,-8.300122,-4.6849437,-1.7929314,0.87821984,-13.951995,8.758054,54.15856,23.549742,-6.954978,-7.1605215
228,-9.23588752746582,15.849283218383789,42.7500114440918,10.622824800235723,-4.169727164177507,-73.35186320468503,-76.71073,-11.441617,-3.8182714,118.84155,-32.31947,-15.000033,-1.3621826,3.526666,-6.7315702,110.60692,30.000067,15.000033,-2.828993,-14.763559,17.238718,-10.524969,30.92217,-27.603048,60.971046,-8.1459255,-4.6548057,-1.8304979,1.2741232,-14.036609,8.7483425,54.243732,23.345324,-6.9373345,-7.1107063
229,-9.308940887451172,15.824132919311523,42.818050384521484,11.213479721933446,-4.300652521967325,-73.30465945754105,-76.304375,-11.7533455,-3.5892534,118.66915,-31.663887,-15.000033,-1.143745,3.002537,-6.5555434,110.56368,30.000067,15.000033,-2.8083835,-15.3154125,17.07109,-10.398486,30.913967,-27.603296,61.11624,-8.00649,-4.6238923,-1.8720158,1.5863792,-14.078625,8.757372,54.45318,23.134174,-6.936309,-7.081395
230,-9.369662284851074,15.790689468383789,42.89176940917969,11.797251173606728,-4.415185929574138,-73.24661106091483,-75.90171,-11.887409,-3.363934,118.58742,-30.880304,-15.000033,-0.9475935,2.498109,-6.3779426,110.514336,30.000067,15.000033,-2.7903616,-15.870544,16.891235,-10.28696,30.906946,-27.576624,61.28211,-7.8921022,-4.5911913,-1.9177836,1.9066645,-14.108536,8.76807,54.66986,22.936632,-6.9370775,-7.0601873
231,-9.443928718566895,15.756421089172363,42.96134567260742,12.336503386735874,-4.498823614923165,-73.19279235348328,-75.51081,-11.818016,-3.2787008,118.68445,-30.006645,-15.000033,-0.8011414,2.052331,-6.2166796,110.46549,30.000067,15.000033,-2.8247273,-16.33214,16.68566,-10.104716,30.860907,-27.42477,61.394066,-7.7771635,-4.5557766,-1.9552982,2.2839344,-14.269208,8.824536,54.79599,22.80596,-6.90611,-7.028062
232,-9.529326438903809,15.722634315490723,43.02396011352539,12.792630359664749,-4.539682127516973,-73.1618405291256,-75.127594,-11.527734,-3.4808273,119.03892,-29.093344,-15.000033,-0.72732145,1.7092103,-6.084194,110.42229,30.000067,15.000033,-2.8463445,-16.723534,16.434765,-9.926935,30.8098,-27.251223,61.532215,-7.69726,-4.517071,-1.9629134,2.6044443,-14.39699,8.869879,55.001686,22.6993,-6.857812,-7.0054564
233,-9.63637638092041,15.686683654785156,43.08037567138672,13.13149437343413,-4.5271529153270444,-73.15248203126447,-74.78228,-10.898794,-4.04982,119.72583,-28.161592,-15.000033,-0.7456628,1.504548,-6.002969,110.387825,30.000067,15.000033,-2.8508193,-17.015266,16.13306,-9.738257,30.757982,-27.035324,61.679146,-7.6634016,-4.467822,-1.9194498,2.902455,-14.495096,8.91823,55.256256,22.610163,-6.7781386,-7.0027046
234,-9.763395309448242,15.646639823913574,43.13177490234375,13.373103124803261,-4.471324553245549,-73.1626675502395,-74.47034,-10.002865,-4.9430723,120.67843,-27.215448,-15.000033,-0.8362861,1.4178872,-5.956535,110.35713,30.000067,15.000033,-2.842951,-17.224287,15.792162,-9.536532,30.70546,-26.772398,61.830658,-7.6663756,-4.4104323,-1.8402736,3.181937,-14.575415,8.972469,55.54995,22.539738,-6.6752152,-7.015179
235,-9.891573905944824,15.60479736328125,43.17829513549805,13.565690858117872,-4.391621208926978,-73.21124375712822,-74.126205,-9.109401,-6.1168675,121.765945,-26.287863,-15.000033,-0.95987546,1.4013278,-5.89996,110.33155,30.000067,15.000033,-2.8194697,-17.386805,15.427859,-9.320481,30.656378,-26.485512,61.98048,-7.679656,-4.353543,-1.763733,3.4381237,-14.642717,9.010865,55.867428,22.508032,-6.568733,-7.028294
236,-10.016133308410645,15.548530578613281,43.23237991333008,13.7658036663808,-4.304311943254924,-73.30879020227722,-73.680885,-8.46957,-7.483353,122.85126,-25.369965,-15.000033,-1.0828474,1.3982017,-5.7900567,110.31414,30.000067,15.000033,-2.7879632,-17.546438,15.050198,-9.086998,30.614252,-26.194273,62.12233,-7.6753144,-4.3059993,-1.7276801,3.663919,-14.701673,9.013456,56.19511,22.533789,-6.4783707,-7.027892
237,-10.135159492492676,15.492632865905762,43.285797119140625,13.97720741568215,-4.206319859517796,-73.46715185050995,-73.10285,-8.124653,-9.078218,123.947,-24.504223,-15.000033,-1.2090058,1.4105196,-5.6131816,110.30775,30.000067,15.000033,-2.752506,-17.70164,14.6576805,-8.816736,30.576067,-25.87067,62.245895,-7.6368775,-4.2688947,-1.755004,3.8493586,-14.761819,8.979014,56.541744,22.625925,-6.403085,-6.9983974
238,-10.252406120300293,15.431843757629395,43.33540725708008,14.170500265309004,-4.090622297415135,-73.67723967748756,-72.41127,-7.9545155,-10.929326,125.108826,-23.676535,-15.000033,-1.3517823,1.4654622,-5.3943,110.31089,30.000067,15.000033,-2.6823976,-17.839968,14.250825,-8.5426035,30.553211,-25.55734,62.368816,-7.5982733,-4.2365274,-1.8221962,4.018228,-14.799625,8.893232,56.90407,22.767002,-6.335812,-6.951493
239,-10.358896255493164,15.36600399017334,43.38445281982422,14.365430249480406,-3.965036413546264,-73.91078919014173,-71.60593,-7.952082,-12.890377,126.26615,-22.766808,-15.000033,-1.4987023,1.5285286,-5.146166,110.31987,30.000067,15.000033,-2.6002975,-17.979187,13.826073,-8.285766,30.543856,-25.291214,62.50447,-7.577804,-4.2109413,-1.8964672,4.181467,-14.818769,8.774986,57.259705,22.958057,-6.283061,-6.9118705
240,-10.455595970153809,15.2979154586792,43.437992095947266,14.58582777294309,-3.8382141734514494,-74.1390015292275,-70.6938,-8.101867,-14.802708,127.34821,-21.648909,-15.000033,-1.6339083,1.5593759,-4.8812537,110.32936,30.000067,15.000033,-2.5485485,-18.131643,13.387346,-8.020941,30.543743,-25.054543,62.61556,-7.563144,-4.192026,-1.9436198,4.333292,-14.832072,8.643644,57.583893,23.188751,-6.2484217,-6.9010067
