unveil-humanoid-operators/unveil-humanoid-operators.github.io/feature-analysis-animation/data/feature_matrix_instances/weight_root_translate_peak_vel_walking_A025_walk_sideway_090_stop_003__A025.csv
Frame,root_translateX,root_translateY,root_translateZ,root_rotateX,root_rotateY,root_rotateZ,left_hip_pitch_joint_dof,left_hip_roll_joint_dof,left_hip_yaw_joint_dof,left_knee_joint_dof,left_ankle_pitch_joint_dof,left_ankle_roll_joint_dof,right_hip_pitch_joint_dof,right_hip_roll_joint_dof,right_hip_yaw_joint_dof,right_knee_joint_dof,right_ankle_pitch_joint_dof,right_ankle_roll_joint_dof,waist_yaw_joint_dof,waist_roll_joint_dof,waist_pitch_joint_dof,left_shoulder_pitch_joint_dof,left_shoulder_roll_joint_dof,left_shoulder_yaw_joint_dof,left_elbow_joint_dof,left_wrist_roll_joint_dof,left_wrist_pitch_joint_dof,left_wrist_yaw_joint_dof,right_shoulder_pitch_joint_dof,right_shoulder_roll_joint_dof,right_shoulder_yaw_joint_dof,right_elbow_joint_dof,right_wrist_roll_joint_dof,right_wrist_pitch_joint_dof,right_wrist_yaw_joint_dof
0,-2.6404964923858643,-0.6473886966705322,78.02151489257812,-0.18986123164772176,-6.173249517090975,-4.522049168316522,13.569911,7.5724893,22.050144,7.3672523,-10.938538,-7.570063,9.232006,-4.500739,-18.119705,7.962376,-12.498258,4.3795824,-1.3438165,1.1167148,9.22018,-3.206607,14.273074,-49.77266,59.95039,4.661822,-5.252983,-2.003156,-12.043629,-10.614497,68.13331,68.990166,24.376568,2.2394865,4.6599793
1,-2.643036365509033,-0.6810075044631958,78.0224838256836,-0.1920832073766127,-6.150617964537948,-4.478452574329503,13.517573,7.608485,22.003284,7.387053,-10.917744,-7.5930943,9.217175,-4.469339,-18.157866,7.9489336,-12.496621,4.348515,-1.3854231,1.0986296,9.209027,-3.1814091,14.292732,-49.707676,59.956783,4.639813,-5.239205,-1.9670786,-12.0568075,-10.59895,68.01158,69.00522,24.282307,2.2174478,4.6360617
2,-2.651060104370117,-0.7174997329711914,78.02301025390625,-0.19412227574021626,-6.131446472032767,-4.435852051603235,13.471023,7.643509,21.957409,7.4042287,-10.896114,-7.616772,9.20556,-4.4381285,-18.195168,7.9362926,-12.495809,4.3173223,-1.3980001,1.070795,9.209669,-3.1498923,14.323645,-49.622635,59.950485,4.667292,-5.2263165,-1.9355435,-12.067751,-10.574955,67.82609,69.01962,24.16686,2.1983347,4.6183505
3,-2.660496473312378,-0.7525871992111206,78.02342987060547,-0.19610183760909508,-6.106049088544876,-4.391424391807207,13.415013,7.6797285,21.909847,7.424861,-10.875429,-7.6397147,9.187883,-4.4065614,-18.233932,7.922867,-12.493869,4.2863693,-1.4104551,1.0449916,9.1999035,-3.109556,14.3529825,-49.53839,59.940773,4.692879,-5.213078,-1.9064876,-12.076959,-10.552775,67.65967,69.03454,24.044338,2.177458,4.596008
4,-2.6700544357299805,-0.7873812913894653,78.02592468261719,-0.1978142804310854,-6.065589190408135,-4.342705479974933,13.341422,7.7163086,21.859228,7.442225,-10.850569,-7.660686,9.156867,-4.373787,-18.276299,7.9038177,-12.486824,4.256008,-1.4266583,1.0242722,9.178225,-3.0952725,14.375114,-49.482006,59.950863,4.6707726,-5.201666,-1.8883041,-12.104156,-10.53726,67.548164,69.05405,23.913898,2.1537719,4.566279
5,-2.673900604248047,-0.8239484429359436,78.028076171875,-0.19843446346843444,-6.009484052165832,-4.290101388845259,13.247687,7.7534714,21.80813,7.462572,-10.825839,-7.677091,9.110475,-4.3412952,-18.320358,7.8830924,-12.477227,4.228826,-1.4331263,1.0132024,9.132162,-3.065381,14.383855,-49.428707,59.958805,4.654539,-5.1922107,-1.8869543,-12.13605,-10.531817,67.48528,69.082115,23.761606,2.1248403,4.526144
6,-2.678972005844116,-0.8589145541191101,78.03146362304688,-0.19839018972064754,-5.942674124162112,-4.234445516995737,13.141312,7.79104,21.756554,7.482528,-10.799906,-7.690721,9.056801,-4.3076167,-18.366152,7.854645,-12.462724,4.203629,-1.4404674,1.0039681,9.087124,-3.0609381,14.393783,-49.38038,59.97677,4.6174355,-5.1866117,-1.9061552,-12.189824,-10.527086,67.43687,69.11853,23.572456,2.0947146,4.48465
7,-2.6932549476623535,-0.897743284702301,78.03677368164062,-0.199096924877198,-5.8623385080205335,-4.174466120511897,13.017072,7.830615,21.698011,7.5012226,-10.769865,-7.70575,8.988031,-4.2721395,-18.417381,7.825793,-12.4446,4.175593,-1.4348787,0.9953472,9.027724,-3.0448825,14.402183,-49.331078,59.986973,4.584011,-5.1767235,-1.9222416,-12.246186,-10.524369,67.41465,69.15378,23.383904,2.063201,4.4371057
8,-2.704392433166504,-0.9445228576660156,78.04362487792969,-0.2028139755353973,-5.769480373263004,-4.109432959978496,12.877351,7.8736634,21.627413,7.5108256,-10.729338,-7.7271447,8.904766,-4.2321367,-18.477268,7.794335,-12.419587,4.1398516,-1.4278914,0.98409116,8.959236,-3.0470357,14.407228,-49.30182,60.012054,4.504463,-5.1599445,-1.9204403,-12.299334,-10.523747,67.414696,69.17562,23.2005,2.0336676,4.384178
9,-2.712435007095337,-0.9896513223648071,78.05120086669922,-0.21508924090637432,-5.650135502759634,-4.036063645722078,12.689313,7.9327006,21.535414,7.5445976,-10.695753,-7.757953,8.791068,-4.181269,-18.550026,7.760203,-12.383632,4.0903,-1.4525229,0.9791413,8.891643,-3.0676212,14.418199,-49.248016,60.029026,4.375278,-5.1283855,-1.9058784,-12.392634,-10.523475,67.48209,69.19083,23.020485,2.0060413,4.3241363
10,-2.731214761734009,-1.0368047952651978,78.0600814819336,-0.23183349572051198,-5.5168634270098345,-3.960084030714017,12.486682,7.9969,21.433815,7.5670443,-10.653873,-7.795788,8.659412,-4.1242843,-18.628428,7.7265425,-12.34106,4.03158,-1.4844658,0.9772975,8.804925,-3.0758507,14.432329,-49.195484,60.03974,4.2082434,-5.0866547,-1.8764182,-12.477336,-10.524636,67.59809,69.19389,22.837627,1.9779375,4.2490306
11,-2.749282121658325,-1.0873818397521973,78.06820678710938,-0.24838555428170217,-5.372783482798871,-3.8749721945087456,12.266554,8.061649,21.32082,7.5900645,-10.60321,-7.8347406,8.519373,-4.066289,-18.718786,7.685956,-12.29448,3.9727156,-1.5019127,0.96759206,8.711619,-3.0894296,14.4431715,-49.14725,60.057407,4.0514894,-5.046499,-1.8344857,-12.563554,-10.5265875,67.71124,69.19169,22.677399,1.9520823,4.1828403
12,-2.767819404602051,-1.1393612623214722,78.07383728027344,-0.26689453648832584,-5.2199615767286875,-3.770998427428714,11.899438,8.1795635,21.173632,7.9071097,-10.691703,-7.8713937,8.378302,-4.0059977,-18.830387,7.6318,-12.246719,3.9222555,-1.5464977,0.94756883,8.61578,-3.1337547,14.455836,-49.10824,60.103584,3.8838122,-5.022369,-1.7818323,-12.647279,-10.528291,67.81031,69.181244,22.54215,1.9308769,4.1429005
13,-2.788810968399048,-1.1906609535217285,78.07841491699219,-0.2787406359954505,-5.057271389737017,-3.646584453725833,11.505315,8.290676,21.00764,8.242624,-10.768964,-7.902124,8.235339,-3.9540231,-18.966211,7.564296,-12.199482,3.8876631,-1.5998884,0.9039458,8.511477,-3.1560936,14.470948,-49.03142,60.147026,3.7805698,-5.0191092,-1.7062775,-12.72525,-10.528443,67.881485,69.16349,22.448063,1.9154583,4.1444316
14,-2.8084306716918945,-1.2452253103256226,78.0842514038086,-0.28577603743139546,-4.883974630349975,-3.5067183887936046,11.09045,8.395691,20.826458,8.581796,-10.831627,-7.9300036,8.086841,-3.907332,-19.120878,7.4868484,-12.151227,3.8625827,-1.666688,0.84250754,8.404779,-3.2018318,14.490131,-48.96181,60.210873,3.6662502,-5.030341,-1.6125764,-12.80583,-10.525456,67.94001,69.14036,22.376575,1.9043546,4.1751666
15,-2.831328868865967,-1.3026998043060303,78.08939361572266,-0.2902475017339804,-4.713643047046933,-3.3622843771271143,10.679485,8.49616,20.643839,8.91267,-10.885968,-7.95546,7.9411745,-3.8628943,-19.279806,7.4109545,-12.10695,3.836893,-1.7070619,0.77463996,8.298026,-3.2715025,14.497852,-48.92852,60.29827,3.5667503,-5.043258,-1.5184089,-12.871488,-10.52369,67.95629,69.113495,22.324406,1.8959987,4.211061
16,-2.857908248901367,-1.3652381896972656,78.0943603515625,-0.2982608489239939,-4.557534654450756,-3.220610902067907,10.276621,8.605371,20.467596,9.26032,-10.955236,-7.9786363,7.809391,-3.8114703,-19.432816,7.3370214,-12.065758,3.7996945,-1.7611375,0.71232027,8.216379,-3.329615,14.515679,-48.85376,60.354343,3.5331383,-5.0449767,-1.4515927,-12.941445,-10.517948,67.96027,69.08316,22.280283,1.8910928,4.2298274
17,-2.887312889099121,-1.426379680633545,78.0995864868164,-0.30870637150436003,-4.422613431253451,-3.08275983360334,9.907512,8.715561,20.303139,9.586067,-11.024234,-8.0013485,7.6933384,-3.7561176,-19.576975,7.27942,-12.034757,3.7454967,-1.8065315,0.6548733,8.161068,-3.386,14.548572,-48.77613,60.378677,3.5637794,-5.027712,-1.4137143,-13.012409,-10.506424,67.93831,69.05708,22.259148,1.8918993,4.223999
18,-2.9143083095550537,-1.4871602058410645,78.10441589355469,-0.3202663838676018,-4.300424558257748,-2.9439161545642016,9.551988,8.827826,20.143063,9.910618,-11.09673,-8.022157,7.5900893,-3.6975696,-19.719234,7.2245407,-12.007132,3.680766,-1.8348672,0.59819794,8.120271,-3.4507778,14.584738,-48.71263,60.394196,3.6408248,-4.999789,-1.3915746,-13.073159,-10.493534,67.87763,69.02763,22.255451,1.8973991,4.205071
19,-2.9458136558532715,-1.5513801574707031,78.10738372802734,-0.3312690411077813,-4.185598234531398,-2.809812447800847,9.20715,8.939752,19.989355,10.229523,-11.168697,-8.041053,7.491808,-3.6375942,-19.855316,7.172406,-11.9836235,3.6141057,-1.8548436,0.54326427,8.089232,-3.5421574,14.612914,-48.677853,60.42539,3.7060604,-4.971201,-1.3841302,-13.135225,-10.483701,67.81524,68.9949,22.278156,1.9023435,4.1815963
20,-2.981308937072754,-1.6171153783798218,78.10888671875,-0.33908872813859237,-4.072927573515175,-2.6861597369237544,8.872036,9.047028,19.844036,10.535901,-11.235663,-8.058029,7.3933506,-3.5784194,-19.980988,7.1177387,-11.96161,3.5542161,-1.8591428,0.48352405,8.065585,-3.6171806,14.657484,-48.639282,60.42306,3.7722087,-4.944718,-1.3945363,-13.19551,-10.468368,67.72685,68.96322,22.286724,1.9008424,4.164833
21,-3.0209543704986572,-1.6822625398635864,78.1113052368164,-0.3433925470341737,-3.96302008875973,-2.5739361950278723,8.548582,9.149152,19.708633,10.827234,-11.298226,-8.070634,7.2954025,-3.5202146,-20.094793,7.059192,-11.941364,3.5059118,-1.864915,0.42393407,8.042741,-3.7037318,14.693503,-48.616116,60.433613,3.7849567,-4.9216957,-1.4297515,-13.255982,-10.456256,67.651985,68.92966,22.310904,1.8911501,4.157804
22,-3.057731866836548,-1.7478995323181152,78.11235809326172,-0.34504343341100896,-3.858962027638289,-2.4705262748747736,8.238218,9.247543,19.582142,11.10645,-11.3579855,-8.079786,7.198394,-3.4636204,-20.198683,7.005285,-11.927002,3.4638007,-1.8570156,0.36228198,8.035402,-3.7969396,14.7423935,-48.610443,60.419926,3.7732174,-4.893939,-1.4903773,-13.322388,-10.440146,67.55457,68.898605,22.336134,1.876089,4.1582236
23,-3.0878424644470215,-1.8225716352462769,78.11163330078125,-0.34423999692337687,-3.755583265705635,-2.375278558236632,7.934784,9.342748,19.462116,11.374183,-11.409994,-8.089671,7.0770392,-3.4161751,-20.29306,7.000689,-11.939595,3.4214094,-1.8349955,0.28795755,8.033752,-3.8720315,14.839999,-48.62512,60.355495,3.757327,-4.8735805,-1.5540025,-13.39127,-10.408597,67.44927,68.873024,22.361227,1.856262,4.1538363
24,-3.1223766803741455,-1.8941924571990967,78.10971069335938,-0.3416206883846889,-3.6487288871165435,-2.2879389396499388,7.631543,9.435698,19.346687,11.635177,-11.452153,-8.104575,6.9479823,-3.3691585,-20.380287,6.99751,-11.951954,3.3718982,-1.8122888,0.21800855,8.025942,-3.9629395,14.908123,-48.65195,60.32532,3.7606153,-4.8791714,-1.5934573,-13.466777,-10.385865,67.39849,68.84056,22.416845,1.8361644,4.1337175
25,-3.1584434509277344,-1.9665049314498901,78.1089859008789,-0.33894401519297157,-3.535765879942404,-2.213339125812503,7.3244324,9.531062,19.237175,11.892307,-11.482541,-8.128357,6.806959,-3.318232,-20.45673,6.9946547,-11.962182,3.3079093,-1.7774062,0.14609641,8.013034,-4.073495,14.975177,-48.723293,60.310513,3.7654822,-4.9222727,-1.5964417,-13.537913,-10.362513,67.363594,68.798225,22.473732,1.8140441,4.0878277
26,-3.195236921310425,-2.0384554862976074,78.10688018798828,-0.33537117828116414,-3.419535361271977,-2.1499217561998183,7.0183573,9.62654,19.13418,12.142322,-11.503253,-8.15761,6.6571846,-3.2649238,-20.522991,6.992527,-11.971431,3.2349398,-1.7317759,0.074058026,7.997471,-4.1971602,15.02903,-48.81534,60.31369,3.7852645,-4.9941907,-1.5775316,-13.609785,-10.342719,67.35233,68.74615,22.548542,1.7898113,4.024528
27,-3.2311596870422363,-2.1175179481506348,78.10674285888672,-0.3271283203280686,-3.3039707436447485,-2.0881535501211115,6.719799,9.713618,19.034063,12.377539,-11.514006,-8.186895,6.507744,-3.2175303,-20.587059,6.9907117,-11.982098,3.1652803,-1.6725359,-0.004753479,7.9821453,-4.3121805,15.103811,-48.929173,60.291935,3.8096547,-5.0651555,-1.557599,-13.680698,-10.314396,67.34072,68.70397,22.609465,1.7639905,3.9614074
28,-3.270583152770996,-2.192215919494629,78.10640716552734,-0.3102267815234966,-3.1929530919392914,-2.018015139172596,6.436754,9.782721,18.933344,12.587497,-11.513684,-8.210361,6.3677645,-3.1843772,-20.65727,6.9888573,-11.996458,3.1114738,-1.6231836,-0.094909005,7.971386,-4.398404,15.208792,-49.018513,60.231014,3.853047,-5.1140313,-1.5600139,-13.758257,-10.273561,67.34583,68.67736,22.644772,1.740498,3.9163897
29,-3.305553674697876,-2.2625246047973633,78.10747528076172,-0.2799729691279252,-3.0919673223112314,-1.9386661760681794,6.18425,9.824986,18.835836,12.753652,-11.495293,-8.226212,6.244411,-3.172059,-20.734062,6.9862356,-12.016543,3.082622,-1.5851833,-0.18265364,7.9623966,-4.489284,15.266705,-49.07745,60.20718,3.9421144,-5.137514,-1.5966147,-13.836837,-10.251429,67.38994,68.6523,22.660238,1.721849,3.8951597
30,-3.3384480476379395,-2.328312397003174,78.10999298095703,-0.2393530734537412,-2.9972494116929487,-1.8546702533735764,5.954703,9.847184,18.742212,12.884195,-11.460261,-8.237782,6.1306076,-3.1751199,-20.813828,6.9846034,-12.04154,3.0702388,-1.557382,-0.282891,7.960988,-4.583594,15.355949,-49.157837,60.16216,4.0119963,-5.1445565,-1.6567749,-13.920482,-10.218343,67.45086,68.639854,22.643908,1.7036605,3.8874125
31,-3.374616861343384,-2.3915772438049316,78.11277770996094,-0.1980520732235729,-2.899671276990291,-1.7646184984537643,5.716838,9.867172,18.643063,13.021935,-11.42664,-8.246297,6.015274,-3.1814222,-20.897846,6.9821577,-12.065339,3.0606642,-1.5279943,-0.37303928,7.952165,-4.680564,15.4058695,-49.217278,60.149982,4.0943117,-5.1457696,-1.7094715,-14.001193,-10.20071,67.5269,68.625244,22.62724,1.6901509,3.8879232
32,-3.414372682571411,-2.453850269317627,78.11557006835938,-0.16493583630048023,-2.789760226320953,-1.6674615511347608,5.442015,9.901244,18.529905,13.203423,-11.408838,-8.253317,5.8865485,-3.1796548,-20.987354,6.9798074,-12.083914,3.0399804,-1.501098,-0.44816443,7.927542,-4.76888,15.432205,-49.248287,60.158028,4.1565375,-5.1475954,-1.729131,-14.063304,-10.191886,67.576996,68.60619,22.583044,1.6825997,3.890882
33,-3.4515936374664307,-2.511121988296509,78.119384765625,-0.14365823266412173,-2.6596216389455383,-1.562519221239765,5.114146,9.956972,18.401611,13.44368,-11.414368,-8.259294,5.734668,-3.1652687,-21.080914,6.9768395,-12.094304,3.0047562,-1.481107,-0.50989026,7.8826594,-4.8436394,15.465779,-49.27668,60.15777,4.170535,-5.151953,-1.7032878,-14.12621,-10.180384,67.64273,68.5967,22.548326,1.6786333,3.8937016
34,-3.480997323989868,-2.5700159072875977,78.12094116210938,-0.12862696532810733,-2.5160490227511403,-1.4508472744955943,4.752504,10.023838,18.262794,13.719454,-11.433022,-8.263771,5.568617,-3.1449068,-21.178183,6.97294,-12.099617,2.9622893,-1.4655993,-0.5614791,7.825826,-4.924691,15.491722,-49.302444,60.173664,4.1509514,-5.1566615,-1.6495297,-14.186889,-10.171241,67.708374,68.59247,22.499601,1.6793283,3.901312
35,-3.5149123668670654,-2.628986120223999,78.12277221679688,-0.11579390881112646,-2.371865927492785,-1.3325731506238843,4.379239,10.091565,18.111698,14.013519,-11.454795,-8.26747,5.4027624,-3.1253276,-21.282812,6.9696484,-12.1024685,2.9147565,-1.4503391,-0.605767,7.7634187,-4.9702487,15.511171,-49.280643,60.17429,4.129863,-5.151882,-1.5813311,-14.238028,-10.1638365,67.76172,68.59046,22.448793,1.6840335,3.9125295
36,-3.5498666763305664,-2.6850030422210693,78.12488555908203,-0.10069505811032994,-2.2398456723351114,-1.2084777365031594,4.016936,10.149858,17.947327,14.307075,-11.468959,-8.270412,5.2521033,-3.1129375,-21.397652,6.9671597,-12.104609,2.8642085,-1.4465864,-0.6480086,7.7132564,-5.029648,15.520964,-49.24175,60.196503,4.027686,-5.135207,-1.5153512,-14.286798,-10.1596985,67.80405,68.58423,22.40777,1.6934069,3.9271417
37,-3.581118106842041,-2.737416982650757,78.12782287597656,-0.08493133272162737,-2.1256080078632547,-1.0777429630144868,3.670135,10.199874,17.763954,14.601842,-11.475685,-8.277219,5.1234307,-3.1056774,-21.52651,6.9652243,-12.105907,2.80513,-1.4586394,-0.68663156,7.6772227,-5.0763717,15.52343,-49.16071,60.22435,3.8387334,-5.097415,-1.4527625,-14.326456,-10.157704,67.82784,68.572586,22.367615,1.7116307,3.9470427
38,-3.6119415760040283,-2.7889652252197266,78.12992095947266,-0.06946983323030304,-2.0216945021965897,-0.9401345547585248,3.3279374,10.244797,17.564243,14.904083,-11.479151,-8.286204,5.0085697,-3.10139,-21.666988,6.9636397,-12.105873,2.7382817,-1.483567,-0.7198314,7.6515045,-5.0850887,15.514342,-48.99888,60.240982,3.6337984,-5.0440154,-1.3880808,-14.374071,-10.158096,67.86265,68.56202,22.355625,1.7378924,3.9734817
39,-3.6420602798461914,-2.8334624767303467,78.133056640625,-0.05066047278495924,-1.9207077089094864,-0.7973274005973903,2.9848008,10.279902,17.35828,15.21173,-11.478751,-8.287898,4.8978214,-3.105311,-21.81313,6.9640517,-12.106008,2.674842,-1.5317851,-0.74637616,7.6261005,-5.0969443,15.488539,-48.800926,60.273098,3.4028254,-4.9891286,-1.3202755,-14.412219,-10.163119,67.88682,68.548546,22.330801,1.763402,3.9998994
40,-3.66678524017334,-2.8718903064727783,78.13957977294922,-0.024998870799004366,-1.815643866827571,-0.6508717914463177,2.6348753,10.301158,17.156229,15.523875,-11.473151,-8.272961,4.7847958,-3.1217935,-21.958805,6.962326,-12.104524,2.6260223,-1.5636647,-0.7720042,7.5930758,-5.11596,15.448784,-48.59395,60.31053,3.2135205,-4.9431567,-1.2482368,-14.448787,-10.174175,67.90204,68.53913,22.334469,1.7777896,4.02159
41,-3.689054489135742,-2.914393186569214,78.1465072631836,0.01332912221284502,-1.7060134691505362,-0.4983662839709481,2.2811584,10.300641,16.96773,15.833116,-11.452527,-8.241036,4.6683216,-3.1584775,-22.104643,6.960828,-12.102951,2.5960016,-1.5835444,-0.8019841,7.5483847,-5.1043253,15.400722,-48.32261,60.32407,3.1279447,-4.9044824,-1.1709822,-14.462568,-10.190561,67.87198,68.52567,22.332779,1.7781194,4.037634
42,-3.722522735595703,-2.9479141235351562,78.15335845947266,0.060898106318482435,-1.595169562248288,-0.34007911485947756,1.9217347,10.283789,16.784851,16.15032,-11.423626,-8.196133,4.551463,-3.2115836,-22.252878,6.9605327,-12.100932,2.5786026,-1.6284212,-0.82023597,7.5013633,-5.106062,15.29646,-47.979675,60.3799,3.086855,-4.873645,-1.0891916,-14.484477,-10.231473,67.875435,68.5039,22.372023,1.7720729,4.0511007
43,-3.755171537399292,-2.9721579551696777,78.16136932373047,0.10961996655567906,-1.481614843866096,-0.1808922899573563,1.5571638,10.260561,16.593922,16.471268,-11.402325,-8.135729,4.432561,-3.2698445,-22.400263,6.9598837,-12.097745,2.5693383,-1.6539173,-0.83274317,7.4435654,-5.11221,15.181527,-47.654842,60.440983,3.0522277,-4.8497024,-1.0057032,-14.476623,-10.282852,67.82401,68.47129,22.373863,1.7616822,4.0607543
44,-3.7847280502319336,-2.987476110458374,78.17066192626953,0.15178457278068613,-1.363517217911104,-0.026108835749759456,1.1855402,10.240753,16.380808,16.79839,-11.408285,-8.0577965,4.3086796,-3.3237002,-22.543228,6.957589,-12.091169,2.563955,-1.6729257,-0.8303074,7.378244,-5.1364326,15.058896,-47.37822,60.513176,2.9853377,-4.838064,-0.9264437,-14.464329,-10.344501,67.77282,68.43348,22.362686,1.7514905,4.0669184
45,-3.8118369579315186,-3.0019867420196533,78.17960357666016,0.18911315184904853,-1.2359349701683506,0.1224776241721981,0.8107625,10.224252,16.172592,17.119568,-11.440081,-7.9544334,4.172687,-3.3760154,-22.678822,6.956336,-12.082523,2.5656688,-1.675221,-0.81325316,7.3008246,-5.150595,14.928139,-47.117847,60.573032,2.930639,-4.8341746,-0.85868037,-14.461284,-10.416366,67.740715,68.39637,22.362938,1.7432472,4.07565
46,-3.8397140502929688,-3.0135574340820312,78.18492889404297,0.22452322063278068,-1.1014169610747053,0.2677401362101771,0.43214905,10.206962,15.966407,17.43867,-11.489237,-7.8295155,4.0294333,-3.4296768,-22.809662,6.953383,-12.071149,2.5752912,-1.6760397,-0.78429747,7.2113023,-5.170358,14.790002,-46.878,60.63554,2.861991,-4.838204,-0.798559,-14.43356,-10.4988165,67.66802,68.34562,22.304054,1.735468,4.083981
47,-3.865652084350586,-3.0228047370910645,78.18832397460938,0.2516137254858474,-0.9686743272118797,0.4116876001458571,0.042130772,10.191132,15.703333,17.77781,-11.562321,-7.698871,3.8879108,-3.4772785,-22.940264,6.952021,-12.058541,2.5851266,-1.6708143,-0.74199,7.121607,-5.194326,14.647692,-46.66566,60.699005,2.7877774,-4.8578424,-0.7330046,-14.416831,-10.590637,67.6317,68.29681,22.286203,1.7237258,4.0822277
48,-3.8852791786193848,-3.0295395851135254,78.19048309326172,0.2646197602003045,-0.8468841078419914,0.5561915079059595,-0.3652546,10.177108,15.324798,18.156816,-11.664772,-7.578668,3.7602336,-3.5101464,-23.075115,6.9494495,-12.043127,2.5872993,-1.6751393,-0.6845142,7.0382996,-5.2344246,14.50781,-46.503563,60.77565,2.6759794,-4.9019494,-0.6500543,-14.394452,-10.689299,67.61899,68.246056,22.284794,1.7049326,4.059016
49,-3.903254508972168,-3.031773805618286,78.19264221191406,0.2572342006680862,-0.7364029046999772,0.7048763131670166,-0.80747193,10.154205,14.767435,18.596626,-11.806933,-7.4665294,3.6477177,-3.5205176,-23.218904,6.944647,-12.022863,2.57187,-1.6916943,-0.6086467,6.961678,-5.2733216,14.379165,-46.39339,60.84932,2.5157754,-4.984087,-0.5411173,-14.373013,-10.788963,67.65197,68.198975,22.32426,1.6721267,3.9990547
50,-3.928931474685669,-3.0327794551849365,78.19192504882812,0.23415352744264112,-0.632985219000803,0.8554658622666647,-1.2751118,10.121662,14.078976,19.082281,-11.98134,-7.3573003,3.5444968,-3.5147672,-23.367975,6.940525,-12.000206,2.5455492,-1.7196106,-0.514575,6.8866434,-5.3177342,14.252935,-46.328896,60.92837,2.3122554,-5.0967417,-0.41483694,-14.338065,-10.896859,67.69944,68.14321,22.365463,1.6300056,3.9119124
51,-3.9492368698120117,-3.029496669769287,78.1878662109375,0.20589231302553787,-0.5390576283837314,1.0013276570327454,-1.7305793,10.094543,13.367368,19.570045,-12.167027,-7.262778,3.4530146,-3.5052283,-23.514864,6.9343386,-11.976366,2.525419,-1.743379,-0.41634828,6.818772,-5.3564544,14.137645,-46.273212,60.994762,2.1404312,-5.212204,-0.286109,-14.308225,-11.007751,67.76465,68.0947,22.428257,1.5886911,3.8258026
52,-3.9664790630340576,-3.0289530754089355,78.18360900878906,0.18253654697824623,-0.45646235797500634,1.1356914193172198,-2.148741,10.094615,12.738122,20.04194,-12.349601,-7.194033,3.3707187,-3.5057788,-23.651812,6.93618,-11.960195,2.528546,-1.7563776,-0.3247607,6.7623196,-5.393363,14.036902,-46.201283,61.045536,2.0516758,-5.3037643,-0.16935214,-14.283572,-11.120215,67.82637,68.05439,22.494928,1.5600934,3.7682135
53,-3.9835703372955322,-3.020779609680176,78.17971801757812,0.16642812394895293,-0.38683575640454504,1.2590572286610409,-2.5234957,10.109391,12.175529,20.483051,-12.5261755,-7.158483,3.296053,-3.5217726,-23.780901,6.9522066,-11.956723,2.56551,-1.7618386,-0.24441186,6.716389,-5.410671,13.954087,-46.096226,61.066196,2.1310964,-5.360257,-0.06359557,-14.251559,-11.23407,67.855545,68.01793,22.5298,1.5480661,3.7487013
54,-4.003757476806641,-3.0075137615203857,78.17529296875,0.15247554240374878,-0.32871390763429653,1.3745361585069706,-2.8721828,10.13495,11.636805,20.916203,-12.706602,-7.148068,3.2362432,-3.5430882,-23.905352,6.964902,-11.955154,2.6252697,-1.7659875,-0.16961631,6.680794,-5.424136,13.891683,-45.98995,61.06718,2.30455,-5.3971043,0.03729406,-14.21274,-11.348874,67.86439,67.98308,22.540976,1.5462251,3.751704
55,-4.023701190948486,-2.987414598464966,78.17276763916016,0.13908624051194687,-0.2800932523889415,1.4787716932066666,-3.1877933,10.205256,11.18971,21.338709,-12.891811,-7.150174,3.18697,-3.5667505,-24.018064,6.9754133,-11.952015,2.692521,-1.7600371,-0.09731618,6.651508,-5.4186707,13.848872,-45.853073,61.04092,2.484659,-5.424638,0.12549973,-14.165906,-11.464454,67.85695,67.95387,22.5389,1.5512704,3.7663894
56,-4.031533241271973,-2.9688940048217773,78.16828155517578,0.12459291540944734,-0.2385424795622116,1.5685088731472387,-3.465383,10.356261,10.900767,21.751135,-13.082967,-7.1510344,3.1437778,-3.5893595,-24.111681,6.9873276,-11.945659,2.7519085,-1.7351431,-0.023227138,6.628636,-5.402856,13.824062,-45.680386,60.99472,2.554437,-5.4544973,0.19371039,-14.131857,-11.580168,67.87382,67.944115,22.575985,1.5590264,3.7830944
57,-4.040924549102783,-2.947416067123413,78.16242218017578,0.10417937204849798,-0.20486779380264228,1.6436959217440938,-3.6971352,10.611204,10.813375,22.151766,-13.290024,-7.156679,3.1087995,-3.6038897,-24.184052,6.9985075,-11.93354,2.7948222,-1.6941508,0.060070198,6.6075463,-5.3744507,13.817031,-45.45558,60.93326,2.468489,-5.4955792,0.22349103,-14.080076,-11.695645,67.86602,67.94434,22.59098,1.5715824,3.8020315
58,-4.05099630355835,-2.9183530807495117,78.15908813476562,0.07989992545819508,-0.17972027535887639,1.7058431541922388,-3.88767,10.949736,10.8820915,22.540249,-13.509096,-7.1697097,3.082999,-3.6138127,-24.23935,7.008936,-11.917723,2.8309462,-1.6382488,0.14848599,6.589803,-5.3267846,13.827793,-45.181866,60.849392,2.3014944,-5.539691,0.22411829,-14.01807,-11.811259,67.842445,67.956474,22.594967,1.5897067,3.82808
59,-4.057003021240234,-2.885228395462036,78.15458679199219,0.060139661404660885,-0.16065318161212983,1.7540478497764354,-4.052883,11.3436,11.040656,22.922606,-13.722354,-7.171457,3.0623364,-3.630735,-24.279638,7.0192823,-11.900584,2.8721895,-1.5732847,0.23021384,6.578341,-5.270341,13.854516,-44.89265,60.74491,2.0869908,-5.574174,0.22900087,-13.962684,-11.925654,67.831245,67.97958,22.617224,1.6098307,3.854653
60,-4.062341690063477,-2.845870018005371,78.15349578857422,0.05341720699154687,-0.14490113938520752,1.7873200929246398,-4.2072334,11.762913,11.22286,23.301802,-13.910401,-7.1437354,3.0430684,-3.6665716,-24.306908,7.030049,-11.884362,2.93057,-1.5075248,0.29310265,6.571659,-5.1981206,13.893209,-44.601616,60.61437,1.8811704,-5.5862947,0.2714832,-13.911002,-12.037365,67.826836,68.009315,22.645782,1.6286311,3.8751771
61,-4.06482458114624,-2.801663398742676,78.15827941894531,0.06369919619873135,-0.13060714120563607,1.8055095213497463,-4.350007,12.205776,11.428905,23.671186,-14.079661,-7.076529,3.022511,-3.7264457,-24.321915,7.0410075,-11.868993,3.011042,-1.4395207,0.3325578,6.569508,-5.1244984,13.941523,-44.32562,60.463135,1.676117,-5.5595117,0.38617325,-13.869133,-12.144709,67.84209,68.05068,22.699076,1.6426398,3.884588
62,-4.068390846252441,-2.7530171871185303,78.16209411621094,0.08592524758970867,-0.1194210947186418,1.8090969870571725,-4.474046,12.686805,11.68813,24.03078,-14.23627,-6.980976,3.0033042,-3.8032844,-24.323412,7.0521865,-11.854037,3.1065867,-1.3488286,0.35467333,6.560451,-5.056584,13.975369,-44.066986,60.324276,1.458392,-5.5062494,0.55122185,-13.827075,-12.207687,67.8389,68.14918,22.751617,1.6512312,3.8883576
63,-4.07181978225708,-2.700221061706543,78.16307830810547,0.11394555922970474,-0.11484450064740966,1.7980812275671525,-4.585947,13.201866,11.977048,24.395298,-14.361018,-6.8707104,2.9901383,-3.889713,-24.311213,7.06284,-11.83898,3.211204,-1.2901288,0.3709965,6.5710945,-4.9495664,14.043496,-43.75615,60.129013,1.2408277,-5.4553194,0.6992666,-13.802664,-12.312738,67.89185,68.20554,22.829437,1.6672857,3.8929613
64,-4.068382740020752,-2.646383762359619,78.16416931152344,0.14202962156397775,-0.12029782494232161,1.7724144395521908,-4.688852,13.745639,12.273265,24.772417,-14.430742,-6.759399,2.9872324,-3.9788527,-24.284409,7.0729785,-11.823726,3.318832,-1.2168716,0.3835082,6.5877438,-4.839185,14.113767,-43.466465,59.94277,1.004738,-5.4367876,0.7814592,-13.776864,-12.410209,67.92571,68.26705,22.891047,1.6914489,3.9073906
65,-4.0697126388549805,-2.585235595703125,78.16724395751953,0.16993939929976107,-0.14004947728475453,1.7260096106524003,-4.7794952,14.327722,12.593014,25.178062,-14.444361,-6.637591,2.998588,-4.0702753,-24.239414,7.083426,-11.809171,3.4310198,-1.1415367,0.39703795,6.6149483,-4.7184763,14.184355,-43.171772,59.763134,0.7195402,-5.4712243,0.7591534,-13.753625,-12.501175,67.952576,68.336395,22.927704,1.7285756,3.9365036
66,-4.066638469696045,-2.517456293106079,78.17194366455078,0.20039485398995904,-0.17111159521112085,1.6608194416960926,-4.855495,14.94768,12.941189,25.60157,-14.411591,-6.502051,3.0210354,-4.166821,-24.17768,7.0938816,-11.795185,3.5499446,-1.0623225,0.40816185,6.650759,-4.582315,14.254196,-42.86547,59.58158,0.40780938,-5.5378165,0.66982555,-13.73708,-12.58589,67.98348,68.41612,22.95834,1.7749345,3.975304
67,-4.0586981773376465,-2.445807695388794,78.17304992675781,0.23087159468553836,-0.2062320997147008,1.5888512778782145,-4.9266467,15.586668,13.277072,26.01908,-14.329051,-6.375836,3.0484354,-4.26632,-24.106596,7.1031933,-11.780847,3.670235,-0.98874766,0.41532338,6.6891894,-4.443198,14.322147,-42.568962,59.41069,0.12684628,-5.6060762,0.56838554,-13.723813,-12.664325,68.01234,68.498024,22.982725,1.8234743,4.0164275
68,-4.043148994445801,-2.369086742401123,78.17412567138672,0.2599481055633714,-0.23810004293717416,1.522201979549745,-5.0038147,16.224243,13.559605,26.406694,-14.193129,-6.2819977,3.075042,-4.367486,-24.033892,7.109318,-11.764451,3.7867029,-0.92934805,0.41597593,6.723441,-4.3108654,14.386611,-42.301556,59.262516,-0.06173739,-5.6463194,0.51035976,-13.705903,-12.736979,68.023155,68.573364,22.991163,1.8670771,4.052901
69,-4.031467914581299,-2.288872480392456,78.17564392089844,0.2861822818593969,-0.26684311731961297,1.4666817626635544,-5.0920396,16.859749,13.776442,26.764378,-14.004283,-6.223186,3.1021376,-4.467998,-23.958908,7.1111937,-11.745654,3.894389,-0.8826996,0.40939477,6.754764,-4.196863,14.441611,-42.07999,59.148876,-0.10381217,-5.644856,0.5121373,-13.694467,-12.798782,68.034485,68.6516,23.015915,1.9030285,4.0809593
70,-4.022521018981934,-2.2022812366485596,78.17924499511719,0.3110092685015232,-0.29570281973590645,1.4150129884085125,-5.1855245,17.501608,13.949521,27.101376,-13.762831,-6.1881113,3.131679,-4.5698614,-23.87839,7.110064,-11.724804,3.9973326,-0.8425154,0.3972868,6.783372,-4.0906153,14.483576,-41.886547,59.064445,-0.035457972,-5.619791,0.54455966,-13.687225,-12.846709,68.04233,68.73932,23.047565,1.9351041,4.1051993
71,-4.012007713317871,-2.102997303009033,78.18328857421875,0.3359499195351527,-0.3217972762524066,1.3595495551170338,-5.2827888,18.14415,14.087169,27.414364,-13.468994,-6.179863,3.158624,-4.6759057,-23.795547,7.10786,-11.702752,4.1033354,-0.8182034,0.38134912,6.811799,-3.9852138,14.531039,-41.702976,58.988174,0.037426867,-5.5894613,0.59309447,-13.68273,-12.901609,68.0511,68.80904,23.067879,1.9668269,4.1305914
72,-4.000428676605225,-1.996823787689209,78.18692016601562,0.36256604592047,-0.3418993695619373,1.29270370736744,-5.379892,18.780869,14.1988535,27.695631,-13.12077,-6.2015505,3.1776233,-4.789766,-23.71365,7.108228,-11.6815605,4.220144,-0.7730304,0.36369097,6.823034,-3.8942382,14.5538845,-41.545525,58.955875,0.032390144,-5.5739427,0.65210253,-13.673464,-12.931087,68.03018,68.89925,23.06374,1.9967576,4.1636415
73,-3.988811492919922,-1.892451524734497,78.19056701660156,0.39197285833075435,-0.3531760006266504,1.2108829674291581,-5.4785333,19.409006,14.278706,27.940483,-12.719356,-6.2602196,3.1858366,-4.912314,-23.638191,7.111058,-11.663069,4.352189,-0.74787116,0.34520015,6.831179,-3.7886055,14.586103,-41.37294,58.918015,-0.059691813,-5.5758853,0.7173575,-13.678499,-12.974384,68.03085,68.96419,23.037067,2.0335398,4.2118397
74,-3.9762370586395264,-1.7819147109985352,78.19192504882812,0.4234213155890126,-0.35759978830079614,1.118471352493258,-5.5804834,20.031061,14.323864,28.15345,-12.2651415,-6.3525424,3.190021,-5.0405827,-23.565796,7.106868,-11.641916,4.494526,-0.713095,0.32282582,6.824679,-3.6964161,14.607856,-41.23858,58.916374,-0.21079876,-5.5874805,0.79855704,-13.674054,-13.006911,68.002235,69.031,22.970835,2.0707846,4.2701507
75,-3.953296661376953,-1.6622800827026367,78.1983871459961,0.4554304984450089,-0.3603716276064708,1.02075180587629,-5.685553,20.650158,14.345657,28.347448,-11.75755,-6.4656157,3.1842442,-5.1783466,-23.486687,7.120075,-11.627091,4.6414557,-0.6594851,0.29869926,6.8001566,-3.6214237,14.61274,-41.149677,58.95236,-0.4422573,-5.604741,0.8927589,-13.6598625,-13.01692,67.96265,69.115654,22.918518,2.100477,4.3202987
76,-3.935607433319092,-1.5368175506591797,78.19898223876953,0.48699651178155706,-0.3672713812528738,0.9224344326545989,-5.790236,21.268816,14.357223,28.531666,-11.193997,-6.586329,3.1821313,-5.321704,-23.39209,7.1308517,-11.602435,4.787214,-0.620784,0.27218395,6.8003163,-3.5304692,14.619744,-40.95762,58.960102,-0.6794033,-5.6238065,0.96817416,-13.665206,-13.038083,67.90953,69.17368,22.885363,2.1242394,4.357024
77,-3.9143967628479004,-1.4033818244934082,78.20065307617188,0.5147871859811424,-0.3797359426271203,0.8270383397762436,-5.897917,21.889542,14.348787,28.7064,-10.55349,-6.7257366,3.1831214,-5.4686947,-23.277954,7.1451235,-11.569473,4.9244547,-0.6279955,0.25189123,6.823726,-3.4162345,14.627011,-40.66864,58.9385,-0.976378,-5.65202,1.0346583,-13.691186,-13.078445,67.88796,69.18762,22.896935,2.1458445,4.3665347
78,-3.8942224979400635,-1.2680197954177856,78.20648956298828,0.5406827662693181,-0.3935662650227135,0.7301113226448995,-6.0106688,22.509731,14.317412,28.867567,-9.844055,-6.885947,3.1797838,-5.6214657,-23.148537,7.1694674,-11.532983,5.0582185,-0.62150794,0.2320616,6.840076,-3.2986987,14.625648,-40.376213,58.925724,-1.3503842,-5.688831,1.1061043,-13.707564,-13.120338,67.857605,69.19006,22.94646,2.159241,4.355592
79,-3.872621774673462,-1.1197172403335571,78.20668029785156,0.5705941282861049,-0.4100078141115718,0.6296639969049436,-6.1230044,23.123997,14.281047,29.020937,-9.108499,-7.039567,3.1149473,-5.812117,-23.005415,7.3391814,-11.570789,5.202896,-0.6265809,0.20969358,6.8622446,-3.1798346,14.613826,-40.038387,58.910698,-1.7320354,-5.7186317,1.1647247,-13.721591,-13.175327,67.82191,69.16751,22.998644,2.1646798,4.337366
80,-3.850433588027954,-0.9685445427894592,78.20858764648438,0.610152606776374,-0.42935161589014254,0.5231728754303231,-6.23144,23.728052,14.2585125,29.175291,-8.391119,-7.158875,3.0431926,-6.0224047,-22.861965,7.529097,-11.618783,5.3709903,-0.6183061,0.17537318,6.8862085,-3.0688975,14.592886,-39.68088,58.893223,-2.0686905,-5.7242775,1.2025135,-13.736773,-13.23062,67.78169,69.14277,23.062653,2.1560986,4.323233
81,-3.828925371170044,-0.811557948589325,78.21302795410156,0.6634449922758205,-0.4534335514260059,0.4070398634368858,-6.338951,24.318672,14.247767,29.343027,-7.6965566,-7.211972,2.9722357,-6.2532835,-22.719742,7.723317,-11.669559,5.574726,-0.5963894,0.12298802,6.9144473,-2.9580505,14.56677,-39.285385,58.85984,-2.380568,-5.6932535,1.2100564,-13.754404,-13.27828,67.72821,69.12304,23.135433,2.1238763,4.315536
82,-3.8020503520965576,-0.64656001329422,78.2138671875,0.7264711299425531,-0.4814146916424811,0.2835363798586694,-6.4471483,24.899485,14.242342,29.517433,-7.004382,-7.221013,2.8974516,-6.50285,-22.574451,7.930171,-11.72528,5.8040676,-0.56372726,0.05596892,6.9447813,-2.8532877,14.540034,-38.871807,58.81921,-2.702573,-5.6366644,1.1964376,-13.768177,-13.315658,67.654625,69.1043,23.211472,2.0724216,4.307695
83,-3.7770445346832275,-0.47483938932418823,78.215576171875,0.7925195277053029,-0.5101312136211184,0.15910249922239197,-6.5486407,25.477995,14.25431,29.677082,-6.3197594,-7.238606,2.8171883,-6.7638574,-22.427053,8.151794,-11.7862835,6.037993,-0.59342325,-0.00078966626,6.9874163,-2.731569,14.481982,-38.338333,58.77473,-2.907737,-5.576183,1.165371,-13.804206,-13.392803,67.648544,69.04596,23.295553,2.0259633,4.3016157
84,-3.755533218383789,-0.29695048928260803,78.21923828125,0.8560916643845649,-0.5357724294045288,0.040189947773497256,-6.636882,26.059666,14.295506,29.799698,-5.647221,-7.317421,2.7281904,-7.0306625,-22.278427,8.392538,-11.854474,6.2554755,-0.588493,-0.0609562,7.0154815,-2.6499014,14.427236,-37.897087,58.765408,-3.0212028,-5.5262923,1.1464365,-13.819616,-13.464113,67.61223,68.99059,23.358635,1.9933324,4.2937694
85,-3.7325005531311035,-0.11509448289871216,78.2201919555664,0.9147521032966728,-0.5555215911270056,-0.07053784875213095,-6.7081003,26.651203,14.379938,29.872282,-4.989314,-7.4870534,2.6264884,-7.3017945,-22.129883,8.657869,-11.933204,6.4502,-0.5779325,-0.122815534,7.033673,-2.5870757,14.385595,-37.494495,58.76756,-2.990591,-5.489876,1.1299148,-13.83291,-13.519878,67.57002,68.94704,23.39575,1.982452,4.283988
86,-3.701641321182251,0.0768803060054779,78.21851348876953,0.9719414731846756,-0.5721056466431705,-0.17702902940877252,-6.7676954,27.2468,14.497273,29.91065,-4.3426933,-7.7130256,2.5175502,-7.5789237,-21.980686,8.937759,-12.017278,6.6335745,-0.58144176,-0.18319084,7.048651,-2.5330002,14.344519,-37.085236,58.77557,-2.8406796,-5.459162,1.1085443,-13.851254,-13.579727,67.549965,68.89499,23.426567,1.9857811,4.272542
87,-3.675563335418701,0.27219852805137634,78.21614837646484,1.0321440686186336,-0.5897843537031884,-0.28231533545514303,-6.821825,27.831852,14.622667,29.933802,-3.7022185,-7.9519663,2.4002106,-7.8687325,-21.826483,9.241732,-12.110921,6.8121405,-0.58376503,-0.2525998,7.060349,-2.4948509,14.313976,-36.715748,58.794983,-2.6302354,-5.4327593,1.0964963,-13.861304,-13.631851,67.51754,68.84673,23.43048,1.9920105,4.2629642
88,-3.647073268890381,0.4733177721500397,78.21507263183594,1.0990952627245423,-0.6130796590954558,-0.3894105239668838,-6.8773475,28.393038,14.731365,29.963127,-3.0644393,-8.16052,2.2839053,-8.17282,-21.664026,9.556063,-12.205816,6.991899,-0.58319885,-0.33651242,7.0723233,-2.4716616,14.296064,-36.403873,58.82781,-2.4011955,-5.4101644,1.1063167,-13.870149,-13.672693,67.48881,68.81067,23.428875,1.991188,4.258735
89,-3.6103692054748535,0.6801928877830505,78.21400451660156,1.1728238085556866,-0.6450156405822174,-0.5008824772658163,-6.9341455,28.934654,14.821373,30.01046,-2.428371,-8.317442,2.1757085,-8.488472,-21.489307,9.870179,-12.294951,7.164762,-0.5888684,-0.43494698,7.086119,-2.4657104,14.289155,-36.1481,58.878113,-2.1463726,-5.390222,1.143963,-13.870813,-13.706125,67.45788,68.78116,23.384262,1.9769548,4.264662
90,-3.56779146194458,0.8924764394760132,78.21247863769531,1.2518255741327216,-0.6825116965679894,-0.6146560815521528,-6.990395,29.461443,14.905395,30.063452,-1.7966163,-8.447966,2.0708122,-8.815246,-21.304745,10.187959,-12.380861,7.330527,-0.5944953,-0.54573494,7.0978703,-2.4775887,14.291683,-35.945473,58.946133,-1.849534,-5.3732862,1.2025354,-13.858809,-13.73102,67.41488,68.75609,23.298098,1.9556335,4.277391
91,-3.5286242961883545,1.1127644777297974,78.20942687988281,1.337917095331741,-0.7206621334825268,-0.7267020006938066,-7.0459137,29.958614,14.981966,30.099699,-1.1679457,-8.579029,1.9565057,-9.160516,-21.117292,10.527881,-12.475462,7.5071893,-0.59980154,-0.66659385,7.106881,-2.506393,14.30107,-35.788944,59.032433,-1.5432734,-5.362549,1.2731224,-13.8497715,-13.748973,67.38108,68.744064,23.2368,1.937201,4.2883115
92,-3.4947476387023926,1.345476746559143,78.20677185058594,1.4331127044812488,-0.7552104077159226,-0.8325860564294437,-7.0993342,30.410746,15.04881,30.095636,-0.53983307,-8.739221,1.8259592,-9.529738,-20.934916,10.895928,-12.583681,7.712979,-0.61615413,-0.794983,7.1149135,-2.5617218,14.317859,-35.678555,59.143867,-1.2800963,-5.36066,1.3467455,-13.8472,-13.763761,67.35383,68.73843,23.22801,1.9346162,4.2885118
93,-3.455038070678711,1.579890251159668,78.20069885253906,1.5399264743073153,-0.7832606729176048,-0.9300621005582884,-7.1568155,30.813345,15.101571,30.053335,0.09541223,-8.921121,1.6859838,-9.924092,-20.76554,11.270956,-12.695091,7.960584,-0.63140386,-0.9270924,7.1021256,-2.642903,14.327491,-35.64237,59.298695,-1.0583826,-5.372793,1.434962,-13.837609,-13.76829,67.33478,68.75649,23.309351,1.9513143,4.2669754
94,-3.4051246643066406,1.8257513046264648,78.19294738769531,1.6632204558778405,-0.8079525965879711,-1.0229626903032525,-7.2118273,31.165789,15.147434,29.97837,0.7365957,-9.1152315,1.5252732,-10.353292,-20.59819,11.682766,-12.823436,8.238887,-0.65784985,-1.0891658,7.1104083,-2.7550669,14.370224,-35.6156,59.45825,-0.8312962,-5.395447,1.5191724,-13.839729,-13.780544,67.28968,68.75278,23.417156,1.9850619,4.2357965
95,-3.360123872756958,2.0776326656341553,78.18201446533203,1.7873379285183326,-0.8323885259496275,-1.1122802760866959,-7.2592645,31.486313,15.186785,29.87029,1.3637383,-9.349023,1.3515873,-10.794085,-20.427885,12.122468,-12.96378,8.525688,-0.6707969,-1.2668028,7.1192775,-2.8460193,14.4839945,-35.673233,59.56353,-0.67530173,-5.4150667,1.601382,-13.829517,-13.801839,67.23249,68.730576,23.540169,2.0216227,4.2044864
96,-3.318784713745117,2.335646629333496,78.16336822509766,1.9051764333763865,-0.8598203789278988,-1.2010173154123716,-7.286366,31.782368,15.228,29.721037,1.9570965,-9.64862,1.1506519,-11.242071,-20.24213,12.62755,-13.134434,8.800545,-0.68726826,-1.4362551,7.126729,-2.9391682,14.594824,-35.76333,59.67881,-0.5816015,-5.43036,1.6729065,-13.821635,-13.814601,67.18552,68.72519,23.638626,2.0515854,4.190061
97,-3.266465663909912,2.599252939224243,78.14045715332031,2.018506024352171,-0.889904069099291,-1.2870537267300741,-7.2868996,32.05381,15.283191,29.518778,2.5022945,-10.028011,0.92417216,-11.700273,-20.040958,13.194612,-13.335764,9.06144,-0.7096485,-1.5976663,7.13461,-3.046375,14.704403,-35.898098,59.81399,-0.5885619,-5.439425,1.7371708,-13.815208,-13.821841,67.14057,68.73929,23.6907,2.0715284,4.2004256
98,-3.225466728210449,2.8763818740844727,78.11018371582031,2.1311620348617617,-0.9212509269453091,-1.3698555718332832,-7.266642,32.296383,15.345418,29.271116,3.0125473,-10.472674,0.6744294,-12.172516,-19.828314,13.814278,-13.562374,9.317896,-0.73494923,-1.7560822,7.1405206,-3.1594007,14.813741,-36.069588,59.962097,-0.66051143,-5.44619,1.7973778,-13.804414,-13.825009,67.08958,68.765,23.71411,2.0873973,4.226324
99,-3.1841881275177,3.1614131927490234,78.07402801513672,2.2378487914964107,-0.9560123518830571,-1.4543543197243296,-7.2305694,32.51236,15.39291,28.994217,3.5121782,-10.966756,0.39950356,-12.650164,-19.599676,14.490329,-13.80884,9.566171,-0.75536495,-1.9153805,7.1514993,-3.2827604,14.94224,-36.29182,60.10672,-0.77964973,-5.451345,1.8406657,-13.79834,-13.825011,67.04358,68.79143,23.737358,2.103205,4.2578144
100,-3.1467247009277344,3.456277370452881,78.03311920166016,2.3312129163296245,-0.9966389039627002,-1.5454635814408972,-7.1931443,32.70851,15.397754,28.721395,4.0244627,-11.49416,0.10940177,-13.118181,-19.353794,15.202134,-14.062918,9.802227,-0.7819937,-2.053388,7.1591763,-3.4157665,15.024736,-36.508617,60.284348,-0.8585149,-5.461176,1.8599477,-13.805694,-13.822282,67.041466,68.82625,23.79327,2.1246734,4.2851477
101,-3.1045584678649902,3.7533559799194336,77.98296356201172,2.4121269251588844,-1.044213591895963,-1.6490960766735874,-7.1471686,32.89145,15.375558,28.449358,4.583183,-12.06492,-0.21391037,-13.579571,-19.075302,15.986851,-14.33695,10.013682,-0.7713701,-2.2061396,7.1784472,-3.5432925,15.172301,-36.8064,60.410397,-0.96928245,-5.461855,1.8352655,-13.796485,-13.812653,66.99169,68.83401,23.831745,2.153807,4.307894
102,-3.061084032058716,4.055863380432129,77.92672729492188,2.4824402926496805,-1.097520467038996,-1.761067675936617,-7.090057,33.05713,15.330687,28.167322,5.1654854,-12.683813,-0.5671236,-14.03886,-18.769197,16.836311,-14.630239,10.204693,-0.7660414,-2.3516486,7.2038565,-3.6747973,15.320185,-37.121597,60.536167,-1.0906872,-5.4599543,1.7785854,-13.805188,-13.797817,66.98033,68.84438,23.89753,2.188795,4.331486
103,-3.0123238563537598,4.3665452003479,77.86055755615234,2.541318313648985,-1.154541002864709,-1.870993451261433,-7.0350175,33.19004,15.226632,27.88085,5.713717,-13.325866,-0.9286304,-14.495679,-18.460331,17.70587,-14.925939,10.39659,-0.7657122,-2.4888382,7.2281103,-3.7974446,15.468281,-37.45045,60.65213,-1.1853027,-5.4652853,1.7128294,-13.808654,-13.778585,66.96439,68.85019,23.949017,2.2223587,4.3504257
104,-2.961475133895874,4.685531139373779,77.78582000732422,2.620934392477551,-1.2043722977017493,-1.9527930002429297,-6.9990125,33.231106,15.0436735,27.577072,6.1792407,-13.950151,-1.3057661,-15.000789,-18.175146,18.600327,-15.2313795,10.621776,-0.7929068,-2.6471016,7.241171,-3.918721,15.610683,-37.793236,60.764427,-1.2304728,-5.489481,1.6611103,-13.822756,-13.757441,66.97427,68.85797,24.019657,2.2468429,4.3597627
105,-2.9159727096557617,5.020158290863037,77.70482635498047,2.7729956735873973,-1.2340464897758732,-1.981245533627907,-6.9894094,33.12264,14.825563,27.235483,6.5566063,-14.512688,-1.7347991,-15.634379,-17.923977,19.57888,-15.574733,10.899465,-0.87354654,-2.880387,7.2270646,-4.029353,15.749242,-38.151318,60.870487,-1.1915375,-5.541594,1.6332507,-13.837425,-13.734928,66.999855,68.8588,24.08334,2.2628038,4.3643975
106,-2.8719394207000732,5.367780685424805,77.61370086669922,2.9150239263999254,-1.266570804763344,-2.000833341743464,-6.988032,32.982113,14.563612,26.898989,6.852235,-15.000033,-2.15127,-16.264265,-17.689781,20.536364,-15.902959,11.195146,-0.9682798,-3.1025229,7.211258,-4.1463203,15.879932,-38.53806,60.984993,-1.1103412,-5.614257,1.6163001,-13.8492985,-13.7128525,67.03318,68.85175,24.131836,2.2737682,4.364995
107,-2.82920503616333,5.726381778717041,77.51624298095703,3.050411571053591,-1.301555923165677,-2.0106073378819294,-6.9911346,32.788773,14.328124,26.551893,7.0813174,-15.000033,-2.553452,-16.89738,-17.460163,21.464783,-16.211021,11.513656,-1.0595759,-3.3195984,7.1976647,-4.239421,16.03362,-38.92812,61.053078,-1.0100895,-5.6896195,1.5950599,-13.864482,-13.687038,67.05879,68.84457,24.193356,2.2755067,4.3501635
108,-2.784578561782837,6.0992112159729,77.41328430175781,3.170126696075737,-1.341708086735689,-2.0152811547877088,-6.9910517,32.521408,13.961017,26.17504,7.2674675,-15.000033,-2.9381,-17.518383,-17.22214,22.364422,-16.504034,11.8524475,-1.1630006,-3.5119371,7.178834,-4.3172708,16.162243,-39.268463,61.106358,-0.91156715,-5.7571855,1.5595411,-13.879899,-13.666976,67.077896,68.843254,24.273232,2.266986,4.307509
109,-2.7367708683013916,6.484653949737549,77.29972076416016,3.2702443057817265,-1.390499914653563,-2.0167221446401293,-6.97464,32.178474,13.443097,25.751015,7.372026,-15.000033,-3.304276,-18.120869,-16.971094,23.24026,-16.786585,12.214936,-1.2566762,-3.6838257,7.1636505,-4.36934,16.296654,-39.57029,61.111195,-0.8340216,-5.8071933,1.4891881,-13.899869,-13.649561,67.09935,68.84403,24.395725,2.2465208,4.2266474
110,-2.6907248497009277,6.882929801940918,77.17884826660156,3.351389179339345,-1.4477593409456584,-2.014969607097954,-6.944501,31.773853,12.796008,25.296799,7.3933635,-15.000033,-3.6518962,-18.706537,-16.714197,24.094877,-17.059355,12.600087,-1.3615615,-3.8221805,7.1448455,-4.4203744,16.385952,-39.828632,61.127956,-0.7515537,-5.853021,1.399553,-13.920776,-13.642027,67.13664,68.84837,24.54121,2.2171855,4.1163483
111,-2.642000436782837,7.2951250076293945,77.04974365234375,3.421730118547186,-1.5089269675382428,-2.0091954540337125,-6.909997,31.305338,12.051924,24.837889,7.407549,-15.000033,-3.9797645,-19.28446,-16.45626,24.915222,-17.312607,13.002477,-1.4591044,-3.9538999,7.1243234,-4.45255,16.487259,-40.08341,61.106304,-0.6649186,-5.8986473,1.3207561,-13.933667,-13.638817,67.1213,68.85165,24.685757,2.1768577,3.9941459
112,-2.6042754650115967,7.723907947540283,76.91303253173828,3.4884949065203132,-1.5690434111651619,-1.9979137593541498,-6.8832855,30.771395,11.243145,24.40091,7.491281,-15.000033,-4.2861586,-19.866995,-16.201872,25.689531,-17.537249,13.416778,-1.5870854,-4.071113,7.0888557,-4.4711375,16.550943,-40.294685,61.090187,-0.5362342,-5.957222,1.288116,-13.94335,-13.640692,67.0465,68.872444,24.806555,2.1267507,3.8779452
113,-2.5520846843719482,8.16004753112793,76.77145385742188,3.5658822708223017,-1.626029575806193,-1.972510741017195,-6.8569784,30.138071,10.356299,23.95468,7.6981554,-15.000033,-4.575868,-20.474146,-15.954093,26.428743,-17.742752,13.846308,-1.7143018,-4.2038674,7.0392213,-4.489827,16.62088,-40.554188,61.059742,-0.39127052,-6.020021,1.3175058,-13.93543,-13.647866,66.89623,68.899086,24.946566,2.0628226,3.7533844
114,-2.4951629638671875,8.610807418823242,76.6330795288086,3.6453765056531777,-1.6845135113096905,-1.9380570805513746,-6.820366,29.41991,9.386311,23.49902,7.968918,-15.000033,-4.8459554,-21.093773,-15.708772,27.134102,-17.929935,14.292709,-1.8600022,-4.335172,6.9796433,-4.4974413,16.678831,-40.807987,61.018074,-0.2201812,-6.086364,1.3881164,-13.926791,-13.659126,66.71731,68.93719,25.113464,1.9865859,3.617609
115,-2.4341883659362793,9.076406478881836,76.48921966552734,3.704288352330046,-1.7475720264515644,-1.9124435245272142,-6.786139,28.682343,8.380611,23.106852,8.217132,-15.000033,-5.0892835,-21.68914,-15.4599,27.78309,-18.078455,14.747407,-1.9680163,-4.455388,6.9239144,-4.488239,16.758352,-41.0586,60.930714,-0.050892837,-6.1646814,1.4777544,-13.875526,-13.687587,66.33707,68.95442,25.137627,1.9040605,3.5045748
116,-2.380777597427368,9.546279907226562,76.34147644042969,3.6775704403777656,-1.8028558411017632,-1.9292030608764303,-6.7961464,28.045895,7.376926,22.870089,8.355442,-15.000033,-5.3080816,-22.134508,-15.197274,28.311392,-18.145102,15.000033,-2.09485,-4.477013,6.858287,-4.4184413,16.79895,-41.12391,60.811672,0.16478081,-6.273472,1.5655785,-13.838003,-13.713101,65.830925,68.994354,24.983107,1.8216553,3.4481623
117,-2.323914051055908,10.019906044006348,76.19406127929688,3.5568337987205116,-1.8500744865400975,-1.9878713031105493,-6.8783197,27.483091,6.25841,22.797855,8.403321,-15.000033,-5.5080476,-22.419159,-14.92906,28.735575,-18.134336,15.000033,-2.1530328,-4.4098907,6.7933407,-4.3322887,16.830828,-41.1135,60.65778,0.36487982,-6.4143324,1.6473435,-13.762061,-13.757687,65.053986,69.0231,24.540634,1.7297947,3.4613862
118,-2.2631378173828125,10.506757736206055,76.04449462890625,3.3970917162021084,-1.901680177969144,-2.06238663821117,-6.992989,26.910961,5.0505757,22.835001,8.399425,-15.000033,-5.680898,-22.655266,-14.667923,29.102547,-18.078602,15.000033,-2.258868,-4.291973,6.720299,-4.1830144,16.835125,-40.944515,60.466473,0.5860146,-6.583457,1.7340595,-13.693199,-13.7935915,64.18067,69.07956,23.925785,1.6275655,3.5212417
119,-2.211848020553589,11.003877639770508,75.89262390136719,3.206766920517953,-1.9550059692810364,-2.1565849567748585,-7.116467,26.398241,3.9932468,23.008747,8.286809,-15.000033,-5.8352685,-22.847813,-14.396658,29.407764,-17.974934,15.000033,-2.2973938,-4.1493773,6.660693,-4.0421724,16.821276,-40.735306,60.2705,0.8534564,-6.7700295,1.8305775,-13.581104,-13.851877,63.013824,69.10908,23.132032,1.537988,3.61953
120,-2.157179355621338,11.515642166137695,75.7421646118164,2.9934666812261357,-2.0052736210958946,-2.2732885924923534,-7.224775,26.015461,3.32432,23.325626,8.013929,-15.000033,-5.978411,-23.00166,-14.100528,29.642889,-17.817745,15.000033,-2.3060942,-3.9788868,6.6042156,-3.889551,16.776016,-40.448578,60.076584,1.2128575,-6.9681597,1.9445142,-13.4358,-13.944402,61.607353,69.09345,22.257551,1.4829714,3.7405906
121,-2.11784291267395,12.03779125213623,75.58455657958984,2.765843660477424,-2.06006682756653,-2.4109444191065474,-7.3504777,25.769703,3.0858414,23.862295,7.6541634,-15.000033,-6.106065,-23.122671,-13.777019,29.816374,-17.624432,15.000033,-2.3476145,-3.7936952,6.549849,-3.6736295,16.70828,-39.977234,59.85748,1.7540952,-7.1851573,2.0778565,-13.252012,-14.036122,59.905647,69.04936,21.144981,1.4666827,3.9190996
122,-2.0709433555603027,12.563690185546875,75.44648742675781,2.517754605370816,-2.117487632056869,-2.56700074365985,-7.500847,25.62978,3.1505733,24.584654,7.2118616,-15.000033,-6.2169313,-23.209764,-13.435521,29.92943,-17.391266,15.000033,-2.3426085,-3.5908253,6.5194335,-3.464428,16.61257,-39.42424,59.63724,2.416148,-7.420462,2.232533,-13.138612,-14.140667,58.101868,69.03563,20.070053,1.4704362,4.155183
123,-2.0273733139038086,13.099935531616211,75.31509399414062,2.2344829828489523,-2.1594086593251745,-2.7431363074880424,-7.6330786,25.611458,3.4934916,25.369009,6.522319,-15.000033,-6.327946,-23.249432,-13.078581,29.967335,-17.083418,15.000033,-2.3447099,-3.3393328,6.472247,-3.2275302,16.485462,-38.792492,59.40547,3.081718,-7.6579685,2.3959553,-12.947713,-14.259746,56.05501,68.96973,18.907736,1.497074,4.369983
124,-1.995030403137207,13.675867080688477,75.16096496582031,1.9023826653511327,-2.1680255885815995,-2.9410873524401917,-7.7057505,25.726097,4.091658,26.09546,5.419033,-15.000033,-6.4555573,-23.227028,-12.709315,29.913359,-16.665333,15.000033,-2.3404756,-3.0128427,6.402703,-2.986333,16.328733,-38.1572,59.1614,3.617075,-7.8814273,2.5586753,-12.774135,-14.39424,54.03522,68.89962,18.061832,1.5449829,4.4908857
125,-1.957107663154602,14.280186653137207,75.00140380859375,1.500456878719229,-2.126923328878823,-3.158989946535617,-7.6867723,26.026789,5.064882,26.72808,3.7060943,-15.000033,-6.6234055,-23.124323,-12.3211355,29.782583,-16.149105,15.000033,-2.3407464,-2.5775914,6.2897058,-2.7182226,16.13276,-37.498096,58.881413,3.9774613,-8.087075,2.7051744,-12.615057,-14.549467,52.023453,68.836555,17.6031,1.6244992,4.4941707
126,-1.9304232597351074,14.916060447692871,74.84515380859375,1.0453777696443478,-2.050540906592657,-3.396794729755937,-7.6005335,26.485983,6.385537,27.34114,1.5168214,-15.000033,-6.8140855,-22.95918,-11.915659,29.57677,-15.546092,15.000033,-2.3675025,-2.0581975,6.1296062,-2.4080498,15.891988,-36.77202,58.5797,4.2383065,-8.284489,2.8422725,-12.303142,-14.725121,49.715874,68.66314,17.099588,1.7426394,4.4178667
127,-1.9047787189483643,15.556624412536621,74.71080017089844,0.5783844604611436,-1.9683160714596846,-3.659705798424701,-7.4940505,26.993717,7.814278,27.98253,-0.8215761,-15.000033,-6.98142,-22.76941,-11.507117,29.26072,-14.820787,15.000033,-2.3178122,-1.5151595,6.0088744,-2.179053,15.620538,-36.1143,58.31549,4.4396553,-8.477476,3.0025709,-12.271281,-14.925881,47.86218,68.63974,17.311989,1.8635583,4.294236
128,-1.87800931930542,16.192163467407227,74.6176528930664,0.136322782090723,-1.9110347748013008,-3.954581169677493,-7.4117956,27.44961,9.116918,28.68477,-2.9770997,-15.000033,-7.078952,-22.588476,-11.108143,28.799908,-13.937668,15.000033,-2.2617521,-1.001625,5.918726,-1.9979516,15.337763,-35.49309,58.120537,4.6383224,-8.670229,3.2033727,-12.154361,-15.137599,45.969948,68.50715,17.441862,1.9851105,4.137813
129,-1.8541827201843262,16.83339500427246,74.55422973632812,-0.28874557603454576,-1.8813339739007298,-4.295366505638548,-7.380918,27.874872,10.287513,29.486496,-4.9238024,-15.000033,-7.111162,-22.401623,-10.708352,28.199448,-12.891873,15.000033,-2.1565714,-0.524908,5.875887,-1.880781,15.061825,-34.92195,57.98695,4.834465,-8.875375,3.4623106,-12.020899,-15.357507,44.133823,68.29588,17.686314,2.1125095,3.9419303
130,-1.833702564239502,17.473241806030273,74.50820922851562,-0.7126554398850119,-1.8695272083180858,-4.678624027720903,-7.367321,28.315937,11.44801,30.357641,-6.8119917,-15.000033,-7.0936604,-22.193838,-10.301468,27.470255,-11.699036,15.000033,-1.9905003,-0.061292373,5.88417,-1.8157711,14.800343,-34.399975,57.87674,5.001949,-9.085658,3.7629845,-12.032169,-15.586838,42.563908,68.142494,18.351494,2.241283,3.700452
131,-1.8167458772659302,18.1234073638916,74.48148345947266,-1.1134115710652706,-1.8852704909282165,-5.082882875786586,-7.3353624,28.712187,12.545456,31.229757,-8.573183,-15.000033,-6.9969096,-22.000282,-9.905351,26.586624,-10.35624,15.000033,-1.8285068,0.37981686,5.9204607,-1.7625718,14.556352,-33.933617,57.794483,5.1489286,-9.273494,4.075823,-11.978245,-15.819909,41.02043,67.931496,18.94758,2.3509533,3.4340708
132,-1.799310326576233,18.801740646362305,74.4785385131836,-1.4682659417967752,-1.9331863630787482,-5.483029261565717,-7.2545495,28.995705,13.514977,32.032047,-10.146649,-15.000033,-6.7946615,-21.86121,-9.539746,25.52593,-8.860932,15.000033,-1.6735717,0.7857993,5.9911194,-1.7386464,14.333744,-33.593605,57.755142,5.2758856,-9.410756,4.377494,-11.943431,-16.058617,39.666256,67.75545,19.497715,2.4109766,3.1690204
133,-1.7869700193405151,19.49532699584961,74.496337890625,-1.7844619518825973,-2.031630154169598,-5.874203992173359,-7.1062927,29.154634,14.29746,32.75239,-11.50774,-15.000033,-6.425297,-21.772106,-9.219906,24.223145,-7.183546,15.000033,-1.5560336,1.1683586,6.1064315,-1.7274663,14.130583,-33.37164,57.765194,5.4124303,-9.49546,4.7030563,-11.842898,-16.302458,38.40426,67.54577,19.865898,2.4135466,2.894253
134,-1.7766462564468384,20.195220947265625,74.54216766357422,-2.0704377208745277,-2.1682203094336354,-6.265967350289465,-6.9186788,29.220161,14.929589,33.424248,-12.696725,-15.000033,-5.921627,-21.723146,-8.931456,22.713148,-5.336618,15.000033,-1.4094781,1.5287297,6.2946076,-1.77926,13.950617,-33.292637,57.81813,5.5422454,-9.540342,5.056744,-11.998525,-16.555151,37.588993,67.532585,20.58379,2.3634841,2.6057527
135,-1.7611867189407349,20.908714294433594,74.60559844970703,-2.3054892872428763,-2.2992343955235475,-6.653580406040496,-6.719663,29.183136,15.492084,34.019695,-13.738478,-15.000033,-5.3987007,-21.741589,-8.655105,21.117798,-3.3860044,15.000033,-1.2993562,1.8438886,6.461262,-1.8289558,13.795079,-33.286213,57.897373,5.6146274,-9.541399,5.347665,-12.024436,-16.805347,36.760002,67.42723,21.02291,2.2876546,2.3292933
136,-1.7437574863433838,21.635576248168945,74.67713928222656,-2.4697260509019263,-2.3806308949339443,-7.034489155577884,-6.53384,29.036892,16.07375,34.50367,-14.645402,-15.000033,-4.997524,-21.849535,-8.343348,19.610695,-1.4374592,15.000033,-1.1695611,2.0869846,6.5797963,-1.9138887,13.67424,-33.395508,57.99274,5.5660486,-9.494072,5.4969993,-12.100528,-17.05101,36.110806,67.37791,21.402544,2.1961915,2.0967894
137,-1.7395827770233154,22.372211456298828,74.75459289550781,-2.5501669794742092,-2.4008811020735426,-7.398071025473559,-6.381537,28.746286,16.649374,34.857143,-15.396805,-15.000033,-4.6920466,-22.0699,-7.968578,18.111254,0.5774007,15.000033,-1.0442334,2.2441034,6.631287,-2.026254,13.596079,-33.63599,58.11001,5.3947544,-9.388896,5.472072,-12.170299,-17.28633,35.577774,67.349945,21.599213,2.0879452,1.9134532
138,-1.7383025884628296,23.101093292236328,74.83991241455078,-2.565489043166456,-2.3808684328376044,-7.7496020754347095,-6.2467327,28.329792,17.185852,35.09445,-15.987097,-15.000033,-4.452591,-22.388777,-7.5449715,16.626663,2.6496503,15.000033,-0.9228787,2.332415,6.641043,-2.1597154,13.562552,-34.00109,58.24625,5.125607,-9.230138,5.320275,-12.236791,-17.50952,35.161503,67.33672,21.646957,1.9579048,1.7638396
139,-1.7425404787063599,23.828357696533203,74.93791198730469,-2.545867885035434,-2.3253659839120724,-8.111541149684758,-6.1178274,27.861174,17.745932,35.258972,-16.478836,-15.000033,-4.3730607,-22.784645,-7.146432,15.367638,4.645359,15.000033,-0.78315693,2.3760543,6.616415,-2.295552,13.570617,-34.426582,58.367725,4.7462773,-9.034205,5.0758862,-12.314144,-17.719519,34.866238,67.33184,21.60759,1.8185363,1.6446549
140,-1.7411140203475952,24.555479049682617,75.04478454589844,-2.5144026982882184,-2.237603585253855,-8.504853056307832,-5.98808,27.403957,18.39444,35.39367,-16.933228,-15.000033,-4.5436974,-23.233368,-6.8483653,14.5232725,6.4425707,15.000033,-0.61000264,2.393086,6.55946,-2.4119308,13.614529,-34.841263,58.44326,4.2466564,-8.8175,4.7729077,-12.392448,-17.914877,34.673496,67.311516,21.511911,1.6828659,1.552369
141,-1.7393770217895508,25.28701400756836,75.16161346435547,-2.390724943249459,-2.080940188594361,-8.909800585968345,-5.8757925,26.82309,19.18521,35.433464,-17.311073,-14.731252,-5.118577,-23.839413,-6.566131,14.22288,8.121129,15.000033,-0.419398,2.301266,6.4313045,-2.5108986,13.692482,-35.246864,58.47236,3.5244453,-8.556649,4.392593,-12.473621,-18.092981,34.608704,67.27945,21.349043,1.5524448,1.493547
142,-1.736741304397583,26.01422119140625,75.2831802368164,-2.2306292685226716,-1.877768633180222,-9.345578655354306,-5.7756205,26.194286,20.068823,35.39565,-17.602938,-14.319857,-5.9993105,-24.525726,-6.268922,14.324448,9.731427,15.000033,-0.19410889,2.1588335,6.255099,-2.603099,13.804553,-35.671577,58.47261,2.6198692,-8.247483,3.9292963,-12.571364,-18.252907,34.68135,67.25517,21.115345,1.4205027,1.4667591
143,-1.7356345653533936,26.729825973510742,75.40597534179688,-2.0719300920171997,-1.655569062593949,-9.803837794589066,-5.697592,25.57577,20.97604,35.328285,-17.852678,-13.895418,-7.006059,-25.248053,-6.1234255,14.7156725,11.05483,15.000033,0.043933176,2.0058272,6.057292,-2.6883433,13.933491,-36.079044,58.46288,1.742859,-7.940072,3.436429,-12.680532,-18.379606,34.83401,67.23703,20.832218,1.2862688,1.4535102
144,-1.752791404724121,27.43326759338379,75.5186767578125,-1.9513935699172382,-1.4477523225111995,-10.270018999489011,-5.6446743,25.012493,21.837421,35.284496,-18.111227,-13.467031,-7.9219294,-25.950388,-6.3302426,15.2316475,11.872205,15.000033,0.29612747,1.8815311,5.895787,-2.758903,14.1097355,-36.46359,58.398407,1.087477,-7.6853924,2.9588006,-12.8136215,-18.50803,35.044853,67.194595,20.600943,1.154133,1.4421134
145,-1.7838424444198608,28.126419067382812,75.61593627929688,-1.8778105753343861,-1.25241628928717,-10.758792407154928,-5.612448,24.52426,22.658495,35.285873,-18.400822,-13.047235,-8.691855,-26.639326,-7.1238794,15.78603,12.143809,15.000033,0.5604658,1.8030614,5.7500715,-2.8220599,14.296623,-36.798378,58.308167,0.6909386,-7.4940686,2.472783,-12.96974,-18.61112,35.314472,67.15017,20.408663,1.0149437,1.4202642
146,-1.8131775856018066,28.794536590576172,75.7078857421875,-1.8187681563609697,-1.0657880825858974,-11.262324051098199,-5.585112,24.067833,23.466923,35.303543,-18.696507,-12.627512,-9.42837,-27.354475,-8.3431425,16.519548,11.9342985,15.000033,0.8358662,1.7295697,5.621378,-2.8664625,14.527137,-37.104675,58.161106,0.4448461,-7.340417,1.9592973,-13.12874,-18.706144,35.646584,67.073456,20.224085,0.873181,1.400609
147,-1.8453251123428345,29.455284118652344,75.80079650878906,-1.769680259909785,-0.9195798487990509,-11.732072533369935,-5.5502496,23.618643,24.217781,35.329357,-18.985657,-12.189186,-10.069962,-28.055254,-9.663834,17.436638,11.278672,15.000033,1.0776231,1.6526302,5.5448895,-2.9117196,14.782005,-37.393147,58.01498,0.36342368,-7.235718,1.4856315,-13.320128,-18.781212,36.032265,67.00164,20.048477,0.74043274,1.3939403
148,-1.8790605068206787,30.091751098632812,75.8788070678711,-1.7211256153655679,-0.8427150538581734,-12.122511680253654,-5.4944887,23.146622,24.871006,35.35036,-19.254068,-11.713155,-10.579137,-28.704393,-10.748692,18.559767,10.199218,15.000033,1.2403964,1.5583324,5.5537777,-2.9656107,15.060687,-37.675766,57.906567,0.45296425,-7.1904593,1.1164707,-13.529375,-18.833006,36.421646,66.92485,19.83959,0.6303354,1.4122808
149,-1.9253425598144531,30.719280242919922,75.94359588623047,-1.6769444883973241,-0.8481090515717925,-12.410491014133468,-5.424221,22.652557,25.39835,35.386734,-19.507338,-11.182139,-10.936423,-29.299696,-11.482714,19.935055,8.418943,15.000033,1.3000689,1.4550265,5.6656003,-3.0399103,15.365611,-37.9695,57.844116,0.7917672,-7.233212,0.86790884,-13.750157,-18.860834,36.795612,66.832596,19.550007,0.54998076,1.4625493
150,-1.9743962287902832,31.343088150024414,76.01013946533203,-1.651378802729978,-0.9161856247448275,-12.627547438594068,-5.343163,22.165663,25.827646,35.441986,-19.754368,-10.613119,-11.1402235,-29.860666,-12.080047,21.507208,6.010523,15.000033,1.2892723,1.3593235,5.8560233,-3.1308107,15.697101,-38.269676,57.809605,1.3449686,-7.3515754,0.7068392,-13.987006,-18.865671,37.177418,66.72971,19.210709,0.49033278,1.537244
151,-2.0398335456848145,31.933671951293945,76.09142303466797,-1.8922624532413823,-0.951468030038133,-12.935634777008849,-5.3906307,22.085426,26.19185,35.682697,-20.05343,-10.111932,-11.271612,-30.01964,-12.952769,23.067198,3.5911438,13.836441,1.3594333,1.5009876,6.012323,-3.2030354,16.045082,-38.53728,57.791798,1.9657862,-7.492751,0.6251581,-14.226228,-18.84968,37.56283,66.62409,18.866598,0.4396948,1.626737
152,-2.1067802906036377,32.50442886352539,76.17999267578125,-2.15407000512263,-0.9972721942114913,-13.258839478680837,-5.411663,22.039349,26.556208,35.884926,-20.330994,-9.638946,-11.398306,-30.105785,-13.89628,24.770319,1.584365,12.329289,1.4456427,1.6304927,6.170987,-3.240651,16.399574,-38.745358,57.8003,2.5019631,-7.6048336,0.6111994,-14.460862,-18.811565,37.954544,66.528,18.580193,0.38882208,1.720587
153,-2.176725149154663,33.06193542480469,76.26262664794922,-2.365569737478871,-1.0720877121672148,-13.560720767699802,-5.3671055,21.9128,26.919529,35.994923,-20.57299,-9.174267,-11.547211,-30.239391,-14.830998,26.733501,0.11668453,10.935498,1.5131154,1.6785599,6.352154,-3.2512965,16.756752,-38.8972,57.85235,2.9357662,-7.688535,0.68449455,-14.684066,-18.747313,38.34316,66.44046,18.351437,0.33389428,1.8244599
154,-2.2432806491851807,33.61134338378906,76.3421401977539,-2.5496071036357737,-1.1787447529248203,-13.836229111780748,-5.2746964,21.73869,27.26305,36.044468,-20.790583,-8.710637,-11.682441,-30.40474,-15.737023,28.939692,-1.0910974,9.558295,1.5521661,1.6739197,6.558834,-3.2375586,17.115622,-38.99743,57.946556,3.3474352,-7.765654,0.84308505,-14.879409,-18.655704,38.70641,66.34461,18.122423,0.28096387,1.9405363
155,-2.3044204711914062,34.1547966003418,76.41610717773438,-2.701992866387379,-1.311117151272381,-14.101865154602367,-5.1238666,21.518978,27.615217,36.02703,-20.982006,-8.256368,-11.764062,-30.591156,-16.606535,31.239952,-2.1258166,8.285171,1.5970505,1.6173992,6.7860785,-3.2031462,17.471851,-39.047962,58.07247,3.7132826,-7.8170214,1.0445079,-15.11816,-18.539093,39.13474,66.297264,18.002481,0.23367994,2.0534873
156,-2.357309579849243,34.68718338012695,76.48766326904297,-2.819755064413833,-1.4630393050124124,-14.374556297743915,-4.9060016,21.257292,28.003738,35.936253,-21.14296,-7.8191233,-11.758391,-30.771677,-17.42706,33.485714,-3.0695596,7.2209935,1.6373311,1.5157743,7.0001483,-3.1137588,17.816236,-39.016037,58.22146,4.005242,-7.824735,1.2418435,-15.243892,-18.399277,39.46151,66.18347,17.773552,0.20069458,2.1472847
157,-2.412976026535034,35.20775604248047,76.5586166381836,-2.887608005785681,-1.6446304903309754,-14.658810110667947,-4.5985403,20.933214,28.442127,35.75369,-21.266087,-7.393665,-11.667432,-30.936842,-18.195572,35.679672,-3.8695683,6.4326158,1.714931,1.3501134,7.235313,-3.002944,18.143572,-38.919556,58.412807,4.2240796,-7.7817307,1.4609628,-15.4264765,-18.240614,39.88163,66.12809,17.692038,0.1837389,2.2201042
158,-2.461408853530884,35.71291732788086,76.62930297851562,-2.9110756744993145,-1.8547794614059205,-14.945935628842745,-4.2134633,20.549183,28.91253,35.48536,-21.352896,-6.978561,-11.5181465,-31.089653,-18.93074,37.89706,-4.491105,5.8546925,1.8125765,1.1261402,7.491533,-2.8722684,18.451694,-38.758682,58.65105,4.3824677,-7.6991553,1.7134525,-15.666654,-18.062853,40.399452,66.131424,17.754429,0.1790095,2.2793157
159,-2.504333019256592,36.20951461791992,76.6999740600586,-2.9200393053066396,-2.0690493129634677,-15.23443536029566,-3.7989895,20.146996,29.39611,35.17038,-21.415066,-6.5862365,-11.314859,-31.202297,-19.649837,40.090813,-5.04242,5.4054394,1.9100963,0.88316846,7.7218785,-2.6945672,18.737175,-38.529835,58.905476,4.4834614,-7.586599,1.9378896,-15.829509,-17.866386,40.85769,66.09867,17.756723,0.18194647,2.3252747
160,-2.5411136150360107,36.69440460205078,76.77376556396484,-2.944250710963737,-2.2636911712562684,-15.522136330440459,-3.4033287,19.768106,29.874119,34.84707,-21.463326,-6.2274942,-11.059685,-31.248304,-20.365564,42.209354,-5.6323123,5.0033703,2.0247664,0.656644,7.90203,-2.4926932,18.99959,-38.27928,59.160458,4.5115805,-7.4540753,2.0772967,-15.971486,-17.659052,41.32277,66.07599,17.77859,0.18356529,2.3590355
161,-2.5683248043060303,37.17015838623047,76.84390258789062,-2.9935719558815572,-2.437634145973678,-15.80994091735817,-3.0285447,19.431059,30.350054,34.52239,-21.495697,-5.914296,-10.741656,-31.19968,-21.080917,44.231228,-6.287924,4.665504,2.1575377,0.45651767,8.019655,-2.246686,19.234095,-37.968624,59.407642,4.465541,-7.2857265,2.111434,-16.033276,-17.444704,41.726444,66.022026,17.756708,0.18747199,2.370953
162,-2.588972806930542,37.64522171020508,76.91107177734375,-3.051410773606773,-2.6016910459085443,-16.098392072604295,-2.6558175,19.110455,30.828966,34.17838,-21.506618,-5.6341233,-10.3686495,-31.062525,-21.79229,46.18057,-6.9436493,4.431407,2.3133888,0.26393428,8.095783,-1.9682213,19.438469,-37.604736,59.663494,4.3501563,-7.082959,2.0742443,-16.04901,-17.226015,42.109818,65.95582,17.743362,0.19600244,2.364417
163,-2.608394145965576,38.109928131103516,76.97652435302734,-3.1082073531846235,-2.7504643658391137,-16.38565121261965,-2.2982938,18.78979,31.305323,33.820374,-21.503971,-5.369259,-9.972111,-30.872467,-22.497744,48.086094,-7.5822463,4.24717,2.497994,0.07181505,8.149919,-1.6995689,19.61811,-37.26931,59.933056,4.177177,-6.880666,1.9880078,-16.177914,-17.009167,42.6719,65.98305,17.939735,0.1994088,2.3597355
164,-2.627784013748169,38.56682586669922,77.04071044921875,-3.1543918398850352,-2.8786485619974442,-16.669131357913738,-1.9683516,18.452297,31.773037,33.45487,-21.497112,-5.102361,-9.579113,-30.666548,-23.195646,49.973675,-8.185137,4.055955,2.6626806,-0.120577775,8.170106,-1.4213649,19.777735,-36.989597,60.203873,3.9668443,-6.7139554,1.8690093,-16.265102,-16.791025,43.207752,65.98264,18.046215,0.19596314,2.3773131
165,-2.6509597301483154,39.02707290649414,77.10054016113281,-3.187289480817864,-2.9776725602056615,-16.944300100168327,-1.675708,18.092098,32.228394,33.076874,-21.483742,-4.8351383,-9.2061205,-30.454992,-23.877802,51.861675,-8.749547,3.8307114,2.8202393,-0.3213797,8.157289,-1.1529621,19.922876,-36.789513,60.48529,3.6879468,-6.5925055,1.7202194,-16.369377,-16.575317,43.79581,65.99066,18.167572,0.18248037,2.4159017
166,-2.6710045337677,39.48143768310547,77.15740966796875,-3.2124583973027687,-3.0527888850064464,-17.21359392058994,-1.410981,17.718683,32.6752,32.684242,-21.459887,-4.5752354,-8.835618,-30.213118,-24.549738,53.728268,-9.281218,3.6067421,2.9720557,-0.5266148,8.108819,-0.8749841,20.053625,-36.631493,60.767876,3.3459766,-6.496381,1.5314654,-16.449354,-16.362276,44.38302,65.981674,18.256865,0.16286898,2.4673889
167,-2.6847214698791504,39.933101654052734,77.20875549316406,-3.2315971965757866,-3.119009395744177,-17.48548329924368,-1.1584884,17.33832,33.119267,32.289307,-21.434479,-4.313826,-8.438679,-29.942654,-25.2277,55.542812,-9.778974,3.4202049,3.126567,-0.72855854,8.040682,-0.5902653,20.17208,-36.53197,61.03732,2.9973562,-6.4161763,1.305782,-16.525204,-16.153566,44.981873,65.97387,18.320229,0.1421727,2.5410423
168,-2.6948935985565186,40.37892150878906,77.25190734863281,-3.246373117596235,-3.191561122907174,-17.768088383003327,-0.9011594,16.95514,33.564922,31.901321,-21.414429,-4.0438967,-7.987817,-29.641731,-25.928291,57.274406,-10.241391,3.3062487,3.2938423,-0.9190386,7.970889,-0.30758867,20.281406,-36.514614,61.282017,2.692072,-6.3430414,1.0462832,-16.62705,-15.950398,45.622295,65.9895,18.38574,0.12504148,2.646104
169,-2.699209213256836,40.822391510009766,77.28890228271484,-3.255855063347406,-3.2729781591266183,-18.0602325200442,-0.638385,16.571177,34.013847,31.528967,-21.40576,-3.765749,-7.4758134,-29.321136,-26.668983,58.935547,-10.672037,3.2582424,3.4691248,-1.1001521,7.9022226,-0.02831118,20.384693,-36.59076,61.501514,2.4245658,-6.2756786,0.7411075,-16.74035,-15.753424,46.285862,66.01295,18.417236,0.11593209,2.7984548
170,-2.7014784812927246,41.25950622558594,77.31964874267578,-3.2595062421641674,-3.355700751434174,-18.35876208950741,-0.37492827,16.181196,34.463497,31.158888,-21.400505,-3.4824903,-6.9179916,-28.975376,-27.43671,60.534767,-11.06847,3.2625546,3.6431808,-1.2743689,7.821781,0.2633469,20.481752,-36.737255,61.694416,2.1783988,-6.217793,0.391164,-16.804028,-15.561354,46.893894,66.00101,18.328688,0.11286767,2.988734
171,-2.692998170852661,41.69324493408203,77.34849548339844,-3.2593347079804236,-3.439574461701897,-18.66836813170685,-0.111645095,15.786844,34.91229,30.792534,-21.397917,-3.1932747,-6.321177,-28.581776,-28.202696,62.03478,-11.425174,3.3430407,3.831815,-1.4365168,7.7322707,0.5597877,20.57237,-36.948597,61.858986,1.9737233,-6.169474,0.021286,-16.877895,-15.376111,47.520653,66.005554,18.235611,0.1073634,3.1886163
172,-2.68377423286438,42.128990173339844,77.37561798095703,-3.2574427139499873,-3.5243136941309485,-18.993626636656295,0.15096618,15.390098,35.358658,30.432081,-21.398346,-2.8974671,-5.695194,-28.119816,-28.937424,63.40314,-11.735657,3.5251305,4.0296197,-1.5790728,7.624822,0.88111794,20.652822,-37.190643,61.9843,1.8421705,-6.1314335,-0.34602368,-16.916872,-15.196933,48.0981,66.008804,18.071877,0.09428052,3.3690338
173,-2.6636574268341064,42.56462860107422,77.39801025390625,-3.259526217922237,-3.6108206769065396,-19.337732371291096,0.41890422,14.998043,35.80162,30.078318,-21.403038,-2.5982814,-5.0302763,-27.581247,-29.661465,64.62934,-12.011187,3.8034363,4.250834,-1.695623,7.4999084,1.2268473,20.722534,-37.4743,62.066963,1.811365,-6.1137233,-0.7184166,-16.984175,-15.024622,48.710995,66.05914,18.008179,0.07350387,3.5387685
174,-2.6437695026397705,43.00080490112305,77.42105865478516,-3.2626035363116324,-3.6988432218135925,-19.6975543661582,0.69182026,14.606427,36.24264,29.729504,-21.412367,-2.2959626,-4.330074,-26.977995,-30.379198,65.731384,-12.250455,4.1696415,4.4730625,-1.7895268,7.3504553,1.5986228,20.780405,-37.802685,62.116825,1.8491422,-6.114366,-1.1050992,-16.986095,-14.856682,49.232838,66.08852,17.850382,0.05002904,3.7070184
175,-2.6145143508911133,43.43670654296875,77.43667602539062,-3.255054480319617,-3.7862028367847524,-20.06866181365232,0.9610082,14.198622,36.6836,29.380054,-21.4228,-1.9847047,-3.6296165,-26.308968,-31.039883,66.71375,-12.427771,4.6449437,4.709072,-1.8762962,7.1912704,1.9817915,20.824734,-38.15635,62.135334,1.9388338,-6.1142454,-1.479811,-16.972624,-14.69634,49.737755,66.12116,17.581406,0.015894987,3.8478262
176,-2.5834827423095703,43.86978530883789,77.4477310180664,-3.2261467274590148,-3.8703607552241337,-20.44698358760607,1.2143732,13.761676,37.127098,29.03277,-21.436092,-1.6602368,-2.9620533,-25.577206,-31.59373,67.581696,-12.519787,5.251835,4.9641423,-1.9694489,7.03926,2.3523397,20.854012,-38.524475,62.13167,2.0459127,-6.094887,-1.8162029,-17.00507,-14.547604,50.320827,66.18484,17.198843,-0.036962725,3.9347992
177,-2.557400703430176,44.301937103271484,77.45470428466797,-3.1703530932395103,-3.9601141797603208,-20.83742002922562,1.4788829,13.277643,37.585423,28.654852,-21.438496,-1.3224896,-2.323181,-24.775118,-32.02256,68.325554,-12.499977,6.0190167,5.2221756,-2.068334,6.8943205,2.7273514,20.864012,-38.901257,62.098267,2.1823545,-6.0462003,-2.118641,-16.969412,-14.425797,50.82343,66.19271,16.513464,-0.11294978,3.9670246
178,-2.530303716659546,44.74772262573242,77.4498291015625,-3.0946747284258653,-4.052883053423462,-21.240643839197197,1.752088,12.757827,38.053703,28.25575,-21.43571,-0.9750927,-1.7014195,-23.904173,-32.35586,68.9451,-12.393157,6.930485,5.4963684,-2.1702685,6.75101,3.1141953,20.855515,-39.28716,62.031483,2.3772473,-5.9797215,-2.3957846,-16.966194,-14.299604,51.371117,66.24216,15.728019,-0.21132848,3.9549417
179,-2.504490613937378,45.19367980957031,77.43616485595703,-3.00934473321538,-4.1294981928489225,-21.645013835527774,1.9886976,12.226545,38.507526,27.874676,-21.442204,-0.6154344,-1.1196083,-22.967354,-32.619087,69.45067,-12.246299,7.9409404,5.798319,-2.2670238,6.608752,3.483387,20.832989,-39.680756,61.942646,2.5833573,-5.9103065,-2.6348183,-17.012611,-14.206787,52.02148,66.30645,14.870995,-0.31229714,3.8925712
180,-2.4767024517059326,45.639896392822266,77.416259765625,-2.923781494285483,-4.170918985765036,-22.038953426469316,2.144326,11.707339,38.92444,27.549578,-21.471075,-0.23990707,-0.59795797,-21.97264,-32.83765,69.85159,-12.103935,9.003719,6.090463,-2.3504612,6.4313593,3.8737369,20.78043,-40.002594,61.836098,2.7978985,-5.8524604,-2.8226578,-17.040754,-14.108111,52.69097,66.37721,13.750396,-0.39873883,3.7686126
181,-2.4620022773742676,46.08926010131836,77.38340759277344,-2.8319123931827,-4.174661589053093,-22.424712343902655,2.2198079,11.183578,39.29607,27.26015,-21.521091,0.16344914,-0.1324928,-20.943993,-33.02565,70.157616,-11.9548855,10.114852,6.389669,-2.4285824,6.238045,4.193578,20.708227,-40.3727,61.758293,2.9223533,-5.8063045,-2.9436083,-17.117374,-14.02524,53.483032,66.47633,12.390342,-0.47469693,3.5418017
182,-2.439969301223755,46.52951431274414,77.34508514404297,-2.731604814994349,-4.149650107472456,-22.806505695553778,2.2339656,10.65256,39.63623,27.00656,-21.593578,0.5885643,0.2848785,-19.87287,-33.16819,70.36167,-11.788125,11.295542,6.745522,-2.5139985,6.033906,4.587647,20.643965,-40.64096,61.573784,3.1797268,-5.7572837,-3.015954,-17.178686,-13.984512,54.285614,66.54876,10.781763,-0.53918177,3.2333047
183,-2.422196626663208,46.97588348388672,77.29971313476562,-2.6388281497038677,-4.095134301894289,-23.1753806951536,2.1846364,10.145892,39.958076,26.813217,-21.68962,1.0166479,0.6437771,-18.725641,-33.248928,70.44741,-11.645364,12.53473,7.0388894,-2.563469,5.7888384,4.9955707,20.508327,-40.813957,61.414127,3.4095697,-5.7249017,-3.0511186,-17.26705,-13.928175,55.20884,66.65868,9.11779,-0.5741469,2.9185412
184,-2.405722141265869,47.4188117980957,77.24828338623047,-2.5673211825836084,-4.010810040561399,-23.52227627321168,2.0617914,9.699712,40.274258,26.719406,-21.815115,1.4297774,0.93490726,-17.47358,-33.252586,70.400696,-11.570278,13.818682,7.346595,-2.5862973,5.5152116,5.3369503,20.353634,-41.004417,61.3025,3.5038671,-5.715068,-3.0750399,-17.278465,-13.885993,56.008354,66.71302,7.4300656,-0.5643778,2.690703
185,-2.4012582302093506,47.861324310302734,77.19105529785156,-2.53021649357889,-3.8860146870741237,-23.84573903818685,1.8376986,9.344236,40.586193,26.7523,-21.973066,1.8252877,1.1713274,-16.111256,-33.2418,70.19227,-11.562041,15.000033,7.684385,-2.5729237,5.2053423,5.702999,20.178297,-41.097385,61.159496,3.6256447,-5.7279973,-3.0896828,-17.335255,-13.863569,56.90806,66.78754,5.963711,-0.5262083,2.5452673
186,-2.41518497467041,48.2826042175293,77.13238525390625,-2.722841173674488,-3.60656896082923,-24.315704035776374,1.2682503,9.492713,40.976738,27.298687,-22.326893,2.1595008,1.2825992,-14.537326,-33.534065,69.75876,-11.526256,15.000033,8.174918,-2.3416502,4.710808,6.099711,19.978601,-41.095554,60.983715,3.7656474,-5.758804,-3.0850854,-17.388025,-13.860428,57.846912,66.85335,4.5360336,-0.46352762,2.4457352
187,-2.4268572330474854,48.705718994140625,77.06306457519531,-2.909051379103112,-3.314509896985339,-24.765030268194007,0.6602234,9.652317,41.3567,27.893711,-22.6931,2.4937296,1.3393974,-12.922004,-33.730747,69.23269,-11.552989,15.000033,8.66688,-2.11347,4.2015476,6.515812,19.75443,-40.98943,60.79545,3.8614352,-5.8035316,-3.0666456,-17.392427,-13.874992,58.724182,66.87391,3.1413574,-0.35572642,2.4324825
188,-2.4484944343566895,49.125160217285156,76.9816665649414,-3.053255967584854,-3.0400724316765544,-25.181577846377742,0.07198346,9.755206,41.720634,28.479631,-23.050045,2.8331766,1.3527751,-11.3218155,-33.79226,68.67398,-11.670188,15.000033,9.173828,-1.9265702,3.7247927,6.9623637,19.507511,-40.734188,60.581486,3.9164011,-5.855815,-3.0377953,-17.434235,-13.906999,59.65157,66.881905,2.0463595,-0.18827355,2.5472097
189,-2.461617946624756,49.54985809326172,76.89375305175781,-3.151023554493729,-2.786925219182591,-25.560641183089295,-0.49165112,9.793972,42.06762,29.049784,-23.395655,3.173751,1.2974734,-9.689579,-33.638493,68.07268,-11.952661,15.000033,9.667938,-1.7825336,3.265989,7.4773417,19.232573,-40.27126,60.32122,3.9573371,-5.907075,-2.999121,-17.375513,-13.954013,60.411198,66.805786,1.0207888,0.058757294,2.815968
190,-2.483336925506592,49.97736358642578,76.79548645019531,-3.2179138464830532,-2.543083895068451,-25.905811665752058,-1.058607,9.799897,42.398952,29.63084,-23.735096,3.5138588,1.1889534,-8.016446,-33.314194,67.40584,-12.367172,15.000033,10.176233,-1.6692615,2.8330336,7.987944,18.933899,-39.695328,60.047993,3.937097,-5.963491,-2.9449937,-17.37563,-14.017383,61.26618,66.72969,0.32239667,0.36362657,3.2141483
191,-2.4990782737731934,50.40337371826172,76.68997955322266,-3.2528059807625542,-2.3133807907783104,-26.21999154742045,-1.6208972,9.765238,42.714397,30.212036,-24.062046,3.8614285,1.0938935,-6.4132595,-32.97055,66.715416,-12.775676,15.000033,10.666922,-1.5820296,2.422346,8.548025,18.607428,-38.975674,59.743885,3.8672361,-6.0387435,-2.8874485,-17.30809,-14.094133,61.99631,66.59343,-0.3843577,0.69763017,3.6996043
192,-2.528093099594116,50.83234405517578,76.56948852539062,-3.256663164245155,-2.099637465813707,-26.50877052431703,-2.1745117,9.687959,43.016235,30.789644,-24.37448,4.2243786,1.0706295,-4.987473,-32.756916,66.03906,-13.032141,15.000033,11.155915,-1.520244,2.059298,9.103918,18.259829,-38.200626,59.446472,3.669133,-6.148542,-2.8306992,-17.296244,-14.18444,62.77977,66.45877,-0.93411446,1.0255147,4.2327976
193,-2.5677549839019775,51.26175308227539,76.4427261352539,-3.2316755281967744,-1.899308928982119,-26.7690090536322,-2.7328107,9.57988,43.30308,31.390114,-24.680294,4.6085896,1.1299684,-3.7514663,-32.712944,65.375694,-13.069379,15.000033,11.629784,-1.4816662,1.7369027,9.689588,17.889225,-37.306896,59.13286,3.3567698,-6.290038,-2.7860901,-17.268793,-14.286735,63.478096,66.283806,-1.45829,1.3623971,4.86093
194,-2.602867841720581,51.698814392089844,76.3097915649414,-3.179379262515841,-1.7099292075322816,-27.001325519362485,-3.3003185,9.444287,43.576412,32.012646,-24.978195,5.0066447,1.2385471,-2.6501498,-32.757942,64.70807,-12.967827,15.000033,12.103304,-1.4667132,1.4542258,10.2940035,17.495363,-36.300304,58.79901,2.9479773,-6.4571643,-2.7473145,-17.271168,-14.401525,64.17883,66.09132,-1.835148,1.7173543,5.585718
195,-2.643691062927246,52.143455505371094,76.17256164550781,-3.1021092307842815,-1.532722494075462,-27.21858371631893,-3.8562055,9.265629,43.8439,32.60509,-25.250084,5.4075136,1.3870529,-1.6878772,-32.86269,64.04216,-12.795843,15.000033,12.571868,-1.4668176,1.2068713,10.88905,17.081108,-35.279255,58.47619,2.4137573,-6.660519,-2.7011101,-17.297674,-14.527315,64.91117,65.89426,-2.138913,2.0553737,6.294985
196,-2.6901121139526367,52.59435272216797,76.02662658691406,-3.0019809830633464,-1.3687980050047392,-27.433144204712054,-4.378978,9.028746,44.11229,33.1176,-25.48036,5.800929,1.5664551,-0.86885464,-32.998627,63.386105,-12.622992,15.000033,13.038131,-1.4745678,0.9894565,11.458095,16.651844,-34.335392,58.189034,1.741414,-6.9105625,-2.6343882,-17.34841,-14.663625,65.711464,65.71279,-2.4265628,2.3408337,6.8769937
197,-2.7415244579315186,53.055458068847656,75.87429809570312,-2.8726190065814703,-1.217508016909044,-27.643141197243583,-4.864744,8.721013,44.38061,33.539948,-25.669329,6.1808815,1.7901163,-0.23679976,-33.199627,62.773956,-12.483802,15.000033,13.502017,-1.4960392,0.80199826,12.007152,16.210913,-33.465424,57.93769,0.8440998,-7.240572,-2.561068,-17.402863,-14.810535,66.56061,65.53237,-2.7493818,2.5641856,7.2845016
198,-2.7931811809539795,53.523590087890625,75.72470092773438,-2.7176907102402645,-1.0776567702259099,-27.844317493171477,-5.3269753,8.357907,44.64661,33.902035,-25.826107,6.5532503,2.0580342,0.22845319,-33.47115,62.1911,-12.3294115,15.000033,13.952743,-1.5271325,0.6363867,12.557866,15.756888,-32.622456,57.708004,-0.24425617,-7.635526,-2.488775,-17.391407,-14.968532,67.32467,65.31897,-3.215558,2.748098,7.580958
199,-2.847241163253784,53.997928619384766,75.57701873779297,-2.554006218995632,-0.9514557817418632,-28.044683643627156,-5.7657795,7.9650674,44.915077,34.211246,-25.948416,6.9264083,2.3438957,0.6165356,-33.74006,61.574085,-12.112475,15.000033,14.404367,-1.5502715,0.49362585,13.090063,15.294682,-31.86033,57.50963,-1.3590518,-8.034419,-2.389256,-17.381754,-15.137365,68.09724,65.1131,-3.6746442,2.9017658,7.823014
200,-2.9000797271728516,54.47681427001953,75.4341049194336,-2.397443678833811,-0.8410579381863487,-28.252004461598087,-6.179434,7.5656714,45.190723,34.470898,-26.032822,7.3096485,2.620637,1.011617,-33.934208,60.859627,-11.7776,15.000033,14.887688,-1.553509,0.39142796,13.561925,14.83742,-31.24864,57.354454,-2.3402557,-8.377653,-2.2265875,-17.576294,-15.313078,69.18203,65.00391,-3.7179809,3.0315518,8.069562
201,-2.9519269466400146,54.96529769897461,75.30072784423828,-2.241500438204625,-0.7400961428594253,-28.471346412002948,-6.568968,7.148779,45.47778,34.672806,-26.0767,7.707368,2.887712,1.4067779,-34.05863,60.04926,-11.364622,15.000033,15.34573,-1.5332025,0.2785066,14.038936,14.377553,-30.746614,57.233047,-3.1697605,-8.663073,-1.983795,-17.646866,-15.490878,70.070206,64.86675,-4.0247555,3.1336849,8.319879
202,-3.0159714221954346,55.457847595214844,75.17142486572266,-2.081580832777504,-0.6496108880209763,-28.69748263647224,-6.933456,6.709288,45.772655,34.819016,-26.083862,8.114624,3.1583314,1.7660333,-34.1449,59.172543,-10.88488,15.000033,15.812493,-1.5001495,0.17614447,14.4976425,13.921734,-30.36419,57.149353,-3.9269927,-8.919932,-1.6763397,-17.72059,-15.673014,70.95822,64.74705,-4.3345428,3.2044833,8.549447
203,-3.084895610809326,55.957176208496094,75.04939270019531,-1.9353684579688213,-0.5835382895463087,-28.92269800565882,-7.266192,6.271338,46.06799,34.922245,-26.058498,8.526869,3.4318833,2.131898,-34.15753,58.19767,-10.240499,15.000033,16.272192,-1.4341524,0.10274479,14.931274,13.471412,-30.08885,57.097492,-4.5907564,-9.132475,-1.3396112,-17.802673,-15.856898,71.82138,64.65152,-4.603677,3.2683167,8.7667465
204,-3.154961109161377,56.459754943847656,74.93366241455078,-1.8199191822448122,-0.5560380749254321,-29.138838286104207,-7.559426,5.8637753,46.355667,34.998825,-26.006332,8.939168,3.7073958,2.5456488,-34.06117,57.09416,-9.334504,15.000033,16.709291,-1.3146102,0.07173126,15.337586,13.025171,-29.905228,57.0713,-5.1357317,-9.28324,-1.0085653,-17.86844,-16.039309,72.58514,64.58133,-4.845038,3.349866,8.979626
205,-3.235767364501953,56.967308044433594,74.82689666748047,-1.764142089572183,-0.5567064715580381,-29.375186207796816,-7.833611,5.539741,46.65141,35.083782,-25.957407,9.353337,4.0026197,3.045438,-33.905273,55.779236,-8.007592,15.000033,17.161837,-1.1151793,0.07454968,15.698466,12.5869055,-29.839483,57.075737,-5.5862765,-9.365008,-0.65778846,-17.99486,-16.216282,73.362274,64.56694,-4.892609,3.46186,9.196037
206,-3.3288049697875977,57.47986602783203,74.73094177246094,-1.749985364454806,-0.5834195555391503,-29.6247874523279,-8.08279,5.2697163,46.95254,35.160942,-25.901798,9.771573,4.316295,3.600304,-33.688915,54.291794,-6.360483,15.000033,17.611254,-0.85197616,0.097958975,16.0367,12.154703,-29.874481,57.107563,-5.941283,-9.386424,-0.28014448,-18.109066,-16.38583,74.05503,64.58429,-4.9149766,3.5903084,9.408373
207,-3.419858932495117,57.99343490600586,74.64353942871094,-1.7253154997896525,-0.6619005917889816,-29.8280627148507,-8.261657,4.947063,47.226376,35.157955,-25.77928,10.189201,4.616346,4.1397486,-33.30799,52.788097,-4.6686325,15.000033,18.01372,-0.5749143,0.18805419,16.340067,11.731798,-29.993105,57.170586,-6.1589427,-9.353886,0.07099069,-18.251064,-16.546345,74.728226,64.642654,-4.850338,3.716829,9.606926
208,-3.508553981781006,58.5167121887207,74.5655746459961,-1.640170934608866,-0.8162186982159682,-29.92749894153777,-8.328554,4.472671,47.44178,35.011963,-25.533289,10.600689,4.8620877,4.5957417,-32.653378,51.439148,-3.2264888,15.000033,18.308916,-0.32958394,0.37968576,16.618576,11.3177,-30.156664,57.259346,-6.189494,-9.272194,0.33904782,-18.38142,-16.696634,75.32379,64.72663,-4.794232,3.8232844,9.780571
209,-3.587503433227539,59.05353927612305,74.49893951416016,-1.4762932581011428,-1.0763367883635668,-29.8952209642396,-8.219962,3.7716656,47.576992,34.618057,-25.140255,11.014015,5.0047617,4.950065,-31.61118,50.313644,-1.9608247,15.000033,18.476208,-0.12594303,0.71333385,16.867199,10.913505,-30.364368,57.383434,-5.970779,-9.130896,0.52579516,-18.528807,-16.834162,75.88673,64.855125,-4.6493826,3.891097,9.90751
210,-3.6651432514190674,59.5966682434082,74.45123291015625,-1.2646030780832893,-1.4143687288425608,-29.773837409002137,-7.9776697,2.9140925,47.657295,34.027786,-24.626013,11.429175,5.0512953,5.2260313,-30.274422,49.362,-0.7659498,15.000033,18.548405,0.06106204,1.1505474,17.088778,10.518461,-30.627005,57.539265,-5.544768,-8.929169,0.6540993,-18.685545,-16.956835,76.403465,65.026886,-4.438099,3.9345918,9.999184
211,-3.743900775909424,60.15399169921875,74.41156005859375,-1.0281844107374605,-1.7688972208515918,-29.61092692250023,-7.7166176,2.0075738,47.72459,33.399094,-24.000214,11.828048,5.0538564,5.41784,-28.850286,48.560204,0.11721393,15.000033,18.56651,0.23387538,1.6228062,17.281849,10.133511,-30.945833,57.709705,-5.024359,-8.687834,0.7020266,-18.846811,-17.06532,76.87087,65.22163,-4.2525506,3.9848003,10.096485
212,-3.8366382122039795,60.71098327636719,74.37393951416016,-0.7868675348672355,-2.0839036701998017,-29.447882221900592,-7.5507627,1.1624056,47.82048,32.905052,-23.280945,12.191191,5.0878105,5.5177264,-27.553604,47.851208,0.4397624,15.000033,18.57146,0.39267805,2.0719202,17.439339,9.762455,-31.327051,57.878704,-4.524248,-8.429158,0.6494664,-19.030884,-17.161436,77.324234,65.42325,-4.137396,4.0725,10.240738
213,-3.94443678855896,61.27654266357422,74.3416976928711,-0.5286996666990534,-2.356687398030233,-29.288277379711975,-7.4728303,0.3516255,47.96234,32.513832,-22.474426,12.5338955,5.1629457,5.5053625,-26.366297,47.254875,0.06134716,15.000033,18.561497,0.5264491,2.4929814,17.574705,9.404109,-31.78213,58.04574,-4.1153526,-8.157332,0.50765544,-19.210552,-17.246977,77.73516,65.63267,-4.1652,4.2049108,10.445503
214,-4.083409309387207,61.84681701660156,74.31023406982422,-0.44324594400319484,-2.5002986436533594,-29.263951149202388,-7.688479,-0.014424781,48.19675,32.604977,-21.764328,12.816133,5.1814632,5.568497,-25.350601,46.639065,-0.7413116,14.479668,18.673222,0.78831214,2.7464862,17.684055,9.058892,-32.30834,58.218857,-3.7235157,-7.8628926,0.2822944,-19.401588,-17.32232,78.125725,65.85926,-4.2569447,4.365254,10.688355
215,-4.255074977874756,62.41027069091797,74.27630615234375,-0.4597438021841985,-2.5740486642500864,-29.28995390079717,-8.130632,-0.041745376,48.460995,33.13237,-21.062006,13.009115,5.264915,5.567413,-24.99408,45.962547,-1.8602563,12.03909,18.814873,1.1127391,2.9262066,17.758598,8.729641,-32.86945,58.38431,-3.2390995,-7.547344,-0.058977347,-19.593746,-17.389261,78.45048,66.07153,-4.423836,4.548959,10.955984
216,-4.443365097045898,62.9801025390625,74.24195098876953,-0.49974559702138244,-2.6295986411002876,-29.2873763878889,-8.700085,0.0902516,48.703033,33.951683,-20.255407,13.092392,5.400993,5.5639725,-24.862217,45.237213,-3.2286067,9.686296,18.923988,1.4474555,3.1052454,17.78184,8.423255,-33.437244,58.529335,-2.5568764,-7.214362,-0.5488828,-19.805443,-17.45082,78.71098,66.24567,-4.6186323,4.7513943,11.235238
217,-4.644236087799072,63.55281448364258,74.21275329589844,-0.548203604652093,-2.6564343549989555,-29.270397121620878,-9.408449,0.3697436,48.94578,35.0763,-19.363213,13.056202,5.5668387,5.527484,-24.990658,44.543102,-4.967033,7.389068,19.013283,1.776592,3.2855856,17.761621,8.141761,-33.991756,58.630703,-1.5902883,-6.8598504,-1.2615443,-20.041153,-17.509943,78.883965,66.37579,-4.8446875,4.9808817,11.536373
218,-4.85561990737915,64.12687683105469,74.18742370605469,-0.6030597590531455,-2.659360857670425,-29.236209572835406,-10.231106,0.7603806,49.18648,36.433277,-18.375078,12.908217,5.7627525,5.48323,-25.288328,43.867683,-7.114733,5.1562634,19.081974,2.0990493,3.4688728,17.70211,7.886569,-34.55635,58.69833,-0.4141584,-6.4951987,-2.161211,-20.304926,-17.567944,79.00081,66.47464,-5.0916796,5.236115,11.862777
219,-5.08375358581543,64.6977310180664,74.16763305664062,-0.7036153294206569,-2.6573042087649057,-29.154663115635678,-11.153016,1.3037366,49.359074,38.008846,-17.237715,12.622444,6.055551,5.528014,-25.698586,43.00162,-9.379606,3.1012802,19.099348,2.4509592,3.6471112,17.598392,7.662293,-35.15338,58.76037,0.842498,-6.143644,-3.1186893,-20.561338,-17.6252,79.05436,66.528,-5.4003296,5.4984684,12.189267
220,-5.320034027099609,65.267578125,74.15453338623047,-0.8873852575884075,-2.6690717275495834,-28.997308396254443,-12.156859,2.030813,49.393475,39.778343,-15.893105,12.16709,6.5199676,5.7486863,-26.184265,41.726414,-11.458429,1.3246987,19.046026,2.863734,3.8198218,17.438234,7.478003,-35.812057,58.843674,2.0486267,-5.818755,-4.0019946,-20.816902,-17.67982,79.11034,66.53135,-5.7191677,5.749827,12.49086
221,-5.562636375427246,65.829833984375,74.14904022216797,-1.194167094905912,-2.6958164470686183,-28.73588314573526,-13.250662,2.9937408,49.312126,41.805813,-14.320977,11.537897,7.250735,6.210419,-26.841803,39.855534,-13.309703,-0.13139144,18.889664,3.3715098,3.981323,17.21532,7.340876,-36.549053,58.936367,3.2134414,-5.5144873,-4.808436,-21.065237,-17.729918,79.154175,66.477455,-6.0949054,5.9795356,12.746211
222,-5.810423374176025,66.37806701660156,74.1554946899414,-1.5895739851669595,-2.7255449597816197,-28.39236681225165,-14.437628,4.1185145,49.11367,44.034004,-12.541564,10.7078085,8.205312,6.8660955,-27.663212,37.496113,-15.050398,-1.3182106,18.652328,3.9368265,4.143702,16.941027,7.259407,-37.34594,59.01287,4.3910856,-5.224642,-5.599748,-21.33523,-17.769857,79.210625,66.37688,-6.4743676,6.198891,12.973391
223,-6.061521530151367,66.9122314453125,74.1693344116211,-1.9970948913070452,-2.757413130819579,-28.012782548182496,-15.707137,5.2351694,48.687584,46.26386,-10.563284,9.610278,9.251113,7.615746,-28.47415,34.877304,-16.617092,-2.282406,18.37554,4.490088,4.3164444,16.637188,7.2203,-38.16724,59.097633,5.51751,-4.954313,-6.338708,-21.583231,-17.801924,79.220276,66.23465,-6.8819265,6.423063,13.204898
224,-6.317046165466309,67.43587493896484,74.18427276611328,-2.3404464149365465,-2.7913808456496225,-27.642241609261863,-17.061396,6.1767387,47.92228,48.318645,-8.408541,8.182676,10.24594,8.340339,-29.110561,32.255787,-17.961388,-3.0716643,18.126379,4.962056,4.509911,16.304836,7.211795,-39.007885,59.22924,6.518517,-4.7051897,-6.9830933,-21.811367,-17.832724,79.20868,66.06252,-7.2232594,6.6679783,13.474017
225,-6.5726189613342285,67.94587707519531,74.19731903076172,-2.607762842790212,-2.817406069503733,-27.269615265628826,-18.542889,6.9382358,46.83188,50.2418,-5.937062,6.3134828,11.178808,9.036543,-29.547295,29.582333,-19.032288,-3.656787,17.892641,5.330273,4.723959,15.930331,7.2379756,-39.866627,59.4175,7.4051037,-4.4737396,-7.53138,-22.029636,-17.862219,79.16654,65.83753,-7.5030646,6.9563046,13.785222
226,-6.826297283172607,68.4583969116211,74.20756530761719,-2.817711600030079,-2.8327513713674444,-26.878372227064894,-20.174757,7.5047956,45.417263,52.082207,-3.2236907,3.9970543,12.123472,9.743217,-29.890211,26.72359,-19.8441,-4.001918,17.64382,5.611667,4.9537973,15.517376,7.3014708,-40.744003,59.642952,8.204051,-4.2547526,-8.002586,-22.22953,-17.887613,79.077965,65.55898,-7.7749157,7.273836,14.122266
227,-7.076838493347168,68.97508239746094,74.21197509765625,-2.9465725472779445,-2.8531869288307834,-26.503569068163003,-21.915234,7.7252297,43.574165,53.710896,-0.6343193,1.3544112,13.03988,10.37372,-30.18094,23.88743,-20.483616,-4.1714725,17.404009,5.8027954,5.2038064,15.11112,7.392845,-41.6055,59.88071,8.884896,-4.045498,-8.3876295,-22.399818,-17.909603,78.982956,65.2728,-8.004168,7.581167,14.487175
228,-7.313946723937988,69.49610137939453,74.2087631225586,-2.9862811826931335,-2.9002589240016423,-26.17930086599029,-23.686123,7.4843707,41.243023,55.011772,1.4663758,-1.4462423,13.878059,10.832673,-30.456898,21.327753,-21.061798,-4.261254,17.195461,5.9180408,5.479392,14.74931,7.4989147,-42.420856,60.113647,9.410565,-3.84348,-8.67581,-22.534801,-17.932568,78.9309,65.02746,-8.147566,7.838679,14.881661
229,-7.5384392738342285,70.02230834960938,74.20037078857422,-2.9384418056389707,-2.991926747582622,-25.905561097058612,-25.572895,6.504658,37.99671,55.832783,3.0889688,-4.6842794,14.627963,11.065853,-30.752157,19.14997,-21.629042,-4.3404775,17.025589,5.966033,5.7860017,14.428072,7.611146,-43.20064,60.361126,9.737624,-3.6414175,-8.8481865,-22.634094,-17.96056,78.96166,64.815056,-8.171142,8.040078,15.304573
230,-7.741297245025635,70.55489349365234,74.20140838623047,-2.8185972119366736,-3.125540684936567,-25.66795407777158,-27.454622,4.8908606,34.0776,56.32359,4.2495008,-8.322132,15.299534,11.107678,-31.051786,17.280676,-22.151762,-4.3748264,16.878305,5.9578104,6.1225386,14.12779,7.7250495,-43.951996,60.63688,9.896068,-3.4396515,-8.912814,-22.683254,-17.996141,79.01535,64.611786,-8.140101,8.206524,15.754587
231,-7.922440052032471,71.08016204833984,74.21080780029297,-2.6586790067870454,-3.294777711438692,-25.478162219709365,-28.997536,3.277903,30.457952,56.843906,4.760089,-11.583855,15.876444,11.005986,-31.309732,15.712113,-22.624882,-4.334054,16.753155,5.930936,6.4871798,13.853523,7.834098,-44.64069,60.9163,9.967818,-3.24809,-8.898581,-22.71222,-18.03862,79.08937,64.45079,-8.0366745,8.340565,16.233524
232,-8.087814331054688,71.59967041015625,74.23418426513672,-2.491557390282118,-3.481309410699935,-25.34298112244831,-30.029871,2.4037495,28.049166,57.723618,4.6605387,-13.665275,16.336061,10.811152,-31.478714,14.427833,-23.03299,-4.1942472,16.634102,5.9217906,6.863855,13.618776,7.9285517,-45.219917,61.172134,10.039481,-3.0772667,-8.835273,-22.717117,-18.085695,79.12413,64.36223,-7.918445,8.443721,16.743328
233,-8.24629020690918,72.1268081665039,74.27485656738281,-2.3334477396726374,-3.698109790755843,-25.26057419339785,-30.548641,2.6383085,27.176668,59.099556,3.999085,-14.119865,16.694073,10.525654,-31.517681,13.43352,-23.356543,-3.9356174,16.505857,5.9571123,7.2565956,13.432552,7.998531,-45.67596,61.401497,10.120171,-2.9266536,-8.712693,-22.684282,-18.135412,79.074455,64.36556,-7.790989,8.490983,17.32524
234,-8.400442123413086,72.66468048095703,74.32301330566406,-2.1853031268620433,-3.9490437565456324,-25.224680000556496,-30.697863,3.673615,27.269989,60.76776,2.897777,-13.382843,16.961184,10.134134,-31.454119,12.747238,-23.61917,-3.6070595,16.35669,6.035754,7.6663313,13.282325,8.028377,-46.006298,61.63515,10.178578,-2.7932103,-8.518823,-22.632782,-18.170086,79.00878,64.46168,-7.618945,8.490191,17.965809
235,-8.55119514465332,73.2054672241211,74.37928009033203,-2.052034953123254,-4.195242754273361,-25.23115707421792,-30.60219,5.206384,27.86118,62.52083,1.567849,-12.0068,17.101757,9.664079,-31.347668,12.357792,-23.861837,-3.2767193,16.254023,6.144685,8.0571575,13.1323,8.04664,-46.295483,61.881157,10.198265,-2.6782305,-8.279906,-22.553795,-18.22399,78.93356,64.599815,-7.426758,8.493791,18.582289
236,-8.689818382263184,73.7406005859375,74.450439453125,-1.9341787832479957,-4.396243387145917,-25.276389055457933,-30.395102,6.9148507,28.5134,64.15813,0.23207662,-10.545509,17.073181,9.14207,-31.261675,12.250101,-24.118494,-3.0024858,16.169508,6.262791,8.413595,12.966,8.046301,-46.49776,62.146923,10.206144,-2.5894785,-8.027862,-22.532312,-18.277208,79.03381,64.77182,-7.139703,8.5519,19.094639
237,-8.82519245147705,74.27114868164062,74.54280090332031,-1.840553781485896,-4.5459611819967645,-25.379875610715015,-30.023663,8.931229,29.371946,65.70216,-1.1517937,-8.906403,16.835194,8.56796,-31.19011,12.481409,-24.394678,-2.8002186,16.10053,6.407285,8.719555,12.807131,8.029468,-46.604,62.418915,10.196483,-2.5395193,-7.756967,-22.471592,-18.320902,79.147644,64.97888,-6.96652,8.691406,19.478758
238,-8.961417198181152,74.79730224609375,74.6463623046875,-1.7644501358218672,-4.665355020283752,-25.539644031787425,-29.419062,11.340756,30.585144,67.225914,-2.7325032,-6.9002447,16.423185,7.9323416,-31.099348,13.027682,-24.666271,-2.632909,16.05922,6.5799437,8.995255,12.647764,7.992055,-46.631077,62.705517,10.160929,-2.5219584,-7.4538517,-22.414501,-18.36867,79.333855,65.229744,-6.778577,8.881097,19.77924
239,-9.094094276428223,75.32550048828125,74.76138305664062,-1.6811419749279621,-4.750649148383696,-25.71722312023464,-28.74273,13.747848,31.744263,68.61033,-4.3572617,-4.915222,15.896809,7.2460465,-31.017609,13.756599,-24.92168,-2.477659,16.02328,6.7371593,9.237147,12.483147,7.940738,-46.57886,63.00893,10.114574,-2.5120924,-7.1454372,-22.335789,-18.415316,79.539345,65.49303,-6.64134,9.080141,20.01138
