unveil-humanoid-operators/unveil-humanoid-operators.github.io/feature-analysis-animation/data/feature_matrix_instances/weight_root_translate_peak_vel_walking_A043_walk_hands_on_back_loop_003__A043.csv
Frame,root_translateX,root_translateY,root_translateZ,root_rotateX,root_rotateY,root_rotateZ,left_hip_pitch_joint_dof,left_hip_roll_joint_dof,left_hip_yaw_joint_dof,left_knee_joint_dof,left_ankle_pitch_joint_dof,left_ankle_roll_joint_dof,right_hip_pitch_joint_dof,right_hip_roll_joint_dof,right_hip_yaw_joint_dof,right_knee_joint_dof,right_ankle_pitch_joint_dof,right_ankle_roll_joint_dof,waist_yaw_joint_dof,waist_roll_joint_dof,waist_pitch_joint_dof,left_shoulder_pitch_joint_dof,left_shoulder_roll_joint_dof,left_shoulder_yaw_joint_dof,left_elbow_joint_dof,left_wrist_roll_joint_dof,left_wrist_pitch_joint_dof,left_wrist_yaw_joint_dof,right_shoulder_pitch_joint_dof,right_shoulder_roll_joint_dof,right_shoulder_yaw_joint_dof,right_elbow_joint_dof,right_wrist_roll_joint_dof,right_wrist_pitch_joint_dof,right_wrist_yaw_joint_dof
0,0.14526218175888062,-2.607802391052246,78.13078308105469,-0.37696921487369583,-2.9826933694197395,94.11735313381834,7.9157515,6.9995475,9.905977,6.993468,-12.234324,-8.635267,8.658613,-5.843163,-20.095547,6.98415,-14.099119,6.4867787,-6.1994843,-2.1231532,3.8232822,12.9805,10.537307,-99.05604,26.194178,34.27519,-9.053998,-5.8870354,16.755234,-5.3308396,81.99112,40.25007,8.587742,-7.38181,30.93275
1,0.1553107649087906,-2.6126484870910645,78.1325912475586,-0.37984778290585747,-2.941595238870004,94.15150121583376,7.855617,7.0073857,9.875167,6.9917693,-12.215129,-8.650466,8.615339,-5.8348536,-20.126608,6.9830575,-14.093052,6.46856,-6.1923504,-2.1039958,3.8158438,12.964865,10.532775,-99.063484,26.20353,34.238007,-9.082466,-5.899053,16.750446,-5.330982,82.005356,40.256943,8.574501,-7.4101305,30.946135
2,0.16481108963489532,-2.616426944732666,78.13540649414062,-0.3822093429795756,-2.9002648721842728,94.18613591320758,7.795159,7.0156713,9.844513,6.9905086,-12.196071,-8.666443,8.571813,-5.826314,-20.158094,6.982334,-14.087035,6.4498734,-6.190395,-2.0841622,3.8078797,12.948797,10.5266285,-99.073616,26.212534,34.194664,-9.106991,-5.90557,16.74343,-5.331308,82.03514,40.266632,8.568384,-7.4419656,30.951744
3,0.17702820897102356,-2.6218180656433105,78.1390151977539,-0.3833847080694831,-2.8584992130962417,94.22026872478519,7.7329936,7.0233693,9.81283,6.9896946,-12.176888,-8.680893,8.527203,-5.8180037,-20.18943,6.982134,-14.081472,6.4320273,-6.188959,-2.0655887,3.7993703,12.935341,10.521077,-99.08017,26.220192,34.158295,-9.131572,-5.914566,16.733006,-5.331755,82.064354,40.275566,8.56741,-7.470086,30.958012
4,0.18788474798202515,-2.629267692565918,78.14289093017578,-0.3847515791672869,-2.814554847826475,94.2539468424775,7.666706,7.0296335,9.778284,6.9885273,-12.157329,-8.691299,8.478665,-5.8103404,-20.221273,6.9815044,-14.074282,6.4163814,-6.192171,-2.0495062,3.7904115,12.920984,10.513847,-99.08285,26.22794,34.12941,-9.153834,-5.924186,16.724092,-5.332514,82.09151,40.28271,8.567746,-7.4906883,30.959965
5,0.1996452957391739,-2.6378397941589355,78.14585876464844,-0.3839939691444907,-2.767356455294987,94.28657251927417,7.5935597,7.0338573,9.738732,6.9869137,-12.137222,-8.698375,8.424248,-5.803204,-20.253466,6.9808693,-14.065394,6.404483,-6.1924567,-2.0355158,3.779633,12.903905,10.51174,-99.08389,26.228527,34.116013,-9.175286,-5.939326,16.725561,-5.3327427,82.09717,40.284298,8.554522,-7.4995465,30.961706
6,0.21013204753398895,-2.6484317779541016,78.1495361328125,-0.3833263953630715,-2.7162473331420003,94.31906880273385,7.513502,7.036954,9.695142,6.986437,-12.117768,-8.702794,8.3643675,-5.796116,-20.286793,6.9795814,-14.054892,6.395096,-6.1929812,-2.021732,3.7702284,12.881229,10.508071,-99.08572,26.228584,34.111366,-9.194596,-5.955499,16.716852,-5.3331327,82.10229,40.285633,8.551842,-7.5013204,30.958206
7,0.22417376935482025,-2.6524899005889893,78.15184783935547,-0.38186912994223604,-2.66615353681798,94.35130043181209,7.4335413,7.0399556,9.651927,6.986025,-12.097098,-8.702898,8.304963,-5.7892327,-20.319847,6.978744,-14.044948,6.385608,-6.1962185,-2.0086863,3.7618387,12.860399,10.502878,-99.086296,26.228054,34.106697,-9.211434,-5.9695473,16.718145,-5.3335986,82.098595,40.285328,8.542689,-7.4997563,30.954239
8,0.23702648282051086,-2.6692349910736084,78.15662384033203,-0.3801678068068284,-2.6204026901602537,94.38330529872187,7.36006,7.0432363,9.613925,6.985271,-12.074517,-8.696641,8.250769,-5.7833776,-20.351658,6.9775333,-14.03594,6.3733387,-6.1977234,-1.9962256,3.7583985,12.838999,10.498249,-99.0905,26.228989,34.09011,-9.226491,-5.9788203,16.710306,-5.334022,82.09147,40.28919,8.5523615,-7.4991007,30.955061
9,0.24985626339912415,-2.680608034133911,78.16146850585938,-0.3792476943247827,-2.5783929293342824,94.41540289192673,7.292399,7.0472903,9.584133,6.985399,-12.04847,-8.677331,8.201644,-5.779224,-20.38195,6.976784,-14.029293,6.356324,-6.2017,-1.9836209,3.757835,12.821308,10.49277,-99.09929,26.2283,34.057655,-9.237241,-5.9773617,16.70937,-5.3347144,82.07573,40.297276,8.570491,-7.5010457,30.960646
10,0.26036199927330017,-2.6908745765686035,78.164794921875,-0.3770945990728805,-2.538904208015667,94.44750392860391,7.2282214,7.051618,9.559638,6.9858427,-12.019748,-8.648018,8.154895,-5.7763557,-20.411062,6.9770255,-14.024126,6.336365,-6.2130613,-1.9733126,3.757885,12.807567,10.490152,-99.10502,26.222202,34.01601,-9.244849,-5.9694295,16.708853,-5.3351645,82.06403,40.307896,8.603434,-7.5034165,30.96739
11,0.2701881229877472,-2.7014496326446533,78.16697692871094,-0.374640852054929,-2.5035338983243602,94.47924474913084,7.168122,7.0562787,9.534803,6.9870396,-11.992255,-8.621614,8.112477,-5.773276,-20.440111,6.9780254,-14.020352,6.3165574,-6.2113647,-1.9589312,3.7653358,12.787888,10.48277,-99.12483,26.222551,33.967907,-9.249927,-5.961025,16.709301,-5.336671,82.02929,40.31776,8.630415,-7.5038238,30.977453
12,0.28002703189849854,-2.713068962097168,78.16810607910156,-0.3741006436140741,-2.4737989712798027,94.50995952340402,7.11416,7.060768,9.504828,6.9870057,-11.968611,-8.611056,8.076784,-5.768729,-20.469625,6.9775014,-14.015779,6.2999063,-6.2148957,-1.9473201,3.7751718,12.771061,10.478378,-99.13302,26.22426,33.92153,-9.2547455,-5.9621134,16.705637,-5.3376565,82.011024,40.32837,8.655695,-7.5023894,30.980705
13,0.29185205698013306,-2.724257469177246,78.169189453125,-0.3741501676028147,-2.4509014439519627,94.53902890363864,7.066541,7.0652637,9.4665575,6.9854627,-11.950599,-8.625193,8.048355,-5.7614503,-20.499481,6.977067,-14.011607,6.287683,-6.215815,-1.9350647,3.7904415,12.757386,10.475749,-99.1348,26.232378,33.878128,-9.258255,-5.977611,16.700186,-5.338226,81.99714,40.33724,8.671081,-7.4962425,30.9776
14,0.3037729859352112,-2.736212968826294,78.17129516601562,-0.3756269751135468,-2.4338311550153726,94.56708388262719,7.0244265,7.069467,9.423349,6.9837446,-11.936851,-8.655225,8.026792,-5.7523675,-20.529518,6.975006,-14.007041,6.278122,-6.21278,-1.9212965,3.813505,12.738712,10.472339,-99.13446,26.244595,33.830456,-9.261154,-6.0035653,16.689949,-5.338814,81.979164,40.34541,8.680884,-7.486288,30.973291
15,0.31509748101234436,-2.7431509494781494,78.1728515625,-0.3773267436301608,-2.420961023681874,94.59484670504332,6.9878793,7.073847,9.379293,6.981873,-11.92493,-8.6877575,8.009371,-5.7434654,-20.560095,6.974933,-14.004048,6.269686,-6.209883,-1.9095404,3.8374915,12.723782,10.469917,-99.13168,26.258698,33.787292,-9.263811,-6.0293555,16.685051,-5.339063,81.96467,40.35261,8.682661,-7.477368,30.965845
16,0.3281079828739166,-2.754133462905884,78.17506408691406,-0.3779680843650858,-2.4109661520070342,94.62365781014422,6.9564614,7.078805,9.338237,6.980882,-11.912804,-8.709305,7.997783,-5.734865,-20.59268,6.974088,-14.003109,6.2606077,-6.2036633,-1.9002503,3.861683,12.711595,10.467076,-99.13027,26.271544,33.75534,-9.2682295,-6.0471983,16.67249,-5.339076,81.95461,40.36181,8.693281,-7.473807,30.959122
17,0.3427131474018097,-2.7594220638275146,78.17691802978516,-0.37645076365269065,-2.405187535200732,94.65370239756659,6.9327106,7.083632,9.300791,6.9809494,-11.899915,-8.713115,7.993942,-5.7279773,-20.629013,6.9733067,-14.005296,6.2497997,-6.199215,-1.8972456,3.883388,12.707684,10.465689,-99.12973,26.284452,33.731445,-9.275269,-6.047641,16.673185,-5.338831,81.94959,40.370182,8.693174,-7.4789886,30.949911
18,0.3545401990413666,-2.7672104835510254,78.17670440673828,-0.3744816777403624,-2.4039076251527236,94.6832928871708,6.9168406,7.0884705,9.266703,6.9808297,-11.88723,-8.707501,7.99627,-5.721784,-20.66663,6.9737544,-14.010275,6.2382164,-6.1910286,-1.8975799,3.904775,12.708956,10.464972,-99.13024,26.296192,33.713997,-9.283855,-6.039652,16.673042,-5.3384643,81.948494,40.37888,8.695164,-7.48862,30.940462
19,0.36853542923927307,-2.7726387977600098,78.17500305175781,-0.373560190828836,-2.403025408172521,94.71640753891428,6.901346,7.0942817,9.230624,6.981577,-11.875577,-8.701021,8.001562,-5.714632,-20.706959,6.971505,-14.014696,6.2280583,-6.183395,-1.8974158,3.9296036,12.703075,10.4636755,-99.1326,26.30874,33.705334,-9.292551,-6.031015,16.665655,-5.3368974,81.95038,40.38946,8.700106,-7.5016356,30.929092
20,0.3814941346645355,-2.7753500938415527,78.17223358154297,-0.373844715080151,-2.400267548532254,94.74426571393265,6.885756,7.1018863,9.201544,6.9808574,-11.865929,-8.703192,8.001459,-5.706071,-20.73723,6.9716177,-14.018816,6.2204313,-6.1697545,-1.8939966,3.9442053,12.699396,10.463271,-99.133,26.313534,33.713394,-9.294805,-6.0392623,16.667696,-5.336063,81.951935,40.397335,8.699062,-7.50686,30.92123
21,0.3935718834400177,-2.7796716690063477,78.17124938964844,-0.3766129570462207,-2.3911239821871972,94.77303930123928,6.862199,7.112902,9.172945,6.9814444,-11.860856,-8.718968,7.9929757,-5.693276,-20.761868,6.9704375,-14.020585,6.218645,-6.1539164,-1.8808002,3.9591484,12.675897,10.462134,-99.13097,26.308138,33.753456,-9.288976,-6.075879,16.653486,-5.3325496,81.96056,40.41167,8.707529,-7.5073805,30.90893
22,0.40668243169784546,-2.7833871841430664,78.17375183105469,-0.38168636910970827,-2.380743054113719,94.7969527743572,6.8402715,7.125681,9.151716,6.980419,-11.858869,-8.74299,7.980501,-5.6786256,-20.776505,6.9700828,-14.021592,6.2207923,-6.1295037,-1.8669832,3.9601443,12.656974,10.461923,-99.130875,26.300962,33.814663,-9.279109,-6.126141,16.650625,-5.332089,81.96372,40.420177,8.709253,-7.5009074,30.905815
23,0.4190565049648285,-2.7853269577026367,78.1756820678711,-0.38716006279035065,-2.3691963324981065,94.82377998649078,6.8161807,7.139195,9.127856,6.9791837,-11.85542,-8.766797,7.9692354,-5.663008,-20.793959,6.9670625,-14.021511,6.221533,-6.1074815,-1.8461738,3.9728765,12.624783,10.461311,-99.126144,26.282856,33.87667,-9.265841,-6.183616,16.636032,-5.3297153,81.97337,40.432228,8.713996,-7.495432,30.892166
24,0.43011149764060974,-2.7936487197875977,78.17874908447266,-0.38878192333514083,-2.3650122306863075,94.8545224442083,6.798905,7.1491385,9.099461,6.9797482,-11.849482,-8.782017,7.967396,-5.652596,-20.818708,6.9676986,-14.024711,6.2165065,-6.093024,-1.835593,3.9858613,12.606283,10.460943,-99.12272,26.277998,33.893528,-9.261146,-6.212526,16.628649,-5.3269114,81.9836,40.4378,8.717659,-7.494516,30.88383
25,0.4443308711051941,-2.800539255142212,78.1792221069336,-0.3870487279444736,-2.3717748239468213,94.89311375273523,6.792546,7.153404,9.062442,6.9792457,-11.836785,-8.784035,7.983249,-5.648776,-20.856655,6.9670854,-14.029777,6.2023826,-6.0861316,-1.8348613,4.0088224,12.6024275,10.461135,-99.12319,26.286106,33.850296,-9.265192,-6.2043643,16.621706,-5.3251305,81.9923,40.43351,8.724073,-7.5024047,30.876493
26,0.45651447772979736,-2.7970423698425293,78.17552947998047,-0.3819962507499502,-2.3858353065568325,94.93677311890139,6.792125,7.1549363,9.020022,6.980604,-11.820973,-8.778358,8.009861,-5.6492043,-20.90233,6.967654,-14.037075,6.1823583,-6.087535,-1.8421489,4.037429,12.605836,10.463684,-99.12606,26.300165,33.764023,-9.272731,-6.170819,16.615257,-5.3184514,82.01081,40.42617,8.734349,-7.5161242,30.86559
27,0.46970808506011963,-2.8004608154296875,78.1733169555664,-0.376772599775833,-2.398658908871517,94.98065041925508,6.790915,7.155731,8.977293,6.9805627,-11.803591,-8.770937,8.035632,-5.650156,-20.949415,6.9679065,-14.043866,6.1610904,-6.0851617,-1.8469311,4.0644507,12.610312,10.465319,-99.13027,26.315014,33.673904,-9.2844925,-6.135898,16.614565,-5.3159733,82.016914,40.414963,8.737392,-7.528177,30.860037
28,0.48012351989746094,-2.805342435836792,78.1726303100586,-0.37470557356673406,-2.4018548520163705,95.02176410236424,6.77886,7.158748,8.936889,6.9814157,-11.788852,-8.767932,8.048733,-5.648086,-20.993147,6.9677258,-14.048482,6.1433225,-6.078545,-1.8432432,4.0832753,12.605068,10.467462,-99.14005,26.321041,33.60601,-9.293314,-6.1109576,16.608427,-5.313247,82.027596,40.41343,8.7516775,-7.535462,30.852392
29,0.49439898133277893,-2.8046953678131104,78.17376708984375,-0.37645013438287306,-2.3911656902204204,95.05593785619858,6.753092,7.1653795,8.903978,6.9813576,-11.77787,-8.772144,8.043085,-5.641145,-21.02908,6.9674287,-14.050899,6.1300387,-6.064019,-1.8257588,4.0874777,12.589969,10.468951,-99.15076,26.314104,33.57804,-9.30102,-6.107937,16.603735,-5.3112044,82.03695,40.42182,8.769156,-7.5328035,30.84671
30,0.49800145626068115,-2.8132236003875732,78.17686462402344,-0.3809575189339531,-2.3722199401948645,95.08608193040709,6.7196026,7.1738224,8.875456,6.9803476,-11.768717,-8.779879,8.026597,-5.631532,-21.061142,6.966315,-14.051101,6.1189446,-6.0448437,-1.8014828,4.0828624,12.573227,10.469485,-99.16037,26.302454,33.574627,-9.30938,-6.1154776,16.601526,-5.3101044,82.044014,40.434628,8.787125,-7.523918,30.843124
31,0.5025399327278137,-2.81796932220459,78.1792984008789,-0.3865750596693892,-2.3488420755243777,95.11770802573382,6.679054,7.182543,8.8440075,6.980772,-11.758727,-8.7878275,8.004968,-5.621627,-21.094385,6.9658856,-14.050926,6.1091213,-6.0237155,-1.7715899,4.075819,12.547366,10.470085,-99.183586,26.284954,33.568207,-9.313027,-6.1205454,16.59292,-5.3076806,82.0573,40.45576,8.8177185,-7.5161133,30.833792
32,0.5135839581489563,-2.820345640182495,78.17961883544922,-0.38913298891908277,-2.3286878938506903,95.15411003676549,6.640567,7.1876674,8.805977,6.980006,-11.744697,-8.792267,7.988208,-5.6146784,-21.13162,6.9646993,-14.050025,6.1000304,-6.0066843,-1.7495185,4.071209,12.531423,10.470193,-99.20106,26.27614,33.559967,-9.317709,-6.1225824,16.589258,-5.304896,82.06563,40.47271,8.841874,-7.512991,30.827312
33,0.5251076221466064,-2.8266489505767822,78.17998504638672,-0.3889886674520912,-2.313099222933625,95.198256447438,6.602838,7.1889925,8.757019,6.9794774,-11.724186,-8.792415,7.9787884,-5.611619,-21.175936,6.963504,-14.049407,6.0920744,-5.9999175,-1.737067,4.07244,12.526063,10.470231,-99.20593,26.278233,33.54533,-9.327851,-6.1221933,16.589464,-5.3039646,82.06979,40.48523,8.858476,-7.51741,30.82579
34,0.5368265509605408,-2.8309829235076904,78.18036651611328,-0.38710456313053965,-2.2982727984187346,95.24762376344592,6.563256,7.187933,8.700682,6.979292,-11.700048,-8.789907,7.971039,-5.610698,-21.22503,6.9634023,-14.049511,6.0853558,-5.9976068,-1.7280579,4.07598,12.520772,10.470434,-99.21191,26.284346,33.52252,-9.33863,-6.1177273,16.585484,-5.3029056,82.077156,40.498722,8.881888,-7.527237,30.82413
35,0.546674370765686,-2.8352530002593994,78.18277740478516,-0.3850284159488297,-2.283010837064454,95.29839817959697,6.522084,7.1853247,8.641992,6.9794846,-11.674833,-8.785955,7.9630966,-5.610744,-21.274792,6.962237,-14.0477085,6.0788484,-5.9983506,-1.7217236,4.079216,12.520357,10.47128,-99.21736,26.290022,33.504547,-9.344096,-6.1105413,16.57972,-5.3000927,82.09067,40.51358,8.908471,-7.5378494,30.81839
36,0.5523889064788818,-2.839503526687622,78.18603515625,-0.38204099998751284,-2.266719862909563,95.34626959950653,6.4809365,7.181437,8.587017,6.979404,-11.651689,-8.781426,7.9511003,-5.611585,-21.32044,6.9617414,-14.043248,6.071725,-5.9982452,-1.7158473,4.080511,12.519945,10.472418,-99.21495,26.28907,33.49945,-9.344507,-6.1111455,16.573992,-5.296848,82.100204,40.525867,8.928271,-7.542508,30.814451
37,0.5601301789283752,-2.8455212116241455,78.18949890136719,-0.3776474339959333,-2.2506778942127124,95.38719548844693,6.4433537,7.1759415,8.539862,6.977655,-11.631594,-8.775942,7.936012,-5.6121144,-21.357235,6.9605775,-14.03455,6.0638037,-5.9877343,-1.7105906,4.0800867,12.51873,10.472611,-99.21276,26.282883,33.508305,-9.335631,-6.118163,16.571537,-5.2961597,82.10193,40.529682,8.936833,-7.538243,30.811518
38,0.5697052478790283,-2.853900909423828,78.1924819946289,-0.37211851881946434,-2.228940157210208,95.43086746333437,6.397455,7.1680093,8.489208,6.97777,-11.612173,-8.768558,7.913344,-5.6144614,-21.395493,6.960165,-14.023374,6.056014,-5.983192,-1.7035488,4.0764127,12.518271,10.472783,-99.20566,26.266092,33.531635,-9.315655,-6.1305804,16.564596,-5.295471,82.103584,40.533745,8.941893,-7.528125,30.806519
39,0.5771066546440125,-2.8633344173431396,78.19557189941406,-0.3676219958882695,-2.208809305320159,95.47245559502832,6.3542275,7.1603217,8.441794,6.9780326,-11.59433,-8.761555,7.891314,-5.6164646,-21.431341,6.9597354,-14.011469,6.047265,-5.982144,-1.6984357,4.075066,12.5181675,10.473342,-99.18512,26.24865,33.561794,-9.298336,-6.147809,16.553928,-5.293618,82.10697,40.53837,8.947895,-7.517467,30.80366
40,0.5836032629013062,-2.870358467102051,78.19698333740234,-0.3628500991501283,-2.1904592368272815,95.51520849478504,6.3130383,7.153506,8.39517,6.977483,-11.575989,-8.756277,7.8728604,-5.6186533,-21.469608,6.9590364,-14.001991,6.0372148,-5.9840894,-1.6942767,4.072886,12.520711,10.473906,-99.16352,26.23495,33.592484,-9.28728,-6.1640315,16.551498,-5.2917304,82.1065,40.542683,8.953732,-7.5109305,30.800463
41,0.588569164276123,-2.879824161529541,78.19839477539062,-0.35995596851360995,-2.1725548481475525,95.55944766540831,6.271996,7.148045,8.349722,6.976779,-11.557844,-8.754668,7.8564825,-5.620834,-21.510805,6.959029,-13.995288,6.024732,-5.982591,-1.688581,4.069151,12.522243,10.474037,-99.15269,26.224333,33.62335,-9.280881,-6.176581,16.555325,-5.2912126,82.09916,40.54623,8.970671,-7.5121927,30.794043
42,0.5937215685844421,-2.887944459915161,78.20104217529297,-0.3577447380051082,-2.1547039831602284,95.60462001834667,6.2311406,7.1434846,8.305284,6.975857,-11.540277,-8.755331,7.8409944,-5.6228456,-21.553741,6.9586463,-13.989564,6.0105076,-5.98235,-1.6815715,4.066061,12.521019,10.474296,-99.13701,26.213093,33.658844,-9.280468,-6.1934295,16.561052,-5.2906246,82.08238,40.549778,8.990823,-7.5170965,30.790625
43,0.6018699407577515,-2.8941617012023926,78.20323944091797,-0.35634298394254554,-2.1390892665134653,95.65107543193857,6.1920404,7.139166,8.260319,6.975861,-11.522656,-8.754885,7.82932,-5.6249228,-21.598745,6.9578047,-13.9856615,5.9963493,-5.9832115,-1.6749619,4.064666,12.521664,10.474686,-99.12088,26.205408,33.691765,-9.283838,-6.208226,16.570621,-5.290049,82.05826,40.551125,9.0020895,-7.520628,30.790422
44,0.610980212688446,-2.900181531906128,78.205322265625,-0.35311195973322973,-2.127662170887093,95.6990142322918,6.1578317,7.1343074,8.212684,6.975062,-11.503423,-8.749921,7.8225007,-5.627845,-21.646154,6.957924,-13.984737,5.9842477,-5.9866576,-1.6707817,4.0653014,12.52625,10.475045,-99.11086,26.204596,33.71036,-9.286541,-6.2119493,16.576437,-5.289602,82.04009,40.550087,9.008107,-7.518522,30.79076
45,0.6201164126396179,-2.909322500228882,78.20721435546875,-0.3491065364531717,-2.120703626982746,95.75064306859278,6.12728,7.1291895,8.159999,6.9758043,-11.481584,-8.736114,7.822519,-5.6310177,-21.698439,6.9578276,-13.987208,5.9721866,-5.99932,-1.6712263,4.066586,12.533317,10.47527,-99.10621,26.21167,33.71352,-9.286921,-6.199141,16.58445,-5.2892666,82.03246,40.5452,9.001273,-7.5067925,30.789667
46,0.6280491352081299,-2.9158732891082764,78.20829772949219,-0.3441402017699239,-2.1158358354776983,95.80748311819256,6.0976753,7.124472,8.10117,6.976692,-11.45672,-8.716395,7.8276505,-5.6335373,-21.75758,6.956072,-13.991967,5.960036,-6.019753,-1.6739286,4.067211,12.54624,10.476094,-99.0966,26.2257,33.714493,-9.292357,-6.18071,16.594645,-5.287698,82.01728,40.53748,8.977581,-7.485534,30.797806
47,0.6402118802070618,-2.918778657913208,78.20858001708984,-0.3382422763239949,-2.1157477527749773,95.86107101997335,6.0750084,7.118876,8.045729,6.976623,-11.433953,-8.69829,7.836633,-5.637316,-21.813404,6.9561305,-13.99902,5.9522395,-6.040333,-1.6773818,4.072193,12.558838,10.476504,-99.09317,26.24275,33.69167,-9.29542,-6.1550517,16.605322,-5.2867904,82.01181,40.53047,8.950866,-7.4678817,30.798868
48,0.6487177610397339,-2.9252915382385254,78.20909881591797,-0.33358037716530126,-2.1200057736100706,95.90758443984089,6.058896,7.112269,7.9982033,6.9773254,-11.417987,-8.689312,7.848347,-5.6423473,-21.8616,6.9562936,-14.005743,5.9537454,-6.0527654,-1.6776729,4.0837774,12.570432,10.476897,-99.09093,26.26115,33.639095,-9.301085,-6.133831,16.608404,-5.285646,82.00566,40.525955,8.926594,-7.4596114,30.798681
49,0.652538537979126,-2.9284508228302,78.20734405517578,-0.3286004117977027,-2.129956726473013,95.94552905982322,6.05255,7.102834,7.961029,6.9767814,-11.411407,-8.693086,7.8642497,-5.649855,-21.899279,6.9545603,-14.011207,5.9708385,-6.055109,-1.6741978,4.1060514,12.578496,10.477172,-99.09335,26.282904,33.52674,-9.3107815,-6.1147504,16.605097,-5.2845216,81.99708,40.527817,8.898636,-7.4661613,30.793783
50,0.6489078998565674,-2.9428882598876953,78.20720672607422,-0.32293623697713625,-2.1448342693320663,95.97757771263792,6.0537844,7.091383,7.9306583,6.975491,-11.410862,-8.705121,7.8840666,-5.659434,-21.93056,6.9522996,-14.016948,5.9998617,-6.04907,-1.6680787,4.136758,12.581667,10.477275,-99.10372,26.307974,33.366123,-9.32303,-6.0943127,16.594074,-5.2832465,81.98649,40.532753,8.870347,-7.481974,30.786243
51,0.6507064700126648,-2.954185962677002,78.20641326904297,-0.31920090179482874,-2.163596526744511,96.00409528972601,6.06073,7.081147,7.9055543,6.975026,-11.413384,-8.7204,7.9063787,-5.668149,-21.955692,6.9518204,-14.023432,6.0274467,-6.0384173,-1.6597589,4.1710505,12.583675,10.477179,-99.11382,26.330837,33.21273,-9.333044,-6.078311,16.581272,-5.2823753,81.97825,40.537853,8.843354,-7.5013366,30.776663
52,0.653723955154419,-2.9612090587615967,78.20487976074219,-0.31648603304304085,-2.1854459841377207,96.0253080961038,6.0722723,7.0753946,7.884034,6.9747925,-11.414288,-8.733888,7.93041,-5.6726027,-21.975042,6.9508185,-14.027073,6.040425,-6.017555,-1.646671,4.2071347,12.57755,10.476591,-99.12981,26.344925,33.113388,-9.334348,-6.069746,16.569971,-5.280874,81.96439,40.5422,8.818845,-7.518196,30.76752
53,0.6596187353134155,-2.9643218517303467,78.20145416259766,-0.3162120926134668,-2.2150094139797503,96.04046299860062,6.0950856,7.0750546,7.866571,6.974241,-11.412829,-8.7441225,7.961282,-5.6719995,-21.98642,6.951298,-14.029066,6.0308228,-5.9983096,-1.6333663,4.2440786,12.575082,10.476061,-99.13186,26.348211,33.100574,-9.325167,-6.076246,16.562712,-5.2800508,81.96014,40.544693,8.800899,-7.531339,30.758314
54,0.6612844467163086,-2.969581365585327,78.1981430053711,-0.3184394280967479,-2.2511678296619975,96.04988333542848,6.126466,7.0783696,7.8535166,6.975021,-11.4115925,-8.753916,7.9980726,-5.668362,-21.990868,6.9525614,-14.029824,6.00768,-5.9772725,-1.6187084,4.2840395,12.569523,10.4755,-99.12843,26.343445,33.137,-9.308551,-6.0930614,16.560722,-5.2794795,81.95885,40.54511,8.782181,-7.5436172,30.748653
55,0.6615533828735352,-2.9757273197174072,78.197021484375,-0.3217125692345646,-2.2836377819876263,96.05486240985505,6.1543922,7.084013,7.8438725,6.9754443,-11.410002,-8.764297,8.029004,-5.662129,-21.991537,6.9534197,-14.028865,5.9810796,-5.9530616,-1.600103,4.320584,12.560482,10.475019,-99.12356,26.333782,33.193684,-9.291148,-6.1143727,16.554325,-5.2791657,81.96039,40.54714,8.76837,-7.5561867,30.738827
56,0.6680276989936829,-2.987708806991577,78.19768524169922,-0.3268554217468551,-2.302767990194834,96.05681562832635,6.1666875,7.091601,7.836579,6.9749346,-11.407706,-8.776467,8.04295,-5.6537547,-21.991047,6.9527054,-14.025606,5.961368,-5.932945,-1.5750709,4.352928,12.545323,10.473211,-99.10844,26.321896,33.24418,-9.281087,-6.1367407,16.535826,-5.2786207,81.968376,40.55514,8.755358,-7.5705333,30.727482
57,0.667948305606842,-3.0134928226470947,78.2000961303711,-0.33658944156729936,-2.299895863032408,96.05239108485577,6.1525507,7.1030073,7.8339753,6.974987,-11.405067,-8.792446,8.027196,-5.6421027,-21.987234,6.9537134,-14.020696,5.9505296,-5.902878,-1.5415002,4.3629975,12.529774,10.471511,-99.10304,26.310783,33.27986,-9.278409,-6.155484,16.5204,-5.278836,81.973946,40.561047,8.736948,-7.5865264,30.716848
58,0.6661632657051086,-3.029069423675537,78.20085906982422,-0.35023272273810613,-2.282891187026314,96.0415924018716,6.122628,7.118629,7.836388,6.9732385,-11.400921,-8.811177,7.9926844,-5.6259375,-21.979132,6.952607,-14.012364,5.9430704,-5.8744073,-1.4929227,4.374417,12.50096,10.467954,-99.08804,26.288841,33.3228,-9.27999,-6.177842,16.482595,-5.27983,81.98953,40.580032,8.725012,-7.609782,30.699417
59,0.665635347366333,-3.0386619567871094,78.20052337646484,-0.36258612325158224,-2.2623895344962657,96.0325583253187,6.0877104,7.1323605,7.837293,6.972866,-11.397607,-8.828541,7.9544044,-5.611634,-21.97309,6.9520087,-14.004174,5.938949,-5.843348,-1.4479599,4.376974,12.474414,10.465199,-99.08116,26.270502,33.358616,-9.282985,-6.196778,16.452618,-5.281037,82.000145,40.594177,8.712102,-7.628152,30.684511
60,0.6665758490562439,-3.0447521209716797,78.1996078491211,-0.37083091573497534,-2.2495704011557587,96.03273040411963,6.061148,7.1393266,7.831334,6.972347,-11.3945875,-8.8408,7.928864,-5.603973,-21.974386,6.9516773,-13.998016,5.9377875,-5.8183885,-1.4140016,4.3816705,12.456778,10.46371,-99.07809,26.258715,33.388504,-9.284363,-6.209824,16.431715,-5.2817945,82.006325,40.602123,8.702324,-7.638004,30.671202
61,0.6662696599960327,-3.0527758598327637,78.1967544555664,-0.37150698735391813,-2.248294801325114,96.04535442761762,6.0472746,7.136771,7.8154325,6.9718733,-11.392664,-8.845477,7.921689,-5.6054754,-21.984934,6.951363,-13.993171,5.9387436,-5.810146,-1.3924516,4.3983817,12.440471,10.459067,-99.0724,26.253738,33.405224,-9.283504,-6.214846,16.412682,-5.284244,82.016945,40.607277,8.700519,-7.6381865,30.654871
62,0.6678377985954285,-3.059487819671631,78.19669342041016,-0.36716748583720454,-2.2526201246780144,96.06628562703956,6.038789,7.127787,7.792506,6.972237,-11.391968,-8.845042,7.9243054,-5.613048,-22.00205,6.950873,-13.988919,5.942309,-5.806512,-1.3809563,4.414756,12.432856,10.454591,-99.07195,26.256392,33.41514,-9.282462,-6.213727,16.404295,-5.2866817,82.02153,40.60779,8.699207,-7.629736,30.639755
63,0.669374942779541,-3.066437244415283,78.19647216796875,-0.36173281308947336,-2.25754531136741,96.09020700488544,6.0311155,7.116532,7.7684083,6.971708,-11.39009,-8.8433075,7.9289236,-5.6231675,-22.022444,6.95038,-13.986479,5.9497705,-5.803395,-1.373107,4.4287534,12.427011,10.45239,-99.0739,26.258698,33.42212,-9.281036,-6.2119327,16.397953,-5.2879004,82.02303,40.607273,8.700787,-7.618643,30.6273
64,0.6685693860054016,-3.0772383213043213,78.19549560546875,-0.3574962928066731,-2.259079941006932,96.1116172900308,6.0204773,7.107294,7.748394,6.9706764,-11.386627,-8.843873,7.930398,-5.631468,-22.04299,6.948528,-13.986899,5.962399,-5.798453,-1.3648738,4.4380727,12.42317,10.45141,-99.07518,26.25953,33.43354,-9.27825,-6.2116704,16.393856,-5.288435,82.023544,40.605286,8.69898,-7.610106,30.617224
65,0.6694818735122681,-3.086050271987915,78.19369506835938,-0.3534647759151038,-2.2549902497891856,96.13294094587476,6.003084,7.099846,7.731395,6.970344,-11.381409,-8.849797,7.924652,-5.639806,-22.067982,6.948198,-13.993918,5.9864426,-5.7945237,-1.3520347,4.44703,12.414694,10.448764,-99.07697,26.2561,33.45372,-9.273065,-6.2119637,16.38719,-5.2899003,82.022285,40.60299,8.688446,-7.6028247,30.604101
66,0.6696025133132935,-3.0971431732177734,78.19091796875,-0.3491393859658409,-2.248757198030414,96.15167651071738,5.9846506,7.09401,7.71985,6.96877,-11.374469,-8.85909,7.9173365,-5.647122,-22.093216,6.946832,-14.005245,6.0185795,-5.7883945,-1.3422095,4.448607,12.4111395,10.447007,-99.077095,26.254078,33.475266,-9.268626,-6.214674,16.384352,-5.290854,82.02065,40.59825,8.677353,-7.5977254,30.596104
67,0.6700050234794617,-3.1060373783111572,78.1892318725586,-0.3456034124618082,-2.2404815326935665,96.17262603902772,5.96281,7.0871186,7.705114,6.967407,-11.365933,-8.865294,7.908972,-5.6548567,-22.120775,6.943528,-14.014738,6.0486574,-5.7844567,-1.3306743,4.4506717,12.406731,10.444668,-99.07628,26.249855,33.50138,-9.262016,-6.217985,16.378363,-5.2921667,82.01766,40.59475,8.667424,-7.5913715,30.587652
68,0.6713826060295105,-3.1171650886535645,78.1894302368164,-0.3416452549208928,-2.2332058691680805,96.19441372252929,5.940119,7.079516,7.6852474,6.966998,-11.356449,-8.862864,7.8995123,-5.662857,-22.146164,6.943604,-14.019983,6.0656767,-5.78171,-1.3187387,4.4537683,12.404753,10.440855,-99.073586,26.247215,33.52707,-9.253266,-6.2219744,16.375414,-5.2943377,82.01155,40.589817,8.6597595,-7.585023,30.582537
69,0.6709444522857666,-3.1265132427215576,78.19139862060547,-0.3370007781217862,-2.2275123024465,96.21854629425151,5.9167047,7.069333,7.656233,6.9668717,-11.344549,-8.844157,7.8908806,-5.671598,-22.169765,6.943571,-14.0161705,6.0640087,-5.7813387,-1.3076477,4.458057,12.402064,10.437261,-99.07022,26.244173,33.54985,-9.239604,-6.228086,16.375124,-5.296408,82.004555,40.58348,8.658286,-7.5772347,30.580025
70,0.6696481704711914,-3.1356539726257324,78.19356536865234,-0.33257777112191145,-2.2221678062640935,96.24442171931146,5.891449,7.0576444,7.6208653,6.967567,-11.33073,-8.814294,7.882602,-5.6807156,-22.192822,6.9428086,-14.006356,6.050293,-5.782919,-1.2970951,4.4621477,12.40171,10.434058,-99.06619,26.239288,33.573742,-9.221283,-6.2351127,16.376919,-5.298337,81.99732,40.578217,8.661171,-7.568854,30.57843
71,0.6708993911743164,-3.144296646118164,78.19599151611328,-0.32891210627869577,-2.2160371547059894,96.27052265332873,5.864575,7.046808,7.5849137,6.969002,-11.317264,-8.786585,7.8721128,-5.6891656,-22.21493,6.9443173,-13.995876,6.0324774,-5.784216,-1.284251,4.4662786,12.40164,10.429766,-99.06168,26.23576,33.596664,-9.2047615,-6.241105,16.374414,-5.3010216,81.98947,40.573036,8.669971,-7.5611496,30.579212
72,0.6717602610588074,-3.15462064743042,78.1975326538086,-0.3276921407494307,-2.2075063786513076,96.29505599450029,5.837027,7.039155,7.554609,6.969681,-11.305694,-8.774217,7.859488,-5.6950183,-22.236298,6.94486,-13.986466,6.018347,-5.786296,-1.2699162,4.4676337,12.401291,10.427024,-99.05815,26.23374,33.61463,-9.195075,-6.241102,16.37574,-5.302722,81.9835,40.568398,8.673259,-7.5556,30.579432
73,0.6738869547843933,-3.1639244556427,78.19752502441406,-0.328718822386329,-2.1952593382481833,96.3180029506973,5.8077297,7.036345,7.5317464,6.968799,-11.296735,-8.78667,7.843597,-5.6964836,-22.257736,6.9440665,-13.978477,6.008781,-5.789395,-1.2505785,4.4652514,12.400248,10.423414,-99.05468,26.234102,33.62869,-9.195531,-6.233562,16.377949,-5.304961,81.97628,40.56722,8.671098,-7.55298,30.581367
74,0.6735485196113586,-3.1724605560302734,78.19699096679688,-0.33219449580061733,-2.180714502631609,96.33999174241434,5.7770886,7.037213,7.51331,6.966819,-11.288975,-8.815039,7.8249707,-5.695015,-22.278788,6.9432745,-13.970597,6.000085,-5.790538,-1.2268608,4.462306,12.396115,10.415718,-99.05357,26.24075,33.638527,-9.203239,-6.220446,16.372536,-5.309612,81.96879,40.56562,8.675336,-7.552117,30.58605
75,0.67457115650177,-3.182051658630371,78.1976547241211,-0.33505066275352563,-2.165582581282223,96.36086671940679,5.7467527,7.0382915,7.4965043,6.964733,-11.282097,-8.844475,7.805544,-5.6933537,-22.29821,6.9427233,-13.963747,5.9929724,-5.7931943,-1.2046083,4.4569,12.394688,10.411799,-99.05258,26.244562,33.643623,-9.2121525,-6.205465,16.374302,-5.3119044,81.96443,40.56599,8.673252,-7.552643,30.587973
76,0.6724346280097961,-3.1898536682128906,78.20003509521484,-0.3370871351020114,-2.1524409889473834,96.38041835979425,5.718939,7.03693,7.47883,6.9633536,-11.2747,-8.860564,7.7879553,-5.6934023,-22.314768,6.9418125,-13.957585,5.988249,-5.792849,-1.1863711,4.453782,12.396083,10.409255,-99.05118,26.247448,33.644577,-9.218624,-6.19527,16.375978,-5.3133745,81.961235,40.56434,8.671354,-7.5529475,30.587948
77,0.6709758043289185,-3.197887897491455,78.20310974121094,-0.3356210797947401,-2.1415155850052288,96.39924952561385,5.6942134,7.0312815,7.4585586,6.963022,-11.266765,-8.855856,7.7724757,-5.697065,-22.327948,6.942389,-13.954921,5.987486,-5.7903404,-1.1710525,4.452518,12.399595,10.40483,-99.04757,26.2514,33.637486,-9.225748,-6.1924787,16.377413,-5.3158984,81.954865,40.561638,8.665824,-7.5520763,30.58882
78,0.6690558791160583,-3.2061190605163574,78.20555877685547,-0.3327762546669008,-2.1334220538174424,96.41656620867464,5.673408,7.0232134,7.4382677,6.9635897,-11.259108,-8.839415,7.7603445,-5.702228,-22.337797,6.942576,-13.954145,5.9897895,-5.783975,-1.160323,4.4536037,12.407077,10.402241,-99.044495,26.255556,33.625458,-9.232007,-6.1930256,16.37753,-5.317346,81.95151,40.556343,8.6630535,-7.550969,30.587519
79,0.6674960255622864,-3.2144546508789062,78.20707702636719,-0.3298649541938096,-2.1249511437981234,96.43176198245112,5.653054,7.0153975,7.41964,6.9634786,-11.251416,-8.820814,7.746885,-5.706926,-22.345734,6.9423623,-13.95211,5.9922047,-5.778079,-1.1506743,4.455845,12.411608,10.401318,-99.042175,26.25802,33.609425,-9.236181,-6.1933227,16.381596,-5.317844,81.9493,40.551075,8.655235,-7.551046,30.585073
80,0.66884446144104,-3.2230074405670166,78.20672607421875,-0.3293790330143024,-2.1070153593807834,96.4494002818677,5.618438,7.0100784,7.397926,6.964108,-11.241256,-8.809384,7.7221866,-5.709833,-22.357946,6.942427,-13.946403,5.9918766,-5.775325,-1.1344347,4.4528503,12.411641,10.396811,-99.03672,26.259605,33.595024,-9.241593,-6.1974216,16.377989,-5.320425,81.94342,40.547863,8.651028,-7.5517545,30.586409
81,0.668563187122345,-3.2371222972869873,78.20832061767578,-0.33199114614439074,-2.083597159208552,96.46581604204322,5.576007,7.008737,7.377684,6.963404,-11.229886,-8.810309,7.69016,-5.7094417,-22.371521,6.9417877,-13.935214,5.9869576,-5.7737865,-1.115432,4.4503365,12.404495,10.392506,-99.036545,26.260628,33.58034,-9.242116,-6.195714,16.37201,-5.3229656,81.94136,40.544277,8.65015,-7.555903,30.586271
82,0.6684296131134033,-3.2490968704223633,78.20977783203125,-0.3363782317766458,-2.0551701420605406,96.482204326655,5.5262322,7.0097766,7.3570642,6.9619737,-11.216914,-8.8176,7.6515813,-5.707013,-22.38649,6.940753,-13.92047,5.9793844,-5.7737665,-1.0930098,4.4461036,12.395066,10.387266,-99.038704,26.260998,33.565613,-9.239125,-6.19187,16.367542,-5.326218,81.93892,40.54131,8.647018,-7.5624995,30.58525
83,0.6689121723175049,-3.2595272064208984,78.2120361328125,-0.3410170725979979,-2.0233134333374814,96.49703925334174,5.4721565,7.0123963,7.3376675,6.961177,-11.203169,-8.82497,7.608447,-5.7036543,-22.401106,6.9401445,-13.904801,5.971558,-5.7717004,-1.0694108,4.4412413,12.378788,10.383272,-99.044624,26.259659,33.54973,-9.235805,-6.18838,16.353168,-5.3288374,81.9402,40.54031,8.65372,-7.568777,30.584763
84,0.6717022061347961,-3.270914077758789,78.21504211425781,-0.3462280986119016,-1.9896601891733698,96.50913594452594,5.418518,7.0149684,7.321257,6.960149,-11.188385,-8.825921,7.563043,-5.7007384,-22.413261,6.9390116,-13.889517,5.9659557,-5.769474,-1.0466754,4.431463,12.368471,10.380034,-99.05003,26.256134,33.54334,-9.232786,-6.1870637,16.348957,-5.331039,81.941635,40.540344,8.650415,-7.57286,30.583628
85,0.670908510684967,-3.2824900150299072,78.21814727783203,-0.34888129109126637,-1.95453432830162,96.5177593783298,5.3660083,7.0171647,7.308992,6.959069,-11.170375,-8.81455,7.516154,-5.69862,-22.422508,6.937119,-13.874374,5.9648685,-5.763677,-1.0244839,4.4179425,12.35614,10.370637,-99.063614,26.256414,33.53662,-9.229237,-6.1861863,16.342505,-5.337666,81.94783,40.537586,8.652045,-7.5728984,30.582798
86,0.6727171540260315,-3.2913260459899902,78.22032165527344,-0.3507397540344789,-1.9207907150706889,96.52315704753666,5.3170834,7.019258,7.3004327,6.9587955,-11.1516,-8.795632,7.4698625,-5.6974525,-22.428944,6.936441,-13.85985,5.9667144,-5.757551,-1.0069957,4.403403,12.349077,10.368518,-99.06855,26.251814,33.540615,-9.229588,-6.1923604,16.33921,-5.3391924,81.95257,40.53885,8.647967,-7.569951,30.587637
87,0.6735792756080627,-3.301734447479248,78.22248077392578,-0.35360381584685585,-1.8774751740073459,96.5278255060359,5.2565403,7.023118,7.291507,6.959844,-11.133392,-8.778949,7.4122763,-5.6944137,-22.435677,6.936348,-13.846599,5.966764,-5.752018,-0.98145074,4.3815036,12.336379,10.361783,-99.0838,26.243446,33.544895,-9.225621,-6.1942844,16.327723,-5.344235,81.96836,40.543808,8.655488,-7.5681086,30.584183
88,0.673766553401947,-3.312948703765869,78.22452545166016,-0.3587953333817944,-1.835506710534978,96.5307699861081,5.198393,7.029197,7.282981,6.9590354,-11.120518,-8.774423,7.356081,-5.6882453,-22.441952,6.9356403,-13.837316,5.9616795,-5.746708,-0.9550873,4.3619204,12.327506,10.352125,-99.09436,26.241087,33.56192,-9.223889,-6.196742,16.327911,-5.351645,81.980385,40.543526,8.648193,-7.5688047,30.576878
89,0.6739742755889893,-3.3232836723327637,78.22571563720703,-0.3686204760518793,-1.793757524911657,96.53222318722935,5.1400723,7.038729,7.2733927,6.9576445,-11.116752,-8.788553,7.3000813,-5.6772385,-22.44965,6.9343038,-13.833854,5.950826,-5.738079,-0.92148054,4.347708,12.315144,10.346235,-99.10028,26.2307,33.60163,-9.224045,-6.2028823,16.321547,-5.3561993,81.9889,40.548885,8.639726,-7.573862,30.566748
90,0.6733318567276001,-3.3314778804779053,78.22733306884766,-0.38201839148151595,-1.7511914851046833,96.53195115991961,5.080757,7.0509167,7.2637086,6.9561973,-11.119271,-8.814802,7.2425365,-5.662802,-22.457705,6.9338956,-13.835395,5.936163,-5.73086,-0.8811196,4.334557,12.303258,10.335512,-99.10469,26.22075,33.65626,-9.222894,-6.2090764,16.323473,-5.36471,81.996826,40.55468,8.618447,-7.582651,30.55053
91,0.6738669872283936,-3.344165086746216,78.22986602783203,-0.3947394819734825,-1.7034841070899314,96.53081042020241,5.0160484,7.0639143,7.254381,6.9542036,-11.121845,-8.843296,7.1789017,-5.6471353,-22.464231,6.932777,-13.836953,5.9170303,-5.722615,-0.8434417,4.31837,12.289076,10.328199,-99.10839,26.211657,33.707558,-9.226631,-6.216301,16.32339,-5.3706255,82.00359,40.559475,8.598793,-7.590159,30.53411
92,0.673983097076416,-3.3577349185943604,78.23239135742188,-0.40578307479531533,-1.645580543220575,96.52935902825665,4.9401436,7.07638,7.246184,6.95286,-11.118843,-8.864225,7.102764,-5.6320386,-22.467054,6.933343,-13.835935,5.892742,-5.7179937,-0.80960697,4.292307,12.28259,10.31609,-99.111275,26.21262,33.74284,-9.235374,-6.2227855,16.328566,-5.380751,82.01053,40.557503,8.578872,-7.594954,30.518063
93,0.6747519969940186,-3.3697705268859863,78.2349624633789,-0.4124265756408311,-1.5758508715399382,96.5292358111417,4.852318,7.0878143,7.2376165,6.951131,-11.107546,-8.874812,7.0139685,-5.6167893,-22.46562,6.9329505,-13.829897,5.861214,-5.718015,-0.7880513,4.251216,12.286259,10.3041115,-99.11387,26.23224,33.753292,-9.25727,-6.2256393,16.34306,-5.391063,82.01847,40.54193,8.555722,-7.592495,30.503056
94,0.6872522234916687,-3.37099289894104,78.2375259399414,-0.4186863334550722,-1.4967796130924045,96.52954481015215,4.754051,7.099405,7.2287583,6.9504194,-11.091779,-8.880445,6.914487,-5.6006107,-22.460833,6.93397,-13.822543,5.823354,-5.722127,-0.7702376,4.199337,12.292742,10.296322,-99.11643,26.253464,33.74502,-9.287316,-6.2284245,16.36774,-5.3980794,82.02348,40.52627,8.52345,-7.587218,30.488323
95,0.6951739192008972,-3.379584550857544,78.24129486083984,-0.4237910171738016,-1.4122325893369079,96.52767149061712,4.6500316,7.1110554,7.2227964,6.948701,-11.07378,-8.883179,6.8073745,-5.5844455,-22.453487,6.9344263,-13.813075,5.7830276,-5.7233033,-0.75389796,4.1490383,12.297859,10.294365,-99.11732,26.270092,33.734455,-9.31537,-6.2332873,16.385347,-5.3999276,82.02537,40.51389,8.499241,-7.5820303,30.474667
96,0.7005026340484619,-3.3919594287872314,78.24659729003906,-0.42923471498983523,-1.3206933178889715,96.52075046806495,4.5370517,7.122829,7.222384,6.9470468,-11.056119,-8.885076,6.688947,-5.570047,-22.44438,6.9359922,-13.802556,5.744011,-5.7203836,-0.7323921,4.0976996,12.30028,10.290573,-99.115585,26.275301,33.728756,-9.331455,-6.244666,16.404015,-5.4037657,82.02289,40.504623,8.480771,-7.5808916,30.460842
97,0.7059083580970764,-3.402383327484131,78.25179290771484,-0.4354988141154963,-1.2250392233931933,96.50619122659664,4.4184165,7.1338367,7.232196,6.9450974,-11.038508,-8.880087,6.562523,-5.5591273,-22.432808,6.9347267,-13.787945,5.7078795,-5.706305,-0.7044531,4.059029,12.294622,10.287661,-99.11012,26.261997,33.73802,-9.327074,-6.2645316,16.402039,-5.4068675,82.01565,40.503677,8.483873,-7.5879965,30.446836
98,0.7097055315971375,-3.418125867843628,78.25755310058594,-0.4412175157649058,-1.1223663242631967,96.48606548969717,4.2905555,7.145519,7.248763,6.9437957,-11.020233,-8.86932,6.4229894,-5.550504,-22.41845,6.9358907,-13.771527,5.6725616,-5.6904793,-0.67220026,4.024304,12.281705,10.284341,-99.0975,26.236689,33.749916,-9.310625,-6.2912283,16.409277,-5.410586,81.99695,40.50418,8.474047,-7.5998616,30.431807
99,0.7152988910675049,-3.4335334300994873,78.262451171875,-0.44938496677542533,-1.0165409689573535,96.46477286122321,4.1589265,7.159731,7.2653613,6.942785,-11.003447,-8.865899,6.279709,-5.539299,-22.403421,6.9372425,-13.7559,5.6368804,-5.6666403,-0.6344707,3.9974556,12.263784,10.27577,-99.078804,26.21387,33.76824,-9.298927,-6.3281,16.399021,-5.421206,81.95759,40.500175,8.477346,-7.6077957,30.431295
100,0.7132154107093811,-3.46224308013916,78.26605224609375,-0.4591393933672901,-0.9114394270989761,96.44671399950322,4.02934,7.177999,7.2747293,6.9395576,-10.989052,-8.88303,6.1410027,-5.5212674,-22.389568,6.93634,-13.743082,5.599659,-5.652836,-0.597873,3.9634612,12.250803,10.265853,-99.06916,26.196224,33.771896,-9.291836,-6.3554635,16.409117,-5.434206,81.92345,40.49106,8.47862,-7.608448,30.430008
101,0.7186693549156189,-3.477370262145996,78.26800537109375,-0.47309335051309215,-0.8067095266342368,96.43222653073519,3.9012556,7.2010126,7.274799,6.9356413,-10.9793415,-8.930939,6.006101,-5.4952245,-22.37646,6.935995,-13.73438,5.561475,-5.6482954,-0.5634015,3.923658,12.247051,10.260401,-99.06252,26.181374,33.764107,-9.294362,-6.3773046,16.41683,-5.4417586,81.90044,40.489044,8.510591,-7.596454,30.435616
102,0.729502260684967,-3.4862523078918457,78.2701644897461,-0.4892404880220636,-0.7011351868377578,96.4193206252957,3.7724106,7.228324,7.269257,6.9309793,-10.97277,-9.000378,5.8717895,-5.4634614,-22.363468,6.9347115,-13.726942,5.522756,-5.645942,-0.5270269,3.8828402,12.245072,10.25396,-99.0586,26.170046,33.747967,-9.303213,-6.3986244,16.42483,-5.4512725,81.87148,40.484383,8.557804,-7.5751634,30.450693
103,0.7435601353645325,-3.491544723510742,78.27285766601562,-0.5044970733189251,-0.5954734950507803,96.40831067827257,3.6443074,7.2571893,7.260319,6.926377,-10.968615,-9.075143,5.7396145,-5.42953,-22.351578,6.934062,-13.724231,5.4813023,-5.645013,-0.4912689,3.8410285,12.244397,10.244212,-99.05935,26.163784,33.732697,-9.316164,-6.4164453,16.445005,-5.4666433,81.83462,40.47301,8.5886965,-7.553073,30.465206
104,0.757108747959137,-3.4975457191467285,78.27462005615234,-0.518838898296734,-0.4900442762717106,96.39954413615042,3.5183568,7.2850924,7.249993,6.922067,-10.965898,-9.138835,5.6103787,-5.39719,-22.341953,6.9344635,-13.727735,5.435246,-5.648873,-0.45845312,3.799729,12.241298,10.235641,-99.06103,26.155577,33.725807,-9.331524,-6.430018,16.46612,-5.4805775,81.80384,40.463833,8.597515,-7.540456,30.469803
105,0.769528865814209,-3.50036358833313,78.2767333984375,-0.5293422173414091,-0.3856677390126867,96.39309361150728,3.3954916,7.3097434,7.2380347,6.918593,-10.963563,-9.181896,5.486477,-5.368303,-22.334867,6.9347153,-13.738873,5.3810177,-5.658156,-0.42933586,3.7587106,12.238789,10.22994,-99.062744,26.14324,33.736343,-9.351811,-6.4361687,16.484024,-5.4898033,81.783646,40.46465,8.578343,-7.541699,30.460152
106,0.7849688529968262,-3.5021145343780518,78.27506256103516,-0.5378202159433253,-0.281967037545099,96.38848469405877,3.2742684,7.333155,7.2239084,6.9165583,-10.962863,-9.214902,5.364651,-5.341462,-22.32927,6.9383497,-13.757436,5.320544,-5.6613755,-0.4024394,3.7203424,12.2312975,10.220275,-99.07482,26.137936,33.7554,-9.3784685,-6.4364634,16.500502,-5.5052924,81.7559,40.453922,8.53883,-7.5475106,30.446262
107,0.8040459752082825,-3.504282236099243,78.2730484008789,-0.5440078913527995,-0.17757671535676847,96.386156281298,3.1541612,7.3559637,7.209031,6.913514,-10.964087,-9.251365,5.246453,-5.31383,-22.325294,6.93768,-13.777794,5.2599463,-5.673382,-0.37948352,3.6804852,12.226498,10.213347,-99.08151,26.129597,33.777676,-9.403895,-6.4378176,16.52628,-5.5161724,81.73129,40.451096,8.483185,-7.558189,30.426695
108,0.8246870636940002,-3.5017292499542236,78.2708969116211,-0.5509649426431902,-0.07141959250297032,96.38594221465904,3.0323622,7.3822403,7.1942344,6.910589,-10.969123,-9.305315,5.1260533,-5.2836394,-22.322468,6.940024,-13.801107,5.2053456,-5.680247,-0.35666662,3.6441135,12.215938,10.202743,-99.09402,26.127193,33.792614,-9.422759,-6.4463735,16.539043,-5.5327334,81.70094,40.44134,8.450136,-7.567272,30.411043
109,0.8482042551040649,-3.4953911304473877,78.26862335205078,-0.5634053311181019,0.034692324302765865,96.38971179866736,2.9104705,7.419454,7.177931,6.9070535,-10.97875,-9.384464,4.972455,-5.2586617,-22.319798,7.0219417,-13.870606,5.16183,-5.6955824,-0.33153483,3.6110644,12.204405,10.194191,-99.09702,26.123024,33.800205,-9.433217,-6.469632,16.555809,-5.5459404,81.66695,40.436745,8.424988,-7.5778365,30.395668
110,0.8777979016304016,-3.4879298210144043,78.26676940917969,-0.5729375874308933,0.14266374278567118,96.39544559800228,2.7876346,7.456021,7.162284,6.902036,-10.991831,-9.477985,4.8281307,-5.2303877,-22.318432,7.081308,-13.931531,5.1256285,-5.7030673,-0.31262076,3.5809343,12.18974,10.182444,-99.10488,26.128843,33.805748,-9.43956,-6.50155,16.571264,-5.564308,81.617584,40.418022,8.40425,-7.586849,30.382923
111,0.9094353914260864,-3.482222080230713,78.26374816894531,-0.5827054028794604,0.2515816600178573,96.40263231958858,2.6647534,7.495952,7.146573,6.897824,-11.007596,-9.580425,4.6863294,-5.1984925,-22.318893,7.1356072,-13.989199,5.0869846,-5.71468,-0.29445967,3.5513172,12.171554,10.172182,-99.11386,26.132559,33.805305,-9.442234,-6.532128,16.580309,-5.5803423,81.57675,40.405754,8.391893,-7.595735,30.37004
112,0.9419800639152527,-3.474090337753296,78.25910186767578,-0.5934578945052484,0.36065008154380207,96.40986097295765,2.5436144,7.540712,7.131542,6.893697,-11.023006,-9.6861515,4.5482736,-5.160999,-22.321255,7.1856866,-14.039835,5.0358906,-5.7322884,-0.27653113,3.5200515,12.1568,10.166604,-99.12308,26.132927,33.805305,-9.443832,-6.551394,16.594658,-5.588724,81.54807,40.40357,8.370217,-7.6010313,30.357325
113,0.9778792262077332,-3.4616622924804688,78.2523422241211,-0.6055359310964586,0.4711476444108251,96.416651465746,2.4235466,7.589617,7.118649,6.888563,-11.03601,-9.794193,4.411786,-5.118807,-22.326447,7.2319593,-14.0834,4.969061,-5.7392774,-0.2546859,3.4892077,12.130203,10.158161,-99.15524,26.13893,33.793648,-9.443962,-6.552432,16.600155,-5.6005373,81.51909,40.39658,8.349287,-7.5957417,30.351986
114,1.017675518989563,-3.4458160400390625,78.24574279785156,-0.6189579171777851,0.5830350944075958,96.4239196559317,2.3033183,7.6425443,7.106617,6.884137,-11.049036,-9.907557,4.276674,-5.0721803,-22.334272,7.276046,-14.121919,4.89177,-5.7495327,-0.23206796,3.4566677,12.1038265,10.150794,-99.19125,26.145908,33.779556,-9.441686,-6.5425735,16.604694,-5.609768,81.5004,40.393307,8.325909,-7.584573,30.34843
115,1.0577629804611206,-3.4301557540893555,78.24029541015625,-0.6328175288745967,0.6936444556359608,96.43118172233574,2.1870072,7.699601,7.0945644,6.879087,-11.063633,-10.025793,4.1454926,-5.0206294,-22.341204,7.3177977,-14.159114,4.807585,-5.752287,-0.20893493,3.4271111,12.073253,10.139096,-99.24238,26.158272,33.758984,-9.437315,-6.526465,16.615835,-5.623158,81.47521,40.383926,8.297082,-7.5745096,30.344995
116,1.105631947517395,-3.413700580596924,78.23528289794922,-0.6465942583970439,0.8001869319056246,96.43843990004605,2.0767941,7.7607226,7.0807266,6.8752646,-11.083122,-10.14846,4.0205245,-4.9634724,-22.344606,7.358929,-14.200009,4.720069,-5.7615137,-0.19106153,3.4046805,12.047235,10.13025,-99.28253,26.167246,33.743015,-9.435494,-6.5167346,16.623232,-5.6325846,81.46303,40.378456,8.279789,-7.574711,30.337162
117,1.1649037599563599,-3.3927929401397705,78.22948455810547,-0.6615488062905078,0.9013250780324461,96.44581907044001,1.9751352,7.827089,7.0636363,6.8713284,-11.110203,-10.282363,3.904027,-4.8986406,-22.34279,7.3980346,-14.246059,4.629383,-5.7669353,-0.175332,3.3917432,12.021888,10.119787,-99.32728,26.17721,33.73082,-9.435494,-6.512193,16.627335,-5.6433544,81.45359,40.368732,8.276808,-7.5906067,30.32215
118,1.2216123342514038,-3.366447925567627,78.22188568115234,-0.67719323840909,0.9986443259682897,96.45338572861316,1.8801795,7.897412,7.0443215,6.86631,-11.14155,-10.425475,3.793855,-4.8275557,-22.337915,7.4359813,-14.295376,4.5338464,-5.777104,-0.16232912,3.384884,11.999935,10.110887,-99.3669,26.184162,33.72326,-9.437601,-6.511702,16.635347,-5.6522484,81.45062,40.35965,8.275376,-7.617253,30.302498
119,1.280232548713684,-3.339493989944458,78.21272277832031,-0.6917751154650034,1.0942350343284504,96.46035529651616,1.7886989,7.9703856,7.026035,6.8622303,-11.171901,-10.564298,3.6874917,-4.752998,-22.330997,7.472742,-14.344674,4.434266,-5.7869983,-0.15403678,3.3823087,11.977302,10.104332,-99.404724,26.190649,33.710705,-9.439075,-6.511163,16.64263,-5.6586804,81.45241,40.3524,8.278314,-7.6443267,30.283678
120,1.336806058883667,-3.3114020824432373,78.2038345336914,-0.7032497931132722,1.1902285950495688,96.465718155163,1.6977825,8.044124,7.0117965,6.860038,-11.195656,-10.685262,3.5488825,-4.691981,-22.320963,7.5837054,-14.430487,4.3318653,-5.7905474,-0.15082215,3.3811324,11.955755,10.098448,-99.446335,26.200228,33.688637,-9.43618,-6.5055017,16.646332,-5.6642756,81.45555,40.346703,8.288569,-7.662134,30.271341
121,1.3990280628204346,-3.2803282737731934,78.1955337524414,-0.7103121777921352,1.2912469944811684,96.45959177925589,1.6057192,8.117429,7.012956,6.856997,-11.210787,-10.783363,3.3147488,-4.668574,-22.292377,7.890924,-14.610078,4.2253695,-5.778202,-0.15116177,3.3800433,11.931346,10.092529,-99.49289,26.210844,33.64825,-9.427069,-6.4933677,16.644875,-5.6695623,81.45908,40.3437,8.303987,-7.66531,30.269163
122,1.4711107015609741,-3.246425151824951,78.18844604492188,-0.7142119245458897,1.3948305073606624,96.44567332746891,1.5131767,8.191895,7.0243216,6.855962,-11.221646,-10.866374,3.0728564,-4.645713,-22.255623,8.205039,-14.7877655,4.1138697,-5.7567697,-0.15543681,3.3811598,11.906176,10.087539,-99.53874,26.221373,33.59706,-9.414687,-6.4785624,16.63603,-5.6735735,81.46708,40.343647,8.327859,-7.6599994,30.274136
123,1.5512393712997437,-3.2117013931274414,78.18180847167969,-0.7167206538637884,1.4925109091252187,96.44325370492686,1.4273881,8.2683325,7.024382,6.8535237,-11.226806,-10.939327,2.8602297,-4.613861,-22.233747,8.482734,-14.953153,4.00158,-5.7441244,-0.1686293,3.3857033,11.886459,10.084816,-99.58184,26.238783,33.54766,-9.40185,-6.461991,16.631699,-5.6753325,81.47667,40.34108,8.354803,-7.6530027,30.280262
124,1.6365832090377808,-3.1694419384002686,78.17627716064453,-0.7202998346042575,1.57553586167335,96.4722122210033,1.3521651,8.348977,6.990883,6.853867,-11.228884,-11.007339,2.7121224,-4.56419,-22.250578,8.687421,-15.09962,3.8929198,-5.7621245,-0.19438821,3.395232,11.881123,10.083744,-99.61651,26.269,33.516018,-9.393264,-6.447931,16.646172,-5.6753783,81.48382,40.330723,8.373871,-7.6508975,30.28396
125,1.7426501512527466,-3.0993642807006836,78.16764068603516,-0.7218505455166458,1.6342983400478948,96.55179769307718,1.2973723,8.430131,6.9060307,6.852706,-11.225774,-11.072376,2.6530395,-4.499265,-22.327515,8.808264,-15.230923,3.7901683,-5.810441,-0.24140747,3.4092886,11.892221,10.085287,-99.679794,26.322529,33.494125,-9.380656,-6.420622,16.690336,-5.6707854,81.48368,40.303528,8.400721,-7.656221,30.27599
126,1.844660758972168,-3.0393776893615723,78.15867614746094,-0.7212163496293231,1.67529080424344,96.66762580383617,1.2565795,8.512474,6.7846546,6.8544016,-11.220197,-11.131273,2.6613965,-4.421531,-22.447624,8.862463,-15.34784,3.6908743,-5.8969617,-0.30746529,3.4312274,11.921578,10.0903425,-99.72607,26.390718,33.492657,-9.37544,-6.398828,16.743662,-5.662612,81.486534,40.269814,8.433081,-7.664037,30.270676
127,1.9565601348876953,-2.985172986984253,78.15043640136719,-0.7233245090506464,1.7165962181078176,96.7850905196255,1.2158054,8.602788,6.6591964,6.8558774,-11.209093,-11.181732,2.69349,-4.3260126,-22.572742,8.865494,-15.442101,3.592421,-5.971324,-0.37231722,3.452083,11.945964,10.112992,-99.78351,26.44402,33.492794,-9.365632,-6.3745,16.803684,-5.6300216,81.47689,40.257183,8.454712,-7.6759353,30.26095
128,2.0553812980651855,-2.927295446395874,78.14336395263672,-0.7331655642358977,1.775739440091583,96.8704651226993,1.1602976,8.707973,6.5603046,6.856279,-11.190586,-11.221056,2.7083476,-4.207495,-22.66585,8.828552,-15.503413,3.492115,-6.021313,-0.4212704,3.4714253,11.960994,10.136815,-99.814766,26.485353,33.50101,-9.35485,-6.3570404,16.839573,-5.5977235,81.47721,40.254612,8.469557,-7.6894855,30.248072
129,2.1644272804260254,-2.8896334171295166,78.1388931274414,-0.7482154988671464,1.8598232245440804,96.91254720839319,1.0820736,8.828725,6.4987745,6.8585734,-11.168735,-11.247803,2.6925602,-4.065868,-22.714602,8.752097,-15.52604,3.3901474,-6.0260515,-0.45435375,3.48396,11.960681,10.174115,-99.827965,26.500307,33.518925,-9.337251,-6.3468165,16.855745,-5.5490885,81.4726,40.27772,8.460637,-7.7069077,30.229176
130,2.2749619483947754,-2.8445510864257812,78.13678741455078,-0.7653576056384136,1.958767169095986,96.9300797260981,0.99117386,8.959734,6.4577465,6.8604345,-11.141756,-11.26286,2.6720724,-3.904246,-22.739565,8.623597,-15.512429,3.2877126,-6.00611,-0.48026803,3.4939733,11.952872,10.208388,-99.82592,26.51228,33.545826,-9.315782,-6.3409185,16.85293,-5.5057693,81.47199,40.300354,8.446351,-7.72682,30.205502
131,2.3798341751098633,-2.792701005935669,78.13719177246094,-0.7857359464648896,2.0643134318543583,96.93329036732807,0.89557487,9.097903,6.4276676,6.862436,-11.105147,-11.266524,2.6621308,-3.7244132,-22.752014,8.441639,-15.468374,3.183526,-5.9711876,-0.49550042,3.5057068,11.93968,10.241475,-99.8197,26.518463,33.573063,-9.294736,-6.3338513,16.84138,-5.464798,81.47324,40.327267,8.430293,-7.746911,30.18077
132,2.5326197147369385,-2.7142577171325684,78.13719177246094,-0.8191491792400765,2.1680407848474035,96.93295251474565,0.8038032,9.248978,6.3969626,6.8646464,-11.054378,-11.259271,2.66992,-3.5235038,-22.76406,8.224189,-15.409915,3.0764234,-5.932035,-0.4884101,3.5246127,11.919427,10.27896,-99.82099,26.511574,33.588135,-9.278461,-6.3206744,16.827145,-5.4187446,81.47687,40.36694,8.421065,-7.765199,30.15898
133,2.666773796081543,-2.654240846633911,78.13103485107422,-0.8628994927042649,2.2606888224201933,96.92198212347608,0.7269721,9.410864,6.3723865,6.8761272,-11.00452,-11.23685,2.6997983,-3.3116355,-22.77071,7.988709,-15.347701,2.9717927,-5.8842907,-0.45257342,3.5533774,11.895225,10.311518,-99.834045,26.491219,33.591187,-9.269546,-6.3007107,16.818588,-5.3803253,81.49092,40.423477,8.217457,-7.8724613,30.190311
134,2.764742612838745,-2.6076598167419434,78.11665344238281,-0.9182381209609204,2.3468153858038736,96.89642809567633,0.6002576,9.596531,6.3481455,7.021995,-11.021415,-11.201074,2.7222812,-3.095459,-22.765732,7.783637,-15.303013,2.8703544,-5.824096,-0.3915795,3.5917304,11.865301,10.335079,-99.85233,26.466257,33.585526,-9.265695,-6.275834,16.806211,-5.3544855,81.515274,40.48593,7.88786,-8.039465,30.256145
135,2.877825975418091,-2.549140453338623,78.09697723388672,-0.9972001301891217,2.4455259124190953,96.876944174652,0.30654377,9.826367,6.2860804,7.477746,-11.17299,-11.155819,2.7267756,-2.8491306,-22.766169,7.582436,-15.261958,2.7592862,-5.7692184,-0.30797008,3.6338825,11.834371,10.342138,-99.8644,26.464155,33.57647,-9.265587,-6.24653,16.783396,-5.3466754,81.529976,40.514755,7.8291936,-8.08047,30.260708
136,2.9953835010528564,-2.5014941692352295,78.07622528076172,-1.117843227141019,2.5730545162298712,96.8820474714122,-0.5898139,10.159828,6.0909424,9.096331,-11.888648,-11.103849,2.6156092,-2.5832267,-22.783268,7.5672345,-15.320223,2.6291602,-5.7287126,-0.20102419,3.6753027,11.793178,10.367085,-99.87934,26.464388,33.555786,-9.258619,-6.205534,16.741503,-5.312432,81.520485,40.524277,8.443911,-7.815816,30.097673
137,3.2008473873138428,-2.4604945182800293,78.03809356689453,-1.287008514477846,2.7426562078514123,96.91065944615896,-1.6683204,10.571734,5.823899,10.943941,-12.68109,-11.034681,2.454506,-2.241278,-22.817581,7.543078,-15.369788,2.4651089,-5.6982527,-0.079869196,3.7187762,11.733647,10.407407,-99.88744,26.494225,33.535133,-9.247036,-6.155543,16.650805,-5.2365885,81.45903,40.4989,10.174833,-7.0564685,29.662088
138,3.349512815475464,-2.4379734992980957,77.99708557128906,-1.497981162472646,2.943489941178482,96.95503485875189,-2.908438,11.048792,5.4895005,13.010481,-13.550338,-10.942574,2.2542682,-1.8390889,-22.86638,7.5217857,-15.419558,2.2770498,-5.673643,0.06330287,3.766141,11.656058,10.455286,-99.895256,26.542366,33.509045,-9.231973,-6.096156,16.5247,-5.1247234,81.357895,40.46217,12.69813,-5.969394,28.995214
139,3.4630165100097656,-2.405841588973999,77.9493408203125,-1.739354746960146,3.1539480506461683,97.02176627288445,-4.2215333,11.553152,5.1062503,15.174865,-14.412582,-10.847825,2.0526419,-1.4019712,-22.942572,7.497338,-15.478973,2.086883,-5.6606393,0.24746358,3.8137064,11.587263,10.509239,-99.90452,26.57945,33.47311,-9.219956,-6.0351157,16.397701,-4.9843802,81.24694,40.453445,15.275969,-4.891648,28.259003
140,3.5807926654815674,-2.3651788234710693,77.89119720458984,-1.998022704904241,3.3529071154635632,97.11806311308874,-5.546738,12.046087,4.689881,17.37762,-15.205191,-10.769932,1.8820267,-0.9614044,-23.05889,7.470385,-15.558924,1.9178201,-5.669659,0.48526433,3.8555605,11.555841,10.5635395,-99.91254,26.58142,33.42148,-9.217811,-5.980033,16.313126,-4.8367186,81.16303,40.492165,17.159842,-4.1255016,27.665827
141,3.6995139122009277,-2.3241565227508545,77.82426452636719,-2.2907162855154337,3.5451087818899203,97.25848060862758,-6.8801713,12.542457,4.2292776,19.601046,-15.955691,-10.721937,1.7418002,-0.5013927,-23.236055,7.4427595,-15.6700325,1.7691284,-5.718183,0.8082132,3.8782573,11.57944,10.612345,-99.91714,26.542454,33.343742,-9.231245,-5.93393,16.297136,-4.7046614,81.1246,40.563293,18.08941,-3.7558215,27.312304
142,3.80696702003479,-2.287229537963867,77.75057220458984,-2.6153534408284274,3.7389114033797157,97.43413978360766,-8.260341,13.050647,3.7185247,21.89381,-16.687569,-10.684586,1.6174012,-0.017859086,-23.460316,7.4108973,-15.801384,1.6316906,-5.7993627,1.1950481,3.889813,11.641075,10.652972,-99.91649,26.482555,33.24551,-9.255582,-5.8918376,16.326797,-4.5982976,81.115295,40.631752,18.481003,-3.6001434,27.096222
143,3.9233267307281494,-2.2055275440216064,77.669677734375,-2.925313438327647,3.9181152113478204,97.6170827792446,-9.666358,13.523783,3.1898437,24.257858,-17.32557,-10.633333,1.5156039,0.4405694,-23.692331,7.3802667,-15.940609,1.5152351,-5.8874288,1.5804825,3.915734,11.721056,10.682682,-99.9064,26.421762,33.14784,-9.282002,-5.8501515,16.371622,-4.522257,81.12248,40.6835,18.601748,-3.539997,26.954306
144,4.033691883087158,-2.1334712505340576,77.59825897216797,-3.175472182851503,4.065676193586168,97.78000794229716,-11.070098,13.919089,2.6782656,26.690039,-17.793571,-10.545591,1.4427238,0.82906437,-23.892801,7.354138,-16.072752,1.4285439,-5.9549656,1.9037973,3.9807663,11.801897,10.692612,-99.88587,26.38538,33.073143,-9.301254,-5.804262,16.404516,-4.49438,81.1299,40.69063,18.716274,-3.4597175,26.820368
145,4.1388163566589355,-2.0569400787353516,77.5383071899414,-3.355302910862789,4.170735613039511,97.91973167287154,-12.453926,14.22454,2.195393,29.197227,-18.055271,-10.471069,1.4060886,1.1344528,-24.051958,7.333735,-16.196388,1.3835199,-5.9974046,2.1498497,4.0985303,11.884606,10.697958,-99.84555,26.34889,33.01521,-9.3040695,-5.7581015,16.41416,-4.4735293,81.1342,40.687187,18.844625,-3.3315947,26.693756
146,4.225806713104248,-2.0007405281066895,77.48541259765625,-3.4908875604365917,4.243830565880925,98.05020827158137,-13.831104,14.466249,1.7257355,31.780264,-18.157879,-10.4021225,1.3998694,1.382938,-24.190243,7.3156633,-16.317507,1.371267,-6.03124,2.353381,4.2529736,11.980093,10.698093,-99.784424,26.306768,32.97007,-9.298271,-5.713986,16.416098,-4.459231,81.144966,40.68302,18.861206,-3.2169452,26.606194
147,4.320208549499512,-1.9492145776748657,77.43458557128906,-3.59086833821833,4.299775559381862,98.16958170136614,-15.220647,14.659223,1.265195,34.42949,-18.14687,-10.232224,1.4112195,1.5896333,-24.3125,7.2987576,-16.434256,1.3689234,-6.0414505,2.522126,4.420425,12.069776,10.69453,-99.73824,26.28781,32.94803,-9.296225,-5.661043,16.410753,-4.454301,81.15745,40.684666,18.822126,-3.1361856,26.533981
148,4.417786121368408,-1.890533208847046,77.39567565917969,-3.6684882805840573,4.352986157898584,98.27593444891218,-16.638477,14.817806,0.81099856,37.12654,-18.064331,-9.855177,1.4301894,1.7706149,-24.424006,7.2792335,-16.544483,1.3537798,-6.0359964,2.6620767,4.5799074,12.142198,10.687921,-99.70533,26.317856,32.970226,-9.317477,-5.5997243,16.39218,-4.4525056,81.18479,40.71609,18.78251,-3.111859,26.456541
149,4.50999641418457,-1.8249355554580688,77.36788940429688,-3.725061070904039,4.413183585869415,98.37087149407667,-18.116425,14.942842,0.34455845,39.919506,-17.862091,-9.228949,1.4459465,1.9311414,-24.529318,7.2551794,-16.642782,1.3144296,-6.0170865,2.777543,4.724702,12.188479,10.676522,-99.69705,26.417643,33.064186,-9.376049,-5.5177875,16.345236,-4.45239,81.243225,40.798103,18.746557,-3.1700227,26.372444
150,4.614912509918213,-1.7489906549453735,77.34768676757812,-3.756878781686722,4.47051332773328,98.45440150142021,-19.62964,15.029414,-0.11683576,42.787575,-17.531338,-8.415857,1.4668936,2.0636537,-24.624569,7.228937,-16.73224,1.2643379,-5.997294,2.8604684,4.8634796,12.225948,10.650198,-99.7001,26.583546,33.208828,-9.45535,-5.4131265,16.277498,-4.4538817,81.3543,40.918797,18.700014,-3.2966363,26.279316
151,4.706108570098877,-1.667256474494934,77.33484649658203,-3.7607283512462084,4.509108545498863,98.52354331416528,-21.109373,15.085742,-0.5251564,45.612225,-17.176943,-7.465585,1.5133001,2.1650424,-24.702711,7.2004066,-16.820702,1.2186297,-5.946418,2.9161844,5.0082383,12.254369,10.621757,-99.71128,26.761492,33.36171,-9.536551,-5.3166757,16.215746,-4.4559608,81.43747,41.044876,18.635191,-3.4410462,26.19184
152,4.7984771728515625,-1.5703061819076538,77.3252182006836,-3.735168902371529,4.5140992366273895,98.57746613633097,-22.491875,15.12143,-0.83930427,48.284122,-16.909615,-6.426774,1.60619,2.2326999,-24.7588,7.169406,-16.91807,1.192485,-5.899271,2.9306953,5.1670575,12.310161,10.556698,-99.67593,26.97038,33.483444,-9.601199,-5.246182,16.173813,-4.459511,81.517334,41.152325,18.586872,-3.5654292,26.09603
153,4.884749889373779,-1.4703807830810547,77.31719970703125,-3.6709664479414625,4.462679031636555,98.61910389600823,-23.772238,15.144427,-1.045058,50.85514,-16.75637,-5.195333,1.7717375,2.2585323,-24.792685,7.1366053,-17.029856,1.1959751,-5.8297915,2.9006937,5.3607984,12.376879,10.486743,-99.61405,27.173084,33.555614,-9.64379,-5.206958,16.161045,-4.460581,81.54017,41.23706,18.543621,-3.6607969,25.992744
154,4.973944664001465,-1.3557298183441162,77.31474304199219,-3.5719914695851505,4.369099805391324,98.64830531430955,-24.981153,15.157152,-1.1650888,53.3616,-16.666962,-3.780664,1.9932241,2.247834,-24.806957,7.099514,-17.148857,1.2185097,-5.740411,2.829857,5.577068,12.448656,10.432902,-99.53602,27.363197,33.603485,-9.673415,-5.1872883,16.167444,-4.4579563,81.53112,41.315044,18.501606,-3.749781,25.882008
155,5.073589324951172,-1.2206926345825195,77.31828308105469,-3.453307255258532,4.273282147165094,98.65698220638552,-26.110146,15.153789,-1.2160848,55.68137,-16.638193,-2.4082673,2.2236264,2.2129958,-24.798004,7.058559,-17.267744,1.2447495,-5.6397305,2.7366672,5.7817554,12.534542,10.362792,-99.425026,27.550274,33.647167,-9.695172,-5.19568,16.188158,-4.4498396,81.51304,41.3863,18.457043,-3.8268442,25.78343
156,5.1482157707214355,-1.088477611541748,77.322998046875,-3.328551143960065,4.214902626055484,98.63770249946026,-27.153864,15.1233225,-1.2189785,57.69809,-16.66244,-1.3129336,2.4144166,2.1684046,-24.763372,7.0182724,-17.376833,1.2591783,-5.5186276,2.644831,5.9378147,12.633306,10.299365,-99.28711,27.686865,33.705086,-9.708899,-5.2388296,16.229101,-4.4394236,81.48633,41.44103,18.39883,-3.8855677,25.717306
157,5.214443683624268,-0.9449924230575562,77.33219909667969,-3.199695733731899,4.203431099740653,98.58410465053673,-28.09873,15.077071,-1.1387489,59.398594,-16.784399,-0.58259004,2.5536425,2.1128824,-24.696426,6.9792776,-17.471537,1.2522949,-5.343445,2.5625894,6.0242867,12.745348,10.284263,-99.15844,27.715004,33.76117,-9.693239,-5.3131046,16.310795,-4.436365,81.43357,41.456596,18.304789,-3.922992,25.691654
158,5.281652927398682,-0.7900750041007996,77.343994140625,-3.058826494826196,4.21718988656394,98.50238788873062,-28.954338,15.0102005,-0.9816157,60.852646,-16.992365,-0.09549936,2.6681664,2.0406454,-24.601048,6.939944,-17.557533,1.2343458,-5.2005057,2.4615457,6.0856247,12.891814,10.240638,-98.87674,27.72669,33.85633,-9.693498,-5.464398,16.392086,-4.426653,81.39194,41.46752,18.173016,-3.9353948,25.721262
159,5.354242324829102,-0.6216202974319458,77.35311126708984,-2.9028446335881424,4.253063598149429,98.40356537928945,-29.751745,14.875617,-0.8214592,62.064354,-17.193249,0.22285546,2.757415,1.9478577,-24.488846,6.910374,-17.647045,1.2199855,-5.025244,2.3536105,6.1112614,13.031225,10.212649,-98.64446,27.703108,33.947563,-9.681148,-5.6141725,16.492188,-4.4198904,81.34291,41.462746,18.076025,-3.9407265,25.746508
160,5.415757656097412,-0.4547887444496155,77.36190795898438,-2.7350273476759615,4.3069831001591945,98.29843881458501,-30.517168,14.627763,-0.72995275,63.024918,-17.28771,0.44746163,2.8308644,1.8394067,-24.37178,6.880447,-17.74246,1.2240598,-4.8454995,2.2344477,6.120348,13.145984,10.197771,-98.45838,27.670853,34.05492,-9.681532,-5.7541337,16.585564,-4.415388,81.302505,41.455395,18.064566,-3.9442945,25.749016
161,5.476597785949707,-0.2756204307079315,77.37041473388672,-2.551287987419072,4.384078960015928,98.18248596743967,-31.262901,14.243554,-0.7204386,63.73644,-17.25055,0.60842335,2.8836298,1.7133731,-24.244661,6.8444347,-17.840672,1.247097,-4.6660376,2.098192,6.106243,13.234963,10.189091,-98.305916,27.636883,34.203556,-9.706152,-5.892145,16.666285,-4.4114313,81.28705,41.449368,18.182465,-3.9438484,25.720673
162,5.533289432525635,-0.0977417603135109,77.38052368164062,-2.364189464680087,4.482578918338096,98.05460471547188,-31.976582,13.755726,-0.76536953,64.203285,-17.131954,0.6524999,2.895921,1.5717398,-24.107964,6.8570986,-17.969662,1.2812403,-4.494738,1.9551345,6.069534,13.314133,10.183884,-98.1547,27.592867,34.38846,-9.748534,-6.0404606,16.739895,-4.40637,81.29791,41.444267,18.39195,-3.937003,25.676783
163,5.5847039222717285,0.09729304164648056,77.3927230834961,-2.1730549431695545,4.593184783830859,97.92562266373596,-32.637653,13.186475,-0.8481268,64.40087,-16.939562,0.5381177,2.9006202,1.4225419,-23.971373,6.8694177,-18.102682,1.331501,-4.3087864,1.8150791,6.0252185,13.370642,10.184505,-98.06856,27.544367,34.549873,-9.786507,-6.168749,16.81499,-4.4040275,81.29173,41.433643,18.622835,-3.9307182,25.623707
164,5.635443210601807,0.29672613739967346,77.40164184570312,-1.9890081513254478,4.704073677169135,97.80813981746277,-33.22712,12.567131,-0.9652216,64.31054,-16.685383,0.22346836,2.91414,1.2764195,-23.849024,6.8797793,-18.240685,1.4017807,-4.150791,1.6816438,5.999522,13.412196,10.186799,-98.002014,27.501163,34.657585,-9.818269,-6.275206,16.880827,-4.4020996,81.28431,41.42627,18.80912,-3.9314191,25.572815
165,5.676755905151367,0.495157390832901,77.40803527832031,-1.8072464855885553,4.81531613420462,97.70321400321019,-33.72947,11.88051,-1.1249472,63.891136,-16.366013,-0.36739475,2.937296,1.126803,-23.743553,6.889576,-18.388554,1.508941,-4.030189,1.5485005,5.99492,13.440313,10.19042,-97.94422,27.46475,34.710598,-9.847676,-6.357843,16.932215,-4.399813,81.2781,41.427135,18.940958,-3.941454,25.52631
166,5.721737384796143,0.7032389044761658,77.41141510009766,-1.6256067017615083,4.9315674482267156,97.60438101655042,-34.15559,11.124291,-1.3327819,63.161243,-15.983832,-1.187106,2.962758,0.97178155,-23.647726,6.8987556,-18.543812,1.6455786,-3.9348116,1.4135575,6.001518,13.452891,10.196566,-97.90018,27.431158,34.72675,-9.876997,-6.4227104,16.971943,-4.396254,81.27513,41.434486,19.050953,-3.9573562,25.478733
167,5.757911682128906,0.9085047841072083,77.40863037109375,-1.454620711799013,5.048381472382599,97.51282095190068,-34.524105,10.349623,-1.5777155,62.189285,-15.556621,-2.0902681,2.9952936,0.82680285,-23.55998,6.906637,-18.700884,1.7796271,-3.856582,1.2904205,6.020216,13.45327,10.2074175,-97.87602,27.3979,34.70272,-9.90079,-6.476638,17.004786,-4.390012,81.269455,41.445286,19.1378,-3.9747553,25.43456
168,5.7955002784729,1.1285550594329834,77.40049743652344,-1.3068977887018791,5.161550429397076,97.43027974579077,-34.853745,9.606069,-1.8474773,61.0446,-15.097576,-2.9327228,3.0379798,0.7068457,-23.47947,6.912708,-18.852365,1.8791664,-3.7923684,1.191594,6.051346,13.44882,10.214283,-97.87035,27.372599,34.638123,-9.914757,-6.5276313,17.037565,-4.3859773,81.257385,41.453552,19.197298,-3.9890983,25.398739
169,5.823594093322754,1.346190333366394,77.38831329345703,-1.1885343223924287,5.269927319408801,97.3566074728922,-35.14806,8.887296,-2.1664383,59.722214,-14.594368,-3.7118375,3.0901706,0.6191005,-23.404747,6.919362,-18.99362,1.9243634,-3.7499235,1.1238575,6.0984755,13.443543,10.21795,-97.86682,27.351965,34.519615,-9.918962,-6.589488,17.06945,-4.3837905,81.24021,41.46231,19.219646,-3.9983938,25.378668
170,5.852471828460693,1.5723052024841309,77.37310791015625,-1.0907710354445885,5.375788869881649,97.29326574197707,-35.392593,8.177384,-2.5382931,58.18553,-14.042632,-4.486357,3.150508,0.5529843,-23.339336,6.92542,-19.12851,1.936539,-3.7069423,1.0830026,6.1722836,13.408346,10.232526,-97.87909,27.324566,34.34781,-9.921491,-6.6660438,17.092012,-4.375811,81.16631,41.47269,19.18934,-3.9995763,25.38459
171,5.879998207092285,1.8069496154785156,77.35205078125,-1.00702136482068,5.478217508889717,97.2353239748788,-35.581135,7.519104,-2.9137027,56.467884,-13.469352,-5.210765,3.2220426,0.5024422,-23.279215,6.930829,-19.267765,1.9439781,-3.6731884,1.0569824,6.252357,13.371444,10.252158,-97.91898,27.297356,34.16309,-9.916352,-6.7225623,17.111813,-4.365117,81.0968,41.48523,19.150206,-4.0007005,25.38998
172,5.9012346267700195,2.0425589084625244,77.32613372802734,-0.9309888726676998,5.57677471545406,97.18153822393526,-35.70819,6.9465237,-3.2401757,54.59765,-12.894521,-5.837619,3.307248,0.45838347,-23.224407,6.9351354,-19.421614,1.9756528,-3.6539047,1.0325627,6.339689,13.330349,10.272047,-97.97505,27.275225,34.00505,-9.91177,-6.7479167,17.11501,-4.3542595,81.05173,41.49855,19.127571,-4.003216,25.386677
173,5.90886116027832,2.29484486579895,77.29525756835938,-0.8607871689824935,5.670043087494294,97.13383291027165,-35.765453,6.4589057,-3.5117881,52.551525,-12.316526,-6.370334,3.40782,0.4201984,-23.176477,6.9380164,-19.59333,2.0412765,-3.6750987,1.0042396,6.4371953,13.294816,10.278224,-98.01498,27.268322,33.902546,-9.915208,-6.748107,17.097637,-4.3508215,81.052246,41.507694,19.125492,-4.00288,25.374329
174,5.921310901641846,2.5418617725372314,77.25782775878906,-0.7996051878696824,5.758257923753968,97.0913549166829,-35.752666,6.04051,-3.7507896,50.31431,-11.719705,-6.8281255,3.5222523,0.39181,-23.13448,6.93967,-19.777134,2.1250453,-3.6824605,0.990371,6.550493,13.234795,10.289613,-98.12394,27.256672,33.806107,-9.904755,-6.7056246,17.067318,-4.344492,81.04464,41.51653,19.13197,-4.0031676,25.349482
175,5.9459710121154785,2.806522846221924,77.21350860595703,-0.7476423208971217,5.84393145972375,97.05004314886442,-35.68369,5.698758,-3.9465382,47.93628,-11.100459,-7.193391,3.6485734,0.37291613,-23.09593,6.939096,-19.969069,2.2175336,-3.6969252,0.98188573,6.6649656,13.175051,10.301509,-98.24102,27.255283,33.70954,-9.899289,-6.644455,17.029518,-4.337398,81.04491,41.523697,19.137587,-4.005767,25.327715
176,5.958155632019043,3.069913387298584,77.16836547851562,-0.7042203586365486,5.929252810783418,97.00484260759141,-35.56923,5.438756,-4.0848374,45.461094,-10.457124,-7.4503436,3.7824962,0.36125457,-23.057182,6.9410863,-20.168419,2.309313,-3.7169976,0.9752708,6.7758374,13.116695,10.309425,-98.35091,27.273323,33.586586,-9.90163,-6.5671897,16.982191,-4.332306,81.06433,41.531544,19.144075,-4.0184383,25.309818
177,5.972833156585693,3.3443212509155273,77.12205505371094,-0.6724881471120784,6.013158857571841,96.9576784178198,-35.40951,5.2708817,-4.152666,42.87935,-9.777039,-7.578465,3.928138,0.36324844,-23.021574,6.9398255,-20.371918,2.3975415,-3.7449887,0.97348195,6.886267,13.058646,10.312936,-98.45677,27.320961,33.421215,-9.920315,-6.461921,16.922695,-4.3296795,81.10378,41.537014,19.152082,-4.047239,25.298008
178,5.970407962799072,3.62638783454895,77.072021484375,-0.6525314837742425,6.094554993453921,96.90876867562761,-35.193974,5.1810546,-4.152002,40.164555,-9.060113,-7.5987797,4.0846095,0.37791282,-22.988317,6.938844,-20.582691,2.4873974,-3.767181,0.980834,6.9961753,12.994771,10.314303,-98.59126,27.389317,33.21949,-9.942667,-6.319852,16.856993,-4.327884,81.154854,41.540886,19.164986,-4.0895796,25.283602
179,5.965712547302246,3.9160706996917725,77.01438903808594,-0.6361262546320635,6.173893089826456,96.85151398875475,-34.917908,5.139267,-4.094047,37.337475,-8.324057,-7.5567927,4.25137,0.39541122,-22.948858,6.937004,-20.799555,2.5813563,-3.786521,0.9896868,7.1028395,12.934858,10.313076,-98.717285,27.462784,33.02057,-9.964578,-6.180999,16.786453,-4.3270574,81.21156,41.542393,19.171907,-4.1304417,25.275087
180,5.976503372192383,4.229689598083496,76.94628143310547,-0.6186024859755048,6.252143525563461,96.77836110340746,-34.576153,5.120716,-3.9922006,34.415768,-7.5855017,-7.4953375,4.426555,0.406769,-22.893528,6.933623,-21.021082,2.6813354,-3.7955136,0.9944697,7.2001495,12.883847,10.310099,-98.81963,27.524973,32.851315,-9.972705,-6.072488,16.71546,-4.326908,81.270744,41.5431,19.171333,-4.1585817,25.272205
181,5.973292827606201,4.547392845153809,76.88093566894531,-0.5992997587104443,6.324101633811455,96.68593642443857,-34.148182,5.133561,-3.840765,31.359282,-6.842461,-7.4012003,4.6143193,0.41173637,-22.818142,6.93249,-21.251764,2.7879746,-3.790219,0.99733603,7.2901483,12.845919,10.302854,-98.90863,27.575022,32.70685,-9.955324,-5.9997406,16.645927,-4.3271174,81.342064,41.543133,19.161612,-4.1692376,25.274378
182,5.960038661956787,4.866904258728027,76.81586456298828,-0.5857994878865473,6.3869631533341575,96.57410288650958,-33.629105,5.1886864,-3.6315944,28.15344,-6.080034,-7.264093,4.819341,0.4206112,-22.723816,6.9293027,-21.48893,2.8988707,-3.776694,1.0034878,7.3846073,12.81552,10.297411,-98.960785,27.61405,32.586414,-9.931428,-5.96243,16.566986,-4.327363,81.41374,41.544086,19.13689,-4.1649604,25.29315
183,5.948215007781982,5.199073314666748,76.74484252929688,-0.5833121717633177,6.445032992639252,96.43887662223938,-33.03657,5.2709427,-3.3774297,24.851805,-5.292692,-7.127345,5.037083,0.4390188,-22.608707,6.9237776,-21.729721,3.0110285,-3.7448072,1.0156262,7.473133,12.793845,10.28948,-98.99738,27.646,32.49609,-9.902787,-5.937233,16.494055,-4.327827,81.48765,41.5439,19.10869,-4.1579585,25.309984
184,5.937344074249268,5.546596050262451,76.66875457763672,-0.5974348931772019,6.501494532029849,96.27644659229802,-32.388718,5.369896,-3.0941331,21.508793,-4.474271,-7.0322537,5.262557,0.4731521,-22.47079,6.916797,-21.970282,3.1216786,-3.6898413,1.035247,7.5538983,12.779806,10.2819,-99.01452,27.673243,32.448887,-9.878235,-5.9068522,16.428835,-4.3283024,81.55609,41.54082,19.091652,-4.1588864,25.312544
185,5.925285816192627,5.903314590454102,76.58651733398438,-0.6345935829814547,6.554826182708094,96.08192885579115,-31.671589,5.501772,-2.7812133,18.089516,-3.6150649,-6.978537,5.497423,0.53073543,-22.306858,6.909017,-22.21101,3.230927,-3.5997038,1.0689436,7.624146,12.775358,10.274984,-99.008995,27.692467,32.460705,-9.864212,-5.8766646,16.380297,-4.3286734,81.6037,41.532066,19.075005,-4.1664166,25.306211
186,5.906418800354004,6.2698163986206055,76.4957046508789,-0.703169525488261,6.593423030837228,95.84549793578002,-30.854452,5.6858935,-2.4271753,14.547025,-2.7068417,-6.9511566,5.755548,0.6227748,-22.105932,6.895814,-22.452074,3.3373213,-3.470392,1.1252867,7.698678,12.780808,10.2681,-98.98113,27.703667,32.52099,-9.853407,-5.849653,16.33989,-4.3290553,81.64385,41.521603,19.062033,-4.17792,25.291376
187,5.877484321594238,6.644145488739014,76.40003967285156,-0.8117057827194942,6.610256421675831,95.55726242876729,-29.92914,5.91686,-2.0299802,10.902871,-1.7297019,-6.9644923,6.0400314,0.7538983,-21.855228,6.8807516,-22.694057,3.4363227,-3.290236,1.2155166,7.7894015,12.787366,10.261917,-98.94324,27.70179,32.60635,-9.842898,-5.829195,16.308622,-4.32974,81.66625,41.510952,19.043552,-4.1898274,25.272629
188,5.845810890197754,7.0288238525390625,76.29499816894531,-0.9527522086058726,6.60515284437213,95.2190470178335,-28.786528,6.176242,-1.5784957,6.947043,-0.54068047,-7.0293455,6.347473,0.915484,-21.553188,6.86478,-22.934258,3.5259638,-3.0791028,1.334715,7.9094815,12.78702,10.252923,-98.88044,27.690413,32.700645,-9.835588,-5.8212605,16.272327,-4.332107,81.679474,41.507706,19.01772,-4.2004704,25.254206
189,5.810557842254639,7.4148759841918945,76.18814086914062,-1.1125024321576407,6.597798119080379,94.83009086884469,-29.375809,6.3940296,-1.2944582,6.7322845,-1.2869005,-7.0820155,6.647984,1.0856215,-21.196104,6.8549213,-23.170269,3.6039906,-2.8255699,1.4781275,8.04021,12.771204,10.240861,-98.80547,27.663961,32.800846,-9.826567,-5.8253217,16.232656,-4.3375616,81.663414,41.510445,18.980604,-4.210683,25.234491
190,5.754594802856445,7.788866996765137,76.0859375,-1.2761766008544528,6.596716714643527,94.41027780370207,-29.986095,6.625084,-1.0004547,6.612569,-2.0499427,-7.140622,6.937983,1.2496004,-20.805378,6.8480377,-23.402195,3.676426,-2.5488203,1.6280737,8.170256,12.744403,10.21762,-98.7108,27.636343,32.917828,-9.821347,-5.8417077,16.189766,-4.3519464,81.61811,41.508587,18.932777,-4.2190957,25.21699
191,5.712997913360596,8.198504447937012,75.97607421875,-1.4420875034415477,6.589463868417555,93.99244869311245,-30.571638,6.8481846,-0.67777365,6.541275,-2.7780085,-7.2914314,7.250183,1.4123476,-20.415956,6.828064,-23.629574,3.7543776,-2.2664514,1.7798424,8.299388,12.716748,10.184985,-98.63504,27.617485,33.031696,-9.814412,-5.854179,16.161253,-4.376399,81.55522,41.493298,18.876661,-4.224545,25.199997
192,5.667150974273682,8.620092391967773,75.86833953857422,-1.5704655225553232,6.573715418498651,93.62134467506444,-31.08157,7.0004654,-0.28858566,6.446076,-3.4079196,-7.6088037,7.580281,1.5222956,-20.074764,6.837282,-23.878685,3.8571277,-2.0178545,1.8866843,8.418304,12.698011,10.1644535,-98.5931,27.599806,33.129124,-9.806515,-5.8547416,16.155058,-4.393652,81.494064,41.474335,18.817327,-4.2258763,25.187065
193,5.619182586669922,9.041579246520996,75.7522964477539,-1.6960056585959575,6.526417596261824,93.28920425397686,-31.52306,7.1211066,0.17634186,6.3814526,-3.9607198,-8.2009,7.980482,1.6309843,-19.774403,6.8260427,-24.137756,3.9865623,-1.7949075,1.976987,8.547063,12.6931095,10.144787,-98.585495,27.598957,33.2056,-9.801313,-5.8484735,16.183186,-4.411799,81.42543,41.432682,18.739672,-4.216242,25.18537
194,5.570545196533203,9.47434139251709,75.63227081298828,-1.8142382270495485,6.465601880653445,92.98377424115081,-31.91645,7.221708,0.69794077,6.331258,-4.450038,-8.989436,8.417213,1.7288896,-19.501627,6.811424,-24.40802,4.136422,-1.5933865,2.0522168,8.672819,12.699927,10.130507,-98.598694,27.602655,33.271473,-9.796533,-5.8375387,16.233461,-4.426156,81.356544,41.38336,18.65475,-4.20081,25.18814
195,5.518136024475098,9.922022819519043,75.50852966308594,-1.9026414846416444,6.4246879133094605,92.72196385508667,-32.29611,7.27409,1.2317888,6.313785,-4.898761,-9.78468,8.850701,1.7791101,-19.275013,6.800386,-24.675842,4.303408,-1.4093829,2.0996704,8.776219,12.696708,10.11144,-98.647606,27.622894,33.32708,-9.793486,-5.813729,16.292908,-4.4469147,81.26226,41.320404,18.564543,-4.181699,25.198149
196,5.458042621612549,10.413863182067871,75.38134765625,-1.9709195280397338,6.403450512529924,92.48693113120989,-32.6486,7.306751,1.7383312,6.3156066,-5.308365,-10.417089,9.268306,1.7988523,-19.076448,6.789464,-24.918034,4.4621015,-1.261649,2.1274652,8.865607,12.691665,10.099707,-98.68882,27.630793,33.389305,-9.789132,-5.7748685,16.333818,-4.46026,81.20773,41.28566,18.508934,-4.1734734,25.195604
197,5.392199993133545,10.897481918334961,75.2629165649414,-2.026899784290464,6.396130287386701,92.27603878005279,-32.962036,7.3150554,2.2150044,6.3217025,-5.6763177,-10.873939,9.673567,1.7989593,-18.90291,6.782637,-25.142479,4.5984235,-1.1387293,2.1484153,8.948707,12.682451,10.0918255,-98.73008,27.62921,33.47651,-9.78146,-5.713383,16.35868,-4.469256,81.17778,41.278988,18.485308,-4.1775823,25.182354
198,5.325355529785156,11.362578392028809,75.1552963256836,-2.072910049781537,6.388016928369169,92.08643704619169,-33.21835,7.2981343,2.6868753,6.3205905,-5.992132,-11.241142,10.086634,1.7817245,-18.751614,6.776576,-25.35401,4.7231903,-1.0007923,2.1674058,9.035913,12.658991,10.076198,-98.82589,27.63977,33.5653,-9.766048,-5.6230173,16.387508,-4.487065,81.12513,41.26787,18.473274,-4.1867423,25.16232
199,5.254424571990967,11.827661514282227,75.0490493774414,-2.1155006733844806,6.393190939206159,91.91169215893085,-33.430744,7.2775917,3.143166,6.3221016,-6.2443066,-11.497457,10.48992,1.75625,-18.617628,6.769363,-25.534258,4.8513966,-0.89623135,2.1809037,9.113121,12.637478,10.065172,-98.89345,27.638578,33.64245,-9.759237,-5.5402875,16.398672,-4.499432,81.10859,41.27745,18.480026,-4.197022,25.141699
200,5.16768217086792,12.284246444702148,74.9493179321289,-2.156298204682318,6.4145737945116545,91.74538098190196,-33.59172,7.2671895,3.5790443,6.32665,-6.4153905,-11.623392,10.878937,1.7247521,-18.496006,6.759518,-25.666489,4.999794,-0.8003317,2.194695,9.177573,12.612513,10.054096,-98.95361,27.634644,33.672073,-9.764298,-5.4763994,16.391817,-4.511558,81.10923,41.286743,18.497564,-4.199948,25.126236
201,5.093411922454834,12.769180297851562,74.84638977050781,-2.2170256124089915,6.448152039067811,91.5713772150299,-33.68795,7.2933693,4.033059,6.3252945,-6.526682,-11.625994,11.247556,1.7091969,-18.372032,6.7616205,-25.759329,5.168462,-0.68134606,2.2320957,9.2387,12.569055,10.037207,-99.04131,27.6368,33.611923,-9.779364,-5.41205,16.367075,-4.5296645,81.12763,41.284706,18.531452,-4.1978292,25.104803
202,5.0064473152160645,13.225370407104492,74.75579833984375,-2.2933167190352917,6.492478974338467,91.39830423774704,-33.729046,7.335126,4.4919076,6.3311925,-6.5804114,-11.51753,11.601035,1.7083093,-18.253654,6.7717943,-25.817614,5.3491583,-0.57665664,2.2857294,9.295733,12.524795,10.026136,-99.09712,27.626009,33.511986,-9.817721,-5.3711877,16.319569,-4.541332,81.16856,41.30058,18.572012,-4.188795,25.094992
203,4.917295455932617,13.695384979248047,74.67047882080078,-2.340636618619364,6.556805699752969,91.25128814860842,-33.714775,7.323726,4.89085,6.3296375,-6.5112915,-11.281651,11.949958,1.6731669,-18.16521,6.76335,-25.82206,5.548066,-0.5043785,2.311867,9.330068,12.480208,10.0057535,-99.15232,27.617735,33.39287,-9.8483515,-5.339845,16.257908,-4.5622163,81.24226,41.310814,18.638205,-4.1794825,25.077637
204,4.834609031677246,14.190353393554688,74.59165954589844,-2.3204585334505063,6.653300648895508,91.15459547208098,-33.662895,7.2006555,5.158603,6.3277693,-6.262369,-10.903665,12.280705,1.5563406,-18.131468,6.7528977,-25.774843,5.7702055,-0.4917841,2.2589605,9.324311,12.441938,9.981367,-99.17928,27.621733,33.297565,-9.861666,-5.3282943,16.18345,-4.586423,81.33827,41.301266,18.734184,-4.1652083,25.05191
205,4.7617316246032715,14.704340934753418,74.52503204345703,-2.2140151929010363,6.79279993297051,91.1321419825699,-33.559948,6.9351296,5.259823,6.321529,-5.827577,-10.308885,12.588019,1.340796,-18.187706,6.7412496,-25.687052,6.0206614,-0.5437362,2.1227236,9.269297,12.407888,9.963168,-99.18476,27.613298,33.23821,-9.854643,-5.357622,16.098356,-4.6040196,81.42224,41.28844,18.8519,-4.1349587,25.033003
206,4.684965133666992,15.215118408203125,74.47691345214844,-2.046870459137892,6.973764619115067,91.16780428653698,-33.417557,6.567645,5.2338467,6.321291,-5.240347,-9.526858,12.86418,1.0563073,-18.315216,6.738323,-25.562956,6.2948503,-0.7176231,1.8987269,9.174982,12.397501,9.923725,-99.117,27.632963,33.19259,-9.8256855,-5.3963475,15.9754715,-4.640479,81.63401,41.24614,19.0524,-4.104643,24.97624
207,4.575955390930176,15.718500137329102,74.48421478271484,-1.8197780993660764,7.160819486840171,91.2228385968743,-33.226543,6.125994,5.148516,6.3057704,-4.483901,-8.695305,13.145668,0.7010558,-18.455357,6.730732,-25.373497,6.5906305,-0.87174046,1.6277813,9.063565,12.362125,9.90143,-99.075226,27.634813,33.15136,-9.795129,-5.45796,15.851479,-4.659696,81.77149,41.216255,19.222887,-4.0745296,24.943222
208,4.460628509521484,16.23758316040039,74.50633239746094,-1.548901606836842,7.331614169133384,91.26120332200456,-33.009594,5.6457877,5.059496,6.280906,-3.5494902,-7.956119,13.44391,0.28515652,-18.552204,6.7287655,-25.10199,6.9031224,-1.0485262,1.2892288,8.951148,12.32277,9.873551,-98.99493,27.663948,33.119396,-9.773878,-5.5178566,15.70919,-4.680684,81.94788,41.184174,19.390255,-4.069567,24.906927
209,4.35145902633667,16.775928497314453,74.53646087646484,-1.2115136478745654,7.49080513271902,91.27233344853272,-32.77781,5.0963063,4.9348097,6.24224,-2.3325684,-7.298598,13.753707,-0.22248338,-18.592972,6.7304263,-24.759726,7.25415,-1.1789856,0.8826664,8.841428,12.247746,9.85495,-98.93074,27.695793,33.069324,-9.760402,-5.589164,15.550349,-4.691605,82.07641,41.15361,19.516056,-4.0828223,24.891592
210,4.2385687828063965,17.339628219604492,74.58930206298828,-0.8061531322231948,7.643927673012815,91.28035764381224,-32.514194,4.4711213,4.763265,6.1904364,-0.8710104,-6.6630855,14.075812,-0.8175307,-18.615454,6.7360682,-24.354002,7.6422215,-1.336674,0.39027247,8.728862,12.165651,9.834323,-98.826385,27.745672,33.0189,-9.753549,-5.674483,15.36325,-4.6986876,82.23614,41.12163,19.643156,-4.1126437,24.879486
211,4.119812488555908,17.912656784057617,74.65974426269531,-0.3929959101678695,7.771969049910777,91.29156457383328,-32.20146,3.8527353,4.6241684,6.139633,0.62769026,-6.1198525,14.415771,-1.4293607,-18.629576,6.789277,-23.880796,8.023906,-1.4804474,-0.11074613,8.621443,12.05958,9.820987,-98.75702,27.802883,32.98478,-9.745272,-5.7424893,15.183452,-4.698848,82.35067,41.100044,19.748583,-4.1629634,24.869228
212,3.9845495223999023,18.49903106689453,74.73091125488281,-0.023519493650502786,7.845515363435632,91.33761657824301,-31.824158,3.3018103,4.5718317,6.1079283,1.9620471,-5.7376676,14.756924,-2.0026422,-18.666574,7.0175676,-23.385052,8.354941,-1.6703583,-0.5725531,8.536234,11.940047,9.804232,-98.70955,27.881262,32.997005,-9.736407,-5.7681117,15.025893,-4.6921077,82.45373,41.1082,19.847424,-4.246094,24.842613
213,3.85868763923645,19.103906631469727,74.80195617675781,0.31211359898637225,7.863787098020949,91.39056805783264,-31.367697,2.8386626,4.666863,6.0900474,3.136714,-5.535291,15.200214,-2.5219967,-18.70159,7.189239,-22.740322,8.648373,-1.8412782,-1.0063125,8.465693,11.796575,9.788845,-98.72567,27.99155,33.05613,-9.725996,-5.744142,14.897704,-4.676011,82.49028,41.145958,19.957531,-4.3718047,24.796673
214,3.7231478691101074,19.715801239013672,74.88691711425781,0.6310952960597347,7.838595341787292,91.44811679909328,-30.842588,2.4269855,4.852446,6.0807323,4.2395597,-5.4730024,15.715518,-3.0192666,-18.733055,7.3380227,-21.978018,8.918205,-1.9950238,-1.427333,8.406155,11.62685,9.776238,-98.79524,28.125341,33.145473,-9.713877,-5.683869,14.7938595,-4.6479125,82.46833,41.207737,20.063156,-4.5319967,24.739006
215,3.5857036113739014,20.331789016723633,74.98646545410156,0.9215529085782656,7.777364295905751,91.51752118778957,-30.252811,2.0470634,5.0813026,6.059583,5.1968913,-5.525591,16.275156,-3.482864,-18.77134,7.488746,-21.091084,9.117018,-2.1449466,-1.8126297,8.360713,11.4383745,9.767407,-98.92586,28.258047,33.266136,-9.693265,-5.5814233,14.7142315,-4.6134243,82.40843,41.28906,20.119755,-4.702972,24.68502
216,3.4471652507781982,20.95668601989746,75.09129333496094,1.1407033514739495,7.690817586357346,91.59062998907513,-29.639402,1.7289426,5.2943277,6.0779963,5.905173,-5.674452,16.85039,-3.8584378,-18.806715,7.6505857,-20.064095,9.190219,-2.2692218,-2.0986397,8.329751,11.232224,9.756845,-99.155304,28.368294,33.411087,-9.652865,-5.426291,14.670336,-4.5639925,82.30122,41.398705,20.066494,-4.8604126,24.651203
217,3.3017196655273438,21.590089797973633,75.20355224609375,1.3078622709504242,7.570666486283809,91.66127777152933,-28.96675,1.468568,5.553759,6.1122026,6.2906013,-6.0023894,17.371147,-4.196922,-18.814285,8.005375,-18.993336,9.120276,-2.3645306,-2.3030303,8.320119,10.994008,9.740473,-99.525,28.469076,33.612194,-9.580116,-5.1885643,14.664878,-4.502588,82.13438,41.540745,19.833775,-5.0191555,24.645168
218,3.148447036743164,22.227643966674805,75.31707000732422,1.4486953048326978,7.428443102499568,91.71433891415813,-28.245314,1.2623508,5.8938007,6.1655536,6.4228935,-6.4865007,16.745779,-4.9133973,-18.691826,10.962717,-19.15533,8.945046,-2.428044,-2.4669864,8.314769,10.733633,9.718409,-99.997185,28.568031,33.862946,-9.483556,-4.8839884,14.694054,-4.4414964,81.9239,41.69828,19.47047,-5.184426,24.654272
219,2.9860501289367676,22.86892318725586,75.43358612060547,1.602175494943062,7.304031439790309,91.74931794113485,-27.53018,1.0565993,6.2468305,6.2289205,6.4482365,-6.9386177,16.087313,-5.6537714,-18.555424,13.916982,-19.156727,8.694132,-2.4531062,-2.6304498,8.276083,10.48855,9.690409,-100.49281,28.644901,34.101986,-9.385706,-4.5701833,14.751623,-4.3792953,81.7002,41.85064,19.101902,-5.317187,24.668232
220,2.82269549369812,23.515182495117188,75.55084228515625,1.7920926229612184,7.231788251099262,91.76601808449739,-26.868483,0.8006933,6.530001,6.276494,6.5110908,-7.179755,15.322492,-6.4599886,-18.433893,16.932775,-19.018223,8.401419,-2.4601715,-2.8253314,8.1725025,10.30419,9.66285,-100.8964,28.672607,34.277924,-9.313841,-4.309685,14.826253,-4.3256893,81.52887,41.971684,18.863968,-5.3798018,24.674292
221,2.6540563106536865,24.17250633239746,75.67597198486328,2.000920617207299,7.218025872495649,91.76511205804171,-26.283165,0.48101616,6.6910625,6.316127,6.628347,-7.1800985,14.46329,-7.3071127,-18.333908,19.976946,-18.710712,8.058486,-2.4416418,-3.026388,7.9970036,10.181801,9.634517,-101.22226,28.641417,34.368446,-9.272622,-4.090528,14.934447,-4.279945,81.399994,42.06296,18.760656,-5.3481197,24.665028
222,2.4934356212615967,24.824138641357422,75.79935455322266,2.207708430178352,7.240478926756335,91.7498606777074,-25.742825,0.12522003,6.7710776,6.3468714,6.728895,-7.040188,13.545106,-8.16596,-18.24125,23.03031,-18.236008,7.6477137,-2.4251723,-3.2187595,7.770184,10.106842,9.615138,-101.4743,28.552776,34.412296,-9.25355,-3.896221,15.070122,-4.2584925,81.32816,42.11845,18.742374,-5.247847,24.644884
223,2.3231284618377686,25.47932243347168,75.92182159423828,2.4213072891168017,7.2877319592101815,91.72889950143006,-25.234774,-0.25696838,6.817001,6.3730597,6.8069906,-6.7749515,12.567387,-9.048324,-18.157585,26.102783,-17.617588,7.1881633,-2.400529,-3.417547,7.509968,10.079759,9.602788,-101.63934,28.42448,34.42971,-9.252239,-3.762675,15.2113905,-4.2501564,81.29278,42.1413,18.824455,-5.112565,24.632307
224,2.151063919067383,26.14072608947754,76.05130767822266,2.656081297983051,7.348987923927373,91.7086919936879,-24.743889,-0.65296674,6.8780417,6.3977356,6.8545136,-6.3972955,11.524092,-9.976149,-18.079311,29.217741,-16.887093,6.7003717,-2.3636048,-3.6435292,7.2345624,10.099275,9.597053,-101.69414,28.272474,34.44066,-9.264658,-3.7259262,15.337318,-4.2480674,81.28735,42.13085,19.02239,-4.9771833,24.642231
225,1.994343638420105,26.793750762939453,76.17500305175781,2.913777021392584,7.435872700161248,91.69895551971048,-24.283628,-1.0704939,6.948115,6.41798,6.894061,-5.839001,10.3811,-10.963631,-18.018232,32.43069,-16.00743,6.176092,-2.2923534,-3.8937783,6.922996,10.1755905,9.596021,-101.6418,28.0879,34.43006,-9.291765,-3.7935944,15.458828,-4.248755,81.30771,42.079914,19.383389,-4.8389654,24.66391
226,1.8443676233291626,27.450735092163086,76.29452514648438,3.184454441759004,7.546373413877742,91.70112989050666,-23.941364,-1.4974099,6.999533,6.6200233,6.8271585,-5.117546,9.15577,-11.993673,-17.976511,35.716946,-14.979629,5.607299,-2.307546,-4.179189,6.5728984,10.336066,9.609785,-101.33582,27.852655,34.435226,-9.360007,-3.9825652,15.554175,-4.2595115,81.47485,42.007843,19.906971,-4.685519,24.692335
227,1.6910316944122314,28.11301612854004,76.40621948242188,3.4522129550393093,7.652328296368603,91.70227325701467,-23.734463,-1.9020654,7.054975,7.1164365,6.5513372,-4.370844,7.902244,-13.033526,-17.929058,39.00116,-13.893566,5.0106664,-2.3423333,-4.4763575,6.2267995,10.528342,9.64807,-100.94523,27.587095,34.43795,-9.428035,-4.2386,15.637486,-4.284337,81.6934,41.90833,20.495026,-4.536331,24.7396
228,1.5439159870147705,28.76547622680664,76.50635528564453,3.706021529579901,7.726195745719219,91.69098094217607,-23.453701,-2.2804806,7.127122,7.5390205,6.2149405,-3.736196,6.6684937,-14.051473,-17.853485,42.221676,-12.84733,4.399424,-2.3717353,-4.773941,5.919696,10.725546,9.706664,-100.57905,27.328407,34.441257,-9.467315,-4.523551,15.714518,-4.3162804,81.905975,41.792805,21.053953,-4.4101954,24.823404
229,1.4095306396484375,29.415645599365234,76.59902954101562,3.9511250139132517,7.760488917297296,91.66772037945553,-23.089584,-2.634685,7.219191,7.891828,5.7855015,-3.23247,5.4318385,-15.062455,-17.723007,45.46362,-11.83308,3.7725835,-2.397898,-5.0848947,5.6583095,10.944384,9.780749,-100.22212,27.07764,34.45444,-9.466173,-4.869982,15.784254,-4.3477764,82.128044,41.658546,21.607986,-4.309174,24.962635
230,1.2863212823867798,30.062454223632812,76.69181823730469,4.189760639184712,7.769800469954623,91.63956920031215,-22.666399,-2.972828,7.3170524,8.187685,5.2840934,-2.7921402,4.1674457,-16.078909,-17.557583,48.752663,-10.825346,3.11484,-2.4327781,-5.407677,5.4239616,11.190863,9.874167,-99.83236,26.817291,34.4729,-9.4414625,-5.2843685,15.843329,-4.378197,82.37784,41.50848,22.189594,-4.22331,25.144342
231,1.1687923669815063,30.692914962768555,76.77993774414062,4.403916134847651,7.759568935373967,91.60332786496814,-22.202265,-3.2808645,7.410925,8.443874,4.7434106,-2.4245207,2.9181116,-17.078417,-17.402514,51.953632,-9.905472,2.415696,-2.4875448,-5.715475,5.2134275,11.435111,10.002628,-99.445885,26.552277,34.488495,-9.410345,-5.6933784,15.889468,-4.4106174,82.63551,41.36366,22.725979,-4.1562796,25.334959
232,1.052390456199646,31.336536407470703,76.86041259765625,4.575650143175412,7.735245755034297,91.55596958097877,-21.716106,-3.5439372,7.4925966,8.679031,4.1957483,-2.1388688,1.727822,-18.037844,-17.306042,54.93077,-9.155971,1.6648018,-2.5442846,-5.973395,5.02829,11.639251,10.136871,-99.14167,26.334375,34.480217,-9.386689,-6.015427,15.922849,-4.435162,82.84135,41.256622,23.13526,-4.1107965,25.506042
233,0.9441512823104858,31.966157913208008,76.9454574584961,4.695557109669853,7.704036537096424,91.49428266637531,-21.214128,-3.748587,7.561655,8.89307,3.6357975,-1.9755137,0.5910082,-18.975725,-17.301437,57.702267,-8.557923,0.7858035,-2.6080978,-6.1739116,4.8626738,11.808227,10.268869,-98.92088,26.184914,34.437214,-9.37654,-6.2318077,15.937441,-4.4481306,83.01047,41.194065,23.41106,-4.0896096,25.661547
234,0.8336331844329834,32.57915496826172,77.0236587524414,4.772775158368814,7.660979467171905,91.42160195286651,-20.687931,-3.9058003,7.6233916,9.081187,3.0491052,-1.9170995,-0.51224005,-19.908407,-17.359547,60.340668,-8.0954,-0.20280151,-2.6790736,-6.3331327,4.719294,11.957817,10.38969,-98.759445,26.10035,34.36874,-9.371285,-6.3821807,15.932805,-4.4468265,83.15573,41.16676,23.592262,-4.091014,25.814707
235,0.7178956866264343,33.184654235839844,77.09510040283203,4.824632896899449,7.594362439581391,91.34398653357479,-20.128992,-4.033663,7.677928,9.249744,2.4561436,-1.8858848,-1.5604161,-20.79935,-17.431503,62.792007,-7.856044,-1.153394,-2.757867,-6.457748,4.6082993,12.078833,10.464893,-98.66198,26.10031,34.29477,-9.366906,-6.477594,15.924415,-4.4364767,83.24387,41.174797,23.660221,-4.1140585,25.947226
236,0.603537917137146,33.77699661254883,77.16470336914062,4.864648285014808,7.492197779783578,91.26587912289041,-19.526867,-4.15286,7.7246857,9.397347,1.8821827,-1.8040552,-2.5392673,-21.592976,-17.462854,65.00484,-7.917764,-1.9021333,-2.8672745,-6.562424,4.5333514,12.160645,10.569589,-98.5954,26.090115,34.245388,-9.360454,-6.5409403,15.920045,-4.4078727,83.280914,41.233074,23.613121,-4.161491,26.036304
237,0.4945984184741974,34.36650848388672,77.23445129394531,4.8917280812223485,7.346029858676394,91.18394609397384,-18.890995,-4.2629447,7.765638,9.561069,1.3136039,-1.6389529,-3.4244206,-22.263584,-17.456202,66.96065,-8.423196,-2.33342,-2.9920712,-6.6358204,4.5093927,12.196312,10.624246,-98.59141,26.158737,34.2147,-9.350171,-6.5665617,15.92333,-4.382525,83.22068,41.333157,23.40465,-4.238009,26.075624
238,0.381990909576416,34.95439147949219,77.304931640625,4.9001013888929785,7.164208621753757,91.09564659194537,-18.223978,-4.353417,7.800885,9.731289,0.74305165,-1.4360894,-4.2382126,-22.826546,-17.4314,68.701355,-9.288445,-2.5359752,-3.1210756,-6.67667,4.527637,12.184866,10.695331,-98.65336,26.243662,34.193306,-9.336431,-6.550993,15.930269,-4.32719,83.07272,41.50003,23.050661,-4.3426404,26.077646
239,0.27347835898399353,35.53274154663086,77.37525939941406,4.890960204276142,6.961654469300843,91.00752827745733,-17.517412,-4.4287705,7.825555,9.858995,0.19235079,-1.2340952,-5.0371757,-23.285795,-17.361801,70.258675,-10.246518,-2.6481934,-3.2688777,-6.696456,4.5691037,12.148604,10.735215,-98.75362,26.374496,34.189106,-9.322498,-6.4917583,15.943441,-4.275028,82.892235,41.67608,22.629385,-4.4589987,26.05056
240,0.1706634759902954,36.10923385620117,77.45465087890625,4.868648805814342,6.75313823467279,90.92660965170268,-16.761286,-4.493944,7.8357735,9.89467,-0.31689665,-1.0712246,-5.876319,-23.650162,-17.22013,71.66033,-11.02967,-2.812184,-3.4096692,-6.7017956,4.6177673,12.091439,10.767689,-98.9097,26.510874,34.20475,-9.305326,-6.384204,15.973313,-4.2032495,82.68027,41.855194,22.202534,-4.570441,26.009645
241,0.07594522088766098,36.694644927978516,77.52725982666016,4.830781348614761,6.531017992890042,90.85658398397766,-15.942069,-4.5459538,7.827131,9.827818,-0.7788782,-0.95694786,-6.758414,-23.907455,-17.000563,72.90534,-11.560428,-3.0799916,-3.566008,-6.694835,4.675648,12.0115595,10.7868185,-99.12169,26.671574,34.24936,-9.283821,-6.204819,16.022617,-4.1205535,82.44506,42.028507,21.730984,-4.6890163,25.942621
242,-0.015091728419065475,37.28221130371094,77.59698486328125,4.777517351649466,6.29179807550955,90.79344028234986,-15.062726,-4.5863743,7.8037853,9.671685,-1.1983403,-0.8693839,-7.6590176,-24.053709,-16.723812,73.97897,-11.978006,-3.3680284,-3.738287,-6.6724253,4.7492785,11.905756,10.790316,-99.38615,26.861588,34.318436,-9.258795,-5.963163,16.087511,-4.0354557,82.17758,42.199104,21.197594,-4.8168607,25.846842
243,-0.10074308514595032,37.84817886352539,77.66899108886719,4.717957933059683,6.056006491904677,90.73441238633968,-14.163335,-4.622736,7.7751546,9.459492,-1.5930817,-0.80039525,-8.593341,-24.113415,-16.401285,74.89,-12.342256,-3.617474,-3.9084692,-6.6416583,4.8242884,11.791541,10.780762,-99.66771,27.045134,34.40031,-9.23582,-5.710003,16.160234,-3.9506867,81.90708,42.35821,20.713732,-4.925592,25.747082
