unveil-humanoid-operators/unveil-humanoid-operators.github.io/feature-analysis-animation/data/feature_matrix_instances/weight_ankle_rom_walking_A256_walk_hands_on_back_180_stop_R_003__A256.csv
Frame,root_translateX,root_translateY,root_translateZ,root_rotateX,root_rotateY,root_rotateZ,left_hip_pitch_joint_dof,left_hip_roll_joint_dof,left_hip_yaw_joint_dof,left_knee_joint_dof,left_ankle_pitch_joint_dof,left_ankle_roll_joint_dof,right_hip_pitch_joint_dof,right_hip_roll_joint_dof,right_hip_yaw_joint_dof,right_knee_joint_dof,right_ankle_pitch_joint_dof,right_ankle_roll_joint_dof,waist_yaw_joint_dof,waist_roll_joint_dof,waist_pitch_joint_dof,left_shoulder_pitch_joint_dof,left_shoulder_roll_joint_dof,left_shoulder_yaw_joint_dof,left_elbow_joint_dof,left_wrist_roll_joint_dof,left_wrist_pitch_joint_dof,left_wrist_yaw_joint_dof,right_shoulder_pitch_joint_dof,right_shoulder_roll_joint_dof,right_shoulder_yaw_joint_dof,right_elbow_joint_dof,right_wrist_roll_joint_dof,right_wrist_pitch_joint_dof,right_wrist_yaw_joint_dof
0,0.36887818574905396,-2.207899570465088,77.5794448852539,2.5793236188342585,2.8202748477269712,87.09961393303159,-8.483731,-3.0783243,13.3953495,14.45736,-10.839023,3.0045583,-22.083698,-4.9258857,-0.3429568,77.40554,-11.446811,2.7418208,-4.8327994,-1.2406155,4.090267,14.253583,8.40793,-85.18716,42.22427,32.506718,11.23859,13.851248,18.409645,-8.877275,71.72257,41.363033,-30.386198,-8.559006,7.875958
1,0.3505229353904724,-1.6519125699996948,77.61485290527344,2.4793782975441037,2.87088688650367,87.22392439853562,-7.83248,-3.1028938,13.223435,13.952143,-11.063489,2.852151,-23.043087,-4.7638936,-0.3768392,76.4022,-11.595359,2.7888558,-4.834163,-1.0959926,4.073119,14.32675,8.424283,-85.1675,42.16373,32.57989,11.254816,13.844116,18.393454,-8.894821,71.771286,41.347767,-28.448065,-8.577468,7.5724144
2,0.33250826597213745,-1.0946437120437622,77.64382934570312,2.3760426551958895,2.9189630011775995,87.3493513706537,-7.176487,-3.1231728,13.04964,13.44531,-11.289579,2.7009387,-24.002092,-4.5969243,-0.41099682,75.4266,-11.759067,2.8295934,-4.846425,-0.95026827,4.056963,14.40466,8.438281,-85.13784,42.104424,32.662937,11.272362,13.83603,18.372398,-8.914653,71.83127,41.33217,-26.335968,-8.607756,7.2335677
3,0.315163791179657,-0.5442836284637451,77.66210174560547,2.277772457186166,2.9711307614339213,87.47511845633292,-6.527014,-3.1462953,12.877301,12.944597,-11.516166,2.5565765,-24.937746,-4.4485054,-0.45200044,74.36809,-11.888023,2.8789554,-4.858671,-0.8080433,4.0401444,14.479024,8.449805,-85.104294,42.04697,32.73317,11.285697,13.828008,18.3537,-8.9371395,71.89176,41.31675,-24.562433,-8.644912,6.9652677
4,0.3012949228286743,0.008625266142189503,77.67533874511719,2.194409456665957,3.033803697239087,87.60057471826318,-5.889029,-3.1808012,12.708919,12.44483,-11.734855,2.4247758,-25.826056,-4.3420043,-0.5053395,73.11542,-11.933177,2.9525578,-4.861922,-0.6752846,4.0203757,14.541847,8.457983,-85.07022,41.99304,32.767666,11.288868,13.820602,18.343037,-8.959947,71.945595,41.30661,-23.639269,-8.673008,6.87109
5,0.2880341708660126,0.562294602394104,77.68248748779297,2.131578181765208,3.109727229944434,87.72586600066046,-5.267823,-3.2314103,12.545539,11.949719,-11.945015,2.3113058,-26.668522,-4.2770367,-0.5565486,71.6457,-11.874538,3.078331,-4.852442,-0.5556779,3.9972215,14.588922,8.463124,-85.035286,41.94181,32.75303,11.275752,13.816636,18.342058,-8.980305,71.99535,41.306442,-23.966106,-8.681055,7.0328207
6,0.2760166525840759,1.11358642578125,77.68070983886719,2.082997962425984,3.1950356480436684,87.85161435675562,-4.656858,-3.2936463,12.384529,11.454843,-12.147367,2.2116299,-27.472902,-4.243388,-0.60696197,70.013435,-11.74074,3.240901,-4.842577,-0.44641942,3.971759,14.628012,8.468279,-84.98889,41.88854,32.70678,11.25063,13.813607,18.347776,-9.007841,72.05192,41.304424,-25.180199,-8.678144,7.376435
7,0.26689887046813965,1.6680408716201782,77.67140197753906,2.0395696865860984,3.2867925904540343,87.9769375923732,-4.056294,-3.3569121,12.224973,10.968766,-12.352345,2.1148324,-28.223982,-4.2494683,-0.6886953,68.22232,-11.5552845,3.3867846,-4.834106,-0.33965358,3.945086,14.662819,8.475493,-84.936966,41.832058,32.647312,11.224392,13.80702,18.360386,-9.060296,72.10681,41.28026,-26.650278,-8.675849,7.7709203
8,0.2580080032348633,2.221792221069336,77.65605926513672,1.9947500620213512,3.382051170998552,88.10104033658516,-3.4722278,-3.410217,12.066892,10.513405,-12.572571,2.0094423,-28.90708,-4.3021574,-0.8336233,66.27636,-11.342299,3.4664788,-4.8120594,-0.22886218,3.914631,14.69416,8.477938,-84.90732,41.78664,32.586414,11.209713,13.79462,18.374714,-9.086624,72.13308,41.276764,-27.75209,-8.676204,8.08256
9,0.24737471342086792,2.7752530574798584,77.63983917236328,1.9437767468194556,3.4836672068054115,88.22252853768089,-2.9096448,-3.4484916,11.912891,10.091319,-12.811968,1.8826066,-29.527266,-4.4066486,-1.0502207,64.16948,-11.13108,3.4382997,-4.7952223,-0.111404605,3.8798895,14.728864,8.480212,-84.87736,41.742733,32.53064,11.209293,13.765847,18.39104,-9.129196,72.15203,41.252808,-28.330555,-8.661965,8.284565
10,0.24252179265022278,3.333935260772705,77.61089324951172,1.892909559227119,3.59212395450286,88.34216527958534,-2.364467,-3.4781399,11.762599,9.692186,-13.062937,1.7424388,-30.086449,-4.5543857,-1.32377,61.89966,-10.901787,3.3418105,-4.7706456,0.009322515,3.8397043,14.760506,8.480552,-84.86118,41.704998,32.46518,11.218385,13.727672,18.409855,-9.154987,72.152885,41.24437,-28.721842,-8.637078,8.443464
11,0.24278582632541656,3.893690586090088,77.5760269165039,1.8437131196247198,3.700969834120987,88.46272381756563,-1.8279306,-3.504309,11.611144,9.314588,-13.32287,1.6086746,-30.565443,-4.7311335,-1.6531048,59.47539,-10.604045,3.249184,-4.7475843,0.12746054,3.8009267,14.790798,8.479942,-84.84106,41.669785,32.406956,11.229845,13.691483,18.433962,-9.194952,72.14744,41.216652,-29.004438,-8.613382,8.573124
12,0.23878943920135498,4.460086345672607,77.53793334960938,1.8017991886488482,3.8035645006024765,88.58659876317581,-1.2855828,-3.5343983,11.453354,8.946329,-13.583668,1.501307,-30.945349,-4.9240904,-2.0354211,56.90229,-10.185424,3.2317035,-4.7255144,0.23635009,3.7666821,14.820603,8.478419,-84.81456,41.639317,32.365696,11.23846,13.671588,18.458548,-9.228931,72.13734,41.199314,-29.261963,-8.607038,8.681324
13,0.23405952751636505,5.0247955322265625,77.4960708618164,1.7714105685664643,3.8963446154704298,88.71524594571407,-0.73799217,-3.5723286,11.285218,8.595441,-13.847929,1.4342086,-31.208273,-5.147749,-2.4885712,54.147697,-9.616882,3.3221424,-4.708438,0.3332012,3.7424977,14.84851,8.474731,-84.772545,41.614223,32.350456,11.242321,13.674907,18.487982,-9.275155,72.123604,41.174316,-29.496964,-8.622772,8.767926
14,0.24041509628295898,5.590208530426025,77.44992065429688,1.7490386332397982,3.983074790452453,88.8472202794818,-0.18786328,-3.6147408,11.109775,8.258382,-14.115109,1.3927553,-31.362957,-5.397322,-3.0097716,51.20902,-8.92755,3.481604,-4.691544,0.42001337,3.723636,14.8745,8.470831,-84.724976,41.5941,32.351036,11.245014,13.6936,18.516645,-9.3056,72.103165,41.16729,-29.67093,-8.6524725,8.826768
15,0.24672511219978333,6.167149543762207,77.40049743652344,1.7303485320035727,4.067673766259093,88.98107109920883,0.36467773,-3.6550171,10.932174,7.927866,-14.383405,1.3554839,-31.435404,-5.634958,-3.5632036,48.142784,-8.148784,3.6704855,-4.675146,0.49955514,3.7035687,14.902181,8.468055,-84.67938,41.576077,32.357014,11.247906,13.717326,18.545788,-9.321561,72.0804,41.17283,-29.808447,-8.68883,8.863892
16,0.2616216838359833,6.737960338592529,77.3443603515625,1.7111080491008817,4.1540890599877365,89.11558203584708,0.9238019,-3.6874542,10.75686,7.589476,-14.648284,1.2994072,-31.449488,-5.8281183,-4.111383,44.99854,-7.3139396,3.8458416,-4.669562,0.5758795,3.6800094,14.935102,8.462204,-84.622406,41.55977,32.368313,11.247531,13.730467,18.57493,-9.3525505,72.06327,41.158024,-29.932869,-8.726127,8.891759
17,0.2783079147338867,7.313103199005127,77.28402709960938,1.690016072886637,4.244361833082633,89.25234260402283,1.3956126,-3.693644,10.58782,7.4381413,-15.010784,1.2201014,-31.403028,-5.9842825,-4.653201,41.75336,-6.3791203,3.9969647,-4.6679463,0.650341,3.647068,14.975177,8.4579115,-84.575356,41.542847,32.372578,11.249157,13.73761,18.604406,-9.376814,72.04906,41.14187,-30.044716,-8.767994,8.891899
18,0.3029862344264984,7.897563457489014,77.21624755859375,1.6715880248512434,4.334980687160755,89.3927581054023,1.8027391,-3.6833718,10.421139,7.433076,-15.449025,1.1290358,-31.280382,-6.1198916,-5.2036934,38.379017,-5.338811,4.1436834,-4.669677,0.7193263,3.6092656,15.020755,8.456168,-84.53442,41.525608,32.37608,11.251865,13.743567,18.634228,-9.389658,72.03349,41.132347,-30.13454,-8.816287,8.865979
19,0.32745954394340515,8.488876342773438,77.14392852783203,1.66088262714015,4.420800163810742,89.53643003879576,2.2194524,-3.6742265,10.256604,7.4280376,-15.888858,1.0305935,-31.08647,-6.225422,-5.746667,34.917458,-4.2842703,4.2854524,-4.6797566,0.7760491,3.572845,15.066621,8.455544,-84.48781,41.50765,32.384567,11.251388,13.741616,18.664537,-9.403042,72.02179,41.11573,-30.206657,-8.858909,8.846026
20,0.3540670871734619,9.0835599899292,77.06591796875,1.6626917526733067,4.496091014331543,89.68338172428894,2.6532576,-3.6713843,10.097479,7.42259,-16.333447,0.92873234,-30.826603,-6.2953286,-6.264947,31.410294,-3.3063507,4.4200516,-4.69202,0.81466615,3.539661,15.107632,8.45657,-84.447586,41.48944,32.39124,11.248295,13.732601,18.699251,-9.413576,72.01283,41.09861,-30.265427,-8.883204,8.8581705
21,0.3903035819530487,9.681751251220703,76.97574615478516,1.684824713733112,4.5559671861188376,89.83344620358234,3.1110504,-3.6818435,9.94717,7.4160757,-16.788437,0.8213393,-30.479988,-6.339043,-6.7478743,27.7978,-2.4008534,4.5389657,-4.70773,0.8276736,3.5132425,15.143886,8.459529,-84.40707,41.46965,32.400284,11.238799,13.706345,18.742414,-9.422364,72.00748,41.078136,-30.313911,-8.880176,8.919599
22,0.42752838134765625,10.28591537475586,76.88320922851562,1.7308632915589064,4.5980385022376336,89.99502955275662,3.594386,-3.7119625,9.795048,7.40798,-17.250414,0.7097212,-30.032671,-6.3771505,-7.205794,24.051868,-1.5153018,4.6404853,-4.742482,0.8102415,3.497617,15.179468,8.467967,-84.3563,41.443443,32.41667,11.223562,13.6641245,18.789942,-9.434451,72.01147,41.048584,-30.347752,-8.857943,9.013567
23,0.47548389434814453,10.895917892456055,76.77417755126953,1.8053556401936235,4.619452550892796,90.18232300784085,4.104116,-3.7683992,9.622621,7.3965616,-17.707325,0.60314405,-29.502304,-6.423397,-7.6530404,20.269175,-0.67072904,4.7321596,-4.8006682,0.75969,3.4954128,15.210916,8.478629,-84.317726,41.419235,32.4289,11.2105255,13.627623,18.839334,-9.443158,72.01423,41.01452,-30.36749,-8.830094,9.115557
24,0.5251420736312866,11.511247634887695,76.65434265136719,1.9102652279468175,4.61760698278256,90.40868065512318,4.6347947,-3.8561962,9.41213,7.393594,-18.154625,0.5105307,-28.91251,-6.4909425,-8.10392,16.558268,0.103001766,4.823173,-4.897441,0.6709161,3.511952,15.236126,8.491103,-84.29269,41.401455,32.435516,11.203149,13.612679,18.884611,-9.448842,72.01434,40.970688,-30.373266,-8.811838,9.204588
25,0.5785245299339294,12.133251190185547,76.5253677368164,2.0493790766985733,4.592971486348806,90.68571454879601,5.1895947,-3.978614,9.145087,7.388945,-18.59152,0.44093,-28.252989,-6.5745425,-8.559848,12.855791,0.80183226,4.8657184,-5.0483823,0.54176366,3.5461648,15.258952,8.513337,-84.27505,41.375042,32.439606,11.204979,13.624501,18.926636,-9.453265,72.01105,40.908424,-30.354145,-8.804397,9.282225
26,0.6379646062850952,12.75764274597168,76.3857421875,2.2243729829429872,4.5421422990738485,91.01024890180985,5.7725673,-4.1379685,8.827253,7.3836246,-19.021235,0.38885,-27.473812,-6.6841345,-9.022661,9.046501,1.4875622,4.863718,-5.244517,0.36841848,3.5982976,15.277606,8.534169,-84.27203,41.35737,32.437744,11.212614,13.657162,18.96884,-9.4533,72.00276,40.834568,-30.313314,-8.801288,9.356481
27,0.7008805274963379,13.379595756530762,76.24427032470703,2.429643750430945,4.466500984549573,91.36195634746485,6.3807063,-4.320966,8.487074,7.381998,-19.43196,0.33793727,-27.254671,-6.933354,-9.426167,6.6641355,1.4425244,4.9123693,-5.4683256,0.16009603,3.6699553,15.287578,8.558691,-84.28031,41.34593,32.43308,11.221207,13.697049,19.004122,-9.450119,71.996155,40.761063,-30.27375,-8.802946,9.420528
28,0.7659848928451538,14.004802703857422,76.09870910644531,2.6506703138537047,4.370706570290414,91.71451604722172,7.0087247,-4.5107927,8.160001,7.38517,-19.810047,0.27100208,-27.960388,-7.3763905,-9.72999,6.5638595,0.30231398,5.117773,-5.69557,-0.06522798,3.7600963,15.282991,8.581581,-84.30066,41.338455,32.42551,11.229283,13.730025,19.026106,-9.445221,71.99755,40.700058,-30.257658,-8.809529,9.467007
29,0.8429089784622192,14.633223533630371,75.9474868774414,2.902896533557276,4.245646175133198,92.07851736413485,7.6680293,-4.724697,7.854711,7.3923135,-20.161991,0.18927658,-28.539747,-7.8415675,-10.101074,6.49774,-0.80546194,5.6503973,-5.930503,-0.3262008,3.8752408,15.2603,8.636503,-84.34405,41.31394,32.410496,11.235794,13.757827,19.03228,-9.43054,72.002,40.65595,-30.271301,-8.827704,9.484669
30,0.919990599155426,15.265085220336914,75.79364013671875,3.169072662618628,4.101940194551297,92.44775919422212,8.347133,-4.943712,7.566254,7.4033294,-20.49157,0.09610966,-29.013672,-8.298292,-10.525685,6.446035,-1.889287,6.413463,-6.172711,-0.6045938,4.006186,15.222884,8.698656,-84.398895,41.290867,32.392353,11.240603,13.784316,19.025278,-9.411102,72.00986,40.621502,-30.304062,-8.855953,9.481682
31,0.9947810173034668,15.886955261230469,75.64446258544922,3.416663807851394,3.9706694284846638,92.77839664226192,9.012391,-5.1313195,7.3048434,7.419154,-20.78385,-0.016461235,-29.399548,-8.699094,-10.920069,6.4402475,-2.8057272,7.121204,-6.379083,-0.8659943,4.127143,15.1767645,8.74691,-84.4591,41.284195,32.37469,11.243622,13.806283,19.005775,-9.394316,72.030334,40.599323,-30.345135,-8.8808,9.474533
32,1.062319278717041,16.49622344970703,75.50794219970703,3.577609151653146,3.888327371062707,93.01352121442287,9.623896,-5.209238,7.0962324,7.4452095,-21.026236,-0.16439322,-29.674223,-8.9403515,-11.214237,6.430212,-3.374478,7.4778786,-6.4880657,-1.0372174,4.213094,15.129051,8.795022,-84.52482,41.269985,32.359978,11.246458,13.818895,18.971682,-9.375911,72.067566,40.60403,-30.383148,-8.89011,9.4783535
33,1.141185998916626,17.09656524658203,75.39118194580078,3.662864224109888,3.8596399859296997,93.1324895324711,10.175764,-5.194671,6.9478936,7.480474,-21.217249,-0.35315678,-29.831997,-9.019694,-11.365268,6.4501047,-3.552149,7.38584,-6.47853,-1.1337451,4.267161,15.074312,8.840184,-84.60007,41.25331,32.35316,11.2484665,13.81924,18.914013,-9.357152,72.13635,40.643215,-30.423805,-8.872239,9.498798
34,1.227933406829834,17.69015884399414,75.29263305664062,3.6911520808063045,3.8717650073831567,93.15945013731468,10.6833,-5.109424,6.8590083,7.5241947,-21.36496,-0.576436,-29.878984,-8.964833,-11.417427,6.4914246,-3.4288583,7.0007687,-6.3780956,-1.1712317,4.296603,15.014128,8.880879,-84.68291,41.234486,32.352505,11.251623,13.810099,18.837627,-9.338588,72.23065,40.710697,-30.471275,-8.836775,9.525962
35,1.3164161443710327,18.293825149536133,75.20526123046875,3.647161339928999,3.9266494626903694,93.12124314115079,11.147036,-4.9367986,6.8274226,7.5783744,-21.468143,-0.8231267,-29.856245,-8.785823,-11.403,6.548505,-3.0795164,6.416254,-6.214773,-1.1336193,4.2879057,14.956911,8.918433,-84.759445,41.214806,32.34844,11.252626,13.796037,18.756924,-9.319196,72.32769,40.78952,-30.507772,-8.801138,9.555182
36,1.401916742324829,18.905073165893555,75.12103271484375,3.5219357256108506,4.024398487034474,93.05083672675232,11.570328,-4.6655483,6.843869,7.6421685,-21.523886,-1.0807337,-29.800909,-8.492702,-11.359029,6.609318,-2.5695355,5.7357655,-6.0230303,-1.0075812,4.227689,14.913719,8.946463,-84.81477,41.19955,32.33453,11.249991,13.781175,18.68783,-9.302198,72.401024,40.86083,-30.517956,-8.7839365,9.582931
37,1.4938030242919922,19.522014617919922,75.06341552734375,3.278039808905695,4.190107593001237,92.9277238407428,11.925316,-4.2507024,6.93716,7.7217975,-21.548668,-1.3564425,-29.716547,-8.027558,-11.277757,6.67089,-1.8511703,4.87784,-5.7818794,-0.7509229,4.0985126,14.886357,8.965404,-84.84624,41.18831,32.30795,11.241331,13.765281,18.628336,-9.287542,72.46132,40.929253,-30.495474,-8.793812,9.59818
38,1.591443657875061,20.136707305908203,75.036865234375,2.9300654911211383,4.408465912852136,92.75451582175793,12.226844,-3.7110252,7.093274,7.818352,-21.539505,-1.654314,-29.58241,-7.4119825,-11.156601,6.746893,-0.90945435,3.827494,-5.490311,-0.38000202,3.9178963,14.867941,8.9707575,-84.86058,41.18458,32.276577,11.227236,13.7442875,18.573225,-9.28151,72.50502,40.99568,-30.45421,-8.822142,9.610434
39,1.6892824172973633,20.765819549560547,75.01243591308594,2.5466092268651632,4.614678638007786,92.5996702084644,11.958276,-3.0476062,7.267401,9.176907,-22.124926,-1.9612306,-29.382923,-6.765026,-11.046592,6.833333,0.14103828,2.793076,-5.228307,0.022201274,3.7216594,14.866488,8.97388,-84.86329,41.177834,32.23168,11.217532,13.727858,18.534744,-9.273437,72.53607,41.051064,-30.388483,-8.848957,9.627822
40,1.7963309288024902,21.416399002075195,74.98809814453125,2.190348259535087,4.752726507726854,92.5208476014628,11.683655,-2.39275,7.3561816,10.714807,-22.707487,-2.258783,-30.25498,-6.4156017,-10.865217,9.391243,-0.11426981,1.9789702,-5.051046,0.3923091,3.5509634,14.878361,8.973449,-84.852295,41.167973,32.181,11.21361,13.71371,18.521362,-9.267298,72.51127,41.07623,-30.30994,-8.866101,9.67576
41,1.9059531688690186,22.07883071899414,74.96611022949219,1.852250797488779,4.816655482642619,92.53501249591969,11.518702,-1.7493168,7.340608,12.203268,-23.186604,-2.5445726,-30.74538,-6.085432,-10.791917,11.312652,0.008173659,1.4395084,-4.9540534,0.74396354,3.4033592,14.904736,8.967469,-84.84891,41.15446,32.112244,11.216214,13.702765,18.560492,-9.252704,72.35417,41.06316,-30.202309,-8.875121,9.800109
42,2.0225648880004883,22.752016067504883,74.95181274414062,1.502534033757545,4.837117065920613,92.6103038720909,11.401043,-1.0771809,7.2565036,13.705424,-23.60095,-2.827463,-31.008575,-5.750593,-10.788158,12.917026,0.37536538,1.0606333,-4.926562,1.1086444,3.2597892,14.952494,8.959833,-84.83537,41.13168,32.026047,11.225956,13.697359,18.635103,-9.241766,72.13438,41.01626,-30.053844,-8.8744135,9.969444
43,2.1519787311553955,23.436798095703125,74.94586944580078,1.1562490042468234,4.818554938991101,92.7210789711289,11.294216,-0.40351737,7.123847,15.274161,-23.924706,-3.107578,-31.126245,-5.432267,-10.849275,14.35636,0.7779638,0.7721732,-4.9096127,1.4718398,3.1413949,14.985726,8.947192,-84.84158,41.117058,31.940989,11.237883,13.690532,18.71512,-9.22891,71.8634,40.95994,-29.951477,-8.878046,10.123767
44,2.2744288444519043,24.132003784179688,74.95053100585938,0.8348113889687868,4.764556358940821,92.8440759710813,11.167255,0.24078993,6.959045,16.951729,-24.126938,-3.3836062,-31.160963,-5.1535826,-10.972625,15.744644,1.0244749,0.504357,-4.898716,1.8043927,3.064294,14.991306,8.9314575,-84.84367,41.11563,31.884762,11.248836,13.677115,18.751518,-9.2183075,71.63928,40.921055,-29.94849,-8.888457,10.187451
45,2.3976645469665527,24.823570251464844,74.9671859741211,0.5418729555287081,4.66971242390987,92.98702035178799,11.044398,0.8516778,6.738227,18.704012,-24.20916,-3.66996,-31.113201,-4.9341063,-11.184258,17.112385,1.0878521,0.29607746,-4.8993015,2.1062632,3.0345602,14.961812,8.911602,-84.83533,41.127453,31.87394,11.259623,13.648147,18.738031,-9.211562,71.44665,40.89646,-30.077475,-8.915063,10.132161
46,2.5214807987213135,25.507667541503906,74.99372863769531,0.26241594064726337,4.53796887092142,93.15410697236585,10.925412,1.4490757,6.4637737,20.525183,-24.185797,-3.9602451,-30.967875,-4.7642274,-11.466108,18.425764,1.0476863,0.15895116,-4.920303,2.390477,3.039353,14.909778,8.888653,-84.81561,41.14662,31.892944,11.271275,13.608573,18.693521,-9.209898,71.265594,40.87604,-30.297667,-8.95118,9.997691
47,2.6472840309143066,26.190858840942383,75.03287506103516,-0.0003944551151994957,4.384278482631148,93.31922596511617,10.750433,2.0343633,6.18753,22.49145,-24.037298,-4.220969,-30.753916,-4.619013,-11.753548,19.678947,0.8828089,-0.008386109,-4.93209,2.6517196,3.0705404,14.83899,8.859584,-84.80155,41.18321,31.918337,11.278919,13.57295,18.622877,-9.212846,71.13065,40.866867,-30.574438,-8.983037,9.822015
48,2.7747840881347656,26.87619972229004,75.08061218261719,-0.24294250373696527,4.222871483826559,93.45788066883846,10.46693,2.6074138,5.959189,24.667751,-23.737871,-4.4192314,-30.49819,-4.4611554,-11.986794,20.85542,0.5763782,-0.29859468,-4.9207263,2.8809323,3.1189444,14.760499,8.831873,-84.79402,41.23351,31.93037,11.2789755,13.554309,18.528004,-9.219025,71.096176,40.88307,-30.870209,-8.994643,9.638822
49,2.906862735748291,27.559465408325195,75.14173889160156,-0.4602516109616958,4.050418590863082,93.56002318378222,10.07316,3.1592107,5.794734,27.089214,-23.284752,-4.5510244,-30.22502,-4.2673726,-12.136339,21.990776,0.0782995,-0.7849663,-4.877242,3.0670338,3.1875687,14.671191,8.782785,-84.78185,41.33106,31.930481,11.263004,13.560674,18.403286,-9.233258,71.19735,40.92766,-31.219294,-8.973761,9.430786
50,3.032932758331299,28.237586975097656,75.20916748046875,-0.6519609498430317,3.8616464255259997,93.63906038952713,9.603267,3.6917968,5.665084,29.695902,-22.677652,-4.628614,-29.917791,-4.0456557,-12.235869,23.07605,-0.5826777,-1.3912117,-4.800432,3.2168324,3.2778864,14.566958,8.752077,-84.77918,41.42949,31.925293,11.237956,13.581552,18.249378,-9.24426,71.387024,41.00392,-31.628616,-8.932002,9.189435
51,3.168895721435547,28.911855697631836,75.28971862792969,-0.8333537277574368,3.668883739873618,93.70590244326205,9.039569,4.2240033,5.5492387,32.449158,-21.923222,-4.645107,-29.528343,-3.7971687,-12.329382,23.995647,-1.2871404,-1.9857124,-4.752999,3.3438823,3.380634,14.466545,8.689033,-84.74995,41.560585,31.916464,11.210427,13.608227,18.075663,-9.269732,71.67785,41.0844,-32.004093,-8.881297,8.956432
52,3.311706781387329,29.582368850708008,75.37590026855469,-1.0205163782104805,3.4855223573025103,93.77062855694447,8.364843,4.773619,5.428835,35.308372,-21.024906,-4.597965,-29.012545,-3.5285017,-12.461596,24.644777,-1.9241468,-2.4390628,-4.6870775,3.4803174,3.4850008,14.359614,8.651241,-84.78504,41.655743,31.878695,11.19757,13.633359,17.918774,-9.28787,71.93068,41.158512,-32.294895,-8.851394,8.7899275
53,3.4481916427612305,30.252286911010742,75.47589874267578,-1.2150474934663624,3.309429908018952,93.82996129787418,7.558939,5.3435616,5.3116527,38.32967,-19.940365,-4.4683785,-28.340225,-3.2353532,-12.648177,24.97391,-2.485691,-2.716087,-4.6350436,3.6220064,3.596164,14.251773,8.617931,-84.85729,41.734047,31.816372,11.200736,13.659172,17.76305,-9.307092,72.19758,41.22757,-32.461742,-8.842251,8.70601
54,3.5869414806365967,30.92194175720215,75.58317565917969,-1.4100485950641737,3.136930239466564,93.87831622286517,6.6372194,5.9209356,5.206887,41.50706,-18.67728,-4.270007,-27.547113,-2.9123335,-12.862609,25.052647,-3.0268247,-2.887484,-4.5837855,3.7598696,3.7148628,14.1404,8.585657,-84.96136,41.80596,31.733156,11.2139845,13.689526,17.604713,-9.32991,72.49378,41.295757,-32.548916,-8.844462,8.676345
55,3.7235655784606934,31.586217880249023,75.697998046875,-1.6053678388254427,2.9794237651187774,93.92210722986677,5.631838,6.498722,5.098164,44.714516,-17.317526,-4.0480666,-26.69004,-2.5696754,-13.086914,24.959648,-3.5351238,-2.9831774,-4.531095,3.8982325,3.826538,14.032819,8.559255,-85.08433,41.85975,31.633036,11.232421,13.713596,17.458086,-9.353369,72.78433,41.355606,-32.58196,-8.858435,8.674389
56,3.857645034790039,32.25004577636719,75.82333374023438,-1.8005167895570078,2.847962831271485,93.96765704534305,4.569326,7.072339,4.9661546,47.83983,-15.949503,-3.8417866,-25.823732,-2.217751,-13.303847,24.770517,-3.9967682,-3.0328581,-4.488222,4.0393467,3.9154625,13.941264,8.532932,-85.20046,41.892883,31.52201,11.251155,13.722443,17.335045,-9.3831415,73.054886,41.39602,-32.580315,-8.881036,8.669835
57,3.9896953105926514,32.905052185058594,75.94554901123047,-2.0023754634034376,2.7504336340093802,94.0182945822986,3.4093964,7.643736,4.771696,50.94686,-14.609121,-3.6084614,-24.937542,-1.8481249,-13.52079,24.44631,-4.3935213,-3.0176353,-4.455033,4.1951547,3.9755414,13.864482,8.508141,-85.325096,41.89549,31.398296,11.273366,13.703176,17.235613,-9.420458,73.29861,41.409286,-32.51528,-8.92425,8.659982
58,4.115997314453125,33.55692672729492,76.06766510009766,-2.205781310500785,2.6794145063141506,94.06940381472117,2.1481655,8.2112,4.536413,54.075665,-13.248966,-3.3410196,-24.012197,-1.45968,-13.7419615,23.966112,-4.738069,-2.933404,-4.42489,4.3581047,4.01548,13.796789,8.4888115,-85.465965,41.870613,31.259325,11.300586,13.664508,17.15383,-9.462227,73.52252,41.40549,-32.38889,-8.985446,8.658736
59,4.2329864501953125,34.201412200927734,76.18356323242188,-2.3987697776976113,2.622377310117948,94.11577937134409,0.8582394,8.776128,4.3267975,57.099327,-11.843112,-3.1231332,-23.086584,-1.0723299,-13.948259,23.428984,-5.0599475,-2.8302984,-4.3902783,4.5086246,4.0445905,13.740206,8.475791,-85.593094,41.8312,31.11039,11.323925,13.626986,17.094261,-9.502749,73.71801,41.39235,-32.266666,-9.043073,8.666643
60,4.356931686401367,34.837406158447266,76.28781127929688,-2.5661327451534834,2.5666703153216988,94.15116122608039,-0.3857765,9.345004,4.2082114,59.888203,-10.369022,-3.0331504,-22.198921,-0.7070689,-14.11969,22.936989,-5.389487,-2.756185,-4.345909,4.6269827,4.0725746,13.697863,8.464145,-85.67379,41.795784,30.957438,11.334539,13.611945,17.063206,-9.550202,73.88011,41.36768,-32.213886,-9.074376,8.683321
61,4.477248191833496,35.468467712402344,76.3896255493164,-2.7080041843620024,2.5159682742908647,94.17444686002929,-1.5859369,9.961876,4.2226253,62.4425,-8.646353,-3.1244059,-21.360317,-0.3649027,-14.2546215,22.506224,-5.7290154,-2.7238696,-4.2854605,4.7145658,4.0954695,13.669741,8.455518,-85.70587,41.7618,30.79307,11.328379,13.628226,17.059761,-9.590358,74.00256,41.344242,-32.25302,-9.072621,8.716799
62,4.589853286743164,36.09461212158203,76.48639678955078,-2.833637901927906,2.474217796478874,94.18796242692494,-2.7803726,10.62174,4.3213353,64.83745,-6.75042,-3.3238006,-20.547125,-0.036282007,-14.362818,22.084364,-6.0632143,-2.7064838,-4.217106,4.780433,4.1106033,13.655924,8.447536,-85.70049,41.72522,30.61742,11.31075,13.663511,17.082031,-9.628111,74.09607,41.31437,-32.346355,-9.049148,8.763663
63,4.700382232666016,36.71086883544922,76.58341979980469,-2.933325824653239,2.429266144775414,94.18919337017594,-3.947054,11.252728,4.4415145,67.05562,-5.0382066,-3.5303624,-19.742834,0.2705206,-14.4383,21.66676,-6.393355,-2.6907573,-4.139474,4.8136306,4.1289525,13.653328,8.439267,-85.65829,41.6965,30.447567,11.285203,13.705749,17.125727,-9.665233,74.15682,41.28432,-32.473843,-9.013599,8.80859
64,4.805335998535156,37.31881332397461,76.67929077148438,-2.9982250761474876,2.369058076724554,94.1759408770927,-5.059865,11.776236,4.5278254,69.073204,-3.8693697,-3.6617377,-18.934225,0.54624707,-14.475918,21.2555,-6.724054,-2.664144,-4.0562234,4.8032193,4.162094,13.6597805,8.426094,-85.57412,41.688007,30.30203,11.255295,13.742242,17.188234,-9.717863,74.188,41.241135,-32.61197,-8.974953,8.837537
65,4.911623001098633,37.923095703125,76.77417755126953,-3.0174199483225115,2.2888279479815137,94.14873309407766,-6.1010823,12.173335,4.5977855,70.88704,-3.393041,-3.7250416,-18.125576,0.77701914,-14.469712,20.870699,-7.067516,-2.625068,-3.943614,4.7340627,4.2107763,13.673138,8.418631,-85.46114,41.699757,30.182919,11.220023,13.772374,17.277855,-9.741312,74.156784,41.228535,-32.85698,-8.928499,8.869489
66,5.013457298278809,38.519447326660156,76.86457061767578,-2.9977619789379824,2.1956617984034423,94.10846271222884,-7.087232,12.480341,4.6771812,72.5141,-3.404118,-3.7719874,-17.324045,0.9688746,-14.4257,20.51175,-7.4210796,-2.5795634,-3.8166912,4.61512,4.270167,13.698118,8.411856,-85.30667,41.72873,30.083908,11.1779375,13.801869,17.391983,-9.756187,74.08574,41.226597,-33.181835,-8.870022,8.903379
67,5.111147403717041,39.11261749267578,76.95181274414062,-2.957608985499952,2.095173232182903,94.05508619749668,-8.043322,12.692344,4.7280025,73.95126,-3.7254074,-3.7952628,-16.519215,1.1399084,-14.355286,20.146914,-7.7654285,-2.526793,-3.692759,4.4718194,4.3400893,13.728151,8.403048,-85.11972,41.764732,29.999283,11.133068,13.826591,17.507267,-9.768444,73.994415,41.22933,-33.405293,-8.819929,8.897894
68,5.208589553833008,39.70158767700195,77.03883361816406,-2.9137169259229347,1.9939073206204017,93.9878757584917,-8.995925,12.802008,4.7118573,75.193886,-4.179327,-3.7875464,-15.705095,1.308197,-14.26916,19.750439,-8.084501,-2.4664953,-3.5700755,4.332629,4.409043,13.757758,8.395231,-84.950645,41.793827,29.89912,11.099551,13.856568,17.613499,-9.774496,73.8978,41.239796,-33.341774,-8.792732,8.800228
69,5.293735980987549,40.289119720458984,77.1222152709961,-2.867549802605585,1.8873849452592193,93.90206929623956,-9.94273,12.771964,4.5981245,76.22337,-4.8444633,-3.7256951,-14.874155,1.4769166,-14.164072,19.315609,-8.373145,-2.3950765,-3.4533105,4.2001753,4.484654,13.787967,8.3844185,-84.77273,41.813576,29.786364,11.076,13.883042,17.702894,-9.77824,73.78642,41.26392,-32.92799,-8.806568,8.589169
70,5.372630596160889,40.87263107299805,77.20960998535156,-2.8117458713414094,1.7747284128308933,93.79944059952197,-10.874494,12.610779,4.4170785,77.0474,-5.77178,-3.6282258,-14.0346775,1.6363487,-14.037206,18.862846,-8.644145,-2.315289,-3.3275282,4.063409,4.5609894,13.821272,8.377133,-84.60986,41.82665,29.65199,11.064971,13.916545,17.793415,-9.778123,73.65773,41.29662,-32.26148,-8.845897,8.286917
71,5.451502323150635,41.44823455810547,77.29133605957031,-2.749017855724898,1.665501774734096,93.68944989381527,-11.804205,12.385159,4.2227807,77.69669,-6.738101,-3.5434406,-13.194542,1.7869943,-13.898993,18.389399,-8.898265,-2.2355587,-3.2147722,3.923748,4.642401,13.8508215,8.36776,-84.44005,41.84186,29.535444,11.052209,13.946567,17.86871,-9.7751045,73.5268,41.325397,-31.423315,-8.899123,7.9418163
72,5.525589466094971,42.019290924072266,77.37123107910156,-2.6812641910379655,1.5704959776012677,93.5823397463012,-12.744831,12.162077,4.068086,78.19944,-7.521245,-3.520454,-12.36311,1.9270782,-13.759798,17.895348,-9.138504,-2.1627445,-3.1225464,3.7817779,4.714892,13.874663,8.359051,-84.30596,41.86469,29.433472,11.040338,13.98772,17.93087,-9.769057,73.433754,41.33317,-30.473925,-8.938965,7.581273
73,5.598884105682373,42.58637237548828,77.44750213623047,-2.607626633934049,1.488458167335756,93.47763742727939,-13.691758,11.965179,3.9838972,78.55236,-8.053884,-3.5938587,-11.536445,2.05533,-13.616859,17.373674,-9.360283,-2.099516,-3.0584943,3.6342251,4.782378,13.891932,8.348533,-84.19389,41.90035,29.357815,11.025462,14.045974,17.969088,-9.754767,73.3915,41.31437,-29.193716,-8.95836,7.1397324
74,5.667696952819824,43.154422760009766,77.52347564697266,-2.5276820648148406,1.415269447640689,93.37117110765256,-14.6394615,11.75917,3.9378293,78.74114,-8.455842,-3.729573,-10.712121,2.171367,-13.4663315,16.828533,-9.564952,-2.0403817,-3.006697,3.483387,4.844814,13.903216,8.343276,-84.115,41.938618,29.292105,11.013047,14.120251,17.995163,-9.740136,73.375656,41.269756,-27.626198,-8.976535,6.6224484
75,5.7283616065979,43.71394348144531,77.58958435058594,-2.443543033881943,1.3564046655796371,93.26663111392381,-15.598341,11.522834,3.8878894,78.77736,-8.7864275,-3.8744264,-9.899213,2.2760801,-13.31644,16.26922,-9.758771,-1.9790134,-2.978509,3.3309205,4.8995123,13.913265,8.340386,-84.05496,41.975594,29.241117,11.001489,14.18863,18.00923,-9.71912,73.385796,41.2272,-26.231598,-9.004933,6.17532
76,5.784741401672363,44.275909423828125,77.65596008300781,-2.3578736486233325,1.3175322537873293,93.16822772884862,-16.579424,11.234399,3.791357,78.67396,-9.105739,-3.9755127,-9.106604,2.371158,-13.175879,15.703434,-9.948464,-1.9095258,-2.9625993,3.1840649,4.940998,13.918879,8.341073,-84.03707,42.006374,29.193884,10.993511,14.235275,18.028122,-9.704934,73.396935,41.18657,-25.47586,-9.040077,5.9458084
77,5.853743553161621,44.82900619506836,77.71399688720703,-2.266130714263852,1.3003109846812566,93.07960000581357,-17.59569,10.857254,3.614045,78.432144,-9.4069805,-4.0151677,-8.335501,2.4509625,-13.048483,15.132324,-10.136726,-1.8282306,-2.974251,3.034482,4.9661484,13.924473,8.346668,-84.06253,42.029377,29.152458,10.989745,14.247104,18.047209,-9.684335,73.4245,41.167995,-25.580769,-9.083082,6.011211
78,5.905837535858154,45.378963470458984,77.76618957519531,-2.1692134451570335,1.3013952577984755,92.99785679372374,-18.634733,10.413641,3.386871,78.04383,-9.665516,-4.0219483,-7.5820117,2.5165048,-12.92987,14.552632,-10.318923,-1.7376933,-3.0047193,2.8838058,4.979625,13.926012,8.355691,-84.13002,42.04931,29.119715,10.988556,14.235297,18.066978,-9.669275,73.4599,41.14737,-26.270433,-9.131071,6.2833977
79,5.945473670959473,45.93927764892578,77.81299591064453,-2.07605572263945,1.319291622773041,92.9154091494458,-19.669468,9.968788,3.164346,77.50572,-9.913059,-4.013324,-6.8449583,2.5799248,-12.81389,13.962348,-10.4920845,-1.642657,-3.0312657,2.7460902,4.9812813,13.922097,8.377061,-84.23597,42.053707,29.085262,10.992574,14.223516,18.091343,-9.647886,73.490425,41.133762,-27.246319,-9.1694765,6.6440816
80,5.988596439361572,46.494873046875,77.85136413574219,-1.995390784995264,1.3519765430668946,92.82630594611125,-20.673967,9.589017,3.0008194,76.81389,-10.180607,-4.004634,-6.1202555,2.6533093,-12.695577,13.354732,-10.649904,-1.5487193,-3.0587494,2.6271148,4.979428,13.913572,8.398548,-84.32698,42.053356,29.063133,10.9944,14.224145,18.11628,-9.632567,73.523,41.11017,-28.211205,-9.177124,6.984992
81,6.028656482696533,47.04489517211914,77.87980651855469,-1.9311936317242815,1.401654852136643,92.72917901362753,-21.652222,9.260085,2.8755586,75.95913,-10.498429,-4.019131,-5.405752,2.7419248,-12.574774,12.718684,-10.785279,-1.45711,-3.0828156,2.533124,4.971025,13.898892,8.421066,-84.40934,42.043945,29.05243,10.995132,14.2499075,18.144434,-9.619391,73.55631,41.07845,-29.244673,-9.138644,7.319206
82,6.060732364654541,47.595272064208984,77.90389251708984,-1.877499698646691,1.468468663060408,92.62695719060238,-22.61259,8.958515,2.7714932,74.94301,-10.8422575,-4.0403357,-4.7043333,2.8375654,-12.453192,12.062614,-10.904209,-1.3658469,-3.1011872,2.4571304,4.953927,13.878851,8.468129,-84.50383,42.00454,29.04922,10.997774,14.288855,18.174616,-9.595877,73.5854,41.052635,-30.453999,-9.0727625,7.6923523
83,6.095130920410156,48.139278411865234,77.92024993896484,-1.828135080414192,1.5480539313215909,92.51943764171465,-23.537102,8.732434,2.747359,73.77958,-11.163084,-4.0307302,-4.017424,2.933203,-12.327193,11.40125,-11.018669,-1.276527,-3.1232219,2.390284,4.932952,13.857212,8.505628,-84.58857,41.973774,29.052761,10.999374,14.3261,18.20449,-9.579331,73.61976,41.02172,-31.57807,-8.999244,8.040512
84,6.122066974639893,48.68001937866211,77.93091583251953,-1.7782497409865858,1.6362012700077861,92.40669223669842,-24.408278,8.628397,2.8633437,72.48216,-11.410531,-3.954569,-3.3570342,3.0200253,-12.194575,10.771486,-11.146248,-1.190349,-3.1424649,2.3258157,4.9111366,13.83704,8.528158,-84.66242,41.964348,29.057543,10.999831,14.348349,18.235775,-9.570228,73.649734,40.988785,-32.362366,-8.933356,8.297914
85,6.147852897644043,49.2211799621582,77.93401336669922,-1.7251388136673027,1.734817658583039,92.28769647061765,-25.22581,8.650826,3.131925,71.04572,-11.588625,-3.8171637,-2.7245295,3.0944526,-12.054859,10.171729,-11.291269,-1.1083071,-3.141868,2.2636712,4.883798,13.8168545,8.562746,-84.75271,41.948586,29.052444,11.006156,14.349974,18.27444,-9.557034,73.65764,40.963852,-32.668888,-8.867988,8.428958
86,6.170432090759277,49.761878967285156,77.93050384521484,-1.671155774070114,1.8452670111397904,92.16339781005834,-25.993755,8.769407,3.5260806,69.46335,-11.7196665,-3.6405926,-2.116804,3.1604278,-11.909921,9.592428,-11.447016,-1.0302923,-3.132034,2.204224,4.852102,13.796517,8.612221,-84.84521,41.92368,29.047554,11.013927,14.336991,18.31714,-9.538218,73.653076,40.94493,-32.659294,-8.794876,8.4753275
87,6.19179630279541,50.3007698059082,77.91905975341797,-1.6199411530765313,1.9629223660287993,92.03468257851563,-26.701668,8.975458,4.050011,67.74707,-11.784015,-3.417881,-1.5321624,3.2206738,-11.759168,9.042088,-11.610942,-0.954973,-3.12416,2.1497834,4.821295,13.777903,8.644253,-84.9198,41.917988,29.047382,11.0190735,14.320444,18.355696,-9.525629,73.65536,40.925156,-32.5204,-8.723645,8.479556
88,6.208975791931152,50.839935302734375,77.9045639038086,-1.5726865440311508,2.0834414775867,91.90309031152316,-27.339119,9.260396,4.707998,65.90971,-11.763275,-3.1414056,-0.97102296,3.2775712,-11.60229,8.53109,-11.7809515,-0.88001335,-3.1073873,2.1039855,4.7956467,13.76061,8.682503,-84.98328,41.905872,29.050238,11.020908,14.3115635,18.389288,-9.509461,73.65616,40.910618,-32.448906,-8.666907,8.485645
89,6.223608016967773,51.37440490722656,77.88265991210938,-1.5306642314032837,2.207036685834634,91.76936705761288,-27.901638,9.658954,5.548583,63.94842,-11.670877,-2.7758055,-0.43555686,3.3314323,-11.436788,8.061482,-11.954986,-0.8003393,-3.0904305,2.0660532,4.7778335,13.743566,8.709784,-85.02281,41.904686,29.06207,11.016066,14.313483,18.412376,-9.496504,73.667336,40.896923,-32.48547,-8.6272,8.498146
90,6.239387512207031,51.911781311035156,77.85484313964844,-1.4915838958291374,2.3357759625438,91.6330060113159,-28.387638,10.148844,6.5638676,61.8585,-11.516848,-2.347672,0.0747417,3.3799582,-11.264495,7.628278,-12.135049,-0.71693766,-3.067795,2.0344357,4.764187,13.725538,8.738989,-85.0509,41.90285,29.0773,11.007775,14.320965,18.429607,-9.480585,73.68025,40.888107,-32.53155,-8.598651,8.495848
91,6.243051528930664,52.44477844238281,77.82438659667969,-1.4567210245700237,2.4675674324220664,91.49327062654484,-28.796038,10.644122,7.667733,59.652634,-11.274778,-1.9362954,0.5379486,3.4183986,-11.091946,7.288649,-12.354995,-0.63764244,-3.0421455,2.0099776,4.752738,13.713595,8.767401,-85.06218,41.9009,29.095358,10.997749,14.32861,18.441998,-9.462998,73.69538,40.886078,-32.562206,-8.578856,8.484437
92,6.242412567138672,52.98167037963867,77.78762817382812,-1.4287575472317822,2.600250430730714,91.34922951562544,-29.131943,11.068325,8.76806,57.34287,-10.914479,-1.6122065,0.84814733,3.4262836,-10.93331,7.281238,-12.745354,-0.566911,-3.0149612,1.9949125,4.741257,13.712321,8.796586,-85.055916,41.894753,29.111454,10.988425,14.331349,18.45114,-9.443099,73.712685,40.893856,-32.5522,-8.565324,8.469205
93,6.240750789642334,53.518123626708984,77.74700164794922,-1.4090697670769705,2.735677190960987,91.19704882033778,-29.397717,11.446272,9.878446,54.92903,-10.402745,-1.3498868,1.1541588,3.4372985,-10.77928,7.2784176,-13.130832,-0.5135373,-2.9763572,1.9936973,4.730581,13.719945,8.80789,-85.03698,41.90485,29.12397,10.980242,14.330779,18.458607,-9.434617,73.72585,40.89987,-32.480053,-8.562597,8.447052
94,6.230673789978027,54.05406188964844,77.70468139648438,-1.3963545721775952,2.874036931281198,91.03864264657925,-29.59057,11.8028755,11.035421,52.402725,-9.762894,-1.1240314,1.454239,3.450302,-10.627448,7.2807,-13.51011,-0.47131905,-2.9475844,1.9977064,4.7220945,13.743999,8.835863,-84.97579,41.89514,29.146055,10.970446,14.322703,18.451689,-9.411786,73.76094,40.93264,-32.359486,-8.569448,8.412825
95,6.219766139984131,54.58551788330078,77.65803527832031,-1.3903546026740032,3.011040052697917,90.88132421914278,-29.717978,12.074376,12.170534,49.76688,-9.039966,-0.99688005,1.7584294,3.4633322,-10.480895,7.2834845,-13.887373,-0.428042,-2.912431,2.0124388,4.71247,13.772031,8.854916,-84.91755,41.89087,29.159916,10.961785,14.31466,18.44987,-9.395096,73.78411,40.959305,-32.23228,-8.577496,8.382658
96,6.200695991516113,55.12413787841797,77.60541534423828,-1.3895969009932507,3.14215773135397,90.73199025420693,-29.784964,12.204879,13.208748,47.01308,-8.27698,-1.0266694,2.0747118,3.474979,-10.3422985,7.2864275,-14.268186,-0.37212268,-2.8865855,2.0328677,4.6998224,13.807864,8.872534,-84.85607,41.880943,29.168081,10.953589,14.304743,18.45757,-9.379017,73.80263,40.97791,-32.13363,-8.576065,8.367118
97,6.1730170249938965,55.6744384765625,77.5481185913086,-1.3955417271317172,3.265343238169866,90.59147048966283,-29.781672,12.197882,14.134192,44.098682,-7.442655,-1.2327551,2.4049761,3.4857726,-10.211717,7.289303,-14.654546,-0.29732755,-2.8656445,2.063033,4.685567,13.851084,8.884073,-84.80046,41.868004,29.164429,10.9479885,14.292559,18.476645,-9.3684225,73.80973,40.984604,-32.075436,-8.56207,8.371139
98,6.149143218994141,56.21699523925781,77.48532104492188,-1.4081830017128483,3.3820830473918533,90.45474969745655,-29.70698,12.093035,14.971846,41.023598,-6.5190816,-1.5705085,2.7465737,3.4979346,-10.086717,7.292343,-15.043675,-0.21126254,-2.8574133,2.0985272,4.6726036,13.906414,8.903688,-84.7236,41.840565,29.160719,10.941484,14.273454,18.49691,-9.35107,73.82217,40.994385,-32.035923,-8.540279,8.387215
99,6.120476245880127,56.76478576660156,77.41650390625,-1.4325372412504667,3.4927911370327527,90.31968978536493,-29.577662,11.897931,15.704163,37.838924,-5.567093,-1.9981267,3.0997498,3.5150976,-9.966135,7.2950077,-15.432226,-0.1235254,-2.8456836,2.1469445,4.657463,13.963846,8.92114,-84.65595,41.808052,29.149975,10.936427,14.257357,18.525845,-9.33696,73.82246,40.998196,-32.005478,-8.516213,8.410913
100,6.077916145324707,57.3262939453125,77.34516906738281,-1.4703971358310925,3.5970510597242504,90.18364810828191,-29.411346,11.622647,16.31618,34.59949,-4.649709,-2.4724503,3.4660046,3.540874,-9.848478,7.295649,-15.816442,-0.04384713,-2.8338413,2.2105722,4.639378,14.0217905,8.937463,-84.593445,41.765717,29.139938,10.93155,14.246692,18.560379,-9.325884,73.8153,40.997738,-31.970339,-8.495478,8.437628
101,6.0343122482299805,57.89027786254883,77.26493835449219,-1.5282643109464955,3.6945027887280992,90.0430783992077,-29.189266,11.268534,16.789577,31.242239,-3.751225,-3.0238497,3.845966,3.5830743,-9.72656,7.293974,-16.198116,0.022721004,-2.8150876,2.2976384,4.6176333,14.081347,8.946611,-84.542564,41.717274,29.12789,10.927867,14.247686,18.607029,-9.321804,73.79608,40.986916,-31.9394,-8.474225,8.468861
102,5.9865922927856445,58.45777893066406,77.17607879638672,-1.6093550247684827,3.77982585175995,89.89370279617562,-28.887539,10.860756,17.131153,27.729666,-2.8385289,-3.644427,4.2442484,3.6458993,-9.597188,7.290051,-16.577833,0.080711,-2.7926657,2.4104369,4.6005163,14.145252,8.955819,-84.48638,41.654068,29.119902,10.923893,14.25141,18.659054,-9.321247,73.76956,40.973392,-31.916203,-8.453188,8.50789
103,5.928861141204834,59.03697204589844,77.08338165283203,-1.7140047045141342,3.845962291130879,89.73084758614229,-28.515862,10.445383,17.367579,24.160007,-1.9483376,-4.240825,4.66909,3.7292626,-9.462709,7.284828,-16.951973,0.13466905,-2.7601304,2.5442607,4.5953774,14.207865,8.967696,-84.42975,41.58026,29.114937,10.919229,14.253204,18.711702,-9.326995,73.73941,40.955082,-31.879608,-8.4385395,8.548477
104,5.864376068115234,59.61796569824219,76.98048400878906,-1.838979638030766,3.8871581166638234,89.55079740745983,-28.097712,10.061947,17.528677,20.656597,-1.1247418,-4.7256093,5.125071,3.8318,-9.326346,7.2821474,-17.31791,0.18939246,-2.7053764,2.6941292,4.6028676,14.260505,8.972198,-84.399635,41.520638,29.093302,10.918316,14.259136,18.762074,-9.332485,73.71471,40.94129,-31.79945,-8.432959,8.575858
105,5.801412582397461,60.20833969116211,76.86431121826172,-1.9900651136697098,3.898411499942346,89.3508819829161,-27.636396,9.703481,17.611185,17.209146,-0.3855492,-5.0755286,5.620785,3.9600692,-9.194921,7.2797136,-17.6838,0.241838,-2.6325965,2.8648965,4.632978,14.305195,8.975938,-84.367294,41.46148,29.07615,10.913269,14.254052,18.807941,-9.341786,73.67826,40.92705,-31.649992,-8.452085,8.602409
106,5.739742279052734,60.80429458618164,76.73790740966797,-2.1768710842250685,3.877220245792121,89.12354698297611,-27.120117,9.39089,17.605492,13.789109,0.2856671,-5.3273134,6.1567063,4.124404,-9.053712,7.2775497,-18.048002,0.28874,-2.5348604,3.065082,4.6838784,14.344623,8.977067,-84.34818,41.404877,29.047663,10.910777,14.2507515,18.851225,-9.348254,73.64935,40.919926,-31.441154,-8.482243,8.619482
107,5.668593883514404,61.400230407714844,76.61135864257812,-2.3948019052288627,3.8265469102283363,88.86710542163618,-26.546652,9.160999,17.540573,10.466756,0.9099537,-5.501101,6.726127,4.318176,-8.882353,7.276201,-18.391382,0.33620843,-2.4055958,3.2943258,4.757681,14.375553,8.977397,-84.33444,41.347954,29.026154,10.907475,14.240051,18.890598,-9.358724,73.61298,40.913593,-31.258314,-8.516741,8.635423
108,5.593069076538086,62.00166320800781,76.48737335205078,-2.6288847360879934,3.7572562849107016,88.58970515747296,-25.857637,8.990592,17.457819,7.157666,1.5910611,-5.633424,7.314696,4.523912,-8.670497,7.275815,-18.694572,0.39224193,-2.2418475,3.543039,4.8452606,14.387257,8.974508,-84.3551,41.297054,28.999159,10.908982,14.229342,18.934237,-9.403056,73.57472,40.873215,-31.171667,-8.536579,8.645445
109,5.511887550354004,62.60883712768555,76.36277770996094,-2.868043438929475,3.6749545753328356,88.29594695408807,-26.38505,9.243189,17.118584,6.704312,0.7813608,-5.73612,7.91675,4.725473,-8.424753,7.279148,-18.95913,0.4595176,-2.0740108,3.7903583,4.9357314,14.39109,8.970263,-84.38703,41.248623,28.966919,10.91893,14.215128,18.9614,-9.429622,73.59086,40.863533,-31.205996,-8.531816,8.632026
110,5.431262493133545,63.21864318847656,76.24217224121094,-3.1022397031997975,3.586347679248534,87.99908737062024,-27.009958,9.510239,16.702236,6.6001515,-0.20445341,-5.801012,8.527283,4.913885,-8.165427,7.284601,-19.19282,0.5373325,-1.9005743,4.034236,5.0238743,14.379731,8.952658,-84.44604,41.21587,28.923138,10.935322,14.201922,18.993746,-9.5022745,73.62921,40.808006,-31.322136,-8.510346,8.607515
111,5.356832027435303,63.834869384765625,76.1246337890625,-3.3211957938617878,3.503944359136679,87.72303575550657,-27.543428,9.723214,16.306513,6.52509,-1.0778439,-5.875008,9.129772,5.075442,-7.9063926,7.2947593,-19.391489,0.62996066,-1.7540301,4.258253,5.100086,14.3629465,8.939694,-84.50458,41.186653,28.88887,10.949938,14.189645,19.008986,-9.543665,73.682625,40.791397,-31.465464,-8.485126,8.5745535
112,5.280202388763428,64.44232940673828,76.00837707519531,-3.5192605467095492,3.4383519269968428,87.487642212695,-27.936657,9.878598,16.003695,6.4817004,-1.7209924,-6.003596,9.711811,5.2052937,-7.6582904,7.3090663,-19.550194,0.74059564,-1.6489437,4.45728,5.1558876,14.342937,8.91864,-84.57139,41.18227,28.863928,10.960809,14.194193,19.023642,-9.601711,73.73993,40.751312,-31.574917,-8.455988,8.540405
113,5.207253932952881,65.05535888671875,75.89350891113281,-3.717109876169844,3.385673237843986,87.29064591317744,-28.154366,10.009118,15.8510475,6.4716167,-2.095432,-6.290745,10.273385,5.329554,-7.415628,7.326951,-19.664486,0.8702119,-1.5884562,4.652526,5.201621,14.316091,8.897669,-84.646545,41.197334,28.860962,10.9642105,14.221248,19.022688,-9.654745,73.807205,40.71863,-31.644213,-8.423899,8.497804
114,5.131692409515381,65.64866638183594,75.78910827636719,-3.9096711351401736,3.344432742265767,87.12747350004055,-28.227585,10.108628,15.795813,6.4869857,-2.2571876,-6.6821566,10.818745,5.4434767,-7.1809855,7.3499517,-19.740217,1.0175829,-1.5650945,4.8392353,5.2357335,14.282459,8.879135,-84.73223,41.226147,28.8734,10.963344,14.264121,19.00907,-9.698742,73.88595,40.69613,-31.7019,-8.386463,8.446148
115,5.04218864440918,66.23751831054688,75.69900512695312,-4.058930324336079,3.326816493661693,87.01164070891022,-28.203667,10.129417,15.740953,6.515605,-2.2341094,-6.979438,11.340925,5.5006332,-6.975684,7.3782663,-19.782406,1.1819645,-1.5867578,4.979079,5.237739,14.251316,8.857277,-84.81498,41.264942,28.885681,10.961725,14.307825,18.999857,-9.747145,73.9576,40.66532,-31.745745,-8.351114,8.401088
116,4.9595537185668945,66.82980346679688,75.61897277832031,-4.127431670961207,3.3413160995429863,86.95257935153825,-28.130215,10.024763,15.588371,6.555085,-2.070812,-6.99093,11.835755,5.4599895,-6.81738,7.414945,-19.798235,1.3615624,-1.6597714,5.0363636,5.193995,14.232252,8.849368,-84.862495,41.286186,28.89526,10.9579735,14.326837,18.99902,-9.763436,73.99346,40.66021,-31.782276,-8.332056,8.381818
117,4.8711395263671875,67.42521667480469,75.55352783203125,-4.093583465242634,3.3966753094731863,86.9745842802559,-27.991505,9.747649,15.272415,6.597514,-1.7500867,-6.6110544,12.297737,5.298818,-6.7264276,7.4627557,-19.805159,1.5639256,-1.7987041,4.9904838,5.0842204,14.232294,8.827044,-84.9323,41.326775,28.881361,10.967073,14.332887,19.037771,-9.804101,74.006325,40.616894,-31.791052,-8.32575,8.389815
118,4.782186031341553,68.04393768310547,75.49820709228516,-3.981981833995936,3.482224682920981,87.06091619250357,-27.772793,9.346098,14.857556,6.6610446,-1.2683116,-5.9604836,12.733195,5.0463386,-6.6871576,7.523027,-19.796152,1.7877319,-2.0010042,4.862432,4.9328823,14.2445,8.8134165,-84.98046,41.362797,28.876337,10.9759865,14.315872,19.08529,-9.825759,73.99299,40.58751,-31.787918,-8.336854,8.425021
119,4.685398578643799,68.671630859375,75.45069885253906,-3.8116644122640837,3.579293798454281,87.16153859751968,-27.500097,8.880978,14.456359,6.730528,-0.6712796,-5.190769,13.158751,4.7200756,-6.665373,7.593159,-19.742393,2.0217316,-2.2151,4.67375,4.753123,14.263578,8.807232,-84.98956,41.380676,28.850922,10.980804,14.296637,19.136621,-9.833888,73.96585,40.566654,-31.777111,-8.345605,8.461986
120,4.57211971282959,69.28845977783203,75.43009185791016,-3.603433825070544,3.6704169125236352,87.22640915792724,-27.20281,8.416458,14.179867,6.795536,-0.007809982,-4.4517,13.586401,4.3417177,-6.626344,7.6741476,-19.615892,2.2535174,-2.3754807,4.4583697,4.5573683,14.280312,8.79783,-84.94805,41.37321,28.782389,10.974174,14.289652,19.192217,-9.843673,73.90249,40.5401,-31.774506,-8.340555,8.487693
121,4.459283828735352,69.91854858398438,75.42268371582031,-3.3274883224678073,3.7671964416736556,87.25503637034886,-27.184052,7.989427,14.031144,7.4794297,0.39671576,-3.6970882,13.590409,3.8184159,-6.608551,8.650977,-19.894829,2.4902747,-2.4979253,4.182508,4.3453155,14.297289,8.776185,-84.776344,41.332012,28.665886,10.941791,14.282363,19.241684,-9.86059,73.803696,40.502937,-31.845884,-8.280743,8.528709
122,4.344535827636719,70.56098937988281,75.42320251464844,-2.980058793202412,3.8711259408059977,87.26224614293318,-27.618233,7.6285677,13.940123,9.209286,0.34283298,-2.8801742,13.347609,3.1718314,-6.5952964,10.149898,-20.389782,2.7361858,-2.6032953,3.835476,4.107959,14.323777,8.7529955,-84.51534,41.260025,28.502718,10.896434,14.278855,19.29204,-9.872892,73.69903,40.465603,-31.953205,-8.179303,8.574288
123,4.229288101196289,71.22136688232422,75.42996978759766,-2.6162995728313065,3.956059183903969,87.22949235725604,-27.887156,7.2568555,13.961669,10.685554,0.47962478,-2.1357427,13.114536,2.502518,-6.534377,11.674485,-20.81031,2.9805374,-2.686978,3.4679437,3.873772,14.353784,8.7249155,-84.211624,41.183445,28.347635,10.845665,14.282422,19.327696,-9.8826065,73.60652,40.437656,-31.974771,-8.122774,8.579412
124,4.109708786010742,71.89320373535156,75.43866729736328,-2.2968476963829287,3.998275833448036,87.14160104628925,-28.006336,6.9576373,14.045804,11.977473,0.73117495,-1.5986731,12.903453,1.8836745,-6.396867,13.239395,-21.13043,3.212803,-2.7344773,3.135256,3.664576,14.377569,8.698781,-83.94192,41.120163,28.23924,10.802703,14.304733,19.3442,-9.888178,73.53623,40.428474,-31.791325,-8.194558,8.493864
125,3.9898018836975098,72.57381439208984,75.44603729248047,-2.040380704143855,3.9888030512577233,86.97388465502878,-27.943207,6.76948,14.202718,13.050252,1.2109015,-1.3984706,12.743342,1.3327862,-6.1486998,14.80357,-21.349033,3.4283419,-2.7333043,2.855313,3.4775085,14.409501,8.670534,-83.66854,41.06308,28.165977,10.76421,14.350095,19.33928,-9.891587,73.50065,40.44059,-31.185791,-8.413835,8.265872
126,3.871079444885254,73.25901794433594,75.45423889160156,-1.8090139264949285,3.946169050778332,86.74542133936033,-27.73917,6.6488485,14.436142,13.96027,1.875077,-1.4224042,12.599407,0.8033104,-5.819248,16.401266,-21.490452,3.633145,-2.6953661,2.5930512,3.2988982,14.4486475,8.638794,-83.375565,41.007088,28.11209,10.726302,14.413601,19.318844,-9.893351,73.48765,40.46881,-30.286371,-8.740682,7.938107
127,3.744663715362549,73.93767547607422,75.47388458251953,-1.5801353361245012,3.8866069227243587,86.50466337608044,-27.494253,6.551032,14.689591,14.859741,2.4357014,-1.4474607,12.40623,0.277152,-5.471719,18.121231,-21.551552,3.830303,-2.6343918,2.330266,3.1382592,14.457573,8.623896,-83.17419,40.964035,28.111158,10.699668,14.490008,19.283966,-9.89249,73.46368,40.503345,-29.487179,-9.169941,7.6058235
128,3.623122453689575,74.60973358154297,75.49938201904297,-1.335119741510065,3.823581003589654,86.29693311560946,-27.296885,6.4297795,14.9151125,15.878036,2.6153977,-1.2611982,12.101609,-0.26133147,-5.1635256,20.053999,-21.52521,4.0209427,-2.6167796,2.0411305,3.0112276,14.4112835,8.617527,-83.09644,40.96909,28.220907,10.6872015,14.564005,19.21238,-9.890752,73.461334,40.546314,-29.16617,-9.686131,7.3535514
129,3.5110559463500977,75.28416442871094,75.53583526611328,-1.0722466804801107,3.7631012849618144,86.12699765205386,-27.215605,6.2844224,15.092572,17.140781,2.2590299,-0.7572405,11.683685,-0.8103081,-4.895065,22.200285,-21.412897,4.2221117,-2.669914,1.7204713,2.9209168,14.297063,8.613906,-83.1261,41.038464,28.483782,10.681481,14.636118,19.084671,-9.887045,73.494286,40.609383,-29.553331,-10.317518,7.202676
130,3.387641191482544,75.93560028076172,75.58483123779297,-0.808389124390353,3.6956825752839464,85.9717051287936,-27.184813,6.129423,15.245171,18.534126,1.552789,-0.074646324,11.187127,-1.3599135,-4.632335,24.507845,-21.20919,4.4182844,-2.7331946,1.3905108,2.8529863,14.126144,8.612364,-83.304535,41.16421,28.83081,10.69401,14.731609,18.925259,-9.87294,73.54224,40.692272,-30.39543,-11.051659,7.0837936
131,3.272329568862915,76.57919311523438,75.64114379882812,-0.5425498283385924,3.6106833911328162,85.83605448405402,-27.088661,5.9369493,15.395537,19.82615,0.7284287,0.62931764,10.612713,-1.9153023,-4.382553,26.976217,-20.894756,4.5642405,-2.7904327,1.0600443,2.822871,13.914156,8.619902,-83.60398,41.316986,29.246527,10.723217,14.811257,18.75218,-9.843342,73.55927,40.7832,-31.392391,-11.835098,6.990065
132,3.155679225921631,77.21983337402344,75.70213317871094,-0.2686460392973798,3.50072518800343,85.72652105029337,-26.816345,5.6807237,15.572398,20.794865,0.007868991,1.2015816,9.96117,-2.4870298,-4.156618,29.599958,-20.45018,4.620813,-2.861464,0.72287136,2.8381739,13.69163,8.638005,-83.968666,41.474888,29.712893,10.770008,14.844834,18.574234,-9.804552,73.56521,40.865646,-32.215225,-12.604681,6.9076395
133,3.036158800125122,77.85882568359375,75.76661682128906,0.01839992288021446,3.3557568884350455,85.66047883013546,-26.338018,5.3509946,15.77715,21.402514,-0.5989319,1.6074566,9.217281,-3.0770473,-3.9720511,32.44774,-19.858917,4.549502,-2.960637,0.37470153,2.9143643,13.442703,8.668131,-84.45142,41.655167,30.269728,10.842313,14.82137,18.389406,-9.756954,73.553085,40.940334,-32.68735,-13.412241,6.792872
134,2.923008918762207,78.48124694824219,75.8366470336914,0.3162832852061677,3.184584592793272,85.63215901099977,-25.722282,4.958437,15.993379,21.772621,-1.2013974,1.9296556,8.389566,-3.6834004,-3.8205411,35.48767,-19.13049,4.3813787,-3.0909579,0.014128981,3.0395029,13.16673,8.706529,-85.04217,41.862316,30.917526,10.934892,14.75595,18.188725,-9.707982,73.53818,41.006134,-33.004192,-14.267118,6.668631
135,2.7897346019744873,79.10398864746094,75.91110229492188,0.6274755699996107,3.0091644367967887,85.61408931707318,-25.007019,4.5134654,16.225258,21.932268,-1.7658875,2.19163,7.498715,-4.310211,-3.6760447,38.596066,-18.289951,4.184754,-3.2182412,-0.35578215,3.1767051,12.900565,8.753872,-85.64504,42.054077,31.558556,11.033138,14.66305,17.99491,-9.656604,73.51544,41.057518,-33.421093,-15.047443,6.6285553
136,2.651947259902954,79.72843933105469,75.99311828613281,0.9525490537555734,2.8512181940538803,85.5788072318314,-24.229475,4.0289836,16.47614,21.909903,-2.2590864,2.41565,6.558886,-4.95987,-3.5101156,41.665386,-17.369888,4.0264435,-3.3202064,-0.73232216,3.291612,12.684528,8.806842,-86.146355,42.19061,32.103203,11.121675,14.5561075,17.822695,-9.607016,73.49693,41.08571,-34.182865,-15.6316,6.761082
137,2.5215911865234375,80.34307098388672,76.07673645019531,1.3058505287358528,2.7136264129864722,85.5200957499547,-23.357718,3.481891,16.758188,21.636538,-2.6538866,2.5994248,5.548812,-5.6513195,-3.3071449,44.745823,-16.377163,3.9147565,-3.3907619,-1.1257857,3.3829207,12.521181,8.863827,-86.52324,42.26459,32.5256,11.202599,14.419613,17.670738,-9.563533,73.473564,41.07992,-35.52299,-15.989566,7.17414
138,2.3850650787353516,80.96170043945312,76.1595458984375,1.6791680442321038,2.586104293891859,85.4532376763421,-22.384935,2.8770053,17.058744,21.121668,-2.974521,2.7320473,4.4634604,-6.3709702,-3.082296,47.88062,-15.300219,3.815616,-3.4470136,-1.5305768,3.4674811,12.3907385,8.923838,-86.82884,42.298542,32.875633,11.281488,14.253015,17.531038,-9.529063,73.446915,41.04285,-37.25106,-16.199568,7.793622
139,2.2571542263031006,81.57365417480469,76.24317169189453,2.0423237007062016,2.470439673812511,85.3830474212391,-21.384613,2.2678032,17.347616,20.507277,-3.2615416,2.8229916,3.337957,-7.0769615,-2.8529472,50.95997,-14.147521,3.7282932,-3.4965599,-1.9202365,3.5384505,12.295288,8.984138,-87.07004,42.300323,33.172882,11.348959,14.093848,17.41257,-9.503343,73.43665,40.98904,-38.98071,-16.295816,8.436996
140,2.130892276763916,82.19110107421875,76.32608032226562,2.3659741571794966,2.368356132063621,85.31395486198068,-20.430979,1.7065883,17.600822,19.938242,-3.5571976,2.8837636,2.2017708,-7.7353725,-2.637813,53.885353,-12.932411,3.6480782,-3.5495088,-2.272609,3.5879788,12.238924,9.034706,-87.25,42.28551,33.437904,11.395737,13.980144,17.324928,-9.485218,73.465965,40.935024,-40.32632,-16.294214,8.921869
141,2.0107595920562744,82.8044662475586,76.40311431884766,2.652624731623198,2.2841476653157144,85.24548756714357,-19.537857,1.194498,17.822786,19.431671,-3.8646178,2.9097192,1.0282598,-8.366156,-2.4415267,56.694164,-11.517765,3.566963,-3.5939975,-2.593769,3.6083314,12.22556,9.10506,-87.374596,42.21604,33.657703,11.418156,13.933085,17.273605,-9.458289,73.55531,40.887596,-41.355534,-16.087448,9.236048
142,1.900303602218628,83.40306854248047,76.47108459472656,2.9147214587618655,2.2155500312657446,85.17674876857967,-18.66427,0.7081448,18.02489,18.912039,-4.1614084,2.8980887,-0.19333301,-8.984433,-2.2570643,59.430367,-9.9452915,3.4747765,-3.640161,-2.8929152,3.6046603,12.253973,9.183493,-87.42797,42.103664,33.829514,11.420878,13.928097,17.248901,-9.424547,73.70013,40.843304,-42.214718,-15.6951,9.471048
143,1.793519377708435,83.99573516845703,76.5380630493164,3.136850978442696,2.1542491495677347,85.11177222536334,-17.813656,0.26425365,18.19697,18.40616,-4.460301,2.8655589,-1.4081358,-9.555552,-2.0888104,62.007584,-8.504333,3.3695376,-3.6892774,-3.1501954,3.5895336,12.313624,9.258182,-87.43231,41.98222,33.980255,11.413536,13.935698,17.249119,-9.38942,73.83747,40.813,-42.649315,-15.314661,9.59347
144,1.6918739080429077,84.57796478271484,76.60313415527344,3.3067474527605882,2.0917328915503037,85.05441661714163,-16.988703,-0.12042211,18.329853,17.939217,-4.7726836,2.8293116,-2.561229,-10.036951,-1.9428707,64.34356,-7.484738,3.2615676,-3.7451167,-3.3472867,3.5753443,12.394427,9.3287,-87.40559,41.87322,34.13683,11.405657,13.925549,17.27174,-9.354785,73.90897,40.809082,-42.40481,-15.143488,9.562518
145,1.585902214050293,85.1559066772461,76.66893768310547,3.418100075972679,2.0273571547922487,85.00143074783529,-16.19979,-0.4338676,18.425282,17.535368,-5.1112447,2.7913818,-3.630694,-10.426876,-1.8422195,66.428696,-6.9965057,3.190422,-3.8043802,-3.475879,3.5632331,12.499102,9.382904,-87.34903,41.791225,34.306557,11.397135,13.886464,17.322527,-9.328016,73.89829,40.83726,-41.0349,-15.276651,9.281212
146,1.4876976013183594,85.72904968261719,76.73698425292969,3.480651870220928,1.9647134845324963,84.95355635111716,-15.446706,-0.6882411,18.490376,17.184114,-5.4702997,2.7459698,-4.65118,-10.746758,-1.7808115,68.32037,-6.882666,3.1486173,-3.8678348,-3.5502677,3.5467546,12.633746,9.449556,-87.25129,41.696945,34.47724,11.384155,13.833961,17.397001,-9.295433,73.83929,40.899605,-38.797573,-15.609022,8.806502
147,1.3924343585968018,86.2950668334961,76.807373046875,3.5024306205801747,1.9021166263662046,84.9172131730089,-14.712223,-0.8991961,18.524197,16.855501,-5.8338404,2.6969802,-5.643187,-10.97826,-1.7225183,70.01742,-7.026148,3.0871582,-3.9353867,-3.5760348,3.5295305,12.782909,9.501334,-87.12986,41.62069,34.635773,11.369224,13.784421,17.493057,-9.270694,73.73034,40.96403,-36.506058,-16.027122,8.329729
148,1.3107545375823975,86.86400604248047,76.88005828857422,3.4923648938584844,1.8379034880290082,84.90056377714593,-13.983697,-1.0823424,18.523685,16.52629,-6.187986,2.6476908,-6.6300898,-11.102373,-1.6320747,71.519356,-7.3102245,2.9590595,-4.012725,-3.562295,3.5138552,12.933383,9.52371,-86.997536,41.581482,34.76929,11.35595,13.754609,17.60176,-9.260263,73.58429,41.006256,-34.966084,-16.390606,8.019855
149,1.2325738668441772,87.4240493774414,76.95294952392578,3.4432581784138607,1.770986629993073,84.90254579264474,-13.262879,-1.2267457,18.486755,16.20556,-6.537512,2.5960374,-7.617994,-11.083032,-1.4911928,72.81479,-7.8401465,2.710469,-4.1028037,-3.4998276,3.5020332,13.092154,9.5450115,-86.83123,41.55224,34.887024,11.340071,13.746366,17.72709,-9.251032,73.38324,41.03391,-34.498688,-16.665434,7.933116
150,1.1395748853683472,87.98994445800781,77.02709197998047,3.353936298146976,1.7025597699794015,84.91960841640717,-12.556647,-1.3271953,18.417177,15.906715,-6.8897343,2.5407152,-8.593441,-10.930582,-1.3250618,73.90632,-8.629877,2.3924327,-4.2006454,-3.3884215,3.4909425,13.262698,9.556967,-86.64105,41.539764,34.98555,11.323864,13.755307,17.872921,-9.246555,73.132935,41.05206,-34.63495,-16.913502,7.9643955
151,1.049442172050476,88.54257202148438,77.09986877441406,3.2426405419794646,1.633776876032384,84.95644200390718,-11.853096,-1.407815,18.31938,15.59981,-7.229818,2.4853365,-9.550353,-10.697518,-1.1644436,74.8113,-9.424348,2.1132586,-4.304384,-3.2537785,3.48325,13.428736,9.559093,-86.450806,41.540524,35.063267,11.311369,13.768417,18.021341,-9.246699,72.86033,41.062786,-35.013077,-17.137394,8.039235
152,0.9646828174591064,89.0959701538086,77.17352294921875,3.1281736767849937,1.565751005191311,85.01774726746234,-11.145701,-1.4919072,18.1977,15.265905,-7.5446477,2.4335694,-10.482377,-10.446306,-1.0423683,75.54576,-9.968325,1.9745173,-4.4039645,-3.120225,3.4845521,13.57113,9.55368,-86.28643,41.54796,35.123528,11.305032,13.770011,18.15484,-9.250943,72.57459,41.067936,-35.276848,-17.342815,8.091245
153,0.8810879588127136,89.64832305908203,77.24688720703125,3.009337189083667,1.4946728893685537,85.10908770904523,-10.427666,-1.5810187,18.044872,14.896125,-7.8296785,2.3901033,-11.379389,-10.200592,-0.9950239,76.09972,-10.155748,2.0380535,-4.506971,-2.9891653,3.497429,13.685761,9.540708,-86.15352,41.565018,35.160393,11.31058,13.757264,18.27689,-9.258612,72.27028,41.066273,-35.355095,-17.52272,8.098254
154,0.809448778629303,90.19124603271484,77.31757354736328,2.878495632863764,1.4213209538062932,85.22665831516873,-9.704539,-1.6630899,17.86135,14.504331,-8.091568,2.351248,-12.247185,-9.928234,-0.9985975,76.46755,-10.133609,2.2364821,-4.6079125,-2.8485298,3.5204182,13.7796545,9.516409,-86.04484,41.597313,35.175186,11.324389,13.737792,18.394733,-9.271268,71.932526,41.055573,-35.432377,-17.679142,8.100056
155,0.7355409860610962,90.73292541503906,77.3843765258789,2.7452825016858453,1.3541921267601322,85.3609305126304,-8.985083,-1.7428681,17.662207,14.094274,-8.337013,2.3086133,-13.104849,-9.610189,-0.9940738,76.67415,-10.030207,2.4797354,-4.716029,-2.7111385,3.5406172,13.867156,9.493489,-85.94197,41.623013,35.17333,11.341301,13.716918,18.494696,-9.282834,71.6313,41.047142,-35.516888,-17.816196,8.106129
156,0.6693381667137146,91.2801284790039,77.4495620727539,2.617730171936005,1.3015155516411099,85.50236052474345,-8.276964,-1.8246813,17.46174,13.668089,-8.571507,2.2542753,-13.970937,-9.223914,-0.9238513,76.74401,-9.9735,2.6773312,-4.7996864,-2.5771642,3.5523927,13.94326,9.456883,-85.87277,41.652214,35.14987,11.355201,13.703136,18.578217,-9.302553,71.37087,41.02934,-35.63437,-17.94698,8.138529
157,0.6070609092712402,91.82201385498047,77.5076904296875,2.4976105113169496,1.2639035175040176,85.65197889967983,-7.5772996,-1.9113741,17.26091,13.217214,-8.791466,2.184296,-14.854248,-8.744424,-0.7582729,76.67848,-9.974353,2.7907388,-4.8883634,-2.4570122,3.5481622,14.022812,9.43184,-85.80606,41.654465,35.112644,11.36685,13.695323,18.627775,-9.318304,71.206474,41.020695,-35.80864,-18.069263,8.192626
158,0.5438669323921204,92.36003112792969,77.55834197998047,2.3803700618591024,1.2372515565507802,85.81408502352964,-6.8835015,-1.9993875,17.052721,12.744778,-8.996362,2.1038432,-15.741301,-8.19105,-0.53243256,76.464165,-9.971999,2.8728306,-4.9660907,-2.3401434,3.5371056,14.094151,9.400685,-85.76044,41.65253,35.059303,11.377806,13.690751,18.658785,-9.341547,71.08226,41.00334,-36.03137,-18.183172,8.267697
159,0.48383426666259766,92.905029296875,77.60786437988281,2.2675471270925036,1.2231780551996174,85.98333313580908,-6.201916,-2.0874119,16.840727,12.263555,-9.19289,2.0189035,-16.618118,-7.6112814,-0.28464997,76.10356,-9.987158,2.9690087,-5.037077,-2.2311285,3.5184915,14.160516,9.379259,-85.727715,41.634033,34.985523,11.387222,13.689283,18.670698,-9.360743,71.015015,40.995026,-36.22467,-18.280815,8.354193
160,0.42877495288848877,93.43779754638672,77.64430236816406,2.1593536113838394,1.2233745971532208,86.15450352319728,-5.5388575,-2.1734068,16.628584,11.786703,-9.39004,1.9354422,-17.47109,-7.051707,-0.05402852,75.59913,-10.040789,3.124295,-5.090762,-2.1247015,3.497123,14.216553,9.3398075,-85.71072,41.63013,34.89021,11.391419,13.691462,18.678288,-9.402442,70.98877,40.968254,-36.320686,-18.359314,8.454119
161,0.374322772026062,93.97755432128906,77.6732177734375,2.0571286099118526,1.2365886851850312,86.3282212000439,-4.886153,-2.2600658,16.415518,11.301271,-9.581625,1.8490416,-18.29143,-6.50257,0.1705042,74.93455,-10.155919,3.3789518,-5.125345,-2.02732,3.469617,14.265376,9.316435,-85.713684,41.605713,34.759293,11.390653,13.697899,18.670876,-9.432461,71.02364,40.96177,-36.28494,-18.41427,8.579536
162,0.3264078199863434,94.51519012451172,77.69735717773438,1.9599935012959093,1.262566392395404,86.50708078851443,-4.243474,-2.3470726,16.1996,10.805344,-9.766832,1.7589972,-19.085974,-5.9499884,0.40299934,74.111824,-10.316271,3.6954818,-5.1515083,-1.9349805,3.4366615,14.307005,9.281115,-85.72827,41.585163,34.599697,11.384949,13.709357,18.652176,-9.487799,71.12403,40.935364,-36.155624,-18.447256,8.729621
163,0.28106793761253357,95.03929901123047,77.71228790283203,1.8667664031082742,1.3042720092505462,86.68829995004494,-3.6333816,-2.4285567,15.983934,10.33777,-9.9588175,1.6758095,-19.866917,-5.43453,0.6095637,73.16134,-10.483462,4.003771,-5.167497,-1.8463466,3.4001577,14.341307,9.244382,-85.75153,41.565517,34.4356,11.377239,13.720998,18.627842,-9.555411,71.253716,40.900818,-35.98036,-18.463953,8.8680105
164,0.23202912509441376,95.57023620605469,77.72248077392578,1.7773285295236898,1.3647477912912258,86.8691513644949,-3.0796719,-2.4988387,15.771748,9.93928,-10.171547,1.6092305,-20.645676,-4.993712,0.7569997,72.11198,-10.618308,4.237435,-5.1684494,-1.7601589,3.3615918,14.367813,9.222334,-85.7841,41.538124,34.28947,11.370992,13.7276325,18.596684,-9.600003,71.37557,40.892933,-35.80568,-18.471222,8.955946
165,0.18877354264259338,96.09320068359375,77.73057556152344,1.6927781423021209,1.4498515485103511,87.04819894245546,-2.593227,-2.5583992,15.565741,9.615848,-10.402661,1.5606878,-21.434498,-4.620948,0.8577165,70.96411,-10.720626,4.389517,-5.162525,-1.6760161,3.3164198,14.386567,9.19955,-85.81968,41.517246,34.16833,11.365238,13.728826,18.559738,-9.646586,71.50999,40.889397,-35.61292,-18.457891,8.966128
166,0.14280059933662415,96.60869598388672,77.72856140136719,1.6127385464113886,1.5563340056494412,87.22725475598072,-2.1602125,-2.6092272,15.3642435,9.348482,-10.64741,1.5238897,-22.222137,-4.3007445,0.9211133,69.70107,-10.80581,4.491292,-5.1535244,-1.5931948,3.2659602,14.397742,9.16225,-85.85611,41.51252,34.06006,11.358196,13.727826,18.519457,-9.719814,71.672,40.864834,-35.38575,-18.423843,8.925601
167,0.10343873500823975,97.12794494628906,77.72171783447266,1.5343959480482063,1.6735635786297665,87.40732649222913,-1.7676271,-2.64975,15.162942,9.136333,-10.913205,1.4974124,-22.988064,-4.0522456,0.91355896,68.332634,-10.861411,4.5440874,-5.1313124,-1.5133278,3.218632,14.403984,9.132435,-85.896706,41.5057,33.961594,11.352405,13.72412,18.476305,-9.77553,71.81782,40.85916,-35.174206,-18.392773,8.876166
168,0.06491139531135559,97.6414794921875,77.70944213867188,1.4561483796556902,1.7911638425572638,87.58945849487893,-1.4039617,-2.6767213,14.957896,8.982963,-11.209921,1.4796635,-23.711475,-3.8932977,0.79951,66.86634,-10.873767,4.549043,-5.114767,-1.4364139,3.1831012,14.413154,9.095407,-85.914406,41.50954,33.87477,11.347561,13.7186165,18.43747,-9.842249,71.94322,40.840553,-35.01284,-18.381363,8.861545
169,0.02144065499305725,98.1446533203125,77.68891143798828,1.3728800752469734,1.9103611428911118,87.773755285612,-1.084193,-2.6828268,14.748003,8.914733,-11.551211,1.4767421,-24.395803,-3.8367996,0.5536143,65.303604,-10.847495,4.4907537,-5.094652,-1.3607295,3.1614509,14.42276,9.067641,-85.9178,41.510643,33.79991,11.345256,13.706446,18.399254,-9.89186,72.03063,40.8361,-34.921154,-18.399994,8.904726
170,-0.006165736820548773,98.6497802734375,77.66255950927734,1.2878871244442842,2.0354999937362215,87.95953553875115,-0.8101148,-2.671037,14.535627,8.925781,-11.931293,1.4862939,-25.046316,-3.8641043,0.1970156,63.638527,-10.78786,4.380092,-5.0755177,-1.2865361,3.1495702,14.432306,9.037729,-85.9051,41.518272,33.738228,11.344087,13.68931,18.36058,-9.9453745,72.10178,40.827496,-34.870728,-18.43549,8.979425
171,-0.03200235217809677,99.15750885009766,77.63294219970703,1.2058529966489004,2.1603941762881833,88.14670477759167,-0.5458451,-2.6549852,14.321929,8.955453,-12.319626,1.4944112,-25.645166,-3.9457953,-0.23634566,61.868214,-10.681393,4.2567334,-5.054067,-1.217838,3.1449943,14.444712,9.010072,-85.88013,41.52692,33.684464,11.344083,13.675242,18.328579,-9.994381,72.151634,40.821587,-34.853035,-18.478592,9.051539
172,-0.05299355834722519,99.66094970703125,77.59625244140625,1.1322443191531144,2.2789761442588485,88.3354794686506,-0.25637096,-2.6485832,14.108236,8.947923,-12.69038,1.4872786,-26.175581,-4.0553465,-0.71077216,59.989307,-10.514186,4.1586103,-5.031725,-1.1592671,3.1453907,14.4649515,8.984633,-85.84097,41.533806,33.63546,11.344673,13.672756,18.311714,-10.036922,72.18181,40.816677,-34.858124,-18.519117,9.087334
173,-0.07629557698965073,100.1668701171875,77.56227111816406,1.0716687933044657,2.3879374403485225,88.52862728614056,0.0657737,-2.6583092,13.890392,8.889389,-13.036304,1.4602346,-26.628614,-4.2050247,-1.2341813,57.987312,-10.303611,4.087184,-5.0104046,-1.1155784,3.1553216,14.4941,8.956615,-85.782814,41.545975,33.594463,11.347096,13.687853,18.31257,-10.078435,72.191025,40.810024,-34.89507,-18.56305,9.067893
174,-0.0896051749587059,100.67488861083984,77.52454376220703,1.0206033835869033,2.490988950625097,88.72531262010655,0.40163818,-2.6749265,13.669339,8.8116255,-13.373165,1.4200883,-27.01235,-4.3978043,-1.8220831,55.866455,-10.049827,4.028864,-4.986818,-1.0835351,3.173957,14.530363,8.932598,-85.71012,41.558002,33.56208,11.351528,13.714694,18.326473,-10.108561,72.17662,40.811386,-34.966976,-18.613312,9.013908
175,-0.10532799363136292,101.18138885498047,77.4842529296875,0.9710563314093572,2.5927184383276227,88.9205679575739,0.74925214,-2.6878536,13.452944,8.7183,-13.701456,1.3705285,-27.334654,-4.5948014,-2.4495542,53.64602,-9.7101345,3.9951687,-4.9632936,-1.053688,3.1920898,14.571399,8.908615,-85.62696,41.56725,33.529823,11.354569,13.743858,18.348658,-10.13415,72.14866,40.811886,-35.04659,-18.653408,8.952531
176,-0.11800116300582886,101.69452667236328,77.4441146850586,0.9161830769220546,2.697390064571998,89.10944663487751,1.1067946,-2.687464,13.250213,8.6132,-14.02298,1.3168306,-27.605928,-4.7601914,-3.0900772,51.348225,-9.239964,3.9946659,-4.93598,-1.0169814,3.1997375,14.614938,8.891611,-85.54527,41.562016,33.487625,11.354572,13.765906,18.37447,-10.150336,72.11133,40.81226,-35.107468,-18.66724,8.910566
177,-0.11956703662872314,102.20832824707031,77.39913177490234,0.8506239077179588,2.808492778999818,89.29004727099483,1.4668167,-2.66613,13.065085,8.507187,-14.340581,1.2589656,-27.828276,-4.8960805,-3.7589526,48.965748,-8.590551,4.032364,-4.9090953,-0.9684389,3.1941,14.661446,8.873579,-85.454994,41.545883,33.431503,11.348105,13.773694,18.40174,-10.166456,72.06698,40.800808,-35.130013,-18.638191,8.897235
178,-0.13039690256118774,102.72653198242188,77.35311889648438,0.7788235888651562,2.922736186724832,89.46541084901455,1.8338236,-2.6322486,12.892537,8.393008,-14.6519575,1.1966476,-27.994267,-5.0163736,-4.462672,46.486034,-7.794556,4.1018457,-4.8861914,-0.9131243,3.1809022,14.712488,8.844443,-85.35048,41.53135,33.368744,11.3366375,13.773738,18.437592,-10.191251,72.01377,40.7699,-35.134995,-18.5786,8.898554
179,-0.1427883803844452,103.2491455078125,77.30473327636719,0.711526110117766,3.0342908279791887,89.63788880059433,2.221499,-2.5995061,12.726939,8.252207,-14.951878,1.1298194,-28.103586,-5.107869,-5.1584916,43.924587,-6.9340963,4.1920905,-4.8586707,-0.8597377,3.163832,14.764447,8.825729,-85.25497,41.50429,33.30258,11.325703,13.777227,18.477043,-10.206877,71.954124,40.743824,-35.1438,-18.516603,8.905067
180,-0.14600902795791626,103.77493286132812,77.25450897216797,0.6572744957375313,3.137445739235442,89.81017065357477,2.645873,-2.5819635,12.561858,8.060747,-15.231746,1.0586363,-28.156748,-5.1606016,-5.8023925,41.29675,-6.0914097,4.291224,-4.836336,-0.81775165,3.149406,14.815087,8.808424,-85.1623,41.47916,33.24822,11.314549,13.791073,18.51782,-10.221903,71.90171,40.719105,-35.180748,-18.480583,8.912463
181,-0.14565512537956238,104.30258178710938,77.19646453857422,0.6191844509539832,3.2259581666856953,89.98287024811792,3.1255758,-2.5854425,12.395683,7.7937613,-15.482617,0.9818941,-28.140654,-5.1814227,-6.3858657,38.57984,-5.2610555,4.3985357,-4.8205185,-0.78855556,3.1427293,14.866737,8.789973,-85.06342,41.455784,33.211586,11.303144,13.824958,18.562094,-10.239545,71.85798,40.69619,-35.265846,-18.483015,8.915059
182,-0.1408088505268097,104.83863067626953,77.13664245605469,0.5919914393132301,3.3036627312305638,90.1562020745145,3.649054,-2.6035182,12.230041,7.466764,-15.708653,0.9003457,-28.055523,-5.178069,-6.9285145,35.763386,-4.4028044,4.5166717,-4.8162303,-0.7700594,3.140697,14.920288,8.761394,-84.95251,41.44156,33.187725,11.289364,13.871944,18.610477,-10.270868,71.8248,40.66071,-35.37948,-18.506048,8.918163
183,-0.13355036079883575,105.37785339355469,77.0729751586914,0.5785633883730801,3.3788835129475987,90.33247770041962,4.0331573,-2.5967853,12.070595,7.456115,-16.103262,0.8148689,-27.920757,-5.1454973,-7.427977,32.877342,-3.5453436,4.6364617,-4.8168426,-0.7609739,3.1354728,14.97034,8.735099,-84.86218,41.42869,33.16338,11.277923,13.917523,18.661255,-10.304073,71.79407,40.619205,-35.492214,-18.53518,8.929042
184,-0.1254822015762329,105.92129516601562,77.00304412841797,0.5773785588333015,3.4596955988498133,90.51439393912071,4.413273,-2.5998094,11.908646,7.4468226,-16.49488,0.73031396,-27.753386,-5.0820365,-7.8811774,29.948711,-2.7159927,4.747964,-4.8245206,-0.7637331,3.119904,15.014493,8.720278,-84.81001,41.414093,33.13227,11.270346,13.944783,18.710262,-10.325857,71.763985,40.580833,-35.576576,-18.555952,8.955636
185,-0.11700418591499329,106.4677505493164,76.92631530761719,0.5948725987148815,3.5484634882464396,90.70407544201281,4.785579,-2.6181688,11.740818,7.4390693,-16.884722,0.64700896,-27.55269,-4.9953327,-8.272485,26.952894,-1.9065927,4.8382835,-4.8470874,-0.78293866,3.0897965,15.052863,8.710949,-84.80194,41.40398,33.090355,11.266892,13.944193,18.757332,-10.342582,71.73914,40.53828,-35.575424,-18.571512,8.992031
186,-0.09726542979478836,107.01775360107422,76.84284210205078,0.634431198074126,3.6370231547694036,90.90501120085402,5.161734,-2.6573591,11.564081,7.4283223,-17.272749,0.5646268,-27.300207,-4.9014993,-8.606076,23.870396,-1.1008779,4.910874,-4.890195,-0.8246038,3.0527027,15.088534,8.707302,-84.821075,41.396843,33.04546,11.266008,13.924925,18.802021,-10.351511,71.72262,40.49794,-35.520714,-18.586998,9.036087
187,-0.08149433135986328,107.5724105834961,76.75057983398438,0.6983495801936674,3.7163942139799215,91.12286363310177,5.54806,-2.718336,11.376378,7.421228,-17.656885,0.48558187,-26.991035,-4.8134313,-8.908986,20.743286,-0.3159755,4.9804916,-4.952139,-0.88905853,3.0222561,15.117906,8.705775,-84.8557,41.39495,33.003365,11.2663355,13.900902,18.844881,-10.358624,71.709274,40.450867,-35.51365,-18.591095,9.105572
188,-0.05944020673632622,108.1349105834961,76.64077758789062,0.7892916419232636,3.7773495790170357,91.36392118792244,5.9560337,-2.804561,11.175019,7.4157443,-18.031397,0.41295004,-26.620625,-4.7433286,-9.2086115,17.614584,0.4277216,5.0637813,-5.0273056,-0.9763291,3.0098946,15.13955,8.706726,-84.90747,41.39694,32.96568,11.2691765,13.889263,18.890509,-10.370673,71.69032,40.39243,-35.656754,-18.572367,9.215681
189,-0.03692783787846565,108.69844818115234,76.52442169189453,0.9102247231558119,3.8183725869521097,91.63362217116422,6.386745,-2.9213507,10.954763,7.4125266,-18.401056,0.35373506,-26.186787,-4.6896553,-9.498382,14.453753,1.1280963,5.1389565,-5.145337,-1.0980761,3.0209851,15.156983,8.70834,-84.929375,41.4028,32.95326,11.267964,13.886635,18.922709,-10.373715,71.692276,40.340847,-35.863987,-18.569164,9.349599
190,-0.006286988966166973,109.26874542236328,76.40257263183594,1.0693375294151037,3.8388728489215276,91.93589323646623,6.839185,-3.0757523,10.709478,7.413785,-18.767618,0.30660278,-25.678703,-4.669006,-9.770512,11.232447,1.8050684,5.2011538,-5.2919536,-1.2563996,3.047432,15.170333,8.71605,-84.969444,41.410732,32.94579,11.269872,13.8945465,18.954796,-10.378576,71.701256,40.28325,-36.115368,-18.572777,9.502945
191,0.025511082261800766,109.84297180175781,76.27416229248047,1.2634081935621653,3.834044107492521,92.26579059499171,7.320702,-3.2640514,10.4425125,7.4151306,-19.1184,0.26007316,-25.044214,-4.6876116,-10.056549,7.910917,2.5207412,5.29729,-5.4723573,-1.4517531,3.0962367,15.179918,8.729082,-85.00423,41.419933,32.94438,11.272072,13.901081,18.984356,-10.380828,71.718925,40.21597,-36.615795,-18.504663,9.719206
192,0.061404671519994736,110.41456604003906,76.13434600830078,1.4828230995349834,3.8042312242718186,92.61279037664063,7.8306193,-3.4711344,10.162843,7.4171247,-19.442522,0.20049311,-25.241367,-4.9121885,-10.30322,6.604486,2.2032206,5.4847856,-5.6721764,-1.6724656,3.1649067,15.187763,8.748773,-85.03957,41.427643,32.93971,11.277226,13.900862,19.009474,-10.379017,71.744606,40.13669,-37.55797,-18.287779,10.040533
193,0.09990226477384567,110.99247741699219,75.99314880371094,1.730937223107333,3.7446742970683284,92.98592511817644,8.374188,-3.700499,9.8744335,7.4193583,-19.742107,0.12738639,-25.910145,-5.273394,-10.557448,6.5095034,1.2364521,5.8499618,-5.9004035,-1.9239329,3.2576537,15.19173,8.774255,-85.07788,41.4383,32.92745,11.285379,13.8827505,19.033266,-10.37107,71.77565,40.033146,-39.2837,-17.852266,10.565709
194,0.1421370506286621,111.57707977294922,75.85132598876953,1.9943200670649077,3.6652850472766256,93.37464356647868,8.9406185,-3.937326,9.582847,7.4234967,-20.022167,0.043433484,-26.51716,-5.647781,-10.848381,6.4367485,0.24724163,6.3416395,-6.1406665,-2.1922805,3.3650408,15.192599,8.833428,-85.12585,41.4243,32.910477,11.297573,13.851897,19.053661,-10.342442,71.8051,39.92923,-41.595642,-17.276129,11.25937
195,0.18503573536872864,112.1628189086914,75.70945739746094,2.2443777030859806,3.5881175228004087,93.73952989952029,9.505861,-4.1495876,9.301101,7.4315023,-20.275364,-0.058470465,-27.047396,-5.998813,-11.145061,6.399044,-0.6821669,6.8187413,-6.3608603,-2.4452233,3.4684608,15.191665,8.890244,-85.16777,41.41296,32.898262,11.307237,13.828776,19.066412,-10.307569,71.83812,39.838406,-43.88167,-16.693396,11.958785
196,0.22682105004787445,112.75060272216797,75.58253479003906,2.4386109361822004,3.535773240030851,94.03772384540353,10.044969,-4.2886105,9.0473385,7.447003,-20.49584,-0.18854855,-27.461323,-6.2633233,-11.42566,6.3626375,-1.446429,7.1382637,-6.518439,-2.6373584,3.5510905,15.188858,8.934583,-85.198166,41.408295,32.89616,11.310036,13.833482,19.073952,-10.276397,71.87143,39.776176,-45.53711,-16.21176,12.478981
197,0.2698841691017151,113.33094787597656,75.45645141601562,2.617106564537779,3.4946635721383683,94.27251153465487,10.572883,-4.4043264,8.807365,7.4664116,-20.682047,-0.34523296,-27.746008,-6.4857326,-11.692038,6.370049,-2.11441,7.361611,-6.613518,-2.8100407,3.6269283,15.181491,8.979233,-85.21379,41.39747,32.91042,11.302248,13.891683,19.070894,-10.242265,71.9084,39.75797,-46.33376,-15.831855,12.727769
198,0.3116619884967804,113.90357971191406,75.33808135986328,2.785264295530849,3.4654404600283404,94.45831504854675,11.088362,-4.502357,8.584007,7.489875,-20.83687,-0.5247979,-27.923344,-6.6675315,-11.953736,6.4077296,-2.701021,7.5357585,-6.662316,-2.970704,3.693563,15.169817,9.019262,-85.21721,41.390762,32.935627,11.286963,13.986467,19.063747,-10.209233,71.95028,39.760426,-46.62005,-15.488918,12.806879
199,0.37061288952827454,114.47242736816406,75.22984313964844,2.8881212492473023,3.4682536986522705,94.58008285752553,11.57311,-4.5194125,8.410686,7.521035,-20.963573,-0.7259103,-28.02009,-6.739726,-12.175003,6.445816,-3.073538,7.49846,-6.655708,-3.0597258,3.7313654,15.163812,9.070525,-85.212585,41.36193,32.964523,11.273851,14.070105,19.045294,-10.163424,71.99686,39.79867,-46.642494,-15.179955,12.807792
200,0.421468585729599,115.04940032958984,75.13597869873047,2.8854035242925207,3.5273098982356683,94.62731763612277,12.005081,-4.411201,8.317212,7.558618,-21.060898,-0.9435178,-28.086685,-6.654123,-12.309065,6.4906864,-3.1207943,7.0872903,-6.577244,-3.0318608,3.7178736,15.160502,9.094236,-85.21823,41.351562,32.98244,11.268271,14.100508,19.031536,-10.139908,72.02653,39.819176,-46.656773,-14.905943,12.836111
201,0.47024866938591003,115.63130950927734,75.0625991821289,2.7277733219915254,3.6649772108127614,94.56244056981572,12.360151,-4.1224127,8.346649,7.6102204,-21.144932,-1.1870693,-28.123156,-6.340159,-12.332049,6.529069,-2.7442076,6.078869,-6.3999467,-2.8345768,3.6375365,15.173039,9.130653,-85.23553,41.30187,32.992714,11.281267,14.043027,19.00106,-10.098125,72.06829,39.886433,-46.675953,-14.669965,12.884424
202,0.5209230780601501,116.21961975097656,75.00311279296875,2.454124161777193,3.865137096564486,94.40649550931661,12.653672,-3.7006607,8.470004,7.674663,-21.210526,-1.4546081,-28.12432,-5.8585386,-12.274017,6.5887055,-2.0412056,4.6133366,-6.13529,-2.5098288,3.5048614,15.189109,9.148113,-85.263176,41.25773,32.99985,11.303321,13.929867,18.967249,-10.073202,72.102776,39.9534,-46.58887,-14.473682,12.91656
203,0.5798361897468567,116.80281066894531,74.97470092773438,2.117545434715277,4.075537242844051,94.23043597228948,12.938709,-3.2011082,8.617516,7.753116,-21.235954,-1.7345742,-28.061872,-5.2957597,-12.199549,6.646203,-1.1538737,3.0687728,-5.8536887,-2.1184359,3.347284,15.211529,9.162289,-85.28736,41.213184,32.996063,11.3259945,13.810368,18.939682,-10.044867,72.11898,40.023273,-46.4347,-14.300726,12.954442
204,0.6477519273757935,117.38929748535156,74.9500961303711,1.7853540866248085,4.2451762160847855,94.10895157724329,13.1339655,-2.6757977,8.720208,8.130889,-21.349834,-2.012483,-27.917868,-4.757512,-12.1571245,6.7009907,-0.23672202,1.8286135,-5.635593,-1.7305398,3.1964328,15.2377205,9.166122,-85.28479,41.180176,32.975605,11.337845,13.731983,18.934536,-10.031694,72.10148,40.059875,-46.25734,-14.138662,13.025675
205,0.7153028845787048,118.00259399414062,74.91903686523438,1.4507339903842167,4.372647242835392,94.05192838585985,12.953515,-2.0671923,8.786016,9.429237,-21.894209,-2.2920737,-27.680681,-4.2349443,-12.13683,6.7511277,0.73081744,0.96692485,-5.4804482,-1.3378358,3.0492675,15.272584,9.168769,-85.258224,41.151043,32.922485,11.331825,13.711361,18.958944,-10.00939,72.01978,40.081814,-46.04178,-13.990948,13.168962
206,0.77656090259552,118.6393051147461,74.89454650878906,1.087290127264354,4.4773743534026895,94.03003722972952,12.810279,-1.4145409,8.817283,10.720343,-22.387384,-2.5769846,-27.999372,-3.8288364,-12.081177,8.187565,1.0765303,0.2986389,-5.3544426,-0.9066033,2.9012802,15.310418,9.167536,-85.21798,41.124805,32.847485,11.312889,13.718573,19.0044,-9.974639,71.874466,40.103188,-45.784065,-13.867907,13.361705
207,0.8433600068092346,119.28028869628906,74.87725067138672,0.7233142083145948,4.548207490756477,94.05119642259142,12.689953,-0.7531879,8.786961,12.0476465,-22.81241,-2.8598914,-28.380087,-3.474231,-12.067484,9.912589,1.2953655,-0.19879527,-5.2681074,-0.47776806,2.7657452,15.344014,9.161303,-85.173134,41.111557,32.77621,11.295264,13.739669,19.054258,-9.937107,71.712456,40.11687,-45.521484,-13.752651,13.534218
208,0.9241588115692139,119.92938232421875,74.86754608154297,0.3891132616501491,4.575264323675224,94.12089672325,12.582353,-0.11769798,8.670354,13.441419,-23.147936,-3.133691,-28.585033,-3.1646526,-12.140733,11.383248,1.5822325,-0.55321413,-5.210251,-0.084793136,2.6596577,15.355697,9.149005,-85.14507,41.122917,32.73845,11.289242,13.755035,19.095812,-9.89138,71.539314,40.132736,-45.312912,-13.642126,13.623112
209,1.0134941339492798,120.59310913085938,74.86474609375,0.08450642324426173,4.5530503742271895,94.26178772159447,12.510298,0.49318483,8.434026,14.8659315,-23.401728,-3.3986611,-28.595257,-2.9284446,-12.331148,12.583001,2.0018742,-0.66264755,-5.19878,0.27132517,2.5791285,15.3454485,9.129966,-85.13799,41.16329,32.74237,11.300914,13.759125,19.13857,-9.834829,71.33099,40.143593,-45.138786,-13.536069,13.618939
210,1.0969407558441162,121.26303100585938,74.86485290527344,-0.20991168308074207,4.493574368922738,94.45902669807404,12.454606,1.1047438,8.105634,16.337584,-23.58932,-3.659931,-28.443932,-2.73635,-12.605114,13.584285,2.5387661,-0.5610936,-5.2257648,0.6158391,2.5148644,15.320052,9.105555,-85.14153,41.225014,32.77337,11.322898,13.761506,19.185265,-9.770545,71.08807,40.149136,-44.98173,-13.438117,13.554011
211,1.1809417009353638,121.9316635131836,74.87259674072266,-0.5001713173781207,4.412347024159695,94.66535043157012,12.357164,1.713928,7.747062,17.935266,-23.690172,-3.915944,-28.235508,-2.559422,-12.896354,14.549964,2.9629776,-0.47494507,-5.2543225,0.9481888,2.4743228,15.275239,9.078675,-85.1489,41.2996,32.824593,11.347272,13.768032,19.206322,-9.707761,70.873955,40.165684,-44.88993,-13.34654,13.424533
212,1.269900918006897,122.60240173339844,74.89044189453125,-0.7830276633236662,4.321545408545112,94.83695741347766,12.160733,2.3134706,7.4145746,19.743246,-23.679228,-4.1631455,-28.065842,-2.370685,-13.144628,15.62661,3.0469978,-0.62088233,-5.2518435,1.2629925,2.466442,15.207033,9.0542755,-85.15219,41.37692,32.889397,11.366215,13.784266,19.174414,-9.660427,70.75067,40.206337,-44.913868,-13.258817,13.226947
213,1.3599885702133179,123.26284790039062,74.91889953613281,-1.0613713815730206,4.221856045591855,94.96621014083696,11.874535,2.9044878,7.102599,21.756826,-23.570843,-4.4055724,-27.986267,-2.1596103,-13.333257,16.915102,2.6559253,-1.1120789,-5.20226,1.5638903,2.4933834,15.106303,9.027805,-85.152626,41.464283,32.980095,11.378846,13.820055,19.07095,-9.620824,70.72502,40.286953,-45.118195,-13.177406,12.922771
214,1.4538753032684326,123.91220092773438,74.96434783935547,-1.3304128755336535,4.105518056960794,95.07689774260699,11.528664,3.4841216,6.781457,23.925901,-23.36213,-4.638567,-27.93351,-1.942571,-13.488169,18.309217,1.9363397,-1.8050978,-5.131396,1.8447322,2.550336,14.979058,8.987083,-85.14767,41.576664,33.097275,11.38839,13.86956,18.910425,-9.574961,70.7715,40.409195,-45.458412,-13.100324,12.525566
215,1.5510540008544922,124.5616455078125,75.01590728759766,-1.5742037787777456,3.9722907460998007,95.17299151219879,11.106605,4.039386,6.4695153,26.252962,-23.000286,-4.8456054,-27.823675,-1.727306,-13.618907,19.625824,1.0917888,-2.5277784,-5.049822,2.0921004,2.6365721,14.837148,8.95351,-85.15189,41.685825,33.208508,11.395345,13.9165,18.723886,-9.54616,70.88188,40.53576,-45.821083,-13.021734,12.115234
216,1.642654299736023,125.2099380493164,75.07805633544922,-1.7835093334097087,3.8240083543783947,95.25624656704379,10.589355,4.561457,6.187875,28.74276,-22.434978,-5.013125,-27.578522,-1.5177759,-13.741396,20.690336,0.3233629,-3.1110218,-4.9779305,2.2936184,2.747645,14.694651,8.904064,-85.16442,41.81166,33.284428,11.397709,13.945291,18.524956,-9.512602,71.06653,40.680607,-46.087387,-12.936888,11.766001
217,1.7374262809753418,125.84906768798828,75.15106964111328,-1.9457362508681428,3.6495719313923076,95.31187976083446,9.970115,5.0363765,5.964825,31.454832,-21.613852,-5.129333,-27.180727,-1.3147525,-13.848549,21.485538,-0.35553494,-3.5140338,-4.8935375,2.4333677,2.897401,14.544536,8.855036,-85.19839,41.946987,33.3194,11.3926525,13.9493885,18.30877,-9.486077,71.34572,40.842236,-46.231003,-12.842738,11.483506
218,1.8383641242980957,126.48391723632812,75.23113250732422,-2.070102486992533,3.4533778665389385,95.34056073345627,9.2594595,5.4742084,5.7831383,34.36627,-20.576515,-5.2028613,-26.675894,-1.1079464,-13.934677,22.099096,-1.0385841,-3.82465,-4.7795935,2.5261004,3.0815508,14.378833,8.82433,-85.264046,42.07291,33.324635,11.382615,13.937594,18.074898,-9.473209,71.69324,41.0115,-46.316376,-12.746145,11.234731
219,1.9405975341796875,127.11317443847656,75.31616973876953,-2.182292568485171,3.262006833335612,95.36644030372574,8.450476,5.901095,5.595462,37.387394,-19.415943,-5.2538958,-26.091558,-0.8887921,-14.024099,22.533278,-1.6939063,-4.0690794,-4.704492,2.5991864,3.2671778,14.228382,8.773996,-85.30688,42.204273,33.30959,11.372533,13.917212,17.836962,-9.459059,72.10723,41.18569,-46.346584,-12.648811,11.029013
220,2.0390660762786865,127.74469757080078,75.4071044921875,-2.310467461296167,3.1017032890248806,95.41377433386538,7.53815,6.340798,5.355214,40.426785,-18.223495,-5.305503,-25.452805,-0.6490193,-14.139784,22.786577,-2.2879775,-4.273095,-4.6402283,2.7001305,3.426218,14.087936,8.7288,-85.388245,42.298172,33.254894,11.374282,13.898923,17.64271,-9.454739,72.44494,41.315266,-46.36259,-12.572538,10.893477
221,2.1352438926696777,128.37538146972656,75.50679779052734,-2.45779883929741,2.9787330411392237,95.49000630649704,6.49081,6.791717,5.033902,43.540073,-17.018652,-5.346016,-24.740862,-0.38045877,-14.292047,22.810184,-2.805126,-4.4304733,-4.602261,2.8322823,3.5542703,13.962171,8.700502,-85.50662,42.33118,33.16305,11.392844,13.882845,17.495754,-9.458944,72.701836,41.39309,-46.365086,-12.520964,10.851805
222,2.228994607925415,128.9976806640625,75.60836791992188,-2.609728511748929,2.8799859287714344,95.58077966167696,5.3194227,7.233304,4.662346,46.75322,-15.7556095,-5.3756075,-23.953959,-0.08940106,-14.465444,22.623882,-3.266438,-4.532249,-4.5877438,2.9732513,3.6658618,13.848038,8.678163,-85.64566,42.327194,33.039436,11.421825,13.864709,17.374777,-9.469367,72.93024,41.439365,-46.338123,-12.485483,10.885461
223,2.3234879970550537,129.62374877929688,75.71311950683594,-2.7627402722647307,2.8023708832277188,95.67685586792123,4.0791597,7.664249,4.2797966,49.93892,-14.430232,-5.4295115,-23.139462,0.21143506,-14.645037,22.326845,-3.6931117,-4.600385,-4.587405,3.1227903,3.7573762,13.749599,8.645963,-85.79223,42.31508,32.88042,11.454672,13.847658,17.279678,-9.497425,73.14036,41.452705,-46.280758,-12.456829,10.94943
224,2.408399820327759,130.2406768798828,75.81485748291016,-2.914700607067307,2.742411048139641,95.76987579566291,2.8221858,8.0921955,3.9232655,52.97726,-13.041903,-5.5334334,-22.344572,0.50964093,-14.816865,22.017658,-4.105986,-4.6574283,-4.575552,3.2822843,3.8293278,13.666317,8.627712,-85.93871,42.28515,32.690235,11.482642,13.827145,17.206348,-9.522354,73.308975,41.46002,-46.20622,-12.43522,11.002991
225,2.4865708351135254,130.85902404785156,75.91423034667969,-3.076661572293109,2.7104888446323177,95.86388690819706,1.5203843,8.540846,3.5762563,55.89635,-11.543014,-5.6962223,-21.576447,0.81484646,-14.994841,21.687439,-4.498972,-4.706132,-4.567466,3.4661589,3.8698287,13.603786,8.609634,-86.09878,42.24987,32.456593,11.5101795,13.799296,17.156466,-9.556679,73.45703,41.444267,-46.087013,-12.4179735,11.035269
226,2.5571155548095703,131.47100830078125,75.99726867675781,-3.2493945983924366,2.704808135534212,95.96108887492653,0.15175344,9.005713,3.222691,58.758366,-9.95534,-5.8896933,-20.810926,1.1327676,-15.18219,21.291,-4.862614,-4.737782,-4.5621533,3.6745617,3.8840876,13.556603,8.579619,-86.2798,42.214134,32.179657,11.539676,13.76855,17.136585,-9.629856,73.57652,41.373238,-45.9278,-12.407253,11.071859
227,2.6270017623901367,132.0760955810547,76.078369140625,-3.408376866043954,2.703627981231106,96.05100671686155,-1.225539,9.460135,2.902137,61.49708,-8.384151,-6.0794077,-20.05321,1.441463,-15.350655,20.883226,-5.217211,-4.7572417,-4.549215,3.8754363,3.8928785,13.522891,8.547564,-86.42858,42.17555,31.88461,11.561052,13.746066,17.13923,-9.720343,73.66658,41.280968,-45.772614,-12.39764,11.113162
228,2.690427303314209,132.6731414794922,76.15609741210938,-3.533668671876983,2.685320246605189,96.12409826817046,-2.554465,9.88408,2.6573293,64.05235,-6.935887,-6.23434,-19.303747,1.7213057,-15.473843,20.511337,-5.579478,-4.7680674,-4.517468,4.0403056,3.9142654,13.500681,8.514505,-86.50232,42.141434,31.588709,11.566385,13.747443,17.160488,-9.814686,73.73194,41.1924,-45.660347,-12.379967,11.158156
229,2.7542800903320312,133.26808166503906,76.22925567626953,-3.621236438112285,2.647906401996963,96.18230034070378,-3.837454,10.312661,2.539333,66.44645,-5.480894,-6.3705053,-18.56749,1.9649134,-15.547857,20.191917,-5.954632,-4.7689214,-4.4657493,4.1650553,3.9507143,13.48995,8.477612,-86.48557,42.112854,31.281137,11.551278,13.781465,17.201609,-9.907563,73.7717,41.115414,-45.595737,-12.353148,11.220796
230,2.8088860511779785,133.8609161376953,76.2994155883789,-3.682242050219035,2.6012770604799034,96.2290143149079,-5.101648,10.759926,2.516273,68.709435,-4.0167065,-6.4834843,-17.839222,2.184533,-15.58721,19.89358,-6.3310714,-4.758249,-4.399599,4.2646513,3.9925454,13.492889,8.435199,-86.40238,42.089603,30.95834,11.520441,13.838666,17.260202,-9.996742,73.78661,41.0478,-45.557877,-12.321137,11.295553
231,2.8608388900756836,134.443115234375,76.37232208251953,-3.721968297670205,2.5417001571623126,96.25720683930585,-6.3224363,11.166664,2.511389,70.78439,-2.8424752,-6.5296364,-17.10905,2.3869677,-15.5937395,19.604025,-6.705764,-4.738528,-4.3184533,4.340542,4.04126,13.508142,8.3879795,-86.26853,42.07767,30.646667,11.4791975,13.906103,17.333147,-10.079263,73.779106,40.99042,-45.552513,-12.284089,11.353582
232,2.9112863540649414,135.02438354492188,76.44127655029297,-3.742413552663075,2.465529914468685,96.26008264427044,-7.4742703,11.459673,2.4496853,72.610146,-2.2580283,-6.484099,-16.366735,2.5777223,-15.568225,19.309029,-7.07482,-4.7122045,-4.2213297,4.3921204,4.098375,13.53551,8.338614,-86.09988,42.081078,30.374737,11.433248,13.970811,17.410784,-10.152164,73.75484,40.947327,-45.57861,-12.242245,11.365645
233,2.96238374710083,135.59654235839844,76.50658416748047,-3.7402674109415535,2.368066343065993,96.23276651295775,-8.5380945,11.585294,2.299265,74.16235,-2.501947,-6.3347535,-15.615862,2.7533734,-15.505442,19.023266,-7.4468436,-4.677229,-4.0986624,4.414997,4.1654725,13.578149,8.292993,-85.88768,42.096848,30.14917,11.3793955,14.032098,17.500528,-10.206922,73.702225,40.92936,-45.65627,-12.193058,11.314669
234,2.999752998352051,136.16969299316406,76.56501770019531,-3.7147252365436385,2.252581177185421,96.18014272658031,-9.531008,11.579841,2.108022,75.47763,-3.362407,-6.119449,-14.861449,2.9098232,-15.407068,18.75351,-7.8237147,-4.6327953,-3.9482534,4.4105453,4.2403636,13.634627,8.259246,-85.635315,42.113438,29.953646,11.317493,14.095931,17.60178,-10.237251,73.61777,40.942986,-45.778233,-12.137599,11.21838
235,3.048605442047119,136.74334716796875,76.6272964477539,-3.6714626748141894,2.1273548569475884,96.11033252986084,-10.481249,11.501016,1.9202826,76.58551,-4.463224,-5.8923936,-14.099999,3.050068,-15.28486,18.478975,-8.192196,-4.58395,-3.8047895,4.3844466,4.3222528,13.700352,8.213794,-85.34481,42.148964,29.7893,11.253046,14.157967,17.699146,-10.265753,73.53886,40.958805,-45.907368,-12.080072,11.102159
236,3.093224287033081,137.30638122558594,76.6915054321289,-3.6157141051893302,2.000745031666032,96.03144392803773,-11.416657,11.412621,1.7811564,77.51265,-5.4272375,-5.7020316,-13.326851,3.1772797,-15.1503525,18.176313,-8.537692,-4.5359426,-3.65627,4.347493,4.4033227,13.760738,8.188649,-85.085014,42.170795,29.63445,11.200368,14.220396,17.78778,-10.274649,73.45356,40.977173,-46.016582,-12.027894,10.989366
237,3.136532783508301,137.86875915527344,76.75877380371094,-3.5443417673075936,1.867231667945455,95.94121577910771,-12.330451,11.316615,1.7007382,78.24581,-6.224988,-5.5601845,-12.535837,3.2883728,-15.00106,17.847208,-8.86039,-4.492167,-3.5318842,4.2907624,4.4936676,13.825987,8.160922,-84.79062,42.197876,29.508276,11.15417,14.279309,17.853247,-10.27671,73.3934,40.995445,-46.1031,-11.982396,10.872015
238,3.1696863174438477,138.4302520751953,76.82169342041016,-3.456483913523108,1.725022431830199,95.83696072732322,-13.212381,11.186096,1.6567999,78.77603,-7.0322094,-5.4414263,-11.731141,3.3828814,-14.833381,17.50351,-9.168012,-4.4500394,-3.4064815,4.2166543,4.5903616,13.893845,8.139277,-84.48671,42.22459,29.400633,11.114609,14.3404455,17.910738,-10.269366,73.33344,41.013607,-46.1824,-11.939703,10.741673
239,3.2091493606567383,138.9849853515625,76.88507080078125,-3.360475752362127,1.5874811281345909,95.7261820318543,-14.083249,11.044805,1.6465144,79.13161,-7.7769666,-5.3358808,-10.920508,3.4689682,-14.656916,17.131096,-9.455224,-4.405545,-3.298355,4.1331854,4.683399,13.958976,8.121682,-84.200554,42.253635,29.313944,11.080686,14.393704,17.957668,-10.252632,73.28716,41.030098,-46.23726,-11.898445,10.623948
240,3.242121696472168,139.54605102539062,76.95055389404297,-3.2648772245880218,1.4681002311637612,95.61630942401193,-14.963489,10.915852,1.667299,79.341064,-8.38873,-5.2336407,-10.111404,3.5545185,-14.480789,16.715729,-9.716932,-4.3536787,-3.207333,4.0520873,4.760757,14.01062,8.11167,-83.989914,42.283722,29.239086,11.054958,14.433651,17.997782,-10.231851,73.250626,41.033703,-46.25029,-11.857307,10.54442
241,3.28281831741333,140.11019897460938,77.01188659667969,-3.170273608008342,1.3676748982311775,95.5064539623141,-15.853415,10.822212,1.7467681,79.405,-8.80712,-5.147986,-9.302046,3.6404574,-14.30365,16.25027,-9.947296,-4.293092,-3.1370804,3.973526,4.820606,14.049079,8.108622,-83.865486,42.319103,29.17912,11.039382,14.455166,18.029282,-10.211488,73.227516,41.012596,-46.206406,-11.8138075,10.513099
242,3.3033688068389893,140.66160583496094,77.07018280029297,-3.0725282529627536,1.2798697497192175,95.39371415847101,-16.741293,10.746131,1.8791842,79.307304,-9.083013,-5.0791583,-8.486922,3.7221262,-14.121468,15.737631,-10.148573,-4.2250624,-3.0848231,3.8935108,4.869033,14.077998,8.110229,-83.8033,42.35962,29.13535,11.032258,14.462911,18.052347,-10.195806,73.2152,40.970222,-46.118965,-11.770317,10.51523
243,3.322831153869629,141.2102813720703,77.12532043457031,-2.9727626112411154,1.2076325394281948,95.28186460113666,-17.632244,10.64835,2.011729,79.055504,-9.31289,-4.9983897,-7.6785407,3.7966168,-13.938789,15.199642,-10.334704,-4.1484685,-3.056657,3.809168,4.907712,14.098167,8.118872,-83.77059,42.395767,29.111675,11.02773,14.460147,18.06545,-10.1663265,73.21915,40.933514,-46.01113,-11.731028,10.540923
244,3.3496923446655273,141.76414489746094,77.17477416992188,-2.8720923265547453,1.1540381144970726,95.175307869515,-18.530842,10.488607,2.0905976,78.65514,-9.592316,-4.876743,-6.886236,3.8622034,-13.761103,14.651418,-10.518178,-4.0631895,-3.0392013,3.7250295,4.93257,14.108639,8.138808,-83.77806,42.416183,29.094036,11.026976,14.460558,18.08175,-10.122457,73.22993,40.91038,-45.90595,-11.697779,10.577347
