unveil-humanoid-operators/unveil-humanoid-operators.github.io/feature-analysis-animation/data/feature_matrix_instances/weight_ankle_peak_vel_jogging_A273_jog_ff_stop_180_R_002__A273.csv
Frame,root_translateX,root_translateY,root_translateZ,root_rotateX,root_rotateY,root_rotateZ,left_hip_pitch_joint_dof,left_hip_roll_joint_dof,left_hip_yaw_joint_dof,left_knee_joint_dof,left_ankle_pitch_joint_dof,left_ankle_roll_joint_dof,right_hip_pitch_joint_dof,right_hip_roll_joint_dof,right_hip_yaw_joint_dof,right_knee_joint_dof,right_ankle_pitch_joint_dof,right_ankle_roll_joint_dof,waist_yaw_joint_dof,waist_roll_joint_dof,waist_pitch_joint_dof,left_shoulder_pitch_joint_dof,left_shoulder_roll_joint_dof,left_shoulder_yaw_joint_dof,left_elbow_joint_dof,left_wrist_roll_joint_dof,left_wrist_pitch_joint_dof,left_wrist_yaw_joint_dof,right_shoulder_pitch_joint_dof,right_shoulder_roll_joint_dof,right_shoulder_yaw_joint_dof,right_elbow_joint_dof,right_wrist_roll_joint_dof,right_wrist_pitch_joint_dof,right_wrist_yaw_joint_dof
0,-0.2198818325996399,1.8525594472885132,77.63463592529297,-0.6001831713469312,2.7153073523982343,-86.70058767277365,-21.22694,-3.7024288,-4.18817,11.761775,1.139401,-6.313749,21.03946,-4.2122855,-22.132963,35.23183,4.120673,-1.712908,8.270147,1.11349,16.716272,29.203125,32.085804,-14.544085,-38.60042,-23.042877,3.3630533,7.61913,7.5413847,-29.491076,20.677637,-48.009296,-7.648839,4.046402,-10.899482
1,-0.22849424183368683,0.3447172939777374,77.35070037841797,-0.22127928026035712,2.552676997671548,-86.38222918875144,-22.849064,-4.4050364,-4.13534,17.751482,-1.7355678,-4.7035236,20.44999,-6.4259844,-23.992695,39.34255,2.4723096,-2.0788958,7.4790773,0.6492999,16.701359,28.394749,32.08698,-14.835478,-38.13634,-23.121878,3.4085224,7.679085,8.217978,-29.385979,20.976425,-47.184223,-8.413485,3.8840098,-10.48825
2,-0.22566872835159302,-1.138709545135498,77.02104949951172,-0.06208117383061405,2.3339517530300293,-86.09996266289421,-24.348412,-4.975015,-4.188497,23.626913,-4.457552,-3.1280947,20.130789,-8.374734,-25.784346,43.248318,0.9431099,-2.4892404,6.717497,0.38487348,16.648165,27.625862,32.059853,-15.121696,-37.630287,-23.202326,3.454003,7.734336,8.749821,-29.172665,21.375084,-46.21503,-9.238818,3.6848812,-9.991366
3,-0.2329404056072235,-2.611801862716675,76.62268829345703,0.024323111717129104,2.0674350579763683,-85.88988683895408,-25.506304,-5.5222588,-4.198961,28.960758,-6.9739394,-1.7307805,19.866701,-10.331706,-27.449509,47.10073,-0.66244483,-3.0292895,5.98773,0.1988454,16.639572,26.822504,32.01154,-15.415464,-37.13764,-23.228638,3.5194294,7.7870035,9.229256,-28.88595,21.767145,-45.104748,-10.028357,3.5411382,-9.556686
4,-0.24330362677574158,-4.0706987380981445,76.1759262084961,0.21525183529053282,1.7678767564504823,-85.78171617195399,-26.160583,-6.124268,-4.0116277,33.393356,-9.293805,-0.61415166,19.456453,-12.600915,-28.916027,51.01684,-2.518329,-3.7656486,5.299399,-0.05698191,16.741072,25.866629,31.94078,-15.761133,-36.671677,-23.138866,3.6241972,7.8426185,9.747926,-28.5454,22.033644,-43.83513,-10.691558,3.549227,-9.318736
5,-0.23163475096225739,-5.502171039581299,75.7197265625,0.6339808907154948,1.4049762040701983,-85.77513946674327,-26.294903,-6.808065,-3.5408816,36.969807,-11.56,0.1948732,18.91796,-15.467494,-30.249779,55.152874,-4.785976,-4.7423644,4.654362,-0.48006776,17.020939,24.721378,31.838802,-16.186657,-36.231316,-22.951546,3.7589207,7.894065,10.367769,-28.16725,22.104467,-42.350872,-11.277166,3.7133238,-9.341311
6,-0.11711956560611725,-6.922005653381348,75.29249572753906,1.2311572476779298,1.0040092112291106,-85.84134901841395,-26.08,-7.522666,-2.8889153,39.98598,-13.825936,0.8035208,18.322233,-18.755253,-31.451063,59.41939,-7.3364987,-5.874198,4.046992,-1.0379092,17.419054,23.418966,31.70392,-16.679127,-35.79252,-22.69101,3.9155753,7.94387,11.072629,-27.764748,22.021439,-40.72534,-11.800783,3.9938629,-9.548029
7,0.039422813802957535,-8.341460227966309,74.91500091552734,1.9038265194852353,0.658916501285835,-85.97201073443146,-25.64698,-8.200106,-2.1872432,42.481354,-15.981167,1.3116688,17.514757,-22.059658,-32.333427,63.544456,-9.890204,-7.0353384,3.4764755,-1.6651138,17.804373,21.966066,31.544643,-17.214525,-35.347923,-22.300308,4.11639,8.011587,11.818497,-27.341932,21.845005,-39.112526,-12.125752,4.422622,-9.8579645
8,0.19096708297729492,-9.728559494018555,74.5833969116211,2.5416453501996212,0.46045880557982194,-86.15687215136965,-25.115719,-8.800873,-1.5501075,44.455246,-17.889547,1.8094528,16.28661,-24.986746,-32.71195,67.27025,-12.175192,-8.112929,2.939083,-2.2865283,18.048824,20.373148,31.376572,-17.767614,-34.89488,-21.72508,4.383806,8.117086,12.55751,-26.894747,21.641954,-37.660423,-12.115093,5.0282183,-10.192692
9,0.29251644015312195,-11.098727226257324,74.31499481201172,3.166792067886083,0.49815852406509736,-86.37650288068292,-24.553967,-9.370525,-0.97094035,45.812412,-19.475405,2.3048012,14.399079,-27.55929,-32.492073,70.63924,-14.164512,-9.20871,2.4249415,-2.9324267,18.07102,18.577744,31.217043,-18.358704,-34.40294,-20.852776,4.7841706,8.274126,13.282562,-26.400356,21.401388,-36.33739,-11.597055,5.9734244,-10.583842
10,0.32599937915802,-12.469839096069336,74.09832763671875,3.827243078776874,0.7057982836588961,-86.63764405752305,-23.891563,-9.929257,-0.3900695,46.593033,-20.825674,2.7479556,11.911858,-29.936226,-31.732607,73.76011,-15.9767885,-10.338029,1.9384795,-3.6353314,17.95196,16.612354,31.065296,-18.984024,-33.90543,-19.753027,5.2853913,8.469988,14.005801,-25.84885,21.099339,-35.07214,-10.680686,7.183717,-11.069892
11,0.3125455677509308,-13.85911750793457,73.9291763305664,4.442889810298316,0.9371780285008021,-86.96661706418205,-23.03748,-10.413068,0.16620545,46.977924,-22.035395,3.142186,9.060166,-31.931765,-30.520378,76.48953,-17.56131,-11.267734,1.4887639,-4.313511,17.813,14.62635,30.9063,-19.581053,-33.487343,-18.642338,5.764405,8.682105,14.70738,-25.267788,20.791555,-33.956863,-9.657879,8.3344965,-11.57819
12,0.2837776243686676,-15.266180038452148,73.81106567382812,4.931467768068153,1.0442096355790338,-87.39282746298474,-21.900198,-10.75373,0.66791064,47.148636,-23.199947,3.4926279,6.126693,-33.37453,-28.9997,78.69761,-18.876423,-11.766738,1.0777193,-4.8799243,17.782112,12.768626,30.7189,-20.082016,-33.22562,-17.733374,6.09812,8.88738,15.378507,-24.710735,20.54176,-33.108986,-8.82876,9.110269,-12.023931
13,0.27122336626052856,-16.666606903076172,73.73274993896484,5.288086093871804,0.9666871108139168,-87.97131600203369,-20.384533,-10.935981,1.1434026,47.087276,-24.36889,3.8087857,3.125716,-34.205635,-27.097416,80.37371,-19.877419,-11.699834,0.7303634,-5.321228,17.934332,11.075111,30.475555,-20.449903,-33.150528,-17.016897,6.239314,9.0767,16.049797,-24.225811,20.356386,-32.63476,-8.230736,9.394282,-12.43985
14,0.2865864336490631,-18.053407669067383,73.68994140625,5.5503480673658085,0.7883961443270783,-88.67226463964744,-18.557854,-10.997679,1.6029108,46.715317,-25.481354,4.0795135,-0.032558065,-34.496796,-24.85136,81.599075,-20.607151,-11.222516,0.42304444,-5.6653357,18.197567,9.457909,30.168688,-20.722836,-33.19881,-16.39374,6.2598815,9.257828,16.741709,-23.829449,20.210606,-32.49144,-7.710413,9.370515,-12.85589
15,0.3006676733493805,-19.443159103393555,73.68926239013672,5.700683922830656,0.5756904851013124,-89.40553147635177,-16.565195,-10.946093,1.9984539,46.11247,-26.46423,4.2851324,-3.1754506,-34.313534,-22.605707,82.37258,-21.154266,-10.537118,0.103025936,-5.891634,18.479515,7.8751583,29.819641,-20.962252,-33.30884,-15.939566,6.213347,9.438503,17.437424,-23.527493,20.110678,-32.577026,-7.2918463,9.181764,-13.168047
16,0.3014536201953888,-20.831148147583008,73.74012756347656,5.720157500347291,0.39464485129186483,-90.08038810224723,-14.555648,-10.783305,2.2862916,45.36366,-27.246923,4.411573,-6.1433234,-33.748493,-20.688202,82.68857,-21.600376,-9.846036,-0.28070655,-5.9859943,18.689238,6.3002133,29.468166,-21.226992,-33.438118,-15.737761,6.1510253,9.629379,18.119463,-23.313786,20.06279,-32.791527,-6.9962683,8.971754,-13.276748
17,0.2848082184791565,-22.234590530395508,73.83980560302734,5.582110555106515,0.21411056126094993,-90.70589964427786,-12.4765,-10.47611,2.4840076,44.433197,-27.846409,4.4595957,-8.906104,-32.73077,-19.095043,82.518974,-21.958511,-9.139626,-0.7142807,-5.935739,18.848604,4.729115,29.140116,-21.539423,-33.625107,-15.915025,6.0732446,9.899337,18.79455,-23.186317,20.07926,-33.19002,-6.852542,8.745254,-13.129877
18,0.25026965141296387,-23.629873275756836,73.97637939453125,5.307105708020253,0.009686390612792415,-91.31895466992002,-10.280937,-10.0354395,2.6288595,43.29686,-28.28897,4.4418736,-11.490868,-31.283365,-17.731024,81.873825,-22.194256,-8.337342,-1.1728969,-5.7631445,18.999676,3.1870594,28.84012,-21.879145,-33.898155,-16.4017,5.9506526,10.229721,19.477808,-23.14306,20.144823,-33.808327,-6.837869,8.438416,-12.787912
19,0.18335174024105072,-25.024267196655273,74.15231323242188,4.951617802342841,-0.14076844157349244,-91.86991773374835,-8.129066,-9.526713,2.7000828,42.05913,-28.51873,4.365752,-13.86847,-29.666494,-16.739468,80.79378,-22.304485,-7.5304284,-1.689009,-5.507107,19.08008,1.6911038,28.58124,-22.236504,-34.20377,-16.991453,5.792418,10.49838,20.160067,-23.168541,20.223648,-34.51277,-6.8986735,8.091477,-12.321817
20,0.1038723960518837,-26.414827346801758,74.36700439453125,4.5626072232667445,-0.1563315572402526,-92.31025055902741,-6.1835113,-9.012343,2.666565,40.82794,-28.481897,4.237366,-16.038284,-28.130867,-16.240206,79.31435,-22.278711,-6.80557,-2.2905486,-5.20615,19.026417,0.26170057,28.382313,-22.59934,-34.491882,-17.478521,5.611963,10.584877,20.827312,-23.237812,20.280182,-35.16231,-6.9860616,7.744414,-11.799448
21,0.02377607673406601,-27.80698013305664,74.61751556396484,4.127680720413367,0.01817547387427319,-92.610055509262,-4.523813,-8.484415,2.48063,39.6345,-28.167578,4.0591063,-18.047688,-26.731209,-16.336472,77.414055,-22.086006,-6.165333,-3.0059745,-4.848596,18.783197,-1.1189084,28.261782,-22.95768,-34.764355,-17.85884,5.3892937,10.412785,21.450594,-23.334917,20.315289,-35.72477,-7.11233,7.383641,-11.153568
22,-0.056878313422203064,-29.22749900817871,74.89859771728516,3.624568865110085,0.3298440539744061,-92.80294088332225,-3.0557065,-7.911744,2.1670492,38.42919,-27.609346,3.8308365,-19.899443,-25.348963,-16.91888,75.05853,-21.729977,-5.5564523,-3.808395,-4.4247427,18.401587,-2.4412527,28.228397,-23.32016,-35.061455,-18.233137,5.127107,10.06471,22.03153,-23.453667,20.348362,-36.25607,-7.298667,6.993186,-10.372957
23,-0.1448412835597992,-30.646865844726562,75.20356750488281,3.1003778522300407,0.7002497634924307,-92.93551981712761,-1.6848179,-7.3197827,1.7963904,37.206627,-26.823236,3.5533814,-21.53389,-23.95885,-17.780796,72.26644,-21.251625,-4.979201,-4.641567,-3.9736497,17.975256,-3.644059,28.284761,-23.699112,-35.39442,-18.549484,4.87417,9.659102,22.60071,-23.582745,20.372227,-36.748005,-7.5164223,6.6108665,-9.607433
24,-0.2444133162498474,-32.08090591430664,75.52738189697266,2.601250640221253,1.0501544770464697,-93.05300308973897,-0.31291083,-6.73808,1.440126,35.95488,-25.821716,3.226768,-22.88947,-22.534424,-18.714247,69.05971,-20.6973,-4.4422674,-5.4497538,-3.5382183,17.594393,-4.6737313,28.429466,-24.106855,-35.765118,-18.755096,4.6776648,9.314672,23.186718,-23.708344,20.378685,-37.188026,-7.74123,6.275898,-9.00481
25,-0.3558882176876068,-33.516170501708984,75.86646270751953,2.130188057707539,1.3892595368311547,-93.15656213941396,1.064098,-6.1701636,1.0889976,34.64211,-24.585371,2.823657,-23.95518,-21.102093,-19.780561,65.38652,-20.109442,-4.044219,-6.231684,-3.1240728,17.25475,-5.539453,28.669437,-24.565666,-36.160507,-18.7717,4.55961,9.05801,23.785477,-23.821514,20.364573,-37.564114,-8.036663,5.9878607,-8.580427
26,-0.47293850779533386,-34.975257873535156,76.22150421142578,1.6675656598139952,1.7508955016045868,-93.2265056009356,2.4024315,-5.6042395,0.7052627,33.286823,-23.119606,2.35274,-24.762716,-19.637825,-21.041265,61.229816,-19.444628,-3.7333777,-7.0102654,-2.7132607,16.916883,-6.2621093,29.00882,-25.063036,-36.589893,-18.648985,4.4898458,8.829677,24.37631,-23.919212,20.336336,-37.875114,-8.3997755,5.728946,-8.259603
27,-0.5949598550796509,-36.465274810791016,76.58746337890625,1.2261359219532793,2.089712262889934,-93.27406544571781,3.7269735,-5.0528727,0.3209757,31.954628,-21.472773,1.8666197,-25.315056,-18.056774,-22.27587,56.661175,-18.622112,-3.3100371,-7.7727795,-2.3179507,16.615414,-6.805228,29.436409,-25.553215,-37.077934,-18.519762,4.437686,8.616987,24.957577,-23.99847,20.304073,-38.11996,-8.707596,5.5153985,-8.05431
28,-0.7227728962898254,-37.947235107421875,76.95169067382812,0.8211180674004187,2.3586200669730744,-93.30868900948225,5.0657573,-4.533087,-0.029339377,30.705603,-19.686398,1.4171933,-25.61265,-16.301872,-23.249182,51.739967,-17.561974,-2.5959575,-8.509015,-1.9523107,16.383669,-7.1375427,29.93299,-25.988253,-37.639362,-18.513083,4.3748593,8.40431,25.527113,-24.057701,20.278248,-38.297005,-8.8374195,5.3645563,-7.976394
29,-0.8586699962615967,-39.462799072265625,77.31515502929688,0.4396617847011775,2.546590374129305,-93.32993047651503,6.4700327,-4.0264883,-0.3474171,29.460857,-17.710455,0.9927941,-25.593054,-14.302808,-23.899517,46.22904,-16.17802,-1.5595591,-9.225547,-1.606825,16.2323,-7.250906,30.493675,-26.345076,-38.264088,-18.640783,4.3185744,8.154426,26.08746,-24.096113,20.256561,-38.390785,-8.733904,5.295734,-8.064698
30,-0.994182288646698,-40.99788284301758,77.6556167602539,0.09704944227428121,2.6711731551333293,-93.32619993539437,7.9228663,-3.5545783,-0.6577703,28.211452,-15.535404,0.57265794,-25.227943,-12.1416855,-24.30431,40.07639,-14.505337,-0.3241021,-9.934193,-1.2976204,16.143461,-7.1684456,31.122131,-26.64463,-38.93585,-18.837093,4.2786727,7.8821855,26.635159,-24.115553,20.237896,-38.402866,-8.471884,5.2952604,-8.300435
31,-1.1282100677490234,-42.55389404296875,77.9738998413086,-0.14351166731949958,2.7263716023826015,-93.28590142404157,9.35591,-3.2040668,-0.959962,27.104782,-13.253244,0.19632858,-24.56613,-10.017421,-24.439793,33.639038,-12.646259,1.0487231,-10.6335945,-1.0827509,16.105307,-6.9092035,31.807053,-26.906326,-39.661793,-19.112402,4.216844,7.648581,27.167917,-24.120106,20.230644,-38.362736,-8.124807,5.331456,-8.608825
32,-1.2497990131378174,-44.13726806640625,78.25753784179688,-0.2159851808814599,2.7067123561641475,-93.19436052008714,10.701408,-3.065294,-1.2548379,26.279385,-10.940517,-0.09341161,-23.674854,-8.132181,-24.305779,27.31949,-10.713759,2.5127647,-11.321924,-1.0206083,16.10052,-6.5042586,32.527,-27.155851,-40.432537,-19.47556,4.0951834,7.51215,27.688057,-24.116844,20.23815,-38.30367,-7.766028,5.3740873,-8.914896
33,-1.3670403957366943,-45.73760223388672,78.49008178710938,-0.054980830464442576,2.589155423259982,-93.02490015811476,12.007523,-3.2155852,-1.5476311,25.670359,-8.497198,-0.22962038,-22.467041,-6.524899,-23.87027,20.94961,-8.612826,4.234313,-12.023319,-1.16849,16.12519,-5.9624405,33.271122,-27.414707,-41.238235,-19.972548,3.8907359,7.5020523,28.240116,-24.111782,20.25323,-38.243736,-7.349855,5.4386783,-9.240807
34,-1.4755604267120361,-47.352176666259766,78.66392517089844,0.40022055400412104,2.3558799728600213,-92.75227427013873,13.363811,-3.7077117,-1.8766063,25.11788,-5.841285,-0.2195753,-20.881496,-5.267996,-23.113348,14.37877,-6.3255525,6.1830707,-12.761843,-1.5964212,16.174849,-5.284429,34.039185,-27.67326,-42.06411,-20.578524,3.6306155,7.5752683,28.840752,-24.106676,20.2673,-38.185806,-6.857576,5.5331626,-9.614364
35,-1.5613480806350708,-48.98533248901367,78.77890014648438,1.096203636271841,2.04183372294533,-92.40666169705251,14.692419,-4.4672894,-2.256581,24.712725,-3.1360888,-0.15589984,-19.00406,-4.4225698,-22.146278,7.896983,-3.9773657,8.030517,-13.499597,-2.26054,16.22323,-4.4913163,34.81871,-27.907185,-42.890297,-21.19681,3.3497894,7.6835413,29.439156,-24.098972,20.286373,-38.135765,-6.403064,5.617922,-9.969674
36,-1.6452841758728027,-50.62892532348633,78.8448486328125,1.7975217636526832,1.728679377079451,-92.07868773159403,15.788663,-5.2241144,-2.6369996,24.732294,-0.6595903,-0.18011451,-19.292334,-4.701666,-20.9521,7.0313673,-4.422361,9.4624605,-14.141727,-2.9231014,16.2536,-3.6204991,35.58053,-28.098335,-43.676132,-21.727934,3.0811594,7.7822328,29.947044,-24.083862,20.314877,-38.060017,-6.098713,5.653947,-10.2389
37,-1.7193509340286255,-52.26371765136719,78.8813247680664,2.3847272885189605,1.450190907049069,-91.81455052414252,16.489677,-5.8909564,-3.0203235,25.450304,1.4967889,-0.23218949,-19.630398,-4.984824,-19.69684,6.8674817,-5.0853043,10.371472,-14.638941,-3.4447625,16.262423,-2.713966,36.298347,-28.290575,-44.37403,-22.161297,2.8003564,7.883355,30.356846,-24.056076,20.342134,-37.933315,-5.9861064,5.6215653,-10.395243
38,-1.7944451570510864,-53.88877868652344,78.88568878173828,2.8893848383052148,1.2003252106189664,-91.60826560516963,16.853924,-6.499824,-3.3622615,26.75737,3.4245744,-0.29447785,-19.78637,-5.177443,-18.37083,6.799107,-5.6432734,10.944544,-14.993019,-3.8503304,16.24787,-1.7986528,36.95483,-28.510054,-44.95661,-22.538584,2.5012648,8.000507,30.694063,-24.011677,20.361898,-37.752964,-6.0001025,5.5456204,-10.477025
39,-1.881258249282837,-55.49024200439453,78.85037231445312,3.19144052908952,0.9889718590223802,-91.47143311596598,16.98838,-6.8511343,-3.548126,28.449131,5.052398,-0.609423,-19.695507,-5.131805,-17.180473,6.6561713,-5.9424267,11.229267,-15.190755,-4.0049124,16.2163,-1.041127,37.33481,-28.768642,-45.20006,-22.809938,2.27046,8.045836,30.910177,-23.97486,20.386124,-37.47554,-6.099238,5.458419,-10.520372
40,-1.9624040126800537,-57.08331298828125,78.76838684082031,3.394453171771223,0.8440947382115415,-91.40403294169313,17.043604,-6.997993,-3.4917629,30.157581,6.4156218,-1.3698337,-19.50103,-5.009353,-16.205482,6.6329875,-5.990516,11.311799,-15.187709,-4.084559,16.188694,-0.22619385,37.774464,-28.957544,-45.463787,-23.021381,2.1183982,8.079803,30.999847,-23.907066,20.405073,-37.187828,-6.2263694,5.381442,-10.544305
41,-2.031325101852417,-58.6655387878418,78.62910461425781,3.466003105479003,0.7662578702951385,-91.40087415647213,17.077812,-6.918163,-3.2143586,31.82087,7.6112175,-2.921138,-19.100203,-4.7755885,-15.503258,6.6354623,-5.7215533,11.443367,-15.03446,-4.0145845,16.134373,0.54825455,38.020123,-29.069017,-45.540413,-23.151367,2.1207337,8.007449,30.924349,-23.849699,20.45191,-36.831455,-6.4249434,5.322121,-10.547092
42,-2.0991568565368652,-60.22718048095703,78.43046569824219,3.4231922559312435,0.742978806921505,-91.4612082060653,17.000414,-6.6676764,-2.7629464,33.64066,8.584531,-5.0526085,-18.500986,-4.4540644,-14.9846525,6.6738477,-5.1766295,11.516667,-14.715135,-3.857247,16.086088,1.4285204,38.311012,-29.085897,-45.649124,-23.240515,2.2068992,7.9124365,30.674438,-23.735989,20.53094,-36.39751,-6.7124267,5.262341,-10.508592
43,-2.1945953369140625,-61.745269775390625,78.22822570800781,3.2107994702825544,0.7611131285706305,-91.59661813514694,16.696896,-6.135082,-2.068118,35.819263,9.034351,-7.162176,-17.80564,-3.976136,-14.647169,6.752498,-4.3780684,11.034685,-14.236936,-3.5224617,16.041647,2.2574594,38.441025,-29.055487,-45.56881,-23.20518,2.3571332,7.7552133,30.251244,-23.624146,20.63384,-35.879894,-6.992898,5.2132163,-10.470126
44,-2.308600425720215,-63.23761749267578,78.01425170898438,2.7501020254722897,0.8014196441589369,-91.81101779878406,16.094343,-5.158289,-1.0691278,38.497387,8.69191,-8.650276,-17.097029,-3.2332432,-14.5155325,6.845003,-3.3293881,9.499212,-13.586377,-2.9356854,16.04269,3.002135,38.42477,-28.99968,-45.287727,-22.999922,2.5158117,7.5633726,29.682976,-23.548918,20.735085,-35.32392,-7.1661186,5.181031,-10.467837
45,-2.4010908603668213,-64.74365234375,77.76234436035156,1.9859288540146842,0.8701124153137332,-92.13872139490093,15.229302,-3.6081002,0.36138391,41.702404,7.3592024,-9.293911,-16.443472,-2.172069,-14.647287,7.036182,-1.7463957,6.1492305,-12.765715,-2.0615823,16.055368,3.711154,38.23448,-28.85468,-44.805008,-22.597548,2.7018487,7.259071,28.82535,-23.434584,20.916441,-34.563538,-7.2322307,5.173187,-10.489629
46,-2.507312536239624,-66.23844146728516,77.48699951171875,1.1142638155672648,0.9315273642616129,-92.51847095973568,14.264081,-1.7177896,2.0750034,45.194824,5.327325,-9.403615,-18.319517,-1.7110504,-14.990267,12.907952,-2.5930908,1.5185075,-11.792134,-1.0751204,16.058714,4.338455,37.879745,-28.705374,-44.122784,-22.027765,2.9232898,6.875773,27.854712,-23.337906,21.096714,-33.77082,-7.2148123,5.1832404,-10.527653
47,-2.635765314102173,-67.70464324951172,77.17408752441406,0.4492419371739527,0.9206260408472793,-92.81866037709757,13.296871,0.1042661,3.7463138,48.698456,3.0663502,-9.175942,-19.90092,-1.4621613,-15.534328,18.403168,-3.3039925,-3.016691,-10.824337,-0.3153977,16.06416,4.9371624,37.392685,-28.506962,-43.262188,-21.315506,3.162762,6.4980497,26.7902,-23.25952,21.295895,-32.994236,-7.166583,5.208809,-10.5972805
48,-2.753248453140259,-69.14891815185547,76.78348541259766,0.019003623028475723,0.832364248930548,-92.97728574912811,12.277535,1.75799,5.120507,52.134117,0.9169345,-8.870039,-21.007599,-1.3706781,-16.03024,23.155989,-4.437125,-6.1496897,-9.94737,0.17832069,16.121386,5.549927,36.81861,-28.219643,-42.259007,-20.492485,3.3938375,6.2274165,25.619406,-23.200048,21.518587,-32.257,-7.131939,5.2435384,-10.713414
49,-2.8600292205810547,-70.53810119628906,76.33360290527344,-0.32226522990026796,0.66777583372403,-93.00699383700918,11.133732,3.4677324,6.2118707,55.704136,-1.230036,-8.551484,-21.748394,-1.290654,-16.344288,27.506931,-6.5817094,-7.406836,-9.144121,0.5427378,16.292822,6.205655,36.189003,-27.774446,-41.113064,-19.438372,3.5563898,5.997904,24.328157,-23.146938,21.76633,-31.56724,-7.073087,5.265743,-10.884651
50,-2.9981486797332764,-71.92533874511719,75.83467102050781,-0.6936917946690776,0.4721257637463176,-92.97959730543963,9.843979,5.359007,7.1446824,59.46498,-3.5554032,-8.132947,-22.403545,-1.2530274,-16.543642,32.008793,-9.614312,-7.5959454,-8.347724,0.90984315,16.551943,6.916152,35.512245,-27.175713,-39.871567,-18.189837,3.6737149,5.796628,22.883253,-23.094353,22.044191,-30.883966,-6.9801044,5.2829647,-11.10178
51,-3.26045823097229,-73.32487487792969,75.36701965332031,-1.133841518603629,0.32678403933830724,-92.94834141419301,8.368731,7.30675,7.854857,63.178318,-5.8510633,-7.6606507,-22.93521,-1.2394974,-16.692469,36.281612,-12.870358,-7.3396015,-7.540716,1.3416926,16.81313,7.6734867,34.790344,-26.504478,-38.6159,-17.018873,3.8523576,5.8060727,21.240387,-23.062841,22.35504,-30.158268,-6.9369783,5.3319807,-11.352323
52,-3.5661563873291016,-74.71173095703125,74.9614028930664,-1.633526585832949,0.2982762659821893,-92.95061971809106,6.669563,9.146289,8.279592,66.5894,-7.898834,-7.160813,-23.213362,-1.127992,-16.872171,39.714935,-15.57078,-7.2236433,-6.720269,1.8551621,16.993046,8.4797125,34.02116,-25.84207,-37.423668,-16.193254,4.2062755,6.205468,19.37429,-23.086786,22.705332,-29.361206,-7.020462,5.4509563,-11.62844
53,-3.8306198120117188,-76.0899887084961,74.6269760131836,-2.2511117295727163,0.4558648823301458,-93.02589685869305,4.6067743,10.931465,8.373001,69.73815,-9.642897,-6.578739,-23.193653,-0.7065962,-17.176867,41.963005,-17.420286,-7.298887,-5.874852,2.514238,17.033716,9.374021,33.188812,-25.211786,-36.278584,-15.798226,4.8770704,7.2813587,17.166763,-23.208525,23.194216,-28.40524,-7.2259316,5.6877947,-12.015284
54,-3.9843533039093018,-77.45240020751953,74.34385681152344,-2.968062871046134,0.7447048148207361,-93.1444051125452,2.2088745,12.699735,8.15367,72.7203,-11.190645,-5.915512,-22.949265,-0.038506668,-17.586042,43.382404,-18.82538,-7.26321,-5.0203485,3.2912757,16.987946,10.352081,32.284622,-24.554962,-35.15365,-15.70467,5.7691703,8.857844,14.68954,-23.429476,23.802828,-27.379654,-7.5001073,6.0119014,-12.502956
55,-4.024299144744873,-78.80633544921875,74.11555480957031,-3.6421779516662953,1.0401442705331043,-93.22924423121671,-0.31404978,14.246726,7.685477,75.37291,-12.570175,-5.2685866,-22.47463,0.64943284,-18.007292,44.30211,-20.018122,-7.162429,-4.1915426,4.0402484,16.944206,11.342797,31.329502,-23.844172,-34.102512,-15.84561,6.634198,10.424683,12.199458,-23.711134,24.353502,-26.508211,-7.858973,6.3441253,-12.928858
56,-4.0199294090271,-80.1368408203125,73.93731689453125,-4.132328260689353,1.2189549489945037,-93.19870087250106,-2.7426615,15.379608,7.0617023,77.545746,-13.8156595,-4.7373834,-21.754618,1.1194061,-18.34212,45.05207,-21.235731,-7.045614,-3.4149954,4.614376,16.998013,12.270158,30.367638,-23.071196,-33.186592,-16.128305,7.2257404,11.475732,9.9465475,-23.999313,24.650118,-25.98288,-8.336421,6.602626,-13.114992
57,-4.0272722244262695,-81.46727752685547,73.80995178222656,-4.37428892002914,1.2529739962013897,-93.02630155965564,-5.060423,16.006567,6.29937,79.22339,-14.926907,-4.3336306,-20.777197,1.2674958,-18.55501,45.721107,-22.55712,-6.9221106,-2.683572,4.9309893,17.199463,13.158901,29.426039,-22.18355,-32.446095,-16.660337,7.4488945,11.8470955,7.930133,-24.260328,24.628578,-25.810705,-9.08198,6.7486753,-12.903709
58,-4.0878376960754395,-82.80152893066406,73.7317886352539,-4.4498186108758455,1.2049762382042544,-92.75443152908198,-7.367615,16.232342,5.3965364,80.487495,-15.885483,-4.006016,-19.542757,1.2416515,-18.714905,46.120987,-23.845413,-6.7710752,-1.9785817,5.0695205,17.49771,14.057748,28.518818,-21.20857,-31.870348,-17.441036,7.4426217,11.827754,6.004759,-24.490152,24.401861,-25.84783,-10.048833,6.8213034,-12.411972
59,-4.179458141326904,-84.14485168457031,73.6944808959961,-4.437898246353571,1.0885877245996483,-92.40255817498237,-9.603783,16.1753,4.431679,81.33036,-16.704082,-3.7619627,-18.048752,1.1679442,-18.873293,46.169605,-25.016935,-6.5939326,-1.3125209,5.125277,17.83927,14.936387,27.682043,-20.255156,-31.454426,-18.201542,7.320177,11.590008,4.1878614,-24.687878,24.034004,-26.036373,-10.980145,6.859295,-11.869691
60,-4.303515434265137,-85.50093078613281,73.70557403564453,-4.418734870971694,0.9184802540176343,-91.99089576430752,-11.713746,15.962416,3.470623,81.74945,-17.393864,-3.6090987,-16.296753,1.165111,-19.07157,45.79035,-25.989166,-6.385592,-0.68842745,5.1918325,18.169827,15.760454,26.96552,-19.438,-31.199415,-18.68005,7.187392,11.31567,2.5146184,-24.854628,23.574394,-26.336397,-11.617949,6.9125,-11.505369
61,-4.418753623962402,-86.85225677490234,73.76880645751953,-4.410002648348713,0.6456772609166666,-91.49491470150515,-13.674312,15.570996,2.4468389,81.74525,-17.956995,-3.576752,-14.198457,1.2568368,-19.327242,44.92786,-26.79111,-6.1366014,-0.11466373,5.2751064,18.535069,16.547453,26.419333,-18.77403,-31.185122,-18.766132,7.0321584,11.010202,1.0137452,-24.97846,22.975355,-26.817924,-11.919989,7.005775,-11.363349
62,-4.521933555603027,-88.19122314453125,73.8774642944336,-4.372485262193287,0.2784194530789487,-90.91459745453147,-15.499454,14.961972,1.3674315,81.3193,-18.388868,-3.64947,-11.77818,1.3758222,-19.613087,43.628315,-27.443022,-5.838694,0.42497697,5.3206134,18.9508,17.345419,26.05874,-18.199135,-31.435757,-18.634974,6.8068514,10.606075,-0.354202,-25.051823,22.224644,-27.468954,-12.0138645,7.111787,-11.328154
63,-4.60689115524292,-89.55181884765625,74.03639221191406,-4.303427507498002,-0.0815003587027,-90.30744442533441,-17.198347,14.2451315,0.39740002,80.4627,-18.691565,-3.7679186,-9.207767,1.5051849,-19.898142,41.962864,-27.847233,-5.4894094,0.9591243,5.3297977,19.314068,18.154177,25.865206,-17.704254,-31.842129,-18.445385,6.5603824,10.174371,-1.634829,-25.09053,21.423763,-28.153633,-11.899173,7.208345,-11.387566
64,-4.668748378753662,-90.94029235839844,74.23966979980469,-4.192708514104352,-0.33184125348100435,-89.73048975540524,-18.786297,13.529431,-0.29894876,79.1603,-18.867422,-3.8765855,-6.6609716,1.6304141,-20.152975,40.009373,-27.91394,-5.0990667,1.5113591,5.3048935,19.517061,18.958065,25.803041,-17.286606,-32.271206,-18.347479,6.3437366,9.784435,-2.865554,-25.121061,20.677761,-28.737364,-11.5755625,7.2736363,-11.531328
65,-4.700234413146973,-92.34121704101562,74.49510955810547,-4.036477773241096,-0.4444724473728105,-89.1837828308293,-20.28376,12.804205,-0.6861072,77.36959,-18.906893,-4.0206227,-4.1395893,1.7608155,-20.368048,37.70373,-27.64186,-4.6964836,2.0776057,5.2697167,19.521244,19.702702,25.824205,-16.98386,-32.66914,-18.35804,6.1772323,9.426947,-4.0123224,-25.193283,19.957355,-29.248695,-10.912613,7.2952957,-11.796724
66,-4.7101874351501465,-93.77294158935547,74.79310607910156,-3.835694084743118,-0.4753216869960256,-88.64185758106389,-21.665215,12.030508,-0.84114546,75.09547,-18.813898,-4.2170997,-1.5644084,1.8995205,-20.55971,35.034748,-27.075256,-4.271358,2.644158,5.2238545,19.379566,20.381105,25.930971,-16.801012,-33.068466,-18.396006,6.031595,9.074658,-5.057906,-25.306562,19.2308,-29.7473,-9.947977,7.285191,-12.188716
67,-4.69746208190918,-95.2264633178711,75.11793518066406,-3.5968077297733547,-0.44826985426337296,-88.12299498690295,-22.885052,11.2668,-0.7687631,72.39546,-18.602753,-4.3769627,1.0156139,2.0310705,-20.728558,32.1511,-26.197407,-3.7939675,3.216492,5.1509295,19.152086,21.035578,26.102942,-16.654173,-33.47007,-18.438162,5.9002833,8.720677,-5.9740696,-25.464128,18.541094,-30.26572,-8.921019,7.2547574,-12.623045
68,-4.664057731628418,-96.6841049194336,75.46629333496094,-3.3261087833015632,-0.3861035524260889,-87.64532181217712,-23.901827,10.563718,-0.47320065,69.32877,-18.290247,-4.41389,3.546719,2.1362832,-20.87604,29.21088,-24.995882,-3.230897,3.7893755,5.0329456,18.897522,21.722166,26.311625,-16.451824,-33.880054,-18.458122,5.7759933,8.357316,-6.7552366,-25.66149,17.951532,-30.814123,-8.072105,7.222363,-13.019755
69,-4.619603633880615,-98.15644836425781,75.82768249511719,-3.018168024528805,-0.28579708047151053,-87.20670269856875,-24.690296,9.97369,0.16871712,65.84229,-17.884478,-4.2679663,6.0845585,2.2351704,-20.985228,26.082058,-23.387453,-2.5562797,4.3461876,4.8669243,18.606033,22.444887,26.53912,-16.172167,-34.285137,-18.417543,5.6696243,7.94195,-7.4250317,-25.899654,17.500715,-31.362667,-7.433518,7.1943717,-13.409907
70,-4.561379432678223,-99.65312194824219,76.20095825195312,-2.6679824879270395,-0.1384151713637661,-86.79905603534395,-25.25427,9.419596,1.1387008,61.902473,-17.374222,-4.0305023,8.63684,2.3248303,-21.042816,22.739552,-21.414928,-1.801874,4.880836,4.659985,18.255936,23.177607,26.77942,-15.855436,-34.676044,-18.33112,5.5826364,7.48372,-7.987378,-26.17933,17.160568,-31.904453,-6.8890104,7.162912,-13.820009
71,-4.489563941955566,-101.15480041503906,76.56879425048828,-2.2881066606593627,0.041833905729310894,-86.43101222086273,-25.607439,8.775176,2.2020984,57.593307,-16.742428,-3.8274157,11.08261,2.3624942,-21.060854,19.487686,-19.247978,-1.016902,5.406507,4.4119406,17.887074,23.928799,27.022802,-15.5036545,-35.057884,-18.252842,5.494101,7.0534935,-8.411597,-26.49108,16.891499,-32.487835,-6.4571724,7.1313353,-14.161413
72,-4.402592182159424,-102.65911865234375,76.931884765625,-1.898017753013609,0.23978814568646412,-86.11116714703958,-25.775852,7.949627,3.0978212,52.99007,-15.964994,-3.7575006,13.290275,2.3132033,-21.062033,16.652367,-17.053528,-0.24435033,5.934206,4.1281614,17.539204,24.70616,27.25798,-15.113706,-35.433044,-18.237864,5.383988,6.721353,-8.672753,-26.817295,16.65595,-33.15053,-6.15831,7.103872,-14.345106
73,-4.312085151672363,-104.16441345214844,77.2739028930664,-1.4686040001149319,0.4777339646103038,-85.84021943428989,-25.740057,6.917951,3.8269122,47.888023,-14.953226,-3.7620032,15.256541,2.1497867,-21.067219,14.181964,-14.749614,0.60526526,6.465488,3.7785323,17.20007,25.51415,27.47762,-14.664661,-35.804607,-18.277586,5.242095,6.4935164,-8.767429,-27.150414,16.438805,-33.883373,-6.0559397,7.093384,-14.311419
74,-4.221996307373047,-105.66935729980469,77.58940887451172,-1.0148348391867759,0.7506729606328053,-85.61560316690368,-25.469534,5.7555027,4.4720182,42.249107,-13.715767,-3.8019047,17.044521,1.9155174,-21.04577,11.953051,-12.291404,1.5253156,6.9935737,3.382213,16.860073,26.345678,27.681517,-14.160848,-36.162914,-18.346037,5.081983,6.334454,-8.7106,-27.49118,16.258503,-34.666237,-6.124614,7.0954356,-14.116215
75,-4.137923717498779,-107.1767807006836,77.8721923828125,-0.6281349235057553,1.0003598123087254,-85.44338602638327,-24.990591,4.572113,4.870135,36.420284,-12.371231,-3.97567,18.625406,1.6924633,-20.960772,10.174045,-9.892228,2.333683,7.519222,3.0276783,16.562471,27.19335,27.870407,-13.635002,-36.506718,-18.471369,4.91968,6.251858,-8.504946,-27.83188,16.127243,-35.51986,-6.253536,7.0878463,-13.842749
76,-4.046671390533447,-108.68479919433594,78.11912536621094,-0.4045105891662511,1.1681198347115473,-85.3294263425545,-24.348743,3.4999168,4.855977,30.793158,-11.055362,-4.3735385,19.960878,1.56371,-20.793213,9.070225,-7.7589245,2.8466854,8.043844,2.8083017,16.346685,28.047281,28.045841,-13.121379,-36.826427,-18.681923,4.770997,6.2542953,-8.154629,-28.160963,16.056896,-36.45969,-6.333682,7.04923,-13.572248
77,-3.9723739624023438,-110.20083618164062,78.32400512695312,-0.38629498070888113,1.2456719197032429,-85.29648422080719,-23.499598,2.5882561,4.3365135,25.22907,-9.766925,-5.0968604,21.063793,1.5689039,-20.560019,8.63051,-5.873034,3.0106921,8.59754,2.758469,16.213533,28.941818,28.211578,-12.6055355,-37.132442,-19.01161,4.6287084,6.3801556,-7.6366343,-28.476591,16.046978,-37.50884,-6.3612385,6.972787,-13.288318
78,-3.9101216793060303,-111.72998046875,78.4802474975586,-0.5631482679176576,1.2503502042941856,-85.3623130301897,-22.400028,1.8964148,3.3953786,19.551563,-8.43088,-6.0389667,21.987629,1.7109985,-20.251362,8.679271,-4.0957956,2.9098155,9.196335,2.8716602,16.145266,29.886717,28.368145,-12.067426,-37.442364,-19.436892,4.4869905,6.6139574,-6.9465857,-28.782717,16.085348,-38.660255,-6.389757,6.8705006,-12.955858
79,-3.864935874938965,-113.26616668701172,78.58041381835938,-0.9239199419696897,1.1713531566060824,-85.50833155701496,-21.16959,1.5210713,2.1617699,14.226871,-7.1345973,-6.9917316,22.726858,1.978013,-19.840094,9.233784,-2.474134,2.570257,9.805282,3.1534188,16.143307,30.828983,28.509972,-11.539372,-37.7581,-19.897604,4.3639946,6.8838677,-6.1258836,-29.074219,16.171574,-39.87639,-6.3963943,6.750109,-12.62809
80,-3.8351387977600098,-114.80223083496094,78.6434097290039,-1.3766330686638413,1.0204943983913883,-85.67333977460117,-19.961676,1.4066048,0.78940433,9.7325945,-5.9440336,-7.760053,23.190506,2.2524652,-19.355238,10.463059,-1.1359583,2.0413728,10.347583,3.5245442,16.200598,31.687815,28.628523,-11.061754,-38.045162,-20.33187,4.278641,7.1166677,-5.236956,-29.337986,16.315914,-41.09425,-6.361179,6.618637,-12.358217
81,-3.8159613609313965,-116.32167053222656,78.68765258789062,-1.836534598785356,0.8173903064361744,-85.81640113246435,-19.272324,1.428476,-0.8106281,7.086163,-5.3817887,-8.289742,23.193615,2.4118714,-18.784613,12.7321,-0.22407995,1.2236192,10.7835045,3.887682,16.317364,32.4466,28.717215,-10.630701,-38.27602,-20.761322,4.244554,7.3242974,-4.303045,-29.561262,16.548706,-42.307236,-6.2251964,6.461673,-12.181106
82,-3.788686990737915,-117.83207702636719,78.70577239990234,-2.24354043474307,0.5942361941027084,-85.95636046477347,-19.505695,1.4277841,-2.624328,6.9800663,-5.8927593,-8.676235,22.744375,2.3839176,-18.18619,15.952073,0.31082368,0.14064108,11.132158,4.1708493,16.47417,33.131363,28.775906,-10.225901,-38.450157,-21.203636,4.2490954,7.5324364,-3.338556,-29.73782,16.88367,-43.49796,-6.0220833,6.2806277,-12.058633
83,-3.766127586364746,-119.32144165039062,78.69469451904297,-2.5270377485771722,0.38235526021785815,-86.08405915366615,-19.508621,1.3231418,-4.3441386,6.9141464,-6.101667,-8.969299,22.050806,2.1228209,-17.712729,19.60842,0.62496084,-0.9581651,11.374574,4.319132,16.638044,33.686916,28.806273,-9.886137,-38.532906,-21.58614,4.2733197,7.690283,-2.4004555,-29.848776,17.301764,-44.571957,-5.87574,6.1049733,-11.928496
84,-3.7554099559783936,-120.81106567382812,78.63928985595703,-2.6568986432295763,0.19820417223541784,-86.174728842427,-19.289518,1.0847986,-5.727118,6.879572,-5.945032,-9.2174225,21.307417,1.6138384,-17.508257,23.273533,0.8302175,-1.8203322,11.481903,4.325656,16.791086,34.064266,28.81899,-9.651275,-38.50962,-21.841665,4.2980924,7.747385,-1.5070298,-29.898018,17.76539,-45.473946,-5.900574,5.9634957,-11.737831
85,-3.7440671920776367,-122.29093170166016,78.53363037109375,-2.6577790605586546,0.03282143285512898,-86.22214989418005,-18.766945,0.7418803,-6.7382746,6.8550587,-5.291263,-9.603322,20.521734,0.9408809,-17.454685,26.98308,0.9951185,-2.339296,11.392914,4.2000813,16.947794,34.37126,28.8154,-9.4419985,-38.455242,-21.964918,4.314629,7.661335,-0.72178155,-29.906033,18.381145,-46.20571,-6.106128,5.8677816,-11.521277
86,-3.7204549312591553,-123.73754119873047,78.39518737792969,-2.550491621987163,-0.12793668821923437,-86.22679220875668,-17.966393,0.32300177,-7.526641,6.862332,-4.215146,-10.061574,19.63746,0.104736276,-17.50756,30.898148,1.0512022,-2.657137,11.176056,3.9746115,17.10906,34.48962,28.796844,-9.348094,-38.269783,-21.971119,4.3349376,7.475818,0.035520963,-29.856653,19.064386,-46.809834,-6.442465,5.7966795,-11.264171
87,-3.668527364730835,-125.1404037475586,78.26448059082031,-2.3086008391933106,-0.27933981180783274,-86.1826681519412,-17.031063,-0.19880609,-8.11645,6.9102106,-2.9417439,-10.271966,18.70697,-1.0657314,-17.90179,34.924023,0.83492273,-2.9073758,10.776941,3.610809,17.26165,34.492527,28.750948,-9.314895,-38.014572,-21.897831,4.3706512,7.240484,0.63405985,-29.711926,19.84926,-47.1258,-6.914505,5.7437024,-10.961132
88,-3.635916233062744,-126.55950927734375,78.07598876953125,-1.910231051156467,-0.4171672910099963,-86.09081566565526,-16.646044,-0.9423314,-8.50734,8.17044,-2.2943177,-9.912095,17.808397,-2.761533,-18.857317,38.947906,0.18722509,-3.2462966,10.268155,3.1141167,17.40359,34.27428,28.704699,-9.426796,-37.654076,-21.766932,4.432382,7.0167694,1.2020591,-29.491932,20.549503,-47.19498,-7.512653,5.6932936,-10.570855
89,-3.597451686859131,-127.97634887695312,77.83863830566406,-1.33738388825163,-0.5416370269440707,-85.93151390762642,-17.340942,-2.0315895,-8.631583,11.737125,-2.6438744,-8.694145,17.075994,-5.161216,-20.653013,42.980286,-0.9966677,-3.6787696,9.627617,2.463816,17.523294,33.825504,28.670984,-9.69551,-37.184162,-21.598587,4.520442,6.8079977,1.7415332,-29.191133,21.168306,-47.033035,-8.279656,5.6425323,-10.041775
90,-3.5428273677825928,-129.37306213378906,77.5759048461914,-0.6882408139431417,-0.6826680495729379,-85.73878333065151,-18.15611,-3.2491832,-8.476184,15.725886,-2.924665,-6.932058,16.559599,-8.072969,-23.043587,47.0462,-2.6178539,-4.1807175,8.887242,1.7539717,17.627323,33.189255,28.65461,-10.103312,-36.63507,-21.378485,4.6282744,6.5932784,2.261072,-28.809944,21.740398,-46.667713,-9.201355,5.5919943,-9.401973
91,-3.455824375152588,-130.73574829101562,77.2866439819336,-0.07025406139473173,-0.8611573338916966,-85.58036610671307,-18.922167,-4.4590306,-8.104759,19.765594,-3.3836067,-5.1306148,16.15786,-11.1640835,-25.483547,51.067326,-4.5335684,-4.8402686,8.127601,1.0994252,17.735369,32.425858,28.657335,-10.618442,-36.07149,-21.09507,4.7536597,6.3969464,2.797073,-28.362597,22.236895,-46.088875,-10.187034,5.5394287,-8.764991
92,-3.3742916584014893,-132.08653259277344,76.94041442871094,0.49017664108659353,-1.0722452017164075,-85.50292581828617,-19.502625,-5.575072,-7.619887,23.540573,-4.360176,-3.70192,15.652129,-14.171492,-27.43892,54.9971,-6.6052575,-5.7013354,7.4118314,0.530052,17.867186,31.571253,28.680824,-11.21467,-35.540466,-20.737513,4.893676,6.242138,3.3947325,-27.872173,22.618294,-45.293625,-11.142983,5.487295,-8.248601
93,-3.2945618629455566,-133.42771911621094,76.51593017578125,1.050985995187831,-1.3421971712509526,-85.50687575735068,-19.981474,-6.6030493,-7.041215,27.378803,-6.3386397,-2.6765623,14.989355,-17.214205,-28.900572,58.970436,-8.980557,-6.8740807,6.7412167,0.009118835,18.058651,30.630281,28.723024,-11.91463,-35.038155,-20.301569,5.014331,6.144322,4.114059,-27.356153,22.846321,-44.2746,-12.210032,5.3675356,-7.863009
94,-3.194857358932495,-134.76365661621094,76.04027557373047,1.6482073835978859,-1.6454433843783618,-85.56099312558558,-20.465664,-7.549949,-6.374207,31.476133,-9.134682,-1.7931019,14.22609,-20.364653,-30.09038,62.980263,-11.666552,-8.247834,6.0866303,-0.5077051,18.288994,29.560633,28.781353,-12.73158,-34.53305,-19.798115,5.126664,6.08926,4.955419,-26.819643,22.927784,-43.080128,-13.377208,5.2034016,-7.5625625
95,-3.0129408836364746,-136.11463928222656,75.5759048461914,2.2648250403287022,-1.8904751560700777,-85.65231745388702,-20.874624,-8.38092,-5.6996803,35.36314,-12.120468,-0.9973284,13.196734,-23.341806,-30.825161,66.78042,-14.299076,-9.528286,5.4529963,-1.039047,18.490261,28.327555,28.855448,-13.623315,-34.025223,-19.236406,5.2949624,6.0539985,5.861494,-26.265224,22.894844,-41.77244,-14.324834,5.1424065,-7.3757987
96,-2.776420831680298,-137.46072387695312,75.14672088623047,2.8751475579841173,-1.9887609731464904,-85.7670045029067,-21.117239,-9.12448,-5.0585904,38.523415,-14.629776,-0.24769293,11.699409,-25.891909,-30.936073,70.14325,-16.517786,-10.439278,4.8400617,-1.5973724,18.59549,26.908424,28.944284,-14.541778,-33.522278,-18.626303,5.583377,6.0145397,6.765933,-25.691933,22.789976,-40.40384,-14.734763,5.3346252,-7.3278003
97,-2.575174570083618,-138.7830352783203,74.77096557617188,3.5328472713017223,-1.8541212736848314,-85.87909955973348,-21.223377,-9.889206,-4.400464,40.751503,-16.458544,0.45505637,9.456391,-27.999702,-30.211475,73.08618,-18.22423,-10.885657,4.2295694,-2.2380142,18.540203,25.250425,29.049206,-15.503441,-33.02119,-17.917723,6.0800214,5.9615803,7.6674113,-25.08812,22.59758,-38.9141,-14.409608,5.914896,-7.4207344
98,-2.453951120376587,-140.0733642578125,74.44254302978516,4.2405401385357715,-1.5521526840407027,-85.99379934419692,-21.23535,-10.663076,-3.7079055,42.36523,-17.97491,1.0857259,6.550627,-29.76499,-28.773329,75.71624,-19.593565,-11.017949,3.6179595,-2.9440565,18.371683,23.390171,29.161617,-16.519217,-32.53586,-17.126144,6.7255282,5.9081,8.588405,-24.448614,22.303844,-37.291065,-13.552578,6.771024,-7.6510944
99,-2.4102230072021484,-141.34983825683594,74.15330505371094,4.88783129861406,-1.2251303540134253,-86.14666949086777,-21.071585,-11.331002,-3.0476701,43.60249,-19.348495,1.6418504,3.3513148,-31.130816,-26.99967,77.94459,-20.692469,-10.947043,3.020063,-3.6131823,18.195545,21.444744,29.260866,-17.524305,-32.097824,-16.359188,7.3644624,5.8601165,9.486864,-23.78866,21.965857,-35.64636,-12.44508,7.681257,-8.033885
100,-2.4057810306549072,-142.6289520263672,73.90495300292969,5.367809489964376,-1.0153607610803101,-86.38241095639066,-20.643118,-11.771067,-2.4885252,44.687458,-20.744232,2.1223176,0.26618323,-32.076317,-25.30308,79.68468,-21.592466,-10.789355,2.451235,-4.144479,18.123213,19.539658,29.322584,-18.446203,-31.732029,-15.718181,7.8436675,5.8205943,10.321573,-23.137836,21.654335,-34.106403,-11.371406,8.426295,-8.575335
101,-2.424474000930786,-143.91978454589844,73.69705963134766,5.638409630393227,-0.9482762554069445,-86.72044634090139,-19.926994,-11.931083,-2.0485272,45.663414,-22.212461,2.504997,-2.6599362,-32.561417,-23.742987,80.915405,-22.272343,-10.538929,1.9121658,-4.498298,18.19189,17.677906,29.329233,-19.275167,-31.421064,-15.230741,8.106677,5.761515,11.087365,-22.51226,21.380924,-32.64507,-10.215707,8.959155,-9.378176
102,-2.4107825756073,-145.22332763671875,73.52555084228516,5.760055147035216,-0.9541759637957491,-87.1384045355834,-18.964207,-11.891531,-1.6778468,46.40698,-23.655878,2.7963493,-5.579373,-32.614113,-22.18238,81.69129,-22.71271,-10.154931,1.3860376,-4.728341,18.34746,15.808397,29.27434,-20.036915,-31.152508,-14.835049,8.242354,5.6859937,11.808725,-21.91804,21.123087,-31.224304,-8.882334,9.379024,-10.412043
103,-2.368023157119751,-146.52883911132812,73.38943481445312,5.782188263648668,-1.0327398045024299,-87.62119540772606,-17.760857,-11.727638,-1.3456199,46.88738,-25.015123,3.039302,-8.369968,-32.361237,-20.746746,82.04489,-22.992804,-9.706558,0.8676763,-4.877182,18.565683,13.960958,29.159206,-20.72281,-30.941414,-14.496823,8.317686,5.6431723,12.494871,-21.379143,20.899137,-29.960869,-7.6962934,9.703943,-11.469223
104,-2.3208186626434326,-147.83743286132812,73.29206085205078,5.753019895174623,-1.182345211324781,-88.15319035805206,-16.32504,-11.512026,-1.0256938,47.07638,-26.232481,3.2751732,-10.922164,-31.938065,-19.542933,82.006004,-23.190598,-9.262571,0.3493914,-4.9858947,18.823627,12.166613,28.991713,-21.323671,-30.80852,-14.183251,8.400222,5.679776,13.159703,-20.929312,20.727596,-28.983257,-6.9798837,9.972415,-12.344524
105,-2.27200984954834,-149.14227294921875,73.23715209960938,5.683271238241215,-1.471955944462232,-88.76665632055042,-14.555523,-11.248186,-0.6897259,46.942036,-27.327675,3.5171463,-13.190974,-31.304634,-18.502413,81.49039,-23.299332,-8.6463995,-0.15189473,-5.0535183,19.199125,10.433295,28.768093,-21.83752,-30.767368,-13.895321,8.506191,5.8525734,13.826441,-20.603287,20.610764,-28.395058,-6.9069076,10.243233,-13.061604
106,-2.2357826232910156,-150.4388427734375,73.2219009399414,5.5510392654092575,-1.8819043157661248,-89.4576853347395,-12.479751,-10.906353,-0.34728906,46.503452,-28.318127,3.7404804,-15.215627,-30.436083,-17.61758,80.5108,-23.291042,-7.888106,-0.64037746,-5.056964,19.684017,8.731179,28.486725,-22.282627,-30.793575,-13.647904,8.601277,6.1202216,14.510555,-20.411863,20.532408,-28.148464,-7.265847,10.497629,-13.706767
107,-2.218255043029785,-151.75450134277344,73.2569808959961,5.3604081586256624,-2.2757848077314984,-90.1560980091501,-10.30127,-10.504244,-0.03372812,45.814266,-29.145939,3.9281137,-17.039122,-29.49395,-17.062078,79.236176,-23.202127,-7.3601637,-1.1480289,-5.005916,20.122076,7.0339584,28.169912,-22.687855,-30.849104,-13.429494,8.675579,6.383728,15.209408,-20.344004,20.47651,-28.126314,-7.806273,10.663324,-14.166683
108,-2.2305095195770264,-153.0900115966797,73.33916473388672,5.109480297880655,-2.5153975165154403,-90.79251309347914,-8.229121,-10.053844,0.21370989,44.935726,-29.756367,4.0636992,-18.719645,-28.631384,-17.004719,77.83661,-23.065022,-7.4274383,-1.7017367,-4.9111586,20.356388,5.3260956,27.856153,-23.07667,-30.91411,-13.23432,8.717287,6.5476947,15.916338,-20.370188,20.428843,-28.207293,-8.281939,10.660278,-14.328983
109,-2.273951768875122,-154.43150329589844,73.4638900756836,4.770641056747067,-2.561994711139359,-91.35988357729623,-6.2938957,-9.517847,0.39072305,43.84041,-30.16741,4.143837,-20.30936,-27.908413,-17.5962,76.36049,-22.850388,-8.552671,-2.2940729,-4.7672777,20.339617,3.5891728,27.57698,-23.44616,-31.012127,-13.033034,8.729206,6.5821376,16.607193,-20.467592,20.395163,-28.377872,-8.6663685,10.4094925,-14.07686
110,-2.331766366958618,-155.78109741210938,73.62493896484375,4.348266911225288,-2.4893402488463274,-91.8939655377663,-4.4024515,-8.895168,0.5267664,42.522514,-30.40282,4.1746235,-21.766539,-27.232111,-18.726738,74.71967,-22.581436,-10.404038,-2.9038062,-4.576215,20.157349,1.8487561,27.343534,-23.7956,-31.16733,-12.849339,8.712817,6.547764,17.283236,-20.627533,20.37622,-28.681557,-9.081547,9.967225,-13.495764
111,-2.3863608837127686,-157.13412475585938,73.81819915771484,3.891404608477117,-2.3264083820492107,-92.39022930926082,-2.5739584,-8.250611,0.62764376,41.06849,-30.413311,4.156672,-23.019276,-26.522047,-20.15694,72.86729,-22.341797,-12.150565,-3.5362742,-4.357479,19.85256,0.16327406,27.16355,-24.144644,-31.36647,-12.755825,8.653601,6.4860244,17.974285,-20.835262,20.352869,-29.072586,-9.504866,9.455062,-12.777277
112,-2.444002866744995,-158.4951934814453,74.04143524169922,3.453067432041546,-2.1029056939493054,-92.84108488325191,-0.82483524,-7.653316,0.69157165,39.565247,-30.150267,4.0936,-24.00562,-25.704033,-21.620123,70.73985,-22.171715,-12.961992,-4.197123,-4.1350574,19.468992,-1.4121628,27.04263,-24.510387,-31.595053,-12.824755,8.538484,6.4386806,18.707773,-21.073833,20.304348,-29.504642,-9.92163,8.996589,-12.108591
113,-2.5141797065734863,-159.88516235351562,74.28929138183594,3.042183599924374,-1.7909009962121791,-93.23315814147199,0.838544,-7.120232,0.6941412,37.964035,-29.595894,3.9895945,-24.644419,-24.909777,-23.278555,68.30108,-22.220554,-12.555516,-4.903382,-3.9162297,18.968401,-2.887132,26.99036,-24.908968,-31.853289,-13.134765,8.338434,6.4334354,19.479807,-21.335655,20.232332,-29.98084,-10.39734,8.5999975,-11.457773
114,-2.5872304439544678,-161.30203247070312,74.55889129638672,2.633340158439512,-1.3866820178591706,-93.574144323162,2.4237263,-6.6170893,0.63790077,36.249344,-28.781391,3.8455286,-24.99831,-24.11072,-25.190056,65.556656,-22.367134,-11.382573,-5.6445966,-3.6889017,18.347,-4.2779217,27.012194,-25.328081,-32.158184,-13.630176,8.068676,6.444182,20.272228,-21.616781,20.146013,-30.509768,-10.920517,8.204757,-10.749217
115,-2.6739113330841064,-162.74049377441406,74.84772491455078,2.2376476607278155,-0.9567897953054249,-93.88530502390522,3.9398134,-6.144388,0.5561501,34.55083,-27.72828,3.6646605,-25.256569,-23.032444,-26.874454,62.51343,-22.230865,-9.745135,-6.3926163,-3.4556074,17.701263,-5.539363,27.103926,-25.733484,-32.521072,-14.178805,7.7837157,6.4302807,21.087067,-21.904665,20.039347,-31.055622,-11.369865,7.8369226,-10.10115
116,-2.758833885192871,-164.17919921875,75.15058135986328,1.8654863381655675,-0.5690502472771085,-94.18707592875357,5.397515,-5.7049894,0.48099443,32.99611,-26.456015,3.450714,-25.607536,-21.443886,-27.817781,59.190163,-21.490534,-7.9747148,-7.1208315,-3.2238224,17.12515,-6.6319523,27.256813,-26.089478,-32.94198,-14.646623,7.539555,6.3507237,21.921534,-22.182032,19.907198,-31.575409,-11.628055,7.5269055,-9.628786
117,-2.8412866592407227,-165.6405487060547,75.4614028930664,1.51504549270729,-0.22098911464461127,-94.48382599619536,6.8224607,-5.296117,0.39858645,31.53506,-24.918808,3.2220194,-26.14419,-19.192472,-27.700314,55.511234,-19.991776,-6.118506,-7.834469,-2.9904296,16.615568,-7.5723443,27.47603,-26.40186,-33.397404,-15.00698,7.354176,6.180974,22.769007,-22.438044,19.735304,-32.054836,-11.689054,7.2803006,-9.350379
118,-2.9481239318847656,-167.11624145507812,75.7825698852539,1.1873787857499374,0.11374703091448277,-94.76338370473785,8.207116,-4.9268885,0.2888244,30.124756,-23.122332,2.9737496,-26.694172,-16.503561,-26.80025,51.46997,-18.013939,-4.058933,-8.544778,-2.7651954,16.13165,-8.376926,27.767298,-26.683111,-33.892845,-15.326961,7.1985188,5.9469857,23.621017,-22.670074,19.53328,-32.502678,-11.615075,7.0849056,-9.202849
119,-3.0444843769073486,-168.58360290527344,76.10343933105469,0.907102304833608,0.4044230909098033,-95.01910251181489,9.51037,-4.6177435,0.17246665,28.909033,-21.165241,2.673001,-27.046278,-13.717324,-25.49818,47.197556,-15.90405,-1.8831035,-9.2383995,-2.5753222,15.706858,-9.008492,28.11671,-26.902447,-34.459377,-15.609865,7.058564,5.6824408,24.472088,-22.874756,19.333746,-32.905212,-11.395258,6.945902,-9.17922
120,-3.1393375396728516,-170.07781982421875,76.40998077392578,0.6977362823752543,0.6214732892701731,-95.24181218606712,10.698788,-4.390517,0.066765465,28.012417,-19.131903,2.2859468,-27.037476,-11.14266,-24.189548,42.827267,-13.9479,0.3312766,-9.9056835,-2.4444747,15.370621,-9.435267,28.49831,-27.026827,-35.117023,-15.854738,6.9209046,5.417558,25.314388,-23.050486,19.169199,-33.24355,-11.019102,6.8680615,-9.273591
121,-3.236205577850342,-171.5888214111328,76.69873809814453,0.5704697632467585,0.7522140927786685,-95.41905612394706,11.807748,-4.2664766,-0.009974087,27.391087,-16.93332,1.8450786,-26.586388,-8.760268,-22.944324,38.216087,-12.104743,2.711329,-10.562453,-2.3809657,15.122166,-9.642143,28.896204,-27.031765,-35.854443,-15.997889,6.81644,5.092586,26.169779,-23.198212,19.036985,-33.501587,-10.362166,6.8745646,-9.559776
122,-3.324608087539673,-173.10952758789062,76.95503997802734,0.5340372613549894,0.8100522726394526,-95.54777825996503,12.862101,-4.26042,-0.09306965,26.966875,-14.537628,1.3538483,-25.74684,-6.4759884,-21.53412,33.291092,-10.245248,5.234355,-11.217556,-2.3931172,14.94197,-9.663088,29.308695,-26.938309,-36.64189,-16.05448,6.742429,4.7086873,27.039944,-23.320766,18.920017,-33.69485,-9.471978,6.9504194,-10.017678
123,-3.4069783687591553,-174.63021850585938,77.17086791992188,0.6016874708398736,0.8078711161366865,-95.6330817034458,13.820979,-4.381528,-0.24800766,26.7876,-12.110973,0.73391473,-24.618307,-4.4503546,-19.949528,28.334848,-8.467525,7.62306,-11.8488865,-2.499648,14.828287,-9.54389,29.727262,-26.784452,-37.468647,-16.141235,6.635309,4.387384,27.887579,-23.419298,18.827198,-33.849796,-8.5948515,7.0468154,-10.500016
124,-3.4865469932556152,-176.14979553222656,77.34204864501953,0.7738367379105676,0.7635374967812243,-95.68674162633548,14.629007,-4.625689,-0.53358996,26.922194,-9.832825,-0.09640747,-23.344982,-2.8186636,-18.213324,23.706072,-6.8709927,9.620925,-12.426966,-2.706091,14.775514,-9.335628,30.137594,-26.612715,-38.31612,-16.373322,6.432267,4.249414,28.672125,-23.49302,18.769165,-33.986736,-7.979038,7.122887,-10.857498
125,-3.567674398422241,-177.6634979248047,77.46607971191406,1.0919104988162223,0.6685173174314791,-95.7008452069712,15.299167,-5.071,-1.0280645,27.363459,-7.6196775,-1.2557826,-21.896133,-1.5554672,-16.12487,19.258915,-5.4798045,11.468273,-12.959103,-3.0457265,14.779227,-9.044458,30.534073,-26.432888,-39.188194,-16.75025,6.119591,4.333301,29.437437,-23.536919,18.7356,-34.116337,-7.66131,7.1754293,-11.064405
126,-3.6503989696502686,-179.17376708984375,77.53813934326172,1.5647777315366418,0.5200572746851087,-95.67726086880887,15.849308,-5.7320833,-1.6873367,28.091377,-5.431416,-2.6808574,-20.246113,-0.65112454,-13.764491,14.955668,-4.2402253,13.224926,-13.445678,-3.5294592,14.8290825,-8.660688,30.91381,-26.233488,-40.072884,-17.21592,5.729194,4.5687237,30.19885,-23.54887,18.71998,-34.232014,-7.521705,7.2274685,-11.193807
127,-3.7169060707092285,-180.6833953857422,77.56497192382812,2.050777408089191,0.3653602242838628,-95.6721433789078,16.166523,-6.399602,-2.3294303,29.25842,-3.569692,-4.18859,-18.637865,-0.08190461,-11.625942,11.363829,-3.1157732,14.388434,-13.818208,-4.029192,14.917421,-8.222282,31.257673,-26.026234,-40.91783,-17.801067,5.264753,4.9121327,30.854677,-23.53384,18.740974,-34.30874,-7.5725336,7.281263,-11.243544
128,-3.788867950439453,-182.1654052734375,77.57203674316406,2.340390313449596,0.26214645624181226,-95.75192954408018,16.117908,-6.7822065,-2.740767,31.037632,-2.3503776,-5.595947,-17.401285,0.31488243,-10.220025,9.149804,-2.094513,14.460799,-13.997026,-4.3424273,15.048618,-7.782283,31.530499,-25.829628,-41.649746,-18.532715,4.7291784,5.3185287,31.290417,-23.499332,18.816801,-34.309574,-7.8226,7.338082,-11.212991
129,-3.867400884628296,-183.5940399169922,77.5791015625,2.2909616239778385,0.23585808470999664,-95.95889432093675,15.643994,-6.7647257,-2.9223561,33.590473,-1.869148,-6.9761615,-16.802872,0.63925654,-9.927321,8.935043,-1.0656161,13.043934,-13.937724,-4.311854,15.2434635,-7.4016204,31.701735,-25.692846,-42.233562,-19.566133,4.0459957,5.8609853,31.485521,-23.446049,18.946777,-34.229206,-8.385677,7.4150662,-11.0670185
130,-3.9484052658081055,-185.00360107421875,77.5540542602539,1.9755245987362344,0.25490870740761334,-96.25211378581739,14.827136,-6.4372206,-2.9545176,36.796474,-1.9700933,-8.396846,-16.705635,0.89666706,-10.505267,10.344746,-0.13759384,10.484953,-13.674374,-3.996699,15.502454,-7.102172,31.742353,-25.62907,-42.644753,-20.820639,3.2319949,6.5173545,31.51654,-23.384586,19.10416,-34.093735,-9.213016,7.5032578,-10.819126
131,-4.014599323272705,-186.4366912841797,77.48053741455078,1.5418455107336537,0.2849227241539488,-96.55828877416698,13.770167,-5.8284574,-2.755373,40.356804,-2.5425942,-9.635213,-16.896906,1.0741334,-11.469484,12.709821,0.29220673,7.414821,-13.2744055,-3.5752087,15.797033,-6.826601,31.663809,-25.566704,-42.868805,-21.985884,2.4408863,7.1089544,31.352182,-23.296816,19.307133,-33.853764,-10.088836,7.5668263,-10.536366
132,-4.0980963706970215,-187.8553924560547,77.37904357910156,1.1536954671072495,0.2998677213714575,-96.81234530228717,12.552149,-4.9668097,-2.2337956,43.998688,-3.4735148,-10.450639,-17.254135,1.1879458,-12.215283,15.519118,-0.19646388,4.5113063,-12.783877,-3.2175543,16.090563,-6.5619726,31.433216,-25.46501,-42.85383,-22.753626,1.839546,7.472108,31.027477,-23.210112,19.537748,-33.52817,-10.776547,7.573455,-10.295115
133,-4.185747146606445,-189.26116943359375,77.21469116210938,0.8592934150971693,0.28027724025411,-97.0212782394885,11.209251,-3.7787387,-1.2430216,47.78091,-4.856647,-10.740577,-17.926386,1.2530541,-12.490266,19.105946,-1.9676313,1.6821955,-12.186615,-2.968752,16.380201,-6.318376,31.034811,-25.312643,-42.610134,-23.1137,1.4677755,7.504125,30.545176,-23.142614,19.81252,-33.120308,-11.208767,7.470774,-10.114572
134,-4.280614852905273,-190.61984252929688,77.01717376708984,0.6527083993348287,0.23179146092077482,-97.19371336142456,9.747672,-2.315081,0.07787086,51.75525,-6.667235,-10.59935,-18.854418,1.2433879,-12.524499,23.45661,-4.5972834,-1.3103105,-11.487369,-2.8092532,16.670553,-6.1135616,30.46258,-25.139652,-42.140747,-23.209944,1.2501053,7.315548,29.91997,-23.09936,20.128805,-32.65323,-11.505044,7.2939057,-9.962098
135,-4.383390426635742,-191.93370056152344,76.78295135498047,0.5060227437815435,0.19334177873142838,-97.29840370176733,8.130127,-0.67689157,1.4174615,55.72383,-8.666558,-10.10966,-19.707493,1.2547297,-12.445446,27.676094,-7.3747334,-3.9990773,-10.747391,-2.7088292,16.94966,-5.898594,29.732826,-24.93767,-41.424637,-22.972681,1.1787411,7.0773916,29.161627,-23.082552,20.456324,-32.145622,-11.711166,7.1429024,-9.8358345
136,-4.480783462524414,-193.2176513671875,76.50774383544922,0.33915528697757774,0.21422486051364584,-97.31751888782773,6.281409,1.0688034,2.481495,59.50707,-10.633801,-9.37517,-20.22925,1.3351912,-12.455361,31.043505,-9.730865,-5.9380217,-10.020732,-2.5887759,17.209553,-5.604724,28.877434,-24.683552,-40.46257,-22.335064,1.2429014,6.9626007,28.267534,-23.09248,20.76949,-31.604324,-11.872468,7.1170187,-9.733211
137,-4.579873085021973,-194.47396850585938,76.20442199707031,0.07817293279879531,0.295118164386132,-97.25730802403788,4.115121,3.029611,3.1907995,63.242733,-12.692101,-8.340479,-20.409546,1.4885992,-12.649027,33.558964,-11.712718,-6.8821406,-9.300361,-2.404639,17.48841,-5.1925697,27.911352,-24.31779,-39.230003,-21.063707,1.4571446,6.88429,27.152552,-23.1333,21.116594,-30.986153,-11.922803,7.273347,-9.632447
138,-4.713156223297119,-195.7234649658203,75.90687561035156,-0.2653855017194971,0.42733144256258615,-97.13725700454299,1.6607507,5.226418,3.6519568,66.97904,-14.921744,-6.9995055,-20.426886,1.6750029,-12.941795,35.679657,-13.653793,-7.1279254,-8.565817,-2.1584077,17.779966,-4.6766877,26.839165,-23.84407,-37.77439,-19.271793,1.8171358,6.7893786,25.828365,-23.206009,21.503664,-30.294336,-11.860875,7.5492043,-9.544567
139,-4.888828754425049,-196.9489288330078,75.64971923828125,-0.6393330177705677,0.6445675433701381,-96.95700447017744,-1.0170231,7.4469624,3.8874524,70.41212,-17.026121,-5.524222,-20.317465,1.8343248,-13.2978115,37.40637,-15.458724,-7.044949,-7.8441567,-1.8545758,18.009727,-4.0681853,25.686382,-23.342253,-36.196724,-17.4128,2.293884,6.905678,24.445078,-23.302172,21.835747,-29.620422,-11.832478,7.8627186,-9.511862
140,-5.063361167907715,-198.15379333496094,75.46963500976562,-0.975046051157753,0.976497759170547,-96.71776489324891,-3.8513112,9.47757,3.9708853,73.22987,-18.699333,-4.0728736,-20.09976,1.9368172,-13.670469,38.683235,-17.006413,-6.996531,-7.150168,-1.5205785,18.10708,-3.3674412,24.493013,-22.903933,-34.614407,-15.945038,2.8678188,7.4754887,23.158945,-23.40822,22.009981,-29.055292,-11.986706,8.130469,-9.570136
141,-5.20610237121582,-199.3670654296875,75.36233520507812,-1.2674662399724212,1.5451632599851948,-96.41862965525229,-7.0556784,11.384843,3.9921207,75.470695,-19.828997,-2.4864526,-19.888884,1.9932896,-14.075103,39.43621,-18.222757,-7.0203424,-6.48976,-1.1614494,17.97821,-2.509914,23.266483,-22.557283,-33.012005,-14.834929,3.6514049,8.826221,21.885221,-23.520292,22.020864,-28.515676,-12.4679365,8.330356,-9.731882
142,-5.273035049438477,-200.62057495117188,75.31968688964844,-1.5434781359110863,2.295690902366723,-96.06275600821604,-10.618895,13.212364,3.9239264,77.25546,-20.600365,-0.72815037,-19.638933,2.0294712,-14.543207,39.707474,-19.177425,-6.9428463,-5.8387585,-0.7815324,17.688234,-1.5034171,22.008566,-22.267057,-31.363646,-13.919583,4.631809,10.748781,20.585821,-23.636848,21.9116,-27.988314,-13.165348,8.507772,-9.971334
143,-5.303103923797607,-201.91896057128906,75.33036804199219,-1.778913541584978,2.989305404827086,-95.65222793402836,-14.116376,14.720298,3.7228427,78.408485,-21.132574,0.8460023,-19.114965,2.0538232,-15.042367,39.58382,-19.956911,-6.808959,-5.1755567,-0.41408768,17.410898,-0.43922907,20.769634,-22.020786,-29.780535,-13.451075,5.5717206,12.706413,19.474058,-23.745743,21.657438,-27.66834,-13.846121,8.680026,-10.2633705
144,-5.333868980407715,-203.2441864013672,75.38496398925781,-1.950346453081547,3.3872547803936057,-95.18543602053165,-17.108137,15.682151,3.3548691,78.769325,-21.516642,1.8542887,-18.080345,2.0740004,-15.537001,39.154198,-20.648006,-6.659225,-4.4867353,-0.09363897,17.327765,0.6192704,19.63419,-21.795609,-28.4135,-13.65428,6.2044964,14.180935,18.754292,-23.829016,21.233633,-27.746002,-14.278878,8.860444,-10.580816
145,-5.385177135467529,-204.57008361816406,75.46719360351562,-2.059500227903295,3.385120222590111,-94.63639259912848,-19.472948,15.988719,2.7243123,78.27704,-21.75733,2.1255083,-16.370905,2.0922482,-16.043125,38.361134,-21.293749,-6.5056233,-3.7865827,0.17388947,17.560009,1.7658982,18.664715,-21.555185,-27.401333,-15.040544,6.4086676,15.159761,18.52869,-23.854816,20.54671,-28.39914,-14.426147,9.083999,-10.924588
146,-5.466644763946533,-205.91671752929688,75.58898162841797,-2.119552554925292,3.1208833963500653,-94.0117895159811,-21.415155,15.789559,1.9267964,77.033195,-21.793215,1.8731472,-14.137881,2.1111605,-16.570877,37.174076,-21.835968,-6.3206015,-3.086689,0.39343828,18.002428,3.062528,17.882679,-21.315186,-26.714537,-17.343826,6.3058443,15.896213,18.642824,-23.813074,19.648376,-29.46662,-14.407309,9.328814,-11.303447
147,-5.574041843414307,-207.29067993164062,75.75181579589844,-2.125915142559922,2.7202894758915823,-93.35911714044977,-22.975924,15.275578,1.1975634,75.12087,-21.608528,1.2857587,-11.617555,2.1338513,-17.074667,35.722565,-22.20871,-6.0790167,-2.3832805,0.55287045,18.502748,4.41198,17.313421,-21.10741,-26.266367,-19.606775,6.026104,16.268372,18.917326,-23.728924,18.742306,-30.64138,-14.224392,9.5212,-11.705987
148,-5.67808723449707,-208.69407653808594,75.94379425048828,-2.070657714216181,2.310210678372111,-92.72652466176247,-24.210154,14.635829,0.7631637,72.61739,-21.187206,0.54880536,-9.048875,2.1556,-17.508194,34.140438,-22.348068,-5.756781,-1.6755472,0.63513184,18.913748,5.726358,16.984472,-20.947763,-25.981977,-20.878845,5.7227793,16.172758,19.185585,-23.652313,18.032722,-31.64463,-13.87427,9.5878105,-12.122055
149,-5.789857864379883,-210.1126251220703,76.16142272949219,-1.930929294768971,1.8559641299504357,-92.10543453420516,-25.058567,13.880366,0.67221504,69.4131,-20.542534,-0.32835376,-6.342118,2.176513,-17.850151,32.313007,-22.200205,-5.3442245,-0.97137827,0.6181693,19.258797,7.008425,16.941298,-20.82029,-25.93698,-20.754948,5.3891563,15.391615,19.465902,-23.622255,17.573252,-32.470413,-13.067535,9.469691,-12.689354
150,-5.893667697906494,-211.54205322265625,76.3884506225586,-1.7223690779077552,1.3103624076815794,-91.47879524802235,-25.506126,12.951837,0.78224444,65.49029,-19.684128,-1.4233744,-3.4167929,2.194077,-18.126831,30.20842,-21.802153,-4.8446975,-0.27417532,0.5216264,19.618998,8.3352995,17.187407,-20.70051,-26.200472,-19.818474,4.956038,14.05647,19.85991,-23.638638,17.248953,-33.305576,-11.889455,9.208681,-13.370154
151,-5.9865946769714355,-212.9834442138672,76.61248779296875,-1.487289919101408,0.7835476647118145,-90.88184019550594,-25.68617,11.923301,1.0344328,61.050182,-18.58029,-2.6881945,-0.5299994,2.1954076,-18.362095,28.096302,-21.232597,-4.266191,0.38966447,0.36661527,19.927544,9.769786,17.68655,-20.541533,-26.714989,-18.59984,4.486427,12.595755,20.277166,-23.70479,17.066828,-34.114334,-10.897594,8.902304,-13.907235
152,-6.0546159744262695,-214.41098022460938,76.83287048339844,-1.266671392445451,0.38722056384437126,-90.34920543741259,-25.733637,10.861729,1.3741127,56.28297,-17.193558,-4.0789905,2.0598896,2.1708791,-18.578693,26.255577,-20.580261,-3.6295526,1.0101364,0.18155447,20.106735,11.331647,18.362709,-20.315527,-27.368404,-17.602934,4.0775857,11.423541,20.644222,-23.819628,17.010206,-34.86267,-10.64662,8.664175,-14.044427
153,-6.114809036254883,-215.87481689453125,77.03666687011719,-1.0333697422062387,0.17919818122693534,-89.89103602054394,-25.634941,9.776682,1.9292722,50.961185,-15.415939,-5.5941777,4.300905,2.1014922,-18.783457,24.664333,-19.827076,-2.948205,1.5960549,-0.055277895,20.079906,12.990198,19.172039,-20.034933,-28.079483,-16.734737,3.7580504,10.599841,20.941853,-23.995693,17.104986,-35.52065,-11.49046,8.545596,-13.59382
154,-6.170439720153809,-217.35067749023438,77.212890625,-0.7827519473741923,0.08738337372613156,-89.49317782390396,-25.307472,8.645841,2.6386282,44.97736,-13.263292,-7.248694,6.3417144,2.0151193,-18.954977,23.184177,-18.936878,-2.2227988,2.1540256,-0.33490446,19.901718,14.721396,20.102127,-19.692333,-28.873476,-15.778476,3.47963,9.907766,21.216017,-24.241083,17.341269,-36.1063,-13.062989,8.466599,-12.733808
155,-6.220110893249512,-218.83883666992188,77.35147094726562,-0.5930529039732397,0.029441558054655367,-89.15595970923054,-24.772797,7.50423,3.177735,38.695324,-10.890605,-9.020496,8.2047825,1.9680173,-19.073568,21.970932,-17.992336,-1.4564817,2.678448,-0.5765935,19.68423,16.540054,21.110994,-19.2423,-29.777021,-15.039308,3.257836,9.336916,21.495422,-24.539541,17.646984,-36.658215,-14.837122,8.356971,-11.7642765
156,-6.264129161834717,-220.34153747558594,77.43256378173828,-0.5446768439709495,-0.07660564583926657,-88.88202865473583,-24.057306,6.415615,3.233717,32.515224,-8.470502,-10.88315,9.916679,2.0218124,-19.116264,21.166367,-17.068544,-0.6515552,3.1758554,-0.690244,19.529865,18.426222,22.140226,-18.65905,-30.77969,-14.814562,3.1153557,8.872304,21.8077,-24.861692,17.945173,-37.20249,-16.291708,8.176372,-10.982036
157,-6.2978715896606445,-221.84521484375,77.45587158203125,-0.7254440608019508,-0.2531284768414539,-88.69608163706867,-23.018955,5.3971972,2.599025,26.083172,-5.8883924,-13.130472,11.55669,2.2926953,-19.072308,20.682787,-16.132833,0.20273158,3.6883378,-0.5704107,19.438705,20.374815,23.15959,-17.958323,-31.845201,-15.348395,3.1126885,8.54164,22.20367,-25.202696,18.239,-37.75415,-17.435331,7.900377,-10.387916
158,-6.30167818069458,-223.374267578125,77.4118881225586,-1.0968192700547212,-0.49051131962203665,-88.59677591345616,-21.49875,4.494756,1.5139147,19.028801,-2.9972844,-15.000033,13.116313,2.7281256,-18.932186,20.518408,-15.187575,1.1151187,4.2202854,-0.24188687,19.381954,22.370266,24.160181,-17.161013,-32.95281,-16.408497,3.2316964,8.336542,22.675072,-25.574678,18.540703,-38.299114,-18.505783,7.56098,-9.841452
159,-6.276859283447266,-224.910400390625,77.30115509033203,-1.5573755841394266,-0.8247349517157908,-88.54774096716959,-19.573214,3.7602925,0.35848495,11.919157,0.043695677,-15.000033,14.490775,3.145476,-18.683943,20.94704,-14.3621435,2.0788362,4.730645,0.20319396,19.415174,24.341562,25.107613,-16.27827,-34.07422,-17.574604,3.3762038,8.187865,23.16841,-25.965075,18.782394,-38.82558,-19.330286,7.2307463,-9.4233
160,-6.292006492614746,-226.44369506835938,77.1585464477539,-2.105016813071613,-1.1790573554807136,-88.56361858223254,-18.168106,3.524968,-0.7583908,6.8278623,2.3628285,-15.000033,15.58227,3.5976362,-18.290974,21.86665,-13.563742,2.989635,5.2187657,0.7150672,19.46803,26.1454,25.956959,-15.331211,-35.089058,-18.420898,3.4473953,8.0137415,23.558828,-26.327534,18.932823,-39.244377,-19.737535,6.9853616,-9.220624
161,-6.314494609832764,-227.92987060546875,77.03517150878906,-2.5017913347101173,-1.4592594689076954,-88.53512939708608,-18.73463,3.3792791,-1.6960565,6.641764,2.6226218,-15.000033,16.104889,3.799493,-17.717852,23.681238,-12.843639,4.021538,5.576216,1.0298556,19.466183,27.670416,26.672628,-14.328715,-35.856247,-18.829508,3.4048707,7.7615695,23.727867,-26.610743,19.029985,-39.43091,-19.55426,6.8471274,-9.288946
162,-6.338376045227051,-229.36851501464844,76.92671203613281,-2.744253600550928,-1.6562964417527446,-88.45100216821022,-19.087418,3.191905,-2.444135,6.549519,3.2604342,-15.000033,16.09858,3.7527554,-17.062567,26.334463,-12.239898,5.17144,5.7920423,1.1488414,19.388973,28.91671,27.249111,-13.2957325,-36.353615,-19.009333,3.3082492,7.4714794,23.677238,-26.794538,19.113201,-39.35229,-18.932793,6.775293,-9.559698
163,-6.3768110275268555,-230.7771453857422,76.8181381225586,-2.816371868797993,-1.770645506191509,-88.30712854057546,-19.22704,2.9143207,-3.064019,6.5171685,4.11686,-15.000033,15.670516,3.3590422,-16.666286,29.638914,-11.957344,6.1739855,5.852735,1.0599535,19.236588,29.870737,27.693419,-12.287785,-36.60216,-19.029491,3.205058,7.2009845,23.431873,-26.86746,19.165497,-39.02552,-18.184044,6.750331,-9.941263
164,-6.427718639373779,-232.14573669433594,76.7053451538086,-2.7224455300379757,-1.8164273573557201,-88.11223587518147,-19.177963,2.5308018,-3.6437538,6.5883064,4.995902,-15.000033,14.959753,2.5086803,-16.841503,33.389538,-12.178295,6.733063,5.762801,0.7770803,19.019861,30.535725,28.02166,-11.357987,-36.647816,-18.96053,3.1424086,7.0103292,23.039913,-26.826012,19.157404,-38.486637,-17.617002,6.756928,-10.342976
165,-6.480576038360596,-233.49156188964844,76.56657409667969,-2.3401983094875702,-1.796366008403277,-87.83537040782323,-20.706543,1.6803653,-4.1872797,10.746382,3.988946,-13.871561,13.98414,0.9273707,-17.72651,37.78743,-13.06193,6.7288857,5.482965,0.17403193,18.736254,30.911055,28.237888,-10.493157,-36.488106,-18.734749,3.1169784,6.9108715,22.45463,-26.663109,19.067446,-37.679794,-17.30504,6.766577,-10.749872
166,-6.488182544708252,-234.8154296875,76.38570404052734,-1.6775666788014774,-1.829112935444083,-87.52075483255447,-22.775019,0.32647467,-4.2548494,17.006212,2.1880252,-9.867293,12.905155,-1.3799841,-18.9821,42.815514,-14.481478,6.340651,5.0739613,-0.6913009,18.498877,31.048676,28.348827,-9.685655,-36.17736,-18.338467,3.1143503,6.873776,21.735624,-26.394836,18.879116,-36.66556,-17.098778,6.7956123,-11.189179
167,-6.482235431671143,-236.09304809570312,76.1671142578125,-1.2126334500661256,-1.9698225061210182,-87.31702258631383,-24.5854,-0.7514463,-4.206772,23.300154,0.2679353,-5.9841337,11.953221,-3.6983213,-20.293577,47.747173,-16.056438,5.576208,4.702548,-1.3221529,18.352356,31.003979,28.382519,-8.982561,-35.80649,-17.932682,3.1584282,6.9010444,21.053562,-26.052526,18.598452,-35.633293,-16.953905,6.901442,-11.656089
168,-6.476061820983887,-237.36109924316406,75.86829376220703,-0.977765090799672,-2.220531172069003,-87.23181122817387,-25.807451,-1.4408817,-4.123507,28.526123,-1.6535403,-3.3006508,11.104373,-5.888722,-21.48667,52.358692,-17.675804,4.6022,4.4018264,-1.6618905,18.340765,30.799969,28.378933,-8.429934,-35.42961,-17.687532,3.2672553,6.998016,20.545946,-25.666584,18.244371,-34.74662,-16.813812,7.140546,-12.15695
169,-6.478174686431885,-238.613037109375,75.49933624267578,-0.9533845383536314,-2.6187536682792523,-87.23135272037474,-26.506227,-1.7028124,-4.0499015,32.92602,-3.9837515,-2.2822075,10.373518,-8.060974,-22.684286,56.840202,-19.535425,3.3711853,4.1304717,-1.7262994,18.515131,30.44268,28.368248,-8.034188,-35.051163,-17.773277,3.4220247,7.2599297,20.246986,-25.243887,17.79269,-34.009125,-16.722227,7.6085143,-12.758436
170,-6.480488300323486,-239.84181213378906,75.0749740600586,-1.0300378585398278,-3.1123775073244193,-87.28141909517237,-26.96248,-1.6774096,-3.943972,37.191307,-6.8139043,-2.2492118,9.6967125,-10.362867,-23.94013,61.35659,-21.720476,1.8496324,3.8537786,-1.6470257,18.818329,29.909513,28.357712,-7.773651,-34.64376,-18.075964,3.613015,7.66429,20.077362,-24.778189,17.24266,-33.35298,-16.668995,8.250071,-13.448125
171,-6.467362403869629,-241.05551147460938,74.64090728759766,-1.0456620401823027,-3.5448978408725615,-87.36649855485697,-27.26224,-1.5807242,-3.7320464,41.0437,-9.647659,-2.5355887,8.848158,-12.76404,-25.023872,65.68581,-23.927332,0.2632692,3.5880694,-1.6075063,19.11214,29.1839,28.348804,-7.6434293,-34.214256,-18.337004,3.8740826,8.036643,19.990559,-24.275698,16.658413,-32.825745,-16.52068,8.892523,-14.116426
172,-6.397542953491211,-242.2528076171875,74.2705078125,-0.8478666054717893,-3.7647357954674536,-87.47887153011823,-27.449947,-1.6701287,-3.374853,44.123943,-11.951091,-2.4950666,7.575618,-15.21903,-25.725594,69.58929,-25.80995,-1.1597875,3.3554566,-1.7751379,19.26259,28.254314,28.335701,-7.6347733,-33.77572,-18.296528,4.2439446,8.199656,19.959936,-23.751545,16.102434,-32.495007,-16.147102,9.360713,-14.657993
173,-6.296097278594971,-243.4378662109375,74.01473999023438,-0.3073761043314357,-3.644409365983253,-87.62273714393852,-27.586145,-2.1249878,-2.8031583,46.215153,-13.522162,-1.9548634,5.621317,-17.915419,-26.000793,73.16136,-27.296587,-2.4395363,3.1586955,-2.2599072,19.179607,27.030916,28.311304,-7.768727,-33.294407,-17.773535,4.831605,8.03146,20.033346,-23.198019,15.533883,-32.4244,-15.341721,9.612278,-15.074411
174,-6.224061012268066,-244.5780487060547,73.84080505371094,0.47007387782807813,-3.289025811315212,-87.79469207664278,-27.645695,-2.7964358,-2.054188,47.57042,-14.674741,-1.2645955,3.1145725,-20.795303,-25.93112,76.47324,-28.526209,-3.656109,2.9790926,-2.9537158,18.94737,25.546904,28.270893,-8.040702,-32.77571,-16.938747,5.579724,7.6436744,20.208689,-22.611107,14.937247,-32.566563,-14.234247,9.735153,-15.412468
175,-6.221851348876953,-245.7010955810547,73.7176742553711,1.278368006552789,-2.9000460686825913,-87.98012557633913,-27.519764,-3.4795344,-1.2744768,48.49032,-15.631429,-0.57357454,0.36607713,-23.438093,-25.540659,79.261894,-29.450842,-4.6730285,2.8043132,-3.6863813,18.701893,23.99082,28.204008,-8.392936,-32.304024,-16.063196,6.2817383,7.211094,20.40175,-22.023998,14.419244,-32.840553,-13.196366,9.755538,-15.639292
176,-6.255980014801025,-246.82676696777344,73.63328552246094,1.91643083523997,-2.682191993856977,-88.17189967022833,-27.093418,-3.9644613,-0.61383957,49.265697,-16.606897,-0.030672448,-2.2904065,-25.431128,-24.912647,81.28323,-30.031054,-5.3498683,2.6197064,-4.2886543,18.586123,22.568172,28.095192,-8.753282,-31.978945,-15.423703,6.7403255,6.9142094,20.534405,-21.495752,14.096525,-33.174797,-12.592293,9.706065,-15.728733
177,-6.307094573974609,-247.95938110351562,73.60323333740234,2.340108538366163,-2.6811047357427022,-88.37015179103223,-26.315014,-4.1970882,-0.08658653,49.925602,-17.648336,0.31759816,-4.8444376,-26.629112,-24.02703,82.48698,-30.200369,-5.591273,2.4088283,-4.736942,18.647022,21.355423,27.914845,-9.0726795,-31.877115,-15.053321,6.874753,6.8056207,20.625328,-21.07352,14.04101,-33.66689,-12.449504,9.569635,-15.698405
178,-6.360938549041748,-249.1101531982422,73.62559509277344,2.655571362766834,-2.7937729792307104,-88.57935120763756,-25.251173,-4.29349,0.38138023,50.33021,-18.640007,0.5486176,-7.446341,-27.249687,-22.906025,83.023384,-29.990341,-5.48145,2.1538882,-5.106975,18.811714,20.267056,27.645676,-9.367326,-31.946018,-14.8152895,6.803022,6.783885,20.70662,-20.769135,14.201091,-34.334766,-12.576277,9.344516,-15.569699
179,-6.383357048034668,-250.26431274414062,73.697265625,2.876817227139588,-3.001842909178932,-88.808614998396,-23.960505,-4.2899065,0.77643824,50.518513,-19.553812,0.7015786,-9.95994,-27.437595,-21.738188,82.941414,-29.531633,-5.1520643,1.862382,-5.3744516,19.044744,19.253626,27.303326,-9.680878,-32.07956,-14.735945,6.6301045,6.8063045,20.734116,-20.585814,14.496244,-34.99786,-13.007355,9.08515,-15.323839
180,-6.409025192260742,-251.4138641357422,73.81270599365234,3.0241645745786454,-3.286213239529328,-89.06637994755977,-22.506071,-4.228145,1.0895283,50.532707,-20.361963,0.8185125,-12.25801,-27.358164,-20.698288,82.29829,-28.960175,-4.738418,1.5514368,-5.5248027,19.312742,18.262465,26.923939,-10.065686,-32.17849,-14.851146,6.459073,6.8348308,20.675512,-20.516077,14.838155,-35.48067,-13.779051,8.842768,-14.943103
181,-6.434439659118652,-252.5511932373047,73.9686050415039,3.0881862854010707,-3.707500378403871,-89.3783712304367,-20.824883,-4.097269,1.3229293,50.386017,-21.05465,0.91378033,-14.288735,-26.980484,-19.777378,81.04885,-28.270477,-4.213636,1.2569833,-5.540164,19.670967,17.273434,26.525637,-10.558694,-32.235798,-15.337042,6.275247,6.9123325,20.516983,-20.560392,15.226455,-35.742653,-15.149497,8.603133,-14.334729
182,-6.460628032684326,-253.66635131835938,74.15592193603516,3.066014650881981,-4.256017968394988,-89.73240542044975,-18.907211,-3.8849878,1.4936458,50.05286,-21.646181,0.9669749,-16.085867,-26.256403,-18.920021,79.18298,-27.419764,-3.529229,0.971679,-5.4381404,20.119574,16.312553,26.108866,-11.138971,-32.30018,-16.12863,6.033939,7.04779,20.289587,-20.715876,15.68983,-35.88111,-17.01159,8.327653,-13.544156
183,-6.505364418029785,-254.7526397705078,74.373779296875,2.9889766611651147,-4.805945351565693,-90.07970970385416,-16.898489,-3.629622,1.6112236,49.518925,-22.146116,0.9689568,-17.674091,-25.335781,-18.216196,76.810074,-26.485262,-2.7909858,0.65445507,-5.260945,20.54229,15.392925,25.692888,-11.77657,-32.350853,-16.902754,5.796105,7.155513,20.03216,-20.959974,16.178041,-35.92962,-18.859636,8.043102,-12.753074
184,-6.569161891937256,-255.84500122070312,74.61386108398438,2.8907938538967506,-5.230069224307702,-90.37132190678798,-14.947225,-3.3664954,1.6796961,48.7729,-22.56405,0.9091931,-19.092863,-24.366938,-17.752909,74.03336,-25.535357,-2.1024563,0.27711472,-5.0515585,20.822773,14.516703,25.310741,-12.449906,-32.366287,-17.343044,5.6258755,7.157693,19.791338,-21.256516,16.632935,-35.92699,-20.196676,7.7990494,-12.131661
185,-6.652464866638184,-256.94482421875,74.87512969970703,2.751314538492874,-5.494436424528592,-90.59631020950398,-13.071016,-3.077554,1.6798307,47.771076,-22.910849,0.76663405,-20.363235,-23.367386,-17.5949,70.801315,-24.615318,-1.5136446,-0.15876293,-4.8008685,20.92647,13.65633,24.996708,-13.195301,-32.319916,-17.318686,5.544905,7.031724,19.546925,-21.581055,17.057888,-35.83041,-20.898811,7.6424246,-11.677369
186,-6.751178741455078,-258.0434265136719,75.1455078125,2.5632298152492354,-5.666684165737682,-90.77916267658308,-11.199815,-2.7494252,1.6208167,46.53551,-23.179197,0.55533445,-21.454927,-22.272064,-17.679033,67.06755,-23.676807,-0.9594459,-0.6217712,-4.5036416,20.917852,12.817142,24.761562,-14.024609,-32.236404,-17.027073,5.515808,6.831663,19.284937,-21.92469,17.468525,-35.627766,-21.24026,7.5457926,-11.301809
187,-6.851421356201172,-259.1447448730469,75.41500854492188,2.372203952943839,-5.771244230363052,-90.92364931719703,-9.352159,-2.4237795,1.5415566,45.157856,-23.355612,0.31547874,-22.339045,-21.106085,-17.89591,62.93129,-22.641794,-0.36756125,-1.0962828,-4.2045784,20.828636,12.054656,24.597427,-14.876252,-32.172264,-16.64071,5.515924,6.5943737,19.061695,-22.270803,17.8294,-35.408913,-21.324429,7.459344,-11.043416
188,-6.9549970626831055,-260.245361328125,75.6736068725586,2.223670439453898,-5.832278897453317,-91.03462030026365,-7.54463,-2.1456041,1.4782383,43.72498,-23.42364,0.086448394,-22.99676,-19.901926,-18.120144,58.49086,-21.432835,0.32604167,-1.5705187,-3.9487922,20.687992,11.422438,24.487675,-15.684518,-32.18101,-16.326342,5.5254793,6.352924,18.922861,-22.60359,18.106642,-35.249306,-21.257017,7.330824,-10.939002
189,-7.072032928466797,-261.35308837890625,75.93614196777344,2.1152156308212984,-5.820940533467041,-91.10822171657973,-5.787192,-1.9184468,1.4240278,42.18079,-23.36641,-0.13612902,-23.431442,-18.642754,-18.338346,53.6041,-19.993883,1.1064243,-2.0537138,-3.735432,20.472328,10.9258795,24.424757,-16.438723,-32.272293,-16.072777,5.5642157,6.0930004,18.862741,-22.912535,18.296366,-35.14784,-20.972569,7.1337805,-11.039655
190,-7.198612213134766,-262.485107421875,76.19277954101562,2.0344791432187885,-5.736559847888062,-91.14263561701932,-4.066806,-1.7250202,1.3605356,40.50298,-23.19547,-0.36662075,-23.646017,-17.341084,-18.577078,48.236168,-18.370014,1.9340276,-2.5511153,-3.5461335,20.173817,10.534949,24.411572,-17.16996,-32.41427,-15.804263,5.6353083,5.8006334,18.847383,-23.195704,18.420433,-35.050377,-20.453754,6.8985076,-11.3061075
191,-7.341060638427734,-263.6390380859375,76.4298095703125,1.996061677773779,-5.646792523518618,-91.14323103657738,-2.3645892,-1.5829543,1.3015716,38.830524,-22.938663,-0.5825198,-23.611061,-16.077091,-18.787157,42.630024,-16.641754,2.832578,-3.047838,-3.402025,19.845568,10.253284,24.446087,-17.871864,-32.59962,-15.588657,5.6966033,5.5094514,18.883163,-23.455736,18.483356,-34.96836,-19.878002,6.6571093,-11.641037
192,-7.488527297973633,-264.7951354980469,76.64564514160156,2.0220031523517643,-5.620072094667708,-91.11527281044171,-0.6592224,-1.5128878,1.260707,37.298637,-22.621592,-0.7619944,-23.30158,-14.917668,-18.930899,37.030178,-14.88126,3.8358579,-3.5331376,-3.3256483,19.540918,10.086512,24.524124,-18.535002,-32.8243,-15.49386,5.707037,5.2523613,18.977915,-23.697838,18.492027,-34.917965,-19.418865,6.44542,-11.95092
193,-7.6487345695495605,-265.9817199707031,76.83145141601562,2.1331533763666766,-5.683306758565596,-91.06909633119848,1.1159627,-1.5382978,1.2698742,35.84858,-22.22693,-0.87983614,-22.603962,-13.830661,-19.039627,31.193295,-12.9869175,5.034634,-4.019343,-3.3436358,19.273527,10.063722,24.650055,-19.16707,-33.09853,-15.569827,5.649753,5.0511384,19.138092,-23.930809,18.450682,-34.90834,-19.134079,6.273061,-12.232728
194,-7.788577556610107,-267.1907043457031,76.98634338378906,2.3468130260110405,-5.809865361351158,-90.98638714721531,2.957309,-1.6874583,1.2982615,34.40515,-21.72968,-0.9484543,-21.509869,-12.822728,-19.107729,24.959644,-10.896372,6.3850207,-4.523794,-3.473322,19.02254,10.180287,24.828512,-19.76367,-33.429432,-15.76911,5.550708,4.8826594,19.366798,-24.157139,18.356354,-34.941936,-18.924635,6.1225953,-12.531818
195,-7.945557594299316,-268.4173278808594,77.0882568359375,2.6848085315447587,-5.9895272076317205,-90.8259379874715,4.774852,-1.9961606,1.2605761,33.089523,-21.148075,-0.9983896,-20.176603,-12.028697,-19.074352,18.773695,-8.764882,7.738669,-5.045698,-3.734282,18.78717,10.388206,25.054005,-20.29618,-33.807434,-16.012331,5.4338484,4.710124,19.665607,-24.370262,18.2048,-35.01947,-18.730614,5.992107,-12.827488
196,-8.107392311096191,-269.6620788574219,77.15371704101562,3.14769642033434,-6.201660874903414,-90.55793382982488,6.4606056,-2.4634626,1.0765754,32.041164,-20.511251,-1.069499,-18.830063,-11.564435,-18.902292,13.2260275,-6.810963,8.955413,-5.57334,-4.118346,18.556551,10.632525,25.313337,-20.738985,-34.20909,-16.217407,5.323011,4.4961057,20.02662,-24.558962,17.992105,-35.125057,-18.494268,5.878737,-13.09713
197,-8.276653289794922,-270.91455078125,77.17387390136719,3.6966455610658975,-6.425363990057494,-90.19456264268645,8.000527,-3.0368233,0.7484463,31.266258,-19.8476,-1.1694541,-17.504791,-11.370401,-18.60734,8.348743,-5.029979,10.051791,-6.093866,-4.5794663,18.297243,10.9046545,25.59836,-21.078707,-34.624985,-16.361,5.217816,4.1772404,20.455336,-24.716621,17.712055,-35.248695,-18.20159,5.7855644,-13.324818
198,-8.442380905151367,-272.1488342285156,77.15813446044922,4.276074715047086,-6.653138288048102,-89.77143563927719,9.397667,-3.6423793,0.3239024,30.762348,-19.168499,-1.2969548,-17.559252,-11.783784,-17.961676,7.0190234,-4.9797688,11.094949,-6.593254,-5.061739,18.003977,11.214698,25.905085,-21.335238,-35.045517,-16.485226,5.1075234,3.790442,20.937328,-24.84279,17.369652,-35.377377,-17.884914,5.711794,-13.52411
199,-8.611964225769043,-273.3636169433594,77.11182403564453,4.805331163726633,-6.863666614588057,-89.31694998791968,10.530844,-4.179863,-0.17856175,30.705715,-18.51045,-1.4848487,-17.912922,-12.3187065,-17.245947,6.835051,-5.381931,11.99863,-7.032816,-5.476625,17.697334,11.5211735,26.218674,-21.54014,-35.440956,-16.603981,4.998113,3.4498599,21.425457,-24.934513,16.976862,-35.484745,-17.55676,5.6473603,-13.71626
200,-8.777190208435059,-274.56878662109375,77.04179382324219,5.237818354693387,-7.04422838581381,-88.84891136043308,11.300272,-4.5974836,-0.7413158,31.241219,-17.892687,-1.760652,-18.0606,-12.762764,-16.622507,6.707965,-5.644786,12.688232,-7.3831873,-5.771535,17.401869,11.778085,26.517853,-21.72717,-35.7732,-16.728378,4.896652,3.2672489,21.873405,-24.985601,16.54813,-35.546005,-17.2303,5.582524,-13.922174
201,-8.943060874938965,-275.75579833984375,76.9468994140625,5.5917797321531415,-7.187974713573182,-88.3538697418548,11.666759,-4.941524,-1.3675256,32.45031,-17.348354,-2.0939515,-17.95105,-13.147888,-16.058638,6.658705,-5.936563,13.191251,-7.646812,-5.9556875,17.106888,11.962697,26.786787,-21.929632,-36.019176,-16.843983,4.7992773,3.3161266,22.3018,-24.987951,16.068869,-35.556908,-16.887383,5.5057526,-14.159009
202,-9.101211547851562,-276.92108154296875,76.82327270507812,5.872705696036594,-7.29853901572665,-87.83105686940668,11.693468,-5.228269,-2.0457675,34.22751,-16.85648,-2.496426,-17.59882,-13.475319,-15.5534,6.6587863,-6.1918974,13.538566,-7.82816,-6.0356393,16.800419,12.072593,27.01771,-22.136896,-36.168068,-16.944155,4.7048583,3.51931,22.716177,-24.938307,15.536298,-35.514755,-16.530787,5.4246383,-14.408959
203,-9.240970611572266,-278.088134765625,76.66728210449219,6.031329618241461,-7.3837917782107425,-87.31088645158478,11.446914,-5.3869877,-2.748012,36.424744,-16.349623,-3.057507,-17.10649,-13.683863,-15.200761,6.6826315,-6.069806,13.664047,-7.9101424,-5.9783044,16.509228,12.098723,27.20247,-22.311825,-36.19834,-17.049824,4.6249666,3.760651,23.046114,-24.842459,14.985199,-35.39008,-16.207722,5.3582454,-14.640484
204,-9.408395767211914,-279.17388916015625,76.55144500732422,6.0137084013695645,-7.450867584035613,-86.82375205476562,10.995049,-5.3446827,-3.4541974,38.89721,-15.764907,-3.867398,-16.57083,-13.70227,-15.092585,6.698189,-5.226484,13.499239,-7.8784504,-5.7499475,16.26052,12.039054,27.333027,-22.410593,-36.09461,-17.182642,4.5721,3.9227874,23.222485,-24.71386,14.452659,-35.157974,-15.964904,5.3273544,-14.823619
205,-9.569722175598145,-280.2529296875,76.4039077758789,5.813850214385182,-7.508308176710135,-86.36239202796983,10.340935,-5.1302037,-4.222637,41.68289,-15.072048,-4.948784,-15.941957,-13.533079,-15.354351,6.6728764,-3.27924,13.16495,-7.7426815,-5.345771,16.058977,11.901877,27.398325,-22.39581,-35.85141,-17.379969,4.542888,3.9563808,23.2396,-24.557709,13.939761,-34.815754,-15.822115,5.340843,-14.948734
206,-9.731818199157715,-281.3109130859375,76.22936248779297,5.456077492450956,-7.557827096501498,-85.90816888162159,9.49047,-4.798739,-5.0720143,44.805523,-14.314997,-6.2821717,-15.186853,-13.211351,-15.921061,6.637158,-0.5100404,12.645919,-7.5092597,-4.78568,15.895943,11.6835165,27.40155,-22.303438,-35.474194,-17.616972,4.534311,3.9286418,23.134438,-24.363342,13.426003,-34.375122,-15.755933,5.3864822,-15.029227
207,-9.916790962219238,-282.32867431640625,76.0606918334961,4.966809431202911,-7.599187282900697,-85.47302795692627,8.515494,-4.339209,-5.9324536,48.102695,-13.54085,-7.8795347,-14.431736,-12.746265,-16.604893,6.6618223,2.426787,11.682396,-7.1917243,-4.0980396,15.776493,11.400668,27.34566,-22.164423,-34.981293,-17.820158,4.560315,3.8897254,22.903894,-24.166208,12.938301,-33.854237,-15.735334,5.4590793,-15.086722
208,-10.099355697631836,-283.3383483886719,75.86280059814453,4.428756483493829,-7.636106995582053,-85.06259548280396,7.4815063,-3.79651,-6.728917,51.413586,-12.781088,-9.724811,-15.621741,-12.765516,-16.797789,10.75465,2.8114896,10.046519,-6.807489,-3.37512,15.705789,11.078382,27.244516,-22.008085,-34.409424,-17.91908,4.6344056,3.8913524,22.570362,-24.007484,12.495994,-33.30151,-15.723888,5.5538354,-15.145064
209,-10.279053688049316,-284.30291748046875,75.61753845214844,3.9542246145689948,-7.693374396007009,-84.64875555571173,6.414349,-3.280972,-7.445841,54.750763,-11.814135,-12.066732,-17.532078,-13.036768,-16.65147,16.240576,2.0585625,7.212376,-6.365874,-2.7270064,15.695328,10.696559,27.112982,-21.814825,-33.742764,-17.954926,4.7276707,3.9030828,22.170416,-23.910751,12.07989,-32.802418,-15.705294,5.6995792,-15.185728
210,-10.453474044799805,-285.2294921875,75.30235290527344,3.6297037648412593,-7.79966582169509,-84.19812154224236,5.3231554,-2.952708,-8.144273,58.16304,-10.69433,-14.806019,-19.836586,-13.539493,-16.27604,22.529419,0.8132531,3.5217655,-5.906264,-2.2487512,15.760244,10.291817,26.961887,-21.554434,-33.018864,-17.949505,4.8449364,3.9107833,21.721859,-23.876991,11.690481,-32.36263,-15.687651,5.8934336,-15.215374
211,-10.604164123535156,-286.1336364746094,74.94366455078125,3.672929306325982,-7.9359847362337925,-83.73865117199692,4.1820393,-2.8192492,-8.054813,61.423424,-9.696079,-15.000033,-22.133062,-14.357305,-15.647194,28.65976,-0.54187924,0.093311034,-5.461306,-2.145941,15.873306,9.956983,26.793652,-21.242836,-32.33552,-17.808119,5.0468416,3.9930096,21.189238,-23.917284,11.3784,-31.879753,-15.672046,6.080458,-15.295984
212,-10.811724662780762,-287.0116882324219,74.57355499267578,3.6350686793792195,-8.027289785306179,-83.33778589813296,2.8996081,-2.5182147,-7.944096,64.639366,-9.388544,-15.000033,-23.78663,-14.846749,-15.264691,33.37094,-1.6433967,-2.230442,-5.026258,-1.999125,16.019985,9.780491,26.599936,-20.89932,-31.790308,-17.43621,5.395225,4.227969,20.531748,-24.050884,11.193561,-31.246246,-15.657009,6.2058816,-15.490111
213,-11.05242919921875,-287.85614013671875,74.23528289794922,3.1826801064488444,-7.977969209169213,-83.04434331213763,1.3371804,-1.7885242,-8.1442585,68.029785,-10.197714,-15.000033,-24.752827,-14.71308,-15.4060955,36.60093,-2.7153814,-3.119993,-4.562539,-1.4708318,16.153952,9.781452,26.36753,-20.523544,-31.390646,-16.645283,6.0280237,4.706084,19.657318,-24.31746,11.203509,-30.379211,-15.654201,6.2308593,-15.870386
214,-11.284292221069336,-288.68182373046875,73.96170043945312,2.422681465884519,-7.8181379559161135,-82.84517929653539,-0.44693485,-0.74871224,-8.582205,71.54174,-11.7833605,-15.000033,-25.398384,-14.208228,-15.847208,39.18738,-4.0400558,-3.1731148,-4.0711584,-0.6473731,16.27683,9.914904,26.084785,-20.092146,-31.08839,-15.548457,6.8808537,5.3494444,18.58173,-24.724566,11.391078,-29.340668,-15.644342,6.1951604,-16.39829
215,-11.454086303710938,-289.48150634765625,73.74410247802734,1.6302797966391447,-7.669756556280244,-82.71275078629553,-2.219781,0.32004952,-9.053411,74.81173,-13.529641,-15.000033,-25.78453,-13.679525,-16.347542,41.421726,-5.4562974,-2.9146802,-3.5924728,0.20812401,16.444765,10.1596,25.745232,-19.608055,-30.878736,-14.4943075,7.706338,5.993066,17.442444,-25.225264,11.661179,-28.237707,-15.59015,6.159404,-16.958399
216,-11.540980339050293,-290.2705383300781,73.58956146240234,1.089234531651713,-7.662262866904955,-82.61251487352656,-3.7582376,1.1581751,-9.31391,77.49762,-14.829013,-15.000033,-25.954514,-13.411522,-16.671583,43.46742,-6.7552648,-2.840839,-3.1550193,0.8167346,16.730364,10.478068,25.352146,-19.098984,-30.748472,-13.82131,8.244177,6.491097,16.404173,-25.743471,11.887508,-27.187931,-15.470873,6.1806,-17.419973
217,-11.593541145324707,-291.04510498046875,73.4915771484375,0.8982962614531212,-7.866809909848311,-82.56743399864534,-4.987213,1.6863444,-9.266013,79.54915,-15.507374,-15.000033,-25.85194,-13.430985,-16.752672,45.244404,-7.856302,-2.9990742,-2.7271664,1.0732135,17.214771,10.903058,24.897633,-18.565361,-30.717937,-13.653503,8.362324,6.836415,15.487465,-26.23172,12.005179,-26.177273,-15.355141,6.2860045,-17.6559
218,-11.646971702575684,-291.8054504394531,73.44918823242188,0.8953087074382509,-8.208377823947542,-82.58580968243206,-6.037475,2.0651765,-9.055313,81.14985,-15.887438,-15.000033,-25.460749,-13.542675,-16.746721,46.636997,-8.828845,-3.1263933,-2.279109,1.1332797,17.842388,11.402621,24.384377,-18.03178,-30.750853,-13.787735,8.214181,7.1051173,14.61546,-26.684723,12.072384,-25.135231,-15.255035,6.435922,-17.745512
219,-11.71451187133789,-292.55126953125,73.44448852539062,0.9853596348065241,-8.599347373291538,-82.60358958946914,-6.9923205,2.3910027,-8.780718,82.316895,-16.133762,-15.000033,-24.886837,-13.686082,-16.747372,47.731144,-9.703982,-3.2493515,-1.8463479,1.0969068,18.492794,11.857704,23.848793,-17.557657,-30.767857,-14.072544,7.962313,7.2858863,13.8254595,-27.087496,12.131669,-24.108913,-15.066056,6.585908,-17.865866
220,-11.80591106414795,-293.260498046875,73.47675323486328,1.071531392786024,-8.950631363920827,-82.55456951525548,-7.941197,2.757757,-8.533627,83.06457,-16.395517,-15.000033,-24.241528,-13.823104,-16.832317,48.616997,-10.51649,-3.39776,-1.4609116,1.0530101,19.046644,12.159159,23.350655,-17.200344,-30.707548,-14.365692,7.7701063,7.3746896,13.163246,-27.419039,12.213069,-23.153498,-14.684947,6.6889043,-18.19191
221,-11.923382759094238,-293.9496765136719,73.54887390136719,1.1637454292164238,-9.274896579151621,-82.41637605784834,-8.895328,3.1803904,-8.303238,83.37906,-16.706474,-15.000033,-23.514732,-13.981323,-17.013214,49.315426,-11.292051,-3.6063657,-1.1144781,0.96163094,19.513924,12.295466,22.945765,-16.962042,-30.600592,-14.754507,7.6676598,7.3505545,12.664304,-27.647718,12.307395,-22.297728,-13.990877,6.732732,-18.849989
222,-12.063605308532715,-294.6087341308594,73.64641571044922,1.3035625083834694,-9.609345438110523,-82.2269690268361,-9.811358,3.612274,-8.038063,83.25833,-16.985441,-15.000033,-22.660254,-14.176112,-17.24631,49.78041,-12.007827,-3.8489308,-0.77846605,0.77245736,19.954062,12.3529825,22.651411,-16.812654,-30.515036,-15.293807,7.5709987,7.237636,12.3023615,-27.761103,12.388694,-21.508654,-13.080684,6.7293553,-19.712807
223,-12.208418846130371,-295.242919921875,73.78386688232422,1.4459557175668531,-9.900984206293098,-82.00771548508307,-10.694802,4.051099,-7.7695584,82.72809,-17.212976,-15.000033,-21.743538,-14.363178,-17.518532,50.012535,-12.633091,-4.0639806,-0.4624056,0.5577531,20.317871,12.366896,22.459925,-16.757084,-30.43041,-15.789812,7.4724393,7.099881,12.032683,-27.779215,12.461788,-20.753536,-12.173362,6.674013,-20.577738
224,-12.335287094116211,-295.8663635253906,73.95992279052734,1.5476582287580436,-10.096058754184265,-81.77920378410889,-11.550837,4.4941545,-7.5296063,81.81334,-17.370275,-15.000033,-20.829065,-14.494601,-17.820107,50.0105,-13.135231,-4.1919413,-0.18497095,0.39822164,20.553698,12.363309,22.343906,-16.800163,-30.317553,-16.043764,7.3623486,6.9968204,11.815474,-27.741175,12.533691,-20.011425,-11.478446,6.575123,-21.247742
225,-12.446310997009277,-296.48468017578125,74.1763687133789,1.6105306900391856,-10.173181068120572,-81.53214246638659,-12.402833,4.9255276,-7.307726,80.47543,-17.466425,-15.000033,-19.924706,-14.5721445,-18.14949,49.751293,-13.516619,-4.2022586,0.035049126,0.30732936,20.633549,12.323563,22.29218,-16.97718,-30.166775,-15.982638,7.2447085,6.9614234,11.664693,-27.686977,12.613898,-19.303532,-10.991962,6.435169,-21.707485
226,-12.513458251953125,-297.09063720703125,74.41996002197266,1.7178003970099753,-10.164922318415787,-81.2483364207995,-13.229822,5.2929907,-7.0386596,78.69132,-17.487043,-15.000033,-19.026237,-14.696031,-18.472979,49.293488,-13.812895,-4.114494,0.19041409,0.19152735,20.585104,12.218775,22.280247,-17.275806,-29.959097,-15.706834,7.123198,6.948109,11.59649,-27.612894,12.700602,-18.636118,-10.613416,6.2580514,-22.056498
227,-12.539325714111328,-297.6658935546875,74.69261169433594,1.8154400569561184,-10.093299139435276,-80.95604594295956,-13.981217,5.684809,-6.685517,76.54569,-17.431921,-14.720861,-18.12758,-14.803152,-18.817228,48.660164,-13.995122,-3.9817624,0.306447,0.10114634,20.44862,12.092886,22.300352,-17.626572,-29.707747,-15.294133,6.983174,6.9098496,11.602617,-27.509644,12.763976,-18.007322,-10.395617,6.0614786,-22.2717
228,-12.551145553588867,-298.23028564453125,74.99186706542969,1.8671437239620474,-9.980526055980684,-80.68193188676007,-14.6022,6.123722,-6.30199,74.12063,-17.294643,-14.251504,-17.229334,-14.842844,-19.197712,47.88471,-14.040079,-3.855781,0.38470432,0.0676189,20.269022,12.019737,22.339727,-17.931814,-29.45012,-14.822826,6.810805,6.7924085,11.657869,-27.389505,12.795417,-17.412619,-10.382243,5.864478,-22.336897
229,-12.544934272766113,-298.7791442871094,75.31429290771484,1.8547413921836058,-9.801570926870605,-80.41836776745333,-15.11494,6.6212893,-5.897317,71.38892,-17.077997,-13.776004,-16.341618,-14.796724,-19.645172,46.9356,-13.934695,-3.7514956,0.39866993,0.11384719,20.021238,12.012454,22.38628,-18.182423,-29.203463,-14.263929,6.60378,6.5504847,11.767614,-27.254866,12.785072,-16.869572,-10.665831,5.659453,-22.200348
230,-12.518980026245117,-299.3302001953125,75.65412902832031,1.7884520900878265,-9.553424282151553,-80.15753777699527,-15.525979,7.140483,-5.467133,68.32146,-16.79346,-13.3124275,-15.4589815,-14.678434,-20.146091,45.80172,-13.6921625,-3.645944,0.35071418,0.22988527,19.691755,12.03401,22.437134,-18.419813,-28.940914,-13.588949,6.367389,6.220711,11.9338045,-27.107407,12.746105,-16.370789,-11.192692,5.4399056,-21.890602
231,-12.474427223205566,-299.8697814941406,76.01014709472656,1.7003941366197357,-9.292435260334715,-79.92375434240302,-15.761811,7.601725,-5.08892,64.98322,-16.438215,-12.905782,-14.569447,-14.508864,-20.637514,44.566223,-13.338007,-3.5294042,0.28063336,0.3807538,19.341743,12.07561,22.48711,-18.625624,-28.623524,-12.875769,6.099452,5.871028,12.130504,-26.956882,12.707902,-15.87055,-11.786049,5.227456,-21.514053
232,-12.420220375061035,-300.3981018066406,76.37660217285156,1.6158560728826477,-9.074945559555616,-79.74048048329183,-15.755538,7.938486,-4.8504167,61.434223,-16.003233,-12.590133,-13.658268,-14.308401,-21.05908,43.3084,-12.895399,-3.392615,0.22259764,0.53131324,19.031775,12.136307,22.529757,-18.775156,-28.219053,-12.2010145,5.80042,5.5673647,12.328103,-26.819258,12.705632,-15.324681,-12.268276,5.0478077,-21.176989
233,-12.337789535522461,-300.9122009277344,76.74662780761719,1.5291756793246634,-8.911253700816113,-79.60111192161855,-15.470678,8.1397915,-4.7932687,57.581646,-15.494349,-12.358502,-12.71171,-14.072197,-21.40308,42.019894,-12.342984,-3.2273214,0.16580175,0.6868403,18.777208,12.229738,22.559076,-18.849306,-27.738863,-11.564998,5.450766,5.290415,12.5390005,-26.704355,12.739434,-14.744103,-12.628604,4.9109836,-20.879255
234,-12.242056846618652,-301.43133544921875,77.12496948242188,1.4299427294035068,-8.7725982874312,-79.49697540213946,-14.950534,8.250048,-4.872543,53.41833,-14.9088335,-12.190503,-11.741088,-13.791603,-21.69739,40.667194,-11.678251,-3.0418131,0.088838734,0.8758549,18.550964,12.359619,22.567734,-18.85827,-27.203125,-10.93442,5.056393,5.0157647,12.792604,-26.64394,12.792084,-14.176736,-12.931152,4.805238,-20.58059
235,-12.138341903686523,-301.9362487792969,77.50025939941406,1.3268820106766632,-8.655950211647212,-79.44755297211798,-14.260505,8.296515,-5.055807,49.146217,-14.22594,-12.090247,-10.770632,-13.483455,-21.93594,39.298576,-10.956378,-2.8504002,0.028136857,1.0735407,18.337166,12.49334,22.5656,-18.83481,-26.566095,-10.330181,4.6605406,4.803163,13.040778,-26.60298,12.878487,-13.565137,-13.150695,4.7221336,-20.311262
236,-12.024381637573242,-302.4544372558594,77.86528015136719,1.234138575874151,-8.559275370520815,-79.47293957411054,-13.467841,8.307134,-5.3110914,44.963455,-13.424788,-12.061145,-9.82459,-13.1642475,-22.114819,37.961716,-10.231335,-2.6668868,0.002694793,1.2624079,18.12503,12.617227,22.55298,-18.792515,-25.801886,-9.774161,4.3077793,4.706467,13.240945,-26.581451,13.024622,-12.875227,-13.245196,4.6582527,-20.109844
237,-11.88692569732666,-302.96533203125,78.22411346435547,1.1512421932888648,-8.498289026252166,-79.58694888439766,-12.52293,8.292635,-5.6409326,40.786964,-12.480784,-12.077118,-8.875523,-12.829374,-22.232615,36.63564,-9.4868145,-2.4885356,0.005725717,1.4386835,17.922655,12.75865,22.516523,-18.711264,-24.91212,-9.244299,3.9991083,4.753936,13.361924,-26.591589,13.266533,-12.077514,-13.157467,4.636175,-20.000294
238,-11.741778373718262,-303.4657897949219,78.5620346069336,1.0702629902403344,-8.46902188482164,-79.77579818383298,-11.419613,8.254562,-6.0689564,36.551445,-11.409459,-12.134829,-7.9221506,-12.471877,-22.29165,35.306828,-8.703727,-2.3099294,0.022527102,1.6239394,17.735415,12.919068,22.445644,-18.584984,-23.913263,-8.735393,3.7168522,4.9063306,13.447844,-26.65926,13.579969,-11.221179,-12.911778,4.65292,-19.96215
