unveil-humanoid-operators/unveil-humanoid-operators.github.io/feature-analysis-animation/data/feature_matrix_instances/weight_ankle_rom_walking_A035_arc_walk_left_stop_003__A035.csv
Frame,root_translateX,root_translateY,root_translateZ,root_rotateX,root_rotateY,root_rotateZ,left_hip_pitch_joint_dof,left_hip_roll_joint_dof,left_hip_yaw_joint_dof,left_knee_joint_dof,left_ankle_pitch_joint_dof,left_ankle_roll_joint_dof,right_hip_pitch_joint_dof,right_hip_roll_joint_dof,right_hip_yaw_joint_dof,right_knee_joint_dof,right_ankle_pitch_joint_dof,right_ankle_roll_joint_dof,waist_yaw_joint_dof,waist_roll_joint_dof,waist_pitch_joint_dof,left_shoulder_pitch_joint_dof,left_shoulder_roll_joint_dof,left_shoulder_yaw_joint_dof,left_elbow_joint_dof,left_wrist_roll_joint_dof,left_wrist_pitch_joint_dof,left_wrist_yaw_joint_dof,right_shoulder_pitch_joint_dof,right_shoulder_roll_joint_dof,right_shoulder_yaw_joint_dof,right_elbow_joint_dof,right_wrist_roll_joint_dof,right_wrist_pitch_joint_dof,right_wrist_yaw_joint_dof
0,-1.4496608972549438,-1.5005167722702026,77.64665985107422,1.4160209090556468,3.795267583845523,10.036933611330038,-5.534324,5.6089296,5.3493505,10.948908,-10.505625,-9.33374,-8.924669,-9.0333,-16.967886,22.501684,-17.19466,4.1967645,-2.146385,-1.2525282,3.693582,2.5904133,23.731396,-34.828335,50.60821,5.608907,5.661206,-1.3824195,0.83713454,-22.997118,40.042225,47.04939,9.42649,25.072699,-3.643819
1,-1.444153070449829,-1.5412671566009521,77.6302490234375,1.4491978418070903,3.8314796952166206,10.050343474784992,-5.502842,5.6011543,5.3379245,10.79334,-10.472725,-9.405275,-9.073348,-9.07056,-16.95672,22.760933,-17.400589,4.142436,-2.1675293,-1.2612975,3.725442,2.4257598,23.76687,-34.96418,50.56665,5.5954266,5.65708,-1.370312,0.7666134,-23.015642,40.041958,46.965508,9.442007,25.049173,-3.6908164
2,-1.4424569606781006,-1.5828241109848022,77.6109390258789,1.4808503980492627,3.8661913064453657,10.062653300628119,-5.4688616,5.5950055,5.326486,10.636996,-10.440992,-9.476811,-9.219887,-9.105716,-16.94514,23.019346,-17.609974,4.0879035,-2.1767871,-1.271436,3.7576506,2.2551646,23.80824,-35.115845,50.525383,5.5738525,5.6543827,-1.3569846,0.7048448,-23.030266,40.026764,46.87801,9.451489,25.026394,-3.7358665
3,-1.433625340461731,-1.6252604722976685,77.59168243408203,1.5150900043847795,3.903629541654974,10.077101755437972,-5.4355445,5.5857396,5.3152976,10.473818,-10.402549,-9.548538,-9.370607,-9.144143,-16.934416,23.279463,-17.812449,4.0338435,-2.1842597,-1.286606,3.7896862,2.0834134,23.856056,-35.271378,50.478718,5.554637,5.650376,-1.345885,0.6480868,-23.042507,40.005432,46.78942,9.459307,25.000843,-3.7825627
4,-1.426819086074829,-1.6703283786773682,77.57339477539062,1.556445989282197,3.9478277378457403,10.097025874527484,-5.403333,5.5685325,5.304918,10.292033,-10.346951,-9.620721,-9.53278,-9.191572,-16.92585,23.54551,-17.998613,3.9811382,-2.1971457,-1.3088307,3.8210006,1.9065424,23.904406,-35.42399,50.430088,5.546995,5.6417923,-1.3396944,0.58056885,-23.051771,39.994576,46.713223,9.481057,24.96812,-3.8346615
5,-1.4209191799163818,-1.7145371437072754,77.55728912353516,1.6111633702026948,4.002648855994455,10.122766610085755,-5.367064,5.5343547,5.2993813,10.070033,-10.262481,-9.693748,-9.722372,-9.25869,-16.914652,23.8379,-18.167244,3.9306226,-2.2055426,-1.348037,3.852839,1.7227753,23.969025,-35.587505,50.364666,5.5470157,5.6264896,-1.3426626,0.5103582,-23.061083,39.98235,46.638805,9.527535,24.919596,-3.8974965
6,-1.4166631698608398,-1.7665423154830933,77.5418472290039,1.6754447733032392,4.064950518485113,10.152793761250186,-5.332457,5.488481,5.296634,9.828982,-10.1595745,-9.767194,-9.931209,-9.33986,-16.901676,24.148691,-18.32329,3.8817534,-2.2271206,-1.393849,3.8802986,1.534434,24.02278,-35.739418,50.306908,5.5619745,5.604813,-1.3511581,0.42488632,-23.06733,39.988205,46.581665,9.591601,24.860058,-3.969827
7,-1.408442497253418,-1.8173489570617676,77.52713012695312,1.7369337108483398,4.128000657588792,10.187487137740932,-5.299939,5.447129,5.2894015,9.588732,-10.052842,-9.84079,-10.127472,-9.413633,-16.89751,24.434381,-18.46377,3.832993,-2.2558966,-1.434369,3.907996,1.3418067,24.065186,-35.881615,50.25877,5.5896797,5.582507,-1.3587022,0.331686,-23.07078,40.004986,46.53556,9.652582,24.805614,-4.038361
8,-1.395821213722229,-1.8699463605880737,77.51387023925781,1.7840328895156063,4.185257701026025,10.227344009316962,-5.271901,5.4262676,5.2703214,9.3728485,-9.956886,-9.91411,-10.28133,-9.460452,-16.912365,24.655905,-18.588028,3.7828522,-2.278133,-1.4650927,3.9418035,1.1528641,24.120516,-36.029182,50.200424,5.6170335,5.5671096,-1.3597386,0.2534616,-23.0716,40.010628,46.482666,9.682036,24.772028,-4.0899696
9,-1.3844282627105713,-1.9259015321731567,77.50265502929688,1.8163584100899044,4.232710888193349,10.271170366035586,-5.240406,5.426185,5.2395606,9.174351,-9.868964,-9.98489,-10.382865,-9.478535,-16.948051,24.802074,-18.694242,3.7320058,-2.3102407,-1.4823936,3.9845042,0.97827077,24.178183,-36.159153,50.134403,5.662461,5.562709,-1.3539865,0.17833279,-23.067495,40.021202,46.43256,9.6631565,24.76889,-4.117114
10,-1.3679009675979614,-1.9881497621536255,77.49588012695312,1.8393055809360788,4.274833199951629,10.319434857030263,-5.2067895,5.439843,5.2003465,8.985106,-9.783912,-10.054039,-10.448797,-9.477472,-16.99968,24.894402,-18.783432,3.6808746,-2.354932,-1.486549,4.031631,0.8041798,24.219652,-36.2714,50.081547,5.727265,5.563565,-1.3430624,0.08911685,-23.06137,40.051266,46.3993,9.623747,24.786028,-4.128546
11,-1.3477426767349243,-2.0522208213806152,77.48881530761719,1.8502897172523523,4.316983273223085,10.37379975732582,-5.190844,5.4710817,5.1500173,8.831639,-9.713839,-10.125707,-10.489341,-9.45487,-17.066523,24.94152,-18.858746,3.6276026,-2.3913867,-1.4878556,4.079986,0.6416302,24.28787,-36.38637,50.0027,5.7816358,5.5654664,-1.3290963,0.01229428,-23.044008,40.06799,46.36324,9.574324,24.809464,-4.135955
12,-1.3223121166229248,-2.1163411140441895,77.48391723632812,1.846289978487732,4.364650580062589,10.436214642616132,-5.214059,5.5244255,5.0854087,8.744818,-9.67356,-10.203964,-10.514086,-9.407493,-17.148294,24.9512,-18.922985,3.5704021,-2.4379063,-1.4732621,4.1214943,0.49006984,24.34853,-36.466087,49.922367,5.8327384,5.557305,-1.3131924,-0.060812972,-23.024256,40.088394,46.325996,9.538917,24.827297,-4.1517587
13,-1.2955667972564697,-2.1852622032165527,77.47879791259766,1.8249741886859088,4.419439678798179,10.509456515106855,-5.280316,5.602672,5.0042634,8.726396,-9.660415,-10.291317,-10.520446,-9.331652,-17.248909,24.915104,-18.973688,3.507823,-2.488247,-1.4459536,4.157717,0.34853613,24.42002,-36.524765,49.82679,5.871889,5.539751,-1.2956507,-0.12426407,-22.995981,40.100834,46.282078,9.522691,24.840834,-4.1881046
14,-1.268568992614746,-2.2607839107513428,77.47373962402344,1.7885555302519482,4.47841981061844,10.591555911548332,-5.379771,5.702658,4.9085035,8.76434,-9.670165,-10.385046,-10.504332,-9.229777,-17.367573,24.831318,-19.009773,3.441261,-2.5442512,-1.3978992,4.1881943,0.19989815,24.467083,-36.562428,49.751358,5.913672,5.5144267,-1.273206,-0.17915088,-22.975288,40.114742,46.230633,9.520847,24.856453,-4.2355523
15,-1.2386384010314941,-2.340416193008423,77.4680404663086,1.7411389992634294,4.540440066090508,10.678088355851493,-5.5109305,5.81999,4.8016577,8.8628435,-9.711581,-10.481701,-10.475318,-9.108617,-17.495098,24.720207,-19.038002,3.3730958,-2.597741,-1.3475739,4.215005,0.075502396,24.540451,-36.58041,49.644985,5.9384995,5.483289,-1.2500367,-0.22704631,-22.940136,40.12208,46.182545,9.516496,24.864487,-4.2733536
16,-1.2025986909866333,-2.419841766357422,77.46297454833984,1.6859991711648874,4.604145763490761,10.764286616599081,-5.6712894,5.950692,4.6872096,9.024558,-9.793215,-10.577737,-10.443124,-8.975089,-17.623308,24.603241,-19.065203,3.3058004,-2.64957,-1.2895972,4.2349057,-0.027356833,24.615166,-36.567112,49.528275,5.948624,5.443325,-1.2250301,-0.27474773,-22.904045,40.138348,46.1416,9.51351,24.857962,-4.281051
17,-1.1617603302001953,-2.5027546882629395,77.45664978027344,1.621320333033327,4.667884563926142,10.850211064396033,-5.8542433,6.0973363,4.5650177,9.241552,-9.916244,-10.677262,-10.40146,-8.825074,-17.752739,24.472902,-19.087215,3.240632,-2.6983519,-1.220531,4.245535,-0.11501162,24.680246,-36.52396,49.4088,5.945378,5.4012995,-1.2042232,-0.30001032,-22.873291,40.149834,46.08807,9.499678,24.834545,-4.24501
18,-1.1172124147415161,-2.5852510929107666,77.44998931884766,1.5459065381838375,4.732958041758853,10.937920128413353,-6.0649467,6.260734,4.433212,9.519975,-10.077898,-10.780413,-10.348255,-8.656653,-17.886911,24.32231,-19.102318,3.1762629,-2.7403483,-1.1375484,4.248152,-0.20175721,24.729216,-36.462486,49.299587,5.9289346,5.354912,-1.1839784,-0.3123813,-22.851763,40.16027,46.02841,9.489821,24.798727,-4.1785455
19,-1.07133150100708,-2.6696419715881348,77.44137573242188,1.4647266209828504,4.802467682536046,11.026031187042904,-6.3099856,6.433762,4.293443,9.862339,-10.273925,-10.878498,-10.297408,-8.479067,-18.022226,24.170921,-19.120564,3.110932,-2.788738,-1.054171,4.2477975,-0.24411221,24.808693,-36.35929,49.151123,5.8965898,5.2915864,-1.1554952,-0.32919407,-22.82033,40.182224,45.978886,9.4754095,24.753355,-4.102415
20,-1.0262759923934937,-2.752760648727417,77.43026733398438,1.3829424375568475,4.879736975285085,11.113208423791711,-6.608367,6.6097345,4.146059,10.299195,-10.51034,-10.9621315,-10.263911,-8.302335,-18.155085,24.039124,-19.151821,3.0429637,-2.8284576,-0.96533823,4.240227,-0.27840573,24.885172,-36.24124,49.019478,5.8433504,5.194299,-1.0996693,-0.33799222,-22.794342,40.20565,45.93455,9.454842,24.704306,-4.0355372
21,-0.9792841076850891,-2.837970733642578,77.41468048095703,1.300801920581581,4.966659885658444,11.200623380613834,-6.9624114,6.7872562,3.9903202,10.82933,-10.788101,-11.031237,-10.251856,-8.128202,-18.28707,23.932234,-19.20029,2.9726257,-2.859826,-0.8689989,4.223872,-0.30981845,24.953354,-36.10947,48.911827,5.765563,5.048405,-1.0098019,-0.34448522,-22.776052,40.2364,45.89878,9.432199,24.648981,-3.978975
22,-0.9295091032981873,-2.925488233566284,77.39448547363281,1.2153235380586966,5.06119564965722,11.28859664245191,-7.364394,6.9697194,3.825541,11.442704,-11.105391,-11.090202,-10.252548,-7.950904,-18.419603,23.838299,-19.25963,2.9004502,-2.8914852,-0.7660911,4.1994596,-0.32107896,25.02559,-35.950584,48.80511,5.6672306,4.8658767,-0.89649343,-0.3314573,-22.761633,40.264744,45.85583,9.390439,24.586407,-3.9239037
23,-0.8756878972053528,-3.009855270385742,77.37113952636719,1.1260939581399805,5.1609174480139215,11.374536953236012,-7.8126354,7.158293,3.6524465,12.142419,-11.456065,-11.136807,-10.263115,-7.768737,-18.549578,23.754221,-19.325504,2.82508,-2.9128497,-0.6550336,4.171448,-0.32205898,25.094444,-35.774242,48.70954,5.557176,4.669963,-0.7666506,-0.32027012,-22.754347,40.3004,45.822678,9.35693,24.523245,-3.8743703
24,-0.8251802921295166,-3.094548225402832,77.34423065185547,1.032067050599819,5.2631580423300885,11.45588260717483,-8.301552,7.3537354,3.4720662,12.924367,-11.830706,-11.168851,-10.279061,-7.5795426,-18.674223,23.675041,-19.392817,2.7450924,-2.9218533,-0.53482974,4.143471,-0.30964786,25.159193,-35.57894,48.62411,5.4457064,4.4841485,-0.6281764,-0.31485426,-22.7555,40.345066,45.801407,9.33952,24.46633,-3.8346896
25,-0.768031895160675,-3.1804871559143066,77.31687927246094,0.9333262337204842,5.371471635820309,11.532787015639498,-8.83852,7.5560365,3.2831082,13.794707,-12.233461,-11.185978,-10.305615,-7.3826547,-18.792173,23.601397,-19.460482,2.659542,-2.9040823,-0.40396166,4.1063547,-0.31404665,25.197992,-35.38848,48.5883,5.3387637,4.306049,-0.47244832,-0.28921002,-22.761608,40.36897,45.78061,9.32154,24.4154,-3.8072326
26,-0.7107552289962769,-3.2673635482788086,77.2871322631836,0.8289723940217398,5.485971481239474,11.60653537506917,-9.420852,7.765086,3.0848267,14.747569,-12.664122,-11.189839,-10.341585,-7.177252,-18.905928,23.532661,-19.529999,2.5690107,-2.8965573,-0.26327384,4.0645556,-0.28024197,25.24169,-35.149117,48.544533,5.238158,4.126794,-0.30451876,-0.22945203,-22.77431,40.382664,45.73523,9.271836,24.368444,-3.7905114
27,-0.6523551344871521,-3.352602243423462,77.2560043334961,0.7152320195465701,5.598338691025389,11.675359728859938,-10.038252,7.984679,2.8771505,15.780861,-13.11732,-11.181709,-10.375611,-6.9606695,-19.018408,23.466576,-19.602112,2.4743285,-2.877137,-0.10903915,4.036942,-0.2191985,25.297821,-34.882713,48.47872,5.124547,3.9575403,-0.13565563,-0.25744656,-22.804615,40.472397,45.75393,9.315334,24.326643,-3.7791
28,-0.5923182368278503,-3.435189723968506,77.22087097167969,0.5878675788878143,5.700297737370516,11.737639605354476,-10.680221,8.218476,2.6599772,16.893795,-13.58869,-11.162861,-10.394298,-6.7290754,-19.13265,23.397287,-19.675463,2.3762481,-2.860757,0.064734295,4.006322,-0.11978673,25.34696,-34.586308,48.412624,4.9834824,3.8083262,0.023185983,-0.071691774,-22.83604,40.427124,45.63236,9.167365,24.300406,-3.7685828
29,-0.5277018547058105,-3.5157370567321777,77.18267822265625,0.4469822568831595,5.795586700808289,11.790965210475088,-11.346539,8.465355,2.4342895,18.07936,-14.08137,-11.131036,-10.406925,-6.4836054,-19.2473,23.332266,-19.750801,2.271902,-2.7906544,0.2598389,4.003682,-0.04262673,25.387121,-34.30645,48.348972,4.8014092,3.6880538,0.17620061,-0.18504272,-22.890707,40.59989,45.74946,9.3088875,24.277546,-3.7636437
30,-0.46188709139823914,-3.590153217315674,77.1416244506836,0.292243971023214,5.8862753325418575,11.836790291923315,-12.03859,8.7247305,2.198867,19.334253,-14.593209,-11.087145,-10.414318,-6.2227564,-19.36194,23.268349,-19.826817,2.1616135,-2.7278864,0.4778758,3.9982362,0.07374115,25.415876,-33.98065,48.28136,4.598168,3.588384,0.3240925,-0.16150586,-22.953878,40.69879,45.77787,9.321669,24.267342,-3.7660837
31,-0.39372262358665466,-3.6623783111572266,77.09490203857422,0.12126475829334393,5.9621468663987285,11.878963885689085,-12.751477,9.000299,1.9507004,20.667503,-15.113365,-11.038166,-10.396199,-5.941914,-19.480207,23.191414,-19.903557,2.050718,-2.6469722,0.718085,4.0084343,0.19817336,25.435816,-33.653423,48.226086,4.3775344,3.4951122,0.46547604,-0.17611362,-23.031689,40.836803,45.844875,9.400585,24.266602,-3.7623494
32,-0.32545870542526245,-3.735283374786377,77.04402923583984,-0.06872370057240795,6.012740697570641,11.921505030118638,-13.476752,9.295965,1.6873884,22.081526,-15.627411,-10.991479,-10.330413,-5.635606,-19.605324,23.08493,-19.98034,1.9446516,-2.5660167,0.9820231,4.0346684,0.34635264,25.449152,-33.321293,48.18793,4.151571,3.393687,0.5952184,-0.11271886,-23.119507,40.932476,45.861076,9.453216,24.279634,-3.74062
33,-0.24759674072265625,-3.8043503761291504,76.99019622802734,-0.28977087263602247,6.036549448035272,11.960390665186598,-14.201375,9.622442,1.404434,23.558641,-16.160616,-10.949303,-10.209202,-5.2863903,-19.737934,22.934721,-20.053493,1.8421922,-2.4664705,1.2814872,4.0829887,0.5070239,25.458527,-32.998726,48.171726,3.8952894,3.2708936,0.71502614,-0.08513004,-23.22289,41.066483,45.917225,9.606881,24.304768,-3.7057235
34,-0.1665204018354416,-3.8694467544555664,76.929931640625,-0.5371989885071564,6.038324702830266,11.995072714114853,-14.926966,9.972802,1.1049255,25.091734,-16.707119,-10.9094,-10.043458,-4.9010696,-19.875511,22.750128,-20.123514,1.7412858,-2.356521,1.6128385,4.147892,0.6890873,25.464151,-32.67057,48.16741,3.6132941,3.137647,0.82531697,-0.03851041,-23.340351,41.202076,45.97023,9.792943,24.34269,-3.6615665
35,-0.0836714655160904,-3.934788703918457,76.8648681640625,-0.7883964043229997,6.017807034788131,12.034731611330464,-15.675487,10.323687,0.79746324,26.716337,-17.208136,-10.872704,-9.842614,-4.5114536,-20.016344,22.553452,-20.196333,1.6459172,-2.2390764,1.9512393,4.236585,0.88064045,25.467121,-32.348682,48.16986,3.3515382,3.016201,0.9238248,-0.01936474,-23.474241,41.36837,46.03812,10.036702,24.390093,-3.5936842
36,0.005247646477073431,-3.9998996257781982,76.80093383789062,-1.0212103801821557,5.974115127116691,12.088800110107739,-16.461966,10.651767,0.4917213,28.454376,-17.602646,-10.841274,-9.613323,-4.1475763,-20.16018,22.363085,-20.27656,1.5599148,-2.127079,2.2736597,4.3529296,1.0788633,25.46808,-32.03556,48.172253,3.156418,2.9288352,1.0077385,0.008334158,-23.622435,41.535786,46.077114,10.281507,24.44614,-3.4879787
37,0.09717889875173569,-4.059628009796143,76.73516082763672,-1.2395274556728515,5.904126774253145,12.158557556716634,-17.29215,10.95741,0.17168166,30.32606,-17.891562,-10.833757,-9.34797,-3.8032975,-20.30851,22.169634,-20.36154,1.4850864,-2.0195334,2.5838475,4.501578,1.280593,25.467499,-31.730944,48.174103,3.0501592,2.887414,1.0700688,0.032265287,-23.78589,41.708973,46.093525,10.55538,24.516813,-3.3199837
38,0.18786226212978363,-4.117558479309082,76.67782592773438,-1.4519705406047145,5.808946451265189,12.239756374961484,-18.15236,11.247273,-0.15960215,32.306152,-18.098463,-10.847257,-9.044811,-3.466188,-20.461136,21.96491,-20.448593,1.4188634,-1.9124198,2.8913128,4.679523,1.489625,25.4656,-31.432953,48.177586,3.004255,2.8784163,1.1144533,0.04944713,-23.965208,41.89331,46.096523,10.865951,24.601524,-3.104421
39,0.2777271270751953,-4.17659854888916,76.62744140625,-1.6437796709488188,5.695377366827472,12.332234432222286,-19.034428,11.511523,-0.4644687,34.359707,-18.199425,-10.85114,-8.725361,-3.159021,-20.61414,21.780394,-20.547302,1.3583584,-1.8056731,3.1801188,4.8800793,1.7067375,25.46293,-31.14922,48.18212,2.9886281,2.8860385,1.1552429,0.06437557,-24.159033,42.08921,46.08546,11.167284,24.687492,-2.884326
40,0.37570756673812866,-4.236441612243652,76.5807113647461,-1.7999964869738179,5.569742385359002,12.43597476962598,-19.93213,11.742601,-0.70614094,36.455063,-18.171505,-10.812727,-8.409397,-2.904637,-20.76451,21.644392,-20.66602,1.3009312,-1.6983458,3.434043,5.0968833,1.9312894,25.460287,-30.889524,48.1889,2.9719412,2.89446,1.206565,0.07795123,-24.36444,42.299107,46.06199,11.416954,24.761282,-2.7027788
41,0.4753461182117462,-4.293163299560547,76.53646850585938,-1.9173805885216206,5.426890243098699,12.555313985423364,-20.855074,11.940145,-0.8841465,38.62644,-17.975895,-10.756854,-8.096205,-2.7099369,-20.916393,21.570862,-20.811674,1.2446142,-1.5914152,3.6501994,5.3368673,2.1610403,25.459332,-30.659676,48.195194,2.956893,2.901383,1.2760966,0.07863658,-24.57988,42.533566,46.03328,11.618221,24.820469,-2.568384
42,0.5799763798713684,-4.345126628875732,76.49392700195312,-2.0032053085495227,5.26550404830821,12.689005711610603,-21.8032,12.109275,-1.0144473,40.876797,-17.634771,-10.6902685,-7.776241,-2.5628989,-21.070663,21.541862,-20.978258,1.1913651,-1.4851836,3.835948,5.6008973,2.3976882,25.460714,-30.45394,48.201054,2.9554949,2.9145734,1.3548527,0.06864236,-24.804142,42.78836,45.99747,11.787879,24.871176,-2.4590778
43,0.689322829246521,-4.397639274597168,76.45343780517578,-2.0594457715212844,5.098086611411947,12.827886000216353,-22.756521,12.255065,-1.085027,43.128353,-17.216192,-10.550153,-7.4592953,-2.4584956,-21.219425,21.545183,-21.157047,1.1442031,-1.3758233,3.9908144,5.872755,2.6467116,25.462734,-30.263577,48.21061,2.9537833,2.9337714,1.4323906,0.05482887,-25.03567,43.053722,45.95744,11.918531,24.911982,-2.3717287
44,0.7978358268737793,-4.437584400177002,76.41655731201172,-2.0877462696559523,4.937059434935736,12.962989097263698,-23.69663,12.385325,-1.0838194,45.305565,-16.788065,-10.271967,-7.1549687,-2.3917642,-21.355173,21.56926,-21.340195,1.10654,-1.2572128,4.114939,6.1368346,2.909302,25.462389,-30.08302,48.23112,2.936762,2.9584432,1.4986491,0.027277876,-25.273518,43.33346,45.927647,12.020426,24.94089,-2.3031085
45,0.9132134914398193,-4.475861549377441,76.38419342041016,-2.0826583564716037,4.786970601255274,13.095769372631931,-24.652592,12.510565,-0.99766755,47.48023,-16.30716,-9.7788725,-6.878509,-2.3736641,-21.47704,21.63464,-21.534744,1.0781033,-1.1327366,4.203114,6.389035,3.1855981,25.457304,-29.910965,48.26649,2.8968122,2.9882727,1.5554628,-0.0017380946,-25.516758,43.627304,45.90377,12.067955,24.943924,-2.2657895
46,1.03338623046875,-4.507949352264404,76.35986328125,-2.0452446089271357,4.640450992824917,13.22951898382158,-25.623909,12.63265,-0.83288306,49.661495,-15.754555,-9.120266,-6.6197557,-2.4032936,-21.58917,21.739038,-21.741562,1.0576961,-1.001732,4.257894,6.6380835,3.4706728,25.447136,-29.752855,48.315998,2.8433857,3.0235364,1.6072068,-0.05258178,-25.765928,43.950386,45.8964,12.086025,24.92576,-2.2569494
47,1.1622228622436523,-4.53471565246582,76.34239959716797,-1.9870155431427161,4.492471724341101,13.358136117591284,-26.551685,12.744501,-0.6086975,51.688297,-15.239848,-8.419216,-6.350119,-2.4578483,-21.691408,21.835707,-21.943108,1.0469781,-0.8608209,4.290102,6.883308,3.7697499,25.430962,-29.60364,48.37858,2.7887225,3.0638988,1.6469586,-0.10145407,-26.018368,44.26291,45.88615,12.072182,24.914967,-2.2508545
48,1.3040063381195068,-4.558021068572998,76.3294448852539,-1.919087249507476,4.33786120251168,13.475906334969192,-27.378763,12.834107,-0.34859455,53.405552,-14.8783045,-7.800313,-6.0434747,-2.5158567,-21.782593,21.882053,-22.123672,1.0475243,-0.7033188,4.3105187,7.124794,4.0818567,25.408108,-29.464413,48.45507,2.7421663,3.1092987,1.6679779,-0.14227775,-26.270428,44.53857,45.865547,12.044724,24.939747,-2.221813
49,1.4592540264129639,-4.576779365539551,76.31929779052734,-1.8412995593733776,4.173366507345592,13.57885084300064,-28.09112,12.906553,-0.04553069,54.80754,-14.764199,-7.2565446,-5.69875,-2.5772405,-21.859066,21.884,-22.2853,1.0570351,-0.52427065,4.3189135,7.3620396,4.409365,25.378244,-29.339466,48.54823,2.699247,3.1570768,1.6679825,-0.17025931,-26.520298,44.769894,45.8385,11.976595,25.011122,-2.1503203
50,1.6161448955535889,-4.5885009765625,76.31407165527344,-1.7485024411795083,4.002211872265565,13.670674670239517,-28.722416,12.965138,0.30463952,55.975216,-14.824341,-6.7325325,-5.329646,-2.652516,-21.9224,21.862179,-22.436073,1.0755991,-0.32716855,4.3108115,7.594613,4.750046,25.34107,-29.229362,48.658485,2.6564758,3.2083366,1.6507401,-0.18348356,-26.766394,44.964725,45.803917,11.862481,25.112978,-2.054169
51,1.7866419553756714,-4.592906475067139,76.31952667236328,-1.6436999432631463,3.830098861257666,13.757866346268768,-29.289373,12.990772,0.6731574,56.89026,-14.917542,-6.283141,-4.926959,-2.7333665,-21.981365,21.78447,-22.563484,1.1080722,-0.11730249,4.2878604,7.8211117,5.0966644,25.296621,-29.12779,48.785362,2.627492,3.268003,1.6194832,-0.20669216,-27.009144,45.13856,45.77346,11.772482,25.230907,-1.9632618
52,1.9674062728881836,-4.594764232635498,76.33255004882812,-1.5301231031762452,3.662959039057399,13.846445460688049,-29.80827,12.964745,1.0334301,57.530815,-14.901817,-5.964362,-4.481369,-2.8110576,-22.044428,21.61865,-22.655031,1.1593486,0.09523687,4.2525806,8.0391,5.446453,25.244642,-29.024277,48.92677,2.6250803,3.3410318,1.5767559,-0.21983692,-27.246347,45.27142,45.72528,11.732244,25.3524,-1.9081784
53,2.1639530658721924,-4.595486164093018,76.35456085205078,-1.4011257011376637,3.5027043442409784,13.935483926715014,-30.275341,12.868805,1.3834006,57.869446,-14.763344,-5.8137836,-3.9919279,-2.8923798,-22.109201,21.357887,-22.710035,1.2365688,0.31338876,4.1974154,8.246147,5.797721,25.185026,-28.924166,49.087048,2.6527221,3.4305599,1.524807,-0.23944716,-27.477299,45.37596,45.673275,11.782596,25.485834,-1.8979646
54,2.3657419681549072,-4.586474418640137,76.37966918945312,-1.257428728320107,3.3461902579788805,14.022281305540117,-30.68618,12.717153,1.7354097,57.92608,-14.570781,-5.795188,-3.4628353,-2.9789035,-22.172777,21.019014,-22.734375,1.3348838,0.5388147,4.123579,8.443459,6.1544104,25.117512,-28.82843,49.26585,2.7039585,3.533251,1.4614586,-0.2563775,-27.701313,45.44598,45.61609,11.883692,25.634253,-1.9164778
55,2.573399305343628,-4.577114582061768,76.40911102294922,-1.1133545191722694,3.1906717963997724,14.111042443931515,-31.05668,12.540199,2.084749,57.74893,-14.304212,-5.853523,-2.893568,-3.054261,-22.242609,20.606308,-22.726116,1.4413041,0.76729536,4.0470734,8.636786,6.5137715,25.042553,-28.728973,49.455338,2.7757947,3.64462,1.3833565,-0.27179807,-27.918444,45.482574,45.5488,12.006393,25.775528,-1.9565532
56,2.7949440479278564,-4.557920932769775,76.44214630126953,-0.9830267137232871,3.033607260061733,14.206045081894468,-31.400728,12.368023,2.4274275,57.384575,-13.942803,-5.9336257,-2.282804,-3.1019979,-22.325922,20.121048,-22.681461,1.5433822,0.9937524,3.983131,8.831512,6.875392,24.960949,-28.61519,49.645683,2.8664188,3.760234,1.2869438,-0.28365436,-28.129475,45.484127,45.464703,12.116799,25.887667,-2.0104804
57,3.0270211696624756,-4.536728382110596,76.47673797607422,-0.8667270369423241,2.8741469127519252,14.306495978028433,-31.71536,12.196055,2.7609882,56.816555,-13.4654045,-6.0449476,-1.6271417,-3.1206253,-22.42307,19.556198,-22.595173,1.6421795,1.2197225,3.9321837,9.029761,7.242235,24.872694,-28.479195,49.833916,2.9770315,3.8819447,1.1619697,-0.30026975,-28.335072,45.453606,45.370243,12.214683,25.96412,-2.0805607
58,3.2632064819335938,-4.516516208648682,76.5119400024414,-0.757937118380517,2.7136306333762183,14.410538005398454,-31.992348,12.0124035,3.087611,56.02589,-12.887366,-6.2084727,-0.9273453,-3.1176429,-22.530418,18.910748,-22.469048,1.7434773,1.445069,3.8868804,9.228004,7.6164145,24.777657,-28.325888,50.023464,3.108377,4.0109043,1.0130291,-0.3066803,-28.534649,45.380196,45.257412,12.301259,26.017212,-2.1694553
59,3.507556676864624,-4.486310005187988,76.54828643798828,-0.65981704894109,2.5532459996801427,14.521189915128474,-32.24021,11.834562,3.4116006,55.062256,-12.245169,-6.3862658,-0.19106159,-3.0905309,-22.647097,18.199825,-22.311966,1.8418689,1.6685853,3.8509212,9.425875,7.9883275,24.677847,-28.171793,50.216454,3.2565227,4.1418266,0.8592659,-0.32541093,-28.730284,45.29159,45.135963,12.408844,26.05175,-2.2693303
60,3.7585740089416504,-4.4597907066345215,76.57878112792969,-0.5762389085693868,2.39387449905687,14.641183014227927,-32.465588,11.679481,3.738606,53.971718,-11.573343,-6.5406322,0.57541496,-3.0362387,-22.772816,17.435764,-22.131815,1.9319552,1.8830627,3.8273437,9.620905,8.354978,24.575779,-28.027737,50.41258,3.4169834,4.2696333,0.71947545,-0.33399776,-28.923182,45.177933,44.9859,12.5217,26.07369,-2.372579
61,4.0201849937438965,-4.4244160652160645,76.60912322998047,-0.504488046813912,2.2395191307716678,14.770427201209634,-32.670883,11.543362,4.0796666,52.740902,-10.836395,-6.671042,1.3629696,-2.9589322,-22.902933,16.628082,-21.929735,2.0052629,2.0945578,3.81379,9.812332,8.71154,24.47288,-27.896988,50.610554,3.5988307,4.402722,0.5968932,-0.37165254,-29.116678,45.065,44.828266,12.696587,26.081182,-2.4770308
62,4.2860493659973145,-4.386375904083252,76.63361358642578,-0.44354299021079335,2.088432613822111,14.907427069791432,-32.849712,11.416089,4.4313836,51.351994,-10.028237,-6.7951517,2.1778562,-2.8583393,-23.038141,15.766557,-21.701208,2.0676248,2.3004053,3.8084347,10.000306,9.067106,24.368637,-27.768612,50.806908,3.8018086,4.5407124,0.48147506,-0.40407556,-29.310495,44.923477,44.64267,12.889948,26.072723,-2.586771
63,4.562729835510254,-4.34254789352417,76.65275573730469,-0.397212349304207,1.933625789719682,15.05288661267629,-32.992905,11.303467,4.782105,49.838852,-9.231639,-6.9031324,3.0347292,-2.7270453,-23.185211,14.836679,-21.44429,2.1353455,2.5015733,3.8159077,10.191775,9.415388,24.26606,-27.654512,51.00496,4.0021553,4.6650205,0.37351343,-0.448741,-29.506334,44.785553,44.443798,13.096277,26.052303,-2.702734
64,4.842336177825928,-4.291805744171143,76.66385650634766,-0.3689216671849122,1.7684994488878247,15.207235374940048,-33.092213,11.210507,5.1205864,48.236298,-8.528681,-6.985372,3.9533074,-2.5554197,-23.350471,13.810545,-21.154263,2.2250698,2.6941538,3.8396358,10.392076,9.759148,24.168877,-27.558126,51.202423,4.179055,4.7574935,0.27296814,-0.4891557,-29.703669,44.656452,44.222412,13.274898,26.024332,-2.8262906
65,5.1316142082214355,-4.238592624664307,76.66756439208984,-0.36008849017424877,1.5883523199651755,15.37414596834667,-33.1332,11.133126,5.455908,46.51868,-7.9560413,-7.056175,4.9499516,-2.3373516,-23.54109,12.665343,-20.821896,2.3490238,2.8761687,3.8800745,10.605683,10.099666,24.080652,-27.478794,51.398987,4.325193,4.808311,0.18044351,-0.5188942,-29.902256,44.533833,43.971504,13.407566,25.988428,-2.9580228
66,5.428950309753418,-4.184236526489258,76.6631851196289,-0.3649505930098537,1.3988558527961001,15.550578588941079,-33.11982,11.0614195,5.7978363,44.668922,-7.460295,-7.1185546,6.010216,-2.0815167,-23.748314,11.416788,-20.448263,2.4979959,3.0556924,3.9311945,10.830914,10.435263,24.003214,-27.416721,51.58983,4.451916,4.8292513,0.095607534,-0.58559024,-30.103754,44.448,43.72045,13.558021,25.942066,-3.0968344
67,5.731595516204834,-4.123131275177002,76.64928436279297,-0.37472256788327885,1.208823677561417,15.726230578696866,-33.071243,10.99122,6.137444,42.73539,-6.9898343,-7.1457047,7.107191,-1.8020939,-23.954342,10.097781,-20.04431,2.6563804,3.2295535,3.9819143,11.056136,10.77346,23.936056,-27.366768,51.771175,4.564368,4.8341465,0.016570887,-0.63511014,-30.306183,44.35472,43.44002,13.683624,25.888527,-3.242203
68,6.045605659484863,-4.0585174560546875,76.6228256225586,-0.3825686071011433,1.0270289893081022,15.89188854249446,-33.00796,10.920794,6.464338,40.76822,-6.4946427,-7.1102276,8.2209635,-1.5093228,-24.142834,8.726078,-19.615229,2.8074262,3.4178402,4.026849,11.28032,11.097566,23.88088,-27.346376,51.942123,4.665795,4.8370414,-0.05709605,-0.80621505,-30.515839,44.364166,43.229465,13.935724,25.827942,-3.392081
69,6.364845275878906,-3.9896767139434814,76.5865707397461,-0.39334085277427494,0.8473479752230416,16.048767437603313,-32.926254,10.842771,6.757875,38.75612,-5.995713,-7.000593,9.146034,-1.29703,-24.308397,7.799932,-19.423357,2.9483333,3.5918324,4.068049,11.494665,11.436446,23.83468,-27.332811,52.10336,4.7586575,4.834294,-0.12913567,-0.8797062,-30.723585,44.307896,42.939865,14.110188,25.76019,-3.5481381
70,6.6853837966918945,-3.9196581840515137,76.5400619506836,-0.40845233938142933,0.668704335388867,16.198840261833322,-32.815907,10.755461,7.0338144,36.672985,-5.5065484,-6.837353,9.733424,-1.2385365,-24.454905,7.6726565,-19.656603,3.0915987,3.7566981,4.1064897,11.698988,11.784911,23.797285,-27.330397,52.25924,4.8398356,4.8211675,-0.19772264,-0.8233026,-30.926542,44.15599,42.550095,14.170823,25.685677,-3.7103958
71,7.013646602630615,-3.842930793762207,76.48748016357422,-0.42092650378824287,0.5056456743225018,16.334870882815462,-32.693,10.670587,7.330098,34.555897,-4.9705386,-6.6401343,10.308631,-1.1829563,-24.5855,7.540191,-19.884226,3.237082,3.9798362,4.143968,11.917756,12.076296,23.777262,-27.391,52.405815,4.9039364,4.809073,-0.25513163,-1.2355006,-31.151592,44.371796,42.46435,14.671714,25.602512,-3.873809
72,7.349342346191406,-3.754983425140381,76.42845153808594,-0.42484678095630585,0.3717334941883245,16.450462119130698,-32.574753,10.601337,7.6836987,32.447044,-4.333313,-6.426963,10.854155,-1.1384724,-24.694393,7.3981147,-20.095236,3.3906717,4.1756544,4.1618648,12.110757,12.402557,23.756973,-27.41631,52.51028,4.9686656,4.8094234,-0.30534238,-1.4379749,-31.369995,44.42454,42.2156,14.935729,25.52945,-4.045764
73,7.6870622634887695,-3.6658644676208496,76.36607360839844,-0.42160950017762344,0.2652675490308183,16.550613927676775,-32.467133,10.545899,8.099756,30.348318,-3.5684154,-6.179138,11.376584,-1.0995097,-24.784227,7.2346582,-20.28339,3.551318,4.3861046,4.167044,12.290925,12.708824,23.739124,-27.462942,52.59474,5.0120645,4.826902,-0.3380529,-1.664874,-31.588564,44.484768,41.972473,15.200298,25.461369,-4.2260737
74,8.022568702697754,-3.5764596462249756,76.29491424560547,-0.41488383021397507,0.17867130408503532,16.636678968316392,-32.36326,10.4950075,8.561973,28.2472,-2.7141752,-5.8963127,11.897259,-1.0548753,-24.857695,7.0230794,-20.441206,3.7161858,4.604252,4.1639595,12.462242,13.00339,23.723207,-27.524075,52.661102,5.0398083,4.8547287,-0.35681605,-1.919734,-31.807438,44.562855,41.735138,15.472644,25.39529,-4.414036
75,8.358663558959961,-3.48429799079895,76.21300506591797,-0.40110026411235483,0.11402473598228836,16.69912359703538,-32.269753,10.450635,9.07033,26.183062,-1.8185762,-5.622865,12.400655,-1.0163012,-24.90981,6.792223,-20.57828,3.8868845,4.8356752,4.150499,12.620749,13.2874565,23.705482,-27.591301,52.714283,5.0772486,4.8875833,-0.3718492,-2.1999776,-32.0266,44.6539,41.50833,15.729675,25.335218,-4.6023664
76,8.694317817687988,-3.3783297538757324,76.12760162353516,-0.41436486629013947,0.07008259367616838,16.7366189926998,-32.18178,10.440642,9.592331,24.173372,-0.91948223,-5.406453,12.788119,-0.9970859,-24.94066,6.7767262,-20.820478,4.063666,5.078443,4.1641536,12.76209,13.561983,23.679352,-27.656515,52.76004,5.15161,4.9200416,-0.39297372,-2.5012956,-32.24599,44.751736,41.295193,15.9483595,25.285591,-4.7838798
77,9.034008979797363,-3.2720229625701904,76.04093170166016,-0.42767557669050554,0.0674639671010355,16.736091252205654,-32.084293,10.449074,10.179099,22.156393,0.0796678,-5.252095,13.124942,-0.98792404,-24.940025,6.7617483,-21.047533,4.248996,5.3235397,4.171924,12.855933,13.844869,23.637121,-27.6982,52.80406,5.2809405,4.955046,-0.42504907,-2.5913005,-32.45587,44.67872,40.940163,15.9140415,25.251568,-4.9685483
78,9.38731575012207,-3.150602340698242,75.95630645751953,-0.44222173557547506,0.09854484340054696,16.701325765815973,-31.975061,10.46974,10.825812,20.127659,1.1702001,-5.1362524,13.42015,-0.9853956,-24.90903,6.7497916,-21.263842,4.4402876,5.631979,4.186585,12.9407,14.068659,23.589851,-27.78099,52.855083,5.441923,4.993616,-0.4570313,-3.0318117,-32.678474,44.86417,40.819492,16.157946,25.223675,-5.1519284
79,9.739500999450684,-3.021749496459961,75.87167358398438,-0.4685322303973259,0.14120413169793394,16.628679452913868,-31.834114,10.500332,11.494236,18.113625,2.1986363,-5.0519724,13.699175,-0.97826433,-24.843836,6.7404604,-21.472815,4.6354446,5.9492445,4.2102976,13.013156,14.29951,23.52989,-27.84731,52.8942,5.621073,5.0276084,-0.48999274,-3.468957,-32.900833,45.046852,40.691196,16.339548,25.205793,-5.320437
80,10.091285705566406,-2.886265993118286,75.78475189208984,-0.5180842573706833,0.17361884077496895,16.514850020047177,-31.638374,10.543496,12.143256,16.133335,3.0134223,-4.9969754,13.991827,-0.9529157,-24.740883,6.7289953,-21.677868,4.8319035,6.2761984,4.2541986,13.080431,14.5439205,23.455267,-27.90057,52.92815,5.795156,5.0490966,-0.5199258,-3.796579,-33.117725,45.13688,40.49427,16.359732,25.198204,-5.4555635
81,10.452398300170898,-2.740798234939575,75.69085693359375,-0.5996375566308928,0.19144957301592472,16.35212284898008,-31.358624,10.613477,12.775993,14.132704,3.5522702,-5.003092,14.300895,-0.9003955,-24.591375,6.717726,-21.881474,5.0293555,6.6424756,4.333514,13.153274,14.782532,23.36908,-27.965622,52.960144,5.9571176,5.0489655,-0.5418318,-4.184405,-33.335735,45.257023,40.348015,16.35657,25.203285,-5.5372477
82,10.821368217468262,-2.590228319168091,75.5874252319336,-0.7071752886312443,0.202924096020994,16.14067149291763,-31.005,10.709076,13.410611,12.102873,3.9167833,-5.068151,14.615567,-0.82855153,-24.395536,6.7052593,-22.079716,5.227421,7.0465593,4.441468,13.228531,15.013326,23.27192,-28.038677,52.987617,6.1181293,5.033879,-0.5585258,-4.6624284,-33.556625,45.436462,40.266037,16.364273,25.220184,-5.579791
83,11.208242416381836,-2.4225564002990723,75.47657012939453,-0.828485749148824,0.20768616098262757,15.893453186985528,-30.611523,10.812488,14.026116,10.121281,4.2019277,-5.1347175,14.939057,-0.75025797,-24.167498,6.695167,-22.277323,5.4241824,7.4521227,4.557297,13.296456,15.2576685,23.160345,-28.090223,53.007915,6.2838006,5.0192833,-0.57672495,-5.027869,-33.771717,45.530148,40.10759,16.234848,25.242193,-5.615057
84,11.594443321228027,-2.2536814212799072,75.3653793334961,-0.9457382428149259,0.21101239502072489,15.630881475694272,-30.228489,10.90303,14.596767,8.289188,4.4917636,-5.136408,15.268117,-0.68634444,-23.929304,6.687867,-22.473291,5.619641,7.869498,4.6629558,13.369718,15.478932,23.042553,-28.14223,53.02791,6.4511485,5.020525,-0.5989952,-5.533081,-33.986874,45.736908,40.03507,16.236847,25.25844,-5.671088
85,11.990700721740723,-2.077007293701172,75.2542495727539,-1.0484278293510358,0.21837283581358766,15.359312835866573,-29.875738,10.9803505,15.085008,6.6243105,4.7796135,-5.016459,15.597798,-0.6483637,-23.690283,6.682915,-22.668991,5.811473,8.233528,4.7350903,13.419332,15.739525,22.907215,-28.13557,53.03523,6.640518,5.047222,-0.6266451,-5.690225,-34.180927,45.686295,39.729027,15.931844,25.268332,-5.7732773
86,12.3897705078125,-1.8982688188552856,75.14323425292969,-1.140551846790747,0.23293857242022692,15.078236806164595,-30.23046,11.242384,15.372873,6.582578,4.2312784,-4.817388,15.923737,-0.6320644,-23.44925,6.6809754,-22.86398,6.0023503,8.644294,4.7941766,13.486006,15.939888,22.778418,-28.167688,53.044746,6.83251,5.089694,-0.6509141,-6.303661,-34.373566,45.979385,39.730766,16.029474,25.26981,-5.8930798
87,12.79897689819336,-1.7173168659210205,75.03483581542969,-1.222196779024121,0.2561092683439891,14.797217871372824,-30.532587,11.481005,15.664903,6.5527463,3.7351916,-4.6068554,16.247866,-0.63524365,-23.21396,6.6814227,-23.056091,6.1997304,8.99727,4.8274865,13.531053,16.171907,22.63169,-28.147043,53.041584,7.020389,5.1326485,-0.68919754,-6.727072,-34.55534,46.14519,39.591736,15.935404,25.275013,-6.009284
88,13.215957641601562,-1.5333607196807861,74.92784881591797,-1.295792987258194,0.28817527862940623,14.52385726920079,-30.767292,11.68739,16.023766,6.532786,3.3290956,-4.4559464,16.570972,-0.6543051,-22.989191,6.6822095,-23.239393,6.4107776,9.329073,4.8389955,13.557678,16.391977,22.482698,-28.123259,53.044262,7.169726,5.1624985,-0.7480302,-7.140519,-34.722923,46.305862,39.44247,15.80872,25.2877,-6.087172
89,13.638903617858887,-1.3429298400878906,74.81748962402344,-1.3604963229348819,0.3363636546781364,14.258886605717867,-30.937624,11.867939,16.50491,6.5225306,3.0441465,-4.372525,16.885252,-0.6890852,-22.779488,6.6821156,-23.414822,6.6346884,9.653549,4.808026,13.558701,16.628458,22.383354,-28.091963,53.00576,7.2571864,5.179284,-0.84784037,-7.556084,-34.824364,46.448868,39.32292,15.623616,25.311481,-6.107156
90,14.071075439453125,-1.1513128280639648,74.704833984375,-1.4147051754788378,0.3999296338182268,14.000832563035198,-31.049177,12.025816,17.061832,6.520029,2.8553262,-4.315922,17.191687,-0.7412872,-22.583843,6.683373,-23.58608,6.8688927,9.915148,4.7689576,13.544199,16.853188,22.219265,-28.009693,52.99899,7.329583,5.1834393,-0.96758705,-7.9807844,-34.970745,46.643963,39.157413,15.43039,25.349253,-6.0941854
91,14.517417907714844,-0.9477236270904541,74.59246826171875,-1.4585828106098977,0.4663817700103665,13.753078958952816,-31.091627,12.147845,17.604696,6.5271807,2.7146533,-4.2864623,17.505602,-0.8121851,-22.399208,6.6835093,-23.746145,7.117944,10.186331,4.6875386,13.517243,17.082214,22.120731,-27.961456,52.950848,7.364067,5.1841354,-1.0965486,-8.381497,-35.05076,46.786915,39.011127,15.203631,25.379168,-6.068301
92,14.973886489868164,-0.7479296326637268,74.47655487060547,-1.4934192642429822,0.5232487418126881,13.51828191662227,-31.056326,12.220846,18.043356,6.5464125,2.5744395,-4.2845883,17.84256,-0.90099764,-22.221895,6.684252,-23.892653,7.3864274,10.383076,4.604554,13.49444,17.296513,21.960028,-27.898129,52.94016,7.414597,5.1745753,-1.1988887,-8.779632,-35.16644,46.975166,38.813972,15.011117,25.395319,-6.0655656
93,15.439335823059082,-0.5379216074943542,74.36177825927734,-1.5174255655442919,0.5645744099429885,13.294274149799678,-30.930557,12.246063,18.410994,6.578819,2.423783,-4.344639,18.211561,-1.0089277,-22.051218,6.6827807,-24.032907,7.6757774,10.570249,4.501642,13.47663,17.486582,21.808914,-27.882355,52.939953,7.4589972,5.156496,-1.2722261,-9.170259,-35.26994,47.14964,38.610016,14.862154,25.388456,-6.084843
94,15.913872718811035,-0.3226509392261505,74.24153137207031,-1.5292924450673553,0.598252805008018,13.080779295594986,-30.724089,12.224493,18.73771,6.623625,2.2872045,-4.4541063,18.602028,-1.1365011,-21.89057,6.6807823,-24.166721,7.983816,10.731364,4.365803,13.455344,17.69364,21.69066,-27.880407,52.909355,7.488298,5.131595,-1.3361373,-9.463055,-35.34174,47.241753,38.344757,14.648854,25.365295,-6.1145163
95,16.39586639404297,-0.0994224101305008,74.12298583984375,-1.5322239647616358,0.6313801481572066,12.88412677465785,-30.459654,12.143498,18.927162,6.679492,2.1688447,-4.545218,19.005552,-1.2805737,-21.741829,6.678702,-24.276522,8.309258,10.8747015,4.207262,13.436398,17.884495,21.595736,-27.906681,52.86471,7.502873,5.1051326,-1.3924923,-9.839329,-35.399055,47.400204,38.12646,14.521849,25.333248,-6.1512113
96,16.883020401000977,0.1348389834165573,74.0059814453125,-1.5298674351790038,0.6701127471917263,12.7095983583527,-30.159046,11.993313,18.882324,6.744237,2.0753822,-4.5510726,19.415142,-1.4373027,-21.60611,6.676862,-24.34524,8.650695,10.969102,4.0276976,13.409157,18.082062,21.52089,-27.935232,52.792812,7.5060678,5.0829773,-1.450424,-10.1441765,-35.438644,47.51708,37.850445,14.322786,25.299984,-6.195975
97,17.37563705444336,0.3703281879425049,73.89260864257812,-1.5288317498049564,0.690624971046175,12.55840935481226,-29.76839,11.766187,18.533016,6.8235583,1.9360783,-4.4416385,19.860983,-1.5990804,-21.48094,6.6736207,-24.37453,9.011518,11.013103,3.8466659,13.389906,18.272316,21.444456,-27.978642,52.721275,7.4897256,5.064005,-1.5049783,-10.443312,-35.4761,47.656876,37.551174,14.111979,25.272957,-6.247517
98,17.873271942138672,0.6200518012046814,73.78311920166016,-1.5284638252060752,0.6939555488123286,12.423454640989739,-29.918276,11.677409,17.815311,8.287261,1.0524756,-4.2654366,20.340765,-1.7668715,-21.3627,6.671248,-24.374159,9.390756,11.008904,3.6651852,13.376057,18.454166,21.356855,-28.032759,52.657616,7.458711,5.045074,-1.5523533,-10.715282,-35.51514,47.803288,37.213783,13.879244,25.247185,-6.307753
99,18.3890380859375,0.8807213306427002,73.67133331298828,-1.5246527860870243,0.7229710895211878,12.293920689986482,-30.228859,11.578105,16.94052,10.055632,0.13035928,-4.0653977,20.79786,-1.9470956,-21.247034,6.6655984,-24.326801,9.781615,10.975218,3.4799025,13.340887,18.58532,21.232775,-28.096462,52.631077,7.4385095,5.026407,-1.5904988,-10.972874,-35.565777,47.955044,36.845997,13.644414,25.214403,-6.377368
100,18.924327850341797,1.147481083869934,73.5594482421875,-1.5262810376125882,0.8154284452308762,12.174442815472602,-30.618067,11.434215,16.036428,11.707454,-0.4762515,-3.8914182,21.124083,-2.1506727,-21.139423,6.7915773,-24.293194,10.176263,10.9379015,3.2764018,13.266856,18.6688,21.13383,-28.174126,52.587353,7.438225,5.0121427,-1.6306268,-11.225807,-35.605743,48.082092,36.470715,13.419127,25.16202,-6.454879
101,19.464641571044922,1.4161138534545898,73.44963836669922,-1.5243215154033578,0.9949333359801877,12.056959584577651,-31.180136,11.233798,15.039939,13.359416,-0.8138849,-3.7553976,21.322527,-2.3755429,-21.045904,6.977201,-24.240894,10.581323,10.889886,3.0471637,13.133986,18.696066,21.03201,-28.25495,52.543327,7.481508,5.003216,-1.6779886,-11.473304,-35.645214,48.19535,36.069122,13.190462,25.093285,-6.5424848
102,19.9807186126709,1.6875767707824707,73.3658676147461,-1.5228907555777873,1.2359558466495189,11.939377258058334,-31.860611,10.970085,13.931762,15.033229,-0.9583311,-3.6485472,21.462273,-2.6030679,-20.959688,7.136567,-24.12606,10.998459,10.839386,2.7922802,12.962125,18.691687,20.957142,-28.343939,52.47071,7.5489507,4.9996557,-1.7331505,-11.72967,-35.674732,48.30183,35.655262,12.971748,25.010841,-6.6381006
103,20.490161895751953,1.9639065265655518,73.2885513305664,-1.5118414121708441,1.5087617602297487,11.83146205458049,-32.563877,10.671318,12.888604,16.605589,-0.81588393,-3.5808892,21.57689,-2.84088,-20.87185,7.276387,-23.941277,11.415698,10.757984,2.5278056,12.771111,18.626364,20.849133,-28.440561,52.437206,7.618228,4.9943166,-1.7700834,-11.957284,-35.71494,48.39538,35.222313,12.75745,24.909502,-6.746407
104,20.986669540405273,2.2450828552246094,73.22205352783203,-1.4828270316736119,1.7871483591960176,11.74412208209703,-33.189575,10.382,12.081969,17.944082,-0.29394922,-3.549571,21.69433,-3.0985215,-20.773836,7.403705,-23.670874,11.822597,10.646782,2.2383897,12.590548,18.528437,20.75714,-28.541567,52.399673,7.654753,4.985209,-1.781342,-12.105207,-35.746502,48.421818,34.7646,12.527295,24.78038,-6.8668346
105,21.490739822387695,2.530398368835449,73.17189025878906,-1.428683689209651,2.10709522402383,11.669693332871981,-33.69996,10.133897,11.599863,18.831694,0.95531386,-3.6567564,21.762632,-3.3878014,-20.652946,7.531013,-23.319933,12.218817,10.509602,1.910378,12.401282,18.380314,20.673502,-28.650995,52.36068,7.6538763,4.9706936,-1.7515458,-12.234722,-35.77305,48.42139,34.30668,12.318941,24.61168,-6.9954333
106,22.01439666748047,2.8251333236694336,73.12771606445312,-1.3497561799881819,2.474286071255099,11.609665341939314,-34.164433,9.9097805,11.326814,19.415583,2.7641847,-3.8581576,21.773636,-3.710751,-20.522142,7.666927,-22.89992,12.613282,10.36107,1.5566045,12.197231,18.133696,20.55968,-28.793264,52.375835,7.632689,4.951219,-1.6823978,-12.471164,-35.81314,48.486187,33.922672,12.238114,24.411795,-7.130982
107,22.55613899230957,3.131368398666382,73.08988952636719,-1.2438446404374306,2.814723765503396,11.585336729308265,-34.645557,9.68682,11.144472,20.11793,4.4499893,-3.9182992,21.825409,-4.0630927,-20.409334,7.816141,-22.412672,13.006944,10.161333,1.1704352,12.020539,17.902277,20.488441,-28.91515,52.351448,7.587948,4.9309707,-1.6141535,-12.585789,-35.834312,48.470905,33.497784,12.117052,24.199345,-7.287147
108,23.116579055786133,3.4417107105255127,73.05160522460938,-1.1129635395007191,3.0504705947516415,11.612714965912179,-35.18624,9.445876,10.954325,21.332241,5.345205,-3.6038659,22.02222,-4.435526,-20.337322,7.974897,-21.85412,13.400293,9.936053,0.80000424,11.903178,17.615343,20.393776,-29.075066,52.417187,7.5149083,4.908163,-1.5505041,-12.510592,-35.85872,48.336067,33.041058,11.95969,23.998226,-7.4679303
109,23.677120208740234,3.758467674255371,73.00323486328125,-0.9428638830628633,3.1442365541551816,11.686582106083154,-35.848,9.186735,10.7501,23.320036,5.1664414,-2.6643307,22.0259,-4.989397,-20.26257,9.019752,-21.714182,13.816633,9.669091,0.41387445,11.881272,17.364191,20.34014,-29.226662,52.472607,7.393494,4.882527,-1.514115,-12.299899,-35.86947,48.13805,32.568226,11.80577,23.81027,-7.6787724
110,24.260953903198242,4.073010444641113,72.94949340820312,-0.7388885985488347,3.1367330626755687,11.788078319824509,-36.557407,8.922881,10.587036,25.767895,4.3280935,-1.2798402,21.884623,-5.6802735,-20.166105,10.709883,-21.856785,14.248444,9.430518,0.018664334,11.939947,17.057392,20.307583,-29.437943,52.57211,7.222315,4.8539567,-1.4813887,-12.161179,-35.88237,47.98223,32.20905,11.823542,23.625668,-7.907061
111,24.870830535888672,4.396733283996582,72.89134979248047,-0.5246907438643006,3.0704747878652037,11.915085590040848,-37.172836,8.645422,10.460898,28.234985,3.2035668,0.13039312,21.820269,-6.3710074,-20.083647,12.403774,-21.888956,14.6526575,9.167932,-0.37530953,12.038716,16.750738,20.304861,-29.638672,52.66103,7.056427,4.828976,-1.456944,-11.858774,-35.883404,47.726234,31.813953,11.80088,23.442,-8.159647
112,25.495847702026367,4.728082656860352,72.8442611694336,-0.3144740312074942,2.9967332992294335,12.072710095380257,-37.57999,8.3422365,10.382969,30.319689,2.1451023,1.1495987,21.718122,-7.057552,-20.031385,14.19713,-21.80834,14.99083,8.916858,-0.7538277,12.148419,16.379957,20.331995,-29.868597,52.76703,6.932229,4.814139,-1.4299483,-11.438919,-35.87254,47.370766,31.436115,11.78762,23.25759,-8.43031
113,26.11231803894043,5.051284313201904,72.81795501708984,-0.08992739005201862,2.9038526878800743,12.266436715635358,-37.74419,8.009238,10.389982,31.99497,1.1327075,1.627289,21.598513,-7.707735,-19.972893,16.059628,-21.61897,15.000033,8.678476,-1.1382529,12.298192,15.926243,20.394136,-30.14767,52.90738,6.8577847,4.797475,-1.4002885,-11.039218,-35.849323,46.995884,31.158957,11.900102,23.066038,-8.72451
114,26.71571922302246,5.36558198928833,72.80221557617188,0.11511647704645714,2.793800274518959,12.480491148111536,-37.794117,7.7001867,10.436073,33.532135,-0.024473926,1.793646,21.495502,-8.318187,-19.936726,17.93167,-21.300152,15.000033,8.448538,-1.4973215,12.455434,15.425201,20.486958,-30.457464,53.070866,6.812027,4.7803245,-1.3730963,-10.479027,-35.806713,46.493305,30.86285,11.98731,22.87002,-9.0424795
115,27.318912506103516,5.671539306640625,72.79667663574219,0.3223386131223015,2.7031616444865483,12.731711862570245,-37.75805,7.3614306,10.501081,34.868782,-1.1799792,1.8201334,21.2949,-8.961499,-19.956108,19.97343,-20.876791,15.000033,8.214781,-1.8500538,12.588486,14.885512,20.604208,-30.768204,53.218845,6.7968187,4.7880993,-1.3446368,-9.86062,-35.748196,45.955048,30.620258,12.1137,22.67922,-9.372526
116,27.925945281982422,5.981265544891357,72.7994384765625,0.5071863552341469,2.687550683919767,13.014585035483437,-37.70969,6.993401,10.53408,35.97902,-2.1999266,1.8652424,20.883816,-9.641809,-20.017212,22.263454,-20.32351,15.000033,7.9604697,-2.1717556,12.630457,14.339184,20.731188,-31.02365,53.30809,6.819517,4.84582,-1.3127033,-9.127769,-35.67262,45.380703,30.399477,12.211815,22.50367,-9.706025
117,28.530376434326172,6.302970886230469,72.81394958496094,0.6520731149000089,2.7867439021418057,13.349086674684843,-37.69628,6.5910754,10.506555,36.83315,-3.031782,1.9302094,20.234215,-10.333026,-20.148296,24.792002,-19.606106,15.000033,7.6940584,-2.4379976,12.55731,13.733416,20.867212,-31.25871,53.36718,6.888458,4.9702206,-1.2849104,-8.552313,-35.58859,44.939667,30.39265,12.547335,22.33011,-10.08039
118,29.127185821533203,6.628467082977295,72.85155487060547,0.7767656018839149,2.964392290122228,13.73094202951012,-37.673653,6.152335,10.45669,37.453075,-3.7528148,1.9456766,19.413805,-11.04009,-20.326168,27.498262,-18.726095,15.000033,7.3862987,-2.6675868,12.389355,13.098968,21.00517,-31.456253,53.406483,7.0040464,5.1439652,-1.2617959,-7.835691,-35.484352,44.437183,30.397356,12.867723,22.158848,-10.490432
119,29.717899322509766,6.967201232910156,72.90579223632812,0.9158509246047972,3.164171732127708,14.116742919183054,-37.57563,5.6782722,10.434745,37.88097,-4.4184175,1.9643025,18.455166,-11.812069,-20.447653,30.370605,-17.71119,15.000033,7.083636,-2.8935313,12.190663,12.464088,21.140308,-31.590727,53.39327,7.1474323,5.3413944,-1.2170091,-7.1312985,-35.366238,43.987167,30.489277,13.195791,22.015213,-10.851793
120,30.30821990966797,7.299448490142822,72.98194122314453,0.9860117588966556,3.361495803338054,14.426481626188888,-37.430992,5.307292,10.4023285,38.26113,-5.122474,2.0079257,17.34707,-12.486739,-20.379305,33.30535,-16.530212,14.445273,6.8381104,-3.0475302,11.974535,11.882856,21.260607,-31.60647,53.283287,7.3064713,5.5369854,-1.1258366,-6.4927936,-35.24095,43.65334,30.676441,13.466088,21.926329,-11.083923
121,30.904409408569336,7.64382791519165,73.07508087158203,1.0452099265952546,3.526747653461622,14.667118126750038,-37.15521,4.9766083,10.414647,38.525043,-5.8699675,2.114511,16.104456,-13.18694,-20.132105,36.372925,-15.123029,13.618639,6.6332436,-3.1777987,11.772396,11.3649435,21.354166,-31.466608,53.06751,7.5245366,5.756511,-0.9960526,-5.9075212,-35.110844,43.447002,30.964867,13.681967,21.894466,-11.195364
122,31.498865127563477,7.995104789733887,73.18047332763672,1.0855807371073631,3.6870764001374194,14.865111925558725,-36.782417,4.6725974,10.450855,38.651802,-6.6246443,2.2619712,14.722872,-13.904393,-19.77268,39.559242,-13.495733,12.589676,6.4503174,-3.2737558,11.558394,10.879327,21.418005,-31.199347,52.78078,7.796329,6.0024376,-0.83498555,-5.373938,-34.976826,43.355564,31.361942,13.883823,21.907774,-11.220734
123,32.09918212890625,8.353495597839355,73.29800415039062,1.14192702643916,3.843119456202881,15.035623504419915,-36.339096,4.353361,10.519336,38.661045,-7.341497,2.4352515,13.230966,-14.675861,-19.357622,42.829212,-11.82984,11.385435,6.277778,-3.3755202,11.340201,10.41765,21.45656,-30.846273,52.44554,8.0334215,6.2142377,-0.61679864,-4.8880844,-34.8401,43.356674,31.823544,14.009043,21.975115,-11.11996
124,32.691287994384766,8.719303131103516,73.42279815673828,1.249263826936566,3.9943877276510524,15.194860783467517,-35.84963,3.9792206,10.625416,38.57153,-7.977002,2.612523,11.65567,-15.538186,-18.933792,46.156628,-10.313701,10.031028,6.10715,-3.5235634,11.127885,9.972339,21.479975,-30.453005,52.077984,8.145793,6.331018,-0.31528676,-4.4696436,-34.703373,43.44196,32.318863,14.01594,22.104294,-10.851744
125,33.28171920776367,9.085715293884277,73.56107330322266,1.425461614188529,4.138087987797605,15.335110930085708,-35.286163,3.5365264,10.781601,38.35043,-8.516601,2.7809103,9.95583,-16.577024,-18.52911,49.67245,-8.900245,8.385126,5.947189,-3.7383168,10.923476,9.561042,21.491735,-30.00639,51.654972,8.111743,6.338694,0.11891856,-4.1122794,-34.570007,43.62046,32.849285,13.891373,22.308653,-10.402181
126,33.86040115356445,9.453736305236816,73.70729064941406,1.6484555478218164,4.274196084350031,15.453638767367423,-34.641174,3.049548,10.973644,37.99781,-8.985603,2.9470155,8.132854,-17.759167,-18.111662,53.33866,-7.518039,6.457717,5.799473,-3.995415,10.723679,9.184333,21.49247,-29.49073,51.169888,7.9784265,6.26794,0.6573006,-3.8115609,-34.442593,43.89408,33.42814,13.661727,22.578278,-9.792082
127,34.43560028076172,9.812582015991211,73.85466003417969,1.8919142871923538,4.405682365895685,15.57464411871253,-33.969563,2.5360081,11.164431,37.581795,-9.400311,3.114763,6.2683535,-18.921894,-17.621506,56.900467,-6.3319383,4.5218887,5.6422763,-4.266029,10.530036,8.813219,21.491264,-28.94867,50.659264,7.758391,6.124648,1.2086418,-3.550659,-34.320038,44.215054,34.015564,13.312553,22.885632,-9.031821
128,34.99921798706055,10.166402816772461,73.99420928955078,2.12584641477081,4.535794097658965,15.721335109573882,-33.332535,2.0194228,11.317062,37.179424,-9.780338,3.2909749,4.433719,-19.872854,-16.98656,60.129765,-5.515942,2.8837588,5.46002,-4.518952,10.344489,8.418328,21.502548,-28.427774,50.155464,7.462907,5.915837,1.6809021,-3.306558,-34.200214,44.526535,34.568645,12.825641,23.202265,-8.130867
129,35.54701232910156,10.503825187683105,74.12139129638672,2.355049343879385,4.67190892823897,15.900840539047746,-32.761925,1.4978932,11.4327345,36.820057,-10.119779,3.4788532,2.6111286,-20.571943,-16.176159,63.055416,-5.190014,1.5663536,5.253746,-4.7625256,10.166036,7.992348,21.53933,-27.929335,49.650307,7.067679,5.615727,2.0429258,-3.0796728,-34.083122,44.823837,35.0774,12.168951,23.538116,-7.037234
130,36.0880012512207,10.824915885925293,74.24211120605469,2.5888119492736896,4.809914587636137,16.10011613080723,-32.221767,0.9665843,11.525384,36.466106,-10.414716,3.6719036,0.75764453,-21.077646,-15.2131405,65.81042,-5.2521996,0.4577129,5.035323,-5.008574,9.996003,7.5586567,21.605324,-27.435516,49.115925,6.573961,5.229674,2.3414645,-2.8721657,-33.969982,45.124966,35.557365,11.353583,23.89205,-5.758638
131,36.61649703979492,11.132625579833984,74.36088562011719,2.8021513178892414,4.935260791709838,16.310516604698567,-31.676863,0.44780004,11.578737,36.101997,-10.691015,3.8653734,-1.0907574,-21.328629,-14.113634,68.33057,-5.555598,-0.32126087,4.8085394,-5.2291346,9.840207,7.1280303,21.699545,-26.968681,48.561047,6.0282054,4.812813,2.6027663,-2.6685123,-33.860508,45.40921,36.007153,10.433285,24.220434,-4.3964214
132,37.142486572265625,11.438223838806152,74.48165893554688,2.9744809873897387,5.033762441854139,16.522086847742596,-31.09368,-0.038837627,11.580749,35.71294,-10.97365,4.0554557,-2.8934636,-21.281742,-12.90308,70.5552,-5.959982,-0.6557178,4.582026,-5.3996644,9.70591,6.705487,21.817669,-26.556448,48.00057,5.4762983,4.4199047,2.855705,-2.4543777,-33.754917,45.65434,36.427242,9.467478,24.48432,-3.0543704
133,37.670589447021484,11.743013381958008,74.60848999023438,3.0996780494828307,5.097934461284814,16.73339622380043,-30.459974,-0.48998573,11.525947,35.28893,-11.263111,4.2399035,-4.6181903,-20.855097,-11.537398,72.44047,-6.5731106,-0.3792335,4.360153,-5.510609,9.603508,6.2789125,21.957926,-26.220358,47.44052,4.8924737,4.0427637,3.1168613,-2.2180474,-33.653625,45.840645,36.803814,8.38874,24.680962,-1.6805656
134,38.189598083496094,12.041495323181152,74.73904418945312,3.1909951283835434,5.135318255443574,16.949918180563543,-29.79314,-0.91677123,11.42349,34.84011,-11.548298,4.42213,-6.2712193,-20.106148,-10.057824,74.05467,-7.455583,0.39464846,4.1408167,-5.5778265,9.529022,5.8451633,22.119865,-25.94667,46.877388,4.2638817,3.6593828,3.3679688,-1.9677204,-33.55851,45.98097,37.139973,7.1954365,24.820961,-0.24726921
135,38.709716796875,12.339132308959961,74.86875915527344,3.256335616919774,5.1549829887053225,17.172145213408633,-29.104803,-1.3222035,11.282321,34.37992,-11.835813,4.606858,-7.876573,-19.206799,-8.607927,75.49356,-8.385313,1.3569729,3.9193983,-5.6133,9.468303,5.4247513,22.298553,-25.704275,46.30945,3.6571538,3.304576,3.5881612,-1.7117151,-33.470314,46.097527,37.45465,6.0431514,24.899368,1.1008277
136,39.22354507446289,12.628767967224121,74.99634552001953,3.3011130487162843,5.167348406381539,17.39938190089924,-28.408367,-1.7058396,11.110537,33.922447,-12.132659,4.7973623,-9.473478,-18.317263,-7.3024416,76.83981,-9.116284,2.2159264,3.6906955,-5.6261616,9.404794,5.037044,22.486477,-25.46053,45.738613,3.1388967,3.0140507,3.758422,-1.4585162,-33.388027,46.212894,37.7682,5.0855436,24.922329,2.218195
137,39.736083984375,12.913325309753418,75.12028503417969,3.3202228130257434,5.178241902868192,17.635704512034074,-27.718842,-2.0627162,10.900061,33.48032,-12.444625,5.0006433,-11.09152,-17.425934,-6.128525,78.10583,-9.545679,2.9569683,3.4469056,-5.608636,9.330228,4.680771,22.678787,-25.20741,45.16558,2.7327693,2.8058941,3.865828,-1.2175117,-33.310635,46.347317,38.088707,4.347211,24.888105,3.070476
138,40.26026916503906,13.196126937866211,75.2449951171875,3.3129156196058522,5.181630427381772,17.878716381803677,-27.02294,-2.3929675,10.651266,33.040585,-12.766946,5.2113276,-12.70259,-16.473114,-5.0322804,79.243195,-9.809169,3.7155707,3.1902392,-5.5582614,9.2535515,4.3470135,22.874437,-24.957874,44.594578,2.4025886,2.6592596,3.9259768,-0.98628557,-33.237,46.48832,38.40963,3.7529864,24.807276,3.730563
139,40.79113006591797,13.483641624450684,75.36761474609375,3.2922085779078816,5.17034782766303,18.122081580928963,-26.30427,-2.7048755,10.382148,32.59241,-13.0925,5.414106,-14.282074,-15.534639,-4.0494742,80.2463,-10.00313,4.4286857,2.9301414,-5.49178,9.184491,4.0395765,23.071278,-24.714045,44.032974,2.1238675,2.5517452,3.9631786,-0.76368123,-33.164314,46.61605,38.731773,3.3173492,24.711718,4.215462
140,41.32234573364258,13.766434669494629,75.48406982421875,3.271846823557752,5.137316314550417,18.359545044459036,-25.547245,-3.0072563,10.110701,32.126625,-13.414351,5.5943418,-15.8091545,-14.691186,-3.2132442,81.10826,-10.220644,5.0286407,2.6742563,-5.427172,9.131348,3.7635062,23.266676,-24.476845,43.48819,1.8727528,2.460692,4.0015807,-0.54297197,-33.08865,46.70563,39.05432,3.0456905,24.63189,4.543009
141,41.85289001464844,14.04549503326416,75.59972381591797,3.2464573687164733,5.087981798388009,18.59342219933874,-24.76449,-3.2944324,9.831007,31.655125,-13.736389,5.749896,-17.301449,-13.959035,-2.535373,81.8301,-10.471051,5.4910073,2.422455,-5.3600893,9.088188,3.5166237,23.458597,-24.244158,42.9653,1.6363474,2.386888,4.0425324,-0.3307313,-33.007477,46.769135,39.389008,2.9817903,24.572365,4.673207
142,42.38315200805664,14.32661247253418,75.7138442993164,3.2120921265537588,5.024114208857752,18.825553185722637,-23.959328,-3.5636725,9.537358,31.17778,-14.059904,5.887219,-18.77107,-13.307361,-1.9874221,82.410965,-10.699357,5.847879,2.170902,-5.284894,9.051937,3.295718,23.646353,-24.01635,42.46292,1.4300125,2.3400924,4.075817,-0.1280676,-32.919346,46.813084,39.736385,3.1044574,24.52114,4.612364
143,42.916954040527344,14.608207702636719,75.82421875,3.1847383185994795,4.93281847992734,19.049288616239746,-23.099308,-3.8291166,9.247861,30.661325,-14.370797,6.005817,-20.19029,-12.747959,-1.5398072,82.83684,-10.905046,6.1152053,1.9249144,-5.2173123,9.035692,3.1015356,23.829996,-23.800756,41.979942,1.2716097,2.310952,4.107986,0.0724437,-32.822548,46.81019,40.082466,3.3326411,24.481968,4.447569
144,43.4563102722168,14.885382652282715,75.93595123291016,3.179660549748933,4.801285423586997,19.25768955659055,-22.151909,-4.105501,8.980218,30.072832,-14.6553755,6.1064415,-21.531284,-12.290266,-1.162633,83.09563,-11.089789,6.309421,1.6917264,-5.1733346,9.052612,2.9329643,24.010159,-23.607712,41.51627,1.1777273,2.290151,4.145631,0.28248143,-32.716152,46.72854,40.410847,3.5824156,24.458368,4.2658877
145,44.006927490234375,15.171143531799316,76.04717254638672,3.201213531881899,4.618949314044544,19.445411322243626,-21.098206,-4.396579,8.740842,29.403057,-14.911028,6.190837,-22.78921,-11.954586,-0.8579005,83.18562,-11.266831,6.4044394,1.477507,-5.1570816,9.111177,2.7930734,24.186657,-23.443157,41.06777,1.1832477,2.2816987,4.2026067,0.5068602,-32.599476,46.55521,40.722984,3.8710992,24.452677,4.0661716
146,44.553279876708984,15.45228385925293,76.14934539794922,3.24028379044969,4.395204382679593,19.616876451278078,-19.958261,-4.694696,8.51866,28.668215,-15.143356,6.2601147,-23.981745,-11.729188,-0.6335992,83.11033,-11.429527,6.4010487,1.27921,-5.1602407,9.202393,2.6788652,24.359245,-23.30352,40.637363,1.2683271,2.288412,4.2717795,0.74150753,-32.47258,46.30591,41.024582,4.2291093,24.46103,3.8102448
147,45.09912872314453,15.726905822753906,76.24263763427734,3.2930651306784116,4.146571349479552,19.78013216373882,-18.760021,-4.9975653,8.304773,27.877989,-15.353711,6.3150225,-25.111643,-11.582983,-0.46906626,82.86471,-11.550422,6.357687,1.0892804,-5.1807437,9.313372,2.5825336,24.528856,-23.182411,40.232998,1.3693647,2.2994564,4.328107,0.98347133,-32.336746,45.992744,41.306244,4.5945954,24.480478,3.528916
148,45.647483825683594,16.004440307617188,76.3332290649414,3.3553321211221685,3.8897531022366048,19.94328135907719,-17.52981,-5.30321,8.090317,27.03883,-15.541441,6.3562546,-26.180527,-11.483413,-0.34534788,82.44316,-11.602296,6.332435,0.90100765,-5.2157164,9.432179,2.4958174,24.697386,-23.07474,39.86182,1.4217857,2.3037906,4.346522,1.225563,-32.19393,45.632336,41.558857,4.911813,24.508438,3.25349
149,46.19365692138672,16.27709197998047,76.4149398803711,3.426932269898928,3.623564961935227,20.103780371134015,-16.262014,-5.6110206,7.8776298,26.14164,-15.709134,6.385289,-27.189081,-11.439271,-0.27261528,81.84765,-11.573455,6.3524966,0.7162209,-5.2660513,9.560034,2.420177,24.865978,-22.978197,39.521515,1.4151168,2.304929,4.3189287,1.4720509,-32.04476,45.21252,41.77675,5.1605463,24.549847,2.9872031
150,46.741519927978516,16.552001953125,76.49063110351562,3.508713229400612,3.3411531377925954,20.258620442791607,-14.945611,-5.9219494,7.6687565,25.184387,-15.855086,6.4039383,-28.134987,-11.459057,-0.25854167,81.07759,-11.48033,6.385146,0.53736776,-5.332156,9.70237,2.3601072,25.034836,-22.895031,39.206936,1.3815007,2.3066247,4.2589397,1.7246878,-31.889275,44.73119,41.963493,5.374627,24.604694,2.7148948
151,47.3029670715332,16.826812744140625,76.55670928955078,3.5984879815845643,3.050327360198552,20.41539012175572,-13.604238,-6.235849,7.4556847,24.194798,-15.976715,6.4129095,-29.016523,-11.511781,-0.27964735,80.12754,-11.338727,6.398836,0.3573714,-5.411905,9.852606,2.3132832,25.204538,-22.825369,38.921566,1.3204073,2.2984684,4.1738,1.9750253,-31.729895,44.217487,42.124596,5.57334,24.663073,2.440164
152,47.85829162597656,17.10690689086914,76.61418151855469,3.6941120547079302,2.7590421510817005,20.58175776309358,-12.2551155,-6.5525007,7.2297077,23.187857,-16.069427,6.4123416,-29.83042,-11.567097,-0.31226173,78.99123,-11.167167,6.362096,0.16718766,-5.5023565,10.004405,2.2794025,25.375782,-22.76699,38.666832,1.231276,2.2699087,4.0703955,2.2181046,-31.569265,43.698956,42.26088,5.772609,24.715487,2.1663396
153,48.42131042480469,17.384859085083008,76.66410827636719,3.8003208850080545,2.4600137178829717,20.754921456462775,-10.877618,-6.87687,6.9975247,22.14085,-16.118845,6.3957143,-30.5734,-11.621006,-0.348085,77.67087,-10.980303,6.247238,-0.033945274,-5.6093926,10.163152,2.2659087,25.548946,-22.711716,38.437817,1.106206,2.2086935,3.9385533,2.4496675,-31.409351,43.176388,42.36975,5.9597993,24.764967,1.9106016
154,48.979469299316406,17.656089782714844,76.70459747314453,3.9153512347457102,2.152371995816829,20.93236130612901,-9.468841,-7.206657,6.7595077,21.05016,-16.130352,6.367108,-31.245358,-11.685624,-0.40313026,76.16675,-10.768221,6.080471,-0.24360095,-5.7317023,10.329453,2.2742374,25.723883,-22.659586,38.23233,0.948994,2.1238904,3.7780473,2.6787658,-31.250563,42.634697,42.44612,6.128058,24.815273,1.6655985
155,49.54596710205078,17.926939010620117,76.74024963378906,4.0276477909418125,1.8536674728093463,21.121566871401342,-8.083132,-7.5286894,6.4998174,19.983143,-16.135914,6.3399177,-31.848997,-11.753855,-0.489975,74.4716,-10.509364,5.9098516,-0.46295387,-5.8561683,10.490523,2.2877815,25.901161,-22.626928,38.059883,0.7741545,2.0370321,3.6111178,2.899098,-31.094978,42.094536,42.502815,6.322353,24.856256,1.3985732
156,50.09899139404297,18.197795867919922,76.76419830322266,4.126139950258256,1.5817490729909038,21.330500784279412,-6.775403,-7.829554,6.204455,19.009123,-16.167898,6.3251905,-32.38826,-11.817956,-0.6198964,72.57812,-10.182131,5.785483,-0.69518375,-5.9695363,10.633658,2.2939043,26.080858,-22.627022,37.926918,0.5979793,1.9694169,3.460059,3.1113029,-30.943604,41.572132,42.54578,6.5813537,24.877527,1.0766948
157,50.656044006347656,18.463191986083984,76.7731704711914,4.206298876739148,1.3398939630232085,21.562720440693912,-5.5628757,-8.104415,5.865556,18.152283,-16.230665,6.3273077,-32.863754,-11.86178,-0.7872648,70.472496,-9.781467,5.733731,-0.944509,-6.0668516,10.7562065,2.288682,26.26265,-22.66056,37.836758,0.4007027,1.9244441,3.3246067,3.309574,-30.798025,41.06859,42.575615,6.9294243,24.878117,0.6811744
158,51.220123291015625,18.72837257385254,76.77352142333984,4.27496112004564,1.1193912676446212,21.81355570872511,-4.4170303,-8.359448,5.494159,17.378662,-16.310822,6.33702,-33.269714,-11.889447,-0.99150854,68.15884,-9.318468,5.7262716,-1.209033,-6.15581,10.864553,2.2798538,26.446035,-22.720354,37.784702,0.18221585,1.8915297,3.1950247,3.503895,-30.65859,40.570435,42.5826,7.3341455,24.861593,0.23328619
159,51.78325271606445,18.997501373291016,76.76618957519531,4.338648726076791,0.9190244262202446,22.078994157707857,-3.3182251,-8.598327,5.1030464,16.65695,-16.40722,6.345363,-33.598522,-11.927287,-1.2520299,65.65007,-8.791083,5.733701,-1.4800494,-6.242708,10.96012,2.267718,26.63139,-22.811617,37.768433,-0.012704536,1.8705592,3.0794716,3.6949446,-30.525484,40.088303,42.576477,7.7695155,24.823738,-0.23956513
160,52.34482955932617,19.26374053955078,76.74676513671875,4.403691171109846,0.737965411385142,22.354676758017668,-2.24845,-8.82577,4.7050133,15.957376,-16.519384,6.345301,-33.84284,-11.99969,-1.5896935,62.95773,-8.197681,5.7266607,-1.7505229,-6.3343005,11.043066,2.2554052,26.81931,-22.936441,37.78484,-0.13824752,1.8611476,2.9860592,3.8939078,-30.398043,39.62321,42.56118,8.195894,24.7614,-0.7096845
161,52.913272857666016,19.530183792114258,76.71807098388672,4.461655089015537,0.5783754349332972,22.64487138629066,-1.2230769,-9.032693,4.299584,15.306243,-16.661915,6.3390164,-33.993732,-12.137817,-2.070714,60.064686,-7.513014,5.6703634,-2.0254247,-6.4230666,11.112572,2.2429564,27.010658,-23.095747,37.83797,-0.18476458,1.8610609,2.9235795,4.101727,-30.275007,39.173706,42.533943,8.610467,24.667171,-1.1778747
162,53.48058319091797,19.794206619262695,76.67728424072266,4.512703901366771,0.44005556142967966,22.950092371329756,-0.2463722,-9.220255,3.8825593,14.709959,-16.831408,6.330313,-34.05267,-12.306738,-2.6710293,56.966682,-6.7463965,5.599068,-2.3067362,-6.508431,11.168839,2.2290778,27.205708,-23.288055,37.9273,-0.17626804,1.8709046,2.8854315,4.3148375,-30.155693,38.737534,42.493313,9.027695,24.54458,-1.6551576
163,54.05137634277344,20.048744201660156,76.62261199951172,4.575193839627643,0.3177375109171046,23.26091796255682,0.7194253,-9.410644,3.4598706,14.104533,-16.99749,6.315373,-34.026978,-12.437995,-3.2718983,53.682003,-5.9429564,5.5812826,-2.581812,-6.606596,11.214132,2.2149892,27.403694,-23.513325,38.042015,-0.11750585,1.8946003,2.8567367,4.529885,-30.04068,38.32118,42.448956,9.443564,24.408125,-2.1302743
164,54.62663650512695,20.31427764892578,76.56611633300781,4.667927724993166,0.20586189949683717,23.568180488248498,1.7129973,-9.624182,3.0355694,13.424136,-17.128485,6.290176,-33.928337,-12.477819,-3.7450404,50.227093,-5.141704,5.676249,-2.8422327,-6.7343082,11.248782,2.2061594,27.602804,-23.766956,38.170315,-0.01153477,1.9360646,2.8223794,4.7705173,-29.929775,37.910545,42.391537,9.828791,24.273602,-2.5924013
165,55.204837799072266,20.58024024963379,76.4991683959961,4.7934688186174315,0.10797885112554231,23.873854006542672,2.7432642,-9.863254,2.6072936,12.637846,-17.21226,6.251491,-33.74238,-12.464267,-4.115151,46.536007,-4.331397,5.862024,-3.0884979,-6.8914742,11.272164,2.1963482,27.80201,-24.055489,38.312836,0.16548885,2.003582,2.7836847,5.0123215,-29.825392,37.52154,42.335667,10.219895,24.137573,-3.069875
166,55.78948211669922,20.845434188842773,76.42057800292969,4.943298884252654,0.02387954857228141,24.18402987139556,3.795526,-10.11695,2.169579,11.7772665,-17.26401,6.2033195,-33.45872,-12.419156,-4.425761,42.59562,-3.483608,6.1127243,-3.330416,-7.0701766,11.283235,2.18794,28.001026,-24.375639,38.47507,0.40730757,2.0924602,2.7464514,5.2794433,-29.726505,37.135246,42.259712,10.593157,23.995255,-3.5579164
167,56.37412643432617,21.106781005859375,76.32406616210938,5.1203829685093725,-0.05947917788699568,24.496886532867027,4.8729353,-10.390893,1.7205688,10.874373,-17.290934,6.1517363,-33.09619,-12.292763,-4.5646615,38.497276,-2.6126552,6.4641333,-3.5578508,-7.275921,11.289783,2.180735,28.200445,-24.725521,38.657005,0.6641733,2.187075,2.703514,5.5494146,-29.634153,36.77241,42.18939,10.940738,23.857878,-3.9965804
168,56.972694396972656,21.375864028930664,76.2228775024414,5.32954629766373,-0.1558064717677542,24.812591022688192,5.9854774,-10.689452,1.2550724,9.949982,-17.296608,6.1020336,-32.669273,-12.057535,-4.4139314,34.328796,-1.7335285,6.939276,-3.7730923,-7.516576,11.29575,2.1875296,28.400751,-25.09166,38.85423,0.8877126,2.2716835,2.6469955,5.8738523,-29.543787,36.400646,42.09335,11.187088,23.739925,-4.3265014
169,57.58804702758789,21.645463943481445,76.10442352294922,5.592521577521321,-0.2899578013385665,25.13000181737653,7.1950607,-11.039871,0.7610973,8.942654,-17.251604,6.0536695,-32.140125,-11.707442,-3.844143,30.007359,-0.86064434,7.5443625,-3.9679837,-7.817776,11.319035,2.2068062,28.605516,-25.48538,39.0738,1.0500367,2.3385987,2.5764492,6.2249856,-29.45645,36.04093,41.99638,11.344197,23.644882,-4.521193
170,58.21035385131836,21.91480827331543,75.96099853515625,5.910961410594653,-0.45920838498113997,25.463066068885873,8.511453,-11.439678,0.22212332,7.8228765,-17.143034,6.0049872,-31.47043,-11.350187,-2.9387536,25.467848,0.030386167,8.220962,-4.1605663,-8.180859,11.358887,2.2411697,28.816416,-25.90411,39.30971,1.1820043,2.3976028,2.4946933,6.611809,-29.37129,35.684605,41.88536,11.422185,23.567759,-4.6167927
171,58.83512496948242,22.179773330688477,75.80089569091797,6.2629592663977105,-0.63933868367252,25.83668895773804,9.475306,-11.860045,-0.29362452,7.474361,-17.42713,5.9580426,-30.678162,-11.113922,-1.9074945,20.829792,0.98558193,8.913397,-4.379169,-8.581053,11.399861,2.2863579,29.032154,-26.334244,39.54927,1.3200942,2.4593024,2.4004657,7.0320277,-29.286129,35.3315,41.760612,11.440258,23.507248,-4.6481204
172,59.47378158569336,22.451908111572266,75.62732696533203,6.631980503963754,-0.8084050020414241,26.274762045038678,10.286098,-12.287862,-0.84461313,7.4105167,-17.837145,5.924195,-29.792095,-11.082876,-0.966831,16.220419,2.053935,9.604959,-4.644472,-8.998085,11.430954,2.3306584,29.250397,-26.767088,39.783054,1.5018984,2.5341525,2.2929838,7.4200687,-29.202759,35.02764,41.67233,11.472532,23.460604,-4.6503034
173,60.11233901977539,22.723533630371094,75.44425964355469,7.0404622334865286,-0.9656046762867108,26.79764505067898,11.069625,-12.754801,-1.4788572,7.3578424,-18.225294,5.912197,-28.735334,-11.263462,-0.079495445,11.403599,3.4125724,10.446879,-4.98626,-9.4555435,11.44887,2.3764715,29.471207,-27.19539,40.007343,1.7596008,2.6299534,2.171997,7.81294,-29.116709,34.748898,41.58772,11.4715,23.433168,-4.6177106
174,60.751319885253906,22.992637634277344,75.24922180175781,7.509804098593158,-1.1464651218915614,27.41001195396243,11.873686,-13.281008,-2.213267,7.3092847,-18.59231,5.921166,-27.55732,-11.648363,0.82587224,6.515132,4.9150553,11.421598,-5.40287,-9.979491,11.477129,2.424014,29.6979,-27.6297,40.22956,2.066406,2.739283,2.0371983,8.185322,-29.030006,34.514515,41.530937,11.457259,23.423714,-4.537493
175,61.3873176574707,23.261493682861328,75.05146026611328,7.974979442800786,-1.3381186469842672,28.063399943119506,12.682786,-13.783966,-2.9948921,7.276049,-18.946905,5.9390044,-28.483051,-12.06466,1.9896414,6.2957582,4.00854,12.249906,-5.8494844,-10.500274,11.50363,2.489324,29.926636,-28.056307,40.44512,2.3745663,2.848865,1.8873069,8.573165,-28.94075,34.301495,41.47991,11.431906,23.423372,-4.433035
176,62.027740478515625,23.52800750732422,74.86189270019531,8.362120617502962,-1.5050006190104759,28.689545639200844,13.460704,-14.176541,-3.743948,7.2610874,-19.295431,5.953667,-29.276384,-12.4367285,2.773464,6.1671233,3.082138,12.708316,-6.2517633,-10.931159,11.505181,2.5715904,30.14856,-28.473333,40.66061,2.6351838,2.945461,1.7231488,8.939091,-28.85182,34.132603,41.47237,11.456088,23.421362,-4.327709
177,62.66476058959961,23.79494857788086,74.68794250488281,8.635219808790975,-1.617580396302545,29.25244033194227,14.175167,-14.423551,-4.4103885,7.271052,-19.657204,5.963643,-29.952665,-12.738604,3.0248246,6.1068525,2.015909,12.526577,-6.636114,-11.204997,11.44137,2.6765187,30.265327,-28.815418,40.94353,2.8754773,3.013308,1.5367626,9.255879,-28.805628,34.06757,41.51716,11.560395,23.422165,-4.235454
178,63.306461334228516,24.069683074951172,74.52771759033203,8.826881958409766,-1.6574268142105852,29.764188023441662,14.80612,-14.56923,-5.0034275,7.2976265,-20.020851,5.9707613,-30.543125,-12.9857025,2.8995597,6.063426,0.9021501,11.92556,-6.889141,-11.390195,11.329025,2.734952,30.414936,-29.25511,41.243923,3.0331728,3.0725896,1.3384354,9.632106,-28.74232,33.964027,41.557068,11.689599,23.424725,-4.1346455
179,63.953125,24.343351364135742,74.37271118164062,8.957732591980397,-1.6562428553448392,30.240708512458287,15.384426,-14.633569,-5.544163,7.343225,-20.36741,5.9722843,-31.02443,-13.170172,2.6265218,6.112626,-0.045746963,11.39077,-7.108691,-11.490759,11.191237,2.817553,30.531404,-29.64111,41.543167,3.1961641,3.1297266,1.1374626,9.957306,-28.689644,33.914265,41.65096,11.831443,23.426558,-4.015724
180,64.5927734375,24.630203247070312,74.21661376953125,9.084400475893679,-1.663836695365918,30.72884234633649,15.959477,-14.677806,-6.0947022,7.397552,-20.659882,5.973212,-31.275219,-13.35162,2.408036,6.1496706,-0.50389034,11.401292,-7.2654033,-11.5975,11.0758915,2.8995545,30.705492,-30.063213,41.797783,3.3308487,3.2052877,0.9562353,10.367477,-28.592949,33.77926,41.721836,11.865936,23.420815,-3.8655517
181,65.23345947265625,24.919994354248047,74.06011199951172,9.221346588065016,-1.713622889139065,31.24908868729719,16.571653,-14.718963,-6.6769586,7.4633317,-20.908842,5.972921,-31.165512,-13.573285,2.2035794,6.12214,-0.31769732,12.333627,-7.516056,-11.689184,10.985513,3.0585256,30.798021,-30.329508,42.046227,3.5474257,3.290849,0.78257763,10.696786,-28.536913,33.750946,41.850697,11.845733,23.406925,-3.6712394
182,65.87504577636719,25.21416473388672,73.91053009033203,9.334640183205842,-1.7628232842033078,31.768068008584727,17.176525,-14.726746,-7.2452297,7.5434,-21.126167,5.965432,-30.802399,-13.795613,1.9398013,6.095124,0.33700222,13.828253,-7.740121,-11.740644,10.902439,3.219109,30.867243,-30.579168,42.302174,3.7747793,3.3843014,0.61712354,11.017519,-28.491926,33.740475,42.009163,11.785768,23.385925,-3.439804
183,66.51683044433594,25.501588821411133,73.78372192382812,9.3523520297297,-1.731317715061907,32.21228217472357,17.681194,-14.617654,-7.710107,7.648328,-21.303982,5.92931,-30.4165,-13.841683,1.740801,6.125711,1.2858814,15.000033,-7.8442864,-11.681162,10.785429,3.363117,30.93009,-30.823935,42.55401,3.9814088,3.4876957,0.47876817,11.329106,-28.43911,33.7243,42.194798,11.734902,23.364368,-3.2070835
184,67.12285614013672,25.755104064941406,73.7093276977539,9.224433049017813,-1.5851000891729614,32.55328545569283,18.03982,-14.33455,-8.038015,7.780562,-21.42147,5.8522143,-30.139355,-13.600327,1.6756217,6.1638174,2.3798633,15.000033,-7.8612604,-11.462252,10.604181,3.5511081,30.964933,-30.96279,42.77748,4.187102,3.5977955,0.3796738,11.734415,-28.379599,33.63669,42.29781,11.621731,23.360046,-3.0085742
185,67.72434997558594,26.027477264404297,73.65776824951172,9.00944181001884,-1.2694760891215457,32.8631965833385,17.661041,-14.036693,-8.173466,9.008175,-22.017689,5.7673607,-30.035147,-13.276768,1.9397237,6.1808553,3.6822004,15.000033,-7.7705536,-11.114144,10.333961,3.6777394,30.973833,-31.088554,42.99693,4.3943195,3.7291622,0.32284865,11.882338,-28.314684,33.67116,42.614044,11.762033,23.360584,-2.8557823
186,68.32710266113281,26.326337814331055,73.6134262084961,8.735608013086456,-0.838191011103821,33.15815073009079,16.902721,-13.709798,-8.221043,10.736795,-22.79304,5.6721764,-30.02285,-12.886431,2.4612877,6.240132,5.217819,15.000033,-7.683338,-10.678422,9.96955,3.8436925,30.941807,-31.109406,43.198246,4.6200914,3.8766098,0.298656,12.074485,-28.238855,33.677086,42.8997,11.860531,23.371033,-2.7349653
187,68.94825744628906,26.609451293945312,73.58478546142578,8.336595068291652,-0.3704805601427182,33.4047973129957,16.000074,-13.23451,-8.190782,12.7031145,-23.61823,5.529805,-30.022228,-12.279304,2.8966644,6.321278,6.8354206,14.1078205,-7.544623,-10.117553,9.579953,4.0122476,30.85186,-31.077015,43.44611,4.821599,4.0151453,0.3162192,12.315838,-28.123392,33.639874,43.185307,11.898177,23.395123,-2.6260536
188,69.57076263427734,26.876708984375,73.57258605957031,7.934451941269372,0.07716774096937297,33.69895034681758,15.12679,-12.745609,-8.225199,14.663239,-24.316282,5.3719444,-30.173162,-11.713653,3.1780763,6.744413,8.186421,13.255981,-7.411331,-9.549003,9.194207,4.1573496,30.71955,-31.052883,43.745815,4.9420652,4.1231923,0.3839178,12.399042,-28.002878,33.707752,43.631992,12.072091,23.434092,-2.5062969
189,70.19489288330078,27.142911911010742,73.57069396972656,7.538461872358552,0.5265871482962838,34.05764068590037,14.263122,-12.252504,-8.3462305,16.601467,-24.885057,5.191873,-31.395554,-11.149484,3.4530027,9.342071,8.34793,12.530901,-7.3310037,-8.984062,8.780494,4.325531,30.56724,-31.005766,44.063465,4.968177,4.1961093,0.51371247,12.581067,-27.87886,33.705677,44.012833,12.166099,23.505842,-2.3698518
190,70.84452819824219,27.41505241394043,73.56474304199219,7.12351292954379,0.9975433833087011,34.45598404706436,13.371772,-11.728426,-8.523214,18.551193,-25.357548,4.988401,-32.402615,-10.622357,3.538689,11.437646,8.796856,11.793378,-7.2651935,-8.39289,8.340405,4.5052824,30.398083,-30.937922,44.390156,4.9220395,4.246343,0.69754314,12.796558,-27.747084,33.67221,44.38132,12.239656,23.602537,-2.2267413
191,71.51427459716797,27.704566955566406,73.554931640625,6.695107058439084,1.4333521944203842,34.868933932090705,12.508378,-11.183419,-8.723443,20.536915,-25.716381,4.7754855,-33.28186,-10.129089,3.473955,13.391944,9.18421,11.040611,-7.1956143,-7.787654,7.921985,4.7160535,30.214064,-30.835505,44.712208,4.8080916,4.2771807,0.9059312,13.005195,-27.611296,33.64651,44.783913,12.328337,23.703411,-2.0756807
192,72.19441223144531,27.997758865356445,73.54661560058594,6.259366465988001,1.7736357833201246,35.275034168257626,11.741833,-10.628718,-8.917364,22.563606,-25.940474,4.566541,-34.05345,-9.673359,3.2871516,15.440972,9.224008,10.265182,-7.1140404,-7.181088,7.5732713,4.987368,30.015774,-30.675102,45.009903,4.6343975,4.2916985,1.1086415,13.214137,-27.476316,33.63754,45.22279,12.432018,23.789383,-1.9144648
193,72.87751770019531,28.290584564208984,73.5448989868164,5.804339767373448,1.992419420358163,35.67577571780275,11.141962,-10.054589,-9.130212,24.574564,-26.047375,4.3249617,-34.747643,-9.258233,2.9734607,17.74173,8.778622,9.412405,-7.025159,-6.567214,7.3090954,5.3336244,29.804417,-30.446205,45.274982,4.3825235,4.28445,1.3103483,13.440355,-27.346527,33.640003,45.69294,12.574435,23.850395,-1.7539495
194,73.57313537597656,28.593994140625,73.5469970703125,5.335404532534627,2.1224741743010824,36.080488619529746,10.662878,-9.465486,-9.364943,26.574678,-26.036047,4.056386,-35.35722,-8.903315,2.5478404,20.177225,7.9874105,8.489784,-6.9342494,-5.9471974,7.1059756,5.7414026,29.58078,-30.158104,45.512123,4.0553985,4.254967,1.5219704,13.678932,-27.222366,33.651726,46.18595,12.747855,23.898933,-1.5911345
195,74.28630828857422,28.914749145507812,73.55508422851562,4.8790103937888984,2.193313505552474,36.47971269222697,10.201224,-8.8900585,-9.557212,28.65859,-25.855145,3.8317816,-35.838696,-8.622882,2.0649314,22.553047,6.992856,7.5902634,-6.832617,-5.342621,6.9507303,6.1928496,29.34426,-29.821602,45.727108,3.6925209,4.2147317,1.7232286,13.897717,-27.107182,33.683346,46.711624,12.905827,23.948818,-1.4040526
196,75.0049057006836,29.240846633911133,73.57059478759766,4.455770167777167,2.238694797838276,36.86131001165857,9.64852,-8.35097,-9.639123,30.92475,-25.448277,3.7164629,-36.15659,-8.403701,1.5680784,24.673538,5.9481215,6.814497,-6.7108455,-4.7670946,6.8262095,6.670604,29.092594,-29.446207,45.9262,3.3323328,4.1754694,1.8942847,14.07421,-27.004204,33.740543,47.269596,12.994205,24.01448,-1.1702145
197,75.7136459350586,29.56939697265625,73.59288024902344,4.065819320932119,2.255464611527719,37.21938054546805,9.017015,-7.863241,-9.590632,33.3881,-24.819468,3.7509232,-36.324677,-8.222674,1.0491364,26.573984,4.8067107,6.1792536,-6.563763,-4.217983,6.7334366,7.1886773,28.81858,-29.011694,46.102608,2.966139,4.1365266,2.0389538,14.2147665,-26.915041,33.82348,47.878716,13.026121,24.080769,-0.8983881
198,76.41217803955078,29.905155181884766,73.62361145019531,3.6930282105643517,2.23526357660142,37.55666943000949,8.34948,-7.408295,-9.437143,35.990353,-23.983452,3.8753152,-36.36861,-8.067305,0.4951859,28.343143,3.5148396,5.6416836,-6.397434,-3.6817596,6.6718884,7.7474403,28.518808,-28.517683,46.260376,2.5808246,4.092752,2.1655657,14.351829,-26.838654,33.91216,48.512894,12.999291,24.146814,-0.59533626
199,77.09857177734375,30.241849899291992,73.66764831542969,3.334511368947851,2.206347598737305,37.872516064313785,7.58984,-6.9556923,-9.183212,38.70313,-22.893494,3.9962876,-36.28864,-7.9257946,-0.067710474,29.894606,2.2123094,5.2138214,-6.200338,-3.1540844,6.6280384,8.296196,28.200453,-28.017828,46.42154,2.207897,4.050075,2.261565,14.392859,-26.782166,34.06421,49.192204,12.941837,24.24401,-0.23590317
200,77.78318786621094,30.59258460998535,73.723876953125,2.988281675267958,2.196521014524728,38.165898714203976,6.6767845,-6.4760456,-8.841852,41.512592,-21.511242,4.0247383,-36.084755,-7.7887955,-0.6161481,31.139572,1.040193,4.9060125,-5.984732,-2.6354072,6.5778203,8.814551,27.875116,-27.541245,46.597656,1.8792026,4.014977,2.3131316,14.423289,-26.74287,34.200165,49.79405,12.71003,24.407866,0.20766719
201,78.45884704589844,30.940393447875977,73.79159545898438,2.6679076048801247,2.2152946527984865,38.418876043214475,5.553528,-5.978461,-8.367691,44.49594,-19.74345,4.0001626,-35.751617,-7.656015,-1.1350567,32.032,0.024406647,4.763101,-5.728534,-2.1394176,6.520047,9.309431,27.548916,-27.081408,46.777813,1.5770682,3.993441,2.3214326,14.405804,-26.720562,34.34173,50.349804,12.293812,24.653639,0.762425
202,79.12747955322266,31.2808780670166,73.87208557128906,2.373195424129319,2.248486239221686,38.63607672201316,4.2656026,-5.4815884,-7.7792377,47.626846,-17.632412,3.9267635,-35.303883,-7.523359,-1.6446538,32.639217,-0.9121541,4.7616944,-5.4298034,-1.66748,6.4647784,9.791955,27.22316,-26.626808,46.950623,1.2914127,3.981741,2.2918358,14.301744,-26.718344,34.534027,50.913254,11.774678,24.955854,1.4108797
203,79.78773498535156,31.615007400512695,73.97053527832031,2.0831752722296337,2.2881905761018624,38.85026158709569,2.8971808,-4.9767447,-7.198575,50.76627,-15.363989,3.6798503,-34.76338,-7.3832746,-2.1710253,33.034374,-1.7801005,4.8096313,-5.121773,-1.2008816,6.4090815,10.241596,26.905039,-26.21071,47.12768,1.062253,3.9720259,2.2165089,14.184304,-26.734287,34.725185,51.402603,11.149785,25.289131,2.114486
204,80.42188262939453,31.944332122802734,74.08042907714844,1.7775190996133914,2.3262780131921117,39.09396219741236,1.5281007,-4.4581103,-6.7517333,53.79646,-13.137209,3.1551657,-34.15175,-7.232479,-2.7347918,33.293686,-2.5893848,4.818028,-4.8182364,-0.72105956,6.3564415,10.622705,26.606804,-25.886917,47.323753,0.92675054,3.9565883,2.0880535,14.041683,-26.773064,34.927654,51.80493,10.506961,25.6271,2.8334723
205,81.0536880493164,32.2706413269043,74.19441223144531,1.438759865005104,2.362509899392638,39.36814249652041,0.15822299,-3.924851,-6.5194125,56.759872,-10.930296,2.2117414,-33.440826,-7.0617623,-3.3487701,33.37567,-3.3242087,4.7767854,-4.51399,-0.2092826,6.310414,10.93258,26.337137,-25.665163,47.542465,0.8965947,3.9413292,1.8742319,13.882394,-26.834974,35.12947,52.093407,9.796612,26.007538,3.6056247
206,81.6818618774414,32.60011291503906,74.31768798828125,1.088589444531534,2.4007577212588065,39.656489908512775,-1.252543,-3.4169285,-6.4422364,59.722965,-8.684918,0.94362503,-32.632362,-6.8806834,-3.9905224,33.26334,-3.986674,4.7281747,-4.1976447,0.31108555,6.2693806,11.192792,26.098122,-25.522295,47.767597,0.94853914,3.9280066,1.5879871,13.7036085,-26.91951,35.331276,52.284714,9.001648,26.425926,4.4402966
207,82.304443359375,32.932769775390625,74.45008850097656,0.7498152935711109,2.438958445839586,39.96863986823655,-2.7022448,-2.9479337,-6.4241557,62.63661,-6.5552855,-0.36822706,-31.787159,-6.70722,-4.6377773,33.066303,-4.6091924,4.667179,-3.8849738,0.81432533,6.231201,11.4097,25.891436,-25.4557,47.981846,1.0654011,3.9022622,1.2885945,13.5030365,-27.029364,35.545254,52.40333,8.237081,26.799416,5.2504454
208,82.93110656738281,33.26472091674805,74.5851058959961,0.44043013111830304,2.475331176711195,40.31520972762257,-4.196737,-2.4871945,-6.3498383,65.44797,-4.673869,-1.4119664,-30.959013,-6.557784,-5.272812,32.88614,-5.2207637,4.5917516,-3.5905876,1.2800828,6.1953278,11.587842,25.717787,-25.46346,48.167923,1.2308571,3.8500404,1.0356227,13.268576,-27.170725,35.79208,52.480946,7.6353393,27.050013,5.943042
209,83.54438781738281,33.59202575683594,74.72015380859375,0.1539238025686626,2.5042454324310657,40.711084991451514,-5.778456,-1.9850279,-6.2159433,68.22904,-2.8831432,-2.0727277,-30.146452,-6.435922,-5.9028225,32.748447,-5.8303776,4.4940534,-3.3275836,1.717582,6.1666145,11.718239,25.582043,-25.565445,48.324696,1.4585819,3.7657862,0.83276397,13.00826,-27.346836,36.077938,52.499763,7.2302203,27.161081,6.5145817
210,84.14197540283203,33.914955139160156,74.85466003417969,-0.1217446961415738,2.529484544417291,41.1466939547505,-7.445908,-1.4131114,-6.056963,70.99049,-1.1576926,-2.4638574,-29.316673,-6.3331256,-6.535156,32.59298,-6.4204736,4.385432,-3.084524,2.139146,6.1458735,11.804382,25.485466,-25.755156,48.456455,1.7509209,3.6574364,0.6519699,12.72258,-27.558603,36.392982,52.44868,6.9607306,27.178526,7.002864
211,84.719482421875,34.23311233520508,74.98545837402344,-0.3843771933601933,2.562819575328229,41.593442053080025,-9.147153,-0.73805106,-5.8027616,73.59514,0.167746,-2.605353,-28.482922,-6.2403927,-7.156061,32.39669,-6.9785213,4.2900753,-2.8414745,2.5387843,6.1266418,11.868353,25.41942,-25.989693,48.556652,2.0726757,3.531343,0.5050603,12.40448,-27.80621,36.72413,52.351654,6.803804,27.121832,7.376059
212,85.2841796875,34.55271530151367,75.11548614501953,-0.6290011553821274,2.615134692211797,42.02732279392214,-10.815049,0.059202548,-5.395651,75.89113,0.7556196,-2.5467176,-27.651848,-6.149028,-7.7574415,32.129654,-7.4927692,4.227424,-2.585675,2.9092748,6.1013737,11.93144,25.369379,-26.224222,48.623337,2.3913589,3.393818,0.40470403,12.044933,-28.090168,37.06034,52.236435,6.73468,27.009966,7.6025634
213,85.83577728271484,34.869937896728516,75.24771118164062,-0.8662317084063514,2.697670035510634,42.44864844067904,-12.436075,1.0889862,-4.761164,77.85681,0.25685158,-2.2138581,-26.83503,-6.043889,-8.351957,31.77663,-7.9526715,4.195602,-2.316459,3.2642481,6.0588946,11.979423,25.32745,-26.474625,48.66549,2.7303216,3.2347806,0.36053446,11.627049,-28.415335,37.434906,52.107994,6.7664747,26.819914,7.68154
214,86.36709594726562,35.18557357788086,75.37712097167969,-1.0969781944946229,2.7993828462806185,42.86657480047818,-14.029397,2.3167853,-3.9663255,79.567215,-1.0737163,-1.6318702,-26.021921,-5.9276,-8.94092,31.35128,-8.364891,4.1843095,-2.0421042,3.6078517,6.007179,12.002327,25.291615,-26.753368,48.691353,3.0997744,3.0547016,0.365691,11.16195,-28.783306,37.84134,51.94861,6.9011235,26.552565,7.6278663
215,86.8967514038086,35.50873947143555,75.51277160644531,-1.3001006168184355,2.8972150124705256,43.26983122241783,-15.580759,3.520261,-3.1568398,81.018196,-2.667048,-1.021019,-25.190577,-5.818262,-9.499335,30.867792,-8.741848,4.196321,-1.7589625,3.9171166,5.9673915,12.022447,25.255602,-27.01558,48.700962,3.4458122,2.875783,0.4076876,10.662984,-29.187859,38.229416,51.769073,7.11905,26.260096,7.4341617
216,87.42118835449219,35.84049606323242,75.65160369873047,-1.4568664057106528,2.969460895429201,43.64898309696443,-17.08925,4.490238,-2.4560862,82.203094,-3.942481,-0.5723773,-24.318865,-5.733037,-10.006205,30.339504,-9.095543,4.2329507,-1.467736,4.170371,5.95788,12.0628195,25.211775,-27.213913,48.697784,3.7155547,2.7199414,0.4739651,10.1556015,-29.618502,38.5334,51.57808,7.3816743,25.99469,7.0912976
217,87.93804931640625,36.17862319946289,75.79299926757812,-1.559070309017621,3.019411459728279,44.000427894483714,-18.580751,5.192402,-1.8555913,83.1138,-4.795079,-0.33063015,-23.414484,-5.6807456,-10.454574,29.769903,-9.425637,4.295757,-1.1654513,4.356305,5.9749255,12.125661,25.155281,-27.343374,48.681576,3.9027832,2.5901482,0.5839816,9.633781,-30.0703,38.750362,51.393486,7.6953483,25.732927,6.5822277
218,88.45175170898438,36.52307891845703,75.93783569335938,-1.61747349316206,3.0545971301747827,44.33022681350718,-20.05099,5.72623,-1.2829797,83.75344,-5.5112495,-0.19744523,-22.48614,-5.651909,-10.858232,29.155777,-9.728929,4.379144,-0.85115695,4.4880185,6.011089,12.193065,25.08621,-27.430656,48.660767,4.034161,2.4755354,0.73771805,9.066006,-30.544874,38.929096,51.23093,8.090086,25.455378,5.917423
219,88.9579086303711,36.869239807128906,76.08649444580078,-1.6447618153411965,3.061280431892302,44.643371668312795,-21.467024,6.097089,-0.75765264,84.13867,-6.085754,-0.12967391,-21.511162,-5.6340394,-11.230137,28.49311,-10.010207,4.4741488,-0.54560953,4.581356,6.071833,12.276669,25.002996,-27.459171,48.647465,4.1081324,2.376788,0.8918935,8.587637,-31.030228,38.941685,50.984924,8.4111185,25.223236,5.1264596
220,89.45819854736328,37.219482421875,76.24321746826172,-1.6535817580984475,3.0260413138552624,44.9448791050999,-22.796412,6.3100004,-0.3023137,84.28521,-6.515267,-0.08367172,-20.46659,-5.6151795,-11.582569,27.775997,-10.272858,4.5751543,-0.21768227,4.6585846,6.1791506,12.335548,24.911297,-27.466509,48.664566,4.1141205,2.2944992,1.005726,7.962525,-31.532616,39.009907,50.829792,8.903166,25.089766,4.2391458
221,89.96477508544922,37.58303451538086,76.40499114990234,-1.627830920220247,2.944087025606924,45.22854591740918,-24.043491,6.3102074,0.06990737,84.18293,-6.7342825,-0.053698074,-19.35677,-5.613772,-11.900218,27.020817,-10.524085,4.69233,0.0982116,4.697042,6.3264017,12.411029,24.806902,-27.405607,48.708344,4.0308547,2.2307355,1.0680039,7.4299827,-32.03503,38.89578,50.592487,9.309347,25.080832,3.2167654
222,90.46687316894531,37.94721984863281,76.56099700927734,-1.5685512327816673,2.8226642403002717,45.49426105569254,-25.225386,6.117803,0.37592325,83.82645,-6.7653575,-0.06110139,-18.190203,-5.6296144,-12.183972,26.225521,-10.760167,4.8261633,0.41904235,4.6965017,6.5080733,12.487819,24.690994,-27.298494,48.779175,3.8655112,2.1846802,1.1017094,6.944846,-32.536766,38.641914,50.31637,9.690163,25.158844,2.0561604
223,90.97301483154297,38.31172180175781,76.71297454833984,-1.5148499057498912,2.6663605669728483,45.756562367569536,-26.327085,5.849186,0.63423485,83.24077,-6.7374263,-0.102253266,-16.949049,-5.621336,-12.468439,25.352297,-10.96626,4.9599514,0.7392714,4.6992025,6.721486,12.559606,24.567858,-27.159422,48.866024,3.671918,2.1518261,1.1104883,6.4330616,-33.04065,38.34258,50.051674,10.11234,25.2989,0.8334712
224,91.46754455566406,38.68253707885742,76.85665130615234,-1.5043894177439912,2.4802840478272365,46.03052489285447,-27.332548,5.6162057,0.86417055,82.45391,-6.776387,-0.17251745,-15.614788,-5.5472646,-12.785537,24.360327,-11.124419,5.0787907,1.0388635,4.7437882,6.959123,12.636492,24.441837,-26.987438,48.951935,3.5065026,2.1280766,1.0970043,5.909169,-33.545265,38.00964,49.781437,10.547591,25.479897,-0.37515002
225,91.95881652832031,39.049747467041016,76.99065399169922,-1.5442190254759975,2.2662697410303023,46.317683867232006,-28.239532,5.418643,1.0603516,81.4518,-6.9295483,-0.27402827,-14.181375,-5.3974714,-13.133375,23.232073,-11.230368,5.184818,1.3120732,4.835761,7.2195225,12.729745,24.31293,-26.761978,49.025055,3.3830037,2.1234121,1.0497226,5.4095407,-34.045727,37.597305,49.47952,10.985429,25.72933,-1.6178232
226,92.45552825927734,39.43547439575195,77.1143569946289,-1.6139630375773923,2.021987985908883,46.611093105020046,-29.053106,5.208362,1.2164925,80.22534,-7.1249876,-0.40277618,-12.656184,-5.1926003,-13.493581,21.982864,-11.286946,5.2903514,1.5678018,4.9538503,7.505487,12.835822,24.18137,-26.487305,49.09273,3.2720664,2.136691,0.9707029,4.9233975,-34.54048,37.107773,49.15885,11.437497,26.046412,-2.9162822
227,92.96235656738281,39.823184967041016,77.22923278808594,-1.7105334622659654,1.7461824816716718,46.91363694612522,-29.768238,5.019938,1.352066,78.810196,-7.311769,-0.5462762,-11.038584,-4.935127,-13.871473,20.61392,-11.292778,5.3959665,1.8021773,5.093412,7.812661,12.9466095,24.052876,-26.19733,49.167408,3.1635046,2.1472578,0.88297653,4.4460983,-35.03183,36.5756,48.82264,11.852456,26.371904,-4.1513047
228,93.46519470214844,40.214683532714844,77.33059692382812,-1.8303825646346938,1.4378537398373188,47.22789881706468,-30.382015,4.8855,1.4887124,77.24647,-7.4372773,-0.69374204,-9.327731,-4.6268086,-14.272847,19.127142,-11.246659,5.500008,2.0109248,5.250038,8.137741,13.056537,23.936007,-25.924866,49.256668,3.045958,2.1345158,0.80882084,3.9815626,-35.522076,36.029747,48.46236,12.16968,26.650953,-5.2004437
229,93.96578216552734,40.612022399902344,77.4156723022461,-1.9733610864201483,1.0881327712376938,47.55327799805652,-30.877396,4.798773,1.6240407,75.51597,-7.5113277,-0.8614048,-7.5051675,-4.263686,-14.697714,17.506477,-11.144701,5.5984573,2.1929264,5.4199915,8.490444,13.172614,23.835264,-25.663294,49.35717,2.9102015,2.0918846,0.7532514,3.5377762,-36.01105,35.44709,48.065784,12.317082,26.89339,-6.0016646
230,94.46675109863281,41.01844024658203,77.48284912109375,-2.1363867884270205,0.7015593052270457,47.889223589506,-31.258585,4.7407303,1.7553904,73.60426,-7.5532146,-1.0475376,-5.573514,-3.8468494,-15.136668,15.746022,-10.983181,5.6969123,2.3532076,5.6006637,8.870364,13.297544,23.752037,-25.40166,49.458958,2.7623236,2.0310588,0.70347744,3.1025927,-36.49845,34.829067,47.644955,12.352312,27.126072,-6.6274214
231,94.97958374023438,41.43032455444336,77.53233337402344,-2.310598982021929,0.29749102157049323,48.237880391919475,-31.55314,4.719444,1.9057313,71.55181,-7.5242896,-1.2189164,-3.5622656,-3.3866775,-15.581619,13.85602,-10.757763,5.8062963,2.4914658,5.784537,9.2561455,13.426353,23.690243,-25.15857,49.55923,2.6167397,1.9588734,0.6550234,2.6789198,-36.986473,34.21607,47.20739,12.377164,27.319553,-7.1553884
232,95.4847183227539,41.83683395385742,77.55912780761719,-2.485806896274706,-0.10435831817206673,48.60040090260774,-31.788748,4.740075,2.0998998,69.39708,-7.3851466,-1.3446404,-1.5057687,-2.8969333,-16.024862,11.857474,-10.467261,5.936886,2.6088321,5.962627,9.626899,13.553427,23.655386,-24.953608,49.654533,2.487291,1.8822432,0.60329455,2.2578042,-37.479435,33.658466,46.767685,12.503184,27.441698,-7.663919
233,95.99646759033203,42.256858825683594,77.56524658203125,-2.6562689624959,-0.5159271268427545,48.98838862612583,-31.95283,4.7803283,2.3315933,67.13566,-7.102825,-1.4241065,0.66531146,-2.3689308,-16.482166,9.641079,-10.064216,6.10412,2.69369,6.1281853,9.990387,13.684967,23.65299,-24.782991,49.73749,2.3691208,1.7974643,0.5335866,1.8441772,-37.977837,33.15873,46.322,12.7523,27.475248,-8.152889
234,96.50281524658203,42.6854362487793,77.5457534790039,-2.817484542098368,-0.9370953313825972,49.39259872695433,-32.03579,4.8320174,2.6084576,64.743835,-6.7031283,-1.4739293,2.9423327,-1.8069023,-16.942785,7.2220826,-9.554151,6.302566,2.7532802,6.272769,10.349879,13.826355,23.684994,-24.636879,49.806244,2.256213,1.7030838,0.45177165,1.4399968,-38.481117,32.694477,45.862698,13.065106,27.439476,-8.586169
235,97.01187133789062,43.11812973022461,77.50398254394531,-2.967465849966613,-1.3306810638020432,49.783644188994934,-32.073185,4.9254837,2.9693298,62.236023,-6.238674,-1.4946254,4.1675253,-1.5642495,-17.336584,7.0513735,-10.208438,6.5164604,2.8173327,6.396065,10.680562,13.97075,23.747952,-24.523735,49.86221,2.1644087,1.608819,0.38416404,1.0312428,-38.99068,32.28227,45.395477,13.438263,27.355764,-8.988441
236,97.51448822021484,43.5587158203125,77.44020080566406,-3.1153446716025033,-1.6640321125023132,50.13644208079183,-32.096447,5.0948663,3.4422796,59.626995,-5.7636867,-1.4904594,5.2996197,-1.3217374,-17.676655,6.9019284,-10.835189,6.705021,2.9091537,6.5104976,10.95938,14.109698,23.83396,-24.451214,49.9128,2.1100864,1.5239592,0.35820547,0.60115534,-39.510303,31.940886,44.93003,13.866239,27.245466,-9.384704
237,98.0061264038086,43.99097442626953,77.33940124511719,-3.2398029611298615,-1.9422849998111982,50.45539273470766,-32.12068,5.318479,4.041183,56.945244,-5.2868505,-1.4760151,6.333853,-1.0988494,-17.960554,6.797211,-11.444463,6.8487425,3.024499,6.5990844,11.191401,14.231328,23.93973,-24.441658,49.971413,2.1117637,1.4406238,0.39193162,0.14449956,-40.04305,31.680904,44.47006,14.368935,27.102602,-9.769913
238,98.50074005126953,44.43081283569336,77.22093963623047,-3.4052804207460357,-2.187736632103331,50.763815125370364,-32.11873,5.6151204,4.697475,54.171555,-4.7823644,-1.464406,7.275679,-0.83918643,-18.222174,6.8031116,-12.087202,6.9590745,3.1398277,6.7275643,11.39136,14.336825,24.062569,-24.487587,50.038193,2.1557329,1.3571342,0.46899235,-0.3337778,-40.59116,31.49368,44.01255,14.941062,26.918722,-10.13248
239,98.98194885253906,44.875579833984375,77.09471893310547,-3.5926193849957713,-2.386253480937752,51.040650555069746,-32.07758,5.9700847,5.45087,51.283077,-4.267558,-1.4393995,8.1542425,-0.5564597,-18.446455,6.8098426,-12.7034445,7.056025,3.2709992,6.876477,11.550778,14.439873,24.193478,-24.545063,50.09915,2.2153296,1.2914661,0.5639222,-0.8227335,-41.15317,31.363998,43.541393,15.540612,26.712635,-10.489993
240,99.4473648071289,45.328330993652344,76.96046447753906,-3.8033629015900488,-2.531893379832908,51.272963779348274,-32.002453,6.383776,6.312112,48.3037,-3.7782571,-1.3942891,8.963101,-0.2546199,-18.630478,6.8125243,-13.292583,7.1566663,3.424207,7.048611,11.667767,14.551265,24.318426,-24.571173,50.145206,2.263402,1.261488,0.65249556,-1.3206255,-41.727654,31.28185,43.051353,16.126137,26.502148,-10.860601
241,99.90058898925781,45.78298568725586,76.81523895263672,-4.039094504457081,-2.619043610669829,51.45700892508306,-31.899069,6.85571,7.3051353,45.21567,-3.327531,-1.2803746,9.691658,0.07002902,-18.770945,6.814241,-13.853382,7.251461,3.5993652,7.2481146,11.7348385,14.665828,24.428606,-24.562151,50.18569,2.2955742,1.2810261,0.7291213,-1.8396608,-42.31573,31.264124,42.54922,16.728233,26.283188,-11.26111
242,100.3409652709961,46.254886627197266,76.66574096679688,-4.291378973633222,-2.654210380120742,51.59878722994642,-31.755756,7.3621607,8.429289,42.005287,-2.8933637,-1.130488,10.348319,0.4116293,-18.868519,6.8149467,-14.386442,7.331781,3.7912765,7.467729,11.755496,14.775637,24.522371,-24.536402,50.232243,2.3283455,1.3368311,0.80817604,-2.3847806,-42.918423,31.317863,42.03994,17.355171,26.048468,-11.677255
