unveil-humanoid-operators/unveil-humanoid-operators.github.io/feature-analysis-animation/data/feature_matrix_instances/weight_ankle_peak_vel_gesture_A408_eureka_R_001__A408.csv
Frame,root_translateX,root_translateY,root_translateZ,root_rotateX,root_rotateY,root_rotateZ,left_hip_pitch_joint_dof,left_hip_roll_joint_dof,left_hip_yaw_joint_dof,left_knee_joint_dof,left_ankle_pitch_joint_dof,left_ankle_roll_joint_dof,right_hip_pitch_joint_dof,right_hip_roll_joint_dof,right_hip_yaw_joint_dof,right_knee_joint_dof,right_ankle_pitch_joint_dof,right_ankle_roll_joint_dof,waist_yaw_joint_dof,waist_roll_joint_dof,waist_pitch_joint_dof,left_shoulder_pitch_joint_dof,left_shoulder_roll_joint_dof,left_shoulder_yaw_joint_dof,left_elbow_joint_dof,left_wrist_roll_joint_dof,left_wrist_pitch_joint_dof,left_wrist_yaw_joint_dof,right_shoulder_pitch_joint_dof,right_shoulder_roll_joint_dof,right_shoulder_yaw_joint_dof,right_elbow_joint_dof,right_wrist_roll_joint_dof,right_wrist_pitch_joint_dof,right_wrist_yaw_joint_dof
0,2.2302281856536865,2.339968681335449,78.43829345703125,-0.31020969881646165,-0.6339679768269258,-93.48177586231495,3.1441898,12.448856,18.258728,8.200261,-6.8812375,-10.160552,1.8182825,-8.424482,-19.662754,6.847574,-6.8395286,7.3932815,-2.2963452,3.4858527,2.5875509,-9.381904,17.960926,-47.916004,60.595924,-13.997166,10.6108885,-0.35037324,-20.050861,-15.604517,69.25224,71.342606,32.202892,12.453877,-2.2421172
1,2.2282919883728027,2.3329553604125977,78.43804168701172,-0.31170422782320917,-0.6265162892310184,-93.47298768115927,3.1416218,12.450539,18.255953,8.195415,-6.8828154,-10.164288,1.8182005,-8.420436,-19.663126,6.8457217,-6.841677,7.392734,-2.2992017,3.4834116,2.5889757,-9.360718,17.98487,-47.882122,60.558983,-13.988693,10.598881,-0.3590771,-20.065073,-15.592301,69.24593,71.35414,32.193386,12.471322,-2.2436159
2,2.2270336151123047,2.323803663253784,78.4374008178711,-0.3151430329227981,-0.6185761449110889,-93.4643745708737,3.1386375,12.452824,18.253239,8.1900835,-6.8837247,-10.169037,1.816499,-8.41584,-19.662569,6.845978,-6.8453436,7.391587,-2.302729,3.481907,2.5899532,-9.342384,18.004692,-47.846626,60.527946,-13.980672,10.586442,-0.3687741,-20.07799,-15.582244,69.23758,71.36182,32.18153,12.490267,-2.2467127
3,2.2258005142211914,2.315647840499878,78.43756866455078,-0.3157365012753434,-0.6115286021145842,-93.45554701992054,3.1361187,12.454141,18.250404,8.186323,-6.8861146,-10.171788,1.8160774,-8.412894,-19.66358,6.845533,-6.8475513,7.3916416,-2.3055196,3.4800858,2.5911267,-9.325379,18.020178,-47.810314,60.500862,-13.967768,10.573235,-0.37704396,-20.090555,-15.574759,69.2332,71.36969,32.17278,12.507252,-2.246811
4,2.22365140914917,2.308199644088745,78.43765258789062,-0.31504924961563974,-0.6069073659900114,-93.44644460732898,3.1355462,12.452193,18.247213,8.1832695,-6.8895288,-10.169506,1.8192172,-8.414087,-19.668339,6.8458557,-6.849284,7.3947296,-2.294668,3.4737523,2.5882487,-9.320255,18.023125,-47.79786,60.49147,-13.95614,10.557129,-0.37968215,-20.09487,-15.573481,69.23325,71.378845,32.177555,12.517568,-2.2410884
5,2.2202413082122803,2.3004207611083984,78.43746185302734,-0.30943801476327376,-0.6059552093804927,-93.43722820654135,3.136459,12.445831,18.244738,8.185143,-6.897195,-10.157817,1.827112,-8.421824,-19.678318,6.8462486,-6.8468866,7.4034185,-2.2848992,3.4614394,2.5920448,-9.311822,18.027605,-47.76938,60.47735,-13.918665,10.5370245,-0.3803336,-20.104626,-15.571973,69.24731,71.3972,32.193016,12.5186,-2.2229
6,2.216726303100586,2.293057441711426,78.43663024902344,-0.3027315476094364,-0.6076000218534018,-93.42828595347127,3.1386433,12.436004,18.243038,8.190341,-6.907771,-10.139505,1.839266,-8.434125,-19.691639,6.845133,-6.841057,7.416037,-2.2845447,3.4468243,2.5980096,-9.294988,18.034973,-47.724625,60.458263,-13.867064,10.513817,-0.3788587,-20.119247,-15.570171,69.29076,71.421936,32.225445,12.512214,-2.1975071
7,2.214251756668091,2.286306142807007,78.43588256835938,-0.295116174832058,-0.6096623288440237,-93.41799505820593,3.1404274,12.426563,18.238716,8.196686,-6.918596,-10.122503,1.8516493,-8.446736,-19.707378,6.8463373,-6.8385863,7.4279833,-2.2964585,3.4366002,2.6038678,-9.265265,18.04306,-47.66903,60.430294,-13.811715,10.492606,-0.37507394,-20.14151,-15.569013,69.354904,71.44684,32.26665,12.5075865,-2.1704388
8,2.211975574493408,2.281026601791382,78.43547058105469,-0.29180553957891436,-0.6094505636398234,-93.40832009797091,3.1421072,12.421357,18.231525,8.198481,-6.925065,-10.115148,1.8617316,-8.453663,-19.721535,6.845831,-6.8410916,7.4341235,-2.2791317,3.4204612,2.6027107,-9.263489,18.04368,-47.663097,60.42848,-13.784586,10.4787855,-0.37242872,-20.146408,-15.569125,69.362976,71.45852,32.27635,12.511024,-2.15039
9,2.213829278945923,2.2734344005584717,78.4352035522461,-0.29354788367724644,-0.6075630451033901,-93.39620204931316,3.1436088,12.421079,18.216702,8.194618,-6.9253054,-10.121419,1.8705038,-8.454456,-19.737085,6.846388,-6.854956,7.432048,-2.2809641,3.4108694,2.6006117,-9.252481,18.045263,-47.639336,60.427425,-13.759659,10.4700575,-0.37471715,-20.16455,-15.570047,69.38965,71.46214,32.284008,12.528548,-2.1297524
10,2.2153050899505615,2.266278028488159,78.43354034423828,-0.2976819398759025,-0.6036724576453607,-93.38304236255762,3.1437783,12.424433,18.197119,8.188059,-6.9221945,-10.136383,1.8770868,-8.451098,-19.75335,6.8469143,-6.875462,7.4246397,-2.3120453,3.4111905,2.598848,-9.222456,18.048206,-47.58241,60.415596,-13.733776,10.46911,-0.37900254,-20.195242,-15.573219,69.44476,71.452995,32.289925,12.558291,-2.1137633
11,2.2161471843719482,2.2599868774414062,78.4323959350586,-0.30377921726974644,-0.599571036947877,-93.37097508693488,3.1452403,12.429189,18.17812,8.18003,-6.918019,-10.154443,1.8833407,-8.445693,-19.7678,6.847722,-6.8968954,7.4158645,-2.320477,3.4053004,2.593328,-9.210297,18.048923,-47.564377,60.420322,-13.725031,10.469845,-0.38354015,-20.214584,-15.575035,69.459625,71.441956,32.278027,12.5851145,-2.1003864
12,2.2170517444610596,2.2540581226348877,78.43225860595703,-0.30776948354352707,-0.5967213615877451,-93.36202769428799,3.1484854,12.4339285,18.164324,8.174183,-6.916233,-10.169899,1.8901869,-8.44011,-19.77779,6.8483834,-6.9124603,7.40982,-2.3397245,3.4020662,2.5915287,-9.190611,18.049395,-47.534653,60.425163,-13.712379,10.467571,-0.38891563,-20.23781,-15.578764,69.47474,71.42797,32.26225,12.600584,-2.0894854
13,2.2171614170074463,2.2456300258636475,78.43307495117188,-0.313331172268698,-0.5948594631632027,-93.35694513604172,3.1553974,12.438781,18.157227,8.167068,-6.914816,-10.184396,1.8971541,-8.433127,-19.781727,6.8483543,-6.919348,7.4066525,-2.3487427,3.3967733,2.587739,-9.177486,18.049276,-47.52976,60.44074,-13.71469,10.461736,-0.39317593,-20.253397,-15.579541,69.47298,71.41543,32.241432,12.596205,-2.0837896
14,2.21645450592041,2.2363147735595703,78.43434143066406,-0.3203017843979688,-0.5950380471462132,-93.3537345402739,3.16537,12.445277,18.153019,8.161078,-6.914581,-10.200035,1.9060832,-8.423939,-19.78228,6.848331,-6.9222574,7.4045625,-2.368323,3.39288,2.5915904,-9.156093,18.048368,-47.51175,60.461082,-13.713933,10.447213,-0.3957604,-20.278374,-15.582924,69.45176,71.39596,32.191917,12.586253,-2.0711443
15,2.215479612350464,2.2253270149230957,78.43570709228516,-0.32476156472354717,-0.5951059817723433,-93.35261459713044,3.1759956,12.449827,18.152645,8.155458,-6.916157,-10.211245,1.9145162,-8.416552,-19.78053,6.8478646,-6.922505,7.404475,-2.3835065,3.387608,2.5928595,-9.138637,18.047323,-47.505074,60.482708,-13.714024,10.43786,-0.40138182,-20.298655,-15.585574,69.430244,71.37957,32.159595,12.568649,-2.0684133
16,2.21492338180542,2.2141878604888916,78.43566131591797,-0.3258995639069612,-0.5962968891086659,-93.35230598332375,3.185815,12.450798,18.154924,8.155174,-6.9231396,-10.21292,1.9239173,-8.414388,-19.779055,6.8476334,-6.9230075,7.407427,-2.389335,3.3780835,2.5972917,-9.127735,18.044859,-47.503586,60.500004,-13.694071,10.436648,-0.41224504,-20.3175,-15.591286,69.391754,71.36666,32.14103,12.553759,-2.0725825
17,2.2125871181488037,2.203409194946289,78.43506622314453,-0.32048886898139345,-0.5977496101621069,-93.35203019413086,3.1938844,12.444501,18.161076,8.15967,-6.9366207,-10.198346,1.9336045,-8.421571,-19.778467,6.84853,-6.9233403,7.4157896,-2.3997805,3.3665617,2.5974596,-9.111141,18.043478,-47.508236,60.506046,-13.653639,10.447898,-0.43042937,-20.338083,-15.594409,69.37949,71.36851,32.18026,12.535481,-2.0926049
18,2.2103288173675537,2.192720890045166,78.4340591430664,-0.31165980134705706,-0.5999499867927534,-93.35241785934262,3.2005422,12.433491,18.170685,8.170356,-6.956657,-10.172139,1.9446845,-8.434884,-19.777617,6.8484244,-6.9214845,7.428312,-2.4089699,3.352976,2.5973423,-9.093665,18.041113,-47.51831,60.50591,-13.594733,10.467956,-0.45441982,-20.358229,-15.600237,69.369156,71.37596,32.249386,12.513757,-2.1229331
19,2.2079734802246094,2.183150291442871,78.4326171875,-0.3028573368842434,-0.6023555983640496,-93.3544769747363,3.2097428,12.422617,18.182022,8.177089,-6.974908,-10.1456585,1.9552873,-8.447735,-19.776314,6.8485346,-6.9209857,7.440578,-2.4219408,3.3403656,2.5963535,-9.0730715,18.040113,-47.522907,60.502605,-13.5405245,10.488323,-0.47629613,-20.3804,-15.602651,69.36538,71.385864,32.326763,12.496436,-2.1561964
20,2.2072207927703857,2.174759864807129,78.43138885498047,-0.2989017355714926,-0.6037674867687651,-93.35898750922065,3.2182024,12.417916,18.191957,8.183895,-6.990685,-10.13032,1.9637631,-8.454378,-19.773968,6.8479958,-6.9238014,7.448321,-2.4346037,3.3309467,2.592476,-9.053425,18.038927,-47.524036,60.503384,-13.518317,10.500853,-0.4868836,-20.401512,-15.605255,69.359924,71.39026,32.384052,12.490285,-2.182118
21,2.2084567546844482,2.1669909954071045,78.42991638183594,-0.30105327018688993,-0.6066634788289819,-93.36644420883873,3.2313998,12.42195,18.199865,8.184419,-6.9994783,-10.130926,1.9719906,-8.451901,-19.771732,6.8487625,-6.9342194,7.449524,-2.4382734,3.3300107,2.5920541,-9.02689,18.037455,-47.51893,60.49311,-13.532081,10.504236,-0.47591442,-20.430952,-15.608597,69.34747,71.38802,32.43229,12.508157,-2.204886
22,2.2076423168182373,2.1625547409057617,78.42854309082031,-0.30698645122495233,-0.6093982089524673,-93.37609886534362,3.2457955,12.431134,18.206926,8.182711,-7.0051537,-10.140633,1.9790263,-8.444175,-19.769258,6.848631,-6.948312,7.446716,-2.4412596,3.3317478,2.5959406,-9.00292,18.034243,-47.49653,60.483677,-13.564739,10.501982,-0.45459437,-20.462244,-15.6169,69.31206,71.37484,32.447857,12.542019,-2.2207057
23,2.2118921279907227,2.156529664993286,78.42616271972656,-0.31506753944856525,-0.6114072728563169,-93.38793780085172,3.2609658,12.442089,18.215107,8.179114,-7.0089955,-10.154156,1.9842371,-8.434157,-19.764467,6.849091,-6.962683,7.4425287,-2.4433658,3.3339727,2.595891,-8.979659,18.032019,-47.47896,60.47774,-13.60758,10.496633,-0.43172282,-20.490656,-15.622626,69.28565,71.36175,32.461914,12.576403,-2.2341797
24,2.2148728370666504,2.150012731552124,78.42431640625,-0.320462775548413,-0.6124689252899584,-93.40208350584668,3.2760947,12.4515705,18.226679,8.176245,-7.013881,-10.166127,1.9883066,-8.42479,-19.75489,6.848766,-6.9722733,7.43962,-2.4419327,3.3339396,2.5985537,-8.960807,18.02842,-47.45842,60.47614,-13.622804,10.491987,-0.41918972,-20.51497,-15.632801,69.2524,71.34485,32.457245,12.602074,-2.240876
25,2.2152531147003174,2.1432855129241943,78.42430114746094,-0.3259604223056193,-0.6115850289215423,-93.41982872754257,3.2913535,12.459032,18.242605,8.171632,-7.018302,-10.17824,1.9887269,-8.415706,-19.737787,6.8489127,-6.9758625,7.4380937,-2.4380665,3.332197,2.595912,-8.940417,18.025717,-47.449738,60.478653,-13.620267,10.4854965,-0.41383275,-20.533718,-15.640205,69.23533,71.33355,32.439957,12.614454,-2.236549
26,2.2159833908081055,2.134841203689575,78.42566680908203,-0.3296038353224089,-0.6095036529972842,-93.44086307600413,3.3080587,12.466231,18.262102,8.164226,-7.021106,-10.192406,1.987025,-8.405595,-19.715164,6.849096,-6.9761057,7.4367523,-2.42868,3.3298264,2.5943,-8.923457,18.020685,-47.44063,60.48594,-13.598663,10.47718,-0.41352826,-20.546112,-15.654011,69.2095,71.31389,32.393734,12.622353,-2.2214925
27,2.2182819843292236,2.1246557235717773,78.42716979980469,-0.3335961754632823,-0.6073917294880035,-93.46211815399174,3.3242218,12.471958,18.282885,8.1583,-7.025218,-10.203202,1.9854432,-8.396722,-19.691597,6.8483577,-6.9739523,7.4362273,-2.4228816,3.325588,2.5895808,-8.906859,18.019005,-47.43832,60.495106,-13.575833,10.470642,-0.41969782,-20.557392,-15.658154,69.199455,71.303345,32.36594,12.623188,-2.2131536
28,2.2185988426208496,2.1138384342193604,78.42992401123047,-0.33409775755662197,-0.6067134857789588,-93.48120383090345,3.3401768,12.473833,18.30393,8.155197,-7.032011,-10.20518,1.9863465,-8.3930235,-19.670918,6.848297,-6.9723253,7.437422,-2.418166,3.322716,2.5875986,-8.890416,18.015911,-47.43434,60.499695,-13.542687,10.469828,-0.43559253,-20.566986,-15.665816,69.179886,71.29559,32.361446,12.61893,-2.2195113
29,2.2178168296813965,2.102642774581909,78.43273162841797,-0.3295663657504809,-0.6077459071220844,-93.49809785294532,3.353298,12.47105,18.325706,8.161066,-7.045332,-10.193311,1.990037,-8.3961,-19.653526,6.848895,-6.9700217,7.441266,-2.415627,3.316589,2.5879078,-8.880887,18.013758,-47.433647,60.505337,-13.490516,10.480259,-0.47556677,-20.574158,-15.671453,69.161095,71.29097,32.406574,12.606265,-2.2541714
30,2.2167558670043945,2.0919103622436523,78.43264770507812,-0.32220297378311546,-0.6094528633980772,-93.51317385429512,3.3651435,12.464448,18.34824,8.170442,-7.0616016,-10.171653,1.9954971,-8.403902,-19.638105,6.8493533,-6.9662395,7.447135,-2.419345,3.3113296,2.588643,-8.870466,18.012486,-47.43439,60.507843,-13.427111,10.497566,-0.53103215,-20.58119,-15.674848,69.14775,71.29345,32.48575,12.585022,-2.30615
31,2.214352607727051,2.081615924835205,78.4316635131836,-0.31451128067240497,-0.6123442550178098,-93.52684771335562,3.3778157,12.456736,18.370028,8.180042,-7.0784864,-10.148528,2.0025816,-8.413123,-19.624517,6.849585,-6.96358,7.453168,-2.4122417,3.304418,2.5920906,-8.870005,18.009222,-47.441963,60.51334,-13.367543,10.51537,-0.58242494,-20.58021,-15.68497,69.11363,71.290344,32.56178,12.561985,-2.361715
32,2.213982582092285,2.0734379291534424,78.42982482910156,-0.31010701964424103,-0.6162323100218436,-93.53775225463575,3.3912754,12.452437,18.387564,8.188236,-7.093976,-10.132425,2.0114353,-8.41936,-19.614367,6.8501487,-6.966089,7.4573255,-2.4162312,3.3016086,2.5932164,-8.86264,18.007809,-47.445194,60.51587,-13.349769,10.524021,-0.6001536,-20.581476,-15.6898365,69.09762,71.29204,32.62484,12.541974,-2.4042935
33,2.21753191947937,2.0627801418304443,78.42768096923828,-0.30969962794297207,-0.6221431832170229,-93.54446574939209,3.4069617,12.452853,18.39956,8.194572,-7.1084666,-10.125522,2.0232446,-8.421289,-19.609549,6.850864,-6.976408,7.458217,-2.4228013,3.3025692,2.5950487,-8.854182,18.006657,-47.448795,60.516136,-13.38932,10.521564,-0.56934583,-20.58093,-15.694971,69.080376,71.29492,32.65756,12.524261,-2.4310226
34,2.2215473651885986,2.0546696186065674,78.42471313476562,-0.31133508181563313,-0.629533771141586,-93.54778684607209,3.4247742,12.455699,18.408062,8.198178,-7.121525,-10.123416,2.037248,-8.421139,-19.608793,6.851175,-6.9915385,7.4571753,-2.4365234,3.306891,2.5966454,-8.843644,18.006092,-47.449684,60.51474,-13.468803,10.51212,-0.5073979,-20.579218,-15.698524,69.069115,71.2998,32.677372,12.506592,-2.4505134
35,2.2250027656555176,2.04852294921875,78.42190551757812,-0.3151056073099716,-0.6371739869407514,-93.5507909018796,3.4440017,12.458152,18.415049,8.1985035,-7.1323476,-10.124211,2.0516794,-8.420767,-19.608488,6.851863,-7.007338,7.4565477,-2.4475172,3.311819,2.5980318,-8.832103,18.005692,-47.450603,60.51162,-13.552496,10.499074,-0.4369288,-20.57425,-15.703922,69.05143,71.302185,32.684727,12.493699,-2.4618251
36,2.229429244995117,2.0412673950195312,78.41979217529297,-0.3155655995243741,-0.6429040411356203,-93.55683306840096,3.461591,12.4583845,18.422434,8.198128,-7.141773,-10.126081,2.06376,-8.421249,-19.604704,6.8516994,-7.0179095,7.4583926,-2.4471078,3.312121,2.598481,-8.827603,18.005644,-47.451363,60.513336,-13.602467,10.486637,-0.38711822,-20.56371,-15.713964,69.018135,71.29623,32.68058,12.489867,-2.464475
37,2.233142614364624,2.033555507659912,78.4184341430664,-0.31449780778617953,-0.6456514240105734,-93.56696002864402,3.4787223,12.454458,18.43059,8.192314,-7.147023,-10.129759,2.0716407,-8.424094,-19.596262,6.8524375,-7.021997,7.464851,-2.4393196,3.308619,2.597419,-8.825599,18.005974,-47.44304,60.518158,-13.603006,10.474389,-0.36578655,-20.548462,-15.728273,68.972664,71.28075,32.66351,12.499219,-2.4534438
38,2.2359490394592285,2.0257043838500977,78.41849517822266,-0.31097986140806844,-0.646416795319643,-93.5792075670844,3.4937048,12.448868,18.437725,8.186152,-7.1508636,-10.135913,2.0772994,-8.427809,-19.585428,6.8526535,-7.021734,7.474105,-2.4348514,3.3055644,2.591239,-8.81859,18.006124,-47.42689,60.52395,-13.581952,10.459909,-0.35623896,-20.53604,-15.735183,68.94161,71.27465,32.648552,12.516798,-2.4310527
39,2.2377045154571533,2.016493320465088,78.4197998046875,-0.3086060815369127,-0.6468469234139848,-93.59243559069917,3.5101666,12.441589,18.445822,8.176224,-7.152337,-10.142206,2.0823996,-8.431811,-19.573122,6.8524737,-7.020028,7.4831223,-2.428926,3.3015404,2.5850089,-8.813425,18.006393,-47.40703,60.532158,-13.551951,10.445549,-0.35235974,-20.522291,-15.741707,68.90797,71.26694,32.630863,12.536676,-2.4078357
40,2.239525556564331,2.0075862407684326,78.42234802246094,-0.3052107822804355,-0.6490228000761744,-93.60576160306455,3.528105,12.434844,18.456064,8.16832,-7.155034,-10.146416,2.08896,-8.435634,-19.559818,6.852576,-7.0202165,7.488784,-2.4187906,3.294032,2.5862935,-8.815261,18.007282,-47.38029,60.541973,-13.514767,10.434155,-0.3507495,-20.505442,-15.751553,68.85668,71.24767,32.5997,12.554149,-2.3932436
41,2.239976406097412,1.9974244832992554,78.42510223388672,-0.3026933938591228,-0.6515257549305407,-93.61897599488097,3.5454116,12.4290085,18.468443,8.163729,-7.1597905,-10.149815,2.095588,-8.438314,-19.545135,6.8523636,-7.0223603,7.489694,-2.4151134,3.2915866,2.5807102,-8.813275,18.007706,-47.369747,60.554977,-13.509487,10.423015,-0.34014904,-20.489857,-15.754857,68.84085,71.239685,32.604797,12.562718,-2.3958871
42,2.23918080329895,1.9879145622253418,78.42723083496094,-0.2981381542893543,-0.6546032946099891,-93.63336479032169,3.5655355,12.421883,18.483603,8.15574,-7.1626506,-10.152893,2.101526,-8.4415455,-19.52786,6.8535786,-7.0257864,7.487742,-2.4075358,3.2852762,2.5794568,-8.815283,18.008926,-47.34843,60.57128,-13.4914255,10.412781,-0.33413538,-20.47018,-15.76271,68.81104,71.221664,32.60112,12.570209,-2.4061053
43,2.2399141788482666,1.9790199995040894,78.42830657958984,-0.2956468097501237,-0.6588202135283455,-93.64633352572321,3.582916,12.4166565,18.498047,8.155437,-7.1692905,-10.152606,2.1060228,-8.445463,-19.51168,6.860936,-7.0330243,7.4845514,-2.4038172,3.2821205,2.5765238,-8.817006,18.009714,-47.336887,60.586533,-13.490431,10.404544,-0.32468954,-20.452095,-15.766193,68.79743,71.208916,32.609573,12.573826,-2.4204688
44,2.2410900592803955,1.970113754272461,78.42757415771484,-0.29215473190842317,-0.6649851781953098,-93.65641407501022,3.5989947,12.412952,18.510614,8.160404,-7.1781726,-10.1456585,2.1122093,-8.450304,-19.49951,6.87124,-7.0420814,7.481847,-2.4026394,3.2787683,2.5757265,-8.821413,18.010778,-47.325512,60.60044,-13.497628,10.3991785,-0.31501397,-20.434658,-15.769535,68.78427,71.19705,32.61481,12.574116,-2.4340985
45,2.243032455444336,1.9630590677261353,78.4268798828125,-0.2899329495061915,-0.6736946817667275,-93.66254332425443,3.6125083,12.41164,18.520819,8.174423,-7.1908765,-10.127996,2.123372,-8.455119,-19.493223,6.8780684,-7.049825,7.4788666,-2.4051232,3.2771437,2.5778718,-8.829227,18.011848,-47.31904,60.60955,-13.525058,10.399065,-0.29848027,-20.420494,-15.771777,68.77622,71.189316,32.619785,12.568102,-2.4463015
46,2.2464513778686523,1.9557565450668335,78.42344665527344,-0.28689847648773237,-0.6851170286225624,-93.66579609242518,3.6237047,12.412924,18.529284,8.197476,-7.207304,-10.102584,2.1356966,-8.4605665,-19.490513,6.889724,-7.0606327,7.47508,-2.4075904,3.2731884,2.5860739,-8.843966,18.017096,-47.31446,60.61582,-13.564914,10.403418,-0.27908373,-20.40367,-15.78049,68.76152,71.17255,32.61873,12.556559,-2.4611545
47,2.2509877681732178,1.9486454725265503,78.42008209228516,-0.2864763181291023,-0.6956525469744441,-93.66759136138408,3.633295,12.41381,18.53669,8.220415,-7.2238817,-10.075881,2.1465175,-8.467208,-19.489826,6.9030657,-7.0717416,7.4726124,-2.413563,3.273981,2.5886142,-8.852093,18.018253,-47.313232,60.619736,-13.603459,10.406825,-0.2643761,-20.392263,-15.781855,68.75899,71.16854,32.622498,12.547602,-2.4718626
48,2.2518439292907715,1.941853404045105,78.41657257080078,-0.2837673619089484,-0.7094563213599431,-93.66942198268063,3.6478462,12.413655,18.543762,8.241156,-7.2414155,-10.055333,2.160977,-8.474384,-19.4889,6.9183226,-7.0837474,7.473584,-2.4147336,3.2667158,2.5950267,-8.866851,18.028444,-47.315716,60.628643,-13.632082,10.4081135,-0.26722577,-20.367363,-15.792908,68.74253,71.14338,32.61842,12.541181,-2.4848542
49,2.2541253566741943,1.9368245601654053,78.41373443603516,-0.2786540326431815,-0.7218075434381614,-93.67086585468012,3.6647456,12.4101,18.55051,8.252014,-7.2558804,-10.041241,2.178727,-8.481829,-19.489298,6.9250846,-7.089848,7.480271,-2.4172103,3.2607512,2.595653,-8.874724,18.03323,-47.314335,60.642315,-13.631717,10.401797,-0.2932038,-20.34553,-15.797318,68.7359,71.12543,32.616035,12.547096,-2.491156
50,2.255197048187256,1.9287083148956299,78.41287994384766,-0.2746865605216583,-0.7346825100726733,-93.671287261464,3.6838765,12.404332,18.556637,8.2580595,-7.26944,-10.030416,2.199446,-8.489877,-19.491344,6.9281645,-7.0932007,7.4909816,-2.4198105,3.2528605,2.5958383,-8.880982,18.041994,-47.31065,60.657417,-13.614652,10.390439,-0.33742836,-20.320513,-15.804376,68.72519,71.102936,32.606377,12.558702,-2.4936676
51,2.254643440246582,1.9200438261032104,78.4131088256836,-0.2710377122958818,-0.7475147972152252,-93.67184803888794,3.7046347,12.398461,18.562119,8.261321,-7.281829,-10.023544,2.220266,-8.497551,-19.493135,6.931164,-7.096608,7.5016117,-2.423459,3.2453532,2.594201,-8.884888,18.051367,-47.30462,60.67233,-13.589454,10.380389,-0.38870016,-20.29539,-15.811027,68.71214,71.07897,32.59679,12.571666,-2.494474
52,2.2554078102111816,1.910827875137329,78.41561889648438,-0.2687591573868221,-0.7601137723178522,-93.67382684861188,3.7260106,12.39437,18.567038,8.264211,-7.2923546,-10.021325,2.2380435,-8.50352,-19.492466,6.9405026,-7.1059527,7.5077624,-2.4287047,3.240007,2.5901988,-8.884586,18.060534,-47.29406,60.682827,-13.561723,10.378659,-0.43668696,-20.270048,-15.8169,68.68892,71.05205,32.585125,12.581731,-2.4959087
53,2.25667405128479,1.9006891250610352,78.4191665649414,-0.2675614748778393,-0.7716814283391621,-93.6776518455469,3.749619,12.392157,18.570696,8.262549,-7.2978997,-10.027282,2.2597015,-8.503879,-19.48938,6.937584,-7.111872,7.506794,-2.4381423,3.2403576,2.581278,-8.881074,18.067015,-47.282814,60.69389,-13.533522,10.387071,-0.48427176,-20.247082,-15.820517,68.66456,71.0267,32.579727,12.587453,-2.4946394
54,2.2567896842956543,1.8913692235946655,78.42304229736328,-0.2689079430127269,-0.7837588515933016,-93.68330470624073,3.7759485,12.391256,18.573755,8.25808,-7.3005285,-10.040113,2.277063,-8.503412,-19.483322,6.945774,-7.1263123,7.501521,-2.436171,3.2346437,2.577554,-8.87983,18.0796,-47.260906,60.695797,-13.474833,10.406818,-0.5436431,-20.216452,-15.827597,68.59107,70.984795,32.540073,12.594449,-2.4895308
55,2.256866216659546,1.8811862468719482,78.4252700805664,-0.2720286258200477,-0.795373345808569,-93.68867573943375,3.8014483,12.391167,18.576523,8.254808,-7.3037233,-10.052672,2.2938497,-8.502338,-19.477226,6.9539537,-7.140671,7.4957986,-2.4307268,3.2289584,2.5714824,-8.877491,18.09926,-47.248737,60.691902,-13.4331,10.4266815,-0.5928638,-20.185102,-15.839104,68.50746,70.9413,32.50641,12.597342,-2.487422
56,2.258434772491455,1.8703913688659668,78.42613983154297,-0.27299637917568265,-0.8068566990036941,-93.69249571051222,3.8249454,12.391168,18.579687,8.25512,-7.3105483,-10.057889,2.3125527,-8.502113,-19.473745,6.9587073,-7.1514378,7.4935904,-2.4318447,3.2246337,2.5622568,-8.869907,18.11778,-47.231945,60.68678,-13.4153185,10.438406,-0.6206494,-20.157333,-15.849907,68.42931,70.90128,32.486755,12.594381,-2.494343
57,2.2602808475494385,1.8598039150238037,78.42481994628906,-0.2745662185720276,-0.8181315973846185,-93.69426772108545,3.8435009,12.39325,18.582735,8.264854,-7.3244615,-10.053498,2.3315337,-8.502691,-19.47316,6.963673,-7.1594286,7.495655,-2.4458957,3.226471,2.5440905,-8.857009,18.12345,-47.209,60.69267,-13.434081,10.437543,-0.6184138,-20.135725,-15.852849,68.37996,70.8801,32.496933,12.581946,-2.513209
58,2.265728712081909,1.849888801574707,78.42198944091797,-0.2758661399472533,-0.8299146797124635,-93.69485606492525,3.862152,12.395467,18.5864,8.275252,-7.340238,-10.043287,2.3539598,-8.502831,-19.474716,6.9623637,-7.162333,7.5000367,-2.4473155,3.2208512,2.5358677,-8.85049,18.140112,-47.175014,60.687218,-13.454668,10.433505,-0.6033999,-20.113815,-15.861029,68.27553,70.853546,32.48082,12.565719,-2.535381
59,2.2687554359436035,1.8406639099121094,78.4178466796875,-0.27674861898193087,-0.8412623359485832,-93.69460270307978,3.8787687,12.397554,18.59006,8.289165,-7.3583503,-10.029855,2.3734252,-8.505293,-19.47689,6.967828,-7.1687837,7.506392,-2.4537134,3.2156384,2.5224333,-8.837524,18.158611,-47.14793,60.67877,-13.495081,10.426118,-0.5748894,-20.093166,-15.869654,68.17817,70.82441,32.479168,12.546091,-2.5644705
60,2.269680976867676,1.8307496309280396,78.41291809082031,-0.27504783101071234,-0.8521044424158782,-93.69396846679716,3.8945796,12.397381,18.593689,8.302817,-7.376158,-10.015649,2.393869,-8.509476,-19.47993,6.970757,-7.175366,7.5143037,-2.471223,3.2115302,2.5041556,-8.819179,18.172012,-47.12102,60.67685,-13.540125,10.417318,-0.54174834,-20.07885,-15.875133,68.09068,70.79215,32.489845,12.526725,-2.597348
61,2.270246744155884,1.8201979398727417,78.40972900390625,-0.27080032215553795,-0.8626175963753143,-93.69209753786978,3.9098985,12.392468,18.59763,8.315958,-7.3937945,-9.997079,2.4132993,-8.519065,-19.484106,6.9764476,-7.1851196,7.525566,-2.4795983,3.1971757,2.4899344,-8.804598,18.192318,-47.11272,60.667217,-13.584299,10.410819,-0.50167406,-20.063524,-15.88273,67.97376,70.74624,32.484535,12.511881,-2.6320312
62,2.2688801288604736,1.810103416442871,78.40693664550781,-0.2646285964918682,-0.8722977514658969,-93.68837346567095,3.9236915,12.384998,18.601095,8.329023,-7.4112525,-9.974385,2.4370072,-8.530198,-19.491102,6.973487,-7.191777,7.539567,-2.4980776,3.1829424,2.4707108,-8.785124,18.209953,-47.111233,60.66216,-13.640661,10.400923,-0.44945535,-20.051596,-15.888532,67.867805,70.698906,32.489906,12.497527,-2.6717
63,2.26987361907959,1.799582839012146,78.40617370605469,-0.25868149547008157,-0.882575979131545,-93.68642629656111,3.9405315,12.376978,18.606106,8.337947,-7.426859,-9.955287,2.4573343,-8.541885,-19.495787,6.9777126,-7.202689,7.5530295,-2.5098035,3.1649556,2.4523447,-8.766837,18.231974,-47.110355,60.654446,-13.696638,10.392717,-0.40186778,-20.04291,-15.895541,67.73374,70.6401,32.495502,12.480213,-2.7139633
64,2.271836519241333,1.7885218858718872,78.40802764892578,-0.25474944974570807,-0.8940602533503589,-93.6888157413951,3.9613397,12.371964,18.612877,8.343016,-7.439794,-9.947767,2.4772627,-8.549192,-19.49553,6.9815736,-7.2134624,7.562529,-2.5177078,3.1471298,2.4356797,-8.747345,18.257883,-47.09262,60.64443,-13.745406,10.388044,-0.37334603,-20.042439,-15.904844,67.56585,70.56558,32.505898,12.456397,-2.7581987
65,2.269702911376953,1.7798893451690674,78.41065216064453,-0.2547057286223381,-0.9080412323798579,-93.69770434061772,3.992036,12.370663,18.623533,8.336596,-7.4470963,-9.9588,2.4982224,-8.549579,-19.488451,6.982889,-7.2231126,7.566323,-2.524831,3.1324959,2.4217863,-8.728782,18.281828,-47.058422,60.640404,-13.784853,10.385565,-0.37184268,-20.053537,-15.914775,67.39304,70.48008,32.52592,12.434738,-2.7909603
66,2.2710206508636475,1.772000789642334,78.41275024414062,-0.25568209762872535,-0.9236042523550504,-93.71121110902646,4.029442,12.371317,18.636885,8.322039,-7.4501743,-9.98253,2.5187638,-8.545963,-19.476364,6.985007,-7.2337923,7.566449,-2.5237448,3.1162312,2.4115844,-8.713241,18.31112,-47.021835,60.634796,-13.820942,10.385886,-0.38853565,-20.070559,-15.929111,67.20054,70.37826,32.55025,12.414178,-2.8169956
67,2.271735906600952,1.763990879058838,78.41370391845703,-0.2598678016810318,-0.9391780842122324,-93.72587074383722,4.0665812,12.372965,18.650286,8.307859,-7.452761,-10.007476,2.5388978,-8.540979,-19.46263,6.9861155,-7.2433443,7.5654025,-2.5273266,3.1011527,2.3999496,-8.689343,18.34154,-46.951393,60.623943,-13.84627,10.389576,-0.4124042,-20.095552,-15.947779,66.95744,70.257164,32.58034,12.376175,-2.8630564
68,2.2727177143096924,1.7568756341934204,78.41322326660156,-0.2607206050434881,-0.9529439326183885,-93.73830880901676,4.0983157,12.373404,18.661207,8.29873,-7.4566817,-10.021917,2.5583684,-8.537832,-19.45032,6.9846754,-7.249776,7.5657516,-2.5380344,3.0863066,2.3840027,-8.65129,18.371845,-46.82498,60.602566,-13.853219,10.398471,-0.4328628,-20.129007,-15.972473,66.62321,70.10879,32.62034,12.301725,-2.9550579
69,2.275315761566162,1.7490837574005127,78.4124526977539,-0.2610625644828003,-0.9644080773741208,-93.74844533637486,4.122666,12.373525,18.668793,8.297498,-7.4629683,-10.022921,2.5731747,-8.536909,-19.438406,6.988503,-7.257186,7.5671344,-2.5529168,3.0721102,2.3631487,-8.600095,18.402687,-46.649696,60.570496,-13.823672,10.4179945,-0.46358642,-20.164564,-16.00603,66.196144,69.93866,32.63822,12.191425,-3.08403
70,2.2784345149993896,1.7427209615707397,78.41129302978516,-0.2622993879021123,-0.9745159516244606,-93.75792980789652,4.1423774,12.373731,18.674374,8.301249,-7.470344,-10.016583,2.5869675,-8.536389,-19.426117,6.9903927,-7.261895,7.5686502,-2.5633667,3.056124,2.341178,-8.541326,18.439878,-46.441547,60.525013,-13.768371,10.446234,-0.5049664,-20.198517,-16.05836,65.68427,69.7335,32.64195,12.054223,-3.241612
71,2.282470941543579,1.7347853183746338,78.4094009399414,-0.26213710786456046,-0.9839233248887684,-93.765586452988,4.1591983,12.372609,18.679102,8.307643,-7.4785967,-10.005135,2.5994873,-8.537855,-19.41555,6.9941363,-7.2669897,7.571466,-2.5765636,3.0380173,2.318338,-8.469074,18.485207,-46.180534,60.46066,-13.724077,10.473428,-0.5264991,-20.235933,-16.13819,65.06681,69.46768,32.68264,11.883739,-3.4550073
72,2.28585147857666,1.726754903793335,78.40693664550781,-0.258949875549175,-0.9932188579816383,-93.77060645796263,4.1751757,12.368675,18.684088,8.312711,-7.4860134,-9.990876,2.6123831,-8.54269,-19.40893,6.9973297,-7.2709656,7.5770383,-2.6072717,3.0193403,2.2911425,-8.380283,18.526588,-45.83813,60.38891,-13.724299,10.48824,-0.49739504,-20.29797,-16.225044,64.34419,69.15121,32.82461,11.671129,-3.749546
73,2.2888522148132324,1.7203493118286133,78.40383911132812,-0.2533952658681754,-1.0029212819022677,-93.77176622206267,4.1893144,12.36041,18.689825,8.319519,-7.494626,-9.970227,2.6254308,-8.553348,-19.407806,7.0036,-7.2756143,7.58724,-2.6393273,2.9934974,2.26607,-8.279661,18.57817,-45.438755,60.29819,-13.800665,10.494552,-0.38711047,-20.367764,-16.348766,63.48589,68.76542,33.13751,11.407709,-4.1392965
74,2.290947198867798,1.715766429901123,78.40271759033203,-0.2446241650033086,-1.0125481481742054,-93.76983360939913,4.2016935,12.349095,18.695633,8.327129,-7.5033937,-9.943358,2.6409247,-8.56741,-19.411196,7.0053806,-7.276516,7.600864,-2.6824515,2.9655104,2.2398746,-8.162905,18.633156,-44.97462,60.193497,-13.924657,10.494808,-0.21941459,-20.447983,-16.498325,62.520107,68.32539,33.574295,11.097966,-4.6064653
75,2.2912559509277344,1.7110748291015625,78.40245056152344,-0.23494417169433057,-1.021473301667518,-93.76691165956576,4.2135653,12.336755,18.701164,8.33214,-7.5104775,-9.918178,2.6539502,-8.5826025,-19.415546,7.010078,-7.2790885,7.614426,-2.730935,2.935218,2.209468,-8.031076,18.69418,-44.43466,60.067257,-14.055878,10.482048,-0.046290297,-20.535675,-16.67608,61.432323,67.79373,33.98376,10.754315,-5.128573
76,2.2919230461120605,1.7071250677108765,78.40375518798828,-0.22948039961217062,-1.0291452797164033,-93.76502841705907,4.2264647,12.326116,18.705786,8.329903,-7.5130506,-9.902615,2.6698687,-8.592323,-19.419134,7.003192,-7.2771683,7.6240926,-2.7828434,2.9038632,2.171551,-7.881348,18.765432,-43.80314,59.909397,-14.152541,10.449372,0.07997732,-20.630428,-16.884874,60.215252,67.13063,34.220497,10.394669,-5.686821
77,2.293637752532959,1.7026852369308472,78.40678405761719,-0.2250163084079091,-1.034908010960412,-93.76503416828682,4.2416153,12.317113,18.71018,8.316796,-7.5095153,-9.901861,2.6774702,-8.599745,-19.419102,7.0058103,-7.2822757,7.6288958,-2.839225,2.870468,2.1269162,-7.704346,18.84974,-43.054924,59.71751,-14.1742525,10.392327,0.13093466,-20.72985,-17.127985,58.849243,66.349304,34.25653,10.022765,-6.2523394
78,2.294849157333374,1.6987717151641846,78.40910339355469,-0.22383137999788477,-1.039463916308771,-93.76556887506003,4.2573566,12.309493,18.713892,8.297718,-7.5026517,-9.910691,2.6871116,-8.602716,-19.418728,6.998197,-7.283344,7.6305275,-2.901729,2.835159,2.0777426,-7.5011516,18.948986,-42.20457,59.49065,-14.153757,10.316317,0.13905497,-20.831585,-17.408466,57.345924,65.4576,34.167057,9.633047,-6.845183
79,2.296560525894165,1.6989245414733887,78.41058349609375,-0.22181420518303024,-1.043182073394122,-93.76586621364861,4.2736526,12.301781,18.716902,8.273928,-7.4924626,-9.9212055,2.6960497,-8.604796,-19.418474,6.9897547,-7.284062,7.6306663,-2.969215,2.797378,2.0226822,-7.2809095,19.066261,-41.291122,59.217293,-14.155452,10.229143,0.14371146,-20.934475,-17.728888,55.73694,64.41211,33.949696,9.231153,-7.5204544
80,2.297421455383301,1.7000313997268677,78.41168975830078,-0.2200877005891377,-1.046396299119931,-93.76463467209915,4.285888,12.294363,18.717752,8.256854,-7.4845653,-9.925475,2.7044067,-8.608355,-19.419363,6.983109,-7.2844005,7.63084,-3.0401878,2.757353,1.9605159,-7.0536957,19.205656,-40.356247,58.885853,-14.246095,10.139118,0.18406388,-21.031445,-18.089842,54.041874,63.163372,33.591362,8.823915,-8.334293
81,2.3004841804504395,1.6976865530014038,78.412841796875,-0.2203840107970324,-1.0492318318470024,-93.76118663524227,4.295266,12.287613,18.715912,8.244497,-7.4773626,-9.921224,2.7136805,-8.612227,-19.422369,6.9773145,-7.284586,7.628712,-3.118117,2.7151027,1.8882647,-6.805307,19.369322,-39.369442,58.480793,-14.454493,10.043021,0.26957017,-21.108301,-18.495543,52.24187,61.67252,33.050415,8.387324,-9.368371
82,2.3059515953063965,1.6942086219787598,78.41371154785156,-0.21947514135565316,-1.0513886355130462,-93.75630584606984,4.3018494,12.282091,18.711536,8.235269,-7.47029,-9.912844,2.725336,-8.614635,-19.427078,6.9663277,-7.281413,7.6243315,-3.2031076,2.6704094,1.8079704,-6.5314255,19.558746,-38.32129,58.0064,-14.741654,9.938611,0.379088,-21.16431,-18.94982,50.32963,59.965656,32.338932,7.937529,-10.573639
83,2.3145549297332764,1.691309928894043,78.41352844238281,-0.21903958776442822,-1.0531548841348919,-93.75111689011617,4.308505,12.274302,18.707373,8.224235,-7.462129,-9.902048,2.733417,-8.620348,-19.431427,6.962206,-7.28058,7.6228833,-3.2879405,2.621232,1.725657,-6.256055,19.776772,-37.28479,57.481407,-15.071143,9.834603,0.5059436,-21.22419,-19.451202,48.359966,58.10238,31.545841,7.537746,-11.8073015
84,2.3226492404937744,1.6893168687820435,78.41278076171875,-0.2155282877798451,-1.0546887920220052,-93.74644940001612,4.3153744,12.2623625,18.704876,8.212003,-7.4543247,-9.890758,2.7448895,-8.628061,-19.43562,6.947046,-7.2713566,7.6293235,-3.3652332,2.5666327,1.6463581,-6.00317,20.026129,-36.333794,56.925507,-15.406206,9.740018,0.64359266,-21.315289,-19.992828,46.387314,56.14748,30.765114,7.243516,-12.924059
85,2.3272805213928223,1.6924699544906616,78.41331481933594,-0.2077008531032762,-1.0565045507303235,-93.74414059357923,4.326652,12.244255,18.706673,8.1925125,-7.4445643,-9.878501,2.7573555,-8.640064,-19.437542,6.927032,-7.255767,7.6478024,-3.4341326,2.5059917,1.5661757,-5.7687283,20.30934,-35.47002,56.317955,-15.75767,9.662251,0.79305434,-21.427519,-20.567537,44.398388,54.116474,30.032423,7.0656734,-13.835284
86,2.3340656757354736,1.6918096542358398,78.4138412475586,-0.1972311174100734,-1.0584286808957446,-93.74310762990682,4.3394365,12.222011,18.710728,8.1701145,-7.4340005,-9.864615,2.7674065,-8.656586,-19.43774,6.9104934,-7.2393794,7.674688,-3.5004172,2.4393382,1.4820398,-5.5380244,20.62719,-34.65882,55.654938,-16.138783,9.5945835,0.95667124,-21.554544,-21.173317,42.376896,51.987072,29.301056,6.97259,-14.63244
87,2.340583562850952,1.6899770498275757,78.4151840209961,-0.18625460570268135,-1.0593491238466581,-93.74036092405738,4.3506417,12.197394,18.714025,8.145895,-7.422284,-9.8507395,2.778097,-8.674365,-19.439516,6.8883605,-7.218744,7.7034907,-3.5669706,2.368831,1.4013878,-5.3199425,20.978128,-33.918266,54.98092,-16.51611,9.525697,1.1298586,-21.722292,-21.80781,40.360847,49.76126,28.531013,6.954245,-15.440012
88,2.3471643924713135,1.6887534856796265,78.41654968261719,-0.17431002760160663,-1.0583167329676992,-93.73282697087389,4.3571696,12.171948,18.713509,8.119956,-7.408346,-9.838439,2.7855902,-8.692918,-19.444658,6.8687825,-7.2007737,7.727586,-3.6367843,2.296176,1.3305793,-5.126755,21.357801,-33.267937,54.346226,-16.857708,9.444293,1.308315,-21.950129,-22.467108,38.380672,47.439003,27.67058,7.0047984,-16.382713
89,2.3546597957611084,1.6895681619644165,78.41851806640625,-0.16402395131566752,-1.0527583761446486,-93.71829051583548,4.3546715,12.145956,18.707552,8.092779,-7.3915997,-9.828538,2.784128,-8.713219,-19.454067,6.856968,-7.1873555,7.745442,-3.710852,2.2240396,1.2664713,-4.964707,21.763208,-32.72125,53.752823,-17.166449,9.338212,1.5042559,-22.2344,-23.147606,36.452316,45.075886,26.6824,7.1516504,-17.465784
90,2.362522840499878,1.6945257186889648,78.42085266113281,-0.15372267707170398,-1.0441867093049126,-93.69903017502166,4.3473444,12.118075,18.69827,8.061087,-7.371026,-9.820076,2.7742171,-8.736413,-19.466198,6.8552337,-7.1790586,7.7604485,-3.7904766,2.151055,1.2034639,-4.82788,22.192669,-32.264072,53.186222,-17.455587,9.216069,1.715571,-22.570393,-23.847178,34.560165,42.665375,25.604881,7.3946486,-18.628662
91,2.371105194091797,1.7042557001113892,78.42267608642578,-0.1439612920346426,-1.0372865279606578,-93.67808017525012,4.3403244,12.089557,18.687344,8.029111,-7.3497086,-9.812045,2.7656426,-8.760503,-19.479897,6.854006,-7.1718426,7.77388,-3.877482,2.074087,1.1438859,-4.7118816,22.642258,-31.873909,52.672,-17.706331,9.097552,1.9163456,-22.975067,-24.563398,32.689346,40.105236,24.50816,7.6899037,-19.89968
92,2.3826441764831543,1.714260458946228,78.42384338378906,-0.13496491530110954,-1.0369394795996263,-93.65884198122735,4.3408837,12.060714,18.676676,7.9977336,-7.3295345,-9.803279,2.7643435,-8.785027,-19.49366,6.8523135,-7.166253,7.7869887,-3.9766366,1.9890347,1.0879939,-4.6106644,23.10658,-31.526266,52.238995,-17.900084,9.002553,2.0813894,-23.485735,-25.297972,30.84351,37.308533,23.476545,7.990616,-21.308977
93,2.3943369388580322,1.7209250926971436,78.42405700683594,-0.12569540052139108,-1.0451562969252417,-93.6400583346023,4.3506784,12.032938,18.664778,7.9674196,-7.310744,-9.794585,2.7730498,-8.809604,-19.50929,6.851378,-7.1652617,7.798641,-4.0946407,1.8958548,1.0318308,-4.533208,23.583769,-31.231516,51.906624,-18.016256,8.937845,2.1975188,-24.084637,-26.054316,29.030334,34.22819,22.572538,8.379281,-23.001768
94,2.4111602306365967,1.7272976636886597,78.42542266845703,-0.11741578656487466,-1.05915354311655,-93.62076979281275,4.3668942,12.005048,18.651443,7.9361315,-7.2920365,-9.7861,2.788546,-8.834416,-19.52671,6.8511415,-7.1679606,7.8085628,-4.231551,1.79646,0.9708827,-4.478574,24.072987,-30.994686,51.663105,-18.06919,8.892476,2.2808409,-24.77043,-26.837034,27.26074,30.925568,21.756683,8.852663,-24.917456
95,2.4278125762939453,1.7321275472640991,78.42510223388672,-0.10916015709808384,-1.076762873633187,-93.60414362205047,4.387067,11.975379,18.63997,7.9049397,-7.2730336,-9.776116,2.8066432,-8.861013,-19.542017,6.8497562,-7.1679587,7.819619,-4.3813877,1.694022,0.90691996,-4.4274836,24.568739,-30.784843,51.48958,-18.09541,8.860059,2.3490658,-25.546581,-27.642954,25.502323,27.424616,20.897734,9.235954,-26.782784
96,2.44234037399292,1.743550181388855,78.42556762695312,-0.0997951041370827,-1.0955249941758296,-93.59377305096633,4.40966,11.941384,18.634066,7.8713317,-7.251328,-9.762969,2.8218398,-8.891209,-19.550741,6.8482976,-7.161079,7.8346457,-4.539624,1.5911117,0.84005064,-4.3603745,25.063503,-30.569607,51.36991,-18.130558,8.833505,2.419934,-26.45588,-28.468004,23.743439,23.78163,19.870544,9.351442,-28.325378
97,2.46085786819458,1.7544796466827393,78.427490234375,-0.0872380184903155,-1.1193845598242518,-93.58971663797189,4.43747,11.90387,18.632372,7.839273,-7.2296157,-9.747157,2.8376253,-8.924727,-19.553144,6.848175,-7.1475716,7.8528557,-4.709574,1.4909298,0.7703295,-4.277941,25.552132,-30.345146,51.31777,-18.175085,8.812058,2.5084488,-27.479637,-29.300117,21.942074,19.86077,18.661165,9.112664,-29.53836
98,2.4831604957580566,1.771584391593933,78.4308090209961,-0.07564421264683255,-1.148546097390448,-93.59063105253136,4.4726744,11.863149,18.633915,7.8040676,-7.2055984,-9.729339,2.856655,-8.960538,-19.551487,6.8465,-7.1284122,7.8732285,-4.8966055,1.3933673,0.6919333,-4.188582,26.033455,-30.12629,51.344723,-18.212482,8.798357,2.6017413,-28.62352,-30.139034,20.129932,15.698721,17.313332,8.621762,-30.557661
99,2.51082706451416,1.7921116352081299,78.43594360351562,-0.06028625010522766,-1.173743947858456,-93.59674753539929,4.503418,11.817596,18.64189,7.7699895,-7.180644,-9.707598,2.8675246,-9.001008,-19.542597,6.844885,-7.103127,7.8984227,-5.1005216,1.2977399,0.59930384,-4.0826955,26.505775,-29.904575,51.427277,-18.254166,8.790641,2.6757147,-29.98571,-31.005896,18.41714,11.620033,15.796053,7.978173,-31.325796
100,2.538891077041626,1.8110204935073853,78.44163513183594,-0.040275285652731134,-1.18614852007878,-93.60871357329788,4.5224905,11.765696,18.659483,7.733364,-7.152697,-9.6799555,2.8607943,-9.046524,-19.52432,6.8420315,-7.069915,7.930915,-5.32278,1.2066021,0.4909726,-3.9478981,26.966867,-29.665508,51.536587,-18.308697,8.78742,2.7062035,-31.6826,-31.93538,16.925846,7.9584455,14.097391,7.2774305,-31.78082
101,2.570093870162964,1.8312562704086304,78.44872283935547,-0.015371149919436274,-1.1814838550784896,-93.62591721290666,4.524536,11.704565,18.687847,7.6926737,-7.1192484,-9.643937,2.8290706,-9.100148,-19.494614,6.840593,-7.026545,7.975236,-5.567546,1.1275293,0.37307608,-3.7711098,27.410387,-29.380587,51.668415,-18.386503,8.783866,2.6853442,-33.77052,-32.939133,15.655052,4.673694,12.150879,6.4527097,-31.778095
102,2.602604866027832,1.8491113185882568,78.45577239990234,0.01332852493787601,-1.165008815981008,-93.6483189882505,4.513602,11.636551,18.724876,7.652015,-7.0830603,-9.601304,2.780236,-9.15974,-19.455313,6.8381753,-6.9737935,8.028713,-5.8314548,1.0651937,0.2499472,-3.5626144,27.832539,-29.060291,51.832645,-18.477432,8.782026,2.625735,-36.187157,-34.017525,14.567425,1.6172593,10.001565,5.4542966,-31.41381
103,2.6358795166015625,1.8681669235229492,78.462646484375,0.0436339703336209,-1.1420865582913984,-93.67706432344137,4.4988813,11.566127,18.770144,7.609695,-7.0462255,-9.5561695,2.7214825,-9.221472,-19.40864,6.8360567,-6.9183354,8.083466,-6.0947194,1.0175853,0.124523975,-3.3516011,28.236332,-28.754412,52.017673,-18.559504,8.790257,2.53367,-38.821823,-35.18831,13.703951,-1.0923588,7.7917376,4.4163465,-30.97404
104,2.6726608276367188,1.8864572048187256,78.4675064086914,0.07354699578169455,-1.1177389014077896,-93.71297863675366,4.4858756,11.498359,18.822575,7.5706162,-7.014034,-9.512697,2.661334,-9.281218,-19.357004,6.8340282,-6.866901,8.131502,-6.3337393,0.9839717,0.002436153,-3.1665406,28.627096,-28.514244,52.2055,-18.610073,8.8175,2.4146516,-41.55979,-36.475075,13.103292,-3.345487,5.6575193,3.496382,-30.730734
105,2.7050833702087402,1.902991771697998,78.47206115722656,0.10299722549498443,-1.0884281647752776,-93.76724826904766,4.4756303,11.434581,18.894579,7.533548,-6.9875007,-9.470417,2.5918,-9.337297,-19.289644,6.832595,-6.818631,8.168398,-6.5410213,0.9658225,-0.119020805,-3.0181012,29.01019,-28.381525,52.416126,-18.646069,8.867455,2.2658725,-44.468872,-37.905666,12.819838,-5.0914583,3.4017699,2.7424548,-30.72815
106,2.740607500076294,1.9152114391326904,78.47657012939453,0.1320144989055452,-1.052908421077065,-93.83566986560392,4.4663515,11.37154,18.98267,7.4935145,-6.962169,-9.427612,2.51121,-9.392255,-19.208841,6.832528,-6.7714233,8.199194,-6.7078304,0.96743506,-0.23133585,-2.90488,29.382078,-28.335793,52.643986,-18.671959,8.935677,2.0847013,-47.569275,-39.47881,12.818836,-6.4408607,1.0360938,2.0795944,-30.831331
107,2.7804012298583984,1.923099160194397,78.48201751708984,0.1605126404570796,-1.0196852132024414,-93.89648695261306,4.4560127,11.309059,19.061882,7.4589453,-6.939947,-9.386373,2.4378636,-9.447922,-19.137173,6.8322763,-6.7281575,8.23022,-6.8123817,0.9856205,-0.3183543,-2.8439884,29.736015,-28.341755,52.84658,-18.650251,9.016907,1.878352,-50.69333,-41.163742,13.005999,-7.4994473,-0.9951539,1.496207,-31.021362
108,2.8177051544189453,1.9309444427490234,78.48766326904297,0.1886222198752984,-0.9976954806504834,-93.92786669746324,4.448249,11.245061,19.108234,7.4262404,-6.9160333,-9.348862,2.3896956,-9.506552,-19.097181,6.831551,-6.692366,8.2677965,-6.8404393,1.009927,-0.36889273,-2.8510597,30.06636,-28.360704,52.98956,-18.543543,9.10516,1.6553364,-53.678455,-42.91787,13.283043,-8.353414,-2.2564292,0.9768757,-31.266846
109,2.8507370948791504,1.9382755756378174,78.49331665039062,0.21619298299511003,-0.9889694995766667,-93.92947147749219,4.444119,11.17905,19.119982,7.3982387,-6.891673,-9.315873,2.3694413,-9.569921,-19.090164,6.830852,-6.6651535,8.314751,-6.7831616,1.0326515,-0.38320267,-2.9444947,30.375582,-28.401333,53.074547,-18.284174,9.2176485,1.3802263,-56.539227,-44.7211,13.650506,-8.930295,-2.458619,0.5090566,-31.55896
110,2.883883476257324,1.9422225952148438,78.49795532226562,0.2426355651090449,-0.9889109972609789,-93.91105204639133,4.4438577,11.11165,19.10869,7.3711424,-6.86635,-9.286253,2.3644767,-9.637595,-19.105316,6.8389635,-6.6492424,8.367238,-6.660328,1.0514895,-0.3717287,-3.1095896,30.669043,-28.473019,53.124794,-17.910769,9.349265,1.0628281,-59.388424,-46.572205,14.16882,-9.192855,-1.8937217,0.09772252,-31.890493
111,2.9132235050201416,1.946382761001587,78.50359344482422,0.2685993337925188,-0.9965040786947288,-93.86599197433154,4.441452,11.04376,19.069056,7.3481536,-6.8407717,-9.259161,2.3772478,-9.707358,-19.147137,6.8496513,-6.640961,8.421761,-6.4864173,1.0618812,-0.3369559,-3.3252876,30.94407,-28.552145,53.140175,-17.545578,9.461761,0.7788557,-62.142815,-48.43832,14.792447,-9.307741,-1.0457696,-0.25044268,-32.237854
112,2.9375789165496826,1.9537901878356934,78.50971984863281,0.2932959495480374,-1.0105913983589236,-93.78762330921043,4.4329915,10.976577,18.995909,7.3269596,-6.812256,-9.234002,2.4098253,-9.77674,-19.220615,6.858016,-6.6372895,8.474638,-6.2843494,1.053351,-0.28453746,-3.5699005,31.198046,-28.611946,53.129963,-17.312443,9.518668,0.6068353,-64.71044,-50.273216,15.460334,-9.432738,-0.40516776,-0.52378994,-32.579277
113,2.959815502166748,1.9608103036880493,78.51657104492188,0.31632000552989953,-1.0320669397725761,-93.66241485743892,4.413742,10.906963,18.875046,7.3087606,-6.779246,-9.21211,2.4668112,-9.848614,-19.337288,6.864072,-6.638816,8.526955,-6.078694,1.0152142,-0.21786593,-3.829444,31.434517,-28.625547,53.08433,-17.254353,9.499443,0.5822426,-67.09496,-52.04746,16.183956,-9.53087,-0.06792374,-0.6729069,-32.930473
114,2.976637601852417,1.9682843685150146,78.52128601074219,0.33986915268320333,-1.0610340783422674,-93.49778908696356,4.3873158,10.83595,18.713202,7.2939587,-6.7431297,-9.193465,2.5487182,-9.921669,-19.491976,6.864039,-6.643436,8.579917,-5.8737135,0.9499275,-0.13813926,-4.0974317,31.658936,-28.59298,52.99968,-17.301128,9.428105,0.66029423,-69.36089,-53.75031,16.99178,-9.522655,0.19988829,-0.7200847,-33.293144
115,2.9900522232055664,1.9731196165084839,78.52420043945312,0.3607499009092761,-1.095739607108531,-93.31851556575212,4.3612995,10.768453,18.53764,7.2815976,-6.7080817,-9.175112,2.6425824,-9.992149,-19.661858,6.8639965,-6.6524086,8.6304245,-5.665785,0.8649424,-0.048927277,-4.361597,31.871494,-28.52453,52.89733,-17.407545,9.334987,0.8003377,-71.51125,-55.368584,17.843199,-9.491649,0.41207555,-0.7566164,-33.626804
116,2.999033212661743,1.9771268367767334,78.52483367919922,0.3790718112061318,-1.1339362216031599,-93.14881577125566,4.339742,10.711417,18.37459,7.2781715,-6.6820674,-9.154369,2.7368877,-10.054875,-19.824894,6.8666406,-6.665149,8.67513,-5.447219,0.76653266,0.046176426,-4.6183977,32.07009,-28.437235,52.80585,-17.52906,9.249892,0.9621307,-73.519165,-56.889618,18.673527,-9.53319,0.5754394,-0.87342924,-33.888752
117,3.005847930908203,1.9810594320297241,78.52406311035156,0.39351496355453963,-1.1727406924564707,-92.98717992011024,4.3190618,10.666442,18.225237,7.2850213,-6.667319,-9.127778,2.8324735,-10.108187,-19.984106,6.865423,-6.678936,8.714135,-5.224901,0.65105236,0.14266607,-4.8599052,32.25546,-28.322683,52.724834,-17.690577,9.165484,1.1750747,-75.35594,-58.308372,19.465544,-9.658419,0.66440946,-1.1109259,-34.054142
118,3.0097436904907227,1.9837090969085693,78.52264404296875,0.40543596348452277,-1.213984414621412,-92.82327543539249,4.298733,10.629807,18.077581,7.298154,-6.658904,-9.097761,2.9339874,-10.1547165,-20.148268,6.861572,-6.6952167,8.748801,-5.0077043,0.5155006,0.24265689,-5.0836844,32.430202,-28.16993,52.641525,-17.90409,9.069873,1.4474062,-77.0336,-59.625336,20.234774,-9.813559,0.6793665,-1.4145951,-34.14806
119,3.008999824523926,1.9872071743011475,78.52178192138672,0.4149309563781585,-1.2627090528880034,-92.6683774340054,4.2881956,10.599444,17.938158,7.314724,-6.6542335,-9.07025,3.0384357,-10.195808,-20.304415,6.862479,-6.715042,8.777938,-4.789181,0.36778006,0.35099047,-5.2951016,32.59316,-27.99064,52.565475,-18.103222,8.987633,1.7082113,-78.58377,-60.840015,20.964584,-9.998488,0.6673932,-1.7335165,-34.20094
120,3.005758762359619,1.9937052726745605,78.52040100097656,0.4218574717963709,-1.3241201539180334,-92.53366268598799,4.2959914,10.574319,17.813587,7.3326902,-6.6502147,-9.051198,3.146746,-10.230939,-20.440308,6.868218,-6.7363434,8.800178,-4.5608783,0.2149891,0.4722321,-5.5053496,32.740665,-27.800707,52.512672,-18.222212,8.944102,1.8873278,-80.02834,-61.953056,21.632189,-10.213832,0.6739756,-2.016922,-34.241177
121,3.006519079208374,2.0025269985198975,78.51960754394531,0.4258785560097709,-1.4036071316417866,-92.42481646588595,4.330753,10.555414,17.707516,7.3513246,-6.6468706,-9.044454,3.2600489,-10.259553,-20.549986,6.88486,-6.7637386,8.810778,-4.3158712,0.058442038,0.6131794,-5.7228794,32.86777,-27.588274,52.493206,-18.224903,8.95687,1.955085,-81.35939,-62.96637,22.228897,-10.469419,0.7168287,-2.2566328,-34.26037
122,3.007333278656006,2.0154833793640137,78.5190200805664,0.42747267635926817,-1.4970107628265426,-92.33494437624711,4.3851094,10.54362,17.615702,7.372556,-6.645668,-9.04609,3.3784506,-10.28149,-20.64097,6.9088244,-6.7961392,8.811842,-4.060471,-0.10232012,0.769111,-5.942027,32.97291,-27.3502,52.500824,-18.15214,9.009089,1.9528521,-82.561966,-63.88216,22.758623,-10.752427,0.7693412,-2.477889,-34.247925
123,3.006054401397705,2.0315794944763184,78.51950073242188,0.42760197581331433,-1.5952691146290203,-92.25639400516279,4.447987,10.53414,17.533382,7.393264,-6.6453094,-9.049905,3.4957728,-10.300576,-20.72011,6.9353385,-6.826535,8.812643,-3.8060656,-0.2645805,0.9261754,-6.15553,33.05891,-27.11828,52.52869,-18.055529,9.073537,1.9172441,-83.653435,-64.7041,23.224325,-11.037246,0.81414765,-2.6798341,-34.228016
124,3.0072579383850098,2.047980308532715,78.52110290527344,0.42798178920377317,-1.6893619822993793,-92.18175951736964,4.505614,10.52363,17.455238,7.4153104,-6.6464972,-9.049725,3.6087003,-10.319403,-20.794664,6.954484,-6.8455334,8.822166,-3.5625708,-0.42635882,1.0710403,-6.3576612,33.130775,-26.927418,52.56917,-17.988787,9.123667,1.885372,-84.64971,-65.437386,23.629002,-11.30035,0.8346293,-2.8616104,-34.224865
125,3.0087268352508545,2.065544605255127,78.5229263305664,0.4282806783384653,-1.7806702629711557,-92.10943762499835,4.561701,10.51153,17.380762,7.4325275,-6.647016,-9.046333,3.7180862,-10.337156,-20.864859,6.9679484,-6.851646,8.8446245,-3.3262815,-0.5867401,1.2063107,-6.5508738,33.189655,-26.787022,52.62346,-17.965822,9.155657,1.8558543,-85.53645,-66.083824,23.96132,-11.542167,0.81568944,-3.0171528,-34.251328
126,3.0114974975585938,2.0840835571289062,78.52471160888672,0.42792968385051805,-1.8728724193466626,-92.04320625935513,4.6179333,10.5007105,17.31189,7.453152,-6.6507783,-9.042227,3.8276865,-10.352234,-20.927927,6.9739094,-6.846584,8.874531,-3.0918489,-0.74616563,1.3382189,-6.73767,33.234276,-26.680365,52.691856,-17.958878,9.182961,1.8123584,-86.30262,-66.645584,24.215574,-11.77274,0.7711308,-3.1485846,-34.29223
127,3.016249179840088,2.103273868560791,78.52552795410156,0.4290369665458839,-1.9596972825282428,-91.98388648694504,4.670797,10.4882145,17.249441,7.4717016,-6.6534457,-9.033597,3.9272108,-10.369017,-20.984234,6.981707,-6.838677,8.90662,-2.8660533,-0.9052143,1.4585505,-6.9104223,33.267365,-26.602886,52.762444,-17.960434,9.20513,1.7691365,-86.9765,-67.130424,24.409693,-11.979943,0.7298512,-3.2674222,-34.330833
128,3.023721218109131,2.1234140396118164,78.52631378173828,0.4328293729227289,-2.0350329966920744,-91.93198083991594,4.713779,10.471682,17.193914,7.4897885,-6.654747,-9.01658,4.0103993,-10.390571,-21.034925,6.9914346,-6.8312593,8.935564,-2.6534662,-1.0637534,1.5602725,-7.060707,33.292862,-26.550827,52.819595,-17.96249,9.222066,1.7396551,-87.58822,-67.54858,24.564005,-12.153746,0.72187793,-3.3848786,-34.352142
129,3.033151388168335,2.1418099403381348,78.52814483642578,0.441877877562067,-2.096640878895467,-91.89064246401118,4.742983,10.450423,17.147018,7.513048,-6.656331,-8.986593,4.0711513,-10.419929,-21.077875,7.0097346,-6.8283477,8.960115,-2.4472094,-1.2221855,1.6413457,-7.1890454,33.313564,-26.536957,52.855644,-17.97278,9.229507,1.7294818,-88.13001,-67.90379,24.67556,-12.291259,0.7660741,-3.5068352,-34.354523
130,3.0405960083007812,2.1589982509613037,78.52970886230469,0.45358071515442405,-2.148025372590514,-91.85860596472484,4.7641187,10.424921,17.108177,7.536018,-6.656643,-8.946697,4.116642,-10.45353,-21.113716,7.0296535,-6.824886,8.983005,-2.2444627,-1.3801476,1.7076325,-7.2980046,33.32915,-26.559883,52.874454,-17.992758,9.229414,1.729879,-88.58898,-68.197876,24.733986,-12.399485,0.8464148,-3.62598,-34.346153
131,3.047992467880249,2.1769330501556396,78.53071594238281,0.4679253203234683,-2.191573052777452,-91.82988157783501,4.778118,10.397264,17.073313,7.5570617,-6.6558733,-8.905018,4.152123,-10.489233,-21.146185,7.0480127,-6.8191137,9.005568,-2.0550423,-1.5364993,1.7632258,-7.385585,33.339355,-26.598251,52.880108,-18.007992,9.231348,1.7334119,-88.990654,-68.43951,24.75295,-12.48015,0.9394209,-3.734407,-34.326492
132,3.057241916656494,2.1954140663146973,78.53118896484375,0.4811042711213747,-2.2298292516770113,-91.79859484363499,4.788024,10.368005,17.038427,7.571314,-6.653484,-8.869406,4.1824307,-10.524884,-21.179136,7.0653896,-6.812535,9.028602,-1.8872454,-1.6889766,1.8131644,-7.4504323,33.343918,-26.632462,52.875443,-18.00528,9.244404,1.7320282,-89.368454,-68.64076,24.753954,-12.530512,1.0229865,-3.8238342,-34.296803
133,3.067903518676758,2.2131459712982178,78.53206634521484,0.491496318270557,-2.2624096344338764,-91.7632156500617,4.7927966,10.338549,17.00249,7.5781994,-6.6490097,-8.842835,4.2091846,-10.558648,-21.213812,7.0786653,-6.8037395,9.050369,-1.7378156,-1.8353403,1.8587552,-7.49569,33.34174,-26.668243,52.856884,-17.977879,9.275889,1.7265208,-89.72212,-68.80848,24.735779,-12.552175,1.1110114,-3.8889694,-34.247852
134,3.0854411125183105,2.233870267868042,78.53326416015625,0.5009133013708548,-2.2885157796901856,-91.72702920739016,4.7927656,10.307328,16.967903,7.5770783,-6.64126,-8.820814,4.2265944,-10.593771,-21.247526,7.0955563,-6.7960978,9.071036,-1.5995306,-1.9767464,1.8984354,-7.5253644,33.332115,-26.71671,52.825207,-17.933897,9.319224,1.7199057,-90.03599,-68.94544,24.68968,-12.546243,1.212011,-3.9349635,-34.18358
135,3.09971022605896,2.255364418029785,78.53380584716797,0.5103897108625576,-2.3094688883019434,-91.69075590416358,4.788453,10.273799,16.93487,7.5730886,-6.633744,-8.800238,4.2404523,-10.629575,-21.280024,7.106132,-6.7842274,9.094057,-1.4740555,-2.1145334,1.9330237,-7.5381823,33.315197,-26.765884,52.787373,-17.88189,9.363803,1.7072833,-90.320366,-69.05772,24.626894,-12.520631,1.2976037,-3.9693437,-34.125244
136,3.119316816329956,2.276028633117676,78.53533935546875,0.5216412640741904,-2.3265085843712923,-91.65537309064266,4.7821174,10.235983,16.903875,7.564689,-6.6250224,-8.77807,4.2494783,-10.668946,-21.309599,7.1153846,-6.7699294,9.123108,-1.3761888,-2.2502162,1.9616073,-7.514555,33.29853,-26.78888,52.738728,-17.832237,9.399685,1.6835132,-90.608864,-69.12358,24.57701,-12.466214,1.3299993,-4.0001316,-34.092587
137,3.1410045623779297,2.2952237129211426,78.53762817382812,0.5327435345651051,-2.3404307379712557,-91.61999923039602,4.7737913,10.195366,16.874882,7.5547514,-6.6182423,-8.753989,4.258333,-10.709179,-21.336855,7.114933,-6.7497015,9.159866,-1.2745973,-2.3792446,1.9925116,-7.4875474,33.267796,-26.817463,52.69003,-17.780596,9.42171,1.6444016,-90.8777,-69.208694,24.526333,-12.407453,1.3141537,-4.030593,-34.106564
138,3.165952444076538,2.315842628479004,78.53926086425781,0.5448038381696492,-2.3501990808659,-91.58465584580881,4.7636633,10.1513405,16.848085,7.539685,-6.610918,-8.729431,4.2602468,-10.75276,-21.361141,7.117828,-6.730341,9.202219,-1.1954728,-2.5059202,2.0194297,-7.4238315,33.24249,-26.83218,52.61911,-17.73094,9.437263,1.5932369,-91.13969,-69.2544,24.4763,-12.318998,1.2498981,-4.0567565,-34.14676
139,3.1960413455963135,2.3356685638427734,78.54067993164062,0.557704412754705,-2.355468780317234,-91.55101891943404,4.7499585,10.102569,16.823114,7.5220194,-6.602556,-8.703888,4.258791,-10.799294,-21.383198,7.1140738,-6.704859,9.247701,-1.1249373,-2.6308453,2.0425887,-7.3455396,33.212307,-26.8354,52.546974,-17.67933,9.452024,1.535297,-91.38943,-69.29382,24.430767,-12.220886,1.1727284,-4.07225,-34.198036
140,3.2326531410217285,2.358433485031128,78.5429916381836,0.5727934270412488,-2.3557264701631437,-91.52098684288063,4.7334995,10.046502,16.799925,7.498553,-6.5897107,-8.6766615,4.246486,-10.853589,-21.40154,7.1191034,-6.680067,9.294019,-1.0620451,-2.7569168,2.0586293,-7.2601733,33.177437,-26.822775,52.486526,-17.630371,9.472045,1.4760548,-91.63028,-69.33037,24.396055,-12.119826,1.109212,-4.0712376,-34.24176
141,3.2725770473480225,2.379978895187378,78.54405212402344,0.5916362018219392,-2.35208633827186,-91.49679886248748,4.7161856,9.981787,16.77951,7.4694424,-6.572345,-8.648416,4.2255664,-10.915843,-21.41429,7.129346,-6.6527452,9.341912,-0.9918851,-2.8776233,2.0695934,-7.193584,33.11229,-26.803242,52.463768,-17.574867,9.499774,1.4128602,-91.85811,-69.38988,24.378195,-12.028234,1.0767747,-4.050291,-34.284164
142,3.3129560947418213,2.3997061252593994,78.54451751708984,0.6128930574173342,-2.3443865618873967,-91.47690270979943,4.697076,9.9098835,16.761557,7.4356475,-6.5517764,-8.619238,4.198533,-10.984168,-21.422895,7.139969,-6.62179,9.392109,-0.92451143,-2.9985952,2.0736952,-7.1228786,33.040432,-26.776917,52.452774,-17.522953,9.532928,1.3433923,-92.073715,-69.447525,24.37022,-11.929867,1.0519891,-4.0135927,-34.329613
143,3.3544373512268066,2.4205753803253174,78.54500579833984,0.6356054269535503,-2.3303788345983887,-91.45730118722476,4.671842,9.833026,16.744331,7.3988404,-6.528814,-8.5876,4.1643662,-11.056648,-21.431042,7.149028,-6.5876637,9.442361,-0.86142886,-3.1175926,2.0707273,-7.0561314,32.9563,-26.745798,52.461193,-17.471184,9.56363,1.2781011,-92.2859,-69.51124,24.378838,-11.827646,1.029623,-3.964645,-34.367672
144,3.399515151977539,2.439774751663208,78.54608917236328,0.6595332869834479,-2.30759162067386,-91.43405256179423,4.635941,9.753015,16.72642,7.3602858,-6.503878,-8.551979,4.118338,-11.133501,-21.441643,7.163135,-6.555442,9.490392,-0.8156428,-3.2416997,2.0595908,-6.969888,32.885765,-26.699373,52.462322,-17.425787,9.587436,1.2250422,-92.497154,-69.56556,24.39653,-11.716768,0.9948407,-3.9078324,-34.384975
145,3.4485015869140625,2.4595518112182617,78.54801940917969,0.6853980804317541,-2.2713871232699026,-91.4074214282965,4.584748,9.67014,16.709755,7.3189707,-6.476018,-8.510888,4.055438,-11.214338,-21.454468,7.1803007,-6.5244503,9.533925,-0.7668076,-3.3584235,2.0365384,-6.909273,32.787308,-26.66184,52.502213,-17.379507,9.595851,1.1895471,-92.72076,-69.64585,24.448782,-11.604624,0.9642423,-3.8335977,-34.3748
146,3.4994266033172607,2.479153871536255,78.55113983154297,0.7109428225081996,-2.2242886801192516,-91.37888639118982,4.5211854,9.583632,16.69414,7.276383,-6.446592,-8.46556,3.9813588,-11.298376,-21.468851,7.1943183,-6.4906797,9.574612,-0.72167087,-3.4761927,2.0022635,-6.8522797,32.684994,-26.626146,52.557175,-17.339891,9.595987,1.1651456,-92.937584,-69.7353,24.51317,-11.490144,0.93221575,-3.743746,-34.342594
147,3.5503950119018555,2.504249334335327,78.55353546142578,0.7387196817285349,-2.1751867131186176,-91.34697379157045,4.454694,9.493366,16.675741,7.2317853,-6.415658,-8.418213,3.9044783,-11.386564,-21.485636,7.2105827,-6.4562497,9.616492,-0.68238497,-3.594327,1.9673033,-6.7982855,32.578403,-26.585594,52.624912,-17.297564,9.593858,1.1492515,-93.15275,-69.83621,24.591845,-11.375248,0.893348,-3.6564703,-34.310627
148,3.6010549068450928,2.5292880535125732,78.55582427978516,0.7676809827523672,-2.132995197038383,-91.30983273198127,4.3943243,9.399616,16.650639,7.186239,-6.3850245,-8.371122,3.836549,-11.478069,-21.506685,7.227956,-6.4199677,9.663579,-0.64980674,-3.7122657,1.9410255,-6.7490926,32.46792,-26.537863,52.70517,-17.245504,9.595365,1.1395187,-93.370094,-69.95006,24.687672,-11.263039,0.84009963,-3.589951,-34.300793
149,3.654642105102539,2.551868200302124,78.55783081054688,0.7958170874016113,-2.099915300875566,-91.26452805223103,4.3421392,9.300876,16.614853,7.1391296,-6.3543916,-8.324327,3.78078,-11.57383,-21.53444,7.2471437,-6.381162,9.717949,-0.62710255,-3.8311152,1.9259005,-6.704122,32.35311,-26.478588,52.800896,-17.175114,9.603537,1.1372995,-93.59342,-70.07905,24.80587,-11.150998,0.7638696,-3.551321,-34.325996
150,3.71260929107666,2.5743489265441895,78.56024932861328,0.824982047747344,-2.0712638381285284,-91.21271806594756,4.2917495,9.198143,16.571133,7.093438,-6.324506,-8.276915,3.7323542,-11.673522,-21.567518,7.2649736,-6.338631,9.777251,-0.6113527,-3.949989,1.9174534,-6.664127,32.233513,-26.411776,52.91108,-17.092838,9.614858,1.1429564,-93.81945,-70.22367,24.943537,-11.039079,0.67151076,-3.5299647,-34.37306
151,3.7710134983062744,2.5976529121398926,78.562255859375,0.8546863943325957,-2.0454873504607067,-91.16007569118445,4.245548,9.092828,16.526852,7.045105,-6.2944407,-8.229414,3.6838696,-11.776665,-21.600754,7.291034,-6.29947,9.838326,-0.5960653,-4.0677166,1.9134048,-6.6298647,32.110302,-26.343548,53.029503,-17.010971,9.625155,1.1530068,-94.046776,-70.3828,25.095436,-10.931993,0.5799392,-3.517725,-34.42305
152,3.832829475402832,2.6204380989074707,78.56425476074219,0.8838997977338248,-2.0211220726665506,-91.11182383444331,4.203301,8.988065,16.488441,6.996005,-6.266357,-8.182565,3.6380148,-11.878636,-21.631117,7.310826,-6.2575216,9.897886,-0.5758598,-4.182681,1.9121261,-6.6006255,31.98574,-26.2797,53.14854,-16.943193,9.630176,1.1639624,-94.27413,-70.55433,25.255352,-10.831613,0.5067215,-3.5064015,-34.45732
153,3.8961336612701416,2.6438636779785156,78.56521606445312,0.9138720318394954,-1.9996835675671039,-91.07070792515206,4.167182,8.884214,16.458525,6.9459176,-6.240694,-8.137109,3.5919168,-11.980645,-21.65561,7.3326774,-6.217582,9.955748,-0.54979134,-4.295477,1.9153497,-6.5736794,31.861526,-26.215958,53.26615,-16.897795,9.626655,1.1753116,-94.50067,-70.73768,25.422972,-10.7426605,0.4524648,-3.496954,-34.469315
154,3.9584834575653076,2.6686620712280273,78.56629180908203,0.942466639197427,-1.9813396072516196,-91.03342849859108,4.136663,8.779869,16.43327,6.894418,-6.2166753,-8.092505,3.5430415,-12.085126,-21.676228,7.3647866,-6.1830997,10.0133705,-0.52186644,-4.4073625,1.9234047,-6.5473056,31.738224,-26.149515,53.383434,-16.86624,9.617632,1.1887174,-94.72725,-70.93304,25.599932,-10.660894,0.40961775,-3.4928777,-34.469067
155,4.0216593742370605,2.695756673812866,78.566650390625,0.970594089165812,-1.962561446081081,-90.99654387449151,4.1066337,8.674754,16.409971,6.842018,-6.193533,-8.047311,3.4986815,-12.188407,-21.697792,7.38556,-6.1426063,10.07035,-0.49328807,-4.5180607,1.9320816,-6.523527,31.61658,-26.08788,53.498432,-16.83582,9.609048,1.2034515,-94.9499,-71.138054,25.779947,-10.585441,0.37906614,-3.4895668,-34.4631
156,4.086154937744141,2.720597505569458,78.56819915771484,1.0005901284435519,-1.9392986378756267,-90.95678734769984,4.07114,8.5685005,16.385916,6.7889476,-6.1694098,-8.00014,3.4511662,-12.293032,-21.721884,7.405673,-6.101582,10.126548,-0.46565,-4.628403,1.936379,-6.503101,31.497265,-26.037045,53.608494,-16.792715,9.606556,1.2187054,-95.16213,-71.34943,25.955051,-10.5159645,0.36007464,-3.4826376,-34.457157
157,4.1519856452941895,2.7434301376342773,78.5694580078125,1.0295193170158845,-1.9108798755137915,-90.91319096966917,4.014639,8.464867,16.359608,6.7676244,-6.1625543,-7.9499154,3.395778,-12.401525,-21.74914,7.434886,-6.0662766,10.180636,-0.44118923,-4.7386675,1.935137,-6.4849114,31.380579,-25.99715,53.71341,-16.731037,9.613955,1.2378058,-95.36154,-71.56509,26.122234,-10.451295,0.36024058,-3.47287,-34.452576
158,4.22012186050415,2.765589952468872,78.5702133178711,1.0581865184671553,-1.8792845803670373,-90.86747413083829,3.9461415,8.362738,16.332848,6.764177,-6.1657314,-7.8976374,3.3392138,-12.511251,-21.778849,7.461176,-6.029821,10.2331505,-0.41957006,-4.8489184,1.9305196,-6.4680605,31.266949,-25.964643,53.814255,-16.65923,9.627252,1.259986,-95.54875,-71.78435,26.283598,-10.393833,0.37455222,-3.4621143,-34.445827
159,4.289538860321045,2.7888593673706055,78.57128143310547,1.0876956536257394,-1.8448075753653315,-90.82071353890679,3.874015,8.259807,16.305239,6.761035,-6.1682496,-7.8446794,3.2816696,-12.620722,-21.809027,7.4833083,-5.989613,10.286582,-0.40029544,-4.959202,1.9229616,-6.4508295,31.156982,-25.937529,53.908916,-16.584122,9.641276,1.2786051,-95.72655,-72.006485,26.438578,-10.341116,0.39015043,-3.4471745,-34.435284
160,4.356026649475098,2.8112118244171143,78.57174682617188,1.117559235132999,-1.807531384360171,-90.77413099254622,3.7981272,8.156503,16.275434,6.758573,-6.168805,-7.7926726,3.215911,-12.731833,-21.836006,7.5151143,-5.950488,10.34372,-0.38215595,-5.070146,1.9125775,-6.4329677,31.051815,-25.915531,53.996017,-16.513992,9.650772,1.2871189,-95.89537,-72.23042,26.585499,-10.294124,0.3929034,-3.4250853,-34.418938
161,4.424105167388916,2.832841396331787,78.57313537597656,1.1472999620494908,-1.766124169711328,-90.72696420905876,3.7172136,8.051611,16.241781,6.755636,-6.1656337,-7.7431974,3.15344,-12.839158,-21.861721,7.5276475,-5.895856,10.406678,-0.36621764,-5.1819267,1.8977587,-6.4124794,30.95224,-25.89577,54.072216,-16.446682,9.653289,1.2771472,-96.053474,-72.455246,26.721882,-10.25361,0.37782168,-3.3914444,-34.39127
162,4.490102767944336,2.8545444011688232,78.57405090332031,1.1782463627466009,-1.720660542925604,-90.67906188487855,3.6319094,7.944803,16.205845,6.7515364,-6.1594,-7.69501,3.0829632,-12.948285,-21.884773,7.5465426,-5.840065,10.473774,-0.35351068,-5.2950635,1.8787419,-6.389289,30.858902,-25.879171,54.1383,-16.38031,9.652192,1.2544568,-96.20131,-72.68043,26.849009,-10.219813,0.35210213,-3.3491683,-34.354687
163,4.5583271980285645,2.877925395965576,78.57591247558594,1.207575297811949,-1.6748822132759125,-90.63191030399,3.5463655,7.8387456,16.169718,6.748457,-6.1534986,-7.6455016,3.0132222,-13.056221,-21.90726,7.5629964,-5.782318,10.5408535,-0.34282,-5.408392,1.8598826,-6.3624434,30.77172,-25.866756,54.19615,-16.319143,9.650392,1.2331719,-96.33959,-72.90576,26.967937,-10.190047,0.3201505,-3.3057806,-34.319836
164,4.6256585121154785,2.8981127738952637,78.57642364501953,1.2369486590811998,-1.6324396638820393,-90.58711068735191,3.466542,7.735041,16.136333,6.7449965,-6.1495614,-7.591942,2.9460056,-13.162975,-21.92986,7.582229,-5.72815,10.603995,-0.33244103,-5.5211034,1.8454347,-6.3334713,30.690401,-25.862478,54.249596,-16.269632,9.651017,1.2275784,-96.468666,-73.13087,27.079165,-10.16222,0.28598464,-3.2689488,-34.297676
165,4.692449569702148,2.916966676712036,78.57909393310547,1.263969473962555,-1.5940946441018715,-90.54495436874042,3.3925278,7.6345444,16.105968,6.743331,-6.1490116,-7.5294423,2.8856943,-13.267327,-21.954002,7.5977774,-5.675883,10.66088,-0.32222718,-5.632596,1.8370419,-6.3008556,30.61408,-25.865303,54.296757,-16.228615,9.657639,1.2433442,-96.58895,-73.3553,27.181679,-10.136651,0.24068835,-3.2386096,-34.295902
166,4.758937835693359,2.940153121948242,78.58063507080078,1.2905287992158334,-1.557883552063105,-90.50474487647097,3.3224223,7.53579,16.077417,6.7416596,-6.149672,-7.460732,2.8236644,-13.372433,-21.977549,7.622857,-5.630413,10.714216,-0.31318542,-5.74376,1.8318229,-6.2660074,30.54289,-25.875404,54.338478,-16.195778,9.667698,1.272311,-96.70165,-73.57891,27.276892,-10.113596,0.18521942,-3.211432,-34.30683
167,4.825071334838867,2.9608771800994873,78.58209228515625,1.316086123256412,-1.523350079649457,-90.46616722491024,3.2556796,7.438476,16.050175,6.7395864,-6.1519756,-7.3946576,2.7625723,-13.476654,-21.99996,7.650256,-5.586243,10.767041,-0.30471498,-5.8545423,1.8280851,-6.2297754,30.476852,-25.89247,54.37779,-16.175297,9.674774,1.3081232,-96.80427,-73.80209,27.366974,-10.091891,0.13809572,-3.1897345,-34.319233
168,4.895391464233398,2.983582019805908,78.58435821533203,1.3402712330098427,-1.4900861510596233,-90.4288611070876,3.1909633,7.342601,16.023586,6.7377667,-6.1559367,-7.3401957,2.7056425,-13.578,-22.02102,7.6715145,-5.5375266,10.822406,-0.29596585,-5.9652987,1.8241272,-6.1944923,30.41636,-25.91781,54.41855,-16.172537,9.6727295,1.3444746,-96.894684,-74.0256,27.455055,-10.071059,0.11657464,-3.1759126,-34.32166
169,4.961521148681641,3.003386974334717,78.58541870117188,1.3626962956622672,-1.4588993205671226,-90.39142276715494,3.129572,7.247532,15.995668,6.7349353,-6.1625266,-7.3040757,2.6535647,-13.676547,-22.041985,7.687965,-5.485063,10.88133,-0.28830123,-6.0763383,1.8195798,-6.1607738,30.36234,-25.955526,54.46141,-16.207706,9.655784,1.3874015,-96.97322,-74.2508,27.545616,-10.04975,0.1349957,-3.1762974,-34.307667
170,5.029495716094971,3.0221304893493652,78.586181640625,1.3858081511482514,-1.4294672329976443,-90.35449496471675,3.071269,7.153248,15.967386,6.7314544,-6.171051,-7.280078,2.6036797,-13.773973,-22.062244,7.705441,-5.432818,10.942246,-0.28078786,-6.187406,1.8156321,-6.127266,30.314638,-26.003876,54.503506,-16.27153,9.628489,1.4373807,-97.04201,-74.478264,27.636427,-10.027513,0.1823009,-3.1875985,-34.28471
171,5.0991902351379395,3.039968490600586,78.58697509765625,1.405991809404872,-1.4006155821826636,-90.32075336008808,3.0146348,7.060963,15.942272,6.728673,-6.1804047,-7.257565,2.5552826,-13.868525,-22.07924,7.7193394,-5.3772893,11.00376,-0.26994166,-6.2975225,1.8127432,-6.093953,30.271595,-26.056337,54.544643,-16.325884,9.600875,1.4804516,-97.09965,-74.70663,27.7215,-10.009346,0.23416953,-3.1979594,-34.262566
172,5.168941020965576,3.055821657180786,78.58748626708984,1.4253865128103729,-1.3708961504752069,-90.2928262485323,2.9591548,6.9707603,15.924188,6.726124,-6.188764,-7.225748,2.5084033,-13.959075,-22.090816,7.7232614,-5.3142323,11.06489,-0.25276548,-6.40631,1.8108679,-6.0611944,30.230947,-26.105679,54.586327,-16.332724,9.582284,1.5028883,-97.1439,-74.93319,27.794163,-10.000086,0.26522163,-3.1954298,-34.250454
173,5.235185146331787,3.074467182159424,78.58790588378906,1.4460766630075303,-1.3383219558469284,-90.27203656492041,2.9026031,6.8825755,15.914852,6.7240863,-6.194865,-7.1811495,2.4481091,-14.050337,-22.09177,7.743315,-5.2563276,11.125678,-0.22847505,-6.514049,1.8085382,-6.029804,30.191265,-26.149683,54.631096,-16.26414,9.574385,1.4939177,-97.17258,-75.156044,27.852589,-9.999862,0.26626036,-3.1731942,-34.25354
174,5.299385070800781,3.0927066802978516,78.58851623535156,1.464793148209459,-1.3044404913149832,-90.25675086339092,2.8458564,6.796526,15.911857,6.7221003,-6.1990285,-7.1297336,2.3849988,-14.13924,-22.086224,7.7615066,-5.194756,11.186519,-0.20015696,-6.620968,1.8056276,-5.998786,30.15235,-26.190075,54.679123,-16.144878,9.572254,1.4637656,-97.18722,-75.37464,27.900183,-10.006162,0.2508423,-3.138831,-34.265526
175,5.368695259094238,3.1066031455993652,78.58954620361328,1.4835061448247944,-1.271846894946404,-90.24547521137127,2.7926848,6.7121024,15.913399,6.7206,-6.2046914,-7.074691,2.3236058,-14.225534,-22.07716,7.7770042,-5.130962,11.24716,-0.1698535,-6.7256937,1.8037847,-5.9675984,30.114353,-26.22893,54.728424,-16.018486,9.57537,1.4294906,-97.19126,-75.58778,27.936302,-10.01696,0.22874972,-3.102153,-34.2783
176,5.437649250030518,3.119863271713257,78.59051513671875,1.5003470643082968,-1.2432530118650968,-90.23695512543719,2.7458723,6.62905,15.91752,6.7190905,-6.213425,-7.0191956,2.2654712,-14.311733,-22.066496,7.795804,-5.0693164,11.307461,-0.14061263,-6.8279786,1.8041835,-5.933491,30.077444,-26.265589,54.776184,-15.926069,9.583627,1.4084222,-97.18972,-75.79427,27.961487,-10.030963,0.21087609,-3.0730343,-34.2832
177,5.504733562469482,3.134788990020752,78.59123229980469,1.5169167726192627,-1.2202817106107782,-90.2289427344286,2.7069588,6.5470333,15.922183,6.7181954,-6.227067,-6.963194,2.2204025,-14.395962,-22.058655,7.8023467,-5.0020313,11.368764,-0.11657454,-6.9267316,1.8083222,-5.8941026,30.041903,-26.29655,54.817646,-15.882632,9.601024,1.4035534,-97.18805,-75.99328,27.976126,-10.045533,0.19654547,-3.0510938,-34.271984
178,5.57029390335083,3.146088123321533,78.59040069580078,1.5346337238000176,-1.2009270061006376,-90.22310477809944,2.6738446,6.4652166,15.929404,6.718162,-6.2447557,-6.9050703,2.1674662,-14.484206,-22.04697,7.8348923,-4.948708,11.430927,-0.095497176,-7.0235143,1.8145291,-5.8510265,30.008236,-26.323072,54.855953,-15.865658,9.626379,1.4061606,-97.18483,-76.18422,27.982628,-10.061675,0.1806456,-3.0320978,-34.25097
179,5.640405654907227,3.1561310291290283,78.5915756225586,1.5494000669973786,-1.1835475211504949,-90.22280719489962,2.645751,6.3857985,15.941419,6.717275,-6.2630873,-6.8463593,2.1237855,-14.566467,-22.032717,7.849165,-4.885242,11.490925,-0.071887895,-7.117869,1.8212346,-5.805143,29.975973,-26.349371,54.895752,-15.858117,9.65181,1.4159238,-97.17335,-76.36598,27.980532,-10.079917,0.16957557,-3.0200381,-34.234467
180,5.70615816116333,3.167205572128296,78.59271240234375,1.5646330445186156,-1.1656770035508313,-90.23214463792328,2.6211085,6.3089056,15.961532,6.7160707,-6.2811017,-6.788155,2.069611,-14.64893,-22.007032,7.8796525,-4.828917,11.546587,-0.03893279,-7.210713,1.8259535,-5.758633,29.9443,-26.380848,54.943546,-15.843154,9.669319,1.4323899,-97.14431,-76.53708,27.967623,-10.101324,0.16873892,-3.018777,-34.23669
181,5.7734832763671875,3.1772685050964355,78.59394073486328,1.5782035020939365,-1.1464130623030404,-90.25477326708847,2.5988767,6.235372,15.992342,6.716399,-6.2992043,-6.730782,2.0060437,-14.728953,-21.967493,7.917769,-4.774917,11.595126,0.0067182733,-7.302789,1.8271395,-5.7128696,29.912907,-26.421284,55.003136,-15.819057,9.677402,1.4611734,-97.096,-76.69642,27.943851,-10.1239805,0.18484688,-3.0375247,-34.26825
182,5.840986728668213,3.1905875205993652,78.59596252441406,1.5913337767273237,-1.1273851731703726,-90.28751113802818,2.580972,6.165397,16.03126,6.716071,-6.316893,-6.673777,1.9516313,-14.801426,-21.921558,7.9301114,-4.7063136,11.638438,0.060772464,-7.392249,1.8265222,-5.6663036,29.881317,-26.46641,55.070473,-15.793017,9.6802025,1.5006487,-97.03171,-76.84375,27.908682,-10.147063,0.21270286,-3.071501,-34.31933
183,5.9059648513793945,3.1971051692962646,78.59734344482422,1.6057172098812094,-1.1088654183937348,-90.3249349604083,2.5664077,6.0953794,16.0749,6.715156,-6.3350945,-6.6164885,1.8667469,-14.884783,-21.862612,8.008822,-4.6712832,11.681537,0.116631374,-7.481333,1.8242209,-5.6190386,29.849527,-26.5119,55.145313,-15.765857,9.677328,1.5401324,-96.95771,-76.97982,27.866835,-10.174389,0.2424188,-3.1036325,-34.37231
184,5.973786354064941,3.203188180923462,78.59788513183594,1.6228600060379899,-1.091809303104239,-90.36136764504458,2.553545,6.0226946,16.119337,6.7154717,-6.3548894,-6.558717,1.7299356,-14.993438,-21.788568,8.208629,-4.698151,11.729287,0.1660285,-7.571336,1.8208473,-5.5674806,29.818432,-26.550066,55.223656,-15.737553,9.668426,1.568534,-96.884094,-77.10129,27.825502,-10.206655,0.2636366,-3.117033,-34.409714
185,6.039323329925537,3.2094712257385254,78.59800720214844,1.636853063711668,-1.0781533699713401,-90.39404174773294,2.5450199,5.951893,16.161922,6.7150984,-6.375713,-6.500643,1.6273366,-15.088329,-21.723001,8.346469,-4.6912065,11.7812805,0.2107685,-7.657179,1.8189777,-5.5169945,29.784967,-26.585112,55.310482,-15.709316,9.647974,1.5839477,-96.807495,-77.219345,27.783556,-10.251173,0.27930275,-3.1019974,-34.426086
186,6.105682849884033,3.2123446464538574,78.59866333007812,1.6491972846229515,-1.0667992122264538,-90.42640193255666,2.5401185,5.8825984,16.20524,6.7146854,-6.3976507,-6.4422975,1.5349283,-15.177779,-21.657866,8.469586,-4.6754684,11.835544,0.25308424,-7.7392144,1.8172626,-5.4663725,29.750458,-26.618338,55.404972,-15.681366,9.617825,1.5916573,-96.72753,-77.327774,27.741093,-10.302767,0.29126546,-3.0693035,-34.431046
187,6.173497676849365,3.2129454612731934,78.5992431640625,1.6601368270265129,-1.0580700922033004,-90.45907469723633,2.538822,5.8159647,16.24861,6.714805,-6.420312,-6.384644,1.4502363,-15.263843,-21.594658,8.583823,-4.6538534,11.891019,0.29335305,-7.817626,1.8167245,-5.4154325,29.714993,-26.64903,55.503082,-15.649801,9.588928,1.5926714,-96.645805,-77.42705,27.69723,-10.357198,0.29999787,-3.0322526,-34.43166
188,6.239323139190674,3.213787078857422,78.59904479980469,1.6690350289024245,-1.052281388387542,-90.49251392630889,2.5412123,5.752715,16.291563,6.7149725,-6.442503,-6.328664,1.3698331,-15.345503,-21.535292,8.695441,-4.6297164,11.946321,0.33222103,-7.8931823,1.8182328,-5.366181,29.67951,-26.67921,55.60245,-15.612287,9.572282,1.587969,-96.56389,-77.51765,27.652855,-10.412486,0.3035318,-3.0045238,-34.434265
189,6.299297332763672,3.215567111968994,78.59996032714844,1.6759841067176746,-1.0502013347454968,-90.52753450083962,2.5477805,5.6931524,16.33428,6.715302,-6.4638376,-6.275029,1.293277,-15.424111,-21.4795,8.806466,-4.6042933,12.002418,0.3540711,-7.9664283,1.8197715,-5.292673,29.657413,-26.689547,55.68006,-15.559796,9.577756,1.5675474,-96.512764,-77.5684,27.630836,-10.448571,0.29347825,-2.987607,-34.437782
190,6.361732006072998,3.218972682952881,78.60195922851562,1.6819999310009817,-1.0513806026266135,-90.56365703621782,2.558814,5.636573,16.377197,6.7156043,-6.4848013,-6.2230062,1.2210069,-15.499329,-21.426476,8.915391,-4.576593,12.059601,0.37762114,-8.036159,1.8251812,-5.222871,29.63373,-26.699366,55.759502,-15.493571,9.596408,1.5350782,-96.459885,-77.61803,27.607689,-10.490109,0.28125688,-2.9746044,-34.441734
191,6.424558162689209,3.219874143600464,78.60387420654297,1.685561127107428,-1.0547790765828224,-90.59955799400345,2.5727181,5.5830164,16.419058,6.7157845,-6.506174,-6.1716113,1.1525459,-15.570918,-21.376574,9.022278,-4.5462923,12.115531,0.41007203,-8.10165,1.8337533,-5.1701236,29.601055,-26.72017,55.854298,-15.434104,9.613655,1.5086473,-96.389336,-77.68076,27.570274,-10.5438385,0.27341408,-2.9674206,-34.447964
192,6.4833664894104,3.220381259918213,78.60486602783203,1.6864531231751967,-1.059345763777272,-90.63398317848879,2.5879722,5.5324235,16.459167,6.7161226,-6.5286984,-6.119896,1.0874383,-15.639024,-21.33061,9.127673,-4.5132966,12.167852,0.4403859,-8.163683,1.8419049,-5.117795,29.569124,-26.74293,55.95194,-15.406179,9.616465,1.5048407,-96.316345,-77.735085,27.528624,-10.595737,0.26583156,-2.9682813,-34.45619
193,6.5454559326171875,3.2198593616485596,78.60665893554688,1.6847749883203396,-1.064319667559423,-90.66586407744558,2.603417,5.484779,16.496407,6.7173176,-6.553547,-6.0670986,1.0235782,-15.704073,-21.289604,9.234174,-4.478032,12.216441,0.4698496,-8.221908,1.8487362,-5.0699153,29.533993,-26.771017,56.06031,-15.43422,9.590541,1.5416641,-96.23672,-77.78784,27.478487,-10.649221,0.27147985,-2.9865146,-34.46758
194,6.606869220733643,3.219736337661743,78.60807037353516,1.6804503810423226,-1.0704548855704639,-90.69609954824831,2.6202908,5.440138,16.531467,6.718545,-6.5796113,-6.0139375,0.962826,-15.766055,-21.253273,9.339772,-4.4399443,12.262306,0.49317726,-8.276347,1.8551706,-5.013557,29.50396,-26.7953,56.1642,-15.501477,9.547566,1.6043168,-96.16654,-77.82658,27.433239,-10.695821,0.28250018,-3.0181563,-34.481403
195,6.667786121368408,3.220487117767334,78.61022186279297,1.6724805832948055,-1.0789727826921067,-90.72645088434287,2.6400344,5.398404,16.566143,6.719842,-6.6059,-5.961469,0.9058483,-15.824968,-21.218407,9.444066,-4.4001923,12.305281,0.5241901,-8.326748,1.8636774,-4.9768796,29.461538,-26.828684,56.286034,-15.558494,9.508966,1.665801,-96.06821,-77.87312,27.36314,-10.754976,0.2843346,-3.0449142,-34.496086
196,6.728288650512695,3.219191312789917,78.61264038085938,1.665044629362951,-1.0910770347728949,-90.75864578797886,2.664182,5.358814,16.602346,6.7214956,-6.632179,-5.910659,0.84805316,-15.884152,-21.180092,9.558338,-4.364443,12.345282,0.5550517,-8.373635,1.8763957,-4.9402127,29.41879,-26.854156,56.39877,-15.560603,9.499885,1.694667,-95.96875,-77.91152,27.287485,-10.812114,0.25934026,-3.0485394,-34.5104
197,6.790221691131592,3.216904401779175,78.6153793334961,1.655324814665757,-1.1093860167850687,-90.79304215441672,2.6959517,5.3222528,16.639679,6.7225885,-6.657697,-5.8619637,0.80118257,-15.939772,-21.142517,9.664879,-4.328473,12.378812,0.58796537,-8.414765,1.896498,-4.908256,29.371943,-26.86927,56.50307,-15.478919,9.537536,1.6724302,-95.85935,-77.942726,27.19862,-10.871253,0.18702716,-3.0159674,-34.524254
198,6.850354194641113,3.21506929397583,78.61898803710938,1.6427573984202588,-1.1323623831317362,-90.82875445452788,2.7326715,5.2886763,16.677538,6.724937,-6.6836576,-5.8147445,0.75985366,-15.992374,-21.105425,9.771048,-4.293172,12.407049,0.6228126,-8.451296,1.9204139,-4.889422,29.314661,-26.88107,56.61586,-15.343185,9.604189,1.6199126,-95.72701,-77.969795,27.085602,-10.938098,0.0814993,-2.9596405,-34.53669
199,6.910399913787842,3.2153286933898926,78.62167358398438,1.629965518937141,-1.1556810951631757,-90.86548864371315,2.7707114,5.257004,16.716845,6.7264466,-6.708956,-5.7687383,0.71890324,-16.043344,-21.064873,9.876628,-4.2558064,12.437084,0.6530285,-8.483469,1.9492431,-4.8396425,29.279434,-26.879812,56.682064,-15.198657,9.678326,1.559218,-95.651764,-77.979416,27.018236,-10.97806,-0.02103543,-2.8997335,-34.552887
200,6.968026638031006,3.215510129928589,78.62499237060547,1.6159711938720895,-1.1749545834466497,-90.90276620254114,2.8046474,5.2269187,16.758179,6.727505,-6.7335596,-5.7235317,0.6762545,-16.088917,-21.018421,9.971299,-4.2079,12.475949,0.68274605,-8.518826,1.9661924,-4.823537,29.214207,-26.890625,56.8057,-15.069649,9.723296,1.5276603,-95.493385,-77.989296,26.876404,-11.045828,-0.09882097,-2.85641,-34.56364
201,7.0213623046875,3.213339328765869,78.62769317626953,1.6035453370974675,-1.1881692394250463,-90.94098000482086,2.8315642,5.198649,16.803394,6.729475,-6.7576594,-5.6793213,0.629974,-16.130615,-20.962124,10.054914,-4.148067,12.528099,0.71181834,-8.553595,1.9821688,-4.7746677,29.174837,-26.9006,56.884533,-14.98366,9.744031,1.5273068,-95.40052,-77.9914,26.786882,-11.085675,-0.11624425,-2.8405657,-34.572605
202,7.076508522033691,3.2122795581817627,78.6312255859375,1.5909163183505208,-1.1978918363642017,-90.98017858967427,2.8557565,5.172453,16.851418,6.7306423,-6.78111,-5.6361094,0.5825538,-16.167622,-20.898975,10.128752,-4.0786715,12.588972,0.74072814,-8.590442,1.9858595,-4.760876,29.100914,-26.92314,57.0223,-14.904209,9.744037,1.5547745,-95.22119,-77.990814,26.615267,-11.15343,-0.10992564,-2.8401093,-34.568924
203,7.129409313201904,3.212467908859253,78.63520812988281,1.5766821651077976,-1.2071030815274089,-91.01966980890838,2.8790321,5.147627,16.899458,6.7315083,-6.8039,-5.593757,0.5337791,-16.202442,-20.833708,10.2017,-4.006443,12.651807,0.770676,-8.624656,1.9918079,-4.7394123,29.035412,-26.948399,57.144962,-14.834251,9.732799,1.5853277,-95.06096,-77.98744,26.463793,-11.210054,-0.099865094,-2.8392785,-34.57766
204,7.183138370513916,3.211799144744873,78.63958740234375,1.5625900159717065,-1.2184809809347876,-91.05878912694106,2.9034557,5.123376,16.944506,6.7331038,-6.826451,-5.552035,0.48304734,-16.239046,-20.77047,10.284573,-3.9393349,12.709981,0.7991281,-8.654261,2.0087821,-4.689509,28.997355,-26.966682,57.21826,-14.76739,9.71547,1.6001899,-94.957954,-77.98217,26.371077,-11.239489,-0.11145788,-2.822654,-34.617012
205,7.239194393157959,3.213615655899048,78.64379119873047,1.545991396504205,-1.233029778637754,-91.09544354571044,2.9303432,5.0997543,16.983383,6.7332373,-6.8471813,-5.51064,0.43125877,-16.276445,-20.712961,10.37904,-3.8791037,12.758844,0.82265854,-8.683192,2.0220807,-4.671793,28.932741,-26.995243,57.342995,-14.692129,9.673697,1.6064533,-94.77126,-77.96947,26.209373,-11.288049,-0.17801282,-2.7859213,-34.67996
206,7.295017719268799,3.2167301177978516,78.64861297607422,1.5286893835414423,-1.2493077478065526,-91.13075676333298,2.9566314,5.077152,17.018314,6.7356215,-6.8680196,-5.469812,0.37710947,-16.316004,-20.657282,10.484434,-3.8243687,12.803056,0.8461029,-8.707804,2.0429573,-4.6393857,28.883888,-27.022142,57.440384,-14.62034,9.616891,1.6014174,-94.62063,-77.95718,26.084917,-11.318743,-0.26381928,-2.7365618,-34.770454
207,7.347652435302734,3.2177817821502686,78.65193939208984,1.5113876665826054,-1.2660439609767096,-91.16834650907057,2.984557,5.055163,17.05503,6.7368436,-6.888955,-5.429888,0.32395697,-16.353283,-20.600296,10.58488,-3.765297,12.849693,0.86763144,-8.733701,2.0574875,-4.6359434,28.80932,-27.060307,57.58161,-14.54591,9.557119,1.6045197,-94.39174,-77.93683,25.900705,-11.37113,-0.36802208,-2.6808832,-34.86531
208,7.401400089263916,3.217487096786499,78.6552734375,1.4948308537329524,-1.282473978469625,-91.21218669703316,3.0134537,5.0332503,17.099215,6.7383146,-6.9118004,-5.391256,0.27131408,-16.389713,-20.536964,10.676683,-3.6991189,12.906186,0.8946372,-8.757507,2.0778422,-4.6204967,28.74495,-27.09866,57.691914,-14.474157,9.519819,1.6136848,-94.18392,-77.91823,25.753428,-11.416127,-0.4585268,-2.6235049,-34.965725
209,7.456661224365234,3.220463991165161,78.65621185302734,1.4788027393770193,-1.2984484086780368,-91.26390599465796,3.044446,5.0122633,17.15278,6.739577,-6.937415,-5.355854,0.22260769,-16.421703,-20.46692,10.750114,-3.6188753,12.979033,0.9272274,-8.779976,2.1025698,-4.5973415,28.688005,-27.139866,57.776634,-14.406738,9.51519,1.6365607,-93.98407,-77.90028,25.632689,-11.46239,-0.53575224,-2.5636835,-35.075283
210,7.514218330383301,3.2234232425689697,78.65679168701172,1.4622174453655774,-1.3146916253570042,-91.3213329472081,3.0773523,4.9919047,17.21273,6.740152,-6.964556,-5.322821,0.1765659,-16.451923,-20.391912,10.8119955,-3.5289254,13.062985,0.96254456,-8.802157,2.1247485,-4.5905867,28.615795,-27.18992,57.879333,-14.33903,9.527382,1.6729014,-93.7458,-77.87766,25.494755,-11.520656,-0.61581194,-2.4997623,-35.191235
211,7.568325996398926,3.2276999950408936,78.66010284423828,1.4467539678617107,-1.3303283070291012,-91.38208440810855,3.1101131,4.971442,17.276495,6.7410855,-6.9923124,-5.2886777,0.12828647,-16.481852,-20.312872,10.873356,-3.4390786,13.146574,1.0002618,-8.822411,2.1517568,-4.573492,28.551935,-27.239122,57.95838,-14.271862,9.545171,1.7063396,-93.52293,-77.856995,25.384457,-11.571179,-0.68548226,-2.4347303,-35.305885
212,7.622929573059082,3.2321248054504395,78.6627197265625,1.4342740591715144,-1.3449185545480151,-91.4440573748184,3.1412172,4.949606,17.341906,6.7429013,-7.019788,-5.2498593,0.073785156,-16.512852,-20.230766,10.943139,-3.357699,13.2184,1.0376523,-8.8426,2.1816566,-4.5480943,28.493502,-27.285261,58.022175,-14.200996,9.553078,1.7276521,-93.29832,-77.836174,25.284569,-11.617312,-0.7449091,-2.3723798,-35.403873
213,7.676590919494629,3.2346866130828857,78.66544342041016,1.4210401701539541,-1.3586092331795554,-91.50665930086015,3.1718075,4.92581,17.409386,6.743248,-7.045747,-5.2045007,0.013300622,-16.54683,-20.145998,11.023803,-3.288429,13.273666,1.0719116,-8.863828,2.207645,-4.5358825,28.41727,-27.333155,58.109814,-14.114425,9.540812,1.7387115,-93.025116,-77.80744,25.153347,-11.67181,-0.8097882,-2.3131268,-35.47361
214,7.729962348937988,3.236931562423706,78.66813659667969,1.4097230414033033,-1.3715928869499623,-91.57116668440646,3.201392,4.9008255,17.479893,6.7446523,-7.0722203,-5.1548786,-0.051840317,-16.583183,-20.057543,11.111192,-3.2266624,13.319018,1.1058704,-8.884329,2.2393236,-4.5069246,28.352926,-27.374886,58.167835,-14.0206995,9.52217,1.7381244,-92.76578,-77.781,25.0445,-11.718471,-0.8647181,-2.2548535,-35.530647
215,7.78523063659668,3.2417423725128174,78.67044067382812,1.3995296568720486,-1.383285384502983,-91.6376552831406,3.22893,4.875756,17.551579,6.7471457,-7.098267,-5.1034346,-0.12168324,-16.618444,-19.966164,11.201118,-3.1663885,13.360533,1.1389749,-8.905578,2.2668414,-4.4927964,28.2744,-27.421711,58.247715,-13.931517,9.500247,1.7366526,-92.45956,-77.74644,24.909681,-11.774997,-0.9138576,-2.1994648,-35.57466
216,7.840184211730957,3.2469279766082764,78.6727294921875,1.3879112904533226,-1.3929254562224693,-91.70623970469849,3.2538843,4.851756,17.622972,6.748468,-7.120902,-5.0528407,-0.19375448,-16.650717,-19.87253,11.285115,-3.0992143,13.404696,1.174864,-8.925692,2.2938616,-4.4842896,28.194246,-27.473028,58.32954,-13.863522,9.484979,1.7347907,-92.1303,-77.7083,24.773146,-11.83485,-0.9419955,-2.1477354,-35.616325
217,7.89550256729126,3.2534070014953613,78.6763687133789,1.3750079632395977,-1.3998940366203876,-91.77739743133306,3.2749796,4.8285003,17.6928,6.749722,-7.139549,-5.0038223,-0.2709135,-16.680735,-19.775064,11.36683,-3.0255394,13.453788,1.2163801,-8.944012,2.3257713,-4.460879,28.134079,-27.52067,58.3774,-13.824905,9.4805765,1.7260114,-91.81938,-77.67706,24.66844,-11.884293,-0.928485,-2.1049814,-35.661022
218,7.949034690856934,3.2607369422912598,78.67884063720703,1.361232922558596,-1.4046795535305356,-91.85084079289778,3.2929387,4.8061423,17.762285,6.750843,-7.1551347,-4.955007,-0.3518108,-16.708765,-19.67426,11.44585,-2.947292,13.504337,1.2563125,-8.964443,2.346918,-4.46849,28.046883,-27.577097,58.47496,-13.801378,9.47542,1.7211124,-91.42681,-77.63136,24.50747,-11.9508095,-0.90343463,-2.070152,-35.69219
219,8.00357723236084,3.268709659576416,78.68343353271484,1.347904287546067,-1.4086077548147733,-91.92594079356113,3.3098044,4.78449,17.833147,6.751767,-7.170279,-4.90554,-0.43472162,-16.734194,-19.572302,11.522173,-2.8665984,13.553445,1.2988914,-8.983158,2.3714497,-4.476726,27.962059,-27.640608,58.56423,-13.791433,9.475836,1.7163992,-91.01758,-77.58376,24.351337,-12.0221195,-0.86948067,-2.0309823,-35.72181
220,8.061118125915527,3.280486583709717,78.68663787841797,1.3336327941119213,-1.4130845765520805,-92.0019724227501,3.3264523,4.7647843,17.907227,6.7536144,-7.187622,-4.8547816,-0.5183329,-16.760088,-19.47062,11.600801,-2.7886086,13.598576,1.3425035,-9.000249,2.4005246,-4.4876947,27.878616,-27.719456,58.647484,-13.791067,9.482329,1.7168783,-90.574486,-77.52936,24.186747,-12.104956,-0.84576124,-1.9764696,-35.750153
221,8.115860939025879,3.2916057109832764,78.68841552734375,1.3202289491021268,-1.4195977843490815,-92.07886480859752,3.34517,4.7464523,17.985983,6.7551928,-7.207806,-4.800107,-0.6019206,-16.784475,-19.371456,11.681024,-2.7136433,13.637854,1.3895504,-9.01368,2.4445703,-4.4800653,27.816624,-27.80513,58.6824,-13.809715,9.502947,1.7222136,-90.14895,-77.479614,24.049522,-12.185766,-0.8318302,-1.9042131,-35.778072
222,8.169814109802246,3.3033061027526855,78.69105529785156,1.305955324300887,-1.42688932993161,-92.15680276572863,3.3641846,4.7300644,18.067987,6.7576275,-7.2300177,-4.742774,-0.68542665,-16.806948,-19.27352,11.760429,-2.6394598,13.672913,1.4285051,-9.031735,2.479775,-4.504559,27.728249,-27.910292,58.768227,-13.845306,9.526502,1.7432106,-89.61276,-77.399765,23.82694,-12.297631,-0.8479909,-1.8216606,-35.78803
223,8.221478462219238,3.3151204586029053,78.69293212890625,1.2903749948699337,-1.4326829976562476,-92.23610246309052,3.3817668,4.714684,18.15136,6.759376,-7.2523303,-4.687547,-0.77155715,-16.829414,-19.17337,11.840368,-2.565214,13.706706,1.4674901,-9.047945,2.517372,-4.525144,27.643566,-28.024439,58.845295,-13.876594,9.551176,1.7613703,-89.04268,-77.31054,23.60699,-12.418697,-0.85832155,-1.7270927,-35.805443
224,8.272652626037598,3.32651948928833,78.69512176513672,1.2756598465281783,-1.4345126301895872,-92.31680214324494,3.394964,4.700167,18.234072,6.7607794,-7.273283,-4.6392403,-0.86202925,-16.848118,-19.068378,11.916961,-2.4876137,13.741372,1.5076478,-9.06398,2.5508711,-4.5473843,27.559435,-28.156582,58.92972,-13.886651,9.56815,1.7693206,-88.40621,-77.206764,23.379557,-12.55086,-0.850823,-1.6204802,-35.840652
225,8.325663566589355,3.3373284339904785,78.69856262207031,1.259113689263096,-1.4300916713019838,-92.40047183593889,3.4015498,4.6861296,18.316193,6.7623725,-7.2933774,-4.601126,-0.9610033,-16.865139,-18.955063,11.993482,-2.4087644,13.777372,1.5464171,-9.080129,2.5752747,-4.5694056,27.474,-28.307922,59.02574,-13.862567,9.572459,1.7646693,-87.70226,-77.085915,23.139885,-12.696884,-0.8273403,-1.4996212,-35.902626
226,8.378687858581543,3.3485140800476074,78.70250701904297,1.2422287765974027,-1.421105410141158,-92.48646098363787,3.4040778,4.6725726,18.398764,6.7627764,-7.3125305,-4.569948,-1.065672,-16.87963,-18.836088,12.068182,-2.3280582,13.813214,1.5834934,-9.096099,2.593502,-4.5923133,27.386423,-28.475266,59.130844,-13.816161,9.569444,1.7524112,-86.93585,-76.94633,22.886398,-12.856701,-0.7969417,-1.3654692,-35.982853
227,8.431175231933594,3.360029697418213,78.7051773071289,1.2249668486630985,-1.4118350138901874,-92.57189515902864,3.4053762,4.6607103,18.480564,6.7633696,-7.331009,-4.540789,-1.1694297,-16.89181,-18.717009,12.139423,-2.243706,13.849761,1.6198759,-9.1122675,2.6112232,-4.62204,27.29592,-28.655704,59.247482,-13.76673,9.564606,1.7359926,-86.09856,-76.78676,22.623125,-13.030658,-0.7498965,-1.2223006,-36.06533
228,8.48210620880127,3.370763063430786,78.70909881591797,1.2058518247667662,-1.406273635906093,-92.65398742992208,3.4091616,4.650133,18.560694,6.7636886,-7.3485575,-4.508465,-1.2665703,-16.902794,-18.602987,12.206878,-2.1542768,13.887651,1.6574554,-9.128682,2.6345348,-4.665156,27.201405,-28.84784,59.377686,-13.734371,9.563839,1.718722,-85.17915,-76.60538,22.352259,-13.220369,-0.6772097,-1.074197,-36.13504
229,8.536518096923828,3.3824303150177,78.712646484375,1.1840323126406482,-1.4058567682574767,-92.7310833970023,3.41578,4.6425695,18.638416,6.7656035,-7.3662167,-4.471987,-1.3528994,-16.909763,-18.49721,12.264845,-2.0535362,13.929615,1.6963488,-9.144413,2.6640058,-4.724773,27.101488,-29.047977,59.527164,-13.723474,9.56705,1.6967623,-84.16644,-76.401054,22.078396,-13.434742,-0.5713577,-0.90899473,-36.21752
230,8.589701652526855,3.394944667816162,78.71607208251953,1.1589257076817716,-1.4083661044557165,-92.80503888664433,3.4242187,4.63718,18.714602,6.766704,-7.3827443,-4.4339056,-1.4328325,-16.914938,-18.395697,12.317469,-1.9453422,13.974308,1.7347271,-9.159717,2.6961663,-4.797265,26.995783,-29.25762,59.694893,-13.723644,9.5714035,1.6700913,-83.073166,-76.17321,21.803835,-13.669988,-0.43928543,-0.7289919,-36.311268
231,8.641947746276855,3.410773277282715,78.72069549560547,1.1350843165276958,-1.4122713006512428,-92.87801942522836,3.4332898,4.631997,18.789871,6.7685933,-7.399188,-4.39471,-1.5116413,-16.920282,-18.295332,12.371778,-1.8393679,14.01683,1.773291,-9.174527,2.7318997,-4.877807,26.884485,-29.481688,59.869957,-13.731248,9.57921,1.6475519,-81.916214,-75.91921,21.520693,-13.909231,-0.2971202,-0.5599785,-36.36137
232,8.691646575927734,3.4275643825531006,78.72506713867188,1.112972625784518,-1.4163088723819726,-92.952148410682,3.4437728,4.624527,18.865143,6.769765,-7.415689,-4.3546243,-1.5945278,-16.927519,-18.192654,12.434647,-1.7452786,14.051975,1.8104835,-9.190641,2.7714143,-4.959972,26.768751,-29.722666,60.041992,-13.74156,9.592674,1.6382588,-80.7165,-75.63693,21.223051,-14.131308,-0.15899324,-0.4277342,-36.311268
233,8.741097450256348,3.441286087036133,78.7282485961914,1.0947079771030392,-1.4194252043591158,-93.0275486895877,3.4534082,4.61443,18.939795,6.771388,-7.4318066,-4.3126717,-1.684663,-16.938969,-18.086308,12.511254,-1.6681751,14.076198,1.8453232,-9.208653,2.814688,-5.0407996,26.64954,-29.98044,60.206215,-13.754842,9.616473,1.6517538,-79.47767,-75.32395,20.904722,-14.340314,-0.021336595,-0.3464978,-36.10344
234,8.791418075561523,3.452695608139038,78.72945404052734,1.077308823545808,-1.4225170455212606,-93.10305666994795,3.46406,4.6028233,19.01372,6.77146,-7.4468575,-4.269081,-1.7784503,-16.952465,-17.978514,12.5966835,-1.6022906,14.092746,1.8768958,-9.2284155,2.8613124,-5.1224174,26.527508,-30.252548,60.36797,-13.773516,9.648235,1.6809428,-78.189415,-74.97944,20.569471,-14.544357,0.121705815,-0.29976693,-35.781555
235,8.842402458190918,3.4681570529937744,78.73001861572266,1.0629111484215708,-1.427122501849934,-93.17957909481049,3.4759493,4.5902586,19.088314,6.7740927,-7.4641266,-4.2259846,-1.8724096,-16.96778,-17.869696,12.686172,-1.5418643,14.107299,1.9077224,-9.250931,2.9121735,-5.2078347,26.403303,-30.539959,60.530876,-13.794943,9.679306,1.7097332,-76.846565,-74.60183,20.227665,-14.741535,0.24969572,-0.26707542,-35.441402
236,8.890826225280762,3.4829323291778564,78.73106384277344,1.0480556181818617,-1.4350711492222883,-93.2579639467698,3.4925566,4.5772038,19.164968,6.7755537,-7.482457,-4.18568,-1.9623371,-16.983765,-17.760576,12.773972,-1.480958,14.125319,1.9401029,-9.275123,2.9683084,-5.2990584,26.277025,-30.843086,60.697147,-13.816216,9.701251,1.721519,-75.444984,-74.18879,19.890583,-14.925695,0.34286565,-0.22840671,-35.179993
237,8.939464569091797,3.4953420162200928,78.73051452636719,1.0356723349206938,-1.4468330381383954,-93.33821836782845,3.5147278,4.5634713,19.244799,6.7774343,-7.5041986,-4.1490746,-2.0473166,-16.999096,-17.652456,12.8595495,-1.4198282,14.147317,1.9723738,-9.300374,3.0299394,-5.392091,26.14794,-31.154642,60.866222,-13.833259,9.706472,1.7069694,-73.98791,-73.737274,19.55957,-15.098532,0.3830927,-0.17984988,-35.015457
238,8.98244571685791,3.5067007541656494,78.72996520996094,1.0238383118973526,-1.4616563861053888,-93.42017476121009,3.541412,4.5489097,19.326723,6.778387,-7.527399,-4.1149683,-2.129103,-17.014387,-17.54437,12.944502,-1.3603853,14.170459,2.002742,-9.326976,3.096186,-5.486345,26.016235,-31.475988,61.03732,-13.849056,9.701202,1.6765708,-72.48325,-73.24547,19.238493,-15.261688,0.3826695,-0.13206807,-34.89841
239,9.030573844909668,3.519300699234009,78.73096466064453,1.012053489231256,-1.4785227342472869,-93.50343024314708,3.5707877,4.5337257,19.409267,6.77972,-7.551509,-4.082017,-2.2089267,-17.030487,-17.435068,13.029293,-1.3011206,14.195975,2.0324461,-9.355269,3.1661565,-5.5875936,25.883217,-31.818417,61.210484,-13.870342,9.697774,1.6436893,-70.93936,-72.71444,18.944233,-15.404847,0.37233832,-0.08688311,-34.825253
240,9.078146934509277,3.532444953918457,78.73236846923828,1.0026048878720666,-1.4965320684239576,-93.58808388282924,3.6011143,4.5183325,19.491184,6.780803,-7.5741544,-4.0489473,-2.287779,-17.04529,-17.323103,13.111695,-1.2392685,14.224416,2.0640962,-9.384901,3.2393699,-5.7021747,25.750334,-32.195343,61.38553,-13.9052515,9.708729,1.6216655,-69.36688,-72.147255,18.699022,-15.518905,0.3804097,-0.045926604,-34.792755
