unveil-humanoid-operators/unveil-humanoid-operators.github.io/feature-analysis-animation/data/feature_matrix_instances/weight_root_translate_peak_vel_walking_A042_walk_hands_on_back_stop_001__A042.csv
Frame,root_translateX,root_translateY,root_translateZ,root_rotateX,root_rotateY,root_rotateZ,left_hip_pitch_joint_dof,left_hip_roll_joint_dof,left_hip_yaw_joint_dof,left_knee_joint_dof,left_ankle_pitch_joint_dof,left_ankle_roll_joint_dof,right_hip_pitch_joint_dof,right_hip_roll_joint_dof,right_hip_yaw_joint_dof,right_knee_joint_dof,right_ankle_pitch_joint_dof,right_ankle_roll_joint_dof,waist_yaw_joint_dof,waist_roll_joint_dof,waist_pitch_joint_dof,left_shoulder_pitch_joint_dof,left_shoulder_roll_joint_dof,left_shoulder_yaw_joint_dof,left_elbow_joint_dof,left_wrist_roll_joint_dof,left_wrist_pitch_joint_dof,left_wrist_yaw_joint_dof,right_shoulder_pitch_joint_dof,right_shoulder_roll_joint_dof,right_shoulder_yaw_joint_dof,right_elbow_joint_dof,right_wrist_roll_joint_dof,right_wrist_pitch_joint_dof,right_wrist_yaw_joint_dof
0,-0.32920342683792114,1.7665762901306152,78.88766479492188,0.6948844492530059,1.5987628223007397,-86.46829345706252,-2.0470822,-0.15697977,-2.4592798,8.708977,-9.848422,-0.7992911,-0.18376887,-3.7402596,-11.594098,12.128746,-10.361805,-2.3694162,-3.5240662,-0.8240944,1.5076542,21.479637,14.898296,-92.366165,15.942651,21.667444,-6.6590476,-19.417978,26.08761,-26.37893,80.55337,6.8599625,-33.29032,-6.3823986,23.187035
1,-0.3321850597858429,1.7589081525802612,78.8877182006836,0.6934358162874151,1.608027757896397,-86.46778029714868,-2.0460467,-0.15177768,-2.4624133,8.691667,-9.8453455,-0.8180821,-0.19273289,-3.735144,-11.593813,12.132007,-10.36434,-2.3800857,-3.5239134,-0.84510773,1.4880887,21.468843,14.962536,-92.366425,15.883744,21.641247,-6.6443653,-19.425716,26.13947,-26.60917,80.51913,6.5231943,-32.60916,-5.329454,24.4159
2,-0.336828351020813,1.7542368173599243,78.88544464111328,0.6917338980328614,1.6174872598596766,-86.46736165047703,-2.0442884,-0.14631468,-2.4655416,8.671935,-9.841027,-0.8377029,-0.20297925,-3.7298713,-11.593337,12.136664,-10.366848,-2.3919568,-3.5219579,-0.86862093,1.4685667,21.456802,15.016892,-92.36784,15.83658,21.611591,-6.629871,-19.435915,26.197119,-26.830568,80.47995,6.188452,-31.910007,-4.2035575,25.687191
3,-0.3383888602256775,1.7505741119384766,78.88235473632812,0.6904417953632708,1.6266020930073823,-86.46663493478776,-2.0409071,-0.14144011,-2.468666,8.65055,-9.835865,-0.85560495,-0.20873877,-3.7246983,-11.593365,12.133872,-10.366687,-2.4013655,-3.521438,-0.8897178,1.4513906,21.444757,15.062784,-92.369316,15.797697,21.587805,-6.615189,-19.439568,26.25198,-27.041637,80.44446,5.87169,-31.331274,-3.1802063,26.831451
4,-0.3385695517063141,1.7457233667373657,78.88172149658203,0.6902249049386727,1.6349228162848397,-86.46509114158572,-2.0414906,-0.13851555,-2.4717605,8.641234,-9.837126,-0.8690721,-0.21517083,-3.7216918,-11.593705,12.136934,-10.3731985,-2.4046452,-3.5245476,-0.90307105,1.4385393,21.439144,15.101119,-92.37049,15.763736,21.580276,-6.5998855,-19.42809,26.293814,-27.237822,80.42099,5.5924935,-30.992876,-2.4442031,27.687695
5,-0.3399999141693115,1.740239143371582,78.8803939819336,0.6942131337182922,1.6408335972747337,-86.4626027779224,-2.038692,-0.14137283,-2.473138,8.633938,-9.838287,-0.8736725,-0.21440288,-3.7239249,-11.594082,12.134896,-10.382989,-2.3952773,-3.5326262,-0.9081148,1.4309415,21.440279,15.132363,-92.37412,15.73347,21.595938,-6.5805187,-19.386766,26.33236,-27.412624,80.41247,5.362419,-30.976532,-2.1120946,28.165749
6,-0.3432713747024536,1.7314006090164185,78.88048553466797,0.7008988418694938,1.645117427822559,-86.45944291416141,-2.0350058,-0.14816126,-2.4733903,8.630528,-9.840298,-0.87202734,-0.21022573,-3.7300208,-11.594384,12.13237,-10.39662,-2.3770607,-3.5434563,-0.9073181,1.4271612,21.446428,15.157089,-92.37991,15.707668,21.628727,-6.5583043,-19.324667,26.364315,-27.563166,80.41522,5.1769943,-31.182486,-2.0718532,28.375578
7,-0.3461400866508484,1.725080966949463,78.87994384765625,0.7050160668011903,1.6506571161796464,-86.45555773407345,-2.0326576,-0.15179215,-2.475734,8.627619,-9.844626,-0.87223434,-0.20366958,-3.7320962,-11.596181,12.122254,-10.405897,-2.3617537,-3.5564303,-0.90000606,1.4243855,21.45677,15.176371,-92.381905,15.685365,21.665161,-6.540271,-19.268404,26.385088,-27.690449,80.423546,5.0291486,-31.4837,-2.1666553,28.457882
8,-0.34805741906166077,1.7199119329452515,78.8812255859375,0.7014088960931231,1.6604046335893474,-86.45076696466994,-2.0350018,-0.14532563,-2.4833574,8.623473,-9.853308,-0.8823689,-0.19581567,-3.7222223,-11.60094,12.097338,-10.4023485,-2.3610551,-3.571011,-0.8861783,1.4196306,21.46995,15.189329,-92.3743,15.667855,21.69098,-6.533539,-19.244997,26.403072,-27.781544,80.4288,4.9234004,-31.77205,-2.2392762,28.552708
9,-0.35299408435821533,1.7133994102478027,78.88029479980469,0.6880153085358097,1.6746456298191945,-86.4456137490779,-2.0459216,-0.12761249,-2.498218,8.624648,-9.866337,-0.8966919,-0.18470335,-3.6981647,-11.60987,12.052195,-10.37918,-2.380833,-3.5853915,-0.86702615,1.4120038,21.491467,15.1963,-92.3524,15.656838,21.7034,-6.5442986,-19.272259,26.408344,-27.831932,80.428925,4.858538,-31.931437,-2.1791813,28.754473
10,-0.3535579741001129,1.7059760093688965,78.88192749023438,0.6678940572073354,1.6920383610331349,-86.43991143076585,-2.0639446,-0.10203884,-2.5182984,8.632719,-9.884727,-0.9134365,-0.17075263,-3.663852,-11.621841,11.992202,-10.342544,-2.4138956,-3.6088028,-0.84046024,1.40203,21.523834,15.2059555,-92.31196,15.638472,21.711496,-6.56784,-19.333689,26.420296,-27.902784,80.42852,4.7799325,-32.062695,-2.0919974,28.970987
11,-0.3591669499874115,1.70023512840271,78.88237762451172,0.64271615269191,1.7128615501727027,-86.43260788656623,-2.0807474,-0.06831375,-2.5407865,8.629187,-9.9053545,-0.946966,-0.15591691,-3.6209106,-11.635307,11.920988,-10.300694,-2.4524462,-3.6305254,-0.8045951,1.3919998,21.551445,15.212108,-92.27627,15.620164,21.713644,-6.5927978,-19.399242,26.42287,-27.945862,80.42854,4.744608,-32.325966,-2.148252,29.060131
12,-0.368865430355072,1.6934814453125,78.88346862792969,0.6142829437861216,1.737454069630067,-86.42292930728374,-2.0909483,-0.026237441,-2.562761,8.601344,-9.928053,-1.0114739,-0.14601295,-3.5716896,-11.648584,11.849979,-10.265651,-2.488832,-3.6566176,-0.75691843,1.3835084,21.566156,15.220547,-92.24823,15.591342,21.713888,-6.609655,-19.443148,26.412437,-27.997389,80.438194,4.730247,-32.886246,-2.5155969,28.879414
13,-0.3803095817565918,1.6899248361587524,78.88512420654297,0.5760454028881573,1.761196231091204,-86.40704082887811,-2.0919287,0.032047294,-2.5880444,8.554074,-9.957741,-1.1117163,-0.10416718,-3.5017164,-11.665489,11.712507,-10.208272,-2.5136654,-3.680446,-0.6837256,1.3820186,21.559298,15.22323,-92.24687,15.5580435,21.708883,-6.6127625,-19.450527,26.391687,-28.008512,80.451454,4.7984133,-34.028793,-3.402799,28.251682
14,-0.39413246512413025,1.6881853342056274,78.8866958618164,0.52810330433552,1.7850170380690202,-86.38612424400678,-2.0876899,0.10517871,-2.6171741,8.494279,-9.9947195,-1.2400796,-0.029255053,-3.4108148,-11.686936,11.503774,-10.121644,-2.533718,-3.7092621,-0.5907974,1.3876388,21.537336,15.227265,-92.252914,15.514499,21.699972,-6.6099405,-19.44101,26.348186,-28.014908,80.473366,4.9053397,-35.5914,-4.645009,27.272478
15,-0.4080393314361572,1.6868746280670166,78.88623809814453,0.48749523175515697,1.8196463462726251,-86.36825786653426,-2.0777369,0.17462344,-2.6390066,8.396593,-10.023016,-1.3913327,-0.011822783,-3.3356915,-11.701626,11.389526,-10.0826,-2.5645392,-3.7322059,-0.50898004,1.3879995,21.512169,15.229503,-92.261734,15.475794,21.692402,-6.6046963,-19.426798,26.306593,-28.013653,80.491035,5.0125823,-37.10805,-5.8612227,26.228746
16,-0.42007920145988464,1.6879032850265503,78.88407897949219,0.46955198640585083,1.8736827304836832,-86.3606748389963,-2.0587401,0.22308257,-2.643619,8.236236,-10.028199,-1.5605997,-0.14866453,-3.3134775,-11.699394,11.554079,-10.177952,-2.6220546,-3.7404163,-0.4626359,1.372064,21.487095,15.233339,-92.26971,15.446704,21.683962,-6.6022367,-19.421158,26.278986,-28.00626,80.5024,5.098053,-38.077763,-6.709091,25.429663
17,-0.43775323033332825,1.6902759075164795,78.87796783447266,0.46632657337726025,1.951620401111442,-86.36288261682245,-2.0339937,0.26059783,-2.6327314,8.0081,-10.012664,-1.7610765,-0.40609556,-3.326676,-11.687707,11.912787,-10.359047,-2.7187765,-3.7344754,-0.44922674,1.3341058,21.466896,15.237752,-92.27488,15.435957,21.68035,-6.6085477,-19.427332,26.266016,-27.99708,80.502014,5.1456394,-38.238644,-7.077664,25.021555
18,-0.45431214570999146,1.698033332824707,78.87100219726562,0.47138500625091784,2.0469648616908915,-86.3710353357549,-2.0018475,0.29352087,-2.6106825,7.7242675,-9.982926,-1.9914327,-0.7387974,-3.3591583,-11.670446,12.38599,-10.589723,-2.8436484,-3.719284,-0.4530001,1.2816006,21.449024,15.242494,-92.28043,15.434477,21.679071,-6.619338,-19.43852,26.264992,-27.989025,80.49339,5.171465,-37.890026,-7.1759424,24.832554
19,-0.4726063013076782,1.7040470838546753,78.86343383789062,0.48762641893640685,2.1512461842058284,-86.38360183837534,-1.9657904,0.31571952,-2.579066,7.4129415,-9.943353,-2.227531,-1.113376,-3.408387,-11.645093,12.924474,-10.848775,-2.9808898,-3.6974664,-0.4730362,1.2225901,21.432901,15.246278,-92.28231,15.434,21.67625,-6.6263156,-19.455347,26.26465,-27.984835,80.48103,5.181938,-37.333168,-7.1447897,24.748423
20,-0.4902346134185791,1.708319067955017,78.85514068603516,0.5171196120253343,2.2562747620092103,-86.39949933838302,-1.9312487,0.3219787,-2.5401185,7.106946,-9.901133,-2.445064,-1.4939964,-3.470865,-11.608999,13.473289,-11.116332,-3.1152322,-3.670567,-0.50796294,1.1646447,21.418701,15.251018,-92.27821,15.423606,21.666636,-6.621175,-19.477474,26.266247,-27.9819,80.46503,5.1900916,-36.879726,-7.1232157,24.6531
21,-0.5092396140098572,1.709756851196289,78.84107208251953,0.5770616482030011,2.3704130922717943,-86.42360206422686,-1.9891943,0.2887772,-2.4849412,6.9776945,-9.945756,-2.6416683,-1.9392402,-3.5752883,-11.546901,14.132537,-11.440735,-3.2387457,-3.6294258,-0.57472986,1.1010935,21.403511,15.261907,-92.2647,15.390319,21.647556,-6.595841,-19.513226,26.264194,-27.978539,80.44188,5.1949964,-36.571976,-7.124283,24.539602
22,-0.5233853459358215,1.7154934406280518,78.82746124267578,0.6539061532094728,2.491675779652911,-86.45189384989736,-2.1091158,0.23383255,-2.4203596,6.9638753,-10.049732,-2.8299825,-2.4238439,-3.7018952,-11.4698925,14.855732,-11.796454,-3.3616421,-3.5831974,-0.6626079,1.032874,21.388342,15.2689295,-92.24478,15.351575,21.619694,-6.556297,-19.555809,26.262466,-27.978016,80.42062,5.1928263,-36.259476,-7.076611,24.455751
23,-0.5423365235328674,1.7174867391586304,78.81377410888672,0.7333510074425222,2.60914273355459,-86.48224784551849,-2.2233057,0.17727341,-2.3542056,6.9519567,-10.1499405,-3.0018663,-2.9032893,-3.8279865,-11.390065,15.580557,-12.1553755,-3.4911528,-3.5365198,-0.7542273,0.9685673,21.382,15.275364,-92.22076,15.314326,21.593296,-6.515503,-19.59665,26.259304,-27.978544,80.399315,5.1875005,-35.952244,-7.0096455,24.387062
24,-0.5682735443115234,1.7157044410705566,78.79802703857422,0.8003994651337577,2.7115088445902327,-86.51245249815226,-2.321308,0.13680413,-2.2949343,6.9482913,-10.245283,-3.1491199,-3.3215895,-3.9290955,-11.3210335,16.221558,-12.476566,-3.6347601,-3.500173,-0.833736,0.91819507,21.390598,15.285227,-92.18425,15.282629,21.577923,-6.488902,-19.63228,26.267035,-27.980366,80.37318,5.1828494,-35.676716,-6.9536934,24.321226
25,-0.5994420647621155,1.71086847782135,78.78178405761719,0.8548562445945664,2.7971938732784984,-86.54277585207235,-2.3929503,0.11329299,-2.243172,6.9378996,-10.326469,-3.262026,-3.6719735,-4.0043983,-11.265675,16.76808,-12.750819,-3.8010535,-3.4792273,-0.8999357,0.882011,21.43051,15.293908,-92.15531,15.278017,21.451834,-6.4764576,-19.600296,26.28078,-27.982841,80.35297,5.1807065,-35.42698,-6.907412,24.252419
26,-0.6339153051376343,1.6955161094665527,78.7714614868164,0.9039317401031197,2.8720205990376373,-86.57430481417806,-2.455231,0.09740555,-2.1949778,6.9397964,-10.405246,-3.3472955,-3.9844952,-4.066781,-11.216766,17.266666,-13.001755,-3.9836552,-3.465228,-0.9609566,0.85564977,21.493582,15.300246,-92.13297,15.293457,21.251196,-6.4711547,-19.521093,26.293673,-27.985357,80.33641,5.18056,-35.1907,-6.857358,24.187199
27,-0.6662448644638062,1.6729731559753418,78.76136779785156,0.9484774875869015,2.9370861261535968,-86.60716865594547,-2.500611,0.088818215,-2.1498666,6.937422,-10.474745,-3.4203155,-4.256119,-4.115185,-11.171091,17.71133,-13.233539,-4.1673465,-3.4507265,-1.0182066,0.83572483,21.549263,15.309066,-92.08402,15.290981,21.219854,-6.4748783,-19.514479,26.318422,-27.98964,80.31099,5.176943,-34.982056,-6.8121953,24.129948
28,-0.7071183323860168,1.6554232835769653,78.74937438964844,0.9824276504247874,2.990410980255894,-86.63916281106512,-2.5286107,0.0938217,-2.11129,6.9335504,-10.537803,-3.4979079,-4.4716897,-4.1402555,-11.1303,18.078003,-13.442301,-4.3381257,-3.4275796,-1.0640163,0.823566,21.563417,15.319484,-91.990555,15.240856,21.594435,-6.484998,-19.686111,26.354397,-27.994373,80.27545,5.169731,-34.804943,-6.77413,24.073984
29,-0.7482149600982666,1.6345165967941284,78.73640441894531,0.9990264413456679,3.0287302603351494,-86.66994411029205,-2.538195,0.120344326,-2.082304,6.933695,-10.596851,-3.594599,-4.6171045,-4.1327887,-11.098081,18.346348,-13.622104,-4.4920063,-3.4092605,-1.096171,0.82434005,21.515429,15.34372,-91.75638,15.085746,22.743153,-6.5301433,-20.209366,26.406136,-28.002296,80.22742,5.1563187,-34.678745,-6.753162,24.029884
30,-0.7930834889411926,1.5999867916107178,78.7249755859375,1.002061935037291,3.0538365017629236,-86.70032711977147,-2.5286071,0.16423991,-2.0609877,6.9325104,-10.648467,-3.6983824,-4.6977763,-4.0979257,-11.073642,18.520987,-13.773095,-4.6373706,-3.394302,-1.1181066,0.8330341,21.426735,15.387167,-91.43551,14.853197,24.432129,-6.6142244,-20.965658,26.463945,-28.011438,80.18652,5.1395407,-34.58309,-6.736654,23.985466
31,-0.8347598910331726,1.5527287721633911,78.71833801269531,1.0069553779598759,3.072731859307656,-86.73172305958865,-2.5085545,0.20781608,-2.040114,6.932494,-10.696296,-3.7849073,-4.7556705,-4.059641,-11.046871,18.67165,-13.921068,-4.777563,-3.380262,-1.1442612,0.84613097,21.338528,15.448721,-91.134735,14.614659,26.027134,-6.7082896,-21.687992,26.516241,-28.019953,80.14921,5.124227,-34.501427,-6.721049,23.940308
32,-0.88931804895401,1.5042563676834106,78.70795440673828,1.0285227572190048,3.0924281277152303,-86.76557936237273,-2.4858215,0.2338607,-2.0126624,6.933581,-10.742251,-3.8298619,-4.8274717,-4.0393577,-11.0081,18.856522,-14.087559,-4.915947,-3.3614686,-1.1854191,0.85906225,21.292484,15.484955,-90.974266,14.483166,26.890768,-6.752218,-22.104815,26.563192,-28.023039,80.10756,5.116638,-34.42258,-6.7019234,23.892744
33,-0.9384990930557251,1.4536973237991333,78.69817352294922,1.0747650943914995,3.1147432492422835,-86.80485890341386,-2.4608514,0.23336282,-1.9720821,6.9354663,-10.789917,-3.8190105,-4.9262533,-4.0472674,-10.948473,19.097958,-14.285362,-5.055332,-3.364173,-1.2563832,0.87154555,21.322535,15.518261,-90.96334,14.462812,26.717823,-6.6998305,-22.103243,26.575817,-28.025211,80.09595,5.1198945,-34.33497,-6.672951,23.83748
34,-0.9914002418518066,1.4012091159820557,78.68562316894531,1.136275412839938,3.1359555054344566,-86.84806453024349,-2.429841,0.21713376,-1.9238151,6.937922,-10.837009,-3.7679436,-5.03096,-4.0703044,-10.875135,19.361872,-14.500872,-5.1932516,-3.3666782,-1.3429121,0.8850314,21.392698,15.549978,-91.07064,14.514064,25.888872,-6.581493,-21.833689,26.576735,-28.026024,80.08727,5.127355,-34.250828,-6.6398907,23.779263
35,-1.0567047595977783,1.3476555347442627,78.66915130615234,1.2028009082103264,3.154604668423368,-86.8894104363893,-2.394223,0.19681244,-1.878459,6.9418926,-10.877776,-3.6969068,-5.128076,-4.0963707,-10.801782,19.623787,-14.716311,-5.3253345,-3.370364,-1.4342209,0.90041345,21.471987,15.571917,-91.22572,14.603924,24.82349,-6.4593706,-21.464678,26.57337,-28.025059,80.0789,5.1378675,-34.17163,-6.608701,23.72194
36,-1.1067100763320923,1.2771236896514893,78.65733337402344,1.2635870447841202,3.168997230379137,-86.92305670831618,-2.3503742,0.184488,-1.8469403,6.9392924,-10.901698,-3.6263428,-5.201597,-4.112509,-10.742613,19.8545,-14.911624,-5.4471574,-3.382087,-1.5204524,0.9185048,21.532324,15.584199,-91.35112,14.689941,23.94295,-6.3889866,-21.169798,26.572672,-28.023216,80.07372,5.149302,-34.099426,-6.5849605,23.668808
37,-1.1670302152633667,1.2091020345687866,78.6430892944336,1.3173536214460013,3.171106815484351,-86.94582543901733,-2.295946,0.18005629,-1.8356392,6.942747,-10.910092,-3.555404,-5.2407427,-4.1191435,-10.705049,20.054157,-15.086759,-5.5579066,-3.3992512,-1.5990403,0.9442151,21.56867,15.591306,-91.44123,14.765668,23.27731,-6.3865113,-20.987555,26.580244,-28.021175,80.069145,5.160375,-34.037052,-6.569716,23.620438
38,-1.2409220933914185,1.1493526697158813,78.6293716430664,1.3690986294172423,3.1644473006158083,-86.96197816594571,-2.2336125,0.17820102,-1.8370408,6.9521666,-10.907277,-3.475266,-5.256077,-4.12177,-10.679834,20.234945,-15.250198,-5.6598506,-3.4208505,-1.6765164,0.97528917,21.596903,15.595005,-91.528625,14.849247,22.629267,-6.420977,-20.82895,26.59086,-28.01948,80.0685,5.1715417,-33.983856,-6.558387,23.572815
39,-1.3174208402633667,1.0763740539550781,78.61814880371094,1.4181862676155066,3.164764751934094,-86.97566356132835,-2.174661,0.18329598,-1.8421386,6.9555254,-10.896656,-3.3944795,-5.2674427,-4.1164756,-10.657394,20.395487,-15.399918,-5.753082,-3.425914,-1.7463127,0.9985736,21.604939,15.599006,-91.65031,14.9272175,22.070068,-6.4608746,-20.662317,26.611717,-28.015224,80.05273,5.178788,-33.931908,-6.5508375,23.526592
40,-1.3918085098266602,0.9855539798736572,78.60997009277344,1.4639926986860667,3.1876496186525753,-86.99204006095695,-2.1391985,0.19884297,-1.8407049,6.9594646,-10.891221,-3.3214486,-5.296829,-4.09894,-10.627316,20.538197,-15.535575,-5.8380866,-3.453188,-1.8179237,1.0068028,21.608625,15.5998335,-91.729065,14.984841,21.69696,-6.4915576,-20.49491,26.608252,-28.012463,80.05739,5.1875777,-33.872894,-6.548094,23.485502
41,-1.4731295108795166,0.8914740681648254,78.6005630493164,1.5089446476103898,3.247549302066086,-87.0140078582007,-2.142797,0.22377719,-1.8266625,6.963025,-10.892621,-3.2608738,-5.3669877,-4.0704517,-10.581116,20.673517,-15.6576185,-5.9150114,-3.4756157,-1.8881989,0.98263365,21.590462,15.599162,-91.81741,15.015502,21.572731,-6.4939613,-20.284416,26.603456,-28.00981,80.06092,5.1896853,-33.804592,-6.546,23.444727
42,-1.5597892999649048,0.8098805546760559,78.58721923828125,1.552082932614126,3.332289889280584,-87.03795080156684,-2.175262,0.25670353,-1.8068788,6.973301,-10.899579,-3.2073727,-5.4606304,-4.0321393,-10.526808,20.798315,-15.766598,-5.983558,-3.4996274,-1.9568634,0.93745697,21.55667,15.597448,-91.90374,15.025814,21.642117,-6.4846935,-20.053871,26.588974,-28.007488,80.06595,5.1887307,-33.725853,-6.547941,23.408245
43,-1.6508827209472656,0.7354629635810852,78.57015991210938,1.5811422099365473,3.41937331984853,-87.06162529779833,-2.2150064,0.30897552,-1.7899706,6.998372,-10.915921,-3.1550987,-5.546504,-3.9736698,-10.477284,20.904974,-15.867954,-6.043793,-3.5180392,-2.009855,0.8942404,21.514023,15.594459,-91.99269,15.031509,21.773838,-6.4703374,-19.83344,26.57947,-28.004902,80.06738,5.186286,-33.65902,-6.5532336,23.371883
44,-1.7418479919433594,0.6532483696937561,78.55122375488281,1.5927357402947089,3.4864238786528765,-87.08249352026546,-2.237953,0.382956,-1.7828765,7.038137,-10.939797,-3.0980275,-5.586763,-3.8926368,-10.443895,20.971024,-15.959067,-6.095547,-3.5371873,-2.0445697,0.8767211,21.47681,15.591429,-92.06509,15.043648,21.841066,-6.463138,-19.664797,26.567581,-28.002804,80.07321,5.185983,-33.61305,-6.563076,23.334694
45,-1.8262158632278442,0.5571291446685791,78.53571319580078,1.5900197755867465,3.524418345528729,-87.1005777566231,-2.2282054,0.47477415,-1.783571,7.0852346,-10.973263,-3.0391836,-5.558812,-3.7908823,-10.428782,20.972143,-16.031502,-6.1348696,-3.5572438,-2.064975,0.8943752,21.445755,15.589812,-92.1121,15.063393,21.80979,-6.467785,-19.567095,26.56297,-28.001732,80.08199,5.187148,-33.613205,-6.5829597,23.293827
46,-1.9364843368530273,0.4591720998287201,78.52678680419922,1.574499553205257,3.5466215464611563,-87.11679173400847,-2.3534987,0.5781916,-1.7907342,7.4624543,-11.183668,-2.9800713,-5.4838905,-3.6697388,-10.426302,20.919937,-16.085827,-6.162881,-3.5668097,-2.069954,0.9313914,21.410112,15.587812,-92.167015,15.087349,21.74192,-6.473099,-19.505594,26.569288,-28.000332,80.088356,5.1887302,-33.64334,-6.607418,23.24608
47,-2.0380003452301025,0.36869966983795166,78.50550842285156,1.5422630272751812,3.563814933023463,-87.13050610403474,-2.6377823,0.6967658,-1.8097609,8.190749,-11.574988,-2.912684,-5.3881097,-3.5261483,-10.434767,20.84203,-16.130665,-6.187628,-3.569953,-2.0550208,0.97767663,21.375141,15.585093,-92.22579,15.114778,21.669493,-6.47802,-19.462975,26.577444,-27.997896,80.090256,5.1893854,-33.672497,-6.629647,23.202606
48,-2.144343137741089,0.2845166325569153,78.47689056396484,1.489227715637347,3.586764929162648,-87.140920974177,-3.0099654,0.838012,-1.8454431,9.088891,-12.03864,-2.829736,-5.2985144,-3.3567398,-10.452485,20.766893,-16.175194,-6.2174225,-3.5852187,-2.0191395,1.0230455,21.350328,15.583805,-92.26335,15.140368,21.62875,-6.4840956,-19.428686,26.576965,-27.996168,80.09909,5.1906023,-33.67144,-6.641396,23.172644
49,-2.2539658546447754,0.18749547004699707,78.45184326171875,1.414865452237137,3.6201498026039105,-87.14883809241553,-3.483214,1.0002067,-1.9023931,10.176848,-12.587106,-2.717055,-5.2225537,-3.160221,-10.477675,20.695871,-16.215967,-6.2547035,-3.600838,-1.9595344,1.0608554,21.329317,15.583218,-92.30966,15.16932,21.621576,-6.482564,-19.384731,26.575314,-27.993788,80.11208,5.1889877,-33.627056,-6.632111,23.152065
50,-2.3613529205322266,0.09225960075855255,78.41781616210938,1.3180851839158845,3.657399888816498,-87.15384541286876,-4.035172,1.1839066,-1.9789929,11.424056,-13.207996,-2.5843017,-5.1436353,-2.9343953,-10.513185,20.610144,-16.247065,-6.295758,-3.6230903,-1.8764277,1.0994966,21.315935,15.5840645,-92.3442,15.198592,21.638441,-6.4802976,-19.353868,26.569843,-27.991333,80.12776,5.1868567,-33.558975,-6.612445,23.143719
51,-2.47727108001709,-0.00408098753541708,78.3775863647461,1.191885649228441,3.694361923112236,-87.15447411481942,-4.6502404,1.3983563,-2.07033,12.803386,-13.88016,-2.4597363,-5.053996,-2.6724923,-10.563395,20.50816,-16.274307,-6.340378,-3.6467009,-1.7610383,1.1424941,21.307442,15.586195,-92.37663,15.224796,21.662477,-6.4776897,-19.325348,26.564627,-27.98929,80.146805,5.185342,-33.480713,-6.587306,23.137733
52,-2.595114231109619,-0.10349833965301514,78.33265686035156,1.0312202185718413,3.7263015231457524,-87.14899787785524,-5.3161755,1.6509596,-2.1712794,14.295839,-14.585069,-2.3707392,-4.9450912,-2.3701243,-10.632232,20.387497,-16.302868,-6.3879223,-3.6715407,-1.6077334,1.1946999,21.306585,15.589206,-92.404465,15.245431,21.680033,-6.4797583,-19.298485,26.568672,-27.98813,80.16427,5.185495,-33.417656,-6.566417,23.132427
53,-2.7147440910339355,-0.20474763214588165,78.28659057617188,0.8334776675819597,3.7537846397543855,-87.13930138720423,-6.0216746,1.9463294,-2.275413,15.878985,-15.347407,-2.3194306,-4.8243856,-2.0255032,-10.719506,20.26255,-16.341932,-6.434194,-3.6943693,-1.4122146,1.254533,21.311121,15.593407,-92.43735,15.2587185,21.689486,-6.48432,-19.267113,26.576872,-27.98824,80.18336,5.189947,-33.360023,-6.5476675,23.122955
54,-2.8409476280212402,-0.302272230386734,78.22593688964844,0.6024318498165669,3.778505770731881,-87.12576978352787,-6.780251,2.2779195,-2.3881931,17.578959,-16.169981,-2.292685,-4.6944532,-1.6414654,-10.8222885,20.129416,-16.385576,-6.480808,-3.716506,-1.1794353,1.3205674,21.321918,15.60116,-92.47275,15.265723,21.697021,-6.4909434,-19.235373,26.594425,-27.9907,80.20129,5.1944704,-33.30943,-6.528801,23.11394
55,-2.945369005203247,-0.40552863478660583,78.15454864501953,0.34300751507449406,3.798191424561013,-87.10473412332581,-7.589582,2.6391308,-2.520889,19.389671,-16.985409,-2.2954907,-4.5390267,-1.2210078,-10.939785,19.958813,-16.418007,-6.535745,-3.738584,-0.9159773,1.397162,21.339256,15.606715,-92.4995,15.270098,21.700834,-6.501196,-19.206951,26.619072,-27.993565,80.21507,5.198657,-33.268303,-6.513238,23.107872
56,-3.0634753704071045,-0.5143231153488159,78.08284759521484,0.059715567876271976,3.8106220245669693,-87.07264824481247,-8.44912,3.0227911,-2.6847885,21.308699,-17.727348,-2.333239,-4.3418455,-0.76740456,-11.071165,19.722607,-16.424078,-6.60693,-3.750061,-0.6263053,1.4830495,21.361504,15.618104,-92.54004,15.266857,21.691534,-6.509362,-19.168833,26.660852,-28.00175,80.22407,5.1920285,-33.24257,-6.4974732,23.097954
57,-3.189535140991211,-0.615984320640564,78.00707244873047,-0.27101820783846725,3.8150803593488667,-87.0291513876433,-9.36694,3.4578707,-2.8974273,23.361246,-18.420624,-2.4314744,-4.0827804,-0.24870764,-11.224009,19.382288,-16.384872,-6.711245,-3.755383,-0.2901377,1.5832258,21.390081,15.630597,-92.578445,15.258178,21.66893,-6.522365,-19.13231,26.723625,-28.012459,80.22239,5.174528,-33.23754,-6.488188,23.089754
58,-3.3078510761260986,-0.7226536870002747,77.93022155761719,-0.6416446211267302,3.8131413523944486,-86.97640987710493,-10.337128,3.934608,-3.148528,25.532064,-19.082884,-2.5796056,-3.7740896,0.3252033,-11.393163,18.959778,-16.311796,-6.8390017,-3.74496,0.08896087,1.6943022,21.419434,15.65209,-92.631905,15.235361,21.631618,-6.5349092,-19.091904,26.811094,-28.03386,80.20275,5.1365943,-33.249115,-6.481635,23.083572
59,-3.418787956237793,-0.8440655469894409,77.85872650146484,-1.0026315535162735,3.805223241759899,-86.91309898987811,-11.337438,4.3889856,-3.4081984,27.760176,-19.638853,-2.7294364,-3.4456084,0.8883353,-11.561392,18.515522,-16.234207,-6.958768,-3.7427504,0.45969966,1.8147756,21.46307,15.6656065,-92.66796,15.221607,21.594229,-6.5490017,-19.049374,26.89451,-28.049006,80.19499,5.110982,-33.272465,-6.4751344,23.075253
60,-3.5232324600219727,-0.9662458896636963,77.79225158691406,-1.3057684086976356,3.7919959078975713,-86.83878929161925,-12.350493,4.759853,-3.6451035,29.995369,-20.01371,-2.8333397,-3.1283126,1.3765365,-11.713225,18.109873,-16.181227,-7.039903,-3.7301335,0.7846098,1.9393601,21.514606,15.686922,-92.71504,15.199499,21.555302,-6.554129,-18.990576,26.982853,-28.076641,80.180435,5.0730877,-33.30862,-6.4652925,23.068153
61,-3.618340492248535,-1.0776702165603638,77.7287368774414,-1.5377470777371742,3.7715786336675707,-86.74533590768013,-13.381053,5.0228467,-3.870969,32.253403,-20.1667,-2.8906095,-2.8296072,1.7724335,-11.848926,17.757483,-16.162422,-7.0639663,-3.7299213,1.0493139,2.0731187,21.583529,15.715775,-92.75227,15.16996,21.511263,-6.549791,-18.91062,27.061895,-28.120987,80.17779,5.028941,-33.35604,-6.447628,23.063068
62,-3.710564613342285,-1.2015068531036377,77.67619323730469,-1.7242817765466438,3.7442998394481077,-86.63578255691102,-14.434967,5.2129517,-4.09287,34.552963,-20.143576,-2.9246585,-2.5339322,2.1105595,-11.976709,17.427279,-16.162237,-7.051277,-3.7392352,1.2747856,2.2169068,21.668236,15.730567,-92.778275,15.154526,21.461954,-6.5398626,-18.815273,27.134087,-28.149122,80.18782,5.0083785,-33.417004,-6.4244294,23.056719
63,-3.79707670211792,-1.3359073400497437,77.62574768066406,-1.8779256155635022,3.7137682174459736,-86.52560336425496,-15.496964,5.3612614,-4.2732887,36.84786,-20.002588,-2.9224699,-2.2402968,2.4046361,-12.094983,17.117947,-16.174868,-7.0295696,-3.7408073,1.472387,2.360325,21.763247,15.755277,-92.79661,15.132851,21.426607,-6.530082,-18.72404,27.20493,-28.209051,80.20313,4.9620385,-33.48544,-6.402793,23.047018
64,-3.876786708831787,-1.4713565111160278,77.57574462890625,-2.01093207335453,3.683275853692706,-86.43029592971868,-16.551157,5.501355,-4.3761687,39.090485,-19.800991,-2.8686273,-1.9458487,2.668361,-12.2013445,16.825693,-16.192951,-7.0262957,-3.723378,1.6463363,2.4960318,21.864126,15.766529,-92.796455,15.137903,21.425333,-6.529955,-18.660759,27.25746,-28.24529,80.23025,4.9471927,-33.55953,-6.390683,23.02638
65,-3.959787368774414,-1.6101518869400024,77.53145599365234,-2.1251833281004675,3.6549947440096924,-86.35038435028808,-17.616482,5.6488776,-4.388323,41.34019,-19.489693,-2.7577322,-1.6506029,2.9024365,-12.298026,16.552122,-16.218342,-7.045409,-3.6908593,1.7984111,2.620165,21.977205,15.778733,-92.77239,15.167274,21.440193,-6.5701547,-18.632866,27.290442,-28.311562,80.28127,4.9173756,-33.638947,-6.388403,22.99023
66,-4.037583827972412,-1.760352611541748,77.495361328125,-2.21523099006756,3.6264381045352043,-86.27872449822715,-18.695,5.790206,-4.3304133,43.600826,-19.059492,-2.5946808,-1.3546543,3.101178,-12.386226,16.297678,-16.253105,-7.0734453,-3.6374192,1.9267423,2.7381523,22.097902,15.78013,-92.740074,15.228959,21.465645,-6.636255,-18.626333,27.309391,-28.353859,80.34097,4.9192734,-33.730164,-6.394572,22.943499
67,-4.105079650878906,-1.914542555809021,77.4631118774414,-2.2820384223117194,3.594185422305465,-86.21922395560543,-19.74733,5.9158893,-4.2181067,45.74343,-18.629126,-2.3790433,-1.0548112,3.2682116,-12.462031,16.056932,-16.290796,-7.1110215,-3.575072,2.0312467,2.8524346,22.224783,15.77588,-92.68452,15.285462,21.551134,-6.6696343,-18.63607,27.320683,-28.39762,80.407715,4.9239163,-33.82007,-6.405047,22.89232
68,-4.172340393066406,-2.0862953662872314,77.43214416503906,-2.3262470822578485,3.554703502459669,-86.1759360715428,-20.735985,6.013866,-4.0665007,47.643,-18.319769,-2.112575,-0.75141364,3.4057045,-12.521814,15.8306055,-16.32774,-7.158864,-3.5006707,2.113822,2.9652636,22.35324,15.770281,-92.608154,15.304197,21.742746,-6.6104264,-18.65454,27.340675,-28.435532,80.46056,4.928992,-33.9003,-6.4189725,22.84558
69,-4.2277302742004395,-2.248671531677246,77.40711975097656,-2.3450790158641497,3.4993791852489124,-86.14742854610783,-21.657524,6.083985,-3.8635826,49.314423,-18.191368,-1.7405413,-0.44130817,3.5070257,-12.569931,15.631641,-16.364635,-7.2242703,-3.4245446,2.1725307,3.084763,22.48498,15.765529,-92.491455,15.257559,22.135975,-6.3944116,-18.679346,27.367563,-28.488314,80.50779,4.9163165,-33.977432,-6.4373283,22.801102
70,-4.293665885925293,-2.445556640625,77.38679504394531,-2.339583871945128,3.4323832021036,-86.13236659013742,-22.531841,6.1336694,-3.6065118,50.81314,-18.171974,-1.2793425,-0.12544507,3.5733342,-12.607252,15.456512,-16.403658,-7.304337,-3.3335092,2.2099414,3.206737,22.62045,15.767449,-92.35343,15.163026,22.676779,-6.068573,-18.71479,27.402004,-28.542814,80.5413,4.8998933,-34.056427,-6.4622416,22.757864
71,-4.3478169441223145,-2.6404640674591064,77.36878204345703,-2.3158610232352657,3.369871686486704,-86.13425254149149,-23.359419,6.158709,-3.3247404,52.079823,-18.188177,-0.8432819,0.19088215,3.618823,-12.624912,15.279198,-16.441406,-7.3845224,-3.220138,2.2292361,3.3162866,22.750135,15.773171,-92.21829,15.060184,23.19047,-5.743006,-18.76786,27.444197,-28.574417,80.556404,4.898615,-34.116993,-6.4887557,22.720299
72,-4.399449348449707,-2.8304803371429443,77.35944366455078,-2.2795468730623143,3.3281183340801688,-86.15657746256088,-24.139942,6.1525164,-3.0461235,53.052513,-18.16493,-0.54436,0.50215816,3.656916,-12.613673,15.074362,-16.475311,-7.4499354,-3.1031766,2.2265897,3.3995142,22.88241,15.782766,-92.07354,14.981486,23.510696,-5.531417,-18.85035,27.482662,-28.605412,80.57726,4.8950987,-34.132427,-6.507722,22.689693
73,-4.458467960357666,-3.0377955436706543,77.35057830810547,-2.2264888643282545,3.3144016648766312,-86.20468998954705,-24.867908,6.109977,-2.7676551,53.691357,-18.111786,-0.4398597,0.80883765,3.6863685,-12.566257,14.824004,-16.50014,-7.498346,-2.9806976,2.1944444,3.446205,23.02225,15.800868,-91.91258,14.934502,23.547657,-5.481818,-18.970644,27.515638,-28.648134,80.609764,4.8776402,-34.087387,-6.5191765,22.665476
74,-4.5113525390625,-3.2566518783569336,77.3475570678711,-2.155687877755563,3.319260653419245,-86.27536954402795,-25.547544,6.0354295,-2.4780266,54.039852,-18.060589,-0.46168217,1.106324,3.6993988,-12.489979,14.560021,-16.523844,-7.536384,-2.8207748,2.142886,3.4649487,23.15417,15.811383,-91.77876,14.922284,23.39688,-5.523199,-19.10945,27.565287,-28.665695,80.61161,4.875865,-34.003876,-6.530428,22.650589
75,-4.561963081359863,-3.4848761558532715,77.34535217285156,-2.0773349643546912,3.3330936908335755,-86.35920689815077,-26.191952,5.937123,-2.193087,54.160446,-17.96981,-0.5368112,1.4046128,3.705651,-12.394812,14.283092,-16.547108,-7.5638013,-2.6744995,2.0767958,3.474365,23.28628,15.827171,-91.620926,14.906887,23.196478,-5.603391,-19.267004,27.603798,-28.684935,80.627754,4.869783,-33.897312,-6.5341067,22.642447
76,-4.608833312988281,-3.714508533477783,77.34071350097656,-2.0019053009087897,3.346834248851428,-86.44715893266995,-26.814827,5.82329,-1.9282585,54.116856,-17.798332,-0.5915464,1.7119824,3.7142558,-12.290698,13.996385,-16.57023,-7.580206,-2.5330234,2.0174644,3.4872613,23.402126,15.845878,-91.48096,14.877968,23.063036,-5.6593337,-19.415142,27.647152,-28.702997,80.63451,4.854464,-33.79695,-6.5283837,22.643139
77,-4.6491851806640625,-3.9494707584381104,77.3340072631836,-1.9310762168294298,3.360204751245667,-86.5442938264974,-27.418255,5.6936245,-1.6827345,53.902874,-17.533636,-0.60947925,2.0192833,3.726517,-12.17185,13.713303,-16.59109,-7.601831,-2.3806136,1.9716672,3.5026283,23.494282,15.856881,-91.38071,14.843887,23.020973,-5.67751,-19.547918,27.70228,-28.711952,80.61836,4.8279877,-33.695538,-6.5050173,22.66088
78,-4.692078113555908,-4.192338466644287,77.32367706298828,-1.8594139938337413,3.3767710874358645,-86.6524978669937,-27.993769,5.546385,-1.4507248,53.489807,-17.197376,-0.62633795,2.3298333,3.7384462,-12.035974,13.420854,-16.606218,-7.6233788,-2.2484937,1.9219592,3.5195577,23.582691,15.87745,-91.25086,14.786804,23.02247,-5.6986527,-19.700499,27.748898,-28.727463,80.606735,4.7847443,-33.582726,-6.471148,22.698967
79,-4.731189250946045,-4.442532062530518,77.30899047851562,-1.7878024570007298,3.3948638097303534,-86.75983920068175,-28.541098,5.386814,-1.2400388,52.909405,-16.80003,-0.65371835,2.6543515,3.748088,-11.897655,13.113717,-16.631458,-7.611827,-2.1203082,1.8747573,3.5364614,23.654612,15.903203,-91.14682,14.724099,23.03453,-5.7145696,-19.836044,27.802082,-28.746233,80.5882,4.73648,-33.48197,-6.4375954,22.731646
80,-4.766053676605225,-4.695067882537842,77.28981018066406,-1.7164197545320725,3.411980841192793,-86.85373982166385,-29.056921,5.218341,-1.0572402,52.190006,-16.350163,-0.7025538,3.0141695,3.7548404,-11.771329,12.765131,-16.670523,-7.534199,-2.0066533,1.8286399,3.5586996,23.709753,15.931731,-91.067505,14.662349,23.04058,-5.7283287,-19.946209,27.862135,-28.766478,80.56174,4.698626,-33.41879,-6.422032,22.745083
81,-4.798155784606934,-4.961479663848877,77.26274108886719,-1.6390391937950173,3.4265103331257576,-86.93108749705054,-29.535461,5.0310354,-0.8987756,51.314877,-15.837275,-0.7720712,3.429322,3.7516775,-11.658364,12.345497,-16.725428,-7.350383,-1.9114599,1.7772477,3.5876215,23.744549,15.954899,-91.01403,14.609494,23.039915,-5.7408843,-20.02909,27.93516,-28.78219,80.52465,4.6797657,-33.415833,-6.4354043,22.728529
82,-4.834290027618408,-5.237801551818848,77.23175811767578,-1.5561356755245754,3.4401662838682427,-86.99923552910425,-29.975527,4.8249087,-0.76043737,50.270897,-15.258574,-0.8570248,3.8851573,3.7397144,-11.551758,11.872379,-16.79082,-7.0878105,-1.8322567,1.7203856,3.620706,23.763077,15.972601,-90.97929,14.563245,23.041557,-5.7519174,-20.091852,28.01756,-28.793575,80.48175,4.6733646,-33.454216,-6.4666142,22.692104
83,-4.860490798950195,-5.513700485229492,77.1982650756836,-1.4783701838474173,3.45575857251279,-87.06142685636021,-30.38556,4.616613,-0.64816564,49.09861,-14.638095,-0.96198267,4.3437285,3.7287178,-11.453976,11.407033,-16.869661,-6.81539,-1.7674106,1.6670579,3.6562781,23.77289,15.982676,-90.96094,14.528877,23.041363,-5.7590733,-20.13039,28.088152,-28.799915,80.450645,4.6794868,-33.493862,-6.49586,22.647312
84,-4.883635997772217,-5.794921875,77.15835571289062,-1.4186654510407906,3.474950355482155,-87.1203541172151,-30.772066,4.424159,-0.5700127,47.83714,-13.99873,-1.0918257,4.7719855,3.7325373,-11.36664,11.002347,-16.960829,-6.602763,-1.7008815,1.6347982,3.6959996,23.77595,16.010176,-90.95725,14.4813595,23.038845,-5.7651405,-20.155947,28.147438,-28.817587,80.40628,4.671324,-33.506104,-6.517386,22.627079
85,-4.906195640563965,-6.085475444793701,77.10956573486328,-1.3829259304855188,3.5015983058453766,-87.17691130565314,-31.137262,4.2477813,-0.53731936,46.470215,-13.362295,-1.2606289,5.1529465,3.7583122,-11.290044,10.680776,-17.067945,-6.4721,-1.6477395,1.6221169,3.7348382,23.78575,16.031515,-90.96457,14.448629,23.030346,-5.7636003,-20.149294,28.168064,-28.832193,80.396965,4.6708336,-33.44833,-6.5072556,22.617617
86,-4.921472072601318,-6.387846946716309,77.05357360839844,-1.3651861010651927,3.5328010066579094,-87.22986021459259,-31.47374,4.0791698,-0.5436691,44.981064,-12.708887,-1.4618529,5.5092254,3.8000362,-11.222358,10.40878,-17.189497,-6.385867,-1.6068635,1.6241755,3.7764122,23.793797,16.042276,-90.979614,14.432697,23.019829,-5.75874,-20.119576,28.16239,-28.840643,80.40329,4.6824617,-33.35239,-6.481959,22.617353
87,-4.93366813659668,-6.695217132568359,76.99378204345703,-1.3577340820568806,3.5620143942949354,-87.27819320302483,-31.776384,3.9212391,-0.56927913,43.409763,-12.000696,-1.6694477,5.85844,3.8486023,-11.162401,10.170273,-17.324951,-6.323861,-1.5768381,1.6377016,3.822511,23.795065,16.05771,-91.013756,14.414262,23.004652,-5.750716,-20.070753,28.142502,-28.85537,80.4238,4.6893477,-33.26278,-6.4534593,22.613382
88,-4.952285289764404,-6.997382640838623,76.92471313476562,-1.3524318382635943,3.5828656718165672,-87.32084099606773,-32.041313,3.775757,-0.5934391,41.796543,-11.199647,-1.8577948,6.2170386,3.8942022,-11.109237,9.9508,-17.474365,-6.26595,-1.562259,1.6551238,3.8774037,23.78555,16.067276,-91.06034,14.402961,22.987165,-5.7465105,-20.015282,28.119137,-28.86836,80.45372,4.7010975,-33.230434,-6.439267,22.597206
89,-4.957943916320801,-7.327657699584961,76.85459899902344,-1.3498797758587369,3.5897522194850833,-87.35366863134136,-32.264946,3.640804,-0.6113591,40.140358,-10.281838,-2.00842,6.5840583,3.9364214,-11.066208,9.7680435,-17.649532,-6.2187047,-1.5696888,1.6788177,3.947728,23.756943,16.071238,-91.127525,14.395582,22.967113,-5.745996,-19.947048,28.089119,-28.878841,80.49716,4.7187476,-33.27816,-6.446175,22.56395
90,-4.966561317443848,-7.653811454772949,76.77831268310547,-1.3543182748671603,3.5872247139254796,-87.37872504449963,-32.448643,3.5136924,-0.6325572,38.420773,-9.270604,-2.140266,6.957014,3.9823124,-11.031943,9.613188,-17.841536,-6.1894464,-1.5903708,1.7136033,4.026483,23.715017,16.072395,-91.232285,14.391851,22.938614,-5.7421737,-19.852571,28.054688,-28.899178,80.55802,4.7299986,-33.374916,-6.4600506,22.51307
91,-4.9700212478637695,-7.977402210235596,76.6976318359375,-1.3633800898230606,3.5835801829412195,-87.40454540582789,-32.598965,3.3953657,-0.658312,36.656456,-8.202576,-2.283376,7.3329797,4.0286727,-11.000004,9.47043,-18.0406,-6.1586895,-1.6187209,1.7525355,4.108672,23.6679,16.069183,-91.328964,14.395696,22.910898,-5.7448235,-19.765518,28.011078,-28.916277,80.6194,4.74608,-33.49166,-6.481508,22.46295
92,-4.971373558044434,-8.316178321838379,76.61469268798828,-1.3742234339692352,3.5876084093969407,-87.43991798022327,-32.719616,3.2880363,-0.69078183,34.858963,-7.1108108,-2.4675303,7.713127,4.072372,-10.963714,9.313523,-18.231544,-6.106757,-1.6367661,1.7910029,4.17972,23.627748,16.059645,-91.42119,14.414824,22.879002,-5.7498546,-19.688059,27.966713,-28.942142,80.67955,4.7486057,-33.591213,-6.495267,22.41281
93,-4.9725236892700195,-8.66535472869873,76.53016662597656,-1.3858294077908921,3.6009075301561677,-87.484329026742,-32.808033,3.192105,-0.7301474,33.00915,-5.926691,-2.7250535,8.098709,4.111789,-10.926814,9.135932,-18.412743,-6.0234537,-1.6492879,1.8261553,4.2423735,23.598656,16.04571,-91.48511,14.449435,22.850222,-5.762407,-19.63729,27.909857,-28.96971,80.7375,4.750709,-33.6751,-6.508902,22.36699
94,-4.966714382171631,-9.030179977416992,76.4415512084961,-1.400772384781471,3.6181755659784094,-87.53550518393244,-32.85957,3.1075273,-0.77725106,31.101011,-4.65454,-3.032417,8.491148,4.1503954,-10.889631,8.947459,-18.589201,-5.921358,-1.6613549,1.8616655,4.301175,23.57693,16.024143,-91.53372,14.49966,22.822166,-5.7799144,-19.600597,27.841806,-29.003624,80.80089,4.7474685,-33.75603,-6.52258,22.319757
95,-4.952939510345459,-9.393816947937012,76.35185241699219,-1.4211940992768815,3.637345230811772,-87.59897928980662,-32.8757,3.0377321,-0.83509046,29.169567,-3.4386184,-3.3350093,8.890512,4.192032,-10.841384,8.753705,-18.760277,-5.814658,-1.6634461,1.9012828,4.3550434,23.552671,16.0066,-91.57767,14.549142,22.78989,-5.8024836,-19.571943,27.778175,-29.027246,80.8562,4.7492,-33.830322,-6.5315123,22.277956
96,-4.941763401031494,-9.771570205688477,76.2565689086914,-1.449002391465014,3.656333555842113,-87.68029099666123,-32.859875,2.9875412,-0.9043967,27.25335,-2.4251697,-3.57782,9.296666,4.2401276,-10.771169,8.559318,-18.92433,-5.717537,-1.6551455,1.9484906,4.4019804,23.521566,15.977271,-91.62354,14.606523,22.748064,-5.8300185,-19.541836,27.728916,-29.062119,80.9023,4.7304263,-33.886173,-6.5280523,22.246456
97,-4.929182529449463,-10.156143188476562,76.15531921386719,-1.4901324167225813,3.674268162786266,-87.7855571855175,-32.807175,2.9644976,-0.99661386,25.342518,-1.6817238,-3.753438,9.712876,4.303737,-10.670686,8.358417,-19.078634,-5.6415944,-1.6259725,2.0100467,4.442958,23.473507,15.96018,-91.677956,14.649893,22.68511,-5.870206,-19.511597,27.70489,-29.0815,80.92731,4.712826,-33.92651,-6.509287,22.23095
98,-4.906723499298096,-10.552361488342285,76.05402374267578,-1.5441471278986065,3.6910040444263315,-87.91213265494066,-32.71518,2.9705493,-1.1060843,23.419872,-1.1191896,-3.888278,10.141039,4.380416,-10.544841,8.147772,-19.222971,-5.577077,-1.575765,2.086589,4.4789314,23.41272,15.930765,-91.74574,14.706302,22.60445,-5.919081,-19.478714,27.700754,-29.113895,80.9335,4.670809,-33.953815,-6.478183,22.227726
99,-4.884348392486572,-10.959094047546387,75.95320892333984,-1.601074254884843,3.705715356857486,-88.05152148634492,-32.59628,2.9993398,-1.205566,21.523468,-0.653538,-3.9785247,10.582684,4.455339,-10.403948,7.927445,-19.355213,-5.505901,-1.517471,2.1653929,4.5111237,23.353834,15.897299,-91.80588,14.761609,22.531218,-5.9633694,-19.450397,27.704031,-29.150925,80.93204,4.6204896,-33.96826,-6.443888,22.229656
100,-4.863222122192383,-11.373584747314453,75.85185241699219,-1.6508092036844313,3.7183763733888004,-88.19438573738918,-32.45898,3.0411754,-1.2678742,19.68205,-0.19967954,-4.0221744,11.0402775,4.5138597,-10.258928,7.6956525,-19.47283,-5.4100194,-1.4594381,2.2321067,4.539432,23.30731,15.880778,-91.84437,14.791894,22.49087,-5.9885674,-19.431631,27.695734,-29.169731,80.93636,4.5901275,-33.967426,-6.4132295,22.22681
101,-4.83305549621582,-11.79721736907959,75.74691009521484,-1.687841554854141,3.7295829597943686,-88.33765047184039,-32.30201,3.0855217,-1.293997,17.882345,0.24683537,-4.0149665,11.456222,4.5373416,-10.120477,7.5759325,-19.64759,-5.2815146,-1.4035095,2.2838151,4.56099,23.276873,15.873734,-91.86026,14.799316,22.494915,-5.985061,-19.42201,27.673298,-29.178099,80.941826,4.573477,-33.940876,-6.390574,22.219809
102,-4.803772449493408,-12.228262901306152,75.64014434814453,-1.7195469716688885,3.739243611378618,-88.4866278829612,-32.124374,3.1378894,-1.2948197,16.120192,0.6439707,-3.9613874,11.830252,4.535989,-9.981852,7.5664577,-19.876701,-5.1311364,-1.3421571,2.328039,4.576305,23.254553,15.8652,-91.86958,14.800683,22.525345,-5.9602013,-19.412354,27.647514,-29.188925,80.94662,4.5528316,-33.891052,-6.3674192,22.208996
103,-4.767822265625,-12.671576499938965,75.53526306152344,-1.7507952933564004,3.748126435660564,-88.64252878679328,-31.942785,3.2056882,-1.257243,14.4501095,1.0057454,-3.8725228,12.211404,4.5270762,-9.833095,7.5591826,-20.090137,-4.966912,-1.2765825,2.3700545,4.5893774,23.237312,15.857864,-91.86757,14.797577,22.567036,-5.930466,-19.410585,27.625149,-29.19928,80.94868,4.5320873,-33.843933,-6.3457527,22.19949
104,-4.720462799072266,-13.123074531555176,75.43282318115234,-1.7854940508039134,3.758382181405274,-88.80441558199992,-31.778526,3.2930963,-1.1690226,12.93322,1.3433216,-3.7589636,12.596937,4.51626,-9.67018,7.5523515,-20.273157,-4.7957253,-1.203715,2.4136143,4.6016035,23.22025,15.852957,-91.86362,14.795864,22.601562,-5.9094357,-19.41573,27.617737,-29.207014,80.946365,4.5092015,-33.822193,-6.3228326,22.192541
105,-4.6810302734375,-13.577301979064941,75.33136749267578,-1.820752580522586,3.7745405210884098,-88.97049795826484,-31.644787,3.3970668,-1.0544453,11.574427,1.6670203,-3.6149082,12.982147,4.501532,-9.493506,7.545389,-20.427036,-4.615549,-1.1257938,2.4556546,4.6116614,23.200401,15.849336,-91.86072,14.802461,22.622456,-5.8999934,-19.425959,27.62716,-29.213251,80.9379,4.4806976,-33.83582,-6.2948613,22.190584
106,-4.637097358703613,-14.041267395019531,75.23241424560547,-1.85188019135576,3.797454449163328,-89.13693455198819,-31.532293,3.5068905,-0.91106117,10.346835,1.9668067,-3.4380486,13.366012,4.4760714,-9.310087,7.5397863,-20.558052,-4.422912,-1.0447075,2.4919405,4.616142,23.177874,15.846801,-91.85746,14.813949,22.637806,-5.895324,-19.44222,27.65425,-29.217978,80.920044,4.4442325,-33.874084,-6.2649655,22.193695
107,-4.585666179656982,-14.524003982543945,75.13854217529297,-1.8787349211904814,3.8236026102857332,-89.29805646482819,-31.431705,3.6145167,-0.6883364,9.267173,2.223752,-3.2427082,13.752991,4.439297,-9.127294,7.535486,-20.659098,-4.2224426,-0.9601089,2.5256984,4.615255,23.155697,15.843631,-91.855675,14.825103,22.654943,-5.8943815,-19.465548,27.693201,-29.224714,80.88614,4.405319,-33.92326,-6.2419834,22.200674
108,-4.538511276245117,-15.012846946716309,75.04063415527344,-1.9023730242255246,3.8486607355554403,-89.44876757581558,-31.337515,3.7156107,-0.33754784,8.363683,2.4130938,-3.042773,14.147626,4.3917823,-8.95209,7.5367513,-20.72672,-4.0188565,-0.88681227,2.5514457,4.6075478,23.14338,15.843094,-91.84995,14.827028,22.678467,-5.8931327,-19.488926,27.716381,-29.226122,80.875946,4.380183,-33.954334,-6.2213655,22.194319
109,-4.480711936950684,-15.508304595947266,74.94781494140625,-1.9273920477108648,3.8679382723982267,-89.58875510694998,-31.219618,3.8270042,0.20113686,7.587759,2.5234149,-2.8540795,14.559,4.34109,-8.785536,7.5382514,-20.76555,-3.8126998,-0.81058836,2.5779076,4.6006217,23.138296,15.842336,-91.83292,14.82404,22.718231,-5.9008474,-19.531559,27.74481,-29.230265,80.8504,4.3577766,-33.983356,-6.2162714,22.187237
110,-4.4211201667785645,-16.018205642700195,74.85616302490234,-1.9518272044096094,3.886802883144352,-89.72021974506549,-31.115665,3.946176,0.88282686,6.9942517,2.5423763,-2.6645768,14.978599,4.285839,-8.625102,7.544725,-20.77921,-3.6015005,-0.7401264,2.6016521,4.5878434,23.14016,15.842488,-91.81679,14.815122,22.765175,-5.910339,-19.575657,27.766317,-29.232214,80.83772,4.343858,-34.00278,-6.2163906,22.171423
111,-4.364328384399414,-16.53800392150879,74.7660903930664,-1.9560261352903299,3.914950187796453,-89.83003698510122,-31.070864,4.0260615,1.601307,6.6576214,2.502615,-2.4402266,15.395258,4.203993,-8.484223,7.552874,-20.748953,-3.3825502,-0.689329,2.6028173,4.5630097,23.1464,15.843615,-91.7857,14.802284,22.813692,-5.9228234,-19.629995,27.787924,-29.235678,80.8201,4.3305397,-34.022312,-6.2224326,22.157282
112,-4.301479339599609,-17.07060432434082,74.68345642089844,-1.92521189431373,3.962513084073239,-89.90847630051131,-31.155626,4.030486,2.2479653,6.703438,2.410214,-2.1456826,15.793833,4.077893,-8.373287,7.5675135,-20.660076,-3.1542377,-0.6735399,2.5668638,4.519111,23.148718,15.845509,-91.74615,14.782998,22.849548,-5.9304724,-19.681906,27.797087,-29.239445,80.8072,4.31684,-34.032707,-6.2276435,22.144526
113,-4.2455220222473145,-17.613025665283203,74.61180877685547,-1.856767661213491,4.034872282795298,-89.95397942134436,-31.366495,3.9700212,2.8848386,7.1307783,2.241861,-1.7852676,16.169323,3.9070494,-8.294629,7.58692,-20.507137,-2.9212296,-0.689257,2.4928014,4.452523,23.143002,15.846835,-91.70967,14.757903,22.862078,-5.9243283,-19.728262,27.799889,-29.24196,80.79836,4.3043733,-34.034103,-6.2246904,22.126654
114,-4.185407638549805,-18.162145614624023,74.55194854736328,-1.757825472313883,4.124779034245059,-89.97237586294894,-31.659842,3.864774,3.541835,7.85574,2.0185254,-1.3708731,16.531067,3.7001178,-8.242425,7.611493,-20.299904,-2.681749,-0.7289689,2.3882506,4.368238,23.13509,15.847211,-91.67416,14.727702,22.860884,-5.9101396,-19.774294,27.798737,-29.24304,80.78979,4.292398,-34.029366,-6.2194233,22.106913
115,-4.111139297485352,-18.706974029541016,74.50655364990234,-1.624604996428031,4.223497622753258,-89.96656091548479,-32.03603,3.6906114,4.069002,8.856816,1.8242371,-0.878098,16.777494,3.4326925,-8.220441,7.880115,-20.167702,-2.4220834,-0.7955227,2.2461371,4.2705517,23.12435,15.846947,-91.62763,14.698218,22.85645,-5.8995957,-19.813446,27.785473,-29.243378,80.78335,4.284151,-34.01844,-6.218961,22.089033
116,-4.027219295501709,-19.263362884521484,74.475341796875,-1.4537451412169247,4.321543912678352,-89.94074902582742,-32.493176,3.4202003,4.319829,10.108907,1.746578,-0.28428558,16.8447,3.0865114,-8.2267885,8.55462,-20.199554,-2.1289368,-0.88317364,2.0627875,4.1606045,23.109344,15.845966,-91.58069,14.675851,22.853584,-5.8987956,-19.827354,27.756304,-29.242336,80.78442,4.2799745,-33.9986,-6.2256665,22.070158
117,-3.9444994926452637,-19.836044311523438,74.44939422607422,-1.2304153011092815,4.4197254278626925,-89.89121315136565,-33.073338,2.9996986,4.170444,11.710223,1.8616695,0.49264392,16.882614,2.6672535,-8.260819,9.320756,-20.246344,-1.7842855,-0.994162,1.8216501,4.034923,23.091908,15.844588,-91.53141,14.663686,22.844378,-5.9181395,-19.802507,27.70659,-29.239122,80.790215,4.281031,-33.967525,-6.2477117,22.047632
118,-3.8503739833831787,-20.43229103088379,74.42288970947266,-0.9692994522135469,4.512808526305704,-89.83173591963741,-33.724243,2.4581044,3.7505963,13.572576,2.150966,1.39877,16.906637,2.194746,-8.304832,10.156181,-20.289713,-1.4006426,-1.1135361,1.5385343,3.90216,23.071554,15.843152,-91.48218,14.656704,22.827774,-5.949872,-19.749023,27.640358,-29.234344,80.798004,4.287074,-33.927246,-6.280514,22.022476
119,-3.7620112895965576,-21.04292106628418,74.3954849243164,-0.7072671557281328,4.585817069231598,-89.78789429663362,-34.335323,1.8944005,3.2850418,15.456985,2.5174046,2.2636278,16.93021,1.7117167,-8.319679,11.048894,-20.291727,-1.0129528,-1.2305305,1.2473395,3.7795763,23.050985,15.839493,-91.42081,14.650832,22.828123,-5.9780803,-19.694973,27.55896,-29.221563,80.829346,4.304911,-33.880833,-6.307442,21.998325
120,-3.67165207862854,-21.65853500366211,74.3699951171875,-0.47043314106808676,4.633327334127757,-89.77297867451423,-34.823174,1.4077468,2.9792535,17.164268,2.8300087,2.9371123,16.948019,1.2482072,-8.279799,12.006615,-20.223995,-0.65353644,-1.3085197,0.9863563,3.671239,23.01791,15.834831,-91.40467,14.643766,22.854687,-5.9779825,-19.646343,27.488335,-29.207285,80.86135,4.3259144,-33.833744,-6.3158455,21.98167
121,-3.565039873123169,-22.28647232055664,74.35360717773438,-0.2490880845917922,4.665788836908654,-89.78584011404375,-35.20372,1.0164206,2.8597512,18.694647,3.0833683,3.4003754,16.94977,0.7917444,-8.176422,13.029361,-20.09458,-0.32551575,-1.3554269,0.745823,3.564797,22.97452,15.830118,-91.422844,14.627743,22.951418,-5.932955,-19.60361,27.425402,-29.195318,80.897095,4.341609,-33.78411,-6.2954698,21.980415
122,-3.449930191040039,-22.93349266052246,74.34297943115234,-0.026456747464234442,4.688158786228837,-89.81624639421155,-35.52747,0.671871,2.818055,20.169653,3.3123155,3.741493,16.932774,0.32410854,-8.028845,14.117734,-19.915176,-0.009808674,-1.384193,0.5045967,3.4554458,22.92341,15.823011,-91.46617,14.60968,23.095877,-5.8572307,-19.558392,27.36279,-29.180363,80.94343,4.360023,-33.7292,-6.253757,21.987072
123,-3.331435441970825,-23.58913803100586,74.33541870117188,0.1881595059762311,4.691611374056115,-89.85782249012838,-35.772156,0.37364155,2.8464057,21.58337,3.4348066,3.9814208,16.888775,-0.14150396,-7.8606353,15.298564,-19.670609,0.29555345,-1.3924551,0.27367416,3.359336,22.85854,15.813277,-91.54518,14.601178,23.21056,-5.7818146,-19.52478,27.308722,-29.163387,80.99171,4.38445,-33.67635,-6.211383,21.994036
124,-3.215470552444458,-24.255321502685547,74.33527374267578,0.38424993217518694,4.666642626300764,-89.90434033650153,-35.916294,0.119660586,2.9364758,22.931303,3.3687608,4.1363764,16.821798,-0.589481,-7.6949506,16.573418,-19.334845,0.5916447,-1.3777577,0.0643951,3.2933013,22.773067,15.8027725,-91.6707,14.611529,23.21756,-5.7375,-19.516375,27.272997,-29.148636,81.034485,4.41718,-33.631603,-6.1879563,21.992989
125,-3.094647169113159,-24.92307472229004,74.34175872802734,0.5528758253011471,4.600932719828048,-89.95893356351574,-35.95483,-0.066440105,3.1100335,24.254776,3.055003,4.156765,16.75599,-1.0086479,-7.5341625,17.928747,-18.910555,0.87702936,-1.3294817,-0.112570114,3.2689362,22.657536,15.790975,-91.87745,14.654144,23.070059,-5.7374506,-19.549706,27.265486,-29.136349,81.070015,4.462783,-33.60067,-6.1908803,21.980583
126,-2.9700517654418945,-25.593015670776367,74.35224151611328,0.7039052464820688,4.5052010466371275,-90.02005644581827,-35.90735,-0.18666333,3.3568249,25.558392,2.5405133,4.0555177,16.68249,-1.4126216,-7.3695054,19.35914,-18.403101,1.1507454,-1.2484093,-0.26530084,3.2727652,22.514038,15.776554,-92.159874,14.72107,22.814724,-5.7624435,-19.61075,27.286894,-29.126411,81.09114,4.5149117,-33.58116,-6.210396,21.963627
127,-2.8457205295562744,-26.27948760986328,74.3769302368164,0.8547720582712789,4.403319429948018,-90.07561301722461,-35.78553,-0.29125252,3.6237192,26.772957,1.9128097,3.9339383,16.542498,-1.8245306,-7.205798,20.91009,-17.803894,1.4164034,-1.1658207,-0.41635945,3.2840788,22.366915,15.763449,-92.44224,14.786338,22.523605,-5.797,-19.672146,27.307762,-29.122173,81.11289,4.5644765,-33.55993,-6.236207,21.943377
128,-2.7166459560394287,-26.968515396118164,74.40799713134766,1.022646855715475,4.318801668825119,-90.11484743617704,-35.593967,-0.4403155,3.8605938,27.811161,1.2624483,3.8890066,16.280258,-2.264066,-7.046029,22.622034,-17.100048,1.6809794,-1.0974829,-0.58426327,3.2818975,22.232647,15.751679,-92.671906,14.8303,22.261683,-5.822796,-19.699482,27.318272,-29.12242,81.13073,4.6048007,-33.531494,-6.2590847,21.92197
129,-2.593716621398926,-27.638744354248047,74.4532241821289,1.2074186086734948,4.257489873342629,-90.13390068850818,-35.330788,-0.66039884,4.0494294,28.645447,0.5821841,3.9340146,15.894977,-2.7294486,-6.9114475,24.494715,-16.275454,1.9580529,-1.0564215,-0.7705662,3.2630413,22.112553,15.743515,-92.822495,14.845657,22.027706,-5.84825,-19.691204,27.310755,-29.125963,81.15034,4.6381774,-33.49909,-6.2791924,21.898766
130,-2.4637484550476074,-28.32267951965332,74.5149154663086,1.3997893397246708,4.207012883831679,-90.13803425510616,-34.996647,-0.9271758,4.2182684,29.321259,-0.16480577,4.0165043,15.418497,-3.2061973,-6.791787,26.49631,-15.333697,2.2448165,-1.0141841,-0.96004516,3.235688,21.989923,15.733809,-92.9577,14.852266,21.7843,-5.8737564,-19.65018,27.306759,-29.134266,81.15596,4.6615834,-33.46637,-6.29967,21.871553
131,-2.33798885345459,-29.010046005249023,74.58576965332031,1.6046851721521818,4.16305295126139,-90.12965612969771,-34.594013,-1.2305546,4.3871355,29.850246,-0.9271997,4.135234,14.84966,-3.692826,-6.64407,28.614414,-14.289677,2.5297213,-0.9885025,-1.1642357,3.2035599,21.884262,15.725573,-93.04979,14.843784,21.573633,-5.8872886,-19.592216,27.28519,-29.145163,81.17016,4.682118,-33.41877,-6.318441,21.844055
132,-2.218599319458008,-29.698637008666992,74.66410064697266,1.826513797443126,4.121775052446692,-90.1122098608604,-34.127018,-1.5546494,4.574573,30.248222,-1.6558124,4.288501,14.189606,-4.184634,-6.42534,30.830755,-13.156295,2.805187,-0.9743861,-1.3895798,3.1668622,21.803999,15.719828,-93.109,14.822394,21.4251,-5.870216,-19.516466,27.243355,-29.15575,81.19954,4.698292,-33.343365,-6.3309646,21.817184
133,-2.095186710357666,-30.385690689086914,74.753173828125,2.079224546319325,4.084338293295159,-90.08311073296262,-33.575413,-1.9110651,4.7954903,30.480124,-2.343624,4.493535,13.43125,-4.682428,-6.111327,33.15718,-11.905522,3.0979848,-0.96981543,-1.6485951,3.1221135,21.753271,15.716248,-93.12881,14.77581,21.357718,-5.801881,-19.395618,27.174124,-29.16532,81.24273,4.709547,-33.226925,-6.333073,21.787706
134,-1.9723914861679077,-31.054931640625,74.84678649902344,2.3537027869033627,4.0519979972770654,-90.04124711626758,-32.945587,-2.3025146,5.031318,30.552132,-3.0155075,4.7453513,12.585856,-5.169064,-5.7278337,35.57988,-10.5333,3.4249237,-0.97976017,-1.9334382,3.0694227,21.727972,15.714477,-93.1067,14.708557,21.350517,-5.6964064,-19.236525,27.077192,-29.17536,81.30518,4.7163787,-33.076023,-6.3252764,21.752712
135,-1.8553416728973389,-31.72416114807129,74.94325256347656,2.621533424400019,4.020771511620667,-89.99133752230517,-32.278225,-2.6990356,5.2513924,30.5396,-3.6696298,5.008256,11.666384,-5.6215286,-5.3078556,38.074505,-9.095987,3.7544463,-1.0162716,-2.218289,3.015708,21.727562,15.7152,-93.05035,14.641428,21.380018,-5.5892377,-19.096436,26.961689,-29.187235,81.39768,4.724085,-32.913795,-6.3152995,21.718803
136,-1.7379475831985474,-32.3934326171875,75.04515838623047,2.854861807541235,3.9866851798160328,-89.93936772371639,-31.615356,-3.068331,5.4283824,30.523058,-4.3073015,5.246501,10.679679,-6.029737,-4.884406,40.62779,-7.651911,4.0360646,-1.0579777,-2.4699733,2.969121,21.735092,15.718561,-93.00851,14.601231,21.41355,-5.512757,-19.024193,26.860737,-29.19764,81.48912,4.7380624,-32.773384,-6.3174872,21.699621
137,-1.6227788925170898,-33.05947494506836,75.14514923095703,3.040229144057045,3.950669013744673,-89.88336660880387,-30.963032,-3.3968005,5.549938,30.51576,-4.930749,5.4536133,9.621724,-6.404317,-4.4649706,43.2649,-6.183408,4.2749968,-1.1067531,-2.6751418,2.926115,21.754745,15.723979,-92.98942,14.601499,21.460527,-5.477961,-19.0324,26.769445,-29.20542,81.58706,4.758646,-32.65851,-6.332598,21.703266
138,-1.510086178779602,-33.71538543701172,75.24737548828125,3.194679660703343,3.913834750465483,-89.8215154600956,-30.30054,-3.7017705,5.6338205,30.480175,-5.540377,5.6479173,8.480215,-6.7555203,-4.0310373,46.003666,-4.677604,4.4756517,-1.1591058,-2.8503509,2.8854039,21.787176,15.730392,-92.98207,14.62974,21.52963,-5.4664955,-19.093536,26.684164,-29.210003,81.68529,4.783651,-32.555878,-6.357337,21.724934
139,-1.4009133577346802,-34.3638916015625,75.34461975097656,3.339066136162757,3.873117193041856,-89.75826657903008,-29.623291,-4.0011835,5.6988854,30.407385,-6.1270123,5.830618,7.2506986,-7.085247,-3.583253,48.815483,-3.1933367,4.574,-1.2318213,-3.0202787,2.8536003,21.830925,15.741874,-92.96374,14.659203,21.595306,-5.465899,-19.19645,26.602749,-29.21425,81.80217,4.8165207,-32.459152,-6.3839717,21.74037
140,-1.3046603202819824,-34.989540100097656,75.44380187988281,3.4924017070029323,3.825083399210566,-89.69949800825876,-28.926283,-4.310562,5.7631974,30.290016,-6.6829844,6.00208,5.930375,-7.3930364,-3.1244001,51.669346,-1.7878091,4.5091033,-1.2902703,-3.1947777,2.8433769,21.86136,15.751827,-92.961716,14.684491,21.622261,-5.465318,-19.328741,26.572779,-29.216635,81.87164,4.848806,-32.383476,-6.423495,21.750322
141,-1.2127150297164917,-35.599525451660156,75.54306030273438,3.6626082631482633,3.766921601086409,-89.63925794262845,-28.201742,-4.6400304,5.827279,30.115969,-7.200963,6.1594467,4.462191,-7.697085,-2.6553268,54.671024,-0.29672137,4.208835,-1.3517308,-3.3852327,2.8595603,21.875946,15.759609,-92.96616,14.703297,21.59682,-5.4643464,-19.514153,26.576786,-29.218674,81.902214,4.8794107,-32.336033,-6.4978623,21.830757
142,-1.1357262134552002,-36.19870376586914,75.63607788085938,3.839292982378436,3.7010189316571265,-89.57721029897694,-27.452124,-4.9787564,5.882805,29.890259,-7.686347,6.3024464,2.8662047,-8.00527,-2.1841786,57.795425,1.2582984,3.7057438,-1.4173522,-3.582962,2.895466,21.884914,15.767626,-92.975845,14.722781,21.53775,-5.4681005,-19.749624,26.607676,-29.221529,81.908165,4.909892,-32.310825,-6.597462,21.959135
143,-1.0556976795196533,-36.79555892944336,75.7259521484375,4.016898334635976,3.6323019931836478,-89.52208852585524,-26.69536,-5.3158636,5.932265,29.635487,-8.1473055,6.435464,1.2458262,-8.300046,-1.7258073,60.83818,2.5258932,3.1043007,-1.4744568,-3.7768104,2.9420288,21.891903,15.788184,-92.99624,14.720541,21.465143,-5.4701886,-19.983114,26.685915,-29.23009,81.896904,4.938598,-32.284103,-6.6706295,21.969746
144,-0.8960812091827393,-37.451229095458984,75.7948226928711,4.1857592029795,3.5664171028419758,-89.49046670525914,-25.936974,-5.63409,5.9810166,29.363184,-8.594593,6.562315,-0.2826361,-8.549341,-1.2817097,63.579277,3.154076,2.521288,-1.5224756,-3.9583364,2.99119,21.911646,15.795299,-93.00731,14.715696,21.403532,-5.467604,-20.165068,26.808765,-29.233198,81.9049,4.989214,-32.224506,-6.6624265,21.690361
145,-0.7322614192962646,-38.0879020690918,75.8604736328125,4.354147289060299,3.5053513419683533,-89.498961953172,-25.177914,-5.936007,6.0464983,29.075619,-9.032843,6.68534,-1.6895618,-8.737036,-0.81970435,65.997475,2.90926,1.9620347,-1.5416133,-4.1274257,3.0363686,21.951103,15.808266,-93.020454,14.668487,21.350382,-5.4220047,-20.285963,27.010313,-29.23834,81.95532,5.0763283,-32.167442,-6.555867,20.941704
146,-0.6463980674743652,-38.66940689086914,75.93333435058594,4.522925092347214,3.4460609441776766,-89.53651015519876,-24.41176,-6.22652,6.1212025,28.76345,-9.455742,6.800554,-3.038166,-8.873086,-0.3397097,68.211716,2.015749,1.3797612,-1.5511229,-4.2909822,3.0862036,22.003954,15.824202,-93.01968,14.592851,21.299625,-5.3509173,-20.376389,27.264755,-29.243675,82.04059,5.193921,-32.10849,-6.3815227,19.858805
147,-0.5965246558189392,-39.239810943603516,76.01031494140625,4.672609476497471,3.388026352212296,-89.57583460276858,-23.643486,-6.4932895,6.174108,28.434168,-9.861297,6.9034114,-4.3644423,-8.964587,0.11095477,70.235596,0.8001601,0.82004297,-1.5689775,-4.4416018,3.1397207,22.062218,15.837315,-93.01437,14.525378,21.258213,-5.3199577,-20.42465,27.530882,-29.246601,82.1153,5.297223,-31.965004,-6.1509748,18.7345
148,-0.5480231046676636,-39.806427001953125,76.09313201904297,4.784560650086609,3.330425567064463,-89.58948988590146,-22.87875,-6.724355,6.1755056,28.095995,-10.247304,6.990498,-5.7034936,-9.027729,0.47922674,72.0778,-0.40871033,0.32216054,-1.6178766,-4.573279,3.1963782,22.116058,15.844634,-93.009476,14.499709,21.233667,-5.395011,-20.420116,27.763172,-29.246393,82.14081,5.3403654,-31.655247,-5.8769255,17.859371
149,-0.5035303831100464,-40.368595123291016,76.17540740966797,4.854284141513186,3.2747498695303303,-89.57581301591523,-22.123837,-6.9149094,6.122618,27.756552,-10.6154995,7.0628886,-7.069684,-9.07043,0.75990266,73.746994,-1.6506137,-0.078111544,-1.7104958,-4.6901746,3.2521708,22.169756,15.84761,-93.000626,14.526263,21.239603,-5.661782,-20.318033,27.94633,-29.244453,82.116554,5.303429,-31.073318,-5.5376277,17.30044
150,-0.45689019560813904,-40.93490982055664,76.2634506225586,4.8918586054439075,3.2207013597523124,-89.5477170546859,-21.374966,-7.0712204,6.031881,27.4106,-10.966428,7.1225367,-8.443166,-9.087218,0.97707814,75.23812,-3.0585551,-0.4108738,-1.8093804,-4.787745,3.309805,22.218561,15.851717,-93.007645,14.5863495,21.267756,-6.0638127,-20.140165,28.129341,-29.235647,82.01924,5.2115355,-30.302977,-5.145732,16.915947
151,-0.4165371060371399,-41.4923095703125,76.34882354736328,4.901737993029658,3.1651208930178085,-89.49876462824746,-20.623377,-7.1983633,5.902841,27.047337,-11.296865,7.16803,-9.807845,-9.083545,1.1181419,76.534325,-4.4424634,-0.7400707,-1.9265474,-4.8655505,3.3746846,22.257156,15.853892,-93.02272,14.661152,21.292564,-6.445317,-19.961983,28.292986,-29.216682,81.897804,5.099042,-29.512375,-4.733613,16.638462
152,-0.37190401554107666,-42.05183029174805,76.44123077392578,4.888579943126807,3.1047315460881375,-89.42284254980459,-19.858624,-7.301704,5.7349486,26.652054,-11.601145,7.198019,-11.146519,-9.063607,1.1714661,77.61533,-5.611212,-1.127308,-2.0770524,-4.925605,3.447909,22.288065,15.856543,-93.02704,14.726507,21.291306,-6.6533365,-19.866611,28.419403,-29.182812,81.803665,5.0018797,-28.87139,-4.3345213,16.406618
153,-0.44801241159439087,-42.54480743408203,76.53948211669922,4.840165711791537,3.0371851502398393,-89.30368869029753,-19.086014,-7.368682,5.508917,26.231821,-11.879034,7.207437,-12.45662,-9.014962,1.0983523,78.462364,-6.4732046,-1.6123908,-2.285656,-4.9633403,3.5350711,22.307201,15.865815,-93.00862,14.77643,21.242638,-6.6113114,-19.897987,28.491068,-29.130943,81.756966,4.914966,-28.437431,-3.9219449,16.232431
154,-0.4473359286785126,-43.09162521362305,76.63629150390625,4.7591606330002225,2.9645517740527754,-89.14932360887583,-18.309042,-7.4009953,5.2333655,25.79232,-12.133671,7.199907,-13.74414,-8.945085,0.9127191,79.08731,-7.143386,-2.154397,-2.5396845,-4.982705,3.6328754,22.316862,15.887324,-92.97555,14.81532,21.164751,-6.4129014,-20.00606,28.518465,-29.053488,81.73337,4.835257,-28.116428,-3.486159,16.13901
155,-0.4180554747581482,-43.65399932861328,76.73805236816406,4.6728501779701945,2.891113514831549,-88.98986290611407,-17.514538,-7.4246097,4.948889,25.315386,-12.364517,7.1862807,-15.00423,-8.887381,0.6809613,79.51391,-7.73913,-2.697538,-2.8002284,-4.996288,3.7296023,22.328138,15.918455,-92.93824,14.837304,21.09319,-6.160977,-20.132973,28.528572,-28.962172,81.71614,4.7791343,-27.848742,-3.0869558,16.085339
156,-0.37480971217155457,-44.22930908203125,76.83851623535156,4.607849631125626,2.8206855756075893,-88.85564336327533,-16.689316,-7.4659452,4.6947565,24.783524,-12.569733,7.1764727,-16.23291,-8.870586,0.4726941,79.765495,-8.376268,-3.1835067,-3.0281782,-5.016684,3.8139803,22.353313,15.953786,-92.90628,14.840071,21.06425,-5.9587245,-20.221292,28.545706,-28.86716,81.68888,4.7680726,-27.573471,-2.7847068,16.02965
157,-0.3413713574409485,-44.79053497314453,76.93331146240234,4.576459410050958,2.747858316442009,-88.75775581495348,-15.808687,-7.539733,4.483008,24.165754,-12.737597,7.1754856,-17.42586,-8.905928,0.31120783,79.8412,-9.101123,-3.5930216,-3.2134671,-5.0487657,3.886085,22.397825,15.986814,-92.88233,14.823747,21.108702,-5.8173347,-20.254404,28.570621,-28.78,81.65098,4.8078585,-27.286526,-2.6153276,15.964811
158,-0.3141654431819916,-45.35332107543945,77.0222396850586,4.561903253902817,2.672642846157898,-88.67899302794589,-14.886709,-7.6289983,4.2909493,23.481253,-12.872128,7.175919,-18.585371,-8.972372,0.15704161,79.728134,-9.845086,-3.9549723,-3.3782399,-5.0840077,3.950941,22.455036,16.014637,-92.860664,14.796132,21.199915,-5.687375,-20.263128,28.594194,-28.70686,81.60916,4.874365,-27.017157,-2.5397377,15.913937
159,-0.2977163791656494,-45.911582946777344,77.10389709472656,4.548325957504672,2.6066309036271087,-88.60742803511708,-13.962408,-7.7127337,4.1052694,22.774504,-12.996895,7.1693325,-19.716948,-9.049814,-0.014504393,79.432205,-10.552103,-4.284959,-3.5329409,-5.1137753,4.004356,22.518799,16.037085,-92.837654,14.765167,21.286053,-5.581523,-20.261415,28.623344,-28.648874,81.56193,4.9396243,-26.75299,-2.5063827,15.880143
160,-0.28630712628364563,-46.46897888183594,77.18291473388672,4.51963885911914,2.5614570581707463,-88.53106990163043,-13.077773,-7.7700486,3.9138234,22.094975,-13.138294,7.14858,-20.825663,-9.119589,-0.22949375,78.96025,-11.166906,-4.599423,-3.6919534,-5.129331,4.0416303,22.583944,16.046938,-92.80754,14.7448,21.314817,-5.512482,-20.26209,28.662857,-28.624708,81.51246,4.9562964,-26.478407,-2.4627492,15.866045
161,-0.2614629864692688,-47.027000427246094,77.2567367553711,4.467644764519972,2.539737079889234,-88.4475438561129,-12.240751,-7.7907705,3.7146268,21.451416,-13.304424,7.109658,-21.910542,-9.17358,-0.50446916,78.30236,-11.697171,-4.889781,-3.8527899,-5.1220493,4.060285,22.64944,16.05608,-92.77227,14.722449,21.258547,-5.4971175,-20.264475,28.716446,-28.604649,81.45373,4.9503555,-26.20951,-2.4609287,15.853833
162,-0.2524043917655945,-47.59552001953125,77.32038879394531,4.402345511005826,2.53534897452919,-88.36301457872699,-11.429785,-7.7882886,3.5145197,20.818472,-13.480953,7.058504,-22.965843,-9.220566,-0.82574135,77.45616,-12.16414,-5.148018,-4.0063577,-5.0979805,4.0642967,22.716288,16.069979,-92.73582,14.690373,21.15003,-5.5243645,-20.26428,28.779573,-28.578978,81.382545,4.9445014,-25.949184,-2.5080197,15.850119
163,-0.24225878715515137,-48.15194320678711,77.37776947021484,4.334385224849856,2.5470023722629818,-88.2780274682185,-10.643021,-7.775582,3.3154624,20.194838,-13.660211,7.0021515,-23.988813,-9.2701,-1.176955,76.4394,-12.536769,-5.396179,-4.1569242,-5.072724,4.0576677,22.782114,16.081137,-92.69609,14.662463,21.026606,-5.5638237,-20.267393,28.848757,-28.561825,81.31222,4.921938,-25.661991,-2.4822202,15.88705
164,-0.24101364612579346,-48.7015380859375,77.42633056640625,4.274962193529606,2.572919779094205,-88.19376864441736,-9.877666,-7.766238,3.1192968,19.577171,-13.833688,6.946995,-24.978174,-9.332128,-1.5398086,75.2718,-12.78443,-5.6568556,-4.2979097,-5.058948,4.0475373,22.838964,16.094858,-92.656425,14.640408,20.926243,-5.586242,-20.284748,28.921331,-28.544996,81.236855,4.888402,-25.319614,-2.266839,16.001972
165,-0.2298312783241272,-49.25609588623047,77.47147369384766,4.223947026349249,2.615317392549246,-88.10921124038312,-9.135043,-7.760081,2.9238484,18.963907,-13.998417,6.892696,-25.944597,-9.418593,-1.9269257,73.95448,-12.885322,-5.9916315,-4.4311285,-5.05958,4.0330353,22.88728,16.112734,-92.61267,14.615346,20.811522,-5.5331206,-20.355082,29.000305,-28.528208,81.15666,4.8363256,-24.840553,-1.7157499,16.245008
166,-0.2291138470172882,-49.816139221191406,77.50802612304688,4.176074200434865,2.674306704461072,-88.0243386905256,-8.416645,-7.750672,2.7291496,18.358229,-14.1598215,6.835798,-26.88267,-9.518037,-2.344895,72.47829,-12.863252,-6.3680115,-4.5591807,-5.067493,4.0114903,22.930544,16.131496,-92.56419,14.590088,20.678675,-5.437025,-20.460762,29.08406,-28.514221,81.0751,4.765463,-24.267673,-0.92689866,16.576807
167,-0.22668574750423431,-50.35635757446289,77.53486633300781,4.135097822930687,2.7453802141952397,-87.94141764400726,-7.7154737,-7.7430997,2.5394728,17.755344,-14.317287,6.7782907,-27.768396,-9.608475,-2.7656624,70.84592,-12.754115,-6.672552,-4.6737847,-5.080504,3.98661,22.964,16.16215,-92.5223,14.569182,20.614504,-5.4042215,-20.527626,29.17091,-28.49473,80.98676,4.6996794,-23.758862,-0.15208632,16.904446
168,-0.23187246918678284,-50.90343475341797,77.55134582519531,4.104509691465664,2.824104287778085,-87.86241478390008,-7.0263934,-7.742352,2.3588932,17.153934,-14.47063,6.722993,-28.57869,-9.666939,-3.1582687,69.05624,-12.588286,-6.7894278,-4.774297,-5.0986667,3.9598622,22.985373,16.204084,-92.49597,14.569239,20.705193,-5.540882,-20.478132,29.251503,-28.467928,80.9042,4.654581,-23.458452,0.35711494,17.137596
169,-0.231365367770195,-51.44817352294922,77.56120300292969,4.088650496281894,2.914614308660883,-87.78829807536611,-6.346655,-7.7542734,2.188908,16.534636,-14.611024,6.675781,-29.306984,-9.698295,-3.519829,67.08315,-12.392538,-6.6344256,-4.871205,-5.127052,3.926153,22.999437,16.222282,-92.479904,14.643404,21.009634,-5.946697,-20.24276,29.322325,-28.453472,80.837746,4.620038,-23.443111,0.48777062,17.2448
170,-0.23020675778388977,-52.0069580078125,77.56417083740234,4.084511467776365,3.0172425890982932,-87.71761089186671,-5.680264,-7.775429,2.0265326,15.907007,-14.740812,6.6346354,-29.964546,-9.709148,-3.8627143,64.92879,-12.13558,-6.285885,-4.9483147,-5.160619,3.8884466,22.998264,16.244812,-92.485176,14.751999,21.471533,-6.538096,-19.875477,29.3974,-28.42937,80.759125,4.604782,-23.624508,0.3845192,17.285671
171,-0.24055805802345276,-52.5550537109375,77.55792999267578,4.085139714645463,3.1219307373451874,-87.64827945880118,-5.02445,-7.7965446,1.8690165,15.297521,-14.878817,6.5902815,-30.555597,-9.68571,-4.18156,62.635345,-11.765989,-5.8808346,-5.015198,-5.1947346,3.8544502,22.986364,16.265974,-92.49696,14.865028,22.006853,-7.151206,-19.482653,29.464403,-28.397552,80.68897,4.605088,-23.887947,0.19073065,17.293764
172,-0.25157612562179565,-53.103607177734375,77.54283142089844,4.083027860968453,3.2187974156918733,-87.5786362361128,-4.379133,-7.8081403,1.7146081,14.738219,-15.046138,6.533101,-31.086737,-9.616539,-4.468497,60.249355,-11.237737,-5.5573263,-5.078959,-5.2225647,3.8325214,22.96712,16.278887,-92.500626,14.952182,22.526505,-7.625735,-19.178339,29.515862,-28.3722,80.63833,4.6040845,-24.120108,0.0473734,17.308971
173,-0.2538786828517914,-53.65022277832031,77.5171890258789,4.076348865973987,3.303744199398228,-87.50731432621377,-3.7446582,-7.8078647,1.565302,14.237244,-15.247097,6.4570174,-31.557121,-9.502273,-4.721783,57.768864,-10.538373,-5.361808,-5.1347494,-5.2383986,3.830234,22.930698,16.290428,-92.49848,14.989608,23.030294,-7.893202,-19.024807,29.551823,-28.347712,80.60189,4.6091027,-24.323221,-0.028660756,17.33804
174,-0.268883615732193,-54.20949935913086,77.48430633544922,4.069322429778741,3.382811228729324,-87.43565992018641,-3.1214302,-7.80106,1.4219016,13.778221,-15.471318,6.3685565,-31.96553,-9.352646,-4.940114,55.175266,-9.6983385,-5.2219257,-5.180931,-5.2474546,3.8413365,22.878702,16.30446,-92.49509,14.995519,23.555496,-8.049468,-18.953955,29.575562,-28.318844,80.575836,4.626649,-24.546114,-0.106092185,17.36116
175,-0.28183555603027344,-54.774105072021484,77.44959259033203,4.063026367102352,3.4611629303050084,-87.36637377290154,-2.505248,-7.7896624,1.2805394,13.345891,-15.711856,6.276148,-32.31941,-9.171128,-5.115327,52.49464,-8.73514,-5.0977163,-5.218007,-5.256976,3.853791,22.826159,16.318771,-92.49391,14.996557,24.067041,-8.180692,-18.883944,29.591776,-28.289717,80.56022,4.6453233,-24.75292,-0.17292365,17.382208
176,-0.2973061203956604,-55.33515930175781,77.40131378173828,4.058997304965468,3.543718958488336,-87.30224054114252,-1.8918767,-7.775835,1.1370993,12.92517,-15.961687,6.1882772,-32.62395,-8.9607725,-5.239171,49.745987,-7.665933,-4.9487157,-5.240733,-5.274141,3.8571985,22.784618,16.334398,-92.503586,15.017664,24.530298,-8.371531,-18.731022,29.601809,-28.254772,80.54807,4.6658883,-24.903149,-0.2186818,17.406425
177,-0.31568434834480286,-55.91455078125,77.34821319580078,4.05803347828031,3.629595405942125,-87.24689418217625,-1.2755039,-7.760794,0.98950356,12.509604,-16.223772,6.1079044,-32.886097,-8.717904,-5.2950816,46.918457,-6.4502497,-4.805126,-5.245918,-5.3037434,3.8515635,22.759882,16.346512,-92.532166,15.079002,24.951746,-8.6681185,-18.4391,29.607964,-28.217968,80.541405,4.6795015,-24.963814,-0.2104505,17.444895
178,-0.33916574716567993,-56.4903564453125,77.29000091552734,4.059373240859122,3.7168037475486058,-87.19809389743425,-0.6648503,-7.743292,0.84144205,12.118507,-16.503416,6.030836,-33.101562,-8.448002,-5.286554,44.005955,-5.0952535,-4.677842,-5.2392125,-5.3414226,3.8414898,22.745876,16.351025,-92.57062,15.16738,25.34638,-9.016666,-18.063206,29.610888,-28.192558,80.542816,4.678554,-24.962788,-0.16370699,17.492321
179,-0.3684134781360626,-57.076133728027344,77.22576904296875,4.062811874429425,3.808411814292626,-87.1486207457999,-0.056948368,-7.722748,0.69314235,11.732666,-16.783037,5.9528832,-33.256927,-8.166771,-5.237734,41.02949,-3.6867046,-4.4983954,-5.222514,-5.378369,3.8240426,22.730953,16.351881,-92.61217,15.256388,25.690468,-9.350307,-17.685076,29.606533,-28.162447,80.54355,4.684092,-24.958782,-0.14118509,17.528978
180,-0.39601144194602966,-57.66719055175781,77.16059875488281,4.068116294733256,3.9069722111761824,-87.09070743898565,0.5394494,-7.6988387,0.5457763,11.358291,-17.05814,5.8711653,-33.33424,-7.8868823,-5.1704373,37.998802,-2.3014755,-4.1947803,-5.2079444,-5.4086413,3.795993,22.71132,16.34999,-92.63688,15.321275,25.960676,-9.605222,-17.39013,29.59224,-28.13807,80.54187,4.6955214,-25.010689,-0.20424499,17.534945
181,-0.4275180995464325,-58.267051696777344,77.08809661865234,4.07872175427021,4.013957849679906,-87.0236707792815,1.132103,-7.6754894,0.40010217,10.973051,-17.315516,5.7824564,-33.309647,-7.6109324,-5.087366,34.822533,-0.84686965,-3.6980798,-5.1899858,-5.43325,3.756398,22.679317,16.34537,-92.64557,15.3571005,26.117262,-9.771932,-17.20806,29.568003,-28.1054,80.53763,4.729946,-25.162172,-0.40360865,17.466473
182,-0.46288174390792847,-58.86172103881836,77.0091781616211,4.09633067158345,4.124998756709786,-86.94827954704235,1.7317752,-7.6548915,0.25174332,10.568135,-17.554588,5.6892266,-33.186302,-7.3388686,-4.969944,31.499853,0.69228244,-3.063822,-5.170914,-5.458939,3.7091606,22.641804,16.33719,-92.64167,15.3772135,26.183323,-9.884205,-17.093868,29.533281,-28.059927,80.53562,4.787219,-25.372795,-0.6942243,17.345135
183,-0.4985430836677551,-59.472877502441406,76.92373657226562,4.120448320042324,4.232964671218325,-86.85851234362657,2.3253314,-7.636294,0.09550743,10.188926,-17.798643,5.597607,-32.983406,-7.0821385,-4.8160405,28.169037,2.1270428,-2.407277,-5.1637573,-5.4854546,3.6591818,22.604877,16.332531,-92.62822,15.376971,26.226023,-9.940222,-17.01673,29.490768,-28.037193,80.52813,4.8257184,-25.574474,-0.995671,17.252596
184,-0.5319902896881104,-60.07988357543945,76.83623504638672,4.150416990296647,4.331145431955771,-86.74864541838483,2.9115822,-7.618643,-0.075191,9.857332,-18.059063,5.5135245,-32.728813,-6.8522563,-4.6334176,24.988472,3.2605157,-1.8447756,-5.1773276,-5.514671,3.6128528,22.573046,16.32617,-92.6084,15.368529,26.31249,-9.939024,-16.946674,29.434645,-28.008425,80.50891,4.866708,-25.696981,-1.2292387,17.269573
185,-0.570737898349762,-60.69794464111328,76.74303436279297,4.190256711905845,4.420840542205574,-86.61290983868165,3.491247,-7.6059623,-0.26488677,9.568102,-18.339127,5.4422812,-32.4122,-6.640899,-4.3920627,21.920418,4.0188503,-1.3987212,-5.2167687,-5.550168,3.5687046,22.54757,16.318947,-92.57814,15.342552,26.47072,-9.840563,-16.890556,29.363842,-27.97419,80.46883,4.9090962,-25.680515,-1.3602475,17.421919
186,-0.6185017228126526,-61.323612213134766,76.63654327392578,4.246724396018707,4.498914712159506,-86.44966111236607,4.078885,-7.606393,-0.4765069,9.29548,-18.623056,5.381142,-32.01682,-6.4627285,-4.1088676,18.90046,4.518295,-1.0125122,-5.284624,-5.597942,3.527373,22.529364,16.317162,-92.538925,15.292318,26.660213,-9.656874,-16.856876,29.283148,-27.963879,80.41954,4.926747,-25.57179,-1.4327667,17.663128
187,-0.6687809228897095,-61.95277404785156,76.5185775756836,4.319142386317267,4.554859333600072,-86.26356084040212,4.680645,-7.6198134,-0.70929384,9.053116,-18.90633,5.32345,-31.571987,-6.348037,-3.8673759,16.061604,4.840648,-0.6784488,-5.3739104,-5.6579895,3.5007408,22.510283,16.316124,-92.49768,15.241472,26.850306,-9.4704685,-16.82895,29.195444,-27.95332,80.361824,4.9416633,-25.476131,-1.4946678,17.977493
188,-0.712531328201294,-62.59488296508789,76.40037536621094,4.401315733564311,4.58385518817058,-86.0644641268417,5.2888436,-7.6397815,-0.9557961,8.871983,-19.194204,5.2613344,-31.11407,-6.3072386,-3.7501693,13.539497,5.0642085,-0.3820386,-5.476994,-5.7260523,3.4900434,22.48826,16.315823,-92.47624,15.208079,27.00329,-9.354761,-16.773273,29.10301,-27.947786,80.3224,4.9473963,-25.486574,-1.5842694,18.33166
189,-0.7568225860595703,-63.24954605102539,76.27662658691406,4.4906149209977215,4.589419921431715,-85.85224096366372,5.8957257,-7.663866,-1.2190824,8.756473,-19.49376,5.1933494,-30.640203,-6.338108,-3.7917647,11.314466,5.15529,-0.09686271,-5.591389,-5.797881,3.4962626,22.457891,16.315256,-92.47136,15.198251,27.104017,-9.341533,-16.68371,28.998621,-27.943235,80.28417,4.9452977,-25.642246,-1.7419033,18.790665
190,-0.8090624809265137,-63.909210205078125,76.1479263305664,4.584118823193662,4.579081347558306,-85.62912398436467,6.495109,-7.6877017,-1.4944482,8.70332,-19.806852,5.1220903,-30.128605,-6.409419,-3.9508424,9.299603,5.1076837,0.17348054,-5.7162495,-5.8713975,3.5097823,22.424416,16.314207,-92.48129,15.202921,27.171774,-9.383792,-16.56951,28.883205,-27.940977,80.25208,4.9378204,-25.882917,-1.9346787,19.338253
191,-0.8678233027458191,-64.56063079833984,76.01957702636719,4.661796464039199,4.562325276093371,-85.41844299800117,7.058351,-7.6866345,-1.7510413,8.756402,-20.141548,5.042677,-29.654799,-6.4725165,-4.1869774,7.652224,4.9997673,0.39270404,-5.82906,-5.9254317,3.5241723,22.388983,16.31258,-92.50006,15.215897,27.232513,-9.455028,-16.453596,28.77209,-27.940035,80.231865,4.9299445,-26.170895,-2.1119483,19.858915
192,-0.9241655468940735,-65.21957397460938,75.894287109375,4.701025065234183,4.5515371502639885,-85.24597323890433,7.558858,-7.6339355,-1.9551932,8.950891,-20.502003,4.949651,-29.313702,-6.484285,-4.452419,6.5663414,4.8828983,0.5157188,-5.9042077,-5.937942,3.5249267,22.360365,16.311716,-92.51805,15.231784,27.312038,-9.528705,-16.362974,28.692831,-27.940123,80.23297,4.9298573,-26.471691,-2.2195914,20.233809
193,-0.9767926931381226,-65.90274810791016,75.77532196044922,4.6975153631873825,4.544617566605139,-85.11986260152847,8.013063,-7.530781,-2.0967588,9.266281,-20.888504,4.844465,-29.27254,-6.466859,-4.7717953,6.453747,4.5359216,0.54789275,-5.928603,-5.8977604,3.5314255,22.321348,16.308762,-92.56282,15.252659,27.418688,-9.603605,-16.284836,28.635252,-27.940706,80.26682,4.947854,-26.798645,-2.2161062,20.376532
194,-1.0332082509994507,-66.58545684814453,75.6626205444336,4.653292423292553,4.545925440730712,-85.03574885566934,8.415005,-7.3787155,-2.182127,9.700895,-21.303843,4.726658,-29.22576,-6.406974,-5.1760697,6.6325603,4.2497563,0.4986524,-5.9135685,-5.813703,3.518921,22.290318,16.302631,-92.62769,15.283128,27.534151,-9.687469,-16.21348,28.601904,-27.942057,80.35884,4.9788146,-27.158852,-2.1261635,20.346828
195,-1.088059902191162,-67.2841796875,75.5573501586914,4.5496203942921,4.5659128741048605,-84.99110986555002,8.713606,-7.1487556,-2.212482,10.323637,-21.757448,4.5875645,-29.462227,-6.2895637,-5.5357184,7.599381,3.8140402,0.32296062,-5.874202,-5.6723685,3.4848044,22.265715,16.293549,-92.67114,15.316441,27.655006,-9.774363,-16.152678,28.566381,-27.943607,80.455956,5.01,-27.506649,-2.0268617,20.309078
196,-1.1741178035736084,-67.96614837646484,75.48221588134766,4.369749022527635,4.613088887738525,-84.98044640104186,8.865397,-6.815463,-2.1931572,11.194432,-22.254625,4.4187393,-29.84339,-6.062929,-5.7737265,8.949802,3.4945405,-0.02200055,-5.8183165,-5.4593625,3.4210556,22.243763,16.280283,-92.674484,15.348416,27.769962,-9.851921,-16.099775,28.517601,-27.94425,80.50726,5.0230236,-27.796255,-1.9924598,20.41767
197,-1.2716480493545532,-68.64376831054688,75.42742919921875,4.0837976001107235,4.698889506728525,-85.01041795032832,8.859902,-6.345907,-2.1133735,12.3215885,-22.824574,4.2000265,-30.429226,-5.6756835,-5.8371515,10.831772,3.3378365,-0.648795,-5.7341223,-5.14725,3.320022,22.228897,16.267365,-92.62068,15.377805,27.932539,-9.945849,-16.041101,28.451803,-27.942377,80.4614,5.0033336,-27.924776,-2.056912,20.787102
198,-1.3481431007385254,-69.3544692993164,75.35951232910156,3.719162481769035,4.799814088977235,-85.06218708742739,8.761507,-5.7789116,-1.9982456,13.633065,-23.432903,3.9413843,-31.137737,-5.176567,-5.8148603,13.145546,3.3325224,-1.4931582,-5.6327057,-4.759229,3.2034106,22.215727,16.244751,-92.52911,15.41631,28.129705,-10.053915,-15.984527,28.381813,-27.934526,80.33946,4.964988,-27.950935,-2.1798801,21.31837
199,-1.4293910264968872,-70.08556365966797,75.28443145751953,3.3338261074445037,4.88250986712868,-85.09997794393311,8.62483,-5.1837487,-1.8974211,15.072269,-23.994915,3.676131,-31.801697,-4.663029,-5.817766,15.48606,3.4675639,-2.3372152,-5.5494127,-4.3475204,3.092872,22.198175,16.22948,-92.448044,15.442251,28.24823,-10.115056,-15.948306,28.326736,-27.924938,80.221146,4.9240756,-28.071278,-2.3180165,21.827267
200,-1.5343587398529053,-70.80765533447266,75.2240982055664,2.967801883972015,4.928416880321337,-85.10454634033394,8.46566,-4.6075196,-1.8409634,16.62859,-24.445215,3.4339387,-32.28443,-4.21502,-5.937985,17.486263,3.7018476,-2.977366,-5.4962845,-3.9413345,3.0049913,22.159187,16.21585,-92.41933,15.456048,28.176344,-10.075915,-15.962115,28.30723,-27.91151,80.15535,4.9037356,-28.490023,-2.4406533,22.145893
201,-1.6416994333267212,-71.54303741455078,75.17778015136719,2.6018479866309727,4.950041456995805,-85.07266158139801,8.272994,-4.026275,-1.8441195,18.303612,-24.807947,3.1957283,-32.56854,-3.8336625,-6.2175527,19.042412,4.1679935,-3.3041189,-5.4793563,-3.515311,2.9258847,22.099659,16.208683,-92.44671,15.435093,27.777866,-9.860632,-16.05685,28.346096,-27.899076,80.15771,4.907425,-29.400059,-2.5412273,22.24735
202,-1.7450799942016602,-72.27713012695312,75.13883972167969,2.211162247967669,4.960652534409079,-85.02154637487978,8.035223,-3.4137704,-1.8812299,20.102259,-25.10514,2.9477174,-32.746014,-3.4744349,-6.595204,20.391787,4.8164253,-3.4573958,-5.476573,-3.048197,2.8476834,22.019623,16.204702,-92.51743,15.391981,27.146618,-9.517921,-16.2055,28.431955,-27.882395,80.18982,4.927193,-30.650469,-2.6373956,22.2162
203,-1.8413159847259521,-73.01090240478516,75.10905456542969,1.8211327256137606,4.948586868706405,-84.96783052913695,7.757124,-2.8031301,-1.9159136,22.021944,-25.269575,2.7264788,-32.85454,-3.139755,-6.9990993,21.693184,5.3211217,-3.6080813,-5.4803505,-2.577824,2.7856023,21.927845,16.204424,-92.62189,15.354744,26.521906,-9.1789665,-16.354893,28.509867,-27.863739,80.26695,4.958487,-31.916151,-2.7196612,22.039553
204,-1.934472680091858,-73.75395965576172,75.08727264404297,1.4597543590925164,4.899984669423189,-84.92589402158046,7.4457474,-2.230443,-1.9134114,24.059284,-25.23228,2.5692618,-32.92305,-2.8292947,-7.358743,23.086441,5.3664775,-3.9162877,-5.480373,-2.1444342,2.7547534,21.832386,16.20665,-92.760796,15.356911,26.137875,-8.975806,-16.450804,28.535288,-27.839,80.40267,5.003197,-32.877655,-2.7794068,21.70066
205,-2.0336523056030273,-74.501220703125,75.07595825195312,1.1423684781166457,4.798529675556027,-84.89540711167075,7.126258,-1.7180206,-1.8617249,26.220007,-24.99003,2.4935815,-32.995335,-2.5459661,-7.6441708,24.721054,4.7487445,-4.4786034,-5.4822483,-1.7634205,2.7684124,21.729517,16.208426,-92.94725,15.421532,26.120144,-8.9822035,-16.487875,28.497433,-27.820272,80.63965,5.0527816,-33.55268,-2.8411295,21.039743
206,-2.1310997009277344,-75.24834442138672,75.07242584228516,0.8535782761349415,4.6554179815680765,-84.86934907240654,6.792673,-1.2447997,-1.7798629,28.489841,-24.564867,2.4761293,-33.04255,-2.2742093,-7.8857627,26.476564,3.6853292,-5.1820827,-5.4940896,-1.4164808,2.812503,21.619436,16.208342,-93.180145,15.529034,26.319977,-9.112138,-16.48619,28.417774,-27.800764,80.974655,5.1156216,-34.07394,-2.8895333,20.108583
207,-2.2169289588928223,-76.00819396972656,75.08605194091797,0.5761404639746732,4.4964784201132515,-84.85217668488382,6.4080667,-0.77917314,-1.6811866,30.833015,-23.927668,2.4842927,-32.981907,-1.9852645,-8.109001,28.083097,2.4903839,-5.8703027,-5.517936,-1.0921222,2.8696132,21.519566,16.20388,-93.39717,15.648667,26.571703,-9.274502,-16.463745,28.29352,-27.773705,81.32725,5.1873984,-34.29963,-2.8834357,19.239267
208,-2.2976126670837402,-76.756591796875,75.11013793945312,0.2898842035594248,4.348781652510078,-84.84992720892359,5.9276567,-0.28958464,-1.5783873,33.231,-23.051062,2.4863062,-32.74181,-1.6601253,-8.348139,29.2926,1.4670389,-6.39132,-5.5290074,-0.76493484,2.9251132,21.432257,16.200056,-93.559525,15.742487,26.707258,-9.37966,-16.441631,28.153618,-27.758991,81.55941,5.2320247,-34.10372,-2.8022442,18.78248
209,-2.3797214031219482,-77.50588989257812,75.15315246582031,-0.015284464270079328,4.222906400577243,-84.87715250157966,5.317154,0.24010189,-1.4468367,35.71701,-21.863588,2.4919813,-32.286285,-1.2879843,-8.617422,30.000835,0.67638254,-6.68233,-5.5344296,-0.4334959,2.971816,21.362812,16.19642,-93.64442,15.810767,26.686563,-9.399084,-16.421608,27.937223,-27.749567,81.66934,5.263276,-33.15095,-2.561746,18.955318
210,-2.468471050262451,-78.25299835205078,75.2162094116211,-0.3272691773772014,4.104525216778647,-84.92861138721462,4.609798,0.7866807,-1.2882792,38.28211,-20.394447,2.4981163,-31.66945,-0.8814777,-8.897356,30.369171,-0.046664584,-6.836355,-5.5302987,-0.10500629,3.019277,21.303694,16.19518,-93.678345,15.8667555,26.599619,-9.385986,-16.401247,27.66507,-27.747768,81.688896,5.2793765,-31.621113,-2.1991568,19.535334
211,-2.5735204219818115,-78.94718933105469,75.30191802978516,-0.6309589852027234,3.9845618501002464,-84.97996578249105,3.861282,1.3211786,-1.1589612,40.84478,-18.774418,2.4549747,-30.948801,-0.4656781,-9.175115,30.537508,-0.7408213,-6.936464,-5.5252037,0.20947134,3.0637212,21.260286,16.19447,-93.69517,15.9036455,26.462694,-9.352391,-16.355167,27.41893,-27.748379,81.68428,5.2826385,-30.111055,-1.8384012,20.148664
212,-2.675621271133423,-79.67680358886719,75.38453674316406,-0.911334025253428,3.8532368878313172,-85.0075328321779,3.1206555,1.8151666,-1.1164005,43.33864,-17.143295,2.323658,-30.178188,-0.06434408,-9.437317,30.64132,-1.4413136,-7.064342,-5.5229464,0.5042485,3.1048093,21.24322,16.195688,-93.700935,15.909087,26.304567,-9.3243,-16.285517,27.298645,-27.750647,81.676834,5.2651443,-29.231436,-1.6500815,20.465502
213,-2.7830169200897217,-80.40612030029297,75.474365234375,-1.1673394985356016,3.6973536432501266,-85.00374710369697,2.4157002,2.275628,-1.1828309,45.756123,-15.519748,2.0521283,-29.33159,0.32094285,-9.685842,30.679804,-2.1687083,-7.2432375,-5.5257373,0.7794872,3.1467388,21.25811,16.19848,-93.69837,15.870012,26.1159,-9.297671,-16.161291,27.353367,-27.752283,81.68265,5.2252393,-29.32918,-1.7522349,20.357529
214,-2.8847992420196533,-81.1679458618164,75.54813385009766,-1.4067376476076998,3.5261096730520793,-84.98116438033858,1.7033143,2.7080255,-1.3337438,48.15376,-13.849707,1.6787271,-28.39362,0.70197177,-9.926649,30.593147,-2.9005797,-7.4321632,-5.5322022,1.0391295,3.183967,21.302519,16.222294,-93.68058,15.774715,25.888124,-9.263278,-15.995971,27.531414,-27.762333,81.685905,5.1597376,-30.021563,-2.033715,20.016586
215,-2.9855175018310547,-81.89879608154297,75.63783264160156,-1.621767921787464,3.3613132365653398,-84.94810022023428,0.9323117,3.079989,-1.5493747,50.55137,-12.156795,1.3091433,-27.436104,1.0687225,-10.1461735,30.438015,-3.6114569,-7.611709,-5.5369105,1.2736492,3.2172267,21.35839,16.282238,-93.64961,15.631939,25.647846,-9.235529,-15.844629,27.755617,-27.781572,81.66603,5.073391,-30.80315,-2.3336349,19.598154
216,-3.0893092155456543,-82.59941101074219,75.73470306396484,-1.805373953454413,3.225602880687962,-84.91312468586692,0.052896906,3.3650737,-1.8042982,52.961082,-10.457328,1.0497179,-26.525583,1.4097538,-10.331193,30.262562,-4.272266,-7.7592797,-5.534862,1.4757992,3.24073,21.412964,16.35064,-93.61752,15.493298,25.41707,-9.22578,-15.755797,27.951426,-27.800694,81.61174,4.9858556,-31.165745,-2.4963298,19.258007
217,-3.1901960372924805,-83.29096221923828,75.83142852783203,-1.952268073252059,3.124594312129122,-84.87412281146683,-0.9823582,3.5295224,-2.1418746,55.451008,-8.619115,0.95696783,-25.671326,1.7129396,-10.479359,30.074892,-4.881629,-7.8609643,-5.530201,1.6402653,3.2509809,21.46736,16.42308,-93.589516,15.363034,25.180922,-9.244176,-15.748665,28.126163,-27.819714,81.51565,4.8965154,-30.922348,-2.4587104,18.971647
218,-3.284571647644043,-83.9672622680664,75.91741943359375,-2.0668117916699607,3.0463172918883252,-84.82885601842223,-2.1361008,3.5971117,-2.5497932,57.989853,-6.6692195,0.9669308,-24.835722,1.9823974,-10.596154,29.846832,-5.4511137,-7.927159,-5.526998,1.7708523,3.2518353,21.529953,16.476212,-93.55681,15.254573,24.93376,-9.282197,-15.793282,28.303947,-27.8326,81.39207,4.808454,-30.357702,-2.314294,18.676397
219,-3.361854076385498,-84.63907623291016,76.00269317626953,-2.156836150911042,2.9873321559353467,-84.78511478181312,-3.3386343,3.63761,-2.9214704,60.459084,-4.87789,1.0154055,-24.02573,2.226847,-10.684575,29.596577,-5.9869685,-7.972479,-5.507023,1.8781954,3.2471263,21.589272,16.539593,-93.52117,15.14571,24.712448,-9.321552,-15.868669,28.46251,-27.84817,81.23718,4.7154856,-29.679827,-2.1496086,18.482347
220,-3.4409596920013428,-85.29359436035156,76.08213806152344,-2.2316361703985104,2.9442465910865243,-84.75087948085927,-4.5246015,3.732498,-3.1561823,62.74919,-3.526415,1.0502958,-23.24839,2.4583664,-10.748113,29.33967,-6.493117,-8.012901,-5.4671135,1.9701701,3.241728,21.642214,16.59587,-93.46821,15.061818,24.55516,-9.346209,-15.953482,28.56377,-27.86421,81.06946,4.62647,-29.09167,-2.0440211,18.496891
221,-3.507744789123535,-85.93972778320312,76.15708923339844,-2.2886145300419507,2.9310628916769366,-84.7282491746142,-5.7077713,3.9011464,-3.2430916,64.86995,-2.655285,1.0086485,-22.534758,2.671889,-10.783541,29.092407,-6.9651766,-8.050697,-5.405354,2.044727,3.230965,21.681543,16.632048,-93.39098,15.021876,24.46045,-9.348725,-16.051628,28.580618,-27.880003,80.87066,4.536162,-28.549316,-2.0021229,18.822325
222,-3.573209762573242,-86.57962799072266,76.23263549804688,-2.326795407241714,2.9446977698859875,-84.71341027957907,-6.921666,4.1216617,-3.2330956,66.8881,-2.1375432,0.95693004,-21.86962,2.8646765,-10.792231,28.838755,-7.400758,-8.076898,-5.3290563,2.099591,3.2143576,21.71354,16.646645,-93.292854,15.022031,24.411789,-9.339201,-16.171034,28.533428,-27.89347,80.64748,4.447421,-27.975813,-1.9798858,19.374952
223,-3.635403633117676,-87.14698028564453,76.31267547607422,-2.360546293953564,2.9565723792522935,-84.70592842537326,-8.134874,4.422476,-3.1217985,68.78737,-2.0055304,1.0407332,-21.197033,3.05556,-10.785399,28.554682,-7.809674,-8.09316,-5.238013,2.147528,3.2017448,21.752964,16.649017,-93.1878,15.043286,24.425156,-9.32636,-16.292809,28.467922,-27.90409,80.44218,4.3764257,-27.527933,-1.9874144,19.98748
224,-3.698063373565674,-87.7553482055664,76.38713836669922,-2.4023650863685324,2.937933869522191,-84.70239501373979,-9.307889,4.8277774,-2.9079635,70.53406,-2.2855568,1.4012564,-20.450996,3.2624953,-10.774336,28.201143,-8.197418,-8.101561,-5.124834,2.2040043,3.2064881,21.807076,16.645283,-93.089676,15.070726,24.516472,-9.323542,-16.407124,28.440374,-27.917646,80.2644,4.3320365,-27.3709,-2.0495265,20.508018
225,-3.7535738945007324,-88.37837219238281,76.46028900146484,-2.4585211444535777,2.8812375010751996,-84.7029348799366,-10.429424,5.381617,-2.557361,72.142525,-3.207488,2.1619508,-19.61561,3.4934683,-10.76182,27.77174,-8.568989,-8.102127,-4.993251,2.2725797,3.2275324,21.890379,16.636435,-92.99457,15.105046,24.73405,-9.332505,-16.510384,28.45864,-27.932226,80.15149,4.3340564,-27.63553,-2.1932955,20.888649
226,-3.810741424560547,-89.01158905029297,76.5309066772461,-2.5201273248133917,2.8013837464260347,-84.70830622090389,-11.512577,6.0478625,-2.10173,73.61736,-4.6923437,3.201501,-18.722399,3.7373102,-10.740647,27.281172,-8.918547,-8.094903,-4.8460846,2.343477,3.2607207,21.9939,16.621374,-92.89087,15.151515,25.055853,-9.350374,-16.613499,28.494974,-27.949041,80.08124,4.3669286,-28.20588,-2.406307,21.216722
227,-3.8672804832458496,-89.63817596435547,76.60301208496094,-2.5774193266915995,2.7040200596191184,-84.71744375911042,-12.560588,6.7316504,-1.6288676,74.915695,-6.3024535,4.297119,-17.789204,3.9822042,-10.707745,26.74555,-9.244511,-8.082941,-4.6972747,2.4064705,3.3065412,22.107162,16.59874,-92.78423,15.20115,25.391668,-9.370121,-16.705637,28.530123,-27.969172,80.04476,4.408336,-28.85839,-2.636858,21.505995
228,-3.92179274559021,-90.25763702392578,76.67728424072266,-2.6235157431837517,2.594852176956334,-84.72901633641727,-13.583227,7.3580093,-1.2054733,75.99657,-7.590583,5.248663,-16.828102,4.2196856,-10.661168,26.16882,-9.543985,-8.069246,-4.5587387,2.4530833,3.366479,22.218662,16.560808,-92.678764,15.253191,25.651052,-9.386807,-16.77885,28.546192,-27.999365,80.02793,4.4263806,-29.370375,-2.8320036,21.777555
229,-3.9779319763183594,-90.87590789794922,76.75221252441406,-2.6574102439485383,2.4688363573601415,-84.7444641266133,-14.582738,7.966113,-0.7877483,76.845924,-8.417055,6.0395923,-15.833001,4.449999,-10.598179,25.548399,-9.812463,-8.052535,-4.4170103,2.482802,3.4452987,22.321445,16.534807,-92.59268,15.281709,25.81685,-9.399494,-16.823885,28.541182,-28.01906,80.02032,4.4279733,-29.697739,-2.9743772,22.034687
230,-4.047085762023926,-91.49412536621094,76.82376861572266,-2.6839961680745654,2.324881150277044,-84.76403999472319,-15.554377,8.580435,-0.34758544,77.48652,-9.024712,6.7698665,-14.798229,4.6777935,-10.520805,24.87908,-10.051269,-8.032695,-4.2827144,2.4984283,3.5424948,22.428743,16.495054,-92.502075,15.313845,25.937914,-9.4130125,-16.850739,28.519552,-28.049534,80.04209,4.41157,-29.952826,-3.0912724,22.26808
231,-4.100670337677002,-92.1077651977539,76.89273071289062,-2.7039155009978892,2.1749004747621514,-84.78429842038052,-16.50141,9.115914,0.037695315,77.93228,-9.531291,7.4277644,-13.74381,4.9001813,-10.435717,24.17727,-10.269723,-8.013229,-4.1435833,2.508122,3.6451347,22.529648,16.466717,-92.42564,15.326749,26.010067,-9.419392,-16.867693,28.499378,-28.072218,80.065506,4.397853,-30.159386,-3.201073,22.484991
232,-4.151108264923096,-92.7223892211914,76.95679473876953,-2.717941305585662,2.0309889954586824,-84.80176904034992,-17.429937,9.483105,0.28815138,78.197205,-10.05124,7.9975133,-12.690461,5.1137714,-10.349515,23.460257,-10.476964,-7.9961576,-4.0047455,2.5157597,3.7418864,22.622076,16.448559,-92.35892,15.321387,26.033537,-9.414175,-16.886904,28.485256,-28.088253,80.082504,4.395374,-30.33169,-3.320718,22.690098
233,-4.202836513519287,-93.33067321777344,77.01415252685547,-2.7231015695403427,1.8904313461181728,-84.81454101508392,-18.338722,9.652271,0.38792327,78.276535,-10.594565,8.487596,-11.631587,5.3154964,-10.2632265,22.722895,-10.673368,-7.9780974,-3.8720865,2.516815,3.8344786,22.706547,16.434425,-92.29614,15.300793,25.98869,-9.395129,-16.910114,28.479984,-28.10327,80.09752,4.40273,-30.458263,-3.4573283,22.885574
234,-4.254425525665283,-93.9394302368164,77.06643676757812,-2.7204433373420196,1.7488177933439824,-84.82437075566098,-19.22693,9.670324,0.38309845,78.16453,-11.100879,8.901122,-10.559255,5.5072446,-10.174029,21.958149,-10.854156,-7.9564776,-3.7498662,2.5093145,3.9283848,22.786983,16.41725,-92.23013,15.271932,25.884203,-9.366733,-16.933462,28.471111,-28.128204,80.122536,4.406199,-30.530193,-3.5996163,23.068344
235,-4.303305625915527,-94.55260467529297,77.1181411743164,-2.716582260833796,1.6157071534100327,-84.83383265881962,-20.102285,9.561567,0.28488934,77.872986,-11.577585,9.213817,-9.491472,5.6935153,-10.082892,21.178524,-11.019337,-7.9350367,-3.6154673,2.5080986,4.0144343,22.855312,16.412971,-92.19202,15.226885,25.75426,-9.328087,-16.951185,28.478125,-28.137629,80.129005,4.4207573,-30.591452,-3.7392833,23.236956
236,-4.3433146476745605,-95.16789245605469,77.1598892211914,-2.717818598842132,1.500340234205008,-84.84515962631936,-20.971786,9.351282,0.10340133,77.41335,-12.03233,9.402195,-8.447421,5.8790007,-9.991388,20.398829,-11.17065,-7.919212,-3.5040817,2.5122876,4.0901256,22.930107,16.407091,-92.12595,15.180551,25.65096,-9.292781,-16.98148,28.47829,-28.159885,80.148766,4.421917,-30.670982,-3.8645089,23.388462
237,-4.381479740142822,-95.77802276611328,77.19436645507812,-2.724984980954012,1.405786175671671,-84.8590883624946,-21.840033,9.024928,-0.17749836,76.778206,-12.496003,9.453769,-7.427873,6.064215,-9.899844,19.613638,-11.304844,-7.9082327,-3.3902946,2.5318723,4.1491113,22.997374,16.404348,-92.07475,15.128335,25.565868,-9.2499485,-17.010311,28.489874,-28.177376,80.15684,4.42047,-30.77629,-3.9729846,23.52054
238,-4.418835639953613,-96.38414001464844,77.22032165527344,-2.7354747719834935,1.3264293407257324,-84.87474477345748,-22.697956,8.582724,-0.5559901,75.96362,-12.954074,9.389175,-6.425846,6.248027,-9.80788,18.822815,-11.424121,-7.900709,-3.2829838,2.5600448,4.19704,23.0634,16.402773,-92.02285,15.06953,25.484392,-9.201609,-17.041872,28.504341,-28.196486,80.164215,4.4133563,-30.889406,-4.070111,23.635271
239,-4.455923080444336,-96.99056243896484,77.23700714111328,-2.7519006119924727,1.2593113429498186,-84.89233581127587,-23.533098,8.072936,-0.9958817,74.98561,-13.348405,9.234133,-5.43712,6.435595,-9.714762,18.024666,-11.528082,-7.9039373,-3.180765,2.5959792,4.2378454,23.126486,16.401886,-91.97039,15.0129,25.41752,-9.155967,-17.077568,28.52367,-28.216988,80.16891,4.4035587,-31.015919,-4.158178,23.734936
