unveil-humanoid-operators/unveil-humanoid-operators.github.io/feature-analysis-animation/data/feature_matrix_instances/weight_ankle_peak_vel_gesture_A072_boss_dust_brushing_R_101__A072.csv
Frame,root_translateX,root_translateY,root_translateZ,root_rotateX,root_rotateY,root_rotateZ,left_hip_pitch_joint_dof,left_hip_roll_joint_dof,left_hip_yaw_joint_dof,left_knee_joint_dof,left_ankle_pitch_joint_dof,left_ankle_roll_joint_dof,right_hip_pitch_joint_dof,right_hip_roll_joint_dof,right_hip_yaw_joint_dof,right_knee_joint_dof,right_ankle_pitch_joint_dof,right_ankle_roll_joint_dof,waist_yaw_joint_dof,waist_roll_joint_dof,waist_pitch_joint_dof,left_shoulder_pitch_joint_dof,left_shoulder_roll_joint_dof,left_shoulder_yaw_joint_dof,left_elbow_joint_dof,left_wrist_roll_joint_dof,left_wrist_pitch_joint_dof,left_wrist_yaw_joint_dof,right_shoulder_pitch_joint_dof,right_shoulder_roll_joint_dof,right_shoulder_yaw_joint_dof,right_elbow_joint_dof,right_wrist_roll_joint_dof,right_wrist_pitch_joint_dof,right_wrist_yaw_joint_dof
0,0.5109727382659912,2.555882215499878,78.37999725341797,-0.4915196145594558,-3.485820316269966,-97.17251112132467,5.9214544,7.4570737,24.085049,7.7069197,-9.551212,-4.794919,0.5062826,-5.0680084,-10.965828,7.983764,-5.0936294,6.0461216,1.0967367,-0.9232061,14.390771,-11.70813,17.64296,-47.33986,62.093487,0.8976068,1.2570665,-9.2323675,-12.9847355,-12.624943,48.973896,69.80621,18.59001,5.3176007,14.38573
1,0.5104849338531494,2.553955078125,78.38056945800781,-0.48964474482859865,-3.4858685133103653,-97.17343391101502,5.9189115,7.4555106,24.085884,7.715596,-9.551914,-4.782439,0.5051489,-5.072071,-10.964285,7.989218,-5.096988,6.045071,1.097704,-0.9181747,14.38587,-11.699661,17.663876,-47.340565,62.0813,0.8882774,1.2511721,-9.249633,-12.999634,-12.619831,48.980316,69.80059,18.587646,5.309873,14.387096
2,0.5101019740104675,2.5533506870269775,78.3807373046875,-0.48659664507919287,-3.4857331906414015,-97.17391364113507,5.915149,7.453902,24.08623,7.726931,-9.553821,-4.7684245,0.50453496,-5.0765333,-10.963035,7.9935503,-5.099829,6.043832,1.0977116,-0.9137655,14.38131,-11.687626,17.686872,-47.340733,62.063972,0.878289,1.2455585,-9.266822,-13.014958,-12.612837,48.985767,69.79632,18.586239,5.3020563,14.387159
3,0.5111851692199707,2.5519161224365234,78.38114166259766,-0.4827215293467679,-3.4857579239393064,-97.17510054434821,5.914581,7.4516234,24.087543,7.7320204,-9.553286,-4.7573833,0.50332284,-5.0804315,-10.9612055,7.999523,-5.1037602,6.043027,1.0985826,-0.90971404,14.375906,-11.676374,17.71386,-47.343056,62.046,0.86694425,1.2407173,-9.284132,-13.031799,-12.603182,48.99216,69.79508,18.580862,5.2938995,14.389116
4,0.5118334889411926,2.549553871154785,78.38074493408203,-0.4816885515163211,-3.48685008866922,-97.17752057600825,5.916325,7.4507403,24.090324,7.7355766,-9.554395,-4.753762,0.5044008,-5.0822535,-10.958733,8.002075,-5.1062245,6.043516,1.1059207,-0.8983978,14.367656,-11.6791525,17.718576,-47.34577,62.053223,0.86565727,1.2379607,-9.29895,-13.040562,-12.601272,48.99474,69.78395,18.564772,5.2875533,14.39535
5,0.5118590593338013,2.5476136207580566,78.38044738769531,-0.48163561137428423,-3.4881231724922253,-97.18224987360132,5.923037,7.4506626,24.096306,7.7302666,-9.554555,-4.761789,0.50632447,-5.0807924,-10.954451,8.001844,-5.107662,6.045608,1.1182466,-0.8845401,14.356436,-11.68539,17.728622,-47.355396,62.061676,0.8623899,1.2386136,-9.314478,-13.050748,-12.596726,49.001186,69.77729,18.537981,5.277488,14.409767
6,0.5114536881446838,2.5458297729492188,78.38016510009766,-0.48310089517190014,-3.4896286598666686,-97.18832174899495,5.9338455,7.450587,24.104126,7.717124,-9.552978,-4.778091,0.510428,-5.0771513,-10.949574,7.9967866,-5.106857,6.0488377,1.1354007,-0.8750985,14.342977,-11.676733,17.768494,-47.377384,62.03812,0.85056776,1.2461576,-9.328194,-13.06564,-12.576522,49.01035,69.782646,18.506464,5.264215,14.426463
7,0.5120625495910645,2.5439586639404297,78.3791732788086,-0.4859811480796799,-3.492705096892744,-97.19496714336452,5.9468966,7.4508796,24.112509,7.704045,-9.552555,-4.7956996,0.51925695,-5.0722218,-10.944328,7.9854836,-5.1034584,6.0524855,1.1520858,-0.86069965,14.329016,-11.67933,17.792204,-47.39359,62.035053,0.8456245,1.2521653,-9.342722,-13.07666,-12.563499,49.0183,69.77967,18.466345,5.2549996,14.445914
8,0.513176441192627,2.5410714149475098,78.37895965576172,-0.48611113812554757,-3.4981420896741033,-97.20184939281599,5.961178,7.450444,24.120342,7.6961637,-9.5541935,-4.807659,0.52766126,-5.0700746,-10.937917,7.982125,-5.1051464,6.055989,1.1684321,-0.8420614,14.314296,-11.685759,17.804348,-47.40777,62.03885,0.84204876,1.2566919,-9.358254,-13.084545,-12.556424,49.025593,69.770706,18.424467,5.2527323,14.464887
9,0.5139277577400208,2.536118268966675,78.37850952148438,-0.4852514991021777,-3.505528647760455,-97.20997289780459,5.97683,7.4485693,24.128359,7.6933045,-9.557887,-4.811275,0.53667206,-5.070521,-10.929406,7.983905,-5.1108384,6.0588946,1.185527,-0.8270142,14.29557,-11.688185,17.828487,-47.43497,62.034615,0.82417345,1.2565227,-9.377355,-13.09051,-12.541323,49.035286,69.7616,18.376879,5.2590346,14.483625
10,0.5146442651748657,2.532064914703369,78.37859344482422,-0.4819506220838912,-3.5143667653645916,-97.21927150245784,5.9933662,7.446194,24.136726,7.694147,-9.563212,-4.8105264,0.54687846,-5.0724683,-10.919198,7.9876456,-5.1184464,6.0616965,1.2012271,-0.8058765,14.275109,-11.688198,17.847343,-47.462547,62.026127,0.8031588,1.2562903,-9.397925,-13.09854,-12.529082,49.047043,69.7545,18.322279,5.271034,14.504797
11,0.5140414237976074,2.529123067855835,78.37847137451172,-0.47833460568311503,-3.526056033421077,-97.22747467959027,6.0127215,7.4435115,24.144049,7.695969,-9.568753,-4.808616,0.55872613,-5.075674,-10.909669,7.9961867,-5.1292543,6.0646853,1.2189182,-0.78935844,14.255251,-11.686227,17.87811,-47.494568,62.008305,0.77782875,1.2581539,-9.417887,-13.1060295,-12.508264,49.056435,69.74937,18.274984,5.2848554,14.521479
12,0.5135728120803833,2.523651599884033,78.37796783447266,-0.47584191502092693,-3.542332268374243,-97.2322738949298,6.036086,7.440974,24.148363,7.6981173,-9.574492,-4.8085947,0.57795674,-5.0785656,-10.903857,8.001592,-5.138815,6.068219,1.2351826,-0.770635,14.241417,-11.688847,17.90356,-47.512955,61.99218,0.7649319,1.2673384,-9.432992,-13.113421,-12.490807,49.062534,69.741165,18.247925,5.2969565,14.53082
13,0.5135526061058044,2.5208325386047363,78.37735748291016,-0.47558250532684027,-3.5647830256552333,-97.23230587785588,6.0651784,7.438155,24.148472,7.699445,-9.580158,-4.8132305,0.6051491,-5.081378,-10.90239,8.005954,-5.1482453,6.0734878,1.2521847,-0.7550681,14.236003,-11.695029,17.930922,-47.518658,61.97266,0.76624113,1.2877386,-9.442491,-13.120783,-12.472121,49.06308,69.73042,18.25726,5.3102446,14.5271
14,0.5140147805213928,2.5167503356933594,78.37612915039062,-0.4735226225274338,-3.5917647537921042,-97.22923675025498,6.0986137,7.435036,24.145542,7.7004895,-9.585715,-4.8201785,0.63797635,-5.0847187,-10.903952,8.01143,-5.1589756,6.080012,1.2692097,-0.73543185,14.235007,-11.708375,17.94757,-47.516777,61.95982,0.7767668,1.3164711,-9.446504,-13.124624,-12.460896,49.06063,69.712845,18.292072,5.325872,14.515292
15,0.5151072144508362,2.5133843421936035,78.37616729736328,-0.4736727998411261,-3.6214767732696473,-97.22469404136523,6.134585,7.4317355,24.14183,7.7023306,-9.591281,-4.8249583,0.67306083,-5.0888658,-10.9071,8.019781,-5.1716547,6.0854,1.283474,-0.717192,14.237671,-11.710692,17.981535,-47.509094,61.920456,0.78526545,1.3487794,-9.449269,-13.137185,-12.439252,49.0572,69.70836,18.32481,5.334432,14.501526
16,0.5161752700805664,2.5081653594970703,78.37548828125,-0.47122358583466556,-3.64985575090054,-97.22054242627993,6.1667843,7.430541,24.139019,7.709714,-9.597925,-4.8231006,0.7050898,-5.093511,-10.910823,8.032814,-5.187062,6.0872235,1.2966541,-0.7010177,14.235391,-11.708017,18.022049,-47.49803,61.878193,0.7887611,1.3716118,-9.453086,-13.146763,-12.414563,49.058258,69.703224,18.334743,5.331402,14.491471
17,0.5158912539482117,2.504734992980957,78.37474822998047,-0.4704475304211567,-3.677524223171475,-97.21804479802765,6.193242,7.433319,24.139542,7.7302666,-9.609219,-4.8084345,0.7355909,-5.098228,-10.91442,8.047523,-5.2031107,6.083039,1.314436,-0.6786538,14.225748,-11.7188015,18.039957,-47.49557,61.86273,0.78362983,1.3818387,-9.457006,-13.140293,-12.404017,49.05979,69.682,18.308525,5.311779,14.487657
18,0.5147084593772888,2.5000252723693848,78.3751220703125,-0.46857276639959666,-3.705435917387082,-97.21608603938844,6.216912,7.4384556,24.141693,7.758879,-9.622836,-4.7850323,0.76383895,-5.1037126,-10.918314,8.068861,-5.2228026,6.074775,1.3341341,-0.6512586,14.212861,-11.732881,18.048395,-47.495632,61.852585,0.7736493,1.386828,-9.459859,-13.130398,-12.399296,49.062176,69.66024,18.261421,5.2791967,14.487313
19,0.513403058052063,2.495274543762207,78.3753662109375,-0.4668859594476783,-3.7329121480904526,-97.21218682745076,6.241067,7.4427705,24.141514,7.784495,-9.6352215,-4.7635117,0.7931649,-5.1094365,-10.924251,8.088406,-5.2420254,6.0664062,1.3526323,-0.6313392,14.198716,-11.733934,18.08506,-47.495285,61.817245,0.7527017,1.3881977,-9.462854,-13.123218,-12.380188,49.064476,69.64589,18.208862,5.2422237,14.486339
20,0.5130770802497864,2.4870569705963135,78.3756103515625,-0.4660391894616812,-3.759261627139583,-97.20396844874256,6.266933,7.4442124,24.135012,7.8013067,-9.6456785,-4.7544518,0.822736,-5.1148267,-10.933553,8.10747,-5.262376,6.061998,1.3679345,-0.61398727,14.186399,-11.727432,18.132471,-47.480915,61.768913,0.7303889,1.3864731,-9.46321,-13.124295,-12.357197,49.068367,69.63786,18.172022,5.2116065,14.485593
21,0.5123494863510132,2.4822418689727783,78.3748550415039,-0.4652922360301522,-3.784270261687943,-97.1910781429732,6.299007,7.4401684,24.120953,7.7983193,-9.650135,-4.765521,0.85814637,-5.118645,-10.946579,8.11268,-5.2764497,6.063766,1.3875362,-0.59554285,14.173225,-11.737489,18.162086,-47.46396,61.746872,0.6988381,1.375622,-9.456883,-13.119847,-12.343981,49.067146,69.61909,18.159681,5.18874,14.482403
22,0.5075691938400269,2.476353883743286,78.37406158447266,-0.4646087103420979,-3.8081175295319247,-97.17475571288062,6.333484,7.4331956,24.101229,7.7853265,-9.652013,-4.789382,0.8970565,-5.1215286,-10.962624,8.110101,-5.287647,6.069112,1.4117626,-0.5716995,14.1561,-11.759804,18.172138,-47.451538,61.74634,0.6559265,1.3584261,-9.442694,-13.110147,-12.339894,49.06316,69.59576,18.162333,5.1684523,14.478649
23,0.5071327686309814,2.4701273441314697,78.37413787841797,-0.4648897238251413,-3.8315354616644375,-97.15469845081213,6.367452,7.4256816,24.077679,7.7711916,-9.653431,-4.8143373,0.93508303,-5.1250043,-10.981769,8.110705,-5.301131,6.0751495,1.434272,-0.5531378,14.142602,-11.777747,18.194115,-47.425346,61.735188,0.6199884,1.3401958,-9.432635,-13.103744,-12.332062,49.055794,69.57334,18.161304,5.154182,14.4764385
24,0.5034395456314087,2.463127374649048,78.37321472167969,-0.4654420912438684,-3.8547400158092824,-97.1306670964968,6.3955755,7.4210563,24.051575,7.766961,-9.656862,-4.8285956,0.9734601,-5.12927,-11.004975,8.113415,-5.3160825,6.078806,1.4505087,-0.5384933,14.130582,-11.779365,18.23589,-47.389942,61.69881,0.5941896,1.328803,-9.429155,-13.106603,-12.318946,49.05728,69.56322,18.151089,5.149058,14.478804
25,0.5005996823310852,2.454796314239502,78.37261199951172,-0.4654075646741479,-3.8783370794745577,-97.10239920972512,6.4170833,7.4205656,24.023201,7.7772484,-9.663868,-4.8272476,1.0126257,-5.1343327,-11.032732,8.119457,-5.3331223,6.0794516,1.4702535,-0.5249993,14.115961,-11.789659,18.270365,-47.361996,61.68021,0.5745493,1.321591,-9.432142,-13.103635,-12.308815,49.05918,69.55317,18.130795,5.1588554,14.486241
26,0.4940534830093384,2.4490649700164795,78.37274169921875,-0.46606271525194426,-3.9021884134943465,-97.07025334814917,6.4346013,7.422649,23.991673,7.79497,-9.672386,-4.817195,1.054118,-5.1394696,-11.064666,8.124081,-5.3495746,6.078581,1.4926686,-0.51151556,14.099819,-11.804589,18.298326,-47.33502,61.672443,0.5617717,1.3166361,-9.439104,-13.099116,-12.301145,49.06092,69.54626,18.105642,5.1800094,14.4979725
27,0.4899904131889343,2.438291549682617,78.37228393554688,-0.4663921460730531,-3.9245241163228446,-97.03429185147122,6.447546,7.425632,23.957111,7.817004,-9.681705,-4.804283,1.090955,-5.1459475,-11.099615,8.137941,-5.3716564,6.076754,1.515584,-0.49900422,14.082658,-11.818271,18.325838,-47.306374,61.661907,0.5564638,1.3153623,-9.4486475,-13.0965605,-12.294387,49.06575,69.54397,18.073168,5.203771,14.51104
28,0.4849967956542969,2.432737350463867,78.3729248046875,-0.4671528907520861,-3.9439249749011567,-96.9951699034599,6.457451,7.427938,23.919683,7.835675,-9.688485,-4.794554,1.1302032,-5.151829,-11.137817,8.141007,-5.3885145,6.0743923,1.5456703,-0.48714304,14.061967,-11.84186,18.343597,-47.286713,61.662582,0.5553644,1.3158247,-9.458752,-13.091247,-12.290709,49.07174,69.5427,18.033382,5.221674,14.522361
29,0.47856536507606506,2.4269049167633057,78.37358093261719,-0.46702875325313814,-3.958655698796509,-96.95230701955128,6.4614296,7.428801,23.879679,7.851542,-9.69193,-4.7873807,1.1628917,-5.1595383,-11.178132,8.14752,-5.4074025,6.0713816,1.5684931,-0.47938183,14.042584,-11.849082,18.378422,-47.25252,61.628788,0.57595015,1.3227227,-9.475699,-13.097702,-12.2855015,49.099316,69.548454,17.981186,5.233869,14.5325
30,0.4739343225955963,2.419128656387329,78.37458038330078,-0.46647758511693477,-3.9697519190494446,-96.90652757046178,6.4607334,7.4289956,23.837671,7.8660526,-9.693056,-4.7803335,1.1890502,-5.1687884,-11.220262,8.161307,-5.430653,6.0674767,1.6077986,-0.47350088,14.017174,-11.878904,18.397358,-47.238358,61.62263,0.604228,1.3304695,-9.4960165,-13.097242,-12.283863,49.119648,69.55736,17.911785,5.2433515,14.543231
31,0.46656593680381775,2.4105911254882812,78.37379455566406,-0.46787445368835173,-3.9805884790359265,-96.85650915200247,6.4591203,7.429194,23.791075,7.8796268,-9.694138,-4.776443,1.2212034,-5.1768355,-11.267207,8.163875,-5.4489737,6.0634327,1.6301962,-0.46714067,13.994666,-11.884682,18.428026,-47.204643,61.584274,0.62957674,1.3426536,-9.513121,-13.105309,-12.283587,49.158665,69.56592,17.853754,5.2488256,14.550677
32,0.459331750869751,2.403534412384033,78.37427520751953,-0.4686803188379349,-3.993751449331174,-96.80419811352229,6.461741,7.4290733,23.740355,7.8887534,-9.695191,-4.7788916,1.2577534,-5.183988,-11.317489,8.164298,-5.4669795,6.060125,1.6695553,-0.46109483,13.971012,-11.912173,18.435783,-47.19457,61.581932,0.6226913,1.3493503,-9.519247,-13.105967,-12.28415,49.16868,69.57432,17.81297,5.2449336,14.55628
33,0.45101866126060486,2.394996404647827,78.37359619140625,-0.47202831076641916,-4.011505197461126,-96.74755426289838,6.4715695,7.4294167,23.682549,7.893154,-9.698318,-4.7916546,1.3002903,-5.189228,-11.37334,8.167065,-5.488185,6.057205,1.6912574,-0.45846635,13.954268,-11.930867,18.451319,-47.170864,61.573402,0.56720525,1.3507485,-9.516699,-13.1088505,-12.286498,49.18196,69.575615,17.81273,5.2261434,14.555629
34,0.44691455364227295,2.385772228240967,78.37380981445312,-0.4770103389713158,-4.031524403775551,-96.68749881079995,6.48591,7.428795,23.619923,7.8917403,-9.7012005,-4.811959,1.3490663,-5.193196,-11.433353,8.163103,-5.506728,6.0545044,1.7131679,-0.45636114,13.938526,-11.947046,18.463676,-47.152046,61.56512,0.47786802,1.3496531,-9.505124,-13.111095,-12.289273,49.185818,69.577545,17.836838,5.1963534,14.552077
35,0.43755868077278137,2.3788373470306396,78.37315368652344,-0.4811094043373307,-4.051667115248013,-96.62494187251053,6.4990377,7.4286237,23.554058,7.8916745,-9.704466,-4.8328667,1.3969175,-5.1977406,-11.496408,8.164185,-5.528955,6.052725,1.7332053,-0.4563978,13.92669,-11.960041,18.474293,-47.128796,61.553463,0.3920641,1.3493116,-9.488476,-13.116476,-12.292711,49.187874,69.5732,17.861734,5.1669083,14.546757
36,0.4282517433166504,2.374584674835205,78.37297058105469,-0.48513235554818585,-4.068556346450765,-96.56239422054055,6.5074534,7.4277015,23.489265,7.8923683,-9.705101,-4.8473945,1.4448663,-5.202904,-11.560143,8.15608,-5.54592,6.0525455,1.7634001,-0.46089602,13.912322,-11.977361,18.482378,-47.108326,61.55336,0.3415823,1.3492745,-9.467796,-13.122809,-12.296222,49.18943,69.56226,17.86838,5.147469,14.542564
37,0.4203350245952606,2.3678793907165527,78.37274932861328,-0.4868633960309981,-4.080880784324703,-96.49895117170871,6.5067167,7.4267836,23.424654,7.900435,-9.70517,-4.852225,1.4863021,-5.2107196,-11.625168,8.151323,-5.564407,6.055076,1.7938728,-0.47051457,13.902735,-11.990474,18.497814,-47.072105,61.547302,0.35293633,1.3525087,-9.442421,-13.134989,-12.30477,49.198902,69.5354,17.843323,5.144162,14.539015
38,0.4119759798049927,2.361304998397827,78.37266540527344,-0.48737817345921086,-4.090394332503678,-96.4342903640715,6.5002413,7.425135,23.359375,7.911656,-9.70407,-4.851496,1.5224105,-5.221113,-11.691795,8.151122,-5.5853133,6.059814,1.8214076,-0.4845703,13.895976,-11.993378,18.524204,-47.023506,61.528828,0.4005671,1.3575324,-9.411617,-13.148561,-12.322744,49.219265,69.49047,17.804363,5.150722,14.534937
39,0.4021945297718048,2.3557558059692383,78.37245178222656,-0.48771932392751866,-4.0989487527667485,-96.36949974700106,6.4930654,7.4233456,23.294502,7.92151,-9.701249,-4.8495336,1.5583371,-5.231135,-11.758575,8.148698,-5.604604,6.0645475,1.8585776,-0.50106543,13.887841,-11.999219,18.545746,-46.9818,61.51721,0.45193785,1.3621153,-9.380569,-13.161559,-12.341164,49.23586,69.437965,17.766285,5.1601024,14.532349
40,0.3925231695175171,2.348954439163208,78.37318420410156,-0.48867890219038074,-4.108685583901345,-96.30570179489168,6.4878497,7.423109,23.231,7.930804,-9.699114,-4.8506966,1.5979939,-5.238741,-11.823726,8.140154,-5.620046,6.067336,1.8978164,-0.517834,13.880634,-11.997767,18.567038,-46.932713,61.49869,0.4858668,1.3650317,-9.357162,-13.1769085,-12.364452,49.254734,69.37366,17.747477,5.168175,14.53387
41,0.3840830326080322,2.3426504135131836,78.37299346923828,-0.49036875320967216,-4.120642719220883,-96.24314241087149,6.486557,7.424492,23.169476,7.9383016,-9.697693,-4.8568745,1.639009,-5.244078,-11.886353,8.134193,-5.636442,6.0670676,1.9444166,-0.53487045,13.874132,-11.997863,18.585196,-46.883183,61.48268,0.48074448,1.3631421,-9.346929,-13.193796,-12.390257,49.275124,69.3011,17.748823,5.1709404,14.546152
42,0.37252745032310486,2.336374044418335,78.37355041503906,-0.4932336916174792,-4.133928654908048,-96.18052457919143,6.4874754,7.4264154,23.108765,7.9441113,-9.695907,-4.865378,1.6783444,-5.249182,-11.947699,8.134282,-5.6554575,6.0652556,1.985861,-0.551431,13.871668,-11.980289,18.607424,-46.811527,61.44607,0.46699283,1.3626518,-9.343166,-13.209659,-12.430223,49.308754,69.20189,17.763935,5.177385,14.563197
43,0.36328962445259094,2.3294811248779297,78.37380981445312,-0.49589612617722306,-4.145865284942606,-96.11981008529784,6.4877706,7.4285507,23.050032,7.9486723,-9.693276,-4.8739467,1.7156969,-5.2535653,-12.007163,8.13392,-5.673534,6.062949,2.0511065,-0.5730073,13.859142,-11.98249,18.614054,-46.774395,61.44297,0.441928,1.3573195,-9.339881,-13.230859,-12.446797,49.31705,69.12766,17.790792,5.1778383,14.578225
44,0.3534986078739166,2.3239314556121826,78.37397003173828,-0.4985946116320272,-4.15508158432265,-96.06053416712274,6.4839115,7.4311924,22.99227,7.957064,-9.692196,-4.880006,1.7534856,-5.257013,-12.066165,8.125242,-5.6868997,6.061597,2.0862553,-0.5914876,13.858855,-11.956627,18.631773,-46.68394,61.40623,0.46651092,1.35048,-9.337101,-13.253778,-12.499711,49.34405,68.99985,17.841734,5.1869617,14.58182
45,0.3420577645301819,2.319878339767456,78.37452697753906,-0.5002195665895912,-4.157988346829034,-96.00460948131506,6.4739857,7.433091,22.937569,7.964048,-9.688034,-4.8823695,1.7795259,-5.2619667,-12.122348,8.123853,-5.702497,6.061433,2.1380394,-0.61413616,13.852732,-11.937105,18.648474,-46.61495,61.378338,0.5238438,1.3361734,-9.330044,-13.268519,-12.563025,49.345966,68.85825,17.900848,5.1965094,14.577469
46,0.33031025528907776,2.317279815673828,78.37438201904297,-0.501589297584781,-4.157045843431288,-95.95085315166457,6.4600844,7.4352,22.88499,7.9723363,-9.683972,-4.8824854,1.8026857,-5.2659464,-12.176879,8.117809,-5.7150474,6.061625,2.198281,-0.63927317,13.843602,-11.921406,18.660704,-46.554714,61.35864,0.6042343,1.3163863,-9.321572,-13.281909,-12.629537,49.33184,68.70716,17.96858,5.2073784,14.567764
47,0.32131433486938477,2.3078339099884033,78.3751449584961,-0.5027133074309873,-4.156493234778314,-95.89833549742498,6.4474964,7.436467,22.833368,7.978701,-9.679095,-4.882124,1.8262719,-5.2702827,-12.230652,8.111218,-5.727211,6.0624323,2.2603188,-0.6675306,13.832884,-11.907179,18.66625,-46.49991,61.34894,0.6868385,1.2990556,-9.310474,-13.306021,-12.680987,49.304165,68.56238,18.06777,5.2162175,14.542082
48,0.31517913937568665,2.2997467517852783,78.37574768066406,-0.5030602921934568,-4.160483393731102,-95.84615504009581,6.439701,7.4373193,22.78121,7.9855833,-9.676175,-4.8831024,1.8539841,-5.2752805,-12.284553,8.106506,-5.7407684,6.0639806,2.3190482,-0.6967816,13.824129,-11.891938,18.667866,-46.451866,61.344418,0.7458491,1.2917551,-9.296417,-13.346414,-12.71756,49.267605,68.422554,18.226357,5.2197,14.491641
49,0.3061908185482025,2.2938315868377686,78.37525939941406,-0.504239214515176,-4.173138892279984,-95.79362848391757,6.441808,7.437029,22.727335,7.9914327,-9.675712,-4.8862906,1.893574,-5.280352,-12.339985,8.098276,-5.753781,6.0664015,2.3735173,-0.7226441,13.834676,-11.880163,18.670057,-46.403885,61.33168,0.7835168,1.3011911,-9.2780075,-13.371184,-12.789728,49.20967,68.21274,18.445969,5.226914,14.41156
50,0.2970845103263855,2.289175271987915,78.37480926513672,-0.5055058409620092,-4.190527119938072,-95.74163856491853,6.4504185,7.4352503,22.673162,7.994892,-9.676131,-4.890492,1.934336,-5.2869906,-12.395245,8.099205,-5.7721777,6.0696244,2.431946,-0.7461532,13.8527155,-11.870733,18.670631,-46.370064,61.317623,0.80347306,1.3206339,-9.255103,-13.389605,-12.8790655,49.132236,67.9699,18.71924,5.2312026,14.30974
51,0.2908432185649872,2.282399892807007,78.37493896484375,-0.505679619982268,-4.207624690568062,-95.69067164786436,6.45838,7.433818,22.620039,7.9989877,-9.676462,-4.894691,1.9754887,-5.2934966,-12.44958,8.098016,-5.7893085,6.073434,2.4886086,-0.7744505,13.867337,-11.859038,18.66925,-46.336544,61.30942,0.8111002,1.3433473,-9.233158,-13.429238,-12.946236,49.0504,67.73654,19.035711,5.2327332,14.187597
52,0.2837810516357422,2.276735544204712,78.37596130371094,-0.5066653052580803,-4.2193084290913205,-95.6412045091177,6.4606423,7.433007,22.569628,8.003508,-9.675331,-4.897369,2.0141878,-5.2983723,-12.5017605,8.087302,-5.8004355,6.077621,2.5576782,-0.8034606,13.880485,-11.850569,18.665022,-46.3036,61.301933,0.8125567,1.3625429,-9.218314,-13.463453,-13.041961,48.956226,67.4483,19.383453,5.2384424,14.050982
53,0.27589184045791626,2.2723350524902344,78.37615966796875,-0.5068649297510781,-4.22262944265925,-95.59274684277092,6.454662,7.4321795,22.522196,8.006195,-9.670343,-4.898243,2.0423224,-5.303261,-12.551234,8.077766,-5.8115215,6.0836625,2.6271052,-0.840752,13.879767,-11.8347,18.659594,-46.257587,61.299736,0.8011321,1.3769628,-9.213101,-13.524921,-13.110002,48.865177,67.18044,19.7857,5.2442303,13.892889
54,0.267548143863678,2.2647955417633057,78.37664794921875,-0.5077193114585026,-4.2207530785470855,-95.54523767842258,6.4431853,7.4315577,22.476608,8.009655,-9.664368,-4.8979125,2.064207,-5.308164,-12.598814,8.068225,-5.821957,6.0911884,2.7100255,-0.87638587,13.880309,-11.824943,18.6481,-46.211834,61.299114,0.77941483,1.389901,-9.214534,-13.568148,-13.221962,48.755413,66.84158,20.236824,5.256676,13.715082
55,0.26052823662757874,2.2606048583984375,78.37773132324219,-0.5084688129683812,-4.2178261591182995,-95.50015595184037,6.430935,7.4317584,22.43408,8.0123415,-9.657087,-4.896886,2.0845196,-5.312028,-12.643836,8.056994,-5.8303604,6.09728,2.7948244,-0.9153449,13.878543,-11.815485,18.63445,-46.16953,61.303677,0.755476,1.4013925,-9.21779,-13.630014,-13.329188,48.647453,66.487206,20.69676,5.263125,13.528573
56,0.25214895606040955,2.2539708614349365,78.37818908691406,-0.5082543266866012,-4.217685709550617,-95.4593167202586,6.4218388,7.433606,22.395298,8.01712,-9.651952,-4.8953733,2.104687,-5.314671,-12.685369,8.049966,-5.839526,6.0989666,2.881788,-0.9570137,13.879011,-11.811264,18.61959,-46.142464,61.31623,0.73823076,1.4114356,-9.218552,-13.710842,-13.439438,48.546402,66.08949,21.122698,5.2681117,13.342333
57,0.24211345613002777,2.2553956508636475,78.37844848632812,-0.5097972240688549,-4.222296078077808,-95.42495750084497,6.4178886,7.4377093,22.362953,8.024482,-9.648862,-4.892462,2.1229925,-5.3163013,-12.721166,8.052805,-5.851417,6.093919,2.9747024,-1.0000015,13.886222,-11.81529,18.603756,-46.13321,61.336018,0.7316894,1.4181437,-9.2152405,-13.806696,-13.558259,48.44316,65.65064,21.514122,5.270608,13.174298
58,0.2345697432756424,2.250559091567993,78.37895965576172,-0.510470642705175,-4.229224874387154,-95.39539489215811,6.416269,7.444163,22.335754,8.034586,-9.647361,-4.8882957,2.1404827,-5.316437,-12.752462,8.059132,-5.863189,6.084135,3.072379,-1.0452484,13.896831,-11.823348,18.58769,-46.135197,61.36036,0.7314254,1.4224353,-9.2105255,-13.9192705,-13.681579,48.33839,65.182274,21.889805,5.269585,13.014444
59,0.22813892364501953,2.246826410293579,78.37979125976562,-0.5123053561178834,-4.236077483472225,-95.36663634803492,6.41604,7.4503407,22.308731,8.041802,-9.645339,-4.8850513,2.1610093,-5.3150563,-12.78354,8.057957,-5.8707433,6.073515,3.168207,-1.0948329,13.904863,-11.831172,18.573238,-46.147354,61.388474,0.7316803,1.427741,-9.206136,-14.052794,-13.800836,48.248623,64.67015,22.235037,5.2629495,12.832759
60,0.22065210342407227,2.2393290996551514,78.38033294677734,-0.5143738185421728,-4.24013030438404,-95.33478033031432,6.4137917,7.4546533,22.277313,8.044871,-9.642214,-4.884836,2.1771865,-5.314963,-12.817172,8.06173,-5.88172,6.06609,3.2628064,-1.1473345,13.908196,-11.837975,18.558527,-46.17129,61.417732,0.73055524,1.4377899,-9.203757,-14.195053,-13.939164,48.183132,64.07136,22.534176,5.2473593,12.601229
61,0.2114044725894928,2.236774444580078,78.38067626953125,-0.5174376127772471,-4.23948655779042,-95.29656840489412,6.4064183,7.4569774,22.237005,8.0443945,-9.639268,-4.888351,2.1970906,-5.31411,-12.857787,8.051033,-5.887094,6.063358,3.3502629,-1.2036357,13.901854,-11.837028,18.545412,-46.205227,61.44303,0.7281826,1.4566579,-9.20387,-14.348837,-14.085658,48.15227,63.391083,22.786995,5.2265134,12.300432
62,0.20445556938648224,2.2308311462402344,78.38105773925781,-0.5207816511506114,-4.235915396284208,-95.25499689168139,6.397711,7.4572473,22.191801,8.037874,-9.634604,-4.8943095,2.215746,-5.313559,-12.901701,8.038738,-5.892757,6.0631213,3.433119,-1.264116,13.889242,-11.833517,18.53459,-46.25279,61.46767,0.7215784,1.481377,-9.205572,-14.515546,-14.24138,48.1483,62.639442,23.000607,5.200838,11.949541
63,0.1978732943534851,2.2262327671051025,78.38150024414062,-0.5242499164708778,-4.232561951042772,-95.21464992849847,6.3895774,7.4574723,22.14774,8.031438,-9.63056,-4.902295,2.2333274,-5.312887,-12.943966,8.028253,-5.8988814,6.0633965,3.5147588,-1.3287681,13.87635,-11.826476,18.52614,-46.300117,61.49359,0.72177494,1.505236,-9.208868,-14.700282,-14.406127,48.162216,61.819553,23.171892,5.1599593,11.577436
64,0.19144971668720245,2.22060227394104,78.3814468383789,-0.5277661412921354,-4.233010606539625,-95.1802564312485,6.388284,7.4587636,22.111229,8.022546,-9.624555,-4.911899,2.2538135,-5.31051,-12.979816,8.015605,-5.9021235,6.0620794,3.5972176,-1.3977923,13.868911,-11.817846,18.5203,-46.337635,61.525425,0.73378384,1.5213753,-9.213498,-14.911962,-14.579366,48.188244,60.93921,23.29863,5.093976,11.212601
65,0.1870308667421341,2.2139148712158203,78.38127899169922,-0.5301975362648281,-4.240906385930996,-95.1521174165968,6.397365,7.46087,22.083212,8.013371,-9.617566,-4.92443,2.2758906,-5.308329,-13.007685,8.01336,-5.9093924,6.0590553,3.6795619,-1.4720144,13.87086,-11.8089285,18.517687,-46.365234,61.567192,0.7582784,1.524399,-9.22108,-15.149536,-14.760815,48.23046,59.99991,23.351889,4.9929805,10.859697
66,0.17904429137706757,2.211296319961548,78.38225555419922,-0.5319893181177444,-4.253538401105092,-95.12781455349801,6.412615,7.4638305,22.060345,8.005382,-9.611303,-4.939643,2.3039281,-5.30464,-13.031007,8.00639,-5.9127975,6.05516,3.7607894,-1.5509396,13.87829,-11.794958,18.518356,-46.38249,61.612625,0.7976687,1.5194477,-9.231462,-15.410118,-14.9504,48.292007,58.997498,23.343592,4.8657966,10.504247
67,0.17070528864860535,2.2077107429504395,78.3826675415039,-0.5332244809892975,-4.264417891700183,-95.10879123892093,6.427922,7.46757,22.04316,7.995214,-9.603755,-4.95465,2.3267128,-5.3000827,-13.049025,8.002656,-5.916794,6.0502877,3.8423889,-1.6341076,13.884578,-11.780617,18.522593,-46.396904,61.660595,0.839086,1.5144465,-9.240811,-15.696656,-15.147103,48.361904,57.930416,23.326889,4.72989,10.146713
68,0.16156204044818878,2.206482172012329,78.38386535644531,-0.5357568596880702,-4.267068424716233,-95.0964446000028,6.435919,7.4729395,22.032104,7.9839673,-9.596423,-4.966468,2.341873,-5.292483,-13.062325,7.9914694,-5.916024,6.044158,3.9262776,-1.72076,13.882888,-11.76801,18.530329,-46.412632,61.708508,0.8742534,1.5175948,-9.245599,-16.013224,-15.349786,48.429523,56.798077,23.356792,4.6023135,9.787293
69,0.15616671741008759,2.2011494636535645,78.38475799560547,-0.539342486472942,-4.256073538969273,-95.09260536695093,6.4304967,7.48097,22.02878,7.9732227,-9.590817,-4.974497,2.340028,-5.281681,-13.069092,7.9786286,-5.9131565,6.0358553,4.01569,-1.8115262,13.867411,-11.757873,18.541351,-46.43058,61.754272,0.9039085,1.534819,-9.244856,-16.357563,-15.55756,48.49273,55.60075,23.457329,4.48517,9.419664
70,0.14906823635101318,2.196035623550415,78.3852310180664,-0.5430313769351608,-4.236213129973969,-95.0961733961251,6.417068,7.4907775,22.032524,7.961527,-9.5854225,-4.9802485,2.3260357,-5.268578,-13.069945,7.96602,-5.909563,6.0257444,4.1085296,-1.9071057,13.842503,-11.748871,18.555494,-46.449062,61.800552,0.93089443,1.5605276,-9.240572,-16.728678,-15.770281,48.557453,54.338974,23.596712,4.369766,9.04599
71,0.13691717386245728,2.1991143226623535,78.38548278808594,-0.5461379145596021,-4.2158024783213115,-95.10343295532661,6.403763,7.5009604,22.039877,7.950099,-9.580299,-4.983885,2.3093417,-5.255123,-13.067125,7.954552,-5.9052653,6.0157924,4.199382,-2.0062084,13.816273,-11.738262,18.57259,-46.464867,61.85029,0.95503646,1.5859085,-9.23331,-17.129168,-15.987278,48.62306,53.0102,23.742916,4.25682,8.6792755
72,0.13079401850700378,2.1949868202209473,78.38591003417969,-0.5487592217057371,-4.203160522720353,-95.11079829087856,6.3979425,7.510579,22.047419,7.9406905,-9.575397,-4.9855533,2.3017626,-5.2423534,-13.063505,7.9419713,-5.89955,6.0077286,4.282876,-2.1075072,13.797371,-11.72539,18.592428,-46.47764,61.90677,0.97288215,1.6019728,-9.223612,-17.561008,-16.206987,48.68854,51.60952,23.86477,4.147416,8.332557
73,0.12787698209285736,2.1907448768615723,78.38624572753906,-0.5515775641375911,-4.197871849739339,-95.11671112977689,6.3963475,7.5197115,22.053831,7.9376435,-9.571251,-4.9821277,2.300135,-5.232049,-13.059683,7.9331737,-5.8937693,6.0018735,4.354673,-2.2115574,13.784952,-11.708138,18.615044,-46.487083,61.971306,0.98184687,1.6019199,-9.210839,-18.02571,-16.428358,48.756145,50.132793,23.95385,4.0456395,8.008011
74,0.11896279454231262,2.190540313720703,78.38723754882812,-0.5527085138520993,-4.196461912516157,-95.12340387521766,6.397593,7.52851,22.061394,7.937201,-9.567092,-4.974593,2.3031757,-5.2223897,-13.054666,7.922202,-5.885333,5.997316,4.417613,-2.3188808,13.774849,-11.689137,18.640678,-46.496525,62.043495,0.9802613,1.5918994,-9.195132,-18.522892,-16.651035,48.827652,48.584217,24.028234,3.950098,7.6989126
75,0.11475411057472229,2.1900384426116943,78.38712310791016,-0.5545668008342028,-4.202420762455425,-95.13240273284646,6.4081206,7.5370817,22.070856,7.936596,-9.564147,-4.969255,2.309555,-5.213478,-13.04637,7.9208136,-5.8821144,5.994157,4.478238,-2.4286287,13.769702,-11.667371,18.66871,-46.500164,62.121326,0.9783052,1.5826778,-9.17754,-19.050217,-16.874603,48.899746,46.972534,24.094524,3.8537176,7.404729
76,0.11062410473823547,2.188707113265991,78.38703155517578,-0.5567481071143205,-4.219531052116831,-95.14549471875677,6.4356804,7.545429,22.083162,7.9312177,-9.562969,-4.972496,2.3301845,-5.202717,-13.034438,7.9147573,-5.878332,5.9924836,4.542889,-2.5397584,13.772577,-11.641701,18.697924,-46.492058,62.20264,0.9866081,1.5851476,-9.159487,-19.60761,-17.098816,48.971096,45.30765,24.161695,3.7492647,7.1250973
77,0.10804840922355652,2.1841533184051514,78.38706970214844,-0.5616500860647483,-4.257141509945044,-95.16045250207154,6.4917865,7.5527844,22.094841,7.9190726,-9.564444,-4.990288,2.3745403,-5.1906357,-13.020466,7.9100313,-5.879681,5.993784,4.6108985,-2.6521554,13.789775,-11.613365,18.72737,-46.473793,62.292244,1.0022407,1.6039916,-9.139135,-20.192633,-17.324383,49.0407,43.586815,24.239222,3.6331406,6.8533974
78,0.10377755761146545,2.1842164993286133,78.38615417480469,-0.566973818901128,-4.3105200019678165,-95.17711676993046,6.568973,7.559482,22.106596,7.9030595,-9.568268,-5.017806,2.4363878,-5.1778946,-13.004242,7.9066095,-5.884239,5.997594,4.679903,-2.7657175,13.81745,-11.580921,18.756512,-46.445217,62.389347,1.0243325,1.6328473,-9.116797,-20.80443,-17.551367,49.109333,41.803566,24.320726,3.510011,6.59177
79,0.10059049725532532,2.1845643520355225,78.38522338867188,-0.5718591713158641,-4.36204527117337,-95.20059794772568,6.6463923,7.5671515,22.125433,7.8866816,-9.572732,-5.045276,2.4966183,-5.1630654,-12.982057,7.8981023,-5.8851843,6.000749,4.7514544,-2.8803747,13.8421755,-11.550308,18.785635,-46.412613,62.492752,1.0480667,1.6652733,-9.095571,-21.450968,-17.779058,49.183613,39.969803,24.391552,3.3847215,6.3534083
80,0.09943180531263351,2.1748948097229004,78.38651275634766,-0.5755475086326787,-4.393941139989015,-95.23564939145878,6.7028265,7.577319,22.158144,7.872642,-9.575841,-5.0628867,2.5292006,-5.1463065,-12.949332,7.8920918,-5.8827386,6.0001884,4.8277497,-2.9959168,13.850762,-11.524266,18.815302,-46.377655,62.598755,1.0743059,1.6949282,-9.078661,-22.137999,-18.005154,49.26763,38.0946,24.436922,3.262134,6.15154
81,0.10035744309425354,2.1660284996032715,78.38760375976562,-0.578039087712029,-4.394189724853303,-95.28854406445826,6.725901,7.5909557,22.212427,7.8590293,-9.574373,-5.065746,2.5215101,-5.125643,-12.900988,7.8804326,-5.8700514,5.994819,4.912922,-3.1137948,13.832703,-11.503264,18.846014,-46.34083,62.70676,1.1052918,1.7234365,-9.066841,-22.867289,-18.227085,49.3651,36.17398,24.443623,3.1386888,5.9857097
82,0.09752634912729263,2.1646132469177246,78.3885498046875,-0.5781924691618939,-4.374464686477539,-95.35505994248642,6.728193,7.6075916,22.282648,7.8478556,-9.571738,-5.059828,2.4868336,-5.101877,-12.840629,7.867755,-5.8520656,5.986272,5.0032706,-3.2338245,13.796468,-11.484576,18.877836,-46.300068,62.81821,1.1399685,1.7531456,-9.0581875,-23.636055,-18.443579,49.473602,34.206886,24.421825,3.0133035,5.8498626
83,0.09347883611917496,2.162853717803955,78.38946533203125,-0.5790927586547243,-4.353700006117373,-95.42423744873877,6.72993,7.624029,22.3559,7.837225,-9.569502,-5.0516095,2.4490666,-5.0787387,-12.777205,7.85845,-5.835311,5.976051,5.089839,-3.3541257,13.757878,-11.465356,18.910892,-46.253754,62.930996,1.1750627,1.7787336,-9.053474,-24.447048,-18.654406,49.591053,32.207287,24.397427,2.8946342,5.748811
84,0.0826069787144661,2.171238899230957,78.38861083984375,-0.5807195824330982,-4.3508171765965535,-95.48500837136764,6.751007,7.6382866,22.419638,7.8272614,-9.570664,-5.0476856,2.4346254,-5.058132,-12.720474,7.8511887,-5.8228607,5.9653745,5.1634946,-3.4717174,13.732617,-11.444553,18.94547,-46.20214,63.044384,1.204447,1.7948508,-9.052751,-25.303507,-18.860252,49.71586,30.18868,24.396368,2.7911916,5.6873503
85,0.08884861320257187,2.1519217491149902,78.38997650146484,-0.5825714891035199,-4.373595762685473,-95.53255639290188,6.798564,7.6489687,22.467815,7.820317,-9.577312,-5.049197,2.450304,-5.043076,-12.673713,7.855925,-5.8221374,5.952718,5.2170973,-3.586083,13.725886,-11.418835,18.9818,-46.138832,63.158176,1.2229642,1.7963588,-9.061724,-26.208483,-19.062407,49.849285,28.142618,24.41659,2.71376,5.688418
86,0.09235559403896332,2.1441268920898438,78.39085388183594,-0.5858217029877446,-4.411149757056547,-95.57333595268211,6.8612485,7.6575637,22.50812,7.815839,-9.58761,-5.0528736,2.4830477,-5.0311813,-12.631634,7.868109,-5.8283944,5.9379015,5.256935,-3.6980221,13.729028,-11.388647,19.019903,-46.064777,63.27147,1.2356379,1.7874815,-9.078548,-27.158049,-19.260807,49.99158,26.062628,24.44778,2.6541493,5.74207
87,0.08677376061677933,2.1474757194519043,78.39022827148438,-0.5891029277937224,-4.453839052253605,-95.61360940516674,6.9303174,7.6658983,22.54804,7.8107195,-9.598514,-5.058517,2.5229034,-5.0192614,-12.590107,7.8783,-5.833898,5.92473,5.294146,-3.808241,13.736505,-11.361481,19.060152,-45.99529,63.384903,1.2485137,1.7764945,-9.091935,-28.146227,-19.454319,50.140766,23.965656,24.503956,2.5945292,5.804063
88,0.0838279128074646,2.150852918624878,78.38851928710938,-0.5930957873509299,-4.492048507838779,-95.65941590572795,6.9956675,7.6760864,22.594654,7.804324,-9.608472,-5.0658474,2.5586123,-5.0044904,-12.544955,7.8800297,-5.832713,5.9169083,5.3414593,-3.9171653,13.743437,-11.3419075,19.10221,-45.94139,63.495846,1.2738883,1.7719643,-9.090808,-29.16367,-19.640009,50.290424,21.866795,24.597002,2.5161755,5.8297744
89,0.0796467587351799,2.14585280418396,78.3895492553711,-0.5956964779933358,-4.523990129105877,-95.71415812621291,7.0571284,7.688453,22.652422,7.793838,-9.615409,-5.074509,2.5844963,-4.9864182,-12.493421,7.877297,-5.8256693,5.917334,5.4027376,-4.0253334,13.748484,-11.336235,19.145987,-45.913197,63.60965,1.3030611,1.7752372,-9.07066,-30.209795,-19.815819,50.444073,19.76381,24.745665,2.402552,5.8096924
90,0.08268404752016068,2.1426196098327637,78.38899230957031,-0.5988027278754442,-4.5545144452870785,-95.77377019366331,7.1192603,7.701834,22.716524,7.7802877,-9.620755,-5.084736,2.6088336,-4.9664145,-12.438358,7.8688684,-5.8135962,5.9234576,5.471579,-4.1325502,13.753688,-11.335891,19.190796,-45.895664,63.723488,1.3416548,1.7822974,-9.037844,-31.291294,-19.981228,50.602722,17.65328,24.940207,2.266638,5.767126
91,0.08284338563680649,2.1403398513793945,78.38838195800781,-0.6022056732309721,-4.583969380942479,-95.83411134184904,7.1801815,7.7159038,22.781172,7.767097,-9.626641,-5.0972056,2.6346943,-4.944917,-12.383355,7.8539486,-5.798039,5.93054,5.5432057,-4.2381005,13.759367,-11.343252,19.236761,-45.89309,63.83685,1.3876121,1.7928133,-8.997883,-32.406403,-20.134058,50.757793,15.549763,25.140718,2.1343431,5.7062073
92,0.08122928440570831,2.1363115310668945,78.38858032226562,-0.6059541939988365,-4.612762256482459,-95.89086045114172,7.241887,7.727736,22.84139,7.748944,-9.63093,-5.1122785,2.6577556,-4.9251866,-12.331181,7.8472433,-5.7883105,5.9341044,5.6129293,-4.3428273,13.764,-11.358196,19.282242,-45.905815,63.95067,1.4435685,1.8064353,-8.955721,-33.561775,-20.267157,50.902428,13.478956,25.311861,2.031264,5.6322684
93,0.0817297175526619,2.1312155723571777,78.38835144042969,-0.6103180386769552,-4.6409506921453705,-95.94318791042896,7.3037105,7.738252,22.895819,7.728238,-9.636238,-5.13298,2.682999,-4.9053516,-12.282645,7.8394413,-5.779808,5.9325566,5.6791725,-4.4464793,13.768316,-11.375254,19.331339,-45.93243,64.05783,1.5222087,1.8235949,-8.906877,-34.753918,-20.388973,51.033443,11.419991,25.43776,1.9800651,5.539982
94,0.08060087263584137,2.1273088455200195,78.3878173828125,-0.6161012257975151,-4.668455268671046,-95.99321016230589,7.365977,7.74776,22.947166,7.7037306,-9.640991,-5.1581073,2.7110574,-4.8850355,-12.236333,7.8268313,-5.7698765,5.9284997,5.7443194,-4.5495825,13.76874,-11.402976,19.376411,-45.981216,64.173706,1.6112972,1.8435941,-8.849978,-35.990166,-20.480284,51.154137,9.391005,25.537737,1.9611058,5.430723
95,0.07782910019159317,2.125857353210449,78.38743591308594,-0.621064758446814,-4.695011161486232,-96.04105653472041,7.426345,7.7563095,22.995802,7.680205,-9.645615,-5.181962,2.7364714,-4.8661413,-12.192007,7.819311,-5.763311,5.9232893,5.8113065,-4.651169,13.766293,-11.441712,19.411032,-46.038933,64.300255,1.7040938,1.8666172,-8.796396,-37.268013,-20.536463,51.264587,7.4211783,25.630075,1.9376646,5.314674
96,0.0794907808303833,2.1192049980163574,78.38822937011719,-0.6250815107227856,-4.720307944545587,-96.08655872660131,7.481145,7.7644844,23.04175,7.661876,-9.6489,-5.1989594,2.7578118,-4.849786,-12.149692,7.8173695,-5.759782,5.9183426,5.879735,-4.74921,13.770525,-11.487526,19.44836,-46.093563,64.415855,1.7846786,1.8930705,-8.759483,-38.56823,-20.581934,51.37159,5.5009527,25.730154,1.8715025,5.195795
97,0.07806328684091568,2.12013578414917,78.3876953125,-0.6267573028408333,-4.744878592721668,-96.12949784887958,7.530231,7.771807,23.084314,7.651082,-9.650974,-5.206017,2.7801201,-4.8358526,-12.110466,7.811513,-5.7545857,5.9134955,5.954556,-4.846689,13.77932,-11.54848,19.480335,-46.15049,64.533806,1.8479227,1.9253566,-8.743467,-39.911686,-20.610926,51.47232,3.6484947,25.844408,1.7396815,5.0719357
98,0.07928337156772614,2.116276264190674,78.38743591308594,-0.6277731282353819,-4.768670208541646,-96.1699316590154,7.574547,7.778386,23.123867,7.6457877,-9.652486,-5.2066455,2.7996235,-4.8243546,-12.073597,7.809582,-5.751852,5.9082375,6.0307646,-4.941582,13.794225,-11.618359,19.51437,-46.20905,64.6432,1.900651,1.9624953,-8.742249,-41.289352,-20.63063,51.571728,1.8378744,25.960794,1.5644844,4.9359894
99,0.0789807140827179,2.1120593547821045,78.38748168945312,-0.6284403150239362,-4.790686311562948,-96.20845499037063,7.61569,7.7848206,23.161184,7.6407313,-9.65251,-5.205067,2.8165329,-4.813682,-12.038397,7.810098,-5.7503366,5.9032173,6.1075053,-5.0331864,13.813979,-11.687132,19.558474,-46.26501,64.73333,1.9508191,2.0005567,-8.749768,-42.68627,-20.639784,51.662567,0.07433666,26.092724,1.3821805,4.806758
100,0.07796865701675415,2.1081225872039795,78.38783264160156,-0.6305557939680725,-4.8101786686500185,-96.24554737223298,7.6539736,7.792476,23.196901,7.63524,-9.653679,-5.2056227,2.8357162,-4.80061,-12.004686,7.800868,-5.7428637,5.8990345,6.203769,-5.1250753,13.832154,-11.7890005,19.579853,-46.34072,64.86246,2.0045233,2.0316565,-8.757831,-44.06272,-20.636993,51.701096,-1.6412705,26.242943,1.23707,4.71984
101,0.0772111639380455,2.1054723262786865,78.38783264160156,-0.6345413944917826,-4.827792451611108,-96.28135349327543,7.691976,7.801118,23.231182,7.626885,-9.655735,-5.209249,2.852463,-4.7861843,-11.971431,7.794614,-5.7357087,5.8969207,6.3022604,-5.208103,13.861107,-11.867428,19.650658,-46.431946,64.91871,2.0470352,2.0605948,-8.771624,-45.443142,-20.579247,51.74002,-3.2745678,26.379198,1.1253151,4.6348233
102,0.07515896111726761,2.101914405822754,78.3889389038086,-0.6381155639094955,-4.843859374306475,-96.31578733498627,7.7283406,7.8104534,23.263535,7.617293,-9.657658,-5.213972,2.8717496,-4.7699647,-11.939712,7.7806497,-5.723821,5.895893,6.377129,-5.2929506,13.872024,-11.939206,19.708866,-46.503273,64.99653,2.098773,2.0840929,-8.789388,-46.924183,-20.515217,51.761295,-4.8158574,26.62889,1.043272,4.5886364
103,0.07493414729833603,2.0977041721343994,78.38961791992188,-0.6433413734792827,-4.855862274608381,-96.34805389935038,7.759486,7.819867,23.294174,7.607026,-9.658681,-5.218748,2.8858805,-4.7540665,-11.909637,7.7679343,-5.711831,5.8944626,6.4738564,-5.375642,13.891046,-12.032659,19.767431,-46.59356,65.07376,2.1381965,2.1048076,-8.808185,-48.35936,-20.415932,51.74962,-6.3003554,26.858648,0.96948606,4.5720944
104,0.07401636987924576,2.092888355255127,78.39070892333984,-0.6463866588334946,-4.8607521321358895,-96.37765671931702,7.781617,7.8278685,23.323063,7.5954866,-9.656795,-5.2227387,2.890912,-4.740039,-11.88174,7.7583733,-5.7008243,5.890695,6.563509,-5.4585967,13.905222,-12.12307,19.830032,-46.672314,65.14121,2.1520536,2.122891,-8.822407,-49.805492,-20.268822,51.728924,-7.6768837,27.139101,0.89077324,4.608309
105,0.07265350222587585,2.0881426334381104,78.39309692382812,-0.6492659783270986,-4.854292018000352,-96.40538193408452,7.78998,7.834715,23.351774,7.5818453,-9.651244,-5.226474,2.8838425,-4.7267833,-11.855422,7.744792,-5.685924,5.8829947,6.65243,-5.540814,13.914071,-12.221168,19.888844,-46.739323,65.20698,2.1230307,2.1373816,-8.832858,-51.25289,-20.085865,51.687046,-8.95621,27.468576,0.80860436,4.726164
106,0.0716743916273117,2.0856118202209473,78.39491271972656,-0.6521008065249543,-4.839120800287083,-96.43130327112935,7.788049,7.8406057,23.379642,7.5658565,-9.642616,-5.2301445,2.8649042,-4.7149553,-11.830186,7.7348847,-5.6716895,5.8727326,6.741033,-5.6223717,13.918231,-12.326452,19.94499,-46.800724,65.272415,2.0616007,2.1482973,-8.841464,-52.708862,-19.864979,51.624535,-10.1399555,27.841578,0.72969663,4.909003
107,0.06800215691328049,2.088688611984253,78.3960952758789,-0.6541644598822024,-4.8233975952250105,-96.45326052384772,7.784609,7.8450875,23.40401,7.5495586,-9.632965,-5.2324286,2.847504,-4.7043023,-11.809011,7.7222557,-5.656416,5.862522,6.8258085,-5.701721,13.9230995,-12.432842,19.998583,-46.85844,65.33643,2.004135,2.1567957,-8.844202,-54.16386,-19.607372,51.559948,-11.235743,28.259619,0.6462804,5.1002955
108,0.066630519926548,2.087238311767578,78.3970947265625,-0.6557357486562916,-4.815587870651538,-96.4690731797076,7.7861524,7.849154,23.4214,7.5382123,-9.625093,-5.2321286,2.840858,-4.695639,-11.79419,7.710779,-5.6441536,5.855008,6.905304,-5.777187,13.935275,-12.538565,20.049257,-46.9203,65.40151,1.9822632,2.1636274,-8.836945,-55.605976,-19.315678,51.512325,-12.253587,28.721771,0.5499773,5.243016
109,0.06517979502677917,2.0843024253845215,78.3981704711914,-0.6569685175698242,-4.821512111520557,-96.47715073217348,7.7989283,7.8517838,23.430557,7.532724,-9.619236,-5.226658,2.8532693,-4.69,-11.788079,7.6976585,-5.634476,5.852273,6.9760666,-5.8474655,13.961154,-12.641975,20.096292,-46.986652,65.46829,2.016393,2.165831,-8.811776,-57.038986,-18.992691,51.483894,-13.193224,29.253057,0.43769705,5.327343
110,0.062271736562252045,2.083165407180786,78.3984603881836,-0.6564770176498373,-4.835320515497061,-96.47909058738011,7.8162956,7.8535295,23.43311,7.533314,-9.615308,-5.2173743,2.8727937,-4.6876655,-11.788478,7.692853,-5.6313415,5.8525057,7.0420103,-5.9140396,13.996464,-12.747847,20.139565,-47.057915,65.53801,2.0831797,2.1639473,-8.773002,-58.46339,-18.638918,51.464287,-14.055529,29.844309,0.3147249,5.38179
111,0.0643046572804451,2.0798799991607666,78.39944458007812,-0.6584339328701578,-4.848507794769895,-96.47714880545543,7.832586,7.8547435,23.431616,7.5326953,-9.611261,-5.209091,2.8937058,-4.6856217,-11.791949,7.6863375,-5.6280937,5.8523283,7.107777,-5.978441,14.030751,-12.856806,20.179115,-47.13096,65.60853,2.1564956,2.1643312,-8.735305,-59.867836,-18.256353,51.4533,-14.850629,30.452106,0.18268485,5.409027
112,0.0624832883477211,2.0792291164398193,78.39994812011719,-0.6602072062438584,-4.85225688665448,-96.47372084621529,7.8407145,7.856193,23.428366,7.526184,-9.606238,-5.206538,2.9064286,-4.6813164,-11.79476,7.6757774,-5.6217895,5.8484683,7.1774383,-6.0420856,14.053758,-12.974535,20.215586,-47.21102,65.68052,2.2004244,2.1729257,-8.713522,-61.240013,-17.847807,51.450104,-15.592724,31.03282,0.044801496,5.4103403
113,0.060598224401474,2.076202869415283,78.40137481689453,-0.6648179183808371,-4.838779637514335,-96.47290944771012,7.835818,7.8589525,23.427118,7.5079255,-9.599431,-5.213871,2.9023142,-4.671372,-11.791465,7.658461,-5.6094317,5.837585,7.258386,-6.105521,14.05771,-13.107755,20.249546,-47.307503,65.7562,2.2052064,2.1962306,-8.713787,-62.578854,-17.416285,51.45655,-16.283928,31.57857,-0.107428335,5.363461
114,0.059512484818696976,2.0716238021850586,78.40379333496094,-0.6702405262283992,-4.814439516245208,-96.47243210055362,7.8208437,7.8627625,23.425505,7.485472,-9.59325,-5.2275586,2.8850424,-4.658997,-11.785152,7.6433706,-5.596886,5.822314,7.3482456,-6.1682963,14.050568,-13.250054,20.280624,-47.411842,65.832275,2.1949022,2.2297099,-8.727422,-63.88773,-16.963785,51.47008,-16.920683,32.111195,-0.27280113,5.275395
115,0.05546822398900986,2.068693161010742,78.40525817871094,-0.6748749648053731,-4.792208269536931,-96.46481271063453,7.807204,7.8645964,23.4171,7.461277,-9.585333,-5.2409644,2.8709662,-4.6491256,-11.785702,7.630925,-5.587367,5.8081136,7.43289,-6.22988,14.04528,-13.395209,20.309023,-47.51578,65.907425,2.1676884,2.2619874,-8.747186,-65.16576,-16.49265,51.489433,-17.511219,32.633575,-0.43351665,5.19157
116,0.05214185640215874,2.0662384033203125,78.40660095214844,-0.679414843652982,-4.785065403032062,-96.44284248228165,7.802186,7.8634095,23.3951,7.446245,-9.57799,-5.2475166,2.8760316,-4.646727,-11.80343,7.6217575,-5.584136,5.8004336,7.49885,-6.289334,14.054662,-13.532142,20.335009,-47.602806,65.976814,2.1312282,2.282092,-8.7656145,-66.41131,-16.005596,51.513428,-18.0647,33.148254,-0.5709676,5.1571155
117,0.05263320729136467,2.0618464946746826,78.40863800048828,-0.6806337722465123,-4.801539423974476,-96.40201944884294,7.812794,7.858357,23.355299,7.444651,-9.571698,-5.2446084,2.9135108,-4.6540294,-11.844571,7.6106086,-5.5863333,5.801868,7.540403,-6.3456674,14.088073,-13.657213,20.359085,-47.66465,66.03779,2.0743008,2.2849183,-8.784602,-67.62584,-15.504443,51.540203,-18.583025,33.65673,-0.6734083,5.189286
118,0.051544420421123505,2.0578737258911133,78.41007995605469,-0.6807004413698571,-4.833119155838296,-96.34712523566981,7.8339405,7.849346,23.302324,7.4488697,-9.564744,-5.2359247,2.9704268,-4.668809,-11.902335,7.6027403,-5.595044,5.809173,7.5661435,-6.4003015,14.137225,-13.775278,20.381926,-47.708706,66.09169,2.0004752,2.277391,-8.806677,-68.80844,-14.990554,51.572002,-19.065208,34.15784,-0.7519696,5.2617273
119,0.051810167729854584,2.055356025695801,78.41144561767578,-0.6797039735444474,-4.866603276944196,-96.28470711016088,7.8528643,7.839667,23.24184,7.457659,-9.558297,-5.2247615,3.028736,-4.6867642,-11.967723,7.6001353,-5.6076174,5.8189125,7.584361,-6.4539886,14.189075,-13.89008,20.403889,-47.74648,66.13994,1.9347212,2.265968,-8.826256,-69.95221,-14.465746,51.60867,-19.51356,34.6509,-0.82238036,5.354031
120,0.04988059401512146,2.0552053451538086,78.41217041015625,-0.680287077551635,-4.8892549889520955,-96.22148376178697,7.859178,7.8311753,23.179775,7.465038,-9.551426,-5.2141924,3.078955,-4.701878,-12.032444,7.5892344,-5.614323,5.8274693,7.6026697,-6.5077085,14.230498,-14.004737,20.425035,-47.78868,66.184135,1.9025716,2.2573678,-8.837515,-71.05214,-13.932936,51.653297,-19.929514,35.135376,-0.900353,5.446076
121,0.04824407398700714,2.0500893592834473,78.41356658935547,-0.681291107867245,-4.897230126422903,-96.15768583185205,7.8511457,7.8231163,23.116524,7.465782,-9.542446,-5.204529,3.1119936,-4.714621,-12.094764,7.579621,-5.6190467,5.835085,7.6241045,-6.5628734,14.259857,-14.122504,20.445198,-47.84052,66.224915,1.9247627,2.2534952,-8.835012,-72.106895,-13.395609,51.703346,-20.31306,35.58173,-0.99713,5.5371914
122,0.04460053890943527,2.0477285385131836,78.41619873046875,-0.6817356629528192,-4.897397706919091,-96.09015664231939,7.832069,7.8161316,23.048893,7.467985,-9.534077,-5.194405,3.140711,-4.725826,-12.159653,7.5622687,-5.6186147,5.8431997,7.6455965,-6.618404,14.283827,-14.23892,20.463879,-47.891846,66.25983,1.9882411,2.2509747,-8.823216,-73.11837,-12.856615,51.7584,-20.666344,36.000652,-1.1015508,5.636591
123,0.042282722890377045,2.0471177101135254,78.41737365722656,-0.6836063757898242,-4.893241840320032,-96.02086149551009,7.8081326,7.8086567,22.979567,7.4687276,-9.524324,-5.1839747,3.166187,-4.7367268,-12.22586,7.542645,-5.6170626,5.850321,7.665217,-6.672348,14.302111,-14.353669,20.481285,-47.94291,66.291435,2.054035,2.2479153,-8.810802,-74.08453,-12.317401,51.824196,-20.998228,36.451176,-1.1962134,5.7391148
124,0.04091767221689224,2.0456223487854004,78.41931915283203,-0.6858065860599359,-4.8877796947589625,-95.95166668513106,7.7827296,7.8008456,22.910807,7.470301,-9.513748,-5.1735797,3.1874812,-4.748895,-12.292052,7.5289087,-5.61914,5.855031,7.681354,-6.7227693,14.31455,-14.46588,20.497812,-47.99296,66.32085,2.0843298,2.2423544,-8.806583,-75.00205,-11.778059,51.90294,-21.316088,36.992466,-1.2638509,5.839484
125,0.039435140788555145,2.039797782897949,78.4204330444336,-0.6868569905539917,-4.882577086144815,-95.88176670874627,7.7571197,7.792932,22.842487,7.473328,-9.501037,-5.1626,3.207181,-4.7620845,-12.359306,7.5210247,-5.6261635,5.8558755,7.6938944,-6.7681384,14.3199625,-14.573608,20.513319,-48.03803,66.34606,2.0733006,2.2343755,-8.816774,-75.86669,-11.238952,51.994343,-21.622303,37.633026,-1.2928602,5.9355254
126,0.03706398233771324,2.03715443611145,78.42218017578125,-0.6885250322035259,-4.875796917159729,-95.8107074888872,7.729093,7.785126,22.7736,7.477964,-9.487338,-5.1510773,3.228751,-4.7748184,-12.428137,7.5065737,-5.6307383,5.853979,7.703588,-6.8100023,14.319075,-14.677473,20.527802,-48.0791,66.3672,2.040429,2.224695,-8.835431,-76.68122,-10.700898,52.098213,-21.912935,38.34376,-1.2944287,6.0296936
127,0.0342540368437767,2.0335912704467773,78.42374420166016,-0.6893849539304095,-4.865030476682446,-95.74033915683987,7.6976013,7.7766285,22.705393,7.4817033,-9.473747,-5.140449,3.2433944,-4.788444,-12.496009,7.497323,-5.637485,5.8516793,7.710294,-6.850789,14.313732,-14.778516,20.542168,-48.11941,66.38613,1.9894596,2.2131026,-8.852968,-77.45319,-10.164102,52.217747,-22.187254,39.127254,-1.2852759,6.1237793
128,0.0333157554268837,2.029456615447998,78.42593383789062,-0.6909355009315129,-4.848389394802858,-95.67262987616614,7.663203,7.7672453,22.639332,7.4780107,-9.45897,-5.1323056,3.2516396,-4.8009014,-12.561323,7.48553,-5.6411614,5.8509746,7.713754,-6.891992,14.305712,-14.873645,20.557587,-48.15657,66.402,1.9300706,2.199491,-8.86023,-78.19054,-9.628265,52.356277,-22.443684,39.986195,-1.2819223,6.219578
129,0.031332239508628845,2.0296943187713623,78.42675018310547,-0.6919510769145141,-4.821460702988424,-95.60725710282696,7.6208925,7.756923,22.574654,7.4680676,-9.444906,-5.128027,3.2524338,-4.811524,-12.6248255,7.4632816,-5.636631,5.852839,7.7091436,-6.9352927,14.292191,-14.961438,20.576252,-48.188187,66.41398,1.851162,2.179933,-8.8511505,-78.88863,-9.091666,52.520638,-22.687761,40.97671,-1.2851714,6.317753
130,0.031125441193580627,2.0210554599761963,78.42976379394531,-0.694652068386823,-4.786837707483188,-95.54341265230246,7.5731544,7.7458577,22.510998,7.452536,-9.430716,-5.1265235,3.2455525,-4.8210497,-12.686941,7.437218,-5.6282144,5.855942,7.6971197,-6.979496,14.273268,-15.040262,20.59915,-48.21231,66.418686,1.7549525,2.156075,-8.832048,-79.547005,-8.553699,52.7086,-22.915148,42.079018,-1.2867461,6.4173594
131,0.029182376340031624,2.0165891647338867,78.4314956665039,-0.6962845436943498,-4.751902382102818,-95.48249821612863,7.5258203,7.7342725,22.450123,7.4370775,-9.417603,-5.125364,3.2363942,-4.8309965,-12.746108,7.4134364,-5.620262,5.8594203,7.6864657,-7.023661,14.2556505,-15.112909,20.625227,-48.235928,66.416985,1.6623697,2.135454,-8.812068,-80.17669,-8.016055,52.9064,-23.118063,43.181988,-1.2898264,6.51774
132,0.02928183786571026,2.0149521827697754,78.43326568603516,-0.6974528797905157,-4.724165366255609,-95.42556544791611,7.4853287,7.722749,22.393356,7.4252896,-9.405276,-5.1222215,3.2305558,-4.842295,-12.801278,7.3970647,-5.616534,5.8624096,7.686764,-7.0664215,14.24587,-15.182965,20.651659,-48.266582,66.41128,1.5949571,2.1255465,-8.799985,-80.78976,-7.482795,53.10213,-23.285278,44.174282,-1.2978609,6.618657
133,0.03173419460654259,2.0125138759613037,78.43470764160156,-0.6982950053618449,-4.705998710044344,-95.37320184526841,7.454591,7.710984,22.341784,7.417294,-9.393457,-5.1165595,3.2325654,-4.8546853,-12.851967,7.3827453,-5.614012,5.864292,7.7062416,-7.107542,14.24693,-15.252603,20.674767,-48.307438,66.40355,1.5624518,2.1308856,-8.798244,-81.38833,-6.959118,53.29465,-23.413155,45.02449,-1.3148361,6.7207866
134,0.03669966757297516,2.006819486618042,78.4367446899414,-0.6978614321842695,-4.69334082886002,-95.32492443890507,7.429786,7.698831,22.294275,7.411196,-9.382227,-5.109589,3.2352247,-4.8686247,-12.898555,7.377251,-5.61613,5.865673,7.7404504,-7.1474676,14.254775,-15.322697,20.692875,-48.35572,66.397125,1.5532777,2.1464682,-8.801599,-81.96418,-6.448131,53.490204,-23.51152,45.79297,-1.3382157,6.824186
135,0.03979725390672684,2.0067269802093506,78.43807220458984,-0.6972937373455397,-4.683928405480061,-95.27944160599026,7.4086733,7.6865997,22.249834,7.406592,-9.3720045,-5.101603,3.242126,-4.8822894,-12.942409,7.3682566,-5.6159024,5.8674135,7.7788353,-7.185111,14.265116,-15.392626,20.706278,-48.408768,66.394516,1.5572907,2.1656144,-8.808566,-82.5143,-5.9506454,53.688293,-23.59059,46.50691,-1.3616384,6.9278007
136,0.041425660252571106,2.005558967590332,78.43821716308594,-0.6973646937812031,-4.675659213806236,-95.23584566957882,7.388841,7.6745777,22.207594,7.403045,-9.363254,-5.0928245,3.2489433,-4.8962874,-12.983944,7.3607492,-5.6155505,5.870646,7.81091,-7.21989,14.273896,-15.459662,20.716894,-48.460125,66.39529,1.5680661,2.1818805,-8.817461,-83.03613,-5.465324,53.886345,-23.657843,47.193077,-1.3785721,7.0303903
137,0.0469108447432518,2.0047404766082764,78.43868255615234,-0.6978754256708861,-4.669771421848595,-95.1942360064891,7.371743,7.66256,22.168001,7.400928,-9.3568,-5.0827,3.2568927,-4.9107437,-13.022695,7.3555994,-5.615666,5.87569,7.8329487,-7.251812,14.281468,-15.518719,20.726805,-48.502754,66.39452,1.5992212,2.195807,-8.829033,-83.53326,-4.9908776,54.08764,-23.711246,47.858025,-1.3948041,7.1353626
138,0.05247887969017029,2.0038135051727295,78.43956756591797,-0.696000668828016,-4.66646147982174,-95.15507367849004,7.357155,7.650685,22.131157,7.4011507,-9.352412,-5.0712724,3.2650928,-4.926017,-13.058537,7.355111,-5.6173167,5.8819795,7.850151,-7.2814226,14.289823,-15.57184,20.73709,-48.541744,66.39142,1.6479506,2.2100925,-8.844019,-84.00685,-4.5268044,54.29102,-23.74713,48.48769,-1.4113597,7.2420945
139,0.05673146992921829,2.0026721954345703,78.44114685058594,-0.6960426788287366,-4.663286176316256,-95.11781335968031,7.3430653,7.638922,22.096155,7.401341,-9.348378,-5.059833,3.2761161,-4.9401584,-13.092923,7.346786,-5.614354,5.88896,7.8641753,-7.3089876,14.296726,-15.619177,20.747728,-48.57754,66.387535,1.694742,2.2223198,-8.860163,-84.45245,-4.072934,54.4924,-23.770302,49.07758,-1.4145544,7.3436713
140,0.06427738815546036,1.9993938207626343,78.44182586669922,-0.6968221571327198,-4.656981981093603,-95.08198870809329,7.327057,7.626318,22.062183,7.3988996,-9.3432,-5.049454,3.2797947,-4.954983,-13.126028,7.3458943,-5.6154084,5.8960466,7.877809,-7.335153,14.300083,-15.663336,20.758186,-48.613293,66.38631,1.717883,2.2297745,-8.875717,-84.86447,-3.6289394,54.685184,-23.785189,49.622704,-1.3910823,7.4328027
141,0.06990066170692444,1.997636318206787,78.44246673583984,-0.6956747527049512,-4.646011674788027,-95.04864755283506,7.30843,7.6133075,22.029942,7.3923945,-9.336012,-5.0412793,3.2821958,-4.9678893,-13.158238,7.334698,-5.610862,5.903009,7.8919854,-7.358982,14.2978735,-15.707571,20.767847,-48.65522,66.390366,1.7110226,2.2316341,-8.89226,-85.24023,-3.1945558,54.871124,-23.788916,50.109135,-1.3282408,7.5051727
142,0.07530994713306427,1.9969422817230225,78.44367980957031,-0.6954672873718524,-4.632212521415973,-95.01771524239096,7.2874684,7.60031,21.999422,7.385764,-9.329182,-5.034372,3.2800558,-4.980508,-13.188853,7.324854,-5.606722,5.910197,7.905387,-7.380456,14.291494,-15.749954,20.776417,-48.699406,66.39824,1.6867185,2.2291675,-8.910039,-85.58399,-2.7699351,55.053284,-23.780546,50.543713,-1.2365316,7.565171
143,0.08180291950702667,1.995827078819275,78.44572448730469,-0.6960236517606971,-4.617888615035906,-94.98691010599428,7.266682,7.5866184,21.9691,7.3764877,-9.320847,-5.0270805,3.2746449,-4.993911,-13.218875,7.3200817,-5.605099,5.91777,7.916806,-7.400763,14.28446,-15.785782,20.7836,-48.736534,66.40671,1.648249,2.223409,-8.924817,-85.90014,-2.3552074,55.22607,-23.763874,50.95262,-1.1374652,7.6181645
144,0.08906081318855286,1.9953333139419556,78.44590759277344,-0.6946957337234674,-4.605026550288179,-94.95395887937903,7.2446985,7.573572,21.936903,7.372267,-9.3147745,-5.0177293,3.2750971,-5.006835,-13.250678,7.3079195,-5.5997705,5.9257913,7.9247675,-7.4206038,14.280519,-15.81061,20.789238,-48.75796,66.41262,1.5981696,2.2151973,-8.932808,-86.193504,-1.9503734,55.38374,-23.744585,51.36244,-1.052515,7.670047
145,0.09694711118936539,1.9953614473342896,78.4475326538086,-0.6949995566383629,-4.594216149124439,-94.91781813294743,7.223075,7.560347,21.90247,7.369128,-9.307923,-5.0050526,3.2748404,-5.0216618,-13.28403,7.303855,-5.5982633,5.934184,7.928712,-7.4407444,14.281449,-15.822493,20.793488,-48.757465,66.41527,1.5270677,2.2022932,-8.930854,-86.464134,-1.5555396,55.527477,-23.725302,51.808647,-0.99628496,7.7061305
146,0.10376346856355667,1.993268370628357,78.4486083984375,-0.6960388683300426,-4.584385277680024,-94.87972914152056,7.1994944,7.5478745,21.866596,7.3712926,-9.303331,-4.9902287,3.276584,-5.036813,-13.3185005,7.2984724,-5.595548,5.942891,7.929189,-7.460511,14.285151,-15.824089,20.796724,-48.741364,66.41615,1.4362029,2.1850648,-8.921783,-86.71042,-1.1705289,55.659924,-23.70355,52.26774,-0.9546656,7.728927
147,0.11366724222898483,1.9919987916946411,78.44930267333984,-0.6951618801725509,-4.575155610077737,-94.84126497632337,7.177582,7.534126,21.83024,7.370584,-9.297692,-4.975107,3.2805252,-5.05213,-13.353293,7.290524,-5.5923386,5.952308,7.9267297,-7.4790516,14.289098,-15.817269,20.799025,-48.717785,66.41516,1.3464625,2.1680498,-8.910348,-86.93673,-0.79510784,55.77858,-23.669474,52.677525,-0.9049949,7.7702208
148,0.12143293768167496,1.991830825805664,78.45060729980469,-0.695845009866955,-4.56610964570955,-94.80372522724252,7.1565514,7.519325,21.794085,7.369249,-9.293418,-4.961608,3.2832763,-5.068404,-13.387263,7.283569,-5.590109,5.9629793,7.921351,-7.4956994,14.290494,-15.806341,20.80045,-48.699444,66.41454,1.273446,2.155477,-8.901292,-87.147514,-0.42889735,55.88255,-23.615501,52.97552,-0.8244745,7.861782
149,0.1302194595336914,1.9920415878295898,78.45089721679688,-0.694785657388399,-4.558162873741365,-94.76600904065793,7.138424,7.5016603,21.756891,7.3641796,-9.2896385,-4.9499173,3.2850134,-5.0866528,-13.421554,7.280483,-5.5919895,5.975689,7.914238,-7.5108547,14.289896,-15.790678,20.80023,-48.687176,66.412506,1.2208327,2.1508212,-8.893659,-87.34366,-0.071723476,55.961643,-23.539509,53.12992,-0.7099256,8.000692
150,0.1407741755247116,1.9924514293670654,78.45137786865234,-0.6932929916048823,-4.551064911545107,-94.72774055295895,7.121519,7.4827733,21.71863,7.3580666,-9.286726,-4.9392524,3.290446,-5.105014,-13.456585,7.270859,-5.5916495,5.9898224,7.9045954,-7.524305,14.288131,-15.768786,20.797909,-48.675587,66.409546,1.1797866,2.1510003,-8.885625,-87.52419,0.2762536,56.021248,-23.445967,53.1787,-0.572567,8.174222
151,0.14956501126289368,1.9926037788391113,78.45166015625,-0.6917334032307192,-4.543210943443425,-94.69216343789138,7.1051793,7.4629893,21.682339,7.349805,-9.283222,-4.9295373,3.291364,-5.124516,-13.489065,7.267717,-5.5942793,6.0042276,7.8917656,-7.5355296,14.283676,-15.7422085,20.794212,-48.66357,66.40866,1.1531492,2.1507485,-8.880262,-87.6889,0.6152108,56.077366,-23.330368,53.16431,-0.41118756,8.399518
152,0.16186822950839996,1.990964412689209,78.45121002197266,-0.6904171789789622,-4.53297588299636,-94.66178809481983,7.087747,7.4437704,21.65051,7.3415327,-9.279891,-4.9207067,3.2899375,-5.142221,-13.516933,7.2607083,-5.591905,6.0173473,7.8743463,-7.5434055,14.274606,-15.705873,20.790285,-48.639774,66.40839,1.1541722,2.145273,-8.880657,-87.83798,0.94499207,56.14802,-23.192354,53.129063,-0.22431159,8.693249
153,0.17257840931415558,1.991858720779419,78.451171875,-0.6897601331059212,-4.518481200722908,-94.63689684459627,7.067402,7.425198,21.62227,7.332346,-9.276052,-4.9149137,3.2824924,-5.158315,-13.539973,7.253389,-5.5855365,6.028793,7.8469486,-7.547054,14.258704,-15.656186,20.787498,-48.596256,66.409615,1.1931925,2.1291497,-8.888141,-87.97347,1.2660953,56.239044,-23.03518,53.065716,0.00934679,9.090342
154,0.18371151387691498,1.9918904304504395,78.45112609863281,-0.6905099467064875,-4.501142199768883,-94.6163075651147,7.0476875,7.405645,21.597034,7.317153,-9.26951,-4.9114304,3.270434,-5.173809,-13.559172,7.247213,-5.5773587,6.0393753,7.811512,-7.5473356,14.237739,-15.593247,20.786533,-48.53647,66.408875,1.2643011,2.1067252,-8.900986,-88.094986,1.5790567,56.340744,-22.859116,52.95631,0.28122392,9.571966
155,0.1954880952835083,1.990976333618164,78.45226287841797,-0.6896192802467543,-4.48392928494465,-94.60054729910937,7.027231,7.387247,21.577028,7.3063526,-9.265078,-4.9061213,3.254575,-5.189352,-13.57362,7.2458134,-5.570239,6.0494804,7.776928,-7.5461555,14.215697,-15.525359,20.787966,-48.478756,66.404274,1.3434457,2.0868206,-8.917619,-88.19971,1.8833202,56.44922,-22.650957,52.828445,0.54821175,10.075266
156,0.20804263651371002,1.9918712377548218,78.45266723632812,-0.6882521376346854,-4.470232285791466,-94.59019315928197,7.0100613,7.3703294,21.56479,7.29847,-9.261138,-4.894991,3.241257,-5.2042074,-13.58238,7.242872,-5.5626764,6.059324,7.752997,-7.545101,14.196762,-15.460358,20.791761,-48.440372,66.39333,1.4086062,2.0786765,-8.936083,-88.28384,2.177151,56.55916,-22.397259,52.710457,0.7679812,10.536804
157,0.21985091269016266,1.9915558099746704,78.45321655273438,-0.6833200289154342,-4.461684478377491,-94.5880616187715,6.995855,7.3559623,21.564325,7.2990327,-9.259665,-4.873901,3.227915,-5.219176,-13.582723,7.2449894,-5.557581,6.0690536,7.747103,-7.5459595,14.182142,-15.401236,20.798063,-48.43012,66.37376,1.4690449,2.089339,-8.962698,-88.34707,2.457944,56.680916,-22.091183,52.57345,0.91721654,10.923098
158,0.23430097103118896,1.9949684143066406,78.45335388183594,-0.6787163070469147,-4.456426069545836,-94.59291115923689,6.9822993,7.344166,21.573067,7.3083396,-9.261552,-4.8460593,3.2121472,-5.234394,-13.5757265,7.253943,-5.5555105,6.0784187,7.7533245,-7.5475407,14.169693,-15.346038,20.806646,-48.441013,66.34926,1.5286396,2.112238,-8.996269,-88.38939,2.723916,56.81342,-21.74314,52.415333,1.0222362,11.2731
159,0.24397610127925873,1.9970653057098389,78.45353698730469,-0.6728309795886197,-4.451918566833384,-94.599519571925,6.970026,7.3323536,21.583887,7.3175287,-9.263762,-4.818191,3.1977093,-5.2490726,-13.566776,7.260127,-5.551925,6.0876017,7.76179,-7.54812,14.157367,-15.286687,20.816177,-48.454063,66.322075,1.5712609,2.136758,-9.023731,-88.407715,2.9743526,56.936775,-21.369339,52.306313,1.1162959,11.632104
160,0.25163355469703674,2.005467653274536,78.45313262939453,-0.668311770346543,-4.4455111992922856,-94.60259975287784,6.9587555,7.319014,21.5896,7.31961,-9.264428,-4.797199,3.1818948,-5.264007,-13.560566,7.2684703,-5.5506806,6.096715,7.761964,-7.5457654,14.143237,-15.221885,20.825031,-48.460476,66.29949,1.5689253,2.1517515,-9.032195,-88.39986,3.2100482,57.030903,-20.984394,52.316177,1.2335889,12.045273
161,0.2594430446624756,2.013993501663208,78.45061492919922,-0.666067811675263,-4.434230535346218,-94.6004314624634,6.9450197,7.3041725,21.586872,7.313779,-9.263705,-4.7869406,3.1677625,-5.276716,-13.559125,7.265358,-5.544607,6.105825,7.754134,-7.540613,14.124589,-15.147778,20.831503,-48.453915,66.28213,1.5008503,2.1515508,-9.009741,-88.36193,3.4321902,57.0891,-20.574654,52.60451,1.3599167,12.542796
162,0.27319180965423584,2.016279458999634,78.44971466064453,-0.6657524662228098,-4.420145897325585,-94.59594705665214,6.9301906,7.288215,21.58033,7.302923,-9.262081,-4.7830195,3.1490486,-5.2898355,-13.558856,7.2674165,-5.542323,6.1149983,7.7428412,-7.533606,14.103115,-15.07002,20.835289,-48.445236,66.27065,1.3811219,2.1425776,-8.966072,-88.2969,3.6415656,57.12206,-20.138384,53.0866,1.4892172,13.093545
163,0.2887040376663208,2.014068841934204,78.45044708251953,-0.6648128972083928,-4.408767482173187,-94.5907878556601,6.91983,7.2712626,21.573328,7.289457,-9.260079,-4.7800627,3.134485,-5.303334,-13.559296,7.2684,-5.5397353,6.123804,7.724299,-7.522011,14.082968,-14.98567,20.836205,-48.42554,66.26059,1.2631527,2.1329947,-8.92029,-88.21414,3.837688,57.136135,-19.702183,53.46555,1.6644734,13.650999
164,0.30435261130332947,2.0114665031433105,78.45068359375,-0.6636545350523916,-4.405497586446014,-94.58650717269853,6.9148035,7.2553244,21.5688,7.285773,-9.263182,-4.77266,3.1262507,-5.3189254,-13.558944,7.2755685,-5.5398746,6.1318874,7.693874,-7.5034714,14.068346,-14.897902,20.835138,-48.39649,66.251945,1.1882294,2.130684,-8.891456,-88.1227,4.0196056,57.139698,-19.2968,53.44335,1.9222219,14.16967
165,0.32003718614578247,2.0134286880493164,78.45060729980469,-0.6611476019227184,-4.414661902372013,-94.5812240202848,6.9219384,7.2382345,21.566061,7.287106,-9.268788,-4.7581635,3.1268182,-5.33895,-13.559435,7.295435,-5.5459957,6.1382713,7.6478596,-7.475973,14.063159,-14.805447,20.832233,-48.35226,66.24163,1.1879162,2.1382263,-8.894162,-88.009186,4.187029,57.117702,-18.943766,52.981018,2.2405365,14.559717
166,0.33444052934646606,2.017855644226074,78.45027160644531,-0.658761249688729,-4.432426444820207,-94.574845881689,6.9357686,7.221165,21.56384,7.2960753,-9.278958,-4.7399015,3.1362789,-5.361152,-13.561163,7.319014,-5.554018,6.14334,7.5890656,-7.4411535,14.064255,-14.709596,20.827738,-48.29871,66.232056,1.228181,2.1510773,-8.91516,-87.87366,4.340029,57.07165,-18.624456,52.22351,2.6051984,14.875082
167,0.3503699004650116,2.0173118114471436,78.44915008544922,-0.6559758430785136,-4.452256863296995,-94.57180832388269,6.9520288,7.2044406,21.565256,7.3064237,-9.290347,-4.7211556,3.1465373,-5.383126,-13.559772,7.3432727,-5.561807,6.1492343,7.5243015,-7.40337,14.064924,-14.603702,20.822226,-48.232166,66.22116,1.2767464,2.1678085,-8.931793,-87.743286,4.4768834,57.036007,-18.307745,51.145287,3.0574741,15.291886
168,0.366461843252182,2.0163652896881104,78.44852447509766,-0.6522475590344514,-4.4673386724525495,-94.57650953548875,6.9674826,7.1882725,21.573708,7.309506,-9.2978115,-4.705236,3.1516268,-5.4019217,-13.551534,7.3616576,-5.565729,6.1580772,7.4693255,-7.3707438,14.057977,-14.485958,20.817686,-48.15929,66.21037,1.3005639,2.1874568,-8.92219,-87.62643,4.561477,57.042965,-17.99751,49.71717,3.6299884,15.9882
169,0.380637526512146,2.0162389278411865,78.44768524169922,-0.64913109832028,-4.476982141569963,-94.59134452065334,6.9802427,7.173714,21.591509,7.309861,-9.304877,-4.6934447,3.1509168,-5.416383,-13.5343,7.3711286,-5.564163,6.1720986,7.4074044,-7.3333883,14.046942,-14.33289,20.811926,-48.03789,66.18413,1.3047439,2.208168,-8.861504,-87.564575,4.6570735,57.079052,-17.61572,47.614635,4.332924,17.169205
170,0.39465826749801636,2.018108606338501,78.447265625,-0.6450201265134968,-4.484347770497223,-94.61362502066332,6.9927616,7.1601133,21.616148,7.307092,-9.310292,-4.683965,3.1463294,-5.428427,-13.510325,7.37749,-5.559945,6.1896753,7.345461,-7.294393,14.033984,-14.158922,20.80715,-47.8918,66.149666,1.2977197,2.2314317,-8.768321,-87.52463,4.7302127,57.135822,-17.215603,44.940933,5.099693,18.711052
171,0.41005396842956543,2.0236728191375732,78.44548034667969,-0.6407186615537392,-4.4889121396321885,-94.63998802186751,7.0043626,7.146914,21.64458,7.3017254,-9.3146,-4.675139,3.1374714,-5.4389477,-13.482592,7.383456,-5.5548754,6.2068834,7.296499,-7.262985,14.01324,-13.992336,20.804674,-47.770653,66.122955,1.268047,2.2591999,-8.682417,-87.48855,4.7602105,57.248817,-16.833645,42.307777,5.881827,20.293844
172,0.4223165214061737,2.028944492340088,78.44452667236328,-0.6381453663726464,-4.490361990368524,-94.66677614475692,7.0118537,7.1345534,21.672976,7.296683,-9.318387,-4.6656036,3.1257935,-5.448538,-13.453875,7.3866067,-5.547083,6.2198296,7.243908,-7.2381763,13.980416,-13.842283,20.805145,-47.680122,66.105034,1.2181219,2.2922301,-8.644202,-87.46291,4.778098,57.471893,-16.473892,40.335484,6.6863294,21.5767
173,0.43593233823776245,2.03254771232605,78.4439697265625,-0.634684617151296,-4.4884585378751005,-94.69375204375847,7.0160675,7.1222906,21.700462,7.2901506,-9.321034,-4.654979,3.1068492,-5.4585257,-13.42387,7.395632,-5.540353,6.2259526,7.192393,-7.2221437,13.923702,-13.727083,20.810343,-47.66652,66.10519,1.1120113,2.3400543,-8.683005,-87.46239,4.7819395,57.843,-16.128382,39.238518,7.676554,22.537855
174,0.44814491271972656,2.0355520248413086,78.4439468383789,-0.631842334685417,-4.483538253520839,-94.72248190576892,7.017617,7.110586,21.729134,7.2815876,-9.322197,-4.644124,3.0818012,-5.4678426,-13.391456,7.408332,-5.5342565,6.2277117,7.1399956,-7.208129,13.848344,-13.624939,20.819864,-47.696415,66.10786,0.9680944,2.3994412,-8.771375,-87.48056,4.7695494,58.340897,-15.793318,38.667896,8.828828,23.318367
175,0.4619835913181305,2.0398058891296387,78.44407653808594,-0.6298220519757162,-4.475355491642413,-94.75279349590957,7.016345,7.0991693,21.759457,7.272721,-9.323208,-4.6328664,3.0569363,-5.475535,-13.358006,7.4117894,-5.5228763,6.2293286,7.08953,-7.2001476,13.771856,-13.516766,20.833652,-47.71749,66.10804,0.83975655,2.4521515,-8.864553,-87.48369,4.7323914,58.88555,-15.489418,38.425114,9.915977,23.819319
176,0.4764837622642517,2.0448055267333984,78.44413757324219,-0.6259605358785137,-4.463668960236928,-94.78491194724667,7.0111294,7.0887012,21.792553,7.26481,-9.323907,-4.621375,3.025807,-5.483128,-13.323554,7.419705,-5.514507,6.234917,7.049366,-7.210096,13.711284,-13.39236,20.84709,-47.682777,66.116425,0.78189486,2.479451,-8.915822,-87.4565,4.681689,59.360203,-15.217527,38.323883,10.714237,23.95764
177,0.49092811346054077,2.0490059852600098,78.4449691772461,-0.6233714873445005,-4.446490945861332,-94.82013155018295,7.0027075,7.078145,21.830654,7.253633,-9.322543,-4.6083913,2.9976873,-5.487945,-13.288643,7.406719,-5.496414,6.247903,7.0100513,-7.23892,13.674895,-13.225626,20.861382,-47.542152,66.12271,0.8320969,2.4666305,-8.903567,-87.39207,4.616531,59.79859,-14.983469,38.378834,11.130197,23.613485
178,0.5019018650054932,2.051384449005127,78.44499969482422,-0.6196049412093895,-4.424542874257182,-94.85820496054004,6.9906826,7.067746,21.872665,7.239467,-9.318537,-4.5943513,2.962576,-5.492545,-13.251913,7.3955603,-5.4795175,6.2654037,6.9678297,-7.2842803,13.653563,-13.028774,20.881355,-47.326134,66.1241,0.95651907,2.42706,-8.855931,-87.30251,4.5294275,60.236263,-14.789944,38.6812,11.296531,22.856804
179,0.5143489837646484,2.0535478591918945,78.44536590576172,-0.6169200338444378,-4.4020568701759,-94.89574470669756,6.977879,7.0577846,21.914322,7.2270193,-9.315857,-4.581484,2.9301805,-5.496018,-13.215621,7.3784847,-5.459822,6.2818356,6.9343343,-7.332953,13.638325,-12.836298,20.902634,-47.105762,66.12422,1.0993533,2.3832357,-8.801051,-87.19223,4.439146,60.603027,-14.615975,39.143894,11.308935,21.880543
180,0.5252611637115479,2.0558693408966064,78.44569396972656,-0.6139829174532376,-4.383285897791882,-94.92997973688202,6.967901,7.049124,21.951307,7.215964,-9.314289,-4.572212,2.8982282,-5.4999313,-13.180841,7.3734345,-5.4463,6.291728,6.9122987,-7.3705325,13.621279,-12.682434,20.924335,-46.946346,66.12568,1.2006898,2.356647,-8.768893,-87.05323,4.3447547,60.851627,-14.464772,39.67989,11.259068,20.87115
181,0.537361741065979,2.0569980144500732,78.44599151611328,-0.6133202386080474,-4.369300372672323,-94.9585707315769,6.961451,7.041074,21.981598,7.207094,-9.314678,-4.567362,2.8671227,-5.5050435,-13.148137,7.3838744,-5.4402947,6.2911825,6.9054227,-7.3917966,13.599434,-12.584061,20.940521,-46.875957,66.13512,1.2498513,2.3566296,-8.772778,-86.88182,4.259091,60.95977,-14.327622,40.27149,11.122509,19.784863
182,0.5490240454673767,2.0582165718078613,78.44498443603516,-0.6122763718970669,-4.357887629226257,-94.98380423226509,6.956319,7.034173,22.007647,7.2006474,-9.316641,-4.565659,2.8393521,-5.5099115,-13.117065,7.3982635,-5.4365544,6.283861,6.9094143,-7.4032955,13.577436,-12.522733,20.950493,-46.856583,66.15297,1.275068,2.3699727,-8.794965,-86.68043,4.177926,60.96151,-14.207312,40.95636,10.857242,18.556139
183,0.5580266714096069,2.0614137649536133,78.44425201416016,-0.6125402387128732,-4.348287550360922,-95.00858040957847,6.954126,7.0275674,22.032612,7.1919317,-9.317701,-4.5660152,2.8139396,-5.5139546,-13.086772,7.411992,-5.4324317,6.2759748,6.9185476,-7.4052157,13.557385,-12.477158,20.952972,-46.852287,66.17593,1.2825587,2.3840058,-8.816502,-86.47349,4.125849,60.873573,-14.072634,41.733482,10.540603,17.343182
184,0.5682175159454346,2.061605453491211,78.44313049316406,-0.6124194442968275,-4.340064705277653,-95.0361718825037,6.953843,7.021179,22.059402,7.1831756,-9.3191,-4.567294,2.788689,-5.5171914,-13.056054,7.4241652,-5.428079,6.2736936,6.9391766,-7.4071646,13.541025,-12.432525,20.951977,-46.839825,66.20531,1.277624,2.3871713,-8.819344,-86.26181,4.072284,60.70481,-13.942901,42.611214,10.254247,16.30061
185,0.5770999789237976,2.0631537437438965,78.44287872314453,-0.6118900467951438,-4.333221597748942,-95.06622678508164,6.9571896,7.014302,22.086758,7.170461,-9.319372,-4.571992,2.7686696,-5.5184636,-13.027256,7.423448,-5.4177747,6.2802243,6.971998,-7.408551,13.528526,-12.388048,20.947975,-46.82029,66.241714,1.2573631,2.373757,-8.793782,-86.039314,4.0225253,60.432262,-13.8162365,43.65186,10.036268,15.461165
186,0.5859851837158203,2.0670888423919678,78.4422607421875,-0.6118699734718739,-4.328099667935019,-95.09738344887154,6.962802,7.007783,22.11358,7.1567764,-9.319735,-4.579792,2.7505908,-5.51861,-12.999859,7.419553,-5.4063907,6.291677,7.0191154,-7.409376,13.5190115,-12.355664,20.940811,-46.812096,66.288704,1.2169173,2.3511064,-8.75108,-85.80294,3.9746568,60.05055,-13.695584,44.835274,9.839895,14.7466135
187,0.594633162021637,2.070575475692749,78.44149017333984,-0.610680757251475,-4.324019525739989,-95.13164335377762,6.970845,7.00146,22.14397,7.1417933,-9.319308,-4.5852666,2.7321405,-5.5183725,-12.969895,7.4167075,-5.3954673,6.3038487,7.0629253,-7.4011126,13.514058,-12.31485,20.93262,-46.78192,66.325325,1.1682767,2.325837,-8.7053,-85.580536,3.9505901,59.638996,-13.562818,46.039787,9.612895,14.133725
188,0.60174560546875,2.076155662536621,78.44111633300781,-0.6095060686289592,-4.320755901730247,-95.17027339529899,6.9762287,6.9982343,22.180695,7.1359777,-9.322254,-4.583292,2.713211,-5.516938,-12.934074,7.413941,-5.3838983,6.3121576,7.1113954,-7.3982377,13.512759,-12.276297,20.921593,-46.73482,66.370255,1.1134505,2.3052485,-8.668419,-85.39669,3.9344962,59.21583,-13.416853,47.15484,9.328741,13.619861
189,0.6097779870033264,2.0819520950317383,78.44049072265625,-0.6074486561612659,-4.317975900678451,-95.21540398078153,6.9781756,6.998779,22.227526,7.1421766,-9.32954,-4.567345,2.6897583,-5.515518,-12.889485,7.418391,-5.374923,6.314524,7.150801,-7.386666,13.515344,-12.221535,20.910248,-46.64769,66.40316,1.0350485,2.2904804,-8.643335,-85.24358,3.9293537,58.818657,-13.261464,48.135788,8.944214,13.240054
190,0.6155334711074829,2.086228847503662,78.44035339355469,-0.6047770109158066,-4.316135888204889,-95.26560592699131,6.9794908,7.001659,22.281828,7.1547685,-9.339119,-4.5419526,2.6619554,-5.5141954,-12.838232,7.431796,-5.3702517,6.313569,7.1920686,-7.382416,13.521432,-12.166359,20.89545,-46.531185,66.446976,0.94510984,2.2782738,-8.622317,-85.121864,3.9326482,58.378567,-13.098694,49.05752,8.512568,13.001252
191,0.6225318908691406,2.092393636703491,78.43988800048828,-0.6002386173282664,-4.314861664683878,-95.31774953392946,6.9814496,7.00555,22.337824,7.1677485,-9.348691,-4.5180855,2.6349745,-5.511483,-12.78513,7.443251,-5.363777,6.3123264,7.232883,-7.3678427,13.530907,-12.101922,20.881487,-46.405632,66.47209,0.8670426,2.2687752,-8.60855,-85.01882,3.9410496,57.97406,-12.936629,49.94283,8.057522,12.784908
192,0.6288209557533264,2.099268674850464,78.43953704833984,-0.5988383966232146,-4.314886146226949,-95.36865389528313,6.9888654,7.00733,22.390142,7.1695724,-9.354012,-4.50671,2.6088986,-5.507906,-12.734005,7.455083,-5.3565197,6.3136826,7.2794566,-7.3695183,13.547057,-12.067032,20.860695,-46.29685,66.52662,0.83297527,2.2577393,-8.602036,-84.96913,3.9665618,57.55797,-12.765446,50.841763,7.6563387,12.514472
193,0.6347501873970032,2.1058483123779297,78.43803405761719,-0.5990899539299229,-4.315335603006668,-95.41794799630215,7.0023904,7.0074244,22.436619,7.157169,-9.3542385,-4.5148335,2.590194,-5.5003138,-12.686472,7.4516106,-5.3397346,6.3195176,7.334318,-7.356413,13.570388,-12.030521,20.844595,-46.2063,66.551674,0.8465763,2.2497435,-8.610154,-84.9407,3.9857507,57.228775,-12.610348,51.772934,7.2527275,12.108629
194,0.6405431032180786,2.111859083175659,78.43739318847656,-0.599635230155784,-4.316552949835994,-95.4670936896022,7.0201564,7.0065446,22.480505,7.136128,-9.351427,-4.5352345,2.5708039,-5.4912634,-12.639635,7.4502683,-5.322775,6.3278775,7.39986,-7.349629,13.600474,-12.008376,20.82514,-46.122707,66.58467,0.9006288,2.2432723,-8.628543,-84.95388,4.008922,56.908936,-12.453257,52.72156,6.858353,11.650075
195,0.647030770778656,2.1202476024627686,78.43604278564453,-0.6016017277052962,-4.318941484091182,-95.51597098921333,7.039555,7.0057693,22.523642,7.113701,-9.34784,-4.5576053,2.5557623,-5.4811935,-12.593517,7.4421396,-5.3019247,6.336113,7.461007,-7.338037,13.631853,-11.988761,20.808401,-46.055725,66.60822,0.9710922,2.236754,-8.649298,-84.97705,4.0270467,56.630257,-12.316507,53.61251,6.4932537,11.190583
196,0.6522412896156311,2.1272058486938477,78.4354019165039,-0.6015391832675094,-4.322737283903824,-95.56456163213393,7.058558,7.005372,22.568377,7.0964656,-9.34563,-4.5715294,2.5401046,-5.4729323,-12.547147,7.4406214,-5.285395,6.341417,7.509067,-7.330028,13.659493,-11.973696,20.791094,-46.006508,66.635086,1.0517167,2.2283483,-8.661995,-85.00704,4.047552,56.36221,-12.195332,54.385647,6.210348,10.800524
197,0.6574493050575256,2.132988452911377,78.43512725830078,-0.6013057353129986,-4.328484593146841,-95.61473591862811,7.0741835,7.0078626,22.617105,7.092964,-9.348472,-4.5733714,2.5215435,-5.4666796,-12.4979925,7.449528,-5.2743335,6.341766,7.540756,-7.321294,13.681839,-11.958919,20.774914,-45.979664,66.660866,1.1505433,2.2157927,-8.665462,-85.04051,4.0713463,56.119045,-12.098277,55.05159,6.0311604,10.464874
198,0.6678426861763,2.1363015174865723,78.43502807617188,-0.5995638127747475,-4.335706789490441,-95.66618294412261,7.0904937,7.0113077,22.668356,7.092577,-9.351626,-4.568952,2.5052843,-5.4604416,-12.447382,7.457225,-5.2625074,6.339009,7.5598655,-7.3100514,13.702133,-11.942934,20.763351,-45.971573,66.67781,1.267728,2.2012265,-8.664712,-85.07917,4.092904,55.910934,-12.026279,55.636013,5.927036,10.153657
199,0.6690597534179688,2.145998477935791,78.43466186523438,-0.5985490204079859,-4.343907656096792,-95.714295704353,7.1057167,7.014475,22.716751,7.0956283,-9.356284,-4.562245,2.4875445,-5.456203,-12.399837,7.472862,-5.256338,6.336437,7.571559,-7.3013935,13.721219,-11.933712,20.753317,-45.98024,66.69412,1.3788443,2.187197,-8.659636,-85.12739,4.119516,55.709373,-11.954196,56.09814,5.872995,9.909105
200,0.6737291216850281,2.1541264057159424,78.43462371826172,-0.5978774460901376,-4.35221851032673,-95.75469660203353,7.12006,7.0156083,22.757063,7.0968895,-9.360533,-4.5573936,2.476844,-5.453005,-12.360762,7.4788094,-5.2479076,6.337338,7.574311,-7.2906313,13.740567,-11.924623,20.74606,-45.99033,66.69791,1.4653525,2.176639,-8.651966,-85.17438,4.1466255,55.52187,-11.873719,56.390614,5.8276987,9.764512
201,0.680899441242218,2.157654285430908,78.43383026123047,-0.595554840206205,-4.3617265313989995,-95.78505257960563,7.135569,7.013566,22.786438,7.0933094,-9.363268,-4.555374,2.4735363,-5.451957,-12.3332815,7.479651,-5.241986,6.344217,7.562763,-7.275449,13.762125,-11.912487,20.74273,-46.001637,66.680595,1.5238539,2.1710832,-8.639607,-85.21162,4.1661296,55.3567,-11.792886,56.450745,5.788663,9.756598
202,0.6869455575942993,2.162372589111328,78.43238067626953,-0.5943822063538219,-4.372504966146267,-95.80779298771346,7.1506295,7.009748,22.808218,7.090312,-9.367063,-4.5541453,2.4751866,-5.4528675,-12.313861,7.4782968,-5.238598,6.3546653,7.5487723,-7.2676053,13.784828,-11.913484,20.741556,-46.034885,66.665405,1.5598732,2.168049,-8.621591,-85.268265,4.2006702,55.16866,-11.684256,56.326283,5.793556,9.868355
203,0.6908918619155884,2.1701407432556152,78.43154907226562,-0.5924509464816253,-4.382054934155245,-95.82674860211357,7.1636786,7.005424,22.826242,7.0857863,-9.36886,-4.552859,2.4784205,-5.4540544,-12.298098,7.4728456,-5.2333994,6.364947,7.520528,-7.2521324,13.804749,-11.906223,20.742601,-46.055077,66.63426,1.5810894,2.1668594,-8.604564,-85.30795,4.2204976,55.030643,-11.597902,56.116245,5.798555,10.013294
204,0.6948859691619873,2.1785058975219727,78.43000030517578,-0.5907502601877401,-4.3884275111737825,-95.84542025600396,7.1710453,7.002507,22.844109,7.0840116,-9.369968,-4.5507956,2.474884,-5.454987,-12.280987,7.4721174,-5.227846,6.37103,7.5007896,-7.244554,13.818426,-11.909149,20.745535,-46.076107,66.61677,1.5813111,2.1656322,-8.591645,-85.3596,4.2440705,54.8844,-11.497303,55.93765,5.8172407,10.140196
205,0.7010111212730408,2.186201810836792,78.42964172363281,-0.5905129163581426,-4.389982307097592,-95.8647444337456,7.1717715,7.0015187,22.862993,7.0832124,-9.368757,-4.5478706,2.4606762,-5.4550614,-12.260562,7.479511,-5.222338,6.3708396,7.48198,-7.2392445,13.821808,-11.914716,20.75023,-46.088154,66.60675,1.5505114,2.1651652,-8.587113,-85.41606,4.2719965,54.75277,-11.38871,55.78271,5.846384,10.240726
206,0.7023041844367981,2.197033643722534,78.42996215820312,-0.588838083941415,-4.388085339107615,-95.88268708252042,7.1675925,7.001745,22.880787,7.0833683,-9.366113,-4.5444603,2.4427392,-5.4541626,-12.24015,7.4861584,-5.2142873,6.3668036,7.459121,-7.232235,13.818004,-11.921409,20.753977,-46.08992,66.59945,1.4957589,2.1655095,-8.588144,-85.4658,4.2905536,54.65021,-11.289123,55.603394,5.882519,10.341974
207,0.7070600986480713,2.201848030090332,78.4310302734375,-0.5882791780980885,-4.385227741960014,-95.89870289990297,7.160098,7.002218,22.896694,7.0859904,-9.363482,-4.54043,2.42387,-5.453483,-12.2211275,7.4928727,-5.2056723,6.361884,7.437541,-7.2287636,13.812821,-11.933393,20.758673,-46.089294,66.596405,1.4352521,2.1654375,-8.587535,-85.51991,4.3105206,54.553493,-11.185722,55.44608,5.9195437,10.431124
208,0.7096768617630005,2.210716485977173,78.43115997314453,-0.586775940213722,-4.383581539286398,-95.9122874886639,7.153799,7.001451,22.910162,7.0870647,-9.359852,-4.5356464,2.40785,-5.4539056,-12.20515,7.49765,-5.1968055,6.359121,7.4106464,-7.2120886,13.809951,-11.941536,20.759642,-46.08386,66.58236,1.3851073,2.1629174,-8.579579,-85.5477,4.3140655,54.516937,-11.109001,55.344063,5.9167013,10.47401
209,0.7158879637718201,2.2189254760742188,78.43051147460938,-0.5858071778539582,-4.384599332193529,-95.92297340218148,7.148709,6.9992743,22.920927,7.089936,-9.356823,-4.529259,2.3941197,-5.456501,-12.192769,7.5055017,-5.190592,6.3597713,7.387625,-7.215502,13.816652,-11.968197,20.763317,-46.07785,66.58854,1.3492316,2.1555543,-8.555982,-85.60318,4.325286,54.440773,-11.024189,55.35236,5.9083343,10.481926
210,0.718501091003418,2.229374885559082,78.4301528930664,-0.5831186800116074,-4.386136108962682,-95.93131787594965,7.143112,6.9966774,22.929226,7.093082,-9.352967,-4.5215635,2.3829496,-5.4595814,-12.183304,7.5106516,-5.183374,6.3621006,7.359158,-7.2069573,13.818243,-11.985952,20.764532,-46.07291,66.583954,1.3090141,2.1457093,-8.523999,-85.623276,4.327546,54.42684,-10.964386,55.410637,5.862572,10.44237
211,0.7219755053520203,2.2358169555664062,78.43073272705078,-0.5813744588894333,-4.387755865587738,-95.93743861704061,7.136806,6.993139,22.935555,7.0960264,-9.348883,-4.514438,2.3742216,-5.4630523,-12.175971,7.5111074,-5.174054,6.3644314,7.335008,-7.1978526,13.82893,-12.015707,20.765608,-46.06289,66.5804,1.287248,2.1359262,-8.49214,-85.6644,4.3290915,54.41109,-10.889528,55.496796,5.8152204,10.394872
212,0.7240201234817505,2.24550724029541,78.43098449707031,-0.5785454153451621,-4.38785116921455,-95.94200833012324,7.129307,6.989682,22.939972,7.0966516,-9.343842,-4.509885,2.3616383,-5.466734,-12.169622,7.5163255,-5.1674743,6.365133,7.311449,-7.187744,13.839596,-12.049312,20.766634,-46.03945,66.57338,1.3017224,2.1338446,-8.471827,-85.70034,4.330172,54.38569,-10.817273,55.54533,5.7940702,10.3687525
213,0.7261641025543213,2.2551422119140625,78.43115234375,-0.5778047375347687,-4.385155500448813,-95.94536497413598,7.1202674,6.985586,22.943218,7.0930524,-9.337576,-4.509447,2.3454385,-5.469823,-12.163599,7.5229645,-5.1623974,6.363171,7.2935147,-7.170998,13.843931,-12.081788,20.76692,-46.009098,66.55838,1.3795037,2.1409862,-8.468101,-85.71868,4.3298306,54.36122,-10.747982,55.553535,5.801757,10.361041
214,0.7304812073707581,2.265261650085449,78.4316177368164,-0.5760297071535231,-4.3807449486733425,-95.9474107591593,7.108989,6.9816895,22.944756,7.0883946,-9.330872,-4.511886,2.3281965,-5.472426,-12.158492,7.527576,-5.1566057,6.3596067,7.277392,-7.151912,13.847936,-12.117537,20.766512,-45.965134,66.54012,1.5073241,2.1543756,-8.4746065,-85.732895,4.3280773,54.33339,-10.681181,55.549534,5.829259,10.361621
215,0.7314363718032837,2.2747504711151123,78.43135070800781,-0.5744674315181437,-4.376764452090885,-95.94684330728529,7.097375,6.977592,22.943752,7.083933,-9.324009,-4.5144167,2.3108034,-5.475579,-12.155916,7.5347,-5.1526427,6.355833,7.251925,-7.1368814,13.855452,-12.155629,20.765102,-45.893982,66.52366,1.6382521,2.171033,-8.483915,-85.74581,4.3237534,54.295773,-10.618812,55.517834,5.8697224,10.38379
216,0.7328928709030151,2.284956216812134,78.43113708496094,-0.5724976761754837,-4.374749743595397,-95.9424374494232,7.084964,6.9738474,22.93874,7.0829706,-9.317322,-4.514485,2.2991114,-5.4794297,-12.15796,7.5367155,-5.1467376,6.3533225,7.224651,-7.1209087,13.864061,-12.192892,20.762823,-45.81659,66.50296,1.7078321,2.1894946,-8.487406,-85.74824,4.317128,54.25669,-10.548483,55.432537,5.906172,10.4338
217,0.7344839572906494,2.2953553199768066,78.4310073852539,-0.5706624977996492,-4.375721549767804,-95.9340973304462,7.0725465,6.9704056,22.92985,7.0860744,-9.309974,-4.5107117,2.29073,-5.4851203,-12.164519,7.541998,-5.143468,6.352852,7.203001,-7.1014805,13.87579,-12.238193,20.760176,-45.750065,66.47853,1.6686136,2.216902,-8.486112,-85.7428,4.310344,54.214794,-10.455909,55.268944,5.9334,10.524328
218,0.7357682585716248,2.304039239883423,78.43046569824219,-0.5664506181425629,-4.37833370961636,-95.92219354922595,7.0597343,6.967043,22.917137,7.091629,-9.302165,-4.5046496,2.285047,-5.492046,-12.175118,7.5475054,-5.14087,6.353631,7.1909885,-7.073274,13.8874855,-12.287093,20.758474,-45.704304,66.44373,1.5513772,2.251628,-8.4825115,-85.7268,4.306597,54.182602,-10.34052,55.04008,5.9518347,10.641385
219,0.7350850701332092,2.3143601417541504,78.43010711669922,-0.5635254736608912,-4.381746201518688,-95.90752370290271,7.045656,6.964382,22.90165,7.099604,-9.295466,-4.4983773,2.2824597,-5.4987135,-12.188825,7.54992,-5.137229,6.354195,7.1537585,-7.066318,13.905144,-12.339005,20.75233,-45.593754,66.42931,1.4567566,2.2786787,-8.473899,-85.71693,4.294668,54.104572,-10.246051,54.80677,5.9954643,10.78538
220,0.7336029410362244,2.3281757831573486,78.42950439453125,-0.5611503429531387,-4.382901054350631,-95.89137325668122,7.031301,6.961123,22.884861,7.1034594,-9.288661,-4.4936986,2.2754743,-5.5054893,-12.203742,7.55817,-5.137023,6.353317,7.123632,-7.048183,13.916281,-12.384839,20.746132,-45.510246,66.40072,1.371348,2.286602,-8.453069,-85.6947,4.281582,54.044327,-10.129054,54.586056,6.033166,10.909852
221,0.735856294631958,2.336923122406006,78.42979431152344,-0.5588958614897461,-4.3830466187400345,-95.8720127556247,7.0156946,6.9577374,22.864365,7.1070676,-9.284679,-4.4913535,2.2702804,-5.511686,-12.222214,7.5628195,-5.136016,6.3503375,7.0896835,-7.0252337,13.921611,-12.42411,20.741386,-45.442604,66.36577,1.308911,2.2651746,-8.412935,-85.66225,4.2713175,53.98799,-9.995925,54.393887,6.085576,11.025489
222,0.7319598197937012,2.350956678390503,78.43002319335938,-0.5592178529627245,-4.382952796384825,-95.84949171489319,6.9998126,6.9541163,22.840818,7.1098356,-9.282162,-4.490314,2.265862,-5.518071,-12.243835,7.567982,-5.1362367,6.34608,7.0449705,-7.0072165,13.92592,-12.46111,20.735142,-45.361565,66.33483,1.2673632,2.223304,-8.358602,-85.62473,4.2570443,53.91598,-9.863837,54.216747,6.156552,11.1479435
223,0.7321586012840271,2.3596606254577637,78.42948150634766,-0.5597145196087497,-4.3799406003394274,-95.82710341708741,6.9810834,6.9512963,22.81749,7.11154,-9.27889,-4.4897637,2.2602654,-5.522763,-12.265616,7.568031,-5.133015,6.341346,7.006105,-6.9848385,13.92649,-12.495002,20.730091,-45.28967,66.29269,1.2304521,2.1758502,-8.303585,-85.58421,4.244495,53.850853,-9.708278,54.033974,6.2114635,11.249523
224,0.7320200800895691,2.3672244548797607,78.42906951904297,-0.5592655100654121,-4.37164933544472,-95.80779637868505,6.957057,6.949751,22.79824,7.11294,-9.273452,-4.4888606,2.2455084,-5.526175,-12.283579,7.5719013,-5.1298213,6.337156,6.971735,-6.96837,13.925742,-12.53468,20.724062,-45.209232,66.25127,1.2078711,2.1355486,-8.26173,-85.54843,4.226269,53.779625,-9.544055,53.840046,6.234379,11.315056
225,0.7304409742355347,2.377017021179199,78.42939758300781,-0.5591357623242952,-4.352300785462794,-95.79408052183241,6.9219685,6.95085,22.785416,7.1119514,-9.263505,-4.4888635,2.2205343,-5.5251226,-12.296063,7.5647016,-5.116407,6.3339167,6.9568505,-6.9491997,13.91834,-12.57843,20.719437,-45.140045,66.1947,1.192357,2.1029434,-8.236482,-85.521225,4.2095046,53.718605,-9.351597,53.638004,6.1959844,11.317065
226,0.7246992588043213,2.393174648284912,78.42877960205078,-0.5602081383595217,-4.325320967454092,-95.78358488725297,6.879133,6.953297,22.77675,7.109386,-9.251017,-4.4895945,2.1849928,-5.521884,-12.304828,7.55785,-5.10054,6.3311234,6.948504,-6.9365444,13.907096,-12.626194,20.714312,-45.061794,66.13652,1.198717,2.0707989,-8.220776,-85.49848,4.1868052,53.653168,-9.150678,53.43676,6.1233263,11.276425
227,0.721074640750885,2.4052088260650635,78.42941284179688,-0.559796147918939,-4.3008125793499605,-95.7727076246323,6.8377833,6.956483,22.768078,7.1102886,-9.239751,-4.4886193,2.1519501,-5.5188193,-12.31378,7.551872,-5.0855155,6.328067,6.936783,-6.9277945,13.898171,-12.6768465,20.708092,-44.977497,66.08252,1.2098147,2.0458117,-8.211928,-85.46511,4.150112,53.58416,-8.952934,53.211746,6.046754,11.229211
228,0.7191948890686035,2.412952184677124,78.43046569824219,-0.5598512651732691,-4.289076586316145,-95.75817935772481,6.807353,6.9596024,22.755606,7.117891,-9.232045,-4.4834895,2.1319847,-5.518631,-12.326254,7.553006,-5.0783205,6.3239985,6.918084,-6.9107127,13.8984165,-12.720171,20.703218,-44.899483,66.01872,1.2047287,2.03694,-8.206896,-85.42416,4.1174664,53.51601,-8.72395,52.93498,5.991194,11.21279
229,0.7172191143035889,2.4219207763671875,78.42967224121094,-0.5576606629175417,-4.296442050439999,-95.73750216634855,6.7936945,6.962019,22.737934,7.1343017,-9.228688,-4.470717,2.1307878,-5.5237856,-12.344709,7.5666084,-5.08393,6.3187346,6.8793015,-6.892281,13.91396,-12.757915,20.698349,-44.807846,65.95536,1.1811885,2.0481637,-8.208003,-85.36893,4.0769606,53.438538,-8.4873085,52.571735,5.96915,11.245785
230,0.712515115737915,2.432393789291382,78.43057250976562,-0.5556574200202216,-4.316195032949749,-95.7129788686966,6.7891445,6.9650593,22.716967,7.160596,-9.230154,-4.452612,2.1451197,-5.5311456,-12.36717,7.5810876,-5.094203,6.312633,6.829221,-6.8711324,13.93925,-12.790906,20.69434,-44.709724,65.887825,1.1452507,2.0749364,-8.215973,-85.303566,4.03246,53.357376,-8.237859,52.14333,5.961818,11.304376
231,0.7108244299888611,2.441620349884033,78.43029022216797,-0.5530294816432552,-4.339468457931052,-95.68816400337869,6.788871,6.967971,22.694866,7.1865563,-9.231923,-4.435228,2.1633124,-5.5384474,-12.38959,7.596423,-5.105299,6.305858,6.7771935,-6.8474307,13.966695,-12.820955,20.691513,-44.61784,65.81727,1.1143667,2.1091435,-8.225119,-85.234955,3.9927127,53.275867,-7.9611897,51.720184,5.966674,11.369305
232,0.7077224850654602,2.453991413116455,78.42879486083984,-0.5514733186712758,-4.357213848377498,-95.66626365076937,6.785169,6.970764,22.673569,7.208033,-9.232376,-4.4247055,2.1750445,-5.54369,-12.407935,7.611073,-5.1135483,6.298606,6.735945,-6.8160853,13.987226,-12.846328,20.689466,-44.54863,65.73919,1.1033531,2.1428704,-8.230229,-85.16727,3.9681852,53.20611,-7.636893,51.368164,5.9756646,11.417104
233,0.7036129236221313,2.4616031646728516,78.42959594726562,-0.5507868006132268,-4.368551380990609,-95.64805650144204,6.779002,6.972881,22.652899,7.2188153,-9.227854,-4.423473,2.1792405,-5.5458536,-12.420305,7.6247344,-5.117668,6.28973,6.6991158,-6.808829,14.004054,-12.881469,20.685938,-44.46585,65.69011,1.1740605,2.1813605,-8.232114,-85.08563,3.9116495,53.10191,-7.3460994,51.145317,6.0193677,11.452338
234,0.7008798122406006,2.470329523086548,78.42969512939453,-0.5513346673519526,-4.37706965974127,-95.63185240809875,6.7715864,6.9750037,22.6318,7.2269697,-9.223147,-4.4280286,2.1794744,-5.5464745,-12.428979,7.6387877,-5.11946,6.2795587,6.688178,-6.79942,14.014768,-12.926665,20.679836,-44.427593,65.648224,1.2655041,2.2275462,-8.232469,-84.97117,3.813072,53.008358,-7.0626745,50.992237,6.0690093,11.469019
235,0.6973891258239746,2.4814934730529785,78.42904663085938,-0.5509883711371686,-4.383702958364611,-95.61743534502682,6.7644043,6.976632,22.612091,7.230858,-9.216765,-4.4353824,2.1777732,-5.546475,-12.43665,7.6518955,-5.120523,6.2705197,6.6765137,-6.787068,14.022368,-12.968177,20.672535,-44.39275,65.60518,1.3528023,2.265266,-8.229773,-84.85342,3.7239654,52.919865,-6.74736,50.855606,6.1247797,11.490072
236,0.6958474516868591,2.491008996963501,78.42877960205078,-0.5520563341085585,-4.389262140484593,-95.60473892188439,6.7582564,6.977907,22.59521,7.232722,-9.210269,-4.4425883,2.1785064,-5.5457206,-12.446091,7.655545,-5.1172037,6.2649746,6.664842,-6.775751,14.027828,-13.009439,20.66266,-44.35396,65.56605,1.4035438,2.2794683,-8.2235775,-84.70678,3.6030173,52.840046,-6.4431524,50.687088,6.179034,11.531622
237,0.6960400342941284,2.498103380203247,78.43000030517578,-0.551190826915626,-4.3926262365409645,-95.59415924336201,6.750539,6.979598,22.58223,7.235849,-9.204868,-4.450296,2.1758232,-5.545843,-12.457858,7.659701,-5.115348,6.26519,6.643785,-6.7623625,14.031222,-13.042317,20.65404,-44.300873,65.52032,1.3983812,2.2580693,-8.211537,-84.54382,3.4749086,52.77371,-6.1287794,50.4772,6.2303324,11.597676
238,0.6942090392112732,2.5050833225250244,78.43017578125,-0.5506257393143387,-4.394000112250638,-95.5856309827698,6.7447257,6.9801044,22.572237,7.232521,-9.196853,-4.459529,2.173072,-5.545711,-12.470952,7.6576953,-5.1107297,6.2693725,6.6171703,-6.748463,14.032567,-13.068348,20.647781,-44.239834,65.46881,1.3595289,2.2119453,-8.195032,-84.36598,3.339524,52.715748,-5.805076,50.252018,6.283597,11.679171
239,0.690271258354187,2.51304030418396,78.42932891845703,-0.5500494052830396,-4.39527554037993,-95.57811470829535,6.7388916,6.9810567,22.563501,7.230461,-9.190332,-4.4681997,2.1720634,-5.5448427,-12.483929,7.650609,-5.1034045,6.2738433,6.5883303,-6.7339525,14.032987,-13.088377,20.643557,-44.17308,65.41427,1.3135378,2.1601985,-8.17844,-84.176445,3.196051,52.662655,-5.465804,50.00801,6.336931,11.77585
240,0.6819818615913391,2.5250260829925537,78.42815399169922,-0.5502626007636096,-4.398211594013337,-95.57084438786742,6.7322006,6.9830375,22.55405,7.2330384,-9.18593,-4.4741817,2.1687589,-5.544597,-12.494696,7.6534433,-5.101539,6.2751083,6.560992,-6.719458,14.033175,-13.099982,20.639622,-44.09724,65.35721,1.2937605,2.1220849,-8.166019,-83.97754,3.0429263,52.611435,-5.1050572,49.74229,6.388846,11.886946
241,0.6800523996353149,2.5344910621643066,78.42697143554688,-0.5494978874490409,-4.403297795683349,-95.56308733539495,6.726116,6.9857454,22.54318,7.239645,-9.184415,-4.4755783,2.1671379,-5.5443077,-12.503837,7.6589622,-5.1008105,6.2717657,6.537021,-6.703625,14.033542,-13.1044035,20.633976,-44.010086,65.2994,1.3111327,2.1005673,-8.161593,-83.77141,2.8785949,52.5573,-4.715824,49.48968,6.4411097,12.02845
242,0.6768757700920105,2.5405991077423096,78.42689514160156,-0.5505716952371777,-4.409635971422873,-95.55551751619012,6.71951,6.989416,22.53169,7.2495522,-9.184632,-4.474038,2.1653287,-5.544183,-12.511677,7.6686926,-5.1024637,6.2658463,6.514956,-6.686812,14.033241,-13.104655,20.62612,-43.915714,65.243126,1.3466371,2.085844,-8.161737,-83.55478,2.7022488,52.503822,-4.304542,49.240078,6.4933524,12.195227
