unveil-humanoid-operators/unveil-humanoid-operators.github.io/feature-analysis-animation/data/feature_matrix_instances/weight_root_translate_peak_vel_walking_A031_walk_sideway_090_start_004__A031.csv
Frame,root_translateX,root_translateY,root_translateZ,root_rotateX,root_rotateY,root_rotateZ,left_hip_pitch_joint_dof,left_hip_roll_joint_dof,left_hip_yaw_joint_dof,left_knee_joint_dof,left_ankle_pitch_joint_dof,left_ankle_roll_joint_dof,right_hip_pitch_joint_dof,right_hip_roll_joint_dof,right_hip_yaw_joint_dof,right_knee_joint_dof,right_ankle_pitch_joint_dof,right_ankle_roll_joint_dof,waist_yaw_joint_dof,waist_roll_joint_dof,waist_pitch_joint_dof,left_shoulder_pitch_joint_dof,left_shoulder_roll_joint_dof,left_shoulder_yaw_joint_dof,left_elbow_joint_dof,left_wrist_roll_joint_dof,left_wrist_pitch_joint_dof,left_wrist_yaw_joint_dof,right_shoulder_pitch_joint_dof,right_shoulder_roll_joint_dof,right_shoulder_yaw_joint_dof,right_elbow_joint_dof,right_wrist_roll_joint_dof,right_wrist_pitch_joint_dof,right_wrist_yaw_joint_dof
0,-1.9882416725158691,0.3075985312461853,78.36640167236328,-1.1647370609862446,2.2898949480918613,-2.6095502560794706,2.7125628,8.053146,17.18772,8.375683,-12.272035,-6.9137096,1.3984462,-1.806487,-17.8154,6.9290137,-10.18009,2.4387786,0.0709037,1.8196114,3.3694432,-6.282005,10.62898,-50.016445,71.27773,-4.0194077,6.972153,3.901519,-5.5464063,-10.15398,48.105045,67.93242,2.2614148,-0.4461768,-6.1882033
1,-2.010324239730835,0.34111565351486206,78.37396240234375,-1.1339001121975736,2.4027683532529815,-2.6567591106514956,2.5088234,8.001014,17.224054,8.501834,-12.26694,-6.8644357,1.2306927,-1.8788925,-17.765163,6.9271555,-10.113024,2.4701736,0.12620257,1.8466687,3.3210416,-6.303058,10.626567,-49.989326,71.24165,-4.015839,7.014712,3.9823594,-5.625917,-10.153439,48.09901,67.98983,2.234022,-0.44558698,-6.1623015
2,-2.0378243923187256,0.37878403067588806,78.38307189941406,-1.1033024256858344,2.510033799197376,-2.7047605532085237,2.3153143,7.9493594,17.262487,8.622342,-12.260341,-6.816308,1.0699613,-1.9500421,-17.714361,6.9251914,-10.047293,2.5014377,0.15881969,1.8812592,3.2930558,-6.3304524,10.613978,-49.911285,71.20793,-3.9866848,7.056162,4.060706,-5.731366,-10.158438,48.100243,68.05282,2.2007575,-0.44439352,-6.127736
3,-2.06408953666687,0.428067147731781,78.39610290527344,-1.0739773145794007,2.627667106108941,-2.750877561510168,2.1008213,7.8987675,17.296623,8.756508,-12.257984,-6.766174,0.8957688,-2.0224087,-17.665182,6.9235296,-9.978287,2.5349388,0.18512122,1.9235665,3.254108,-6.3594637,10.589899,-49.828495,71.18452,-3.957971,7.095655,4.1387224,-5.8306775,-10.174256,48.115623,68.10755,2.1703746,-0.44283766,-6.0970845
4,-2.1040217876434326,0.4868587851524353,78.40814971923828,-1.0477951699894088,2.770922298929355,-2.791604790982081,1.8323339,7.8506813,17.31894,8.9293165,-12.269321,-6.7109556,0.68807197,-2.097867,-17.620611,6.919999,-9.898407,2.5730517,0.20418665,1.9896128,3.2004762,-6.4086084,10.527246,-49.72826,71.192825,-3.918942,7.129594,4.2141123,-5.923561,-10.224334,48.136227,68.13784,2.131101,-0.44099718,-6.0678024
5,-2.142169952392578,0.5455352663993835,78.42263793945312,-1.023764287661444,2.9434878059806517,-2.827253537950065,1.5087997,7.803606,17.329643,9.131982,-12.287675,-6.654325,0.44158444,-2.1771731,-17.580647,6.9165297,-9.809987,2.6161783,0.2312163,2.0682657,3.1281884,-6.467304,10.457187,-49.63062,71.203735,-3.8690429,7.159598,4.277555,-6.0160327,-10.287585,48.1443,68.16072,2.0699747,-0.44214505,-6.042176
6,-2.192490816116333,0.6107298731803894,78.43650817871094,-1.0014002796869346,3.1371508941716,-2.859140603729029,1.1462438,7.7569556,17.331963,9.355738,-12.3113985,-6.596308,0.16764466,-2.2591016,-17.543798,6.9119425,-9.714414,2.662712,0.25453147,2.1573098,3.0439458,-6.531546,10.382555,-49.526176,71.21579,-3.8126247,7.1864157,4.3322835,-6.1124516,-10.3601,48.152733,68.18018,1.9937915,-0.4451233,-6.0190454
7,-2.2435226440429688,0.6861082911491394,78.451904296875,-0.9828942122067912,3.349177997169334,-2.886049053220362,0.7343534,7.714695,17.323591,9.628402,-12.356388,-6.528827,-0.13143,-2.3431304,-17.51068,6.906742,-9.608616,2.712476,0.27551466,2.2635436,2.9541025,-6.606005,10.296926,-49.41402,71.23211,-3.7577283,7.212796,4.393199,-6.2110276,-10.448013,48.152714,68.19296,1.9151996,-0.44873923,-5.996218
8,-2.295247793197632,0.7646452188491821,78.46672058105469,-0.9705294555137093,3.5769907419383467,-2.9065948628791913,0.2632783,7.6808634,17.302038,9.976101,-12.437299,-6.4435024,-0.45304018,-2.4288666,-17.482021,6.900576,-9.488717,2.765108,0.29668587,2.390654,2.8651037,-6.694749,10.203724,-49.303875,71.2495,-3.7223935,7.241974,4.4746466,-6.3146973,-10.549621,48.133068,68.2045,1.8456805,-0.4524831,-5.971792
9,-2.3541812896728516,0.8539214730262756,78.4803695678711,-0.9651269924628786,3.8311046969810456,-2.9177491687663553,-0.27823582,7.6556587,17.274048,10.399208,-12.557222,-6.334716,-0.80871594,-2.5156744,-17.45869,6.893487,-9.350403,2.8215253,0.31410384,2.5411804,2.7673922,-6.800484,10.101975,-49.201687,71.27131,-3.7200747,7.276866,4.577009,-6.4225125,-10.66587,48.08803,68.213455,1.7815627,-0.45555225,-5.9423003
10,-2.4233670234680176,0.9595369696617126,78.49356079101562,-0.9653750659806822,4.108888515648856,-2.9210615332962946,-0.8816023,7.636881,17.23815,10.885385,-12.708443,-6.20754,-1.196242,-2.6042337,-17.44002,6.8861513,-9.196708,2.8812582,0.329364,2.711964,2.6610742,-6.9181495,9.990874,-49.09727,71.29626,-3.7325497,7.315266,4.693697,-6.533793,-10.797495,48.02274,68.21905,1.7182132,-0.4584968,-5.9096794
11,-2.503279209136963,1.0727322101593018,78.5027847290039,-0.9671997572870048,4.388537898359436,-2.922716873974772,-1.5300763,7.6223497,17.180376,11.450895,-12.8951845,-6.06947,-1.589971,-2.6973033,-17.423273,6.8779206,-9.036186,2.9420044,0.3513505,2.897825,2.5688813,-7.051061,9.871751,-48.992725,71.321396,-3.7517877,7.3516755,4.8292084,-6.6474357,-10.945146,47.946827,68.21695,1.6690465,-0.46226808,-5.8797836
12,-2.576054573059082,1.1821539402008057,78.51026916503906,-0.9677386956371867,4.648297623963507,-2.9286940319772965,-2.2098432,7.61179,17.086231,12.117879,-13.124802,-5.9281187,-1.9678351,-2.7982588,-17.405964,6.872964,-8.8788,3.001667,0.38911346,3.0936859,2.5127735,-7.19929,9.747258,-48.885773,71.34104,-3.764663,7.3809566,4.987738,-6.762815,-11.110289,47.86837,68.20482,1.6451043,-0.46782264,-5.8584995
13,-2.65879487991333,1.2971254587173462,78.51011657714844,-0.9768867167989465,4.887787568353955,-2.9394278706238604,-2.9377315,7.6230574,16.95922,12.926798,-13.426332,-5.7809525,-2.350082,-2.9025776,-17.392353,6.920065,-8.754312,3.0545669,0.4439241,3.3091304,2.4953244,-7.3649483,9.617624,-48.778393,71.36074,-3.7562883,7.410572,5.1664696,-6.8775635,-11.293909,47.780727,68.17413,1.6578095,-0.47410756,-5.8502784
14,-2.7468008995056152,1.426867961883545,78.50836944580078,-0.9926550496175294,5.116904725918551,-2.952263465869678,-3.701771,7.644792,16.805965,13.826016,-13.775223,-5.623771,-2.7245498,-3.0057957,-17.382479,6.9654164,-8.628867,3.1041036,0.5111848,3.5427146,2.505443,-7.548352,9.4831505,-48.673744,71.3812,-3.7404153,7.4403157,5.364196,-6.9934177,-11.4968405,47.68409,68.128685,1.69986,-0.4809773,-5.8507915
15,-2.8454675674438477,1.5669293403625488,78.50421905517578,-1.006977044866347,5.330273034374555,-2.967238390220165,-4.486811,7.661993,16.606756,14.788525,-14.134084,-5.4667153,-3.086559,-3.118014,-17.369675,7.0118103,-8.49937,3.1596775,0.59013736,3.7875018,2.5456102,-7.7385926,9.346953,-48.555042,71.38157,-3.729462,7.4531574,5.5879703,-7.111233,-11.719084,47.592262,68.076324,1.7513349,-0.49057552,-5.8527975
16,-2.947715997695923,1.7211841344833374,78.49942016601562,-1.0104994998951942,5.522630234950327,-2.9843821619937008,-5.273653,7.656539,16.343428,15.779049,-14.463651,-5.320555,-3.427628,-3.249253,-17.347107,7.0548244,-8.364008,3.230482,0.6781915,4.0353336,2.618266,-7.927315,9.215708,-48.41608,71.3363,-3.7485301,7.436817,5.8450003,-7.2362485,-11.960925,47.525143,68.0304,1.79632,-0.50532395,-5.849223
17,-3.046128273010254,1.8804315328598022,78.49624633789062,-0.9991380759473578,5.691519935303377,-3.0031530841731264,-6.0823054,7.6125193,15.980847,16.835604,-14.761124,-5.1683617,-3.7508335,-3.4073954,-17.313448,7.099973,-8.221364,3.3240767,0.7729184,4.288838,2.7354376,-8.120836,9.094688,-48.254475,71.23526,-3.8100445,7.391183,6.1490574,-7.3720403,-12.222931,47.472385,67.98681,1.827032,-0.527667,-5.8430104
18,-3.16119647026062,2.0479655265808105,78.48870849609375,-0.9785551196630834,5.840447178630503,-3.0236974916758452,-6.9106917,7.539408,15.540621,17.951756,-15.04252,-5.012007,-4.279612,-3.655676,-17.257479,7.6359744,-8.331124,3.4357924,0.8744173,4.549971,2.8928525,-8.318044,8.985968,-48.07297,71.08812,-3.8988857,7.3201995,6.4915457,-7.518134,-12.505927,47.432644,67.94222,1.8558046,-0.55591005,-5.8362007
19,-3.268683671951294,2.220721483230591,78.48421478271484,-0.9538376091463601,5.972176714808496,-3.0472851895655033,-7.717259,7.4614563,15.088859,19.050095,-15.299406,-4.8908615,-4.795169,-3.9135513,-17.192024,8.18187,-8.442586,3.5505574,0.9849115,4.8104634,3.0691707,-8.495799,8.892538,-47.86902,70.89119,-3.9941795,7.2201185,6.8462257,-7.6630716,-12.807321,47.427856,67.899414,1.8857607,-0.5855455,-5.8202157
20,-3.3726751804351807,2.3967278003692627,78.48197174072266,-0.9300821866971037,6.089885173530421,-3.0752438463508773,-8.457575,7.4042764,14.691021,20.046116,-15.524037,-4.844055,-5.269888,-4.162525,-17.119055,8.681275,-8.52856,3.6555042,1.1050088,5.0617695,3.243732,-8.632951,8.818456,-47.642433,70.64322,-4.0795984,7.085913,7.1867633,-7.799003,-13.121654,47.48512,67.86497,1.9245288,-0.61237806,-5.7868004
21,-3.4657669067382812,2.56262469291687,78.47634887695312,-0.9105810075221563,6.188581821128633,-3.1064244728676007,-9.132917,7.3605037,14.314319,20.944225,-15.702829,-4.90769,-5.7012672,-4.399005,-17.039047,9.141659,-8.590787,3.7422206,1.2347558,5.3072596,3.4205089,-8.728763,8.769104,-47.395657,70.33713,-4.183279,6.8908777,7.5227103,-7.929547,-13.445662,47.61386,67.84614,1.971899,-0.6382673,-5.7363095
22,-3.5660367012023926,2.7512130737304688,78.4710922241211,-0.8910120441949714,6.268875973724878,-3.1406961785539127,-9.763417,7.320821,13.940938,21.781857,-15.844995,-5.0532894,-6.097635,-4.631562,-16.951242,9.57305,-8.633751,3.818636,1.3715171,5.547713,3.6080558,-8.7894535,8.74744,-47.12603,69.96897,-4.3022447,6.646426,7.861817,-8.060872,-13.7775,47.80136,67.84177,2.024917,-0.6649051,-5.672625
23,-3.661363124847412,2.93747878074646,78.46739959716797,-0.8651170733447796,6.341033792320458,-3.180823122488461,-10.334959,7.31324,13.656894,22.529276,-15.979447,-5.2218237,-6.467564,-4.8667417,-16.854488,9.9696665,-8.660324,3.897208,1.5119499,5.7702165,3.79132,-8.802149,8.752249,-46.822514,69.54258,-4.37092,6.405643,8.175512,-8.190739,-14.113733,48.03964,67.853096,2.0833504,-0.68782204,-5.5934677
24,-3.7402656078338623,3.111952781677246,78.46697998046875,-0.827341082912617,6.4156385973335235,-3.229580161526505,-10.832164,7.367682,13.547005,23.153774,-16.13343,-5.3528366,-6.8158712,-5.108809,-16.748047,10.318078,-8.669296,3.9909112,1.6525114,5.962803,3.954705,-8.755091,8.7792845,-46.473244,69.06519,-4.3235264,6.2222595,8.436587,-8.317096,-14.449355,48.319702,67.882675,2.1455235,-0.7025922,-5.49649
25,-3.8144900798797607,3.2895028591156006,78.46819305419922,-0.7760980436382993,6.49248685226909,-3.2833850157010347,-11.243592,7.490603,13.638655,23.635681,-16.326225,-5.441749,-7.135248,-5.358779,-16.636053,10.60931,-8.659749,4.1042438,1.7928978,6.123123,4.094578,-8.6360655,8.825452,-46.059273,68.51898,-4.0818453,6.1156344,8.643243,-8.443395,-14.781506,48.659794,67.94226,2.2263737,-0.7142446,-5.3762746
26,-3.8814735412597656,3.4725372791290283,78.47247314453125,-0.7150658892970532,6.566957665301077,-3.3421343711497618,-11.578248,7.669723,13.883626,23.993595,-16.537748,-5.5159974,-7.4249606,-5.613616,-16.517664,10.851021,-8.631967,4.230687,1.9336303,6.2583637,4.2188244,-8.454524,8.890089,-45.588177,67.908936,-3.6995509,6.05645,8.809198,-8.573228,-15.107797,49.060062,68.03151,2.3229327,-0.7231276,-5.2360973
27,-3.9431352615356445,3.6656486988067627,78.47814178466797,-0.6457718299204348,6.642950140489685,-3.413685496806552,-11.855798,7.9085093,14.253431,24.262259,-16.740864,-5.563217,-7.698986,-5.872188,-16.384611,11.054367,-8.586703,4.3673544,2.0725212,6.36847,4.328846,-8.233326,8.971122,-45.09102,67.27962,-3.313288,6.025509,8.930227,-8.706146,-15.425384,49.47979,68.14271,2.3997507,-0.7184879,-5.0871854
28,-3.9997403621673584,3.8591763973236084,78.48776245117188,-0.5700727024244748,6.724249061872561,-3.5059441109059835,-12.094858,8.210192,14.719613,24.473362,-16.906992,-5.570965,-7.970419,-6.1325083,-16.228642,11.22854,-8.5241375,4.511214,2.2111907,6.453768,4.425567,-7.996119,9.0643215,-44.599922,66.68105,-3.0572429,5.9994435,9.00206,-8.839891,-15.730781,49.87816,68.26524,2.425494,-0.68986034,-4.9405737
29,-4.0546088218688965,4.055616855621338,78.49658966064453,-0.4844325667186596,6.815357730637462,-3.627868727764568,-12.285849,8.582701,15.318278,24.608503,-17.032965,-5.531076,-8.249642,-6.397745,-16.038668,11.376469,-8.441113,4.660762,2.3622563,6.5097065,4.503469,-7.7418876,9.165394,-44.108948,66.11,-2.9722383,5.984144,9.002966,-8.974108,-16.02228,50.255737,68.40501,2.3751264,-0.62894857,-4.7869186
30,-4.105159282684326,4.255667686462402,78.50715637207031,-0.38945894145835214,6.9132144474680155,-3.7729135736593062,-12.423413,9.022174,16.051563,24.665085,-17.132908,-5.4533587,-8.528787,-6.66866,-15.822177,11.497668,-8.341904,4.8186193,2.5226924,6.53728,4.5632157,-7.463841,9.271482,-43.6056,65.555145,-2.9839156,5.983982,8.941988,-9.112052,-16.299864,50.630062,68.57003,2.2719111,-0.5439239,-4.6244655
31,-4.144903182983398,4.461116313934326,78.51679229736328,-0.2933117379862818,7.010414681267032,-3.9253914466776236,-12.528187,9.51197,16.83685,24.68737,-17.205387,-5.349457,-8.786191,-6.9359355,-15.597896,11.576303,-8.225105,4.9863033,2.671879,6.547021,4.6127405,-7.177148,9.381899,-43.122166,65.04017,-3.0616696,5.98773,8.862232,-9.247084,-16.560932,50.97419,68.746864,2.1465826,-0.44826445,-4.4759345
32,-4.177796363830566,4.66067361831665,78.5235824584961,-0.20493230899870654,7.099623365579508,-4.06986288102124,-12.617688,10.035926,17.59295,24.711197,-17.24837,-5.2314763,-9.005909,-7.1922407,-15.384964,11.609976,-8.096689,5.165473,2.7910645,6.548333,4.6593823,-6.8995423,9.496814,-42.69501,64.59453,-3.1776276,5.9804826,8.806734,-9.373598,-16.802689,51.259064,68.92551,2.0296407,-0.35575128,-4.364176
33,-4.207584381103516,4.869850158691406,78.5349349975586,-0.12376649185469239,7.176810814180097,-4.20973928983123,-12.685051,10.606023,18.340221,24.740606,-17.261894,-5.0790877,-9.178326,-7.4353237,-15.179758,11.586727,-7.9521556,5.359408,2.882973,6.5405016,4.7048025,-6.6337233,9.616059,-42.34312,64.2277,-3.344292,5.96896,8.779709,-9.49319,-17.022861,51.493088,69.12014,1.9102551,-0.2675945,-4.294478
34,-4.224536418914795,5.078673839569092,78.54324340820312,-0.04668261567232742,7.246748976356319,-4.350808387340268,-12.724121,11.225433,19.108751,24.758755,-17.248466,-4.894048,-9.315117,-7.6694508,-14.975537,11.514437,-7.791828,5.5659804,2.9567726,6.519513,4.743913,-6.370296,9.738772,-42.04457,63.925533,-3.568134,5.957145,8.760872,-9.606597,-17.22049,51.682426,69.33389,1.7761543,-0.17739388,-4.255137
35,-4.244903564453125,5.2893476486206055,78.54742431640625,0.023098691675024954,7.314221588626452,-4.480999840299813,-12.760343,11.86696,19.829794,24.778858,-17.20771,-4.7203183,-9.425938,-7.89664,-14.78704,11.4085655,-7.6232677,5.7785654,3.0028563,6.48887,4.7742815,-6.113007,9.865093,-41.78089,63.68373,-3.8199427,5.926487,8.756649,-9.70881,-17.395947,51.799454,69.54161,1.6606504,-0.08727382,-4.243307
36,-4.2591657638549805,5.499786853790283,78.54706573486328,0.08233795823040788,7.384014224563641,-4.588409525611243,-12.820048,12.504064,20.433075,24.812035,-17.137222,-4.601433,-9.521736,-8.118845,-14.629122,11.28787,-7.4552364,5.9906197,3.0132153,6.4522767,4.7933893,-5.8638983,9.995337,-41.532433,63.496277,-4.0674014,5.8584704,8.773135,-9.791568,-17.550877,51.812107,69.71487,1.593869,0.0009231368,-4.2563086
37,-4.26846981048584,5.722566604614258,78.54556274414062,0.12903358558649747,7.461563398484995,-4.668356677332375,-12.918971,13.140428,20.90692,24.864016,-17.027328,-4.5409365,-9.603685,-8.333424,-14.510344,11.142625,-7.283272,6.2000833,2.9813426,6.410048,4.7980595,-5.624383,10.130364,-41.30107,63.372078,-4.3034935,5.74069,8.821708,-9.8555155,-17.686142,51.716373,69.84658,1.6046138,0.09311923,-4.3028936
38,-4.272882461547852,5.9394402503967285,78.53874969482422,0.16495227661031084,7.542626138141773,-4.727891772873281,-13.040708,13.786809,21.28451,24.92423,-16.87932,-4.519249,-9.666073,-8.540033,-14.421799,10.967461,-7.1047287,6.4103646,2.913585,6.360702,4.7901044,-5.3927646,10.270508,-41.09648,63.31049,-4.545803,5.5852227,8.89544,-9.901485,-17.802322,51.52556,69.95034,1.6679133,0.1882664,-4.3814507
39,-4.27568244934082,6.163919448852539,78.52941131591797,0.19242090374954898,7.617965857075714,-4.7724463106768535,-13.168169,14.429446,21.562084,24.98708,-16.71139,-4.5402822,-9.710088,-8.743999,-14.351635,10.786275,-6.929877,6.6231623,2.8222852,6.3064957,4.7754292,-5.1672425,10.415008,-40.910202,63.290817,-4.797059,5.41024,8.9732275,-9.92232,-17.90098,51.23988,70.02588,1.742376,0.27384168,-4.47356
40,-4.271967887878418,6.400259494781494,78.52017974853516,0.21352732623041196,7.678025223321026,-4.807532276853153,-13.282918,15.05399,21.7364,25.04446,-16.540596,-4.6096716,-9.737717,-8.950757,-14.2876625,10.62378,-6.769732,6.840069,2.7203887,6.2495956,4.7598825,-4.946623,10.562401,-40.73434,63.293503,-5.0605054,5.234027,9.034102,-9.914542,-17.985168,50.868366,70.074875,1.7959397,0.33745077,-4.5605865
41,-4.262424945831299,6.638421058654785,78.50855255126953,0.2270431783467883,7.718143999971584,-4.834742824056118,-13.382377,15.663906,21.80211,25.103733,-16.383492,-4.7123027,-9.736899,-9.155694,-14.229399,10.46648,-6.6182027,7.05896,2.6077845,6.1914563,4.7457175,-4.735488,10.7126045,-40.598156,63.33103,-5.3657627,5.0481668,9.104628,-9.8705845,-18.055199,50.38733,70.09172,1.7870842,0.39624777,-4.6432734
42,-4.2418060302734375,6.879706859588623,78.49381256103516,0.23224146533593512,7.743945517338061,-4.851288536131207,-13.476129,16.263784,21.76159,25.164051,-16.226345,-4.851544,-9.710394,-9.357613,-14.182732,10.307343,-6.472202,7.2798057,2.481404,6.130908,4.7296944,-4.534324,10.865412,-40.497902,63.40938,-5.7011523,4.8470244,9.185096,-9.794266,-18.111652,49.80424,70.07596,1.7503742,0.45015144,-4.7291684
43,-4.222341537475586,7.132122039794922,78.47393798828125,0.23261482804541245,7.7618135738166245,-4.855841812118272,-13.563174,16.839546,21.624084,25.203445,-16.04056,-5.057778,-9.683659,-9.567096,-14.144945,10.1826935,-6.3475657,7.5075865,2.3441157,6.067136,4.7091346,-4.3353877,11.018931,-40.373356,63.49906,-6.011358,4.653909,9.215565,-9.690106,-18.158918,49.153095,70.03126,1.7385898,0.46134531,-4.810003
44,-4.203919410705566,7.386594772338867,78.44954681396484,0.23155554619748486,7.777928923031688,-4.847217582591615,-13.644008,17.377455,21.398489,25.202684,-15.799072,-5.361203,-9.682364,-9.795004,-14.113247,10.128703,-6.2598414,7.7475653,2.196632,6.0002613,4.6823263,-4.1308427,11.170449,-40.163464,63.57086,-6.2429657,4.492311,9.136766,-9.563406,-18.20318,48.473244,69.95776,1.8083193,0.3921915,-4.877397
45,-4.178976058959961,7.65286922454834,78.42098236083984,0.22409606500963247,7.792407913983264,-4.821234970214964,-13.722548,17.890177,21.090708,25.170708,-15.515718,-5.7568808,-9.698272,-10.03553,-14.095481,10.134753,-6.207235,8.003057,2.0268915,5.935866,4.6478148,-3.923482,11.318112,-39.899452,63.635086,-6.451132,4.356532,8.9581175,-9.413404,-18.248682,47.7578,69.84891,1.9756833,0.22228886,-4.934208
46,-4.155263900756836,7.9291582107543945,78.38516235351562,0.2103853811106482,7.802560589636716,-4.779917312740346,-13.797999,18.378178,20.694113,25.111572,-15.19794,-6.2329955,-9.722697,-10.285787,-14.090495,10.187188,-6.1821423,8.270769,1.8386034,5.873691,4.6076503,-3.7166681,11.461012,-39.596897,63.702194,-6.640042,4.2386465,8.703332,-9.234015,-18.296635,46.991505,69.697716,2.210925,-0.02434687,-4.981874
47,-4.120218753814697,8.213379859924316,78.34835052490234,0.20183441978231265,7.8101324676072466,-4.730994038263613,-13.863086,18.809149,20.19746,24.999065,-14.810715,-6.8101716,-9.78189,-10.561357,-14.080784,10.32436,-6.197697,8.545375,1.653227,5.8034935,4.565174,-3.5032458,11.598254,-39.16732,63.743843,-6.681009,4.158063,8.334673,-9.030383,-18.349781,46.210125,69.51201,2.5067067,-0.3189059,-5.00987
48,-4.093963623046875,8.50492000579834,78.30314636230469,0.20948520183020344,7.817271274654161,-4.682192036560557,-13.9089,19.150642,19.589535,24.80701,-14.320328,-7.509464,-9.901425,-10.877715,-14.049741,10.582048,-6.265039,8.822667,1.486705,5.7150426,4.5243335,-3.2703862,11.729397,-38.512985,63.727184,-6.4400268,4.1322165,7.813776,-8.812863,-18.41118,45.458607,69.302,2.8603399,-0.6324449,-5.00764
49,-4.073845386505127,8.815942764282227,78.2545394897461,0.23199678745733984,7.828743789854484,-4.633607096597891,-13.924412,19.398777,18.866,24.502913,-13.678153,-8.394209,-10.08499,-11.232368,-13.999946,10.954917,-6.383413,9.10259,1.3379169,5.611406,4.480607,-3.0067487,11.854395,-37.575844,63.63805,-5.8047557,4.160274,7.066904,-8.581459,-18.482014,44.74139,69.06434,3.298485,-0.9804893,-4.9613657
50,-4.0424933433532715,9.121513366699219,78.20174407958984,0.2652035165295949,7.842288708338862,-4.581574770046975,-13.912854,19.567635,18.030203,24.107084,-12.920811,-9.43565,-10.318638,-11.619133,-13.937974,11.425591,-6.5465274,9.38734,1.1943995,5.495527,4.4348793,-2.7166936,11.973789,-36.410946,63.492,-4.868269,4.2226133,6.133803,-8.336604,-18.562315,44.046856,68.79624,3.81915,-1.3700871,-4.8782306
51,-4.021238327026367,9.438273429870605,78.1439208984375,0.31703673913085917,7.848556674821287,-4.528231731027806,-13.884564,19.651657,17.084496,23.673822,-12.14418,-10.517148,-10.607261,-12.049894,-13.849972,12.020882,-6.761368,9.67523,1.0579793,5.357332,4.399417,-2.4129026,12.087654,-35.093773,63.300064,-3.8062942,4.310861,5.14591,-8.079432,-18.651062,43.382164,68.49854,4.366552,-1.7584879,-4.7803206
52,-4.00103759765625,9.769482612609863,78.07634735107422,0.3961557646005524,7.838514964523458,-4.475666507608208,-13.848421,19.644928,16.03621,23.255478,-11.441401,-11.521431,-10.955408,-12.537122,-13.721237,12.767077,-7.0331974,9.964587,0.93050766,5.185432,4.386238,-2.110752,12.195592,-33.700504,63.075504,-2.796573,4.4263597,4.235177,-7.8145156,-18.74705,42.759037,68.17654,4.8882933,-2.104007,-4.691352
53,-3.9812569618225098,10.117120742797852,78.00212860107422,0.5023637128112362,7.813389939856772,-4.4254325199304105,-13.795836,19.543724,14.879995,22.839577,-10.821547,-12.459016,-11.363519,-13.08087,-13.548168,13.658558,-7.3637185,10.252776,0.81597394,4.976937,4.395883,-1.7951401,12.291712,-32.165657,62.7951,-1.7855362,4.591463,3.4033947,-7.540298,-18.85066,42.170055,67.82284,5.393936,-2.3961704,-4.6080046
54,-3.9572482109069824,10.463245391845703,77.92668914794922,0.6341428423721415,7.776691164867417,-4.3758454999830985,-13.718132,19.351604,13.61937,22.405613,-10.244774,-13.379531,-11.831689,-13.677406,-13.335733,14.687222,-7.7487364,10.542094,0.71248585,4.7349515,4.4227033,-1.4684473,12.372852,-30.476938,62.46496,-0.71060246,4.7969127,2.58841,-7.2560697,-18.961903,41.613316,67.43807,5.9047937,-2.6568522,-4.521423
55,-3.9363350868225098,10.813316345214844,77.83972930908203,0.7988233719279385,7.721941025108272,-4.324043564627729,-13.625363,19.072865,12.278768,21.995955,-9.726039,-14.2232,-12.34298,-14.329545,-13.084727,15.830817,-8.17298,10.837729,0.6152583,4.45575,4.4694366,-1.1733776,12.44596,-28.792892,62.140587,0.2626882,5.009751,1.8288019,-6.9642177,-19.078295,41.099224,67.03892,6.37943,-2.8941016,-4.4490113
56,-3.920877456665039,11.190375328063965,77.74871063232422,1.0040974167319798,7.642417063536031,-4.267331549767259,-13.528625,18.71,10.882157,21.651243,-9.274313,-14.933212,-12.882028,-15.041288,-12.796509,17.068913,-8.621657,11.145027,0.52441305,4.134333,4.537795,-0.95065665,12.525917,-27.276644,61.873657,0.9677372,5.2033477,1.1667289,-6.6664557,-19.197554,40.631306,66.6447,6.772568,-3.1163225,-4.4086194
57,-3.9108779430389404,11.581774711608887,77.64599609375,1.3484844368522853,7.553867593559668,-4.176646803638039,-13.416172,18.09622,9.477076,21.301346,-8.859827,-15.000033,-13.543368,-15.954947,-12.429556,18.542206,-9.155629,11.486454,0.4237464,3.6772192,4.6124754,-0.80832195,12.624088,-25.946928,61.662937,1.3403801,5.414103,0.59609467,-6.353004,-19.317362,40.197357,66.24635,7.062092,-3.3225098,-4.4091063
58,-3.9002716541290283,11.96575927734375,77.53292083740234,1.7377115894395279,7.435551527924342,-4.0921287996670195,-13.290411,17.404425,8.018793,21.033909,-8.525097,-15.000033,-14.239984,-16.930462,-12.003365,20.109655,-9.712429,11.831123,0.34828365,3.164392,4.715987,-0.7229975,12.744231,-24.73004,61.47657,1.4733789,5.6518598,0.10125701,-6.025469,-19.437489,39.792866,65.837975,7.2724924,-3.5101297,-4.440685
59,-3.8910586833953857,12.361903190612793,77.41184997558594,2.132941935422217,7.289096461970509,-4.004780403329612,-13.146914,16.665995,6.490978,20.811392,-8.218289,-15.000033,-14.9150715,-17.917213,-11.554851,21.66987,-10.249386,12.1836605,0.27838972,2.640854,4.848178,-0.6868046,12.892086,-23.653133,61.318333,1.4306858,5.8519473,-0.28752816,-5.699458,-19.558626,39.43298,65.43788,7.429567,-3.684609,-4.4942837
60,-3.877666473388672,12.770851135253906,77.28491973876953,2.507931985235837,7.117603310878626,-3.9010468337487016,-12.975995,15.891143,4.883632,20.58274,-7.88484,-15.000033,-15.516799,-18.880814,-11.120336,23.131763,-10.727033,12.552936,0.19334301,2.1400912,5.007162,-0.6931744,13.073893,-22.74943,61.192623,1.2721924,5.947628,-0.54034597,-5.386339,-19.681395,39.12607,65.06425,7.554978,-3.854083,-4.559964
61,-3.8714070320129395,13.190521240234375,77.14217376708984,2.8651896746818735,6.9098405876360705,-3.7791844181277763,-12.755925,15.074578,3.178009,20.333895,-7.414279,-15.000033,-16.038517,-19.827997,-10.697832,24.514175,-11.155911,12.942883,0.092026465,1.6577126,5.201335,-0.739526,13.296381,-22.037546,61.10003,0.95109355,5.906324,-0.63370645,-5.082801,-19.806623,38.884228,64.7145,7.6474924,-4.021433,-4.6453733
62,-3.864739179611206,13.627685546875,76.99505615234375,3.2138881429334725,6.666870453504588,-3.647947587703466,-12.491894,14.217426,1.387286,20.095337,-6.871386,-15.000033,-16.505802,-20.772146,-10.27186,25.852913,-11.550099,13.346769,-0.013377921,1.1795394,5.430601,-0.8238044,13.561492,-21.498468,61.0315,0.4539987,5.7685084,-0.5905163,-4.783895,-19.93461,38.698593,64.38043,7.6973248,-4.1830597,-4.752622
63,-3.854104995727539,14.071428298950195,76.84232330322266,3.536818741043132,6.410505534123978,-3.509919855274787,-12.216605,13.34279,-0.45341516,19.886826,-6.467516,-15.000033,-16.919468,-21.69198,-9.858963,27.099882,-11.887404,13.759981,-0.123402074,0.72504765,5.678957,-0.9401219,13.864788,-21.10814,60.97905,-0.106262185,5.575899,-0.45057625,-4.498343,-20.065794,38.548744,64.06393,7.7174463,-4.3307004,-4.86369
64,-3.852783441543579,14.524921417236328,76.67377471923828,3.8154773238616855,6.164289455984559,-3.3660791518083055,-11.966752,12.472136,-2.31388,19.726343,-6.410142,-15.000033,-17.284195,-22.564,-9.478847,28.21798,-12.147334,14.17773,-0.2397392,0.31659198,5.92889,-1.0852065,14.197587,-20.84291,60.93835,-0.6170148,5.3706574,-0.2516793,-4.235596,-20.200592,38.415646,63.77029,7.722091,-4.457807,-4.9603186
65,-3.854573965072632,14.99165153503418,76.49842071533203,4.043840871969276,5.9244226935985,-3.2112628517087582,-11.743287,11.580034,-4.3187156,19.602715,-6.8160324,-15.000033,-17.598454,-23.383287,-9.141048,29.223598,-12.339717,14.599442,-0.3686249,-0.036737684,6.1841836,-1.269373,14.558913,-20.715532,60.916092,-1.0779005,5.145311,0.0010305482,-3.9991148,-20.34072,38.306614,63.497894,7.707862,-4.561413,-5.040218
66,-3.8623452186584473,15.47133731842041,76.33367919921875,4.2286664958775875,5.683469193524022,-3.0461859848124138,-11.534635,10.667729,-6.446807,19.528646,-7.560576,-15.000033,-17.862389,-24.154797,-8.840929,30.135656,-12.473779,15.000033,-0.50737196,-0.34417254,6.44957,-1.4931517,14.948502,-20.7334,60.914963,-1.5373666,4.8816595,0.32576233,-3.7832646,-20.487297,38.227577,63.246395,7.669428,-4.646144,-5.1122036
67,-3.8733596801757812,15.961676597595215,76.17616271972656,4.2988400544794425,5.485172569923436,-2.913482730638039,-11.426749,9.882917,-8.455572,19.628544,-8.525097,-15.000033,-18.088526,-24.744696,-8.615312,30.86231,-12.498177,15.000033,-0.6137371,-0.5428801,6.6857743,-1.7430682,15.354934,-20.86515,60.931515,-1.9579864,4.6065264,0.72313917,-3.5830467,-20.639788,38.16039,63.015923,7.6177964,-4.710031,-5.176078
68,-3.8878273963928223,16.463777542114258,76.01996612548828,4.331081417910705,5.326808040937058,-2.7846515692846103,-11.404655,9.179677,-10.0881405,19.870808,-9.502675,-15.000033,-18.283281,-25.289804,-8.422466,31.427511,-12.426916,15.000033,-0.7141887,-0.7008003,6.889062,-2.007888,15.761381,-21.077562,60.968704,-2.2997415,4.347391,1.1954802,-3.393845,-20.796623,38.08852,62.809986,7.5659137,-4.7508106,-5.231765
69,-3.904245376586914,16.981760025024414,75.87207794189453,4.320073739899836,5.21259470993237,-2.6469548848161857,-11.491421,8.566483,-11.302508,20.258257,-10.482168,-15.000033,-18.441038,-25.786306,-8.280078,31.832256,-12.268515,15.000033,-0.8179976,-0.8084283,7.0489798,-2.306332,16.161684,-21.392214,61.04862,-2.538124,4.0993357,1.7762172,-3.2161007,-20.9585,38.021175,62.63068,7.5140195,-4.761845,-5.272273
70,-3.9285495281219482,17.512807846069336,75.72969818115234,4.267072601027968,5.133925703030236,-2.4993712041685834,-11.676561,8.0128565,-12.222305,20.763355,-11.530527,-15.000033,-18.562576,-26.237886,-8.185573,32.099823,-12.033379,15.000033,-0.9275251,-0.86516356,7.1757793,-2.6443033,16.554613,-21.815346,61.171265,-2.695113,3.8521194,2.4562268,-3.0523062,-21.126757,37.96264,62.47994,7.4550357,-4.7464004,-5.3003516
71,-3.954484224319458,18.067848205566406,75.60142517089844,4.188299909267418,5.091118439475097,-2.3638213065525604,-11.942189,7.505865,-12.852186,21.359903,-12.592654,-15.000033,-18.65623,-26.653048,-8.110336,32.209545,-11.690304,15.000033,-1.0295838,-0.8863464,7.278623,-2.9965255,16.928953,-22.295471,61.313942,-2.808284,3.6245093,3.175833,-2.9047368,-21.299788,37.892914,62.364468,7.3933268,-4.717025,-5.3306694
72,-3.987370729446411,18.636093139648438,75.48674774169922,4.099308468286891,5.084436662757024,-2.262931228696176,-12.271886,7.037906,-13.190134,22.022198,-13.606024,-15.000033,-18.736668,-27.03765,-8.020554,32.150978,-11.217764,15.000033,-1.1113179,-0.88491505,7.3645563,-3.3370974,17.26873,-22.776592,61.458454,-2.9114842,3.4349315,3.8764255,-2.777959,-21.474432,37.79389,62.29587,7.3337216,-4.686292,-5.378495
73,-4.030879497528076,19.226526260375977,75.38835144042969,3.981102177449566,5.118111829384528,-2.190439858071024,-12.687064,6.646177,-13.150513,22.780275,-14.597344,-15.000033,-18.79276,-27.37295,-7.9292984,31.912691,-10.616721,15.000033,-1.1769935,-0.83764756,7.422418,-3.6753016,17.565224,-23.269655,61.631832,-3.0040364,3.27829,4.5671377,-2.675657,-21.651424,37.675236,62.29253,7.278705,-4.6606016,-5.442805
74,-4.067854404449463,19.835994720458984,75.31525421142578,3.8321374880485246,5.1890597539467365,-2.1400050555637984,-13.190776,6.331446,-12.761553,23.632591,-15.58207,-15.000033,-18.819925,-27.657614,-7.8453007,31.505526,-9.898893,15.000033,-1.2300272,-0.74090487,7.452248,-4.0256023,17.817259,-23.793207,61.844326,-3.0685546,3.1481535,5.2739105,-2.5953119,-21.831482,37.542763,62.34752,7.2250924,-4.6321135,-5.517725
75,-4.112396717071533,20.47020721435547,75.2613525390625,3.693985898327616,5.286332225310292,-2.133105056250935,-13.728562,6.0290895,-12.197489,24.492115,-16.489508,-15.000033,-18.83868,-27.933292,-7.7297273,30.941439,-9.050815,15.000033,-1.2582316,-0.63859177,7.4762273,-4.3721004,18.022182,-24.306324,62.058773,-3.11926,3.0598836,5.9641647,-2.5377436,-22.011456,37.37518,62.444412,7.168582,-4.5928445,-5.6115856
76,-4.160447597503662,21.12266731262207,75.2281723022461,3.609772763629539,5.400677586008371,-2.1891648154841836,-14.247243,5.666919,-11.632292,25.2742,-17.247257,-15.000033,-18.872658,-28.239876,-7.5446506,30.232191,-8.057538,15.000033,-1.251723,-0.5763563,7.513953,-4.693982,18.17695,-24.764126,62.23603,-3.1673186,3.02848,6.6050973,-2.5064926,-22.185493,37.15318,62.57048,7.1056447,-4.5349007,-5.732742
77,-4.2219085693359375,21.79073715209961,75.21747589111328,3.5912317696682816,5.539326398983059,-2.30712029376372,-14.760699,5.2222886,-11.083173,25.998968,-17.843061,-15.000033,-18.915764,-28.584671,-7.2931476,29.334036,-6.8793325,15.000033,-1.2088077,-0.5657214,7.5636673,-4.99609,18.276495,-25.159765,62.38455,-3.2072835,3.0697925,7.2129664,-2.5065513,-22.349546,36.87019,62.743526,7.034637,-4.464124,-5.8947997
78,-4.295838832855225,22.49095344543457,75.2314224243164,3.72940926415467,5.692986280338087,-2.468353556351609,-15.200279,4.511099,-10.453333,26.589096,-18.254848,-14.226378,-18.999924,-29.085266,-6.9076934,28.29122,-5.5455756,15.000033,-1.1436553,-0.68819624,7.623329,-5.2877812,18.32077,-25.51527,62.525978,-3.2361164,3.1715825,7.7980633,-2.5360966,-22.501953,36.537148,62.96859,6.9568553,-4.3812485,-6.0902066
79,-4.367934703826904,23.211841583251953,75.26506805419922,3.9561883335069283,5.852828030384377,-2.682448020604188,-15.566844,3.6792269,-9.7707205,27.031055,-18.520939,-13.207449,-19.13682,-29.667082,-6.4052043,27.183233,-4.126797,15.000033,-1.0566157,-0.88336545,7.694481,-5.5550404,18.318277,-25.832058,62.641342,-3.2728431,3.3065755,8.31818,-2.593581,-22.63986,36.16406,63.220802,6.874665,-4.2749414,-6.2947307
80,-4.452210426330566,23.95713996887207,75.3078842163086,4.189596259365433,6.010390800465868,-2.962374129206046,-15.870144,2.8689182,-9.072786,27.33536,-18.687593,-12.311708,-19.333344,-30.240402,-5.808951,26.084692,-2.6918924,15.000033,-0.9463123,-1.0781977,7.778565,-5.776123,18.282782,-26.106241,62.702614,-3.3322754,3.4477527,8.729691,-2.679578,-22.760439,35.763996,63.47231,6.791653,-4.130915,-6.4845543
81,-4.533775329589844,24.721071243286133,75.35450744628906,4.440080148691948,6.171028695941627,-3.313792638746345,-16.105995,2.0642986,-8.3667555,27.464699,-18.714182,-11.576261,-19.600075,-30.7991,-5.0453677,24.95884,-1.2014486,15.000033,-0.81295574,-1.2819083,7.8792176,-5.932798,18.21641,-26.307148,62.685364,-3.4043903,3.6054466,9.01377,-2.8020363,-22.862377,35.323704,63.724625,6.7004843,-3.9262192,-6.670544
82,-4.623854160308838,25.4760684967041,75.41077423095703,4.715076785440143,6.34059984724112,-3.7317998119408418,-16.287731,1.2481427,-7.636506,27.448345,-18.605263,-10.939202,-19.93145,-31.346369,-4.1381636,23.78394,0.3606025,15.000033,-0.6556105,-1.5025426,7.9939556,-6.032159,18.119019,-26.443096,62.600533,-3.4838421,3.7889645,9.194591,-2.962493,-22.94391,34.845615,63.992737,6.603751,-3.676152,-6.8588963
83,-4.718649864196777,26.23255157470703,75.46289825439453,4.984206768279235,6.506786842929053,-4.210733260425349,-16.413143,0.46623003,-6.8749285,27.33188,-18.432022,-10.364758,-20.330238,-31.869576,-3.218205,22.675323,1.8773595,15.000033,-0.47575113,-1.7205551,8.117961,-6.0930147,18.006977,-26.576231,62.47448,-3.602148,3.9692857,9.292925,-3.1488168,-23.001247,34.359394,64.26126,6.5110006,-3.4179611,-7.0197115
84,-4.821683883666992,26.98957633972168,75.51453399658203,5.217919685317729,6.656801281847184,-4.7455968626852805,-16.486168,-0.23562352,-6.076172,27.162813,-18.26466,-9.818245,-20.794544,-32.353363,-2.4224412,21.74487,3.2325094,15.000033,-0.2742837,-1.9196686,8.248152,-6.122562,17.905525,-26.762108,62.31789,-3.7859933,4.118388,9.327372,-3.3449514,-23.02671,33.89093,64.50955,6.429955,-3.1896605,-7.12313
85,-4.921262264251709,27.741830825805664,75.57193756103516,5.423256134479835,6.7917963182902055,-5.361864590795188,-16.48894,-0.85148966,-5.2156096,26.899542,-18.091429,-9.320091,-21.388067,-32.808834,-1.6946667,21.013498,4.4790554,15.000033,-0.03726727,-2.1158588,8.394197,-6.102132,17.83091,-26.978289,62.10091,-4.0570226,4.2518864,9.281141,-3.5593948,-23.012497,33.420784,64.73556,6.352232,-2.9984999,-7.1578364
86,-5.011285305023193,28.47649383544922,75.62979125976562,5.608786896092489,6.919722131066164,-6.057018503693761,-16.427954,-1.4024003,-4.304996,26.518896,-17.871153,-8.880265,-22.102043,-33.22169,-0.99156773,20.440922,5.631254,15.000033,0.23164913,-2.315965,8.554495,-6.017532,17.786425,-27.201057,61.804276,-4.3954115,4.379845,9.148398,-3.8013837,-22.95416,32.94266,64.95206,6.2728868,-2.8262355,-7.141323
87,-5.103911399841309,29.188199996948242,75.68478393554688,5.7492791252499895,7.03352773642498,-6.7810742553578285,-16.349825,-1.8853475,-3.393571,26.121107,-17.64543,-8.448687,-22.828377,-33.564346,-0.46584752,20.073133,6.508821,15.000033,0.5014288,-2.4933598,8.710241,-5.8940024,17.78007,-27.49795,61.4648,-4.781027,4.4650335,8.964384,-4.065788,-22.852047,32.51479,65.170296,6.215033,-2.6729896,-7.0878077
88,-5.187219619750977,29.87929344177246,75.74069213867188,5.8220739721960095,7.120754260253054,-7.47983507528535,-16.295284,-2.2988417,-2.5322034,25.812057,-17.459084,-7.9749856,-23.412333,-33.836716,-0.2970202,19.8888,6.973545,15.000033,0.737865,-2.6239328,8.847324,-5.753832,17.820976,-27.93406,61.115826,-5.189936,4.4700894,8.762891,-4.339679,-22.708273,32.188183,65.393295,6.197743,-2.5384257,-7.011015
89,-5.262959957122803,30.558603286743164,75.79939270019531,5.8201493793438805,7.170842134405237,-8.166102238068179,-16.259335,-2.6282547,-1.7027524,25.628551,-17.338127,-7.4391685,-23.796331,-34.061733,-0.6030786,19.826212,6.9614043,15.000033,0.94345856,-2.7045875,8.969861,-5.5884056,17.919968,-28.53011,60.73718,-5.614841,4.390751,8.533036,-4.6285357,-22.523989,31.982203,65.61914,6.239043,-2.4219801,-6.898755
90,-5.333005428314209,31.215843200683594,75.8600082397461,5.757179947537253,7.184770360161488,-8.85494751991355,-16.219267,-2.8807397,-0.8918587,25.521717,-17.259422,-6.8704042,-24.032085,-34.258465,-1.290529,19.885235,6.5718184,15.000033,1.1266384,-2.750933,9.0897045,-5.3848004,18.079306,-29.24683,60.308506,-6.0674567,4.247085,8.259537,-4.9333096,-22.297735,31.86624,65.84069,6.325766,-2.323639,-6.748975
91,-5.415394306182861,31.85856056213379,75.92555236816406,5.636369392476952,7.169717667337406,-9.49777557532547,-16.193443,-3.0736122,-0.15801182,25.475065,-17.198349,-6.2978578,-24.137146,-34.404667,-2.3478,20.141838,5.911142,14.336226,1.2610433,-2.7683053,9.203998,-5.171087,18.291763,-30.072437,59.876194,-6.566454,4.0360465,7.9702992,-5.2319646,-22.0285,31.811636,66.05313,6.424694,-2.2439303,-6.590722
92,-5.499495029449463,32.477073669433594,75.990478515625,5.390339886054653,7.16054085284454,-10.081666768147162,-16.28138,-3.1398413,0.44569325,25.603462,-17.206335,-5.75833,-24.080141,-34.406307,-3.5346618,20.54151,5.170497,13.757597,1.3670461,-2.6776004,9.279533,-4.978433,18.542456,-30.99584,59.492367,-7.1279097,3.7538512,7.69489,-5.5047283,-21.717178,31.791145,66.256454,6.5047874,-2.1841385,-6.453606
93,-5.580854415893555,33.08845138549805,76.05229949951172,5.126632521890944,7.1230536028078575,-10.51529941399539,-16.401957,-3.234393,0.883298,25.771044,-17.205528,-5.2176485,-23.82715,-34.383465,-4.751509,21.127579,4.2999105,13.46355,1.3580126,-2.5711305,9.337198,-4.8366084,18.827843,-32.079315,59.184803,-7.819229,3.361219,7.435329,-5.7496204,-21.363947,31.804167,66.46288,6.5792494,-2.1603076,-6.3376927
94,-5.662537097930908,33.689998626708984,76.11138153076172,4.8455343553489945,7.055545835856741,-10.834266079118045,-16.535246,-3.3442016,1.1947327,25.968605,-17.20302,-4.667217,-23.404585,-34.33237,-6.062477,21.894854,3.2482953,13.395277,1.2596799,-2.454365,9.381179,-4.734802,19.145514,-33.31422,58.93233,-8.611794,2.8731403,7.1747274,-5.9726214,-20.969143,31.857643,66.66698,6.6575685,-2.1664925,-6.229686
95,-5.746520519256592,34.287471771240234,76.17462921142578,4.5629571044779835,6.963595764093496,-11.102951470051233,-16.645979,-3.4643133,1.4471058,26.145235,-17.181597,-4.1151285,-22.932384,-34.27664,-7.417845,22.921833,2.0953424,13.358486,1.1403371,-2.3537273,9.42232,-4.642195,19.47988,-34.57946,58.72256,-9.375982,2.3658001,6.9169054,-6.1669545,-20.536453,31.939913,66.84808,6.7019033,-2.1723993,-6.138246
96,-5.827619552612305,34.8717155456543,76.24024200439453,4.2946800290710865,6.850546840402814,-11.384711242581366,-16.69676,-3.5894082,1.705789,26.249006,-17.122,-3.5730224,-22.50755,-34.25411,-8.77289,24.263176,0.9311828,13.163226,1.0644163,-2.290779,9.471169,-4.5288887,19.809696,-35.752834,58.550953,-9.9821615,1.9130793,6.6716375,-6.323135,-20.071724,32.043846,66.97753,6.676637,-2.1420352,-6.0725546
97,-5.903713703155518,35.44806671142578,76.30532836914062,4.043618840188033,6.707788690583402,-11.652767072212242,-16.683954,-3.7345273,1.9445943,26.279938,-17.01256,-3.03825,-22.112488,-34.317688,-10.185399,25.98012,-0.24103661,12.755606,1.0197115,-2.2591832,9.532523,-4.4184384,20.122345,-36.858006,58.4496,-10.375186,1.5100853,6.4465046,-6.4303885,-19.57941,32.155647,67.04948,6.5809813,-2.0577583,-6.0345545
98,-5.98487663269043,36.015846252441406,76.37386322021484,3.8014224970306083,6.536434421180091,-11.887113296611826,-16.62433,-3.8976502,2.1432998,26.262384,-16.86879,-2.5066335,-21.68772,-34.42142,-11.664257,28.005295,-1.4496491,12.241669,0.98225427,-2.2449417,9.59813,-4.322456,20.41462,-37.940258,58.42691,-10.625698,1.1221318,6.2399616,-6.492077,-19.061779,32.282486,67.07522,6.4302797,-1.9399484,-6.0190053
99,-6.066047668457031,36.57084655761719,76.44368743896484,3.56903932458229,6.35170329939274,-12.160522033111686,-16.511389,-4.0486593,2.3743882,26.183723,-16.71031,-1.9886408,-21.264269,-34.48471,-13.084371,30.200886,-2.6541479,11.67091,0.9949653,-2.2577083,9.659417,-4.192348,20.681885,-38.909733,58.446888,-10.796838,0.7775709,6.0507946,-6.5289745,-18.522749,32.461918,67.06634,6.222116,-1.8151366,-6.0243254
100,-6.130363464355469,37.107139587402344,76.51687622070312,3.3472030633685375,6.168496555074644,-12.546095242769905,-16.338806,-4.1572742,2.7102413,26.02914,-16.553614,-1.4956255,-20.883257,-34.43826,-14.314492,32.437813,-3.823571,11.088849,1.0944786,-2.3059833,9.707083,-3.972536,20.920607,-39.664112,58.468937,-10.945932,0.5053771,5.8764205,-6.564263,-17.966751,32.736263,67.03668,5.9527473,-1.7098714,-6.04891
101,-6.187466144561768,37.63322067260742,76.5833969116211,3.1311829563374407,5.982672833327339,-13.060849858642397,-16.08697,-4.209902,3.1633172,25.781866,-16.398434,-1.0401975,-20.568037,-34.301792,-15.318981,34.77024,-4.9828486,10.457164,1.2888186,-2.3858693,9.742768,-3.6446757,21.129255,-40.17738,58.483585,-11.027492,0.32387874,5.7085953,-6.5836987,-17.392448,33.101604,66.96741,5.6583915,-1.6529542,-6.0111833
102,-6.246077537536621,38.14923095703125,76.65123748779297,2.923287854252594,5.78784387955819,-13.666260590312524,-15.76412,-4.2271447,3.696964,25.4524,-16.234638,-0.6151088,-20.293015,-34.120247,-16.158524,37.242416,-6.1486,9.760885,1.554354,-2.4934793,9.7693615,-3.2352142,21.308233,-40.49753,58.513004,-11.029234,0.21312013,5.552074,-6.58013,-16.798925,33.543926,66.859344,5.327035,-1.6231118,-5.9388247
103,-6.296628952026367,38.64844512939453,76.71537017822266,2.7349586202133778,5.595914978687307,-14.352890818161192,-15.407785,-4.2289786,4.3101964,25.070438,-16.06486,-0.20237182,-20.047693,-33.87782,-16.835184,39.739758,-7.2839026,9.080664,1.882483,-2.6373215,9.780697,-2.7548823,21.457169,-40.63145,58.561054,-11.055299,0.14593063,5.422885,-6.5873327,-16.193071,34.09979,66.75306,4.897129,-1.5702238,-5.993947
104,-6.335689067840576,39.12967300415039,76.77650451660156,2.5772091125627217,5.419036656305485,-15.11139927965796,-15.054788,-4.235552,5.0018687,24.665398,-15.893069,0.2165962,-19.826586,-33.546673,-17.356548,42.151493,-8.34848,8.500513,2.2610426,-2.824937,9.771164,-2.2094617,21.575436,-40.579685,58.626514,-11.206609,0.0957357,5.3363743,-6.6370826,-15.586211,34.80364,66.68573,4.3026915,-1.4406003,-6.336922
105,-6.38496208190918,39.618160247802734,76.8253173828125,2.460535481032772,5.255242802961734,-15.966367666716673,-14.686915,-4.2527866,5.8005223,24.216425,-15.714818,0.6482839,-19.651228,-33.13677,-17.703222,44.495186,-9.347001,8.03946,2.709502,-3.0665221,9.745598,-1.5911307,21.660177,-40.341286,58.6913,-11.507889,0.089476116,5.3041286,-6.7260985,-14.983968,35.70059,66.634636,3.4190934,-1.1230563,-7.087713
106,-6.430485725402832,40.104713439941406,76.8727035522461,2.376694712543676,5.100498557057255,-16.91407460953319,-14.292888,-4.2730784,6.697419,23.717344,-15.5306015,1.0810021,-19.522533,-32.665043,-17.876982,46.8272,-10.300665,7.65094,3.2258093,-3.3536398,9.708239,-0.89483917,21.708138,-39.912987,58.75637,-11.902568,0.12997349,5.31513,-6.830948,-14.385246,36.759087,66.58317,2.323696,-0.6653201,-8.126873
107,-6.4696125984191895,40.582027435302734,76.91680908203125,2.3073448546746973,4.963637539164438,-17.90309936173383,-13.91607,-4.293977,7.6348815,23.210953,-15.345933,1.5069482,-19.403984,-32.11235,-17.929667,49.088936,-11.188882,7.3264976,3.7681148,-3.6645927,9.6526785,-0.14237718,21.718943,-39.31029,58.856064,-12.386774,0.15407571,5.349954,-6.9508977,-13.79216,37.903297,66.56167,1.2570766,-0.24817005,-9.261798
108,-6.515644550323486,41.06174850463867,76.95783996582031,2.2344984618943147,4.853821531173507,-18.882389462812526,-13.609522,-4.3106976,8.556615,22.757942,-15.174835,1.9200549,-19.270498,-31.442799,-17.904284,51.224987,-11.983026,7.0651755,4.2961555,-3.977852,9.572358,0.6442867,21.693645,-38.549683,59.022633,-12.956348,0.099132895,5.3883533,-7.0866046,-13.210364,39.05687,66.60041,0.45169067,-0.06918983,-10.309408
109,-6.570772171020508,41.533939361572266,76.98512268066406,2.161031913743399,4.781098349302546,-19.85873835255527,-13.385264,-4.324149,9.465212,22.352444,-15.012113,2.3232062,-19.143707,-30.657265,-17.818882,53.25076,-12.684484,6.8380933,4.819155,-4.299647,9.460211,1.4750466,21.629126,-37.604877,59.260372,-13.622447,-0.066577844,5.4003415,-7.2468514,-12.6466875,40.238567,66.73728,-0.024193902,-0.24542542,-11.359973
110,-6.626049518585205,42.006752014160156,77.00635528564453,2.0929489333524587,4.738265609908517,-20.852851429419744,-13.217979,-4.3345685,10.385124,21.973524,-14.853662,2.719294,-19.031061,-29.762367,-17.655474,55.185368,-13.298588,6.6619425,5.353141,-4.6370687,9.323618,2.3564134,21.521137,-36.485733,59.550217,-14.388237,-0.30436075,5.4018126,-7.419636,-12.102595,41.47327,66.93408,-0.30853733,-0.657917,-12.470078
111,-6.688075542449951,42.483482360839844,77.02427673339844,2.016170957712572,4.707676645418991,-21.834343447180938,-13.095532,-4.3344636,11.291371,21.637909,-14.710572,3.1030538,-18.881672,-28.719816,-17.41536,56.968197,-13.799617,6.6061983,5.8738613,-4.9698205,9.175237,3.2692378,21.3693,-35.25071,59.88342,-15.2194605,-0.5712135,5.441108,-7.582033,-11.578459,42.69438,67.117,-0.47684258,-1.1618208,-13.410281
112,-6.753002166748047,42.95506286621094,77.032470703125,1.9176069140702767,4.671176923942124,-22.77270372996391,-13.00385,-4.3164563,12.158754,21.358242,-14.591922,3.469153,-18.645802,-27.495344,-17.09883,58.536324,-14.161908,6.742102,6.361467,-5.2775307,9.026816,4.1888494,21.176157,-33.965523,60.253536,-16.085466,-0.82575774,5.5685663,-7.709943,-11.075585,43.824306,67.21316,-0.6027287,-1.6107647,-13.9500065
113,-6.8100385665893555,43.42563247680664,77.03619384765625,1.7944432225622207,4.623583303468083,-23.660284439174088,-12.935903,-4.2778945,12.982242,21.12874,-14.497118,3.8106267,-18.30846,-26.070833,-16.715515,59.88355,-14.398597,7.0583043,6.815554,-5.5576797,8.879987,5.121755,20.93929,-32.59847,60.659584,-16.978716,-1.0664274,5.7954936,-7.7856154,-10.594829,44.812817,67.19762,-0.65221757,-2.0643032,-14.011079
114,-6.8717732429504395,43.898406982421875,77.03550720214844,1.6537738454219684,4.574239026505612,-24.513286524567754,-12.90105,-4.221094,13.77459,20.94692,-14.422119,4.1330767,-17.90201,-24.458183,-16.26703,61.037968,-14.517928,7.5346107,7.2499595,-5.820578,8.727423,6.072179,20.654947,-31.142056,61.105915,-17.918337,-1.3148627,6.094956,-7.8270283,-10.13913,45.706696,67.112015,-0.59883523,-2.5707734,-13.720282
115,-6.92751407623291,44.345760345458984,77.03968048095703,1.4967672829953105,4.526348778406292,-25.336985112910952,-12.911254,-4.144941,14.537148,20.832682,-14.372402,4.4500504,-17.442501,-22.659168,-15.742298,61.97832,-14.494072,8.229528,7.667904,-6.0620375,8.56852,7.0138426,20.327211,-29.689167,61.590942,-18.905062,-1.5657738,6.461793,-7.8590183,-9.712722,46.573055,66.97393,-0.5218377,-2.9642434,-13.154413
116,-6.991729736328125,44.818477630615234,77.03205108642578,1.3244444234930501,4.4832884997081415,-26.13675064332393,-12.977404,-4.0480757,15.271279,20.80526,-14.354166,4.775087,-16.943193,-20.681297,-15.128013,62.684742,-14.306458,9.200888,8.074071,-6.2777224,8.403373,7.9164987,19.967073,-28.338686,62.113438,-19.946404,-1.8143325,6.8916717,-7.9040184,-9.321637,47.47661,66.79972,-0.50624466,-3.0798585,-12.391358
117,-7.066861629486084,45.284202575683594,77.01570129394531,1.1278419339062293,4.440338799294044,-26.909376107506482,-13.10482,-3.9199567,15.966787,20.887957,-14.380012,5.1143947,-16.389263,-18.470682,-14.38357,63.130703,-13.945666,10.512833,8.470785,-6.459783,8.236052,8.786687,19.582535,-27.06312,62.665665,-21.101833,-2.0789173,7.406427,-7.9574823,-8.970027,48.444683,66.55257,-0.5752133,-2.7697732,-11.376184
118,-7.133268356323242,45.748435974121094,76.99534606933594,0.9106432203127786,4.396857822024213,-27.65300518520363,-13.288805,-3.763362,16.625996,21.068287,-14.445754,5.461754,-15.775642,-16.040686,-13.520915,63.336246,-13.453419,12.123512,8.853911,-6.614906,8.066218,9.640311,19.17529,-25.824816,63.24283,-22.346878,-2.3624132,7.99839,-8.007178,-8.659995,49.442417,66.22859,-0.69468933,-2.157842,-10.091752
119,-7.193224906921387,46.23033142089844,76.97357940673828,0.6896851368324795,4.3631850270719985,-28.37682979039981,-13.521747,-3.5944884,17.269337,21.304705,-14.528626,5.811953,-15.126222,-13.494363,-12.602317,63.344032,-12.8794155,13.930755,9.223079,-6.754923,7.888267,10.459983,18.751417,-24.710245,63.841175,-23.566013,-2.6276846,8.624538,-8.058308,-8.393095,50.43146,65.88722,-0.8673162,-1.4883543,-8.67261
120,-7.2740092277526855,46.691078186035156,76.94509887695312,0.2987272210053348,4.407704156771752,-29.180718926637464,-14.032704,-3.1211827,17.923079,21.954557,-14.798949,6.1053143,-14.496864,-10.792635,-11.970751,63.09787,-12.185818,15.000033,9.660561,-6.7379155,7.6158133,11.224923,18.319609,-23.80475,64.46202,-24.639135,-2.836467,9.243177,-8.118574,-8.1711035,51.370144,65.588585,-1.0802853,-1.0054674,-7.253995
121,-7.372607231140137,47.14517593383789,76.91017150878906,-0.188221352069273,4.492756670221337,-30.012526393173776,-14.713713,-2.4599657,18.567904,22.866545,-15.17347,6.358678,-13.846678,-8.010795,-11.638624,62.5898,-11.377069,15.000033,10.118138,-6.6336026,7.2918234,11.94017,17.890305,-23.128637,65.10918,-25.63815,-3.0148296,9.910945,-8.197407,-8.000063,52.277794,65.340485,-1.3427216,-0.78321856,-5.790384
122,-7.480933666229248,47.5875358581543,76.86915588378906,-0.6824339880426556,4.581483027777813,-30.820566311782336,-15.438797,-1.770698,19.18649,23.844925,-15.562208,6.6085944,-13.149003,-5.164792,-11.293027,61.85413,-10.484031,15.000033,10.560228,-6.512038,6.9640203,12.61409,17.46982,-22.639595,65.775894,-26.59638,-3.1712046,10.628983,-8.287719,-7.8825893,53.162308,65.10669,-1.6506295,-0.69495285,-4.235868
123,-7.60206937789917,48.033390045166016,76.81716918945312,-1.1505811542900364,4.676871128172164,-31.60825358385455,-16.171406,-1.1082431,19.783163,24.791674,-15.923545,6.861904,-12.425155,-2.4313562,-11.0122595,60.993954,-9.551113,15.000033,10.992391,-6.4032493,6.6448593,13.234291,17.061136,-22.32476,66.44705,-27.335032,-3.2301776,11.276918,-8.376579,-7.814331,53.9652,64.878075,-1.9645115,-0.6688673,-2.7258499
124,-7.727787494659424,48.49647521972656,76.7509994506836,-1.5637392548855453,4.788117477403183,-32.3850710370472,-16.889393,-0.5185358,20.369064,25.62445,-16.223558,7.1233563,-11.712415,0.022523195,-10.880919,60.11614,-8.6075735,15.000033,11.427148,-6.334738,6.3412313,13.777078,16.66616,-22.182808,67.118065,-27.687492,-3.11073,11.736219,-8.454307,-7.7847724,54.622597,64.65915,-2.2501981,-0.6379552,-1.3960007
125,-7.86572265625,48.961307525634766,76.6750259399414,-1.929238552806926,4.936556225718183,-33.16776921329736,-17.627432,0.01609734,20.952698,26.364244,-16.473522,7.389956,-11.045463,2.258565,-10.851858,59.18952,-7.5696206,15.000033,11.876641,-6.310054,6.0331764,14.226104,16.291466,-22.229576,67.80968,-27.555876,-2.751673,11.991282,-8.522979,-7.7855983,55.109253,64.45257,-2.5530403,-0.5738448,-0.2511228
126,-8.01293659210205,49.43306350708008,76.58895874023438,-2.2588588721209657,5.118056632149298,-33.95351620846958,-18.394186,0.51161873,21.535303,27.046085,-16.686102,7.6600986,-10.407706,4.334747,-10.896003,58.17639,-6.437777,15.000033,12.3381405,-6.322152,5.7195587,14.594968,15.941558,-22.460258,68.522514,-27.052103,-2.203579,12.095464,-8.594616,-7.814396,55.457806,64.2692,-2.8743565,-0.5170578,0.7699657
127,-8.154135704040527,49.91940689086914,76.50117492675781,-2.538252731301389,5.310584771178681,-34.72885728438631,-19.141848,0.9382654,22.121765,27.622675,-16.836504,7.938451,-9.778907,6.0973916,-11.135359,57.173256,-5.3481083,15.000033,12.805531,-6.374464,5.426412,14.909406,15.611392,-22.8389,69.21426,-26.317595,-1.5488094,12.036093,-8.671613,-7.867966,55.696327,64.11612,-3.1113348,-0.49069923,1.630346
128,-8.310465812683105,50.435794830322266,76.4043197631836,-2.7569272398661107,5.494428742167288,-35.48286127734362,-19.825037,1.2649875,22.719076,28.045105,-16.899452,8.229724,-9.147056,7.4058843,-11.695828,56.277275,-4.4302797,15.000033,13.273772,-6.4641013,5.175986,15.193688,15.289511,-23.325869,69.8505,-25.487581,-0.8764032,11.802375,-8.756725,-7.942398,55.853558,64.00405,-3.1616683,-0.51467484,2.2925315
129,-8.458146095275879,50.95718002319336,76.31268310546875,-2.917111893384396,5.6818239832008075,-36.23070781892952,-20.47464,1.5101258,23.339968,28.354416,-16.896255,8.52447,-8.509969,8.168091,-12.721607,55.53221,-3.68277,15.000033,13.751951,-6.588839,4.9599724,15.438983,14.970824,-23.948248,70.44178,-24.537695,-0.17829794,11.361898,-8.853903,-8.033356,55.917446,63.944706,-2.9543498,-0.61834115,2.717975
130,-8.594435691833496,51.483177185058594,76.22048950195312,-3.0319860011737796,5.882387487989275,-36.976936089062264,-21.095018,1.6861894,23.97932,28.535112,-16.818468,8.8234825,-7.8723407,8.505979,-14.121364,54.874283,-3.0229685,15.000033,14.241961,-6.7407403,4.764097,15.637879,14.654677,-24.710056,71.00681,-23.404812,0.5706616,10.723283,-8.963657,-8.138337,55.880188,63.939762,-2.5583723,-0.7795006,2.936592
131,-8.730899810791016,52.03919982910156,76.12413787841797,-3.1075169538856797,6.071110943035599,-37.69270652823016,-21.669449,1.7819481,24.621075,28.611364,-16.68452,9.141211,-7.247133,8.599121,-15.671983,54.27835,-2.4976518,15.000033,14.721027,-6.905125,4.6035595,15.810053,14.335352,-25.548319,71.52923,-22.181635,1.3090901,9.94565,-9.0880165,-8.25695,55.786495,63.986034,-2.077577,-0.94068885,3.0131032
132,-8.900846481323242,52.617000579833984,76.03254699707031,-3.1478328325548595,6.221849743862636,-38.34815118932268,-22.143154,1.7717599,25.245106,28.521915,-16.463764,9.493198,-6.643762,8.61998,-17.145418,53.693565,-2.1373515,15.000033,15.16133,-7.065062,4.493921,15.974082,14.003664,-26.397747,71.9939,-20.964325,1.9787153,9.092993,-9.230405,-8.38935,55.686775,64.079124,-1.6138837,-1.0446141,3.010891
133,-9.060075759887695,53.19953155517578,75.95098114013672,-3.1331519881200123,6.328598615331028,-38.92250094399412,-22.496237,1.616623,25.84299,28.22633,-16.139027,9.886364,-6.0517316,8.50029,-18.590605,53.184696,-2.0321136,15.000033,15.54056,-7.2339945,4.443671,16.13596,13.651287,-27.26186,72.40587,-19.719372,2.5594277,8.141292,-9.39016,-8.535147,55.575577,64.21957,-1.1735647,-1.0716718,2.9177911
134,-9.179208755493164,53.80149459838867,75.8714828491211,-3.0695813507522924,6.400580400909617,-39.429766771349286,-22.751862,1.3409336,26.419992,27.751886,-15.720315,10.309033,-5.451729,8.187623,-20.106459,52.752888,-2.140148,15.000033,15.870179,-7.405481,4.44594,16.282955,13.276397,-28.169516,72.77773,-18.416203,3.0740812,7.072352,-9.567698,-8.693002,55.437603,64.41217,-0.70840305,-1.055822,2.7088454
135,-9.285557746887207,54.43445587158203,75.7961654663086,-3.001657566533832,6.436802793316856,-39.894938060935125,-22.947386,1.02525,26.97956,27.195662,-15.248463,10.746159,-4.860437,7.87123,-21.532755,52.252655,-2.2983735,15.000033,16.175068,-7.5337896,4.488979,16.418278,12.879266,-29.071053,73.09432,-17.135159,3.5388093,5.9627056,-9.770499,-8.863906,55.30716,64.66624,-0.2416933,-1.019821,2.4270835
136,-9.40719985961914,55.088294982910156,75.72052001953125,-2.9745501165851955,6.439081930034046,-40.3466696952529,-23.123743,0.75160056,27.52872,26.657995,-14.765856,11.183344,-4.30996,7.736795,-22.701899,51.536728,-2.343009,15.000033,16.47856,-7.5749626,4.558158,16.544746,12.460898,-29.914963,73.33891,-15.959759,3.9760125,4.8896294,-10.005871,-9.048768,55.223534,64.98532,0.2057086,-0.985338,2.1157787
137,-9.532296180725098,55.742435455322266,75.65553283691406,-3.0195775136959893,6.416463797002276,-40.80664611782815,-23.312801,0.5776661,28.080637,26.19382,-14.297004,11.6238,-3.8338008,7.8791785,-23.555193,50.508797,-2.1950312,15.000033,16.797428,-7.5027456,4.6418304,16.665407,12.017661,-30.67711,73.49882,-14.883164,4.4018993,3.840029,-10.285808,-9.248068,55.2021,65.383125,0.65612525,-0.9486954,1.758244
138,-9.656380653381348,56.40415573120117,75.58893585205078,-3.105189636452869,6.36645504309228,-41.25664108003815,-23.488195,0.45097554,28.629221,25.742992,-13.814602,12.072514,-3.4130573,8.175982,-24.183435,49.261475,-1.9522948,15.000033,17.112875,-7.345577,4.747126,16.77735,11.547535,-31.387224,73.586716,-13.873014,4.804313,2.7867641,-10.605168,-9.460853,55.2271,65.85192,1.11523,-0.9025057,1.3405937
139,-9.779871940612793,57.066471099853516,75.52120208740234,-3.1846384166588706,6.27425690398369,-41.66661823419243,-23.604849,0.28762525,29.154558,25.238838,-13.288587,12.517482,-3.0062084,8.484768,-24.647118,47.931072,-1.7130772,15.000033,17.398792,-7.14198,4.886306,16.880188,11.055983,-32.064877,73.61806,-12.964628,5.170886,1.7867497,-10.945082,-9.686975,55.281063,66.36726,1.5253019,-0.86141926,0.9109572
140,-9.88959789276123,57.748497009277344,75.44947052001953,-3.214332764885752,6.123546737035626,-42.005635373345555,-23.615536,0.0031003966,29.63359,24.611237,-12.688388,12.946076,-2.5724611,8.658674,-25.02136,46.66863,-1.5809953,15.000033,17.628267,-6.928096,5.074005,16.973063,10.5536175,-32.735973,73.60651,-12.202786,5.492913,0.8973611,-11.286723,-9.926882,55.34947,66.90084,1.8332212,-0.8376141,0.5177244
141,-9.983165740966797,58.45051956176758,75.37786865234375,-3.180154329642026,5.891880906014887,-42.276061715141005,-23.445759,-0.45135105,30.076033,23.75002,-11.980603,13.3629875,-2.1012511,8.618213,-25.338963,45.49941,-1.4405597,15.000033,17.801641,-6.710993,5.3335342,17.068914,10.04423,-33.40947,73.534584,-11.622586,5.789948,0.1565417,-11.632151,-10.18124,55.453068,67.46786,2.0255647,-0.8538466,0.16113248
142,-10.06737232208252,59.153343200683594,75.30340576171875,-3.1142261628677,5.5909971939652685,-42.490228438020964,-23.154455,-1.0083103,30.482956,22.762142,-11.212704,13.769379,-1.6207055,8.435407,-25.598568,44.392887,-1.3065172,15.000033,17.930408,-6.465898,5.652047,17.167479,9.527612,-34.070316,73.39495,-11.194683,6.069601,-0.47131738,-11.989604,-10.450988,55.59209,68.07094,2.1318932,-0.8935173,-0.18007582
143,-10.142801284790039,59.87106704711914,75.22614288330078,-3.0402152220563434,5.256241062303898,-42.63078468327233,-22.826681,-1.6258657,30.814157,21.735743,-10.383738,14.15271,-1.1411942,8.192909,-25.815256,43.40166,-1.4662391,15.000033,18.005367,-6.1830735,5.992637,17.245281,9.011679,-34.715347,73.21665,-10.8728,6.3047876,-1.0392805,-12.345252,-10.735371,55.71166,68.66798,2.1553202,-0.9185825,-0.48896226
144,-10.219268798828125,60.60184097290039,75.13069915771484,-2.9774038973130583,4.926543557227029,-42.68170880662908,-22.582975,-2.2448568,31.040022,20.836182,-9.5335,14.499895,-0.6636192,7.971211,-25.995161,42.549408,-2.1902125,15.000033,18.020697,-5.861781,6.3175755,17.283798,8.509864,-35.339264,73.021484,-10.607503,6.46765,-1.6019794,-12.685985,-11.034522,55.754147,69.21747,2.098859,-0.8887314,-0.7492202
145,-10.302854537963867,61.33634948730469,75.02330780029297,-2.9106731472602885,4.602669392751012,-42.627316112020246,-22.413574,-2.8894522,31.172398,20.042248,-8.673981,14.829438,-0.16930152,7.7744036,-26.06635,41.86621,-3.7069612,15.000033,17.967258,-5.5181513,6.6301637,17.290485,8.032393,-35.946117,72.79847,-10.425462,6.544604,-2.1915832,-13.009557,-11.349684,55.71402,69.71923,1.9307716,-0.7798929,-0.94713897
146,-10.396332740783691,62.07889175415039,74.90343475341797,-2.8442879040486644,4.262720074033434,-42.495212412982724,-22.273788,-3.5385377,31.225925,19.335201,-7.8077073,15.000033,0.3588251,7.5619874,-26.057684,41.307472,-5.8033895,15.000033,17.867296,-5.147116,6.9514446,17.276398,7.582658,-36.53812,72.52861,-10.342117,6.557061,-2.773687,-13.320791,-11.681914,55.61369,70.18719,1.659191,-0.61697775,-1.0943444
147,-10.534526824951172,62.814979553222656,74.77438354492188,-3.0018554856996698,4.067599735619537,-42.47915121517187,-22.644444,-3.6768024,31.209703,19.402378,-7.1771255,15.000033,0.79536796,7.610491,-26.41307,40.562023,-7.9343214,13.003293,17.875883,-4.6221886,7.0770254,17.223946,7.166001,-37.10742,72.22595,-10.29323,6.5260315,-3.304126,-13.616444,-12.028843,55.437294,70.59942,1.3489727,-0.4346821,-1.2124681
148,-10.672689437866211,63.571632385253906,74.63911437988281,-3.1982250902923877,3.908179654954259,-42.423621243487666,-23.181355,-3.7460957,31.071184,19.695105,-6.4823575,15.000033,1.1655959,7.709907,-26.858738,39.77095,-9.894634,11.016649,17.869568,-4.0598435,7.1678023,17.124302,6.7847815,-37.653145,71.897125,-10.216106,6.4724994,-3.7379792,-13.891821,-12.390047,55.171223,70.94267,1.0661008,-0.26950762,-1.3235267
149,-10.815524101257324,64.3356704711914,74.5038070678711,-3.4234050979639186,3.7912438569493,-42.31123651590614,-23.891489,-3.7741945,30.812195,20.208097,-5.7162833,15.000033,1.4605187,7.836938,-27.43705,38.949627,-11.689752,9.103436,17.835367,-3.4648247,7.216273,16.971184,6.4405127,-38.206356,71.54101,-10.130425,6.388245,-4.076926,-14.147563,-12.76824,54.821983,71.22128,0.8138727,-0.11393685,-1.4134393
150,-10.972805976867676,65.1026382446289,74.37448120117188,-3.6655131931080422,3.7043916632488996,-42.13433600318491,-24.733166,-3.7923496,30.446325,20.881187,-4.8791904,15.000033,1.7005233,7.992751,-28.06866,38.126812,-13.491533,7.2711945,17.767904,-2.8444982,7.2376413,16.773796,6.133384,-38.758896,71.14887,-10.058326,6.2680054,-4.3407083,-14.382028,-13.166126,54.3932,71.44053,0.561918,0.045023188,-1.4773818
151,-11.138422012329102,65.86814880371094,74.26128387451172,-3.938568905429498,3.6182987282395107,-41.92776738433815,-25.660337,-3.770614,29.969095,21.689539,-3.953563,15.000033,1.9377621,8.204514,-28.704859,37.228256,-15.173327,5.591513,17.697514,-2.1905608,7.267812,16.53767,5.863304,-39.248306,70.72278,-9.940235,6.134747,-4.5113916,-14.584405,-13.580446,53.861576,71.58265,0.32127398,0.180429,-1.5526861
152,-11.319393157958984,66.62386322021484,74.16663360595703,-4.261481592260985,3.5007676428587153,-41.73214170379588,-26.626,-3.6476016,29.336905,22.636143,-2.9367464,14.6569605,2.2402475,8.512231,-29.298767,36.152836,-16.596691,4.1381426,17.656511,-1.4927921,7.341914,16.268066,5.6308985,-39.609818,70.26631,-9.716494,6.0110497,-4.57018,-14.750604,-14.003941,53.20713,71.639854,0.103211604,0.26498076,-1.6769621
153,-11.509749412536621,67.37710571289062,74.09212493896484,-4.644167204194888,3.3593329514547774,-41.52780368444712,-27.674786,-3.4349034,28.529097,23.781328,-1.8320934,14.074651,2.6246142,8.933747,-29.888975,34.830715,-17.711304,2.993188,17.625906,-0.7405625,7.4592853,15.958026,5.4377937,-39.813526,69.760506,-9.32579,5.9126782,-4.524338,-14.889772,-14.431124,52.398975,71.611824,-0.11700356,0.29739097,-1.8438148
154,-11.702471733093262,68.12142944335938,74.04332733154297,-5.071993900957333,3.2052858488485563,-41.305684500536465,-28.796944,-3.1894155,27.559694,25.064474,-0.6364101,13.316178,3.075608,9.450747,-30.498686,33.29318,-18.578465,2.1087444,17.59637,0.053980004,7.6058464,15.607225,5.285491,-39.89515,69.21173,-8.8147,5.8237815,-4.3791566,-15.002079,-14.86032,51.46092,71.5145,-0.3351664,0.28964305,-2.039894
155,-11.898467063903809,68.85071563720703,74.01197814941406,-5.497332627383302,3.028462689793333,-41.089945527143534,-29.86495,-2.9972517,26.436167,26.241516,0.6935953,12.211424,3.5697517,9.992902,-31.084927,31.659782,-19.261969,1.3734065,17.583458,0.8412544,7.788361,15.23481,5.1740746,-39.890175,68.65214,-8.283669,5.726114,-4.111965,-15.065026,-15.287072,50.44898,71.35852,-0.49961776,0.23463756,-2.2917411
156,-12.091907501220703,69.57269287109375,73.99740600585938,-5.872876643847854,2.818716192016589,-40.9036582561437,-30.757929,-2.9326108,25.159021,27.090214,2.1758704,10.603282,4.074128,10.481634,-31.60396,30.067543,-19.83606,0.6694543,17.600655,1.5715765,8.012613,14.858516,5.1018887,-39.834843,68.11794,-7.8337383,5.599524,-3.7006602,-15.063768,-15.704076,49.4238,71.157974,-0.5526133,0.124510765,-2.6254206
157,-12.278512001037598,70.28376770019531,74.00442504882812,-6.180610999695445,2.5777060773999105,-40.74703560884015,-31.533514,-3.0349724,23.620176,27.678556,3.8028288,8.582917,4.568129,10.880775,-32.071556,28.551134,-20.293455,-0.03462048,17.652527,2.225774,8.283634,14.469179,5.0683165,-39.720146,67.62376,-7.4595933,5.441276,-3.1022077,-14.99154,-16.102283,48.34913,70.90839,-0.4939719,-0.059056006,-3.0808702
158,-12.458019256591797,70.98480224609375,74.02328491210938,-6.44173940284446,2.3094801710552444,-40.60858727319259,-32.21886,-3.2840774,21.833803,28.09206,5.503783,6.162928,5.0685487,11.228382,-32.514492,27.046574,-20.60825,-0.67312485,17.728806,2.8268332,8.596669,14.061451,5.0740047,-39.532696,67.150536,-7.1157055,5.2632275,-2.3410027,-14.863906,-16.476408,47.212456,70.61554,-0.34722278,-0.30877087,-3.6329198
159,-12.628199577331543,71.6781234741211,74.05331420898438,-6.6707367409051574,2.0077944467826248,-40.49135658217696,-32.659325,-3.6333356,19.971361,28.1662,7.18453,3.1002924,5.5930514,11.54953,-32.900513,25.550564,-20.827673,-1.2314607,17.818562,3.392028,8.940914,13.657941,5.117506,-39.30411,66.68607,-6.846628,5.064084,-1.4963746,-14.698607,-16.823986,46.096745,70.30425,-0.104867354,-0.5942066,-4.2090015
160,-12.788505554199219,72.35848999023438,74.09010314941406,-6.883498383892136,1.6671430370825946,-40.39883708469142,-32.722538,-4.0093737,18.20757,27.76995,8.747434,-0.8195633,6.1589165,11.863752,-33.19206,24.061668,-20.99511,-1.7032875,17.91004,3.9402626,9.30494,13.281709,5.1951017,-39.06294,66.21684,-6.6948104,4.8412585,-0.64776003,-14.517612,-17.144533,45.096565,69.9989,0.25387883,-0.8847745,-4.7363625
161,-12.93050479888916,73.02813720703125,74.12930297851562,-7.116706974366402,1.2549567459885689,-40.34915247159385,-32.19681,-4.3534136,16.638077,26.58378,10.462687,-6.388171,6.831254,12.221783,-33.35696,22.511885,-21.081743,-2.1180444,18.02334,4.5105605,9.700459,12.944353,5.304538,-38.79478,65.75048,-6.6966677,4.563477,0.22333112,-14.317942,-17.435583,44.220562,69.70056,0.7907089,-1.1958171,-5.2188525
162,-13.056096076965332,73.68801879882812,74.16130065917969,-7.355852417871621,0.7849995449411996,-40.33562181805319,-31.265606,-4.6839795,15.142073,24.874153,12.194003,-13.220445,7.58358,12.59361,-33.418583,20.915127,-21.0652,-2.4860885,18.155022,5.087554,10.124197,12.632563,5.444938,-38.49053,65.289505,-6.817879,4.239953,1.1449621,-14.097683,-17.69367,43.428757,69.402405,1.4787011,-1.5385462,-5.6851363
163,-13.131174087524414,74.4091567993164,74.1726303100586,-7.297384006705147,0.4063350190045512,-40.04892801517552,-30.011034,-5.25273,15.26852,22.525026,13.862942,-15.000033,7.8466983,12.243464,-33.755672,20.392828,-21.508959,-2.6433089,17.966957,5.403524,10.545296,12.348864,5.5765977,-38.17713,64.84428,-6.996115,3.9182463,2.058162,-13.916408,-17.876608,42.771786,69.20135,2.2014878,-1.8799173,-6.1036377
164,-13.204442977905273,75.13912963867188,74.1943588256836,-7.144681276610842,0.09413538205428026,-39.72453239316609,-29.146942,-5.8145905,15.286582,20.895678,14.585997,-15.000033,7.917952,11.68387,-34.106632,20.171062,-22.005833,-2.6895487,17.72323,5.614949,10.946467,12.050814,5.754566,-37.92178,64.36728,-7.1770473,3.6502612,2.8883145,-13.704747,-18.10499,42.195957,68.925705,2.8366666,-2.1673086,-6.433699
165,-13.279565811157227,75.84469604492188,74.24910736083984,-6.983936731878159,-0.20458767840830147,-39.51975246322859,-28.978159,-6.270797,14.1964245,20.685776,13.655218,-15.000033,8.016278,11.180406,-34.268456,19.790874,-22.310093,-2.6718557,17.552134,5.7945957,11.327602,11.714315,5.9456196,-37.691845,63.89195,-7.344488,3.4621055,3.6452081,-13.530126,-18.307125,41.772976,68.674515,3.433969,-2.401603,-6.6826806
166,-13.359128952026367,76.53199768066406,74.32514953613281,-6.807625254734378,-0.5012630838319164,-39.39763023927033,-29.195366,-6.670085,12.399109,21.336725,11.580836,-15.000033,8.123676,10.682034,-34.283115,19.34741,-22.477947,-2.5978878,17.425282,5.9436083,11.699415,11.353984,6.151257,-37.47465,63.423008,-7.530638,3.3209252,4.3563356,-13.378308,-18.480572,41.477184,68.44329,4.025515,-2.600631,-6.865963
167,-13.448145866394043,77.20569610595703,74.4209213256836,-6.638038407505665,-0.7798848458861777,-39.333962679200255,-29.564383,-6.9453673,10.384658,22.405996,9.014201,-15.000033,8.203344,10.191897,-34.212105,18.895462,-22.555325,-2.497862,17.315826,6.0839643,12.043559,10.973614,6.369885,-37.282684,62.98556,-7.7445498,3.1867537,4.988925,-13.248342,-18.627365,41.26109,68.22064,4.502781,-2.7494724,-6.9787574
168,-13.526268005371094,77.89624786376953,74.52262878417969,-6.4908406222686414,-1.0337970508739016,-39.30766273199815,-29.843533,-7.0166373,8.61997,23.435133,6.5733027,-15.000033,8.221092,9.700152,-34.113754,18.508467,-22.596342,-2.3952253,17.202023,6.236064,12.351581,10.57578,6.5971737,-37.128204,62.60547,-7.9919896,3.0195572,5.509792,-13.127755,-18.751642,41.062733,67.98383,4.745839,-2.8320668,-7.016461
169,-13.597490310668945,78.58653259277344,74.622802734375,-6.3692030713911745,-1.271355834507397,-39.31364065926796,-29.991598,-6.8298144,7.172308,24.347254,4.2120237,-15.000033,8.1820545,9.206408,-33.98578,18.193935,-22.60977,-2.284601,17.083544,6.4109354,12.6276455,10.146537,6.831523,-37.03901,62.296436,-8.308076,2.7995577,5.8988886,-13.009827,-18.857763,40.862167,67.72384,4.6788335,-2.8260121,-6.965491
170,-13.66463851928711,79.27464294433594,74.72423553466797,-6.270745975865842,-1.4894659556386252,-39.35878962335303,-30.136559,-6.4270735,5.8169765,25.331762,1.6939173,-15.000033,8.097795,8.725351,-33.80597,17.907368,-22.562403,-2.1578333,16.970823,6.603204,12.869964,9.686703,7.072877,-37.004738,62.045044,-8.679892,2.5512288,6.177706,-12.89597,-18.94913,40.68977,67.44561,4.380965,-2.745218,-6.832404
171,-13.730862617492676,79.96613311767578,74.832763671875,-6.189191978216926,-1.675454441494766,-39.44590629367209,-30.278053,-5.858526,4.54833,26.3346,-0.70487857,-15.000033,7.945118,8.24616,-33.59713,17.679585,-22.47051,-2.0285752,16.860577,6.7986355,13.074382,9.220936,7.3176756,-36.978153,61.839073,-9.040561,2.3015976,6.3760037,-12.791534,-19.030146,40.562393,67.15344,3.9644272,-2.6288552,-6.6427426
172,-13.799299240112305,80.66619873046875,74.94303894042969,-6.118972213649551,-1.818402664728339,-39.58185108858304,-30.410955,-5.179333,3.3520095,27.305845,-2.7059424,-15.000033,7.6996565,7.7571273,-33.378517,17.544233,-22.34456,-1.9105772,16.75247,6.9853816,13.237497,8.77192,7.5602846,-36.91309,61.66974,-9.325297,2.0775523,6.5244064,-12.701995,-19.105116,40.501358,66.85047,3.5456483,-2.5151575,-6.4226074
173,-13.85483169555664,81.37673950195312,75.05399322509766,-6.062206466801572,-1.9058166512983303,-39.76922160827249,-30.5713,-4.3721595,2.2082899,28.274857,-4.1691713,-15.000033,7.360063,7.269908,-33.154766,17.472237,-22.172922,-1.8177068,16.647736,7.164049,13.349724,8.331625,7.7961636,-36.80377,61.549126,-9.519944,1.8669354,6.608036,-12.62739,-19.177353,40.505833,66.5262,3.1005425,-2.396396,-6.1660457
174,-13.896827697753906,82.07862091064453,75.1705551147461,-6.024782379956019,-1.9484179994243043,-40.00677646583446,-30.75923,-3.4173937,1.1140609,29.239092,-5.280593,-15.000033,6.942233,6.7969866,-32.911854,17.445904,-21.947935,-1.7414297,16.547625,7.347031,13.415525,7.891046,8.02355,-36.669815,61.48247,-9.657681,1.6622764,6.6195903,-12.5620575,-19.248062,40.568348,66.17671,2.5855067,-2.258172,-5.8625984
175,-13.937175750732422,82.77831268310547,75.28463745117188,-6.002521614725445,-1.9697770282309603,-40.29526236020417,-30.909754,-2.369597,0.084386535,30.118717,-6.2463675,-15.000033,6.448704,6.320382,-32.638786,17.51915,-21.689608,-1.6619203,16.452084,7.5327506,13.453687,7.4703646,8.241395,-36.50162,61.450787,-9.743386,1.4979624,6.601598,-12.513169,-19.319075,40.705135,65.829445,2.0905552,-2.1310241,-5.532789
176,-13.975373268127441,83.47339630126953,75.39537811279297,-5.986857049173304,-1.9932067770266542,-40.63549938821118,-30.95014,-1.2795955,-0.85135496,30.838425,-7.260353,-15.000033,5.880521,5.8128366,-32.323505,17.75426,-21.421928,-1.5575328,16.3592,7.715856,13.485084,7.090951,8.448983,-36.28835,61.433983,-9.7808695,1.4077508,6.5962043,-12.484251,-19.389984,40.928097,65.5087,1.7017027,-2.0450861,-5.1980715
177,-13.98793888092041,84.17547607421875,75.50370788574219,-5.929041317013133,-2.025153079577257,-41.023644522436335,-30.822327,-0.20102395,-1.5762552,31.3116,-8.3328495,-14.523425,5.166041,5.1470256,-31.967096,18.365538,-21.217789,-1.4010766,16.259678,7.8585453,13.531098,6.7623,8.642536,-36.00917,61.419174,-9.722481,1.4185361,6.6090693,-12.485776,-19.46401,41.25973,65.22037,1.4488995,-2.0076692,-4.8506913
178,-13.972404479980469,84.88667297363281,75.61602783203125,-5.809173539210374,-2.054552978250566,-41.45380898420469,-30.555822,0.84991974,-2.0913525,31.570219,-9.357849,-13.446162,4.30537,4.306767,-31.569468,19.32923,-21.079306,-1.1965969,16.147894,7.9419446,13.588515,6.469862,8.820136,-35.674744,61.422905,-9.583187,1.506029,6.619573,-12.512911,-19.54175,41.688023,64.95031,1.2839711,-2.0024433,-4.4843745
179,-13.961895942687988,85.59855651855469,75.71923828125,-5.675042284307182,-2.0787493315340995,-41.92289037637476,-30.207968,1.9158223,-2.5498223,31.730677,-10.345337,-12.47347,3.4109495,3.4503422,-31.125198,20.342754,-20.921513,-0.9720906,16.029373,7.9977927,13.636355,6.204842,8.9868765,-35.318066,61.465244,-9.4536,1.6277329,6.6303926,-12.5514145,-19.617544,42.17844,64.69548,1.1804724,-2.0177333,-4.1232166
180,-13.941094398498535,86.29740142822266,75.82075500488281,-5.5210767593405885,-2.1005426040066615,-42.39936415266056,-29.784807,2.9404054,-2.9971342,31.822584,-11.253402,-11.648388,2.5408585,2.609756,-30.657145,21.280838,-20.750423,-0.73044217,15.880662,8.013775,13.67405,5.9601417,9.151614,-34.97712,61.56187,-9.428667,1.7418352,6.644898,-12.59007,-19.683458,42.69878,64.4594,1.1143997,-2.043286,-3.7918127
181,-13.920343399047852,86.98595428466797,75.91374969482422,-5.341154943409419,-2.1205967676132196,-42.89589135202676,-29.2645,3.9219725,-3.4371314,31.828114,-12.069786,-10.984633,1.6900268,1.7765982,-30.15335,22.155651,-20.571589,-0.4660696,15.707793,7.9824586,13.702966,5.751407,9.318999,-34.63072,61.701042,-9.536446,1.8503022,6.672638,-12.636816,-19.735327,43.26366,64.249435,1.0964593,-2.0864625,-3.4880633
182,-13.884978294372559,87.6677017211914,75.99608612060547,-5.139698281161018,-2.136877747916198,-43.421130107885574,-28.644718,4.8926396,-3.8395553,31.744467,-12.807135,-10.4522,0.83601946,0.939636,-29.606936,23.020098,-20.383865,-0.17466438,15.518471,7.9092784,13.722401,5.5796866,9.490449,-34.270195,61.873028,-9.727065,1.9717109,6.7084684,-12.698281,-19.77088,43.883232,64.06752,1.1349949,-2.1491947,-3.2022676
183,-13.842032432556152,88.33767700195312,76.07058715820312,-4.933411541086188,-2.148955240111888,-43.93806704978453,-27.968107,5.8495326,-4.2054405,31.644064,-13.4697075,-10.024915,0.010039258,0.1290963,-29.053495,23.815947,-20.177296,0.13394253,15.292714,7.8061194,13.726915,5.41967,9.671484,-33.95065,62.092926,-9.97384,2.0895402,6.7344003,-12.758147,-19.785233,44.508644,63.909607,1.1900061,-2.2133756,-2.94759
184,-13.79251480102539,88.99159240722656,76.1372299194336,-4.740041382241426,-2.157548126817358,-44.409384201506654,-27.274206,6.789956,-4.538939,31.59147,-14.058158,-9.676513,-0.7665945,-0.6310733,-28.531574,24.508255,-19.95352,0.4481519,15.015307,7.6865144,13.710719,5.246087,9.870754,-33.732277,62.373714,-10.251332,2.1878185,6.7323065,-12.794423,-19.772362,45.083836,63.767914,1.2195097,-2.2613776,-2.7372873
185,-13.742945671081543,89.6308822631836,76.1964111328125,-4.564999480361128,-2.169949618188212,-44.831992199754495,-26.546469,7.713993,-4.853959,31.590551,-14.553155,-9.409711,-1.475683,-1.3278787,-28.045193,25.071392,-19.70849,0.7556999,14.686619,7.552374,13.674037,5.060298,10.095945,-33.629498,62.72288,-10.595246,2.256576,6.7092113,-12.808541,-19.728285,45.617958,63.651535,1.2249267,-2.2980628,-2.5770307
186,-13.69810676574707,90.2643051147461,76.24673461914062,-4.401829368774389,-2.184424202174812,-45.22315480990009,-25.76542,8.627056,-5.1425533,31.613163,-14.9572935,-9.229121,-2.1338933,-1.9781324,-27.579891,25.537785,-19.44778,1.0644621,14.3157215,7.398551,13.618344,4.8765564,10.3497,-33.61537,63.124146,-11.007898,2.307325,6.670062,-12.809018,-19.65104,46.129486,63.562496,1.223512,-2.3301191,-2.4594595
187,-13.641937255859375,90.890625,76.29203796386719,-4.25089667954695,-2.188899212604421,-45.57605061366915,-24.971592,9.53358,-5.3811874,31.683784,-15.309697,-9.111637,-2.7671418,-2.597927,-27.146479,25.944046,-19.17774,1.3902193,13.900124,7.227384,13.538193,4.690802,10.632339,-33.684326,63.553528,-11.409959,2.3571856,6.594183,-12.791467,-19.54132,46.57772,63.492416,1.1941543,-2.3438325,-2.3780825
188,-13.589975357055664,91.50994873046875,76.3272933959961,-4.11257209153367,-2.171332153531562,-45.88397419883887,-24.204426,10.436201,-5.5473166,31.823298,-15.648919,-9.035283,-3.4001575,-3.2019792,-26.754938,26.322098,-18.902039,1.7484089,13.440644,7.0424724,13.429044,4.4944677,10.942537,-33.83565,63.994026,-11.723774,2.419901,6.4606304,-12.746193,-19.40205,46.920185,63.4254,1.1193838,-2.3251748,-2.3261738
189,-13.54098129272461,92.12198638916016,76.35330963134766,-3.9957275378614767,-2.1207083155936766,-46.14523113403564,-23.468561,11.346102,-5.6279426,32.03022,-15.971012,-9.019179,-4.0451293,-3.777196,-26.412964,26.666496,-18.615538,2.1419644,12.93589,6.8494935,13.276316,4.2784305,11.282675,-34.09313,64.45217,-11.946397,2.4937987,6.266842,-12.668203,-19.233986,47.151913,63.351974,0.9797541,-2.2559993,-2.3063827
190,-13.492091178894043,92.73130798339844,76.36815643310547,-3.8993262941791516,-2.0469696773775894,-46.36310467044331,-22.736252,12.257215,-5.637263,32.291794,-16.257063,-9.06496,-4.687243,-4.3206754,-26.115791,26.96493,-18.317797,2.5606718,12.388012,6.648238,13.08638,4.0481524,11.654306,-34.453926,64.93295,-12.1154375,2.57353,6.022563,-12.560706,-19.03778,47.29177,63.278385,0.7897252,-2.1483178,-2.3201842
191,-13.435202598571777,93.33714294433594,76.37579345703125,-3.8081548570821946,-1.9686139198403354,-46.53779096397176,-22.004585,13.146166,-5.5956674,32.619312,-16.52729,-9.125806,-5.3149743,-4.864231,-25.853794,27.246977,-18.023338,3.000708,11.802791,6.4334097,12.885659,3.8190138,12.051362,-34.86974,65.411316,-12.206605,2.6694958,5.7254653,-12.423524,-18.818089,47.331257,63.20907,0.5805225,-2.0336874,-2.3589315
192,-13.376296997070312,93.94486999511719,76.37699127197266,-3.70643041963056,-1.904098097258186,-46.669500089297856,-21.271482,13.989561,-5.5239534,33.023327,-16.802021,-9.1550045,-5.9188247,-5.4412003,-25.616604,27.546928,-17.749268,3.4588046,11.185661,6.2001667,12.699942,3.6033878,12.46387,-35.29647,65.864685,-12.19877,2.7950578,5.3748417,-12.258141,-18.5833,47.26771,63.14896,0.38921493,-1.943372,-2.4141114
193,-13.312117576599121,94.55001068115234,76.37783813476562,-3.594864430665098,-1.8560749117461217,-46.74887004312924,-20.544048,14.7747965,-5.451501,33.53501,-17.086584,-9.139277,-6.4922805,-6.055414,-25.41667,27.86544,-17.49636,3.945757,10.52152,5.94897,12.531853,3.402624,12.885748,-35.735447,66.30127,-12.07172,2.944899,4.947202,-12.056065,-18.337404,47.08263,63.08413,0.19873476,-1.8769284,-2.480202
194,-13.239455223083496,95.15023803710938,76.37214660644531,-3.4805982709611234,-1.8157478640207356,-46.779044663553435,-19.816391,15.515078,-5.3588915,34.13603,-17.368916,-9.103601,-7.046231,-6.6940746,-25.25566,28.19814,-17.261782,4.459208,9.814123,5.6855516,12.367711,3.2049649,13.315868,-36.20718,66.7359,-11.840214,3.112422,4.450744,-11.8161955,-18.082067,46.786633,63.009544,0.0025975057,-1.8198075,-2.5623074
195,-13.168485641479492,95.7576675415039,76.35924530029297,-3.357043280843087,-1.7846978477099456,-46.77860572452299,-19.06801,16.224941,-5.196097,34.764397,-17.643353,-9.057678,-7.5802803,-7.3527093,-25.104027,28.52876,-17.034388,4.972869,9.09463,5.411931,12.209867,3.005172,13.749731,-36.690258,67.1568,-11.530603,3.3063989,3.9314055,-11.541364,-17.823545,46.406033,62.936386,-0.16362686,-1.7818716,-2.6679413
196,-13.071184158325195,96.36980438232422,76.34297943115234,-3.2167981034287103,-1.7645637421030045,-46.76610238695539,-18.278662,16.918102,-4.910962,35.359474,-17.904974,-9.013583,-8.101863,-8.033259,-24.933926,28.860365,-16.814135,5.463136,8.392655,5.130336,12.061441,2.7945404,14.181048,-37.1662,67.555954,-11.173592,3.5358918,3.4353395,-11.234242,-17.571068,45.96995,62.873363,-0.2624701,-1.7727605,-2.804578
197,-12.974458694458008,96.98375701904297,76.3245849609375,-3.058184620136014,-1.7614827436046898,-46.740122254623664,-17.441458,17.585838,-4.50376,35.940865,-18.166763,-8.95969,-8.601395,-8.733522,-24.743176,29.184187,-16.600449,5.9237175,7.7074943,4.8406878,11.929443,2.5671947,14.6048765,-37.650337,67.942406,-10.744529,3.8076236,2.9743354,-10.886266,-17.33215,45.47624,62.806557,-0.28443366,-1.7959511,-2.9711616
198,-12.866105079650879,97.60747528076172,76.30368041992188,-2.884658429716726,-1.7727784624951521,-46.69269991733008,-16.564705,18.220547,-3.9957762,36.529087,-18.426275,-8.89483,-9.082547,-9.455713,-24.54543,29.5078,-16.396364,6.367414,7.027125,4.5429587,11.810158,2.324047,15.018887,-38.147945,68.32244,-10.236803,4.1132574,2.5230286,-10.492444,-17.110569,44.913357,62.72508,-0.2475106,-1.8456933,-3.16393
199,-12.76104736328125,98.22370147705078,76.2845230102539,-2.697098714711722,-1.7862131684711224,-46.63231710989423,-15.655216,18.835314,-3.368198,37.07557,-18.660624,-8.84321,-9.560988,-10.198334,-24.333864,29.829288,-16.18965,6.7963877,6.3629766,4.240331,11.69114,2.071449,15.420285,-38.618458,68.6812,-9.702024,4.4410644,2.0717287,-10.055702,-16.908655,44.291763,62.638554,-0.16028944,-1.9173164,-3.3861141
200,-12.652227401733398,98.84577178955078,76.26439666748047,-2.4963009889036574,-1.789477158938153,-46.56744560788477,-14.716248,19.440126,-2.599206,37.527134,-18.843765,-8.828499,-10.053207,-10.960363,-24.100735,30.14647,-15.967978,7.213317,5.723515,3.935828,11.559709,1.81745,15.806307,-39.01774,69.00367,-9.190825,4.78005,1.6116436,-9.584159,-16.727587,43.627544,62.562077,-0.02845592,-2.0066,-3.6410797
201,-12.527069091796875,99.47297668457031,76.24394226074219,-2.2704815752173007,-1.779836241219785,-46.50899104705574,-13.72716,20.035048,-1.6264399,37.873207,-18.985523,-8.860341,-10.571523,-11.754579,-23.832663,30.466955,-15.722044,7.6313033,5.1149216,3.6202042,11.410145,1.5684832,16.173975,-39.331665,69.294426,-8.696529,5.1433682,1.1098504,-9.070551,-16.567913,42.913418,62.493446,0.11341384,-2.104544,-3.9261727
202,-12.392902374267578,100.10423278808594,76.22207641601562,-2.022586811131709,-1.7634864094958915,-46.449015014750124,-12.690537,20.60279,-0.47590956,38.143387,-19.094723,-8.925013,-11.106475,-12.577139,-23.535786,30.788029,-15.4593315,8.044627,4.5292654,3.2954519,11.249193,1.3172214,16.522284,-39.583714,69.56331,-8.197959,5.530772,0.5810759,-8.513212,-16.43028,42.148033,62.42655,0.28107196,-2.2164874,-4.240317
203,-12.259292602539062,100.73674774169922,76.19627380371094,-1.7750703744129834,-1.7415496878598067,-46.36747465488664,-11.648063,21.130577,0.73940444,38.347893,-19.145317,-9.011837,-11.6411915,-13.402027,-23.232992,31.091507,-15.192771,8.427439,3.9538875,2.982117,11.083517,1.0550188,16.852371,-39.781418,69.80033,-7.720806,5.9129424,0.08918369,-7.9258466,-16.314213,41.351307,62.368546,0.539782,-2.3601933,-4.5891633
204,-12.114861488342285,101.38850402832031,76.1635513305664,-1.5505198319882203,-1.7149433906794382,-46.24443846397303,-10.643298,21.612799,1.9041883,38.494747,-19.110258,-9.110049,-12.156014,-14.203558,-22.948994,31.355576,-14.933564,8.754098,3.3742545,2.699307,10.920425,0.7731061,17.16686,-39.93274,69.99605,-7.295069,6.2605195,-0.30123034,-7.3271356,-16.218931,40.54703,62.33058,0.9554689,-2.5546796,-4.978009
205,-11.974763870239258,102.03932189941406,76.12495422363281,-1.355790961285353,-1.6828742076564052,-46.0800633470685,-9.711311,22.086824,3.0311792,38.658344,-18.972769,-9.110639,-12.6529455,-14.973621,-22.690231,31.582531,-14.675991,9.019171,2.7877514,2.453483,10.759516,0.47237623,17.468925,-40.036762,70.14663,-6.916953,6.5870795,-0.58304465,-6.713125,-16.141977,39.737602,62.316006,1.6227217,-2.8332264,-5.4162245
206,-11.831682205200195,102.70162963867188,76.08915710449219,-1.1782917946013198,-1.6450713261102867,-45.88313420751779,-8.823075,22.544426,4.166122,38.81048,-18.749279,-9.055537,-13.139294,-15.727005,-22.44454,31.779654,-14.415651,9.23567,2.20068,2.2322836,10.598332,0.15916067,17.759108,-40.087452,70.255585,-6.5745397,6.9026384,-0.7865939,-6.078373,-16.082136,38.913715,62.320946,2.4803443,-3.1810932,-5.8950515
207,-11.686223983764648,103.3559341430664,76.05390930175781,-1.0112682893544371,-1.6037961654068194,-45.64616624468116,-7.9370522,22.918983,5.2362328,38.8167,-18.473637,-9.159235,-13.609201,-16.477549,-22.21109,31.950678,-14.176541,9.407053,1.6127698,2.0290086,10.440942,-0.16733715,18.03653,-40.089108,70.315575,-6.2899375,7.1815166,-0.9016626,-5.430676,-16.038965,38.07411,62.33716,3.3563623,-3.5436878,-6.393724
208,-11.53868579864502,104.02703094482422,76.0181884765625,-0.8478216230692037,-1.561110857630506,-45.361249607461765,-7.0169044,23.143257,6.1634064,38.54208,-18.182472,-9.633256,-14.056202,-17.239122,-21.988274,32.095993,-13.980347,9.536928,1.023738,1.8365842,10.291437,-0.50969625,18.299192,-40.046833,70.32096,-6.0862455,7.3979664,-0.9173565,-4.7795744,-16.012936,37.218967,62.357704,4.08174,-3.862631,-6.8951178
209,-11.379645347595215,104.70670318603516,75.97916412353516,-0.6869393210810444,-1.5233532330702668,-45.02653246910105,-6.017532,23.240868,6.9729147,37.930374,-17.855667,-10.639545,-14.482995,-18.017197,-21.772379,32.238182,-13.848905,9.617286,0.4327888,1.6542374,10.153771,-0.86817974,18.545292,-39.94927,70.276794,-5.981446,7.552064,-0.8236635,-4.1239376,-16.005457,36.35134,62.392967,4.6801486,-4.1808295,-7.4359393
210,-11.211188316345215,105.40766906738281,75.93594360351562,-0.5321171043805994,-1.4871527112580745,-44.64603113281438,-4.9780574,23.236517,7.682005,37.05788,-17.482218,-12.026878,-14.89108,-18.804222,-21.565489,32.36864,-13.764366,9.649241,-0.16004449,1.4860687,10.024789,-1.2440801,18.774376,-39.798717,70.187195,-5.961193,7.6560054,-0.62731427,-3.457147,-16.015831,35.46949,62.439434,5.2188125,-4.508783,-8.012528
211,-11.03783130645752,106.11405181884766,75.89242553710938,-0.38439336202593966,-1.439600216701402,-44.21954106407736,-3.9923103,23.07368,8.197954,35.989902,-17.12223,-13.536588,-15.271575,-19.597101,-21.381796,32.44563,-13.693896,9.651293,-0.75227845,1.3323616,9.897262,-1.6399131,18.98621,-39.618126,70.04435,-5.9954877,7.700933,-0.34294668,-2.7834108,-16.04206,34.563927,62.475258,5.595219,-4.7350206,-8.552077
212,-10.869782447814941,106.83409881591797,75.85074615478516,-0.24476673633893636,-1.3683160598268052,-43.74741365721469,-3.1519282,22.703384,8.428913,34.789032,-16.843567,-14.90873,-15.618233,-20.392303,-21.234364,32.43212,-13.607284,9.641643,-1.3399434,1.194445,9.764666,-2.0570524,19.180065,-39.426544,69.83838,-6.0484138,7.678331,0.014438077,-2.107048,-16.081013,33.624374,62.47854,5.709832,-4.7453814,-8.983098
213,-10.67525577545166,107.59130859375,75.8228530883789,0.11620287210565752,-1.2242651647456408,-43.14008663403228,-2.4859507,21.651625,8.280679,33.24064,-16.552607,-15.000033,-16.09397,-21.538603,-21.028101,32.51949,-13.566785,9.688644,-2.0003693,0.85378695,9.572955,-2.5038617,19.357212,-39.225704,69.57852,-6.111411,7.571459,0.46609586,-1.4253541,-16.127304,32.634872,62.443424,5.4922466,-4.4586244,-9.299186
214,-10.483808517456055,108.36363220214844,75.80010986328125,0.474814616591632,-1.0609767794786389,-42.478706545840424,-1.900614,20.382242,7.767082,31.439913,-16.298328,-15.000033,-16.54778,-22.69921,-20.847853,32.53415,-13.519607,9.718849,-2.6622946,0.52561396,9.371662,-2.9740543,19.516768,-39.005527,69.26236,-6.201067,7.390998,1.0114486,-0.74213684,-16.181376,31.604782,62.39117,5.01323,-3.9487324,-9.531522
215,-10.291829109191895,109.14033508300781,75.77672576904297,0.7953228426599255,-0.8962443525504316,-41.80500464798253,-1.3931311,19.078098,7.12352,29.564758,-16.147112,-15.000033,-16.930466,-23.798176,-20.701212,32.415207,-13.444065,9.727221,-3.2928557,0.24570993,9.18459,-3.463759,19.657442,-38.78077,68.88301,-6.3298235,7.161791,1.6020293,-0.058836065,-16.243612,30.55533,62.321854,4.381819,-3.3338003,-9.667844
216,-10.104390144348145,109.92552185058594,75.75665283203125,1.0708137663674866,-0.7385921803447247,-41.14748871218731,-0.9943802,17.865778,6.600854,27.796242,-16.150913,-15.000033,-17.21674,-24.80516,-20.586548,32.128727,-13.328329,9.716553,-3.869596,0.019826582,9.025649,-3.968034,19.778313,-38.5663,68.42843,-6.5100226,6.913216,2.1901646,0.62162936,-16.314337,29.51009,62.238155,3.708341,-2.7332833,-9.699722
217,-9.923369407653809,110.7035140991211,75.7492446899414,1.2673710648075986,-0.5830730324410756,-40.49514142924225,-0.7562838,16.798485,6.2574167,26.12225,-16.394354,-15.000033,-17.399725,-25.684332,-20.537973,31.675508,-13.17145,9.652605,-4.398746,-0.12111003,8.894831,-4.4906445,19.878407,-38.356693,67.87939,-6.7403674,6.6692843,2.7848148,1.3027228,-16.394093,28.45555,62.13672,2.9392962,-2.133939,-9.600317
218,-9.735090255737305,111.49724578857422,75.7552719116211,1.4018141071902517,-0.4250814591688055,-39.83555855609606,-0.6819002,15.819924,5.9830155,24.50362,-16.822763,-15.000033,-17.499405,-26.46752,-20.55017,31.086617,-12.988114,9.546733,-4.8905873,-0.19266346,8.785837,-5.0335383,19.957544,-38.14827,67.248375,-7.0168405,6.408132,3.4037218,1.9878234,-16.482517,27.384949,62.01619,2.040242,-1.4905194,-9.378111
219,-9.554505348205566,112.29010772705078,75.77100372314453,1.5519470321694664,-0.2731655838810931,-39.192025255463825,-0.7341197,14.860317,5.7840033,23.068485,-17.274427,-15.000033,-17.535103,-27.235197,-20.558386,30.372433,-12.788163,9.472759,-5.332272,-0.26879025,8.698918,-5.5860534,20.016666,-37.949932,66.57052,-7.3396225,6.0885005,4.012181,2.6710427,-16.57792,26.331757,61.88455,1.1487461,-0.8749899,-9.085151
220,-9.378135681152344,113.10310363769531,75.78254699707031,1.7949988274472581,-0.1363323924976013,-38.587853635132646,-0.8629924,13.827179,5.6545987,21.92702,-17.584698,-15.000033,-17.529816,-28.072577,-20.49382,29.542763,-12.577979,9.505996,-5.7128186,-0.42386776,8.632358,-6.139406,20.058205,-37.77507,65.88201,-7.715003,5.6691093,4.5745554,3.3426523,-16.677393,25.331818,61.752686,0.40456986,-0.3568127,-8.778517
221,-9.19041633605957,113.9229507446289,75.80188751220703,2.167421950772433,-0.017748701905213438,-38.01320997483365,-1.0765468,12.651096,5.616838,21.144033,-17.729816,-15.000033,-17.489582,-29.04394,-20.384739,28.596684,-12.334315,9.674082,-6.038512,-0.6929596,8.590281,-6.6992965,20.083532,-37.630783,65.15256,-8.123251,5.1305547,5.0801005,3.9958448,-16.784922,24.373806,61.61673,-0.18374382,0.053852767,-8.454668
222,-9.006772994995117,114.74305725097656,75.835693359375,2.630538041898218,0.08540303253783563,-37.46071928225729,-1.3973082,11.36968,5.6726995,20.64446,-17.787493,-15.000033,-17.413767,-30.097763,-20.242477,27.535423,-12.059835,9.9386,-6.3126197,-1.0410496,8.57053,-7.267331,20.09322,-37.507565,64.377396,-8.567,4.494363,5.545156,4.637908,-16.901976,23.444038,61.47161,-0.68245524,0.39155966,-8.093663
223,-8.819975852966309,115.57954406738281,75.8796615600586,3.146337398473855,0.17492043379072952,-36.95507544318941,-1.7772881,10.02401,5.7653775,20.301712,-17.744286,-14.884199,-17.30558,-31.133759,-19.98345,26.339525,-11.791552,10.276902,-6.522113,-1.4344276,8.560602,-7.8213544,20.089264,-37.389297,63.618134,-9.082279,3.7891893,5.975708,5.267268,-17.018469,22.58023,61.340492,-1.0579885,0.6567479,-7.73204
224,-8.624882698059082,116.44225311279297,75.92479705810547,3.8004703769450603,0.2693525073038568,-36.477109851230296,-2.1062105,8.416789,5.79009,19.792297,-17.47517,-14.079093,-17.241705,-32.229153,-19.465584,25.05251,-11.57925,10.705949,-6.6994214,-1.958382,8.515783,-8.341375,20.076033,-37.262825,62.94385,-9.710326,3.0401723,6.376769,5.8749194,-17.116312,21.820736,61.255802,-1.2809601,0.8500308,-7.408023
225,-8.42467975616455,117.29269409179688,75.9783706665039,4.4963740488631485,0.34492059593375546,-36.05955148058093,-2.4130385,6.783653,5.7874928,19.301413,-17.040934,-13.335621,-17.083908,-33.216385,-18.7277,23.462292,-11.450986,11.184483,-6.81571,-2.5378113,8.474977,-8.8333235,20.061148,-37.13918,62.35631,-10.519564,2.1783903,6.7320957,6.447493,-17.180109,21.165724,61.24219,-1.3169098,0.94779885,-7.136473
226,-8.252135276794434,118.11949157714844,76.03861999511719,5.238333039821846,0.40229890755077335,-35.695092593043704,-2.7084575,5.1052227,5.7908187,18.885258,-16.471315,-12.622291,-16.844954,-34.120106,-17.827484,21.59032,-11.352453,11.733783,-6.8704376,-3.1769986,8.444086,-9.302416,20.047785,-37.02369,61.82262,-11.470627,1.2148544,7.037013,6.980599,-17.212032,20.597654,61.292477,-1.1925726,0.9591035,-6.900173
227,-8.092935562133789,118.92420959472656,76.10297393798828,5.9229672103731765,0.4572098234273802,-35.416945135162194,-2.980965,3.5266788,5.84306,18.518847,-15.879349,-11.944061,-16.60463,-34.818947,-16.828928,19.645624,-11.177565,12.345861,-6.8546505,-3.7691138,8.409331,-9.708379,20.035885,-36.86457,61.354282,-12.434169,0.29512948,7.319693,7.4466963,-17.214296,20.163935,61.421116,-0.9593025,0.93255734,-6.6934056
228,-7.93515157699585,119.7046127319336,76.16102600097656,6.449097204117908,0.5274523607922698,-35.258201574872686,-3.2342014,2.1918774,5.984432,18.173836,-15.371666,-11.307622,-16.439545,-35.20819,-15.785972,17.870405,-10.843504,12.995267,-6.7276726,-4.2041583,8.362739,-10.031841,20.020723,-36.647587,60.966286,-13.28968,-0.43440765,7.6181526,7.85814,-17.201717,19.86958,61.6038,-0.67606217,0.9170776,-6.503425
229,-7.791700839996338,120.46752166748047,76.21621704101562,6.795605093702142,0.6343186999260935,-35.23682499536615,-3.488002,1.1411073,6.2367024,17.848328,-14.971748,-10.740962,-16.377743,-35.26516,-14.619269,16.247314,-10.381836,13.57746,-6.4562736,-4.4518337,8.294568,-10.297522,19.990662,-36.383965,60.679737,-14.012277,-0.92033124,7.953239,8.236609,-17.171354,19.686602,61.83767,-0.30937725,0.90128654,-6.3657293
230,-7.636418342590332,121.2097396850586,76.27006530761719,7.02075673155107,0.7651044323941136,-35.33106561345754,-3.7483363,0.29090247,6.5733085,17.564896,-14.626344,-10.230853,-16.352566,-35.06725,-13.3310585,14.688502,-9.832497,14.127344,-6.0950694,-4.584896,8.18914,-10.513522,19.919228,-36.05729,60.53601,-14.655948,-1.2497591,8.314056,8.532404,-17.098064,19.670893,62.19182,0.16973588,0.8662467,-6.28769
231,-7.494872093200684,121.94430541992188,76.33451843261719,7.142283452137928,0.887655995915648,-35.51558725163232,-3.9960926,-0.40105388,6.9615517,17.31903,-14.318367,-9.723333,-16.304647,-34.681835,-12.083512,13.345317,-9.145744,14.823933,-5.6659346,-4.623664,8.098067,-10.648439,19.832523,-35.647804,60.46948,-15.223685,-1.4762613,8.6785755,8.751841,-17.017956,19.792301,62.596462,0.63296366,0.8520414,-6.1790557
232,-7.377065181732178,122.66770935058594,76.40937042236328,7.0816283707943715,1.011872659402811,-35.82323545839135,-4.327878,-0.8268122,7.400344,17.294416,-14.130762,-9.1974745,-16.232565,-33.931297,-10.997749,12.316348,-8.251029,15.000033,-5.1568747,-4.4992423,8.042063,-10.671492,19.726242,-35.08773,60.446392,-15.684552,-1.6554594,9.022828,8.860407,-16.946568,20.040644,63.02722,0.94465184,0.8987008,-5.9575043
233,-7.2708868980407715,123.37409210205078,76.49091339111328,6.757851730128104,1.1550160882260083,-36.306067216092764,-4.8343186,-0.87071073,7.920204,17.68576,-14.179387,-8.635923,-16.087925,-32.66578,-10.161993,11.493344,-6.927676,15.000033,-4.521466,-4.11782,8.019038,-10.565359,19.589405,-34.3088,60.459007,-15.973537,-1.7726146,9.31221,8.845029,-16.896793,20.427286,63.49129,1.0780421,1.0262945,-5.6047735
234,-7.168426990509033,124.07571411132812,76.60133361816406,6.250444450967721,1.2933086807395355,-36.91769362380879,-5.4036446,-0.6483843,8.497244,18.292173,-14.363323,-8.045388,-15.94714,-31.053474,-9.506107,10.991662,-5.380459,15.000033,-3.8035836,-3.5519536,8.020132,-10.34835,19.416319,-33.34915,60.52087,-16.119678,-1.8058497,9.569322,8.730963,-16.87179,20.956709,63.98396,1.1035949,1.2122914,-5.1593947
235,-7.083354949951172,124.77864074707031,76.73703002929688,5.675609483658258,1.398693152242656,-37.57157928541425,-5.8982253,-0.33593976,9.072441,18.826992,-14.512944,-7.448664,-15.950408,-29.39935,-8.967555,11.152744,-4.09408,15.000033,-3.086059,-2.9230843,8.04144,-10.049794,19.216984,-32.32387,60.634182,-16.25367,-1.8018544,9.856518,8.536603,-16.868874,21.60989,64.47539,1.0346658,1.4247192,-4.6249304
236,-6.988847255706787,125.48241424560547,76.89051818847656,5.1566687017506885,1.4463867879882835,-38.182431474395045,-6.1947317,-0.11931597,9.598001,19.02929,-14.47265,-6.8690133,-16.186703,-28.005043,-8.461013,12.237548,-3.465594,15.000033,-2.4465032,-2.361935,8.087484,-9.687724,19.01219,-31.343958,60.787956,-16.499172,-1.8079062,10.235562,8.278969,-16.879513,22.36483,64.942085,0.88451535,1.6266056,-4.005306
237,-6.882053375244141,126.18328094482422,77.05264282226562,4.717017595613109,1.4145153849927776,-38.73955329620619,-6.2335825,-0.044728346,10.0664215,18.81622,-14.194007,-6.311946,-16.638592,-26.87689,-7.799654,14.285209,-3.5447862,15.000033,-1.9029555,-1.895118,8.190823,-9.232511,18.81293,-30.37048,60.961033,-16.87203,-1.8255337,10.751811,7.9425063,-16.894562,23.248531,65.39104,0.6376163,1.8216941,-3.270996
238,-6.773219108581543,126.88229370117188,77.21334075927734,4.3094931464739465,1.3153168417918706,-39.28042062542019,-6.088492,-0.038578287,10.507933,18.34041,-13.773639,-5.7670236,-17.171038,-25.855835,-7.105252,16.976887,-4.008093,15.000033,-1.4190243,-1.4747494,8.347989,-8.672358,18.623066,-29.365778,61.146904,-17.312984,-1.8338479,11.360164,7.523658,-16.90832,24.264402,65.83276,0.29206407,2.0196118,-2.4292662
239,-6.667112350463867,127.56178283691406,77.37129974365234,3.958525135040868,1.176048058484777,-39.78901541632805,-5.8334146,-0.116778955,10.932551,17.694292,-13.270998,-5.2323446,-17.67044,-25.022696,-6.7191167,20.003725,-4.6567965,15.000033,-0.9895471,-1.1293299,8.517724,-8.054865,18.459976,-28.45544,61.35795,-17.841774,-1.8478316,11.988266,7.0697465,-16.91435,25.347565,66.22753,-0.122940704,2.2039077,-1.5400826
240,-6.5714945793151855,128.2308807373047,77.52011108398438,3.680032249352678,1.0279977713126065,-40.252264614560566,-5.5448003,-0.28072405,11.347732,16.970491,-12.740776,-4.7040215,-18.067896,-24.482838,-6.963964,23.141977,-5.349885,15.000033,-0.5989896,-0.8813805,8.657627,-7.4306164,18.346407,-27.776789,61.60369,-18.484882,-1.8816464,12.564891,6.6287556,-16.906704,26.422777,66.53618,-0.5813323,2.358819,-0.66435516
