unveil-humanoid-operators/unveil-humanoid-operators.github.io/feature-analysis-animation/data/feature_matrix_instances/weight_ankle_peak_vel_jogging_A090_jog_ff_start_180_R_002__A090.csv
Frame,root_translateX,root_translateY,root_translateZ,root_rotateX,root_rotateY,root_rotateZ,left_hip_pitch_joint_dof,left_hip_roll_joint_dof,left_hip_yaw_joint_dof,left_knee_joint_dof,left_ankle_pitch_joint_dof,left_ankle_roll_joint_dof,right_hip_pitch_joint_dof,right_hip_roll_joint_dof,right_hip_yaw_joint_dof,right_knee_joint_dof,right_ankle_pitch_joint_dof,right_ankle_roll_joint_dof,waist_yaw_joint_dof,waist_roll_joint_dof,waist_pitch_joint_dof,left_shoulder_pitch_joint_dof,left_shoulder_roll_joint_dof,left_shoulder_yaw_joint_dof,left_elbow_joint_dof,left_wrist_roll_joint_dof,left_wrist_pitch_joint_dof,left_wrist_yaw_joint_dof,right_shoulder_pitch_joint_dof,right_shoulder_roll_joint_dof,right_shoulder_yaw_joint_dof,right_elbow_joint_dof,right_wrist_roll_joint_dof,right_wrist_pitch_joint_dof,right_wrist_yaw_joint_dof
0,-0.32112637162208557,2.0960443019866943,78.24127960205078,3.589624053091747,-0.5106235309282136,-94.1275722005576,5.4684434,-1.2047755,20.67209,6.7210217,-9.547981,-3.7936423,-3.868632,-12.334914,-12.624098,25.459188,-20.089811,6.2537036,-3.3424182,-5.098654,6.560242,-10.141888,11.136207,-53.72588,58.451466,1.3715713,1.8541408,4.149725,-8.681915,-9.677953,44.94613,56.92499,0.7175291,-2.0277932,-6.9523644
1,-0.30962830781936646,2.2087502479553223,78.23226165771484,3.594248250399507,-0.5465593367792264,-94.14422367318578,5.5209556,-1.2091907,20.682299,6.7221913,-9.557426,-3.7929323,-3.8358026,-12.337912,-12.604949,25.48548,-20.10637,6.2516823,-3.316752,-5.111119,6.598382,-10.139065,11.129236,-53.730057,58.444286,1.3856812,1.875427,4.1278453,-8.695531,-9.675001,44.957222,56.92672,0.69979197,-2.0202663,-6.934308
2,-0.32340243458747864,2.105003595352173,78.23585510253906,3.600301063255895,-0.585786164578558,-94.1630948551755,5.5786066,-1.2128416,20.694004,6.721938,-9.566293,-3.7920618,-3.7984421,-12.339446,-12.584019,25.510525,-20.122734,6.248676,-3.2990453,-5.1211295,6.632204,-10.138458,11.105741,-53.729584,58.45934,1.3975002,1.8963016,4.108022,-8.718671,-9.666762,44.992664,56.944763,0.6983418,-2.0143492,-6.9221716
3,-0.32411426305770874,2.0723814964294434,78.23481750488281,3.6053343170229923,-0.618366471660091,-94.17750801305408,5.6264024,-1.2178371,20.702557,6.7228236,-9.575175,-3.7915728,-3.7689068,-12.34368,-12.567069,25.536074,-20.13842,6.24764,-3.2816093,-5.1316347,6.6640034,-10.137868,11.088649,-53.728786,58.465557,1.409869,1.9141914,4.0897512,-8.736675,-9.662357,45.01521,56.95484,0.6861201,-2.0069058,-6.905177
4,-0.3290863037109375,2.0647807121276855,78.23162078857422,3.611246505947882,-0.6339771899128659,-94.18080792523688,5.650594,-1.2261397,20.702595,6.722559,-9.581445,-3.7922156,-3.7592146,-12.353735,-12.560653,25.562906,-20.152468,6.2512746,-3.2707942,-5.1432257,6.6849933,-10.138634,11.0856,-53.73068,58.460926,1.4141432,1.9223093,4.078088,-8.749545,-9.661938,45.021152,56.96004,0.6587918,-1.9974014,-6.879826
5,-0.31738895177841187,2.0846827030181885,78.22686004638672,3.6194935510109048,-0.6298121358678825,-94.1653832605796,5.64473,-1.2399048,20.68772,6.7230325,-9.58575,-3.7953677,-3.7701254,-12.374041,-12.572626,25.590778,-20.165098,6.2627535,-3.2814221,-5.151674,6.6874638,-10.1457815,11.071887,-53.731297,58.468487,1.4028169,1.9159102,4.082721,-8.76577,-9.660894,45.025455,56.97663,0.61669993,-1.9841474,-6.8427544
6,-0.3186032474040985,2.0810229778289795,78.22322845458984,3.629459536211592,-0.610932086835538,-94.13672538840801,5.617478,-1.2570369,20.662086,6.723205,-9.588626,-3.8003998,-3.7959862,-12.400611,-12.598153,25.618195,-20.175953,6.279535,-3.3021407,-5.161133,6.677756,-10.156414,11.062987,-53.732384,58.476997,1.3828654,1.8978006,4.095044,-8.777511,-9.661073,45.015232,56.99313,0.556219,-1.9686879,-6.794544
7,-0.321658194065094,2.0719242095947266,78.22193908691406,3.639367630660273,-0.5807042358304958,-94.10760964865835,5.575683,-1.2751229,20.637726,6.722645,-9.589027,-3.8043034,-3.8388019,-12.428458,-12.622132,25.648579,-20.185778,6.296921,-3.319551,-5.170355,6.6618953,-10.173644,11.053025,-53.736595,58.489822,1.3633221,1.8759589,4.109073,-8.789618,-9.662288,44.998047,57.00982,0.49943364,-1.9539119,-6.7493715
8,-0.31852248311042786,2.063981056213379,78.22124481201172,3.648830247345256,-0.5422134192250978,-94.09105952593498,5.524532,-1.2908509,20.626364,6.7225876,-9.586464,-3.8043592,-3.9004238,-12.451276,-12.629976,25.684101,-20.194935,6.3098836,-3.326191,-5.180551,6.6432123,-10.195649,11.048643,-53.741158,58.505497,1.3527086,1.8562684,4.1173797,-8.807366,-9.66349,44.989555,57.028137,0.4697868,-1.942931,-6.7222695
9,-0.3207865059375763,2.05189847946167,78.22137451171875,3.661124082306501,-0.48765021258899033,-94.09065562979747,5.454044,-1.304628,20.632654,6.72222,-9.578225,-3.799012,-3.9964306,-12.468463,-12.615306,25.729221,-20.202366,6.3179064,-3.3160257,-5.1908827,6.621815,-10.232973,11.044163,-53.75005,58.529186,1.3554401,1.8367025,4.1185694,-8.838466,-9.665422,44.985416,57.049263,0.48211464,-1.9389826,-6.720717
10,-0.3320910930633545,2.026167392730713,78.22224426269531,3.6727952822903625,-0.4184193325126232,-94.09960549153756,5.3651156,-1.3178289,20.64978,6.7199397,-9.564054,-3.7900813,-4.120555,-12.482787,-12.586886,25.781155,-20.208199,6.3233514,-3.2948537,-5.2002187,6.595115,-10.28246,11.037103,-53.764496,58.56163,1.3653586,1.8154732,4.117977,-8.876662,-9.669396,44.983932,57.07155,0.52309066,-1.9394332,-6.7368493
11,-0.331794410943985,2.0161550045013428,78.22321319580078,3.684349004677574,-0.35083097373114447,-94.11420413471265,5.280004,-1.3282939,20.672178,6.720367,-9.5525465,-3.7795541,-4.2419477,-12.493482,-12.55295,25.831484,-20.214096,6.325643,-3.270709,-5.210452,6.565508,-10.324897,11.035013,-53.77274,58.59387,1.3794717,1.7985375,4.113074,-8.910028,-9.671353,44.988068,57.094715,0.56557614,-1.9388603,-6.7573304
12,-0.3158547580242157,2.1028480529785156,78.21802520751953,3.6936565262843697,-0.30110963686895414,-94.13040990855586,5.2237687,-1.3359843,20.694122,6.7195783,-9.546794,-3.7691753,-4.3298264,-12.500377,-12.522381,25.872305,-20.221636,6.3243403,-3.2430487,-5.2167377,6.5411725,-10.352487,11.0323715,-53.780544,58.622288,1.386342,1.7944506,4.106508,-8.931659,-9.674215,44.998238,57.118046,0.591807,-1.9328957,-6.7697334
13,-0.3149126172065735,2.1068191528320312,78.21654510498047,3.6990855466796293,-0.2707519912673469,-94.14994905860907,5.199581,-1.3408993,20.717396,6.7198787,-9.549562,-3.7563918,-4.3818035,-12.503234,-12.493061,25.904446,-20.230928,6.3159065,-3.212131,-5.2185345,6.5152283,-10.352619,11.028966,-53.7799,58.642506,1.3920513,1.8121153,4.0939617,-8.932394,-9.678558,45.017117,57.13948,0.58342046,-1.914411,-6.7683716
14,-0.32278233766555786,2.0831828117370605,78.21916961669922,3.703542070956798,-0.2520599987143055,-94.17410167454666,5.1963606,-1.343268,20.74399,6.7187777,-9.55616,-3.741247,-4.412251,-12.502095,-12.462122,25.93129,-20.241077,6.301684,-3.1741476,-5.218244,6.49023,-10.33788,11.027074,-53.77357,58.658295,1.3997433,1.8446757,4.075452,-8.921269,-9.681453,45.036377,57.16004,0.55412674,-1.888019,-6.7594666
15,-0.3162056803703308,2.061105966567993,78.21708679199219,3.7039927702276705,-0.2472956629363207,-94.19779227773671,5.2135386,-1.3425024,20.768047,6.7185974,-9.568399,-3.7295268,-4.415169,-12.49748,-12.436409,25.94651,-20.251854,6.2887278,-3.1541848,-5.211792,6.463714,-10.301337,11.022565,-53.748135,58.67184,1.407348,1.8780253,4.06035,-8.899734,-9.690052,45.087116,57.178787,0.53443235,-1.8634651,-6.754199
16,-0.3188633918762207,2.042849063873291,78.2137451171875,3.700614704717177,-0.2599559162088601,-94.21560342739706,5.251721,-1.3369509,20.78268,6.72009,-9.586115,-3.727385,-4.3822846,-12.488935,-12.423896,25.942719,-20.2624,6.2839704,-3.1397586,-5.2023296,6.4495087,-10.25838,11.018829,-53.723503,58.68582,1.4112855,1.8983626,4.0549555,-8.869377,-9.700345,45.132008,57.19637,0.529414,-1.852382,-6.7543073
17,-0.3345756530761719,1.9390897750854492,78.21632385253906,3.688330710814201,-0.305539244201055,-94.22538833824618,5.333622,-1.3237252,20.783176,6.720516,-9.613254,-3.739662,-4.2826242,-12.472075,-12.432659,25.903467,-20.271961,6.2919364,-3.1307046,-5.187976,6.454092,-10.198921,11.016385,-53.70574,58.700684,1.4060954,1.8945274,4.06984,-8.816944,-9.712578,45.172997,57.20927,0.5496979,-1.8618625,-6.765766
18,-0.3346747159957886,1.9079437255859375,78.2143783569336,3.671860640774929,-0.37780868871883583,-94.23044456937949,5.451395,-1.3040447,20.77417,6.720978,-9.648216,-3.762112,-4.1297135,-12.448557,-12.456287,25.838013,-20.281292,6.30807,-3.1156662,-5.171236,6.474784,-10.130135,11.015855,-53.700996,58.717228,1.3922051,1.8767028,4.0973725,-8.748877,-9.720247,45.197056,57.226017,0.57778275,-1.8861287,-6.782024
19,-0.32951825857162476,1.9078493118286133,78.21029663085938,3.652999480572585,-0.4457646037362772,-94.23301949512819,5.562353,-1.2852498,20.763155,6.721942,-9.682698,-3.7867737,-3.9834275,-12.426481,-12.481711,25.774612,-20.29073,6.325426,-3.1071658,-5.1547194,6.4902983,-10.058642,11.016444,-53.695797,58.730907,1.3763384,1.8631052,4.123451,-8.67872,-9.729456,45.22573,57.239624,0.61284935,-1.9120569,-6.799911
20,-0.3247090280056,1.9057458639144897,78.20831298828125,3.6431903447669196,-0.4795213121374327,-94.23632127246844,5.6262093,-1.2751635,20.758272,6.722891,-9.707975,-3.8057513,-3.9019263,-12.414923,-12.4949665,25.741045,-20.299734,6.3372746,-3.0962372,-5.144614,6.495629,-10.01744,11.01721,-53.691757,58.746216,1.3638524,1.8710177,4.128208,-8.637091,-9.734321,45.238506,57.262,0.6334273,-1.9314792,-6.807367
21,-0.32323142886161804,1.891808032989502,78.20692443847656,3.6452745000773,-0.458518034145292,-94.24076697632265,5.6149435,-1.2776031,20.762302,6.7225094,-9.717816,-3.8178945,-3.9232328,-12.418844,-12.489493,25.754139,-20.308231,6.339835,-3.0979345,-5.1394825,6.4662976,-9.991073,11.0212965,-53.67227,58.747757,1.3628688,1.9194922,4.101507,-8.616369,-9.750421,45.263294,57.276497,0.64662325,-1.9383008,-6.8049474
22,-0.3259451985359192,1.8732482194900513,78.20542907714844,3.6534441897473764,-0.4036017918666584,-94.2452252066533,5.5566897,-1.2879521,20.771084,6.7215366,-9.718401,-3.8271677,-4.008102,-12.432794,-12.473416,25.795788,-20.316242,6.3373866,-3.0958273,-5.1398716,6.42714,-9.993464,11.025888,-53.652485,58.74843,1.3665526,1.9932841,4.0518646,-8.621146,-9.764598,45.268887,57.296356,0.6474665,-1.9408212,-6.7918916
23,-0.3245479166507721,1.8654084205627441,78.20350646972656,3.661554144265407,-0.3443532220738114,-94.24860873659314,5.491629,-1.2998923,20.780159,6.72125,-9.717314,-3.8331993,-4.101037,-12.448792,-12.456562,25.840958,-20.324146,6.335192,-3.098819,-5.140758,6.3899803,-9.999719,11.033994,-53.63109,58.744923,1.3725637,2.0636246,4.0007153,-8.626656,-9.784822,45.271885,57.306404,0.64410573,-1.9402012,-6.7763443
24,-0.31813350319862366,1.8788208961486816,78.19920349121094,3.666001781380401,-0.31056570254169447,-94.24973310800878,5.461358,-1.3069239,20.784838,6.720542,-9.720898,-3.835802,-4.146175,-12.458449,-12.449261,25.864986,-20.332712,6.338372,-3.1017408,-5.1416,6.363397,-10.000527,11.035892,-53.62908,58.76109,1.3681728,2.1004105,3.9725795,-8.625639,-9.788671,45.271946,57.333813,0.64166,-1.9417181,-6.7684007
25,-0.31905680894851685,1.8685662746429443,78.19697570800781,3.6658267838070193,-0.3141836924464416,-94.24741610363736,5.4817533,-1.3071144,20.783306,6.7215176,-9.733471,-3.833028,-4.1205826,-12.4598055,-12.456268,25.8579,-20.343033,6.3511066,-3.113335,-5.1365647,6.3592825,-9.982475,11.044822,-53.636623,58.776226,1.3601424,2.0899599,3.9715075,-8.601513,-9.803824,45.275555,57.34914,0.6456693,-1.9501122,-6.7699237
26,-0.31953564286231995,1.8556652069091797,78.19526672363281,3.6591783982857504,-0.33896143376757687,-94.24234286854518,5.530704,-1.3036543,20.777687,6.722335,-9.749982,-3.825801,-4.055103,-12.456385,-12.472063,25.832924,-20.354275,6.3696084,-3.1254966,-5.1300545,6.3696585,-9.955382,11.062694,-53.66346,58.78682,1.3440658,2.0512335,3.9892483,-8.557027,-9.828979,45.277138,57.345474,0.654549,-1.959852,-6.778969
27,-0.31822913885116577,1.8122278451919556,78.19773864746094,3.653707945257331,-0.3680741537463034,-94.23717913325551,5.585743,-1.299043,20.771566,6.721885,-9.765601,-3.8174322,-3.981095,-12.451176,-12.489046,25.803263,-20.364141,6.387518,-3.142583,-5.1234136,6.3810167,-9.9307995,11.0730915,-53.686073,58.813835,1.3263708,2.0001724,4.013175,-8.522586,-9.841075,45.279232,57.361298,0.6562564,-1.9647775,-6.784432
28,-0.3172779083251953,1.7890645265579224,78.19835662841797,3.6479359475791306,-0.3843571753362989,-94.23510661363693,5.623153,-1.2952657,20.768984,6.723308,-9.779224,-3.8113008,-3.931795,-12.447015,-12.499053,25.78445,-20.37148,6.398337,-3.1582246,-5.1173773,6.387587,-9.915956,11.077188,-53.696747,58.846592,1.304984,1.9585088,4.0325756,-8.503856,-9.845031,45.2795,57.38525,0.6434719,-1.9539449,-6.776232
29,-0.3166912794113159,1.7728865146636963,78.19792938232422,3.64371752856198,-0.3880897081979558,-94.23419106219991,5.642029,-1.2921407,20.767427,6.7243414,-9.787542,-3.8081663,-3.9072676,-12.44398,-12.504133,25.777243,-20.375044,6.397492,-3.1512475,-5.1156907,6.3893394,-9.899329,11.105211,-53.740738,58.857334,1.2424847,1.9234763,4.057074,-8.466478,-9.869337,45.263958,57.372425,0.608018,-1.9104992,-6.7479725
30,-0.31610190868377686,1.7583256959915161,78.19766235351562,3.6394034479346735,-0.3853923186770242,-94.23456899659301,5.6529155,-1.2898397,20.767197,6.7235045,-9.792611,-3.806156,-3.8952062,-12.441164,-12.5059595,25.775097,-20.37574,6.38934,-3.1511924,-5.11302,6.3926115,-9.887555,11.132287,-53.762367,58.869976,1.1748955,1.8895657,4.08002,-8.447794,-9.889498,45.251034,57.368298,0.55417114,-1.8461499,-6.7036085
31,-0.31490370631217957,1.7407575845718384,78.19754791259766,3.636692455815407,-0.37438438301853566,-94.23844654870831,5.65219,-1.2868439,20.770548,6.725022,-9.797224,-3.8053021,-3.898562,-12.437825,-12.501762,25.7787,-20.375496,6.3810377,-3.1493948,-5.1110325,6.390821,-9.878482,11.162526,-53.78081,58.88174,1.1181753,1.8604956,4.098981,-8.433763,-9.908642,45.238068,57.365334,0.50251216,-1.7861497,-6.657426
32,-0.31477266550064087,1.7231134176254272,78.19751739501953,3.6344839143911516,-0.35253596781594765,-94.24853335842445,5.640943,-1.2846907,20.780298,6.7248535,-9.801735,-3.8054388,-3.9187884,-12.432919,-12.489036,25.783464,-20.37344,6.3797045,-3.1495018,-5.1090055,6.3753796,-9.878786,11.177465,-53.78846,58.917652,1.1032462,1.8377215,4.107612,-8.430905,-9.916708,45.231056,57.384308,0.47292605,-1.7584792,-6.622162
33,-0.3126542866230011,1.7069283723831177,78.19761657714844,3.634744131803142,-0.311326685721274,-94.26933503245128,5.608556,-1.2837692,20.800945,6.724689,-9.806408,-3.807305,-3.9721556,-12.426485,-12.459223,25.796942,-20.371506,6.3872905,-3.1335704,-5.11002,6.346537,-9.879427,11.206781,-53.80363,58.935665,1.1440312,1.8337204,4.103211,-8.419332,-9.931614,45.20959,57.391514,0.4646764,-1.772626,-6.5978646
34,-0.31334710121154785,1.6875693798065186,78.19855499267578,3.636142299708771,-0.25461652729657064,-94.297839300623,5.559031,-1.2832154,20.829311,6.723889,-9.81026,-3.8107498,-4.0509014,-12.417907,-12.417422,25.814932,-20.367523,6.3998804,-3.114106,-5.1115475,6.304738,-9.884438,11.238346,-53.812412,58.958355,1.226293,1.8379602,4.0879407,-8.412068,-9.9466095,45.187233,57.40409,0.47367162,-1.8163453,-6.5778756
35,-0.3158997893333435,1.6943188905715942,78.19569396972656,3.6373694529712965,-0.19904875100907396,-94.32677087758707,5.510931,-1.2822425,20.858358,6.7231865,-9.814741,-3.8143177,-4.1280084,-12.409464,-12.376747,25.832111,-20.363453,6.416165,-3.0959382,-5.1132183,6.2662797,-9.889792,11.276174,-53.819656,58.972088,1.3151213,1.8459461,4.0683603,-8.406127,-9.963512,45.167717,57.412777,0.49280858,-1.868142,-6.5665936
36,-0.31488505005836487,1.6837279796600342,78.19575500488281,3.6363454804790325,-0.1610428829089656,-94.34836346034396,5.481893,-1.2781291,20.880587,6.722932,-9.820293,-3.816853,-4.173717,-12.401033,-12.351854,25.836906,-20.358263,6.4345136,-3.0897026,-5.1116047,6.23806,-9.904647,11.288451,-53.821304,59.0138,1.3813092,1.8477473,4.052154,-8.41069,-9.968743,45.163456,57.439518,0.5188124,-1.9093509,-6.569821
37,-0.3123883008956909,1.6672667264938354,78.19682312011719,3.6291852465026624,-0.14662131222511818,-94.36202675982229,5.479799,-1.2692875,20.896254,6.723019,-9.828362,-3.8175073,-4.1763926,-12.391899,-12.347491,25.822285,-20.351444,6.4576488,-3.088869,-5.106233,6.2343707,-9.919357,11.298127,-53.82324,59.04548,1.4192369,1.8396951,4.0336637,-8.415453,-9.972723,45.164223,57.45837,0.5493222,-1.9321197,-6.592901
38,-0.309259831905365,1.6507102251052856,78.19718933105469,3.6190305136428935,-0.1464920026140088,-94.37141687047011,5.4933977,-1.2568398,20.908783,6.723869,-9.837966,-3.8172252,-4.152457,-12.381856,-12.355754,25.794306,-20.342886,6.4853253,-3.09636,-5.099874,6.253034,-9.924712,11.334903,-53.821873,59.037216,1.440214,1.8273814,4.0101247,-8.420388,-9.987495,45.178333,57.45692,0.59414035,-1.948052,-6.633364
39,-0.307786762714386,1.6304303407669067,78.19921112060547,3.6096792500664185,-0.15426766654430824,-94.37523685256701,5.516339,-1.2457043,20.91472,6.722468,-9.846445,-3.817006,-4.11622,-12.374094,-12.371398,25.765526,-20.334602,6.5117297,-3.1136854,-5.0932646,6.2779436,-9.924087,11.380985,-53.816734,59.013844,1.4468029,1.8234289,3.993284,-8.425835,-10.005164,45.19896,57.451138,0.6380114,-1.9615711,-6.674456
40,-0.31323301792144775,1.6267385482788086,78.19903564453125,3.6009381903040674,-0.16411795016785893,-94.37238178392285,5.5388966,-1.2387042,20.911327,6.724745,-9.855814,-3.8180683,-4.0818205,-12.37188,-12.389311,25.749102,-20.32884,6.531111,-3.1341774,-5.088649,6.300367,-9.9322195,11.413358,-53.82168,59.001034,1.431628,1.8405278,3.9951844,-8.432261,-10.017518,45.214172,57.45134,0.66991025,-1.9783032,-6.7017546
41,-0.31914499402046204,1.566627025604248,78.20438385009766,3.594295336179373,-0.18219830962661973,-94.35514739115848,5.5692215,-1.2379586,20.888882,6.7252636,-9.862101,-3.8216474,-4.0372324,-12.377287,-12.417954,25.741842,-20.324549,6.54021,-3.1656415,-5.0856566,6.3257713,-9.944742,11.437676,-53.839806,58.986656,1.3815577,1.8979884,4.030725,-8.437242,-10.027592,45.22373,57.453983,0.68469024,-2.001804,-6.7059846
42,-0.30904415249824524,1.5635818243026733,78.20108795166016,3.5866382105961923,-0.20925370057534487,-94.32669599838728,5.6082816,-1.2412201,20.852,6.7251463,-9.866756,-3.8268092,-3.9804685,-12.388116,-12.456791,25.739698,-20.3213,6.5426416,-3.2036827,-5.0841975,6.358425,-9.956533,11.4677,-53.87141,58.95603,1.3006105,1.9842727,4.090074,-8.437385,-10.04179,45.228413,57.448692,0.6888733,-2.0283716,-6.696623
43,-0.2873227596282959,1.5274134874343872,78.20506286621094,3.5821166997604146,-0.23057795011501647,-94.30183873299555,5.63983,-1.2468392,20.818804,6.7270584,-9.872219,-3.8314388,-3.9387453,-12.401053,-12.487147,25.749895,-20.320705,6.543041,-3.234827,-5.0856967,6.389528,-9.966634,11.511951,-53.907272,58.907406,1.215688,2.0670257,4.14538,-8.432258,-10.06517,45.226917,57.426384,0.68864906,-2.0512178,-6.6859307
44,-0.2914358973503113,1.5623031854629517,78.19845581054688,3.58349258565158,-0.2317726267702274,-94.29549781339871,5.6515894,-1.2556264,20.807638,6.7258387,-9.877064,-3.8332057,-3.9395924,-12.413504,-12.489812,25.781155,-20.325033,6.545993,-3.2573159,-5.089341,6.3951893,-9.991456,11.517978,-53.91508,58.91314,1.1690621,2.1090047,4.168876,-8.443844,-10.068442,45.230022,57.431904,0.68834233,-2.0658422,-6.687782
45,-0.2908196449279785,1.566766619682312,78.19467163085938,3.5917557917473006,-0.2030843058628183,-94.31757669314678,5.6315207,-1.2663827,20.829863,6.726763,-9.8841095,-3.8316958,-4.002051,-12.4223585,-12.449364,25.840397,-20.33559,6.5533986,-3.2448988,-5.101707,6.3856106,-10.017691,11.551875,-53.930965,58.89956,1.1359746,2.09447,4.1522865,-8.452382,-10.085477,45.2346,57.40885,0.7060979,-2.0662549,-6.7146935
46,-0.2865478992462158,1.552321195602417,78.193359375,3.606517529773026,-0.15412582387586352,-94.35832413171002,5.5911036,-1.2798816,20.873693,6.7254577,-9.890341,-3.8280454,-4.1074553,-12.4295025,-12.379456,25.920704,-20.350533,6.5625396,-3.2211554,-5.1174808,6.3572826,-10.042713,11.584944,-53.924484,58.893795,1.129572,2.041519,4.1061687,-8.466561,-10.099566,45.242004,57.386097,0.72420055,-2.056981,-6.7532873
47,-0.27981501817703247,1.5371195077896118,78.1912841796875,3.623024380941251,-0.0997429101954055,-94.40246125268769,5.543747,-1.2963003,20.922264,6.7242494,-9.896941,-3.8223956,-4.2274003,-12.440599,-12.304654,26.013296,-20.369516,6.5712404,-3.1969023,-5.1356335,6.324354,-10.072017,11.614957,-53.911068,58.892216,1.1399709,1.9844044,4.048721,-8.486667,-10.110286,45.24743,57.366673,0.7391094,-2.045494,-6.7905765
48,-0.2831278145313263,1.5347758531570435,78.185791015625,3.6394126176036314,-0.05479483098070629,-94.43424889536291,5.504645,-1.3153377,20.957851,6.7232714,-9.904469,-3.8151374,-4.3313155,-12.460223,-12.2508545,26.10528,-20.390324,6.5772305,-3.1829886,-5.151541,6.2915154,-10.10819,11.622859,-53.90469,58.90903,1.1628748,1.9561652,3.999827,-8.507068,-10.112814,45.245003,57.36114,0.7445114,-2.0389748,-6.813447
49,-0.27973273396492004,1.529242753982544,78.18152618408203,3.6569324203080185,-0.02231118099723933,-94.44605622443247,5.4740505,-1.3401535,20.972803,6.723258,-9.91269,-3.8037636,-4.416919,-12.496334,-12.229848,26.204758,-20.415527,6.5765576,-3.1915326,-5.1697803,6.286576,-10.150056,11.655521,-53.87037,58.884697,1.23129,1.9782171,3.9179666,-8.537722,-10.123159,45.22271,57.34476,0.7267332,-2.04021,-6.807008
50,-0.266923189163208,1.53657865524292,78.17411041259766,3.675033160936026,0.004521425220811749,-94.4463431214695,5.446679,-1.3687775,20.976412,6.723124,-9.921111,-3.7891428,-4.494645,-12.542793,-12.227946,26.309454,-20.443016,6.571441,-3.2134457,-5.1861863,6.287312,-10.175265,11.713026,-53.824913,58.81579,1.3315079,2.0330882,3.8155248,-8.564982,-10.141731,45.192696,57.319626,0.6954729,-2.0437927,-6.7848516
51,-0.24984011054039001,1.5163440704345703,78.17328643798828,3.6938817686275724,0.028942464324382078,-94.44841717453737,5.422137,-1.3983121,20.981653,6.7235236,-9.930577,-3.7757194,-4.57068,-12.590289,-12.224514,26.415043,-20.473927,6.5693445,-3.233729,-5.2050753,6.28529,-10.218068,11.742107,-53.80136,58.787586,1.4118228,2.082498,3.756312,-8.595456,-10.150907,45.160797,57.303406,0.6672573,-2.0476363,-6.7609453
52,-0.25922486186027527,1.5181407928466797,78.16464233398438,3.7149260015823047,0.05385849697932491,-94.4648464294955,5.4022465,-1.425998,21.000963,6.7220597,-9.940832,-3.768058,-4.648576,-12.628826,-12.199919,26.512945,-20.507568,6.5777335,-3.2485564,-5.2280316,6.2826123,-10.262489,11.769007,-53.816288,58.77429,1.428144,2.0999815,3.801874,-8.626092,-10.158281,45.135105,57.278572,0.6520369,-2.0453846,-6.74611
53,-0.25853651762008667,1.5106372833251953,78.15757751464844,3.7379209377778935,0.08364613188136613,-94.50821986432277,5.382581,-1.448801,21.047186,6.721342,-9.9535055,-3.769507,-4.7381797,-12.651602,-12.137225,26.602184,-20.545115,6.605308,-3.2421417,-5.2596574,6.279488,-10.307384,11.806535,-53.913673,58.766632,1.3259021,2.0701985,4.0304356,-8.654057,-10.165752,45.111877,57.233692,0.6572735,-2.0332813,-6.7461295
54,-0.2609492242336273,1.507863998413086,78.15106201171875,3.7629363809746845,0.11576052225972003,-94.5683129266692,5.3651123,-1.4692591,21.110098,6.7191978,-9.96739,-3.7768972,-4.8341875,-12.665152,-12.051199,26.685583,-20.585903,6.6459155,-3.2232497,-5.2984447,6.275627,-10.356289,11.84806,-54.068436,58.77126,1.1450758,2.007757,4.3872056,-8.68288,-10.170275,45.08886,57.17966,0.6765026,-2.016163,-6.7529845
55,-0.2643464207649231,1.5065126419067383,78.14453125,3.787021713006025,0.14181546576650125,-94.6254025675876,5.35486,-1.4913689,21.16928,6.716211,-9.98063,-3.7850711,-4.9192853,-12.68003,-11.968125,26.765488,-20.628729,6.68453,-3.206309,-5.339522,6.2742105,-10.405269,11.887909,-54.225616,58.78039,0.965755,1.9402099,4.7396426,-8.7086115,-10.17169,45.06336,57.126083,0.6953717,-1.998093,-6.761432
56,-0.2612988352775574,1.4968392848968506,78.1384506225586,3.8131720841973635,0.15376290737994228,-94.65916705266051,5.3568907,-1.5189356,21.204065,6.7149854,-9.993239,-3.788869,-4.9763107,-12.706957,-11.914399,26.844425,-20.67199,6.7062764,-3.211845,-5.376637,6.277103,-10.452348,11.913314,-54.320923,58.796635,0.87100375,1.8942317,4.954756,-8.72866,-10.171489,45.040127,57.082073,0.70229954,-1.9833571,-6.7659616
57,-0.2595458924770355,1.4839963912963867,78.13184356689453,3.8388050024285802,0.1425268491184768,-94.65945144698266,5.379145,-1.5563301,21.203009,6.714624,-10.002152,-3.7859254,-4.9908414,-12.755405,-11.90246,26.925259,-20.71694,6.701939,-3.2330735,-5.4135575,6.2905354,-10.494662,11.934022,-54.359753,58.80657,0.890483,1.8775504,4.984765,-8.731353,-10.171337,45.001114,57.04303,0.6877624,-1.9740611,-6.7637167
58,-0.24831053614616394,1.4596524238586426,78.12744140625,3.8674631748518156,0.11481768483651955,-94.63826302786603,5.4176817,-1.6010818,21.178858,6.7140436,-10.009256,-3.7792695,-4.9760313,-12.816476,-11.916682,27.007013,-20.764332,6.681134,-3.2669027,-5.452485,6.312927,-10.531656,11.960182,-54.3642,58.80709,0.9775207,1.8751702,4.9035225,-8.72294,-10.17142,44.951256,57.004913,0.6586078,-1.9676741,-6.7569385
59,-0.24009712040424347,1.445254921913147,78.12081909179688,3.8935098767869767,0.08616652284436106,-94.6102365119039,5.45585,-1.6444868,21.147997,6.7150817,-10.01734,-3.7721303,-4.9530587,-12.876975,-11.940416,27.080147,-20.809391,6.6573334,-3.3097415,-5.485829,6.3270626,-10.567252,11.971072,-54.346153,58.81996,1.0805471,1.8864734,4.7713842,-8.710488,-10.171764,44.918495,56.97266,0.64079154,-1.9614947,-6.7555346
60,-0.23357529938220978,1.4399458169937134,78.11344909667969,3.9151745480106905,0.07049492483503898,-94.5899693706241,5.4805913,-1.6796294,21.126865,6.7138643,-10.025938,-3.7675774,-4.9414415,-12.925627,-11.956593,27.135092,-20.848835,6.644397,-3.3376615,-5.5156956,6.34612,-10.610219,11.99333,-54.306202,58.81515,1.1736163,1.9120405,4.629174,-8.702007,-10.173344,44.860413,56.929943,0.6110681,-1.9539589,-6.748756
61,-0.2321743667125702,1.4334039688110352,78.10920715332031,3.9297780179287143,0.07546386710068602,-94.58308739648122,5.483228,-1.7020854,21.122377,6.7152185,-10.04012,-3.7677054,-4.953398,-12.955843,-11.959993,27.17237,-20.879557,6.6459327,-3.354699,-5.536673,6.347277,-10.650256,12.018512,-54.24537,58.800194,1.2326003,1.9690331,4.4598603,-8.697353,-10.17595,44.81702,56.887962,0.60500896,-1.9428616,-6.7527905
62,-0.22802700102329254,1.4181272983551025,78.10379791259766,3.9404513359277478,0.0918996823108436,-94.58134064142399,5.474599,-1.7171514,21.1249,6.7142315,-10.055399,-3.7703688,-4.9755054,-12.976703,-11.959554,27.196148,-20.90518,6.654909,-3.3673084,-5.5515494,6.338907,-10.692107,12.041584,-54.156643,58.784115,1.2850306,2.0499532,4.245666,-8.693607,-10.178916,44.780838,56.844536,0.61179066,-1.930056,-6.7621465
63,-0.2261098474264145,1.407823920249939,78.10334777832031,3.948058899321767,0.11203324781030116,-94.5774934562344,5.4601464,-1.7288891,21.125805,6.7139225,-10.0700245,-3.7724717,-4.996662,-12.991811,-11.960589,27.208845,-20.92749,6.667541,-3.3831403,-5.5631304,6.32673,-10.735012,12.060941,-54.07698,58.77372,1.3162366,2.1215272,4.065606,-8.690692,-10.18191,44.753006,56.80557,0.6227159,-1.918996,-6.7719502
64,-0.2197073996067047,1.4007468223571777,78.10075378417969,3.9551066413888583,0.1283133978482196,-94.5639201785749,5.4477696,-1.7423068,21.11618,6.71477,-10.082349,-3.7707982,-5.005718,-13.007784,-11.968229,27.214369,-20.949389,6.6803875,-3.4077232,-5.5723796,6.3126383,-10.776492,12.067787,-54.051292,58.779976,1.3085153,2.1517494,4.002772,-8.685643,-10.183051,44.738728,56.77738,0.63487947,-1.9130446,-6.779762
65,-0.21336901187896729,1.39108407497406,78.09817504882812,3.9611845542400315,0.13749322169987901,-94.53764760145498,5.4403286,-1.7589251,21.091972,6.715063,-10.0891,-3.7626681,-4.9978166,-13.024964,-11.983691,27.212088,-20.97177,6.6948566,-3.46476,-5.5781083,6.3075604,-10.810385,12.07394,-54.067123,58.798058,1.2632542,2.1053236,4.1283197,-8.692237,-10.184118,44.73738,56.761192,0.6300293,-1.9149348,-6.77423
66,-0.2073717564344406,1.3783878087997437,78.09567260742188,3.967183310257086,0.14438564010733063,-94.50287400289702,5.4327893,-1.7763239,21.058315,6.715918,-10.092528,-3.7504592,-4.979767,-13.041993,-12.004257,27.201618,-20.993803,6.7121015,-3.50439,-5.5907083,6.3044796,-10.8502035,12.0928335,-54.196056,58.819965,1.1379651,2.0095813,4.397426,-8.680263,-10.18811,44.72728,56.734562,0.6288617,-1.9222087,-6.76966
67,-0.19988897442817688,1.3666350841522217,78.09381103515625,3.9706206009224596,0.1518675547990956,-94.4637317083317,5.4238405,-1.7925546,21.020784,6.7170405,-10.095884,-3.7384856,-4.957266,-13.057995,-12.028614,27.184341,-21.013405,6.728137,-3.539998,-5.599966,6.301515,-10.888178,12.109635,-54.319656,58.832405,1.0201751,1.9216626,4.657648,-8.665251,-10.193397,44.711315,56.713963,0.6233446,-1.9312602,-6.761862
68,-0.19401434063911438,1.3553670644760132,78.0934066772461,3.9721783362429486,0.16269947391881817,-94.42428958403113,5.4110503,-1.8053077,20.984186,6.7176647,-10.10035,-3.7312515,-4.934689,-13.069827,-12.056446,27.159624,-21.028032,6.7386904,-3.5764337,-5.60281,6.297053,-10.925823,12.116714,-54.35968,58.825443,0.9614872,1.897467,4.767436,-8.6551695,-10.196937,44.702297,56.705746,0.6221133,-1.9375731,-6.755412
69,-0.1864360272884369,1.3462024927139282,78.0926742553711,3.970897624582868,0.17928562402539974,-94.38828132855922,5.3932185,-1.8116075,20.953665,6.7181244,-10.108414,-3.7330606,-4.914474,-13.077201,-12.084467,27.126772,-21.036728,6.7412724,-3.5793087,-5.6027284,6.284634,-10.967564,12.118996,-54.335537,58.783855,0.9544975,1.9807718,4.6516495,-8.629655,-10.199223,44.682808,56.70204,0.6368102,-1.9391924,-6.7580824
70,-0.18036358058452606,1.33563232421875,78.09228515625,3.9658579460427457,0.19864395654478853,-94.35222277549295,5.3723516,-1.813756,20.924978,6.7187486,-10.118473,-3.7403493,-4.8931828,-13.079197,-12.114806,27.086195,-21.041077,6.738481,-3.5836148,-5.595404,6.28546,-11.012477,12.123006,-54.20171,58.70725,1.0231417,2.1294308,4.380383,-8.610132,-10.209329,44.64471,56.694935,0.6362339,-1.9377807,-6.751326
71,-0.17553991079330444,1.3247742652893066,78.09063720703125,3.9590361969350547,0.21876142180068173,-94.3110974663587,5.350081,-1.816528,20.890528,6.7183013,-10.127454,-3.7462945,-4.871268,-13.0842905,-12.150586,27.046028,-21.043657,6.73441,-3.6010938,-5.583877,6.282085,-11.047082,12.124554,-54.048706,58.620422,1.1060668,2.2825603,4.09256,-8.593879,-10.222314,44.63651,56.695618,0.6466749,-1.9362755,-6.748412
72,-0.17111808061599731,1.3129562139511108,78.08943176269531,3.955694110333618,0.23702392622732552,-94.26037483236657,5.325929,-1.8239487,20.843534,6.720827,-10.134662,-3.7439826,-4.844437,-13.094909,-12.196476,27.003305,-21.046127,6.732916,-3.6347668,-5.5735855,6.279509,-11.075997,12.124102,-53.92983,58.546165,1.1742427,2.3783374,3.9094062,-8.580463,-10.238843,44.65066,56.701557,0.65373206,-1.9386419,-6.745427
73,-0.16126473248004913,1.2999098300933838,78.08954620361328,3.956543559210769,0.2539181416677256,-94.19600654363596,5.3000374,-1.8393521,20.7788,6.7228928,-10.135799,-3.7287264,-4.8173027,-13.1152525,-12.25444,26.967567,-21.049416,6.7321577,-3.6713881,-5.5708294,6.2775726,-11.107621,12.122071,-53.892536,58.496353,1.2130833,2.3915644,3.881195,-8.563782,-10.253055,44.669243,56.714157,0.6440886,-1.9472715,-6.7396674
74,-0.14469769597053528,1.2912871837615967,78.08904266357422,3.9602313951601658,0.2712329542371092,-94.12734249351115,5.2724175,-1.8592567,20.707422,6.7241983,-10.133158,-3.7057173,-4.79364,-13.141307,-12.315337,26.937807,-21.052872,6.7304983,-3.6998441,-5.5749416,6.273186,-11.135541,12.12171,-53.89479,58.454,1.247923,2.3607647,3.9291165,-8.55036,-10.254603,44.67588,56.743332,0.6152153,-1.9553362,-6.72696
75,-0.1435619592666626,1.2809042930603027,78.08883666992188,3.9617775988171315,0.2843811397857119,-94.04251452380836,5.245446,-1.8812133,20.618008,6.7271833,-10.130838,-3.6802619,-4.7541175,-13.171923,-12.396005,26.8964,-21.055038,6.7344823,-3.7508008,-5.5740447,6.2772017,-11.168421,12.114923,-53.913822,58.417313,1.264043,2.3110328,4.017907,-8.531921,-10.274376,44.71862,56.76432,0.6046948,-1.9729851,-6.726515
76,-0.13852760195732117,1.2730997800827026,78.0881118774414,3.9621267852312156,0.29431859369057567,-93.9668961273022,5.2251434,-1.9008738,20.538483,6.730452,-10.135956,-3.6613207,-4.707837,-13.198034,-12.470961,26.845716,-21.0587,6.747123,-3.7851753,-5.5659704,6.2826858,-11.190901,12.105314,-53.914776,58.365772,1.2790297,2.2810104,4.0719967,-8.5120535,-10.2959585,44.74474,56.79043,0.60318977,-1.9881134,-6.7266045
77,-0.13894450664520264,1.2629661560058594,78.08769226074219,3.956476309067544,0.29157363388164054,-93.89064722796255,5.2198787,-1.9204503,20.459105,6.7333436,-10.149372,-3.6512365,-4.638195,-13.224343,-12.552715,26.779848,-21.062296,6.7719593,-3.823059,-5.5450215,6.300392,-11.203243,12.092888,-53.89299,58.291973,1.2840165,2.2860494,4.0858183,-8.503937,-10.3190155,44.775127,56.838306,0.63245654,-2.0115771,-6.7427444
78,-0.13698220252990723,1.2499300241470337,78.08665466308594,3.9504199384899454,0.27998483952504954,-93.81189049878189,5.224148,-1.9405973,20.377178,6.7361393,-10.167591,-3.6459646,-4.5522037,-13.25095,-12.64139,26.704294,-21.06663,6.8057547,-3.8697903,-5.5146675,6.32645,-11.206529,12.075025,-53.853394,58.206863,1.2841709,2.3053179,4.0877547,-8.501097,-10.348612,44.81809,56.894753,0.6842652,-2.0397308,-6.7705503
79,-0.12431099265813828,1.2240504026412964,78.09197235107422,3.940495278088689,0.275416845022502,-93.74002084288595,5.2240286,-1.9569758,20.301813,6.738935,-10.189657,-3.6418695,-4.4701724,-13.271195,-12.725167,26.619202,-21.071852,6.8443522,-3.8983927,-5.486625,6.3450937,-11.20432,12.062245,-53.81607,58.115467,1.2790922,2.3166811,4.0835586,-8.496677,-10.368455,44.846645,56.961258,0.72587794,-2.06382,-6.789194
80,-0.072443388402462,1.218075156211853,78.0869369506836,3.9301157909157785,0.29395262961765384,-93.68464726505992,5.2037215,-1.9644985,20.24191,6.7423077,-10.213389,-3.6351836,-4.413019,-13.277669,-12.792204,26.52611,-21.078653,6.883743,-3.917189,-5.4543486,6.3418818,-11.201629,12.027676,-53.742306,58.04841,1.292966,2.2935965,4.076639,-8.465593,-10.4216,44.885197,56.980225,0.74352103,-2.0680819,-6.7779846
81,-0.06628070026636124,1.209796667098999,78.08309936523438,3.919209014928544,0.3444082135572795,-93.6578671638276,5.1577945,-1.9607769,20.210167,6.7448654,-10.239406,-3.6227782,-4.3939867,-13.266494,-12.830676,26.425465,-21.087753,6.923538,-3.875102,-5.4411416,6.304199,-11.1957035,12.006757,-53.691372,57.988358,1.3042288,2.2177415,4.067362,-8.411438,-10.45417,44.880413,56.99419,0.686551,-2.0491116,-6.7150874
82,-0.06938761472702026,1.187920331954956,78.08087921142578,3.908473908657003,0.41679454568783714,-93.65142689560595,5.095155,-1.948972,20.198328,6.746647,-10.268527,-3.6073031,-4.399494,-13.241957,-12.849789,26.316523,-21.098719,6.965732,-3.8007917,-5.437063,6.2425103,-11.182988,11.990717,-53.63689,57.932816,1.3182179,2.105577,4.0528464,-8.34256,-10.48082,44.86107,57.000725,0.58603245,-2.0133886,-6.6171107
83,-0.07546575367450714,1.1607295274734497,78.07989501953125,3.8944934401023126,0.49851726913635713,-93.64428968137052,5.0219646,-1.9341067,20.184336,6.7488194,-10.297433,-3.5936766,-4.4100747,-13.2114,-12.868853,26.198803,-21.110144,7.009776,-3.7211683,-5.4332037,6.174881,-11.167089,11.978983,-53.574207,57.8712,1.3360482,1.9943827,4.039017,-8.274012,-10.502052,44.8255,57.010117,0.4926756,-1.9748247,-6.5215735
84,-0.0803060457110405,1.1303168535232544,78.07801055908203,3.8779296110783856,0.5770724902536649,-93.61514275030176,4.9459686,-1.9214792,20.146257,6.752083,-10.324191,-3.5868523,-4.4052453,-13.182211,-12.907531,26.070032,-21.119627,7.0551405,-3.6636598,-5.4214973,6.121231,-11.1558695,11.966803,-53.493748,57.7999,1.3632367,1.920439,4.0305715,-8.218534,-10.526397,44.772808,57.0246,0.45740333,-1.9456296,-6.464596
85,-0.08355984091758728,1.103901982307434,78.0767593383789,3.8581902115078606,0.6502485049327611,-93.55272917019035,4.865708,-1.91249,20.07186,6.7548,-10.345112,-3.588903,-4.3791075,-13.155717,-12.974086,25.925776,-21.126455,7.10709,-3.6399062,-5.403499,6.078276,-11.148025,11.962386,-53.42523,57.710682,1.3941681,1.9043593,4.0290422,-8.186725,-10.534813,44.716255,57.06813,0.5228045,-1.928679,-6.4725394
86,-0.07888684421777725,1.0816036462783813,78.0774917602539,3.83608516071914,0.7235199769116727,-93.47050167786598,4.778684,-1.9047955,19.975348,6.7587895,-10.36381,-3.596546,-4.340692,-13.130604,-13.056607,25.766527,-21.130442,7.164509,-3.6402593,-5.374973,6.0593214,-11.154088,11.951275,-53.305557,57.612743,1.4720831,1.9208267,4.0151563,-8.171357,-10.557332,44.620625,57.102566,0.62289494,-1.9151288,-6.502758
87,-0.07018778473138809,1.060276746749878,78.08101654052734,3.8120041475355464,0.7989515309293322,-93.3839481897409,4.689858,-1.897143,19.87387,6.7625484,-10.382911,-3.6058245,-4.298347,-13.103422,-13.145187,25.601505,-21.133867,7.2160807,-3.6369057,-5.34495,6.0346575,-11.152283,11.9407015,-53.18748,57.512295,1.5216309,1.9455863,4.020602,-8.152535,-10.578167,44.519043,57.142715,0.7469354,-1.9091896,-6.549924
88,-0.06096862629055977,1.0478230714797974,78.08370971679688,3.787176652024082,0.8776108380695544,-93.30855531323208,4.604591,-1.8877082,19.783855,6.7670574,-10.406674,-3.616388,-4.259361,-13.076722,-13.228692,25.442368,-21.139751,7.251128,-3.6121206,-5.3145547,6.000057,-11.131591,11.932706,-53.04997,57.40971,1.5215368,1.9527906,4.0548453,-8.1287985,-10.593844,44.40081,57.194984,0.841978,-1.9146901,-6.5859275
89,-0.04752575233578682,1.012359619140625,78.08457946777344,3.7617540745192355,0.9585955832912693,-93.24277785559792,4.524321,-1.8783175,19.704546,6.770702,-10.432789,-3.6254458,-4.2244573,-13.0515995,-13.311405,25.295279,-21.149933,7.2556787,-3.5671194,-5.284587,5.958533,-11.095452,11.924957,-52.886642,57.310234,1.4515024,1.9384377,4.1334076,-8.088968,-10.609251,44.25104,57.245228,0.8851146,-1.9374793,-6.603397
90,-0.04361589625477791,0.9724761247634888,78.08541870117188,3.7358326072387236,1.0421630619554898,-93.18011648500725,4.444821,-1.8685873,19.628761,6.774617,-10.460271,-3.6342478,-4.190351,-13.027386,-13.396672,25.152416,-21.162058,7.239324,-3.5091238,-5.2534103,5.9089994,-11.046359,11.9180765,-52.711765,57.21023,1.323001,1.9154769,4.2484574,-8.040129,-10.62296,44.080208,57.301315,0.9108965,-1.9754878,-6.6179237
91,-0.041028089821338654,0.9303358197212219,78.08692169189453,3.707195819069095,1.128688956287411,-93.12920644980359,4.368593,-1.8551265,19.563673,6.7801795,-10.495597,-3.6456013,-4.1559834,-12.9984255,-13.473243,25.004656,-21.17359,7.226357,-3.4317265,-5.218748,5.862464,-10.985095,11.910071,-52.49265,57.103806,1.2082413,1.8811657,4.3577437,-7.9967833,-10.641124,43.890125,57.358524,0.9199172,-2.0121367,-6.6222525
92,-0.03401056304574013,0.8854202032089233,78.09049224853516,3.6875430922873162,1.2173528484802116,-93.10195643088252,4.2853613,-1.8453861,19.523418,6.821833,-10.564806,-3.6567097,-4.129114,-12.976016,-13.520539,24.860218,-21.190142,7.2443013,-3.3320076,-5.1920114,5.811345,-10.896937,11.90422,-52.22708,56.982143,1.1398466,1.8340274,4.435916,-7.9720716,-10.659913,43.725357,57.430557,0.951255,-2.034177,-6.6259875
93,0.054943155497312546,0.7378044724464417,78.10839080810547,3.6592385313768836,1.31948506431558,-93.10723345741116,4.2013893,-1.8243597,19.515131,6.8609347,-10.6472025,-3.6681402,-4.123436,-12.935292,-13.532181,24.714342,-21.208897,7.295883,-3.204314,-5.1545663,5.746134,-10.771911,11.902977,-51.88775,56.83647,1.1377296,1.7576385,4.4612136,-7.9729733,-10.676198,43.591236,57.527252,1.010677,-2.037502,-6.630028
94,0.013581718318164349,0.754946231842041,78.08881378173828,3.623462688242661,1.431261335201443,-93.13717713434623,4.1171737,-1.7938001,19.531202,6.9010315,-10.7417145,-3.6800566,-4.134323,-12.881208,-13.517882,24.573034,-21.23235,7.3686366,-3.046895,-5.1100774,5.668768,-10.617451,11.905861,-51.502544,56.6734,1.1677827,1.6587855,4.4573426,-7.988606,-10.687901,43.4708,57.644505,1.0868121,-2.03027,-6.634262
95,0.01642104983329773,0.6708802580833435,78.08123779296875,3.580706361655363,1.5353335746451648,-93.16868534421543,4.0465035,-1.7584404,19.546003,6.943278,-10.844955,-3.6983585,-4.128142,-12.822466,-13.506961,24.424921,-21.257166,7.457971,-2.9508862,-5.04768,5.605526,-10.415727,11.925036,-50.99062,56.465263,1.2664083,1.5690206,4.436191,-8.054965,-10.7076435,43.420704,57.776,1.1718925,-2.0126936,-6.6290703
96,0.026246383786201477,0.642774760723114,78.066162109375,3.5302394253360614,1.6159153580971566,-93.17803294081855,4.003256,-1.7209316,19.533316,6.984838,-10.955761,-3.7295017,-4.073736,-12.765744,-13.528902,24.260237,-21.280792,7.5588017,-2.824825,-4.988822,5.564547,-10.233995,11.942401,-50.576767,56.26811,1.3469678,1.5252067,4.4499807,-8.113202,-10.720076,43.31967,57.90356,1.2370889,-1.9919033,-6.614644
97,0.04189272224903107,0.5810264945030212,78.05421447753906,3.4694063587523565,1.653743868815841,-93.15410730521357,4.0078363,-1.6799262,19.480143,7.0252604,-11.072911,-3.7780933,-3.9320543,-12.710678,-13.601979,24.055508,-21.298105,7.6818433,-2.7574773,-4.9157443,5.5688763,-10.033401,11.970766,-50.144962,56.04497,1.4693418,1.5525303,4.4927106,-8.204844,-10.737665,43.252087,58.03504,1.2947983,-1.9578125,-6.5764313
98,0.07533925026655197,0.5170085430145264,78.04329681396484,3.40012665252209,1.6628693519310287,-93.1110144845975,4.0466094,-1.6349084,19.40281,7.0657067,-11.197739,-3.8402255,-3.7302108,-12.654449,-13.706713,23.821346,-21.310934,7.8255806,-2.6840286,-4.837865,5.60147,-9.837683,11.99386,-49.753098,55.825386,1.6074805,1.6278464,4.5577946,-8.304004,-10.75412,43.164875,58.17,1.3409896,-1.9134988,-6.520944
99,0.10854614526033401,0.4617787003517151,78.02932739257812,3.3303548072508997,1.6753988227365024,-93.06378400840609,4.0845985,-1.59243,19.319847,7.106184,-11.326952,-3.9083865,-3.531252,-12.602666,-13.816078,23.594172,-21.325228,7.9675503,-2.6152925,-4.760732,5.635671,-9.639738,12.019498,-49.35479,55.600132,1.7494994,1.7073084,4.630284,-8.416309,-10.773773,43.075493,58.29696,1.3775672,-1.8724077,-6.470192
100,0.1525401473045349,0.30294880270957947,78.02583312988281,3.2680728539752018,1.723564047705512,-93.02748185795969,4.087307,-1.5595093,19.249495,7.145029,-11.456405,-3.974954,-3.3993437,-12.561453,-13.902709,23.412745,-21.347876,8.085204,-2.542958,-4.693883,5.6469555,-9.4345,12.067608,-48.935272,55.348732,1.8694769,1.748338,4.698461,-8.533631,-10.805256,42.98302,58.39099,1.4059643,-1.8484737,-6.445952
101,0.1843687891960144,0.1947212517261505,78.01522827148438,3.217023312901583,1.8221607076974415,-93.00900923001626,4.039943,-1.5386275,19.200415,7.1796417,-11.584304,-4.0426493,-3.3606744,-12.533958,-13.956855,23.288784,-21.380632,8.171829,-2.4131923,-4.6523175,5.6208167,-9.252341,12.1220875,-48.546032,55.104607,1.940018,1.7364483,4.7628813,-8.638307,-10.837594,42.832417,58.451508,1.4029791,-1.851969,-6.4562526
102,0.2307799607515335,0.1027744859457016,78.00149536132812,3.1720596467327793,1.9517766199024027,-92.99940052373893,3.9625852,-1.5260565,19.161482,7.212675,-11.713655,-4.113839,-3.3785248,-12.516536,-13.993639,23.202087,-21.420265,8.239574,-2.257192,-4.6258044,5.574193,-9.078521,12.186535,-48.163464,54.855362,1.9848527,1.6954597,4.8270597,-8.744174,-10.873851,42.654507,58.48894,1.379621,-1.8728656,-6.4887743
103,0.26972848176956177,0.018982453271746635,77.97274017333984,3.129355107988517,2.0934671036473858,-92.9897809462152,3.8758304,-1.5194682,19.121084,7.242459,-11.842784,-4.180614,-3.4215426,-12.505775,-14.023856,23.142801,-21.466473,8.294251,-2.102822,-4.6009784,5.522208,-8.897679,12.269043,-47.788406,54.583565,2.0172815,1.6410146,4.8987665,-8.85359,-10.916027,42.465786,58.507034,1.3571843,-1.8992258,-6.5340376
104,0.3090350329875946,-0.08433808386325836,77.95771789550781,3.084546410102048,2.228303121334124,-92.97093548731537,3.793605,-1.5140486,19.067709,7.2812304,-11.977639,-4.23493,-3.4586182,-12.498137,-14.058073,23.100508,-21.518599,8.341726,-1.9734251,-4.5655165,5.4759884,-8.704085,12.365225,-47.430447,54.291622,2.0471444,1.5883101,4.9874887,-8.973964,-10.959693,42.277878,58.5251,1.3550144,-1.9200965,-6.5831294
105,0.3721824586391449,-0.20111699402332306,77.94147491455078,3.03513711439841,2.3551042806088742,-92.93996063472909,3.7191582,-1.5083712,18.995806,7.322474,-12.117582,-4.2790246,-3.4876466,-12.491227,-14.098415,23.07512,-21.575495,8.3791685,-1.884086,-4.5107284,5.4347463,-8.490404,12.47757,-47.08515,53.974625,2.046205,1.5431668,5.1025,-9.112348,-11.003196,42.101326,58.54702,1.3888758,-1.9356142,-6.6432786
106,0.4103778004646301,-0.30572113394737244,77.91757202148438,2.984034278022471,2.4826878516888304,-92.90162152267919,3.6434715,-1.5043577,18.912397,7.366532,-12.262278,-4.315512,-3.5231733,-12.487532,-14.139588,23.071335,-21.637812,8.404947,-1.820354,-4.4457645,5.3926497,-8.260181,12.60783,-46.748867,53.633442,2.0198922,1.4968692,5.236512,-9.266558,-11.046178,41.9282,58.569374,1.4440705,-1.9511454,-6.716388
107,0.45518064498901367,-0.41442540287971497,77.88710021972656,2.9343825344517205,2.607398108732103,-92.85912790415267,3.5728538,-1.5052109,18.823772,7.4128323,-12.406683,-4.3372593,-3.5595424,-12.490575,-14.180586,23.086824,-21.708069,8.426621,-1.7644793,-4.3821454,5.3569345,-8.019488,12.756453,-46.426556,53.26734,2.0298233,1.4431062,5.3728137,-9.426431,-11.088065,41.748493,58.586697,1.5001631,-1.9622123,-6.785058
108,0.5100210905075073,-0.5316890478134155,77.8572769165039,2.8891888209848817,2.7254287473730963,-92.8152111247938,3.5117006,-1.5138493,18.736303,7.4641633,-12.547613,-4.337121,-3.5906148,-12.503607,-14.220979,23.118526,-21.787867,8.451797,-1.6983491,-4.33135,5.3342423,-7.7763314,12.922914,-46.124187,52.877888,2.1368735,1.3756537,5.494908,-9.583025,-11.128856,41.553432,58.595604,1.538244,-1.9646136,-6.831982
109,0.5993564128875732,-0.6727264523506165,77.83305358886719,2.8490148678043656,2.8384515792252745,-92.7664690090195,3.4626157,-1.5339596,18.644672,7.5109878,-12.677964,-4.3125277,-3.6132357,-12.528555,-14.265837,23.158993,-21.877703,8.490373,-1.6200433,-4.295745,5.3237147,-7.5318336,13.107328,-45.84219,52.464874,2.3899596,1.2820513,5.579594,-9.737204,-11.168527,41.33744,58.597187,1.5364035,-1.9480472,-6.838477
110,0.6217849254608154,-0.7857549786567688,77.79652404785156,2.8121204060748974,2.9476650207359807,-92.71249903666293,3.21113,-1.4888148,18.55197,8.027018,-13.048911,-4.270313,-3.6310377,-12.562927,-14.314079,23.211483,-21.97622,8.535622,-1.5376495,-4.2690134,5.322702,-7.282122,13.3097515,-45.5779,52.02717,2.7458887,1.1694407,5.6425066,-9.89198,-11.206658,41.10577,58.591496,1.5110319,-1.9177318,-6.8185344
111,0.6805817484855652,-0.9063066840171814,77.75408935546875,2.7768765931141113,3.0488197455635175,-92.66117984199605,2.908801,-1.4250635,18.466772,8.687557,-13.495204,-4.211173,-3.6494775,-12.60335,-14.355428,23.292036,-22.084652,8.569938,-1.4491962,-4.2489367,5.335099,-7.02951,13.529065,-45.331177,51.56844,3.1272588,1.0614843,5.7254734,-10.043192,-11.244453,40.864403,58.577877,1.4963154,-1.8929948,-6.8034163
112,0.7522748112678528,-1.065164566040039,77.71975708007812,2.742914847135107,3.1373840116925282,-92.6205285196056,2.628377,-1.3622819,18.399786,9.344929,-13.939844,-4.13672,-3.6739893,-12.647731,-14.378792,23.416563,-22.204515,8.57598,-1.3517448,-4.2340784,5.365052,-6.775355,13.762853,-45.10134,51.09183,3.4585245,0.9823087,5.8698945,-10.184788,-11.28369,40.61882,58.552456,1.526697,-1.8929381,-6.824412
113,0.8118998408317566,-1.2134727239608765,77.6800537109375,2.70450259701281,3.2015459327566345,-92.5992935055762,2.3775368,-1.2889944,18.36154,10.018038,-14.39033,-4.042744,-3.6890054,-12.684057,-14.375394,23.577183,-22.331968,8.529404,-1.2346277,-4.2171383,5.424905,-6.519343,14.010396,-44.892002,50.58704,3.7475467,0.9641519,6.1080565,-10.316892,-11.324803,40.367405,58.518482,1.6222222,-1.9215881,-6.8972898
114,0.8769634366035461,-1.3563153743743896,77.63377380371094,2.6628523701217572,3.2472926580493398,-92.5909704140734,2.1433823,-1.207152,18.342674,10.716856,-14.851387,-3.9298942,-3.6968977,-12.716249,-14.35314,23.768564,-22.467638,8.4458275,-1.1022652,-4.1993537,5.508943,-6.261938,14.271407,-44.702362,50.057236,4.025321,0.9862563,6.4104257,-10.439981,-11.367456,40.106865,58.473415,1.7594855,-1.9690188,-7.0027137
115,0.97102952003479,-1.5103284120559692,77.58439636230469,2.6282424078206352,3.296617974610812,-92.580420748602,1.9189396,-1.1400161,18.326313,11.391903,-15.302908,-3.8079813,-3.729894,-12.7667055,-14.326238,24.010712,-22.619272,8.3675375,-0.97487915,-4.1932955,5.5932727,-6.0073347,14.543208,-44.525375,49.52942,4.2505326,0.9921377,6.7256665,-10.554347,-11.4149885,39.8442,58.41228,1.91304,-2.0339508,-7.1193185
116,1.0133593082427979,-1.679772138595581,77.5289535522461,2.612368316534555,3.371814313419623,-92.55299734891534,1.6915722,-1.1105283,18.296186,12.005554,-15.73131,-3.6866255,-3.8208938,-12.859333,-14.3080225,24.324684,-22.7947,8.337092,-0.8719292,-4.212447,5.6547537,-5.761052,14.821223,-44.35422,49.03135,4.382449,0.9243887,7.003001,-10.654831,-11.472214,39.583122,58.323017,2.0540895,-2.1144505,-7.225393
117,1.1197304725646973,-1.7639511823654175,77.45487976074219,2.620484603638244,3.4868817783851314,-92.50010335622015,1.4431252,-1.1270653,18.245106,12.553832,-16.132486,-3.563978,-3.981196,-13.003468,-14.308202,24.700674,-23.004572,8.371364,-0.7955184,-4.2622795,5.6805706,-5.5270667,15.102126,-44.179985,48.577236,4.376078,0.7557292,7.2040954,-10.740361,-11.542685,39.31869,58.19557,2.1665418,-2.2056139,-7.316264
118,1.2019860744476318,-1.9085602760314941,77.38973236083984,2.6461997159270543,3.627320015809422,-92.43132918169997,1.1856453,-1.1778983,18.183216,13.05426,-16.515152,-3.4363644,-4.1925917,-13.186151,-14.316402,25.132406,-23.24116,8.445427,-0.7349918,-4.3346753,5.6858683,-5.3049855,15.384456,-44.009415,48.15494,4.2650547,0.5192109,7.3642,-10.810509,-11.628073,39.050014,58.03341,2.2687035,-2.3094256,-7.4026585
119,1.2633861303329468,-2.1336066722869873,77.33329772949219,2.6852578425799987,3.7718407307415274,-92.35856145447482,0.94614947,-1.2535378,18.121033,13.514744,-16.887032,-3.3105373,-4.445368,-13.399929,-14.316757,25.649944,-23.489574,8.53987,-0.689598,-4.4233828,5.6884313,-5.094925,15.665856,-43.860397,47.75476,4.1275926,0.24834006,7.54382,-10.860014,-11.730345,38.787846,57.843967,2.3853354,-2.4342604,-7.486209
120,1.3353967666625977,-2.3323609828948975,77.26416778564453,2.732468967177496,3.8992919092769407,-92.29378167256858,0.7554255,-1.3453875,18.068298,13.933891,-17.253092,-3.1931477,-4.733104,-13.637643,-14.291888,26.290438,-23.734041,8.634289,-0.65853274,-4.521753,5.7061777,-4.8965235,15.943146,-43.749886,47.367695,4.043807,-0.023425182,7.8042026,-10.88287,-11.851888,38.54225,57.634327,2.5401976,-2.5882983,-7.5685005
121,1.4290180206298828,-2.526298761367798,77.18891906738281,2.797184995734169,3.9995435392640184,-92.24047912355859,0.64697844,-1.4704007,18.028616,14.272585,-17.601648,-3.081942,-5.030267,-13.911199,-14.245389,27.032951,-23.993853,8.730742,-0.63871944,-4.639557,5.7416873,-4.7054515,16.213408,-43.69254,47.01173,4.011719,-0.3010204,8.163696,-10.871633,-11.996367,38.315308,57.37374,2.7237616,-2.7622178,-7.646042
122,1.501668095588684,-2.714132785797119,77.10649108886719,2.878651213222893,4.0854534649659096,-92.19231842347621,0.59555995,-1.6268231,17.996178,14.545705,-17.935177,-2.9747257,-5.349385,-14.22096,-14.182057,27.869167,-24.26936,8.8366995,-0.6292153,-4.776137,5.786306,-4.5258975,16.47483,-43.677036,46.689312,3.9992962,-0.59780526,8.589584,-10.82672,-12.165753,38.098938,57.063854,2.9275641,-2.9551218,-7.718539
123,1.5890532732009888,-2.9070730209350586,77.02681732177734,2.958060585288759,4.169713026606299,-92.14594323839493,0.54681605,-1.7787501,17.96719,14.827495,-18.277082,-2.8784108,-5.733538,-14.5413065,-14.087935,28.839687,-24.513865,8.93929,-0.6338679,-4.909341,5.840281,-4.374792,16.726934,-43.686207,46.370823,4.0346127,-0.89243853,9.067278,-10.758548,-12.3589115,37.89336,56.76608,3.1818492,-3.1888096,-7.7920218
124,1.684722661972046,-3.09786319732666,76.94461822509766,3.0161502739925554,4.2654123010716525,-92.09823097248137,0.44445556,-1.8897378,17.938337,15.196475,-18.653034,-2.799637,-6.2261147,-14.84631,-13.948391,29.985918,-24.681297,9.024941,-0.6574288,-5.017168,5.9039288,-4.2664876,16.970121,-43.700226,46.024143,4.1472282,-1.1630483,9.582076,-10.677447,-12.571226,37.697556,56.54288,3.5153496,-3.4854686,-7.8722177
125,1.773377537727356,-3.2840051651000977,76.8591537475586,3.054732978049282,4.384966697418494,-92.05098312415404,0.2750324,-1.9620566,17.912943,15.649279,-19.0585,-2.7455673,-6.8420105,-15.139827,-13.755112,31.313,-24.769033,9.1223755,-0.7020759,-5.103994,5.9609747,-4.198697,17.205694,-43.7224,45.644165,4.3800077,-1.3994495,10.165386,-10.592994,-12.800553,37.5368,56.415894,3.9771314,-3.90104,-7.9640393
126,1.8673397302627563,-3.48349928855896,76.78309631347656,3.0820057061309822,4.5183770582699685,-92.00488522256165,0.06835853,-2.011539,17.891762,16.151306,-19.483185,-2.710727,-7.5569267,-15.431719,-13.515279,32.799984,-24.798265,9.224749,-0.76690453,-5.178577,6.016315,-4.164129,17.434092,-43.75855,45.245197,4.706253,-1.6120144,10.813764,-10.498619,-13.045108,37.40417,56.35277,4.538097,-4.4077783,-8.0607195
127,1.9426904916763306,-3.6661782264709473,76.69473266601562,3.087536269350605,4.645526314130724,-91.95537794703844,-0.16737187,-2.0217102,17.86679,16.732775,-19.942394,-2.6827123,-8.353822,-15.703484,-13.238301,34.447014,-24.75819,9.264384,-0.85285324,-5.2269225,6.099549,-4.170225,17.654024,-43.794155,44.828033,5.0495644,-1.8111118,11.460224,-10.388372,-13.301161,37.253963,56.347324,5.1097283,-4.902828,-8.152604
128,2.0157930850982666,-3.855780601501465,76.60528564453125,3.0610157243970404,4.746381323231452,-91.89780801616062,-0.42321563,-1.9762782,17.82957,17.421757,-20.450651,-2.6492684,-9.213427,-15.936403,-12.9355545,36.250942,-24.636677,9.173503,-0.96042806,-5.235046,6.239893,-4.224015,17.862816,-43.81523,44.394123,5.3340535,-2.0092425,12.037502,-10.255816,-13.563619,37.03888,56.39414,5.6026993,-5.2827845,-8.233078
129,2.102865219116211,-4.047824859619141,76.51850128173828,2.985627574824889,4.815300801847423,-91.82700787805213,-0.7154685,-1.8489074,17.771849,18.26355,-21.025373,-2.607366,-10.13121,-16.109285,-12.606726,38.226162,-24.432962,8.906373,-1.0980043,-5.185707,6.447189,-4.331299,18.059862,-43.826653,43.952023,5.528756,-2.2201238,12.547598,-10.105231,-13.827569,36.73631,56.50514,5.9875903,-5.5267677,-8.299137
130,2.1763293743133545,-4.224541187286377,76.42455291748047,2.869661577064983,4.863452089713424,-91.74654678464334,-1.040539,-1.655391,17.698572,19.225332,-21.65141,-2.5638907,-11.111902,-16.236097,-12.252126,40.360615,-24.149645,8.504129,-1.262505,-5.090025,6.7041535,-4.487962,18.244648,-43.835323,43.50089,5.677565,-2.4350317,13.019721,-9.940012,-14.090994,36.372944,56.684002,6.3136935,-5.687615,-8.35725
131,2.2397403717041016,-4.39782190322876,76.32362365722656,2.7409903745281157,4.89551431214242,-91.66476721191141,-1.3594482,-1.4432583,17.621155,20.21793,-22.293789,-2.5211306,-12.151715,-16.353146,-11.883369,42.617363,-23.782862,8.0291395,-1.4386841,-4.9781775,6.998757,-4.688785,18.413784,-43.83028,43.033184,5.8128343,-2.6346133,13.427417,-9.754732,-14.35524,35.97733,56.916084,6.6081734,-5.772915,-8.416975
132,2.3010618686676025,-4.586883068084717,76.2236099243164,2.6292391594621485,4.915814885477504,-91.59013518757405,-1.6365067,-1.2604243,17.551378,21.159021,-22.922398,-2.4792085,-13.248826,-16.499136,-11.508569,44.96123,-23.328657,7.5436163,-1.6100711,-4.880812,7.319759,-4.929693,18.561815,-43.80056,42.542885,5.967452,-2.799316,13.7440405,-9.541076,-14.623024,35.578457,57.181236,6.9001765,-5.7897887,-8.487656
133,2.381618022918701,-4.778869152069092,76.11876678466797,2.5435894596952693,4.917078688259855,-91.53145755088876,-1.8424298,-1.1203141,17.501755,22.004234,-23.52109,-2.4397752,-14.41377,-16.68467,-11.101947,47.419315,-22.75554,7.074041,-1.7696236,-4.80495,7.6773105,-5.210817,18.682486,-43.740604,42.030865,6.1313367,-2.901421,13.941164,-9.305155,-14.897616,35.169365,57.48704,7.19592,-5.700362,-8.574853
134,2.45906925201416,-4.979055881500244,76.0106201171875,2.4692774779829265,4.899388706080008,-91.48171792850977,-2.0094643,-0.99662465,17.461195,22.819452,-24.115442,-2.398344,-15.64453,-16.894302,-10.668252,49.998135,-22.076511,6.576819,-1.9269638,-4.7347994,8.072659,-5.537883,18.773027,-43.657444,41.50732,6.2933574,-2.9600127,14.039993,-9.045395,-15.179639,34.738976,57.83576,7.480901,-5.513844,-8.67362
135,2.529818296432495,-5.15866756439209,75.88890838623047,2.40037193646326,4.878534073994733,-91.42607845697492,-2.1705625,-0.87945145,17.414392,23.63643,-24.712992,-2.3602445,-16.923586,-17.129545,-10.260298,52.641182,-21.358992,6.0104175,-2.091597,-4.668111,8.479931,-5.9158936,18.834923,-43.55938,40.980408,6.482081,-3.0250509,14.088757,-8.7486315,-15.469599,34.314766,58.208954,7.75556,-5.308853,-8.776912
136,2.5769569873809814,-5.340084075927734,75.75846099853516,2.3308827100339955,4.870064760754407,-91.3496552267661,-2.362631,-0.75806737,17.345005,24.495169,-25.32478,-2.3295107,-18.23299,-17.39278,-9.931289,55.294178,-20.66997,5.3354793,-2.2738216,-4.601698,8.874483,-6.3476524,18.873127,-43.45242,40.453716,6.7263265,-3.146272,14.135643,-8.398697,-15.765558,33.9243,58.582664,8.019751,-5.1635156,-8.87707
137,2.6394543647766113,-5.540596961975098,75.62913513183594,2.25871338341273,4.878587893340115,-91.2527611266943,-2.5892274,-0.6312243,17.249985,25.388477,-25.942286,-2.3085291,-19.591513,-17.7012,-9.703875,58.00402,-19.966774,4.498235,-2.4760923,-4.5366445,9.250979,-6.828662,18.892185,-43.33432,39.93609,7.0533233,-3.3582413,14.174803,-8.000047,-16.06771,33.587967,58.977005,8.289391,-5.110185,-8.98105
138,2.6938648223876953,-5.762290000915527,75.4909896850586,2.1883171676852196,4.895272354945737,-91.1412154837559,-2.8333917,-0.50390726,17.136494,26.30144,-26.564156,-2.2936792,-20.99938,-18.061148,-9.549394,60.781536,-19.236622,3.5253806,-2.695652,-4.4757023,9.622866,-7.354661,18.893768,-43.199642,39.416508,7.441109,-3.6275764,14.187272,-7.5575433,-16.375504,33.28718,59.39391,8.558367,-5.103119,-9.089495
139,2.7559125423431396,-5.963258266448975,75.34268188476562,2.122629344880371,4.916217988729508,-91.00920854497744,-3.1009119,-0.37503985,17.00453,27.261202,-27.210869,-2.2809558,-22.408258,-18.449955,-9.442554,63.511803,-18.596525,2.5082347,-2.934101,-4.419375,9.992094,-7.929496,18.879068,-43.05127,38.86904,7.844379,-3.9009082,14.202062,-7.0637927,-16.685848,32.99567,59.793877,8.798751,-5.104506,-9.185073
140,2.8055002689361572,-6.162735939025879,75.17622375488281,2.0637934226178096,4.93774113146666,-90.85156827109849,-3.397743,-0.24369717,16.854767,28.296755,-27.903708,-2.2667809,-23.772337,-18.832317,-9.353584,66.083015,-18.161386,1.5505058,-3.1918988,-4.3678985,10.359824,-8.558003,18.848967,-42.893463,38.269005,8.217203,-4.124555,14.247223,-6.5116363,-16.994259,32.685265,60.139183,8.98096,-5.0764146,-9.250817
141,2.8397676944732666,-6.386104106903076,74.98914337158203,2.0057045739566384,4.955726725332765,-90.66446822910034,-3.7362661,-0.098229654,16.68565,29.446419,-28.658865,-2.2563632,-25.070112,-19.19783,-9.298089,68.49309,-17.993158,0.643335,-3.4738061,-4.3153353,10.725889,-9.233556,18.804626,-42.7319,37.604576,8.558214,-4.289538,14.340763,-5.897815,-17.29718,32.350983,60.420193,9.068672,-4.993697,-9.280039
142,2.883025646209717,-6.620889663696289,74.78911590576172,1.9477249177769163,4.973659944321493,-90.45215181676252,-4.10957,0.056582823,16.49784,30.684546,-29.461046,-2.2506979,-26.329994,-19.553162,-9.27924,70.79817,-18.019146,-0.24225959,-3.7766056,-4.2633934,11.088677,-9.956106,18.746883,-42.56354,36.890415,8.887646,-4.422048,14.463659,-5.2277226,-17.593262,32.005222,60.66044,9.086776,-4.8816776,-9.282639
143,2.9259819984436035,-6.849996566772461,74.57359313964844,1.8971844148590786,4.999146352999906,-90.22158154575618,-4.4931307,0.19962014,16.295153,31.939377,-30.28141,-2.239984,-27.580286,-19.876999,-9.251643,72.96808,-18.14508,-1.0254203,-4.0890164,-4.2203183,11.446845,-10.738052,18.675343,-42.377426,36.141396,9.193871,-4.521315,14.588187,-4.5062895,-17.881313,31.645271,60.87215,9.095387,-4.77791,-9.266537
144,2.9610555171966553,-7.085093975067139,74.3416976928711,1.862204392109053,5.039795388646768,-89.9796514638436,-4.863167,0.3108529,16.081074,33.140396,-31.092157,-2.2138727,-28.850956,-20.14801,-9.1712265,74.97264,-18.275274,-1.623774,-4.3989196,-4.193394,11.799228,-11.592747,18.588804,-42.162315,35.37276,9.464961,-4.586993,14.686798,-3.7367275,-18.159203,31.269085,61.065346,9.156787,-4.719734,-9.239676
145,2.993119239807129,-7.3347344398498535,74.09983825683594,1.8448194636088424,5.097848976672737,-89.72222603159969,-5.2277155,0.3883835,15.851929,34.294636,-31.902689,-2.1636493,-30.154345,-20.33373,-9.004385,76.81561,-18.399208,-1.9594312,-4.705026,-4.183341,12.141934,-12.529671,18.488781,-41.9169,34.587948,9.659459,-4.608025,14.751101,-2.9129713,-18.426601,30.873327,61.234234,9.279085,-4.7372694,-9.206068
146,3.0162241458892822,-7.597250461578369,73.85873413085938,1.840698352447155,5.1692899603312705,-89.44814561806572,-5.5963826,0.44328594,15.607096,35.433926,-32.723843,-2.0962265,-31.475996,-20.444027,-8.784798,78.5136,-18.559862,-2.0842638,-5.0121083,-4.1856728,12.475316,-13.537075,18.37655,-41.64281,33.77823,9.79808,-4.588671,14.795916,-2.0349646,-18.682493,30.461338,61.37758,9.432851,-4.803694,-9.160458
147,3.0417959690093994,-7.8542375564575195,73.61372375488281,1.8489580196008502,5.251730412187317,-89.16854513129745,-5.949348,0.47642082,15.354297,36.527966,-33.532757,-2.0252175,-32.80483,-20.52767,-8.569829,80.05474,-18.743856,-2.1172068,-5.3184323,-4.2009006,12.803777,-14.602534,18.250164,-41.3352,32.948227,9.957606,-4.5520525,14.82876,-1.1177759,-18.923286,30.040707,61.51736,9.620099,-4.871135,-9.097586
148,3.060953378677368,-8.114288330078125,73.36260986328125,1.8694794043123137,5.34288427107691,-88.89424395351763,-6.2656717,0.48686013,15.101783,37.544834,-34.304733,-1.9633259,-34.130493,-20.637997,-8.414043,81.42443,-18.93636,-2.1810224,-5.6230516,-4.230583,13.130912,-15.715818,18.10532,-40.988403,32.10708,10.215313,-4.5214996,14.8575325,-0.18017657,-19.144218,29.619772,61.680553,9.842604,-4.892149,-9.013077
149,3.0928831100463867,-8.387077331542969,73.10670471191406,1.9065944761500095,5.444040374066716,-88.62065989223831,-6.5521946,0.46449238,14.84473,38.49511,-35.04134,-1.9105597,-35.45912,-20.798256,-8.32592,82.62652,-19.145082,-2.307077,-5.9284163,-4.2773733,13.4560585,-16.889278,17.937754,-40.594418,31.275875,10.624843,-4.5097156,14.872699,0.77213126,-19.340069,29.167416,61.875957,10.116461,-4.839364,-8.886013
150,3.0896427631378174,-8.705845832824707,72.8607406616211,1.9598652556856617,5.555297318833179,-88.34435578008078,-6.816556,0.41126627,14.580363,39.391903,-35.75599,-1.8573885,-36.795715,-20.978308,-8.275171,83.667336,-19.37065,-2.429441,-6.23246,-4.3397555,13.775118,-18.12722,17.74672,-40.154953,30.45438,11.136892,-4.502735,14.874751,1.7460691,-19.508905,28.68974,62.096703,10.433951,-4.74301,-8.72645
151,3.0999789237976074,-9.015708923339844,72.62482452392578,2.020075686040294,5.672566715694595,-88.07778240720604,-7.0350657,0.35125706,14.327584,40.20274,-36.4295,-1.8207456,-38.120403,-21.15727,-8.264674,84.5258,-19.596237,-2.534202,-6.5291276,-4.4139338,14.086486,-19.409643,17.534658,-39.681957,29.61912,11.669559,-4.4831476,14.885073,2.7402709,-19.652391,28.254204,62.344883,10.76344,-4.6412416,-8.576874
152,3.1031856536865234,-9.32781982421875,72.40687561035156,2.0784162131747124,5.792287416019103,-87.83331367089886,-7.1889153,0.29968274,14.096861,40.90177,-37.06047,-1.7952633,-39.419155,-21.30953,-8.2897835,85.18588,-19.791996,-2.598478,-6.8149695,-4.4969897,14.389389,-20.71032,17.305674,-39.184814,28.73818,12.143846,-4.43283,14.924123,3.7497787,-19.774057,27.932682,62.626343,11.076095,-4.575925,-8.478564
153,3.09141206741333,-9.673612594604492,72.19764709472656,2.1415620032514875,5.910523968902508,-87.62442507056272,-7.267467,0.25288513,13.905837,41.485554,-37.64975,-1.7751883,-40.698338,-21.430115,-8.339081,85.64593,-19.965342,-2.6095028,-7.0734835,-4.602071,14.6882305,-22.03006,17.061823,-38.650562,27.800589,12.537563,-4.3416214,15.013568,4.783392,-19.8731,27.751368,62.947422,11.4029665,-4.5668,-8.488359
154,3.069667339324951,-10.026480674743652,71.99224853515625,2.2112695458954708,6.030252922630083,-87.4408661312414,-7.2829084,0.20393308,13.743302,41.96875,-38.200233,-1.7610792,-41.961586,-21.531986,-8.419052,85.91218,-20.123697,-2.5805364,-7.314671,-4.7280746,14.980692,-23.375614,16.805054,-38.074722,26.819365,12.894462,-4.220276,15.136079,5.835335,-19.949003,27.675425,63.308487,11.748132,-4.591109,-8.568792
155,3.0300753116607666,-10.406412124633789,71.8050765991211,2.2707737236361836,6.157249420957911,-87.26008213774713,-7.2460628,0.16942492,13.582441,42.34421,-38.699654,-1.7746888,-43.188675,-21.620575,-8.557589,85.98024,-20.248365,-2.5335748,-7.5734644,-4.852295,15.256965,-24.729912,16.539791,-37.48492,25.796661,13.232124,-4.081902,15.253618,6.888451,-20.009626,27.677496,63.68792,12.038069,-4.6179776,-8.620451
156,3.0043561458587646,-10.785551071166992,71.64374542236328,2.3029492785320165,6.297721245043022,-87.05951202473602,-7.1675224,0.16627166,13.397135,42.604374,-39.134617,-1.8372601,-44.35784,-21.70155,-8.782618,85.84407,-20.320698,-2.4902122,-7.8838096,-4.949913,15.509602,-26.079746,16.272741,-36.91361,24.731236,13.563115,-3.940099,15.3279085,7.931711,-20.066679,27.727482,64.05543,12.20053,-4.6158156,-8.542728
157,2.975132942199707,-11.177234649658203,71.50735473632812,2.3037942765833623,6.446843323861383,-86.83763163640677,-7.058322,0.20267572,13.186637,42.778084,-39.516937,-1.9591959,-45.46788,-21.79331,-9.119988,85.49812,-20.351465,-2.4632227,-8.248142,-5.020219,15.762117,-27.4301,16.000523,-36.34669,23.602886,13.902693,-3.8028548,15.355465,8.958404,-20.128231,27.845432,64.38838,12.166345,-4.568881,-8.280938
158,2.926217794418335,-11.594600677490234,71.38319396972656,2.2822295706005375,6.603873146389882,-86.60495002715693,-6.9095616,0.2689613,12.963885,42.859882,-39.84958,-2.1269166,-46.52644,-21.88768,-9.549826,84.94446,-20.34498,-2.4370496,-8.651305,-5.0735826,16.013098,-28.786644,15.720088,-35.7769,22.414125,14.239945,-3.661064,15.354314,9.9831295,-20.196222,28.036938,64.69427,11.99262,-4.49615,-7.8960066
159,2.8929226398468018,-12.035873413085938,71.28241729736328,2.2402179316119843,6.780947458464149,-86.3574362699903,-6.7023745,0.35527134,12.723546,42.789528,-40.105686,-2.3255043,-47.52603,-21.952106,-10.030441,84.19047,-20.274368,-2.391441,-9.085058,-5.098735,16.213966,-30.177013,15.458521,-35.2808,21.21924,14.499154,-3.5079517,15.31956,11.040516,-20.274641,28.232811,64.98439,11.793372,-4.4168677,-7.46148
160,2.81624698638916,-12.516985893249512,71.22213745117188,2.1827391506140423,6.989963323151141,-86.0908683125014,-6.417323,0.45019352,12.460206,42.506485,-40.258774,-2.5400734,-48.461716,-21.955986,-10.516333,83.24401,-20.11322,-2.3069339,-9.592961,-5.1075454,16.340956,-31.440454,15.203089,-34.818947,19.934437,14.793197,-3.3237698,15.244282,12.118017,-20.366611,28.407995,65.270294,11.681798,-4.3481784,-7.049561
161,2.7432875633239746,-13.03365421295166,71.19256591796875,2.115724568353795,7.240426453714878,-85.79051682325094,-6.0789604,0.5484423,12.15387,42.034996,-40.32839,-2.7628837,-49.350903,-21.906744,-11.000137,82.09893,-19.863035,-2.1902475,-10.165145,-5.0913296,16.376343,-32.661232,14.975701,-34.448483,18.589228,14.99814,-3.1076272,15.1254425,13.24621,-20.473154,28.569326,65.542366,11.701915,-4.2942405,-6.6462555
162,2.668426513671875,-13.58537483215332,71.19242095947266,2.0369697869241756,7.5241335053532925,-85.4630381612528,-5.687196,0.6584903,11.812821,41.394184,-40.32092,-3.0004125,-50.18893,-21.818443,-11.500913,80.749146,-19.538206,-2.048799,-10.814397,-5.0599213,16.350128,-33.793205,14.766984,-34.119423,17.135944,15.182151,-2.8630538,14.96686,14.395318,-20.593962,28.748951,65.797745,11.787277,-4.2446365,-6.223334
163,2.590742349624634,-14.178628921508789,71.22386932373047,1.934273458351301,7.826707721943221,-85.13656409728672,-5.185829,0.7944112,11.472933,40.516808,-40.195198,-3.2603183,-50.940193,-21.667692,-12.013552,79.210014,-19.1247,-1.8630568,-11.501775,-4.9966364,16.26109,-34.8532,14.583111,-33.866158,15.644196,15.371632,-2.6003783,14.773384,15.5768385,-20.731804,28.861713,66.03949,11.893623,-4.193162,-5.83298
164,2.5213136672973633,-14.813643455505371,71.29431915283203,1.7950222050979612,8.133946118634558,-84.83930915480796,-4.519213,0.9705129,11.17012,39.335094,-39.908466,-3.5492942,-51.56781,-21.429867,-12.534682,77.49254,-18.610405,-1.6138031,-12.193171,-4.8871336,16.115028,-35.833523,14.429904,-33.71217,14.160426,15.614216,-2.3287306,14.550116,16.80139,-20.89027,28.821928,66.26274,11.973292,-4.1338778,-5.5266385
165,2.4367637634277344,-15.4937162399292,71.40263366699219,1.6260807981657979,8.443230373878167,-84.56648797628681,-3.6831777,1.1869706,10.900599,37.845657,-39.497402,-3.8482983,-52.070374,-21.109951,-13.050754,75.57593,-18.020262,-1.2925637,-12.885211,-4.732887,15.921,-36.745483,14.312557,-33.681694,12.6783905,15.9362545,-2.0415754,14.30432,18.09453,-21.067888,28.610823,66.4508,12.046474,-4.083093,-5.3232813
166,2.3598086833953857,-16.220096588134766,71.5410385131836,1.4306097824052215,8.761991600071688,-84.30705339345351,-2.702852,1.4414066,10.649505,36.077446,-38.970703,-4.1576376,-52.463078,-20.716507,-13.564689,73.45701,-17.352036,-0.9119554,-13.595515,-4.5370145,15.679014,-37.578945,14.2308655,-33.75727,11.163791,16.306381,-1.7374982,14.030826,19.448832,-21.261723,28.271585,66.60258,12.126258,-4.037523,-5.192807
167,2.2787985801696777,-16.996126174926758,71.71343994140625,1.1896518810739019,9.09154942820781,-84.07970342597439,-1.5681621,1.7449089,10.435241,34.01588,-38.244724,-4.5101743,-52.735954,-20.228258,-14.0973625,71.17057,-16.549398,-0.48320612,-14.319351,-4.285155,15.381481,-38.301746,14.182672,-33.90237,9.629042,16.682259,-1.4340323,13.715592,20.830576,-21.475111,27.810581,66.73347,12.158187,-3.9624383,-5.113449
168,2.1887621879577637,-17.830852508544922,71.9140396118164,0.8838149347354808,9.433239900487605,-83.90333197298942,-0.26800743,2.109291,10.273363,31.64244,-37.240875,-4.938531,-52.87987,-19.622883,-14.668698,68.749985,-15.555842,-0.016174955,-15.046037,-3.9580812,15.0216,-38.893288,14.168778,-34.085194,8.091161,17.011126,-1.1489719,13.344911,22.216497,-21.715218,27.224228,66.850296,12.086869,-3.8238688,-5.0625324
169,2.078939914703369,-18.713430404663086,72.13529205322266,0.4897815582370401,9.786005546808575,-83.80964446441932,1.2887831,2.551473,10.183918,28.791212,-35.964375,-5.456481,-52.88713,-18.847137,-15.273953,66.1491,-14.315453,0.5065421,-15.759301,-3.5342424,14.595099,-39.33344,14.195075,-34.298553,6.55762,17.277857,-0.8914264,12.910212,23.624819,-21.985624,26.455364,66.93937,11.843102,-3.5482264,-5.010921
170,1.9756132364273071,-19.64117431640625,72.37176513671875,0.020390058523091763,10.150159200024623,-83.77851031656643,3.0680099,3.071248,10.144454,25.523525,-34.46075,-6.0289583,-52.764748,-17.923784,-15.89761,63.35414,-12.868439,1.0838892,-16.472883,-3.018801,14.113917,-39.63563,14.264177,-34.554523,5.0097003,17.510153,-0.6503092,12.420238,25.0732,-22.28487,25.518732,66.98619,11.475525,-3.174911,-4.974889
171,1.882508397102356,-20.61026382446289,72.62576293945312,-0.48813824997257704,10.528811586551152,-83.75146206793329,4.895868,3.6521063,10.11001,22.157547,-32.6942,-6.635737,-52.5295,-16.946096,-16.544552,60.451084,-11.305178,1.6791261,-17.219965,-2.4376316,13.595712,-39.829967,14.3693495,-34.84833,3.429119,17.725962,-0.41283274,11.8881445,26.534052,-22.617275,24.51594,66.99212,11.105545,-2.8323126,-5.0046706
172,1.785259485244751,-21.608211517333984,72.8799819946289,-0.9928347203176412,10.924911633350634,-83.67144467683778,6.586926,4.2580585,10.022034,19.034073,-30.647324,-7.251866,-52.20422,-16.008614,-17.211533,57.53329,-9.711684,2.2597427,-18.034056,-1.8216854,13.057229,-39.944366,14.496915,-35.17226,1.8009276,17.949986,-0.16668771,11.326739,27.977327,-22.991693,23.552643,66.95912,10.856458,-2.6477745,-5.153505
173,1.6670348644256592,-22.644285202026367,73.13058471679688,-1.5223005960336051,11.358562737302758,-83.54256892139789,8.164725,4.90571,9.86602,16.072863,-28.213787,-7.9929113,-51.789772,-15.080801,-17.918074,54.545,-8.04934,2.8399873,-18.91787,-1.1327517,12.483217,-39.964527,14.637077,-35.520023,0.13117667,18.192377,0.103369765,10.701545,29.40188,-23.424269,22.671406,66.90214,10.76781,-2.6376195,-5.4273276
174,1.5715340375900269,-23.70420265197754,73.38676452636719,-2.0785961419585175,11.821380810118894,-83.38807114530488,9.700325,5.5934033,9.646883,13.156261,-25.44345,-8.8353815,-51.279102,-14.132478,-18.644493,51.452698,-6.2869086,3.4308012,-19.856506,-0.36651585,11.875756,-39.88565,14.7906475,-35.88822,-1.5693678,18.44369,0.3850596,10.017459,30.83849,-23.916985,21.804182,66.798065,10.775734,-2.7384946,-5.799629
175,1.4755842685699463,-24.789091110229492,73.63948822021484,-2.565202429946857,12.268856250260106,-83.18896825472564,11.0822735,6.242509,9.35928,10.586351,-22.55383,-9.573387,-50.686546,-13.2661,-19.32273,48.410725,-4.537832,3.9910803,-20.841274,0.37318167,11.270868,-39.754433,14.9607,-36.28379,-3.3035483,18.694492,0.64982367,9.347678,32.29934,-24.452785,20.883045,66.60533,10.839643,-2.9598997,-6.277909
176,1.3848979473114014,-25.888092041015625,73.89095306396484,-2.8802752261483646,12.65250953902028,-82.93150019259112,12.196554,6.7672462,9.020617,8.681688,-19.760677,-10.010486,-50.031246,-12.587924,-19.883688,45.60084,-2.921454,4.4792356,-21.857872,0.97092277,10.696362,-39.616405,15.151707,-36.718494,-5.0730724,18.931757,0.8699396,8.76571,33.780666,-24.998915,19.852205,66.301704,10.919224,-3.311967,-6.8711066
177,1.2885762453079224,-27.012935638427734,74.14096069335938,-2.9887574598542783,12.954127383091505,-82.60038919822865,12.987583,7.135107,8.652456,7.59173,-17.030302,-10.146287,-49.300472,-12.136057,-20.320192,43.02814,-1.4549491,4.8453374,-22.922785,1.3890359,10.157408,-39.488487,15.369593,-37.215927,-6.895949,19.135942,1.0497911,8.295211,35.28515,-25.535189,18.618628,65.89204,11.042867,-3.8848307,-7.5662293
178,1.1865609884262085,-28.15435218811035,74.39373016357422,-2.94065784100941,13.195183732826226,-82.21520049615047,13.457767,7.3856335,8.256832,7.276236,-14.341752,-10.101293,-48.49368,-11.857061,-20.665524,40.64178,-0.09039566,5.1224217,-24.02066,1.6788253,9.629182,-39.346214,15.614213,-37.77367,-8.766345,19.31502,1.2025511,7.8968754,36.80267,-26.054754,17.239475,65.40812,11.208296,-4.646288,-8.365534
179,1.0798346996307373,-29.316919326782227,74.63529968261719,-2.767600859783464,13.386477159400604,-81.81541428899658,13.839911,7.512319,7.8779473,7.2175756,-11.620531,-9.865595,-47.64664,-11.712969,-20.92299,38.542,1.1471387,5.3958907,-25.092829,1.8565795,9.090568,-39.173763,15.87621,-38.366238,-10.638899,19.504734,1.3114955,7.5507474,38.28089,-26.544565,15.897556,64.90069,11.330425,-5.429262,-9.305213
180,0.9792458415031433,-30.496368408203125,74.8598403930664,-2.516600648367159,13.54140854987501,-81.43577331392628,13.999546,7.581957,7.511018,7.6753583,-9.194808,-9.422431,-46.802784,-11.656636,-21.107738,36.83504,2.2328117,5.7538943,-26.08138,1.9500659,8.526242,-38.964027,16.140831,-38.972977,-12.457478,19.742455,1.3605738,7.2360687,39.661587,-26.99163,14.778629,64.42,11.327175,-6.060384,-10.428563
181,0.8764298558235168,-31.68708038330078,75.05680084228516,-2.195857956302581,13.684407176272966,-81.02087331109742,13.666103,7.6400304,7.075456,9.101903,-7.2482963,-8.662547,-45.944546,-11.718154,-21.293087,35.473602,3.4153972,6.4835835,-27.025301,1.9815944,7.9126534,-38.771347,16.399055,-39.619293,-14.184021,20.065395,1.326835,6.9444175,40.937653,-27.392365,13.929063,63.97107,11.166308,-6.462685,-11.861466
182,0.7534260749816895,-32.890438079833984,75.24278259277344,-1.807849723765422,13.825392660985472,-80.55389457837593,13.142454,7.6518393,6.642614,10.831676,-5.3166313,-7.670602,-45.05061,-11.883313,-21.491508,34.385532,4.6355963,7.45489,-27.947998,1.9689219,7.2510796,-38.609966,16.644861,-40.314754,-15.832183,20.441633,1.2253308,6.6876807,42.128403,-27.751968,13.254072,63.538208,10.896072,-6.7331514,-13.54886
183,0.6266431212425232,-34.1007080078125,75.40380096435547,-1.4410353232733224,13.969029396956747,-80.09861163566183,12.566998,7.701873,6.3087945,12.65736,-3.4221578,-6.694343,-44.171127,-12.044431,-21.708105,33.66796,5.3973665,8.118028,-28.794218,1.9858034,6.587813,-38.417095,16.862076,-41.01817,-17.406971,20.809647,1.0965223,6.476444,43.215004,-28.079779,12.719037,63.136894,10.55685,-6.96117,-15.264136
184,0.4948766827583313,-35.321258544921875,75.52991485595703,-1.1496845879160251,14.100742653636692,-79.74171756892895,12.129569,7.823208,6.1696672,14.318271,-1.6008377,-5.9290156,-43.35273,-12.116005,-21.912058,33.436794,5.201566,7.917297,-29.48639,2.055764,5.9648514,-38.12766,17.032202,-41.688107,-18.910244,21.109026,0.98028,6.3191056,44.179096,-28.386368,12.2953415,62.786366,10.189691,-7.240201,-16.780994
185,0.3432023823261261,-36.54106903076172,75.63388061523438,-0.9089298695105625,14.218211573663842,-79.51719440915123,11.854023,7.9919734,6.2202325,15.79919,0.06972256,-5.2801,-42.693146,-12.101933,-22.00068,33.99412,3.6676855,6.348002,-29.98586,2.1458602,5.3478785,-37.728333,17.13544,-42.33379,-20.316175,21.36598,0.8845831,6.249334,45.038437,-28.686663,12.010727,62.50928,9.770685,-7.599203,-18.063272
186,0.18676647543907166,-37.778682708740234,75.69385528564453,-0.6781341749984343,14.31341203842463,-79.38889148362442,11.680843,8.178739,6.424226,17.187737,1.6250613,-4.618934,-42.150524,-12.010638,-21.927279,35.199127,1.1502738,3.8360791,-30.322672,2.2206361,4.72437,-37.266567,17.164158,-42.97498,-21.605026,21.60264,0.7882337,6.248927,45.804897,-28.98524,11.867134,62.28288,9.293362,-7.9844794,-19.222725
187,0.04095502570271492,-38.99846267700195,75.69759368896484,-0.6180299560847673,14.40174278977488,-79.28650829272068,11.238585,8.624232,6.6901817,19.19861,2.7577991,-4.0931416,-41.554573,-11.717548,-21.924097,36.47714,-1.7421259,1.2023158,-30.580593,2.4420362,4.218692,-36.765903,17.11874,-43.581238,-22.788013,21.757996,0.68918175,6.2506976,46.45095,-29.270927,11.790931,62.048904,8.8164835,-8.371778,-20.253664
188,-0.09986861795186996,-40.209007263183594,75.66438293457031,-0.6733880323093746,14.429324575514263,-79.24656870370963,10.834767,9.216061,7.1231394,21.323843,3.7940013,-3.8158207,-40.74789,-11.258079,-22.012484,37.3468,-4.4586926,-0.7212986,-30.737106,2.7160394,3.8792803,-36.224026,17.012358,-44.130028,-23.891235,21.773989,0.5823623,6.1869116,46.934193,-29.517754,11.726979,61.77464,8.397613,-8.739192,-21.155176
189,-0.26901501417160034,-41.39254379272461,75.60543823242188,-0.7845733661024851,14.37601702353025,-79.29703144247715,10.611294,9.913176,7.8291492,23.40163,4.8085146,-3.9327352,-39.604416,-10.691375,-22.220747,37.589188,-7.0277967,-1.6479498,-30.758894,2.9642994,3.6857188,-35.616318,16.859129,-44.615887,-24.953304,21.58664,0.46332213,6.0299873,47.24927,-29.698887,11.658942,61.489456,8.039003,-9.094287,-21.882215
190,-0.4406054615974426,-42.55263900756836,75.51985931396484,-0.9353589553939166,14.254749502322664,-79.44147964404891,10.460614,10.746086,8.752842,25.629236,5.679607,-4.2705235,-38.236275,-10.035869,-22.469772,37.501392,-9.696682,-2.0297363,-30.63365,3.178481,3.5987236,-34.94819,16.646564,-45.063843,-25.95101,21.245531,0.33614886,5.81963,47.41411,-29.824688,11.620108,61.20597,7.7129803,-9.449146,-22.453077
191,-0.6091444492340088,-43.705841064453125,75.41282653808594,-1.1449854506767327,14.079259158255468,-79.6652454363001,10.199059,11.723,9.732778,28.240553,6.319656,-4.4986496,-36.824722,-9.303217,-22.701168,37.35892,-12.258269,-2.159671,-30.37679,3.3804293,3.6357467,-34.257534,16.39058,-45.499065,-26.854681,20.843597,0.20972317,5.5902476,47.39336,-29.891188,11.640505,60.89285,7.4261093,-9.793076,-22.97321
192,-0.7692325711250305,-44.841773986816406,75.29107666015625,-1.4387325696048874,13.862626206715309,-79.95317087808961,9.678522,12.830598,10.610747,31.392624,6.669596,-4.3214526,-35.554512,-8.494029,-22.848373,37.451515,-14.514964,-2.3394225,-30.011324,3.6033971,3.8187816,-33.575855,16.10543,-45.93915,-27.635567,20.478544,0.09233679,5.377369,47.158165,-29.906857,11.747924,60.50716,7.1864944,-10.112915,-23.543242
193,-0.948171854019165,-45.944908142089844,75.15791320800781,-1.8216231387977782,13.60052212901832,-80.30695607801549,8.8750105,14.109928,11.46276,35.196865,6.70157,-3.583567,-34.4833,-7.617141,-22.878212,37.89489,-16.392586,-2.6305206,-29.54127,3.8569782,4.164111,-32.890965,15.805197,-46.399723,-28.337769,20.170658,-0.0018172113,5.1980467,46.696686,-29.870546,11.943327,60.061615,7.033729,-10.413084,-24.217976
194,-1.1228598356246948,-47.01224899291992,74.99246215820312,-2.277256054672368,13.284064093846325,-80.73572128555614,7.885475,15.572907,12.321833,39.53573,6.423173,-2.4612174,-33.50425,-6.686858,-22.829634,38.533978,-18.012793,-2.8812587,-28.95873,4.1243415,4.657995,-32.1799,15.497229,-46.863884,-28.977219,19.868,-0.08084762,5.0324636,46.0217,-29.779467,12.21836,59.57152,6.95196,-10.700112,-24.933142
195,-1.2821128368377686,-48.05258560180664,74.78562927246094,-2.8007110140046985,12.921239659308755,-81.23201201756396,6.7482686,17.105814,12.960353,44.18276,5.867139,-1.2117497,-32.559746,-5.698756,-22.738194,39.254757,-19.474445,-3.0826492,-28.272564,4.4041214,5.2778983,-31.45707,15.185554,-47.297005,-29.489101,19.558916,-0.17024763,4.86021,45.144638,-29.647385,12.58326,58.98992,6.8680534,-10.957643,-25.610348
196,-1.4318153858184814,-49.065364837646484,74.54627227783203,-3.3859344413481147,12.521991068339327,-81.7857997532767,5.477465,18.554867,13.151219,48.929478,5.086544,-0.1251839,-31.597813,-4.6426682,-22.640047,39.941067,-20.872248,-3.2241395,-27.500944,4.6986403,5.998187,-30.729877,14.871136,-47.658115,-29.806084,19.236324,-0.2952509,4.660582,44.071648,-29.498545,13.052048,58.278763,6.7125196,-11.174235,-26.167383
197,-1.558461308479309,-50.04719543457031,74.28832244873047,-4.047804413544787,12.08155392271509,-82.41114921085797,4.019541,19.781647,12.714082,53.881573,3.9951065,0.6336876,-30.648027,-3.4938118,-22.546915,40.625217,-22.205008,-3.2927935,-26.647598,5.0238414,6.841191,-30.007694,14.557957,-47.91652,-29.952297,18.886477,-0.48001143,4.3704104,42.79391,-29.34584,13.646434,57.402176,6.48696,-11.305263,-26.570665
198,-1.698500156402588,-50.999366760253906,74.01032257080078,-4.77550920468906,11.596809359892326,-83.10184058622598,2.3528714,20.792292,11.795754,59.136116,2.6094453,1.1648684,-29.728182,-2.2765784,-22.437773,41.35936,-23.434855,-3.299929,-25.723991,5.38576,7.800756,-29.26862,14.2518,-48.084854,-29.958923,18.517107,-0.70422345,4.018837,41.312054,-29.188484,14.363469,56.384003,6.231398,-11.369822,-26.860334
199,-1.8317748308181763,-51.93018341064453,73.7193832397461,-5.528736303544023,11.082106717640224,-83.8163629412918,0.5376866,21.667807,10.6721525,64.47106,1.1478819,1.5872549,-28.774323,-1.0385293,-22.30717,42.049732,-24.596222,-3.2705977,-24.761347,5.7736444,8.809071,-28.473839,13.954924,-48.185055,-29.769104,18.152004,-0.9272975,3.7234411,39.65112,-29.028685,15.180508,55.258633,5.932424,-11.440641,-27.065071
200,-1.96568763256073,-52.86250686645508,73.42182922363281,-6.275781896219676,10.552961847628607,-84.51461712791516,-1.3499266,22.557657,9.612436,69.63166,-0.16282189,2.0635762,-27.719793,0.19038978,-22.157597,42.586426,-25.715805,-3.231467,-23.787027,6.178378,9.803572,-27.589685,13.666834,-48.239925,-29.325119,17.813988,-1.1107464,3.6021938,37.838665,-28.871424,16.067842,54.05632,5.575825,-11.591031,-27.213474
201,-2.0878844261169434,-53.788238525390625,73.12776184082031,-7.077665711083273,9.984626063952799,-85.21180650100393,-3.2791688,23.573496,8.616309,74.641304,-1.2367244,2.64288,-26.506552,1.5025536,-22.01998,42.884205,-26.77736,-3.1957746,-22.79332,6.6468806,10.829817,-26.601728,13.3843155,-48.259968,-28.617332,17.515516,-1.2568473,3.716985,35.88208,-28.719366,17.008648,52.7408,5.1598363,-11.878892,-27.291441
202,-2.1971306800842285,-54.71629333496094,72.83543395996094,-7.935023321073991,9.376526303744885,-85.9204081554397,-5.283708,24.626255,7.5604053,79.607346,-2.2015839,3.242246,-25.192175,2.9072576,-21.890282,43.009224,-27.766668,-3.155385,-21.775978,7.1824,11.899067,-25.52473,13.106407,-48.22912,-27.677486,17.246038,-1.3849928,3.9964092,33.773354,-28.565773,18.01976,51.29746,4.6940174,-12.251878,-27.288704
203,-2.294778347015381,-55.642093658447266,72.55702209472656,-8.727661478622652,8.785176025513096,-86.5958471551516,-7.387621,25.613941,6.516841,84.381035,-3.1371975,3.8616176,-23.871462,4.2492275,-21.727655,43.06294,-28.70835,-3.103607,-20.763897,7.6974325,12.903747,-24.37204,12.837179,-48.13218,-26.506405,16.989576,-1.4828168,4.3588786,31.517076,-28.400816,19.113312,49.787056,4.1798406,-12.618546,-27.241648
204,-2.3918473720550537,-56.57521438598633,72.298095703125,-9.33651661608425,8.271491281862943,-87.19472186007576,-9.612422,26.435083,5.5687346,88.801956,-4.1198716,4.5031266,-22.630436,5.3597302,-21.49909,43.15554,-29.636496,-3.0280242,-19.788492,8.095196,13.745624,-23.143425,12.581201,-47.956512,-25.115242,16.741974,-1.5366062,4.72499,29.117409,-28.21148,20.299875,48.26593,3.616969,-12.887472,-27.185997
205,-2.500584602355957,-57.52019119262695,72.06016540527344,-9.73357431047493,7.8619553605318675,-87.69578511043083,-11.994398,27.11317,4.7536783,92.88234,-5.143805,5.198536,-21.497133,6.1828656,-21.220476,43.334896,-30.57407,-2.9195364,-18.876133,8.338757,14.403101,-21.773119,12.328616,-47.722134,-23.448698,16.49451,-1.5484213,5.150686,26.57387,-27.982098,21.588072,46.70194,3.0027115,-13.048897,-27.172413
206,-2.598763942718506,-58.471168518066406,71.84647369384766,-9.98932639055851,7.525971932725814,-88.12894839245666,-14.507167,27.705881,4.030765,96.69683,-6.174258,5.9500947,-20.418089,6.814231,-20.918425,43.53413,-31.50094,-2.7863638,-17.947979,8.484222,14.906457,-20.455315,12.125835,-47.370102,-21.450586,16.042469,-1.5285772,5.6330833,23.950132,-27.69295,22.910242,45.054092,2.340608,-13.14742,-27.16679
207,-2.7061767578125,-59.414024353027344,71.66080474853516,-10.124451151754835,7.23843428474838,-88.53067961395448,-17.082241,28.147451,3.3895972,100.17077,-7.227391,6.7099576,-19.357725,7.2953615,-20.573025,43.704346,-32.38955,-2.639641,-17.040728,8.517213,15.349173,-18.95845,11.93674,-46.983704,-19.41911,15.801242,-1.4613417,6.0831976,21.153196,-27.358835,24.295828,43.41091,1.624406,-13.177185,-27.085766
208,-2.789780855178833,-60.35142517089844,71.50570678710938,-10.162225917003484,6.975655931127121,-88.93525502717134,-19.65524,28.36508,2.8326936,103.21933,-8.311323,7.4233985,-18.281126,7.6678243,-20.164371,43.794785,-33.211155,-2.4894903,-16.080717,8.46907,15.739344,-17.502272,11.785714,-46.48892,-17.413662,15.688097,-1.3359766,6.3533163,18.223017,-26.99209,25.68674,41.83108,0.8622382,-13.131191,-26.83537
209,-2.859835624694824,-61.296199798583984,71.3770751953125,-10.079175638147017,6.74343223975162,-89.32944071152322,-22.25158,28.283752,2.385947,105.83725,-9.46463,8.107939,-17.203405,7.8933477,-19.695284,43.843475,-33.99115,-2.3347023,-15.089786,8.313059,16.081,-16.02061,11.671814,-45.867634,-15.4238405,15.688795,-1.1541587,6.429548,15.086866,-26.608494,27.161644,40.35315,0.08096467,-12.989483,-26.398352
210,-2.9344253540039062,-62.24906921386719,71.28369140625,-9.872514746738936,6.55346214692524,-89.70090542808123,-24.893396,27.952827,2.067006,108.05979,-10.6394615,8.766264,-16.136189,7.958301,-19.181526,43.86545,-34.73784,-2.169413,-14.087307,8.046914,16.364439,-14.500427,11.599128,-45.122807,-13.397929,15.764494,-0.9198327,6.3725634,11.776439,-26.207787,28.694223,38.9107,-0.7248493,-12.765234,-25.816925
211,-3.0116193294525146,-63.21135711669922,71.22209930419922,-9.591246734223922,6.388210735345177,-90.0848692475593,-27.502657,27.491604,1.9049467,109.854965,-11.720452,9.352656,-15.039135,7.933491,-18.616056,43.77887,-35.399174,-1.9969984,-13.063693,7.7150946,16.6199,-12.950789,11.58627,-44.29515,-11.508505,16.092142,-0.6170521,6.180009,8.396408,-25.790928,30.138048,37.449284,-1.6132264,-12.505366,-25.090014
212,-3.058995246887207,-64.18682098388672,71.20124053955078,-9.284911188068882,6.229432195264315,-90.51771977542595,-30.003613,27.028368,1.918808,111.187546,-12.598139,9.82638,-13.870815,7.8895416,-17.987438,43.500664,-35.923862,-1.8206778,-12.00933,7.3683887,16.874039,-11.380334,11.6644,-43.41835,-9.932817,16.842888,-0.23387805,5.8497467,5.0484633,-25.364006,31.365368,35.927795,-2.643426,-12.258779,-24.214693
213,-3.0964138507843018,-65.1590347290039,71.20191192626953,-8.9767291048125,6.059633004384895,-91.03834166024757,-32.40263,26.610825,2.1123111,112.0441,-13.2221575,10.16136,-12.620533,7.8614135,-17.265652,43.027042,-36.31257,-1.6613894,-10.921361,7.0274487,17.162157,-9.732298,11.864922,-42.418606,-8.792294,18.357943,0.27128127,5.3296046,1.6763077,-24.933329,32.38002,34.3634,-3.921654,-12.064045,-23.079767
214,-3.1384758949279785,-66.152099609375,71.25658416748047,-8.637248935783376,5.8925136858072715,-91.6188741708707,-34.732975,26.181253,2.4799194,112.43628,-13.650007,10.386046,-11.310041,7.797842,-16.46419,42.39932,-36.590473,-1.5085208,-9.823763,6.667136,17.466408,-7.9788837,12.2048,-41.278816,-8.025477,20.451178,0.8615854,4.625209,-1.76455,-24.505957,33.27508,32.783325,-5.388214,-11.905029,-21.7195
215,-3.1553969383239746,-67.1727294921875,71.34439086914062,-8.23734321199129,5.756932267277064,-92.19593756318253,-36.95811,25.709625,3.0198562,112.366806,-13.941721,10.542205,-9.948698,7.6401587,-15.6373625,41.606007,-36.740696,-1.3196363,-8.7491455,6.2713304,17.730856,-6.1691666,12.690331,-40.110542,-7.5372925,22.50014,1.440333,3.8295546,-5.166869,-24.09387,34.08413,31.179842,-6.8459167,-11.738431,-20.347713
216,-3.1581342220306396,-68.21638488769531,71.46772003173828,-7.748849185382369,5.682018861724618,-92.70574353767994,-39.036793,25.160103,3.731339,111.839325,-14.1591015,10.667457,-8.545119,7.3334336,-14.842343,40.632725,-36.744644,-1.05451,-7.7193537,5.823521,17.90063,-4.3652387,13.315566,-39.035027,-7.220528,23.876755,1.9339483,3.0543625,-8.404825,-23.7109,34.828,29.527319,-8.10131,-11.501348,-19.175077
217,-3.1431968212127686,-69.28556823730469,71.62879180908203,-7.165337838547049,5.666245746145651,-93.13935297508871,-40.965004,24.549166,4.643977,110.83777,-14.349113,10.7745905,-7.090713,6.8581796,-14.080858,39.473866,-36.645576,-0.6964204,-6.750281,5.3334274,17.992256,-2.5688777,14.075982,-38.06043,-7.0894957,24.36463,2.3505285,2.315946,-11.489967,-23.365154,35.533092,27.808046,-9.077233,-11.155687,-18.281664
218,-3.120623826980591,-70.40513610839844,71.82205200195312,-6.503816104828935,5.6988281916398424,-93.52719078927382,-42.748684,23.878267,5.7439055,109.35742,-14.476433,10.825647,-5.58692,6.244167,-13.333535,38.13957,-36.44148,-0.27210045,-5.82981,4.8100376,18.032822,-0.7360542,14.968826,-37.1107,-7.2070384,24.311249,2.7369397,1.5693195,-14.465643,-23.05407,36.210266,26.01943,-9.88145,-10.725942,-17.543163
219,-3.105248212814331,-71.53082275390625,72.0598373413086,-5.77221933849057,5.7942534373973285,-93.86397514901192,-44.364162,23.08709,6.963293,107.418625,-14.483045,10.784344,-4.0594153,5.514328,-12.624981,36.642284,-36.04642,0.19339596,-4.930647,4.229132,17.981512,1.1232182,15.980791,-36.190823,-7.5141726,23.93363,3.0924246,0.8423621,-17.26225,-22.776642,36.848846,24.170212,-10.597455,-10.233958,-16.86494
220,-3.088564157485962,-72.70233917236328,72.32683563232422,-4.979892365039023,5.965767424717892,-94.14438349444633,-45.793915,22.119705,8.224069,105.04045,-14.308197,10.616468,-2.5326734,4.696124,-11.976823,34.99232,-35.374443,0.6772325,-4.019503,3.5656345,17.793829,2.982905,17.08963,-35.317665,-7.9282336,23.451162,3.4105678,0.16116789,-19.818804,-22.541729,37.4268,22.282536,-11.309045,-9.70978,-16.152294
221,-3.079629421234131,-73.91195678710938,72.62069702148438,-4.103152695590052,6.227034819841793,-94.36260443354158,-47.047638,20.939445,9.529071,102.19147,-13.967201,10.364447,-0.97695315,3.772968,-11.375957,33.10215,-34.442627,1.1977841,-3.0673368,2.796895,17.427134,4.796898,18.282866,-34.529808,-8.390308,22.81781,3.6962993,-0.5002676,-22.117363,-22.367527,37.925724,20.36725,-12.061314,-9.129318,-15.363835
222,-3.0798580646514893,-75.16834259033203,72.94303894042969,-3.151710957408586,6.565628925834991,-94.52150441767203,-48.129936,19.585022,10.881469,98.86419,-13.496394,10.025634,0.60645384,2.7462041,-10.816259,31.000793,-33.28862,1.7570465,-2.0919623,1.944402,16.91839,6.5733333,19.553383,-33.810925,-8.92417,21.9534,3.957545,-1.1428151,-24.190172,-22.266888,38.358185,18.40395,-12.808157,-8.48687,-14.553582
223,-3.0737476348876953,-76.47354888916016,73.30057525634766,-2.185155441834749,6.954420282004488,-94.62903830341128,-49.020943,18.117971,12.201806,95.11024,-12.865371,9.511718,2.1475673,1.6771804,-10.3231735,28.869955,-31.843136,2.310787,-1.1305069,1.0497091,16.337244,8.356108,20.881804,-33.09933,-9.555342,21.02575,4.181975,-1.7070808,-26.050783,-22.243832,38.738373,16.362177,-13.497164,-7.837399,-13.772007
224,-3.0791139602661133,-77.80455780029297,73.67342376708984,-1.261895872182446,7.3658880057379745,-94.69347998306353,-49.702488,16.594385,13.408575,90.97453,-12.03281,8.730251,3.576084,0.6302625,-9.9167,26.895182,-30.040628,2.8178256,-0.21765937,0.15569611,15.747202,10.183258,22.239145,-32.335682,-10.297938,20.203726,4.351102,-2.1361258,-27.706568,-22.295576,39.074703,14.214693,-14.081432,-7.2334847,-13.071979
225,-3.0764167308807373,-79.16988372802734,74.0675048828125,-0.35299747195322506,7.827097925170794,-94.69001657880925,-50.201496,14.89276,14.450379,86.35292,-10.988739,7.6070886,4.8881755,-0.41900548,-9.602772,25.044203,-27.814209,3.3140206,0.647109,-0.76697284,15.10611,12.013226,23.609737,-31.537191,-11.104415,19.550444,4.4397373,-2.4283695,-29.168718,-22.433428,39.372368,11.976663,-14.57206,-6.672397,-12.486592
226,-3.078157901763916,-80.55203247070312,74.46817779541016,0.5487577661218401,8.33476929563161,-94.62055171098835,-50.511986,13.036944,15.337534,81.23765,-9.755704,6.223659,6.107951,-1.4710449,-9.356016,23.273127,-25.227959,3.8063514,1.4786873,-1.7136513,14.394915,13.8203945,24.986898,-30.732328,-11.944892,18.97434,4.4586215,-2.6135552,-30.435652,-22.669596,39.621548,9.656076,-14.9841175,-6.1259117,-11.983562
227,-3.0852603912353516,-81.9661865234375,74.8721923828125,1.3597970720515193,8.818842964021773,-94.53734458644729,-50.557087,11.271244,16.115877,75.80259,-8.326996,4.714319,7.2177916,-2.436015,-9.148545,21.73014,-22.400442,4.217611,2.2751603,-2.5988486,13.7040825,15.65552,26.34933,-29.884846,-12.848139,18.411242,4.440977,-2.681817,-31.48388,-22.992952,39.796684,7.2188616,-15.2845335,-5.6081824,-11.522177
228,-3.098031759262085,-83.39512634277344,75.27392578125,1.9984546801293135,9.213497855871106,-94.49168372829917,-50.275356,9.8057165,16.85226,70.22813,-6.6747656,3.1923332,8.195347,-3.234681,-8.963543,20.574417,-19.44295,4.477876,3.032797,-3.3413534,13.116904,17.565874,27.664759,-28.957497,-13.828632,17.798773,4.4179435,-2.6219704,-32.30351,-23.373909,39.87442,4.6568184,-15.437182,-5.1345634,-11.064826
229,-3.0972352027893066,-84.8524398803711,75.67088317871094,2.4611061292562693,9.515165702635747,-94.49179156655649,-49.582325,8.681148,17.674469,64.34448,-4.646659,1.5821832,8.983535,-3.8675132,-8.805505,19.9151,-16.263058,4.490432,3.7529552,-3.9383996,12.633157,19.552828,28.908203,-27.935349,-14.855038,17.073776,4.3863587,-2.3902817,-32.91992,-23.793879,39.851376,2.0007257,-15.364954,-4.701658,-10.596046
230,-3.1054420471191406,-86.34076690673828,76.05543518066406,2.7861438806877685,9.754212387140454,-94.51370561381272,-48.532726,7.7094107,18.511715,58.085682,-2.2514849,-0.17864971,9.614384,-4.3785605,-8.693952,19.651852,-12.833797,4.345354,4.436689,-4.424081,12.199756,21.567846,30.06953,-26.852322,-15.882513,16.291243,4.328054,-2.0081391,-33.352184,-24.248087,39.742718,-0.7111521,-15.111745,-4.300971,-10.142337
231,-3.1172730922698975,-87.8534164428711,76.41357421875,2.9602241015921216,9.918696389353583,-94.56825879205525,-47.277855,6.7920446,19.15704,51.797104,0.28488147,-1.9452715,10.207999,-4.7526684,-8.62307,19.588545,-9.341076,4.2453833,5.0921907,-4.778918,11.818005,23.580658,31.137701,-25.74889,-16.910513,15.567141,4.2560406,-1.5618528,-33.57461,-24.719393,39.54764,-3.4679265,-14.830225,-3.9434435,-9.728699
232,-3.12886381149292,-89.38591766357422,76.74906921386719,2.9700883786952725,9.99574896817145,-94.66315821348492,-45.963844,5.9046917,19.410063,45.85409,2.691571,-3.5378768,10.890421,-4.9613385,-8.569315,19.512766,-5.9682183,4.372432,5.7231526,-4.9819245,11.489218,25.556534,32.102287,-24.666584,-17.935059,15.016955,4.1872654,-1.1369959,-33.560738,-25.180254,39.266735,-6.2500987,-14.679318,-3.643341,-9.378561
233,-3.1454081535339355,-90.93168640136719,77.04695129394531,2.774661765876099,9.972324432879402,-94.80910736680961,-44.574177,5.0759974,19.13988,40.165756,4.988322,-4.8973403,11.76385,-4.9586825,-8.581413,19.216635,-2.5782206,4.805833,6.3370633,-4.9903855,11.209405,27.509869,32.95389,-23.601913,-18.943802,14.6694565,4.1314874,-0.72395366,-33.308556,-25.60618,38.89687,-9.050692,-14.681426,-3.3980753,-9.096403
234,-3.1685824394226074,-92.49253845214844,77.30925750732422,2.3878307463722352,9.85404763083826,-95.00435879302222,-43.02856,4.3953824,18.488699,34.597878,7.259344,-6.09424,12.768258,-4.7460303,-8.622008,18.791718,0.9048854,5.4355764,6.930162,-4.815092,10.971312,29.434532,33.68812,-22.549133,-19.924177,14.467581,4.0802813,-0.2881232,-32.857075,-25.983767,38.449894,-11.834599,-14.760885,-3.2059748,-8.868982
235,-3.1885175704956055,-94.06671142578125,77.52550506591797,1.89220095536132,9.662628346497241,-95.23219705265832,-41.411987,3.94086,17.703533,29.53626,9.298845,-7.1333613,13.753486,-4.387217,-8.54374,18.531681,4.179612,6.14001,7.478944,-4.5306892,10.766363,31.27003,34.306282,-21.543436,-20.876265,14.39842,4.025681,0.12255074,-32.254967,-26.30294,37.958862,-14.534999,-14.925011,-3.0810702,-8.690093
236,-3.20849347114563,-95.63787078857422,77.6872787475586,1.3867962014148454,9.429986067446201,-95.47006694161041,-39.850174,3.7340603,17.052694,25.40162,10.903629,-8.0340805,14.5504055,-3.9789312,-8.229713,18.758247,6.9246116,6.784816,7.95297,-4.2284856,10.58127,32.954548,34.813534,-20.623245,-21.79755,14.449394,3.9595654,0.4603819,-31.555285,-26.556416,37.456287,-17.08044,-15.176621,-3.0375466,-8.553496
237,-3.2061214447021484,-97.2034912109375,77.80110168457031,0.8725235332283812,9.170398636611948,-95.70373572348277,-38.42157,3.7892098,16.611353,22.37013,11.957114,-8.825914,15.12783,-3.5755243,-7.728993,19.569098,9.084378,7.383456,8.323157,-3.9123704,10.3959465,34.515934,35.20621,-19.788425,-22.71418,14.679251,3.8813846,0.72824216,-30.77855,-26.732979,36.936398,-19.480215,-15.5743265,-3.1022503,-8.439713
238,-3.2005228996276855,-98.75019073486328,77.87104034423828,0.334193033164026,8.882102336654128,-95.92342546843605,-37.118687,4.0412965,16.276842,20.2742,12.559642,-9.498053,15.527472,-3.180387,-7.1158156,20.870207,10.789332,7.9578915,8.583523,-3.5641885,10.207586,35.958916,35.484158,-19.034975,-23.609324,15.0763645,3.7962582,0.94626975,-29.919119,-26.821257,36.403553,-21.741058,-16.097023,-3.2607493,-8.358491
239,-3.199981927871704,-100.29257202148438,77.90225982666016,-0.14746848309772442,8.579052334974396,-96.10920982089272,-35.95471,4.3617363,16.042885,19.039804,12.830219,-10.014067,15.700792,-2.817893,-6.338204,22.671665,12.000246,8.394344,8.730211,-3.2507505,10.030738,37.19484,35.66629,-18.390175,-24.42652,15.522106,3.702608,1.0924306,-28.99341,-26.817982,35.9033,-23.791132,-16.622972,-3.4639611,-8.347358
