unveil-humanoid-operators/unveil-humanoid-operators.github.io/feature-analysis-animation/data/feature_matrix_instances/weight_ankle_peak_vel_jogging_A061_exercise_2_003__A061.csv
Frame,root_translateX,root_translateY,root_translateZ,root_rotateX,root_rotateY,root_rotateZ,left_hip_pitch_joint_dof,left_hip_roll_joint_dof,left_hip_yaw_joint_dof,left_knee_joint_dof,left_ankle_pitch_joint_dof,left_ankle_roll_joint_dof,right_hip_pitch_joint_dof,right_hip_roll_joint_dof,right_hip_yaw_joint_dof,right_knee_joint_dof,right_ankle_pitch_joint_dof,right_ankle_roll_joint_dof,waist_yaw_joint_dof,waist_roll_joint_dof,waist_pitch_joint_dof,left_shoulder_pitch_joint_dof,left_shoulder_roll_joint_dof,left_shoulder_yaw_joint_dof,left_elbow_joint_dof,left_wrist_roll_joint_dof,left_wrist_pitch_joint_dof,left_wrist_yaw_joint_dof,right_shoulder_pitch_joint_dof,right_shoulder_roll_joint_dof,right_shoulder_yaw_joint_dof,right_elbow_joint_dof,right_wrist_roll_joint_dof,right_wrist_pitch_joint_dof,right_wrist_yaw_joint_dof
0,0.5424774885177612,0.8337252140045166,78.75730895996094,0.4984632690119302,-2.2721095696247278,-95.15802666730175,6.561403,7.5037394,26.986645,8.699618,-10.948101,-2.4743438,0.8776847,-5.0607953,-5.9126415,10.850793,-9.264238,3.5145426,2.2860029,0.25183928,11.819035,-2.781349,11.833263,-36.468315,64.05489,14.768306,-9.389354,17.200058,-5.248899,-13.397475,41.680378,61.250942,-11.240075,-5.902174,-7.962711
1,0.55162513256073,0.8207758069038391,78.75727081298828,0.4970622448019879,-2.266974969519889,-95.14246449848855,6.5606484,7.4926248,26.97005,8.700045,-10.963907,-2.4593208,0.8840691,-5.0715814,-5.9232364,10.853796,-9.276689,3.5199726,2.2637103,0.25764933,11.80936,-2.7422876,11.845249,-36.423584,64.007744,14.7695,-9.385607,17.188705,-5.156646,-13.4211645,41.51548,61.13067,-11.212145,-5.8894224,-8.000516
2,0.5583580732345581,0.8110114336013794,78.75624084472656,0.4976688507597817,-2.261760207208417,-95.12671430629838,6.5593076,7.481687,26.952662,8.701398,-10.980272,-2.4434733,0.8911606,-5.082427,-5.933885,10.854875,-9.288089,3.5251114,2.2452097,0.2641516,11.796806,-2.7094715,11.851438,-36.385807,63.9715,14.767276,-9.381648,17.176792,-5.0670238,-13.439989,41.343857,61.01895,-11.188266,-5.8754907,-8.03992
3,0.5662010312080383,0.8006958961486816,78.75477600097656,0.4958934818155574,-2.2567016163620406,-95.11118896056665,6.5586553,7.4711294,26.936464,8.702039,-10.996134,-2.429309,0.9003958,-5.0926223,-5.9450765,10.8518915,-9.29704,3.5308607,2.238541,0.27213338,11.786553,-2.6860178,11.8557,-36.35768,63.940937,14.767608,-9.37975,17.167847,-4.969025,-13.462033,41.157066,60.90208,-11.165566,-5.8677287,-8.074448
4,0.5781974792480469,0.7850416898727417,78.75544738769531,0.49477905723728616,-2.251532115371875,-95.0969138816089,6.559951,7.460709,26.923502,8.699658,-11.009955,-2.4191227,0.90963495,-5.102312,-5.956656,10.848877,-9.305182,3.5383315,2.2387764,0.28057253,11.7759075,-2.666218,11.85788,-36.33333,63.914673,14.775373,-9.382448,17.167809,-4.8638415,-13.488012,40.974205,60.786877,-11.129401,-5.873263,-8.102319
5,0.5887930393218994,0.7711493372917175,78.7554931640625,0.49148287904391275,-2.2456643873044815,-95.08437670037546,6.5636706,7.4507885,26.915844,8.692206,-11.020875,-2.414512,0.9187105,-5.1108565,-5.969133,10.843744,-9.31038,3.5483534,2.235989,0.2907196,11.762783,-2.6432693,11.858085,-36.301918,63.89014,14.795818,-9.394107,17.179415,-4.7588344,-13.5157795,40.807278,60.681583,-11.066998,-5.899224,-8.118654
6,0.5986061692237854,0.7575159072875977,78.75526428222656,0.4880558493819695,-2.2387506974261346,-95.0726201364792,6.567466,7.441671,26.91123,8.683618,-11.030869,-2.4137516,0.9274411,-5.1184535,-5.982796,10.836778,-9.3131485,3.5601776,2.219482,0.30298623,11.743106,-2.6074488,11.856926,-36.258152,63.862053,14.823358,-9.41204,17.20061,-4.6680484,-13.539381,40.671318,60.60344,-10.975552,-5.9413695,-8.128762
7,0.6077056527137756,0.7456355094909668,78.7523193359375,0.48499412034821043,-2.2333711360539743,-95.06145972171095,6.57432,7.4319086,26.907396,8.672985,-11.039704,-2.4148152,0.938313,-5.12661,-5.9961658,10.830146,-9.316951,3.5725195,2.2231445,0.31260642,11.733388,-2.59071,11.854583,-36.222668,63.84275,14.860022,-9.429798,17.223701,-4.552553,-13.5739155,40.510838,60.497147,-10.900065,-5.984657,-8.136337
8,0.6179821491241455,0.7314541935920715,78.75067138671875,0.4823736895212617,-2.2292988567806815,-95.04705548454089,6.581884,7.419681,26.897976,8.6631365,-11.049174,-2.4149878,0.9529157,-5.137669,-6.0113974,10.8222885,-9.322949,3.584298,2.208328,0.3236216,11.7156725,-2.5551164,11.851811,-36.184723,63.81455,14.884018,-9.440539,17.251516,-4.4574556,-13.600942,40.394466,60.433407,-10.815859,-6.025099,-8.159289
9,0.627504289150238,0.7167958617210388,78.74925231933594,0.48339355323062616,-2.2271636927116214,-95.02899036070262,6.5920906,7.4025936,26.881485,8.651055,-11.057286,-2.4144175,0.9678095,-5.154359,-6.0281644,10.824131,-9.3380785,3.5958793,2.1881738,0.32742336,11.693786,-2.515704,11.84962,-36.15036,63.787807,14.903111,-9.441153,17.287905,-4.366084,-13.618501,40.30611,60.39029,-10.738682,-6.0553927,-8.2035475
10,0.6383575201034546,0.699033260345459,78.74934387207031,0.4862268178220831,-2.226721259284403,-95.00801994159214,6.602884,7.383925,26.859795,8.641444,-11.066765,-2.4142747,0.9886786,-5.1735225,-6.0471296,10.821733,-9.35402,3.6075082,2.1710157,0.3303907,11.674327,-2.4774027,11.847033,-36.118515,63.758972,14.92517,-9.43608,17.329803,-4.273521,-13.638638,40.220085,60.35615,-10.672806,-6.08409,-8.256308
11,0.6492628455162048,0.6836522221565247,78.74568939208984,0.489091738572322,-2.227696901297202,-94.98718836279473,6.6173754,7.3638005,26.838312,8.628525,-11.075185,-2.4134433,1.0097109,-5.1933045,-6.0651255,10.822819,-9.372622,3.6184194,2.17146,0.3396259,11.665595,-2.4537785,11.840764,-36.099884,63.733845,14.940659,-9.430535,17.364325,-4.155263,-13.689357,40.10972,60.289803,-10.621952,-6.1114855,-8.3047085
12,0.6615158915519714,0.66414475440979,78.74369812011719,0.4906409773611085,-2.229719220030083,-94.9691117496607,6.630705,7.3469105,26.820574,8.622035,-11.087473,-2.4110534,1.030377,-5.2108226,-6.0798945,10.824013,-9.390115,3.6275384,2.1601057,0.3502186,11.654191,-2.4224267,11.834582,-36.077534,63.711407,14.932852,-9.428067,17.383156,-4.0497274,-13.734501,40.026432,60.25093,-10.562938,-6.1389422,-8.352838
13,0.6708497405052185,0.6478912830352783,78.74083709716797,0.4903068858249635,-2.2330635704847333,-94.95437988005692,6.647506,7.3313813,26.808537,8.61415,-11.100911,-2.4063926,1.0490583,-5.2253613,-6.089988,10.828375,-9.407786,3.6339414,2.132009,0.357676,11.634842,-2.3800936,11.832016,-36.05156,63.695724,14.883381,-9.430545,17.378527,-3.980903,-13.7496195,39.979675,60.283405,-10.486738,-6.171395,-8.405165
14,0.6814507246017456,0.6317620873451233,78.7389907836914,0.49113421688085385,-2.238329978764645,-94.94216115149277,6.664803,7.318602,26.799902,8.611889,-11.118265,-2.4002123,1.0680428,-5.2378974,-6.0967107,10.834699,-9.425959,3.6382995,2.1275508,0.370635,11.636583,-2.3576133,11.826474,-36.016884,63.682182,14.839954,-9.438407,17.346464,-3.881373,-13.78778,39.873775,60.274143,-10.450443,-6.205879,-8.440246
15,0.6910542249679565,0.6169012784957886,78.73805236816406,0.4903102144734908,-2.2440569993026815,-94.93100028626587,6.683064,7.3064613,26.792635,8.609998,-11.135846,-2.393407,1.0883386,-5.249444,-6.10264,10.838139,-9.44244,3.6422622,2.1144474,0.3848268,11.631702,-2.3289924,11.82146,-35.993553,63.67305,14.778737,-9.444925,17.314947,-3.798521,-13.820341,39.798435,60.29878,-10.405492,-6.237266,-8.479392
16,0.7005760669708252,0.6004164218902588,78.73724365234375,0.4907868069882707,-2.2498261652507554,-94.92117604469014,6.7018595,7.294568,26.786217,8.607011,-11.150851,-2.3869,1.108177,-5.2611675,-6.108993,10.842485,-9.459336,3.647366,2.1053772,0.39632022,11.62874,-2.307862,11.816765,-35.97853,63.672386,14.734869,-9.448047,17.294222,-3.710752,-13.854776,39.722805,60.31629,-10.383189,-6.255757,-8.516056
17,0.7056037187576294,0.5843704342842102,78.73539733886719,0.4934237093147095,-2.2553342849517435,-94.91167315645055,6.7194567,7.282831,26.779118,8.605658,-11.163315,-2.379581,1.129257,-5.2734294,-6.1171346,10.844107,-9.474854,3.6537669,2.0967724,0.4082295,11.626691,-2.2893572,11.812411,-35.97623,63.67498,14.711748,-9.446158,17.28894,-3.6259048,-13.894324,39.654232,60.33665,-10.393678,-6.258306,-8.552367
18,0.7125967741012573,0.573633074760437,78.7350845336914,0.49570138593030455,-2.261204764532398,-94.90306052094792,6.736387,7.271514,26.772491,8.606642,-11.174759,-2.3713036,1.1501629,-5.286214,-6.1256466,10.846547,-9.49084,3.6607609,2.0802696,0.41613725,11.622699,-2.2681289,11.81083,-35.975376,63.681396,14.699794,-9.441211,17.29122,-3.5585446,-13.918434,39.603504,60.385563,-10.427312,-6.24943,-8.59084
19,0.7222658395767212,0.5567027926445007,78.7334213256836,0.4976689322412607,-2.2648921155501416,-94.89710870306817,6.7507286,7.2625585,26.76856,8.610203,-11.188128,-2.364998,1.1680712,-5.2969193,-6.1324344,10.848894,-9.505928,3.6681192,2.0518458,0.41701975,11.6194105,-2.2518272,11.810842,-35.97146,63.698265,14.685958,-9.434465,17.30269,-3.5238829,-13.920899,39.591675,60.466637,-10.435136,-6.2361507,-8.6280155
20,0.7312696576118469,0.5382954478263855,78.73184967041016,0.49719497217388403,-2.2712836559254566,-94.89071119388231,6.772897,7.252496,26.765081,8.603477,-11.199803,-2.3629334,1.1899668,-5.306779,-6.140202,10.8502445,-9.520819,3.6768622,2.045352,0.43148148,11.607887,-2.2160926,11.81089,-35.959843,63.69923,14.696024,-9.428979,17.303638,-3.4408975,-13.9435,39.512726,60.52123,-10.456576,-6.2396383,-8.646173
21,0.7426143884658813,0.5186054110527039,78.73136138916016,0.4930042155684576,-2.2762028009978303,-94.88790672319308,6.795754,7.2466135,26.766876,8.594561,-11.215145,-2.3680441,1.2099774,-5.311561,-6.14552,10.849952,-9.533351,3.6863284,2.0431175,0.4438182,11.601987,-2.1926026,11.810922,-35.946453,63.711365,14.700091,-9.423044,17.308369,-3.362195,-13.963466,39.44646,60.568428,-10.417201,-6.248328,-8.647729
22,0.7492023706436157,0.5042609572410583,78.72724914550781,0.48618562725712344,-2.2811139117575596,-94.8866006275117,6.820106,7.2438736,26.770962,8.584505,-11.233345,-2.3782988,1.2348319,-5.31237,-6.1509566,10.838722,-9.539267,3.696625,2.0433798,0.4590178,11.596176,-2.168167,11.8105755,-35.92626,63.72632,14.710296,-9.417456,17.313936,-3.2798808,-13.981952,39.377636,60.614796,-10.350948,-6.2625127,-8.635015
23,0.7582931518554688,0.4893706142902374,78.7265853881836,0.4785738148411589,-2.284080120247306,-94.88745856860214,6.8442645,7.240532,26.776964,8.571613,-11.250806,-2.3892667,1.2557877,-5.3129745,-6.1538258,10.830476,-9.546381,3.7072992,2.0383394,0.47374803,11.583587,-2.136122,11.809996,-35.902008,63.74081,14.721574,-9.410553,17.323599,-3.2056081,-13.994902,39.32399,60.674576,-10.26751,-6.2820773,-8.622839
24,0.765103816986084,0.4747610092163086,78.7221908569336,0.47331474430836445,-2.2831966666950883,-94.890834564878,6.8650985,7.2347784,26.783295,8.557866,-11.265666,-2.396838,1.2700537,-5.31562,-6.152517,10.8267975,-9.555354,3.7176607,2.038616,0.49050707,11.573573,-2.1044197,11.8086,-35.87299,63.747395,14.744627,-9.40266,17.33451,-3.1272066,-14.018175,39.256897,60.719067,-10.199579,-6.3084893,-8.614338
25,0.7744969129562378,0.4565579891204834,78.71939849853516,0.4688414134755244,-2.277127626403399,-94.89802532962496,6.8802667,7.2270107,26.7899,8.547226,-11.279788,-2.400474,1.278138,-5.319758,-6.1452475,10.823039,-9.563681,3.727163,2.0290816,0.50279665,11.551748,-2.0672774,11.807521,-35.85311,63.75467,14.757769,-9.388818,17.358074,-3.0647726,-14.0289135,39.227528,60.780895,-10.116856,-6.3414207,-8.63016
26,0.7864339351654053,0.43804165720939636,78.7190170288086,0.4660884374751043,-2.2669530100966826,-94.90862989410414,6.8932095,7.217527,26.79773,8.53391,-11.291219,-2.402205,1.2832596,-5.324297,-6.1333113,10.815223,-9.569179,3.7363186,2.0285769,0.51889586,11.533922,-2.020192,11.805412,-35.810642,63.741318,14.811276,-9.371836,17.379255,-2.9728105,-14.059031,39.162243,60.79587,-10.06578,-6.382304,-8.641701
27,0.7964349985122681,0.41806554794311523,78.71662139892578,0.4639473463439698,-2.255058077260635,-94.91999288225173,6.903471,7.207287,26.805788,8.522291,-11.302749,-2.4019384,1.283091,-5.330323,-6.1200566,10.814119,-9.578188,3.7458332,2.021175,0.5346484,11.508061,-1.9716717,11.803453,-35.77985,63.734116,14.841401,-9.357507,17.404448,-2.9012358,-14.083212,39.12764,60.838642,-9.996263,-6.425229,-8.659244
28,0.8078409433364868,0.39912164211273193,78.71643829345703,0.4619422320921654,-2.244927692629461,-94.93011544080262,6.9154778,7.196999,26.813725,8.511627,-11.315847,-2.400029,1.2865283,-5.3364716,-6.109315,10.810393,-9.586353,3.755978,2.0158684,0.54801893,11.490253,-1.9289266,11.801418,-35.744167,63.728603,14.866286,-9.350519,17.423326,-2.8146236,-14.119506,39.091805,60.848846,-9.94126,-6.4531736,-8.667097
29,0.8169112801551819,0.3825107216835022,78.71369171142578,0.461359630137061,-2.2360710120817813,-94.93725047985257,6.9266334,7.187269,26.81993,8.504736,-11.331313,-2.3952785,1.292329,-5.343462,-6.103288,10.806137,-9.594923,3.767511,2.0101306,0.5587311,11.46708,-1.8885639,11.800846,-35.717484,63.734123,14.86649,-9.355267,17.434853,-2.740805,-14.143551,39.067226,60.884235,-9.893744,-6.469324,-8.663655
30,0.8304036855697632,0.3576916754245758,78.71482849121094,0.4591829983878701,-2.227944907879501,-94.94294118089866,6.937896,7.177081,26.825333,8.498918,-11.347679,-2.3880632,1.3005109,-5.3512363,-6.09963,10.799461,-9.602945,3.7799683,2.0060036,0.56456983,11.442748,-1.8535494,11.801025,-35.69857,63.74818,14.850085,-9.36716,17.443066,-2.673668,-14.154927,39.051964,60.92858,-9.851302,-6.4750533,-8.654589
31,0.8379090428352356,0.3438655138015747,78.71138763427734,0.458241887274385,-2.219860692032271,-94.94983173446956,6.9505534,7.1662974,26.832546,8.49113,-11.363404,-2.3804615,1.3067086,-5.359158,-6.094907,10.796129,-9.612492,3.7922122,2.0026948,0.5701728,11.420998,-1.8147472,11.802023,-35.669945,63.757477,14.837321,-9.382781,17.446732,-2.6004467,-14.170387,39.031097,60.961983,-9.82345,-6.480378,-8.642968
32,0.848385214805603,0.32575592398643494,78.70977783203125,0.4568934047171689,-2.2120761423826116,-94.95975740255098,6.9631586,7.1568117,26.843353,8.483923,-11.37885,-2.3745532,1.3125764,-5.3655777,-6.0864253,10.791322,-9.620644,3.802994,1.9991326,0.5793049,11.409731,-1.7744844,11.805303,-35.631138,63.75612,14.827532,-9.397955,17.449787,-2.5260105,-14.20408,39.007797,60.979187,-9.798686,-6.4949493,-8.636659
33,0.8589410185813904,0.30927932262420654,78.70804595947266,0.4560745325424397,-2.204618912079543,-94.9741476919579,6.9771943,7.148695,26.85962,8.4755745,-11.393604,-2.3714626,1.3162787,-5.370164,-6.0725446,10.787886,-9.628668,3.8112564,1.9995676,0.58898056,11.4003935,-1.7325112,11.8088455,-35.595367,63.75085,14.8208885,-9.40942,17.45597,-2.45585,-14.235613,38.98915,61.00288,-9.793733,-6.519671,-8.643543
34,0.8673961162567139,0.2941845953464508,78.70624542236328,0.4533000551754983,-2.197931554901124,-94.99152175700257,6.993278,7.14077,26.879812,8.465825,-11.408135,-2.3697956,1.31829,-5.3738923,-6.0551043,10.787124,-9.637744,3.8179111,2.0064657,0.59426486,11.388474,-1.6947095,11.81031,-35.57171,63.753677,14.808397,-9.417785,17.466452,-2.3983219,-14.247257,38.97626,61.051308,-9.803113,-6.5477786,-8.663109
35,0.876215398311615,0.2762297987937927,78.70613098144531,0.4515790570650292,-2.1907647378651722,-95.01029670391796,7.009695,7.1325483,26.901579,8.453932,-11.42113,-2.3683105,1.3185521,-5.3772793,-6.035876,10.786877,-9.646185,3.8246534,2.002757,0.60371906,11.391921,-1.6438046,11.817134,-35.50989,63.73193,14.808162,-9.430812,17.469332,-2.326327,-14.289147,38.952114,61.054813,-9.80335,-6.582323,-8.676938
36,0.8861119151115417,0.26049843430519104,78.70472717285156,0.45100733351842515,-2.1820968095773297,-95.02849273656246,7.0231433,7.1245112,26.922043,8.443638,-11.433621,-2.365796,1.3178473,-5.3809423,-6.0170283,10.785228,-9.65328,3.8330588,2.002192,0.6111042,11.387513,-1.5966057,11.821917,-35.461727,63.728394,14.771749,-9.448144,17.47519,-2.264981,-14.313589,38.92008,61.085526,-9.740979,-6.6260552,-8.6959
37,0.8946266770362854,0.2475438416004181,78.70296478271484,0.45050494503852345,-2.1715640367678417,-95.04590262942128,7.032918,7.1163588,26.94091,8.436189,-11.446154,-2.3616588,1.3166453,-5.384841,-5.9987874,10.779254,-9.656574,3.8439636,1.9983873,0.61693203,11.382289,-1.5491017,11.8269615,-35.410587,63.73355,14.692928,-9.47426,17.473242,-2.2054813,-14.333329,38.87913,61.124138,-9.586735,-6.6845117,-8.714484
38,0.9021073579788208,0.23147620260715485,78.70258331298828,0.45015478453985563,-2.159504683895746,-95.06326954020176,7.0406814,7.1077733,26.959211,8.428025,-11.456867,-2.356628,1.3130647,-5.3889766,-5.980003,10.7737665,-9.6591425,3.8563805,1.9944139,0.6213646,11.368134,-1.5029833,11.82926,-35.37436,63.755707,14.569163,-9.5060425,17.470404,-2.1537626,-14.340285,38.84543,61.187508,-9.355592,-6.7558446,-8.739592
39,0.9114764928817749,0.21856196224689484,78.70040893554688,0.44999873090214837,-2.1473470626554128,-95.08096871751772,7.0488906,7.0991783,26.977621,8.419207,-11.46778,-2.3516126,1.310483,-5.3927073,-5.9613304,10.765395,-9.660059,3.8690467,1.9867598,0.62495834,11.363291,-1.4497349,11.8338175,-35.30617,63.76757,14.46954,-9.537793,17.471771,-2.1001854,-14.350045,38.778687,61.231857,-9.139942,-6.8243318,-8.761238
40,0.9190645813941956,0.20009681582450867,78.7007064819336,0.44900501081349226,-2.135791195015308,-95.09934662289527,7.058087,7.0913005,26.996012,8.409365,-11.479282,-2.3472655,1.3067513,-5.3956895,-5.9432826,10.76075,-9.664108,3.8806388,1.9773691,0.62710774,11.364235,-1.3908114,11.840382,-35.217052,63.771347,14.412655,-9.561466,17.496147,-2.0482185,-14.359698,38.68208,61.25422,-8.987968,-6.8745623,-8.785469
41,0.9277315735816956,0.18859848380088806,78.69680786132812,0.4461569590547211,-2.127777463284082,-95.1185430191198,7.070695,7.0863194,27.014362,8.401521,-11.494102,-2.344879,1.308018,-5.396113,-5.9272027,10.754089,-9.668749,3.8900802,1.9709222,0.62778926,11.38121,-1.3289648,11.853271,-35.104,63.755566,14.449982,-9.559591,17.555613,-1.9945577,-14.372073,38.54203,61.250813,-8.935256,-6.8942924,-8.802205
42,0.9351384043693542,0.16948345303535461,78.69819641113281,0.4423820784496937,-2.120825616452857,-95.13836125490865,7.0847034,7.0831065,27.03269,8.393722,-11.510376,-2.3436248,1.3112626,-5.394773,-5.912464,10.745882,-9.673752,3.8983033,1.9626046,0.62807274,11.39235,-1.2594177,11.864473,-34.990967,63.74036,14.528696,-9.5403385,17.646568,-1.9450217,-14.377807,38.395947,61.252422,-8.918368,-6.8950634,-8.821863
43,0.9431154727935791,0.15373390913009644,78.6972885131836,0.4383676064052848,-2.1120042388632507,-95.15847673065214,7.0967455,7.0790114,27.050657,8.385449,-11.526759,-2.34179,1.3121008,-5.3941865,-5.896979,10.737496,-9.678493,3.9069448,1.9501946,0.62615895,11.398232,-1.1782764,11.873168,-34.865086,63.726994,14.585414,-9.533632,17.74408,-1.8933597,-14.378493,38.231556,61.229134,-8.923994,-6.8915143,-8.858993
44,0.948300302028656,0.14198118448257446,78.69535064697266,0.43773373347040934,-2.0983036256731995,-95.1785067852411,7.1042943,7.0708656,27.068085,8.374285,-11.541217,-2.3375757,1.3077636,-5.396802,-5.879102,10.727164,-9.681136,3.9176486,1.9417516,0.61740816,11.410403,-1.0896925,11.888212,-34.699673,63.71146,14.571482,-9.573011,17.815432,-1.8358877,-14.376096,37.996178,61.148064,-8.96018,-6.902229,-8.919421
45,0.9545235633850098,0.12846890091896057,78.69374084472656,0.4394119285745329,-2.081610631222083,-95.19848852913289,7.1085577,7.05943,27.084047,8.362391,-11.554591,-2.3311398,1.2976397,-5.4026012,-5.857502,10.7214,-9.685464,3.9277644,1.9361447,0.60172564,11.422448,-0.984692,11.910309,-34.516937,63.69271,14.433893,-9.674358,17.847752,-1.7658622,-14.369941,37.70362,61.009193,-9.030373,-6.924423,-8.997302
46,0.9656437635421753,0.1138729527592659,78.69493103027344,0.44147343303891473,-2.062354478585334,-95.21812168452504,7.109307,7.0462317,27.09858,8.351471,-11.568034,-2.3231435,1.2844473,-5.4103327,-5.833858,10.71529,-9.689178,3.937508,1.9277352,0.58148026,11.430086,-0.86312836,11.936366,-34.318565,63.673378,14.210745,-9.818212,17.859722,-1.6878829,-14.360575,37.37439,60.828064,-9.125941,-6.9508805,-9.092051
47,0.9755178093910217,0.10100407898426056,78.69477081298828,0.4461152497594348,-2.0358082157733737,-95.23848645530971,7.104035,7.028269,27.114147,8.3349285,-11.578964,-2.3129659,1.2636696,-5.421195,-5.808862,10.705928,-9.689757,3.952474,1.9288801,0.55330575,11.435634,-0.72864133,11.976488,-34.102474,63.6415,13.9584,-9.977602,17.874203,-1.602906,-14.346231,36.999,60.59569,-9.220394,-6.9899497,-9.228867
48,0.9807044863700867,0.08936623483896255,78.6959228515625,0.4543441369331827,-1.9962936493840029,-95.25987211603058,7.087165,7.003854,27.1329,8.311003,-11.586833,-2.299812,1.2302425,-5.436744,-5.7833242,10.689189,-9.68379,3.9785154,1.9193208,0.52260154,11.419056,-0.57579386,12.010346,-33.85913,63.61384,13.720421,-10.125845,17.92622,-1.5216981,-14.334104,36.64372,60.322983,-9.2456,-7.0464406,-9.444073
49,0.9925336837768555,0.07750295102596283,78.6978759765625,0.46679056410356695,-1.9449942652205217,-95.2880425463368,7.063179,6.972404,27.16111,8.277607,-11.591573,-2.2856,1.1884362,-5.456131,-5.7531915,10.657456,-9.66637,4.018801,1.9273818,0.4842844,11.396194,-0.40939903,12.053113,-33.577152,63.56395,13.552064,-10.246929,18.026857,-1.4484634,-14.323055,36.29034,60.00874,-9.1898575,-7.1417246,-9.754733
50,1.001642107963562,0.07163910567760468,78.69928741455078,0.48520707669272095,-1.8833967282260118,-95.32076722638875,7.0324407,6.9341173,27.195593,8.236156,-11.593582,-2.26996,1.1344383,-5.4802794,-5.718994,10.623066,-9.644787,4.069901,1.9359406,0.43412885,11.367664,-0.2103812,12.12156,-33.25309,63.476803,13.410555,-10.36124,18.156078,-1.3837947,-14.312782,35.945713,59.65112,-9.072372,-7.2668204,-10.1408
51,1.01129949092865,0.06079971790313721,78.70233917236328,0.5035316585562376,-1.8091985167752256,-95.3471604529573,6.985254,6.892294,27.224577,8.193171,-11.594302,-2.2492719,1.071842,-5.507627,-5.690994,10.576752,-9.6159,4.1272507,1.9276991,0.38234225,11.324571,0.002278476,12.190427,-32.915623,63.39668,13.225653,-10.486251,18.293104,-1.3039321,-14.305227,35.561256,59.22423,-8.954553,-7.384585,-10.566408
52,1.0223931074142456,0.050307322293519974,78.70568084716797,0.5181742814431229,-1.7202370794045228,-95.35664798610091,6.91316,6.847617,27.236067,8.150848,-11.5926,-2.219728,0.99665785,-5.5388203,-5.676195,10.52382,-9.583803,4.184595,1.899325,0.32888684,11.271938,0.21954033,12.269598,-32.59367,63.33185,12.930522,-10.641493,18.40703,-1.1835564,-14.295567,35.05312,58.692924,-8.9149885,-7.459144,-10.989748
53,1.0390405654907227,0.042999207973480225,78.70948791503906,0.5365219337698711,-1.614453846226293,-95.35034973866233,6.8164725,6.79397,27.229626,8.107484,-11.589973,-2.177593,0.9066699,-5.580171,-5.675283,10.465994,-9.5531845,4.2471333,1.8668022,0.2656235,11.209266,0.44079992,12.372695,-32.31425,63.275352,12.473623,-10.846049,18.489586,-1.0119011,-14.278081,34.376812,58.041687,-8.99502,-7.4786305,-11.401084
54,1.0588507652282715,0.041600000113248825,78.71514129638672,0.5605538164929798,-1.49388709652744,-95.33320986918471,6.7001247,6.72872,27.211018,8.060107,-11.585257,-2.1252654,0.8023632,-5.633424,-5.682104,10.4042,-9.522584,4.314807,1.8189616,0.19595918,11.130555,0.6615662,12.469492,-32.044464,63.24852,11.908467,-11.086262,18.5589,-0.81157625,-14.25472,33.59487,57.302517,-9.1423435,-7.4608817,-11.823527
55,1.0798707008361816,0.04437056556344032,78.72386169433594,0.5860757049164322,-1.3607558941983435,-95.30025856826235,6.563601,6.6561623,27.177965,8.008237,-11.5739765,-2.0681975,0.68479556,-5.6937127,-5.7003016,10.341834,-9.487282,4.3801594,1.7737391,0.11672106,11.047239,0.8846452,12.59291,-31.802902,63.222782,11.2897415,-11.326939,18.612339,-0.56787616,-14.218494,32.699955,56.470135,-9.319486,-7.4187,-12.257876
56,1.1011580228805542,0.05025682598352432,78.73365783691406,0.6077999850860771,-1.2178506184349123,-95.24645015521277,6.404419,6.5832934,27.128063,7.9566245,-11.554102,-2.012279,0.5562451,-5.7537713,-5.7341003,10.279494,-9.440767,4.435471,1.6933991,0.038397986,10.958035,1.1108356,12.717735,-31.543833,63.217598,10.695662,-11.536592,18.657015,-0.29815856,-14.172214,31.764818,55.568363,-9.462619,-7.361652,-12.712116
57,1.1266030073165894,0.05699120834469795,78.74588012695312,0.6252514381715959,-1.058029339752503,-95.16485994251468,6.214183,6.5091796,27.058554,7.899138,-11.519464,-1.9661654,0.4113699,-5.8141627,-5.787373,10.215005,-9.3864,4.480905,1.5716858,-0.03544624,10.854515,1.3348093,12.830568,-31.254982,63.248062,10.170552,-11.712164,18.704983,-0.011435743,-14.118854,30.784922,54.599216,-9.58,-7.2648673,-13.193237
58,1.1565709114074707,0.06966482847929001,78.7483139038086,0.5974851186229332,-0.8736492137352826,-95.04516936857225,5.6980367,6.627951,26.920242,8.510505,-11.822815,-1.9321793,0.26398152,-5.83091,-5.8818574,10.105217,-9.302545,4.5164475,1.4200618,-0.06845584,10.730307,1.5569727,12.954113,-30.970224,63.29702,9.661177,-11.867878,18.74923,0.30438393,-14.049038,29.718008,53.55156,-9.700114,-7.132809,-13.693853
59,1.2005482912063599,0.08979662507772446,78.74187469482422,0.5125245215172489,-0.6810006166858826,-94.90181682685527,4.869414,6.952339,26.71566,9.81165,-12.478286,-1.8975567,0.12958896,-5.7898746,-6.0112176,9.950149,-9.178727,4.537146,1.2375308,-0.050505076,10.600389,1.7808595,13.088776,-30.693598,63.356613,9.110138,-11.999585,18.771803,0.6572785,-13.962482,28.60144,52.432625,-9.782658,-7.018246,-14.20403
60,1.2515314817428589,0.11168801039457321,78.73568725585938,0.416249810244615,-0.5053582011363671,-94.76291109396702,4.075724,7.268359,26.505106,11.068893,-13.113252,-1.8385192,0.0029585587,-5.739015,-6.1419873,9.808587,-9.034855,4.5443935,1.0326034,-0.0237164,10.490107,1.9979141,13.218659,-30.422768,63.43934,8.464267,-12.104564,18.757675,1.0596293,-13.871038,27.478025,51.24044,-9.784836,-6.973683,-14.713485
61,1.304233193397522,0.1354130506515503,78.72343444824219,0.3132484606168975,-0.32706886518346806,-94.61815864676146,3.2753103,7.57512,26.269726,12.317176,-13.73668,-1.7244909,-0.13636373,-5.688267,-6.28248,9.685137,-8.889719,4.533381,0.8076563,0.00917312,10.373041,2.2098675,13.343247,-30.183294,63.54894,7.704956,-12.162641,18.712748,1.5346234,-13.780904,26.316462,49.8994,-9.797981,-6.9733667,-15.198596
62,1.3663243055343628,0.15705569088459015,78.69680786132812,0.25037164820731833,-0.13764779125078597,-94.47359250877889,2.477741,7.811496,26.029861,13.515347,-14.331382,-1.5632825,-0.67574835,-5.7338114,-6.37652,10.377706,-9.161622,4.5160794,0.5736464,-8.219343e-06,10.244386,2.4147854,13.464667,-29.96678,63.686306,6.8642135,-12.181631,18.643333,2.0798082,-13.69199,25.108118,48.418125,-9.808554,-7.001175,-15.670752
63,1.4285129308700562,0.18294492363929749,78.66072845458984,0.21421552276996791,0.013609870178929622,-94.34596653940511,1.7598555,7.997764,25.81573,14.635975,-14.897502,-1.4122977,-1.3868171,-5.8319287,-6.429421,11.504203,-9.613572,4.495339,0.3317022,-0.038504116,10.169902,2.5957956,13.581325,-29.74036,63.85081,5.9562154,-12.19911,18.533106,2.6662652,-13.600059,23.907305,46.930668,-9.62662,-7.1301312,-16.171959
64,1.5030404329299927,0.21804754436016083,78.61408233642578,0.20065131889395588,0.08259460669094304,-94.25631957320243,1.2041907,8.137001,25.664557,15.628643,-15.421743,-1.3269776,-2.1379187,-5.961357,-6.431205,12.873004,-10.109703,4.47561,0.08393253,-0.10498132,10.207952,2.7393873,13.689628,-29.466883,64.03777,4.997084,-12.248556,18.364157,3.259264,-13.497113,22.773342,45.580593,-9.062813,-7.4371586,-16.743584
65,1.5822745561599731,0.252441942691803,78.55677032470703,0.22797322800309264,0.0737324362438311,-94.2052587667629,0.83493,8.198663,25.595114,16.437181,-15.882817,-1.3323317,-2.9228168,-6.143635,-6.3848705,14.481061,-10.745239,4.429459,-0.16631874,-0.22207992,10.341468,2.8606398,13.7875,-29.121983,64.28361,3.9492724,-12.373555,18.053741,3.869253,-13.380862,21.73909,44.352947,-7.964935,-8.040001,-17.460169
66,1.6684942245483398,0.3008173704147339,78.49424743652344,0.282776324181177,0.0056467216502592045,-94.18127889808046,0.5972676,8.207791,25.582245,17.126694,-16.302649,-1.3970454,-3.756442,-6.3730392,-6.297143,16.314816,-11.498453,4.355505,-0.4276024,-0.3762655,10.5475855,2.961401,13.874345,-28.72353,64.57982,2.819428,-12.539133,17.63551,4.5000415,-13.251256,20.773212,43.19875,-6.4731345,-8.880503,-18.265982
67,1.7629388570785522,0.34725475311279297,78.42552185058594,0.336937729511237,-0.14192950080943836,-94.19125412369912,0.47374728,8.215567,25.607424,17.776325,-16.717106,-1.4895264,-4.6788783,-6.624375,-6.143474,18.45738,-12.203684,4.3014164,-0.70969874,-0.53649396,10.87118,3.003537,13.948389,-28.30416,64.864784,1.6872771,-12.668353,17.26795,5.103801,-13.09966,19.83785,42.21779,-4.8343806,-9.76714,-19.011536
68,1.8635318279266357,0.40262532234191895,78.34745788574219,0.36131745843457397,-0.3894547222653486,-94.24137546003546,0.4535479,8.26875,25.652637,18.45139,-17.15619,-1.5781261,-5.722708,-6.8627987,-5.9050465,20.983414,-12.687891,4.3200827,-1.0219854,-0.67462105,11.355903,2.9495873,14.007658,-27.89516,65.08005,0.63778335,-12.691694,17.11355,5.624731,-12.912535,18.895187,41.5211,-3.2907395,-10.494868,-19.563372
69,1.972252368927002,0.4691755771636963,78.27356719970703,0.3504722702580286,-0.7633232998606096,-94.34711150801195,0.59477925,8.3684845,25.734035,19.100286,-17.60251,-1.6875918,-6.8352013,-7.0560737,-5.603124,23.902205,-12.991182,4.4496665,-1.3702556,-0.7890589,12.035251,2.8187048,14.046623,-27.460648,65.217834,-0.41757542,-12.57779,17.192686,6.040726,-12.665416,17.88841,41.14955,-1.8326741,-11.023787,-19.863506
70,2.0947606563568115,0.5500724911689758,78.1985855102539,0.31676050933367633,-1.2454554641256392,-94.4998364430194,0.88946235,8.48923,25.856207,19.695505,-18.042894,-1.8245919,-8.009974,-7.211054,-5.247379,27.161917,-13.168531,4.668088,-1.7442416,-0.9005602,12.872542,2.6150937,14.065438,-27.002293,65.32178,-1.4849302,-12.376197,17.433002,6.364986,-12.351846,16.852236,41.068707,-0.35753128,-11.449383,-19.99839
71,2.2174837589263916,0.6521603465080261,78.11738586425781,0.26571927166336534,-1.7903020698888739,-94.66998934949653,1.2166507,8.641275,25.980875,20.365292,-18.516325,-1.9299296,-9.338041,-7.340182,-4.806031,30.731045,-13.0609455,4.9502907,-2.1305563,-1.0130947,13.810328,2.2831798,14.074744,-26.61071,65.3997,-2.359985,-12.14202,17.855663,6.6100626,-11.99709,15.885274,41.25667,1.0365334,-11.764372,-20.063278
72,2.343442916870117,0.7842327356338501,78.02682495117188,0.20274326573606286,-2.3526484193222617,-94.82810302553496,1.4585083,8.833916,26.068527,21.229673,-19.058027,-1.9442894,-10.909912,-7.45403,-4.243816,34.58129,-12.501892,5.277027,-2.5154576,-1.1265011,14.796493,1.7718495,14.089825,-26.378942,65.4462,-2.8414729,-11.926592,18.47595,6.809239,-11.647513,15.083793,41.66519,2.2556386,-11.964563,-20.15198
73,2.474341630935669,0.9216600060462952,77.9300308227539,0.13149283717122168,-2.9227520521499524,-94.98919972066123,1.608031,9.064006,26.125948,22.281717,-19.670187,-1.8556185,-12.758437,-7.5240593,-3.5255227,38.766663,-11.349653,5.7869024,-2.9005098,-1.2410843,15.836747,1.0504905,14.118495,-26.407907,65.517815,-2.7698324,-11.683929,19.411926,6.967169,-11.332181,14.448747,42.289825,3.3293536,-12.002999,-20.30442
74,2.6107752323150635,1.06741464138031,77.82103729248047,0.04286366920706455,-3.5241204947979283,-95.1618012079604,1.7216254,9.333532,26.166082,23.466566,-20.333899,-1.6953284,-14.814763,-7.4944825,-2.6809363,43.259132,-9.718833,6.509835,-3.2896495,-1.3460214,16.960098,0.16292053,14.155379,-26.628485,65.573265,-2.298666,-11.393797,20.607359,7.095918,-11.054491,13.935064,43.115013,4.300589,-11.894933,-20.467985
75,2.7672934532165527,1.2300920486450195,77.69158935546875,-0.06915799270725488,-4.16158336308895,-95.3060309653208,1.7789801,9.656463,26.15764,24.827095,-21.04969,-1.4689939,-17.008587,-7.3510656,-1.7707843,47.89188,-7.810515,7.248456,-3.6793668,-1.4253335,18.14959,-0.82704973,14.194713,-26.867867,65.45969,-1.6849738,-11.147611,21.816034,7.245621,-10.8250265,13.5750885,44.07154,5.0953555,-11.731286,-20.595045
76,2.9293832778930664,1.4168424606323242,77.53734588623047,-0.20683090291397627,-4.839639539113282,-95.38122802342555,1.7640659,10.040226,26.07044,26.3954,-21.812902,-1.1796652,-19.273993,-7.116833,-0.86158866,52.499416,-5.806231,7.7656684,-4.0738335,-1.4659766,19.387892,-1.8538287,14.234436,-26.947966,65.02402,-1.1789986,-11.051309,22.797367,7.463063,-10.660252,13.409365,45.091385,5.6435957,-11.600745,-20.635756
77,3.083862781524658,1.591503620147705,77.35855865478516,-0.3697271782279583,-5.554907523747626,-95.38109199434194,1.6310897,10.489069,25.89063,28.237877,-22.618391,-0.7762293,-21.713163,-6.774722,0.101011574,57.16007,-3.4129455,7.920078,-4.47629,-1.4609482,20.687094,-2.9245274,14.262609,-26.799505,64.26271,-0.89543617,-11.191702,23.409838,7.762909,-10.606421,13.482218,46.152256,5.978653,-11.5285845,-20.59861
78,3.2342772483825684,1.7775088548660278,77.15398406982422,-0.5606399557390852,-6.306932828711634,-95.32596316424267,1.4088106,10.996417,25.632553,30.300964,-23.45866,-0.275783,-24.306469,-6.2985744,1.1120983,61.892166,-0.6048296,7.8911886,-4.9083457,-1.4433823,22.044935,-4.0472403,14.304102,-26.488504,63.23832,-0.66807,-11.496193,23.808764,8.076457,-10.611678,13.793507,47.345165,6.1152296,-11.468537,-20.51515
79,3.3723878860473633,1.9548816680908203,76.92597198486328,-0.7906650385062735,-7.104774681854043,-95.21370669730602,1.1925087,11.545277,25.308647,32.434395,-24.330996,0.21446799,-26.833132,-5.763193,2.0189905,66.49624,2.0123706,7.841108,-5.363029,-1.3774574,23.440504,-5.1968493,14.354415,-26.12127,61.898182,-0.35072258,-11.839545,24.20222,8.464631,-10.699556,14.249128,48.59709,6.002368,-11.386882,-20.325693
80,3.5088372230529785,2.126229763031006,76.66667938232422,-1.062583572556356,-7.95563843640259,-95.04133320395621,1.0723652,12.114089,24.934416,34.49888,-25.239063,0.58925414,-29.091352,-5.2894764,2.6864672,70.81471,3.7881334,7.8787866,-5.833331,-1.251574,24.845404,-6.3532553,14.413334,-25.798029,60.208633,0.20815054,-12.096648,24.801569,8.960873,-10.846075,14.753654,49.875763,5.568356,-11.255298,-19.979513
81,3.6312508583068848,2.2741830348968506,76.3857192993164,-1.3816301073572868,-8.866223552191515,-94.79142196789591,1.0584407,12.706556,24.502542,36.492256,-26.210924,0.8111639,-31.041023,-4.9611716,3.07951,74.85031,4.4000664,7.946147,-6.31921,-1.0647999,26.252825,-7.5264087,14.4835415,-25.557161,58.17327,1.0308245,-12.266726,25.68488,9.585513,-11.033928,15.257299,51.191273,4.611167,-11.075438,-19.42142
82,3.7425079345703125,2.4028825759887695,76.0844497680664,-1.7379061940326477,-9.828271729162868,-94.46739070731505,1.1040182,13.320393,24.012022,38.479813,-27.239002,0.94196486,-32.80995,-4.774674,3.2848237,78.72886,4.213175,7.934288,-6.81935,-0.83855796,27.669527,-8.722879,14.566595,-25.353834,55.810986,2.0399058,-12.393553,26.73421,10.313265,-11.262564,15.804624,52.56924,3.220377,-10.872698,-18.69059
83,3.8478593826293945,2.4954216480255127,75.77507019042969,-2.1074150934530587,-10.826037773026211,-94.09838888815511,1.2131112,13.924227,23.491041,40.42726,-28.275084,1.0274032,-34.454914,-4.7398252,3.3616233,82.49108,3.592827,7.855634,-7.3211956,-0.59945804,29.082182,-9.9129715,14.659735,-25.164797,53.096313,3.237101,-12.402583,27.866604,11.102172,-11.518931,16.4391,54.016438,1.7543225,-10.651502,-17.882715
84,3.9314732551574707,2.579274892807007,75.44906616210938,-2.448854681527544,-11.714645739103917,-93.71880418204063,1.2302339,14.472689,22.965765,42.32389,-29.266088,1.1250306,-36.189514,-4.8621483,3.3852763,86.17634,2.9287624,7.7412744,-7.843613,-0.4274312,29.793802,-10.88251,14.693546,-25.053202,50.344814,4.561873,-12.216017,28.929913,11.968211,-11.731311,17.376265,55.983402,0.6203454,-10.385864,-17.036034
85,4.00968599319458,2.6353354454040527,75.11398315429688,-2.761037072455336,-12.514317814973634,-93.32927658793932,1.1716094,14.965581,22.43444,44.18247,-30.207361,1.2476418,-37.999096,-5.2371206,3.3140566,89.804405,2.1613553,7.570718,-8.363058,-0.32353005,29.793802,-11.673145,14.626496,-25.038471,47.567745,6.1568155,-11.7639,30.049795,12.917239,-11.860082,18.634495,58.522465,-0.16414091,-10.042335,-16.166613
86,4.089028835296631,2.67635440826416,74.76708221435547,-3.0696376241276133,-13.36031494670274,-92.91066244968013,1.1965545,15.429166,21.888779,45.991703,-31.127909,1.360636,-39.695564,-5.8581767,3.1502676,93.352005,1.119935,7.312125,-8.83671,-0.21716252,29.793802,-12.5033865,14.513519,-25.051327,44.451015,8.032274,-11.090907,31.283829,13.907055,-11.95211,19.988546,61.168922,-0.8306871,-9.652083,-15.288802
87,4.146875858306885,2.7016146183013916,74.41827392578125,-3.3617511181463953,-14.2093548778774,-92.47366909873217,1.274007,15.847527,21.34239,47.71944,-32.022556,1.4568797,-41.3279,-6.5586786,3.0315552,96.79437,0.050275505,6.9977508,-9.274098,-0.11607571,29.793802,-13.339251,14.377089,-25.06202,41.040558,9.903135,-10.31998,32.361317,14.940345,-12.014145,21.41117,63.819706,-1.3166472,-9.265483,-14.403049
88,4.193156719207764,2.7153985500335693,74.06273651123047,-3.6238565561571696,-15.019482431197805,-92.03138629388297,1.3730597,16.206747,20.809027,49.336456,-32.887474,1.5282573,-42.94497,-7.1505146,3.0765746,100.09364,-0.79459053,6.672552,-9.678697,-0.031351693,29.793802,-14.174468,14.229447,-25.042465,37.404728,11.50327,-9.601559,33.03269,16.00643,-12.039344,22.872385,66.39319,-1.5668416,-8.932834,-13.519505
89,4.227226734161377,2.7067768573760986,73.71002960205078,-3.8391417435433337,-15.81219347246518,-91.59379328213477,1.5306798,16.489504,20.303434,50.832054,-33.73051,1.5676903,-44.5731,-7.6004205,3.318685,103.27521,-1.3110045,6.2836094,-10.032755,0.018677616,29.793802,-14.9753065,14.080042,-24.980742,33.42985,12.7614765,-8.990501,33.219257,17.123127,-12.022587,24.419586,68.9179,-1.5739082,-8.652392,-12.685935
90,4.257492542266846,2.686386823654175,73.35751342773438,-4.019511025726214,-16.60029867453231,-91.15354233611563,1.7476943,16.713678,19.814854,52.229557,-34.553696,1.5808151,-46.18341,-7.98867,3.675929,106.34455,-1.6381452,5.8280826,-10.350125,0.04300803,29.793802,-15.733164,13.931234,-24.8759,29.082432,13.837803,-8.423913,33.06341,18.277712,-11.968767,26.06615,71.43507,-1.360124,-8.3926325,-11.889145
91,4.270618438720703,2.649273633956909,73.01173400878906,-4.201035595102036,-17.32652993665556,-90.69920831242268,1.9373828,16.919308,19.319408,53.546402,-35.34117,1.5776137,-47.747063,-8.275189,4.0970335,109.23554,-1.8827051,5.4602413,-10.641147,0.08460918,29.793802,-16.497543,13.8020525,-24.7731,24.538345,14.7977,-7.885306,32.66451,19.440933,-11.880885,27.6796,73.86492,-0.93323666,-8.162648,-11.044983
92,4.267978668212891,2.593465805053711,72.68363952636719,-4.4145923521129955,-17.9336785669996,-90.22014932454846,2.0143561,17.14537,18.793549,54.798325,-36.07628,1.5675039,-49.230507,-8.420733,4.5273986,111.88159,-2.1547935,5.3398433,-10.92734,0.18062669,29.793802,-17.321104,13.702282,-24.700539,19.984068,15.711604,-7.355901,32.116802,20.5659,-11.759462,29.147694,76.1411,-0.29521996,-7.9663935,-10.073966
93,4.257305145263672,2.520421266555786,72.37887573242188,-4.685634419079416,-18.407974852732362,-89.69206308266642,1.9365209,17.415108,18.20622,56.02481,-36.774258,1.5510156,-50.64181,-8.353792,4.9699802,114.26902,-2.4651349,5.584431,-11.228356,0.35478252,29.793802,-18.215355,13.629004,-24.668055,15.356331,16.555672,-6.804889,31.382782,21.670176,-11.599738,30.49359,78.30892,0.6677243,-7.8138785,-8.950073
94,4.231889724731445,2.4413070678710938,72.09833526611328,-4.992876002581967,-18.77944773043646,-89.13002739325259,1.7551802,17.707203,17.57713,57.208145,-37.436565,1.5219591,-51.986633,-8.106105,5.42057,116.43393,-2.7657661,6.0929284,-11.522715,0.5873035,29.793802,-19.1475,13.579691,-24.665178,10.5675335,17.313171,-6.257064,30.434761,22.757452,-11.401463,31.762716,80.39658,1.9191931,-7.678512,-7.724988
95,4.20743465423584,2.3642988204956055,71.84474182128906,-5.301737676054218,-19.056078235251622,-88.58202076394316,1.525725,17.990486,16.960197,58.27194,-38.02835,1.4805388,-53.234123,-7.8003144,5.8267307,118.393425,-3.0800023,6.696608,-11.772536,0.8526644,29.793802,-20.112373,13.564683,-24.691925,5.7787347,18.05599,-5.776899,29.378975,23.764086,-11.169169,32.874313,82.30738,3.2305205,-7.5188475,-6.433323
96,4.16134786605835,2.27232027053833,71.62989044189453,-5.573106986501025,-19.24627721573883,-88.09547236421712,1.3014294,18.2328,16.409212,59.14487,-38.51161,1.4285023,-54.36041,-7.564066,6.150978,120.16049,-3.422133,7.220081,-11.941524,1.1238071,29.793802,-21.112053,13.598861,-24.749775,1.1633092,18.847334,-5.428402,28.320679,24.629606,-10.908502,33.743565,83.93537,4.369246,-7.302392,-5.1081023
97,4.100977897644043,2.1687674522399902,71.45873260498047,-5.802685173927502,-19.337082486391445,-87.66234917244138,1.0532527,18.428446,15.9082985,59.8473,-38.893456,1.3632889,-55.402195,-7.371148,6.439364,121.74964,-3.7991607,7.6914806,-12.039196,1.3989007,29.793802,-22.209118,13.693339,-24.837843,-3.305257,19.716427,-5.221799,27.220337,25.363716,-10.611717,34.3035,85.26981,5.2847867,-7.009917,-3.7028995
98,4.047062397003174,2.0549139976501465,71.34082794189453,-6.00457155035846,-19.33041449018736,-87.26380054607709,0.7672798,18.591084,15.438189,60.405323,-39.187542,1.2864829,-56.363308,-7.180899,6.702015,123.15182,-4.1986027,8.175541,-12.082905,1.6893698,29.793802,-23.385605,13.846514,-24.954584,-7.7090797,20.617535,-5.1308746,26.045256,25.98284,-10.273022,34.620193,86.3603,6.093431,-6.6582484,-2.2212615
99,3.988041639328003,1.9355909824371338,71.27735900878906,-6.167287538268094,-19.25724112950998,-86.93144750423606,0.5205928,18.715052,15.050065,60.75297,-39.36488,1.2076269,-57.17621,-7.112775,6.8689537,124.34304,-4.5961156,8.5520315,-12.057102,1.9864782,29.793802,-24.524855,14.051809,-25.089437,-11.943658,21.498966,-5.160288,24.909216,26.43961,-9.904955,34.815872,87.1939,6.8221116,-6.2901416,-0.76539296
100,3.9290950298309326,1.806754231452942,71.27457427978516,-6.276466146651947,-19.14821729837014,-86.69569598462297,0.39054084,18.794186,14.795914,60.822845,-39.398136,1.1359795,-57.776684,-7.2838893,6.877235,125.29857,-4.962363,8.700865,-11.952272,2.28159,29.793802,-25.51091,14.300802,-25.224358,-15.894131,22.309544,-5.3097825,23.926561,26.687637,-9.533194,35.013283,87.76535,7.5040836,-5.962277,0.5675833
101,3.873791456222534,1.6732821464538574,71.33977508544922,-6.325102589578712,-18.99941994146484,-86.56598599798647,0.37528142,18.820015,14.687479,60.615173,-39.294304,1.074143,-58.179516,-7.7549853,6.725703,126.03518,-5.3056226,8.576476,-11.773474,2.5727003,29.793802,-26.39893,14.590552,-25.322586,-19.578714,23.126913,-5.5661793,23.069868,26.69852,-9.166758,35.211548,87.993805,8.19279,-5.6934257,1.861296
102,3.8140156269073486,1.5301872491836548,71.47720336914062,-6.3181256485103265,-18.800514742375988,-86.52310459386007,0.442625,18.795395,14.696478,60.159763,-39.062263,1.0180712,-58.4074,-8.456476,6.457378,126.55974,-5.6338673,8.249912,-11.534888,2.8662992,29.793802,-27.242327,14.924354,-25.38518,-23.033064,23.935331,-5.9318094,22.296814,26.501049,-8.805409,35.357517,87.931755,8.860452,-5.4813952,3.141679
103,3.7587552070617676,1.3773874044418335,71.68537139892578,-6.273032312497279,-18.569393425333917,-86.55253693623919,0.62276447,18.731203,14.814198,59.43178,-38.678455,0.96591836,-58.40722,-9.315283,6.074448,126.82825,-5.916956,7.7787175,-11.253223,3.1574595,29.793802,-27.87744,15.295026,-25.45366,-26.176998,24.580732,-6.41828,21.704721,26.132416,-8.470639,35.500538,87.772705,9.41734,-5.3563786,4.2282047
104,3.7061073780059814,1.217150330543518,71.96607208251953,-6.208960255206949,-18.323718708082627,-86.64073776125409,0.9439795,18.638954,15.031791,58.40861,-38.12108,0.91556025,-58.124954,-10.254676,5.570504,126.79841,-6.1240044,7.2191005,-10.948526,3.4460504,29.793802,-28.147142,15.694329,-25.561012,-28.920786,24.905373,-7.033708,21.38723,25.639643,-8.199494,35.690502,87.69385,9.777286,-5.3525863,4.9416475
105,3.6443307399749756,1.0444386005401611,72.3160400390625,-6.121714985601261,-18.06457335146834,-86.79585703216625,1.4267484,18.510563,15.364654,57.055477,-37.405716,0.87760705,-57.53522,-11.34334,4.8916764,126.482925,-6.2725496,6.482448,-10.621445,3.7359874,29.793802,-28.057018,16.122198,-25.717768,-31.25507,24.904291,-7.867814,21.442684,25.04661,-8.028352,36.00005,87.7206,9.836054,-5.528146,5.2430954
106,3.5857722759246826,0.8611039519309998,72.73961639404297,-6.006181366762409,-17.783739945407667,-87.02088244020308,2.05051,18.344242,15.806458,55.395897,-36.5418,0.8470655,-56.64883,-12.58112,4.0324235,125.89661,-6.383248,5.5783997,-10.282361,4.0273366,29.793802,-27.65297,16.579878,-25.884632,-33.23777,24.66903,-8.883265,21.79158,24.344986,-7.9681745,36.397545,87.72923,9.671021,-5.850978,5.2317886
107,3.521801471710205,0.6632590889930725,73.22677612304688,-5.885916293117927,-17.48351620173518,-87.29474249880747,2.7798486,18.161217,16.317698,53.496826,-35.491295,0.798417,-55.477272,-13.790983,3.0584698,125.00005,-6.418365,4.7089763,-9.948535,4.3232408,29.793802,-26.889303,17.067478,-26.008345,-34.83875,24.143694,-9.90183,22.251749,23.529596,-8.014571,36.756954,87.68443,9.464911,-6.2266307,4.933053
108,3.4329700469970703,0.4464949071407318,73.77571105957031,-5.773096391947241,-17.16478331737396,-87.59969020553581,3.5789397,17.978952,16.863014,51.42131,-34.21886,0.70759284,-54.050842,-14.793473,2.0472603,123.751686,-6.324327,4.0727477,-9.634598,4.6206307,29.793802,-25.702047,17.578167,-26.049528,-36.038082,23.282612,-10.745251,22.642988,22.589024,-8.152453,36.954052,87.55763,9.400326,-6.5628624,4.3734794
109,3.3346221446990967,0.20890116691589355,74.3783187866211,-5.6792056918469465,-16.813759541098253,-87.96756302505085,4.5370193,17.787258,17.515003,48.991745,-32.747093,0.5782206,-52.345707,-15.540638,0.9788601,122.137054,-6.059119,3.7514198,-9.31947,4.9434757,29.793802,-24.00314,18.106894,-26.048212,-36.847137,21.880772,-11.419044,22.96654,21.490604,-8.387486,36.99004,87.43431,9.564979,-6.8538938,3.4403205
110,3.226177453994751,-0.046186961233615875,75.02198791503906,-5.590143704588299,-16.43226351655933,-88.40036899438043,5.6343956,17.57077,18.267542,46.24525,-31.089308,0.41552904,-50.36405,-16.108433,-0.17532954,120.177025,-5.6521983,3.6299093,-9.001661,5.2698393,29.793802,-21.832544,18.648964,-26.011826,-37.282814,20.032835,-12.010271,23.296785,20.24739,-8.723724,36.929443,87.29739,9.844497,-7.148774,2.1613638
111,3.1111485958099365,-0.3158319294452667,75.69894409179688,-5.486862376596253,-16.043130294796025,-88.83362120560427,6.665042,17.338375,18.957945,43.570328,-29.195868,0.21125813,-48.18694,-16.510069,-1.3336208,117.885574,-5.1523724,3.61338,-8.707201,5.5320654,29.793802,-19.354074,19.192932,-25.86055,-37.3102,18.113268,-12.453925,23.573776,18.91286,-9.133263,36.72159,86.97624,10.117513,-7.440079,0.7729107
112,2.9610369205474854,-0.5812456607818604,76.39900207519531,-5.350050668788984,-15.66946027518647,-89.20241218817785,7.425469,17.114605,19.42295,41.35482,-27.012194,-0.04241628,-45.894245,-16.772396,-2.4148445,115.27297,-4.6151004,3.6013203,-8.448334,5.6708508,29.793802,-16.744627,19.716074,-25.533537,-36.875793,16.49944,-12.676141,23.747942,17.536673,-9.565726,36.305023,86.31335,10.269483,-7.7135634,-0.4926238
113,2.7892441749572754,-0.8475889563560486,77.11856079101562,-5.183245680233794,-15.32294385065025,-89.51337314102219,7.964189,16.905758,19.646088,39.54275,-24.4268,-0.4267309,-43.46004,-16.82397,-3.364974,112.31075,-4.037878,3.604335,-8.206153,5.6834636,29.793802,-13.936932,20.192991,-25.021786,-35.960793,15.229347,-12.526375,23.669104,16.091436,-9.982623,35.614937,85.28973,10.293483,-7.9365497,-1.6200835
114,2.5901405811309814,-1.113891839981079,77.84922790527344,-4.989398406882839,-14.990126468704513,-89.7930667382414,8.351544,16.693415,19.689028,37.982487,-21.500404,-0.9074697,-40.860588,-16.68522,-4.2082577,109.00868,-3.4121125,3.6560814,-7.9471807,5.59077,29.793802,-10.919588,20.601923,-24.41177,-34.55015,14.123178,-12.077526,23.429495,14.566971,-10.373617,34.673386,83.98724,10.244868,-8.111059,-2.725156
115,2.3634445667266846,-1.376549243927002,78.58779907226562,-4.7529476461066205,-14.655997380545278,-90.00311404980748,8.424981,16.485443,19.515932,36.907387,-18.427673,-1.324114,-38.167095,-16.519407,-4.9978094,105.4154,-2.7807899,3.6983774,-7.6556325,5.3872666,29.793802,-7.980033,20.925432,-23.782127,-32.575737,13.218953,-11.597047,23.332022,13.045655,-10.730175,33.525475,82.39138,10.096259,-8.263955,-3.776443
116,2.1106717586517334,-1.6394333839416504,79.32319641113281,-4.459225000919827,-14.312691139527072,-90.10521075634693,8.037673,16.30523,19.11263,36.539352,-15.392418,-1.5309744,-35.4367,-16.47942,-5.8133106,101.57461,-2.1841412,3.677593,-7.322769,5.0703826,29.793802,-5.455186,21.096004,-23.197989,-29.887499,12.576963,-11.364427,23.645544,11.531683,-10.96758,32.229557,80.61498,9.827575,-8.437896,-4.7649584
117,1.8278254270553589,-1.908677577972412,80.03245544433594,-4.049507169328482,-13.762634543879981,-90.08016187756611,6.926197,16.068567,18.435125,36.847336,-12.221227,-1.5989895,-32.90186,-16.659393,-6.6416707,97.46858,-1.6429282,3.53469,-6.8880806,4.5867505,29.038507,-3.2172303,21.171799,-22.88245,-26.00795,12.257804,-11.480865,24.61297,10.466252,-11.182416,30.827084,78.625084,9.448485,-8.5478325,-5.500151
118,1.5317400693893433,-2.1604976654052734,80.69928741455078,-3.556662223857065,-13.139438324477226,-89.94294735984542,5.347814,15.787954,17.527302,37.662807,-8.841539,-1.6380032,-30.362251,-16.95229,-7.4827313,93.08075,-1.1563134,3.3145025,-6.4087996,3.9766922,28.015038,-1.2722157,21.07499,-22.66945,-21.174446,12.290381,-11.790033,25.964474,9.466202,-11.259613,29.242456,76.55767,8.974801,-8.637513,-6.131413
119,1.2214435338974,-2.3897552490234375,81.32530212402344,-3.062440460724425,-12.550527872165706,-89.73450481498216,3.4468365,15.597719,16.514479,39.1124,-5.5866385,-1.5143554,-27.732248,-17.227303,-8.36668,88.494286,-0.66617495,3.1478353,-5.8913646,3.350629,26.997578,0.35795972,20.851057,-22.478874,-15.828958,12.330651,-12.186435,27.425632,8.473171,-11.252244,27.480448,74.36667,8.380971,-8.759667,-6.756659
120,0.9103824496269226,-2.594230890274048,81.89884948730469,-2.6410934107183373,-12.07271448679848,-89.50311601851467,1.3195971,15.644208,15.535452,41.35617,-2.798216,-1.0365039,-24.973038,-17.344881,-9.300509,83.77548,-0.09735612,3.1725395,-5.339601,2.8078995,26.113201,1.6695545,20.537586,-22.25135,-10.303888,12.003905,-12.581482,28.726257,7.488408,-11.22053,25.608482,72.025955,7.660981,-8.953997,-7.446675
121,0.6156808137893677,-2.792099952697754,82.40982818603516,-2.315932117733986,-11.743054363373192,-89.2216733531036,-1.1443131,15.948774,14.52803,44.59105,-0.41157964,0.08273218,-21.994633,-17.266037,-10.326597,78.77316,0.5722945,3.486658,-4.7778754,2.367433,25.432693,2.648392,20.154325,-21.948195,-4.5846567,11.198837,-12.940487,29.881264,6.5383544,-11.212586,23.626076,69.47252,6.780106,-9.25568,-8.212429
122,0.30908674001693726,-2.955368757247925,82.83177947998047,-2.0472305638266683,-11.521063776511395,-88.88510104423698,-3.93935,16.434303,13.486038,48.639397,1.7479255,1.7031747,-18.847965,-17.035013,-11.405098,73.484604,1.3120041,4.0026255,-4.211208,1.9847622,24.901325,3.3786893,19.716743,-21.565683,1.3878717,10.112821,-13.325421,31.008692,5.6401596,-11.249512,21.526953,66.658424,5.7536616,-9.621463,-9.0123005
123,-0.004171771928668022,-3.1010305881500244,83.14640808105469,-1.8209345376581814,-11.3656401778625,-88.577037310137,-6.822649,17.1442,12.596587,53.19295,3.4284923,3.4424338,-15.71253,-16.642681,-12.408657,68.183754,2.1259007,4.5819197,-3.609893,1.6631494,24.45727,3.9872026,19.25652,-21.095669,7.375522,8.823899,-13.795497,31.991388,4.7792726,-11.343022,19.377317,63.56542,4.650687,-9.969356,-9.837853
124,-0.2985159754753113,-3.2593913078308105,83.3365707397461,-1.6297721205160345,-11.23337029490147,-88.3783663723866,-9.578658,18.148767,11.993877,58.04556,4.3007627,4.924154,-12.774401,-16.100689,-13.216344,63.15995,3.0114954,5.084919,-2.9487078,1.3979299,24.036947,4.600411,18.817167,-20.528042,13.145421,7.405299,-14.4019,32.713676,3.9365726,-11.499362,17.248943,60.16781,3.5428886,-10.215569,-10.678203
125,-0.5980188250541687,-3.4035558700561523,83.40660095214844,-1.496633501630071,-11.12491216724755,-88.32116787527592,-12.114155,19.723299,11.889164,63.427742,3.8959718,6.15462,-10.060349,-15.353016,-13.771728,58.317387,4.3175926,5.499765,-2.2019634,1.2054142,23.641123,5.2352395,18.427595,-19.82492,18.711317,5.7750916,-15.236707,33.116978,3.1585712,-11.720939,15.136728,56.379833,2.4326093,-10.36172,-11.567202
126,-0.8921557068824768,-3.5381569862365723,83.35038757324219,-1.4201860582431172,-11.059512276239346,-88.36212336096523,-14.573683,21.858454,12.024432,69.4817,2.3737304,7.3920197,-7.482861,-14.420002,-14.124595,53.53941,5.9311194,5.895493,-1.3915875,1.0769874,23.301239,5.871204,18.099007,-18.987467,24.13957,3.9050837,-16.230354,33.25686,2.4415038,-12.009781,13.025522,52.21363,1.295899,-10.436698,-12.492205
127,-1.1805392503738403,-3.6874988079071045,83.18597412109375,-1.3594328307234327,-11.018872291751665,-88.46235844163618,-17.112524,24.116125,11.842072,75.862274,0.3958315,8.561102,-5.044336,-13.442523,-14.343381,49.06998,7.180833,6.2582407,-0.5690335,0.95948625,22.99784,6.562179,17.847324,-18.066885,29.297958,1.9479014,-17.18973,33.203026,1.6893834,-12.370498,10.974101,47.787785,0.16618791,-10.407218,-13.368242
128,-1.4746867418289185,-3.823688507080078,82.91382598876953,-1.2665541376448877,-10.981944400762975,-88.58032915369638,-19.9134,25.936533,10.873367,82.19645,-1.2867267,9.524433,-2.7362566,-12.56473,-14.522009,45.131042,7.4159236,6.5814624,0.20812614,0.7910552,22.713188,7.357764,17.689516,-17.112682,34.0487,0.060875732,-17.925016,33.043983,0.81082946,-12.8077135,9.046978,43.208584,-0.9231433,-10.245684,-14.108834
129,-1.7593424320220947,-3.9660584926605225,82.56771087646484,-1.0913222627478427,-10.891646734119707,-88.70063293503509,-23.118181,26.933401,8.995754,88.541435,-2.4520144,10.087827,-0.5532437,-11.861412,-14.721079,41.725914,6.4120154,6.881832,0.9273624,0.5042812,22.380577,8.2644615,17.636908,-16.071192,38.37314,-1.7629788,-18.391443,32.85408,-0.15710412,-13.324335,7.300127,38.382645,-1.9738268,-9.941468,-14.730062
130,-2.0436651706695557,-4.079453945159912,82.11196899414062,-0.8568845089248338,-10.767329296648468,-88.83810413274904,-26.579056,27.278969,6.5456095,95.07633,-3.4852886,10.24748,1.5108716,-11.264538,-14.901238,38.692646,4.57696,7.1973267,1.6029952,0.121022046,22.026249,9.262963,17.685251,-14.927868,42.357895,-3.5985918,-18.682108,32.58003,-1.1610472,-13.91364,5.70478,33.25231,-2.9914498,-9.513784,-15.257982
131,-2.325066089630127,-4.173946857452393,81.56455993652344,-0.6181168099815422,-10.701733052587409,-88.99472186738592,-30.043575,27.216372,3.8047345,101.5924,-4.489276,10.139218,3.4685736,-10.718894,-15.019739,36.010334,2.2103183,7.5407205,2.222591,-0.28565902,21.768118,10.341019,17.82143,-13.79786,46.041973,-5.3809233,-18.817797,32.13433,-2.2772317,-14.564244,4.1913466,27.984137,-3.9580858,-8.987913,-15.62181
132,-2.5988242626190186,-4.260447025299072,80.9432373046875,-0.44082560130238935,-10.79040683416136,-89.17715742703312,-33.28678,27.084085,0.99462426,107.86283,-5.565406,9.967105,5.3276067,-10.179454,-15.032352,33.691677,-0.41488028,7.8920183,2.785119,-0.6306443,21.720068,11.472253,18.029556,-12.802546,49.46924,-7.0425067,-18.81521,31.430824,-3.5959685,-15.267041,2.6832283,22.757612,-4.865491,-8.393246,-15.753062
133,-2.8520877361297607,-4.336151123046875,80.28227233886719,-0.3548600507995109,-11.076613883762514,-89.35833662817215,-36.27573,26.961504,-1.8843752,113.93461,-6.7195597,9.775463,7.1081767,-9.63681,-14.889989,31.793505,-3.476758,8.279866,3.2772675,-0.86452216,21.925232,12.612185,18.31712,-11.912382,52.68416,-8.66937,-18.646997,30.319511,-5.128171,-16.018671,1.1507747,17.468359,-5.7406306,-7.7094383,-15.589732
134,-3.1027495861053467,-4.406439781188965,79.59353637695312,-0.3098861850892825,-11.491987980013848,-89.53522137835574,-39.04404,26.632664,-4.8665733,119.92119,-7.9365387,9.431203,8.774067,-9.169716,-14.644808,30.333439,-7.061896,8.695848,3.6999424,-1.0498447,22.300385,13.767658,18.686537,-11.081881,55.69133,-10.253414,-18.296555,28.903498,-6.824991,-16.818094,-0.35657674,12.050307,-6.5931196,-6.943513,-15.183132
135,-3.3326637744903564,-4.453426361083984,78.88348388671875,-0.2495368539791046,-11.971142376516434,-89.7551194192324,-41.511265,26.09442,-7.845037,125.66677,-9.269711,8.942261,10.242026,-8.845879,-14.399256,29.302706,-10.794303,9.030583,4.0765486,-1.2523866,22.772785,14.970977,19.105665,-10.410988,58.48378,-11.581071,-17.81432,27.472971,-8.720272,-17.664875,-1.7929212,6.7781806,-7.393011,-6.167085,-14.638148
136,-3.5432095527648926,-4.4896321296691895,78.1600341796875,-0.11849080274034379,-12.45367131695861,-90.06390624671876,-43.62097,25.373117,-10.7138405,130.99768,-10.755509,8.339688,11.437703,-8.707883,-14.251491,28.688305,-14.306837,9.163398,4.43045,-1.5264832,23.275326,16.234522,19.527386,-10.007997,61.067974,-12.438652,-17.274855,26.312716,-10.876524,-18.564281,-3.1094882,1.9638786,-8.108539,-5.4506416,-14.061744
137,-3.7237818241119385,-4.5087080001831055,77.42634582519531,0.11949968966492143,-12.97084427755399,-90.48919387178816,-45.338585,24.488527,-13.482753,135.94476,-12.467414,7.6175356,12.405384,-8.788469,-14.284986,28.467018,-17.709703,8.95974,4.7393746,-1.8935521,23.836805,17.564718,19.944004,-9.999709,63.53091,-12.626268,-16.664394,25.517206,-13.467287,-19.525946,-4.266608,-2.295651,-8.757582,-4.779091,-13.395348
138,-3.8669631481170654,-4.5070672035217285,76.69493103027344,0.45002405787843974,-13.535363191430687,-90.98297043537544,-46.64204,23.503147,-16.096375,140.59608,-14.407344,6.819937,13.140924,-9.0610285,-14.425555,28.709892,-21.177574,8.483421,4.974296,-2.326829,24.472942,18.925854,20.36599,-10.296179,65.87663,-12.302913,-15.978972,24.920116,-16.482569,-20.555212,-5.240979,-6.127062,-9.3533325,-4.1347337,-12.616987
139,-3.9949872493743896,-4.506673336029053,75.99685668945312,0.8422595207373137,-14.067295446702575,-91.48921097836123,-47.58977,22.549156,-18.416618,144.82805,-16.442192,6.085356,13.530165,-9.4628,-14.530159,29.492048,-24.41482,7.924158,5.1585245,-2.7922335,25.111574,20.256817,20.761698,-10.685333,67.99326,-11.792201,-15.322688,24.409569,-19.698221,-21.644459,-6.0227447,-9.557443,-9.846972,-3.5718527,-11.894249
140,-4.102416515350342,-4.50881814956665,75.3719253540039,1.2468896071281255,-14.49246785333399,-91.96638370734361,-48.33102,21.746992,-20.39653,148.50276,-18.37024,5.545394,13.479864,-9.925941,-14.459069,30.84659,-27.103125,7.4977345,5.3216233,-3.2362325,25.688232,21.497126,21.075674,-10.951889,69.76605,-11.402852,-14.797307,23.891695,-22.859362,-22.784805,-6.631082,-12.633989,-10.190545,-3.1354697,-11.393201
141,-4.198403835296631,-4.526207447052002,74.88887023925781,1.64346505524325,-14.858020674652579,-92.53559651032724,-48.884,21.037825,-22.27136,151.57376,-20.035803,5.097325,12.805953,-10.449425,-14.012321,33.16053,-29.123028,7.2508063,5.526621,-3.6273894,26.291721,22.686842,21.251804,-11.088152,71.151146,-11.123679,-14.491093,23.392258,-26.134336,-23.9897,-7.04326,-15.308405,-10.395054,-2.858966,-11.194017
142,-4.243504047393799,-4.509307384490967,74.49539947509766,2.050219612113747,-15.202159484666723,-93.20296006332772,-49.316708,20.461105,-24.063976,154.1201,-21.464914,4.7716823,11.658882,-11.056456,-13.275182,36.221016,-30.633896,7.066477,5.741281,-3.960815,26.941666,23.814552,21.283978,-11.198621,72.24725,-10.808206,-14.3363495,22.95934,-29.607496,-25.25892,-7.230669,-17.58078,-10.471367,-2.7012002,-11.202626
143,-4.252992630004883,-4.460108757019043,74.1609115600586,2.4163793168935768,-15.441248439744067,-93.7689878091159,-49.972477,20.194555,-25.60315,156.15434,-22.61484,4.8336644,10.436712,-11.65596,-12.552461,39.177155,-31.735052,6.920422,5.8817844,-4.1962075,27.473997,24.765451,21.206009,-11.230042,73.13027,-10.557246,-14.199085,22.539719,-32.879253,-26.557611,-7.25369,-19.565712,-10.378007,-2.5982602,-11.31682
144,-4.224735736846924,-4.411263465881348,73.90522766113281,2.6625412898165854,-15.488555346855074,-94.04049529714767,-51.20605,20.33909,-26.817131,157.68327,-23.430088,5.4800205,9.520505,-12.11708,-12.183809,41.214066,-32.53043,6.803113,5.879736,-4.3028736,27.726278,25.456133,21.078112,-11.107013,73.84722,-10.473577,-13.94566,22.075436,-35.54809,-27.832254,-7.199416,-21.364622,-10.086138,-2.489533,-11.426448
145,-4.210251808166504,-4.410072326660156,73.74592590332031,2.750297276512117,-15.307519378089507,-93.95003036201506,-53.311783,20.910578,-27.818777,158.70467,-23.858513,6.876552,8.972649,-12.402341,-12.304066,42.188496,-33.050346,6.7553873,5.718383,-4.2966914,27.654318,25.919445,20.93749,-10.683008,74.31782,-10.701371,-13.479824,21.47721,-37.565987,-29.058949,-7.1621566,-22.959454,-9.492872,-2.3950021,-11.51722
146,-4.220775604248047,-4.477707862854004,73.6856918334961,2.699535293886564,-15.004836325037202,-93.67964531340908,-55.99543,21.849993,-28.712608,159.20264,-23.969128,8.81982,8.657825,-12.514751,-12.683243,42.51191,-33.238544,6.759237,5.518905,-4.178638,27.40592,26.21116,20.789206,-10.017181,74.51214,-11.148677,-12.889452,20.798208,-39.127438,-30.23188,-7.129489,-24.312527,-8.656937,-2.3389063,-11.62864
147,-4.253727912902832,-4.622048377990723,73.73470306396484,2.545020157250857,-14.697877937502986,-93.39134411671755,-58.69802,23.13952,-29.377827,159.15918,-23.909546,10.936426,8.6383505,-12.421613,-13.132112,42.226185,-33.073467,6.736056,5.407599,-3.9295797,27.097002,26.293154,20.651752,-9.343138,74.53107,-11.570509,-12.308821,20.193453,-40.1582,-31.318027,-7.053017,-25.527483,-7.8070817,-2.265196,-11.734496
148,-4.297687530517578,-4.82029914855957,73.90470886230469,2.3121070052994535,-14.470394060848346,-93.21491503404346,-60.96996,24.795155,-29.675285,158.56236,-23.73613,12.935295,8.935225,-12.1016035,-13.4814415,41.372463,-32.526028,6.61048,5.483456,-3.5519743,26.812002,26.148474,20.554857,-8.890806,74.4645,-11.731636,-11.8781395,19.810423,-40.56643,-32.278755,-6.908563,-26.713995,-7.165779,-2.1177633,-11.802417
149,-4.351905822753906,-5.045101165771484,74.18694305419922,1.9432837341210756,-14.341795482206233,-93.14576954656158,-62.82844,27.206888,-29.573334,157.39336,-23.615358,15.000033,9.690211,-11.426341,-13.75395,39.68307,-31.58125,6.3070855,5.7726,-3.0057538,26.540455,25.757618,20.538588,-8.696735,74.338524,-11.551324,-11.641137,19.711193,-40.20807,-33.09791,-6.7484655,-28.00092,-6.8097057,-1.8338107,-11.832153
150,-4.436538219451904,-5.288522720336914,74.56278228759766,1.4001872543403484,-14.286502620622144,-93.18887490236875,-63.415707,29.228884,-29.39427,155.73227,-23.731852,15.000033,10.879687,-10.335796,-13.951672,37.155807,-30.22529,5.8685064,6.2876773,-2.2702637,26.251127,25.147839,20.612782,-8.646164,74.08767,-11.172612,-11.515963,19.797302,-39.097393,-33.773895,-6.644406,-29.346884,-6.62402,-1.4590417,-11.831029
151,-4.4978790283203125,-5.5358757972717285,75.0278091430664,0.9116169169102367,-14.238540836916677,-93.30991443194587,-63.50491,31.437037,-28.465244,153.57617,-23.596441,15.000033,12.178348,-9.241367,-14.022782,34.328045,-28.4532,5.478748,6.950311,-1.5610286,25.944622,24.368542,20.745358,-8.731891,73.68429,-10.693031,-11.468858,19.974606,-37.393253,-34.2872,-6.583119,-30.60149,-6.5419445,-1.0993482,-11.778138
152,-4.508967876434326,-5.781045913696289,75.59085845947266,0.8044822517200332,-14.054572298229141,-93.3220681990191,-63.226284,33.140743,-26.450054,150.94348,-22.711075,15.000033,13.123248,-8.752942,-14.082497,31.966444,-26.391586,5.3288875,7.5119696,-1.2557757,25.577297,23.467087,20.878555,-8.938215,73.09333,-10.205395,-11.460044,20.160242,-35.255917,-34.60472,-6.516451,-31.632803,-6.513766,-0.8612895,-11.6556225
153,-4.463989734649658,-6.025144100189209,76.2475814819336,1.1097861294593585,-13.61231455305792,-93.1420221106376,-62.632133,34.076897,-23.324947,147.78474,-20.817698,15.000033,13.5736265,-8.957676,-14.218165,30.137562,-24.013319,5.480365,7.8583884,-1.4157838,25.047716,22.462223,20.970129,-9.248409,72.26269,-9.683577,-11.494751,20.36703,-32.62665,-34.700672,-6.3539143,-32.507355,-6.64826,-0.80787295,-11.390659
154,-4.380865097045898,-6.272088527679443,76.99129486083984,1.6557939267633288,-12.935589211622478,-92.75413308197108,-61.69862,34.47815,-19.372456,144.10266,-18.217812,15.000033,13.666307,-9.571221,-14.457804,28.581276,-21.318058,5.81802,7.9703794,-1.8845491,24.338932,21.358225,21.00998,-9.631343,71.20867,-9.083591,-11.588218,20.64442,-29.505934,-34.573723,-6.063045,-33.24978,-6.950502,-0.87625515,-11.005869
155,-4.256623268127441,-6.512142658233643,77.79951477050781,2.2779801404560622,-12.123696747151586,-92.17005277465279,-60.45857,34.40772,-15.061624,140.00366,-15.3058815,15.000033,13.374528,-10.385525,-14.758132,27.49585,-18.422571,6.192079,7.833499,-2.4897864,23.533241,20.198559,20.985657,-10.047498,69.99213,-8.470788,-11.7214365,20.96366,-26.140802,-34.233547,-5.6628227,-33.65967,-7.2175946,-0.9821136,-10.624057
156,-4.108545303344727,-6.7316107749938965,78.6478500366211,2.837424450258703,-11.293355058466947,-91.436428406988,-58.95778,33.94714,-10.810553,135.58484,-12.444461,15.000033,12.705285,-11.235931,-15.053874,27.049541,-15.431473,6.4726644,7.472295,-3.0683088,22.731224,19.014097,20.886929,-10.466248,68.68431,-7.9116116,-11.877406,21.294958,-22.782326,-33.694687,-5.179494,-33.523346,-7.2393565,-1.0367678,-10.368689
157,-3.9318666458129883,-6.943354606628418,79.51544189453125,3.149342157660523,-10.482335727646925,-90.70392934099768,-57.259357,32.864388,-7.0510955,130.81084,-9.645139,15.000033,11.767513,-11.848645,-15.243197,26.970701,-12.056174,6.6606264,7.0496554,-3.3741446,21.944809,17.791342,20.699984,-10.921723,67.30796,-7.487994,-12.072637,21.630259,-19.340952,-32.95054,-4.5248904,-32.818512,-6.8216624,-1.0061473,-10.318498
158,-3.745163679122925,-7.137445449829102,80.38636779785156,3.391624742386425,-9.637642420889328,-89.92065590863737,-55.346375,30.812231,-3.809127,125.61873,-6.800634,14.311242,10.532684,-12.476661,-15.336395,27.28197,-8.3496065,6.894218,6.501702,-3.604259,21.13646,16.5333,20.421839,-11.400405,65.8189,-7.139487,-12.310605,21.98984,-15.741919,-32.010746,-3.6510992,-31.649412,-6.133144,-0.94457895,-10.387247
159,-3.5672202110290527,-7.338368892669678,81.2484130859375,3.5491781638505957,-8.869085545825424,-89.20038270810849,-53.162373,27.583723,-1.6290464,120.12325,-4.117759,11.442181,9.056685,-13.066508,-15.187473,28.0963,-4.6412067,7.086095,5.8922853,-3.7486215,20.409538,15.288934,20.068544,-11.829627,64.198654,-6.7248473,-12.555713,22.379683,-12.265391,-30.923775,-2.6728525,-29.954863,-5.489556,-0.88760525,-10.456346
160,-3.3925487995147705,-7.52863073348999,82.07870483398438,3.603851856840404,-8.27206678486695,-88.62561854192897,-50.735676,24.95322,0.2426667,114.449066,-1.7711717,8.591902,7.389272,-13.557046,-14.713184,29.487473,-1.2082546,7.1268873,5.29547,-3.766188,19.860256,14.09176,19.66569,-12.163753,62.43158,-6.1085844,-12.76516,22.800512,-9.187975,-29.745955,-1.7432317,-27.657011,-5.1853476,-0.8634927,-10.420966
161,-3.2208337783813477,-7.708427906036377,82.88169860839844,3.506650912718894,-7.85464436280923,-88.19023179273074,-47.964287,23.138254,2.0032518,108.52705,0.25227696,5.687736,5.5186596,-13.8633,-13.9633465,31.415224,2.12682,6.952093,4.703869,-3.5991886,19.49343,12.912215,19.213608,-12.436101,60.61138,-5.2263646,-12.955766,23.217398,-6.5241675,-28.468632,-0.9152753,-24.637999,-5.270631,-0.87898946,-10.246893
162,-3.050652027130127,-7.89182710647583,83.65357971191406,3.2818714733532763,-7.567760031797784,-87.8399208048273,-44.899628,21.717592,3.6079054,102.31492,2.0969617,2.6395032,3.4585314,-13.999818,-13.014868,33.76764,5.5098977,6.676449,4.0843496,-3.283652,19.261677,11.737157,18.70971,-12.671795,58.72082,-4.1669197,-13.136273,23.637894,-4.1220307,-27.073868,-0.1075249,-20.970848,-5.581633,-0.9198296,-10.006193
163,-2.865893840789795,-8.071044921875,84.3855209350586,3.0228956076211686,-7.423858141614691,-87.57580602766598,-41.626244,20.43234,5.0613737,95.97054,3.904528,-0.24289821,1.2997029,-14.02636,-11.866782,36.55217,8.575894,6.385153,3.4627035,-2.9255228,19.18053,10.609649,18.180655,-12.831984,56.581295,-3.0271406,-13.250687,24.115837,-2.0009544,-25.613897,0.6747116,-16.851988,-6.0776124,-0.97752917,-9.770081
164,-2.6865627765655518,-8.248276710510254,85.06299591064453,2.818245663395271,-7.43754491260853,-87.400044993303,-38.237713,19.051964,6.3179097,89.64593,5.7901535,-2.6500773,-0.885019,-14.006998,-10.508315,39.846123,10.91012,6.128253,2.8811731,-2.6161053,19.269154,9.572569,17.661516,-12.897304,53.994884,-1.9125886,-13.238656,24.691988,-0.17387202,-24.184422,1.3844635,-12.463273,-6.699094,-1.0383945,-9.624349
165,-2.478084087371826,-8.415916442871094,85.64300537109375,2.7053917647177563,-7.685414245907334,-87.34592470845156,-34.614086,17.576334,7.479828,83.237465,7.8983645,-4.3533006,-3.1183884,-13.920198,-8.789794,43.948174,12.244772,5.7804003,2.360238,-2.3653295,19.62465,8.673087,17.15384,-12.858929,50.84832,-0.8560988,-13.115154,25.414915,1.3602531,-22.82484,1.8886795,-7.7956896,-7.553786,-1.041618,-9.601998
166,-2.28078556060791,-8.567464828491211,86.1129150390625,2.6218410123208757,-8.139739175071165,-87.39252346750341,-30.74788,16.132153,8.55841,76.70839,10.142684,-5.540863,-5.4492307,-13.692823,-6.786645,48.835327,12.792743,5.327226,1.870877,-2.103254,20.21536,7.8909597,16.644936,-12.744508,47.231537,0.18429253,-12.893358,26.235054,2.662682,-21.524284,2.194141,-2.8161361,-8.596822,-1.0070714,-9.67478
167,-2.0593717098236084,-8.721220016479492,86.46285247802734,2.5075011240595018,-8.658760542538449,-87.4670995808027,-26.900082,14.710784,9.357565,70.305984,12.286067,-6.53791,-7.8522453,-13.3547945,-4.8087,54.140213,12.825953,4.9605265,1.3935528,-1.7989302,20.864332,7.171512,16.148512,-12.599606,43.231876,1.211758,-12.5103245,27.036797,3.799405,-20.320215,2.451133,2.3505895,-9.535737,-1.0299709,-9.849887
168,-1.8168872594833374,-8.883317947387695,86.6984634399414,2.3081322493925422,-9.099758266260102,-87.49815234696973,-23.314734,13.299166,9.690487,64.25262,14.108234,-7.696799,-10.296378,-12.979283,-3.1618881,59.486008,12.625419,4.868499,0.90863174,-1.420385,21.39311,6.471339,15.683993,-12.470503,38.909267,2.2217245,-11.905446,27.694,4.821314,-19.276772,2.8211715,7.610023,-10.0624275,-1.2040201,-10.146548
169,-1.5727883577346802,-9.074917793273926,86.81305694580078,2.0236788264869774,-9.436835361254872,-87.4607443857191,-19.953611,11.752365,9.416115,58.32105,15.754319,-9.482615,-12.768814,-12.607826,-1.8968446,64.954185,12.030947,5.250217,0.39175862,-0.9628801,21.754755,5.8650618,15.259306,-12.352474,34.12513,3.1782596,-11.043255,28.217495,5.7060227,-18.453566,3.2775874,13.031241,-10.093089,-1.5489029,-10.70927
170,-1.3210515975952148,-9.239838600158691,86.79847717285156,1.6842736103713218,-9.740117920596957,-87.39711874710653,-16.680885,10.14892,8.681249,52.419216,17.307808,-11.605315,-15.30086,-12.253272,-0.86777455,70.76926,10.907382,5.910892,-0.14768994,-0.43145934,22.045193,5.398179,14.863934,-12.225672,28.826654,4.079727,-9.960982,28.642897,6.4595637,-17.855444,3.750373,18.619362,-9.758226,-2.0143723,-11.486626
171,-1.0838979482650757,-9.414932250976562,86.67555236816406,1.2921116346444306,-10.010890826579862,-87.3338515368024,-13.603087,8.778566,7.7938747,46.99417,18.484732,-13.31066,-17.922016,-11.97841,-0.07028194,76.73014,9.620082,6.443981,-0.6767246,0.17822377,22.291912,4.9685745,14.488661,-12.113654,23.207664,4.983155,-8.711376,28.88369,7.1475034,-17.45939,4.340883,24.237543,-9.082853,-2.5923252,-12.198632
172,-0.8653824329376221,-9.580367088317871,86.4400634765625,0.8535959764327318,-10.250374847035046,-87.2932478633524,-10.863081,7.875365,7.11811,42.545006,19.000618,-13.872192,-20.65855,-11.842711,0.5322482,82.5933,8.576242,6.4599757,-1.1671802,0.85628855,22.517982,4.4616055,14.125789,-12.03535,17.466795,5.953831,-7.352098,28.854511,7.813212,-17.226437,5.15791,29.784752,-8.093849,-3.268374,-12.5621395
173,-0.6387026309967041,-9.734228134155273,86.10729217529297,0.37157390579149174,-10.431211011879236,-87.29699622904965,-8.593348,7.4557557,6.7165885,39.3116,18.885258,-12.939085,-23.575363,-11.912043,0.94881034,88.36347,7.940951,5.738048,-1.5966127,1.5890565,22.69232,3.9036796,13.763196,-11.983939,11.51897,7.0322337,-5.830315,28.501118,8.394665,-17.1606,6.174678,35.381207,-6.673057,-4.1304274,-12.505926
174,-0.4049362540245056,-9.88814640045166,85.71127319335938,-0.13601226379160952,-10.561327550266286,-87.32050937451189,-6.7204967,7.3062916,6.4450793,37.011093,18.203554,-11.045212,-26.637587,-12.229482,1.2229568,94.13998,7.48939,4.4755583,-1.9912207,2.358394,22.806032,3.3553228,13.403397,-11.950625,5.2705016,8.202731,-4.152541,27.872177,8.876223,-17.269402,7.3503675,41.07052,-4.8348145,-5.140973,-12.15269
175,-0.1575411707162857,-10.046257019042969,85.23204040527344,-0.6328739483200403,-10.69623433570334,-87.31685251664588,-5.0780416,7.293584,6.3400035,35.36371,16.736116,-8.814484,-29.725187,-12.795669,1.4584721,99.80324,7.0612745,2.9365747,-2.391367,3.135498,22.916029,2.7312984,13.070538,-11.953798,-1.0791497,9.445659,-2.4687743,27.036854,9.355023,-17.4999,8.7695465,46.66461,-2.8155077,-6.088443,-11.516143
176,0.06093836948275566,-10.201380729675293,84.6278305053711,-1.0931838593189742,-10.890131558872712,-87.24094073937161,-3.470587,7.3181605,6.4228973,34.054363,14.33644,-6.8599777,-32.717937,-13.552264,1.7613696,105.23014,6.4981613,1.4400513,-2.8246984,3.8882382,23.078785,1.9259969,12.803742,-12.019815,-7.310177,10.731341,-0.9252618,26.067831,9.924876,-17.769855,10.509421,51.99107,-0.8811399,-6.7678576,-10.632581
177,0.2665356993675232,-10.35152816772461,83.91681671142578,-1.5199860845637956,-11.1409536809995,-87.13208619662339,-1.7724153,7.4256654,6.8129687,33.000183,10.652205,-5.1975684,-35.663807,-14.575423,2.0954826,110.47965,5.7585635,-0.10172588,-3.2359273,4.5951824,23.270555,0.913735,12.628213,-12.226805,-13.468741,12.067496,0.5277635,24.955763,10.569073,-18.058844,12.714663,57.241196,0.9515665,-7.1263857,-9.469601
178,0.4717438817024231,-10.513440132141113,83.16104125976562,-1.912678752367544,-11.42401608213676,-86.986717485024,-0.06554046,7.597931,7.349052,32.250446,5.9105153,-3.6631687,-38.60186,-15.866467,2.5012605,115.60925,4.8958364,-1.7840631,-3.6233447,5.241366,23.466269,-0.25866172,12.549308,-12.562002,-19.649746,13.462053,1.9233013,23.670427,11.222531,-18.372587,15.295376,62.499664,2.790396,-7.253486,-8.038291
179,0.6652199029922485,-10.673028945922852,82.35735321044922,-2.2758261087536935,-11.753698468786355,-86.70951147158799,1.5051302,7.7492847,7.7440443,31.766596,0.8809798,-2.441989,-41.39926,-17.184658,3.0851388,120.4726,3.9279797,-3.2956433,-4.066137,5.825847,23.724604,-1.6372669,12.578434,-12.935648,-25.655285,14.868729,3.0935848,22.268143,11.942451,-18.6553,17.955517,67.39299,4.5178733,-7.173357,-6.4557476
180,0.8231712579727173,-10.822798728942871,81.52557373046875,-2.63293470973934,-12.141458726609788,-86.21954202691599,2.7567885,7.866354,7.8238525,31.615913,-3.7083015,-1.5690148,-43.924652,-18.260336,3.8572335,124.91115,2.9111087,-4.328942,-4.611528,6.3579054,24.102201,-3.302823,12.73535,-13.276034,-31.248028,16.23014,3.8814178,20.818987,12.798275,-18.824326,20.383934,71.53752,5.9899893,-6.928685,-4.847682
181,0.9419587254524231,-10.95217227935791,80.68716430664062,-3.003532316301412,-12.620541979977412,-85.47074221596975,3.593027,8.006295,7.6262603,31.986324,-7.821414,-0.9768166,-46.158913,-19.051704,4.721884,128.92455,1.8740262,-4.839031,-5.260885,6.8330197,24.65369,-5.420622,13.040322,-13.639755,-36.373146,17.567965,4.227799,19.273699,13.809052,-18.79827,22.726461,74.91868,7.1672816,-6.5261345,-3.132707
182,1.015877604484558,-11.057412147521973,79.85546112060547,-3.3969215231959775,-13.166538435473859,-84.53262395806027,4.0891643,8.204831,7.3120117,32.89312,-11.836227,-0.51295716,-48.158283,-19.67391,5.5731025,132.5912,0.8050934,-4.993598,-5.939858,7.233247,25.310368,-7.983637,13.494562,-14.1149235,-41.081406,18.86449,4.222329,17.655874,14.925814,-18.575758,25.077934,77.7878,8.087105,-5.950734,-1.3142868
183,1.075210690498352,-11.140031814575195,79.03192901611328,-3.8296813866555626,-13.705674452275442,-83.50652743585319,4.3221006,8.444648,6.924315,34.155437,-15.66425,-0.07348127,-49.90372,-20.10234,6.345085,135.85939,-0.2762088,-4.823101,-6.5838637,7.58077,25.960623,-10.818842,14.079483,-14.665363,-45.289284,19.997265,3.9494586,16.152597,16.135181,-18.211256,27.042236,80.07885,8.728343,-5.210637,0.36716962
184,1.120837926864624,-11.20069694519043,78.24630737304688,-4.315547739718483,-14.167213423568965,-82.48697287776626,4.3857546,8.728014,6.480612,35.548218,-19.197903,0.39706206,-51.38999,-20.316284,7.001114,138.66525,-1.3417403,-4.349619,-7.1425023,7.9294524,26.518007,-13.735933,14.761823,-15.231294,-48.94248,20.863909,3.5077102,14.940213,17.433502,-17.778336,28.193533,81.68128,9.078339,-4.335636,1.6903054
185,1.144278645515442,-11.244418144226074,77.46613311767578,-4.9121859644399155,-14.576679569611244,-81.37051948764086,4.270368,9.121698,5.8990717,37.135635,-22.562136,0.9184082,-52.587166,-20.278143,7.53433,141.01653,-2.3999014,-3.393847,-7.694817,8.375605,27.062683,-16.927382,15.51919,-15.767499,-52.053715,21.452528,2.9021273,14.066315,18.92523,-17.287117,28.145533,82.38285,8.99026,-3.2232058,2.6537406
186,1.1440821886062622,-11.298140525817871,76.71070098876953,-5.599317957345399,-14.959330903624219,-80.14675970683494,3.9595304,9.606298,5.1947236,38.961746,-25.760578,1.4417402,-53.523815,-20.071552,7.905497,142.94287,-3.4654977,-2.0494013,-8.251284,8.898318,27.641464,-20.435137,16.326164,-16.340855,-54.665524,21.823025,2.1116152,13.440204,20.565311,-16.707125,27.201685,82.36239,8.522622,-2.007113,3.4036188
187,1.1977957487106323,-11.404850959777832,76.12084197998047,-6.242795291483062,-15.254459676560586,-79.03465936370682,3.5410845,10.0648985,4.513804,40.764343,-28.49379,1.897855,-54.311993,-19.863754,8.10108,144.4138,-4.477975,-0.7532145,-8.691758,9.374139,28.126234,-23.81136,17.150412,-16.981749,-56.788975,22.00113,1.1906711,13.000836,22.103424,-16.062557,25.973402,82.09917,7.986258,-1.058371,3.9237509
188,1.264240026473999,-11.523101806640625,75.63250732421875,-6.699966150720229,-15.407698603132607,-78.24906148358738,3.0959754,10.390529,4.0087404,42.29842,-30.464907,2.2154732,-55.08225,-19.78905,8.168778,145.39084,-5.321234,0.09112139,-8.904601,9.694102,28.38909,-26.588835,17.970016,-17.669504,-58.45195,22.013168,0.18847503,12.676116,23.31953,-15.430296,25.070774,82.057884,7.703819,-0.74472684,4.183011
189,1.3284450769424438,-11.62813663482666,75.28800201416016,-6.933302746606114,-15.377435552153358,-77.78030978122422,2.441472,10.562253,3.6134584,43.76376,-31.49199,2.3273928,-55.948967,-19.869135,8.16965,145.82256,-5.868593,0.3725931,-8.870861,9.858774,28.372458,-28.848091,18.814468,-18.33045,-59.59741,21.763964,-1.05795,12.521758,24.319174,-14.870368,24.53642,82.24375,7.8186526,-1.38207,4.0690765
190,1.3248971700668335,-11.755050659179688,75.12300872802734,-7.01529865626324,-15.217097749206058,-77.52141219216308,1.6089808,10.649223,3.2801173,45.20914,-31.7768,2.2870078,-56.84008,-20.020014,8.130009,145.73734,-6.1584234,0.33910826,-8.677059,9.897651,28.127037,-30.935053,19.694735,-18.95211,-60.000134,21.255018,-2.5441675,12.560426,25.2242,-14.390212,24.122744,82.39812,8.144534,-2.6879377,3.6667793
191,1.2909431457519531,-11.924034118652344,75.11471557617188,-6.977364408116635,-15.010470407850818,-77.54413516281174,0.9901067,10.693339,3.1965168,46.176407,-31.597878,2.1994102,-57.59716,-20.218071,8.03005,145.21243,-6.305664,0.123341806,-8.383305,9.83851,27.769272,-32.37261,20.55442,-19.580496,-60.000134,20.766708,-3.9084384,12.5915165,25.805029,-14.012035,23.94158,82.58691,8.529309,-4.1453032,3.1785653
192,1.284593105316162,-12.134584426879883,75.23101806640625,-6.859261388389749,-14.836398973493896,-77.92362996520366,0.97922593,10.736784,3.5536978,46.19722,-31.227951,2.1535602,-58.0594,-20.444126,7.8268456,144.32303,-6.4315243,-0.15419531,-8.05347,9.755454,27.423763,-32.647675,21.390108,-20.03781,-60.000134,20.379091,-4.7961373,12.400593,25.841303,-13.79209,24.051569,82.8504,8.819848,-5.2329288,2.7947865
193,1.3480660915374756,-12.385366439819336,75.44586944580078,-6.628562467180726,-14.724949252938154,-78.87414281655538,1.8627541,10.805593,4.608951,44.91059,-30.763952,2.1621702,-58.20329,-20.63367,7.463313,143.06795,-6.634861,-0.51887405,-7.5742497,9.688046,27.065218,-31.519173,22.06063,-20.395538,-60.000134,20.453562,-5.035265,11.734766,25.205927,-13.803949,24.640211,83.242355,9.01958,-5.7976108,2.6491437
194,1.4550144672393799,-12.66125774383545,75.7561264038086,-6.303118574036581,-14.618559052212554,-80.31651787787139,3.3666708,10.882354,6.206003,42.648712,-30.057783,2.1634622,-58.070656,-20.793953,6.882942,141.40936,-6.8619013,-1.0214334,-6.9609594,9.628504,26.662123,-29.153439,22.723116,-20.507742,-60.000134,20.723604,-4.8307276,10.767662,24.020575,-14.014685,25.619827,83.735,9.196472,-6.122978,2.6097512
195,1.5786895751953125,-12.94542407989502,76.1693115234375,-5.973294258709143,-14.471965894028807,-81.8757302417176,5.0457287,10.930079,7.90899,39.981106,-29.01149,2.1313024,-57.610588,-21.072206,6.031325,139.37192,-7.0110273,-1.639896,-6.579885,9.476632,26.297842,-25.797657,23.564861,-20.288807,-60.000134,20.856247,-4.443088,10.001592,22.507082,-14.465658,26.818638,84.11115,9.356525,-6.3098526,2.536219
196,1.688027024269104,-13.234665870666504,76.68779754638672,-5.71907230208109,-14.247098538589396,-83.16290947228269,6.4477916,10.929995,9.275923,37.483955,-27.52656,2.0462964,-56.774868,-21.59358,4.922127,136.98618,-6.971647,-2.3104367,-6.420191,9.4125805,26.012627,-21.932089,24.193686,-20.009756,-60.000134,20.580053,-4.0678563,9.66277,20.93094,-14.902733,27.5146,84.31484,9.386417,-6.515884,2.1337295
197,1.7743538618087769,-13.52812671661377,77.29191589355469,-5.586100227530229,-13.915330013672053,-84.09040785019391,7.5695944,10.88217,10.20681,35.044594,-25.512459,1.89346,-55.44489,-22.440523,3.4992895,134.23436,-6.7811885,-3.0450375,-6.7606573,9.279064,25.845427,-17.368721,24.954285,-19.609114,-59.997135,19.51995,-3.7739534,10.140889,19.309582,-15.526349,27.888172,84.20465,9.314825,-6.670845,1.3826469
198,1.835544228553772,-13.824532508850098,77.95511627197266,-5.514450651075346,-13.510095888249376,-84.8668527841708,8.598685,10.777328,10.935338,32.474922,-23.054747,1.6897994,-53.62458,-23.472647,1.7583632,131.1212,-6.5058975,-3.8328438,-7.1724443,9.064667,25.528873,-12.999989,25.49653,-19.532902,-58.776608,17.889318,-3.5702846,11.215473,17.674458,-16.116304,27.950533,83.97067,9.117326,-6.7332025,0.42030585
199,1.8519582748413086,-14.118517875671387,78.6645736694336,-5.422600149453044,-13.077915880114505,-85.53430441711092,9.360173,10.610032,11.50569,30.232424,-20.313267,1.4847922,-51.499744,-24.485435,-0.12289779,127.69903,-6.0547557,-4.554607,-7.5227733,8.80238,25.157412,-8.863879,25.825645,-19.601622,-56.804653,16.18607,-3.383315,12.513668,16.094334,-16.640327,27.719206,83.43183,8.885283,-6.816353,-0.6505775
200,1.8265551328659058,-14.412620544433594,79.40774536132812,-5.2316164567010714,-12.662300828685787,-86.1248119697298,9.691126,10.413144,11.954156,28.749132,-17.438303,1.3282725,-49.286106,-25.30697,-1.9373982,124.00925,-5.3297586,-5.1061897,-7.6554866,8.449541,24.736578,-5.3885803,25.920439,-19.694836,-53.978165,14.845861,-3.1707282,13.759604,14.701312,-17.046116,27.241854,82.38162,8.699458,-7.0094748,-1.6846962
201,1.755151391029358,-14.703017234802246,80.17433166503906,-4.89019388648265,-12.239389672434566,-86.58245010675822,9.551426,10.15223,12.259258,27.994894,-14.244444,1.1775995,-47.0396,-26.069107,-3.616665,120.03285,-4.1895037,-5.5924773,-7.5832667,7.9281306,24.225456,-2.5474398,25.754007,-19.791372,-50.21979,13.916799,-2.8211002,14.959866,13.509956,-17.293669,26.479847,80.69879,8.669008,-7.3466535,-2.6725771
202,1.648075819015503,-14.965688705444336,80.94379425048828,-4.442778340528875,-11.78939844496683,-86.8996095010224,9.033907,9.844832,12.394533,27.728216,-10.692133,0.9733784,-44.66128,-26.815723,-5.237498,115.766945,-2.73938,-6.023033,-7.38255,7.2761226,23.610794,-0.14999108,25.324785,-19.962517,-45.58277,13.179036,-2.382834,16.209518,12.43253,-17.387344,25.40876,78.56915,8.720379,-7.7593617,-3.7036977
203,1.5260995626449585,-15.19902229309082,81.69243621826172,-3.9633354522968807,-11.36197132969509,-87.17495024529451,8.188245,9.610621,12.3985615,28.041,-7.1287675,0.7389684,-42.170017,-27.261993,-6.767471,111.248795,-1.2292889,-6.1573706,-7.0322347,6.617894,22.968058,1.7149534,24.663555,-20.140352,-40.22063,12.675396,-2.0247135,17.37779,11.428967,-17.358404,24.126621,76.21625,8.654444,-8.175388,-4.7806735
204,1.4064687490463257,-15.405543327331543,82.40454864501953,-3.5300110981382113,-11.011000711089153,-87.50764913441235,7.070017,9.553298,12.324698,29.044958,-3.905011,0.5485332,-39.602573,-27.119337,-8.131667,106.49476,0.10316175,-5.755577,-6.523917,6.071215,22.39158,2.9992507,23.821932,-20.22013,-34.318356,12.4601345,-1.9097159,18.344791,10.447362,-17.253874,22.754412,73.845436,8.274387,-8.520161,-5.9023066
205,1.276813268661499,-15.577628135681152,83.06116485595703,-3.1057834511969244,-10.745322698550702,-87.93238158207039,5.6547003,9.539377,12.0231495,30.671612,-0.8593556,0.36345527,-37.025272,-26.32547,-9.167631,101.423706,1.2104503,-4.720699,-5.822358,5.6198916,21.915722,3.7057343,22.820602,-20.083244,-27.831995,12.778829,-2.030337,18.98035,9.4974165,-17.097967,21.271564,71.44208,7.429125,-8.753734,-7.132557
206,1.1351368427276611,-15.734739303588867,83.67559051513672,-2.6530276539281212,-10.548011930523156,-88.38264243233732,3.9662461,9.49286,11.516279,32.81581,2.1615999,0.12924263,-34.42755,-25.098274,-9.819344,96.03273,2.20143,-3.2169666,-4.987669,5.186457,21.52323,3.9766264,21.66911,-19.73196,-20.807735,13.534824,-2.3045337,19.394567,8.582549,-16.896858,19.660866,68.893745,6.262729,-8.906606,-8.444622
207,0.9912598729133606,-15.899941444396973,84.25575256347656,-2.2468053789745466,-10.439910756579089,-88.81239951819323,2.117705,9.642044,11.140699,35.614964,4.7618284,0.018875156,-31.728088,-23.573538,-10.206905,90.42971,3.0811799,-1.4402236,-4.1463313,4.8022413,21.238756,3.9716537,20.423357,-19.234032,-13.548286,14.278972,-2.786217,19.84611,7.642597,-16.674501,18.058504,66.23911,5.02427,-9.018637,-9.699028
208,0.8460536599159241,-16.060400009155273,84.7777099609375,-1.9777915891163043,-10.441170376163459,-89.1837170216447,0.2057986,10.304902,11.249714,39.27905,6.5138125,0.3140671,-28.853794,-21.839153,-10.469655,84.70518,3.8800795,0.44105086,-3.4184434,4.507994,21.089802,3.8644176,19.171867,-18.652487,-6.363487,14.55695,-3.5267856,20.601141,6.630441,-16.465778,16.602808,63.49016,3.9608586,-9.144606,-10.752353
209,0.7031291127204895,-16.190820693969727,85.183349609375,-1.9220753143957694,-10.624827945528505,-89.47059426992843,-1.7297584,11.976757,12.258076,44.259354,7.067397,1.4918946,-25.62943,-19.758352,-10.658448,78.64827,4.5588737,2.572977,-2.8448539,4.359718,21.184868,3.6734138,17.978992,-17.941288,0.7609322,14.291588,-4.703369,21.858665,5.549056,-16.289032,15.328156,60.641045,3.2433476,-9.361351,-11.485708
210,0.53925621509552,-16.31544303894043,85.45925903320312,-2.014015672542104,-10.972151544675826,-89.70850870217635,-3.687126,14.607091,13.821375,50.403072,6.5849266,3.5477014,-22.134037,-17.388845,-10.64361,72.23468,5.1170373,4.902986,-2.3572383,4.319412,21.503675,3.4011505,16.871912,-17.05619,7.864357,13.7166195,-6.241911,23.439034,4.4321437,-16.14278,14.174005,57.638515,2.7117724,-9.630267,-11.991791
211,0.3510354459285736,-16.4392032623291,85.61815643310547,-2.1382790107520897,-11.355192712474071,-89.9547392072516,-5.690769,17.62393,15.148765,57.055847,5.433599,5.95366,-18.676733,-15.036309,-10.361464,65.83075,5.6844854,7.036233,-1.9057537,4.2933526,21.871443,3.1723194,15.883464,-16.079748,14.712746,12.81967,-7.822033,25.038815,3.2951128,-16.028961,13.134069,54.394333,2.1137145,-9.8305645,-12.44336
212,0.1539282351732254,-16.57723045349121,85.65233612060547,-2.173648042876144,-11.631507590964063,-90.26215649055347,-7.9017243,20.20445,15.503668,63.599876,4.1363344,7.972211,-15.581107,-12.961945,-9.7961645,59.841293,6.4079337,8.666486,-1.4450752,4.1754336,22.103724,3.095784,15.042929,-15.102647,21.085646,11.548451,-9.119543,26.361717,2.1603365,-15.947718,12.201839,50.80347,1.1995845,-9.832864,-13.010617
213,-0.04539335146546364,-16.718725204467773,85.57157897949219,-2.0778973703205463,-11.731924535019443,-90.65983400150525,-10.4756975,21.936693,14.709205,70.09564,2.6816456,9.213501,-12.946272,-11.085753,-8.807166,54.180317,7.536361,9.942097,-0.9608644,3.903885,22.11667,3.1527405,14.364739,-14.1102,27.053535,9.740835,-10.042152,27.475994,1.0561284,-15.90161,11.439838,46.77206,-0.17693172,-9.604485,-13.827401
214,-0.23728489875793457,-16.849180221557617,85.36822509765625,-1.9145303270173433,-11.730185107479391,-91.10870535495808,-13.385243,23.109715,13.135866,76.88403,0.8662554,9.961136,-10.585263,-9.304261,-7.484225,48.692287,8.942613,11.019294,-0.4861016,3.5258222,22.01311,3.302116,13.846621,-13.077572,32.72185,7.434764,-10.781035,28.477943,-0.013737851,-15.881306,10.837912,42.338387,-1.8413435,-9.194898,-14.758993
215,-0.43246251344680786,-16.97752571105957,85.0616683959961,-1.7270419419890197,-11.691135077372662,-91.55570681774954,-16.557188,23.807718,10.976824,83.75997,-0.93583095,10.387886,-8.434019,-7.7878547,-6.219513,43.7198,10.214536,11.656354,-0.0439987,3.0950675,21.878838,3.5855064,13.479503,-12.085864,37.952427,4.8541274,-11.409857,29.126598,-1.0646111,-15.863595,10.273074,37.58864,-3.5675871,-8.603754,-15.573625
216,-0.6182458400726318,-17.075786590576172,84.63904571533203,-1.560365411166834,-11.683030632674583,-91.95153891904496,-19.895052,24.16393,8.423111,90.487206,-2.332621,10.697646,-6.459319,-6.6685696,-5.429925,39.624302,10.943344,11.616255,0.35472682,2.674597,21.797005,4.0240397,13.252114,-11.2212105,42.612045,2.2206018,-11.97145,29.18565,-2.1166713,-15.822877,9.609865,32.605793,-5.143957,-7.8504057,-16.046263
217,-0.8043645024299622,-17.179567337036133,84.12972259521484,-1.4251221500017073,-11.671631738222503,-92.24843989779674,-23.47347,23.864168,5.3565335,97.08023,-3.0495334,10.757543,-4.801137,-5.993251,-5.346325,36.66271,11.308085,10.6149,0.68827397,2.2673476,21.722279,4.5795617,13.161208,-10.430262,46.688465,-0.73769313,-12.435,28.403568,-3.1110895,-15.736142,8.777663,27.264496,-6.5948606,-6.910113,-16.064632
218,-0.9939464926719666,-17.284059524536133,83.5382080078125,-1.2821135986235888,-11.632787431223997,-92.47034777942594,-27.175388,22.72275,1.9074602,103.66898,-3.3421676,10.361444,-3.4836624,-5.6386657,-5.762525,34.65415,11.363983,8.912025,0.9603341,1.8224715,21.620207,5.209304,13.20468,-9.693507,50.32956,-4.045503,-12.712937,26.975632,-4.0402126,-15.602806,7.851909,21.538183,-8.028626,-5.8012333,-15.762383
219,-1.1978322267532349,-17.377830505371094,82.89208984375,-1.124361699005755,-11.653500060081706,-92.68312426671535,-30.665878,21.237614,-1.4600229,110.15782,-3.6082432,9.721766,-2.2751644,-5.46574,-6.3950815,33.24175,10.573878,7.0968847,1.207588,1.3373485,21.591253,5.9169593,13.370711,-9.143834,53.633553,-7.094575,-12.789186,25.346743,-5.018365,-15.445667,6.916005,15.664259,-9.365181,-4.6150107,-15.291345
220,-1.389128565788269,-17.468461990356445,82.15582275390625,-0.9580254388177578,-11.82080211662381,-92.96356613524182,-33.7366,20.097973,-4.453242,116.42821,-4.2385726,9.182754,-0.92414516,-5.317823,-6.916484,32.006268,8.488985,5.7614408,1.483317,0.83919257,21.734655,6.7028465,13.641677,-8.921083,56.68685,-9.269073,-12.723346,23.963163,-6.1648235,-15.296036,6.0488853,9.88148,-10.512936,-3.4353957,-14.805812
221,-1.5809568166732788,-17.554824829101562,81.36756134033203,-0.7810006345224144,-12.138047038895381,-93.30085753582813,-36.463093,19.65435,-7.0575967,122.55223,-5.3461084,8.941203,0.7474463,-5.2135744,-7.340163,30.70621,4.5396023,5.108186,1.7851577,0.35724202,22.043331,7.5360274,14.028307,-9.102435,59.52569,-10.413542,-12.522365,22.800142,-7.47575,-15.161743,5.2608953,4.1155887,-11.321142,-2.2481885,-14.326785
222,-1.7620460987091064,-17.634071350097656,80.51092529296875,-0.5880869529107565,-12.551467065862056,-93.66247090438218,-38.937286,19.59442,-9.51601,128.5807,-6.7716208,8.846386,2.5698397,-5.2245407,-7.7947993,29.53139,-0.8206512,4.8185163,2.0930634,-0.119174175,22.458342,8.396309,14.533631,-9.600576,62.138927,-10.847351,-12.199203,21.670488,-8.899211,-15.036813,4.5200453,-1.7407837,-11.879223,-1.0215553,-13.79094
223,-1.9139121770858765,-17.718801498413086,79.60600280761719,-0.384960344612695,-13.061114344321561,-94.09544566897281,-41.062218,19.713427,-12.013609,134.33128,-8.474359,8.796588,4.270029,-5.278719,-8.142291,28.718054,-6.4814453,4.654004,2.4309766,-0.5997904,22.998472,9.308848,15.114568,-10.298659,64.52827,-10.665249,-11.873781,20.763155,-10.511931,-14.938064,3.8541722,-7.462327,-12.449113,0.18756051,-13.21967
224,-2.0276594161987305,-17.78648567199707,78.68406677246094,-0.17317109846080275,-13.676569419325178,-94.64010157610983,-42.729874,19.804243,-14.640827,139.59715,-10.378935,8.70368,5.5773444,-5.318719,-8.221813,28.557512,-11.393436,4.367143,2.8071296,-1.0855894,23.692509,10.3012905,15.70133,-11.073239,66.68773,-9.953955,-11.655341,20.273329,-12.403708,-14.896499,3.3026972,-12.801283,-13.284751,1.3177098,-12.623232
225,-2.0960919857025146,-17.815593719482422,77.77615356445312,0.04078193997378393,-14.557273221595354,-95.33394803386173,-43.760994,19.941801,-17.517769,144.41084,-12.601668,8.533737,6.593786,-5.308157,-7.9499316,29.157387,-15.5335655,3.7719564,3.221367,-1.5321915,24.695305,11.3834915,16.271109,-12.093363,68.67958,-8.245794,-11.631369,20.499239,-14.732813,-14.930212,2.926212,-17.718843,-14.554075,2.4033685,-11.971414
226,-2.1193339824676514,-17.816417694091797,76.8507080078125,0.30143691322696403,-15.63716173901491,-96.1207459462918,-44.241905,20.28607,-20.475769,148.86644,-15.178225,8.377593,7.386961,-5.3339944,-7.4368353,30.400995,-19.428911,3.00421,3.6377525,-1.9435972,25.929407,12.488729,16.830149,-13.356736,70.53712,-5.644834,-11.698945,21.261799,-17.441828,-15.034448,2.7286913,-22.321371,-16.08045,3.4481144,-11.267638
227,-2.1879115104675293,-17.858415603637695,76.10977935791016,0.6551863567994664,-16.601973636533987,-96.91539009993215,-44.56483,20.784079,-23.167253,152.83086,-17.80288,8.402861,7.673594,-5.494873,-6.802661,32.2106,-22.860777,2.305827,4.013134,-2.3875978,27.095512,13.57107,17.336649,-14.47012,72.171684,-3.091557,-11.705302,22.038088,-20.314365,-15.213237,2.6658568,-26.549904,-17.59578,4.3477654,-10.574496
228,-2.253486156463623,-17.868350982666016,75.43168640136719,1.0920085312363472,-17.1457877304693,-97.65446743850283,-45.27514,21.317648,-25.38706,156.16304,-20.037014,8.782545,7.187131,-5.8368254,-6.171309,34.480907,-25.58511,1.9278827,4.304936,-2.89829,27.899889,14.635923,17.713718,-15.027438,73.46565,-1.5183152,-11.565438,22.303947,-23.14961,-15.479066,2.6988442,-30.321714,-18.82775,5.0124025,-9.968058
229,-2.265503406524658,-17.788433074951172,74.80467987060547,1.5978186523225482,-17.13389439943531,-98.5595340001651,-46.832096,21.86999,-27.396067,158.82298,-21.470654,9.648143,5.4397197,-6.32708,-5.3493853,37.706146,-27.394419,2.0176709,4.6173735,-3.4374995,28.26761,15.780313,17.844976,-14.796551,74.27676,-1.2699902,-11.246399,21.847624,-26.230793,-15.8682995,2.8543756,-33.504406,-19.729248,5.3629656,-9.461397
230,-2.16947340965271,-17.700313568115234,74.33153533935547,2.093665073940261,-16.794702394552047,-99.64351178274015,-49.127785,22.469423,-29.424377,160.87584,-22.145126,10.927093,2.7912858,-6.8255496,-4.299943,41.69701,-28.436579,2.4164639,4.9556875,-3.8852825,28.381096,16.953032,17.690014,-14.051245,74.77317,-1.7923226,-10.813055,20.999317,-29.621576,-16.37819,3.2060075,-36.122948,-20.416052,5.4853163,-9.043821
231,-1.9729666709899902,-17.664661407470703,73.9891128540039,2.4582073817676235,-16.38929778652684,-100.57648619005583,-51.796112,22.997667,-31.302677,162.31653,-22.280537,12.394117,0.24661157,-7.213861,-3.3766387,45.357697,-29.00672,2.9052303,5.1815276,-4.1642976,28.361984,17.979311,17.331173,-13.137652,75.26302,-2.6772704,-10.369556,20.047817,-32.779972,-16.957973,3.737188,-38.326656,-20.87301,5.5403657,-8.738457
232,-1.7672297954559326,-17.702434539794922,73.76570129394531,2.612596293047626,-16.173166397429338,-101.03095904643226,-54.301487,23.34336,-32.78447,163.14322,-22.221924,13.735666,-1.2092501,-7.4517956,-2.9590409,47.61554,-29.4017,3.2512553,5.170401,-4.273544,28.34485,18.745878,16.944267,-12.363678,75.9477,-3.5302079,-10.024847,19.262026,-35.1305,-17.535595,4.3888836,-40.294205,-21.123077,5.6816034,-8.550371
233,-1.6648520231246948,-17.821916580200195,73.6521224975586,2.481771907191613,-16.28728205319849,-100.81201810639362,-56.17958,23.13584,-33.891064,163.34782,-22.209707,14.482504,-1.1292467,-7.5256243,-3.2653654,48.06237,-29.725664,3.3978236,4.8424125,-4.2677116,28.423372,19.326538,16.682446,-11.631962,76.80893,-4.4515157,-9.826445,18.602007,-36.57163,-18.094664,5.006735,-42.041172,-21.021393,5.9607067,-8.503736
234,-1.6855554580688477,-18.000898361206055,73.64743041992188,2.152499574998533,-16.59029417419102,-100.14466711718309,-57.80151,22.65242,-34.635044,162.93459,-22.040579,15.000033,-0.08165082,-7.4833903,-4.0434613,47.320293,-29.816885,3.4555683,4.3792377,-4.1956477,28.555824,19.771181,16.57054,-10.858434,77.655685,-5.6098905,-9.69189,17.925402,-37.239082,-18.606775,5.628053,-43.638077,-20.744986,6.2955933,-8.5872345
235,-1.7774567604064941,-18.19158172607422,73.77029418945312,1.722970910940798,-16.92092423051063,-99.39375396687018,-59.01198,22.20919,-34.91078,161.95009,-21.749788,15.000033,1.3967576,-7.291132,-4.9346976,45.828712,-29.539541,3.4065297,3.9192243,-4.1369863,28.6284,20.133127,16.575867,-10.1266165,78.342064,-6.6983705,-9.561626,17.361876,-37.409874,-19.157042,6.078112,-44.909798,-20.1542,6.582735,-8.625294
236,-1.8764463663101196,-18.38585662841797,74.07554626464844,1.3181031057770551,-17.12839789117917,-98.94512875174625,-59.954132,22.52719,-34.539368,160.41202,-21.325953,15.000033,2.7668028,-6.9571724,-5.5704494,44.034096,-28.756205,3.2553482,3.8707085,-3.9249902,28.604017,20.183498,16.664093,-9.873511,78.89108,-7.432393,-9.390191,17.030014,-36.651173,-19.62812,6.740929,-46.290752,-20.031446,6.797544,-8.620303
237,-1.9312660694122314,-18.595195770263672,74.5221939086914,0.965584462678938,-17.159387636353696,-98.89374349160767,-60.504955,23.89252,-33.31607,158.28381,-20.982944,15.000033,4.0110755,-6.4720287,-5.912565,41.794353,-27.45852,2.9442973,4.200591,-3.6596754,28.380331,19.990435,16.820364,-10.143301,79.31155,-7.6536303,-9.148705,17.030512,-35.162548,-20.073008,7.4931507,-47.614437,-20.24814,6.8816833,-8.388654
238,-1.9500550031661987,-18.810808181762695,75.07862854003906,0.6981374378457622,-17.074254791045597,-98.98682709521675,-60.607857,26.030394,-31.144056,155.57451,-20.71433,15.000033,5.3393526,-5.969444,-6.1596103,38.99574,-25.739674,2.543274,4.757621,-3.4213827,28.005108,19.531425,17.054865,-10.8312435,79.67411,-7.555133,-8.883537,17.273453,-32.875896,-20.505638,8.323042,-48.91393,-20.739626,6.882131,-8.03565
239,-1.9309152364730835,-19.040403366088867,75.73900604248047,0.5956918375180839,-16.888328371315076,-99.0968858759177,-60.2799,28.498762,-28.17813,152.3601,-20.178278,15.000033,6.5306816,-5.635392,-6.337174,36.167202,-23.623978,2.2148156,5.3927927,-3.3192523,27.562418,18.87874,17.3333,-11.662814,79.89606,-7.357937,-8.679449,17.618103,-29.983343,-20.916557,9.109391,-50.021107,-21.183771,6.8261013,-7.7223463
240,-1.871869683265686,-19.268653869628906,76.49095916748047,0.6661129014222655,-16.60225686502912,-99.09062081509973,-59.630074,30.829853,-24.723429,148.71933,-19.029995,15.000033,7.3356476,-5.6028957,-6.4783587,33.847744,-21.124743,2.0729418,5.9229975,-3.3950193,27.11903,18.12658,17.598465,-12.342497,79.877785,-7.275616,-8.622583,17.934734,-26.70929,-21.270214,9.77086,-50.739826,-21.258472,6.744721,-7.608187
