unveil-humanoid-operators/unveil-humanoid-operators.github.io/feature-analysis-animation/data/feature_matrix_instances/weight_root_translate_peak_vel_walking_A256_walk_arc_cw_loop_R_001__A256.csv
Frame,root_translateX,root_translateY,root_translateZ,root_rotateX,root_rotateY,root_rotateZ,left_hip_pitch_joint_dof,left_hip_roll_joint_dof,left_hip_yaw_joint_dof,left_knee_joint_dof,left_ankle_pitch_joint_dof,left_ankle_roll_joint_dof,right_hip_pitch_joint_dof,right_hip_roll_joint_dof,right_hip_yaw_joint_dof,right_knee_joint_dof,right_ankle_pitch_joint_dof,right_ankle_roll_joint_dof,waist_yaw_joint_dof,waist_roll_joint_dof,waist_pitch_joint_dof,left_shoulder_pitch_joint_dof,left_shoulder_roll_joint_dof,left_shoulder_yaw_joint_dof,left_elbow_joint_dof,left_wrist_roll_joint_dof,left_wrist_pitch_joint_dof,left_wrist_yaw_joint_dof,right_shoulder_pitch_joint_dof,right_shoulder_roll_joint_dof,right_shoulder_yaw_joint_dof,right_elbow_joint_dof,right_wrist_roll_joint_dof,right_wrist_pitch_joint_dof,right_wrist_yaw_joint_dof
0,1.3434191942214966,1.2040413618087769,75.77589416503906,-0.8026984418752331,2.3587027365399535,-134.72657030495915,-22.602999,4.3987055,7.923451,10.52217,4.590465,-6.419984,8.538909,6.091473,6.912061,17.340164,-22.204586,-3.4757106,-0.32440737,3.309924,4.949492,12.346477,22.37381,-45.82233,54.500572,8.215358,-1.4763038,-0.86110777,0.35717836,-22.449566,38.848186,51.15463,-0.8449198,-1.1905344,-2.2566936
1,1.1078338623046875,0.762261688709259,75.80840301513672,-0.4842313386864494,2.3983901692329876,-135.1423962969654,-22.558174,4.240191,8.486709,11.442467,4.1066356,-5.9232526,8.310285,5.6371894,7.301412,18.574688,-22.455637,-3.3340945,-0.37185442,2.992855,4.73478,12.485592,22.39351,-45.752834,54.82387,8.362823,-1.4220266,-0.97671443,0.6924191,-22.449982,38.816036,51.605446,-0.5872289,-1.1038692,-2.1871107
2,0.8829977512359619,0.31981363892555237,75.85090637207031,-0.1565636381098515,2.4451508006431375,-135.57023914459754,-22.506897,4.0872407,9.064079,12.348125,3.6442118,-5.411478,8.102743,5.1727757,7.7066917,19.75675,-22.704372,-3.1900012,-0.4179518,2.6644738,4.5134487,12.636977,22.413094,-45.666668,55.14406,8.516523,-1.3709238,-1.0962124,1.0204833,-22.439137,38.797325,52.06274,-0.33814335,-1.0077314,-2.1209176
3,0.6566059589385986,-0.12556710839271545,75.8916244506836,0.1641687872144025,2.475305732783421,-135.99043440035226,-22.40834,3.9379594,9.628293,13.201422,3.163036,-4.923734,7.912782,4.722762,8.11209,20.942541,-22.909718,-3.0416,-0.46996212,2.3406453,4.3116307,12.769612,22.427574,-45.59432,55.4787,8.662767,-1.3156449,-1.211544,1.3226911,-22.420277,38.77998,52.551697,-0.06862619,-0.9306991,-2.0474958
4,0.4136841297149658,-0.5668928623199463,75.93172454833984,0.4641984564763308,2.4646101378762917,-136.38363068127666,-22.223652,3.7857325,10.152424,13.9658375,2.6250882,-4.5006037,7.7370114,4.309222,8.501937,22.188793,-23.031645,-2.886841,-0.55022454,2.0276496,4.154526,12.901817,22.446066,-45.504963,55.80418,8.834314,-1.2478584,-1.3210353,1.6453711,-22.377525,38.687847,53.050716,0.16195779,-0.9019045,-1.9523672
5,0.179372638463974,-1.0052392482757568,75.979248046875,0.7396814827060061,2.4018598546627135,-136.73530973813286,-21.946459,3.6213596,10.619436,14.646604,1.9950845,-4.1662493,7.594199,3.9357696,8.869092,23.48598,-23.066273,-2.7254956,-0.64918506,1.7237364,4.0560255,12.963514,22.472364,-45.483433,56.17828,8.949774,-1.1684153,-1.413388,1.9812728,-22.301945,38.48982,53.589935,0.37323052,-0.9560733,-1.8160352
6,-0.057405367493629456,-1.4397865533828735,76.02935791015625,0.9975392076886336,2.301568019257687,-137.05757912656074,-21.605726,3.4442809,11.044832,15.269956,1.300146,-3.8957272,7.4765515,3.590422,9.220962,24.816454,-23.035038,-2.5601287,-0.75528735,1.4322101,4.003717,12.99708,22.497871,-45.480106,56.567436,9.065332,-1.0801854,-1.493628,2.297313,-22.222343,38.250317,54.166054,0.6192021,-1.0672501,-1.6490333
7,-0.29497089982032776,-1.8627943992614746,76.08129119873047,1.2413371296490328,2.1787747802034767,-137.37135257564935,-21.200232,3.2591324,11.451917,15.800662,0.60579264,-3.6564493,7.340012,3.272108,9.564526,26.22546,-22.933855,-2.3920212,-0.86165786,1.1554761,3.9803562,13.005854,22.524773,-45.489502,56.943356,9.199409,-0.9807723,-1.5781865,2.6060727,-22.138412,37.98826,54.736866,0.8592275,-1.1774321,-1.4870217
8,-0.5305992960929871,-2.2899069786071777,76.13910675048828,1.4740117774689387,2.048454496578355,-137.69737976380972,-20.728119,3.0733433,11.863224,16.206038,-0.025333967,-3.4161735,7.1442223,2.981666,9.907226,27.753164,-22.756226,-2.2208893,-0.96026844,0.900394,3.9729202,13.0021105,22.54762,-45.491005,57.271103,9.38958,-0.8680949,-1.6826601,2.8976054,-22.066969,37.75219,55.265583,1.0912079,-1.2276622,-1.3654693
9,-0.7618698477745056,-2.726483106613159,76.19970703125,1.6831697540298827,1.906422231840893,-138.03364880131517,-20.183928,2.901634,12.267758,16.488415,-0.5899166,-3.1786122,6.8905034,2.739769,10.244562,29.416203,-22.502382,-2.0693576,-1.0548401,0.6864383,3.9901567,12.971642,22.562557,-45.500156,57.56197,9.635107,-0.7393403,-1.8160155,3.1675432,-22.017162,37.55023,55.751534,1.3346335,-1.1895127,-1.3110502
10,-0.9954231977462769,-3.1545302867889404,76.26533508300781,1.8711355579995743,1.7474153332275795,-138.37075334426888,-19.572063,2.735535,12.6577425,16.664785,-1.118888,-2.9569232,6.59816,2.5417218,10.574067,31.188835,-22.17569,-1.9286503,-1.1568465,0.5094192,4.035297,12.940652,22.566715,-45.48537,57.81089,9.951775,-0.5969087,-1.9687945,3.4169421,-21.996288,37.378128,56.203587,1.6008056,-1.09793,-1.2992612
11,-1.2151167392730713,-3.572868824005127,76.32760620117188,2.063705368408107,1.5850651340581465,-138.71834755345333,-18.904427,2.548971,13.059448,16.724878,-1.6011082,-2.734207,6.249013,2.3523524,10.906405,33.06149,-21.77715,-1.7489226,-1.2422186,0.33249617,4.0933046,12.868845,22.56737,-45.493893,58.03017,10.276503,-0.4475866,-2.127817,3.6460192,-21.9873,37.21758,56.618374,1.8494674,-0.99171025,-1.2885098
12,-1.4359935522079468,-3.9943690299987793,76.39054870605469,2.28665211328215,1.43372872459923,-139.08590158318924,-18.192942,2.3158553,13.497803,16.658379,-2.0256827,-2.494112,5.8274755,2.1382883,11.253841,35.019936,-21.309238,-1.4791287,-1.309352,0.123359494,4.145055,12.771267,22.566599,-45.504314,58.19806,10.598759,-0.29759866,-2.2801197,3.8429468,-21.991907,37.094994,56.989635,2.0650647,-0.90742284,-1.2385087
13,-1.648499846458435,-4.41146993637085,76.44999694824219,2.546594932227841,1.2966302894147292,-139.4826220175564,-17.425253,2.0261455,13.984957,16.435026,-2.3817804,-2.2213445,5.3236427,1.8960907,11.625115,37.084515,-20.76399,-1.0942868,-1.3608392,-0.12233706,4.189789,12.645334,22.56589,-45.524048,58.30419,10.9193735,-0.12916864,-2.4312532,3.994713,-22.009842,37.023952,57.327244,2.247645,-0.8497308,-1.1233314
14,-1.861037254333496,-4.831212043762207,76.50862121582031,2.8276605067548117,1.1670499515093706,-139.90098714590533,-16.601364,1.6954762,14.501781,16.072737,-2.681424,-1.9311587,4.7508726,1.6519096,12.013786,39.254898,-20.14648,-0.61829823,-1.3810827,-0.38581944,4.240841,12.483447,22.564083,-45.55843,58.357918,11.258739,0.054602467,-2.5861957,4.132769,-22.060865,36.979153,57.598007,2.4135695,-0.7967406,-0.9691797
15,-2.0704405307769775,-5.24555778503418,76.56096649169922,3.1223059113931617,1.0443076416769643,-140.3243039446806,-15.747675,1.3342446,15.025371,15.621709,-2.9391594,-1.6519632,4.1231513,1.4176341,12.40922,41.498245,-19.484173,-0.07665303,-1.4120874,-0.6591068,4.291771,12.309692,22.564737,-45.579823,58.358322,11.572723,0.21641457,-2.7290015,4.261123,-22.144743,36.965786,57.794838,2.539167,-0.7551122,-0.8100465
16,-2.288884162902832,-5.649674415588379,76.60574340820312,3.4222943134118107,0.9273365843284336,-140.73652126641824,-14.895578,0.95517725,15.5353365,15.140922,-3.1766155,-1.4096795,3.4572515,1.1985962,12.799708,43.77216,-18.79588,0.5014843,-1.4600827,-0.94170505,4.342003,12.113166,22.57671,-45.596863,58.323242,11.809393,0.31980857,-2.8434808,4.3816175,-22.252787,36.978382,57.912548,2.623041,-0.72947633,-0.6825209
17,-2.50068998336792,-6.050136089324951,76.64323425292969,3.735107220100478,0.8173665462773697,-141.13817041332553,-14.043417,0.54808563,16.03709,14.621762,-3.385516,-1.2089018,2.7420497,0.99257606,13.204658,46.110714,-18.102713,1.1086692,-1.5246316,-1.2479718,4.380796,11.908588,22.60724,-45.599762,58.238842,11.975562,0.3491898,-2.9403563,4.4963026,-22.36617,37.018513,57.95465,2.626875,-0.7254641,-0.5901962
18,-2.723432779312134,-6.436148166656494,76.67218780517578,4.059565820512002,0.7147658840169869,-141.53609630154793,-13.177893,0.11071773,16.53687,14.037099,-3.5568078,-1.0348786,1.9738524,0.8036784,13.623671,48.525696,-17.39205,1.7606714,-1.5983089,-1.5757458,4.413103,11.6911125,22.660069,-45.59745,58.098923,12.084033,0.32697803,-3.0233572,4.5870843,-22.48463,37.09599,57.940956,2.5752635,-0.74032956,-0.51696736
19,-2.9441757202148438,-6.8170905113220215,76.69705200195312,4.37660586606044,0.6172654329218105,-141.92333302266047,-12.322045,-0.33096763,17.017176,13.436041,-3.7124007,-0.8828788,1.1689547,0.64214265,14.018252,50.962246,-16.639069,2.454952,-1.6855323,-1.9033871,4.4496017,11.456366,22.735435,-45.589012,57.91926,12.126404,0.27444965,-3.0660365,4.677181,-22.60289,37.16396,57.86773,2.4878159,-0.7670388,-0.47035375
20,-3.1631083488464355,-7.19163703918457,76.71485137939453,4.667989211117321,0.5224058507773465,-142.29395450241253,-11.494019,-0.7508531,17.462376,12.861474,-3.8718634,-0.74877924,0.34265298,0.5127054,14.352546,53.36379,-15.814995,3.1835148,-1.7830536,-2.2104836,4.503774,11.191407,22.831808,-45.58074,57.72105,12.0931835,0.21283183,-3.0414238,4.7485027,-22.716509,37.21016,57.76678,2.428289,-0.799747,-0.45872054
21,-3.3813469409942627,-7.5563764572143555,76.72834014892578,4.93696362250666,0.43091596412403765,-142.6472018403153,-10.697081,-1.1493356,17.87498,12.317875,-4.036428,-0.6346088,-0.51999104,0.4151824,14.63547,55.766212,-14.922418,3.936801,-1.8955003,-2.5031018,4.5726647,10.894838,22.949547,-45.580227,57.501995,11.960473,0.14065586,-2.9294474,4.8220625,-22.819405,37.210777,57.616222,2.3613174,-0.83957624,-0.49343297
22,-3.6005351543426514,-7.910439968109131,76.74262237548828,5.190497855926909,0.34347925351219966,-142.98631964324645,-9.9231825,-1.536524,18.263105,11.786242,-4.197431,-0.540289,-1.427295,0.34359977,14.8832855,58.194977,-13.972916,4.709651,-2.0195193,-2.7898936,4.6508603,10.565561,23.089802,-45.59184,57.258217,11.734138,0.048430663,-2.7488034,4.884208,-22.910631,37.188046,57.426247,2.281675,-0.8895532,-0.56796235
23,-3.8171238899230957,-8.256579399108887,76.7551040649414,5.41803081480146,0.25758250206401945,-143.31055536491348,-9.168045,-1.9033493,18.620726,11.2669325,-4.356393,-0.45985058,-2.3543284,0.28614634,15.073364,60.57274,-12.951868,5.4980803,-2.1508515,-3.0546353,4.7417674,10.214344,23.248478,-45.58993,57.000156,11.46864,-0.05465082,-2.5318193,4.9360247,-22.990204,37.139008,57.216793,2.2223246,-0.9445321,-0.6622807
24,-4.0428924560546875,-8.592045783996582,76.76641082763672,5.609457375391554,0.170506296263776,-143.61912188596406,-8.426449,-2.2403598,18.942028,10.760466,-4.5154524,-0.38830802,-3.2783613,0.23176327,15.182154,62.82545,-11.840216,6.297951,-2.2857296,-3.2804797,4.849495,9.845955,23.418121,-45.55357,56.74415,11.212981,-0.15925358,-2.309798,4.9759474,-23.058674,37.065132,57.008984,2.2216296,-0.9994356,-0.75643307
25,-4.259432315826416,-8.927654266357422,76.7828140258789,5.760860926518099,0.08259863116685379,-143.91014528553512,-7.6943035,-2.5443356,19.221344,10.258602,-4.671202,-0.33042845,-4.1958714,0.17876258,15.208042,64.94397,-10.476879,7.2216773,-2.4288352,-3.4625254,4.97318,9.454556,23.593529,-45.482822,56.502106,10.958863,-0.27623442,-2.0771945,5.0096354,-23.117107,36.952106,56.797024,2.27929,-1.0548259,-0.8444357
26,-4.480408668518066,-9.26147747039795,76.80338287353516,5.878736391977429,-0.005185956337609744,-144.1843941758455,-6.9682918,-2.8205001,19.464273,9.752487,-4.820202,-0.2884399,-5.1229305,0.1318898,15.1669655,66.97277,-8.919452,8.223257,-2.5788226,-3.6087224,5.11197,9.033418,23.773045,-45.390373,56.27096,10.686462,-0.40697038,-1.8211997,5.0229993,-23.166237,36.817596,56.582924,2.3948627,-1.1129372,-0.93710595
27,-4.699243068695068,-9.593881607055664,76.82628631591797,5.97014111440746,-0.0950203253638962,-144.44649775520543,-6.2600255,-3.0670848,19.68361,9.2757015,-4.975616,-0.2573008,-6.0658584,0.071285106,15.054338,68.90865,-7.477964,9.061837,-2.7330773,-3.7256103,5.2623215,8.593936,23.953268,-45.266235,56.04901,10.42616,-0.5269165,-1.562224,5.044172,-23.205423,36.65165,56.357723,2.5292127,-1.170843,-1.0391408
28,-4.9149489402771,-9.918254852294922,76.85053253173828,6.04240677390744,-0.18911671182862466,-144.70098228975658,-5.566758,-3.2894547,19.891615,8.829433,-5.1390834,-0.22930774,-7.0299997,-0.03754899,14.855408,70.73791,-6.4613004,9.49572,-2.8808064,-3.8190792,5.42555,8.145001,24.130228,-45.10068,55.83182,10.215388,-0.61086196,-1.3200943,5.0498548,-23.235567,36.492188,56.151768,2.7034633,-1.2263678,-1.155796
29,-5.129390716552734,-10.23455810546875,76.8731689453125,6.099642097303357,-0.2929071846508432,-144.95128648925254,-4.8881526,-3.4907444,20.093204,8.423583,-5.3155165,-0.19998622,-8.022055,-0.2315452,14.545286,72.48037,-5.961617,9.393986,-3.024384,-3.892499,5.6042185,7.6888733,24.300137,-44.88811,55.62799,10.065687,-0.6492052,-1.0945369,5.062707,-23.25548,36.31676,55.95394,2.9159265,-1.2861793,-1.3000044
30,-5.3391804695129395,-10.546896934509277,76.89141845703125,6.139205309646755,-0.40415815924485565,-145.19434507770802,-4.222067,-3.6713648,20.282824,8.046167,-5.498879,-0.17246485,-9.036419,-0.5074665,14.133019,74.12719,-5.8136253,8.901697,-3.1658897,-3.9433887,5.798883,7.208495,24.46185,-44.644978,55.447044,9.948171,-0.65607107,-0.8759822,5.062318,-23.265846,36.13686,55.772163,3.1820889,-1.3497722,-1.4654095
31,-5.5516276359558105,-10.849984169006348,76.90929412841797,6.158968662198395,-0.5130862991278552,-145.42421512619248,-3.5771468,-3.8278346,20.457493,7.694454,-5.6874843,-0.14904341,-10.05711,-0.82876366,13.654037,75.61923,-5.9415016,8.202363,-3.3084528,-3.96983,5.9962654,6.724176,24.614178,-44.353214,55.268406,9.870655,-0.64166385,-0.6709881,5.0626597,-23.266617,35.951202,55.589672,3.4354029,-1.4021254,-1.6270704
32,-5.758875370025635,-11.153097152709961,76.92484283447266,6.155674612561847,-0.6102132126372837,-145.63512982151548,-2.9648974,-3.9547937,20.6146,7.3734503,-5.884342,-0.13239458,-11.069077,-1.155623,13.141417,76.89972,-6.265634,7.481447,-3.4552588,-3.9695628,6.186569,6.234515,24.75792,-44.017494,55.08367,9.815286,-0.6165751,-0.48587534,5.049106,-23.25967,35.784153,55.410385,3.6366777,-1.4284706,-1.7608947
33,-5.972297191619873,-11.452898979187012,76.94407653808594,6.1288553809410535,-0.6964332545747387,-145.82656659288614,-2.3917136,-4.048272,20.757746,7.0997353,-6.0985804,-0.12288645,-12.067383,-1.491564,12.587172,77.94741,-6.916234,6.7132916,-3.6081018,-3.9406466,6.3706465,5.749362,24.892399,-43.61537,54.891914,9.803608,-0.57263297,-0.3303258,5.02649,-23.24473,35.627857,55.228104,3.770877,-1.412715,-1.8641744
34,-6.188167572021484,-11.746347427368164,76.96708679199219,6.0788871747669555,-0.7768919365232687,-146.00063724159435,-1.9515615,-4.0705304,20.89416,7.0981417,-6.4482408,-0.12015995,-13.051295,-1.8350449,11.985028,78.79392,-7.891431,5.8474307,-3.7674809,-3.8839912,6.5536227,5.2623863,25.017519,-43.15511,54.699898,9.831399,-0.5076005,-0.1984788,5.0007524,-23.221216,35.474514,55.04162,3.8582704,-1.3663942,-1.9488785
35,-6.397672653198242,-12.03801441192627,76.98921203613281,6.006850789537633,-0.8480627552552338,-146.15636696989407,-1.5292708,-4.069628,21.00971,7.0999155,-6.790676,-0.120723546,-14.015476,-2.147181,11.363104,79.4598,-8.902351,5.0245132,-3.9314628,-3.8036344,6.730503,4.7705655,25.135025,-42.664288,54.497005,9.8697195,-0.44086763,-0.07378725,4.9682283,-23.19123,35.33836,54.855877,3.907686,-1.3153158,-2.0121024
36,-6.604167938232422,-12.323476791381836,77.0130386352539,5.913647700459531,-0.9055418028140068,-146.29346075838052,-1.1302826,-4.045522,21.098394,7.106285,-7.124597,-0.12405828,-14.960823,-2.4028609,10.740289,79.96661,-9.654907,4.369369,-4.096773,-3.7025506,6.8958282,4.2800946,25.247133,-42.160534,54.263794,9.900454,-0.39125732,0.060116027,4.929893,-23.157564,35.231487,54.6711,3.926445,-1.2850984,-2.0507061
37,-6.825319766998291,-12.597439765930176,77.04240417480469,5.79197899404208,-0.9469678903445509,-146.40845093512897,-0.7573631,-3.9904532,21.152742,7.1154757,-7.44503,-0.12906049,-15.895152,-2.6203778,10.073484,80.30868,-10.038564,3.9192908,-4.2633586,-3.5741785,7.0480304,3.794307,25.354263,-41.630463,53.999157,9.943966,-0.35979593,0.19705793,4.8915415,-23.121788,35.151855,54.48335,3.9017794,-1.2843742,-2.056963
38,-7.036027431488037,-12.880420684814453,77.06998443603516,5.643902570985417,-0.9753369769308005,-146.50319226151333,-0.40799862,-3.9062178,21.178812,7.1300225,-7.755584,-0.13655101,-16.815475,-2.8098428,9.358613,80.47879,-10.215629,3.601775,-4.4328423,-3.4188952,7.1921024,3.3017488,25.457277,-41.079082,53.715096,9.991566,-0.33776638,0.3318421,4.847102,-23.084127,35.10029,54.2938,3.8416512,-1.2985691,-2.0346472
39,-7.248637676239014,-13.162726402282715,77.09918975830078,5.486672602123349,-0.9941464931482312,-146.58375504742335,-0.073759474,-3.8119535,21.190475,7.145621,-8.062202,-0.14846174,-17.709589,-2.937149,8.669885,80.49001,-10.294561,3.3693619,-4.603154,-3.2540953,7.327869,2.818342,25.557602,-40.518417,53.391743,10.019149,-0.32915652,0.4814062,4.8023086,-23.046217,35.06906,54.098328,3.757952,-1.3188806,-1.997515
40,-7.467873573303223,-13.436783790588379,77.12408447265625,5.336993831709303,-1.0067135782883692,-146.6567381542721,0.2522328,-3.7262936,21.201378,7.159946,-8.371813,-0.16682057,-18.569538,-2.964754,8.084444,80.35789,-10.385704,3.177463,-4.7707334,-3.096018,7.457162,2.3457012,25.658197,-39.976734,53.016617,9.986193,-0.33808988,0.66299254,4.748455,-23.010918,35.06452,53.90106,3.6804216,-1.3363245,-1.9590316
41,-7.687239170074463,-13.705660820007324,77.14242553710938,5.1963306284484965,-1.0118993111916181,-146.71993501030136,0.56770986,-3.6509352,21.210587,7.1730704,-8.68475,-0.19202287,-19.402891,-2.8618016,7.634324,80.081505,-10.4849615,3.0135045,-4.936576,-2.945929,7.579397,1.8910086,25.760178,-39.443684,52.579025,9.884255,-0.36606774,0.8878302,4.6924276,-22.980417,35.086792,53.68964,3.606157,-1.3509053,-1.9180948
42,-7.9061994552612305,-13.975231170654297,77.15911102294922,5.056878566139293,-1.0082642773825414,-146.77144143281492,0.87095964,-3.5774245,21.212708,7.1839275,-8.996795,-0.22308852,-20.215405,-2.6546142,7.2750297,79.65215,-10.541467,2.902185,-5.1009398,-2.7961109,7.695023,1.4468666,25.86426,-38.91578,52.088055,9.7280035,-0.4111624,1.1442384,4.6307907,-22.955864,35.138454,53.46788,3.5308774,-1.3664913,-1.8686985
43,-8.133794784545898,-14.246615409851074,77.16576385498047,4.921498419371256,-0.9987303405305575,-146.81798159391272,1.1667564,-3.5070488,21.213955,7.1956716,-9.31188,-0.25998124,-20.99485,-2.3913314,6.9707475,79.07307,-10.59608,2.8556406,-5.2600093,-2.6489103,7.8044596,1.0161728,25.97176,-38.407867,51.5458,9.536363,-0.47219256,1.4145495,4.5697837,-22.935963,35.202873,53.241787,3.451571,-1.3793955,-1.8168654
44,-8.35905933380127,-14.511373519897461,77.17369842529297,4.793423811391743,-0.9861523207337269,-146.86625519302925,1.4630945,-3.4424245,21.22072,7.2039742,-9.629989,-0.30271,-21.728083,-2.1194682,6.685951,78.34595,-10.688811,2.8860264,-5.4079437,-2.5072188,7.908587,0.59763765,26.084517,-37.939987,50.9569,9.3244,-0.54798126,1.6813465,4.510995,-22.918236,35.26553,53.021683,3.3694878,-1.3862119,-1.7687937
45,-8.596078872680664,-14.776738166809082,77.1769027709961,4.673914168003153,-0.9737711546005835,-146.91538932206944,1.7643942,-3.3856783,21.232872,7.2074323,-9.953256,-0.35005,-22.40286,-1.8229125,6.443088,77.45205,-10.84622,3.036642,-5.541826,-2.3735337,8.01066,0.19109818,26.20446,-37.514584,50.310547,9.086781,-0.6407978,1.9455253,4.4532185,-22.901117,35.32893,52.805447,3.2854974,-1.380557,-1.7199899
46,-8.830267906188965,-15.038381576538086,77.17486572265625,4.561500785520596,-0.9591307890877149,-146.96230860311735,2.065687,-3.335033,21.247276,7.208021,-10.280784,-0.4026131,-23.030167,-1.49071,6.253152,76.39557,-11.042043,3.283281,-5.66451,-2.2468514,8.108794,-0.20322472,26.332472,-37.12422,49.60734,8.816596,-0.7505966,2.214172,4.394837,-22.88471,35.397476,52.591793,3.1977875,-1.3663708,-1.6693218
47,-9.071392059326172,-15.29535961151123,77.17298889160156,4.453550213855491,-0.9363755511380004,-147.01067647876314,2.3593228,-3.286188,21.265852,7.21014,-10.610169,-0.46314475,-23.628098,-1.1760253,6.0615153,75.210396,-11.236914,3.5387704,-5.777311,-2.1231997,8.196605,-0.58035403,26.467617,-36.769283,48.864143,8.532556,-0.8723314,2.479228,4.3366237,-22.86778,35.46175,52.391556,3.107774,-1.355511,-1.627936
48,-9.316215515136719,-15.554157257080078,77.17191314697266,4.347221541695293,-0.8999535146545475,-147.06457965443406,2.6410067,-3.235344,21.290552,7.212496,-10.936271,-0.53439236,-24.214775,-0.92824775,5.812894,73.93203,-11.391394,3.71962,-5.8808684,-1.9979343,8.26767,-0.94178605,26.607943,-36.4554,48.10361,8.248834,-1.0009477,2.7332833,4.2801094,-22.848276,35.510925,52.215874,3.0155313,-1.359776,-1.607138
49,-9.563471794128418,-15.815361976623535,77.1673583984375,4.242590951928569,-0.8435103451584095,-147.12585069201867,2.9045517,-3.182241,21.322853,7.214053,-11.256892,-0.62084657,-24.798857,-0.7416311,5.517266,72.55891,-11.50453,3.8076394,-5.972796,-1.8706833,8.314611,-1.2880934,26.75275,-36.188442,47.322876,7.9412293,-1.1438398,2.9785757,4.2225494,-22.825336,35.544838,52.07098,2.9107974,-1.3848077,-1.6096085
50,-9.811896324157715,-16.065929412841797,77.15264892578125,4.140545536588978,-0.7717036901036066,-147.19201023726714,3.1510208,-3.127249,21.361998,7.221739,-11.578176,-0.71996003,-25.367527,-0.5961099,5.1974235,71.07492,-11.594672,3.8470256,-6.053178,-1.7431844,8.342237,-1.6206176,26.901882,-35.965935,46.515736,7.6098976,-1.3010991,3.2178311,4.166489,-22.798262,35.565792,51.949043,2.7944257,-1.4234289,-1.6296461
51,-10.074920654296875,-16.320409774780273,77.13812255859375,4.039718786706786,-0.6948993955711226,-147.26073570056906,3.3953698,-3.070804,21.404943,7.229267,-11.899163,-0.82377785,-25.90548,-0.5167884,4.814677,69.49477,-11.650484,3.849281,-6.124916,-1.6149588,8.362231,-1.9376851,27.052795,-35.777092,45.69688,7.3119845,-1.455693,3.4445612,4.109939,-22.76692,35.573334,51.851562,2.6905124,-1.468854,-1.666177
52,-10.335783958435059,-16.57797622680664,77.12220764160156,3.9388062296082453,-0.6237016033218885,-147.32971695519146,3.6514761,-3.0132341,21.449085,7.23265,-12.219927,-0.92420435,-26.395494,-0.5250413,4.329738,67.83052,-11.659515,3.8306758,-6.1920953,-1.4852142,8.3854065,-2.236363,27.201212,-35.609116,44.882366,7.1058254,-1.590484,3.652729,4.061015,-22.730734,35.559326,51.77219,2.61389,-1.5140183,-1.717968
53,-10.603246688842773,-16.832244873046875,77.10208892822266,3.835515155523848,-0.5603898468273678,-147.40201736488427,3.9216626,-2.9508293,21.496319,7.2341423,-12.542519,-1.0216438,-26.834509,-0.62827986,3.726163,66.08054,-11.618546,3.7956161,-6.2526298,-1.3506948,8.414391,-2.5192368,27.344381,-35.467148,44.07394,7.0171914,-1.6994704,3.8501108,4.0135126,-22.689934,35.528023,51.71876,2.582459,-1.5647794,-1.7965332
54,-10.874159812927246,-17.08768081665039,77.08259582519531,3.730875292507239,-0.4996599535723096,-147.47778385972603,4.2002416,-2.8848786,21.547102,7.232784,-12.865319,-1.119459,-27.225668,-0.8079911,3.0238187,64.23702,-11.533578,3.7414315,-6.3056755,-1.2117338,8.442901,-2.7889342,27.481249,-35.355392,43.268005,7.011809,-1.7916791,4.0378017,3.9683158,-22.644253,35.480278,51.690006,2.5818017,-1.6222597,-1.8986858
55,-11.151898384094238,-17.345348358154297,77.06248474121094,3.628257610141854,-0.4401189868334302,-147.54951059935007,4.483266,-2.8199458,21.596489,7.2310977,-13.188822,-1.2143155,-27.564505,-1.0449626,2.236861,62.30979,-11.408831,3.673534,-6.355404,-1.0730084,8.469197,-3.0433757,27.609526,-35.260155,42.472614,7.060073,-1.8722305,4.2004547,3.926964,-22.594152,35.41442,51.680416,2.592505,-1.6727917,-2.0010872
56,-11.426955223083496,-17.59868049621582,77.03887939453125,3.5309377034805416,-0.38048336986828474,-147.609836352013,4.768296,-2.7619545,21.639473,7.2283626,-13.512018,-1.3026843,-27.84692,-1.3218157,1.3805327,60.306652,-11.247327,3.5956662,-6.4063206,-0.93926954,8.491719,-3.2835925,27.726562,-35.169304,41.698334,7.130504,-1.9463936,4.3226657,3.886915,-22.541302,35.331944,51.687725,2.5990987,-1.7027458,-2.0807552
57,-11.712003707885742,-17.855321884155273,77.01618194580078,3.4399804753529035,-0.32350184117167197,-147.65683655220676,5.0594344,-2.7127051,21.676714,7.2232723,-13.834136,-1.3800917,-28.067635,-1.651597,0.44446793,58.22171,-11.068146,3.4892385,-6.460576,-0.8107674,8.511259,-3.5105317,27.830624,-35.082214,40.945854,7.211392,-2.0205529,4.391127,3.852504,-22.48569,35.224026,51.711075,2.5873961,-1.7011852,-2.12966
58,-11.998507499694824,-18.11261558532715,76.98744201660156,3.353619672628658,-0.2688159790253958,-147.69455926040402,5.355969,-2.6692035,21.709906,7.2178335,-14.156657,-1.449434,-28.226452,-2.0323718,-0.57698053,56.053524,-10.864567,3.3622677,-6.515459,-0.685255,8.527804,-3.7237887,27.920885,-35.003708,40.212322,7.3226385,-2.0903354,4.4174767,3.8246505,-22.427856,35.0912,51.75104,2.5674295,-1.6777798,-2.1608493
59,-12.2921724319458,-18.370332717895508,76.95552062988281,3.269948499273485,-0.21027986418311428,-147.7239920532132,5.650205,-2.6278367,21.736094,7.210701,-14.478718,-1.5188468,-28.328901,-2.426852,-1.6608108,53.81253,-10.597539,3.2553585,-6.571844,-0.5523363,8.536943,-3.9389715,27.973425,-34.93386,39.52836,7.4769173,-2.1469603,4.425499,3.807435,-22.386074,34.954845,51.790245,2.564514,-1.6479042,-2.1816072
60,-12.590028762817383,-18.627988815307617,76.92263793945312,3.1888857069600802,-0.14202391253579413,-147.74644800555805,5.9329967,-2.5864239,21.75226,7.205619,-14.802785,-1.5963966,-28.382544,-2.802008,-2.7813606,51.509228,-10.229763,3.2068388,-6.6195273,-0.43030956,8.542767,-4.134088,28.039743,-34.87186,38.85092,7.6762137,-2.1769788,4.4328423,3.783878,-22.325876,34.81629,51.84454,2.5847478,-1.6314965,-2.2001522
61,-12.895125389099121,-18.881628036499023,76.89148712158203,3.107314439276025,-0.061912398496199034,-147.7634413023817,6.2028785,-2.5410833,21.75862,7.199598,-15.128776,-1.6880108,-28.38315,-3.1597314,-3.9550853,49.128334,-9.714134,3.2381465,-6.670696,-0.3004196,8.540675,-4.3170147,28.080345,-34.803955,38.21087,7.9540052,-2.174013,4.445973,3.7565305,-22.279278,34.698105,51.899334,2.6714416,-1.6332103,-2.216836
62,-13.198854446411133,-19.13518524169922,76.85287475585938,3.0266555641542143,0.026502268325888784,-147.77363070294774,6.4640994,-2.4945376,21.756025,7.1933074,-15.456579,-1.788244,-28.327198,-3.5119145,-5.187726,46.66588,-9.081106,3.3244047,-6.725189,-0.16426106,8.532293,-4.4910755,28.097744,-34.736942,37.606083,8.293185,-2.1456819,4.4540596,3.738768,-22.24912,34.585102,51.945076,2.800884,-1.6426377,-2.2274957
63,-13.512272834777832,-19.386940002441406,76.81092071533203,2.9532718469084593,0.1208825516979659,-147.77357349650208,6.7180967,-2.453212,21.743296,7.1885414,-15.783235,-1.8883339,-28.225315,-3.843539,-6.436472,44.14896,-8.40166,3.431686,-6.774662,-0.037347704,8.520594,-4.65576,28.10847,-34.678707,37.026424,8.651054,-2.1052403,4.454282,3.718811,-22.216782,34.47313,51.998917,2.92236,-1.6529652,-2.2340217
64,-13.824849128723145,-19.644899368286133,76.76311492919922,2.8922722997798354,0.21887318992577523,-147.7594138957956,6.9686246,-2.4245625,21.718218,7.1843715,-16.105867,-1.9791927,-28.090342,-4.1420393,-7.658581,41.60543,-7.7474003,3.524921,-6.829861,0.075852916,8.499309,-4.809395,28.108469,-34.633873,36.481937,8.978476,-2.0672708,4.4504538,3.7037945,-22.198221,34.390675,52.046463,3.0036507,-1.6536256,-2.2416298
65,-14.140358924865723,-19.893064498901367,76.71379089355469,2.8477463663537117,0.3216722731917989,-147.7259793037344,7.211251,-2.4137888,21.675087,7.182602,-16.421026,-2.0516646,-27.92263,-4.421158,-8.868243,39.029774,-7.117923,3.5902162,-6.8813467,0.16913468,8.476247,-4.9610486,28.100475,-34.600307,35.963825,9.283309,-2.0303276,4.432912,3.6882281,-22.176641,34.306686,52.09797,3.007963,-1.6410881,-2.249226
66,-14.464542388916016,-20.14271354675293,76.65925598144531,2.8169860749440776,0.42953523227147317,-147.67554136033195,7.4462814,-2.4173024,21.615547,7.182734,-16.730999,-2.1125758,-27.715267,-4.6854744,-10.078673,36.404663,-6.4783893,3.6450033,-6.939954,0.24600998,8.444038,-5.0997887,28.087252,-34.578777,35.472404,9.574228,-1.9884187,4.408735,3.6738677,-22.163017,34.248184,52.14873,2.9803758,-1.6201847,-2.2586393
67,-14.797067642211914,-20.390289306640625,76.60274505615234,2.796096612001568,0.5374327520507195,-147.61682936853177,7.6836133,-2.4280593,21.54955,7.1831355,-17.041967,-2.1768382,-27.472448,-4.9123335,-11.244019,33.743744,-5.851401,3.6994877,-6.990174,0.31111175,8.409588,-5.2390456,28.056541,-34.572292,35.02832,9.85184,-1.9503796,4.3807807,3.6622658,-22.147331,34.189472,52.206795,2.9205568,-1.5989896,-2.2619386
68,-15.13475227355957,-20.635915756225586,76.53266906738281,2.7819292174543575,0.6404906337429772,-147.55710521546385,7.9332747,-2.4403572,21.485779,7.180306,-17.358631,-2.2590163,-27.196596,-5.0813394,-12.318129,31.055056,-5.257016,3.7631676,-7.039843,0.36601344,8.3739805,-5.360301,28.023123,-34.58088,34.621147,10.091089,-1.9222087,4.3598766,3.6474793,-22.139322,34.163246,52.267998,2.8708227,-1.5838144,-2.257218
69,-15.482686042785645,-20.879505157470703,76.45903015136719,2.7812068668774454,0.7369653577352556,-147.496546263552,8.198523,-2.461875,21.427656,7.172715,-17.683918,-2.362341,-26.878265,-5.191885,-13.308424,28.304914,-4.707662,3.851841,-7.0840235,0.40376315,8.338208,-5.4654365,27.9803,-34.600796,34.25502,10.299256,-1.906783,4.3451815,3.6375337,-22.136724,34.15851,52.328228,2.8179367,-1.5782561,-2.238538
70,-15.83530044555664,-21.116945266723633,76.3780746459961,2.7973753600517597,0.8270502563716774,-147.42761764564386,8.475406,-2.4979205,21.365694,7.1636147,-18.015484,-2.477985,-26.512474,-5.26501,-14.231394,25.48506,-4.1828785,3.9507565,-7.1304827,0.4216412,8.302782,-5.558782,27.9292,-34.633606,33.928276,10.477433,-1.899299,4.3335185,3.6286438,-22.141104,34.17737,52.389126,2.7571802,-1.5775892,-2.2099428
71,-16.189626693725586,-21.358951568603516,76.2914810180664,2.823026761676572,0.9082370995989887,-147.34562181896422,8.766004,-2.539998,21.290155,7.1519246,-18.347822,-2.6023684,-26.110666,-5.3117294,-15.055297,22.646338,-3.655266,4.0256386,-7.185097,0.42793027,8.2696705,-5.641546,27.866627,-34.681923,33.648045,10.627733,-1.8997622,4.324969,3.622088,-22.153238,34.212204,52.451733,2.698249,-1.5780455,-2.1780741
72,-16.562137603759766,-21.597278594970703,76.20733642578125,2.8495511342548836,0.9790158034329091,-147.24711441337251,9.070282,-2.5775847,21.191994,7.1401896,-18.677309,-2.732278,-25.690784,-5.340298,-15.749049,19.851774,-3.1019475,4.0459504,-7.255111,0.42730454,8.245108,-5.700553,27.81244,-34.742565,33.394905,10.747038,-1.9062692,4.3177285,3.6125267,-22.168077,34.25579,52.518894,2.6491733,-1.5759519,-2.1489003
73,-16.93597984313965,-21.830570220947266,76.11555480957031,2.8773340112562544,1.0387149422757893,-147.12803010143693,9.388352,-2.611929,21.062761,7.128241,-19.004993,-2.8690126,-25.252514,-5.3370786,-16.289753,17.07422,-2.5047097,4.0172696,-7.344549,0.42103374,8.232762,-5.7335415,27.765854,-34.81247,33.16076,10.831337,-1.919762,4.312198,3.5931783,-22.184694,34.311237,52.596455,2.6143909,-1.569505,-2.120272
74,-17.310184478759766,-22.066265106201172,76.02186584472656,2.914546616609679,1.0861170440785295,-146.98672343487638,9.721243,-2.652137,20.9044,7.1148763,-19.33141,-3.0123398,-24.788557,-5.3145647,-16.700232,14.297608,-1.8798754,3.951708,-7.449565,0.39770558,8.221517,-5.7714705,27.708971,-34.9117,32.995895,10.875608,-1.9472574,4.3123155,3.5791173,-22.20716,34.388256,52.67564,2.5997286,-1.560645,-2.0912395
75,-17.701618194580078,-22.29863166809082,75.9259033203125,2.961350778875834,1.119998584809008,-146.82844526913325,10.071286,-2.696491,20.728512,7.102869,-19.655865,-3.157258,-24.299345,-5.3010993,-17.020779,11.583514,-1.2541817,3.8352787,-7.565972,0.37038225,8.212122,-5.8129086,27.619164,-35.036354,32.903988,10.90324,-1.9772918,4.3157673,3.5790505,-22.244278,34.46203,52.749596,2.5838122,-1.5509213,-2.0674834
76,-18.10544204711914,-22.524456024169922,75.8302993774414,3.0123134167683867,1.1428958199292263,-146.66372014855878,10.436123,-2.736408,20.552355,7.0928564,-19.973892,-3.3003647,-23.77444,-5.3023324,-17.294115,8.95511,-0.63389766,3.6581671,-7.6931415,0.32817096,8.211515,-5.8120823,27.559748,-35.163677,32.819485,10.918797,-2.0034146,4.312424,3.5732675,-22.271154,34.525852,52.83197,2.5522022,-1.5452964,-2.0555613
77,-18.507476806640625,-22.747501373291016,75.7343521118164,3.0531347426035036,1.1623236728189685,-146.50250999448087,10.809039,-2.7531087,20.389673,7.0858083,-20.286022,-3.4408457,-23.461767,-5.3648,-17.456863,6.892126,-0.28402212,3.3396251,-7.806628,0.29822898,8.203603,-5.8186502,27.476131,-35.332367,32.81438,10.923663,-2.0284677,4.314487,3.5866418,-22.308405,34.57545,52.90805,2.5051162,-1.5464517,-2.065933
78,-18.916091918945312,-22.970861434936523,75.637451171875,3.0788366405433725,1.1818405533395846,-146.3481379953586,11.186143,-2.7419674,20.240353,7.0822473,-20.594292,-3.5833352,-24.001318,-5.667747,-17.440468,6.786795,-0.9389879,2.926919,-7.9255805,0.2713975,8.200523,-5.7716165,27.430008,-35.49173,32.80335,10.913752,-2.0529385,4.3108172,3.5825326,-22.330408,34.62746,53.001873,2.4369009,-1.5540534,-2.0921698
79,-19.33997344970703,-23.195972442626953,75.53485107421875,3.0990084311694215,1.1979420973098913,-146.20014731147066,11.569844,-2.717014,20.099709,7.0838203,-20.898561,-3.7320082,-24.467487,-5.9291377,-17.430172,6.703457,-1.5621521,2.588185,-8.020053,0.2516615,8.186983,-5.741561,27.358778,-35.69985,32.8791,10.884534,-2.075108,4.310747,3.6044886,-22.361979,34.65758,53.086033,2.3762548,-1.5583547,-2.117619
80,-19.760408401489258,-23.418855667114258,75.42900848388672,3.1277967712066213,1.204124787169407,-146.0534943897533,11.966153,-2.6975284,19.958538,7.08976,-21.196543,-3.8906727,-24.806082,-6.1672263,-17.524208,6.6475525,-2.1327446,2.4963553,-8.124599,0.2187621,8.177956,-5.661781,27.304075,-35.885998,32.96758,10.854221,-2.090497,4.2948575,3.6130776,-22.386238,34.679657,53.18565,2.330095,-1.5536761,-2.1241302
81,-20.18683624267578,-23.637834548950195,75.31216430664062,3.2014000512557006,1.1816408211305314,-145.88818813760787,12.392198,-2.7272909,19.795366,7.10096,-21.493269,-4.0516725,-24.980461,-6.4409366,-17.773714,6.619461,-2.7410104,2.8297153,-8.243107,0.13710852,8.173336,-5.567948,27.243368,-36.08483,33.112995,10.809075,-2.0959778,4.265472,3.6407518,-22.412474,34.674507,53.285164,2.3036585,-1.5365475,-2.1010861
82,-20.617801666259766,-23.857181549072266,75.19409942626953,3.3028233713718347,1.1395926689865314,-145.71299589553635,12.8392935,-2.7838752,19.62109,7.1176624,-21.787764,-4.2161946,-25.025686,-6.7313423,-18.12003,6.613498,-3.3516047,3.4519083,-8.367809,0.025228666,8.171212,-5.4554157,27.176878,-36.293526,33.308075,10.753557,-2.0942106,4.22542,3.6775286,-22.440996,34.649357,53.38977,2.2917109,-1.5112811,-2.059235
83,-21.050447463989258,-24.0743465423584,75.07591247558594,3.366399286975194,1.1132484597375387,-145.56710095782879,13.273386,-2.7885466,19.47812,7.1401815,-22.07072,-4.400748,-24.985357,-6.944851,-18.489567,6.61858,-3.7582765,4.052074,-8.460566,-0.045643378,8.156258,-5.3287573,27.103691,-36.513763,33.553505,10.695078,-2.0916562,4.18307,3.7178917,-22.471615,34.60925,53.48983,2.2857687,-1.4800456,-2.0151184
84,-21.46958351135254,-24.296483993530273,74.96797943115234,3.3256932873950116,1.1376774104301555,-145.49014353787933,13.658366,-2.6615367,19.411247,7.175904,-22.338076,-4.6222515,-24.90587,-6.986512,-18.800879,6.6300282,-3.7724025,4.312599,-8.487143,-0.0049410956,8.115165,-5.184738,27.030745,-36.74172,33.83888,10.64038,-2.0942569,4.1458626,3.7371733,-22.50198,34.571404,53.59349,2.2849228,-1.4457572,-1.9857699
85,-21.900836944580078,-24.51645851135254,74.88111877441406,3.146010492369896,1.234619152964077,-145.50508097673827,13.971189,-2.3637831,19.446117,7.2246475,-22.59861,-4.8889303,-24.781239,-6.7984495,-18.996851,6.648575,-3.2510834,4.1319118,-8.412375,0.18913713,8.037482,-5.0499454,26.939682,-36.9957,34.187717,10.590296,-2.1051064,4.119121,3.7465742,-22.538187,34.5165,53.681316,2.2841353,-1.3977222,-1.9738783
86,-22.326908111572266,-24.719755172729492,74.82414245605469,2.864369057611561,1.3791764122912598,-145.5886040079071,14.238203,-1.9409945,19.559336,7.284601,-22.852308,-5.192079,-24.59198,-6.443341,-19.132504,6.679313,-2.3353336,3.67393,-8.263929,0.49641028,7.933441,-4.917454,26.828125,-37.268124,34.600323,10.543469,-2.1207242,4.0972576,3.7489276,-22.580692,34.447327,53.760803,2.2867994,-1.3381704,-1.971143
87,-22.76357650756836,-24.92458724975586,74.7783203125,2.526012667662499,1.5351446241860094,-145.70755993581403,14.503669,-1.447045,19.719086,7.349912,-23.075195,-5.5221515,-24.358816,-6.00679,-19.294094,6.717774,-1.266832,3.0214343,-8.075932,0.8654872,7.8170495,-4.7811418,26.696224,-37.561657,35.08243,10.498848,-2.1377685,4.0782175,3.7558384,-22.628939,34.37643,53.842007,2.2976983,-1.287898,-1.9759568
88,-23.223772048950195,-25.131919860839844,74.72491455078125,2.17780713329955,1.6674043865472377,-145.82876387383374,14.808274,-0.93668014,19.892366,7.4167056,-23.243433,-5.8689303,-24.102255,-5.574226,-19.56457,6.760433,-0.28987232,2.2559752,-7.8894343,1.2388606,7.704004,-4.611706,26.564157,-37.864407,35.611336,10.457244,-2.1522722,4.0580964,3.771653,-22.674982,34.32202,53.939598,2.3189507,-1.2682457,-1.98739
89,-23.695016860961914,-25.34676170349121,74.67790985107422,1.80911707433218,1.7757144473677917,-145.96047566095606,15.157949,-0.3987119,20.102434,7.4827213,-23.366133,-6.239257,-23.822226,-5.1491103,-20.030912,6.8099775,0.5387966,1.2929499,-7.6979384,1.6285657,7.596897,-4.404615,26.437637,-38.181896,36.17949,10.432273,-2.1636858,4.043964,3.7855413,-22.719002,34.297863,54.065403,2.3523262,-1.2939374,-2.0103345
90,-24.180458068847656,-25.55471420288086,74.64680480957031,1.4061266022538437,1.8703809781226088,-146.108353958852,15.5364,0.18344454,20.350529,7.553238,-23.451338,-6.63444,-23.811014,-4.816864,-20.606833,7.559295,0.9785038,0.12754326,-7.47091,2.061573,7.484291,-4.221222,26.260597,-38.55246,36.857777,10.418587,-2.1753073,4.040773,3.8206937,-22.779,34.27347,54.196163,2.401022,-1.3492448,-2.041962
91,-24.675329208374023,-25.760889053344727,74.62849426269531,1.0111864241621522,1.9368206851558933,-146.23841218399878,15.949529,0.7643081,20.574667,7.630828,-23.473663,-7.0359592,-24.253315,-4.6886425,-21.137222,9.426893,0.8265021,-1.0430225,-7.265323,2.4774818,7.3755827,-4.0050793,26.083809,-38.921085,37.58493,10.389374,-2.184288,4.025205,3.884567,-22.833387,34.240414,54.321957,2.4470584,-1.4130689,-2.0736575
92,-25.174591064453125,-25.96851348876953,74.60840606689453,0.6620242948329258,1.964116534833636,-146.3200259852574,16.40126,1.3037069,20.716248,7.715592,-23.407503,-7.425917,-24.559782,-4.554511,-21.529165,11.066334,0.8190306,-2.033641,-7.091842,2.8296304,7.2746077,-3.7691731,25.911404,-39.296677,38.36755,10.311333,-2.1886048,3.9837046,3.9688623,-22.873308,34.192234,54.454193,2.5222547,-1.4644299,-2.0953417
93,-25.706499099731445,-26.16771697998047,74.5879898071289,0.36481188319202745,1.9475361583909319,-146.33498824289995,16.894142,1.8055288,20.749653,7.8109426,-23.262724,-7.801175,-24.755754,-4.416501,-21.716627,12.523421,1.0505856,-2.769912,-6.9642515,3.1051536,7.1733007,-3.5116286,25.749096,-39.687527,39.21805,10.153426,-2.193601,3.9077904,4.111871,-22.888039,34.094627,54.57047,2.6058083,-1.5013844,-2.1025388
94,-26.24858856201172,-26.371562957763672,74.57230377197266,0.09582578176910624,1.8963277410640393,-146.30291084144645,17.422125,2.294162,20.710724,7.915343,-23.047167,-8.17135,-24.870777,-4.271414,-21.783785,13.870039,1.435676,-3.3634567,-6.8661375,3.3310838,7.07185,-3.2304711,25.598793,-40.095623,40.127514,9.938127,-2.197301,3.8071358,4.2888813,-22.874466,33.968414,54.692173,2.7022283,-1.5349859,-2.1018815
95,-26.79397964477539,-26.570999145507812,74.56378936767578,-0.1534100823609479,1.8227453049203783,-146.25220926221564,17.945292,2.7760053,20.63244,8.0864935,-22.764671,-8.538201,-24.92801,-4.123423,-21.800821,15.154768,1.7256846,-3.8981829,-6.784207,3.5229812,6.9773974,-2.9152675,25.457571,-40.4934,41.068222,9.718785,-2.187866,3.6928034,4.4779134,-22.835344,33.828213,54.832882,2.7885764,-1.5622339,-2.0998433
96,-27.344209671020508,-26.751174926757812,74.5713119506836,-0.39200643897559684,1.7399533349675573,-146.2103986912238,17.900715,3.4571552,20.51237,9.559118,-23.04188,-8.906286,-24.948683,-3.9768262,-21.83626,16.422087,1.672501,-4.455647,-6.699215,3.6994455,6.900954,-2.56403,25.319538,-40.858913,42.014256,9.548884,-2.1538045,3.5765772,4.609562,-22.779623,33.72868,55.03985,2.893845,-1.5805494,-2.1031024
97,-27.90166664123535,-26.940277099609375,74.59420013427734,-0.6396343650574269,1.6529122502894373,-146.1718759598976,17.839437,4.1485085,20.363436,11.074207,-23.224623,-9.28,-24.95559,-3.8211017,-21.90422,17.733536,1.1147256,-5.0774555,-6.6211476,3.8856158,6.8383527,-2.1637099,25.177687,-41.184223,42.968124,9.457756,-2.0909908,3.4687674,4.7013674,-22.714027,33.66632,55.30625,3.0091367,-1.5891138,-2.1174603
98,-28.45064353942871,-27.125614166259766,74.6246109008789,-0.8940774062163188,1.5584173958527439,-146.12693911145848,17.752136,4.8599625,20.172928,12.658885,-23.33394,-9.654327,-24.931892,-3.6465664,-21.961834,19.042397,0.21428075,-5.7089243,-6.5588307,4.077129,6.7806334,-1.7213175,25.029892,-41.480595,43.94853,9.410855,-2.0065627,3.3607774,4.8057175,-22.639786,33.598927,55.5886,3.100777,-1.5883301,-2.1371076
99,-29.001008987426758,-27.313753128051758,74.67060089111328,-1.1301009125152033,1.4554598118591586,-146.09894244566863,17.618214,5.56161,19.97187,14.354479,-23.35742,-10.007438,-24.84009,-3.456701,-21.99276,20.232029,-0.7833714,-6.285967,-6.4849277,4.246632,6.7360215,-1.2543507,24.877874,-41.745903,44.939453,9.38032,-1.9060699,3.2358334,4.8682933,-22.55832,33.55359,55.90674,3.2009678,-1.578188,-2.152031
100,-29.54316520690918,-27.5047607421875,74.7263412475586,-1.3217442877086074,1.3424341793888426,-146.11120573965206,17.429611,6.217904,19.79242,16.179258,-23.275742,-10.318067,-24.64294,-3.2535317,-21.989649,21.182325,-1.6317225,-6.7474246,-6.388787,4.3638453,6.705583,-0.7627625,24.726257,-41.961346,45.921482,9.339788,-1.7949873,3.0758066,4.9172735,-22.467255,33.491837,56.216183,3.2522604,-1.5573965,-2.1516216
101,-30.075443267822266,-27.688026428222656,74.79010009765625,-1.4521680679093043,1.2155918006254165,-146.1810592936605,17.200079,6.7995405,19.65102,18.127907,-23.080738,-10.590778,-24.333765,-3.0361242,-21.943579,21.863716,-2.279792,-7.0634155,-6.2567267,4.40971,6.7002306,-0.24232581,24.577654,-42.111088,46.900272,9.265471,-1.673054,2.8856683,4.9291515,-22.363667,33.412624,56.545116,3.2676075,-1.5290607,-2.1239967
102,-30.606380462646484,-27.856618881225586,74.86097717285156,-1.5396270184294893,1.0781422695728133,-146.29449724626792,16.931469,7.3339877,19.528368,20.189472,-22.783144,-10.829829,-23.94017,-2.798869,-21.863615,22.349,-2.85496,-7.2706423,-6.1014094,4.4044075,6.71235,0.31534043,24.432833,-42.201168,47.876755,9.178978,-1.5377318,2.6715255,4.925929,-22.246262,33.310783,56.883743,3.2362866,-1.4925207,-2.0777903
103,-31.144020080566406,-28.03289222717285,74.9393081665039,-1.609815961469844,0.9389225846866897,-146.42644245788733,16.59007,7.8708534,19.402256,22.393497,-22.391186,-11.016362,-23.469385,-2.536964,-21.776697,22.65775,-3.3713315,-7.410112,-5.934606,4.376983,6.7267075,0.8882852,24.296495,-42.27096,48.829765,9.110256,-1.3910483,2.4190173,4.8972554,-22.119432,33.22858,57.212013,3.181154,-1.442502,-2.0339465
104,-31.67831802368164,-28.18651580810547,75.0208969116211,-1.6901106941760193,0.8071810419423933,-146.55030907754139,16.143476,8.458096,19.249434,24.763195,-21.909834,-11.135158,-22.92923,-2.2440321,-21.710848,22.8089,-3.8431292,-7.5234265,-5.7762876,4.358579,6.7259836,1.4554479,24.176176,-42.359837,49.738537,9.082163,-1.2352946,2.1129632,4.8714085,-21.988924,33.17714,57.476994,3.0856988,-1.3728232,-2.0123203
105,-32.21366882324219,-28.355363845825195,75.11153411865234,-1.7757477485294033,0.6825462556016252,-146.6665301399294,15.592903,9.087812,19.079857,27.3054,-21.300543,-11.193459,-22.309444,-1.919952,-21.66562,22.783451,-4.272304,-7.613183,-5.6256332,4.340853,6.7104034,2.022202,24.078508,-42.465385,50.59938,9.088506,-1.0645957,1.7406205,4.8440523,-21.857079,33.165813,57.671757,2.9325771,-1.2629238,-2.0274196
106,-32.75243377685547,-28.503725051879883,75.20616912841797,-1.8548233739876332,0.5613129545499288,-146.78703001521666,14.957898,9.733302,18.900898,29.99349,-20.563732,-11.199947,-21.612726,-1.5662805,-21.628946,22.58189,-4.653234,-7.6632295,-5.4761014,4.3112354,6.689263,2.6011362,24.005766,-42.567856,51.412754,9.119298,-0.8800195,1.3121034,4.815635,-21.723585,33.17853,57.80869,2.7256935,-1.1218927,-2.0643723
107,-33.29085159301758,-28.66082191467285,75.3056411743164,-1.9459171773605974,0.44788018442236294,-146.90232754753956,14.246401,10.407319,18.686815,32.76876,-19.757559,-11.146199,-20.861252,-1.1784451,-21.609842,22.240788,-4.982533,-7.6860056,-5.3304687,4.2981415,6.665787,3.185149,23.964396,-42.68077,52.148415,9.198217,-0.6944297,0.84570634,4.790223,-21.613241,33.221916,57.87495,2.533325,-0.9874739,-2.0973876
108,-33.82286834716797,-28.812715530395508,75.4048080444336,-2.06660319856404,0.3462809472227336,-147.00292452008162,13.463284,11.122095,18.411541,35.5783,-18.940262,-11.024401,-20.076036,-0.75344294,-21.61646,21.797543,-5.2576027,-7.691672,-5.187997,4.3239784,6.633265,3.7473648,23.941051,-42.831333,52.814816,9.3459835,-0.5216742,0.36229828,4.744671,-21.51653,33.309425,57.908207,2.4238117,-0.9005027,-2.106414
109,-34.355709075927734,-28.971437454223633,75.50288391113281,-2.2251836907039744,0.26058594453037387,-147.07976643503784,12.583357,11.8898945,18.058676,38.46329,-18.11669,-10.8133335,-19.241117,-0.28313935,-21.662886,21.215464,-5.4613338,-7.6701703,-5.0529103,4.398451,6.582451,4.2810163,23.931477,-43.028584,53.421963,9.575003,-0.36809906,-0.16285717,4.6808643,-21.42647,33.44664,57.91399,2.4182084,-0.87440896,-2.0856729
110,-34.885128021240234,-29.127592086791992,75.59606170654297,-2.4081121540122594,0.18725072691660427,-147.1406158073443,11.61363,12.688643,17.64572,41.425594,-17.253393,-10.532326,-18.35154,0.22582032,-21.736496,20.487705,-5.6001205,-7.6203904,-4.9238315,4.514495,6.5278444,4.7971187,23.936989,-43.252163,53.957577,9.87648,-0.22820291,-0.73270464,4.630417,-21.385166,33.618958,57.830093,2.4837103,-0.8833447,-2.0402896
111,-35.409297943115234,-29.28087043762207,75.6860122680664,-2.5997407921307243,0.11928505293207843,-147.20101490182216,10.603811,13.481907,17.197184,44.36447,-16.357603,-10.230169,-17.445753,0.75355726,-21.80448,19.696869,-5.70445,-7.563963,-4.7895446,4.644791,6.4685764,5.2936964,23.95409,-43.50876,54.4326,10.226037,-0.09575012,-1.2876899,4.5617266,-21.357157,33.824112,57.71316,2.5919795,-0.9182767,-1.9841194
112,-35.93374252319336,-29.438030242919922,75.77018737792969,-2.785577691286928,0.04884171072332104,-147.27671386705438,9.599386,14.24105,16.737024,47.193665,-15.444386,-9.950279,-16.56167,1.2798672,-21.83534,18.927725,-5.8062716,-7.5212927,-4.642608,4.772411,6.422036,5.7736144,23.978586,-43.777786,54.83725,10.616983,0.034702227,-1.7733579,4.470429,-21.348976,34.039707,57.55956,2.7053554,-0.966372,-1.9214374
113,-36.44084930419922,-29.599428176879883,75.84568786621094,-2.968435459260202,-0.026455038630534795,-147.3706264016047,8.589174,14.973611,16.251774,49.950256,-14.56477,-9.672825,-15.704888,1.8059831,-21.823435,18.195936,-5.909755,-7.4947133,-4.478715,4.90069,6.3864374,6.232409,24.0129,-44.084145,55.16407,11.078352,0.18004574,-2.189179,4.3482003,-21.35935,34.288475,57.371735,2.8484461,-1.0353262,-1.8477107
114,-36.95069885253906,-29.751670837402344,75.91214752197266,-3.1518975116790773,-0.10272429352424577,-147.4750600197259,7.551572,15.688032,15.735172,52.67232,-13.700535,-9.383541,-14.857027,2.3363535,-21.78284,17.46384,-6.0014977,-7.4724092,-4.3013086,5.0348735,6.3587227,6.6818976,24.07838,-44.429874,55.39208,11.598799,0.33268154,-2.5620239,4.2166066,-21.404053,34.570263,57.120888,3.0321133,-1.1264813,-1.7600871
115,-37.448020935058594,-29.90900230407715,75.97410583496094,-3.32366808120097,-0.1776935105139249,-147.59129087142688,6.512212,16.366894,15.221508,55.288464,-12.770803,-9.128392,-14.019729,2.8567376,-21.712812,16.733774,-6.085482,-7.453926,-4.1139417,5.162219,6.3451457,7.125448,24.160212,-44.764038,55.544285,12.115377,0.462316,-2.8728228,4.0780144,-21.480549,34.84243,56.817745,3.2050881,-1.2209454,-1.6701396
116,-37.94256591796875,-30.058074951171875,76.03146362304688,-3.4720695280182596,-0.24907187433527134,-147.7205613030884,5.49649,16.996166,14.745162,57.727562,-11.693647,-8.950476,-13.196651,3.3526585,-21.613832,16.012564,-6.1669765,-7.4394393,-3.919807,5.266341,6.33642,7.568293,24.246725,-45.06149,55.653767,12.543176,0.54139286,-3.0968363,3.9380734,-21.57245,35.07267,56.491753,3.316577,-1.3011836,-1.5964469
117,-38.435630798339844,-30.209169387817383,76.08602905273438,-3.5998675194713203,-0.3129249510299227,-147.86079046233598,4.497787,17.610767,14.330868,60.010536,-10.38073,-8.794277,-12.388474,3.8284848,-21.490227,15.29393,-6.2427983,-7.432157,-3.7183795,5.346477,6.3283644,8.010179,24.338781,-45.325844,55.7219,12.890804,0.5556009,-3.2177246,3.788902,-21.674217,35.26566,56.154804,3.3561704,-1.3737192,-1.5308725
118,-38.920684814453125,-30.358394622802734,76.14020538330078,-3.7137969961500907,-0.3718046345832124,-148.01143329032277,3.5007877,18.217447,13.953654,62.17708,-8.902149,-8.649086,-11.5922165,4.2903733,-21.342625,14.576011,-6.310881,-7.4309955,-3.509514,5.4106,6.322403,8.447164,24.437046,-45.57054,55.742317,13.19052,0.52404195,-3.2496707,3.6273682,-21.783916,35.435287,55.802,3.3459961,-1.4450787,-1.4702982
119,-39.39969253540039,-30.51823616027832,76.19129180908203,-3.8087673218367173,-0.43249620139289596,-148.1773386390599,2.5215383,18.755999,13.573601,64.1767,-7.417018,-8.631619,-10.807569,4.7283983,-21.166512,13.874146,-6.3782287,-7.430629,-3.2929165,5.45594,6.324256,8.882622,24.538313,-45.779495,55.722702,13.399007,0.46969464,-3.2156863,3.455052,-21.898293,35.56909,55.438698,3.2985406,-1.4981618,-1.439196
120,-39.876564025878906,-30.667003631591797,76.24369049072266,-3.874849796471337,-0.5018442456625279,-148.36505529732767,1.581466,19.150375,13.152905,65.952156,-6.083418,-8.86989,-10.030378,5.1292534,-20.953857,13.198301,-6.449257,-7.425387,-3.0668697,5.47554,6.338547,9.3206835,24.63686,-45.934986,55.67262,13.4747095,0.41493353,-3.1390135,3.2780647,-22.012625,35.650852,55.06757,3.22248,-1.515608,-1.4619677
121,-40.33859634399414,-30.818696975708008,76.29598999023438,-3.9103724515296907,-0.5833840436453129,-148.57995490364544,0.7082694,19.39729,12.726738,67.4906,-4.8691225,-9.536875,-9.255176,5.4933486,-20.699913,12.542805,-6.520929,-7.4171667,-2.8267565,5.4679494,6.369606,9.75916,24.727987,-46.03575,55.598145,13.374273,0.36107373,-2.9952037,3.095083,-22.123516,35.67062,54.685963,3.0850108,-1.4750059,-1.5556895
122,-40.7971076965332,-30.97153091430664,76.3497085571289,-3.9191169445030916,-0.6728294174307664,-148.8178350661138,-0.11838891,19.51914,12.296303,68.83344,-3.7227163,-10.52963,-8.481514,5.8255334,-20.409718,11.898365,-6.590798,-7.408184,-2.5743713,5.435709,6.412258,10.196149,24.809923,-46.089207,55.499928,13.133117,0.29682824,-2.7817268,2.9042928,-22.230057,35.636356,54.297756,2.8892784,-1.391287,-1.7040894
123,-41.251365661621094,-31.124805450439453,76.4023666381836,-3.9030153313930604,-0.7649660787462553,-149.0691875490635,-0.9491794,19.48098,11.777636,70.00564,-2.7777028,-11.570707,-7.734948,6.11563,-20.095896,11.312472,-6.6802406,-7.393222,-2.3201458,5.3814836,6.4577513,10.629292,24.881508,-46.099243,55.383175,12.818387,0.2252194,-2.5545678,2.7061899,-22.332296,35.56254,53.919983,2.700399,-1.3040462,-1.8822999
124,-41.701515197753906,-31.280961990356445,76.45410919189453,-3.8641223947316345,-0.8548157765374675,-149.32437713756127,-1.8271707,19.253033,11.097626,71.021065,-2.1617115,-12.37986,-7.0321712,6.356961,-19.771282,10.814406,-6.8061357,-7.3665414,-2.0749743,5.3084383,6.497009,11.065428,24.941322,-46.059376,55.24707,12.507488,0.15056433,-2.369863,2.5102754,-22.42968,35.457027,53.561222,2.575932,-1.252736,-2.065399
125,-42.14117431640625,-31.428359985351562,76.50126647949219,-3.7992610063727343,-0.9439141459437318,-149.57846250164764,-2.767261,18.776648,10.187893,71.87323,-1.9454043,-12.863065,-6.376094,6.54339,-19.441126,10.415923,-6.9750524,-7.323973,-1.8470743,5.2076573,6.5154343,11.493336,24.96453,-45.971577,55.13553,12.192194,0.06823999,-2.2327664,2.2866733,-22.479446,35.32818,53.2909,2.5232613,-1.256141,-2.2636049
126,-42.5826416015625,-31.581554412841797,76.54967498779297,-3.7114265485352416,-1.0347041681125935,-149.83743944119726,-3.7298932,18.089916,9.120903,72.555725,-2.0470698,-13.174103,-5.755961,6.6838603,-19.10046,10.096935,-7.1767097,-7.269207,-1.6259367,5.0929246,6.5493717,11.942376,25.004,-45.81344,54.954533,11.853311,-0.021217654,-2.125123,2.1043134,-22.577425,35.14017,52.96297,2.5138073,-1.2842475,-2.4717271
127,-43.0117073059082,-31.737384796142578,76.59493255615234,-3.6102206078386643,-1.1243075970819314,-150.1084271655906,-4.678854,17.314692,8.035015,73.08048,-2.3622644,-13.397781,-5.1723723,6.7930627,-18.745842,9.845604,-7.40357,-7.208425,-1.4069443,4.9658604,6.5758443,12.378128,25.019745,-45.63252,54.776245,11.499477,-0.107720196,-2.0385227,1.898296,-22.643612,34.937405,52.683178,2.5476105,-1.3266662,-2.687594
128,-43.43577575683594,-31.893077850341797,76.63291931152344,-3.504850802797233,-1.2089338075240996,-150.39791026246328,-5.5874357,16.576414,7.0605106,73.45811,-2.7869692,-13.618458,-4.6258264,6.8851805,-18.37333,9.648035,-7.6463065,-7.1478233,-1.1846397,4.8448935,6.6151614,12.807128,25.029375,-45.426334,54.55729,11.169313,-0.18083598,-1.9776652,1.6914133,-22.73652,34.727436,52.372597,2.6358378,-1.3624239,-2.8870485
129,-43.84941482543945,-32.04697799682617,76.66797637939453,-3.391025650466446,-1.2902162695846269,-150.71019035881636,-6.4567876,15.848509,6.174198,73.67451,-3.3279412,-13.870346,-4.121191,6.954937,-17.975372,9.515199,-7.908531,-7.0864563,-0.9531455,4.723147,6.6615806,13.221214,25.020452,-45.191032,54.31621,10.85259,-0.23336634,-1.9525753,1.4719546,-22.825888,34.505814,52.064274,2.7980385,-1.3909192,-3.07555
130,-44.262603759765625,-32.19837188720703,76.7000503540039,-3.2668428035411554,-1.3692325474420157,-151.0411580897751,-7.3001323,15.097086,5.324217,73.73079,-4.0273676,-14.092232,-3.6548162,7.000207,-17.556368,9.445486,-8.191054,-7.021768,-0.7176273,4.59797,6.7139564,13.625832,24.992073,-44.918667,54.054077,10.543032,-0.27204585,-1.9592171,1.2441751,-22.913546,34.265995,51.759815,3.022168,-1.420769,-3.2590537
131,-44.66093444824219,-32.352481842041016,76.72674560546875,-3.143894803796075,-1.440334173840452,-151.3849701314891,-8.118127,14.432776,4.5920835,73.65401,-4.8301997,-14.230326,-3.2152588,7.037759,-17.13006,9.405053,-8.479694,-6.9579506,-0.48351306,4.474036,6.760463,14.016379,24.956448,-44.657593,53.779095,10.246038,-0.30655006,-1.9711188,0.99055207,-22.978706,34.0312,51.48325,3.2561371,-1.4541115,-3.432977
132,-45.0540885925293,-32.50273895263672,76.74872589111328,-3.0340155776413877,-1.497355059760582,-151.7349153412205,-8.916388,13.9614,4.0551105,73.47041,-5.680574,-14.237951,-2.7928712,7.0841074,-16.710878,9.364377,-8.763262,-6.8989677,-0.2688524,4.375039,6.8026195,14.386183,24.894926,-44.428604,53.50454,9.989375,-0.34990582,-1.9633194,0.7534869,-23.07575,33.80751,51.15747,3.439503,-1.4856392,-3.5827978
133,-45.457481384277344,-32.652889251708984,76.76639556884766,-2.9382965875609397,-1.5404209020973656,-152.0927113618592,-9.694709,13.697737,3.7333398,73.1684,-6.5905375,-14.126592,-2.3856099,7.141624,-16.30044,9.320296,-9.040011,-6.8456464,-0.064115286,4.2921,6.8286424,14.740579,24.827646,-44.258484,53.217525,9.778251,-0.39662993,-1.9269406,0.5110255,-23.167213,33.59574,50.829247,3.5536978,-1.5221595,-3.7068293
134,-45.85074234008789,-32.807167053222656,76.77642059326172,-2.8505352422981205,-1.5715773375398445,-152.46020092292687,-10.4567375,13.583256,3.5797706,72.7359,-7.5783925,-13.921907,-2.0013049,7.2009845,-15.892152,9.292203,-9.318154,-6.7956395,0.13139021,4.2243667,6.8465753,15.075393,24.74463,-44.12377,52.92103,9.602751,-0.44408357,-1.8764875,0.27541214,-23.270111,33.385223,50.47725,3.628673,-1.5606319,-3.8081074
135,-46.239200592041016,-32.96284484863281,76.78486633300781,-2.769054984385687,-1.587122949560373,-152.83134503197007,-11.214769,13.605166,3.5714703,72.19679,-8.598542,-13.604668,-1.6444032,7.2590666,-15.487059,9.280804,-9.599301,-6.7487698,0.31751227,4.166947,6.8560314,15.385608,24.652967,-44.022564,52.629055,9.432645,-0.5027359,-1.8192462,0.04422531,-23.375755,33.180683,50.10735,3.6803048,-1.5944877,-3.8995528
136,-46.618125915527344,-33.119346618652344,76.7885971069336,-2.692828168591201,-1.583891886914461,-153.19999437096274,-11.979183,13.75029,3.6858714,71.574905,-9.607091,-13.155872,-1.3159641,7.3140693,-15.085908,9.279989,-9.880781,-6.7048197,0.49299785,4.1189547,6.859769,15.652228,24.554121,-43.963726,52.366135,9.226406,-0.5837602,-1.7621953,-0.18763657,-23.484924,32.9928,49.719593,3.7343156,-1.6163688,-3.9930282
137,-46.99546432495117,-33.27019500732422,76.78990936279297,-2.623928756275142,-1.5567355226852782,-153.5705927313238,-12.751439,14.049202,3.9609203,70.871376,-10.63931,-12.569285,-1.0281427,7.367155,-14.684363,9.300706,-10.165854,-6.665616,0.6609243,4.0847116,6.853304,15.877532,24.448334,-43.94563,52.120647,8.988723,-0.6863833,-1.7115302,-0.41329047,-23.598948,32.81563,49.30288,3.7916481,-1.6216689,-4.0965333
138,-47.374794006347656,-33.4210205078125,76.78514862060547,-2.561783993635264,-1.5090487299071826,-153.94402873766822,-13.52006,14.4794235,4.3951144,70.06976,-11.711398,-11.8747,-0.77916855,7.417644,-14.284265,9.34854,-10.458057,-6.630313,0.8213194,4.062192,6.8377137,16.067436,24.335989,-43.96677,51.885777,8.734796,-0.8060239,-1.66233,-0.6406449,-23.71924,32.652542,48.865807,3.8492908,-1.6152514,-4.2021117
139,-47.756797790527344,-33.57792663574219,76.78297424316406,-2.4999187223542503,-1.4497110502145094,-154.30912203143987,-14.280056,14.952958,4.907416,69.176094,-12.754466,-11.100396,-0.5463783,7.4603558,-13.893906,9.402603,-10.752164,-6.5946097,0.96558154,4.040279,6.8210487,16.21777,24.218122,-44.026062,51.68875,8.4471445,-0.94789255,-1.605644,-0.85565954,-23.84348,32.497574,48.40622,3.887384,-1.6032256,-4.29715
140,-48.1171989440918,-33.739131927490234,76.77543640136719,-2.4328344167631673,-1.3874564835657393,-154.65497197341222,-15.029488,15.390027,5.415999,68.19742,-13.696559,-10.265107,-0.30741334,7.491023,-13.52219,9.441463,-11.042153,-6.554472,1.0880873,4.008301,6.8112125,16.33146,24.09622,-44.115475,51.552265,8.118424,-1.1170944,-1.5328534,-1.0600101,-23.968555,32.35368,47.93736,3.898393,-1.5920883,-4.369534
141,-48.485591888427734,-33.89129638671875,76.77050018310547,-2.360364918075475,-1.322494154165934,-154.9778933087325,-15.7773485,15.805214,5.9239135,67.14442,-14.561025,-9.289123,-0.061763234,7.5079594,-13.1726675,9.465692,-11.330053,-6.513201,1.1814508,3.9622173,6.808785,16.407782,23.972237,-44.246483,51.484943,7.723327,-1.3401403,-1.4300678,-1.2483643,-24.091217,32.216175,47.44778,3.8670394,-1.5828501,-4.4064035
142,-48.855106353759766,-34.04035568237305,76.76174926757812,-2.285098628695222,-1.2508699787768365,-155.2837719466677,-16.5199,16.222979,6.469846,66.01272,-15.382983,-8.194124,0.1810788,7.5134244,-12.840578,9.482548,-11.616669,-6.4711046,1.2514004,3.9071727,6.810335,16.442608,23.847532,-44.422504,51.474773,7.269526,-1.6062626,-1.3068358,-1.4320072,-24.210827,32.090954,46.94543,3.8083527,-1.5726421,-4.4179926
143,-49.21828079223633,-34.199554443359375,76.75708770751953,-2.204744130287385,-1.1747321538528184,-155.5757369131873,-17.236555,16.589193,7.028812,64.78259,-16.096247,-7.137894,0.42454267,7.5061617,-12.521512,9.488962,-11.899334,-6.4194627,1.3076919,3.8443718,6.8150277,16.447239,23.720915,-44.6105,51.506557,6.8096642,-1.8649019,-1.1890754,-1.6022046,-24.327036,31.973368,46.444614,3.7295856,-1.5618892,-4.426067
144,-49.58961868286133,-34.35688781738281,76.75464630126953,-2.118174770546636,-1.0963285047808513,-155.85708741152126,-17.907988,16.859303,7.577589,63.43384,-16.62509,-6.27126,0.67543846,7.486881,-12.210897,9.476041,-12.172373,-6.3498893,1.3591673,3.7773552,6.8228865,16.429066,23.589993,-44.780174,51.568436,6.3919306,-2.0647776,-1.1016881,-1.753004,-24.438793,31.862288,45.96077,3.6412654,-1.5507896,-4.452714
145,-49.95305633544922,-34.51526641845703,76.74794006347656,-2.022268651264562,-1.0155163416329507,-156.127118717895,-18.527336,17.048409,8.137561,61.948215,-16.931566,-5.6080227,0.933971,7.45121,-11.91115,9.44222,-12.435367,-6.2538342,1.4073842,3.7038388,6.8344235,16.381624,23.45224,-44.93034,51.66674,5.985033,-2.1920812,-1.0509256,-1.8879656,-24.546568,31.762287,45.497963,3.5354981,-1.5374793,-4.5086584
146,-50.31563186645508,-34.66909408569336,76.74330139160156,-1.919245721659778,-0.9313260966764145,-156.38489188170917,-19.104607,17.179836,8.719409,60.339916,-17.055237,-5.0677657,1.2002853,7.401857,-11.6232195,9.384692,-12.68691,-6.1379094,1.4464613,3.6245072,6.848757,16.306416,23.306585,-45.070854,51.805374,5.581099,-2.2737906,-1.0227122,-2.0016344,-24.649654,31.668694,45.042404,3.4047542,-1.5222793,-4.580559
147,-50.6775016784668,-34.829280853271484,76.7376480102539,-1.8157634860758296,-0.8456133020968492,-156.63352499933126,-19.646025,17.226244,9.280134,58.631638,-17.026777,-4.6605163,1.4749328,7.3474936,-11.34112,9.306063,-12.927882,-6.0163326,1.4751987,3.5446818,6.8658814,16.20889,23.154427,-45.201088,51.97633,5.2490616,-2.3199084,-1.0096986,-2.1068208,-24.747208,31.586031,44.610447,3.2797723,-1.5094104,-4.65491
148,-51.04520797729492,-34.99011993408203,76.73452758789062,-1.7188185574044115,-0.7599846219328162,-156.87606634371346,-20.159346,17.165127,9.771898,56.845604,-16.875624,-4.3932347,1.7625175,7.2991505,-11.058159,9.200731,-13.1547,-5.9036117,1.4904878,3.4705687,6.884576,16.100069,22.9985,-45.315716,52.16755,5.0609717,-2.3404465,-1.00532,-2.1975842,-24.836206,31.507715,44.202644,3.1772547,-1.5029602,-4.7182484
149,-51.41239929199219,-35.14817810058594,76.73031616210938,-1.6308242436336835,-0.6784161976722416,-157.1096776018297,-20.64421,16.993473,10.168039,54.969067,-16.584997,-4.2766905,2.0741875,7.2607265,-10.772157,9.051527,-13.359334,-5.801993,1.4905869,3.402103,6.910906,15.977661,22.840572,-45.407948,52.383423,5.0666256,-2.3281581,-1.0160726,-2.2858884,-24.914904,31.436934,43.83093,3.118464,-1.5097303,-4.7683587
150,-51.7733039855957,-35.30632400512695,76.72279357910156,-1.5486496464011317,-0.5990784546371692,-157.33434748459183,-21.098877,16.734415,10.492283,52.99442,-16.139683,-4.29417,2.4067473,7.2274737,-10.4862,8.861828,-13.543493,-5.704349,1.4767543,3.3368607,6.9429193,15.84222,22.681076,-45.478653,52.623463,5.219839,-2.28073,-1.0429976,-2.3634622,-24.98194,31.37105,43.486557,3.0823605,-1.5258787,-4.8122053
151,-52.13341522216797,-35.46279525756836,76.71585845947266,-1.4707068002701167,-0.5156405229432435,-157.5581441847237,-21.52664,16.40684,10.769322,50.946835,-15.577699,-4.4110913,2.73982,7.1951146,-10.200727,8.663299,-13.721026,-5.6109924,1.4541751,3.275149,6.9699616,15.696298,22.522959,-45.546402,52.87502,5.4373875,-2.2158272,-1.0704325,-2.4324303,-25.037563,31.316156,43.170544,3.048053,-1.5399674,-4.850312
152,-52.49550247192383,-35.62152862548828,76.70902252197266,-1.395200834428372,-0.4217679864024854,-157.78889273537015,-21.929907,16.028725,11.0252,48.850197,-14.93634,-4.593446,3.0549169,7.159635,-9.916094,8.4843235,-13.904409,-5.522127,1.4294343,3.2168918,6.9815516,15.549808,22.37045,-45.6228,53.119064,5.6449466,-2.1505592,-1.0827638,-2.4954505,-25.083267,31.277664,42.884247,2.9966218,-1.5405104,-4.882864
153,-52.861488342285156,-35.779945373535156,76.69668579101562,-1.3207635485232525,-0.3172742318636857,-158.02751753663878,-22.310966,15.595479,11.24089,46.700684,-14.198277,-4.854274,3.3535707,7.1189923,-9.634303,8.323491,-14.09311,-5.43698,1.4035163,3.1609833,6.976911,15.400283,22.226908,-45.719402,53.352253,5.850238,-2.0762317,-1.0751296,-2.54914,-25.119808,31.25538,42.623295,2.9219666,-1.5196552,-4.9124455
154,-53.226097106933594,-35.94349670410156,76.68368530273438,-1.249297941489342,-0.20530812867855971,-158.27063556865477,-22.665699,15.111941,11.402904,44.481853,-13.351019,-5.197798,3.6445875,7.076861,-9.354046,8.16658,-14.2803,-5.3556724,1.3752095,3.1079025,6.9621,15.245984,22.093752,-45.827393,53.57925,6.0835576,-1.9876543,-1.0566362,-2.5935555,-25.147425,31.246058,42.387405,2.8359063,-1.4850622,-4.937815
155,-53.595096588134766,-36.109432220458984,76.66974639892578,-1.1849291651694378,-0.08508544372034135,-158.52024513752187,-22.99047,14.609726,11.545598,42.20483,-12.442316,-5.579675,3.921923,7.038357,-9.070204,8.021511,-14.469401,-5.280017,1.3462043,3.0614347,6.937536,15.094261,21.972446,-45.93204,53.79418,6.2985187,-1.9078391,-1.0322129,-2.6337998,-25.166342,31.25105,42.18166,2.7453868,-1.4486531,-4.953534
156,-53.9680061340332,-36.27110290527344,76.64889526367188,-1.1319559253064975,0.04466718383621689,-158.77803830104588,-23.281294,14.117252,11.706309,39.87921,-11.517693,-5.957333,4.178277,7.009149,-8.777882,7.8974,-14.663915,-5.212085,1.3160862,3.0251925,6.9029813,14.949275,21.864914,-46.022278,53.99449,6.4423137,-1.8597895,-1.0063611,-2.6674793,-25.176474,31.268171,42.00504,2.6508875,-1.4221405,-4.9542665
157,-54.34043502807617,-36.432735443115234,76.62350463867188,-1.0935713903226643,0.18872906040962426,-159.0449910589073,-23.544945,13.636872,11.875916,37.4953,-10.592202,-6.3252726,4.4071116,6.9944043,-8.473927,7.79616,-14.864733,-5.1578217,1.2841687,3.0010986,6.854638,14.814635,21.776623,-46.094765,54.173714,6.4935746,-1.8544537,-0.9817893,-2.6941485,-25.177044,31.296112,41.855682,2.5440898,-1.4106973,-4.932997
158,-54.71320724487305,-36.59051513671875,76.59603118896484,-1.068869323125759,0.3438437257550955,-159.32113665897742,-23.776329,13.16199,12.038046,35.04251,-9.636954,-6.702004,4.6168733,6.9923553,-8.160039,7.7091923,-15.068055,-5.114789,1.2518921,2.9888866,6.7943916,14.682587,21.70139,-46.158875,54.341717,6.480086,-1.878278,-0.95481324,-2.719756,-25.168396,31.338799,41.73951,2.4295232,-1.407534,-4.894537
159,-55.087608337402344,-36.76131057739258,76.56892395019531,-1.0537402852497035,0.49931782909371597,-159.6070869249448,-23.95262,12.700875,12.224683,32.526337,-8.62838,-7.083017,4.8214383,6.9970965,-7.839102,7.6328626,-15.271489,-5.072234,1.2246089,2.9828453,6.739334,14.575599,21.671227,-46.204594,54.452095,6.432924,-1.9144163,-0.92625225,-2.732403,-25.159016,31.390066,41.636337,2.3249583,-1.4057853,-4.8493567
160,-55.457275390625,-36.928184509277344,76.54131317138672,-1.045187047287762,0.6443593686857465,-159.90395673331258,-24.051958,12.258572,12.468033,29.952564,-7.54232,-7.4657326,5.0383005,7.003966,-7.513491,7.556714,-15.469441,-5.0196247,1.2059401,2.9860077,6.689207,14.468671,21.639761,-46.24326,54.562927,6.378235,-1.9517303,-0.8874175,-2.7502348,-25.141811,31.463087,41.579678,2.2514777,-1.400438,-4.812192
161,-55.83646774291992,-37.09914779663086,76.50713348388672,-1.045283418345925,0.778646193099927,-160.21171454516298,-24.069654,11.841077,12.789943,27.302061,-6.333015,-7.8582015,5.2708006,7.0165915,-7.1819377,7.474349,-15.658054,-4.954057,1.1892738,3.0002208,6.644883,14.3697815,21.604574,-46.259678,54.669548,6.310686,-1.9938895,-0.83409375,-2.770593,-25.110308,31.562206,41.566532,2.220751,-1.388415,-4.7918606
162,-56.212520599365234,-37.274681091308594,76.4694595336914,-1.0593456677112896,0.9043805611115853,-160.53318547295112,-24.008413,11.445698,13.168331,24.561707,-5.0178065,-8.26141,5.511469,7.0411725,-6.8413053,7.3958216,-15.8430195,-4.8822584,1.188723,3.0307856,6.6123943,14.278287,21.59149,-46.267056,54.74577,6.215561,-2.0450594,-0.77182496,-2.7776012,-25.085722,31.670193,41.567974,2.227397,-1.3722776,-4.7759275
163,-56.5936279296875,-37.4459342956543,76.427978515625,-1.0880802625531854,1.0145715917936815,-160.8741794056552,-23.862492,11.064945,13.570803,21.7575,-3.6716094,-8.663216,5.7314577,7.07301,-6.4932733,7.400292,-16.067455,-4.8080587,1.2010019,3.078068,6.593061,14.196754,21.588684,-46.262966,54.803886,6.1281695,-2.091602,-0.7076773,-2.7805424,-25.061195,31.791325,41.59966,2.2326934,-1.3552653,-4.7538676
164,-56.97603225708008,-37.61961364746094,76.38232421875,-1.134370995375969,1.1015653578694993,-161.24100468681624,-23.621763,10.69313,13.96619,18.907877,-2.368505,-9.050697,5.9784904,7.1194444,-6.1298985,7.40578,-16.289547,-4.7365236,1.2254285,3.1438258,6.59196,14.127962,21.593937,-46.248276,54.84589,6.0792747,-2.1193762,-0.64941686,-2.7908418,-25.031961,31.931204,41.674603,2.2047577,-1.3405672,-4.7140875
165,-57.367008209228516,-37.79692077636719,76.33161926269531,-1.1978157947162933,1.1645697000617177,-161.6391824686985,-23.268652,10.32276,14.381381,15.95875,-1.0637461,-9.410363,6.2532644,7.1802497,-5.747553,7.411369,-16.511805,-4.666921,1.2759432,3.2296398,6.6142406,14.060884,21.605145,-46.232025,54.87349,6.084847,-2.1183171,-0.59336555,-2.7814844,-25.006166,32.06309,41.769966,2.114918,-1.3284212,-4.642766
166,-57.75476837158203,-37.98582458496094,76.27493286132812,-1.2898422129693765,1.201358409123555,-162.07246401323852,-22.803053,9.973464,14.822768,12.906813,0.26724425,-9.75432,6.558104,7.2699137,-5.3407035,7.416498,-16.731789,-4.600235,1.3486309,3.3465576,6.65977,14.006498,21.62448,-46.204247,54.879875,6.125914,-2.097563,-0.536767,-2.784947,-24.976315,32.2167,41.914978,2.0003753,-1.3183964,-4.5515656
167,-58.141685485839844,-38.1707763671875,76.20968627929688,-1.4243654213078845,1.2049417079124516,-162.54138973983603,-22.235449,9.669061,15.234234,9.830527,1.5356005,-10.106309,6.9032655,7.40453,-4.9056664,7.419547,-16.943176,-4.5419164,1.4366857,3.5061727,6.7257147,13.976954,21.655785,-46.159824,54.867603,6.17928,-2.0724587,-0.49043328,-2.789055,-24.93875,32.392418,42.095783,1.8683056,-1.3090707,-4.458677
168,-58.531593322753906,-38.35451889038086,76.13640594482422,-1.6040931303567671,1.1737936267511635,-163.0386306540279,-21.559532,9.409639,15.565659,6.760603,2.6789207,-10.4883175,7.291184,7.586639,-4.4456024,7.421146,-17.139982,-4.495028,1.5559576,3.7153473,6.80897,13.948116,21.68745,-46.126465,54.868176,6.21934,-2.0599017,-0.4629045,-2.7704296,-24.909758,32.564663,42.28421,1.7403675,-1.2976316,-4.3771343
169,-58.92571258544922,-38.548973083496094,76.0600357055664,-1.8279494613708627,1.1041051095814116,-163.56477356504425,-22.130264,9.561224,15.610133,6.6181464,2.0682347,-10.950147,7.724993,7.812643,-3.9647748,7.423844,-17.32166,-4.460044,1.6933862,3.975036,6.909764,13.935932,21.721811,-46.0909,54.87079,6.2399445,-2.0674906,-0.46170738,-2.744363,-24.885754,32.759262,42.49513,1.6239727,-1.2859622,-4.3190274
170,-59.324867248535156,-38.75,75.97702026367188,-2.0791893041092293,1.0056586101106344,-164.1121267417282,-22.629576,9.735137,15.613947,6.5080385,1.2834692,-11.457541,8.194091,8.063302,-3.4687557,7.427219,-17.491932,-4.4324183,1.8282533,4.2651362,7.0216937,13.951385,21.766365,-46.038475,54.859806,6.2536936,-2.085427,-0.48131028,-2.7160742,-24.860472,32.988102,42.732803,1.5089145,-1.2745018,-4.27641
171,-59.73646545410156,-38.94886016845703,75.89073181152344,-2.3273382736597243,0.9024778541641476,-164.65315630988607,-23.051813,9.890247,15.532663,6.4330225,0.48263943,-11.923899,8.669264,8.303442,-2.9723287,7.4334908,-17.651634,-4.403271,1.9651892,4.554702,7.1258655,13.954704,21.806015,-45.999397,54.87408,6.2668295,-2.104454,-0.5090167,-2.6586466,-24.84192,33.19692,42.9717,1.384853,-1.2596196,-4.2312036
172,-60.14271926879883,-39.13970947265625,75.79927825927734,-2.545324605579905,0.8169377752505732,-165.16107069367717,-23.386412,9.983435,15.319244,6.391937,-0.17318323,-12.267008,9.123282,8.50124,-2.4908178,7.445271,-17.803392,-4.3642297,2.0442011,4.807035,7.201466,13.987517,21.864576,-45.93549,54.87637,6.287991,-2.1129122,-0.5367292,-2.611535,-24.813982,33.43207,43.23802,1.265693,-1.2390157,-4.180013
173,-60.551719665527344,-39.333091735839844,75.7138671875,-2.7377688906696824,0.750032381897728,-165.6329269685562,-23.617136,10.009312,14.949299,6.385074,-0.72431964,-12.49133,9.552664,8.663837,-2.022501,7.464,-17.949942,-4.31303,2.0911157,5.0278983,7.2488036,14.019687,21.93174,-45.873356,54.896896,6.310712,-2.1111553,-0.56555337,-2.5261195,-24.777674,33.629436,43.49467,1.111209,-1.2089291,-4.107141
174,-60.96417999267578,-39.534969329833984,75.63227081298828,-2.9193641830297907,0.6933295702936734,-166.0785714832861,-23.75906,9.986697,14.4467325,6.4178386,-1.2288432,-12.638472,9.9686575,8.807468,-1.5655013,7.4863853,-18.088404,-4.254534,2.1380007,5.2370195,7.2739916,14.006208,21.978397,-45.844322,54.98702,6.3282704,-2.1087275,-0.59729123,-2.3830018,-24.750986,33.7717,43.725,0.92893344,-1.1693009,-4.0177445
175,-61.36410903930664,-39.73331832885742,75.56089782714844,-3.0622845671838497,0.6545642806682679,-166.48798688701018,-23.824766,9.887353,13.843847,6.4578757,-1.5374947,-12.677079,10.365161,8.897297,-1.1393988,7.51496,-18.218565,-4.187906,2.1230605,5.4086566,7.267062,14.031011,22.036568,-45.79511,55.05136,6.3631744,-2.0916882,-0.6237573,-2.251296,-24.7145,33.940002,43.998184,0.7575301,-1.1325365,-3.9324327
176,-61.766944885253906,-39.92910385131836,75.49849700927734,-3.1514395174426197,0.6412400329436162,-166.85649639161304,-23.839947,9.701555,13.167248,6.4979973,-1.5126064,-12.577696,10.736721,8.914623,-0.75857085,7.5501966,-18.338266,-4.11526,2.0473144,5.505026,7.22517,14.098447,22.139881,-45.710815,55.07032,6.439754,-2.061394,-0.6447828,-2.1464021,-24.641712,34.14549,44.330067,0.6251294,-1.1035763,-3.8680956
177,-62.170143127441406,-40.1282958984375,75.44486236572266,-3.1740468052685715,0.6575702393618985,-167.16808362974797,-23.785149,9.401333,12.377067,6.526759,-1.0088329,-12.324521,11.07834,8.845866,-0.44039956,7.5954037,-18.453955,-4.0383615,1.9345782,5.5242705,7.141737,14.144185,22.244032,-45.64781,55.11868,6.5675964,-2.0176666,-0.65020144,-2.0050035,-24.562569,34.32907,44.666252,0.51295793,-1.0790457,-3.8226535
178,-62.57808303833008,-40.33195877075195,75.39876556396484,-3.141960302274533,0.6980786134198952,-167.43361093115573,-23.656998,9.0113945,11.476578,6.5600495,-0.13743049,-11.940259,11.148431,8.703677,-0.20872645,8.16793,-18.83929,-3.9538324,1.7831606,5.4872975,7.0205984,14.178714,22.334568,-45.592533,55.197792,6.740116,-1.9627249,-0.6438064,-1.8233609,-24.48886,34.496628,44.997395,0.41151652,-1.0557184,-3.7885725
179,-63.00206756591797,-40.53468704223633,75.35856628417969,-3.064780023824551,0.7522189373509477,-167.6874500687324,-23.483515,8.576386,10.567836,6.599454,0.8665003,-11.448847,11.101529,8.502177,-0.009261226,8.964506,-19.323713,-3.8575354,1.607477,5.3948236,6.872512,14.23837,22.447235,-45.515934,55.25466,6.9251943,-1.8980583,-0.6346223,-1.6627095,-24.389914,34.68315,45.385815,0.34589797,-1.0407693,-3.7619715
180,-63.429927825927734,-40.74078369140625,75.32694244384766,-2.9540388325161873,0.8107888764269682,-167.96300013323867,-23.294952,8.137046,9.748647,6.6457863,1.7682896,-10.8697405,11.045061,8.2542095,0.20355055,9.778385,-19.788061,-3.7446775,1.4522504,5.2745056,6.7044525,14.293068,22.543688,-45.434425,55.32407,7.0924907,-1.8297826,-0.6243798,-1.4758753,-24.297094,34.843555,45.787487,0.30449474,-1.0363648,-3.7286735
181,-63.85967254638672,-40.95348358154297,75.30377960205078,-2.800541791909039,0.87717473540394,-168.2568315850035,-23.098444,7.6706195,8.993094,6.699571,2.498245,-10.145243,10.97938,7.949527,0.41966575,10.605681,-20.23714,-3.6111114,1.3017719,5.1027203,6.513091,14.381826,22.65705,-45.311314,55.364628,7.254266,-1.7504115,-0.61684453,-1.302326,-24.173359,35.007458,46.25296,0.29813954,-1.0484372,-3.6935122
182,-64.29487609863281,-41.169281005859375,75.2893295288086,-2.6048529919068826,0.9519518862624108,-168.5602650721078,-23.649712,7.2792797,8.170005,8.404092,2.319757,-9.286915,10.899286,7.589648,0.634209,11.458137,-20.679434,-3.4600158,1.1629738,4.8927164,6.298473,14.462684,22.751663,-45.182808,55.42634,7.4133153,-1.662291,-0.6055643,-1.1075629,-24.053888,35.155,46.737793,0.3234177,-1.0708698,-3.6556456
183,-64.74433135986328,-41.39189147949219,75.28240966796875,-2.391144392636204,1.0230892012088109,-168.89585604699093,-24.194708,6.8974185,7.47489,10.171856,2.124785,-8.411467,10.810447,7.203644,0.8842729,12.344352,-21.103098,-3.2989526,1.0452939,4.6707144,6.0703845,14.552144,22.82773,-45.042515,55.493946,7.565713,-1.5769936,-0.5928432,-0.90425277,-23.938835,35.292683,47.245247,0.3736994,-1.0991489,-3.613604
184,-65.19657135009766,-41.617313385009766,75.27714538574219,-2.178032016316649,1.0813584620043297,-169.28273427174133,-24.569187,6.5673666,7.0130396,11.666435,2.1391041,-7.6288633,10.711996,6.8139844,1.2009982,13.280882,-21.499605,-3.1324615,0.9588332,4.4573708,5.836444,14.657322,22.886036,-44.89493,55.557667,7.6986923,-1.5061302,-0.5806745,-0.6958417,-23.82854,35.417435,47.77101,0.43559837,-1.1286392,-3.5654023
185,-65.65840911865234,-41.85331344604492,75.27774810791016,-1.964798916067171,1.1305001048135368,-169.7360999310873,-24.756964,6.3179398,6.816424,12.850912,2.4942505,-6.9679585,10.609936,6.4188943,1.6007775,14.249206,-21.86884,-2.9575627,0.9125178,4.2544227,5.5865602,14.786584,22.925808,-44.744415,55.61323,7.805694,-1.4558438,-0.5655856,-0.462691,-23.723238,35.51872,48.30433,0.48420665,-1.1614463,-3.5064945
186,-66.1313705444336,-42.09449768066406,75.2827377319336,-1.7356307702718765,1.1773371045905634,-170.2397851214844,-24.81911,6.125058,6.8317018,13.845815,3.063193,-6.3551593,10.49368,6.001421,2.0607285,15.259747,-22.219889,-2.7701566,0.8988629,4.043531,5.3192754,14.933683,22.946915,-44.587196,55.665867,7.8975773,-1.4188943,-0.547632,-0.22296177,-23.62313,35.610325,48.860245,0.5468288,-1.198836,-3.4395165
187,-66.61225891113281,-42.33589172363281,75.29124450683594,-1.4877641686430314,1.2170471027427716,-170.7656476557302,-24.82065,5.972047,7.014282,14.792722,3.5391667,-5.750632,10.356666,5.5637875,2.55669,16.33335,-22.547655,-2.5744045,0.8919444,3.8163915,5.0495057,15.087901,22.951542,-44.414677,55.722866,7.9786067,-1.3872244,-0.53523225,0.04483964,-23.526007,35.671276,49.412003,0.6135773,-1.234564,-3.3722045
188,-67.09405517578125,-42.584781646728516,75.30606079101562,-1.2221706082492958,1.2430412442225687,-171.287337303194,-24.816467,5.8415685,7.314293,15.815507,3.6267214,-5.125184,10.194534,5.1114345,3.0663564,17.486032,-22.843786,-2.3752327,0.8740734,3.5694447,4.801049,15.21276,22.945993,-44.244762,55.80035,8.028316,-1.3527706,-0.535735,0.29599044,-23.429441,35.725864,49.98047,0.734913,-1.2628394,-3.3130915
189,-67.57428741455078,-42.830875396728516,75.32845306396484,-0.9279923917433653,1.2628811028279465,-171.811870773211,-24.843477,5.7400584,7.764319,16.998764,3.1694975,-4.4439225,9.999879,4.62973,3.6058462,18.713715,-23.11886,-2.1718023,0.84166884,3.288433,4.5602283,15.336716,22.93293,-44.047535,55.881966,8.046467,-1.3139282,-0.5539972,0.5638651,-23.329952,35.753864,50.541435,0.8912959,-1.2800758,-3.2619379
190,-68.05121612548828,-43.07708740234375,75.35929107666016,-0.60796467294806,1.2782833285103725,-172.34825169138642,-24.859856,5.673201,8.363077,18.252785,2.3506725,-3.738442,9.77781,4.1212435,4.180831,20.00539,-23.370356,-1.9611374,0.8110452,2.9803693,4.328527,15.44946,22.91632,-43.844402,55.966404,8.025847,-1.2747037,-0.5847305,0.80431426,-23.234432,35.788815,51.12823,1.1204886,-1.2900987,-3.2149785
191,-68.53394317626953,-43.32147979736328,75.38849639892578,-0.2838743517333649,1.273212429745583,-172.8726907998358,-24.805756,5.6167407,9.008769,19.44668,1.3891548,-3.0869172,9.548844,3.6163054,4.7532306,21.358665,-23.567427,-1.7455894,0.7594371,2.6649349,4.11945,15.552412,22.895441,-43.631496,56.05976,8.016105,-1.2347544,-0.6235685,1.0726426,-23.124613,35.780308,51.71085,1.3323768,-1.2986609,-3.1765962
192,-69.01734161376953,-43.56221389770508,75.42179107666016,0.022459877881362056,1.2317941346101648,-173.36040176952383,-24.628773,5.541367,9.605884,20.455713,0.5062125,-2.5642052,9.327848,3.1450496,5.2825885,22.781939,-23.681583,-1.5278023,0.690622,2.3693984,3.9640546,15.593124,22.878073,-43.465065,56.18167,8.024406,-1.1941514,-0.6645573,1.3432899,-23.016878,35.7351,52.298077,1.543144,-1.3103838,-3.1480215
193,-69.48876190185547,-43.79966735839844,75.4568862915039,0.3041312937479063,1.1470622325728101,-173.79893224530852,-24.321642,5.436011,10.136856,21.266191,-0.27571967,-2.2199345,9.137833,2.7150655,5.758132,24.252237,-23.715845,-1.3063059,0.59681094,2.100784,3.8669498,15.598844,22.86748,-43.316277,56.318413,8.098296,-1.1559496,-0.70912075,1.6615275,-22.9148,35.609066,52.863316,1.7133092,-1.332029,-3.1356158
194,-69.96856689453125,-44.03847122192383,75.50155639648438,0.5741005690787295,1.0289690198921755,-174.20136858218044,-23.918762,5.306179,10.651297,21.945137,-1.0598972,-2.0056157,8.961059,2.3078687,6.199085,25.777063,-23.682775,-1.0814754,0.48179224,1.8375665,3.8095343,15.571063,22.863901,-43.183426,56.47662,8.207151,-1.1188285,-0.758787,1.9971323,-22.784645,35.41872,53.448975,1.8528838,-1.3618243,-3.1392524
195,-70.44815063476562,-44.27740478515625,75.54930114746094,0.8389541161280792,0.8870611810054715,-174.58108056447423,-23.431337,5.147968,11.158718,22.48848,-1.812752,-1.8456596,8.753349,1.9156505,6.610139,27.410137,-23.57058,-0.8583111,0.35645854,1.5824426,3.7872663,15.513449,22.867748,-43.06541,56.626034,8.338205,-1.0757186,-0.8130845,2.3420482,-22.655457,35.205364,54.01733,1.9975342,-1.3843231,-3.1423934
196,-70.91564178466797,-44.51029968261719,75.59872436523438,1.1053351034537204,0.7305143031511876,-174.95193337002746,-22.866495,4.960069,11.6668,22.888021,-2.5003867,-1.6649396,8.473281,1.5318232,6.997317,29.202427,-23.365685,-0.6398116,0.23204753,1.3338286,3.7977686,15.398997,22.87573,-42.989773,56.764442,8.448004,-1.0201664,-0.8696694,2.6418157,-22.540262,35.038296,54.579212,2.2083917,-1.3860723,-3.1308045
197,-71.37748718261719,-44.75084686279297,75.65283966064453,1.360329986165324,0.549662322796788,-175.30804239886822,-22.216175,4.753509,12.163647,23.14691,-3.1225398,-1.452493,8.127633,1.173799,7.344566,31.17359,-23.063684,-0.45517594,0.103033,1.11277,3.8504276,15.247244,22.880339,-42.932213,56.87935,8.564441,-0.94571394,-0.9370891,2.9350853,-22.448824,34.885468,55.10429,2.4868484,-1.3559976,-3.1136622
198,-71.83343505859375,-44.988956451416016,75.7069091796875,1.6042168354252107,0.34322178695314914,-175.6449875210913,-21.481066,4.5227394,12.648256,23.267393,-3.6940184,-1.2450341,7.7323937,0.84192914,7.655357,33.297455,-22.671198,-0.29196894,-0.03236128,0.9197483,3.9483986,15.061673,22.87853,-42.885857,56.975166,8.703618,-0.85800856,-1.0134069,3.2180173,-22.393623,34.748207,55.596363,2.8364544,-1.30246,-3.0928974
199,-72.28352355957031,-45.23788070678711,75.76313018798828,1.8643258698371026,0.13357131759028293,-175.97869749413678,-20.683064,4.2459826,13.141913,23.246813,-4.20736,-1.0405804,7.2695756,0.5057269,7.965975,35.537174,-22.190748,-0.08847087,-0.17871413,0.71813923,4.0623555,14.842222,22.875593,-42.859055,57.05257,8.835072,-0.7673633,-1.0822303,3.4858315,-22.3747,34.65685,56.042503,3.1970642,-1.2405887,-3.0448823
200,-72.7384033203125,-45.4825325012207,75.82403564453125,2.1675515470192264,-0.05688152228440997,-176.3250207492436,-19.841196,3.9022605,13.664906,23.077282,-4.6525493,-0.8382857,6.720999,0.13732086,8.3141775,37.859093,-21.62605,0.21838723,-0.3056343,0.4667947,4.1630144,14.583312,22.872751,-42.857353,57.119694,8.965601,-0.6837826,-1.1273936,3.73658,-22.36579,34.597115,56.450405,3.4929576,-1.1875408,-2.9436862
201,-73.18374633789062,-45.72850799560547,75.88180541992188,2.528122303679475,-0.22433776495823232,-176.688118537776,-18.93879,3.4700487,14.226124,22.71995,-5.0163074,-0.6305329,6.0740166,-0.2706944,8.72294,40.29426,-20.966925,0.6684792,-0.4150914,0.15099129,4.246763,14.281806,22.87149,-42.891697,57.174988,9.08668,-0.6038057,-1.1417114,3.950408,-22.367659,34.598293,56.837643,3.7449384,-1.143733,-2.7593656
202,-73.63082885742188,-45.96355438232422,75.94003295898438,2.9261384407136535,-0.37935812874585884,-177.0591320791246,-17.971653,2.9666264,14.806963,22.188017,-5.306394,-0.42400658,5.3444552,-0.68892765,9.171579,42.84836,-20.219847,1.2293466,-0.50756735,-0.20174825,4.321397,13.928957,22.869379,-42.983845,57.228382,9.183365,-0.52319455,-1.1320345,4.1523056,-22.390234,34.64017,57.19183,3.9717171,-1.1012032,-2.5148203
203,-74.06896209716797,-46.197357177734375,75.9925537109375,3.3378800060030014,-0.520823602127794,-177.4341842789773,-16.978676,2.429142,15.387418,21.5561,-5.5478325,-0.23813953,4.5494075,-1.0921384,9.63386,45.465225,-19.418669,1.8494849,-0.60788465,-0.57661456,4.396896,13.555044,22.871986,-43.059456,57.258312,9.289278,-0.45356274,-1.1129684,4.315434,-22.414303,34.726284,57.517498,4.1410165,-1.064838,-2.261608
204,-74.50706481933594,-46.42832946777344,76.04258728027344,3.739886623893882,-0.6471080942102434,-177.8093877577656,-16.003424,1.8957009,15.95101,20.902561,-5.765694,-0.08886518,3.7014997,-1.4644511,10.0838375,48.090256,-18.593298,2.4674647,-0.7119014,-0.9403596,4.465269,13.152934,22.883883,-43.151234,57.269215,9.363146,-0.404967,-1.08992,4.492401,-22.483164,34.84677,57.743824,4.2396703,-1.0358051,-2.053681
205,-74.936279296875,-46.645076751708984,76.08546447753906,4.140495055407878,-0.7521357113826543,-178.19046254577339,-15.050763,1.3587806,16.51037,20.218586,-5.9528775,0.018242229,2.7723236,-1.8150877,10.545924,50.775723,-17.76141,3.0556257,-0.8211065,-1.3163522,4.531648,12.730439,22.915876,-43.21766,57.24492,9.441422,-0.38288116,-1.0733697,4.653379,-22.567259,35.00471,57.888775,4.2244773,-1.0202705,-1.8981483
206,-75.36305236816406,-46.85255813598633,76.12403869628906,4.545567014664418,-0.8379070092084869,-178.57692679251915,-14.101298,0.80377626,17.068838,19.469717,-6.0983114,0.09369077,1.7595193,-2.1477075,11.027507,53.539925,-16.90609,3.6405735,-0.9335014,-1.7111207,4.5894628,12.2820015,22.969395,-43.28619,57.193817,9.505548,-0.38008842,-1.0553064,4.7903986,-22.647818,35.204716,57.98472,4.1148224,-1.0171288,-1.7721452
207,-75.7766342163086,-47.05022430419922,76.15906524658203,4.930287579440056,-0.9171756334343024,-178.95616668495595,-13.160842,0.25645068,17.601065,18.69353,-6.219345,0.1519768,0.71139,-2.4500299,11.476627,56.28052,-16.001652,4.2321806,-1.0568494,-2.0957828,4.6556144,11.816171,23.04741,-43.343735,57.11163,9.547841,-0.39011508,-1.0305432,4.9030657,-22.725456,35.415234,58.044605,3.9543178,-1.0213593,-1.6731957
208,-76.19315338134766,-47.24931716918945,76.1922378540039,5.271527080185521,-1.002757140851538,-179.31579928123966,-12.237929,-0.2553713,18.083086,17.939125,-6.339794,0.20525108,-0.32861218,-2.7160714,11.8420315,58.90477,-15.0260515,4.8390894,-1.200975,-2.442959,4.7449255,11.328622,23.146444,-43.387814,57.009975,9.549441,-0.4071544,-0.9927257,4.9982095,-22.793926,35.59437,58.079624,3.772145,-1.0276884,-1.5991422
209,-76.59915161132812,-47.431007385253906,76.22080993652344,5.574893297584839,-1.0959449447978775,-179.6555606797058,-11.329146,-0.7370035,18.519556,17.197556,-6.4530396,0.25555497,-1.3687081,-2.9455814,12.137395,61.428326,-13.880996,5.5347095,-1.3705764,-2.7603824,4.8591976,10.81753,23.267597,-43.416466,56.885273,9.486804,-0.43878508,-0.9424761,5.0894923,-22.850048,35.723007,58.072903,3.5197515,-1.0394834,-1.55123
210,-77.00008392333984,-47.60795593261719,76.25377655029297,5.849557042363725,-1.1907238038450048,-179.98173494355098,-10.432557,-1.1975186,18.922798,16.453758,-6.553159,0.29836062,-2.4330888,-3.1487205,12.385156,63.900993,-12.608164,6.27542,-1.5556909,-3.059303,4.99149,10.2777405,23.412558,-43.440285,56.737885,9.371192,-0.48528448,-0.88214284,5.151123,-22.89451,35.83933,58.042377,3.216951,-1.0584885,-1.5307891
211,-77.39071655273438,-47.77721405029297,76.28667449951172,6.08187342770376,-1.2901403233838666,179.71096863790189,-9.552603,-1.6215485,19.28068,15.728478,-6.651545,0.336161,-3.50116,-3.346906,12.537052,66.26827,-11.39375,6.8920074,-1.7553412,-3.321035,5.1369433,9.730344,23.57691,-43.44446,56.568653,9.260048,-0.52906597,-0.8096825,5.2066092,-22.927195,35.924896,57.989445,2.9209585,-1.0752307,-1.5339983
212,-77.79899597167969,-47.940738677978516,76.32559204101562,6.259916881788319,-1.397404131842736,179.42777320435786,-8.694945,-1.9936438,19.582184,15.048723,-6.763141,0.37018406,-4.552243,-3.573089,12.540252,68.47046,-10.425136,7.218297,-1.9677447,-3.527212,5.292487,9.178489,23.753458,-43.432495,56.392765,9.191809,-0.5531024,-0.72180647,5.2675586,-22.948742,35.972473,57.923798,2.702319,-1.0802275,-1.5569504
213,-78.19798278808594,-48.09881591796875,76.3704833984375,6.375871933189075,-1.51729049970396,179.17034071615208,-7.864721,-2.3000755,19.819952,14.439955,-6.8994565,0.40108117,-5.57978,-3.857642,12.3523245,70.50574,-9.683852,7.1893287,-2.1947577,-3.669257,5.4613214,8.624362,23.936348,-43.4007,56.215473,9.193851,-0.5494471,-0.61369324,5.338762,-22.959944,35.97101,57.840668,2.5685766,-1.0639884,-1.6107669
214,-78.59282684326172,-48.252288818359375,76.41661834716797,6.441258475123401,-1.6476538850853866,178.93593398781127,-7.0526166,-2.554296,20.005095,13.875864,-7.0493746,0.42738765,-6.596365,-4.2049775,12.005113,72.398285,-9.09424,6.887369,-2.435952,-3.7601063,5.6448627,8.052044,24.124111,-43.36041,56.0422,9.229669,-0.52885866,-0.4872148,5.4023843,-22.961458,35.9399,57.745407,2.5005052,-1.0336883,-1.6934135
215,-78.97822570800781,-48.41027069091797,76.46269989013672,6.473272673641498,-1.7813267733228313,178.72323573157266,-6.24876,-2.7792165,20.15269,13.317949,-7.192247,0.4467294,-7.604588,-4.5992556,11.556156,74.121216,-8.758871,6.3799095,-2.6872342,-3.8154254,5.8321333,7.473809,24.31369,-43.29579,55.86746,9.286461,-0.5011161,-0.34991983,5.4711027,-22.954348,35.878452,57.640236,2.4836261,-1.0050576,-1.7812976
216,-79.36986541748047,-48.5605354309082,76.50811004638672,6.486584374250152,-1.9108805646956668,178.53097037667413,-5.44195,-2.996805,20.276646,12.723214,-7.308712,0.45672923,-8.604336,-5.0110145,11.06135,75.642746,-8.773703,5.7445645,-2.942217,-3.8476143,6.0137796,6.9027042,24.501335,-43.189102,55.68465,9.355393,-0.47614163,-0.20934667,5.5443573,-22.940136,35.801098,57.536602,2.5219612,-0.9938326,-1.850794
217,-79.75346374511719,-48.705928802490234,76.55348205566406,6.4814075440504375,-2.0402549815479776,178.36422683601523,-4.6243916,-3.211905,20.371176,12.079835,-7.3927336,0.45225358,-9.5876255,-5.455457,10.500919,76.94892,-9.3381405,4.9209013,-3.208969,-3.854492,6.1918426,6.3345566,24.684484,-43.040424,55.50388,9.445743,-0.45815477,-0.072916836,5.6186075,-22.920168,35.707455,57.44294,2.6471713,-1.0089123,-1.8997494
218,-80.13726806640625,-48.85157775878906,76.60366821289062,6.4488443392304715,-2.1722459572820774,178.22258227221195,-3.8061638,-3.4082758,20.431395,11.418635,-7.4592304,0.43499324,-10.545316,-5.918658,9.863716,78.05602,-10.351366,3.9241757,-3.489368,-3.8285875,6.370311,5.763467,24.862038,-42.857014,55.32933,9.558818,-0.44142655,0.06540762,5.6989484,-22.894913,35.588734,57.348026,2.8432019,-1.0402938,-1.9391309
219,-80.52152252197266,-48.99639892578125,76.65470886230469,6.390837782108573,-2.297930893459837,178.09675134658679,-3.0007615,-3.5779128,20.472168,10.756395,-7.5163803,0.41404536,-11.482016,-6.3325105,9.213735,78.97916,-11.452112,2.9439626,-3.7676735,-3.7744734,6.5438385,5.195218,25.033045,-42.63652,55.147095,9.669542,-0.42118928,0.2187379,5.780989,-22.864697,35.463802,57.24571,3.0614142,-1.0754199,-1.9654396
220,-80.90033721923828,-49.13399124145508,76.7104721069336,6.31082918291198,-2.4079090535930887,177.97699596724968,-2.2182057,-3.7174516,20.509474,10.100235,-7.569196,0.40025353,-12.409985,-6.641825,8.6015005,79.73492,-12.271158,2.149876,-4.030589,-3.6990173,6.7055016,4.6328063,25.197363,-42.379883,54.94687,9.746373,-0.3927756,0.4003412,5.8627872,-22.830597,35.348083,57.129456,3.2456486,-1.1016309,-1.9755538
221,-81.27819061279297,-49.266082763671875,76.76860809326172,6.207921085866255,-2.5048847456014127,177.86117021929104,-1.453495,-3.8253446,20.546871,9.449728,-7.614759,0.40542218,-13.334971,-6.8609138,7.999308,80.32078,-12.698142,1.5681571,-4.2777915,-3.6018019,6.8558035,4.064761,25.355307,-42.10351,54.746166,9.768207,-0.34861413,0.6350023,5.9511037,-22.791807,35.237377,56.992672,3.4009318,-1.1162463,-1.9705803
222,-81.65153503417969,-49.396446228027344,76.82616424560547,6.082384055560858,-2.592522754399431,177.75425782517507,-0.70075434,-3.9066043,20.577665,8.797267,-7.6505713,0.42340013,-14.250959,-7.014568,7.3830705,80.72962,-12.926161,1.1116322,-4.5131307,-3.4817817,6.9979744,3.497779,25.506296,-41.796227,54.541664,9.763896,-0.293349,0.90850604,6.039061,-22.748743,35.13038,56.846302,3.5566437,-1.1258174,-1.9517694
223,-82.0203857421875,-49.52405548095703,76.88302612304688,5.941349225190946,-2.6624184531961617,177.65635416271314,0.016817477,-3.9642386,20.603718,8.170806,-7.691883,0.43824503,-15.159136,-7.0719433,6.8017693,80.97014,-13.0364275,0.767509,-4.736711,-3.3448884,7.1287456,2.9424324,25.650734,-41.43959,54.305378,9.745751,-0.24146073,1.1758806,6.1243014,-22.702501,35.033276,56.689205,3.672339,-1.1309774,-1.91567
224,-82.40096282958984,-49.6441650390625,76.94013977050781,5.790855779260266,-2.7056469501469027,177.56765059360208,0.67846847,-4.001154,20.62695,7.5909166,-7.7496986,0.43267107,-16.062372,-7.0013647,6.306746,81.05013,-13.109156,0.52552897,-4.9501534,-3.196554,7.245091,2.402416,25.790443,-41.022327,54.0134,9.717036,-0.20736669,1.3919494,6.2003865,-22.655901,34.954845,56.523174,3.709193,-1.1322838,-1.8589511
225,-82.77360534667969,-49.76288604736328,76.98970794677734,5.626524738492001,-2.7181444690781262,177.48994484420035,1.238428,-3.9962354,20.64856,7.1480737,-7.869943,0.39485422,-16.969738,-6.7724013,5.915927,80.96588,-13.12565,0.39915475,-5.1514807,-3.0323884,7.3434663,1.8891519,25.925507,-40.506058,53.653408,9.697568,-0.19519438,1.5253142,6.2699943,-22.61148,34.894985,56.34419,3.62508,-1.1256104,-1.7609193
226,-83.13481140136719,-49.87814712524414,77.03282928466797,5.447254356572862,-2.705222373182976,177.42233999536728,1.5812037,-3.899367,20.677315,7.12084,-8.199538,0.3336615,-17.880203,-6.4087873,5.5987544,80.71182,-13.05147,0.38991535,-5.342264,-2.8513434,7.4278817,1.3939922,26.05695,-39.9104,53.24037,9.674576,-0.19714285,1.6061475,6.3261585,-22.570686,34.860344,56.156677,3.461639,-1.112219,-1.6297966
227,-83.50086212158203,-49.988075256347656,77.0717544555664,5.264710149970801,-2.672442055529074,177.36071997682348,1.8962158,-3.795905,20.705597,7.0979176,-8.526971,0.2682394,-18.780592,-5.9610624,5.337929,80.294525,-12.946994,0.471417,-5.5259614,-2.6643212,7.5036325,0.9161319,26.187057,-39.286354,52.77381,9.631845,-0.20906873,1.6813369,6.3771152,-22.532627,34.84315,55.95587,3.2796972,-1.1007348,-1.5050764
228,-83.86485290527344,-50.09233474731445,77.10673522949219,5.08973384062671,-2.6255587888075675,177.3011033976326,2.191568,-3.6986847,20.73749,7.0786786,-8.856791,0.21319488,-19.65676,-5.4788165,5.115769,79.71929,-12.872361,0.61594707,-5.702229,-2.4826586,7.576673,0.453353,26.31892,-38.687237,52.25357,9.554822,-0.22664629,1.7979432,6.4164233,-22.49721,34.84546,55.75035,3.1539671,-1.1000589,-1.4265921
229,-84.22337341308594,-50.19284439086914,77.13074493408203,4.920897786279651,-2.561029077457973,177.24239644541794,2.4620202,-3.6057456,20.776985,7.0646534,-9.193415,0.16840354,-20.511839,-4.931396,4.963829,78.974815,-12.8633,0.84662664,-5.8676014,-2.3036926,7.645575,0.0043702903,26.454075,-38.119186,51.671062,9.4380665,-0.24453104,1.9747058,6.4422064,-22.464361,34.87332,55.535297,3.1144733,-1.113503,-1.4144198
230,-84.58367919921875,-50.29829025268555,77.1513671875,4.753986469666284,-2.4775601611780886,177.1869219214403,2.7065256,-3.512573,20.820831,7.054397,-9.533133,0.12622213,-21.349977,-4.3119993,4.882751,78.05919,-12.882535,1.1642354,-6.022322,-2.1241453,7.7077365,-0.42749816,26.592583,-37.556183,51.026638,9.291168,-0.26641187,2.1842074,6.462861,-22.433832,34.917645,55.30577,3.1125693,-1.1358314,-1.444004
231,-84.94471740722656,-50.39668655395508,77.1683120727539,4.595340915702114,-2.384489909020244,177.13585249491513,2.9349217,-3.4261281,20.862415,7.0486937,-9.869434,0.090062805,-22.159857,-3.7047353,4.8082995,76.99638,-12.881327,1.5086079,-6.1691656,-1.9524353,7.7698197,-0.8452412,26.735832,-37.012154,50.336334,9.112146,-0.30195552,2.4048905,6.472748,-22.40388,34.97432,55.07858,3.125588,-1.1630816,-1.4883733
232,-85.29933166503906,-50.48981857299805,77.17572021484375,4.451366631862998,-2.290647701535352,177.0901635088971,3.1578305,-3.354053,20.894815,7.048709,-10.19718,0.06368357,-22.92989,-3.1899755,4.6760197,75.810265,-12.809196,1.8229159,-6.3099775,-1.7982638,7.8375382,-1.2526248,26.885519,-36.50266,49.617546,8.898965,-0.36076877,2.6151485,6.469918,-22.372536,35.032757,54.87006,3.1234252,-1.191509,-1.5207243
233,-85.65531158447266,-50.58304214477539,77.18095397949219,4.324057990063477,-2.1962862677007475,177.05064544838447,3.372663,-3.297826,20.9177,7.055745,-10.513079,0.04949092,-23.662127,-2.7626166,4.49503,74.498825,-12.644413,2.120716,-6.441133,-1.6656952,7.9139442,-1.6488951,27.04302,-36.022373,48.859154,8.637285,-0.4486817,2.808158,6.4487524,-22.338173,35.095695,54.685253,3.096965,-1.2237359,-1.532324
234,-86.01237487792969,-50.667964935302734,77.18106842041016,4.209638905015816,-2.097047410081624,177.01655667947014,3.5753748,-3.2533395,20.934126,7.0701513,-10.8217945,0.044588875,-24.359903,-2.3891618,4.293529,73.05207,-12.417535,2.4224052,-6.5636587,-1.5496782,7.9948,-2.0330184,27.209234,-35.568268,48.057045,8.329454,-0.5596716,2.995343,6.415017,-22.29985,35.162685,54.514038,3.0568132,-1.2606784,-1.5382768
235,-86.36536407470703,-50.751583099365234,77.17088317871094,4.105957753438766,-1.9956638216095786,176.98628617615202,3.7739875,-3.2191868,20.943426,7.086794,-11.124951,0.044937864,-25.011717,-2.1026747,4.033478,71.47858,-12.153569,2.6857405,-6.6803713,-1.4457985,8.076222,-2.397526,27.383175,-35.148525,47.2281,8.014421,-0.6850825,3.1825514,6.3689103,-22.256762,35.23239,54.36168,3.023559,-1.2961994,-1.5469975
236,-86.72540283203125,-50.82710266113281,77.15951538085938,4.009979400754532,-1.8945311334216095,176.9583382560877,3.9762866,-3.192847,20.94446,7.103291,-11.426428,0.046483256,-25.607513,-1.934536,3.6734984,69.79049,-11.878616,2.8674233,-6.7954226,-1.3492192,8.153165,-2.736168,27.56234,-34.77225,46.392845,7.7299175,-0.81611985,3.376129,6.3203063,-22.208616,35.293015,54.227642,3.0057144,-1.3241374,-1.5671796
237,-87.08493041992188,-50.90017318725586,77.14369201660156,3.9242636582012977,-1.7931154810041185,176.93359269018097,4.1803765,-3.1771715,20.932161,7.1202283,-11.722172,0.05364639,-26.147627,-1.9051236,3.195638,67.98739,-11.596471,2.947421,-6.9089828,-1.2619354,8.227075,-3.0493166,27.745632,-34.441113,45.54526,7.476522,-0.9573229,3.5841188,6.263972,-22.155205,35.348995,54.112476,3.0140283,-1.3396839,-1.6032982
238,-87.4478759765625,-50.977474212646484,77.1272964477539,3.8488973568847147,-1.690420936661271,176.91231246095694,4.383634,-3.1715667,20.908594,7.138691,-12.012161,0.066453695,-26.632519,-1.9874151,2.620538,66.064156,-11.294237,2.9558165,-7.0189962,-1.1845877,8.299264,-3.340526,27.93252,-34.151012,44.679497,7.237188,-1.1110479,3.801383,6.1997685,-22.096045,35.401524,54.014904,3.0382833,-1.3472778,-1.6501814
239,-87.82027435302734,-51.04734802246094,77.10618591308594,3.777325610938311,-1.588009821860284,176.8919280444155,4.5920777,-3.1691132,20.883968,7.155303,-12.3046055,0.0746045,-27.05109,-2.1393762,1.9656092,64.02416,-10.97313,2.9284546,-7.123111,-1.1106088,8.3654585,-3.607877,28.11979,-33.90131,43.816715,7.0273104,-1.2654352,4.0151706,6.1342816,-22.031244,35.443027,53.93922,3.0687983,-1.3544794,-1.7014636
