unveil-humanoid-operators/unveil-humanoid-operators.github.io/feature-analysis-animation/data/feature_matrix_instances/weight_ankle_rom_walking_A030_walk_sideway_090_stop_001__A030.csv
Frame,root_translateX,root_translateY,root_translateZ,root_rotateX,root_rotateY,root_rotateZ,left_hip_pitch_joint_dof,left_hip_roll_joint_dof,left_hip_yaw_joint_dof,left_knee_joint_dof,left_ankle_pitch_joint_dof,left_ankle_roll_joint_dof,right_hip_pitch_joint_dof,right_hip_roll_joint_dof,right_hip_yaw_joint_dof,right_knee_joint_dof,right_ankle_pitch_joint_dof,right_ankle_roll_joint_dof,waist_yaw_joint_dof,waist_roll_joint_dof,waist_pitch_joint_dof,left_shoulder_pitch_joint_dof,left_shoulder_roll_joint_dof,left_shoulder_yaw_joint_dof,left_elbow_joint_dof,left_wrist_roll_joint_dof,left_wrist_pitch_joint_dof,left_wrist_yaw_joint_dof,right_shoulder_pitch_joint_dof,right_shoulder_roll_joint_dof,right_shoulder_yaw_joint_dof,right_elbow_joint_dof,right_wrist_roll_joint_dof,right_wrist_pitch_joint_dof,right_wrist_yaw_joint_dof
0,-2.2273683547973633,-0.01904326304793358,78.74181365966797,-2.5339763039685015,-2.5283597303208567,4.811414418423358,-7.8501377,5.142721,-1.6986122,22.559645,-11.011234,-1.9888732,4.0132537,-2.8365765,-22.669497,8.912682,-9.152622,-1.2719729,-5.2399025,2.8064334,13.3376875,-16.526712,7.077583,-59.345448,76.632095,-16.043428,-2.907639,-1.3505881,-13.478114,-8.27875,49.62146,67.819084,-2.0825684,5.4385786,-7.193584
1,-2.2327418327331543,-0.020283058285713196,78.7416763305664,-2.536393460946227,-2.514600832047664,4.787161426567663,-7.8645253,5.15392,-1.6758031,22.565798,-11.018597,-1.9953816,3.9940896,-2.829942,-22.65085,8.903875,-9.145083,-1.2698566,-5.263123,2.8143265,13.336036,-16.54972,7.058774,-59.39602,76.66801,-16.1443,-2.945487,-1.3587399,-13.503955,-8.262448,49.61075,67.81289,-2.071381,5.4461594,-7.2023716
2,-2.2345125675201416,-0.02045360393822193,78.74163818359375,-2.539195968612682,-2.5010633403543645,4.763100064025552,-7.878458,5.16556,-1.6532022,22.57201,-11.026479,-2.003736,3.97592,-2.8226476,-22.632666,8.894474,-9.137946,-1.2675458,-5.2898564,2.822106,13.33774,-16.568504,7.049294,-59.440857,76.69166,-16.248457,-2.9843338,-1.368394,-13.528399,-8.2518,49.60178,67.796906,-2.063455,5.455136,-7.207887
3,-2.232297420501709,-0.015330549329519272,78.74376678466797,-2.541105752354765,-2.486957854776603,4.738570341290285,-7.893038,5.1763253,-1.6300466,22.577587,-11.0330515,-2.008421,3.9550183,-2.8168929,-22.613705,8.888347,-9.131298,-1.265636,-5.2826514,2.8266473,13.330115,-16.597538,7.0299473,-59.539665,76.73212,-16.362776,-3.019795,-1.3749927,-13.54661,-8.22536,49.557262,67.79992,-2.05648,5.45967,-7.2205324
4,-2.2333004474639893,-0.016160672530531883,78.74496459960938,-2.5420863300036216,-2.471513404451854,4.713541180535139,-7.910783,5.185693,-1.6064767,22.58493,-11.037751,-2.0039868,3.9305294,-2.813057,-22.593332,8.884598,-9.122997,-1.2647172,-5.2943897,2.8380466,13.329919,-16.621344,7.0196857,-59.59735,76.74989,-16.420979,-3.0448453,-1.3801835,-13.566929,-8.207983,49.522057,67.79321,-2.0447075,5.4615283,-7.2401476
5,-2.2384936809539795,-0.0115253496915102,78.74591064453125,-2.5416734890571204,-2.4520572926665802,4.688277324069011,-7.935503,5.192852,-1.5827951,22.594004,-11.038775,-1.9837472,3.9002283,-2.8116257,-22.572453,8.881907,-9.1114235,-1.2637051,-5.307231,2.855779,13.3301115,-16.644632,7.0127234,-59.643265,76.75182,-16.42009,-3.0560114,-1.3767072,-13.585801,-8.192613,49.47552,67.78493,-2.0237343,5.4569893,-7.2751346
6,-2.2406327724456787,-0.007567022927105427,78.74601745605469,-2.539992813339247,-2.430114010731173,4.662593413196319,-7.96548,5.198254,-1.5586513,22.605358,-11.037544,-1.9523691,3.8644874,-2.8126535,-22.550646,8.882272,-9.098262,-1.2627406,-5.3079567,2.8761997,13.3300295,-16.673616,7.005097,-59.698082,76.74799,-16.383228,-3.0568938,-1.3678237,-13.603033,-8.170841,49.400154,67.78222,-2.0057557,5.4466443,-7.3204317
7,-2.242657423019409,-0.004553120583295822,78.74600982666016,-2.5376116261225516,-2.4100230552635034,4.63581038812605,-7.9910407,5.2033043,-1.5333667,22.613617,-11.035021,-1.9213756,3.829286,-2.814669,-22.526625,8.886097,-9.086357,-1.2640486,-5.3118534,2.8984833,13.332918,-16.701418,6.999652,-59.73994,76.73949,-16.327438,-3.0541399,-1.3643136,-13.6192045,-8.150315,49.33218,67.77976,-1.9840257,5.4354925,-7.3662705
8,-2.2454376220703125,-0.0021062702871859074,78.74746704101562,-2.534436457941957,-2.39647788227553,4.6057154638270665,-8.002909,5.2091713,-1.5043288,22.614286,-11.032505,-1.9021893,3.7985728,-2.817184,-22.49716,8.897141,-9.079885,-1.2700219,-5.307957,2.9210517,13.340572,-16.733135,6.995736,-59.77963,76.73635,-16.28309,-3.0547884,-1.3799604,-13.629189,-8.130401,49.27015,67.77908,-1.9695934,5.423593,-7.401249
9,-2.248223066329956,-1.9746187263081083e-07,78.74822998046875,-2.530619181812936,-2.3928758877296405,4.570105102150497,-7.993049,5.2172055,-1.4691519,22.601725,-11.028443,-1.8997408,3.7761972,-2.8187482,-22.458403,8.914238,-9.077836,-1.2842865,-5.2980022,2.9433804,13.355551,-16.766977,6.992748,-59.81763,76.740425,-16.252884,-3.062342,-1.4208552,-13.632753,-8.109687,49.217373,67.77872,-1.9574331,5.412094,-7.428211
10,-2.252981185913086,0.001448090304620564,78.74947357177734,-2.525898857034242,-2.3957619362071836,4.530019207074693,-7.9700365,5.226302,-1.4291037,22.58316,-11.024458,-1.9072361,3.7582247,-2.8205597,-22.41234,8.938389,-9.080117,-1.3045896,-5.29059,2.9688966,13.376709,-16.800772,6.991581,-59.842308,76.74541,-16.221882,-3.07329,-1.4799157,-13.630582,-8.096701,49.18024,67.77426,-1.9437054,5.399067,-7.4505167
11,-2.2536942958831787,0.004515550564974546,78.75154876708984,-2.520922425347271,-2.400315841415565,4.491455274505504,-7.9427514,5.2346225,-1.3905797,22.560684,-11.020059,-1.9188732,3.7428858,-2.8230276,-22.368137,8.963417,-9.084824,-1.3243773,-5.2794805,2.9941063,13.398766,-16.836851,6.9910536,-59.86203,76.75184,-16.194271,-3.0816562,-1.5453374,-13.622235,-8.086865,49.153984,67.76602,-1.9335078,5.3887634,-7.461236
12,-2.2402663230895996,0.0029484222177416086,78.75386047363281,-2.5160698850871417,-2.4013582624011343,4.459192856915875,-7.9219747,5.240378,-1.3588116,22.539808,-11.0164795,-1.9287386,3.7290616,-2.826289,-22.333925,8.98128,-9.088796,-1.3372194,-5.2525287,3.0169775,13.416354,-16.880869,6.990032,-59.891132,76.7609,-16.178553,-3.081369,-1.6077578,-13.610566,-8.073302,49.127525,67.76418,-1.9359927,5.3813105,-7.452419
13,-2.2298970222473145,0.0036919405683875084,78.75474548339844,-2.5136682749884156,-2.3976888693539458,4.436025871058977,-7.9112515,5.2448416,-1.3381201,22.52407,-11.015843,-1.9369937,3.7206182,-2.8273625,-22.315424,8.983545,-9.089811,-1.3409648,-5.2343526,3.0459654,13.426453,-16.91282,6.9899893,-59.897537,76.760124,-16.16723,-3.071566,-1.6614327,-13.594082,-8.071144,49.128822,67.758896,-1.9478495,5.379233,-7.415174
14,-2.2281618118286133,0.006545958574861288,78.7542495727539,-2.5091976703477337,-2.392592663379853,4.4123057737987645,-7.8991365,5.247025,-1.3166298,22.502464,-11.013993,-1.9459152,3.709505,-2.8327801,-22.2996,8.9909525,-9.0965805,-1.3392549,-5.189835,3.0648916,13.437192,-16.98234,6.988433,-59.92674,76.78242,-16.186813,-3.0480485,-1.7413505,-13.569636,-8.063029,49.139362,67.751755,-1.9601387,5.379254,-7.359905
15,-2.228816032409668,0.009312249720096588,78.75279998779297,-2.5058934161409163,-2.3856004104551594,4.397498874073462,-7.893106,5.247175,-1.304019,22.484922,-11.013293,-1.9538954,3.7025697,-2.836889,-22.29311,8.988977,-9.100026,-1.3340883,-5.151096,3.089674,13.44405,-17.032282,6.9872675,-59.939682,76.788376,-16.19083,-3.0255249,-1.7975465,-13.545538,-8.058727,49.15355,67.75036,-1.987758,5.383745,-7.293156
16,-2.227698802947998,0.009967302903532982,78.75385284423828,-2.5011230166534686,-2.377156941721994,4.39088002105193,-7.889727,5.242838,-1.2970675,22.465763,-11.009336,-1.9588172,3.6960602,-2.8432372,-22.291077,8.985869,-9.101964,-1.3273426,-5.114902,3.105017,13.450469,-17.088484,6.9848166,-59.958664,76.803085,-16.193506,-3.0070248,-1.8311642,-13.520665,-8.053078,49.18607,67.74857,-2.008161,5.395389,-7.2367215
17,-2.226675271987915,0.012487823143601418,78.75727081298828,-2.494933406087956,-2.3659738041214706,4.395841914717808,-7.8929057,5.232581,-1.2988379,22.447842,-11.002461,-1.9598427,3.687206,-2.8528757,-22.29543,8.984827,-9.103183,-1.317382,-5.08547,3.1180944,13.456598,-17.136076,6.981736,-59.969597,76.80838,-16.172949,-2.9957461,-1.8281317,-13.500142,-8.047454,49.227596,67.75272,-2.0427809,5.4183764,-7.181227
18,-2.225693702697754,0.013284447602927685,78.75763702392578,-2.4877833599690633,-2.3523672457977844,4.410133272246197,-7.9007955,5.2178626,-1.3079102,22.42948,-10.993201,-1.95815,3.6797886,-2.8640857,-22.306131,8.978134,-9.100711,-1.3039047,-5.076434,3.127732,13.457568,-17.175726,6.9730887,-59.96024,76.81728,-16.140049,-2.9883676,-1.7988483,-13.486699,-8.033838,49.31273,67.77019,-2.0721233,5.4513383,-7.1269193
19,-2.221689224243164,0.016051240265369415,78.757080078125,-2.480502829235928,-2.3387219516442,4.429392862383122,-7.9108973,5.201531,-1.3208781,22.41402,-10.984278,-1.9547778,3.6726036,-2.8762405,-22.320398,8.974182,-9.100573,-1.2909212,-5.0704503,3.1366055,13.460956,-17.214188,6.963247,-59.93876,76.825424,-16.093672,-2.9833307,-1.7556542,-13.478164,-8.01884,49.394295,67.79561,-2.1033142,5.482588,-7.078588
20,-2.2196297645568848,0.015770472586154938,78.75737762451172,-2.4736899576158,-2.3275119591574076,4.448583900313339,-7.918892,5.1864944,-1.3333526,22.40033,-10.975955,-1.950817,3.6682856,-2.8871565,-22.334633,8.970808,-9.102712,-1.2824559,-5.0513334,3.1452568,13.466441,-17.250084,6.957862,-59.927803,76.82642,-16.046255,-2.9776762,-1.7072476,-13.460432,-8.011312,49.449955,67.81278,-2.1239922,5.5035543,-7.0480056
21,-2.216215133666992,0.0172357689589262,78.75743865966797,-2.4674956876868652,-2.318403757307185,4.467580913088134,-7.926153,5.17329,-1.3446952,22.391048,-10.969451,-1.9457082,3.6641457,-2.8976312,-22.34849,8.9739485,-9.11135,-1.2809418,-5.0314016,3.1547518,13.470848,-17.279737,6.952648,-59.912292,76.82648,-16.001223,-2.975101,-1.6556313,-13.439403,-8.005167,49.505642,67.833534,-2.1149676,5.5108027,-7.0459585
22,-2.2137739658355713,0.015279867686331272,78.75640106201172,-2.4617279716575435,-2.3103051361507867,4.488878902063384,-7.9348226,5.160386,-1.3572989,22.386608,-10.964708,-1.9391333,3.6618311,-2.907407,-22.36396,8.977563,-9.122383,-1.2837389,-5.0333138,3.1654098,13.471635,-17.298021,6.9420176,-59.8679,76.831665,-15.949394,-2.977257,-1.5948017,-13.424409,-7.994117,49.595818,67.86802,-2.072883,5.510057,-7.066844
23,-2.209588050842285,0.01568295620381832,78.75796508789062,-2.4562807249932743,-2.3044247466868346,4.510526596792767,-7.940727,5.148061,-1.3707433,22.38205,-10.959669,-1.9325601,3.66257,-2.9164677,-22.380077,8.98106,-9.133618,-1.2874025,-5.0071087,3.1743507,13.4772005,-17.319828,6.938035,-59.85561,76.825966,-15.895076,-2.9747648,-1.5250175,-13.398144,-7.9904323,49.63016,67.88974,-2.0459597,5.503716,-7.0900393
24,-2.204927444458008,0.01343917939811945,78.75880432128906,-2.451652151964735,-2.3009151180606264,4.5316788040837785,-7.943046,5.1364846,-1.3858101,22.377733,-10.955148,-1.9273658,3.6674533,-2.9244888,-22.396997,8.983156,-9.143162,-1.2882897,-5.002832,3.1825814,13.479913,-17.32863,6.9310923,-59.833027,76.822464,-15.826955,-2.9665139,-1.4409081,-13.375956,-7.98506,49.678577,67.914345,-2.0104055,5.497319,-7.1091967
25,-2.195747137069702,0.011888124980032444,78.75841522216797,-2.447722938414736,-2.3011753880759893,4.551573395884789,-7.938549,5.1256514,-1.4026463,22.371298,-10.949133,-1.9227602,3.6788113,-2.9319327,-22.414696,8.98334,-9.15,-1.2831949,-5.0019817,3.1909492,13.485605,-17.32899,6.926613,-59.81991,76.81112,-15.745861,-2.949452,-1.3461759,-13.353547,-7.9817176,49.70589,67.93462,-1.980466,5.4871073,-7.1181545
26,-2.1876232624053955,0.009359982796013355,78.75889587402344,-2.4442244314699293,-2.304659835048649,4.57045174569295,-7.9284697,5.11561,-1.4203293,22.363382,-10.941956,-1.9183755,3.695696,-2.9383528,-22.43281,8.981165,-9.1548,-1.2748156,-5.0057297,3.1981404,13.492456,-17.321653,6.922999,-59.8115,76.7953,-15.655445,-2.9249895,-1.2404616,-13.33056,-7.9791903,49.721867,67.95369,-1.9497032,5.4732103,-7.125831
27,-2.180201530456543,0.008343528024852276,78.75828552246094,-2.4418410597962903,-2.3078730082045036,4.589677791032769,-7.9195237,5.1067944,-1.4393853,22.357485,-10.937038,-1.9163499,3.7125008,-2.9432435,-22.451525,8.978827,-9.158974,-1.268488,-5.0131545,3.205115,13.498149,-17.313694,6.91936,-59.806732,76.78345,-15.55934,-2.9011312,-1.1264704,-13.309609,-7.9767537,49.727825,67.970055,-1.9238546,5.461547,-7.1278033
28,-2.1744143962860107,0.008276494219899178,78.75696563720703,-2.4411040195831077,-2.309893389219329,4.613148189216292,-7.913331,5.098231,-1.4624711,22.351957,-10.935043,-1.9185108,3.7282624,-2.946393,-22.4738,8.977315,-9.164767,-1.2689164,-5.028179,3.2126384,13.497266,-17.287212,6.9124002,-59.793537,76.763756,-15.430361,-2.8724487,-0.97550493,-13.287057,-7.9720254,49.72741,67.9892,-1.9077106,5.4536867,-7.125937
29,-2.1666836738586426,0.005746619310230017,78.75724029541016,-2.4428258808918484,-2.3071129588743013,4.640149307912016,-7.9149075,5.0914316,-1.4894142,22.348478,-10.938395,-1.9276583,3.7359865,-2.9467533,-22.498419,8.980782,-9.1729145,-1.282269,-5.046408,3.220627,13.493548,-17.2656,6.9057107,-59.77986,76.7529,-15.279989,-2.8492277,-0.8024247,-13.270794,-7.96706,49.705738,68.00678,-1.9123774,5.45535,-7.105922
30,-2.1632347106933594,0.002221776405349374,78.7579345703125,-2.4467700980776574,-2.3020733307265187,4.670034255248326,-7.9211407,5.0862308,-1.5200263,22.34777,-10.946352,-1.942044,3.740532,-2.9444683,-22.525442,8.985843,-9.181639,-1.30434,-5.0641074,3.228772,13.487883,-17.243244,6.896543,-59.76788,76.74464,-15.105878,-2.8250537,-0.6050733,-13.257683,-7.9596596,49.65655,68.025696,-1.9368819,5.4621673,-7.0726867
31,-2.158841133117676,0.002148983534425497,78.7583236694336,-2.450519539873769,-2.297145977293724,4.700574868762473,-7.927813,5.080669,-1.5505038,22.347816,-10.95503,-1.9568715,3.7459035,-2.9421785,-22.552666,8.990106,-9.191117,-1.3250419,-5.083318,3.2352154,13.480643,-17.215397,6.8888497,-59.76118,76.73465,-14.934741,-2.8009489,-0.39991125,-13.244319,-7.9530087,49.60783,68.0406,-1.9614091,5.4711256,-7.0458217
32,-2.150092363357544,-0.0009681959636509418,78.75829315185547,-2.4521379725533565,-2.294573582586006,4.729341158799321,-7.9308577,5.0736704,-1.577152,22.347752,-10.961449,-1.9674698,3.7572947,-2.941393,-22.57836,8.987352,-9.198672,-1.33466,-5.0957146,3.2387068,13.476275,-17.188122,6.881516,-59.759045,76.72815,-14.781512,-2.7776325,-0.2071697,-13.233682,-7.946403,49.560963,68.05606,-1.9838653,5.477257,-7.0396104
33,-2.1415767669677734,-0.004926328547298908,78.75653839111328,-2.450293908745571,-2.295321779493898,4.757218592544207,-7.9299574,5.063447,-1.599108,22.348444,-10.964738,-1.9730129,3.7748516,-2.9445097,-22.602282,8.980799,-9.207354,-1.3273998,-5.102777,3.2373974,13.475811,-17.16033,6.872535,-59.763195,76.72508,-14.651416,-2.7587342,-0.024579627,-13.224316,-7.9380727,49.52619,68.07056,-2.000852,5.4823523,-7.0684013
34,-2.1321351528167725,-0.004028532654047012,78.7566146850586,-2.446342846155628,-2.297789364340854,4.7843805835090105,-7.9269576,5.051477,-1.6177965,22.349789,-10.9665985,-1.9759161,3.7981558,-2.9487596,-22.625061,8.966996,-9.214418,-1.3096323,-5.109863,3.232731,13.476437,-17.129772,6.864859,-59.768467,76.72507,-14.5338955,-2.7441478,0.15420622,-13.21769,-7.930714,49.505596,68.08597,-2.0125003,5.486019,-7.120044
35,-2.1254525184631348,-0.0038384925574064255,78.75534057617188,-2.4420128150736113,-2.3012620736846734,4.809242924323445,-7.9229164,5.039908,-1.6345149,22.353203,-10.969165,-1.9761401,3.822662,-2.9533134,-22.646263,8.952897,-9.221715,-1.2893797,-5.1224804,3.2276096,13.477486,-17.093943,6.8611875,-59.770798,76.72199,-14.432435,-2.7259126,0.3231106,-13.213044,-7.92711,49.495064,68.095955,-2.0155647,5.4878006,-7.1757827
36,-2.1203536987304688,-0.005696193315088749,78.75416564941406,-2.439569954572025,-2.3050796759053784,4.829533006303735,-7.9173098,5.0317907,-1.6501056,22.357588,-10.973448,-1.9737709,3.8454547,-2.9557238,-22.665747,8.941668,-9.22917,-1.2748723,-5.1385984,3.2244658,13.474322,-17.052322,6.8574653,-59.771603,76.7196,-14.348716,-2.6975002,0.47421488,-13.209495,-7.923416,49.479546,68.10358,-2.013121,5.4850583,-7.2151756
37,-2.114212989807129,-0.00909595936536789,78.7545166015625,-2.4393222029752706,-2.310764088771586,4.842760313939813,-7.9074054,5.028361,-1.6635945,22.363115,-10.980158,-1.9659964,3.8683183,-2.9557467,-22.6827,8.934359,-9.237807,-1.2669123,-5.159759,3.2238603,13.4685135,-17.003624,6.85365,-59.771126,76.71754,-14.290168,-2.65177,0.6077844,-13.208904,-7.919728,49.453823,68.1086,-2.004605,5.475973,-7.225949
38,-2.106656074523926,-0.01168116182088852,78.75187683105469,-2.440672953616161,-2.31819764303301,4.8505668913943385,-7.894725,5.0284557,-1.6750462,22.371262,-10.9891815,-1.9538306,3.8923333,-2.9536264,-22.697567,8.927868,-9.246501,-1.2617098,-5.1809916,3.2254863,13.459838,-16.947308,6.849631,-59.76963,76.714226,-14.2482195,-2.5934722,0.7274199,-13.210962,-7.9161468,49.415855,68.11541,-1.9963592,5.461242,-7.2193317
39,-2.093165874481201,-0.015300314873456955,78.75086975097656,-2.4425048748882547,-2.3239191802094608,4.8573205640518475,-7.8836756,5.0293345,-1.6861588,22.379238,-10.998256,-1.942771,3.9128072,-2.951182,-22.710873,8.923897,-9.255044,-1.2600933,-5.1750646,3.2267385,13.449442,-16.906294,6.833814,-59.790638,76.7286,-14.214559,-2.5353968,0.827524,-13.212813,-7.903677,49.327724,68.127914,-2.008175,5.441878,-7.210855
40,-2.0771031379699707,-0.014288793317973614,78.75092315673828,-2.444728157535927,-2.3238055195186367,4.866695087467229,-7.8816776,5.029449,-1.6986258,22.388954,-11.007591,-1.9384896,3.9250162,-2.9483502,-22.723131,8.9219885,-9.262451,-1.2630986,-5.1879935,3.2302139,13.432826,-16.861101,6.826644,-59.798317,76.73912,-14.184269,-2.4925072,0.9089123,-13.215363,-7.8991,49.294865,68.13383,-1.9924442,5.421846,-7.2268195
41,-2.0619847774505615,-0.014604602009057999,78.7497329711914,-2.4463452889538075,-2.3154015123573513,4.879523033112182,-7.8902564,5.027403,-1.712043,22.39669,-11.015002,-1.9451447,3.9246364,-2.946456,-22.73251,8.925098,-9.268387,-1.2742454,-5.20335,3.2336144,13.416191,-16.835382,6.825184,-59.801228,76.75932,-14.154366,-2.4697475,0.95427895,-13.221759,-7.8983655,49.28799,68.13398,-1.968164,5.3993278,-7.2754974
42,-2.051417827606201,-0.01718250662088394,78.74839782714844,-2.450137430094806,-2.29761809033085,4.8974456049107955,-7.9141192,5.025469,-1.730699,22.410019,-11.023697,-1.9592023,3.9135957,-2.9421275,-22.743835,8.928746,-9.272083,-1.292145,-5.2060313,3.2462,13.377611,-16.790905,6.8168855,-59.8213,76.77167,-14.114759,-2.4534428,0.9939071,-13.2183485,-7.8944526,49.27206,68.14837,-1.9429318,5.363883,-7.351573
43,-2.0391440391540527,-0.018513618037104607,78.74925231933594,-2.452922731615739,-2.28250079633158,4.913528659918105,-7.9331336,5.023361,-1.7464734,22.420212,-11.031673,-1.9734309,3.9045982,-2.9387262,-22.752338,8.9324,-9.275539,-1.3095427,-5.2129855,3.2529933,13.350788,-16.765455,6.8132567,-59.829033,76.79611,-14.084109,-2.445977,1.0123979,-13.223389,-7.893126,49.267586,68.15046,-1.9149501,5.337955,-7.421192
44,-2.0435853004455566,-0.017091834917664528,78.74744415283203,-2.4563327494314007,-2.271494281685383,4.927432112928732,-7.947956,5.023078,-1.760792,22.434322,-11.043022,-1.9813198,3.9020882,-2.9341397,-22.761091,8.933415,-9.281187,-1.3197453,-5.2152257,3.262217,13.320296,-16.72743,6.807076,-59.836246,76.81483,-14.05676,-2.44052,1.0386215,-13.225579,-7.8911996,49.256626,68.1538,-1.8868715,5.322005,-7.4684315
45,-2.0385682582855225,-0.017076363787055016,78.74849700927734,-2.4593848321527587,-2.2701564872715414,4.9385965301426795,-7.9499707,5.024139,-1.772324,22.448128,-11.056233,-1.9800152,3.9141865,-2.9285793,-22.76968,8.92728,-9.287423,-1.3211523,-5.2126894,3.266672,13.30036,-16.691713,6.7989225,-59.831463,76.83836,-14.031776,-2.4355667,1.0680819,-13.232035,-7.889317,49.22787,68.14613,-1.8680453,5.3282413,-7.47679
46,-2.0269627571105957,-0.018213162198662758,78.74745178222656,-2.462811765207445,-2.2738456504975635,4.948260194952039,-7.9457073,5.026518,-1.7823976,22.462873,-11.071193,-1.973527,3.932514,-2.9225616,-22.777658,8.920602,-9.296059,-1.3173741,-5.2097564,3.2695963,13.287302,-16.65605,6.791708,-59.815052,76.860725,-14.008245,-2.4336243,1.0954416,-13.243478,-7.888436,49.193546,68.13233,-1.8516561,5.348133,-7.4626756
47,-2.0147154331207275,-0.020371215417981148,78.74480438232422,-2.465362317979909,-2.2812084307998504,4.955564440520388,-7.9368296,5.029134,-1.7901361,22.478735,-11.087848,-1.9648058,3.9569204,-2.9165812,-22.785154,8.909598,-9.304395,-1.3088263,-5.206034,3.2709427,13.278901,-16.622902,6.786108,-59.793045,76.88395,-13.985843,-2.4356985,1.1217905,-13.256476,-7.8883567,49.154156,68.1149,-1.8412131,5.3725367,-7.4364014
48,-2.003253698348999,-0.01934804581105709,78.74092102050781,-2.4658030284240864,-2.2908111452860314,4.9597173721206715,-7.923276,5.030696,-1.7944217,22.492294,-11.104192,-1.9567274,3.9839103,-2.9129353,-22.791986,8.898468,-9.314285,-1.2957385,-5.2030263,3.2705808,13.272763,-16.592764,6.7811675,-59.770332,76.908264,-13.965717,-2.442926,1.1480911,-13.2706995,-7.8888836,49.11147,68.10152,-1.837191,5.3913794,-7.407755
49,-1.9915865659713745,-0.02102728560566902,78.73966979980469,-2.4629829176179556,-2.304578453139905,4.9595542043504475,-7.9024363,5.030313,-1.7937955,22.503874,-11.121474,-1.948703,4.0172443,-2.9130342,-22.799162,8.884612,-9.325916,-1.2737992,-5.202491,3.2665508,13.269667,-16.566025,6.776591,-59.75102,76.93703,-13.946101,-2.459981,1.1770146,-13.282923,-7.889902,49.06433,68.0881,-1.8376502,5.4029207,-7.3724008
50,-1.9808785915374756,-0.024071648716926575,78.73931884765625,-2.4579606423716602,-2.3224766199148035,4.955684616044425,-7.8750386,5.0292006,-1.7892424,22.51498,-11.140259,-1.9397073,4.0569706,-2.915151,-22.806187,8.867377,-9.3386545,-1.2443895,-5.2039585,3.2595866,13.268886,-16.540155,6.7736115,-59.735443,76.96828,-13.930616,-2.4851477,1.2081596,-13.293992,-7.890987,49.01704,68.0741,-1.8402259,5.412021,-7.3279824
51,-1.9679453372955322,-0.028964068740606308,78.73942565917969,-2.4526088650361713,-2.3402152747876523,4.950513067693098,-7.8477316,5.0281124,-1.783539,22.526451,-11.158774,-1.9318454,4.095983,-2.9173043,-22.811527,8.850622,-9.351184,-1.2161291,-5.197245,3.2530396,13.2705555,-16.52103,6.7708406,-59.72026,76.99853,-13.921313,-2.5088682,1.2350847,-13.305569,-7.892606,48.95691,68.06238,-1.8575623,5.4194984,-7.2861423
52,-1.956241250038147,-0.03394707292318344,78.73759460449219,-2.4489966451783602,-2.3532834893811074,4.94576005048883,-7.826553,5.028905,-1.779015,22.538248,-11.174911,-1.9272381,4.126086,-2.9170406,-22.812735,8.839649,-9.362858,-1.19777,-5.177732,3.249617,13.270977,-16.51161,6.7670894,-59.709946,77.026405,-13.93168,-2.5227308,1.2521642,-13.316824,-7.8958154,48.89406,68.05395,-1.887408,5.4264226,-7.2621903
53,-1.9437971115112305,-0.03872472047805786,78.73536682128906,-2.4473094057630354,-2.3594599608444664,4.940819498139022,-7.8150806,5.031424,-1.7751607,22.552635,-11.188751,-1.9261554,4.1432767,-2.9143689,-22.807152,8.837444,-9.373762,-1.1940511,-5.1564198,3.250172,13.261937,-16.501535,6.764318,-59.70266,77.05033,-13.982699,-2.5262918,1.2637084,-13.326363,-7.89886,48.870754,68.05286,-1.9161776,5.4344053,-7.271915
54,-1.9302510023117065,-0.041481129825115204,78.7328872680664,-2.446766693789332,-2.3615503205685924,4.934860365876113,-7.808768,5.035634,-1.7709928,22.568321,-11.200769,-1.9276459,4.15303,-2.9096227,-22.796173,8.839499,-9.383531,-1.199561,-5.131442,3.2539246,13.250164,-16.496473,6.7607665,-59.69231,77.07406,-14.056767,-2.5234976,1.269263,-13.33578,-7.9033566,48.86421,68.05524,-1.9548753,5.442464,-7.301072
55,-1.917677402496338,-0.042072445154190063,78.73202514648438,-2.4470798034925814,-2.3616675520430053,4.930352820421723,-7.8057632,5.040122,-1.768683,22.584492,-11.212511,-1.9315959,4.1596985,-2.9039161,-22.785645,8.842308,-9.392128,-1.2075121,-5.1105666,3.2593563,13.236236,-16.491854,6.758379,-59.67947,77.09127,-14.137428,-2.5144856,1.2666442,-13.346772,-7.906827,48.868156,68.061516,-1.983238,5.4495945,-7.3361044
56,-1.9097540378570557,-0.04178982973098755,78.73193359375,-2.4481281300756548,-2.361694772187482,4.929467436501497,-7.802916,5.0437765,-1.7700232,22.598204,-11.224115,-1.9378972,4.16821,-2.8982527,-22.780602,8.842453,-9.400461,-1.2109698,-5.1007595,3.2656538,13.223449,-16.488827,6.75567,-59.660156,77.10053,-14.204843,-2.499512,1.2521087,-13.3613825,-7.9116373,48.868366,68.068695,-1.9906529,5.45511,-7.360543
57,-1.9000483751296997,-0.043404482305049896,78.73164367675781,-2.4514504712516465,-2.361934822531192,4.934654224950491,-7.800718,5.047372,-1.7784064,22.609463,-11.236075,-1.9495316,4.182202,-2.8903868,-22.784336,8.833188,-9.405166,-1.2077817,-5.1037827,3.2755277,13.213411,-16.48713,6.7540736,-59.634174,77.094025,-14.255926,-2.472841,1.2217313,-13.381092,-7.9155827,48.85558,68.07681,-1.9670067,5.4575076,-7.3693213
58,-1.8927346467971802,-0.04479789361357689,78.73046112060547,-2.456405677422558,-2.361629533275496,4.943871367760566,-7.8001046,5.050735,-1.791491,22.620129,-11.248351,-1.9654585,4.19916,-2.8804955,-22.793404,8.817135,-9.406481,-1.2017509,-5.1159415,3.2896411,13.212547,-16.494656,6.752105,-59.587105,77.07571,-14.286858,-2.4357052,1.1756904,-13.411078,-7.924074,48.823837,68.08587,-1.9348936,5.457097,-7.3666472
59,-1.884716510772705,-0.047213129699230194,78.72980499267578,-2.4607052504624365,-2.3609025187192687,4.953892432329784,-7.799961,5.0534086,-1.8045229,22.62982,-11.260576,-1.9800014,4.2131886,-2.8727784,-22.803543,8.806312,-9.410768,-1.1949779,-5.125958,3.3002915,13.204301,-16.499516,6.7517505,-59.56156,77.05765,-14.32446,-2.400055,1.1254696,-13.43384,-7.9285393,48.798847,68.09573,-1.8907875,5.4572177,-7.3650575
60,-1.8738905191421509,-0.04909258708357811,78.7286605834961,-2.4629326294732716,-2.3616842977446857,4.961766374160599,-7.797143,5.0553484,-1.8131666,22.638395,-11.27228,-1.987471,4.2296243,-2.8661585,-22.811892,8.793246,-9.415229,-1.1897837,-5.1317883,3.3111734,13.207783,-16.51674,6.7521176,-59.523205,77.04597,-14.333288,-2.3755314,1.0715225,-13.461168,-7.9367714,48.75818,68.10154,-1.881195,5.458442,-7.357161
61,-1.8654178380966187,-0.05122514069080353,78.7270736694336,-2.4607711236959906,-2.362248536424428,4.966003788633943,-7.7934623,5.0551677,-1.8138354,22.647154,-11.28486,-1.9831395,4.241164,-2.865274,-22.816643,8.789112,-9.426191,-1.1856993,-5.133961,3.3126082,13.197673,-16.52284,6.7523317,-59.51455,77.04997,-14.345483,-2.3711917,1.0310342,-13.472901,-7.9380846,48.74879,68.107285,-1.8773546,5.464912,-7.358061
62,-1.8579840660095215,-0.0540679395198822,78.72602081298828,-2.4572824693019593,-2.365505981142869,4.970384974522397,-7.788553,5.0544353,-1.8121923,22.659452,-11.299869,-1.971324,4.2577734,-2.8647888,-22.821957,8.781638,-9.43807,-1.181876,-5.1343117,3.319363,13.211487,-16.553398,6.754873,-59.46727,77.05761,-14.312205,-2.3769414,0.97200483,-13.501305,-7.949369,48.697174,68.11199,-1.922166,5.473145,-7.344263
63,-1.8510481119155884,-0.0580563023686409,78.72509002685547,-2.4529860521615827,-2.368264317303176,4.972913510111482,-7.782005,5.0535727,-1.8088541,22.667833,-11.312265,-1.9591748,4.270953,-2.8658483,-22.825521,8.778976,-9.451041,-1.1799254,-5.1342783,3.321748,13.213507,-16.57637,6.7568083,-59.44807,77.06924,-14.2926855,-2.385071,0.9163406,-13.518314,-7.9557323,48.674057,68.11505,-1.952101,5.4807987,-7.3370957
64,-1.8401496410369873,-0.06414918601512909,78.72687530517578,-2.450176336066151,-2.370211063468592,4.974273158587002,-7.7751813,5.054237,-1.8079668,22.673824,-11.32116,-1.9540831,4.2810335,-2.8653555,-22.827724,8.780368,-9.463093,-1.181464,-5.135736,3.3245142,13.205463,-16.593243,6.7581167,-59.44298,77.07751,-14.285652,-2.384018,0.85780066,-13.531829,-7.959237,48.666653,68.123825,-1.9653667,5.4831605,-7.3341613
65,-1.8315283060073853,-0.06940492242574692,78.72777557373047,-2.450477483454174,-2.3745678685104386,4.973084514828095,-7.7630167,5.0582304,-1.8104485,22.675762,-11.325684,-1.9602947,4.2929497,-2.8607316,-22.827463,8.782752,-9.471002,-1.1882095,-5.1364927,3.3318608,13.202335,-16.626057,6.759306,-59.442574,77.083305,-14.28151,-2.3659987,0.7697525,-13.552441,-7.9621186,48.660683,68.1384,-1.9771162,5.4766846,-7.3281555
66,-1.8200019598007202,-0.07206777483224869,78.72686767578125,-2.452175070575175,-2.380277759534962,4.969506071509157,-7.7473874,5.0643315,-1.8142104,22.674664,-11.326916,-1.973105,4.30552,-2.853921,-22.825062,8.785885,-9.476179,-1.1988881,-5.133723,3.3413765,13.200227,-16.669537,6.7612696,-59.453045,77.08777,-14.282395,-2.3358977,0.66463614,-13.576979,-7.967056,48.659348,68.159294,-1.9822527,5.462136,-7.321893
67,-1.8089853525161743,-0.07609201967716217,78.72545623779297,-2.4541823324138234,-2.3852793227197395,4.9673179427467415,-7.7331467,5.0702004,-1.8196034,22.673353,-11.326957,-1.9866736,4.3168917,-2.8467863,-22.82358,8.789677,-9.480916,-1.2106881,-5.124494,3.3501277,13.198127,-16.714998,6.764983,-59.4871,77.091255,-14.300639,-2.3105748,0.5649107,-13.594694,-7.9771123,48.661266,68.166985,-1.9751544,5.4475794,-7.3202806
68,-1.802016019821167,-0.08089742064476013,78.72221374511719,-2.455398246810024,-2.387225889688239,4.97077257512754,-7.7260823,5.0737786,-1.827655,22.675259,-11.32816,-1.9951863,4.325011,-2.8415718,-22.826433,8.793796,-9.487048,-1.2207663,-5.1275115,3.3578854,13.1904125,-16.74845,6.766595,-59.499954,77.10262,-14.3076,-2.3055913,0.48233464,-13.612363,-7.9812703,48.66388,68.17631,-1.9706246,5.4369464,-7.3210497
69,-1.7964046001434326,-0.08428622782230377,78.72130584716797,-2.455001495720825,-2.38561013251136,4.9813004348853385,-7.7282066,5.073785,-1.8381122,22.682325,-11.331946,-1.9961003,4.3302355,-2.8387353,-22.834002,8.79612,-9.494154,-1.2285894,-5.13758,3.3641734,13.182202,-16.773443,6.767377,-59.507343,77.120186,-14.313884,-2.328402,0.42803147,-13.62854,-7.9829445,48.665012,68.1751,-1.958785,5.431325,-7.3269415
70,-1.7899165153503418,-0.08849450200796127,78.72271728515625,-2.4552839632482697,-2.3815060352636293,4.99935057862152,-7.7378798,5.0720687,-1.8539385,22.693922,-11.336903,-1.9930865,4.335184,-2.8355167,-22.847637,8.794333,-9.500026,-1.2356185,-5.15162,3.3709712,13.1829195,-16.814964,6.769005,-59.522472,77.157234,-14.33227,-2.3796616,0.3733103,-13.654716,-7.986375,48.6662,68.17215,-1.9331678,5.424616,-7.338779
71,-1.7859677076339722,-0.09419427067041397,78.72325897216797,-2.454975473197448,-2.3774756008597624,5.018770649811446,-7.7485795,5.0694385,-1.8703189,22.706337,-11.342241,-1.9888494,4.3401237,-2.8332825,-22.862782,8.792531,-9.506473,-1.241893,-5.15917,3.375807,13.18545,-16.856152,6.7724824,-59.542553,77.19221,-14.358102,-2.4339163,0.32836455,-13.676487,-7.994675,48.662865,68.15868,-1.9072782,5.4196076,-7.3514047
72,-1.779408574104309,-0.09917780756950378,78.72328186035156,-2.455099747958468,-2.375805490881639,5.035338552319356,-7.7556214,5.068351,-1.8851345,22.718397,-11.347825,-1.9866278,4.348014,-2.829721,-22.876873,8.7898245,-9.5132265,-1.247742,-5.1607428,3.3789134,13.185836,-16.889597,6.775113,-59.547985,77.21337,-14.383068,-2.4675794,0.28691316,-13.688949,-8.0013685,48.65612,68.14229,-1.8965312,5.4190426,-7.3651676
73,-1.7701092958450317,-0.10372599214315414,78.72258758544922,-2.4551688501479014,-2.3762485256284314,5.049189325706927,-7.758923,5.068055,-1.8988352,22.729343,-11.352537,-1.986303,4.3582425,-2.8262978,-22.891085,8.787333,-9.521411,-1.2513082,-5.1515336,3.3812492,13.181852,-16.911974,6.7771816,-59.537186,77.216095,-14.410521,-2.4794266,0.24811101,-13.693801,-8.00729,48.64665,68.12911,-1.9064984,5.420544,-7.378164
74,-1.7655320167541504,-0.10651784390211105,78.71975708007812,-2.455693901971836,-2.3782348742598343,5.0624005854428304,-7.760809,5.06843,-1.9127916,22.741407,-11.357415,-1.9866172,4.3716717,-2.8217506,-22.906563,8.781872,-9.529217,-1.2532233,-5.137883,3.3825386,13.183905,-16.93559,6.7790527,-59.504196,77.208954,-14.434323,-2.4794908,0.21079735,-13.695533,-8.01339,48.6292,68.108765,-1.9376236,5.4250803,-7.3906236
75,-1.7607824802398682,-0.11314839124679565,78.71822357177734,-2.4559783487377045,-2.3814116367487,5.074314766561545,-7.760097,5.0691237,-1.9256661,22.751398,-11.362462,-1.9884152,4.3851366,-2.8174658,-22.920788,8.778467,-9.537732,-1.2566712,-5.1259866,3.3846831,13.184761,-16.955847,6.7814918,-59.464203,77.19781,-14.458021,-2.4710221,0.1750988,-13.697655,-8.022684,48.614502,68.09248,-1.9623866,5.429319,-7.4025254
76,-1.7577407360076904,-0.11942349374294281,78.71771240234375,-2.457791857903203,-2.3876056826896757,5.086425644843375,-7.754706,5.071746,-1.9391117,22.758862,-11.36868,-1.9928321,4.401551,-2.8106952,-22.93355,8.775077,-9.54438,-1.2650666,-5.1392994,3.3920884,13.206211,-16.986229,6.7870965,-59.393684,77.181244,-14.449681,-2.4547267,0.13470624,-13.7111435,-8.044852,48.61342,68.0599,-1.9764545,5.436273,-7.4092393
77,-1.7509056329727173,-0.1244489997625351,78.71846771240234,-2.460593598048195,-2.3962807469973253,5.097624919379412,-7.742123,5.075943,-1.9519311,22.757599,-11.374817,-2.0017447,4.4145913,-2.803761,-22.941986,8.783709,-9.553854,-1.2838774,-5.150163,3.4000707,13.218625,-17.017145,6.791063,-59.384304,77.17357,-14.473268,-2.427011,0.09597822,-13.724765,-8.061692,48.63344,68.041695,-1.9304547,5.439986,-7.4251924
78,-1.746502161026001,-0.1314062625169754,78.71829986572266,-2.4647152931347924,-2.4072938942092326,5.108368798703541,-7.7248964,5.0820594,-1.9649469,22.752855,-11.382385,-2.0141544,4.4281354,-2.7952015,-22.948221,8.79642,-9.563259,-1.3099151,-5.160255,3.4077783,13.229467,-17.05044,6.792198,-59.392242,77.171486,-14.495324,-2.3872283,0.05663067,-13.742376,-8.067172,48.64599,68.03845,-1.8692985,5.44311,-7.4426665
79,-1.7423864603042603,-0.13847677409648895,78.71844482421875,-2.468074457538348,-2.4188204620785085,5.117971151487855,-7.7062683,5.087806,-1.9762309,22.746597,-11.388843,-2.0262988,4.443028,-2.7868764,-22.953722,8.80618,-9.571558,-1.3329656,-5.1724796,3.416401,13.244769,-17.086905,6.7944765,-59.41885,77.16702,-14.532801,-2.3495255,0.020499311,-13.760013,-8.083117,48.68275,68.026436,-1.7830306,5.4460645,-7.4618897
80,-1.7373138666152954,-0.14663399755954742,78.71725463867188,-2.4689154894868404,-2.426555338773594,5.125950734579806,-7.6939363,5.0917144,-1.9847124,22.744778,-11.393506,-2.034641,4.457258,-2.7806141,-22.960266,8.807249,-9.578372,-1.3429948,-5.178339,3.4199855,13.251265,-17.110119,6.7949367,-59.426243,77.16137,-14.543607,-2.3254623,-0.010810135,-13.770922,-8.08665,48.690968,68.023125,-1.7433404,5.4517956,-7.4692163
81,-1.7319563627243042,-0.15379881858825684,78.71527099609375,-2.4654752710502175,-2.4304828093931774,5.131443280391021,-7.6892138,5.091642,-1.988364,22.750143,-11.395414,-2.0367093,4.4717736,-2.7784996,-22.968615,8.797064,-9.584791,-1.331424,-5.1769776,3.4187984,13.253739,-17.124645,6.7953467,-59.429417,77.1528,-14.541935,-2.324593,-0.03534184,-13.777402,-8.090195,48.69523,68.02086,-1.733144,5.459763,-7.465309
82,-1.7270125150680542,-0.15958058834075928,78.71427154541016,-2.458923176523741,-2.4313906519977833,5.13475912956986,-7.6891346,5.089092,-1.9881153,22.75866,-11.394838,-2.0349154,4.485093,-2.7799037,-22.977507,8.780961,-9.591355,-1.3055812,-5.172217,3.4141061,13.251766,-17.130308,6.795768,-59.427395,77.141045,-14.527634,-2.3376331,-0.05407932,-13.779384,-8.093677,48.693943,68.020134,-1.7445879,5.4692116,-7.4525447
83,-1.7254246473312378,-0.16678856313228607,78.71434783935547,-2.45283613519293,-2.431805233500398,5.138139335710535,-7.6903043,5.087312,-1.9882581,22.76797,-11.394352,-2.0329154,4.500234,-2.7795067,-22.986963,8.759237,-9.595083,-1.2791252,-5.1674676,3.4103675,13.2507715,-17.13343,6.7964654,-59.419765,77.12673,-14.509319,-2.353223,-0.07147279,-13.77897,-8.098776,48.68612,68.01696,-1.7675864,5.479327,-7.436357
84,-1.7204681634902954,-0.17275956273078918,78.71533966064453,-2.4505692216358095,-2.4333582653529997,5.142907550152608,-7.689424,5.0893903,-1.9921415,22.773806,-11.395615,-2.0342093,4.5163093,-2.7736044,-22.995966,8.737864,-9.595912,-1.2657186,-5.164497,3.4107554,13.254593,-17.138834,6.7976613,-59.410656,77.10884,-14.499027,-2.3571148,-0.08707071,-13.778228,-8.107597,48.674305,68.00967,-1.7880915,5.4867325,-7.4244375
85,-1.7180930376052856,-0.1802607774734497,78.71612548828125,-2.452033009690123,-2.4354344500207525,5.149136934463544,-7.6867476,5.0956335,-2.0003457,22.775137,-11.399975,-2.039951,4.524469,-2.765244,-23.003553,8.735041,-9.601044,-1.2722764,-5.165626,3.4137998,13.259345,-17.14577,6.798078,-59.410797,77.0891,-14.518967,-2.3430882,-0.10084295,-13.77985,-8.111791,48.671272,68.00741,-1.7930219,5.4889197,-7.422795
86,-1.714727520942688,-0.18622411787509918,78.71431732177734,-2.4567026372824747,-2.4378280864174777,5.156582663423076,-7.6825886,5.1050777,-2.011606,22.77211,-11.405225,-2.0482292,4.5318465,-2.7528584,-23.011084,8.734586,-9.604565,-1.2904644,-5.1675415,3.420607,13.266676,-17.154177,6.798317,-59.416653,77.066505,-14.557002,-2.3195379,-0.11270402,-13.782103,-8.117704,48.668835,68.006035,-1.7930174,5.4874043,-7.425632
87,-1.7103708982467651,-0.19297075271606445,78.7125473022461,-2.4613449950096324,-2.4401670841345893,5.163614090843251,-7.678121,5.1149154,-2.022996,22.768057,-11.410381,-2.0574493,4.5369053,-2.7406127,-23.017342,8.738176,-9.6093645,-1.3105288,-5.1688886,3.4270828,13.273,-17.159613,6.7982054,-59.423763,77.042175,-14.592034,-2.2940712,-0.12020242,-13.781927,-8.12193,48.666775,68.003975,-1.7901694,5.4858637,-7.4311795
88,-1.7083978652954102,-0.20089906454086304,78.71173095703125,-2.4632771704714025,-2.4416623226143686,5.169182159422061,-7.6732836,5.1217623,-2.031901,22.762243,-11.411958,-2.0658824,4.542253,-2.731297,-23.022097,8.737851,-9.612876,-1.3226265,-5.1637306,3.431976,13.276794,-17.160604,6.797281,-59.434895,77.01801,-14.60502,-2.2776282,-0.12152184,-13.774042,-8.131902,48.656654,67.99312,-1.7887625,5.486383,-7.4347315
89,-1.7013598680496216,-0.20787487924098969,78.71270751953125,-2.4606264077488227,-2.442708761680338,5.17271065346913,-7.6650724,5.123879,-2.0368605,22.749857,-11.406805,-2.073462,4.5484796,-2.7267215,-23.024046,8.732781,-9.615645,-1.321507,-5.157814,3.431763,13.277328,-17.153503,6.796116,-59.430996,76.99346,-14.572451,-2.273901,-0.11564536,-13.762581,-8.138817,48.641094,67.98076,-1.7924852,5.4901886,-7.4360914
90,-1.7054697275161743,-0.21497002243995667,78.71342468261719,-2.4556572957667133,-2.442741131023535,5.174956656769513,-7.6571264,5.1237974,-2.0399485,22.736767,-11.399324,-2.081053,4.5541515,-2.7242823,-23.023973,8.725171,-9.617445,-1.3133934,-5.1548195,3.4281878,13.276002,-17.143885,6.795363,-59.425568,76.97168,-14.526073,-2.2784414,-0.105155125,-13.754928,-8.141155,48.633434,67.97475,-1.7876452,5.493772,-7.438664
91,-1.7062209844589233,-0.22277340292930603,78.71422576904297,-2.450252132532296,-2.4425519876993094,5.176355899324631,-7.648391,5.123239,-2.041983,22.72138,-11.389716,-2.0881207,4.558405,-2.7230833,-23.023766,8.719373,-9.620074,-1.3052969,-5.1514354,3.4247653,13.273803,-17.129404,6.7946315,-59.417778,76.94869,-14.468915,-2.2842197,-0.09022002,-13.744775,-8.142825,48.623802,67.967094,-1.7857426,5.4989023,-7.440555
92,-1.697712779045105,-0.23225536942481995,78.71552276611328,-2.4463246368220473,-2.4416229898881068,5.177516764909195,-7.6435175,5.1244497,-2.0446055,22.71145,-11.382596,-2.0941863,4.561335,-2.7206466,-23.025684,8.714863,-9.622742,-1.3043488,-5.147389,3.4255536,13.270292,-17.106339,6.793012,-59.39729,76.9231,-14.40182,-2.285904,-0.072517686,-13.728508,-8.146393,48.59735,67.95414,-1.8015035,5.506093,-7.4364953
93,-1.6888104677200317,-0.24018560349941254,78.71566772460938,-2.445701988104059,-2.438653863658752,5.177359191513779,-7.647297,5.1299143,-2.0479207,22.713537,-11.380634,-2.098582,4.558608,-2.7160068,-23.030453,8.717009,-9.627148,-1.3151606,-5.149824,3.4286366,13.271084,-17.094105,6.7915096,-59.394558,76.910355,-14.381587,-2.2855327,-0.05786033,-13.722958,-8.148799,48.587578,67.94705,-1.8036522,5.511728,-7.4319124
94,-1.6853362321853638,-0.24959436058998108,78.71336364746094,-2.446971268467712,-2.4341368469576232,5.17596554192771,-7.6561055,5.137743,-2.0511494,22.722181,-11.380984,-2.1017401,4.553278,-2.7098951,-23.03702,8.720813,-9.631724,-1.3330306,-5.1527896,3.4345498,13.270214,-17.080215,6.788995,-59.402386,76.90149,-14.377489,-2.2840497,-0.040854946,-13.715126,-8.151747,48.57924,67.93758,-1.80642,5.518627,-7.424667
95,-1.6883211135864258,-0.25615930557250977,78.7126235961914,-2.4484143940396286,-2.4298114927442076,5.174953696482413,-7.6647816,5.145926,-2.0546088,22.730259,-11.381482,-2.1052306,4.547767,-2.7036026,-23.043497,8.725367,-9.636635,-1.3514701,-5.157519,3.4393823,13.271223,-17.068275,6.787455,-59.41005,76.89744,-14.380958,-2.2818427,-0.023840824,-13.709848,-8.153047,48.57685,67.930725,-1.8046411,5.5236535,-7.4196777
96,-1.6919212341308594,-0.26282429695129395,78.71337127685547,-2.4501466056884875,-2.424569633001056,5.175900195140053,-7.6743174,5.1536355,-2.0595837,22.736855,-11.382697,-2.110973,4.5419893,-2.6961493,-23.048532,8.727531,-9.640632,-1.364656,-5.158847,3.4451478,13.267691,-17.050293,6.7854605,-59.419823,76.89139,-14.385595,-2.277583,-0.0005844267,-13.69961,-8.154396,48.574745,67.923065,-1.8014873,5.527887,-7.417948
97,-1.6935572624206543,-0.27051952481269836,78.71205139160156,-2.4516187749391696,-2.419662001396863,5.180355907111828,-7.6815343,5.1598263,-2.067087,22.737463,-11.383586,-2.120653,4.5407677,-2.6866295,-23.051682,8.721603,-9.641771,-1.37039,-5.155064,3.4508011,13.261118,-17.030842,6.7809215,-59.434315,76.88878,-14.394237,-2.2718346,0.023887405,-13.684884,-8.157063,48.573135,67.9164,-1.7922499,5.526753,-7.4230356
98,-1.6924142837524414,-0.2774145305156708,78.71391296386719,-2.452526856705365,-2.4152043585508705,5.186532425938299,-7.687147,5.1647487,-2.075509,22.734722,-11.384363,-2.1327455,4.540294,-2.6771479,-23.05287,8.715006,-9.643117,-1.3719434,-5.1534114,3.4544613,13.261551,-17.018314,6.779598,-59.437035,76.89001,-14.402107,-2.2657638,0.04544534,-13.676594,-8.157659,48.573616,67.910934,-1.7813603,5.522651,-7.43147
99,-1.6904242038726807,-0.28313755989074707,78.71405792236328,-2.4546474502752806,-2.4104301279377593,5.193364604035987,-7.693942,5.170802,-2.0846574,22.733437,-11.386227,-2.144616,4.5418983,-2.665297,-23.054695,8.702752,-9.641851,-1.371559,-5.1507235,3.4602592,13.253301,-16.992878,6.775456,-59.44161,76.88829,-14.406829,-2.256455,0.07784071,-13.657611,-8.159299,48.577404,67.903625,-1.7715894,5.5188394,-7.4410987
100,-1.689849853515625,-0.2905955910682678,78.7120590209961,-2.454989104808963,-2.4079554574913753,5.197938180588608,-7.696867,5.1759996,-2.0907013,22.731766,-11.387142,-2.152694,4.5448084,-2.6561084,-23.056948,8.692801,-9.6417,-1.3703535,-5.1472898,3.464731,13.248159,-16.969734,6.77002,-59.437565,76.89153,-14.398427,-2.2481494,0.112317905,-13.63841,-8.161172,48.57931,67.896286,-1.7734952,5.518981,-7.4444275
101,-1.6868520975112915,-0.2971903383731842,78.70972442626953,-2.4536751468023095,-2.40795422126571,5.200029343523009,-7.6968193,5.180405,-2.0928757,22.732582,-11.388047,-2.1539862,4.549909,-2.6498783,-23.060728,8.683632,-9.642666,-1.366819,-5.1431637,3.468323,13.244911,-16.94447,6.762452,-59.416603,76.89929,-14.359647,-2.2393212,0.15773012,-13.61573,-8.163231,48.575775,67.885254,-1.7992271,5.5261273,-7.4362435
102,-1.6828818321228027,-0.3060692846775055,78.70789337158203,-2.4510758705255578,-2.409794761219037,5.200697026389537,-7.693957,5.1839395,-2.0924418,22.733341,-11.388414,-2.1508512,4.5559206,-2.6460092,-23.065226,8.676581,-9.645089,-1.3606881,-5.137049,3.4703698,13.243972,-16.917393,6.755363,-59.385307,76.90801,-14.301164,-2.229567,0.21149798,-13.591569,-8.164651,48.567104,67.873024,-1.8415732,5.5374365,-7.420947
103,-1.6809742450714111,-0.31280118227005005,78.70777130126953,-2.447933319518688,-2.412189292731021,5.200328871245361,-7.690125,5.1874104,-2.0913203,22.734066,-11.388418,-2.1485562,4.5614934,-2.6428545,-23.069187,8.671787,-9.648332,-1.3559433,-5.1250014,3.472763,13.247766,-16.900091,6.7538605,-59.374416,76.91542,-14.2666645,-2.2215755,0.25611633,-13.574417,-8.16477,48.56313,67.86791,-1.8675307,5.545588,-7.4101615
104,-1.6834715604782104,-0.3190497159957886,78.70895385742188,-2.4462010100356695,-2.41591521644557,5.198786290357137,-7.6827774,5.1928754,-2.0910552,22.730484,-11.386819,-2.1525407,4.5684023,-2.637218,-23.070889,8.666647,-9.650185,-1.3565513,-5.1282473,3.4758275,13.246605,-16.868902,6.7440486,-59.313713,76.92065,-14.205109,-2.2112012,0.29253775,-13.546403,-8.165534,48.548912,67.85636,-1.9071074,5.5523925,-7.3979216
105,-1.6691267490386963,-0.32987457513809204,78.71204376220703,-2.4453127715661456,-2.420406231334125,5.194603997091177,-7.6718655,5.199941,-2.0912101,22.721828,-11.38366,-2.1658337,4.57307,-2.63033,-23.068144,8.667783,-9.653087,-1.3645447,-5.129792,3.4822693,13.250269,-16.852655,6.7312016,-59.275303,76.92728,-14.198597,-2.2031522,0.30228838,-13.527988,-8.165532,48.549076,67.856636,-1.8984734,5.548118,-7.404027
106,-1.6724073886871338,-0.3380911946296692,78.71160888671875,-2.445226180413777,-2.426267907000915,5.188519344617771,-7.6570926,5.20853,-2.0915837,22.70859,-11.3786335,-2.1851585,4.577896,-2.622222,-23.06271,8.6720495,-9.656679,-1.3775641,-5.126151,3.4875774,13.25316,-16.837862,6.722542,-59.250954,76.93021,-14.218442,-2.1963737,0.2974345,-13.50715,-8.16471,48.547035,67.86023,-1.8689115,5.537514,-7.4189487
107,-1.6763067245483398,-0.34542396664619446,78.70909881591797,-2.4453352501209356,-2.4309934121870977,5.183736035733105,-7.644038,5.217036,-2.0932953,22.695076,-11.372815,-2.2057056,4.5814643,-2.6137764,-23.058287,8.676104,-9.659879,-1.3926048,-5.1196446,3.4929104,13.256611,-16.825703,6.7200284,-59.240673,76.92663,-14.251358,-2.191187,0.28496015,-13.4866495,-8.164161,48.54397,67.86313,-1.8350263,5.5260396,-7.4345326
108,-1.676281213760376,-0.35448434948921204,78.70904541015625,-2.445371342164863,-2.432184993505628,5.183545691372574,-7.6381907,5.22383,-2.0975702,22.684603,-11.366189,-2.222716,4.5814133,-2.6064234,-23.058613,8.679864,-9.663643,-1.4067081,-5.115246,3.498164,13.259868,-16.817307,6.718183,-59.233345,76.92496,-14.272465,-2.189463,0.2722674,-13.469123,-8.163574,48.54159,67.86463,-1.8159944,5.5190344,-7.442183
109,-1.675212025642395,-0.35995346307754517,78.71013641357422,-2.4451758473487684,-2.4281592147607203,5.189280628301287,-7.6417603,5.228817,-2.1044803,22.676456,-11.357412,-2.2359788,4.5768046,-2.599746,-23.06504,8.680189,-9.666633,-1.4212035,-5.1157584,3.5043383,13.252785,-16.807808,6.7146735,-59.217716,76.92958,-14.26756,-2.1907966,0.2520776,-13.443277,-8.162335,48.538925,67.86377,-1.8241941,5.5168724,-7.4392033
110,-1.6772100925445557,-0.37009212374687195,78.70906829833984,-2.445291887921077,-2.419727068441775,5.199820196991437,-7.6527033,5.232461,-2.1143405,22.669283,-11.346185,-2.2476482,4.5671554,-2.5939007,-23.076168,8.680983,-9.670173,-1.4368998,-5.122766,3.5105746,13.24596,-16.804464,6.708388,-59.19909,76.942055,-14.249745,-2.1979153,0.2287053,-13.425119,-8.159947,48.541416,67.86507,-1.8448026,5.5189757,-7.4275765
111,-1.6806612014770508,-0.3796598017215729,78.70895385742188,-2.444841271321568,-2.41172750804454,5.211779665360957,-7.6645007,5.235089,-2.125213,22.663824,-11.3361,-2.2566094,4.55842,-2.5886006,-23.088858,8.68089,-9.673917,-1.4503145,-5.126458,3.5169122,13.24089,-16.804146,6.7051497,-59.194256,76.94979,-14.241834,-2.2050214,0.2041854,-13.407383,-8.158433,48.543083,67.86591,-1.863494,5.521333,-7.41632
112,-1.682283878326416,-0.3874557316303253,78.70922088623047,-2.4438302127612586,-2.4068789842449854,5.2225971678520535,-7.673166,5.2374754,-2.136127,22.660965,-11.32997,-2.261841,4.555806,-2.5830297,-23.100657,8.676671,-9.676385,-1.4580413,-5.131001,3.5212321,13.235173,-16.804579,6.7019105,-59.19056,76.95991,-14.245144,-2.2097952,0.17827542,-13.384724,-8.15663,48.544315,67.864334,-1.8748691,5.523457,-7.4109187
113,-1.6820523738861084,-0.39766114950180054,78.7099838256836,-2.440913819219441,-2.407865446055348,5.231400484168501,-7.675309,5.2384562,-2.1463048,22.661482,-11.329645,-2.2600722,4.561833,-2.5788972,-23.111097,8.670143,-9.679097,-1.4564725,-5.1347694,3.5233374,13.233795,-16.808842,6.6995664,-59.1926,76.96885,-14.271357,-2.210866,0.14891958,-13.360686,-8.155014,48.54558,67.86236,-1.872759,5.523753,-7.4148173
114,-1.6816394329071045,-0.40575122833251953,78.70933532714844,-2.437109521497703,-2.4121910864064366,5.239797020124915,-7.6745267,5.23866,-2.1567566,22.66467,-11.333132,-2.2529032,4.5736976,-2.5749545,-23.121521,8.660196,-9.681413,-1.4483812,-5.138147,3.5232654,13.233293,-16.816542,6.6970134,-59.202053,76.97958,-14.314313,-2.2103598,0.11528394,-13.332544,-8.152924,48.54681,67.85825,-1.8638533,5.5230656,-7.4244227
115,-1.6810864210128784,-0.4154924154281616,78.70806121826172,-2.433313105130322,-2.417211992954584,5.248158911992844,-7.672966,5.2388783,-2.167623,22.667799,-11.337218,-2.2463002,4.5859876,-2.5710914,-23.131718,8.650769,-9.683616,-1.4396591,-5.1405115,3.5244093,13.233349,-16.823303,6.693965,-59.21451,76.98693,-14.357356,-2.2081752,0.0874434,-13.306177,-8.14993,48.544983,67.857796,-1.852912,5.522368,-7.4343405
116,-1.6814295053482056,-0.42423009872436523,78.7076187133789,-2.4311091296078344,-2.420157746408501,5.256798084826807,-7.6719966,5.240384,-2.1791315,22.666899,-11.338072,-2.2462823,4.5954204,-2.5655444,-23.141508,8.641888,-9.685019,-1.4361894,-5.1430326,3.5258672,13.23263,-16.830961,6.6921086,-59.224842,76.99619,-14.390283,-2.206162,0.069601715,-13.27948,-8.147841,48.53913,67.855286,-1.8451701,5.5239115,-7.4407043
117,-1.6843984127044678,-0.43065690994262695,78.70860290527344,-2.4305217846551317,-2.420533440576297,5.264937420413296,-7.671061,5.2433567,-2.1906576,22.658968,-11.334711,-2.256758,4.598854,-2.5590992,-23.149574,8.637803,-9.687081,-1.4385419,-5.1485596,3.531465,13.233022,-16.833757,6.6909924,-59.226692,76.99775,-14.407294,-2.2026699,0.06723819,-13.259901,-8.146308,48.52996,67.856735,-1.8391602,5.528126,-7.440177
118,-1.6864275932312012,-0.4393100142478943,78.70977020263672,-2.4315503145724877,-2.419937979999564,5.273874064389315,-7.6696916,5.247413,-2.2036276,22.647213,-11.329256,-2.273856,4.602672,-2.5501826,-23.157728,8.629651,-9.686206,-1.4439313,-5.1485467,3.5365264,13.231548,-16.839632,6.687999,-59.22684,77.0022,-14.412901,-2.1952553,0.07017522,-13.232386,-8.142069,48.495926,67.85268,-1.8508832,5.5357723,-7.4350967
119,-1.6845662593841553,-0.44873470067977905,78.71051025390625,-2.432975398511544,-2.4183078413300696,5.283111524149856,-7.670429,5.2516756,-2.2167706,22.636469,-11.322653,-2.2914221,4.602687,-2.5418441,-23.166029,8.626174,-9.686556,-1.4531319,-5.153952,3.5440652,13.2327175,-16.843914,6.686188,-59.22353,77.003006,-14.4089985,-2.1905386,0.08431895,-13.213644,-8.139105,48.47282,67.85324,-1.856574,5.542756,-7.4283433
120,-1.6840769052505493,-0.45819491147994995,78.70975494384766,-2.4344796713349317,-2.41584066240713,5.294433462744424,-7.6757917,5.2557416,-2.2312653,22.63203,-11.316147,-2.3035364,4.6013184,-2.5334535,-23.176334,8.624914,-9.687821,-1.4669031,-5.155048,3.5494013,13.234583,-16.851423,6.683406,-59.22253,77.00809,-14.385429,-2.1897395,0.10602303,-13.196906,-8.134569,48.444584,67.85575,-1.8699595,5.5471597,-7.4205
121,-1.6839362382888794,-0.4682997167110443,78.70895385742188,-2.4363010796466473,-2.4110221697419267,5.308397116657635,-7.690364,5.259408,-2.2474792,22.638454,-11.309496,-2.3065126,4.5942597,-2.5258784,-23.189486,8.630115,-9.6906,-1.4896263,-5.1581993,3.554047,13.234557,-16.85953,6.6815467,-59.228638,77.0179,-14.343851,-2.1982434,0.14021416,-13.181909,-8.131563,48.433266,67.858765,-1.8835697,5.5486283,-7.41156
122,-1.6859643459320068,-0.47756946086883545,78.70712280273438,-2.4382098191607837,-2.404261197879374,5.324630135576682,-7.7108727,5.2625937,-2.2651668,22.650793,-11.301837,-2.3041973,4.5824575,-2.5192432,-23.204708,8.640608,-9.694585,-1.5194354,-5.1631446,3.5579088,13.232476,-16.866539,6.6796904,-59.239975,77.02993,-14.287524,-2.2127755,0.18623072,-13.1690855,-8.128814,48.433674,67.8635,-1.8949919,5.548104,-7.4017167
123,-1.688791036605835,-0.486936092376709,78.70555877685547,-2.440371420069429,-2.3985656809697247,5.341427124327424,-7.7307296,5.2661004,-2.2832334,22.664331,-11.294816,-2.301983,4.5729227,-2.5118759,-23.22067,8.65014,-9.699171,-1.5479853,-5.1705294,3.5620651,13.232406,-16.872139,6.6786194,-59.247856,77.03884,-14.226273,-2.2259693,0.2364732,-13.157223,-8.127317,48.43769,67.86692,-1.9008476,5.546571,-7.3951273
124,-1.6948848962783813,-0.4941520690917969,78.70551300048828,-2.442974610453426,-2.3962496109460245,5.357279158071109,-7.743877,5.2706966,-2.3007815,22.672976,-11.289442,-2.30529,4.570434,-2.5028253,-23.236628,8.6524515,-9.702642,-1.5670853,-5.17734,3.565104,13.231864,-16.874619,6.6768537,-59.259457,77.044655,-14.180818,-2.2313216,0.28573218,-13.140986,-8.125188,48.44123,67.86789,-1.8890767,5.5440655,-7.3987484
125,-1.698201298713684,-0.504627525806427,78.70492553710938,-2.4457919654105242,-2.400684628395863,5.371473836565128,-7.7449594,5.2769365,-2.3172405,22.675398,-11.287252,-2.3175192,4.5814877,-2.4911075,-23.251814,8.643417,-9.705188,-1.5714527,-5.1841383,3.568952,13.238795,-16.87715,6.6754756,-59.265854,77.04252,-14.149644,-2.2259266,0.33147517,-13.125137,-8.123582,48.436634,67.870255,-1.855679,5.534689,-7.4160056
126,-1.6995104551315308,-0.5159515142440796,78.70426940917969,-2.4483146646521927,-2.4081411771645858,5.383669518884345,-7.7393236,5.284036,-2.3317544,22.672562,-11.286115,-2.335004,4.596034,-2.4794993,-23.265606,8.634209,-9.710448,-1.566578,-5.19434,3.5732038,13.2480755,-16.879507,6.674844,-59.267727,77.03734,-14.129746,-2.216267,0.37285298,-13.11224,-8.122789,48.431385,67.87512,-1.8099806,5.52162,-7.4390726
127,-1.6988314390182495,-0.5250084400177002,78.703857421875,-2.452231583269725,-2.418122274176809,5.398338898383522,-7.732647,5.2915673,-2.3491266,22.672598,-11.287122,-2.3530266,4.6193867,-2.4645383,-23.28224,8.612738,-9.710157,-1.5598798,-5.1990533,3.5761752,13.261282,-16.880104,6.673632,-59.271484,77.02563,-14.105425,-2.198094,0.4216936,-13.094239,-8.121474,48.417416,67.87579,-1.7599566,5.5086665,-7.4697795
128,-1.6981300115585327,-0.5356708765029907,78.70343780517578,-2.455055157564461,-2.422628354203909,5.413189835865513,-7.7335215,5.2974153,-2.3663113,22.67427,-11.286531,-2.3661714,4.6331744,-2.4524791,-23.298851,8.598786,-9.7110615,-1.5587132,-5.200885,3.5787935,13.269753,-16.879223,6.6714153,-59.274563,77.01281,-14.0800085,-2.1790702,0.464645,-13.078162,-8.119464,48.39668,67.87514,-1.7330384,5.505508,-7.4880486
129,-1.699532151222229,-0.5442497134208679,78.7031021118164,-2.457453047493849,-2.4193540333362256,5.430460019707063,-7.7474403,5.3007026,-2.3854606,22.681187,-11.284438,-2.372857,4.636225,-2.4428616,-23.317572,8.588681,-9.709955,-1.5651503,-5.199802,3.580317,13.272515,-16.876804,6.668011,-59.26987,76.99798,-14.042347,-2.1548781,0.5042948,-13.06319,-8.117121,48.364887,67.869896,-1.739461,5.5167737,-7.4898944
130,-1.7064409255981445,-0.5539723038673401,78.70121765136719,-2.4586305201213654,-2.4113875614947453,5.449364387537044,-7.7685943,5.301223,-2.4055004,22.689913,-11.281093,-2.3756595,4.6307573,-2.4368415,-23.337557,8.585336,-9.709813,-1.5749629,-5.2046404,3.580761,13.271728,-16.870615,6.6645484,-59.25792,76.97965,-14.006175,-2.1273313,0.542125,-13.052555,-8.1153345,48.34136,67.86476,-1.7520233,5.535811,-7.484823
131,-1.7097333669662476,-0.5631224513053894,78.70117950439453,-2.4599648068738396,-2.403174340276194,5.466816594466217,-7.7905807,5.302537,-2.4245582,22.700836,-11.278764,-2.3765855,4.6248584,-2.4302435,-23.356092,8.582044,-9.709097,-1.5870415,-5.2075944,3.5820293,13.272484,-16.863081,6.6601777,-59.237072,76.95972,-13.958669,-2.0994565,0.5776529,-13.043009,-8.113536,48.31151,67.85938,-1.7826855,5.5576954,-7.4746733
132,-1.707082748413086,-0.5710574984550476,78.70321655273438,-2.460821451799907,-2.4005306063407663,5.479394541672836,-7.8022356,5.3056884,-2.4391418,22.70816,-11.276978,-2.3771582,4.6235714,-2.4233181,-23.369328,8.581899,-9.711141,-1.5997291,-5.209553,3.5824354,13.277217,-16.855799,6.654891,-59.228058,76.94523,-13.930716,-2.0825126,0.60966086,-13.036288,-8.111711,48.297432,67.86031,-1.7988639,5.573246,-7.4711423
133,-1.7054388523101807,-0.5806750059127808,78.70281982421875,-2.462185494470586,-2.4062422665993126,5.4842533452123625,-7.8007116,5.313235,-2.4472098,22.715097,-11.278438,-2.376077,4.6303325,-2.4135637,-23.374636,8.583221,-9.715308,-1.6150546,-5.2023826,3.5826752,13.285568,-16.850836,6.6449237,-59.241173,76.946,-13.931143,-2.078169,0.63388073,-13.028611,-8.1083,48.29869,67.86988,-1.801728,5.5813746,-7.478057
134,-1.6984899044036865,-0.5915527939796448,78.70250701904297,-2.463658085943995,-2.417067570266109,5.483962177421308,-7.7909827,5.323344,-2.450842,22.722,-11.281861,-2.3730788,4.639639,-2.403243,-23.374374,8.590979,-9.723437,-1.6329374,-5.1919827,3.582315,13.29537,-16.841494,6.6370444,-59.271572,76.946686,-13.95684,-2.0812092,0.65336925,-13.019628,-8.105586,48.318806,67.88255,-1.7919605,5.586564,-7.49231
135,-1.6971458196640015,-0.5988473296165466,78.70153045654297,-2.4641501723290933,-2.4280597512109847,5.482815684565517,-7.7789364,5.3325973,-2.4534776,22.72551,-11.284068,-2.3713524,4.65043,-2.3936093,-23.373144,8.595466,-9.729895,-1.6492587,-5.18125,3.580785,13.304097,-16.829796,6.630275,-59.30642,76.9473,-13.978773,-2.090715,0.67666066,-13.010956,-8.103223,48.341522,67.898834,-1.7811497,5.5875335,-7.505447
136,-1.7019444704055786,-0.6070829629898071,78.70086669921875,-2.4629352568311704,-2.434610977318818,5.485260834220307,-7.7692432,5.337416,-2.4584222,22.719566,-11.279955,-2.374173,4.6573486,-2.3877797,-23.375471,8.5983925,-9.735615,-1.659746,-5.175356,3.5780437,13.311247,-16.815783,6.62607,-59.328884,76.94042,-13.965602,-2.1039908,0.71312314,-13.004276,-8.1017885,48.35408,67.911514,-1.7787551,5.5875034,-7.5091405
137,-1.7076349258422852,-0.6122336387634277,78.70277404785156,-2.4587455646600613,-2.4352620289774807,5.494198536456624,-7.76407,5.3347435,-2.4683487,22.703089,-11.2682,-2.3842847,4.660033,-2.3874688,-23.384161,8.597234,-9.739756,-1.6605374,-5.1782494,3.572923,13.312817,-16.797499,6.620646,-59.346806,76.928185,-13.910478,-2.127284,0.76963943,-13.000076,-8.100075,48.3577,67.92718,-1.7852864,5.5819154,-7.4971447
138,-1.708298921585083,-0.6207605004310608,78.7026138305664,-2.4524768236842345,-2.432187258780257,5.506242933357263,-7.7600455,5.327453,-2.4803753,22.677044,-11.250208,-2.3993716,4.6610694,-2.3906102,-23.395962,8.59115,-9.741756,-1.654869,-5.181617,3.5666556,13.307512,-16.77404,6.6148844,-59.3659,76.91444,-13.829289,-2.1604204,0.84119153,-12.995681,-8.098382,48.34977,67.94872,-1.7983861,5.570939,-7.474119
139,-1.707458734512329,-0.6283831596374512,78.703857421875,-2.4463396959552743,-2.4274346591773828,5.518163037455331,-7.7577534,5.3201747,-2.491883,22.650846,-11.232293,-2.4150143,4.6602674,-2.3939023,-23.407656,8.584963,-9.743089,-1.6490613,-5.1863146,3.5594242,13.305938,-16.758005,6.6094494,-59.37458,76.90093,-13.738141,-2.1880348,0.9105974,-12.993171,-8.0971155,48.338882,67.96406,-1.8140479,5.561748,-7.4545364
140,-1.7061498165130615,-0.6341197490692139,78.70452117919922,-2.4404994171652774,-2.4220319957351903,5.525467881203742,-7.754396,5.3157043,-2.4982538,22.62427,-11.215288,-2.4265025,4.655441,-2.3967652,-23.414583,8.583721,-9.744693,-1.6492103,-5.1776013,3.554167,13.299944,-16.732515,6.6047516,-59.37677,76.88213,-13.643193,-2.2025154,0.9836488,-12.987403,-8.096122,48.32319,67.9811,-1.8289196,5.5526934,-7.4461718
141,-1.7044512033462524,-0.6399409770965576,78.70645141601562,-2.4367338345391554,-2.4153066988435774,5.525797179310951,-7.7519245,5.3174076,-2.4972172,22.601433,-11.203634,-2.4322507,4.643833,-2.3969603,-23.414696,8.591637,-9.748022,-1.6598061,-5.1538563,3.550419,13.293364,-16.715042,6.594741,-59.364723,76.871635,-13.556305,-2.1978617,1.0460197,-12.977663,-8.094494,48.304882,67.99243,-1.8384924,5.5518594,-7.4653006
142,-1.7024205923080444,-0.6458236575126648,78.70700073242188,-2.434072164489937,-2.4069651587548546,5.521666897807579,-7.7545857,5.3227005,-2.4916816,22.5885,-11.195189,-2.4348042,4.6288686,-2.39487,-23.410387,8.600887,-9.749705,-1.6767136,-5.127372,3.5481656,13.285354,-16.69738,6.583962,-59.337524,76.86234,-13.470376,-2.1819088,1.1071287,-12.966295,-8.093184,48.298985,67.99945,-1.8377745,5.5553513,-7.5027795
143,-1.7038764953613281,-0.6517296433448792,78.70633697509766,-2.431599112835762,-2.398940624684804,5.5173217089500355,-7.7552314,5.3282084,-2.4859216,22.572718,-11.187072,-2.4362366,4.6147027,-2.3926725,-23.405977,8.609676,-9.751326,-1.69317,-5.102117,3.545474,13.276983,-16.678074,6.5747714,-59.306538,76.85029,-13.386771,-2.154389,1.1635277,-12.956065,-8.092434,48.29747,68.0051,-1.8334169,5.5579753,-7.539152
144,-1.7027415037155151,-0.655410647392273,78.70735168457031,-2.4287113283556483,-2.3931985729140046,5.516941770241198,-7.754194,5.33055,-2.484837,22.55773,-11.1789,-2.4385877,4.6059937,-2.3915472,-23.405418,8.614718,-9.753245,-1.7026132,-5.0852337,3.5420094,13.2708435,-16.658766,6.5685387,-59.2794,76.83617,-13.307514,-2.1149757,1.2115071,-12.949096,-8.092147,48.294838,68.00956,-1.8325284,5.55539,-7.5555325
145,-1.7033716440200806,-0.6631441116333008,78.70938873291016,-2.4248356527558825,-2.39088235226295,5.522250973781331,-7.749502,5.328159,-2.4905522,22.541126,-11.168955,-2.442414,4.605084,-2.3921642,-23.409843,8.614978,-9.755916,-1.7022009,-5.0851116,3.5397987,13.266988,-16.63477,6.5586452,-59.22742,76.81401,-13.207729,-2.0501633,1.2435592,-12.9483385,-8.092044,48.287167,68.01555,-1.845247,5.5433455,-7.5363655
146,-1.7034324407577515,-0.6698352694511414,78.7105712890625,-2.420901813070319,-2.3910391442777748,5.5310849680683605,-7.742935,5.323301,-2.5007367,22.525587,-11.159174,-2.4466918,4.6106324,-2.39284,-23.4176,8.61011,-9.7579,-1.695809,-5.094611,3.538036,13.2678995,-16.614027,6.5460186,-59.16257,76.79128,-13.103231,-1.966187,1.2627425,-12.953976,-8.092247,48.27615,68.02099,-1.8642163,5.5246925,-7.495007
147,-1.7007770538330078,-0.6754122972488403,78.71051788330078,-2.4168224261835447,-2.3916993394088646,5.540566557776472,-7.7366276,5.3179355,-2.511684,22.511757,-11.150525,-2.4508142,4.6185627,-2.3934877,-23.426819,8.60173,-9.759254,-1.6869675,-5.1075654,3.5369844,13.26946,-16.594635,6.531797,-59.10725,76.77487,-13.007956,-1.8853577,1.2840726,-12.961105,-8.092823,48.267845,68.02524,-1.8825591,5.5077667,-7.453364
148,-1.6972368955612183,-0.6789810061454773,78.70896911621094,-2.412677505938094,-2.3909379473139314,5.548735847150847,-7.733152,5.313702,-2.5204725,22.500423,-11.144195,-2.4541314,4.62339,-2.394869,-23.436726,8.596073,-9.762198,-1.6791419,-5.116612,3.5341747,13.269847,-16.576153,6.524044,-59.090523,76.76953,-12.937118,-1.832167,1.3210065,-12.96732,-8.093238,48.26667,68.02644,-1.8932502,5.499932,-7.4313846
149,-1.697900652885437,-0.6822893619537354,78.70674133300781,-2.407862295024549,-2.387809167424708,5.555032742062696,-7.7326264,5.310776,-2.526101,22.490288,-11.140389,-2.4563103,4.6274743,-2.3965144,-23.449106,8.586827,-9.765202,-1.6703277,-5.1330843,3.5320926,13.27216,-16.560217,6.516474,-59.101105,76.787056,-12.879,-1.8209629,1.3874463,-12.979052,-8.093524,48.27659,68.02782,-1.9031802,5.5055804,-7.435848
150,-1.6976104974746704,-0.6872845888137817,78.70777893066406,-2.402780892214323,-2.38315614190059,5.5606432335740354,-7.7353444,5.3085318,-2.5304184,22.483442,-11.139469,-2.4577653,4.631018,-2.398689,-23.463951,8.575932,-9.769103,-1.6596119,-5.1393447,3.531169,13.262241,-16.549004,6.487491,-59.17898,76.8441,-12.860607,-1.838058,1.4776489,-12.980775,-8.093804,48.30038,68.029366,-1.8945526,5.5201435,-7.462555
151,-1.6966220140457153,-0.6933143734931946,78.70970153808594,-2.3982145337853904,-2.378963017735664,5.565387030307268,-7.737912,5.307205,-2.533772,22.47775,-11.138982,-2.4589565,4.6330643,-2.4005322,-23.476728,8.567528,-9.772733,-1.6521899,-5.1554227,3.528601,13.265025,-16.538477,6.479736,-59.224224,76.883896,-12.831584,-1.8587736,1.5570533,-12.994021,-8.093817,48.315334,68.02771,-1.9019282,5.536941,-7.4863095
152,-1.6932178735733032,-0.6981585025787354,78.71177673339844,-2.3957600016890463,-2.375753635693704,5.569623842061695,-7.7402353,5.3073545,-2.5372636,22.474297,-11.138047,-2.4603913,4.632773,-2.4004495,-23.484152,8.566258,-9.776779,-1.6531628,-5.139997,3.5282967,13.249166,-16.526041,6.455207,-59.315994,76.93231,-12.853087,-1.8631957,1.6141698,-12.987547,-8.094255,48.323505,68.02763,-1.8889608,5.548991,-7.506072
153,-1.6878505945205688,-0.6987004280090332,78.7110595703125,-2.3960581204480023,-2.375049128029013,5.572699945661414,-7.7406425,5.3096848,-2.5409904,22.473452,-11.135745,-2.4617271,4.6294794,-2.3977962,-23.482468,8.574816,-9.780024,-1.6676697,-5.1344023,3.5311491,13.245676,-16.51216,6.445066,-59.3298,76.95052,-12.857204,-1.8387905,1.6293056,-12.993771,-8.095045,48.32208,68.02739,-1.8956963,5.5561304,-7.502374
154,-1.6877683401107788,-0.7051017880439758,78.71043395996094,-2.398610284074629,-2.3755689839586083,5.574711827617202,-7.740238,5.314152,-2.5445535,22.474482,-11.132715,-2.4629347,4.6245866,-2.3925476,-23.474566,8.588687,-9.782367,-1.6918045,-5.1233563,3.5365987,13.24047,-16.49836,6.4330316,-59.331684,76.96592,-12.878981,-1.801877,1.621673,-12.998174,-8.0966625,48.319218,68.02738,-1.9011502,5.5609956,-7.490594
155,-1.6877830028533936,-0.709100067615509,78.70825958251953,-2.401582637483511,-2.3761280925515327,5.576352014349609,-7.739911,5.3190217,-2.5473065,22.476408,-11.13009,-2.4647398,4.618583,-2.387022,-23.465769,8.603906,-9.784097,-1.7169499,-5.1119113,3.5415277,13.233229,-16.48222,6.425251,-59.32424,76.97486,-12.908498,-1.7625724,1.5963124,-13.002834,-8.098057,48.31464,68.02903,-1.9017402,5.563619,-7.476065
156,-1.6836799383163452,-0.7069315314292908,78.70796203613281,-2.403387022927379,-2.376755511323385,5.57889234299428,-7.7385707,5.3230724,-2.5488865,22.47673,-11.128151,-2.467919,4.61436,-2.3831778,-23.461708,8.616929,-9.787272,-1.7342664,-5.10616,3.5472007,13.227845,-16.465925,6.413201,-59.307533,76.98245,-12.93552,-1.7341274,1.5607529,-13.010124,-8.100614,48.305958,68.032104,-1.893894,5.5639443,-7.4667
157,-1.6860038042068481,-0.7137301564216614,78.70787048339844,-2.4040632916559024,-2.3783269393857576,5.582133735869694,-7.734434,5.326558,-2.5475821,22.475458,-11.127925,-2.4735365,4.6167874,-2.3797152,-23.46407,8.619293,-9.787765,-1.7407619,-5.10639,3.553645,13.226771,-16.458546,6.386447,-59.280556,77.00415,-12.959962,-1.7203474,1.5099553,-13.019039,-8.10689,48.29084,68.03267,-1.8687803,5.561368,-7.464824
158,-1.6874322891235352,-0.7185062766075134,78.70753479003906,-2.4041759710802717,-2.3807382861937874,5.585747441206028,-7.7279396,5.32998,-2.5442014,22.47215,-11.12804,-2.4809523,4.623031,-2.3762825,-23.46973,8.615853,-9.786718,-1.7412794,-5.104814,3.554831,13.224745,-16.44456,6.3728814,-59.26269,77.00997,-12.999098,-1.7138618,1.4430437,-13.025709,-8.110412,48.274635,68.031975,-1.8225945,5.5554886,-7.469289
159,-1.682015299797058,-0.7204161286354065,78.70870971679688,-2.4044083235515057,-2.3821484457809583,5.590432990456576,-7.7239027,5.3329177,-2.5425763,22.47053,-11.129088,-2.4883747,4.628796,-2.3731573,-23.47767,8.611151,-9.785989,-1.7393097,-5.104175,3.5556946,13.222033,-16.428188,6.364765,-59.247017,77.00942,-13.044351,-1.714437,1.3717911,-13.032114,-8.11273,48.257782,68.03249,-1.7776412,5.5488944,-7.4776354
160,-1.679420828819275,-0.7257281541824341,78.70996856689453,-2.405074415516522,-2.3810624336928847,5.597221755464083,-7.725772,5.334721,-2.546504,22.471205,-11.129654,-2.493975,4.632442,-2.3696525,-23.48716,8.605473,-9.786354,-1.7380553,-5.1029534,3.5595355,13.221179,-16.418043,6.351695,-59.22582,77.01592,-13.08363,-1.7234094,1.3062068,-13.039721,-8.116767,48.230896,68.03393,-1.7603564,5.5439963,-7.48615
161,-1.6778515577316284,-0.7287082076072693,78.70852661132812,-2.4068656071501824,-2.3746794914705385,5.607711549832913,-7.739455,5.3353753,-2.560297,22.47705,-11.130345,-2.4969287,4.631515,-2.3650503,-23.499643,8.5970335,-9.787476,-1.737979,-5.1048107,3.5624635,13.214283,-16.404514,6.344907,-59.21555,77.023926,-13.1332,-1.7493478,1.2557658,-13.044853,-8.119026,48.214928,68.03832,-1.7646294,5.5425153,-7.5025926
162,-1.6740365028381348,-0.7313011288642883,78.7079086303711,-2.409572102031948,-2.364787172052579,5.620861564146981,-7.760535,5.33496,-2.5806153,22.485357,-11.130637,-2.4983025,4.6274076,-2.3599434,-23.514837,8.586989,-9.789499,-1.7374707,-5.107134,3.566927,13.206443,-16.392464,6.3405814,-59.20562,77.03364,-13.182904,-1.7877097,1.2119964,-13.049154,-8.120505,48.196693,68.0428,-1.7891426,5.543024,-7.5232224
163,-1.674707055091858,-0.7327901721000671,78.70832061767578,-2.4126991751715448,-2.355566759846961,5.634107301142215,-7.7817793,5.3349295,-2.6013987,22.49564,-11.132051,-2.499422,4.6261315,-2.3534634,-23.529911,8.572561,-9.789287,-1.7370491,-5.104775,3.573222,13.201351,-16.386051,6.333185,-59.19163,77.04681,-13.225692,-1.8269415,1.1598189,-13.054888,-8.122989,48.162205,68.04932,-1.8299946,5.5418096,-7.5387874
164,-1.6813255548477173,-0.7352058291435242,78.70686340332031,-2.4139076628569964,-2.3525068184746973,5.643119377609846,-7.7909384,5.334942,-2.6136675,22.501053,-11.133511,-2.5011694,4.627984,-2.3498204,-23.540005,8.566677,-9.791803,-1.7368139,-5.0935473,3.5766463,13.202322,-16.385874,6.320365,-59.18472,77.05932,-13.267736,-1.8473701,1.0938725,-13.060006,-8.127592,48.127937,68.05079,-1.854729,5.5376616,-7.5485907
165,-1.6862045526504517,-0.7344459891319275,78.70645141601562,-2.4124526015569407,-2.359486003882868,5.645232490154384,-7.780766,5.3357544,-2.6119974,22.500196,-11.136489,-2.5041394,4.6380186,-2.3491578,-23.542187,8.567759,-9.795498,-1.7356303,-5.081941,3.5739224,13.207583,-16.377283,6.314478,-59.181973,77.05568,-13.310001,-1.841762,1.0111816,-13.0657,-8.13029,48.121746,68.051025,-1.8435125,5.528127,-7.552736
166,-1.6851365566253662,-0.7389129996299744,78.70738220214844,-2.4095671097768645,-2.374614347882334,5.642734577820114,-7.7560177,5.337254,-2.601497,22.494625,-11.140555,-2.5076902,4.6569805,-2.349214,-23.539,8.569206,-9.79838,-1.7336988,-5.065629,3.5708776,13.218584,-16.3743,6.309483,-59.1788,77.04922,-13.349816,-1.8203262,0.9038073,-13.07349,-8.132927,48.120213,68.054955,-1.8211659,5.5120397,-7.549051
167,-1.6758652925491333,-0.7434203028678894,78.70867156982422,-2.4072693215939807,-2.3876608260644003,5.6408978984618985,-7.7340217,5.33892,-2.5922127,22.489157,-11.14342,-2.5112715,4.672588,-2.349135,-23.53628,8.572867,-9.80096,-1.7339581,-5.0515075,3.5668294,13.228848,-16.370186,6.306274,-59.17593,77.04039,-13.390461,-1.7949528,0.79735017,-13.081947,-8.134966,48.122437,68.05589,-1.794182,5.4987817,-7.544549
168,-1.670914888381958,-0.7467537522315979,78.70765686035156,-2.4072678980683957,-2.390713196216852,5.644166390074658,-7.729342,5.339855,-2.5930092,22.489096,-11.144442,-2.5142047,4.676349,-2.3476567,-23.53827,8.576711,-9.801934,-1.7392128,-5.046113,3.5665789,13.232787,-16.365814,6.302249,-59.171757,77.03541,-13.438311,-1.7782168,0.7027327,-13.09024,-8.138044,48.12458,68.05353,-1.7739708,5.4940805,-7.543678
169,-1.6697512865066528,-0.7505391836166382,78.70634460449219,-2.4111861546702844,-2.3804090234897,5.654924994752285,-7.748991,5.340561,-2.6098876,22.496317,-11.142031,-2.5156386,4.6653676,-2.342627,-23.547127,8.578024,-9.798473,-1.7547714,-5.0499153,3.5709112,13.227205,-16.36351,6.301084,-59.169003,77.03685,-13.492284,-1.7718154,0.62171924,-13.099071,-8.139015,48.123318,68.05105,-1.762729,5.501376,-7.5467362
170,-1.675086498260498,-0.7510322332382202,78.70458221435547,-2.4200826980997614,-2.3558072884198396,5.672714125298319,-7.7949324,5.342405,-2.6406176,22.515663,-11.139956,-2.5164986,4.6382375,-2.3331506,-23.562895,8.578993,-9.792011,-1.7781352,-5.062564,3.5878341,13.213897,-16.375711,6.2938404,-59.16022,77.0489,-13.557679,-1.7695298,0.5286404,-13.116784,-8.145388,48.11153,68.0499,-1.7616484,5.520321,-7.5471487
171,-1.6751891374588013,-0.7530398368835449,78.70552825927734,-2.427706873826777,-2.3316227172516153,5.690519662203903,-7.838551,5.342938,-2.6704078,22.531466,-11.1355295,-2.5178146,4.6121073,-2.325409,-23.578562,8.579188,-9.786207,-1.798709,-5.0744386,3.5996163,13.199166,-16.379768,6.289799,-59.1584,77.05803,-13.628149,-1.7711874,0.44843605,-13.127319,-8.14913,48.102882,68.044464,-1.7591786,5.538256,-7.5509725
172,-1.678116798400879,-0.7534642815589905,78.70525360107422,-2.4321850811942713,-2.314006841205465,5.705198658403572,-7.8683066,5.3425107,-2.6908567,22.539751,-11.13038,-2.5213263,4.595935,-2.3201127,-23.592192,8.575239,-9.782432,-1.8069441,-5.0819073,3.6065304,13.18933,-16.384453,6.2871194,-59.15827,77.06869,-13.708327,-1.7757437,0.3644632,-13.135731,-8.151823,48.095074,68.039764,-1.7546487,5.5467978,-7.554415
173,-1.6719433069229126,-0.7552365660667419,78.70673370361328,-2.432195723315794,-2.305139748233732,5.716139009190742,-7.8796463,5.340531,-2.6975887,22.539042,-11.123816,-2.5292342,4.5946746,-2.3182173,-23.603321,8.562743,-9.7803335,-1.796469,-5.0813894,3.6074872,13.187372,-16.391573,6.284024,-59.1644,77.08148,-13.806241,-1.7862052,0.27523836,-13.142143,-8.155282,48.087746,68.03546,-1.7421737,5.5402093,-7.5590816
174,-1.6652779579162598,-0.7568620443344116,78.70716857910156,-2.4293409796476775,-2.30146558890372,5.725282289638885,-7.8796806,5.337562,-2.6962569,22.531937,-11.115471,-2.5401433,4.603698,-2.3176668,-23.613308,8.541926,-9.778026,-1.7737745,-5.0749507,3.6039398,13.187652,-16.399527,6.2792883,-59.182014,77.099106,-13.922969,-1.8024179,0.18463455,-13.141906,-8.161228,48.08284,68.0267,-1.722067,5.52478,-7.566281
175,-1.6656720638275146,-0.7570965886116028,78.70498657226562,-2.4254420385855155,-2.299658855497678,5.7327944850552806,-7.875667,5.33397,-2.692915,22.522955,-11.108417,-2.5500855,4.614348,-2.3189533,-23.62219,8.523494,-9.77832,-1.7482002,-5.0702634,3.5987728,13.188688,-16.404678,6.2766733,-59.194878,77.114265,-14.0402355,-1.8167034,0.09268079,-13.141188,-8.165043,48.081707,68.01929,-1.7040595,5.508571,-7.571399
176,-1.6697622537612915,-0.7586809992790222,78.70318603515625,-2.4226955269993478,-2.297289087768503,5.7388885926948205,-7.873956,5.330991,-2.6937099,22.516228,-11.10557,-2.5552418,4.621582,-2.3199565,-23.630117,8.510342,-9.779671,-1.7293949,-5.0688004,3.5949306,13.190166,-16.40077,6.2758913,-59.195656,77.11781,-14.13297,-1.820644,0.010346445,-13.142588,-8.166298,48.07978,68.0149,-1.6981685,5.5000153,-7.5714307
177,-1.671638011932373,-0.7593244910240173,78.7020492553711,-2.4216325949988877,-2.2957208030088454,5.74494705504286,-7.8740892,5.328232,-2.7034426,22.512186,-11.109517,-2.553391,4.628899,-2.3197162,-23.638857,8.499225,-9.780892,-1.7190335,-5.0716066,3.595801,13.1900835,-16.406431,6.2746468,-59.19543,77.12708,-14.238047,-1.8135507,-0.09884536,-13.144038,-8.168486,48.069447,68.01373,-1.7147136,5.501009,-7.5570164
178,-1.6687804460525513,-0.7612085342407227,78.70332336425781,-2.4213943838793197,-2.2946805294629726,5.749428425346278,-7.8741336,5.3260765,-2.7170904,22.508976,-11.118007,-2.5470765,4.6352477,-2.3194735,-23.646843,8.492368,-9.784068,-1.7125293,-5.071872,3.5977798,13.192685,-16.406755,6.273205,-59.186886,77.12758,-14.322972,-1.7966572,-0.20123586,-13.1443615,-8.170861,48.04947,68.010025,-1.7465385,5.509135,-7.5354304
179,-1.6646487712860107,-0.7622367143630981,78.70408630371094,-2.4209523637972654,-2.293388705295224,5.752720605264105,-7.8745785,5.323798,-2.729461,22.50684,-11.126965,-2.5392215,4.64003,-2.3197262,-23.653355,8.48795,-9.787477,-1.7089574,-5.0726233,3.5993366,13.194884,-16.406857,6.272011,-59.177597,77.12754,-14.401874,-1.7773415,-0.29948652,-13.144719,-8.172581,48.033283,68.0068,-1.7779917,5.5174527,-7.5147333
180,-1.6604135036468506,-0.7634202241897583,78.70457458496094,-2.4199633825112525,-2.290440622804622,5.755186468966597,-7.876637,5.32178,-2.7360077,22.506636,-11.13205,-2.5329075,4.6415286,-2.3204088,-23.658537,8.485232,-9.789742,-1.7076733,-5.0715456,3.6002932,13.197582,-16.40854,6.2713294,-59.171074,77.1278,-14.471561,-1.7614145,-0.38355973,-13.14574,-8.17349,48.020863,68.00463,-1.8022004,5.5197225,-7.504112
181,-1.652894377708435,-0.7638610601425171,78.70498657226562,-2.4178658792587964,-2.2841476602744972,5.756206500003997,-7.8822284,5.3196573,-2.7332888,22.509882,-11.130908,-2.5282667,4.636816,-2.322702,-23.66134,8.486098,-9.790704,-1.7098327,-5.0669956,3.6005344,13.198011,-16.415483,6.270604,-59.17085,77.13065,-14.537891,-1.7460104,-0.4576676,-13.147223,-8.174342,48.013874,68.00402,-1.8142601,5.512892,-7.5080476
182,-1.649516224861145,-0.7649244070053101,78.70454406738281,-2.4149387985050277,-2.275761321114365,5.755742273723762,-7.8897433,5.317503,-2.724433,22.51452,-11.125715,-2.5238736,4.628025,-2.3259177,-23.662235,8.489648,-9.791082,-1.7153541,-5.0589886,3.5999458,13.196997,-16.423506,6.2697663,-59.178326,77.13348,-14.600502,-1.7302345,-0.51963747,-13.147923,-8.175161,48.014187,68.00363,-1.8150228,5.500784,-7.523587
183,-1.6469426155090332,-0.7654192447662354,78.70497131347656,-2.412027223454291,-2.267606198295026,5.755498881861365,-7.8966084,5.3151937,-2.7147112,22.518856,-11.119902,-2.520426,4.618558,-2.329527,-23.662512,8.494955,-9.791378,-1.7215568,-5.048383,3.5992594,13.194395,-16.431036,6.2679095,-59.199806,77.138336,-14.665715,-1.7203,-0.5700814,-13.145887,-8.176648,48.020775,68.00232,-1.8048108,5.4870934,-7.541933
184,-1.6469236612319946,-0.7669775485992432,78.70594024658203,-2.4098009214476512,-2.2628029477469993,5.756948987202688,-7.899162,5.3129153,-2.7091541,22.520456,-11.117382,-2.518651,4.613298,-2.3325949,-23.663412,8.500433,-9.793015,-1.7256619,-5.041489,3.5988333,13.1942215,-16.43414,6.266147,-59.214684,77.14349,-14.71918,-1.7227321,-0.60923845,-13.142862,-8.177785,48.024708,67.99906,-1.7940744,5.4762063,-7.5510283
185,-1.6443970203399658,-0.7673086524009705,78.7067642211914,-2.4087308025616254,-2.2644146086340453,5.761388368489821,-7.89442,5.310524,-2.7094212,22.51933,-11.120027,-2.519887,4.618058,-2.3339121,-23.665607,8.501876,-9.793982,-1.7262638,-5.0416317,3.599786,13.201448,-16.43321,6.2642817,-59.221596,77.149895,-14.75722,-1.7443892,-0.6332373,-13.140736,-8.178752,48.02134,67.99352,-1.7847586,5.4672403,-7.5448475
186,-1.6451841592788696,-0.7668747305870056,78.70681762695312,-2.408245200228124,-2.2698421404913445,5.767484463762027,-7.8846736,5.3081584,-2.7125123,22.516169,-11.125644,-2.523307,4.627771,-2.3346298,-23.66826,8.502809,-9.794772,-1.7251909,-5.046019,3.6010492,13.213381,-16.42916,6.2634187,-59.221146,77.156654,-14.780536,-1.7797881,-0.64398,-13.140422,-8.179113,48.015663,67.988205,-1.7729944,5.4584937,-7.529923
187,-1.644612431526184,-0.7656462788581848,78.7070541381836,-2.4081160322282678,-2.2749165669051297,5.774123327195619,-7.875231,5.305774,-2.7176816,22.511429,-11.131428,-2.5266135,4.6374273,-2.3349109,-23.671022,8.503166,-9.796489,-1.7240059,-5.050829,3.603099,13.226039,-16.425709,6.2625227,-59.218357,77.161865,-14.798596,-1.817341,-0.6496239,-13.140846,-8.1793995,48.00796,67.982,-1.7648239,5.4528723,-7.513204
188,-1.63590669631958,-0.7647242546081543,78.70637512207031,-2.408012625082019,-2.2747222747178975,5.77991879579202,-7.8729076,5.303473,-2.724133,22.508196,-11.135973,-2.5275056,4.6410055,-2.335445,-23.673468,8.502791,-9.798738,-1.7246355,-5.0514946,3.6060724,13.23479,-16.425982,6.2611413,-59.21395,77.163475,-14.817366,-1.8447734,-0.65844417,-13.141087,-8.179711,47.99921,67.97513,-1.7656026,5.453256,-7.502113
189,-1.6291383504867554,-0.765076220035553,78.70559692382812,-2.408115727315144,-2.2652859769086744,5.7850466474357285,-7.8828487,5.3010855,-2.7340958,22.505505,-11.138358,-2.5241525,4.6339426,-2.3359761,-23.675781,8.500933,-9.802889,-1.7271358,-5.047073,3.6101065,13.233319,-16.428568,6.259685,-59.211624,77.15785,-14.844987,-1.855923,-0.67217785,-13.140969,-8.179946,47.998302,67.96936,-1.773235,5.463278,-7.501889
190,-1.628973364830017,-0.7631709575653076,78.70484924316406,-2.408450241583292,-2.249864983813051,5.790063050408001,-7.9013176,5.29862,-2.7473636,22.504034,-11.140301,-2.5182285,4.6202664,-2.3362615,-23.67834,8.497796,-9.808308,-1.7307177,-5.0403914,3.6154711,13.226029,-16.432884,6.2582674,-59.20894,77.14809,-14.875832,-1.8585117,-0.6863915,-13.140768,-8.180076,48.00389,67.96378,-1.7846854,5.4802513,-7.5076513
191,-1.6293667554855347,-0.7629351019859314,78.70555877685547,-2.408781711883747,-2.2347185882675626,5.793992030286872,-7.9189115,5.2968173,-2.75879,22.50297,-11.141565,-2.5125003,4.606922,-2.3362768,-23.680124,8.4942665,-9.812693,-1.735844,-5.0345144,3.620483,13.217515,-16.436598,6.257303,-59.206905,77.13819,-14.904658,-1.859993,-0.6993255,-13.139454,-8.18008,48.01148,67.95777,-1.7967125,5.4989786,-7.514687
192,-1.6267640590667725,-0.7626552581787109,78.70585632324219,-2.408601363268415,-2.2264968023457445,5.795249905287775,-7.9266562,5.296237,-2.7626374,22.503479,-11.142846,-2.5096762,4.599125,-2.337022,-23.679483,8.497603,-9.818088,-1.7427012,-5.031585,3.6246126,13.215088,-16.438488,6.256356,-59.205246,77.132034,-14.923583,-1.8674688,-0.7077702,-13.136943,-8.17994,48.019497,67.951225,-1.8031231,5.51132,-7.5180845
193,-1.6195541620254517,-0.7642009258270264,78.70719146728516,-2.408145315115376,-2.2283236413840783,5.792390746220576,-7.9196944,5.2979746,-2.7545376,22.506178,-11.144008,-2.5111365,4.599705,-2.3375154,-23.675362,8.508685,-9.822193,-1.7555172,-5.0337214,3.6265907,13.220236,-16.437939,6.2544827,-59.203476,77.13648,-14.923611,-1.8880706,-0.706457,-13.132104,-8.179335,48.03003,67.94157,-1.8011825,5.5186467,-7.5164733
194,-1.6132060289382935,-0.7649608254432678,78.7084732055664,-2.4077920335765493,-2.2353974489939614,5.787353176040626,-7.9049892,5.3014684,-2.739394,22.510675,-11.144452,-2.5152028,4.605662,-2.337269,-23.66956,8.522409,-9.824055,-1.7727523,-5.03588,3.6291375,13.230331,-16.437164,6.2537136,-59.204384,77.141945,-14.909875,-1.9118966,-0.69891953,-13.127383,-8.178829,48.03245,67.93395,-1.7997645,5.520352,-7.5103235
195,-1.6075340509414673,-0.7658120393753052,78.70768737792969,-2.4060477386667185,-2.24680487143497,5.780552957311786,-7.88368,5.304196,-2.721546,22.513315,-11.144902,-2.5199974,4.6146703,-2.3391674,-23.661943,8.539886,-9.828541,-1.7862366,-5.0364437,3.6270356,13.242943,-16.436546,6.2504272,-59.20949,77.15579,-14.901708,-1.9404402,-0.69398075,-13.118898,-8.176516,48.035915,67.92292,-1.7952055,5.521496,-7.5052156
196,-1.603469967842102,-0.7633476853370667,78.70596313476562,-2.4046922904032497,-2.2522851278725367,5.777377368686336,-7.8710713,5.3049273,-2.7121737,22.514378,-11.14546,-2.523924,4.6229415,-2.340167,-23.658352,8.544188,-9.83005,-1.7884413,-5.0376263,3.6289084,13.251391,-16.438257,6.2486877,-59.212334,77.15715,-14.916221,-1.9525386,-0.706893,-13.113851,-8.175001,48.035442,67.9173,-1.792573,5.520342,-7.502522
197,-1.596503496170044,-0.7606574296951294,78.70662689208984,-2.4025449855430248,-2.2524022979154266,5.777546253775599,-7.8642035,5.301753,-2.7130852,22.507029,-11.144206,-2.527249,4.630617,-2.342231,-23.6581,8.535298,-9.8304205,-1.7730151,-5.03936,3.6308677,13.25576,-16.445189,6.246928,-59.215866,77.15016,-14.969139,-1.9441037,-0.74645317,-13.111185,-8.173436,48.034084,67.915535,-1.7889725,5.5165963,-7.50364
198,-1.596535563468933,-0.7612578868865967,78.704833984375,-2.3997303127038685,-2.2490139791966604,5.779301234726534,-7.862278,5.296294,-2.7198048,22.497551,-11.143168,-2.53075,4.6364655,-2.3457313,-23.659185,8.521513,-9.831782,-1.7455207,-5.042734,3.6328766,13.257705,-16.449396,6.24578,-59.21693,77.13408,-15.038442,-1.9240915,-0.7969802,-13.109074,-8.172391,48.032566,67.91333,-1.784104,5.511006,-7.506312
199,-1.5970669984817505,-0.7621610164642334,78.70406341552734,-2.3972004149660804,-2.245048451171248,5.783575616170985,-7.861903,5.2899327,-2.7292442,22.488403,-11.142378,-2.5328717,4.6461864,-2.347971,-23.663683,8.498454,-9.82971,-1.7156771,-5.0458403,3.6378539,13.259167,-16.463614,6.243499,-59.222294,77.1192,-15.128243,-1.8986821,-0.86361754,-13.109732,-8.170197,48.02987,67.91865,-1.7801503,5.504444,-7.5124164
200,-1.5904977321624756,-0.760894775390625,78.7054214477539,-2.394909358759217,-2.24063649912672,5.78776957998956,-7.86424,5.284638,-2.7351742,22.486027,-11.143901,-2.5322075,4.6528106,-2.3503935,-23.669601,8.48254,-9.830348,-1.6934092,-5.0440717,3.640843,13.258695,-16.471527,6.240677,-59.22519,77.11103,-15.196246,-1.892859,-0.9157532,-13.107089,-8.16744,48.029118,67.92045,-1.7756989,5.501814,-7.52127
201,-1.5790246725082397,-0.7608243227005005,78.70598602294922,-2.3928702218198237,-2.235713331689548,5.793930811492018,-7.8723245,5.279963,-2.7372658,22.49682,-11.149785,-2.5257642,4.658619,-2.352567,-23.680496,8.469571,-9.8317995,-1.6803684,-5.0387325,3.6432657,13.2571125,-16.476664,6.2392178,-59.223946,77.10992,-15.244678,-1.9099041,-0.9573423,-13.101064,-8.165957,48.032738,67.919334,-1.7721114,5.5036345,-7.5373926
202,-1.5703599452972412,-0.7600007057189941,78.70474243164062,-2.391083702848951,-2.2296255668992364,5.801815598117559,-7.8853273,5.2753606,-2.737772,22.516459,-11.158937,-2.5151556,4.662395,-2.355019,-23.695328,8.46033,-9.835359,-1.6716002,-5.035796,3.6451445,13.252362,-16.478899,6.234971,-59.213646,77.116776,-15.281821,-1.9408249,-0.994012,-13.094952,-8.161666,48.04925,67.92112,-1.7642481,5.508825,-7.5608654
203,-1.5698986053466797,-0.7582089900970459,78.702880859375,-2.389496781883858,-2.224356650584101,5.80857586737187,-7.896051,5.2716923,-2.7369661,22.53404,-11.167584,-2.5058362,4.664089,-2.357998,-23.708199,8.457317,-9.840975,-1.6669512,-5.0276093,3.647772,13.249729,-16.480423,6.2337227,-59.208584,77.119644,-15.314296,-1.9768515,-1.0264088,-13.088419,-8.160236,48.055946,67.92019,-1.7612935,5.5144243,-7.5789943
204,-1.5735317468643188,-0.7565649151802063,78.70289611816406,-2.38919388936823,-2.2208722175647764,5.811731371724393,-7.8999705,5.270523,-2.7359905,22.54285,-11.175006,-2.503459,4.667714,-2.3577497,-23.714361,8.452239,-9.84336,-1.6664875,-5.027648,3.6506872,13.248739,-16.482279,6.2322016,-59.20198,77.1265,-15.347989,-2.0143836,-1.0591325,-13.082184,-8.15832,48.065517,67.915504,-1.7586856,5.52099,-7.586817
205,-1.5738106966018677,-0.7549355626106262,78.70274353027344,-2.3900266895252313,-2.221579704959359,5.8081724704868725,-7.8911185,5.2727985,-2.7334228,22.537222,-11.178078,-2.513663,4.6700644,-2.356012,-23.708212,8.457132,-9.847546,-1.672519,-5.03603,3.6546924,13.252116,-16.48132,6.229328,-59.192635,77.13253,-15.378295,-2.0528026,-1.0864913,-13.081849,-8.153911,48.07376,67.91236,-1.7582874,5.5285163,-7.574525
206,-1.5703049898147583,-0.7547112107276917,78.70389556884766,-2.3923110420778184,-2.224317622673638,5.800548825329985,-7.875529,5.2780924,-2.730222,22.52373,-11.179813,-2.5322433,4.6728964,-2.35142,-23.69486,8.463428,-9.8498535,-1.6844425,-5.0409408,3.660493,13.258704,-16.478992,6.228841,-59.191917,77.13135,-15.4056635,-2.0908418,-1.1077344,-13.079566,-8.152753,48.071217,67.90235,-1.760701,5.5362196,-7.550441
207,-1.5587563514709473,-0.7551877498626709,78.70547485351562,-2.3940794730830657,-2.228117661950677,5.792227275671234,-7.8578196,5.2831655,-2.7261817,22.50879,-11.181305,-2.5491822,4.675924,-2.3476498,-23.679972,8.471884,-9.853011,-1.6969793,-5.046599,3.6648338,13.265897,-16.478962,6.2282786,-59.193714,77.136894,-15.437134,-2.1321704,-1.1331946,-13.077443,-8.150841,48.062935,67.8924,-1.7709011,5.5449543,-7.5212717
208,-1.55112624168396,-0.7550666332244873,78.70380401611328,-2.3954627716080332,-2.227183295891971,5.788584847915331,-7.8531275,5.2862034,-2.7244763,22.507467,-11.186554,-2.5547328,4.67633,-2.3452435,-23.67218,8.476776,-9.856062,-1.7052425,-5.0491524,3.6693468,13.269242,-16.47967,6.2281365,-59.194965,77.13299,-15.463047,-2.1529405,-1.156929,-13.074375,-8.150186,48.060112,67.88776,-1.7755167,5.5464897,-7.507769
209,-1.533231496810913,-0.7568770051002502,78.70346069335938,-2.3960481855232487,-2.220340394667204,5.791402154313945,-7.865018,5.286139,-2.7252736,22.52288,-11.1964035,-2.5413108,4.6737022,-2.345123,-23.674006,8.476252,-9.858909,-1.7073363,-5.0495524,3.6746464,13.265133,-16.485752,6.2278624,-59.198154,77.12852,-15.499452,-2.1585152,-1.1938255,-13.068776,-8.148751,48.058014,67.890915,-1.7845719,5.5415125,-7.5094314
210,-1.5316673517227173,-0.7559389472007751,78.70150756835938,-2.3967603734690903,-2.208626768467266,5.7987182728489515,-7.8921595,5.284577,-2.728939,22.556416,-11.210471,-2.5158017,4.667431,-2.346022,-23.682161,8.473861,-9.862148,-1.7062092,-5.049058,3.6802218,13.255915,-16.492823,6.227416,-59.2018,77.11833,-15.535216,-2.1469975,-1.2313524,-13.062495,-8.146697,48.06196,67.90063,-1.7900829,5.530141,-7.523954
211,-1.5266263484954834,-0.7549870014190674,78.70274353027344,-2.3966540665532867,-2.1983143719798166,5.805948293614996,-7.91583,5.282201,-2.7315872,22.58621,-11.223448,-2.4900963,4.663855,-2.3475137,-23.690653,8.469471,-9.86521,-1.7036097,-5.0504646,3.684273,13.247622,-16.498268,6.226886,-59.20428,77.108536,-15.567341,-2.1320338,-1.2668289,-13.055832,-8.144291,48.070293,67.910324,-1.7931875,5.519061,-7.541403
212,-1.5333106517791748,-0.7519574165344238,78.70297241210938,-2.3962086372296962,-2.193600621080108,5.809648857473168,-7.92615,5.2808867,-2.731844,22.605385,-11.233818,-2.4762745,4.6659913,-2.3480291,-23.695087,8.465399,-9.86869,-1.7017096,-5.054408,3.687625,13.244179,-16.502604,6.226418,-59.210224,77.10368,-15.596321,-2.1224473,-1.2989028,-13.051044,-8.141706,48.08229,67.91973,-1.7897723,5.511574,-7.5551367
213,-1.5187513828277588,-0.7524511218070984,78.70551300048828,-2.393488712493316,-2.2003987890938217,5.806801028498716,-7.9097447,5.2799582,-2.7262225,22.602142,-11.237615,-2.4803514,4.677628,-2.3500707,-23.691982,8.466323,-9.875224,-1.7003684,-5.0570374,3.6857736,13.253266,-16.504944,6.2261977,-59.22062,77.10617,-15.611656,-2.122992,-1.3217921,-13.047327,-8.139493,48.091873,67.9209,-1.7830127,5.512173,-7.560498
214,-1.5141866207122803,-0.7528568506240845,78.70354461669922,-2.3890887960199616,-2.214521608927617,5.800191327130512,-7.8765516,5.2787566,-2.7170167,22.585552,-11.237485,-2.4949584,4.6963983,-2.3530867,-23.684649,8.469991,-9.884503,-1.6986078,-5.0566883,3.6791887,13.266717,-16.506113,6.226128,-59.249573,77.11601,-15.631753,-2.1280148,-1.3387015,-13.041734,-8.136012,48.106712,67.91978,-1.7651154,5.516866,-7.565594
215,-1.5086886882781982,-0.7504625916481018,78.70362091064453,-2.385074194775492,-2.228352765597919,5.793211806895831,-7.8429728,5.278014,-2.7076464,22.56747,-11.236562,-2.511779,4.7148275,-2.3557057,-23.676931,8.473177,-9.89287,-1.6971762,-5.0514264,3.67186,13.278476,-16.505955,6.2262816,-59.286686,77.12584,-15.652682,-2.1333616,-1.3537214,-13.034366,-8.130823,48.114586,67.91943,-1.7484558,5.5225835,-7.569537
216,-1.505435824394226,-0.751315176486969,78.7025375366211,-2.383341373387157,-2.23521951977967,5.789241779090415,-7.8235383,5.278232,-2.7015405,22.558374,-11.237254,-2.5224643,4.725713,-2.356924,-23.672647,8.4752445,-9.898519,-1.6966614,-5.050967,3.6692488,13.287757,-16.508627,6.2265263,-59.306213,77.13057,-15.669884,-2.135495,-1.3726166,-13.029665,-8.126856,48.114796,67.918976,-1.7426957,5.5269537,-7.5707316
217,-1.5064245462417603,-0.7492561340332031,78.7009506225586,-2.384852411409208,-2.2316904220227163,5.789667556062362,-7.825136,5.2799397,-2.6999953,22.561743,-11.239946,-2.525096,4.7256947,-2.355907,-23.673277,8.4752865,-9.90012,-1.6974494,-5.0556483,3.6716142,13.288919,-16.511248,6.2266054,-59.308968,77.12809,-15.687279,-2.1306794,-1.3961861,-13.026172,-8.125291,48.112354,67.92087,-1.7417418,5.528859,-7.5720353
218,-1.506325364112854,-0.7472280859947205,78.70098114013672,-2.3894135431636188,-2.221303291516387,5.793320281138482,-7.840507,5.2832828,-2.7021868,22.573442,-11.244131,-2.5241368,4.7193055,-2.3521833,-23.677544,8.471723,-9.897404,-1.699315,-5.060747,3.6783128,13.2848425,-16.520615,6.2266603,-59.305717,77.12385,-15.709011,-2.1191893,-1.4314122,-13.023705,-8.122607,48.099785,67.92625,-1.7490696,5.530892,-7.5724125
219,-1.5069754123687744,-0.7453461289405823,78.7011947631836,-2.393486656758349,-2.210065400266807,5.796860002970962,-7.8572946,5.2861066,-2.7042234,22.5861,-11.248341,-2.5203686,4.7119746,-2.349112,-23.681522,8.468826,-9.8951,-1.7012684,-5.068107,3.6845043,13.280893,-16.526651,6.2266235,-59.298874,77.11889,-15.729809,-2.1128285,-1.4588155,-13.02189,-8.120306,48.089306,67.92993,-1.7576724,5.532125,-7.5710254
220,-1.4924802780151367,-0.7458683848381042,78.70301055908203,-2.3955492706001102,-2.202620604012569,5.797896627788304,-7.8677664,5.287867,-2.7039185,22.597712,-11.253441,-2.5148778,4.709347,-2.347142,-23.682966,8.465629,-9.894251,-1.7028089,-5.0754027,3.687739,13.281251,-16.532692,6.2265553,-59.295807,77.11949,-15.752918,-2.1190002,-1.4754747,-13.021634,-8.117103,48.079193,67.93331,-1.7727199,5.5327306,-7.5666924
221,-1.4770736694335938,-0.7468026876449585,78.70306396484375,-2.393275165000265,-2.200971451681881,5.79448946315197,-7.8673573,5.2869954,-2.6985521,22.605755,-11.258927,-2.5041242,4.711794,-2.3495367,-23.679617,8.466683,-9.898696,-1.7016047,-5.081254,3.6847181,13.283447,-16.532356,6.226614,-59.30957,77.12727,-15.787826,-2.1474712,-1.4704485,-13.019077,-8.113986,48.07956,67.93646,-1.7892308,5.532307,-7.5614204
222,-1.4805493354797363,-0.7459747791290283,78.70061492919922,-2.3884657776573355,-2.201640932994418,5.788122202523515,-7.862957,5.284538,-2.6900496,22.614323,-11.265822,-2.4888287,4.7166166,-2.3540125,-23.673376,8.469148,-9.905693,-1.6988052,-5.077471,3.6761684,13.278876,-16.525991,6.2268667,-59.361996,77.1431,-15.853071,-2.1935515,-1.4489028,-13.007512,-8.107918,48.08749,67.939674,-1.7993011,5.530282,-7.558323
223,-1.4732774496078491,-0.7454726696014404,78.7004623413086,-2.3839094782587744,-2.203811936883508,5.782340468515272,-7.855085,5.282223,-2.6826303,22.61947,-11.271462,-2.4763389,4.7225676,-2.3582907,-23.667076,8.472847,-9.912723,-1.6984571,-5.079318,3.6689818,13.279795,-16.520512,6.2271576,-59.400166,77.15753,-15.905838,-2.23751,-1.4284794,-13.000182,-8.104042,48.095478,67.93954,-1.8122898,5.529157,-7.5516615
224,-1.46451735496521,-0.7443942427635193,78.7022705078125,-2.3820364030821657,-2.2059045556912875,5.779874356821736,-7.846494,5.281419,-2.67983,22.620188,-11.275264,-2.473926,4.726866,-2.3602304,-23.662922,8.480022,-9.919487,-1.7046121,-5.0772266,3.664116,13.277841,-16.514957,6.227625,-59.445087,77.169136,-15.959173,-2.2639635,-1.4203526,-12.991409,-8.098654,48.099728,67.93828,-1.8134828,5.529609,-7.5459967
225,-1.4584099054336548,-0.7446481585502625,78.70293426513672,-2.385198825496466,-2.2086400943863507,5.780994155551284,-7.8349695,5.2845373,-2.6836095,22.612444,-11.275218,-2.489791,4.7287273,-2.3574293,-23.660109,8.492477,-9.924142,-1.7241986,-5.0733957,3.6648133,13.277941,-16.512852,6.227846,-59.478157,77.176384,-16.000753,-2.262778,-1.4324636,-12.9846,-8.094128,48.093327,67.932686,-1.8028734,5.531097,-7.5369706
226,-1.460508942604065,-0.7441248297691345,78.70103454589844,-2.3921540502309058,-2.2120569272081143,5.7851787356344975,-7.820767,5.2903876,-2.6926425,22.598293,-11.272553,-2.5180228,4.7293835,-2.350942,-23.658716,8.507745,-9.926683,-1.7532115,-5.0824895,3.6713638,13.284904,-16.511023,6.227843,-59.481785,77.17958,-16.018805,-2.246855,-1.4543474,-12.984876,-8.093225,48.089977,67.92177,-1.7890266,5.5335927,-7.523932
227,-1.4551702737808228,-0.7415736317634583,78.70133972167969,-2.397894631056784,-2.2160969556546726,5.791089602202696,-7.8057995,5.2943783,-2.7021813,22.582987,-11.269441,-2.5445561,4.7320466,-2.3458965,-23.659443,8.52133,-9.929704,-1.7789804,-5.0892606,3.676489,13.291584,-16.51337,6.2277837,-59.48608,77.18285,-16.037424,-2.2239523,-1.4866575,-12.986276,-8.091771,48.081646,67.91114,-1.7747424,5.5391846,-7.509915
228,-1.4455512762069702,-0.740270733833313,78.70122528076172,-2.3999123749046665,-2.21519907610159,5.79664454017309,-7.800017,5.2942915,-2.7077847,22.575747,-11.270035,-2.5556936,4.732995,-2.3451517,-23.66207,8.528254,-9.93377,-1.7896203,-5.092288,3.6791563,13.293455,-16.515083,6.227663,-59.489243,77.18581,-16.04988,-2.2133267,-1.5156897,-12.98532,-8.090442,48.07416,67.904495,-1.769472,5.5437884,-7.505416
229,-1.438427209854126,-0.7384535670280457,78.70079040527344,-2.3954655698405802,-2.2069508090908894,5.802924524445291,-7.8078647,5.286961,-2.7076907,22.58025,-11.275997,-2.5411575,4.7330704,-2.351369,-23.66902,8.522086,-9.938551,-1.7766504,-5.0859647,3.67561,13.2845955,-16.519321,6.227018,-59.501286,77.19323,-16.061567,-2.2199047,-1.5487096,-12.979317,-8.086572,48.06276,67.906555,-1.7810951,5.549584,-7.515554
230,-1.436161756515503,-0.7388771772384644,78.6980209350586,-2.386866738971555,-2.1941693767947408,5.809829251442474,-7.8238916,5.2749043,-2.7039862,22.591043,-11.285153,-2.5104704,4.7327514,-2.3620605,-23.678972,8.507606,-9.943897,-1.748302,-5.081997,3.6705995,13.270727,-16.520908,6.2267528,-59.50649,77.197845,-16.067032,-2.2352479,-1.5824293,-12.974024,-8.08522,48.0629,67.913414,-1.796328,5.5561357,-7.535193
231,-1.4356390237808228,-0.7357488870620728,78.6990966796875,-2.378520131935708,-2.180792755686402,5.816602632519919,-7.8415775,5.2629795,-2.7005835,22.604256,-11.294883,-2.479713,4.7339916,-2.3717718,-23.689325,8.488254,-9.947119,-1.7174226,-5.0769587,3.6650498,13.252353,-16.521215,6.226128,-59.51574,77.20447,-16.076056,-2.2517033,-1.6159034,-12.96386,-8.0829,48.064514,67.9203,-1.8087157,5.562638,-7.5560007
232,-1.4258052110671997,-0.7357648611068726,78.70259857177734,-2.373009607966196,-2.174486929347819,5.820429074630312,-7.847479,5.255248,-2.6984456,22.610601,-11.301133,-2.464671,4.7383623,-2.3783875,-23.694984,8.476788,-9.950573,-1.6965051,-5.0759835,3.6610043,13.243242,-16.519318,6.2256365,-59.51853,77.20491,-16.085104,-2.2564507,-1.6354052,-12.959102,-8.0814295,48.063305,67.92628,-1.8120841,5.567137,-7.563855
233,-1.417819619178772,-0.7358044385910034,78.70447540283203,-2.3727734169152566,-2.1771296463885688,5.8207648708231785,-7.837856,5.254306,-2.699996,22.607416,-11.301591,-2.4748466,4.7482176,-2.3782759,-23.695173,8.472847,-9.9523115,-1.6904216,-5.0803037,3.6605346,13.241529,-16.513704,6.225243,-59.51722,77.20033,-16.10081,-2.2444346,-1.6401856,-12.956484,-8.080552,48.057564,67.93016,-1.7995037,5.569575,-7.552752
234,-1.4106138944625854,-0.7333045601844788,78.70443725585938,-2.375170202124146,-2.1863612458017045,5.81848037045955,-7.8173738,5.2570605,-2.703019,22.598438,-11.298616,-2.4999466,4.762578,-2.37482,-23.691439,8.4733305,-9.953124,-1.6918586,-5.084995,3.6619463,13.248734,-16.506983,6.224104,-59.50843,77.1894,-16.112701,-2.220419,-1.6320698,-12.958509,-8.078339,48.03763,67.93405,-1.7839484,5.570475,-7.527218
235,-1.4065897464752197,-0.7335115671157837,78.70156860351562,-2.378002529031427,-2.1963262884811745,5.815541486077538,-7.796429,5.2606897,-2.7059424,22.590443,-11.296422,-2.5264993,4.776017,-2.3711905,-23.686405,8.476879,-9.9548025,-1.6955907,-5.090862,3.6630814,13.256066,-16.49973,6.2235093,-59.501163,77.17858,-16.126215,-2.1965356,-1.6223223,-12.960275,-8.077461,48.025986,67.9375,-1.7629801,5.5699186,-7.502197
236,-1.4016575813293457,-0.7338452339172363,78.69945526123047,-2.37914386902981,-2.2021923285880725,5.814222384885509,-7.7826295,5.2619476,-2.7071722,22.58618,-11.297192,-2.5409539,4.7861495,-2.369696,-23.683304,8.478404,-9.957866,-1.6963328,-5.091224,3.6636868,13.260424,-16.494942,6.2229476,-59.493656,77.170555,-16.129213,-2.1832783,-1.6221577,-12.960906,-8.076824,48.01638,67.942,-1.75255,5.567779,-7.4866786
237,-1.3978543281555176,-0.7338111996650696,78.69844818115234,-2.3779168459237665,-2.204812744071936,5.814280162265017,-7.7756577,5.260358,-2.7046618,22.588057,-11.303924,-2.5373456,4.794095,-2.3716898,-23.681305,8.477544,-9.96345,-1.6921579,-5.084839,3.664758,13.262556,-16.492098,6.221964,-59.48063,77.16167,-16.11263,-2.17933,-1.6375855,-12.963756,-8.075974,48.005333,67.95582,-1.7667323,5.562349,-7.4770975
