unveil-humanoid-operators/unveil-humanoid-operators.github.io/feature-analysis-animation/data/feature_matrix_instances/weight_root_translate_peak_vel_walking_A039_arc_walk_left_loop_002__A039.csv
Frame,root_translateX,root_translateY,root_translateZ,root_rotateX,root_rotateY,root_rotateZ,left_hip_pitch_joint_dof,left_hip_roll_joint_dof,left_hip_yaw_joint_dof,left_knee_joint_dof,left_ankle_pitch_joint_dof,left_ankle_roll_joint_dof,right_hip_pitch_joint_dof,right_hip_roll_joint_dof,right_hip_yaw_joint_dof,right_knee_joint_dof,right_ankle_pitch_joint_dof,right_ankle_roll_joint_dof,waist_yaw_joint_dof,waist_roll_joint_dof,waist_pitch_joint_dof,left_shoulder_pitch_joint_dof,left_shoulder_roll_joint_dof,left_shoulder_yaw_joint_dof,left_elbow_joint_dof,left_wrist_roll_joint_dof,left_wrist_pitch_joint_dof,left_wrist_yaw_joint_dof,right_shoulder_pitch_joint_dof,right_shoulder_roll_joint_dof,right_shoulder_yaw_joint_dof,right_elbow_joint_dof,right_wrist_roll_joint_dof,right_wrist_pitch_joint_dof,right_wrist_yaw_joint_dof
0,2.1992313861846924,0.009965508244931698,78.47380828857422,0.1351738232919749,1.8632788440817671,-178.99537765418108,0.3537609,4.7746634,18.246754,6.9352517,-8.958046,-3.5326457,0.82146233,-4.599914,-22.300793,7.1602826,-8.321556,2.5878034,0.64723974,0.36180872,8.076197,4.125246,8.942825,-17.790339,62.46558,6.8468733,-0.6034514,9.730255,-5.2554326,-11.273216,35.679676,67.31711,1.5421263,-1.7949047,-5.19139
1,2.1856133937835693,0.026410063728690147,78.4713134765625,0.14679380530805564,1.9515854564101829,-179.00676493668493,0.26614338,4.779496,18.25896,6.9326367,-8.95836,-3.5624812,0.6178836,-4.6399136,-22.281378,7.411899,-8.465946,2.5473268,0.63475776,0.35273996,8.0590725,4.110369,8.944176,-17.762798,62.437454,6.8411913,-0.5900382,9.745397,-5.2477183,-11.269606,35.65339,67.290886,1.5091522,-1.7949136,-5.179322
2,2.17191743850708,0.04464293271303177,78.46859741210938,0.1585925908536739,2.038689109944696,-179.0180946926482,0.17997007,4.78376,18.27082,6.928924,-8.958149,-3.5921764,0.4148885,-4.6808934,-22.262383,7.6655126,-8.612071,2.5059474,0.6288087,0.3397395,8.053234,4.0828977,8.949606,-17.723701,62.410366,6.8492384,-0.5759016,9.755362,-5.245043,-11.264248,35.60304,67.26136,1.4565216,-1.7938987,-5.158054
3,2.158933162689209,0.0631197914481163,78.46469116210938,0.17184337016128642,2.12731766857661,-179.02968796469818,0.09198206,4.7875,18.283667,6.9262295,-8.9582815,-3.6218238,0.21056232,-4.722231,-22.241325,7.9181166,-8.756857,2.4663565,0.62720513,0.3223239,8.04811,4.056411,8.960604,-17.68931,62.3812,6.8529644,-0.5653948,9.763669,-5.2364135,-11.257863,35.5439,67.224434,1.4090302,-1.7962052,-5.1449213
4,2.1454966068267822,0.0811370313167572,78.45903778076172,0.18905072483133634,2.220117378060684,-179.0428312869932,0.0008773108,4.7892265,18.300455,6.923228,-8.9582615,-3.651367,-0.008583257,-4.7693396,-22.213522,8.192131,-8.908356,2.431318,0.6260029,0.2992353,8.042152,4.031962,8.972754,-17.654528,62.352993,6.8509865,-0.56425315,9.7694645,-5.221431,-11.253213,35.48335,67.177475,1.3843155,-1.8064669,-5.153483
5,2.132490634918213,0.1027219220995903,78.45297241210938,0.21112799547804703,2.31654553154151,-179.05738811055656,-0.09225042,4.788159,18.322414,6.9194775,-8.95926,-3.6804588,-0.22994426,-4.8176103,-22.177578,8.460286,-9.055356,2.4057148,0.6236503,0.27049726,8.035356,4.009424,8.982087,-17.613285,62.32926,6.841799,-0.5783946,9.773038,-5.1986446,-11.250636,35.42272,67.119934,1.3914671,-1.8295169,-5.1972566
6,2.120002508163452,0.1260729432106018,78.44757843017578,0.23656131331165814,2.415741959890137,-179.07291431631344,-0.1876607,4.7856455,18.348087,6.9163985,-8.961194,-3.7092988,-0.4592002,-4.8691025,-22.13508,8.737993,-9.204496,2.3865771,0.62597805,0.23323841,8.036594,3.979898,8.99563,-17.557945,62.30803,6.837354,-0.6045396,9.770076,-5.1691465,-11.247754,35.340393,67.0458,1.4083987,-1.8617978,-5.2619357
7,2.107522487640381,0.15120990574359894,78.4418716430664,0.2647717953280728,2.5188033106280163,-179.08967991852836,-0.28640985,4.781582,18.3751,6.9128675,-8.96106,-3.738409,-0.6987341,-4.9243317,-22.090397,9.029161,-9.359846,2.364902,0.62636626,0.1914588,8.03963,3.9495711,9.01058,-17.503038,62.2861,6.8335204,-0.6320289,9.764039,-5.134255,-11.245363,35.24848,66.96045,1.4213098,-1.8947102,-5.328026
8,2.0939865112304688,0.18188568949699402,78.43749237060547,0.2942748387909936,2.6287865078989836,-179.10700907158463,-0.39264527,4.777062,18.400194,6.908587,-8.955245,-3.7684803,-0.95336396,-4.983094,-22.048933,9.338732,-9.525226,2.3316152,0.6186696,0.14995192,8.035331,3.9241223,9.027082,-17.459137,62.263283,6.825979,-0.6516015,9.758755,-5.101954,-11.243644,35.15851,66.878456,1.4272008,-1.9211494,-5.375112
9,2.078477382659912,0.21625086665153503,78.4305191040039,0.3262100399662964,2.749798317518893,-179.12676412341685,-0.51171297,4.7711167,18.424635,6.9044886,-8.940795,-3.800256,-1.2373428,-5.0500555,-22.009947,9.686251,-9.709749,2.2795188,0.61838984,0.09940748,8.031443,3.8929741,9.058816,-17.433514,62.234863,6.8215885,-0.6600297,9.744892,-5.062893,-11.242284,35.03116,66.77874,1.39049,-1.9372337,-5.3850884
10,2.0631349086761475,0.24991489946842194,78.42205047607422,0.3603013837398609,2.8799663072700716,-179.14815432193888,-0.640658,4.76348,18.448938,6.8993998,-8.919469,-3.8331642,-1.5438348,-5.123015,-21.9717,10.061722,-9.907983,2.2150893,0.61631435,0.044234965,8.019807,3.8709412,9.102339,-17.42738,62.19563,6.8081617,-0.6595536,9.728509,-5.015541,-11.241726,34.89473,66.66821,1.3401127,-1.9473981,-5.377053
11,2.04394268989563,0.286702960729599,78.41490173339844,0.39575778399135214,3.010077786673614,-179.1685190101977,-0.7688546,4.755888,18.471092,6.894371,-8.898008,-3.865851,-1.8455911,-5.1944213,-21.935417,10.430004,-10.104368,2.1500914,0.60211307,-0.009433052,8.00728,3.8518014,9.14037,-17.419523,62.16015,6.7927165,-0.65914816,9.715411,-4.9699273,-11.242087,34.766926,66.5612,1.2960066,-1.956083,-5.3694344
12,2.0246567726135254,0.32239001989364624,78.40773010253906,0.4309814504609009,3.1313395978572585,-179.18496478465502,-0.8854406,4.7499456,18.48877,6.889916,-8.883174,-3.8969548,-2.116673,-5.256668,-21.902853,10.758457,-10.284179,2.0960433,0.58422065,-0.062061723,8.003603,3.833972,9.178978,-17.413593,62.126125,6.771143,-0.66508096,9.70863,-4.9176207,-11.242853,34.636536,66.45488,1.2672933,-1.9704599,-5.3785753
13,2.0018200874328613,0.3599030077457428,78.40141296386719,0.4667452068759613,3.2406698295799186,-179.19670057565418,-0.98768383,4.745374,18.500755,6.887328,-8.877839,-3.92476,-2.3483312,-5.308188,-21.874388,11.03595,-10.443039,2.0583594,0.56507456,-0.11746212,8.013068,3.818381,9.224145,-17.41263,62.089184,6.738575,-0.68157107,9.708772,-4.8567348,-11.244,34.500347,66.34507,1.262316,-1.9928219,-5.4147925
14,1.9760410785675049,0.40454068779945374,78.39689636230469,0.503446173958677,3.343189988459575,-179.20523870570926,-1.0804,4.7409506,18.508818,6.884183,-8.877278,-3.9504101,-2.555343,-5.3531837,-21.849403,11.281421,-10.589345,2.030035,0.55043465,-0.18217823,8.034738,3.8104043,9.29169,-17.425081,62.036186,6.6927104,-0.70376945,9.709604,-4.7801027,-11.24493,34.34737,66.21788,1.2675331,-2.019756,-5.4647403
15,1.948787808418274,0.44988495111465454,78.3918228149414,0.5391567616014012,3.4417594915017364,-179.2115096973313,-1.1679503,4.7393146,18.513893,6.882355,-8.879533,-3.9769943,-2.7453513,-5.3915186,-21.82761,11.503737,-10.726083,2.0040438,0.5140673,-0.23628181,8.053525,3.803566,9.337378,-17.421013,61.99938,6.651612,-0.7265978,9.718388,-4.7141848,-11.245454,34.218548,66.113205,1.2831265,-2.0458982,-5.518822
16,1.918541431427002,0.49437832832336426,78.38580322265625,0.572311537870389,3.539281646813366,-179.21642818486333,-1.2526687,4.7420273,18.517597,6.880025,-8.88093,-4.0075383,-2.926942,-5.423585,-21.808935,11.715312,-10.858803,1.9732533,0.4744178,-0.2841335,8.070205,3.7952726,9.379675,-17.420458,61.972515,6.6112304,-0.7432034,9.729561,-4.6474857,-11.246882,34.090176,66.01712,1.2907864,-2.0666897,-5.557742
17,1.8863273859024048,0.5403327941894531,78.37921905517578,0.6037279640758729,3.6351632951446717,-179.21997011011896,-1.334286,4.749012,18.520708,6.877591,-8.8828535,-4.0440593,-3.1022959,-5.4514194,-21.79309,11.921851,-10.990909,1.9353884,0.45150578,-0.34012556,8.096413,3.7925358,9.45622,-17.450068,61.92551,6.560096,-0.7490912,9.736225,-4.5581613,-11.252027,33.92581,65.8957,1.2711425,-2.077714,-5.570534
18,1.8538540601730347,0.5917779207229614,78.37059783935547,0.6336698934651268,3.728465572386064,-179.22149203731115,-1.4123234,4.759624,18.521788,6.8752584,-8.885436,-4.0843997,-3.266265,-5.4737983,-21.780615,12.1149025,-11.118478,1.8944529,0.4090968,-0.38792607,8.120481,3.7919457,9.52003,-17.470299,61.89017,6.511982,-0.7506154,9.748843,-4.479853,-11.25925,33.78344,65.7935,1.2545983,-2.08285,-5.5728617
19,1.8190264701843262,0.6449440717697144,78.36395263671875,0.6612092188276647,3.821028496633497,-179.22212094916318,-1.4876688,4.774239,18.520967,6.8733954,-8.887075,-4.1255846,-3.4177158,-5.48822,-21.770908,12.286786,-11.235814,1.8527427,0.36217374,-0.42630625,8.139453,3.7907693,9.57163,-17.483738,61.86794,6.4681306,-0.7496766,9.763262,-4.3986206,-11.267841,33.647137,65.70031,1.2372814,-2.0879061,-5.571538
20,1.7834060192108154,0.6983277201652527,78.35796356201172,0.684800643756767,3.9148850269745403,-179.22296124572253,-1.5618317,4.7937994,18.517653,6.87127,-8.8845415,-4.16466,-3.5546942,-5.491276,-21.76349,12.427833,-11.336657,1.8125452,0.30790982,-0.45118114,8.144568,3.7903628,9.601082,-17.47754,61.867302,6.4319,-0.74909985,9.778445,-4.3287506,-11.275002,33.54315,65.638145,1.2415749,-2.099832,-5.5773478
21,1.7396643161773682,0.7498652935028076,78.35427856445312,0.705886389999754,4.012220964354145,-179.2232940961617,-1.6381222,4.81643,18.509844,6.86923,-8.8734865,-4.1989784,-3.681723,-5.485288,-21.758091,12.543057,-11.419849,1.7741784,0.2807752,-0.47808895,8.148017,3.7872317,9.649892,-17.492004,61.863316,6.398928,-0.7444009,9.781325,-4.234448,-11.290167,33.41639,65.55681,1.2513353,-2.1217368,-5.5841417
22,1.6966071128845215,0.8138502240180969,78.351806640625,0.7248782729862391,4.1114270271743845,-179.22288268162075,-1.7152954,4.8425965,18.498404,6.8677516,-8.856836,-4.2306304,-3.7982013,-5.471012,-21.75512,12.634267,-11.488145,1.7366476,0.25778568,-0.50381315,8.146648,3.79212,9.708517,-17.51028,61.85459,6.3677773,-0.7358761,9.77698,-4.129268,-11.311879,33.29874,65.47083,1.2748225,-2.1494858,-5.591455
23,1.6497167348861694,0.8738145232200623,78.3490982055664,0.7398318555762429,4.2089917289716805,-179.2235763860209,-1.7878945,4.874968,18.487593,6.8672166,-8.842172,-4.26388,-3.8939307,-5.4440064,-21.754566,12.688878,-11.541944,1.6999143,0.23802154,-0.52482224,8.145119,3.8117452,9.772345,-17.509512,61.835857,6.3285017,-0.73073757,9.768998,-4.0172977,-11.341186,33.190155,65.38081,1.3032109,-2.1779587,-5.5960073
24,1.5995960235595703,0.9300146102905273,78.34477996826172,0.7441390121699824,4.301566625206833,-179.2271424443885,-1.8646392,4.9259048,18.4794,6.8973017,-8.852,-4.3032274,-3.969506,-5.4000564,-21.756834,12.717257,-11.593375,1.6646023,0.20571247,-0.520419,8.130606,3.8380806,9.796451,-17.458448,61.844284,6.2772913,-0.7370742,9.774601,-3.9294627,-11.355807,33.11262,65.342834,1.3316399,-2.203607,-5.603928
25,1.5441676378250122,0.9891268014907837,78.33822631835938,0.7378311731971976,4.386066195741371,-179.2355972238362,-1.9298453,4.9924517,18.479326,6.9324317,-8.877839,-4.3520546,-4.0120673,-5.3347187,-21.761992,12.697896,-11.635558,1.6292049,0.18567148,-0.5070481,8.1343565,3.8892422,9.837874,-17.36304,61.817772,6.2041397,-0.75750583,9.774766,-3.819954,-11.393869,33.022278,65.26687,1.3507383,-2.224321,-5.5993843
26,1.4864625930786133,1.0461852550506592,78.33084106445312,0.725145080469325,4.465249704140527,-179.24747553015806,-1.9857758,5.069196,18.484795,6.9697824,-8.913565,-4.4071116,-4.024757,-5.2522283,-21.769632,12.631104,-11.664315,1.5941229,0.16281438,-0.47805512,8.131775,3.9521308,9.8601265,-17.23246,61.80056,6.11528,-0.7879767,9.782839,-3.7190695,-11.430465,32.955395,65.21778,1.3800185,-2.245361,-5.595477
27,1.428144097328186,1.1038702726364136,78.32315826416016,0.7052121930070812,4.543575533837782,-179.25960444717285,-2.041295,5.1564255,18.488419,7.013863,-8.953173,-4.4634085,-4.0201983,-5.1552606,-21.780674,12.534438,-11.682519,1.56134,0.13907301,-0.43541527,8.126011,4.025957,9.871368,-17.068958,61.783745,6.0169053,-0.82398236,9.791049,-3.6177018,-11.472675,32.896168,65.17272,1.3946792,-2.260884,-5.587788
28,1.3663274049758911,1.1630338430404663,78.31490325927734,0.6771837578890211,4.625314514997856,-179.26875846814409,-2.1028495,5.253175,18.483316,7.064744,-8.9876375,-4.515539,-4.010541,-5.046403,-21.79666,12.423933,-11.692255,1.5327419,0.11403507,-0.37752357,8.116024,4.1103296,9.87282,-16.877045,61.763493,5.913274,-0.8609272,9.794939,-3.5112734,-11.530038,32.840034,65.12013,1.3784884,-2.2685735,-5.5738525
29,1.3028026819229126,1.2257672548294067,78.30484771728516,0.6428067294264509,4.712863344037365,-179.27593380171945,-2.17243,5.358542,18.469238,7.121646,-9.01871,-4.5604978,-3.9980352,-4.92687,-21.81565,12.298922,-11.69188,1.510856,0.09822372,-0.31025946,8.092204,4.200436,9.865222,-16.669426,61.747906,5.7930403,-0.9003453,9.797921,-3.4059691,-11.582995,32.775566,65.08495,1.3166479,-2.2686336,-5.552666
30,1.2358695268630981,1.2850937843322754,78.29357147216797,0.6018129813377587,4.803595871720446,-179.28209167865612,-2.4726486,5.550902,18.426676,7.6886616,-9.314478,-4.6037154,-3.9758487,-4.794667,-21.838049,12.149683,-11.679186,1.4939542,0.0785019,-0.22656828,8.06454,4.3031945,9.8442335,-16.424793,61.725746,5.663122,-0.9446195,9.797154,-3.2914124,-11.658014,32.71804,65.03671,1.2244438,-2.2603965,-5.5217214
31,1.1636722087860107,1.3512145280838013,78.27934265136719,0.5488961057670075,4.894565617371323,-179.2843002941188,-2.8375075,5.7775893,18.368252,8.39794,-9.6785965,-4.647916,-3.9458194,-4.6471677,-21.867668,11.988701,-11.662301,1.4769882,0.07329709,-0.1332434,8.02868,4.406693,9.823574,-16.180464,61.71655,5.5265803,-0.98577404,9.797637,-3.185784,-11.711595,32.64514,65.018005,1.1093022,-2.2501311,-5.49589
32,1.095414400100708,1.4124311208724976,78.26069641113281,0.47725692722730767,4.982988814102197,-179.27943006242688,-3.254015,6.0403337,18.291292,9.223585,-10.094735,-4.6969857,-3.9022913,-4.477445,-21.90974,11.811276,-11.63958,1.454966,0.05002589,-0.0036556176,8.004359,4.5158367,9.7800665,-15.895517,61.711895,5.41813,-1.0204154,9.792634,-3.0760453,-11.802249,32.59257,64.96963,1.0019045,-2.234888,-5.4751883
33,1.0282740592956543,1.474312424659729,78.23880767822266,0.39191586984729515,5.069867170259582,-179.26937155900922,-3.7159855,6.3323007,18.199905,10.149006,-10.55718,-4.7548795,-3.85317,-4.2932987,-21.960745,11.629644,-11.6153145,1.4258157,0.037910365,0.1463081,7.983182,4.6181407,9.727495,-15.600987,61.728138,5.3228316,-1.0432394,9.782227,-2.9704938,-11.894678,32.532513,64.9265,0.89371794,-2.2178047,-5.4699306
34,0.9570178389549255,1.5364673137664795,78.2165298461914,0.2933065010503493,5.15639555581682,-179.25487072088072,-4.222424,6.653298,18.09326,11.169611,-11.063174,-4.817707,-3.7958028,-4.0931644,-22.020046,11.436091,-11.585942,1.3922573,0.027789498,0.31534708,7.963699,4.721358,9.665408,-15.283543,61.75593,5.238316,-1.058557,9.766327,-2.8694339,-11.991089,32.471676,64.88752,0.7763364,-2.1976354,-5.4741335
35,0.8857622742652893,1.5972634553909302,78.19013214111328,0.16854059511039837,5.239425751488835,-179.23130704721018,-4.78616,7.0206804,17.959234,12.318233,-11.624717,-4.877982,-3.7186763,-3.8592448,-22.095327,11.214634,-11.547566,1.3563498,0.015311574,0.51814985,7.946007,4.8275223,9.595663,-14.966969,61.790825,5.1670666,-1.0706542,9.755988,-2.7715776,-12.091941,32.41145,64.85045,0.661676,-2.1754148,-5.480319
36,0.8097362518310547,1.6551440954208374,78.16038513183594,0.004334267093720196,5.315964683000539,-179.19410131819257,-5.420372,7.452117,17.785385,13.627404,-12.252236,-4.927489,-3.6090279,-3.572504,-22.193968,10.947553,-11.495508,1.3200761,-0.0030329134,0.7684799,7.929851,4.939956,9.521682,-14.675248,61.82734,5.1122036,-1.0836487,9.762103,-2.6752353,-12.19825,32.348404,64.81442,0.55675465,-2.1523404,-5.481261
37,0.7352249622344971,1.7115507125854492,78.12428283691406,-0.2079752472885923,5.387852746506107,-179.1434457029691,-6.1227527,7.956235,17.567116,15.08744,-12.962488,-4.9638553,-3.4588132,-3.2172546,-22.318342,10.611106,-11.418227,1.2825527,-0.025216721,1.0749767,7.9137573,5.0613046,9.444816,-14.408939,61.860847,5.078404,-1.0944532,9.794791,-2.5769558,-12.310015,32.277325,64.77682,0.4634934,-2.1266503,-5.47714
38,0.6659852266311646,1.7741200923919678,78.07768249511719,-0.46039307966804627,5.455720102822589,-179.08163610667307,-6.8868237,8.52167,17.30849,16.67997,-13.740418,-4.990754,-3.2750897,-2.8050885,-22.4633,10.217859,-11.320281,1.2430382,-0.049211383,1.4285473,7.8990355,5.1886735,9.365008,-14.157641,61.896877,5.0627747,-1.1043279,9.845637,-2.478129,-12.427555,32.200222,64.7375,0.37802067,-2.0984032,-5.4708014
39,0.5897455215454102,1.8354644775390625,78.02156066894531,-0.7420163202834714,5.515810695269212,-179.00744973171794,-7.7064834,9.129856,17.009777,18.394167,-14.539293,-5.012722,-3.06137,-2.3530567,-22.625134,9.787059,-11.21174,1.2036324,-0.077893145,1.8178704,7.889615,5.3210344,9.284124,-13.932343,61.933926,5.053694,-1.1169461,9.896825,-2.3824563,-12.551495,32.126137,64.69645,0.3020181,-2.0715802,-5.4588017
40,0.49929121136665344,1.8839948177337646,77.95869445800781,-1.0416387891776493,5.564025246051957,-178.91943992160213,-8.576341,9.763135,16.671486,20.22217,-15.312045,-5.035419,-2.8215888,-1.8787738,-22.800371,9.339522,-11.1037035,1.166281,-0.11305938,2.2308605,7.8899,5.4569974,9.205512,-13.743732,61.971443,5.0403104,-1.1371268,9.930543,-2.2967515,-12.683618,32.067802,64.65612,0.24165769,-2.050305,-5.4377713
41,0.41907861828804016,1.941697120666504,77.88212585449219,-1.3783048346308564,5.599373379184619,-178.81531198860426,-9.497933,10.439051,16.272223,22.16747,-16.092552,-5.069778,-2.5452297,-1.3562851,-22.994556,8.853452,-10.986387,1.1301322,-0.16331258,2.6894865,7.901923,5.6029243,9.1306,-13.594123,62.003414,5.0176735,-1.1717312,9.935,-2.2208111,-12.824931,32.018826,64.61352,0.19870567,-2.0366905,-5.4011145
42,0.3350977897644043,1.9970312118530273,77.79695892333984,-1.7487080470760374,5.624600106260286,-178.6968772283642,-10.471018,11.154048,15.817635,24.222572,-16.885485,-5.1087685,-2.233052,-0.7866823,-23.204853,8.3219185,-10.855608,1.0948114,-0.2242593,3.189096,7.924183,5.7581244,9.059493,-13.478549,62.030327,4.991632,-1.2162263,9.92164,-2.1509538,-12.975682,31.975775,64.56693,0.170667,-2.0282357,-5.352332
43,0.2449270337820053,2.049954652786255,77.71294403076172,-2.111172247812892,5.640736501252672,-178.5685651335607,-11.489642,11.864205,15.348964,26.37195,-17.606781,-5.130752,-1.9113011,-0.22804171,-23.416883,7.8014092,-10.737218,1.0623668,-0.27865824,3.680596,7.9557705,5.9127655,8.993032,-13.396643,62.0603,4.9678135,-1.2587171,9.906571,-2.0846596,-13.135453,31.952213,64.51534,0.15285452,-2.021691,-5.302391
44,0.1576247364282608,2.098910093307495,77.6413345336914,-2.4265748131531457,5.648227146243346,-178.43454790748237,-12.547265,12.529886,14.907237,28.605532,-18.171005,-5.1136146,-1.6191366,0.25711325,-23.618567,7.3808165,-10.674259,1.0349863,-0.3094119,4.116981,7.995202,6.057479,8.932452,-13.347514,62.100937,4.9525776,-1.2869921,9.90598,-2.0227633,-13.303727,31.965595,64.46112,0.14467932,-2.0140018,-5.2625403
45,0.061371102929115295,2.14678955078125,77.57332611083984,-2.692378519355203,5.649316894983454,-178.28983755168034,-13.661625,13.157028,14.493059,30.962585,-18.537733,-5.084696,-1.4895355,0.6049367,-23.816196,7.366536,-10.829543,1.0106245,-0.31467924,4.4934006,8.041306,6.185267,8.88043,-13.338421,62.15756,4.944335,-1.2956282,9.932144,-1.9625685,-13.480759,32.017624,64.39608,0.1467985,-2.0064244,-5.2322087
46,-0.04075074568390846,2.1942996978759766,77.51089477539062,-2.928406839043369,5.642760374186574,-178.13412059559195,-14.827727,13.763974,14.088026,33.43458,-18.757923,-5.0425906,-1.3478608,0.9166707,-24.015518,7.3557343,-10.991771,0.98657477,-0.30225724,4.8330917,8.09504,6.303738,8.837282,-13.3677025,62.22396,4.9402266,-1.2918255,9.97321,-1.9047331,-13.666337,32.10083,64.32165,0.15995929,-2.0000212,-5.2064276
47,-0.14766059815883636,2.243044853210449,77.4494857788086,-3.131161719793741,5.6236059663594675,-177.97851757095293,-16.002026,14.334626,13.705663,35.939575,-18.885254,-4.9232154,-1.1889915,1.1884167,-24.206125,7.348606,-11.158031,0.9719271,-0.26994622,5.134866,8.1572,6.4264255,8.79895,-13.418832,62.289722,4.9464135,-1.2824799,10.009326,-1.8529598,-13.85806,32.21608,64.25399,0.1787282,-1.9910765,-5.1898932
48,-0.25995922088623047,2.293048143386841,77.39476013183594,-3.2970044075960176,5.587201275057699,-177.8342573481984,-17.141449,14.853174,13.361177,38.39665,-18.974136,-4.663924,-1.0063388,1.416155,-24.377377,7.340779,-11.322006,0.97571915,-0.21715108,5.3977885,8.227998,6.5656466,8.7590685,-13.474765,62.346844,4.9682956,-1.2745477,10.021244,-1.8132111,-14.052196,32.36575,64.212364,0.19792345,-1.9760438,-5.187808
49,-0.3765444755554199,2.338202953338623,77.34774780273438,-3.424078812435706,5.527239660140063,-177.6998679747513,-18.246853,15.33017,13.071046,40.85089,-19.002722,-4.2203984,-0.794124,1.5967932,-24.530775,7.335856,-11.484655,1.0028507,-0.1454453,5.622567,8.311718,6.719203,8.713987,-13.539223,62.400234,5.0225005,-1.2675658,10.004526,-1.792074,-14.246513,32.559467,64.21055,0.23140882,-1.9588119,-5.2124376
50,-0.5046867728233337,2.3807709217071533,77.30695343017578,-3.5153426057305084,5.447155385884424,-177.57094509895077,-19.332567,15.774068,12.827871,43.31964,-18.95198,-3.6341596,-0.5550253,1.7344251,-24.670887,7.331337,-11.646628,1.0475413,-0.056496605,5.811379,8.405607,6.8814363,8.663573,-13.616656,62.455368,5.102132,-1.2588117,9.970448,-1.785482,-14.440317,32.790512,64.23874,0.27112043,-1.9397514,-5.2581196
51,-0.6435531973838806,2.420203924179077,77.27290344238281,-3.575259284356296,5.357509243855934,-177.4539653274443,-20.381546,16.1647,12.60952,45.69345,-18.885395,-2.9750886,-0.30012587,1.8349606,-24.7922,7.326829,-11.808961,1.10283,0.05188232,5.966426,8.499676,7.058341,8.607693,-13.691397,62.504704,5.179292,-1.2515837,9.923442,-1.7944874,-14.632038,33.05323,64.28989,0.29994047,-1.9102516,-5.303596
52,-0.7932028770446777,2.4487838745117188,77.2452392578125,-3.607838487593147,5.268821117286068,-177.35510551000928,-21.380297,16.478228,12.392349,47.867874,-18.86764,-2.3170125,-0.04146039,1.903453,-24.889902,7.3212776,-11.971774,1.1618907,0.18006349,6.0898156,8.583582,7.2564874,8.54581,-13.746973,62.541096,5.2257366,-1.2492595,9.867953,-1.8143924,-14.818571,33.334282,64.35245,0.29091543,-1.8615294,-5.3273644
53,-0.9486607313156128,2.4764604568481445,77.22273254394531,-3.6059629355527214,5.177487671755739,-177.2809316498581,-22.331238,16.70861,12.181513,49.878933,-18.935278,-1.6093535,0.22471873,1.931844,-24.95622,7.3162513,-12.136032,1.2239063,0.33416334,6.172833,8.656691,7.48026,8.477397,-13.780226,62.56478,5.2238226,-1.2546991,9.803043,-1.8457006,-14.997319,33.6429,64.43596,0.22587176,-1.7858804,-5.3220377
54,-1.1139445304870605,2.5037097930908203,77.20648956298828,-3.5705662272896315,5.079828368349601,-177.22620461532696,-23.24288,16.866442,11.987257,51.769512,-19.047888,-0.8414715,0.5028838,1.9205396,-24.996744,7.3112364,-12.301171,1.2922403,0.51074547,6.2176166,8.7236185,7.725122,8.402577,-13.799052,62.579933,5.1918926,-1.2653036,9.72723,-1.8930888,-15.16731,33.983368,64.54585,0.12326857,-1.6900009,-5.2998967
55,-1.2913202047348022,2.5307462215423584,77.19447326660156,-3.5151399539079273,4.986754665783027,-177.1790534023496,-24.110687,16.945988,11.795035,53.446598,-19.155924,-0.14894497,0.7820718,1.8844411,-25.026304,7.305057,-12.466852,1.3665434,0.69695944,6.2399282,8.781307,7.9844856,8.322044,-13.802681,62.583702,5.1571584,-1.2765288,9.64414,-1.9541992,-15.327572,34.33074,64.662285,0.0074371784,-1.5864409,-5.2691765
56,-1.47433340549469,2.5504822731018066,77.1866455078125,-3.4538781879091984,4.9093037166722535,-177.1277036882781,-24.93177,16.943268,11.589903,54.81938,-19.21153,0.3325899,1.0516479,1.8391664,-25.05963,7.2940335,-12.631417,1.4466158,0.8814225,6.255959,8.8266115,8.251128,8.236952,-13.791842,62.573353,5.146144,-1.283741,9.55725,-2.0266926,-15.477034,34.661938,64.765274,-0.09364652,-1.4877818,-5.23827
57,-1.6647825241088867,2.5691981315612793,77.18045043945312,-3.388092564158602,4.852125603716462,-177.07129918814735,-25.706842,16.840702,11.351404,55.869457,-19.235493,0.53781986,1.3068808,1.7861872,-25.096836,7.276704,-12.793638,1.5320575,1.0661584,6.266588,8.851679,8.529838,8.147128,-13.759156,62.545208,5.174544,-1.2865721,9.4602,-2.1074667,-15.614414,34.978485,64.857796,-0.17636418,-1.3921982,-5.2059264
58,-1.8628557920455933,2.580057382583618,77.1752700805664,-3.3105564429555403,4.808989743797066,-177.01534068390072,-26.438314,16.64489,11.094853,56.64793,-19.24751,0.54639274,1.5542345,1.7174484,-25.131424,7.25482,-12.954513,1.6233637,1.2558429,6.263011,8.860255,8.821632,8.052777,-13.707825,62.50244,5.224603,-1.2873164,9.353673,-2.2015378,-15.740163,35.292408,64.951836,-0.2522331,-1.2951134,-5.1692967
59,-2.067993402481079,2.5874319076538086,77.16744995117188,-3.2245318751321963,4.773938920510762,-176.95745211035305,-27.12855,16.393438,10.855539,57.174965,-19.19392,0.44116476,1.7992117,1.6358231,-25.167677,7.230215,-13.115519,1.7214652,1.4438913,6.2499127,8.866575,9.116497,7.955535,-13.653249,62.4495,5.2748184,-1.2850888,9.251019,-2.3063548,-15.853836,35.585613,65.028534,-0.3244225,-1.2038789,-5.133234
60,-2.274728775024414,2.5891480445861816,77.16220092773438,-3.1322973140684343,4.741244112738405,-176.8952451909681,-27.778633,16.123438,10.668187,57.467022,-19.020456,0.30576408,2.0482445,1.5433499,-25.20985,7.202849,-13.2770815,1.8271141,1.6370708,6.2195454,8.883126,9.405541,7.87897,-13.626531,62.38497,5.2948523,-1.2778959,9.162934,-2.4299924,-15.934303,35.833,65.08884,-0.39210808,-1.1282369,-5.1045113
61,-2.486722230911255,2.5876805782318115,77.15715026855469,-3.0295652037178096,4.707780719885462,-176.82961132362553,-28.38053,15.831799,10.540726,57.503994,-18.704481,0.12894666,2.30378,1.4345459,-25.256632,7.1737156,-13.438986,1.9421258,1.8037423,6.193145,8.921064,9.687307,7.7771807,-13.598332,62.31354,5.272124,-1.2652951,9.099314,-2.57126,-16.031385,36.0751,65.103714,-0.44061294,-1.0615593,-5.0846777
62,-2.699834108352661,2.582033157348633,77.15076446533203,-2.917390036294054,4.676852160798549,-176.76146425482213,-28.935333,15.506207,10.452078,57.282276,-18.277832,-0.121553786,2.5627687,1.3110288,-25.306366,7.142088,-13.6009445,2.0652704,1.9772396,6.155723,8.968907,9.9622965,7.6817603,-13.593819,62.230354,5.2124543,-1.2468487,9.049624,-2.7224622,-16.115885,36.277885,65.09127,-0.4848122,-1.0040375,-5.0710897
63,-2.9232940673828125,2.5735161304473877,77.14488220214844,-2.8052149001172135,4.6526913790121425,-176.68848207456332,-29.459253,15.169967,10.393638,56.8463,-17.767761,-0.39269564,2.8223164,1.1851112,-25.363121,7.1064525,-13.764122,2.1933515,2.1490338,6.114928,9.019349,10.231022,7.591381,-13.599666,62.147675,5.169714,-1.2275509,9.008588,-2.8843274,-16.189922,36.45133,65.05047,-0.51290303,-0.96246654,-5.0563917
64,-3.1520371437072754,2.5656957626342773,77.13431549072266,-2.702542547627076,4.639364961474615,-176.60838060516238,-29.967026,14.84587,10.357852,56.237854,-17.199064,-0.6313779,3.077785,1.0683811,-25.430698,7.0701413,-13.932178,2.3232155,2.319514,6.0769224,9.064734,10.490406,7.5099,-13.612096,62.07861,5.1949124,-1.2122787,8.97083,-3.0548406,-16.251263,36.595093,64.98038,-0.51393116,-0.9443084,-5.0332026
65,-3.388428211212158,2.5519158840179443,77.11632537841797,-2.610605072536128,4.6389424562176504,-176.51997661216237,-30.459948,14.533537,10.345129,55.44287,-16.576015,-0.84127086,3.3282628,0.96178395,-25.512875,7.0310907,-14.104365,2.4561634,2.4838955,6.0493464,9.103426,10.737078,7.4257264,-13.62691,62.02985,5.331424,-1.2046206,8.935059,-3.233302,-16.310247,36.707127,64.874275,-0.46128106,-0.95648396,-4.9960604
66,-3.6330959796905518,2.5389461517333984,77.09504699707031,-2.524117150185604,4.6489292292161695,-176.4249846949064,-30.927326,14.223262,10.357982,54.44189,-15.88379,-1.0439279,3.5760386,0.8594526,-25.606318,6.988682,-14.279169,2.592998,2.664494,5.9991775,9.142957,10.98377,7.390757,-13.660141,61.966908,5.5328197,-1.1998997,8.891339,-3.4196284,-16.331717,36.757595,64.7405,-0.38206,-0.9966161,-4.949307
67,-3.881286859512329,2.5199499130249023,77.07472229003906,-2.4452736271946316,4.666613396968013,-176.32501822921574,-31.371256,13.924292,10.3919525,53.27777,-15.12457,-1.2121729,3.8246381,0.7657835,-25.704895,6.940733,-14.457702,2.7305653,2.8103132,5.991971,9.173495,11.2091055,7.287558,-13.679844,61.954506,5.755971,-1.1966938,8.876774,-3.6207097,-16.39196,36.84719,64.576195,-0.2794481,-1.0433546,-4.9031425
68,-4.133704662322998,2.4916810989379883,77.04833984375,-2.3755589881080095,4.688905008243816,-176.2221110379776,-31.793911,13.645206,10.443589,51.99554,-14.296748,-1.3204849,4.073115,0.6827931,-25.802011,6.8947854,-14.640598,2.8651638,2.9683852,5.978829,9.208503,11.418389,7.2034063,-13.7096,61.952435,5.924488,-1.1885349,8.872199,-3.8386571,-16.441862,36.93741,64.39031,-0.20962605,-1.0901006,-4.860882
69,-4.392476558685303,2.463724374771118,77.01788330078125,-2.3140992136066587,4.717107875987732,-176.115426713957,-32.19921,13.385632,10.515672,50.58654,-13.3634615,-1.3561208,4.319316,0.609876,-25.896551,6.8508196,-14.828482,2.9982593,3.1227272,5.969753,9.244974,11.612683,7.1196637,-13.741123,61.96981,6.0163994,-1.1737738,8.890743,-4.0722976,-16.490225,37.04157,64.17817,-0.18117231,-1.1374227,-4.821392
70,-4.65599250793457,2.434105157852173,76.98259735107422,-2.26041433018545,4.752055128163891,-176.00454330332707,-32.583103,13.14012,10.611056,49.031857,-12.336353,-1.3350813,4.562743,0.54552096,-25.991837,6.8096547,-15.022463,3.1313362,3.2734957,5.965385,9.281888,11.792483,7.0354447,-13.775444,62.00534,6.0676527,-1.1550972,8.927836,-4.324623,-16.537632,37.15593,63.941708,-0.1685575,-1.1906153,-4.782377
71,-4.931273937225342,2.4011974334716797,76.94007110595703,-2.212486006332775,4.790743725629245,-175.891415746634,-32.9363,12.90513,10.729749,47.362064,-11.291516,-1.2740046,4.8089666,0.48822388,-26.087645,6.768249,-15.220923,3.26126,3.4260294,5.9586864,9.318293,11.963683,6.957641,-13.8134,62.05241,6.104174,-1.1344355,8.968398,-4.5946827,-16.580076,37.28777,63.69117,-0.16687684,-1.2408981,-4.7518663
72,-5.210838317871094,2.3714280128479004,76.89016723632812,-2.1697156982663133,4.829729407710816,-175.7779279179069,-33.249916,12.678328,10.870504,45.60622,-10.30419,-1.1897112,5.063067,0.43772736,-26.183746,6.7271304,-15.425734,3.3847919,3.5724726,5.9581604,9.352467,12.124009,6.8627105,-13.843564,62.121155,6.1596565,-1.1147718,9.003954,-4.8828936,-16.63084,37.457138,63.43423,-0.17150718,-1.2779387,-4.7378483
73,-5.499977111816406,2.3298327922821045,76.838134765625,-2.1316624909197617,4.87002240793713,-175.66429965001564,-33.52565,12.458652,11.035728,43.752323,-9.362598,-1.053181,5.3236666,0.39438504,-26.27899,6.6852093,-15.634188,3.4946988,3.7279103,5.9490204,9.385428,12.278552,6.781583,-13.884244,62.199505,6.2367773,-1.0960972,9.028195,-5.1907215,-16.67434,37.658745,63.173153,-0.17888284,-1.2982881,-4.750735
74,-5.79486083984375,2.3008744716644287,76.77916717529297,-2.0992156964210817,4.912848202746317,-175.54983521163686,-33.763924,12.244327,11.228101,41.786205,-8.435446,-0.8679244,5.590426,0.359158,-26.373524,6.639698,-15.844904,3.5951254,3.9008088,5.9260936,9.418251,12.427036,6.728702,-13.942078,62.281666,6.3162804,-1.0766778,9.04451,-5.5170813,-16.702408,37.87451,62.905655,-0.19432142,-1.3086311,-4.783073
75,-6.100607395172119,2.266299247741699,76.71472930908203,-2.0799383319929206,4.95369207639769,-175.43437437842567,-33.954407,12.036815,11.438697,39.730846,-7.5668383,-0.70108074,5.854816,0.3318879,-26.470934,6.6249924,-16.080208,3.6994824,4.039764,5.926004,9.448968,12.574723,6.6367826,-13.961512,62.38221,6.4036765,-1.057416,9.0596895,-5.869172,-16.745176,38.149765,62.635986,-0.21224211,-1.3123168,-4.818822
76,-6.419984817504883,2.2262160778045654,76.64816284179688,-2.071624242528205,4.989412675643181,-175.32041082250822,-34.078896,11.829683,11.668087,37.594128,-6.793649,-0.61789566,6.1324854,0.3150139,-26.571611,6.6159587,-16.33117,3.8215854,4.186524,5.9283786,9.478431,12.720856,6.549242,-13.96851,62.480907,6.4742184,-1.0357633,9.062436,-6.227936,-16.78203,38.418972,62.363544,-0.25135973,-1.3195127,-4.837365
77,-6.744122505187988,2.182440757751465,76.57415008544922,-2.075664205739093,5.016373881183287,-175.20734866933742,-34.118412,11.624365,11.923772,35.34007,-6.1366715,-0.63923955,6.431869,0.3113932,-26.677671,6.603191,-16.595951,3.968238,4.3282166,5.935158,9.508772,12.874382,6.459792,-13.941929,62.57567,6.5274873,-1.008347,9.045692,-6.596709,-16.81287,38.702026,62.09023,-0.32499754,-1.3286839,-4.83079
78,-7.081075191497803,2.134477138519287,76.49633026123047,-2.0920900255612445,5.035823548219363,-175.09735589391374,-34.075848,11.41871,12.206419,32.953697,-5.5596924,-0.73200256,6.750211,0.3215487,-26.785147,6.587428,-16.871897,4.1308274,4.4960413,5.9344664,9.540879,13.030771,6.400598,-13.918586,62.65985,6.5591044,-0.975567,9.009342,-6.964439,-16.830112,38.96666,61.806793,-0.43441406,-1.3385282,-4.8085575
79,-7.421538352966309,2.085611343383789,76.41226196289062,-2.119537627004445,5.051872801655794,-174.99689900099,-33.970333,11.207626,12.5008135,30.48151,-5.017218,-0.8792224,7.0798635,0.34312442,-26.885235,6.571007,-17.153122,4.30021,4.637313,5.9457555,9.571407,13.197173,6.317584,-13.855352,62.740837,6.589366,-0.9468804,8.97219,-7.3596454,-16.846638,39.272938,61.53085,-0.5314693,-1.350514,-4.785805
80,-7.772846698760986,2.0286474227905273,76.32513427734375,-2.1557071208737644,5.068634140240626,-174.9125770217344,-33.821144,10.988808,12.791713,27.971039,-4.4647675,-1.0617331,7.414363,0.3735886,-26.969107,6.5535326,-17.43217,4.466993,4.784806,5.9663734,9.595768,13.356968,6.222668,-13.795974,62.82217,6.612076,-0.9281827,8.948014,-7.7595387,-16.85826,39.554424,61.253925,-0.61458486,-1.3699647,-4.7723923
81,-8.130377769470215,1.9702421426773071,76.22901916503906,-2.2066114200733233,5.083816719398177,-174.85004641302055,-33.618706,10.771452,13.076316,25.399164,-3.8971136,-1.293839,7.75529,0.42023245,-27.029808,6.5352964,-17.708675,4.6270804,4.947546,6.0025516,9.612632,13.512228,6.1180034,-13.752153,62.904877,6.6227074,-0.9251727,8.942839,-8.16835,-16.863623,39.810116,60.982944,-0.6666117,-1.398816,-4.767519
82,-8.502676010131836,1.9093178510665894,76.126953125,-2.275861295327383,5.091510783285868,-174.81081658943964,-33.344635,10.563321,13.363656,22.733835,-3.3252208,-1.578521,8.110501,0.48734465,-27.067158,6.514121,-17.985355,4.7848454,5.156519,6.0390944,9.630742,13.671898,6.050494,-13.743452,62.96445,6.6074305,-0.9313448,8.939115,-8.564819,-16.863596,40.01329,60.69174,-0.70844877,-1.4358749,-4.7633386
83,-8.884777069091797,1.8438889980316162,76.01789855957031,-2.358281562914277,5.090272755350843,-174.79547415569795,-33.005424,10.362325,13.655704,20.01305,-2.7377794,-1.877734,8.481165,0.5669051,-27.08125,6.4907875,-18.262003,4.943897,5.3869987,6.0794907,9.655703,13.832842,5.9942217,-13.736253,63.004673,6.581764,-0.9383101,8.933444,-8.955823,-16.859724,40.189747,60.382053,-0.7521512,-1.4774677,-4.767159
84,-9.276582717895508,1.7724947929382324,75.90557098388672,-2.4467989023795043,5.0799743095881205,-174.80346521402944,-32.617783,10.166866,13.953444,17.295246,-2.1285698,-2.1533148,8.866241,0.6485124,-27.073362,6.4643917,-18.535307,5.108053,5.6325116,6.120197,9.691423,13.988968,5.9397554,-13.718698,63.026413,6.553109,-0.93644375,8.92138,-9.34615,-16.85254,40.350533,60.05747,-0.8067703,-1.5212654,-4.7860107
85,-9.673920631408691,1.700629711151123,75.78765869140625,-2.5422627119522754,5.062999741785658,-174.83297846539818,-32.18726,9.974696,14.243868,14.569623,-1.492382,-2.3905067,9.26258,0.73321927,-27.045696,6.4369545,-18.808956,5.276005,5.8866696,6.164748,9.736751,14.135704,5.8788586,-13.683695,63.032288,6.5191765,-0.917951,8.903197,-9.741943,-16.840525,40.502487,59.721436,-0.87929803,-1.5674154,-4.823256
86,-10.076655387878418,1.6272552013397217,75.66416931152344,-2.6520752786378736,5.034425512351466,-174.8908565224415,-31.694193,9.796943,14.533971,11.799879,-0.82656354,-2.6100974,9.675584,0.829905,-26.990139,6.405686,-19.081377,5.4452863,6.1549377,6.222424,9.791587,14.273076,5.805694,-13.63347,63.031708,6.4811025,-0.8911121,8.8841505,-10.1481085,-16.820936,40.647087,59.38384,-0.9615529,-1.6167754,-4.8759866
87,-10.491032600402832,1.5430035591125488,75.53385162353516,-2.7760222954335068,4.9877138289071645,-174.98280200120703,-31.100616,9.636121,14.856236,8.955558,-0.102436006,-2.8268015,10.11197,0.9357359,-26.90036,6.3731484,-19.350908,5.618412,6.4439645,6.2950354,9.857992,14.40603,5.719919,-13.573954,63.025593,6.4489794,-0.8667888,8.865786,-10.560273,-16.790907,40.775955,59.051075,-1.0454963,-1.6688306,-4.9385056
88,-10.913302421569824,1.4531980752944946,75.40374755859375,-2.9082186901163216,4.9209348161842,-175.10864336091572,-30.761507,9.587662,15.17691,6.8461046,0.26651424,-3.0576952,10.574125,1.0414056,-26.775906,6.3398385,-19.613457,5.7990227,6.7748203,6.365639,9.94045,14.546765,5.6602545,-13.529806,62.994175,6.420969,-0.85927683,8.839139,-10.943582,-16.765493,40.853474,58.68418,-1.1276529,-1.7227801,-5.00203
89,-11.348884582519531,1.3627015352249146,75.26976013183594,-3.040677189479453,4.839503636176199,-175.2617744982148,-31.281199,9.806057,15.374907,6.7466807,-0.39367157,-3.308743,11.056775,1.1362197,-26.62494,6.3073726,-19.872244,5.9927087,7.139909,6.427053,10.037168,14.699889,5.6315103,-13.507779,62.92935,6.4109516,-0.8772199,8.800639,-11.289527,-16.7518,40.872883,58.267868,-1.1999899,-1.7782432,-5.071518
90,-11.797235488891602,1.258801817893982,75.1323013305664,-3.1663108312869297,4.753013562343151,-175.4308778522332,-31.755682,10.0297365,15.597872,6.6651692,-1.0353566,-3.563692,11.54978,1.2134603,-26.45938,6.2775292,-20.129221,6.1981835,7.492789,6.4858513,10.135467,14.853654,5.5807033,-13.465932,62.86442,6.427852,-0.91517186,8.763639,-11.651459,-16.722198,40.88841,57.867264,-1.2590777,-1.8357127,-5.1526914
91,-12.249152183532715,1.1529580354690552,74.99602508544922,-3.2794459641289384,4.668996538502819,-175.6059349826029,-32.165535,10.249068,15.8937025,6.600408,-1.6496246,-3.8188725,12.044426,1.2672261,-26.287193,6.2516212,-20.376287,6.409276,7.844889,6.5287194,10.227642,15.000735,5.527535,-13.411275,62.799603,6.435925,-0.95688844,8.725949,-12.007969,-16.685078,40.88166,57.467445,-1.3276567,-1.8961626,-5.232251
92,-12.708166122436523,1.0430324077606201,74.86258697509766,-3.3799123957557207,4.591956533216996,-175.78163493812457,-32.490047,10.463898,16.31007,6.5555825,-2.2295532,-4.0718837,12.53809,1.3004591,-26.111681,6.2254214,-20.604403,6.6185365,8.196252,6.548159,10.310815,15.146101,5.4812775,-13.333929,62.724586,6.4053063,-0.98517275,8.688378,-12.3465805,-16.647701,40.86121,57.050217,-1.4147047,-1.9559486,-5.299602
93,-13.172666549682617,0.9324519634246826,74.72947692871094,-3.470168743410781,4.515544100127334,-175.96867092378287,-32.720787,10.686844,16.90843,6.528415,-2.8042479,-4.3576975,13.032667,1.312763,-25.927095,6.2060475,-20.827297,6.8176436,8.551167,6.5479665,10.390973,15.284272,5.434129,-13.218083,62.646095,6.3258886,-0.9914439,8.646226,-12.678977,-16.604246,40.83037,56.629265,-1.5341938,-2.015708,-5.349705
94,-13.645296096801758,0.8221810460090637,74.59825134277344,-3.543417902230792,4.443125771962636,-176.1607482382908,-32.86015,10.90119,17.650715,6.4920635,-3.3536282,-4.6640825,13.526014,1.2963207,-25.740042,6.193954,-21.045183,7.014133,8.90653,6.5212607,10.468781,15.421497,5.3928266,-13.078883,62.553265,6.210176,-0.9844695,8.599675,-12.995903,-16.561646,40.78285,56.188343,-1.6746312,-2.074365,-5.3903995
95,-14.135587692260742,0.7012326121330261,74.46916198730469,-3.6058598753336004,4.385640280181823,-176.33549702838295,-32.929794,11.094789,18.421505,6.4837866,-3.8330734,-4.9237947,14.010838,1.2615794,-25.563044,6.18331,-21.231619,7.2211146,9.263442,6.4809246,10.51639,15.565269,5.377107,-12.983309,62.45084,6.041252,-0.9788653,8.560651,-13.262934,-16.546139,40.729244,55.708763,-1.7932107,-2.1341214,-5.4339533
96,-14.631302833557129,0.574907124042511,74.3473129272461,-3.649136406858242,4.370158631651821,-176.4660096970925,-32.934544,11.222487,19.116743,6.469895,-4.1626186,-5.0655384,14.463854,1.2039025,-25.414467,6.1695867,-21.360764,7.453139,9.554472,6.403662,10.542399,15.70335,5.353886,-12.816896,62.34125,5.919001,-0.993188,8.529016,-13.544772,-16.519672,40.661552,55.238155,-1.9085699,-2.203393,-5.4597254
97,-15.13506031036377,0.4348095953464508,74.22785949707031,-3.683136922191508,4.3784784499184735,-176.54730623853283,-32.854935,11.295143,19.743048,6.4915094,-4.3759427,-5.0909815,14.902456,1.1355991,-25.299799,6.162739,-21.445908,7.7089396,9.765078,6.2995567,10.54858,15.833433,5.3236747,-12.578428,62.248245,5.8334246,-1.0449487,8.51167,-13.839155,-16.477541,40.619106,54.781445,-1.9791614,-2.2834544,-5.477472
98,-15.642684936523438,0.2967913746833801,74.11427307128906,-3.7079834855029064,4.414574122558362,-176.59476720875554,-32.69383,11.315951,20.347483,6.5239267,-4.488521,-5.0304036,15.319981,1.0554761,-25.208286,6.1643467,-21.495607,7.9813695,9.926877,6.1777296,10.513887,15.978709,5.291998,-12.321318,62.151085,5.7365127,-1.1166227,8.510274,-14.126728,-16.422956,40.601665,54.33835,-2.007793,-2.3696651,-5.498495
99,-16.161121368408203,0.16295459866523743,74.01356506347656,-3.6949329240399083,4.482759807127867,-176.59686086812914,-32.485657,11.239103,20.871119,6.558138,-4.442977,-4.85745,15.712107,0.9270995,-25.148264,6.172502,-21.487125,8.2834425,10.031538,6.0127673,10.456509,16.114233,5.265761,-12.071155,62.057728,5.633636,-1.188425,8.515601,-14.415752,-16.366428,40.595726,53.912952,-2.0340242,-2.4620154,-5.5187883
100,-16.68663215637207,0.02662132866680622,73.92510986328125,-3.6360077059392535,4.580859087885743,-176.54077167120522,-32.280914,11.048846,21.2352,6.6263003,-4.2036633,-4.549281,16.04227,0.7214245,-25.12743,6.281522,-21.452917,8.624858,10.047337,5.799417,10.388534,16.223398,5.24073,-11.829031,61.98328,5.533561,-1.2410485,8.518135,-14.721872,-16.294615,40.608223,53.53074,-2.1046069,-2.5595207,-5.539809
101,-17.229209899902344,-0.11600777506828308,73.8433609008789,-3.5044234882541057,4.720509972869492,-176.4113251371935,-32.04812,10.699009,21.405197,6.704409,-3.7391582,-4.090405,16.34504,0.431837,-25.161118,6.3899746,-21.340815,9.017696,9.966942,5.5149274,10.299823,16.305796,5.220796,-11.620361,61.92488,5.414262,-1.2648829,8.512879,-15.048,-16.203163,40.638042,53.19534,-2.2439678,-2.6574833,-5.564396
102,-17.75659942626953,-0.29069721698760986,73.80817413330078,-3.2939567786729698,4.897386060511689,-176.20784961505413,-31.76447,10.193986,21.429846,6.7675233,-3.0681367,-3.487895,16.615911,0.05006048,-25.25516,6.5255156,-21.174484,9.458724,9.817957,5.155651,10.196235,16.357098,5.216303,-11.459643,61.88002,5.274118,-1.2714211,8.505387,-15.349543,-16.134129,40.651585,52.84506,-2.4294913,-2.7560859,-5.5871434
103,-18.29618263244629,-0.4724973440170288,73.78827667236328,-3.0349456570326896,5.095114968267744,-175.9788351324856,-31.49719,9.623134,21.386646,6.8420124,-2.2278087,-2.7585037,16.87202,-0.39002097,-25.361301,6.6622787,-20.927605,9.928786,9.642738,4.7492127,10.086394,16.378246,5.2207785,-11.334282,61.857777,5.1422253,-1.2711093,8.509701,-15.625163,-16.091196,40.64993,52.493805,-2.6198537,-2.864106,-5.6079025
104,-18.855730056762695,-0.6536167860031128,73.77478790283203,-2.7415974044495357,5.298575128138533,-175.76515557063075,-31.2911,9.037135,21.368492,6.9045715,-1.2290889,-1.9197693,17.117447,-0.88094395,-25.44084,6.8073077,-20.589987,10.412801,9.4817505,4.312771,9.975564,16.37294,5.2272205,-11.250627,61.868675,5.037535,-1.2733797,8.543428,-15.877765,-16.069475,40.632824,52.175644,-2.7731943,-2.9924273,-5.6295815
105,-19.417125701904297,-0.842854380607605,73.7796630859375,-2.3939412868823577,5.519654848209781,-175.57703706879775,-31.190628,8.414244,21.393274,6.9410486,0.030515926,-0.8559804,17.340786,-1.4488391,-25.487434,6.9493794,-20.16194,10.916905,9.303277,3.791454,9.882674,16.333895,5.2446957,-11.123527,61.90567,5.0072236,-1.2899691,8.60215,-16.162195,-16.038609,40.633633,51.90086,-2.8893895,-3.1575017,-5.6428113
106,-19.98866844177246,-1.0452885627746582,73.80571746826172,-1.9965404163133855,5.75470892374851,-175.39852822548278,-31.72872,7.9764533,21.353497,8.254862,0.85235333,0.38853633,17.54965,-2.0830963,-25.515146,7.095365,-19.652576,11.447141,9.11745,3.2171714,9.788465,16.275755,5.267309,-11.026022,61.964073,5.001701,-1.3098495,8.690447,-16.447287,-16.013678,40.64369,51.662395,-2.9824119,-3.3485742,-5.6576424
107,-20.577686309814453,-1.2571052312850952,73.8392562866211,-1.5990048377477297,5.966988280397328,-175.23174182269014,-32.516743,7.6670995,21.324337,10.178371,1.3900347,1.5729752,17.79033,-2.7179544,-25.51517,7.2325926,-19.043201,11.988437,8.942604,2.6461375,9.7098055,16.197823,5.295807,-10.946094,62.05033,5.019806,-1.3219143,8.784045,-16.69223,-15.991948,40.612507,51.463448,-3.0636797,-3.5395653,-5.673459
108,-21.18640899658203,-1.4687784910202026,73.8641128540039,-1.2482180944989494,6.121895406246716,-175.07626115657345,-33.10947,7.399193,21.354383,11.91285,1.8588694,2.466119,18.101728,-3.2933614,-25.481045,7.3583193,-18.320364,12.523597,8.804332,2.1326256,9.659693,16.098343,5.33269,-10.890982,62.17245,5.053628,-1.3140565,8.862685,-16.86742,-15.970881,40.49218,51.322063,-3.1282108,-3.7060626,-5.6902714
109,-21.812053680419922,-1.686435341835022,73.88816833496094,-0.9436337844515044,6.216052535184488,-174.94164624889706,-33.523636,7.2072177,21.439636,13.552146,2.2052174,2.9806042,18.48571,-3.818563,-25.400734,7.473442,-17.495293,13.072776,8.72301,1.6753767,9.6358795,15.971917,5.3797164,-10.8719845,62.343,5.0996757,-1.2788224,8.914324,-16.949959,-15.949051,40.248226,51.233753,-3.2012174,-3.8509467,-5.6939206
110,-22.441383361816406,-1.9092884063720703,73.9211654663086,-0.6574807287103123,6.271002332505743,-174.82236551685622,-33.819187,7.061629,21.56366,15.123775,2.5023954,3.2623975,18.913706,-4.330227,-25.28352,7.588047,-16.573536,13.635932,8.695025,1.236545,9.630803,15.815287,5.4500575,-10.898023,62.555294,5.1574078,-1.2234662,8.951252,-16.958313,-15.9245205,39.893536,51.19342,-3.278328,-3.9854887,-5.6867027
111,-23.070045471191406,-2.1430106163024902,73.96399688720703,-0.393194730530788,6.290695504324821,-174.69522439699756,-34.014175,6.9311476,21.685873,16.626125,2.6768613,3.4228702,19.372599,-4.816218,-25.155151,7.719726,-15.53265,14.165451,8.684276,0.82697666,9.645702,15.636881,5.536179,-10.953467,62.788567,5.2286897,-1.1580945,8.991034,-16.903051,-15.901276,39.463436,51.195995,-3.3332038,-4.0939717,-5.697582
112,-23.70826530456543,-2.386965751647949,74.01364135742188,-0.1521433539582984,6.279533902095319,-174.54115511641126,-34.121784,6.778132,21.775015,18.039194,2.662487,3.5655963,19.200888,-5.5730095,-24.973057,9.391418,-15.145207,14.619924,8.653044,0.46249956,9.679718,15.4363785,5.6117673,-11.01728,63.037357,5.3212466,-1.0942175,9.056788,-16.798532,-15.88395,38.992577,51.244434,-3.3486252,-4.160289,-5.7544923
113,-24.359838485717773,-2.6348578929901123,74.06668090820312,0.07198327548680934,6.233272379611967,-174.35624440113324,-34.116077,6.582376,21.841267,19.33248,2.3940794,3.6048632,18.941074,-6.3462863,-24.773537,11.35788,-14.75641,15.000033,8.62281,0.13320754,9.73842,15.205887,5.692809,-11.115097,63.31411,5.434074,-1.0293822,9.158631,-16.618204,-15.865718,38.42577,51.333214,-3.330649,-4.1719155,-5.8773656
114,-25.014846801757812,-2.8746378421783447,74.12227630615234,0.25626325294173147,6.17831171670273,-174.1686019472338,-34.0586,6.4125,21.881712,20.586344,1.9000846,3.509513,18.657982,-7.0235386,-24.504507,13.334678,-14.225686,15.000033,8.608364,-0.14902739,9.790903,14.947679,5.772297,-11.235741,63.62249,5.5695944,-0.96017665,9.284383,-16.375483,-15.844243,37.77989,51.469463,-3.283005,-4.139513,-6.0483327
115,-25.671833038330078,-3.126255512237549,74.18297576904297,0.4428327051831189,6.116923534375586,-173.96932768862334,-33.953903,6.2103395,21.904194,21.770716,1.3222255,3.4846582,18.289633,-7.7500067,-24.24631,15.500936,-13.628148,15.000033,8.591143,-0.4225941,9.8375,14.671187,5.851829,-11.367366,63.929905,5.716062,-0.8914322,9.41857,-16.10631,-15.823179,37.11561,51.654106,-3.2021973,-4.0846663,-6.2318726
116,-26.335208892822266,-3.3872225284576416,74.25154876708984,0.6707022145715785,6.054981052024199,-173.75888851282704,-33.809727,5.9227285,21.919416,22.848475,0.80636126,3.73028,17.789814,-8.59756,-24.01116,17.939072,-12.988571,15.000033,8.555826,-0.72760624,9.877056,14.387309,5.9304867,-11.492247,64.20291,5.8633237,-0.828587,9.545232,-15.838464,-15.810495,36.493977,51.88066,-3.0914109,-4.028372,-6.3924117
117,-27.005464553833008,-3.6499905586242676,74.3223876953125,0.9600617262542841,5.997589087455563,-173.53247207292213,-33.64913,5.5099688,21.921919,23.819317,0.4168672,4.404565,17.159563,-9.585623,-23.793081,20.639217,-12.266909,15.000033,8.498843,-1.0806276,9.903347,14.09364,6.0058374,-11.614726,64.44927,6.0205984,-0.76899326,9.659664,-15.557594,-15.811172,35.906036,52.145252,-2.9479637,-3.9681814,-6.5309987
118,-27.674043655395508,-3.924837350845337,74.4011001586914,1.3020402251404315,5.938169954322568,-173.29237643213096,-33.44924,4.9795527,21.924694,24.667757,0.086886115,5.36451,16.44659,-10.676776,-23.568748,23.507341,-11.432308,15.000033,8.428425,-1.4724251,9.923549,13.785655,6.0778565,-11.740511,64.681885,6.1899905,-0.7112625,9.770812,-15.257945,-15.827199,35.33278,52.45009,-2.7647874,-3.8954134,-6.663075
119,-28.335649490356445,-4.212515830993652,74.47944641113281,1.6722543163454922,5.874610688214441,-173.05674340020877,-33.17265,4.37703,21.953817,25.356506,-0.24764746,6.357058,15.667466,-11.828408,-23.310331,26.474934,-10.508053,15.000033,8.340036,-1.8826506,9.943154,13.474706,6.1368237,-11.837573,64.87549,6.3568864,-0.66302866,9.884433,-14.972814,-15.853927,34.82506,52.794647,-2.5504928,-3.8208585,-6.7765985
120,-28.997760772705078,-4.502543926239014,74.55652618408203,2.006802668676257,5.818399470425589,-172.85332106050362,-32.826763,3.8081667,22.00248,25.918434,-0.6826435,7.1199307,14.818357,-12.936415,-23.00546,29.455784,-9.509739,14.763242,8.260034,-2.2622764,9.951777,13.166281,6.1903386,-11.898361,65.00434,6.498276,-0.63123566,10.005775,-14.726939,-15.89216,34.410564,53.175266,-2.3152733,-3.7565851,-6.8566566
121,-29.65428924560547,-4.793355941772461,74.63743591308594,2.291579809106096,5.777603366286478,-172.6972114730988,-32.398777,3.2941885,22.077822,26.340958,-1.284025,7.573415,13.886209,-14.006941,-22.656622,32.464634,-8.4095,14.285516,8.233065,-2.6040003,9.945515,12.858149,6.2622538,-11.953173,65.05689,6.6022863,-0.61892664,10.146338,-14.481264,-15.969941,34.063168,53.54843,-2.0513854,-3.7029378,-6.892573
122,-30.307880401611328,-5.077547073364258,74.71903228759766,2.563652204626768,5.73916142315587,-172.56138446283586,-31.883457,2.7708848,22.171717,26.614067,-1.9900477,7.8625565,12.881068,-15.10104,-22.281874,35.546867,-7.219705,13.70393,8.194577,-2.9296622,9.933538,12.559586,6.3252873,-11.964445,65.04367,6.691489,-0.6230959,10.299927,-14.259607,-16.07507,33.82293,53.946716,-1.7407408,-3.6537144,-6.898802
123,-30.96027946472168,-5.366445541381836,74.80192565917969,2.8007790298362925,5.695350551233483,-172.42075098506535,-31.329397,2.2641706,22.235624,26.812937,-2.7288613,8.055659,11.804406,-16.184742,-21.91861,38.701683,-6.0239744,12.938134,8.128788,-3.2159736,9.929159,12.252609,6.3816643,-11.93845,64.97438,6.7615733,-0.6383444,10.438177,-14.062017,-16.20016,33.65254,54.363823,-1.4276878,-3.6115153,-6.8776045
124,-31.602201461791992,-5.638206481933594,74.887451171875,2.9818961077947956,5.638334385110652,-172.25084460064983,-30.785328,1.8012354,22.224558,27.015556,-3.431042,8.22161,10.6581955,-17.226725,-21.60906,41.93523,-4.912287,11.902862,8.014472,-3.4442992,9.94704,11.926169,6.4396043,-11.875905,64.850266,6.8068814,-0.65969294,10.528985,-13.8909025,-16.332502,33.524563,54.79077,-1.1490277,-3.578935,-6.832521
125,-32.23353958129883,-5.904585838317871,74.97832489013672,3.0842316004720693,5.56624422088304,-172.04422734006698,-30.268658,1.4057356,22.11602,27.250328,-4.090091,8.365444,9.425618,-18.239687,-21.377142,45.351315,-3.8946211,10.49102,7.845008,-3.5995927,9.997457,11.580837,6.512329,-11.76671,64.648384,6.820147,-0.68957806,10.551749,-13.753686,-16.478506,33.439854,55.21718,-0.90865195,-3.5632956,-6.739619
126,-32.85517120361328,-6.169158458709717,75.06767272949219,3.1254376556012806,5.481623929694245,-171.8116642765694,-29.746819,1.0546113,21.939808,27.469606,-4.7382474,8.456208,8.119238,-19.270159,-21.21353,48.92852,-2.9526103,8.735933,7.629595,-3.6998267,10.0712385,11.224193,6.5980725,-11.614705,64.37311,6.803967,-0.72937864,10.526408,-13.653396,-16.629988,33.410774,55.661713,-0.68801105,-3.5615973,-6.6062913
127,-33.46554183959961,-6.427047252655029,75.1591796875,3.1445939820806714,5.383487720528957,-171.55665235338014,-29.193863,0.71050394,21.727585,27.635365,-5.3592796,8.5077715,6.7840223,-20.327152,-21.10516,52.486782,-2.130437,6.775335,7.38212,-3.7770543,10.159151,10.857708,6.6941175,-11.447516,64.05568,6.7683372,-0.772433,10.47655,-13.560611,-16.78389,33.415966,56.11908,-0.49206045,-3.5593507,-6.478393
128,-34.07339096069336,-6.675773620605469,75.25596618652344,3.178717172768795,5.271145474903874,-171.28338591131595,-28.584208,0.33459505,21.509485,27.70614,-5.9348373,8.533816,5.4577966,-21.403069,-21.027386,55.84949,-1.4626018,4.773004,7.1180596,-3.8606055,10.250647,10.480807,6.796366,-11.295278,63.729446,6.722029,-0.8122312,10.426713,-13.446478,-16.936968,33.434116,56.585056,-0.32451886,-3.5425448,-6.401879
129,-34.67804718017578,-6.920907020568848,75.35143280029297,3.231651797582053,5.144148962096011,-170.99267631861488,-27.919003,-0.07106261,21.291174,27.68917,-6.4704156,8.525691,4.084456,-22.521671,-20.977566,59.109737,-0.88970214,2.5964077,6.8391094,-3.955123,10.347638,10.08975,6.904817,-11.161462,63.393517,6.666106,-0.84712756,10.3786745,-13.321109,-17.089663,33.4837,57.07057,-0.18796626,-3.509674,-6.387022
130,-35.2713508605957,-7.1648383140563965,75.44692993164062,3.2879597865521344,5.002170965236044,-170.68261930843477,-27.206402,-0.49305126,21.059303,27.594387,-6.9687505,8.481584,2.6608121,-23.688152,-20.95992,62.334675,-0.4324713,0.21499416,6.538211,-4.0481315,10.454162,9.685313,7.0200033,-11.032445,63.034622,6.5963383,-0.88047403,10.321274,-13.192248,-17.241913,33.564816,57.573696,-0.08409959,-3.4677773,-6.4102254
131,-35.86825180053711,-7.412116050720215,75.54269409179688,3.348662408714263,4.84666804097713,-170.3541777872347,-26.446562,-0.93633896,20.809675,27.417429,-7.4254,8.424624,1.290415,-24.813871,-20.947319,65.313,-0.23619989,-2.0155013,6.2182517,-4.136926,10.560128,9.272928,7.138143,-10.912954,62.669495,6.5134172,-0.91318524,10.26022,-13.03896,-17.390709,33.64078,58.08099,-0.00014946093,-3.4160554,-6.4666033
132,-36.47220230102539,-7.667532444000244,75.63430786132812,3.4073121301542506,4.6805804813613205,-170.00923850507553,-25.644163,-1.3947088,20.533054,27.162867,-7.8403053,8.376105,0.066103436,-25.772999,-20.899984,67.83923,-0.42902258,-3.7046008,5.8839498,-4.210268,10.652758,8.856914,7.253931,-10.808581,62.315926,6.4186063,-0.9459544,10.201915,-12.835747,-17.531038,33.67014,58.57683,0.07201169,-3.353826,-6.5512094
133,-37.0736083984375,-7.922351360321045,75.73218536376953,3.4650590600212574,4.501507940665794,-169.650572608602,-24.795391,-1.8689933,20.230734,26.831913,-8.21529,8.342034,-0.94993955,-26.492281,-20.817062,69.82592,-1.1943622,-4.5811257,5.536646,-4.2644243,10.725635,8.439174,7.3638415,-10.726863,61.98193,6.3061833,-0.97146994,10.141617,-12.573532,-17.659187,33.644806,59.069653,0.11988218,-3.2779863,-6.679377
134,-37.6618537902832,-8.15605640411377,75.83590698242188,3.517158061568103,4.311485055770142,-169.27901835044474,-23.906069,-2.348108,19.902693,26.434084,-8.555284,8.30935,-1.8376011,-27.00621,-20.704468,71.414604,-2.396406,-4.8586926,5.175748,-4.2984934,10.78229,8.014901,7.468692,-10.663405,61.661755,6.177428,-0.9928199,10.079542,-12.270567,-17.775318,33.58838,59.570538,0.1453552,-3.1903467,-6.8486624
135,-38.24693298339844,-8.391698837280273,75.94477844238281,3.5500882712479065,4.120570438700663,-168.89450257493334,-22.993876,-2.8133795,19.540438,25.981318,-8.862084,8.270603,-2.717757,-27.355463,-20.536007,72.739265,-3.680987,-4.872187,4.803488,-4.3074102,10.824746,7.5828643,7.5698743,-10.604719,61.345463,6.045389,-1.0226405,10.028485,-11.930996,-17.879393,33.493282,60.058655,0.16256802,-3.096588,-7.0271316
136,-38.82927703857422,-8.628907203674316,76.06371307373047,3.5517868624503484,3.938255081327615,-168.49629246081258,-22.072672,-3.2488654,19.136673,25.478672,-9.134571,8.219045,-3.7087784,-27.581272,-20.280777,73.92608,-4.696376,-4.963179,4.4222283,-4.287987,10.856364,7.1403227,7.6699624,-10.5386915,61.02587,5.9220657,-1.0753968,10.001399,-11.562265,-17.972437,33.355125,60.515972,0.19003113,-3.002651,-7.1828547
137,-39.4193229675293,-8.876948356628418,76.18865203857422,3.512335807957076,3.7648609144967593,-168.08292462482578,-21.142942,-3.644001,18.683401,24.926304,-9.373087,8.151427,-4.8431983,-27.662426,-19.926018,74.98877,-5.344849,-5.194641,4.0276747,-4.2303104,10.877735,6.682134,7.7666497,-10.4581,60.70872,5.7927756,-1.1597918,10.010225,-11.16351,-18.050274,33.17012,60.942112,0.22870834,-2.9058378,-7.324591
138,-39.99024963378906,-9.09404468536377,76.31147766113281,3.441045437971463,3.59634936642964,-167.6553933410677,-20.196486,-4.009471,18.188614,24.321278,-9.578504,8.072196,-6.0540237,-27.584501,-19.501698,75.86348,-5.807536,-5.3926425,3.6223483,-4.1415706,10.889766,6.210517,7.8643394,-10.372622,60.39602,5.655595,-1.2689701,10.043866,-10.728794,-18.115995,32.941463,61.33959,0.27299199,-2.8042717,-7.4628434
139,-40.55869674682617,-9.31815242767334,76.43730163574219,3.3559692874326266,3.435894677499724,-167.21577864300062,-19.239124,-4.354471,17.668173,23.67305,-9.752587,7.9866304,-7.3117657,-27.394234,-19.034126,76.555275,-6.153274,-5.5438356,3.2098188,-4.0385275,10.88926,5.736297,7.9578147,-10.285738,60.076496,5.5489545,-1.3873409,10.085672,-10.266622,-18.165958,32.67797,61.71554,0.31963223,-2.7057257,-7.571407
140,-41.13300704956055,-9.547992706298828,76.56446075439453,3.2748101168544816,3.2861731299131973,-166.7658128541463,-18.271702,-4.695161,17.137903,22.978752,-9.895674,7.9009643,-8.58801,-27.140656,-18.544573,77.07029,-6.4525104,-5.6329994,2.8099356,-3.947035,10.882419,5.268671,8.069252,-10.217869,59.72985,5.500095,-1.5034957,10.111524,-9.76211,-18.214561,32.370037,62.039917,0.36948067,-2.617302,-7.6191983
141,-41.70554733276367,-9.767563819885254,76.68949127197266,3.200609432260175,3.1488128407438216,-166.30484960901234,-17.292639,-5.034386,16.598003,22.230686,-10.0002985,7.819308,-9.902208,-26.800364,-18.003231,77.402405,-6.6489863,-5.6545033,2.413543,-3.8644166,10.863707,4.804154,8.183748,-10.162442,59.368664,5.5410633,-1.6148014,10.126324,-9.222122,-18.253975,32.01401,62.322857,0.42106736,-2.5357373,-7.5948696
142,-42.27412796020508,-9.986981391906738,76.81420135498047,3.1250751817146947,3.0217384549937716,-165.83234980434602,-16.30049,-5.3644314,16.04187,21.430637,-10.069062,7.73907,-11.255101,-26.35971,-17.415216,77.54864,-6.7289233,-5.616354,2.0201488,-3.7823627,10.834858,4.33914,8.302598,-10.118273,58.99558,5.6462116,-1.7277752,10.137754,-8.640991,-18.284018,31.606655,62.56188,0.47179332,-2.4587507,-7.514593
143,-42.844913482666016,-10.204864501953125,76.92967987060547,3.048686937077077,2.902314261036087,-165.35020367172953,-15.304353,-5.681008,15.474396,20.60902,-10.121195,7.6556745,-12.591787,-25.88222,-16.85197,77.52059,-6.827724,-5.5285172,1.6309441,-3.7028198,10.797618,3.8840032,8.427431,-10.081141,58.595215,5.774698,-1.8435198,10.138089,-8.031402,-18.306456,31.183405,62.770363,0.5258344,-2.3950927,-7.396246
144,-43.418739318847656,-10.422186851501465,77.03968048095703,2.971833713324132,2.7881590328496997,-164.86055667551665,-14.31366,-5.980098,14.901022,19.79624,-10.175816,7.5641756,-13.861286,-25.434408,-16.382364,77.33177,-7.081842,-5.4030323,1.2457327,-3.6276798,10.753614,3.449659,8.5594425,-10.04511,58.15164,5.8853974,-1.9633024,10.119221,-7.4076037,-18.323923,30.78154,62.96254,0.58782554,-2.3538005,-7.257924
145,-43.99068832397461,-10.64022445678711,77.13987731933594,2.89284446775149,2.680019408238147,-164.36510821201352,-13.326371,-6.257548,14.324374,18.988462,-10.232393,7.458574,-15.055925,-25.00869,-16.008394,76.9609,-7.562976,-5.206996,0.8624577,-3.555975,10.698729,3.0406215,8.699146,-10.008719,57.65997,5.980568,-2.0890675,10.077118,-6.7624993,-18.33719,30.395338,63.132713,0.65548426,-2.3452516,-7.079793
146,-44.56842803955078,-10.857352256774902,77.23185729980469,2.812107720421641,2.578568681724509,-163.86189792429028,-12.338273,-6.518837,13.741665,18.172112,-10.282231,7.343408,-16.199488,-24.579971,-15.699317,76.4065,-8.185987,-4.948224,0.48128247,-3.487494,10.633966,2.651445,8.846358,-9.97432,57.127464,6.0774946,-2.2197304,10.016311,-6.094585,-18.3465,30.014828,63.27752,0.73204684,-2.3618712,-6.860219
147,-45.14649963378906,-11.067018508911133,77.315185546875,2.7348019843504634,2.481315568322344,-163.34783436093414,-11.358122,-6.765398,13.149159,17.368868,-10.335399,7.2287073,-17.290573,-24.188643,-15.472305,75.70697,-8.849769,-4.6973233,0.10270147,-3.425108,10.56818,2.279106,8.999546,-9.940099,56.55616,6.1582026,-2.351696,9.941308,-5.4101586,-18.35091,29.651274,63.400604,0.80822444,-2.3849814,-6.644039
148,-45.7203483581543,-11.277033805847168,77.3898696899414,2.6648339232114915,2.386155354824656,-162.82002681861843,-10.3950405,-7.0038233,12.543551,16.599022,-10.400884,7.12512,-18.329847,-23.869593,-15.342844,74.90204,-9.453534,-4.5224237,-0.27384964,-3.371098,10.508989,1.921047,9.156762,-9.902503,55.948635,6.2052093,-2.4814281,9.856737,-4.72238,-18.350311,29.32158,63.513565,0.87789595,-2.396471,-6.476756
149,-46.302242279052734,-11.495534896850586,77.45803833007812,2.59865929961182,2.291902052873197,-162.27317790403518,-9.456819,-7.2273965,11.920315,15.881647,-10.487477,7.037209,-19.317808,-23.632616,-15.325917,73.99827,-10.017449,-4.4565625,-0.6549833,-3.3214269,10.456887,1.581336,9.31597,-9.856789,55.296715,6.2208586,-2.6102848,9.766721,-4.032146,-18.34415,29.03405,63.614807,0.94551593,-2.3921947,-6.372574
150,-46.87498092651367,-11.709616661071777,77.51182556152344,2.5351299579913613,2.200266193357368,-161.71082805278493,-8.533537,-7.4391403,11.282784,15.192732,-10.587527,6.9601183,-20.255459,-23.452599,-15.407478,72.97392,-10.579424,-4.451517,-1.0396279,-3.2757893,10.407055,1.2603015,9.477086,-9.803615,54.602406,6.2132845,-2.7391431,9.668229,-3.3375762,-18.33302,28.7809,63.705,1.0122133,-2.3819172,-6.307129
151,-47.444480895996094,-11.911375045776367,77.55640411376953,2.483081613173965,2.113274334206811,-161.14278137425472,-7.6243706,-7.645225,10.640159,14.5269985,-10.693675,6.888642,-21.144312,-23.316685,-15.559373,71.826904,-11.067142,-4.4581094,-1.4157728,-3.2430215,10.359916,0.94871026,9.640855,-9.750152,53.883255,6.1720862,-2.8640583,9.554626,-2.640013,-18.316628,28.551346,63.787563,1.06663,-2.366552,-6.267415
152,-48.01801681518555,-12.117916107177734,77.59076690673828,2.4512013361790737,2.032389453477031,-160.57895770705602,-6.7199683,-7.856318,10.000136,13.860057,-10.793475,6.817318,-21.986633,-23.214361,-15.754583,70.557434,-11.409511,-4.4304094,-1.770762,-3.2310998,10.3167715,0.63753617,9.8081255,-9.703821,53.155575,6.0875254,-2.980899,9.419212,-1.9442973,-18.293213,28.338224,63.87274,1.1028713,-2.35105,-6.2401724
153,-48.59025955200195,-12.3294095993042,77.6185073852539,2.4439448957887335,1.9571277477881182,-160.01496859266575,-5.8162827,-8.077371,9.356912,13.180231,-10.877266,6.7442536,-22.783344,-23.177954,-16.016842,69.178696,-11.577041,-4.380953,-2.1061969,-3.2458684,10.27809,0.32401383,9.980331,-9.666035,52.41559,5.9411163,-3.0881734,9.249524,-1.2491533,-18.262558,28.142193,63.95721,1.1081445,-2.3343256,-6.227735
154,-49.161251068115234,-12.525309562683105,77.63253784179688,2.4552736635721994,1.8868282403484478,-159.44808462638053,-4.918144,-8.302196,8.708336,12.499891,-10.952624,6.672268,-23.533222,-23.197079,-16.352055,67.68608,-11.611616,-4.3237314,-2.4266007,-3.2815733,10.242518,0.013792473,10.157602,-9.633426,51.655926,5.7432284,-3.1874473,9.052209,-0.5531584,-18.224953,27.965631,64.03879,1.0889902,-2.3153164,-6.23513
155,-49.737125396728516,-12.722762107849121,77.63812255859375,2.4784579132494122,1.8224139738390646,-158.88974651959694,-4.033778,-8.519796,8.067854,11.841554,-11.038658,6.601709,-24.235458,-23.202095,-16.703558,66.052185,-11.548873,-4.218536,-2.7252676,-3.330045,10.207399,-0.29095986,10.339002,-9.607059,50.890907,5.5257177,-3.2801316,8.849739,0.14138256,-18.179153,27.800928,64.12351,1.063498,-2.2942066,-6.253768
156,-50.31378936767578,-12.937121391296387,77.63674926757812,2.5063169060094577,1.764810625225492,-158.35120412453867,-3.1636264,-8.7221985,7.4479246,11.210946,-11.14835,6.5325356,-24.887808,-23.127073,-17.013262,64.24696,-11.423246,-4.0282264,-2.9956338,-3.3820264,10.170699,-0.58874106,10.523116,-9.588393,50.13582,5.320037,-3.3677623,8.6650095,0.83513343,-18.12202,27.63613,64.21434,1.0449938,-2.27097,-6.275144
157,-50.88332748413086,-13.151043891906738,77.62438201904297,2.5404250584855492,1.7154468709610868,-157.8302532633001,-2.3195248,-8.905375,6.8517985,10.626848,-11.2880535,6.464198,-25.489826,-22.98497,-17.276226,62.263832,-11.26605,-3.7522914,-3.2376192,-3.439249,10.134094,-0.88257724,10.710559,-9.581515,49.38543,5.12577,-3.4503634,8.501484,1.5270553,-18.051117,27.469769,64.31114,1.0410914,-2.2451596,-6.310843
158,-51.46162033081055,-13.361784934997559,77.602783203125,2.5831478667485848,1.672997564514555,-157.3223408131697,-1.4924111,-9.077723,6.272508,10.069264,-11.445299,6.3955555,-26.041327,-22.80541,-17.51651,60.116753,-11.052226,-3.4114833,-3.454387,-3.505504,10.097743,-1.1724887,10.901939,-9.584533,48.6356,4.929035,-3.5271525,8.348218,2.2164986,-17.966629,27.30485,64.41469,1.0394586,-2.216996,-6.361373
159,-52.044254302978516,-13.573212623596191,77.57246398925781,2.6327641715318455,1.6344203143503986,-156.83522661779222,-0.67669046,-9.23992,5.711202,9.540341,-11.622979,6.324434,-26.53993,-22.556295,-17.713715,57.80233,-10.7331085,-3.0044968,-3.643137,-3.5781705,10.057929,-1.4522961,11.095009,-9.589746,47.90174,4.743313,-3.5995073,8.206652,2.9002259,-17.86911,27.144693,64.53307,1.0345428,-2.1880784,-6.401395
160,-52.62317657470703,-13.783961296081543,77.52973937988281,2.6870883567975987,1.5966079698781492,-156.37691005846912,0.13431896,-9.393764,5.1689234,9.040354,-11.823108,6.2490206,-26.982435,-22.207487,-17.845335,55.316887,-10.258818,-2.5315459,-3.8015504,-3.6537125,10.01086,-1.7164527,11.285812,-9.58915,47.20046,4.582492,-3.6686516,8.078653,3.575344,-17.759846,26.991861,64.67469,1.0198174,-2.159787,-6.4055977
161,-53.20517349243164,-14.005412101745605,77.47571563720703,2.744313787263745,1.5579234631404884,-155.94741365341253,0.94408226,-9.537318,4.6409984,8.56697,-12.046672,6.16233,-27.36185,-21.763273,-17.899275,52.63664,-9.601496,-2.0045848,-3.92799,-3.727501,9.957414,-1.9662858,11.472261,-9.583541,46.532333,4.447053,-3.742441,7.9633565,4.2450104,-17.63989,26.838299,64.84117,0.9904138,-2.1331677,-6.3678555
162,-53.79883575439453,-14.230521202087402,77.41565704345703,2.805647792712815,1.5199573349809834,-155.5428537392288,1.7497644,-9.671699,4.1284704,8.118489,-12.291494,6.066513,-27.67624,-21.24712,-17.880072,49.765602,-8.796798,-1.4288093,-4.0245976,-3.801226,9.899462,-2.204923,11.654323,-9.575483,45.891243,4.332001,-3.8179176,7.860896,4.9112706,-17.51022,26.682795,65.02598,0.9484184,-2.1066635,-6.3014407
163,-54.399269104003906,-14.4566011428833,77.34844207763672,2.8756429180860326,1.4845311553904006,-155.1647263412308,2.5474565,-9.800655,3.640254,7.6966,-12.553575,5.9739466,-27.934155,-20.665106,-17.786453,46.746204,-7.896714,-0.7962163,-4.0940995,-3.881329,9.835469,-2.4308777,11.831954,-9.560165,45.284855,4.2426977,-3.8808663,7.774932,5.562577,-17.372303,26.545193,65.23309,0.9057994,-2.0809295,-6.210838
164,-55.00019073486328,-14.679774284362793,77.27349090576172,2.9590198902866764,1.4529899905724057,-154.81411816857255,3.3373806,-9.930991,3.184378,7.29546,-12.825301,5.8972435,-28.141716,-20.023592,-17.619505,43.61383,-6.950238,-0.09911815,-4.142591,-3.9751716,9.762781,-2.6397245,12.004665,-9.528911,44.719868,4.185998,-3.9168212,7.7088294,6.1972046,-17.227495,26.43687,65.45238,0.86216414,-2.0508397,-6.1002707
165,-55.60990524291992,-14.915387153625488,77.19109344482422,3.065965870421343,1.423378355470291,-154.49260267527723,3.961834,-10.064777,2.7943318,7.2475004,-13.280096,5.8423524,-28.289022,-19.333548,-17.34274,40.315205,-5.9131746,0.6820053,-4.167034,-4.093848,9.681923,-2.8334954,12.171442,-9.479793,44.19756,4.1605773,-3.91282,7.6643553,6.816741,-17.076448,26.362425,65.68846,0.82888734,-2.0203297,-5.965532
166,-56.220603942871094,-15.147212028503418,77.10041809082031,3.1929842468395515,1.3940736558721052,-154.1973425565378,4.5736823,-10.2077265,2.436626,7.237169,-13.7537985,5.8023205,-28.360508,-18.608246,-16.959608,36.83153,-4.7782454,1.525259,-4.168459,-4.231841,9.59544,-3.0127192,12.332168,-9.415201,43.71399,4.165072,-3.879744,7.639351,7.423391,-16.919271,26.314796,65.94085,0.8014157,-1.9893149,-5.8061414
167,-56.840431213378906,-15.390057563781738,76.99940490722656,3.3226914838801,1.3662876138904911,-153.92237569519835,5.1906867,-10.348048,2.0960813,7.227788,-14.229383,5.765596,-28.354614,-17.857243,-16.538424,33.24496,-3.646421,2.3755286,-4.1578407,-4.3707685,9.505562,-3.1742823,12.4892235,-9.33665,43.27051,4.2038727,-3.8392274,7.631678,8.005935,-16.759113,26.294527,66.20699,0.7646268,-1.9515843,-5.6324596
168,-57.46159362792969,-15.637389183044434,76.88894653320312,3.440041588421457,1.3406330224982665,-153.66087244670118,5.8111124,-10.47119,1.7600025,7.224317,-14.711986,5.7207155,-28.271128,-17.090723,-16.152102,29.633177,-2.6123302,3.1781888,-4.1470714,-4.494229,9.415872,-3.312614,12.645414,-9.244487,42.864845,4.2814307,-3.8126464,7.638437,8.554785,-16.59935,26.30371,66.4803,0.70519656,-1.9007615,-5.454291
169,-58.090328216552734,-15.894959449768066,76.7703628540039,3.5480481172991105,1.3138320765100566,-153.41577328218824,6.4389653,-10.582516,1.4282278,7.2302527,-15.207556,5.664456,-28.127382,-16.299229,-15.753782,25.985191,-1.7379969,3.8586173,-4.1357503,-4.6041045,9.329997,-3.423043,12.802924,-9.137018,42.491154,4.421452,-3.8072288,7.6611233,9.069411,-16.442064,26.345251,66.766716,0.6160488,-1.8281101,-5.2716193
170,-58.72307586669922,-16.148019790649414,76.6406021118164,3.6616657555537615,1.278956077560641,-153.17966655691228,7.0856113,-10.696834,1.0958945,7.235172,-15.707701,5.604261,-27.889507,-15.518203,-15.333475,22.226313,-0.94379056,4.4479547,-4.1288385,-4.7166443,9.25254,-3.5076551,12.962072,-9.0135975,42.149536,4.6130686,-3.8108928,7.699396,9.559316,-16.2867,26.416626,67.06042,0.5048506,-1.739201,-5.0791206
171,-59.36207580566406,-16.41064453125,76.50223541259766,3.78828022258248,1.2278045982256889,-152.92612629217172,7.7561226,-10.821751,0.742016,7.242989,-16.207823,5.545739,-27.495453,-14.812765,-15.019199,18.35667,-0.110103406,5.0670347,-4.1476793,-4.8440866,9.189838,-3.5726023,13.123371,-8.87774,41.84951,4.8094673,-3.815859,7.7481184,10.024489,-16.135387,26.513597,67.34589,0.38252902,-1.6496749,-4.879474
172,-60.00431823730469,-16.669340133666992,76.35475158691406,3.9409723739264506,1.1475107304327343,-152.62210362587044,8.462084,-10.972833,0.33789855,7.2508993,-16.6973,5.496184,-26.866674,-14.228573,-14.946975,14.339365,0.89851797,5.8589396,-4.22093,-5.003994,9.15154,-3.6234872,13.287542,-8.732624,41.599907,4.963085,-3.8144078,7.801585,10.470658,-15.990022,26.63031,67.6008,0.2581089,-1.5745145,-4.674506
173,-60.65428924560547,-16.930957794189453,76.19209289550781,4.153207770052344,1.0172536827435963,-152.2383057169298,9.229374,-11.190272,-0.14930372,7.255176,-17.182884,5.4676147,-25.881193,-13.747848,-15.138234,9.900236,2.2523508,6.9932055,-4.375774,-5.231427,9.151773,-3.6598837,13.456996,-8.580373,41.394375,5.058509,-3.805896,7.8617473,10.903224,-15.853049,26.778713,67.8209,0.13699238,-1.5145936,-4.458363
174,-61.309104919433594,-17.202219009399414,76.01216125488281,4.441034680558586,0.828092280213953,-151.768733553543,10.068271,-11.489147,-0.73232114,7.256701,-17.662687,5.4594045,-25.268906,-13.561015,-15.375489,6.5625744,3.078455,8.377203,-4.620582,-5.5437703,9.195458,-3.6768935,13.633961,-8.418561,41.22897,5.1214175,-3.7934275,7.928665,11.326548,-15.724627,26.957232,68.00956,0.012397825,-1.4626684,-4.2317495
175,-61.9753532409668,-17.471939086914062,75.82366180419922,4.748839946590335,0.6165480185116057,-151.25659797888707,10.93291,-11.796818,-1.3653896,7.261219,-18.11826,5.450957,-25.970678,-13.859531,-15.508379,6.3562555,2.3040233,9.765467,-4.9134994,-5.882208,9.256121,-3.6802843,13.810061,-8.24628,41.121605,5.1669855,-3.775708,7.9969764,11.735849,-15.607314,27.138968,68.16267,-0.12088462,-1.4214292,-4.0066752
176,-62.64686584472656,-17.744731903076172,75.64041900634766,5.0074117973355285,0.43025110649110165,-150.76133446477746,11.764007,-12.028486,-1.9795988,7.276166,-18.534208,5.4197373,-26.54793,-14.162769,-15.944944,6.2038317,1.5629928,10.9107685,-5.198422,-6.178361,9.300634,-3.6727533,13.987637,-8.061153,41.086323,5.2063594,-3.7515743,8.060149,12.113324,-15.494382,27.303032,68.29022,-0.26724663,-1.3945096,-3.7960687
177,-63.31937789916992,-18.015789031982422,75.47003936767578,5.174808991835813,0.30483052543030087,-150.31635497441948,12.522874,-12.133472,-2.5297143,7.306593,-18.931215,5.3564596,-27.062386,-14.406845,-16.797329,6.1682124,0.81514955,11.787457,-5.4128118,-6.341916,9.308589,-3.7110124,14.089034,-7.888659,41.179214,5.2743726,-3.7193775,8.133509,12.4966545,-15.432004,27.39687,68.353035,-0.4490998,-1.384274,-3.5922244
178,-63.99391174316406,-18.284738540649414,75.31837463378906,5.254968334092758,0.21867706717504182,-149.90985935078888,13.233444,-12.122796,-3.0272949,7.350575,-19.313637,5.26714,-27.464424,-14.571538,-18.020607,6.1490445,0.12543717,12.526899,-5.6145763,-6.435858,9.298272,-3.7206528,14.211519,-7.6769924,41.32019,5.3372574,-3.6798832,8.195332,12.822091,-15.360707,27.507034,68.40923,-0.64606285,-1.39101,-3.394229
179,-64.663330078125,-18.550180435180664,75.17634582519531,5.310747809859361,0.15642121751996516,-149.52932687778448,13.9146805,-12.072249,-3.492086,7.3999906,-19.643415,5.158346,-27.720697,-14.700916,-19.385538,6.1171665,-0.4405744,13.132262,-5.7615843,-6.4717317,9.265413,-3.7597022,14.275732,-7.5170035,41.579285,5.380149,-3.639283,8.285767,13.158764,-15.32422,27.5563,68.41903,-0.84117657,-1.4037123,-3.2165122
180,-65.33016204833984,-18.82110595703125,75.04338073730469,5.359304144958887,0.10639233045066368,-149.18511498616044,14.577845,-12.005429,-3.918789,7.4522953,-19.887743,5.0272417,-27.826492,-14.781003,-20.666704,6.1062236,-0.8556199,13.590817,-5.971068,-6.5614085,9.227232,-3.668383,14.437622,-7.238272,41.79618,5.36842,-3.60649,8.336433,13.3611355,-15.237243,27.692516,68.48729,-0.995884,-1.4184018,-3.075734
181,-65.99401092529297,-19.086071014404297,74.92031860351562,5.4229121585259765,0.0642004806935522,-148.87385281550254,15.228088,-11.950015,-4.316607,7.5059295,-20.04318,4.8775897,-27.711319,-14.838599,-22.019241,6.0941253,-1.1191531,13.949675,-6.137961,-6.663093,9.168547,-3.5698574,14.591259,-6.9997816,42.10938,5.2855544,-3.5920706,8.415817,13.548516,-15.15157,27.800922,68.53906,-1.1096224,-1.4315836,-2.974206
182,-66.65998840332031,-19.358205795288086,74.8077163696289,5.484904821790298,0.03508539801305114,-148.5940783324533,15.858799,-11.887456,-4.6809134,7.563232,-20.1256,4.708714,-27.397768,-14.850036,-23.49079,6.0805035,-1.2460768,14.192698,-6.255089,-6.738365,9.093349,-3.4998722,14.696326,-6.794165,42.548553,5.1664505,-3.591612,8.520911,13.740386,-15.092753,27.860264,68.54817,-1.2029104,-1.4447123,-2.9045103
183,-67.32254028320312,-19.640827178955078,74.7071762084961,5.5017535820058585,0.032176384324489535,-148.35968415273098,16.456776,-11.768684,-4.9843874,7.626739,-20.133814,4.510013,-27.005283,-14.721287,-24.69629,6.0720105,-1.2136195,14.203842,-6.3495436,-6.7576942,8.999202,-3.390186,14.787636,-6.5834136,43.032127,5.024149,-3.581223,8.628028,13.883941,-15.043508,27.905321,68.559166,-1.2761005,-1.4563745,-2.8660169
184,-67.99542236328125,-19.938613891601562,74.60967254638672,5.436012157098167,0.07407259208796568,-148.18183808090637,17.004774,-11.550583,-5.201425,7.6996093,-20.067848,4.2708426,-26.665602,-14.374028,-25.245138,6.079075,-1.0054733,13.873888,-6.4248366,-6.6936383,8.876765,-3.2165895,14.891736,-6.3617682,43.524452,4.8684263,-3.539107,8.718702,13.955801,-14.988395,27.945938,68.59431,-1.3316064,-1.4634944,-2.8562899
185,-68.67186737060547,-20.24633026123047,74.5270004272461,5.250731848271255,0.17112751483192631,-148.0996417697559,17.17559,-11.227975,-5.216681,8.456992,-20.29763,3.977342,-26.39365,-13.730396,-24.888945,6.143833,-0.62364143,13.125797,-6.408445,-6.4859304,8.719304,-3.0414038,14.966288,-6.172565,44.099293,4.6915803,-3.4523873,8.815133,14.000234,-14.949289,27.94251,68.6201,-1.3777382,-1.4589434,-2.8822465
186,-69.34998321533203,-20.54531478881836,74.47781372070312,4.920834361809127,0.3354199094133613,-148.12066220475964,16.930729,-10.771721,-5.024041,9.963409,-20.863443,3.623227,-26.166973,-12.815969,-23.883228,6.3136363,-0.113657385,12.02251,-6.315891,-6.1196246,8.522203,-2.8229795,15.0308895,-5.980662,44.711063,4.487755,-3.333088,8.909232,13.980869,-14.915387,27.920229,68.66263,-1.4103711,-1.4491153,-2.9389174
187,-70.03309631347656,-20.83051300048828,74.46326446533203,4.488678196400908,0.5294921099328131,-148.1518122799463,16.591076,-10.193414,-4.79734,11.60264,-21.411566,3.2302024,-25.938875,-11.774887,-22.62535,6.457628,0.5590039,10.698064,-6.2122498,-5.6334224,8.309085,-2.5921383,15.079585,-5.8217816,45.378815,4.289973,-3.2093184,8.998661,13.935702,-14.889954,27.854567,68.69445,-1.4250658,-1.4369929,-3.022671
188,-70.71952819824219,-21.135387420654297,74.45088958740234,3.951836462491839,0.7331810338161036,-148.1230746476435,16.142548,-9.479396,-4.6164193,13.435413,-21.950882,2.8059802,-25.730484,-10.68724,-21.518898,6.550564,1.3672259,9.271497,-6.144786,-5.017118,8.100467,-2.3663177,15.107837,-5.7270126,46.10224,4.128131,-3.1072478,9.0798,13.888188,-14.875439,27.723457,68.69776,-1.4166032,-1.4270873,-3.1262803
189,-71.41416931152344,-21.44925308227539,74.4512939453125,3.2643092570942125,0.9672181863451826,-148.0116635451365,15.562984,-8.571283,-4.510133,15.473849,-22.533958,2.3409722,-25.629517,-9.469585,-20.48813,6.61383,2.3539512,7.5218,-6.159854,-4.223297,7.878684,-2.1275098,15.125576,-5.691662,46.870728,3.9910846,-3.0391703,9.136543,13.821798,-14.868552,27.535751,68.68148,-1.3957886,-1.4187558,-3.256138
190,-72.11863708496094,-21.74871063232422,74.47412872314453,2.438078315183691,1.2274888155937116,-147.8398615089312,14.894054,-7.4889674,-4.4660945,17.660885,-23.128042,1.8294016,-25.597425,-8.107563,-19.419916,6.6562104,3.545641,5.485436,-6.18119,-3.2700276,7.672826,-1.9175518,15.1518,-5.752596,47.694855,3.8585174,-2.9870613,9.165117,13.775325,-14.860078,27.207716,68.6051,-1.4059877,-1.4113462,-3.4048226
191,-72.8311538696289,-22.051645278930664,74.49748992919922,1.5953387356273911,1.4620783303479137,-147.60014134682947,14.228012,-6.38148,-4.5071497,19.904161,-23.581877,1.2934961,-26.122961,-7.041527,-18.54476,8.06926,4.0886135,3.6609254,-6.2303934,-2.2931838,7.4955373,-1.7158576,15.17385,-5.882073,48.581493,3.7582355,-2.934168,9.208254,13.736507,-14.84904,26.840555,68.5155,-1.357974,-1.4080025,-3.5693827
192,-73.56416320800781,-22.369062423706055,74.5020980834961,0.8597359830732882,1.6214564152521964,-147.29529022042757,13.637383,-5.4001365,-4.634524,22.134705,-23.757719,0.7591663,-26.709438,-6.3696585,-18.197517,10.064921,4.224448,2.5120087,-6.3342505,-1.4269633,7.3772407,-1.4868191,15.169804,-5.998077,49.50495,3.7450233,-2.864813,9.287464,13.675292,-14.838982,26.521334,68.452736,-1.1956894,-1.4126581,-3.7441964
193,-74.3084716796875,-22.68547821044922,74.49547576904297,0.25547514083948253,1.6909671727019218,-146.89488774783277,13.154532,-4.567813,-4.8835397,24.323029,-23.661514,0.18818377,-26.832596,-6.092252,-18.652472,11.671039,4.468864,2.3546262,-6.5062,-0.69081724,7.325709,-1.2467878,15.129807,-6.1173096,50.50168,3.8311455,-2.786942,9.41121,13.61048,-14.831856,26.225922,68.402664,-0.8748531,-1.432898,-3.947204
194,-75.04578399658203,-23.012311935424805,74.50444030761719,-0.2887975881113243,1.70970894851714,-146.42511864086012,12.705238,-3.8028648,-5.2199125,26.53784,-23.368155,-0.4161683,-26.67246,-6.1102557,-19.663204,13.09641,4.784984,2.8208492,-6.7224274,-0.0007920326,7.316186,-1.0017447,15.046228,-6.2548213,51.569813,4.0012846,-2.705265,9.568781,13.538199,-14.830875,25.926132,68.36131,-0.4396234,-1.4657657,-4.177186
195,-75.76908111572266,-23.33832359313965,74.52903747558594,-0.7890959953686058,1.7042322948896178,-145.97024001092876,12.201676,-3.1052768,-5.540135,28.86332,-22.84418,-0.96420205,-26.429125,-6.270151,-20.78793,14.532629,4.9754167,3.3632214,-6.915358,0.6533654,7.331844,-0.73069257,14.922399,-6.38381,52.64622,4.2463684,-2.599435,9.7557535,13.419623,-14.840604,25.669077,68.36202,0.04047845,-1.4989744,-4.3944397
196,-76.47953796386719,-23.670021057128906,74.56660461425781,-1.245770865251813,1.6913346679898182,-145.60347389927676,11.576829,-2.4927518,-5.75339,31.364958,-22.038609,-1.3671725,-26.267202,-6.39163,-21.599836,16.073767,4.856237,3.489487,-7.0233426,1.2673187,7.360478,-0.41692474,14.760552,-6.483476,53.670925,4.5567355,-2.4489121,9.96815,13.225405,-14.861056,25.489828,68.43072,0.48834163,-1.5185616,-4.559068
197,-77.18508911132812,-24.015300750732422,74.611572265625,-1.6219705219094736,1.6565830535486314,-145.35260964787219,10.825273,-2.0270123,-5.8132324,34.090824,-20.860931,-1.5198358,-26.24036,-6.4281974,-21.95944,17.76317,4.33381,3.0954356,-7.0261607,1.8029971,7.4078083,-0.055933673,14.548921,-6.519855,54.66005,4.9849715,-2.22868,10.233638,12.938822,-14.89301,25.390009,68.59203,0.9202015,-1.5273395,-4.6518984
198,-77.88591766357422,-24.355661392211914,74.66854095458984,-1.9167685004564259,1.5911418200582252,-145.17045188496456,9.989164,-1.6914607,-5.77367,36.97838,-19.347424,-1.4985774,-26.247398,-6.433668,-22.104065,19.489935,3.5555174,2.4756908,-6.9657927,2.26409,7.476246,0.34468436,14.285398,-6.510073,55.635483,5.5203342,-1.9549648,10.543583,12.5801935,-14.937305,25.352295,68.82389,1.3621562,-1.5294032,-4.6972985
199,-78.5784912109375,-24.697402954101562,74.7310562133789,-2.1820221681122858,1.518509093120931,-145.01708789431328,9.075937,-1.3942544,-5.7008967,39.933315,-17.646782,-1.4909384,-26.202248,-6.366256,-22.181135,21.06396,2.6972995,1.7520256,-6.867629,2.7035537,7.5495133,0.77569216,13.991286,-6.518226,56.55177,6.0542984,-1.6700404,10.841407,12.164133,-14.994957,25.39028,69.09374,1.7641938,-1.5124595,-4.722709
200,-79.26612091064453,-25.02828598022461,74.79519653320312,-2.4752413089331005,1.4655840644189462,-144.85763533269622,8.092362,-1.0448445,-5.669049,42.869164,-15.914294,-1.6875929,-26.029888,-6.2120857,-22.331432,22.331985,1.9018774,1.0352715,-6.7525053,3.1749685,7.6114964,1.232284,13.699994,-6.609,57.357132,6.474926,-1.4179169,11.0694475,11.707331,-15.064077,25.516611,69.36415,2.0752711,-1.4643171,-4.7539115
201,-79.95540618896484,-25.359703063964844,74.86720275878906,-2.828188788426008,1.4436248342491407,-144.6985994800753,7.014316,-0.62513405,-5.722416,45.834785,-14.179826,-2.0714896,-25.717484,-5.9515743,-22.581354,23.26713,1.1520505,0.2617734,-6.613752,3.7024353,7.652957,1.7282466,13.432587,-6.7953615,58.03633,6.7471848,-1.2017002,11.227078,11.209027,-15.137042,25.740679,69.636635,2.2739422,-1.3723892,-4.7910047
202,-80.64655303955078,-25.67669105529785,74.9444580078125,-3.208733525856888,1.4395942272625244,-144.5577408742301,5.841864,-0.19408996,-5.82054,48.868793,-12.376858,-2.5819707,-25.31828,-5.6020956,-22.851046,23.973732,0.37335187,-0.6023254,-6.4366493,4.2481856,7.682353,2.264575,13.189525,-7.048595,58.61097,6.9247985,-1.0023189,11.336158,10.6626005,-15.206982,26.052723,69.924065,2.3894718,-1.2460921,-4.820448
203,-81.32402038574219,-25.97356414794922,75.025146484375,-3.5796884352216134,1.44436366176903,-144.4194894080148,4.6060953,0.21911648,-5.923108,51.903904,-10.537796,-3.33329,-24.850367,-5.2229366,-23.123264,24.500444,-0.3956006,-1.4056059,-6.2274485,4.7731075,7.709672,2.8164945,12.9721575,-7.3698463,59.087547,7.0315766,-0.8318511,11.374792,10.075647,-15.2752495,26.435806,70.20838,2.4451828,-1.1073993,-4.84784
204,-81.99574279785156,-26.26982307434082,75.11449432373047,-3.8990988064533485,1.44841591270971,-144.2692476800178,3.3329153,0.5887062,-5.990533,54.882706,-8.697117,-4.421175,-24.329594,-4.8763447,-23.381569,24.891932,-1.1136886,-1.9956819,-5.9903903,5.235245,7.746251,3.3573394,12.781656,-7.7628236,59.472298,7.0889354,-0.7021149,11.320241,9.457416,-15.346642,26.87403,70.46776,2.4682446,-0.9794906,-4.877222
205,-82.6562728881836,-26.557327270507812,75.20872497558594,-4.1504652679898255,1.4571452551188244,-144.10100179094707,1.9775211,0.85541195,-6.1014314,57.8843,-6.6853356,-6.097409,-23.75244,-4.5806456,-23.630089,25.131775,-1.776522,-2.3051126,-5.725193,5.6191554,7.793083,3.876807,12.623981,-8.255583,59.74982,7.082334,-0.61289155,11.14452,8.810367,-15.422177,27.381256,70.68058,2.433394,-0.8522093,-4.906416
206,-83.30977630615234,-26.85167121887207,75.31124114990234,-4.35335380170743,1.473257754395486,-143.92536492437824,0.52997595,1.0165865,-6.2679863,60.95675,-4.5748177,-8.237782,-23.115835,-4.3105288,-23.872995,25.214533,-2.4105828,-2.4232268,-5.425851,5.943589,7.8449764,4.3851924,12.50047,-8.83906,59.924458,7.006199,-0.5588065,10.866394,8.131313,-15.498484,27.95808,70.85843,2.3384008,-0.71913046,-4.932601
207,-83.94798278808594,-27.138837814331055,75.41118621826172,-4.52530246395102,1.4844179815917111,-143.75079447510277,-0.94488114,1.1896642,-6.3265085,64.00173,-2.74298,-10.329549,-22.430994,-4.053243,-24.10314,25.188185,-3.0113146,-2.434955,-5.088396,6.214709,7.9048543,4.8922625,12.419713,-9.462257,60.023495,6.8928604,-0.54441273,10.528416,7.423651,-15.560675,28.56153,71.023346,2.2354913,-0.60212153,-4.959955
208,-84.57066345214844,-27.420595169067383,75.51407623291016,-4.6940373356861445,1.47872060357909,-143.58467337110886,-2.3817499,1.5677978,-6.086623,66.88956,-1.5341817,-11.815773,-21.703838,-3.7834144,-24.319641,25.086996,-3.5677547,-2.4273407,-4.7298374,6.4898143,7.9691825,5.401304,12.3172455,-10.064731,60.100914,6.7871995,-0.57432175,10.194037,6.7002854,-15.6476755,29.180735,71.18336,2.198807,-0.5194023,-4.9930553
209,-85.18246459960938,-27.70990753173828,75.61730194091797,-4.879887685624769,1.4553355787146975,-143.42568401324624,-3.763673,2.3269062,-5.4304886,69.59962,-1.0372748,-12.540875,-20.929676,-3.4791996,-24.534925,24.899225,-4.07342,-2.4045255,-4.337149,6.780773,8.044663,5.9129634,12.213299,-10.665909,60.138733,6.6816154,-0.67312497,9.84814,5.9570823,-15.74698,29.801975,71.347885,2.2446496,-0.49341482,-5.031128
210,-85.78536987304688,-27.999958038330078,75.72014617919922,-5.074411630489651,1.419454862024137,-143.27193747692462,-5.118317,3.4204285,-4.471454,72.189995,-1.0531746,-12.743405,-20.101309,-3.144326,-24.751934,24.599092,-4.5284953,-2.3296063,-3.9122605,7.0830464,8.128022,6.422195,12.105265,-11.284831,60.12859,6.5616555,-0.83027184,9.474201,5.1913886,-15.861117,30.449146,71.50643,2.3452258,-0.50757,-5.0721936
211,-86.37945556640625,-28.302961349487305,75.82537841796875,-5.26010172918573,1.3675526342142759,-143.12914862782438,-6.440867,4.7185416,-3.360148,74.6253,-1.4848139,-12.45981,-19.222288,-2.7932472,-24.952213,24.20132,-4.932237,-2.2282817,-3.4644442,7.3740573,8.216307,6.934749,11.988554,-11.86553,60.096107,6.4539247,-0.9988821,9.102212,4.417295,-15.98547,31.09707,71.64143,2.4551773,-0.5261979,-5.116924
212,-86.96847534179688,-28.60495376586914,75.93640899658203,-5.416774501687462,1.2961079400284155,-143.0027972507614,-7.733144,6.057504,-2.2431366,76.86676,-2.2381241,-11.750998,-18.30062,-2.446471,-25.115877,23.731203,-5.2893934,-2.1250365,-3.002697,7.6272316,8.30653,7.4569707,11.858113,-12.351463,60.067486,6.3870077,-1.132691,8.762979,3.637984,-16.11347,31.731312,71.74876,2.5399516,-0.5144387,-5.1675835
213,-87.5570297241211,-28.9089298248291,76.05175018310547,-5.5345015716833545,1.197466043902425,-142.8948501565328,-8.974337,7.4393835,-1.0899245,78.89908,-3.567333,-10.46588,-17.329857,-2.1155047,-25.230925,23.197113,-5.6030707,-2.01958,-2.524731,7.830003,8.400425,7.9955316,11.708733,-12.7239685,60.041855,6.377165,-1.2255296,8.447435,2.8463519,-16.241795,32.370567,71.84342,2.6046774,-0.45419532,-5.227954
214,-88.13700866699219,-29.216176986694336,76.17234802246094,-5.619381474316936,1.0744500167376283,-142.80219403528872,-10.151054,8.881126,0.12608945,80.73845,-5.4613776,-8.6892805,-16.311193,-1.7981018,-25.30574,22.594898,-5.874922,-1.8991967,-2.0299115,7.992909,8.498983,8.546983,11.539514,-13.011453,60.01027,6.4089184,-1.3007493,8.146452,2.0370064,-16.37018,33.023865,71.93256,2.666952,-0.36754167,-5.297224
215,-88.71566009521484,-29.525619506835938,76.2973403930664,-5.677518222537747,0.9416755575367576,-142.71937909839482,-11.29567,10.247728,1.2817352,82.38335,-7.400591,-6.813461,-15.2597275,-1.4926711,-25.355286,21.927004,-6.1073565,-1.769042,-1.5325643,8.123843,8.596784,9.102208,11.354001,-13.229018,59.987396,6.462068,-1.3564242,7.890946,1.2206997,-16.496986,33.650784,71.99752,2.7007737,-0.27928212,-5.3706703
216,-89.2957992553711,-29.83515167236328,76.42758178710938,-5.720296960647396,0.8138792095384616,-142.64131750398167,-12.456098,11.459627,2.29205,83.8347,-8.835638,-5.1750216,-14.185836,-1.1877531,-25.397015,21.182293,-6.2958574,-1.6364287,-1.043039,8.235056,8.689524,9.649556,11.159114,-13.395959,59.987663,6.514939,-1.390028,7.711373,0.3952067,-16.620968,34.23365,72.0304,2.707477,-0.2152131,-5.4438148
217,-89.8747787475586,-30.13623046875,76.5586166381836,-5.749472072779307,0.6912954786658221,-142.57332652279587,-13.667859,12.553213,3.1962802,85.10216,-9.552851,-3.7570004,-13.080158,-0.8748984,-25.430296,20.336445,-6.4269347,-1.5044645,-0.5558275,8.323591,8.776603,10.194944,10.957876,-13.506872,60.006847,6.5589285,-1.3949335,7.630853,-0.4417066,-16.742348,34.77904,72.03791,2.674104,-0.18262795,-5.5190616
218,-90.4500961303711,-30.449872970581055,76.69307708740234,-5.7611870436004144,0.5671651458590304,-142.51634152419052,-14.909484,13.573667,4.053225,86.184,-9.851968,-2.387506,-11.938735,-0.5592617,-25.44831,19.397182,-6.504458,-1.3700868,-0.06595563,8.384484,8.861318,10.742975,10.74976,-13.557515,60.037003,6.6047535,-1.3741232,7.627051,-1.2913045,-16.861588,35.301575,72.025505,2.6135929,-0.16783123,-5.5973606
219,-91.02015686035156,-30.76753044128418,76.82034301757812,-5.761756047993165,0.4453870828947598,-142.4583847054628,-16.145905,14.482102,4.8256116,87.05267,-9.940891,-1.1467052,-10.773004,-0.24350962,-25.460546,18.389769,-6.5452003,-1.2305759,0.41234642,8.427717,8.943359,11.283859,10.53654,-13.563637,60.086407,6.6613097,-1.3398231,7.6619163,-2.1388252,-16.978159,35.759018,71.972305,2.524782,-0.16458124,-5.6725273
220,-91.58645629882812,-31.08081817626953,76.94021606445312,-5.755792427439362,0.33069005694080683,-142.38632666374255,-17.34693,15.222165,5.4676886,87.680336,-10.023219,-0.13033803,-9.598378,0.06601722,-25.477425,17.345709,-6.569041,-1.0819358,0.86774725,8.461206,9.021528,11.805182,10.322724,-13.545497,60.16397,6.735275,-1.3040823,7.6976004,-2.9739962,-17.092815,36.112278,71.86114,2.4135792,-0.1668638,-5.7383733
221,-92.14971160888672,-31.393369674682617,77.05348205566406,-5.743231903261806,0.2224227819058412,-142.2923278917622,-18.517946,15.775612,5.9693775,88.052734,-10.051207,0.58903056,-8.405184,0.37043184,-25.504372,16.249277,-6.571436,-0.92005885,1.297878,8.484022,9.0981245,12.306535,10.110578,-13.502776,60.267612,6.8383994,-1.2624121,7.7351036,-3.799884,-17.20638,36.35073,71.690704,2.2727785,-0.17235008,-5.7963147
222,-92.708740234375,-31.715017318725586,77.15869140625,-5.719891797272329,0.11940048941196008,-142.18460313316314,-19.679838,16.164257,6.3646955,88.18412,-9.934728,1.0734661,-7.1918755,0.6688144,-25.53492,15.094333,-6.54555,-0.74573356,1.709577,8.489457,9.172337,12.794485,9.900078,-13.428681,60.3924,6.9617124,-1.2106715,7.790184,-4.6148534,-17.319723,36.484505,71.465416,2.0920558,-0.18420283,-5.8484554
223,-93.26950073242188,-32.03902053833008,77.25658416748047,-5.684266686838953,0.026036490424876737,-142.07325550149082,-20.826069,16.380741,6.6646585,88.08997,-9.813101,1.4171786,-5.9842806,0.95183134,-25.562551,13.923853,-6.507788,-0.56257325,2.1094162,8.47647,9.239314,13.26672,9.693247,-13.336256,60.540565,7.0827074,-1.1616403,7.846563,-5.42438,-17.435947,36.549435,71.19217,1.923381,-0.20593436,-5.889625
224,-93.82564544677734,-32.36620330810547,77.3431625366211,-5.635801406719859,-0.053329969599542136,-141.96833586508922,-21.948692,16.419167,6.8763146,87.78556,-9.82828,1.712795,-4.8153934,1.2085165,-25.581287,12.797881,-6.481091,-0.37539008,2.5027056,8.445629,9.294396,13.721761,9.492646,-13.238114,60.713577,7.178311,-1.1280162,7.887648,-6.224155,-17.558348,36.56584,70.86858,1.8025116,-0.24050021,-5.9141684
225,-94.38790893554688,-32.70547866821289,77.42021942138672,-5.572796760726745,-0.11615690443466262,-141.86987451618342,-23.05374,16.230785,6.9655867,87.258514,-10.058231,1.9645339,-3.6926682,1.4338583,-25.592712,11.727931,-6.469646,-0.18536931,2.8910937,8.395259,9.333971,14.160196,9.30073,-13.131479,60.914616,7.2342806,-1.1240995,7.9013553,-7.015382,-17.690706,36.53709,70.48554,1.75299,-0.28031218,-5.9167633
226,-94.92876434326172,-33.03387451171875,77.48063659667969,-5.498175865174394,-0.16539876397838035,-141.77362301212497,-24.142666,15.838279,6.935891,86.50521,-10.412417,2.130116,-2.6001534,1.6361905,-25.601105,10.687484,-6.463739,0.009457888,3.2722466,8.327419,9.362836,14.583693,9.11702,-13.011663,61.13938,7.265091,-1.1394031,7.8981895,-7.799459,-17.834652,36.453266,70.0463,1.7529384,-0.3288078,-5.900872
227,-95.47459411621094,-33.36385726928711,77.529052734375,-5.4191773383884705,-0.20477521803749468,-141.68367743917648,-25.200071,15.344429,6.849526,85.55391,-10.782424,2.2334168,-1.5275574,1.8285708,-25.605692,9.660325,-6.4598284,0.20759237,3.6463778,8.249327,9.387892,14.991477,8.939133,-12.889301,61.379456,7.2910953,-1.1500223,7.8963156,-8.567774,-17.988781,36.314693,69.555466,1.7709652,-0.3977323,-5.874997
228,-96.01300811767578,-33.70196533203125,77.56668853759766,-5.342895158305731,-0.2377000618776913,-141.60409065883417,-26.211622,14.848542,6.769842,84.43281,-11.059029,2.294829,-0.4740063,2.0187955,-25.6052,8.651145,-6.4604545,0.4071115,4.015041,8.167429,9.41576,15.380009,8.765338,-12.776521,61.628628,7.3316956,-1.1316725,7.9145947,-9.333679,-18.152428,36.154057,69.039185,1.8099921,-0.5019003,-5.848159
229,-96.55245971679688,-34.04349899291992,77.59493255615234,-5.2689386989909375,-0.2643889574574452,-141.53777530421976,-27.18213,14.321624,6.669075,83.13124,-11.243283,2.2990603,0.5668904,2.2108288,-25.59805,7.6434584,-6.4584002,0.6057651,4.379921,8.081593,9.446206,15.748792,8.593545,-12.671664,61.8858,7.3923807,-1.0707611,7.958718,-10.09305,-18.32476,35.957798,68.49075,1.869272,-0.65787315,-5.812738
230,-97.08759307861328,-34.381046295166016,77.61184692382812,-5.195635906466989,-0.28331219645685757,-141.48283755802177,-28.113365,13.737309,6.5242286,81.64142,-11.38576,2.2473154,1.3881692,2.2989132,-25.59207,7.121795,-6.7068653,0.8074348,4.73978,7.990497,9.476151,16.097214,8.423587,-12.568819,62.159416,7.4629383,-0.98465323,8.019433,-10.846784,-18.506872,35.721027,67.90721,1.9517817,-0.8538493,-5.767446
231,-97.62109375,-34.72286605834961,77.61589050292969,-5.126183740511519,-0.2946151276020715,-141.43479043967645,-28.98349,13.189179,6.4115953,79.98415,-11.455692,2.1782916,2.0046556,2.2924125,-25.590681,7.057265,-7.1923766,1.0124631,5.0893316,7.8987803,9.507277,16.428484,8.255721,-12.472363,62.444202,7.54054,-0.88897604,8.0910425,-11.594284,-18.696203,35.46119,67.299385,2.0388086,-1.0608529,-5.7300787
232,-98.15170288085938,-35.06821823120117,77.6070785522461,-5.063239637650845,-0.29791061384219325,-141.38839424312837,-29.773602,12.763464,6.4097304,78.1813,-11.419274,2.1241257,2.61138,2.2905178,-25.590807,6.994025,-7.6762247,1.2184856,5.422609,7.809432,9.540549,16.745298,8.090351,-12.384774,62.73743,7.6237364,-0.80115,8.168549,-12.342757,-18.888313,35.20621,66.685684,2.1208863,-1.2500303,-5.7190714
233,-98.679443359375,-35.41437530517578,77.58551788330078,-5.006845295892612,-0.2933411762867971,-141.3433392771166,-30.486702,12.464549,6.528935,76.232635,-11.237004,2.0532825,3.2085485,2.2934904,-25.592516,6.931182,-8.157072,1.4254094,5.734144,7.7216787,9.577875,17.047606,7.9278617,-12.305195,63.042976,7.7221746,-0.7256866,8.251578,-13.096099,-19.079422,34.946606,66.0675,2.1921847,-1.419161,-5.7385817
234,-99.20415496826172,-35.76590347290039,77.55743408203125,-4.956045389369834,-0.28041742086618876,-141.3014620535559,-31.128473,12.2428665,6.7339582,74.12448,-10.9355545,1.9536821,3.7962334,2.3010643,-25.595234,6.865846,-8.633043,1.6323998,6.027517,7.633751,9.617229,17.33482,7.768631,-12.231739,63.360027,7.8335,-0.6527962,8.342609,-13.857278,-19.268324,34.683105,65.441895,2.2694302,-1.5801473,-5.779781
235,-99.72891235351562,-36.12003707885742,77.51695251464844,-4.910982256871611,-0.25776693842567916,-141.2607710734925,-31.688787,12.097232,7.0385995,71.860855,-10.582557,1.8822478,4.374539,2.3132443,-25.601154,6.799153,-9.107745,1.8415009,6.3065,7.5457706,9.653315,17.608889,7.611306,-12.1619,63.68289,7.9384117,-0.58109426,8.441121,-14.619364,-19.453363,34.424038,64.82536,2.3333054,-1.7356546,-5.841726
236,-100.25009155273438,-36.47520065307617,77.46526336669922,-4.8665550107189715,-0.22400197383585044,-141.2194573830828,-32.15679,12.022855,7.4609003,69.445694,-10.246555,1.8963108,4.941223,2.3228045,-25.611994,6.735872,-9.587244,2.0556502,6.5729933,7.453009,9.6807785,17.871922,7.452932,-12.092741,64.006805,8.017088,-0.5089206,8.546623,-15.364088,-19.63159,34.166378,64.21795,2.3508356,-1.8807762,-5.923982
237,-100.76988983154297,-36.83290481567383,77.40171813964844,-4.823725714486968,-0.17951571268990685,-141.1789541481993,-32.53193,12.05674,8.047006,66.89287,-9.940948,2.0391695,5.494682,2.3296595,-25.62947,6.681772,-10.074447,2.276851,6.8288627,7.3561673,9.700752,18.121172,7.291907,-12.022686,64.33957,8.05904,-0.43501964,8.672744,-16.110096,-19.803452,33.931625,63.63494,2.3320577,-2.01649,-6.0351396
238,-101.29042053222656,-37.20217514038086,77.33316802978516,-4.7845620521975905,-0.12436719458023708,-141.13896291379004,-32.815056,12.170969,8.782324,64.19127,-9.630892,2.2577803,6.035541,2.3357923,-25.65338,6.6328096,-10.565895,2.5047739,7.06995,7.2574897,9.714636,18.356363,7.127667,-11.951616,64.6819,8.077004,-0.3606525,8.815717,-16.85888,-19.968237,33.712452,63.070072,2.2846575,-2.1432884,-6.173174
239,-101.81040954589844,-37.57041549682617,77.25458526611328,-4.752059484564257,-0.05695553266255988,-141.09450053034283,-33.003426,12.276418,9.581518,61.310867,-9.313819,2.4690816,6.5674243,2.347218,-25.683937,6.580101,-11.051948,2.7383246,7.2914586,7.161189,9.718109,18.582588,6.960432,-11.879634,65.016815,8.087343,-0.28806087,8.949756,-17.584124,-20.121702,33.482483,62.5131,2.195503,-2.2619863,-6.32162
240,-102.3289566040039,-37.93180465698242,77.1661376953125,-4.727302758359784,0.023619667844789204,-141.04113798361763,-33.095745,12.292426,10.354845,58.21687,-8.983995,2.598607,7.091685,2.3654387,-25.720608,6.52148,-11.526337,2.9762497,7.4913287,7.066373,9.708391,18.804646,6.793543,-11.808258,65.32631,8.105483,-0.21921962,9.049271,-18.295141,-20.262342,33.259186,61.98208,2.0993009,-2.3746665,-6.464731
