unveil-humanoid-operators/unveil-humanoid-operators.github.io/feature-analysis-animation/data/feature_matrix_instances/weight_root_translate_peak_vel_walking_A127.csv
Frame,root_translateX,root_translateY,root_translateZ,root_rotateX,root_rotateY,root_rotateZ,left_hip_pitch_joint_dof,left_hip_roll_joint_dof,left_hip_yaw_joint_dof,left_knee_joint_dof,left_ankle_pitch_joint_dof,left_ankle_roll_joint_dof,right_hip_pitch_joint_dof,right_hip_roll_joint_dof,right_hip_yaw_joint_dof,right_knee_joint_dof,right_ankle_pitch_joint_dof,right_ankle_roll_joint_dof,waist_yaw_joint_dof,waist_roll_joint_dof,waist_pitch_joint_dof,left_shoulder_pitch_joint_dof,left_shoulder_roll_joint_dof,left_shoulder_yaw_joint_dof,left_elbow_joint_dof,left_wrist_roll_joint_dof,left_wrist_pitch_joint_dof,left_wrist_yaw_joint_dof,right_shoulder_pitch_joint_dof,right_shoulder_roll_joint_dof,right_shoulder_yaw_joint_dof,right_elbow_joint_dof,right_wrist_roll_joint_dof,right_wrist_pitch_joint_dof,right_wrist_yaw_joint_dof
0,-0.22392906248569489,3.741260290145874,25.346622467041016,4.672573294221089,-12.628968364073991,-90.5143108983557,-93.07082,7.548867,-4.2490044,154.36612,-46.556194,-2.8126202,-98.487976,-7.888561,15.333808,156.42798,-47.657696,1.9809204,-10.140484,-11.448064,29.793802,-71.97177,48.46917,-68.459045,52.533348,2.1759958,-11.946779,5.821839,-82.31223,-24.219225,77.40328,56.189854,-17.097286,-13.63184,-11.678335
1,-0.2250937819480896,3.743424892425537,25.345293045043945,4.717457374084712,-12.675500657902486,-90.51225286655118,-93.01106,7.565243,-4.180455,154.36201,-46.560055,-2.7830448,-98.47131,-7.8573194,15.411898,156.44637,-47.649883,2.0183413,-10.411553,-11.708441,29.793802,-71.989075,48.958797,-68.63198,52.421223,1.9184446,-11.955939,5.793704,-82.45956,-23.700478,77.40177,56.44656,-16.945704,-13.486094,-11.364171
2,-0.22385811805725098,3.7524125576019287,25.337352752685547,4.76934874712781,-12.720865696989827,-90.51001099938024,-92.95131,7.583779,-4.1027517,154.35484,-46.56161,-2.7501826,-98.46048,-7.821607,15.499541,156.46791,-47.63994,2.0588098,-10.711711,-12.04893,29.793802,-71.670494,49.425816,-68.27206,52.278526,2.1465895,-11.953967,5.7760725,-82.60127,-23.22124,77.34923,56.596634,-16.806652,-13.342474,-11.062438
3,-0.22223412990570068,3.760829448699951,25.329530715942383,4.809560542984438,-12.76452312311981,-90.50830128513361,-92.89878,7.598497,-4.0407887,154.35197,-46.56318,-2.722939,-98.44526,-7.7921057,15.570529,156.48595,-47.632465,2.09329,-10.95778,-12.281601,29.793802,-71.649734,49.89798,-68.377625,52.13552,1.9445592,-11.960761,5.747952,-82.73003,-22.788626,77.34885,56.794666,-16.645948,-13.186999,-10.734639
4,-0.22077801823616028,3.76931095123291,25.32120132446289,4.849940132191253,-12.808329748976787,-90.50583006602332,-92.84674,7.6124134,-3.979293,154.35,-46.56645,-2.6995058,-98.429306,-7.7643957,15.641658,156.5041,-47.628094,2.1262236,-11.198001,-12.526491,29.793802,-71.5666,50.356827,-68.3783,51.984108,1.853449,-11.962802,5.7251506,-82.84774,-22.392818,77.330315,56.955566,-16.455181,-13.006886,-10.346625
5,-0.2195383608341217,3.7780232429504395,25.312313079833984,4.890664029871241,-12.853129490763552,-90.503009029573,-92.793526,7.626915,-3.914694,154.34781,-46.571877,-2.6803894,-98.413414,-7.7347126,15.717326,156.52345,-47.627205,2.157977,-11.444295,-12.795572,29.793802,-71.33173,50.792973,-68.12969,51.819077,1.9937423,-11.958618,5.7108297,-82.96102,-22.021955,77.29672,57.079163,-16.217634,-12.788372,-9.876198
6,-0.218374103307724,3.7864699363708496,25.30335807800293,4.922429887058786,-12.897495125717422,-90.50019342776419,-92.7442,7.638861,-3.860759,154.34753,-46.580814,-2.668156,-98.39248,-7.7103014,15.783671,156.5395,-47.633583,2.1851957,-11.6535,-12.994979,29.793802,-71.281525,51.222878,-68.16364,51.658527,1.8842547,-11.9593315,5.693208,-83.06332,-21.68102,77.29487,57.238182,-15.944733,-12.541009,-9.346104
7,-0.21806910634040833,3.794487953186035,25.29424476623535,4.959648301977871,-12.943299407314008,-90.49623094131229,-92.69192,7.6510415,-3.80064,154.34727,-46.589535,-2.6553884,-98.37327,-7.685015,15.856461,156.55858,-47.63928,2.214067,-11.881487,-13.251928,29.793802,-71.00602,51.62427,-67.83736,51.490643,2.1055048,-11.950766,5.683412,-83.16344,-21.356644,77.25782,57.33845,-15.664176,-12.286142,-8.7947035
8,-0.21785244345664978,3.8013689517974854,25.28558921813965,4.988719027805522,-12.989290587076361,-90.49292412770934,-92.64303,7.6584053,-3.753318,154.34741,-46.59477,-2.64477,-98.34893,-7.6644254,15.916848,156.57661,-47.64481,2.2405336,-12.073665,-13.436703,29.793802,-70.92997,52.0193,-67.82052,51.32978,2.048489,-11.945496,5.6654143,-83.25582,-21.055687,77.26017,57.47777,-15.3850155,-12.04421,-8.25547
9,-0.21800817549228668,3.8074235916137695,25.27693748474121,5.0199850162247515,-13.037034447244299,-90.4887624501083,-92.593056,7.6621075,-3.7088416,154.34744,-46.597275,-2.6323879,-98.322876,-7.647286,15.975368,156.59593,-47.648277,2.268903,-12.2626095,-13.632268,29.793802,-70.81705,52.397537,-67.7451,51.171524,2.0556462,-11.93444,5.6508923,-83.34345,-20.773726,77.254425,57.594357,-15.10723,-11.818127,-7.722128
10,-0.21823850274085999,3.812852382659912,25.2683048248291,5.052311576072446,-13.086749243722759,-90.48439325055564,-92.54061,7.6635246,-3.6641479,154.3465,-46.59718,-2.619304,-98.29526,-7.6301055,16.035757,156.61736,-47.651127,2.2997081,-12.457825,-13.849234,29.793802,-70.59408,52.75366,-67.49402,51.010082,2.2214804,-11.9168005,5.6408515,-83.430275,-20.503904,77.23941,57.6847,-14.822079,-11.597329,-7.182047
11,-0.21839188039302826,3.8177504539489746,25.259849548339844,5.0798377716669405,-13.135609416908228,-90.48005815446466,-92.491135,7.662414,-3.6292593,154.34755,-46.598904,-2.6086724,-98.26521,-7.618035,16.085545,156.63696,-47.65407,2.3263323,-12.621127,-14.004289,29.793802,-70.551704,53.104473,-67.519585,50.85727,2.1421006,-11.903318,5.6197686,-83.50929,-20.25295,77.2545,57.809658,-14.548857,-11.384904,-6.6592097
12,-0.2188452035188675,3.8223459720611572,25.25140953063965,5.106945471145947,-13.183128989179536,-90.4749801399704,-92.441956,7.662167,-3.5933776,154.34946,-46.60149,-2.5998867,-98.23601,-7.6058517,16.13501,156.65775,-47.659718,2.349475,-12.782182,-14.171752,29.793802,-70.46288,53.43915,-67.46354,50.70779,2.133795,-11.888917,5.586794,-83.58362,-20.017353,77.25183,57.91149,-14.315845,-11.185389,-6.1803346
13,-0.21940262615680695,3.8266305923461914,25.243038177490234,5.129562567418891,-13.22867782719224,-90.47037901055131,-92.39458,7.663074,-3.560522,154.35297,-46.60845,-2.593411,-98.20636,-7.595181,16.178328,156.68002,-47.667847,2.3657768,-12.92704,-14.313568,29.793802,-70.43229,53.76344,-67.48743,50.56087,2.0473468,-11.876837,5.5340633,-83.65169,-19.798141,77.25549,58.018658,-14.127818,-10.998996,-5.7409163
14,-0.22053134441375732,3.830465316772461,25.234710693359375,5.152392675005484,-13.273390858441552,-90.46492552866285,-92.34701,7.66413,-3.5286815,154.359,-46.6189,-2.5884597,-98.17743,-7.5849757,16.21929,156.70224,-47.677185,2.3776593,-13.064043,-14.45013,29.793802,-70.404366,54.074932,-67.50739,50.416286,1.9625248,-11.86445,5.468169,-83.714195,-19.593843,77.25513,58.116962,-13.972932,-10.824859,-5.3306794
15,-0.22238041460514069,3.8340959548950195,25.226205825805664,5.182968329841091,-13.318152362748018,-90.45917542684788,-92.295296,7.6672516,-3.4872608,154.36288,-46.63074,-2.582088,-98.15092,-7.5720363,16.270601,156.7276,-47.68802,2.3923016,-13.231593,-14.660901,29.793802,-70.08444,54.35483,-67.06626,50.264824,2.2705781,-11.844467,5.4021955,-83.7838,-19.391537,77.212006,58.152187,-13.843229,-10.664948,-4.9672976
16,-0.22379609942436218,3.836923122406006,25.218252182006836,5.199670305996128,-13.358473231599927,-90.45427487187918,-92.25275,7.6661844,-3.4636168,154.37027,-46.64219,-2.5808382,-98.1199,-7.565456,16.303938,156.74838,-47.703316,2.4038465,-13.340015,-14.739566,29.793802,-70.16549,54.643696,-67.24399,50.1297,2.0349245,-11.838145,5.3261065,-83.84414,-19.208574,77.237274,58.275574,-13.715592,-10.5199995,-4.6617665
17,-0.22535482048988342,3.839643716812134,25.210186004638672,5.221125919897106,-13.39652523089633,-90.44863306675818,-92.20965,7.6656513,-3.4348326,154.37607,-46.653107,-2.5793595,-98.09093,-7.5570574,16.344727,156.76985,-47.723732,2.4217944,-13.463518,-14.87643,29.793802,-70.076614,54.912033,-67.15331,49.99901,2.038613,-11.828738,5.253243,-83.90691,-19.036757,77.21829,58.34461,-13.60285,-10.392923,-4.4277973
18,-0.2269088476896286,3.8421132564544678,25.20220184326172,5.24384741368936,-13.432885504236754,-90.44282289190785,-92.16638,7.6652937,-3.404259,154.38132,-46.664196,-2.57826,-98.062744,-7.5480638,16.388702,156.79123,-47.747196,2.443331,-13.592776,-15.026127,29.793802,-69.88934,55.16152,-66.904655,49.864937,2.1655555,-11.818922,5.177739,-83.973656,-18.871416,77.19181,58.395668,-13.501421,-10.282014,-4.2547
19,-0.22826585173606873,3.844238042831421,25.19443702697754,5.262137507767425,-13.466918643922726,-90.43764569189067,-92.1269,7.662957,-3.3808365,154.389,-46.67657,-2.5792975,-98.03353,-7.540997,16.425135,156.81097,-47.770027,2.4620209,-13.697263,-15.124032,29.793802,-69.84758,55.407055,-66.87906,49.74041,2.1003935,-11.8133,5.0997787,-84.03664,-18.718521,77.18915,58.475548,-13.410944,-10.1854,-4.1247716
20,-0.22970052063465118,3.845827341079712,25.18701934814453,5.277257181599306,-13.5003575459838,-90.43257688288132,-92.09096,7.659524,-3.361308,154.39511,-46.683945,-2.5818868,-98.00522,-7.5342193,16.458044,156.83044,-47.788345,2.475774,-13.790871,-15.209907,29.793802,-69.85121,55.64524,-66.9253,49.62664,1.9869326,-11.806486,5.027224,-84.09389,-18.578838,77.18136,58.5527,-13.336893,-10.101554,-4.0225306
21,-0.2312580794095993,3.8467862606048584,25.179975509643555,5.292820987135813,-13.534338292158896,-90.42675711383319,-92.05578,7.654814,-3.3427422,154.40239,-46.689472,-2.586073,-97.97889,-7.526949,16.490274,156.85088,-47.79833,2.4828248,-13.883671,-15.30104,29.793802,-69.82342,55.87202,-66.92636,49.518612,1.9215603,-11.796376,4.964724,-84.14967,-18.449629,77.164,58.61399,-13.283342,-10.032477,-3.9515908
22,-0.23236463963985443,3.847552537918091,25.173059463500977,5.306443333769101,-13.567996962721763,-90.42164428451477,-92.022766,7.6487074,-3.3276827,154.40892,-46.6923,-2.5924475,-97.95343,-7.5183105,16.519802,156.87001,-47.801914,2.4847648,-13.967656,-15.376271,29.793802,-69.82697,56.091118,-66.977516,49.416073,1.8181173,-11.785841,4.9074817,-84.20315,-18.331148,77.15003,58.676228,-13.246633,-9.97847,-3.9175627
23,-0.23349729180335999,3.848269462585449,25.166290283203125,5.325690153128497,-13.601710456451961,-90.41571360952074,-91.98747,7.6444983,-3.3044367,154.41278,-46.694977,-2.595041,-97.93072,-7.506503,16.557575,156.89209,-47.80412,2.4905465,-14.0779705,-15.516326,29.793802,-69.58836,56.285015,-66.65447,49.312393,2.0360987,-11.766911,4.8551893,-84.26384,-18.212955,77.09519,58.684074,-13.221044,-9.934959,-3.9109175
24,-0.23419705033302307,3.8488502502441406,25.16006851196289,5.338796204336424,-13.632363130953497,-90.4107259194326,-91.95739,7.6392674,-3.2876284,154.41867,-46.697292,-2.5955615,-97.90739,-7.499282,16.586456,156.90991,-47.810505,2.4989598,-14.158431,-15.583922,29.793802,-69.548996,56.479626,-66.63313,49.217403,1.996794,-11.751784,4.793901,-84.32014,-18.103544,77.0763,58.739773,-13.186595,-9.895975,-3.9171295
25,-0.2347104251384735,3.8493919372558594,25.154308319091797,5.350250717779941,-13.659491809817261,-90.40618402378043,-91.93143,7.634202,-3.272148,154.42416,-46.700745,-2.5895772,-97.8857,-7.4969945,16.610577,156.92421,-47.822422,2.5144029,-14.222558,-15.629743,29.793802,-69.60699,56.672108,-66.755455,49.135612,1.8553169,-11.734453,4.724773,-84.37109,-18.00635,77.054504,58.8027,-13.15996,-9.861931,-3.9411223
26,-0.2354389727115631,3.850377321243286,25.148561477661133,5.368654236042409,-13.685858675809662,-90.40082469879209,-91.90273,7.631363,-3.246182,154.42786,-46.70487,-2.576448,-97.867615,-7.493675,16.643711,156.93819,-47.83526,2.5386093,-14.312943,-15.742793,29.793802,-69.4307,56.841976,-66.51411,49.053326,2.0300832,-11.707126,4.6559496,-84.42937,-17.910849,76.988144,58.80936,-13.144566,-9.835337,-3.9890795
27,-0.23561955988407135,3.8516628742218018,25.143098831176758,5.379881141707911,-13.709958154957157,-90.39628914506518,-91.87878,7.627937,-3.2280622,154.43234,-46.70849,-2.5648632,-97.848595,-7.492497,16.667885,156.95013,-47.848286,2.5608087,-14.374976,-15.7865095,29.793802,-69.44232,57.014244,-66.55973,48.976917,1.9560361,-11.685891,4.581796,-84.48235,-17.82435,76.95655,58.860435,-13.110491,-9.814461,-4.0450864
28,-0.23583804070949554,3.8534421920776367,25.13762092590332,5.395028460452658,-13.734593548939914,-90.39192510239789,-91.85274,7.627387,-3.2047002,154.43428,-46.710365,-2.5555577,-97.831406,-7.4866843,16.69915,156.96396,-47.857895,2.5809374,-14.455542,-15.885515,29.793802,-69.280266,57.167786,-66.339615,48.904232,2.102294,-11.66384,4.511627,-84.53696,-17.739332,76.882805,58.867565,-13.048392,-9.7996435,-4.0989704
29,-0.23581485450267792,3.854961633682251,25.13275146484375,5.402757435981008,-13.756816245757696,-90.38883544927431,-91.831985,7.6272435,-3.1946163,154.44005,-46.712948,-2.5546093,-97.812874,-7.482376,16.717533,156.97456,-47.861893,2.5905154,-14.491681,-15.88184,29.793802,-69.43315,57.333447,-66.60273,48.840885,1.8287786,-11.656029,4.434747,-84.579636,-17.667894,76.85642,58.94297,-12.931411,-9.794624,-4.1443944
30,-0.23570047318935394,3.856884241104126,25.128189086914062,5.413108440891754,-13.778736467014454,-90.38558873221126,-91.809525,7.6304793,-3.1787555,154.44446,-46.714046,-2.5552356,-97.79784,-7.4740863,16.742626,156.98686,-47.861332,2.5980117,-14.5438385,-15.939873,29.793802,-69.39959,57.469913,-66.577286,48.788204,1.803925,-11.645992,4.3601055,-84.620415,-17.60669,76.77795,58.962955,-12.786598,-9.799434,-4.191536
31,-0.23568429052829742,3.859196186065674,25.123859405517578,5.427896170089366,-13.801692795951904,-90.38248974564739,-91.783226,7.6346793,-3.1569467,154.44742,-46.716312,-2.5557015,-97.78336,-7.462933,16.774952,156.99948,-47.859825,2.6084054,-14.617427,-16.03513,29.793802,-69.2079,57.60118,-66.313995,48.724716,1.9619262,-11.633907,4.2901406,-84.66933,-17.537653,76.68173,58.957268,-12.631119,-9.803513,-4.241571
32,-0.23536700010299683,3.861514091491699,25.119956970214844,5.436714974229988,-13.823469559833622,-90.3795554437357,-91.76399,7.63578,-3.1432374,154.45009,-46.714664,-2.5561857,-97.76941,-7.456523,16.797354,157.00893,-47.857708,2.6166544,-14.66307,-16.079184,29.793802,-69.12855,57.70331,-66.21779,48.679386,1.9819477,-11.62623,4.2271676,-84.706924,-17.484415,76.61042,58.98108,-12.484424,-9.796152,-4.2933445
33,-0.23489601910114288,3.863776922225952,25.116458892822266,5.442327582723394,-13.845388237541417,-90.37666996022631,-91.746506,7.632701,-3.1332083,154.45323,-46.713127,-2.5563035,-97.75464,-7.4552603,16.813837,157.01729,-47.857098,2.6249902,-14.695163,-16.086637,29.793802,-69.20853,57.832752,-66.37362,48.63247,1.7878324,-11.622217,4.1696053,-84.74033,-17.427492,76.557594,59.038883,-12.350582,-9.776915,-4.3515162
34,-0.23485323786735535,3.8665971755981445,25.112884521484375,5.453557112938359,-13.86886922288216,-90.37405837881006,-91.72644,7.6291475,-3.1149745,154.4535,-46.709747,-2.5542388,-97.74356,-7.4530754,16.838932,157.02538,-47.854656,2.6363935,-14.751874,-16.171803,29.793802,-69.05293,57.931946,-66.16835,48.59433,1.9024693,-11.61197,4.122205,-84.77517,-17.373085,76.45215,59.037086,-12.226466,-9.75138,-4.4169955
35,-0.23480528593063354,3.8699235916137695,25.109386444091797,5.458198793125357,-13.890558745316357,-90.37159897942763,-91.71145,7.624661,-3.1046402,154.45547,-46.705574,-2.5521734,-97.731224,-7.454394,16.853838,157.03136,-47.852173,2.6463692,-14.783819,-16.18149,29.793802,-69.09896,58.048225,-66.27647,48.550655,1.7429904,-11.609589,4.0787463,-84.80663,-17.318491,76.396805,59.092007,-12.103952,-9.716895,-4.4771476
36,-0.2348790168762207,3.873978853225708,25.10587501525879,5.460960610671984,-13.90940773047009,-90.36950077760143,-91.702225,7.622489,-3.097824,154.4571,-46.69879,-2.5475519,-97.72128,-7.4553704,16.864214,157.0349,-47.849064,2.656871,-14.802979,-16.192144,29.793802,-69.11467,58.120945,-66.3299,48.52896,1.6502324,-11.609493,4.0469537,-84.8275,-17.2851,76.33342,59.131,-11.998555,-9.673292,-4.5242443
37,-0.2350582778453827,3.878480911254883,25.102359771728516,5.468598791492508,-13.92646490839246,-90.36787936723836,-91.69369,7.626618,-3.0868256,154.45569,-46.69015,-2.5364327,-97.7116,-7.452235,16.877428,157.03845,-47.846355,2.6747293,-14.842887,-16.246758,29.793802,-69.047806,58.217865,-66.26711,48.496433,1.6587636,-11.610838,4.0307503,-84.85765,-17.236198,76.25029,59.148514,-11.923614,-9.620194,-4.5590034
38,-0.2348330169916153,3.8832898139953613,25.098934173583984,5.473244910679622,-13.941197093051757,-90.36653194939949,-91.68864,7.6332293,-3.0777378,154.45477,-46.679943,-2.5219128,-97.70332,-7.448712,16.887316,157.03867,-47.84251,2.695685,-14.87597,-16.29206,29.793802,-68.95231,58.286392,-66.156906,48.472237,1.7080239,-11.6159315,4.0273314,-84.88398,-17.197525,76.17408,59.164627,-11.865764,-9.5570755,-4.5849752
39,-0.23453696072101593,3.8881757259368896,25.09549331665039,5.477968528817439,-13.955346138196365,-90.36550317684244,-91.68591,7.640112,-3.068902,154.45395,-46.668007,-2.5065644,-97.69681,-7.443981,16.896307,157.03883,-47.83671,2.7147698,-14.908178,-16.336117,29.793802,-68.8463,58.34659,-66.03195,48.449966,1.776293,-11.621089,4.027071,-84.9087,-17.160032,76.10325,59.179344,-11.807024,-9.486485,-4.5992885
40,-0.2338874638080597,3.8927345275878906,25.092321395874023,5.478310981225927,-13.969481891417832,-90.36495555100623,-91.68756,7.642527,-3.066743,154.45398,-46.652515,-2.4961145,-97.6932,-7.442416,16.899366,157.03822,-47.825386,2.7244258,-14.923138,-16.323687,29.793802,-68.90944,58.434395,-66.174515,48.41303,1.6237553,-11.627359,4.017742,-84.92993,-17.115526,76.07232,59.24037,-11.724189,-9.410727,-4.597075
41,-0.23331567645072937,3.897247791290283,25.08903694152832,5.481901201919372,-13.98606697123691,-90.36396046136862,-91.689,7.6401987,-3.0604076,154.45464,-46.63006,-2.489037,-97.69593,-7.4408445,16.908058,157.04094,-47.805614,2.72392,-14.947078,-16.359331,29.793802,-68.86417,58.497208,-66.150604,48.390198,1.6467261,-11.625175,4.0056005,-84.94254,-17.079618,76.01008,59.259087,-11.625812,-9.329695,-4.580583
42,-0.23247157037258148,3.901677131652832,25.0855712890625,5.482557428242152,-14.002551443983492,-90.36382348962782,-91.69499,7.6334085,-3.059857,154.45596,-46.603848,-2.4862676,-97.70168,-7.439761,16.912754,157.04337,-47.780735,2.7155302,-14.9570875,-16.370377,29.793802,-68.82837,58.535652,-66.13999,48.369003,1.6703045,-11.621619,3.991295,-84.94736,-17.056166,75.96678,59.283882,-11.512369,-9.2412,-4.5502024
43,-0.23180913925170898,3.9064042568206787,25.08205795288086,5.484033793415334,-14.018812168796773,-90.3632507402098,-91.70049,7.627224,-3.0557973,154.4575,-46.578175,-2.483341,-97.71027,-7.437812,16.920456,157.04498,-47.754063,2.7061605,-14.9734955,-16.391047,29.793802,-68.78785,58.583527,-66.12631,48.34278,1.6999043,-11.615261,3.9719071,-84.952995,-17.025375,75.91934,59.306694,-11.384139,-9.149239,-4.5056853
44,-0.2314467877149582,3.9116523265838623,25.078243255615234,5.4839982803615985,-14.030420833082164,-90.36322713742514,-91.711426,7.6241307,-3.0567327,154.4574,-46.554737,-2.481792,-97.72059,-7.4363666,16.921198,157.04565,-47.730682,2.6983933,-14.975686,-16.401152,29.793802,-68.75148,58.60079,-66.1069,48.333286,1.7375232,-11.611939,3.944195,-84.95174,-17.012789,75.88602,59.321495,-11.216426,-9.052437,-4.4559155
45,-0.23136772215366364,3.917606830596924,25.07440948486328,5.487823865840054,-14.039363322443048,-90.36145600519919,-91.71808,7.6278167,-3.0482385,154.4551,-46.539314,-2.4777284,-97.731926,-7.431554,16.929827,157.04417,-47.71415,2.7002263,-15.003597,-16.44298,29.793802,-68.63857,58.64954,-65.97684,48.297462,1.8475038,-11.604052,3.9017313,-84.96491,-16.97282,75.82323,59.332825,-11.029528,-8.957624,-4.385649
46,-0.23094859719276428,3.9238877296447754,25.070518493652344,5.48455938348572,-14.042502448706292,-90.3603477129863,-91.73281,7.6336274,-3.049203,154.45316,-46.526123,-2.4762566,-97.745804,-7.428369,16.926186,157.0394,-47.699337,2.700453,-15.002962,-16.420486,29.793802,-68.63199,58.677128,-65.99997,48.264767,1.8208686,-11.601271,3.8471925,-84.96937,-16.952873,75.8096,59.37167,-10.791334,-8.856063,-4.30858
47,-0.23064112663269043,3.9307122230529785,25.06633186340332,5.488033090661556,-14.04759077943882,-90.3584496304712,-91.74179,7.6410985,-3.0407476,154.44911,-46.51468,-2.4729216,-97.75898,-7.4212656,16.933056,157.03772,-47.686455,2.7056408,-15.029942,-16.471205,29.793802,-68.53673,58.72434,-65.89269,48.23894,1.9154037,-11.595151,3.7923527,-84.98205,-16.911612,75.75642,59.376762,-10.557623,-8.753525,-4.220698
48,-0.23017984628677368,3.9373393058776855,25.06224250793457,5.487454380328533,-14.054052175878907,-90.35661988794936,-91.75286,7.644266,-3.0382264,154.4478,-46.501022,-2.47077,-97.771774,-7.417726,16.93446,157.03462,-47.668022,2.7067866,-15.039437,-16.475613,29.793802,-68.50213,58.756405,-65.880356,48.21272,1.9160229,-11.5963,3.7415223,-84.98507,-16.884388,75.736404,59.40082,-10.350484,-8.645478,-4.1169977
49,-0.2295336276292801,3.9436659812927246,25.058109283447266,5.483280179565334,-14.064176393240132,-90.35503935779235,-91.76446,7.6427217,-3.03967,154.44643,-46.482956,-2.4689353,-97.78154,-7.4155693,16.933346,157.03416,-47.64467,2.703611,-15.040544,-16.45164,29.793802,-68.55201,58.79839,-66.006355,48.18547,1.7897676,-11.605363,3.69407,-84.98196,-16.85456,75.73841,59.44676,-10.177537,-8.532089,-3.9904332
50,-0.22958993911743164,3.949612855911255,25.054174423217773,5.487081776093432,-14.07773994360712,-90.35270986403025,-91.77132,7.640327,-3.0334651,154.4434,-46.463165,-2.4650226,-97.79268,-7.411858,16.941023,157.03748,-47.616924,2.7011046,-15.065551,-16.51686,29.793802,-68.43818,58.828648,-65.88504,48.178726,1.890458,-11.612741,3.6521685,-84.97698,-16.822483,75.68432,59.430458,-10.03166,-8.415412,-3.847976
51,-0.2290237993001938,3.9550628662109375,25.050533294677734,5.484659121712051,-14.09045313071446,-90.35082689216341,-91.782906,7.6350584,-3.0354037,154.44255,-46.441803,-2.4622736,-97.80228,-7.411463,16.940094,157.03789,-47.589165,2.695415,-15.063963,-16.48068,29.793802,-68.43775,58.8454,-65.93706,48.15087,1.8059205,-11.627314,3.6109655,-84.96497,-16.808317,75.70077,59.465195,-9.902169,-8.294167,-3.6946037
52,-0.22836212813854218,3.960435390472412,25.047197341918945,5.483425039897453,-14.102599267370897,-90.34816673869335,-91.79569,7.6302857,-3.0350473,154.44116,-46.41859,-2.4581606,-97.81268,-7.4126368,16.94061,157.03857,-47.564518,2.6911042,-15.064227,-16.500702,29.793802,-68.406334,58.849857,-65.93529,48.15275,1.80782,-11.638448,3.5830817,-84.94564,-16.803244,75.69034,59.460236,-9.789126,-8.174123,-3.5610423
53,-0.22773560881614685,3.965620994567871,25.04400634765625,5.483223277369627,-14.115084060915384,-90.34497821929494,-91.80699,7.626495,-3.0306952,154.44061,-46.394886,-2.4505339,-97.82178,-7.4147897,16.942942,157.03807,-47.54464,2.6898658,-15.066106,-16.512949,29.793802,-68.37429,58.854263,-65.931,48.15066,1.7990208,-11.651976,3.5666363,-84.92568,-16.79752,75.68158,59.45964,-9.714563,-8.051991,-3.4321702
54,-0.22720152139663696,3.97114896774292,25.04054832458496,5.485038288439078,-14.128947805345206,-90.34149725121084,-91.81693,7.6227427,-3.023633,154.44006,-46.37016,-2.4402847,-97.82915,-7.4200754,16.947485,157.03683,-47.53005,2.6902745,-15.072608,-16.516375,29.793802,-68.34876,58.86771,-65.94084,48.140205,1.761987,-11.668069,3.5594358,-84.906166,-16.780514,75.6803,59.47355,-9.672581,-7.927814,-3.3041604
55,-0.22683635354042053,3.977350950241089,25.036758422851562,5.489868243334362,-14.143711473374234,-90.33745036101872,-91.82275,7.6203017,-3.0111196,154.4382,-46.346718,-2.429882,-97.83573,-7.4225273,16.957766,157.03671,-47.51559,2.6930494,-15.100557,-16.574097,29.793802,-68.24594,58.892784,-65.83299,48.136715,1.84159,-11.678557,3.5581093,-84.89562,-16.73889,75.65962,59.47108,-9.645843,-7.808848,-3.1838477
56,-0.22625239193439484,3.983692169189453,25.03306007385254,5.489716151045724,-14.155983070729611,-90.3335710106834,-91.83142,7.6175523,-3.006726,154.43634,-46.32547,-2.4250212,-97.84106,-7.4228435,16.961523,157.0353,-47.500565,2.6930625,-15.111505,-16.560762,29.793802,-68.26352,58.92533,-65.90478,48.116837,1.7664206,-11.686134,3.5511181,-84.8864,-16.698992,75.68876,59.51539,-9.623815,-7.6985993,-3.0581853
57,-0.22594048082828522,3.9902706146240234,25.029170989990234,5.491551134280986,-14.165545596783112,-90.32988583833769,-91.8389,7.6165314,-3.0017245,154.43175,-46.307297,-2.4271374,-97.84863,-7.417294,16.967909,157.03432,-47.481785,2.6920707,-15.132968,-16.60128,29.793802,-68.2004,58.953735,-65.84401,48.10794,1.8510798,-11.679242,3.5429256,-84.87894,-16.657375,75.676956,59.525402,-9.622221,-7.599414,-2.9305599
58,-0.22569186985492706,3.996551513671875,25.025379180908203,5.490028554844156,-14.172173469520187,-90.32630870867108,-91.84785,7.615727,-3.0010412,154.42735,-46.292076,-2.435115,-97.856895,-7.4084315,16.971437,157.03142,-47.461136,2.6894102,-15.144693,-16.62223,29.793802,-68.15429,58.96983,-65.799286,48.098225,1.9391295,-11.665634,3.533343,-84.866356,-16.632772,75.67612,59.53347,-9.635379,-7.506069,-2.8007603
59,-0.22563938796520233,4.002137184143066,25.021743774414062,5.487246268126939,-14.17881764929758,-90.32289199859098,-91.8577,7.6148596,-3.0028753,154.42374,-46.276855,-2.4430337,-97.86364,-7.4001017,16.972822,157.02933,-47.441532,2.6862566,-15.153573,-16.620274,29.793802,-68.134445,58.990585,-65.79556,48.079258,1.9872564,-11.651207,3.52215,-84.85488,-16.604166,75.69275,59.55986,-9.654283,-7.4217095,-2.6681056
60,-0.225826695561409,4.006950378417969,25.018129348754883,5.484339476090561,-14.187839153331055,-90.31995906022941,-91.86695,7.6134653,-3.0049682,154.4232,-46.260666,-2.4446115,-97.86875,-7.394246,16.973188,157.02959,-47.422813,2.6840916,-15.156894,-16.601862,29.793802,-68.16532,59.014935,-65.87166,48.061996,1.9599599,-11.640769,3.510823,-84.84191,-16.576502,75.72489,59.599728,-9.666284,-7.351098,-2.5346508
61,-0.2264295518398285,4.0113205909729,25.014368057250977,5.484512950616333,-14.201625585072977,-90.31722042588068,-91.87257,7.6122665,-3.0019205,154.4247,-46.24231,-2.4368186,-97.87231,-7.3900166,16.980303,157.0335,-47.406624,2.6868124,-15.175889,-16.665031,29.793802,-68.07709,59.029007,-65.76609,48.070633,2.1101744,-11.629377,3.5006785,-84.823456,-16.550636,75.704315,59.581833,-9.678132,-7.293553,-2.4061658
62,-0.22654300928115845,4.015156269073486,25.010589599609375,5.479171800948762,-14.216615496654319,-90.31510853738642,-91.88071,7.6095066,-3.0062861,154.43257,-46.224014,-2.4247153,-97.87293,-7.389864,16.978872,157.03831,-47.391567,2.688078,-15.175228,-16.62138,29.793802,-68.109604,59.050854,-65.85083,48.045235,2.0505972,-11.624768,3.4842217,-84.80324,-16.525787,75.758766,59.631435,-9.684661,-7.2454414,-2.2709813
63,-0.22654540836811066,4.018838882446289,25.006723403930664,5.476537876275586,-14.231345571924207,-90.31364742707177,-91.88951,7.607477,-3.008277,154.43855,-46.204197,-2.411307,-97.87551,-7.3887634,16.979855,157.04492,-47.377117,2.6898391,-15.17553,-16.645372,29.793802,-68.094055,59.05716,-65.851006,48.053654,2.1005216,-11.61862,3.471321,-84.773895,-16.51653,75.76294,59.630287,-9.693994,-7.2117615,-2.1419625
64,-0.2262548804283142,4.022364139556885,25.0029239654541,5.475760319734489,-14.245030245818528,-90.31222127383523,-91.89571,7.6056833,-3.0082781,154.44344,-46.187435,-2.4010303,-97.87816,-7.3883204,16.982021,157.04933,-47.363667,2.6904738,-15.185875,-16.688208,29.793802,-68.04981,59.06434,-65.80603,48.068592,2.1796846,-11.615027,3.4656315,-84.75428,-16.501568,75.75981,59.61787,-9.700138,-7.182063,-2.0042224
65,-0.22548304498195648,4.02559757232666,24.999486923217773,5.474616710590372,-14.255593446061326,-90.31123708468238,-91.90291,7.603778,-3.0099583,154.4447,-46.17303,-2.3961103,-97.88074,-7.387931,16.982708,157.0497,-47.35336,2.6892924,-15.187223,-16.672613,29.793802,-68.03831,59.0691,-65.80795,48.06009,2.1758492,-11.618879,3.4628797,-84.736015,-16.494455,75.777084,59.636326,-9.725316,-7.165346,-1.8385408
66,-0.22447754442691803,4.029411792755127,24.996028900146484,5.472861323879489,-14.264214007418376,-90.31131046346235,-91.9123,7.601644,-3.0150752,154.44379,-46.159042,-2.3949616,-97.88417,-7.3882008,16.979359,157.04846,-47.342926,2.6854012,-15.185819,-16.659243,29.793802,-68.03485,59.076496,-65.822685,48.050148,2.1542873,-11.624784,3.465498,-84.722336,-16.48416,75.80863,59.66226,-9.736154,-7.159332,-1.6718339
67,-0.22352856397628784,4.0337066650390625,24.992435455322266,5.471874495195236,-14.27230912367219,-90.31191757928633,-91.91948,7.59997,-3.018513,154.4437,-46.147648,-2.39462,-97.888466,-7.3878055,16.97726,157.04614,-47.33314,2.6812947,-15.187254,-16.668861,29.793802,-68.026924,59.08315,-65.82417,48.054913,2.1528022,-11.632495,3.4719598,-84.70717,-16.47424,75.82382,59.67004,-9.747287,-7.159177,-1.5147588
68,-0.2227676808834076,4.038139820098877,24.9887638092041,5.472485870936951,-14.280067460392733,-90.31206549762328,-91.926544,7.5991488,-3.0191798,154.44305,-46.135826,-2.3929808,-97.89348,-7.3857417,16.977718,157.04543,-47.322388,2.6792526,-15.181326,-16.69939,29.793802,-68.01223,59.085354,-65.81216,48.0611,2.1749947,-11.637094,3.4819295,-84.68647,-16.46962,75.82716,59.673447,-9.745623,-7.164518,-1.3998455
69,-0.221933051943779,4.0421271324157715,24.98539161682129,5.468547934912041,-14.290626033824635,-90.31205033243019,-91.92984,7.5973043,-3.0213888,154.44484,-46.126705,-2.39046,-97.891174,-7.3839917,16.97738,157.04549,-47.31521,2.6793768,-15.189073,-16.667583,29.793802,-68.0099,59.096066,-65.8293,48.048817,2.112088,-11.6506405,3.4982853,-84.68372,-16.45516,75.87301,59.703392,-9.734172,-7.1686025,-1.2837771
70,-0.22145745158195496,4.045576095581055,24.98236083984375,5.46494907770824,-14.30053068158457,-90.31273266870116,-91.93312,7.5959964,-3.023077,154.44673,-46.118484,-2.38817,-97.89056,-7.379717,16.977556,157.04575,-47.305435,2.6806934,-15.19006,-16.661592,29.793802,-68.012856,59.108093,-65.85017,48.04408,2.0630925,-11.663385,3.5184896,-84.67146,-16.440308,75.903694,59.723267,-9.71262,-7.1786957,-1.2058244
71,-0.22106322646141052,4.048732757568359,24.97950553894043,5.462474164427664,-14.310635651484166,-90.31270272196744,-91.93426,7.595113,-3.0224488,154.44888,-46.11099,-2.3852565,-97.8892,-7.376025,16.979624,157.04622,-47.29627,2.682649,-15.193215,-16.670954,29.793802,-68.007324,59.117996,-65.85517,48.044067,2.03286,-11.673662,3.5417984,-84.66322,-16.42776,75.92755,59.737392,-9.685588,-7.191544,-1.149446
72,-0.22034882009029388,4.051650524139404,24.976741790771484,5.45967644201021,-14.32126210878379,-90.31372886340097,-91.933945,7.595534,-3.0223064,154.45158,-46.103928,-2.3827295,-97.88791,-7.372253,16.980442,157.04689,-47.287544,2.6832185,-15.198497,-16.696354,29.793802,-67.982864,59.12626,-65.824715,48.051113,2.0489304,-11.679817,3.5639904,-84.65375,-16.415604,75.93612,59.73705,-9.673124,-7.2007093,-1.1072022
73,-0.21938887238502502,4.054158687591553,24.974145889282227,5.458351558445993,-14.332896444616608,-90.31510033076565,-91.93183,7.597407,-3.0226018,154.45457,-46.096016,-2.3802505,-97.88548,-7.369207,16.980364,157.0478,-47.279335,2.6827502,-15.205804,-16.719244,29.793802,-67.93871,59.13398,-65.76422,48.05099,2.0938385,-11.681122,3.588466,-84.64839,-16.402948,75.94387,59.738853,-9.673984,-7.2074075,-1.0821158
74,-0.21810151636600494,4.056236743927002,24.97187614440918,5.4549547598466575,-14.344649541845286,-90.31762953694943,-91.92921,7.600028,-3.027464,154.4591,-46.089035,-2.3784866,-97.88056,-7.368737,16.974514,157.04796,-47.273277,2.680032,-15.2030735,-16.669607,29.793802,-67.98212,59.15388,-65.83746,48.023987,1.994982,-11.684238,3.61,-84.64832,-16.385633,76.00279,59.791023,-9.678889,-7.210757,-1.0717868
75,-0.21686765551567078,4.058585166931152,24.969375610351562,5.4525155580690745,-14.355985972024799,-90.32051222862862,-91.92607,7.602767,-3.0314078,154.46425,-46.082703,-2.3769207,-97.87639,-7.368639,16.968817,157.04948,-47.266747,2.6768541,-15.19967,-16.652578,29.793802,-68.030945,59.16897,-65.909615,48.01901,1.9291904,-11.682766,3.6296391,-84.64523,-16.375189,76.03363,59.81908,-9.690913,-7.2138524,-1.0718845
76,-0.21562618017196655,4.061277389526367,24.966663360595703,5.449946764527989,-14.367013863983143,-90.32294909518552,-91.921814,7.604247,-3.034792,154.4679,-46.079613,-2.3762524,-97.87179,-7.367319,16.965616,157.05005,-47.26145,2.6753209,-15.195689,-16.655159,29.793802,-68.043526,59.171085,-65.91556,48.02349,1.9329035,-11.676541,3.639743,-84.64096,-16.373856,76.03753,59.827755,-9.713963,-7.2159443,-1.0641638
77,-0.2144583910703659,4.064084053039551,24.963973999023438,5.447500988853182,-14.376777493365429,-90.32615435684698,-91.915985,7.6038537,-3.0384588,154.4709,-46.081882,-2.378533,-97.86759,-7.365614,16.963655,157.05193,-47.257618,2.6744854,-15.200417,-16.700676,29.793802,-68.02156,59.18088,-65.86292,48.038834,2.0135674,-11.660765,3.6440277,-84.63733,-16.364937,76.027084,59.813293,-9.73827,-7.214779,-1.0655096
78,-0.21308884024620056,4.066293239593506,24.961681365966797,5.443227053047757,-14.386218234450023,-90.32909815561894,-91.9095,7.6016426,-3.0443385,154.47441,-46.088203,-2.3823066,-97.86172,-7.3642635,16.9603,157.05225,-47.253887,2.673612,-15.1977625,-16.681673,29.793802,-68.0376,59.190163,-65.86314,48.029434,2.018328,-11.64458,3.6350765,-84.63927,-16.358988,76.04325,59.835247,-9.780538,-7.2112226,-1.0512291
79,-0.21187324821949005,4.067961692810059,24.9597110748291,5.4390923447640835,-14.394971836319609,-90.3327375543922,-91.90353,7.5996265,-3.0501578,154.47789,-46.094578,-2.3852801,-97.85546,-7.361971,16.956692,157.0535,-47.251286,2.6732883,-15.193405,-16.685907,29.793802,-68.04497,59.19666,-65.84636,48.0274,2.0527475,-11.623336,3.6228423,-84.640495,-16.35497,76.048874,59.845894,-9.816011,-7.208277,-1.0446727
80,-0.21078747510910034,4.069243431091309,24.95779800415039,5.435218011998861,-14.404478341860486,-90.33570942637927,-91.89838,7.5995107,-3.0553284,154.48172,-46.09837,-2.3842242,-97.84818,-7.360665,16.95302,157.0549,-47.24927,2.6747866,-15.190582,-16.703157,29.793802,-68.04747,59.2001,-65.81871,48.037315,2.0970876,-11.605815,3.6107376,-84.64056,-16.352617,76.0452,59.84475,-9.849204,-7.205337,-1.0388871
81,-0.2092854380607605,4.070189476013184,24.956031799316406,5.431945372244861,-14.415452292677555,-90.33915357397242,-91.89199,7.6030245,-3.056519,154.48741,-46.100403,-2.3755689,-97.83801,-7.358155,16.952429,157.05501,-47.249073,2.6814578,-15.186846,-16.662197,29.793802,-68.07221,59.210396,-65.82331,48.019115,2.056629,-11.5968075,3.5853813,-84.64439,-16.348522,76.06699,59.877388,-9.899522,-7.201209,-1.015608
82,-0.20753999054431915,4.071187973022461,24.95414161682129,5.427812900847642,-14.42701628129968,-90.34185359896465,-91.88648,7.6076574,-3.0570092,154.49477,-46.10068,-2.3629606,-97.826515,-7.3555574,16.951578,157.05515,-47.24933,2.690113,-15.182629,-16.648903,29.793802,-68.09664,59.214355,-65.825935,48.018726,2.0318825,-11.58715,3.5601845,-84.6477,-16.347408,76.0758,59.89299,-9.94054,-7.1970587,-0.9976943
83,-0.20528417825698853,4.072224140167236,24.952163696289062,5.423638588625518,-14.437870068847882,-90.34517643394105,-91.88189,7.6128993,-3.0575964,154.50201,-46.09971,-2.350053,-97.81552,-7.3529143,16.95057,157.05511,-47.24918,2.6987984,-15.177757,-16.640406,29.793802,-68.12264,59.22227,-65.826904,48.018353,2.0108688,-11.578335,3.534073,-84.650734,-16.345718,76.08491,59.906746,-9.974522,-7.1944695,-0.98596615
84,-0.20277152955532074,4.073203086853027,24.95035743713379,5.420021558402448,-14.448125636786036,-90.34837015466292,-91.87597,7.617901,-3.0577452,154.508,-46.099968,-2.3398838,-97.805,-7.349827,16.950394,157.05547,-47.24897,2.705693,-15.172973,-16.620895,29.793802,-68.151886,59.226547,-65.834076,48.01755,1.9848475,-11.572354,3.5185363,-84.65674,-16.34521,76.09229,59.92489,-10.002688,-7.1964245,-0.9725353
85,-0.2004651427268982,4.0740766525268555,24.948530197143555,5.415875984609954,-14.45647308509802,-90.35205338832915,-91.8702,7.620643,-3.0596254,154.51317,-46.099808,-2.3362792,-97.79759,-7.345342,16.950018,157.05576,-47.247433,2.7081542,-15.173821,-16.659359,29.793802,-68.1412,59.231567,-65.78198,48.037804,2.0570247,-11.564229,3.522042,-84.66364,-16.344889,76.07228,59.90767,-10.002256,-7.203012,-0.9783708
86,-0.19808973371982574,4.074519157409668,24.946828842163086,5.4109969690941995,-14.463474114506381,-90.35590037464556,-91.863625,7.622331,-3.0637746,154.5186,-46.101112,-2.3359807,-97.79003,-7.3410444,16.948116,157.0546,-47.244846,2.7086666,-15.167633,-16.60572,29.793802,-68.18689,59.24967,-65.819176,48.0132,1.9980226,-11.562653,3.5271847,-84.67634,-16.34534,76.096375,59.943554,-10.005913,-7.2123404,-0.9706709
87,-0.19593068957328796,4.074999809265137,24.94502067565918,5.406709411141884,-14.47035889392266,-90.36070348043664,-91.85693,7.6244063,-3.0676498,154.52237,-46.102364,-2.3372025,-97.78359,-7.3362246,16.947254,157.05496,-47.24287,2.7088869,-15.163918,-16.628796,29.793802,-68.192314,59.253563,-65.791374,48.029495,2.049847,-11.557792,3.5413387,-84.68676,-16.345984,76.08105,59.937344,-9.988604,-7.2271175,-0.9809257
88,-0.19364257156848907,4.075224876403809,24.9433536529541,5.403694786865611,-14.478333825209429,-90.36546648009491,-91.84654,7.6282167,-3.069556,154.52762,-46.108837,-2.33577,-97.77405,-7.3305173,16.948227,157.05534,-47.24372,2.7128358,-15.159168,-16.576197,29.793802,-68.22981,59.26021,-65.81079,48.01702,2.0058656,-11.560181,3.543554,-84.69998,-16.346945,76.09209,59.97104,-9.995958,-7.24561,-0.96972877
89,-0.1918422132730484,4.07542085647583,24.941707611083984,5.3991444570904585,-14.485400515555453,-90.37075569818784,-91.8382,7.6331406,-3.0745044,154.53458,-46.118458,-2.3333719,-97.76522,-7.3261056,16.94545,157.05504,-47.245136,2.7175424,-15.155641,-16.599115,29.793802,-68.23226,59.269222,-65.777756,48.028645,2.0489345,-11.557343,3.5434244,-84.71032,-16.350218,76.073166,59.961483,-9.9750395,-7.2724648,-0.97897834
90,-0.18998576700687408,4.075499534606934,24.940155029296875,5.396718750201301,-14.493230635981819,-90.37708712501725,-91.826515,7.640356,-3.0763738,154.54117,-46.1322,-2.328782,-97.7546,-7.3203173,16.945845,157.05602,-47.2497,2.7255144,-15.155033,-16.618874,29.793802,-68.21657,59.275158,-65.71524,48.039207,2.105978,-11.557305,3.5381286,-84.72269,-16.353094,76.049484,59.95287,-9.957273,-7.3057466,-0.9826315
91,-0.1875688135623932,4.075521469116211,24.938783645629883,5.391316075479609,-14.500665471699232,-90.38357108664115,-91.81535,7.6466618,-3.081972,154.54993,-46.147614,-2.3254552,-97.74297,-7.316386,16.942055,157.05647,-47.25322,2.733035,-15.1442,-16.558605,29.793802,-68.256645,59.28328,-65.738464,48.018364,2.0434055,-11.560635,3.5267656,-84.73681,-16.356003,76.06728,59.993477,-9.950142,-7.3406677,-0.97768325
92,-0.18530581891536713,4.075747013092041,24.937236785888672,5.387967794710431,-14.509091303478408,-90.38960296635503,-91.80339,7.651981,-3.0858216,154.5579,-46.16003,-2.3243272,-97.73336,-7.3109794,16.940157,157.05753,-47.25315,2.7385004,-15.137314,-16.575434,29.793802,-68.27005,59.286026,-65.725006,48.033512,2.0709932,-11.5561495,3.5280862,-84.74743,-16.357904,76.05765,59.99156,-9.927003,-7.3732758,-0.9990812
93,-0.18294301629066467,4.075657367706299,24.936059951782227,5.38290938997329,-14.51820271942651,-90.39547815008498,-91.79307,7.653723,-3.0923316,154.56511,-46.1681,-2.3264039,-97.72439,-7.307478,16.935724,157.05856,-47.2488,2.740191,-15.127874,-16.519241,29.793802,-68.31903,59.294773,-65.763565,48.01599,2.0074513,-11.551667,3.5251741,-84.75911,-16.362127,76.0708,60.026752,-9.938604,-7.40477,-1.0094885
94,-0.1811101883649826,4.075475215911865,24.934812545776367,5.378584641786498,-14.528631815185928,-90.40053878365093,-91.78129,7.6538577,-3.097261,154.5729,-46.174335,-2.3307612,-97.717575,-7.3026814,16.932936,157.06046,-47.238758,2.7400594,-15.123362,-16.538343,29.793802,-68.33329,59.299004,-65.75415,48.03108,2.0389094,-11.539565,3.5340147,-84.768486,-16.365671,76.05785,60.02041,-9.93109,-7.436232,-1.0447387
95,-0.17936912178993225,4.075307369232178,24.933544158935547,5.376513816439169,-14.538588756220133,-90.40577648686823,-91.7698,7.654835,-3.100436,154.57896,-46.17932,-2.334867,-97.71151,-7.2969475,16.931515,157.06374,-47.22905,2.740797,-15.123975,-16.552824,29.793802,-68.32473,59.30653,-65.707794,48.036797,2.0891633,-11.526577,3.5414727,-84.777275,-16.373016,76.03127,60.006386,-9.949267,-7.466023,-1.075658
96,-0.17751705646514893,4.075356960296631,24.932321548461914,5.373469094104056,-14.546639031719574,-90.4109404658955,-91.75994,7.657447,-3.1038432,154.585,-46.18476,-2.3388114,-97.70553,-7.2915425,16.929022,157.06493,-47.22356,2.7431922,-15.120897,-16.550926,29.793802,-68.33045,59.310116,-65.684525,48.03999,2.1108816,-11.5153265,3.5516772,-84.7882,-16.376665,76.02164,60.008427,-9.963144,-7.4918933,-1.111189
97,-0.17554539442062378,4.075583457946777,24.931222915649414,5.369775884752526,-14.551607468613746,-90.41577773892523,-91.75315,7.663314,-3.1069775,154.58868,-46.19001,-2.3419297,-97.70102,-7.286466,16.926668,157.0629,-47.22447,2.7487707,-15.117045,-16.532833,29.793802,-68.334854,59.319153,-65.66038,48.02879,2.117544,-11.504818,3.5645978,-84.80093,-16.385557,76.01613,60.01353,-9.990607,-7.5133076,-1.1473863
98,-0.17370158433914185,4.0761942863464355,24.92999839782715,5.366801488467743,-14.555149859241746,-90.42079514380981,-91.74752,7.6709433,-3.110009,154.59105,-46.195293,-2.3451724,-97.69538,-7.2820773,16.923573,157.06131,-47.232174,2.7565958,-15.113012,-16.510544,29.793802,-68.35615,59.322117,-65.66111,48.02718,2.1051404,-11.495322,3.5828438,-84.817215,-16.388298,76.017365,60.026245,-10.020053,-7.530026,-1.1888225
99,-0.1719910353422165,4.077154636383057,24.928560256958008,5.361798667398487,-14.557011716142048,-90.42580976941719,-91.74536,7.678615,-3.1147559,154.59244,-46.19862,-2.348312,-97.69247,-7.277733,16.918669,157.0579,-47.23717,2.7628913,-15.100672,-16.480856,29.793802,-68.40779,59.337025,-65.71223,48.012886,2.0512002,-11.485864,3.5991304,-84.828,-16.403154,76.0236,60.037502,-10.0484085,-7.546412,-1.2344644
100,-0.17077048122882843,4.078538417816162,24.9268856048584,5.3603410085547285,-14.560688953036768,-90.43035457857437,-91.74146,7.6852183,-3.1157858,154.59518,-46.200176,-2.3492868,-97.6921,-7.273344,16.917185,157.05597,-47.23445,2.7659967,-15.0993395,-16.503166,29.793802,-68.41251,59.340385,-65.68704,48.028564,2.0825908,-11.476976,3.61262,-84.83973,-16.409092,76.002174,60.022373,-10.0665455,-7.5608788,-1.2807517
101,-0.16961011290550232,4.079780578613281,24.925289154052734,5.358472128458124,-14.565055443353774,-90.43471845762862,-91.739204,7.6890645,-3.11832,154.59839,-46.19896,-2.3491607,-97.69302,-7.2679167,16.915998,157.05472,-47.224323,2.7644358,-15.098529,-16.499012,29.793802,-68.40709,59.346752,-65.6502,48.024796,2.0934083,-11.472341,3.6147797,-84.8497,-16.419415,75.981674,60.014404,-10.095535,-7.574886,-1.3103701
102,-0.16830651462078094,4.080936908721924,24.923940658569336,5.355959134791505,-14.572164708950616,-90.43869558968998,-91.73499,7.691309,-3.1218147,154.60222,-46.19681,-2.3482463,-97.69068,-7.2641826,16.914072,157.05542,-47.21061,2.7601209,-15.10111,-16.478231,29.793802,-68.4238,59.34803,-65.65012,48.029205,2.0602074,-11.472177,3.6144233,-84.865265,-16.4209,75.9815,60.021248,-10.110742,-7.5850477,-1.3339101
103,-0.16699358820915222,4.082101345062256,24.922670364379883,5.352013552164177,-14.57473537545918,-90.44321043568497,-91.73874,7.6930985,-3.1273856,154.6069,-46.19148,-2.3467243,-97.697,-7.2600827,16.908213,157.05492,-47.19012,2.752403,-15.08688,-16.440607,29.793802,-68.46493,59.353775,-65.68294,48.013756,1.995017,-11.472763,3.605097,-84.871086,-16.427433,75.986,60.04711,-10.130551,-7.599082,-1.3625822
104,-0.1660298854112625,4.083353042602539,24.921300888061523,5.350366932607868,-14.580607008434747,-90.44651821131119,-91.73902,7.6953225,-3.1291323,154.60997,-46.186684,-2.3436432,-97.699936,-7.256856,16.906258,157.05516,-47.176033,2.7481413,-15.083337,-16.476633,29.793802,-68.46574,59.35462,-65.663246,48.030098,2.028893,-11.467601,3.6051874,-84.878235,-16.430862,75.96711,60.031963,-10.1269,-7.613245,-1.3925309
105,-0.1652149111032486,4.0844645500183105,24.920124053955078,5.350347937210164,-14.586765705040111,-90.44909752945506,-91.74031,7.697965,-3.1291401,154.61308,-46.182644,-2.3367186,-97.70245,-7.256641,16.904736,157.05475,-47.16838,2.7473578,-15.085147,-16.448345,29.793802,-68.488365,59.359642,-65.67146,48.023743,1.9967645,-11.468752,3.5951135,-84.88546,-16.43913,75.95933,60.039333,-10.16348,-7.6276083,-1.3865248
106,-0.16437488794326782,4.085957050323486,24.918766021728516,5.348081263604835,-14.593480624542943,-90.45166839728682,-91.743546,7.7004123,-3.129376,154.61658,-46.17799,-2.3271363,-97.705154,-7.2573657,16.901136,157.0528,-47.161667,2.7472835,-15.078576,-16.412878,29.793802,-68.534874,59.366375,-65.72495,48.00902,1.9360065,-11.4673395,3.5854197,-84.890625,-16.447653,75.968956,60.05931,-10.186769,-7.643647,-1.3768616
107,-0.16372302174568176,4.088433265686035,24.91696548461914,5.350832253073319,-14.600660176891303,-90.45356912146036,-91.74517,7.7036753,-3.1246984,154.61897,-46.17309,-2.3174157,-97.70841,-7.2561398,16.902128,157.05264,-47.156155,2.749546,-15.082121,-16.448818,29.793802,-68.53809,59.36951,-65.70968,48.023952,1.9783859,-11.46279,3.579031,-84.89295,-16.456203,75.94319,60.035305,-10.200125,-7.6593337,-1.3735931
108,-0.16297903656959534,4.091477394104004,24.914974212646484,5.3520478442381725,-14.607031302024719,-90.45482548634492,-91.74688,7.706072,-3.1211302,154.61859,-46.167133,-2.3123925,-97.71141,-7.255614,16.903772,157.05235,-47.151157,2.752605,-15.086439,-16.470354,29.793802,-68.52903,59.371056,-65.67674,48.026966,2.0253928,-11.459158,3.5719252,-84.89791,-16.46256,75.92328,60.021328,-10.217228,-7.6747084,-1.3647314
109,-0.16238315403461456,4.0946125984191895,24.913040161132812,5.351223802293308,-14.610811668026754,-90.45535163106386,-91.750374,7.7068796,-3.1224818,154.61777,-46.161514,-2.3155181,-97.712845,-7.255241,16.901413,157.05186,-47.148582,2.756455,-15.079199,-16.409128,29.793802,-68.5815,59.378437,-65.74108,47.991085,1.9487658,-11.460114,3.5599465,-84.90307,-16.472073,75.947525,60.05621,-10.240765,-7.6890655,-1.343178
110,-0.16228492558002472,4.097907066345215,24.911108016967773,5.352097777050367,-14.614306978727218,-90.45484905153359,-91.75236,7.707352,-3.1207504,154.61298,-46.154488,-2.3229384,-97.71619,-7.253032,16.90417,157.05083,-47.1456,2.7627378,-15.081489,-16.42412,29.793802,-68.600815,59.382126,-65.75049,47.989597,1.9707885,-11.458086,3.5522234,-84.90817,-16.480482,75.9389,60.04738,-10.24815,-7.7029357,-1.3335463
111,-0.16218172013759613,4.101190567016602,24.909080505371094,5.3534140656557945,-14.61803709496296,-90.4543559593949,-91.75444,7.7078943,-3.1191964,154.60847,-46.14719,-2.3307626,-97.71861,-7.2505083,16.90658,157.0509,-47.14223,2.7684336,-15.082534,-16.425554,29.793802,-68.618195,59.386177,-65.75957,47.976646,1.9846454,-11.456293,3.544151,-84.91086,-16.490072,75.932,60.042606,-10.261636,-7.7151055,-1.3176842
112,-0.1620209813117981,4.104348659515381,24.907087326049805,5.355237354264874,-14.623308723180449,-90.45449328724465,-91.756035,7.7086124,-3.1178548,154.60689,-46.1394,-2.3350556,-97.720894,-7.247388,16.909254,157.05043,-47.135513,2.7716362,-15.082247,-16.414408,29.793802,-68.63961,59.389973,-65.78076,47.95881,1.9809723,-11.455398,3.538317,-84.91315,-16.497843,75.935875,60.04775,-10.272136,-7.7246523,-1.3012704
113,-0.16212080419063568,4.107509136199951,24.9047794342041,5.358240613668882,-14.631641458733087,-90.45497111023604,-91.75696,7.7109203,-3.1137216,154.60521,-46.128468,-2.3340392,-97.723305,-7.240753,16.915707,157.05144,-47.123714,2.7714162,-15.089791,-16.465239,29.793802,-68.61502,59.389824,-65.735176,47.965485,2.0685577,-11.450898,3.538952,-84.91194,-16.503853,75.9123,60.0138,-10.269524,-7.7304044,-1.2953049
114,-0.16208204627037048,4.1103668212890625,24.902599334716797,5.358527539454802,-14.640887188088069,-90.45562573720673,-91.759155,7.712755,-3.1127982,154.60745,-46.117104,-2.3307455,-97.72357,-7.2331595,16.918997,157.05107,-47.10838,2.7682548,-15.089248,-16.419102,29.793802,-68.63073,59.3924,-65.75621,47.929066,2.0363684,-11.451854,3.533606,-84.91152,-16.507982,75.93016,60.036766,-10.287311,-7.733285,-1.2673087
115,-0.1626836508512497,4.113582134246826,24.900211334228516,5.361501780380487,-14.650986189658179,-90.45660823576871,-91.76004,7.7156944,-3.1089902,154.60892,-46.10506,-2.3251505,-97.72601,-7.2269835,16.924248,157.05244,-47.092987,2.763641,-15.091948,-16.446178,29.793802,-68.61979,59.394077,-65.740974,47.922318,2.0861313,-11.448304,3.5375743,-84.90633,-16.516033,75.926605,60.015762,-10.277966,-7.7341685,-1.2618867
116,-0.16345486044883728,4.116713523864746,24.897762298583984,5.363629624137104,-14.661070246091791,-90.45724756481731,-91.75971,7.7175994,-3.104864,154.6103,-46.095398,-2.3198924,-97.72755,-7.221883,16.930355,157.05363,-47.082283,2.7623627,-15.099232,-16.471663,29.793802,-68.57782,59.39423,-65.67906,47.91136,2.1633036,-11.445545,3.5427396,-84.902214,-16.526085,75.91563,59.989227,-10.279288,-7.733254,-1.2538793
117,-0.16417300701141357,4.119499683380127,24.89522933959961,5.364533841215037,-14.670396652364008,-90.45819574821334,-91.760796,7.718237,-3.1049337,154.61288,-46.087727,-2.312957,-97.72873,-7.2248745,16.928303,157.05438,-47.076866,2.7601686,-15.093734,-16.413933,29.793802,-68.603134,59.39792,-65.728584,47.868935,2.1056392,-11.446429,3.551338,-84.89836,-16.530455,75.9477,60.0198,-10.288693,-7.728472,-1.2391226
118,-0.16516880691051483,4.12239933013916,24.89241600036621,5.367591066505189,-14.680115719367413,-90.45871408288309,-91.7608,7.7187324,-3.1026292,154.61353,-46.080425,-2.3045726,-97.73052,-7.2283907,16.928797,157.05682,-47.075325,2.7602973,-15.095721,-16.441517,29.793802,-68.59874,59.398766,-65.73167,47.868275,2.143586,-11.443546,3.5701714,-84.89277,-16.534397,75.94715,60.00167,-10.273913,-7.721566,-1.2482877
119,-0.1660260558128357,4.125578880310059,24.88930892944336,5.372868527877177,-14.690385664481342,-90.45915079885224,-91.758934,7.7189755,-3.0985363,154.61473,-46.07428,-2.2969449,-97.732895,-7.2332683,16.930637,157.05933,-47.074684,2.7610157,-15.102474,-16.46924,29.793802,-68.56534,59.39877,-65.691765,47.863876,2.2059782,-11.441497,3.587537,-84.88538,-16.54138,75.93466,59.976456,-10.27401,-7.714618,-1.2519665
120,-0.1664981096982956,4.128697872161865,24.886070251464844,5.373537129825472,-14.700633393807705,-90.45988416545109,-91.757866,7.717987,-3.1003976,154.61604,-46.06861,-2.2953744,-97.732376,-7.2375326,16.927917,157.06221,-47.0731,2.7607088,-15.09694,-16.414717,29.793802,-68.59455,59.40248,-65.74991,47.82861,2.1321964,-11.444475,3.593613,-84.87994,-16.545176,75.96745,60.006844,-10.288454,-7.708914,-1.2438607
121,-0.167388454079628,4.131861209869385,24.88258934020996,5.376751479539944,-14.71130477500089,-90.46085963817612,-91.754974,7.716366,-3.1021929,154.61722,-46.06273,-2.3027875,-97.73421,-7.240078,16.92726,157.06583,-47.066505,2.7601874,-15.095073,-16.44768,29.793802,-68.583534,59.402596,-65.747986,47.830143,2.1610186,-11.4431925,3.599234,-84.87122,-16.547588,75.963844,59.994534,-10.289349,-7.706961,-1.2558503
122,-0.1684383898973465,4.134709358215332,24.879043579101562,5.382961338020242,-14.724410769194208,-90.46138831885678,-91.74641,7.714453,-3.1006176,154.61621,-46.058296,-2.31464,-97.73283,-7.2411,16.931772,157.07181,-47.06209,2.762152,-15.110375,-16.492964,29.793802,-68.5314,59.400936,-65.68162,47.845005,2.2278917,-11.446157,3.601851,-84.86238,-16.553337,75.94314,59.953915,-10.315894,-7.701094,-1.261173
123,-0.1693466156721115,4.1372222900390625,24.87552833557129,5.38507925152286,-14.7365972050689,-90.46213455613626,-91.74137,7.7112575,-3.1064005,154.61682,-46.05384,-2.3283079,-97.730225,-7.242328,16.929752,157.07628,-47.056297,2.76202,-15.106342,-16.443804,29.793802,-68.54529,59.403915,-65.722115,47.81529,2.1508744,-11.451568,3.594561,-84.85439,-16.556814,75.97428,59.9825,-10.348017,-7.699011,-1.253636
124,-0.17079055309295654,4.139834403991699,24.87173080444336,5.389030891653495,-14.749823834141544,-90.46277351629516,-91.7353,7.709409,-3.1072378,154.61787,-46.048767,-2.335575,-97.72892,-7.240386,16.93316,157.08215,-47.04986,2.7618134,-15.114056,-16.495438,29.793802,-68.50235,59.402714,-65.67507,47.830494,2.2091079,-11.45182,3.5934968,-84.844444,-16.561184,75.96094,59.949318,-10.354134,-7.7001286,-1.2620258
125,-0.1721544712781906,4.142187595367432,24.867835998535156,5.388314875322415,-14.763559566341373,-90.46273945742556,-91.73211,7.7075844,-3.1112597,154.62323,-46.044266,-2.3336964,-97.7256,-7.2391653,16.933353,157.08752,-47.04407,2.7586267,-15.112766,-16.449505,29.793802,-68.510544,59.404842,-65.70798,47.806057,2.1351097,-11.4560175,3.581719,-84.83459,-16.56312,75.98643,59.976818,-10.376368,-7.705858,-1.2450268
126,-0.174116313457489,4.144679069519043,24.863706588745117,5.3903713736654435,-14.778587522646793,-90.46284885654873,-91.72747,7.706638,-3.1123593,154.62912,-46.039734,-2.3265126,-97.72224,-7.23342,16.938152,157.0938,-47.037975,2.7551827,-15.118322,-16.495537,29.793802,-68.466835,59.403496,-65.66628,47.81995,2.1819432,-11.455059,3.5761645,-84.82146,-16.567747,75.97915,59.94925,-10.368525,-7.7145567,-1.2466395
127,-0.1756628304719925,4.147066593170166,24.859596252441406,5.388235352705838,-14.793002121928112,-90.46281359893077,-91.725624,7.70491,-3.1177018,154.63507,-46.034573,-2.3198211,-97.71735,-7.2285376,16.938557,157.09933,-47.03255,2.7509427,-15.11487,-16.46202,29.793802,-68.47156,59.40563,-65.69952,47.801456,2.1184235,-11.45763,3.5633297,-84.810104,-16.571508,76.006966,59.970936,-10.373358,-7.724818,-1.2315841
128,-0.17733262479305267,4.149683475494385,24.855356216430664,5.39099367200988,-14.806444555008566,-90.4633489282604,-91.72226,7.703213,-3.1207597,154.63971,-46.029408,-2.3183134,-97.71436,-7.224004,16.940054,157.10501,-47.027435,2.748028,-15.11602,-16.473223,29.793802,-68.46071,59.405907,-65.7015,47.806843,2.1141937,-11.458968,3.551536,-84.79921,-16.573975,76.01084,59.969223,-10.370123,-7.735561,-1.2256347
129,-0.17869378626346588,4.152470111846924,24.85123062133789,5.395908898363125,-14.818052211936212,-90.46446357812574,-91.71804,7.7008157,-3.1220686,154.64046,-46.02357,-2.3262281,-97.712875,-7.219898,16.943624,157.10811,-47.024414,2.748987,-15.124666,-16.52123,29.793802,-68.40025,59.402878,-65.621864,47.8241,2.2000065,-11.458336,3.540313,-84.791306,-16.577612,75.99246,59.943607,-10.362768,-7.7478766,-1.2244673
130,-0.17961232364177704,4.155219554901123,24.847171783447266,5.39858507445046,-14.827523095030008,-90.46651176448167,-91.71481,7.6975145,-3.1268187,154.64012,-46.01834,-2.3410125,-97.70979,-7.2160697,16.943218,157.11008,-47.024323,2.751487,-15.12754,-16.50804,29.793802,-68.396736,59.403053,-65.62072,47.8246,2.1892116,-11.461388,3.522546,-84.78828,-16.578186,75.998566,59.95808,-10.365569,-7.7604365,-1.2113982
131,-0.1808452010154724,4.158003330230713,24.842975616455078,5.402512348424337,-14.837393719801078,-90.4683964881263,-91.71125,7.6938276,-3.1312814,154.64095,-46.013264,-2.3556159,-97.706825,-7.2133207,16.941818,157.11316,-47.0234,2.753298,-15.123146,-16.519384,29.793802,-68.38193,59.402767,-65.6087,47.828316,2.2097068,-11.462894,3.505742,-84.78073,-16.579596,76.00531,59.966976,-10.351162,-7.774762,-1.2110741
132,-0.1822102963924408,4.160297870635986,24.839035034179688,5.402882377321998,-14.848888544275802,-90.46988550690082,-91.708595,7.690073,-3.1394455,154.64333,-46.00854,-2.3652015,-97.703354,-7.213091,16.937504,157.11617,-47.021004,2.7532167,-15.115665,-16.465862,29.793802,-68.410416,59.40707,-65.66701,47.810642,2.1297555,-11.469602,3.4881518,-84.775604,-16.586708,76.056946,60.00365,-10.339281,-7.7822027,-1.2031174
133,-0.18393932282924652,4.16234827041626,24.83501625061035,5.404968429723956,-14.86358498727588,-90.47194174559742,-91.70412,7.6874485,-3.1455355,154.64735,-46.004234,-2.3653038,-97.70075,-7.2152286,16.935362,157.12242,-47.0155,2.7517266,-15.113538,-16.461124,29.793802,-68.41228,59.408306,-65.68273,47.8175,2.1119065,-11.475578,3.471681,-84.76664,-16.589329,76.06582,60.013733,-10.343298,-7.786586,-1.1955181
134,-0.1857924908399582,4.164127349853516,24.83094024658203,5.407409092048182,-14.880505779609665,-90.47300045303484,-91.69791,7.6852,-3.1497195,154.65392,-46.00109,-2.359798,-97.6989,-7.218464,16.934692,157.13037,-47.008236,2.7492073,-15.115685,-16.491493,29.793802,-68.38835,59.408115,-65.66074,47.83949,2.1451156,-11.481041,3.45734,-84.75543,-16.593534,76.059105,60.00118,-10.343533,-7.7881117,-1.1946603
135,-0.18721643090248108,4.165583610534668,24.8271427154541,5.407384697926639,-14.896865215785468,-90.47504153240592,-91.69233,7.6831956,-3.156929,154.66144,-45.99905,-2.3540432,-97.69512,-7.223033,16.930553,157.13895,-47.002567,2.7460501,-15.1096945,-16.450907,29.793802,-68.40038,59.410984,-65.695946,47.830574,2.0870256,-11.490104,3.4405465,-84.74511,-16.597416,76.08194,60.03046,-10.361154,-7.7874107,-1.1788989
136,-0.18907858431339264,4.167257308959961,24.823345184326172,5.410099473094447,-14.91198853261028,-90.47683163392588,-91.685295,7.6828566,-3.1588876,154.66595,-45.9967,-2.3521667,-97.693855,-7.2228622,16.932898,157.14601,-46.995483,2.7447343,-15.116024,-16.520763,29.793802,-68.350235,59.40858,-65.626686,47.868862,2.1828756,-11.492544,3.4347668,-84.7357,-16.601719,76.05441,59.99348,-10.356229,-7.787442,-1.1841344
137,-0.19082261621952057,4.168994903564453,24.819730758666992,5.412245840184457,-14.923550869356372,-90.4791383740948,-91.6785,7.6833553,-3.1629367,154.67157,-45.99759,-2.3571632,-97.69007,-7.2209644,16.933249,157.15097,-46.994465,2.7434075,-15.115233,-16.51606,29.793802,-68.33348,59.408325,-65.60728,47.874035,2.1944046,-11.498094,3.4303105,-84.731514,-16.603607,76.05417,60.00273,-10.371393,-7.7877293,-1.17039
138,-0.1925535500049591,4.171060562133789,24.81601905822754,5.415247670788655,-14.933340406835145,-90.48184858882915,-91.67161,7.6852055,-3.1666474,154.6757,-45.999596,-2.3660622,-97.68583,-7.215781,16.934462,157.15584,-46.995686,2.7425551,-15.114428,-16.52747,29.793802,-68.30502,59.407364,-65.56665,47.884354,2.2339,-11.50227,3.4313066,-84.72791,-16.606155,76.04869,60.002968,-10.379627,-7.787654,-1.1619257
139,-0.19350212812423706,4.173316955566406,24.81224822998047,5.413335086476973,-14.942309246203616,-90.48447931239835,-91.665634,7.6862717,-3.1735141,154.6807,-46.002296,-2.3763933,-97.68104,-7.211017,16.932661,157.15744,-46.995968,2.741439,-15.103545,-16.459364,29.793802,-68.32701,59.41134,-65.60461,47.85886,2.1594331,-11.509034,3.4287956,-84.72647,-16.61299,76.08837,60.04712,-10.394285,-7.785648,-1.1418122
140,-0.19459624588489532,4.176004409790039,24.80821990966797,5.416095491791249,-14.952771867686971,-90.48739550718527,-91.658226,7.687019,-3.1766589,154.68478,-46.002644,-2.3845074,-97.67726,-7.2062097,16.933947,157.16237,-46.994205,2.741597,-15.1031885,-16.484112,29.793802,-68.30783,59.4112,-65.57477,47.87707,2.2008255,-11.509683,3.4303713,-84.72213,-16.618885,76.07791,60.036533,-10.398235,-7.7839904,-1.1365021
141,-0.195733904838562,4.178487300872803,24.80432891845703,5.41875792359293,-14.964972160681484,-90.48987544400462,-91.651,7.68585,-3.1816585,154.68724,-45.999905,-2.3910058,-97.67416,-7.2021847,16.934208,157.16623,-46.988026,2.7426202,-15.103007,-16.496628,29.793802,-68.28832,59.41077,-65.54726,47.887684,2.2308657,-11.508179,3.4291506,-84.7177,-16.622353,76.07139,60.03231,-10.408367,-7.7802124,-1.1269755
142,-0.19719856977462769,4.180522441864014,24.80078125,5.421144835145609,-14.977922483756629,-90.49216061463767,-91.642494,7.683976,-3.1860034,154.68959,-45.996468,-2.3967607,-97.6712,-7.197216,16.935125,157.17012,-46.979744,2.7447143,-15.104651,-16.503065,29.793802,-68.24739,59.4098,-65.48675,47.88943,2.2775748,-11.504874,3.425813,-84.7127,-16.62822,76.06411,60.027107,-10.423341,-7.7752094,-1.1138077
143,-0.19883301854133606,4.182316780090332,24.79753875732422,5.422435270700511,-14.991235013502518,-90.49448508754503,-91.6351,7.681086,-3.1922104,154.69252,-45.991932,-2.4021633,-97.66794,-7.194523,16.933697,157.17368,-46.970844,2.74605,-15.1052475,-16.516392,29.793802,-68.22897,59.40918,-65.46111,47.9003,2.3067563,-11.4994335,3.4241614,-84.70809,-16.630219,76.06005,60.022953,-10.4301405,-7.770401,-1.1063495
144,-0.20032453536987305,4.183960914611816,24.794536590576172,5.425522873256372,-15.006062961510823,-90.49685140743756,-91.62502,7.678996,-3.1956193,154.69545,-45.989025,-2.4047408,-97.66186,-7.1923466,16.934336,157.17773,-46.964783,2.7483137,-15.10857,-16.46927,29.793802,-68.23884,59.41103,-65.474686,47.89329,2.2577798,-11.499338,3.41566,-84.70839,-16.632864,76.07741,60.047256,-10.459299,-7.7656736,-1.0789723
145,-0.20193201303482056,4.185805797576904,24.791379928588867,5.428472296776184,-15.020328957451223,-90.4994172415368,-91.61787,7.677211,-3.1990864,154.69832,-45.984173,-2.4054046,-97.65989,-7.192221,16.934105,157.1822,-46.95773,2.7477467,-15.094242,-16.49072,29.793802,-68.23146,59.41099,-65.469444,47.894127,2.281365,-11.487897,3.4137812,-84.70068,-16.634045,76.076614,60.05488,-10.451683,-7.7655816,-1.082797
146,-0.20304766297340393,4.187785625457764,24.78826904296875,5.428370155520115,-15.036215599314376,-90.5029214761442,-91.60979,7.6750116,-3.2056198,154.70367,-45.980656,-2.4040012,-97.65401,-7.197092,16.928198,157.1869,-46.952652,2.744818,-15.093319,-16.452675,29.793802,-68.25375,59.415848,-65.51079,47.88541,2.222368,-11.478063,3.4103403,-84.69437,-16.644043,76.10457,60.06796,-10.463235,-7.7628646,-1.0723456
147,-0.2044859528541565,4.190047264099121,24.78509521484375,5.433734046986359,-15.052284701109073,-90.50569960156236,-91.60023,7.6738586,-3.20623,154.70642,-45.97663,-2.4024029,-97.64881,-7.199182,16.92978,157.1931,-46.949387,2.7448592,-15.098206,-16.495749,29.793802,-68.218994,59.415028,-65.459946,47.906315,2.288696,-11.4646435,3.4093947,-84.68783,-16.649258,76.082924,60.042427,-10.468712,-7.7628193,-1.0712552
148,-0.2056332230567932,4.19251823425293,24.782012939453125,5.436808316247798,-15.06672261192944,-90.50836589319535,-91.59165,7.6730947,-3.2078424,154.70918,-45.9734,-2.4030273,-97.64341,-7.200583,16.93013,157.19629,-46.947212,2.743675,-15.098057,-16.474102,29.793802,-68.22091,59.415943,-65.46181,47.901127,2.269263,-11.455594,3.4014428,-84.68671,-16.651274,76.09008,60.058205,-10.486934,-7.763114,-1.0565947
149,-0.20670846104621887,4.1953582763671875,24.778976440429688,5.439970753344936,-15.078535947617235,-90.51025034268883,-91.58443,7.67377,-3.208963,154.71147,-45.971066,-2.4087043,-97.637596,-7.2013464,16.931028,157.19958,-46.94831,2.742517,-15.094978,-16.469604,29.793802,-68.22217,59.417484,-65.46315,47.897556,2.26733,-11.442189,3.3941605,-84.68454,-16.655561,76.09796,60.06623,-10.491738,-7.764001,-1.0533112
150,-0.20762589573860168,4.198534965515137,24.775833129882812,5.444787518541429,-15.088835646057424,-90.51230158139755,-91.57712,7.6758933,-3.2080185,154.71153,-45.969078,-2.4166343,-97.63202,-7.2013645,16.93403,157.20181,-46.951416,2.7409956,-15.095701,-16.479671,29.793802,-68.21227,59.41869,-65.44224,47.899853,2.2911193,-11.427719,3.3853838,-84.6849,-16.661884,76.09602,60.062237,-10.495783,-7.7649693,-1.0506498
151,-0.2085309475660324,4.201690673828125,24.772762298583984,5.449434868923989,-15.099221041118453,-90.51385741290231,-91.57048,7.677571,-3.2067251,154.71162,-45.966354,-2.424681,-97.62625,-7.2014446,16.937407,157.20396,-46.954613,2.7400465,-15.096899,-16.484018,29.793802,-68.20175,59.419636,-65.42115,47.898712,2.3102958,-11.415085,3.376054,-84.68539,-16.667183,76.09522,60.061607,-10.501995,-7.766487,-1.0463593
152,-0.20976032316684723,4.204826831817627,24.769737243652344,5.454721263032624,-15.111733739107343,-90.51465540772979,-91.56267,7.677829,-3.2038298,154.71175,-45.962177,-2.4296422,-97.62096,-7.201205,16.943087,157.20662,-46.954765,2.7412422,-15.10423,-16.513563,29.793802,-68.155205,59.41866,-65.349174,47.903408,2.380664,-11.403878,3.3716102,-84.68421,-16.672924,76.07993,60.04272,-10.507707,-7.768106,-1.044645
153,-0.21098186075687408,4.207564353942871,24.766862869262695,5.4550377919929725,-15.125600269832974,-90.51425913326324,-91.55768,7.6742797,-3.207134,154.71242,-45.95568,-2.4317193,-97.614395,-7.204602,16.942703,157.20947,-46.951103,2.742957,-15.097152,-16.455965,29.793802,-68.19578,59.4253,-65.41863,47.875618,2.2861362,-11.401223,3.3648071,-84.682846,-16.682793,76.123276,60.07474,-10.511005,-7.769079,-1.0361512
154,-0.21271975338459015,4.210468769073486,24.763914108276367,5.45953256687996,-15.142009591208087,-90.51277609662345,-91.54921,7.670321,-3.2035954,154.71295,-45.948067,-2.4298534,-97.610085,-7.206166,16.949371,157.21385,-46.94317,2.7473195,-15.10744,-16.50695,29.793802,-68.15181,59.424194,-65.3559,47.893307,2.3604133,-11.396006,3.3657508,-84.6773,-16.688591,76.09812,60.04225,-10.512518,-7.7718678,-1.0398595
155,-0.21409550309181213,4.213027477264404,24.761104583740234,5.461152730143327,-15.15858431141018,-90.51066065968978,-91.542114,7.6644855,-3.2047546,154.71477,-45.94076,-2.4290066,-97.60246,-7.2101674,16.95191,157.21712,-46.936977,2.7527466,-15.108032,-16.457705,29.793802,-68.16627,59.426823,-65.38713,47.86879,2.2940054,-11.398435,3.3622158,-84.675186,-16.690994,76.12251,60.071564,-10.530321,-7.7743216,-1.0250667
156,-0.2155912071466446,4.215950012207031,24.757898330688477,5.464911563825047,-15.174988486001746,-90.50901294135511,-91.53553,7.6599946,-3.2042127,154.71556,-45.9317,-2.430312,-97.59655,-7.2110596,16.955795,157.22214,-46.93026,2.7581005,-15.110324,-16.490406,29.793802,-68.15558,59.4271,-65.37885,47.878975,2.3203554,-11.399446,3.3693306,-84.66983,-16.693565,76.12021,60.058525,-10.519339,-7.7764363,-1.0324568
157,-0.21668197214603424,4.219039440155029,24.754486083984375,5.466554258449421,-15.191329546655492,-90.50673908035868,-91.529465,7.655162,-3.2046454,154.71635,-45.92185,-2.435381,-97.58816,-7.2117248,16.959732,157.22446,-46.925068,2.7655554,-15.116545,-16.471556,29.793802,-68.160416,59.4283,-65.389465,47.87251,2.2894988,-11.410498,3.3748732,-84.67004,-16.695227,76.13114,60.067364,-10.532211,-7.775934,-1.0191984
158,-0.2178681492805481,4.222585678100586,24.75074005126953,5.468292430063706,-15.207296834267105,-90.50477249126044,-91.523834,7.6512184,-3.2058494,154.7169,-45.91159,-2.4433339,-97.58006,-7.2115498,16.962597,157.22768,-46.92062,2.7734985,-15.119296,-16.466793,29.793802,-68.16443,59.429295,-65.397705,47.867817,2.2723649,-11.422119,3.3834789,-84.669556,-16.696543,76.13858,60.07418,-10.536344,-7.776561,-1.0108942
159,-0.2191622108221054,4.226501941680908,24.746755599975586,5.471066716258282,-15.224056678982716,-90.5012564613059,-91.51858,7.6466746,-3.2046084,154.71674,-45.899567,-2.4501398,-97.57126,-7.210986,16.96807,157.23155,-46.915943,2.7823756,-15.124956,-16.488886,29.793802,-68.15722,59.430225,-65.39468,47.87452,2.2830558,-11.436545,3.4016762,-84.66506,-16.699833,76.14566,60.062386,-10.527631,-7.7754254,-1.0149227
160,-0.2203502058982849,4.230465412139893,24.742612838745117,5.474315190341413,-15.240973023833014,-90.49781708583893,-91.51444,7.6419287,-3.2031996,154.71822,-45.8877,-2.454129,-97.563354,-7.2127304,16.97362,157.23552,-46.914246,2.7882528,-15.131125,-16.488121,29.793802,-68.15314,59.431637,-65.39317,47.87001,2.2783933,-11.449342,3.4155982,-84.66377,-16.703712,76.156876,60.061073,-10.528324,-7.7735405,-1.0095415
161,-0.22126854956150055,4.234374523162842,24.73833465576172,5.475354981960181,-15.258227511038465,-90.49384982332805,-91.51241,7.6367297,-3.2020261,154.72025,-45.87532,-2.452658,-97.55538,-7.2163105,16.978254,157.24059,-46.914295,2.7909906,-15.132121,-16.4591,29.793802,-68.179344,59.43588,-65.44015,47.85402,2.2267296,-11.46137,3.4296875,-84.66242,-16.708946,76.18377,60.078415,-10.532584,-7.7717824,-1.0003024
162,-0.22222933173179626,4.238403797149658,24.73389434814453,5.477646547267861,-15.275808277479763,-90.48959826529415,-91.51101,7.6316686,-3.198633,154.723,-45.86215,-2.4477916,-97.54823,-7.2208724,16.984467,157.24713,-46.916576,2.7917767,-15.137681,-16.459185,29.793802,-68.1873,59.436943,-65.45278,47.851322,2.221372,-11.470948,3.4453278,-84.66168,-16.71054,76.18952,60.08002,-10.538104,-7.7700295,-0.99256635
163,-0.2232898473739624,4.2426018714904785,24.729280471801758,5.480968095618085,-15.294154037844228,-90.48475195735767,-91.510254,7.6262484,-3.1946163,154.72447,-45.84763,-2.4427686,-97.54137,-7.2249594,16.991703,157.25418,-46.917297,2.7919025,-15.143766,-16.456474,29.793802,-68.19745,59.43867,-65.47253,47.847622,2.2120404,-11.480651,3.4622197,-84.65997,-16.712841,76.19878,60.082684,-10.5437975,-7.76762,-0.98644716
164,-0.22454571723937988,4.246862888336182,24.724489212036133,5.483022363613542,-15.312479184900269,-90.47978855248196,-91.50804,7.6201205,-3.191468,154.72687,-45.834663,-2.4432468,-97.534,-7.2278314,16.999298,157.26111,-46.917824,2.792614,-15.150477,-16.472012,29.793802,-68.19925,59.439228,-65.47592,47.851,2.2258863,-11.48758,3.4769356,-84.65644,-16.714468,76.19924,60.07498,-10.542586,-7.7648864,-0.9889702
165,-0.22611941397190094,4.251206874847412,24.719467163085938,5.487830086991659,-15.332045846989518,-90.47408113142411,-91.50379,7.6136346,-3.1860623,154.72568,-45.82033,-2.4497838,-97.52725,-7.228138,17.010977,157.26761,-46.91271,2.7948365,-15.161976,-16.512115,29.793802,-68.18093,59.43851,-65.447395,47.863277,2.2784545,-11.492766,3.490049,-84.65324,-16.716509,76.186066,60.050987,-10.538949,-7.762256,-0.9968083
166,-0.22732247412204742,4.255581855773926,24.714405059814453,5.48989741727274,-15.350938482252806,-90.46897265194822,-91.49999,7.6064134,-3.1840234,154.72623,-45.80726,-2.4613318,-97.52048,-7.228336,17.019428,157.27356,-46.906223,2.7956848,-15.166255,-16.482874,29.793802,-68.19011,59.44045,-65.459755,47.841934,2.249619,-11.500254,3.4949486,-84.65191,-16.719296,76.19984,60.066963,-10.550783,-7.759608,-0.99243665
167,-0.22821463644504547,4.260258674621582,24.709056854248047,5.492018389380524,-15.370446528817398,-90.46362362671637,-91.49702,7.5990453,-3.1822796,154.72559,-45.7927,-2.4731355,-97.51444,-7.228758,17.028135,157.27846,-46.897785,2.7957323,-15.171092,-16.471977,29.793802,-68.203094,59.442265,-65.47806,47.831455,2.2317996,-11.505692,3.4994411,-84.64952,-16.721546,76.20956,60.072994,-10.553786,-7.7566414,-0.9953141
168,-0.2288312464952469,4.2649641036987305,24.703426361083984,5.493831604203444,-15.389934640994007,-90.45872034792623,-91.49436,7.5927024,-3.1802073,154.72638,-45.779034,-2.4810185,-97.5081,-7.2289042,17.036295,157.28568,-46.891323,2.795933,-15.176097,-16.482058,29.793802,-68.20612,59.442772,-65.48042,47.82973,2.240113,-11.507387,3.5015593,-84.64622,-16.722729,76.209366,60.069004,-10.551704,-7.754172,-1.0027137
169,-0.22972312569618225,4.269419193267822,24.697784423828125,5.4961599244491,-15.40961920878118,-90.4536528196276,-91.49267,7.5885224,-3.176299,154.72964,-45.76508,-2.4816387,-97.50522,-7.2315555,17.043324,157.29181,-46.88315,2.792208,-15.181061,-16.510477,29.793802,-68.19695,59.442307,-65.46461,47.83366,2.2761269,-11.504788,3.5010436,-84.64145,-16.723713,76.20037,60.056026,-10.545091,-7.7524843,-1.0143733
170,-0.23061607778072357,4.273702621459961,24.692110061645508,5.497891840251482,-15.43018253728604,-90.44862076209974,-91.490395,7.584714,-3.1726341,154.73357,-45.752518,-2.478696,-97.49868,-7.2351475,17.050411,157.29904,-46.879066,2.7897515,-15.188852,-16.485502,29.793802,-68.206215,59.443825,-65.4758,47.820442,2.249974,-11.505138,3.4935577,-84.63877,-16.72535,76.20958,60.063995,-10.560005,-7.7477307,-1.0114866
171,-0.23158423602581024,4.278303146362305,24.686235427856445,5.498603678288729,-15.450833909784796,-90.44467464176651,-91.48866,7.5815096,-3.1702201,154.73784,-45.739468,-2.4746644,-97.49412,-7.237295,17.055351,157.3061,-46.87282,2.7856932,-15.194289,-16.477169,29.793802,-68.213326,59.44476,-65.48442,47.81461,2.2385492,-11.503632,3.4840734,-84.63824,-16.72611,76.21438,60.06729,-10.564803,-7.745279,-1.0100037
172,-0.2325073778629303,4.283326148986816,24.679975509643555,5.500873799649981,-15.471112326974506,-90.44076140410981,-91.48835,7.577256,-3.1677203,154.74164,-45.724106,-2.4704566,-97.491196,-7.239393,17.059948,157.31285,-46.864174,2.7819245,-15.194057,-16.486546,29.793802,-68.21441,59.444992,-65.486206,47.810677,2.241893,-11.501146,3.4749389,-84.633125,-16.726543,76.21429,60.06578,-10.562427,-7.742377,-1.0175983
173,-0.23328715562820435,4.288475036621094,24.67359733581543,5.50180391212428,-15.492518088740107,-90.43631110874811,-91.488945,7.570305,-3.1669884,154.7448,-45.706276,-2.466376,-97.48656,-7.24125,17.06405,157.31967,-46.85517,2.780772,-15.2042,-16.51111,29.793802,-68.20475,59.444767,-65.474655,47.821083,2.257218,-11.499877,3.465507,-84.624756,-16.727283,76.2079,60.045414,-10.566012,-7.737429,-1.0295796
174,-0.23405025899410248,4.29331111907959,24.66735076904297,5.506011834754149,-15.51550867208577,-90.43242893384604,-91.4855,7.5639434,-3.1614685,154.74701,-45.68867,-2.4597807,-97.48191,-7.2389526,17.073317,157.3274,-46.845974,2.783096,-15.219016,-16.553951,29.793802,-68.15079,59.44243,-65.39284,47.83276,2.32494,-11.499955,3.451054,-84.61956,-16.727985,76.1812,60.01324,-10.579388,-7.733233,-1.0331305
175,-0.23474828898906708,4.297698497772217,24.661428451538086,5.507265940111801,-15.537352614163304,-90.42918692090583,-91.484856,7.5564494,-3.1617813,154.75055,-45.671368,-2.4562888,-97.47709,-7.2379656,17.076525,157.33405,-46.8355,2.7835019,-15.223895,-16.538465,29.793802,-68.14313,59.442875,-65.38548,47.822525,2.2996933,-11.502717,3.4339173,-84.61552,-16.72794,76.18834,60.018127,-10.594435,-7.729517,-1.0278294
176,-0.2356099933385849,4.3021769523620605,24.65564727783203,5.50802626032772,-15.558141548165802,-90.42636321150201,-91.48466,7.549163,-3.1636415,154.75365,-45.65536,-2.457922,-97.47282,-7.2376986,17.079012,157.34044,-46.826424,2.782012,-15.22814,-16.548893,29.793802,-68.13122,59.442738,-65.37357,47.823715,2.3019307,-11.502531,3.4218535,-84.60949,-16.727884,76.187996,60.009014,-10.596138,-7.727777,-1.0278356
177,-0.2362860143184662,4.3068366050720215,24.649904251098633,5.507690447833169,-15.578728337763552,-90.42369197292655,-91.48155,7.542178,-3.1656718,154.75713,-45.64372,-2.4679358,-97.46754,-7.235528,17.083084,157.347,-46.817177,2.7798352,-15.228836,-16.520712,29.793802,-68.138084,59.444637,-65.38994,47.808903,2.256509,-11.5042305,3.4076674,-84.605225,-16.727518,76.20426,60.022465,-10.602658,-7.7283382,-1.0131952
178,-0.2371501624584198,4.311800003051758,24.64405632019043,5.507984916067882,-15.598323866198884,-90.42100508185445,-91.47917,7.5348234,-3.1693392,154.76006,-45.632988,-2.4844954,-97.46348,-7.232791,17.087276,157.35371,-46.80791,2.7760146,-15.231447,-16.527842,29.793802,-68.13519,59.44528,-65.39104,47.812153,2.2514908,-11.503248,3.3974001,-84.59922,-16.727308,76.20543,60.014675,-10.597242,-7.73106,-1.0029216
179,-0.2381039261817932,4.316840648651123,24.638286590576172,5.508363392586637,-15.618204714928064,-90.41887550085696,-91.475334,7.528935,-3.1702144,154.76262,-45.622982,-2.4997783,-97.45979,-7.2291975,17.093525,157.36093,-46.798637,2.7734406,-15.237224,-16.556557,29.793802,-68.11175,59.444786,-65.36141,47.823227,2.2837949,-11.50147,3.3904755,-84.59311,-16.726654,76.19355,59.99346,-10.591065,-7.7345033,-0.99244446
180,-0.2388313114643097,4.321756362915039,24.632701873779297,5.508057472486864,-15.637125153968757,-90.41734701390527,-91.47305,7.524481,-3.1710541,154.76477,-45.611794,-2.50826,-97.45571,-7.2278996,17.09753,157.36601,-46.790504,2.7728598,-15.237297,-16.51672,29.793802,-68.12164,59.446472,-65.38214,47.805603,2.2284744,-11.5043745,3.380521,-84.5897,-16.72605,76.20779,60.012226,-10.604839,-7.737896,-0.96500707
181,-0.23988556861877441,4.327083110809326,24.627098083496094,5.508977608687172,-15.653967518727189,-90.41648640381716,-91.47606,7.521759,-3.172265,154.76772,-45.59732,-2.507749,-97.45568,-7.229683,17.096544,157.36926,-46.781223,2.7727752,-15.225626,-16.555378,29.793802,-68.10773,59.446064,-65.37393,47.81121,2.264494,-11.501572,3.3830645,-84.58069,-16.725964,76.2021,59.998688,-10.583114,-7.7414436,-0.96723574
182,-0.24044430255889893,4.3327250480651855,24.621522903442383,5.509699020733031,-15.6725990765902,-90.41563685978886,-91.47662,7.5215983,-3.1701436,154.76978,-45.582882,-2.4994514,-97.452194,-7.233314,17.096474,157.37119,-46.77424,2.7763286,-15.240279,-16.554384,29.793802,-68.09492,59.446575,-65.364296,47.821884,2.2576165,-11.504558,3.3890207,-84.57727,-16.72479,76.20115,59.98285,-10.594024,-7.74282,-0.94714934
183,-0.2411104440689087,4.338350296020508,24.61628532409668,5.50953602670487,-15.690092062284622,-90.41502985570826,-91.479485,7.5213985,-3.1689162,154.77249,-45.56714,-2.4898252,-97.45077,-7.236462,17.095303,157.3731,-46.766357,2.779082,-15.241691,-16.554058,29.793802,-68.0858,59.447346,-65.36242,47.822433,2.2538927,-11.506615,3.3941052,-84.57265,-16.723646,76.20356,59.978394,-10.597807,-7.7456584,-0.93101823
184,-0.24204440414905548,4.343825340270996,24.611114501953125,5.510729519579892,-15.708242473281762,-90.41501300423499,-91.48032,7.5201983,-3.1691613,154.7749,-45.551323,-2.4829345,-97.44977,-7.2379236,17.0942,157.37521,-46.755886,2.7788985,-15.241358,-16.555328,29.793802,-68.07853,59.44794,-65.36378,47.823532,2.2549403,-11.508231,3.3965302,-84.56793,-16.72281,76.206276,59.974213,-10.600162,-7.749474,-0.9148393
185,-0.24305680394172668,4.349185466766357,24.6061954498291,5.510347740806576,-15.728236527538286,-90.41400932675015,-91.47991,7.516493,-3.1722343,154.77777,-45.533558,-2.4793022,-97.448616,-7.238371,17.092972,157.37814,-46.74088,2.774488,-15.243222,-16.558752,29.793802,-68.06564,59.448906,-65.36553,47.826492,2.2650309,-11.509588,3.4031472,-84.55846,-16.721357,76.21052,59.966286,-10.603851,-7.7533665,-0.9026219
186,-0.2439611852169037,4.354445457458496,24.601329803466797,5.510582394697383,-15.748493598503176,-90.41401147175443,-91.47934,7.5123334,-3.1769857,154.77985,-45.51424,-2.4768126,-97.44833,-7.2369914,17.091099,157.38237,-46.724617,2.7668958,-15.243547,-16.568882,29.793802,-68.05261,59.449383,-65.363884,47.832108,2.2891364,-11.509709,3.4058135,-84.5505,-16.720236,76.21165,59.956047,-10.606379,-7.7591763,-0.88952076
187,-0.2448432594537735,4.3597588539123535,24.59654426574707,5.511479778925847,-15.769422265884133,-90.41345975998406,-91.47676,7.507753,-3.181969,154.78302,-45.49647,-2.4756613,-97.44668,-7.234989,17.089233,157.38695,-46.707687,2.7589223,-15.247628,-16.578365,29.793802,-68.03111,59.45055,-65.35463,47.839268,2.3170633,-11.511532,3.4115193,-84.54112,-16.717043,76.213585,59.943207,-10.61196,-7.763469,-0.87737805
188,-0.24560362100601196,4.365162372589111,24.591943740844727,5.51115310871833,-15.788410188059425,-90.41332739860118,-91.47645,7.5035253,-3.1871336,154.78465,-45.47966,-2.476218,-97.44564,-7.2346334,17.08696,157.39098,-46.694843,2.751351,-15.248642,-16.579329,29.793802,-68.01757,59.45133,-65.35521,47.84281,2.3269913,-11.51447,3.4125502,-84.53374,-16.715416,76.21735,59.936676,-10.619527,-7.7684484,-0.8623338
189,-0.24659079313278198,4.370777130126953,24.5872859954834,5.513180339557435,-15.80740875772783,-90.41328830106193,-91.47287,7.500565,-3.187021,154.78487,-45.466805,-2.4789724,-97.44428,-7.232208,17.09043,157.39485,-46.68486,2.746807,-15.262328,-16.62804,29.793802,-67.92353,59.449627,-65.23593,47.85656,2.442342,-11.517282,3.4145164,-84.52963,-16.706324,76.19712,59.904545,-10.625085,-7.7732944,-0.8527694
190,-0.2474370151758194,4.376297950744629,24.582914352416992,5.513174908402618,-15.8238954254698,-90.41375765546121,-91.472496,7.497254,-3.191035,154.78421,-45.455433,-2.4849308,-97.44334,-7.232463,17.089914,157.39629,-46.676327,2.740964,-15.26471,-16.615902,29.793802,-67.913376,59.450905,-65.23876,47.858253,2.4264781,-11.525383,3.4081745,-84.52656,-16.703415,76.2057,59.903965,-10.638336,-7.777483,-0.83215445
191,-0.2482525259256363,4.381857872009277,24.578655242919922,5.511747930620052,-15.840226464656874,-90.41417766035829,-91.47234,7.493642,-3.1961315,154.78513,-45.44488,-2.4910128,-97.44034,-7.233454,17.08718,157.3985,-46.670498,2.7356093,-15.262138,-16.592636,29.793802,-67.907715,59.453022,-65.258156,47.85165,2.3901122,-11.534426,3.4048162,-84.52025,-16.700684,76.222374,59.914013,-10.649822,-7.781056,-0.8151075
192,-0.2492680847644806,4.387691497802734,24.574256896972656,5.512083258651612,-15.856464717607606,-90.414242885878,-91.47242,7.491642,-3.1986868,154.7858,-45.43193,-2.4933155,-97.43955,-7.232249,17.086205,157.39992,-46.66099,2.7318218,-15.263041,-16.63069,29.793802,-67.87981,59.453365,-65.24148,47.869858,2.4266036,-11.5358,3.4077225,-84.51239,-16.696722,76.21839,59.890728,-10.641114,-7.7830806,-0.81467664
193,-0.24993708729743958,4.393605709075928,24.569910049438477,5.510847060774526,-15.872224633077344,-90.41443660634056,-91.47481,7.490591,-3.201624,154.78748,-45.415863,-2.4897745,-97.437355,-7.2323537,17.08324,157.40063,-46.65116,2.7314212,-15.263393,-16.600384,29.793802,-67.87941,59.45613,-65.26531,47.861675,2.384771,-11.538517,3.404937,-84.5086,-16.692715,76.235085,59.902107,-10.657622,-7.782883,-0.79246897
194,-0.25087088346481323,4.399561882019043,24.565696716308594,5.508858527412257,-15.886820087096373,-90.41481979671572,-91.479805,7.4909377,-3.2043502,154.78922,-45.39679,-2.4833043,-97.43599,-7.232279,17.078539,157.40193,-46.641533,2.7318308,-15.263155,-16.624172,29.793802,-67.862175,59.456562,-65.262566,47.87423,2.404557,-11.533862,3.408262,-84.50163,-16.690542,76.23312,59.884827,-10.65398,-7.7822003,-0.7880874
195,-0.2520093321800232,4.405029773712158,24.561796188354492,5.510143021789446,-15.902531070922182,-90.41455734909171,-91.48122,7.4918265,-3.202697,154.79135,-45.379013,-2.4750876,-97.43538,-7.2300725,17.078478,157.40315,-46.630066,2.7338681,-15.267171,-16.644196,29.793802,-67.83449,59.457176,-65.24356,47.88411,2.4291232,-11.529476,3.4105902,-84.49681,-16.68559,76.22644,59.869205,-10.659926,-7.7802835,-0.7764188
196,-0.2531110346317291,4.4099249839782715,24.558246612548828,5.509788464365152,-15.917553849053405,-90.41451566545106,-91.48493,7.4906673,-3.2045534,154.79144,-45.360313,-2.4697015,-97.43628,-7.229968,17.076017,157.40398,-46.616756,2.7318199,-15.269124,-16.652721,29.793802,-67.81446,59.45767,-65.23441,47.889095,2.4380188,-11.52483,3.4104657,-84.49086,-16.682028,76.22501,59.858845,-10.66545,-7.778617,-0.76365435
197,-0.2540081739425659,4.4146318435668945,24.554841995239258,5.510348105435053,-15.93333181127242,-90.41455079668874,-91.48695,7.4873548,-3.205973,154.79121,-45.343044,-2.4668188,-97.43847,-7.2294183,17.075237,157.40549,-46.60053,2.7252533,-15.270866,-16.657017,29.793802,-67.796875,59.458454,-65.229836,47.891365,2.4387798,-11.519894,3.4083056,-84.48575,-16.678228,76.2266,59.852356,-10.671562,-7.7771306,-0.74852836
198,-0.2547607719898224,4.419502258300781,24.55133056640625,5.511045533934814,-15.948996897050932,-90.41402380446141,-91.4896,7.4820304,-3.2084677,154.79103,-45.32583,-2.4652028,-97.442474,-7.2290554,17.073463,157.4073,-46.581955,2.7147543,-15.27306,-16.652845,29.793802,-67.7867,59.458973,-65.23261,47.89207,2.4273577,-11.515155,3.4034793,-84.48223,-16.676706,76.23008,59.84863,-10.678411,-7.7754307,-0.7306298
199,-0.2553079128265381,4.424805641174316,24.54761505126953,5.511142978165477,-15.964794650789118,-90.41365845387332,-91.49212,7.4766874,-3.2118983,154.78973,-45.30861,-2.4651177,-97.445435,-7.2300324,17.071257,157.4088,-46.564182,2.7043393,-15.273755,-16.639856,29.793802,-67.77988,59.460537,-65.2486,47.88685,2.3991625,-11.509694,3.4015932,-84.47504,-16.673573,76.24137,59.850002,-10.685412,-7.772583,-0.7137459
200,-0.256025105714798,4.430340766906738,24.543853759765625,5.511397434720093,-15.978837203769226,-90.41301496913422,-91.49572,7.471849,-3.2154906,154.78947,-45.29221,-2.4669528,-97.44809,-7.2313933,17.06872,157.40977,-46.548615,2.698349,-15.275636,-16.675953,29.793802,-67.7567,59.460686,-65.237526,47.90183,2.4303057,-11.501185,3.4050326,-84.46763,-16.669872,76.23649,59.826313,-10.67214,-7.772042,-0.7134811
201,-0.2565930485725403,4.435733318328857,24.540267944335938,5.514243360174399,-15.992412749057477,-90.41186853915382,-91.49597,7.4711056,-3.2125087,154.78702,-45.277508,-2.4677665,-97.44841,-7.2298393,17.072721,157.40958,-46.53824,2.7014854,-15.278243,-16.657404,29.793802,-67.75434,59.462982,-65.25275,47.894573,2.3966577,-11.499114,3.4019945,-84.46619,-16.664665,76.24718,59.834633,-10.679829,-7.7730517,-0.6935891
202,-0.2573787569999695,4.441086769104004,24.536846160888672,5.515870945224472,-16.00430771711696,-90.4108014956926,-91.49882,7.470822,-3.2110581,154.7832,-45.26128,-2.4710264,-97.44859,-7.229012,17.075047,157.40881,-46.52939,2.707746,-15.282585,-16.686472,29.793802,-67.73595,59.4643,-65.2426,47.9075,2.4176304,-11.493905,3.4045734,-84.46412,-16.657904,76.24304,59.818977,-10.667319,-7.7759004,-0.6901996
203,-0.25817757844924927,4.44624137878418,24.53351402282715,5.518889555225877,-16.016192001165447,-90.40917817936467,-91.500435,7.4710937,-3.2075193,154.78041,-45.246483,-2.4733274,-97.44861,-7.2286773,17.079056,157.40828,-46.520977,2.7150002,-15.289972,-16.706837,29.793802,-67.704605,59.46549,-65.212944,47.914253,2.444654,-11.490183,3.4066606,-84.46372,-16.648888,76.236465,59.80807,-10.664152,-7.7795553,-0.6814389
204,-0.25900864601135254,4.451107501983643,24.5302677154541,5.5202447359030895,-16.0284019925175,-90.4075321926811,-91.502396,7.4704823,-3.2053103,154.77914,-45.2323,-2.474344,-97.44886,-7.226736,17.082045,157.40878,-46.50997,2.7189796,-15.294191,-16.718115,29.793802,-67.683525,59.466286,-65.19881,47.917385,2.4542112,-11.48629,3.4072275,-84.46085,-16.643425,76.23491,59.800674,-10.661722,-7.782708,-0.67420983
205,-0.2598508596420288,4.455781936645508,24.527084350585938,5.521275006027612,-16.04194708039045,-90.4057200576967,-91.50397,7.4685307,-3.2038639,154.77948,-45.21862,-2.4726715,-97.45063,-7.2257257,17.08514,157.41006,-46.496418,2.7170203,-15.298308,-16.717272,29.793802,-67.66777,59.467148,-65.19612,47.916298,2.4471626,-11.4836645,3.408449,-84.45816,-16.63964,76.23774,59.797607,-10.665501,-7.784781,-0.66534585
206,-0.260680228471756,4.460407257080078,24.52386474609375,5.5216318818110555,-16.056502811217662,-90.40333000353603,-91.50486,7.465604,-3.2030132,154.78136,-45.205837,-2.469566,-97.451324,-7.22312,17.087866,157.41287,-46.48023,2.7128234,-15.301832,-16.709179,29.793802,-67.655235,59.46968,-65.20556,47.9103,2.4252982,-11.480467,3.4130273,-84.45403,-16.631887,76.24816,59.802994,-10.669213,-7.786483,-0.66067624
207,-0.26129111647605896,4.464898586273193,24.520713806152344,5.520842494609842,-16.070526607390068,-90.40138685954044,-91.506775,7.4630384,-3.202396,154.78331,-45.192513,-2.4655647,-97.45319,-7.2217045,17.089157,157.41661,-46.463345,2.7068255,-15.303482,-16.693626,29.793802,-67.65575,59.472477,-65.23074,47.90291,2.3870158,-11.478267,3.415106,-84.45101,-16.62594,76.26076,59.81203,-10.673893,-7.788981,-0.653993
208,-0.2620621621608734,4.469249248504639,24.517547607421875,5.5236751118549,-16.08468171576943,-90.39968384222148,-91.506584,7.4611626,-3.1992607,154.78326,-45.179523,-2.4630077,-97.454544,-7.2205453,17.094204,157.41962,-46.45014,2.7042027,-15.313283,-16.738337,29.793802,-67.62388,59.474792,-65.20414,47.921345,2.4270833,-11.473786,3.4211986,-84.44836,-16.612669,76.24566,59.790966,-10.667502,-7.7927794,-0.65693223
209,-0.2627820372581482,4.473426818847656,24.514446258544922,5.527334891041375,-16.09742538341719,-90.39791253860204,-91.50769,7.459725,-3.1957629,154.78189,-45.165302,-2.4615493,-97.45702,-7.2218146,17.098078,157.42099,-46.43781,2.7029996,-15.322195,-16.764608,29.793802,-67.58676,59.47585,-65.16706,47.928967,2.459937,-11.470395,3.4247532,-84.448524,-16.60245,76.2354,59.779774,-10.666341,-7.799285,-0.65202737
210,-0.263060986995697,4.477663993835449,24.511241912841797,5.527825194903418,-16.109650817800993,-90.39653688840532,-91.50949,7.4578834,-3.1955516,154.78008,-45.15132,-2.4616513,-97.45813,-7.224885,17.098751,157.42055,-46.4276,2.702356,-15.323431,-16.7268,29.793802,-67.61023,59.48361,-65.22573,47.91217,2.3772943,-11.470544,3.4255536,-84.452126,-16.587065,76.26633,59.813583,-10.665296,-7.8064885,-0.6393726
211,-0.2635243237018585,4.482207298278809,24.507665634155273,5.530436049714823,-16.121598680799597,-90.3949747634821,-91.510506,7.4570317,-3.19204,154.77855,-45.137165,-2.460845,-97.4605,-7.2273397,17.101582,157.42174,-46.41819,2.702032,-15.329676,-16.750935,29.793802,-67.59728,59.486614,-65.22235,47.92224,2.384626,-11.468479,3.4283369,-84.452126,-16.577864,76.2597,59.80464,-10.658993,-7.8148127,-0.6347241
212,-0.2640897035598755,4.486670017242432,24.504150390625,5.5345455387702955,-16.13415305898243,-90.39387996476233,-91.51161,7.45709,-3.1884618,154.77597,-45.12229,-2.4584224,-97.462204,-7.2279654,17.105686,157.42311,-46.4072,2.7015445,-15.339697,-16.78161,29.793802,-67.5605,59.48943,-65.18063,47.9304,2.4209747,-11.467108,3.4287817,-84.45323,-16.564684,76.24631,59.792763,-10.656766,-7.8236046,-0.62807655
213,-0.26451027393341064,4.490762233734131,24.500640869140625,5.535483827554617,-16.146744679598903,-90.39273313291311,-91.51367,7.45789,-3.187146,154.77579,-45.10787,-2.4537747,-97.46234,-7.227192,17.107382,157.4253,-46.396366,2.699919,-15.343492,-16.769697,29.793802,-67.556,59.491123,-65.18593,47.92469,2.397618,-11.469715,3.42307,-84.45362,-16.56095,76.25277,59.796787,-10.66124,-7.831521,-0.6121125
214,-0.26484477519989014,4.494723320007324,24.49726104736328,5.534793945889279,-16.15915495358341,-90.39155131569868,-91.51686,7.459211,-3.1864514,154.7756,-45.09231,-2.4475749,-97.4626,-7.2249045,17.10857,157.42743,-46.384594,2.6972015,-15.34288,-16.760895,29.793802,-67.55371,59.493084,-65.197784,47.91544,2.3720448,-11.47211,3.4180286,-84.45085,-16.557106,76.262215,59.80484,-10.657827,-7.841541,-0.60196936
215,-0.2653129994869232,4.49847936630249,24.49384307861328,5.53595857865577,-16.172203607452275,-90.39051284893853,-91.51884,7.460518,-3.1855206,154.77675,-45.078342,-2.44149,-97.461655,-7.2219157,17.109715,157.4297,-46.373108,2.6941352,-15.343889,-16.75909,29.793802,-67.56341,59.498493,-65.2273,47.912163,2.3388343,-11.4754095,3.412934,-84.45015,-16.546751,76.27731,59.813084,-10.64754,-7.850761,-0.59609765
216,-0.26589909195899963,4.502077579498291,24.49044418334961,5.537963857171876,-16.185080682533112,-90.38939539875963,-91.519035,7.46203,-3.1816444,154.7767,-45.065792,-2.437038,-97.461945,-7.2179914,17.11436,157.43388,-46.362385,2.6915493,-15.353757,-16.81503,29.793802,-67.524925,59.499584,-65.17477,47.93239,2.402132,-11.47713,3.4092336,-84.44965,-16.537327,76.25453,59.784805,-10.63749,-7.8600454,-0.59467196
217,-0.26631149649620056,4.505342483520508,24.487173080444336,5.538610425061705,-16.197308702788252,-90.38846336679433,-91.519226,7.4619384,-3.1804633,154.77815,-45.056828,-2.4361615,-97.461174,-7.214712,17.117088,157.43619,-46.352512,2.6876314,-15.356011,-16.802395,29.793802,-67.51806,59.50202,-65.17039,47.922417,2.3807914,-11.484017,3.399517,-84.44885,-16.530746,76.258934,59.793083,-10.644444,-7.8691945,-0.5781895
218,-0.26677751541137695,4.508679389953613,24.483776092529297,5.5386041324508986,-16.209074172672604,-90.38741574142206,-91.519424,7.4612155,-3.1798387,154.78064,-45.049797,-2.4372914,-97.45971,-7.2107925,17.119026,157.4397,-46.344147,2.6828256,-15.356215,-16.789621,29.793802,-67.518616,59.503902,-65.176,47.912827,2.35115,-11.492196,3.3890371,-84.44827,-16.526834,76.26641,59.803364,-10.646875,-7.878481,-0.5644013
219,-0.2673952281475067,4.512310028076172,24.480138778686523,5.539302936566779,-16.22136444188386,-90.3861524376796,-91.51799,7.4602833,-3.1779616,154.78265,-45.0433,-2.439011,-97.45884,-7.206877,17.12267,157.4436,-46.33551,2.6784859,-15.3639345,-16.82686,29.793802,-67.48216,59.50623,-65.1228,47.92209,2.3993154,-11.497474,3.3826165,-84.4492,-16.51448,76.25388,59.788284,-10.640776,-7.8873363,-0.5602662
220,-0.2678210735321045,4.515793323516846,24.47655487060547,5.538937265160472,-16.23334534125679,-90.38521056711188,-91.517426,7.4584823,-3.1788654,154.78552,-45.03631,-2.439997,-97.45733,-7.205615,17.12357,157.4457,-46.327667,2.674845,-15.363611,-16.79215,29.793802,-67.50089,59.51341,-65.154564,47.902584,2.3396344,-11.504272,3.3727312,-84.45176,-16.501535,76.27789,59.81926,-10.645337,-7.895172,-0.54422754
221,-0.26825404167175293,4.519238471984863,24.47286033630371,5.539107441809348,-16.244847631669074,-90.38453666524703,-91.517784,7.4560757,-3.1795278,154.78725,-45.026413,-2.4393606,-97.45635,-7.2051406,17.12449,157.44882,-46.32092,2.6731484,-15.364354,-16.797712,29.793802,-67.505035,59.51599,-65.15834,47.90329,2.3391826,-11.506573,3.3678653,-84.4513,-16.496233,76.27821,59.819298,-10.646821,-7.9027514,-0.53381354
222,-0.26876795291900635,4.5224761962890625,24.469276428222656,5.542883264274654,-16.25761434471096,-90.3835658315669,-91.51451,7.4539514,-3.1758177,154.78792,-45.016422,-2.43686,-97.45583,-7.20415,17.130518,157.45181,-46.314255,2.6744614,-15.380825,-16.84653,29.793802,-67.43665,59.520535,-65.049095,47.91144,2.445477,-11.504964,3.3657885,-84.45663,-16.474436,76.250275,59.80408,-10.655049,-7.9114485,-0.5240271
223,-0.26883214712142944,4.525244235992432,24.465803146362305,5.542804268319219,-16.269285324891616,-90.3829772734705,-91.5143,7.4505415,-3.1775873,154.78995,-45.006294,-2.43538,-97.45457,-7.2065363,17.130674,157.45343,-46.307346,2.674448,-15.381146,-16.826065,29.793802,-67.44548,59.525196,-65.05778,47.898243,2.4279618,-11.505333,3.3608732,-84.45852,-16.46574,76.26423,59.82117,-10.664047,-7.9172063,-0.50805974
224,-0.26881203055381775,4.527862548828125,24.46233558654785,5.542648134574941,-16.28129661796025,-90.38178855704345,-91.51369,7.44758,-3.1789203,154.79294,-44.997654,-2.434383,-97.45328,-7.2081304,17.131605,157.45648,-46.300606,2.6742253,-15.380889,-16.816526,29.793802,-67.45703,59.528297,-65.06925,47.89212,2.419549,-11.503805,3.3570976,-84.45912,-16.460737,76.27164,59.8293,-10.672387,-7.921334,-0.49431512
225,-0.26873674988746643,4.5304460525512695,24.45870018005371,5.542193101989765,-16.294227984613627,-90.38026976332314,-91.51254,7.4450946,-3.1807694,154.7958,-44.99034,-2.4341085,-97.45131,-7.210016,17.132624,157.46083,-46.293243,2.6720169,-15.381872,-16.816017,29.793802,-67.47352,59.53424,-65.088745,47.890476,2.4128797,-11.499752,3.3536952,-84.458916,-16.451145,76.27719,59.835945,-10.680224,-7.9231853,-0.4832952
226,-0.26861104369163513,4.532856464385986,24.454994201660156,5.540847878385569,-16.30761879894115,-90.3784892598506,-91.510635,7.442896,-3.182277,154.79997,-44.985065,-2.4342222,-97.45054,-7.2120466,17.134586,157.4656,-46.28421,2.6693833,-15.382171,-16.814623,29.793802,-67.482796,59.536236,-65.094315,47.88898,2.4196668,-11.494127,3.3494728,-84.45786,-16.448006,76.278435,59.8358,-10.694928,-7.9231267,-0.46835858
227,-0.26868441700935364,4.535114765167236,24.451250076293945,5.5401454937376675,-16.320875291483908,-90.37667201187004,-91.509705,7.4408684,-3.1841707,154.80289,-44.979008,-2.434148,-97.44797,-7.212846,17.1362,157.47116,-46.276245,2.6679878,-15.382333,-16.816408,29.793802,-67.49073,59.538723,-65.09793,47.888206,2.4308953,-11.487395,3.346562,-84.45624,-16.443857,76.27861,59.83377,-10.708398,-7.921648,-0.45652577
228,-0.26883605122566223,4.5372490882873535,24.447559356689453,5.539740982171025,-16.3333778731478,-90.3746455611567,-91.50899,7.438933,-3.184198,154.80656,-44.972713,-2.4329824,-97.44534,-7.213889,17.139336,157.47543,-46.270184,2.6697884,-15.385021,-16.82766,29.793802,-67.49183,59.541706,-65.090004,47.890545,2.4533567,-11.480466,3.346222,-84.45621,-16.437738,76.27302,59.828663,-10.719301,-7.9193854,-0.4504929
229,-0.2687760889530182,4.539462566375732,24.443767547607422,5.539258560790431,-16.345008758865788,-90.3724332693514,-91.50895,7.4373736,-3.1813405,154.8098,-44.96541,-2.4300387,-97.441605,-7.211828,17.145329,157.47842,-46.268085,2.6768346,-15.390954,-16.847239,29.793802,-67.477455,59.54486,-65.05556,47.89443,2.494118,-11.473905,3.3472836,-84.45893,-16.429047,76.26084,59.818806,-10.726745,-7.9161205,-0.44879168
230,-0.26854047179222107,4.541813373565674,24.439910888671875,5.539224620350712,-16.355479787253845,-90.37011632744715,-91.51062,7.4358497,-3.178352,154.81299,-44.957542,-2.4265978,-97.43701,-7.209744,17.15126,157.48082,-46.267715,2.6873057,-15.395744,-16.866266,29.793802,-67.4595,59.546173,-65.015114,47.897083,2.5377223,-11.46709,3.3497174,-84.46313,-16.42318,76.24985,59.808228,-10.730288,-7.911773,-0.4516369
231,-0.2678300440311432,4.544273853302002,24.435943603515625,5.536261299696828,-16.36553401370403,-90.36788001454558,-91.51264,7.4339237,-3.1766574,154.8179,-44.95025,-2.422683,-97.43032,-7.208504,17.155203,157.48257,-46.26952,2.6981635,-15.395688,-16.82675,29.793802,-67.474556,59.55026,-65.028175,47.87586,2.5015738,-11.463616,3.350599,-84.46934,-16.417603,76.26638,59.8308,-10.744231,-7.9068,-0.44411576
232,-0.2671768069267273,4.546870231628418,24.431869506835938,5.535126029205839,-16.37628079734558,-90.36616000123169,-91.51505,7.4328794,-3.176229,154.82184,-44.942043,-2.4190748,-97.42422,-7.208443,17.157701,157.4858,-46.270176,2.7060418,-15.392239,-16.803535,29.793802,-67.51067,59.55721,-65.07553,47.864326,2.4560626,-11.4595585,3.3570342,-84.475075,-16.410295,76.2875,59.850002,-10.741406,-7.9014554,-0.44757423
233,-0.2665935456752777,4.549603462219238,24.42763900756836,5.536217240897389,-16.38890601982282,-90.36460813105089,-91.51455,7.433658,-3.1710613,154.82472,-44.932987,-2.4145076,-97.4195,-7.206347,17.165281,157.49072,-46.26863,2.712063,-15.403891,-16.862011,29.793802,-67.46587,59.559532,-64.99694,47.883102,2.5589879,-11.451859,3.3720455,-84.47945,-16.400757,76.25439,59.816853,-10.742837,-7.8970804,-0.45653522
234,-0.2658623158931732,4.55192756652832,24.423622131347656,5.535466091960831,-16.40134723469054,-90.36336296848302,-91.51564,7.4345407,-3.1692677,154.8285,-44.92346,-2.410203,-97.41331,-7.206023,17.16898,157.49484,-46.26661,2.7156818,-15.405066,-16.856657,29.793802,-67.45859,59.56131,-64.98272,47.874683,2.5778532,-11.446942,3.388161,-84.484726,-16.397068,76.2561,59.81941,-10.74989,-7.892599,-0.45675164
235,-0.2652113437652588,4.5541229248046875,24.419628143310547,5.5348890869711855,-16.41412228760462,-90.36234470118079,-91.51588,7.4351897,-3.1674933,154.83379,-44.915165,-2.4058578,-97.40799,-7.205447,17.172386,157.49922,-46.264053,2.718415,-15.4053335,-16.859486,29.793802,-67.45611,59.5624,-64.97305,47.872147,2.5983138,-11.442454,3.4034016,-84.48968,-16.394659,76.25643,59.816956,-10.751846,-7.888332,-0.45909205
236,-0.2645537853240967,4.5562543869018555,24.415882110595703,5.533611761900777,-16.42707204042912,-90.36074995205007,-91.51614,7.4345565,-3.1656542,154.83766,-44.906635,-2.4009,-97.402824,-7.206833,17.17632,157.50337,-46.26013,2.7225056,-15.409351,-16.86251,29.793802,-67.44261,59.564903,-64.94875,47.867363,2.6247537,-11.438059,3.4179685,-84.49542,-16.389015,76.25796,59.81469,-10.7567005,-7.883993,-0.46118054
237,-0.2636934816837311,4.558206558227539,24.41221046447754,5.529633334670214,-16.44009658574667,-90.3588069581205,-91.51571,7.4305096,-3.1685748,154.84259,-44.901173,-2.3969712,-97.39646,-7.2089577,17.17674,157.50674,-46.25748,2.7273865,-15.403544,-16.804577,29.793802,-67.491745,59.57395,-65.02523,47.839172,2.534985,-11.437365,3.424558,-84.5026,-16.382208,76.29796,59.854378,-10.762293,-7.880304,-0.45491192
238,-0.2632606625556946,4.560257911682129,24.408571243286133,5.528597714353,-16.453548436355998,-90.35659642894372,-91.51325,7.425864,-3.1689374,154.84671,-44.896797,-2.3925078,-97.39267,-7.21103,17.180098,157.51083,-46.25115,2.7336266,-15.400515,-16.81303,29.793802,-67.49873,59.57542,-65.0296,47.838863,2.5431812,-11.434254,3.4295228,-84.507324,-16.380825,76.29778,59.85218,-10.761113,-7.878313,-0.45536897
239,-0.26282936334609985,4.562582969665527,24.404739379882812,5.526486808436211,-16.466894234639952,-90.35381919927988,-91.51159,7.420934,-3.1682248,154.85068,-44.89139,-2.387357,-97.38975,-7.2126975,17.184452,157.51389,-46.244698,2.7396896,-15.405353,-16.831816,29.793802,-67.50018,59.577347,-65.0253,47.8474,2.5611365,-11.43084,3.4370012,-84.51107,-16.378426,76.29352,59.83967,-10.762732,-7.876045,-0.45896608
