unveil-humanoid-operators/unveil-humanoid-operators.github.io/feature-analysis-animation/data/feature_matrix_instances/weight_root_translate_peak_vel_walking_A200_lift_crate_walk_ff_stop_360_R_002__A200.csv
Frame,root_translateX,root_translateY,root_translateZ,root_rotateX,root_rotateY,root_rotateZ,left_hip_pitch_joint_dof,left_hip_roll_joint_dof,left_hip_yaw_joint_dof,left_knee_joint_dof,left_ankle_pitch_joint_dof,left_ankle_roll_joint_dof,right_hip_pitch_joint_dof,right_hip_roll_joint_dof,right_hip_yaw_joint_dof,right_knee_joint_dof,right_ankle_pitch_joint_dof,right_ankle_roll_joint_dof,waist_yaw_joint_dof,waist_roll_joint_dof,waist_pitch_joint_dof,left_shoulder_pitch_joint_dof,left_shoulder_roll_joint_dof,left_shoulder_yaw_joint_dof,left_elbow_joint_dof,left_wrist_roll_joint_dof,left_wrist_pitch_joint_dof,left_wrist_yaw_joint_dof,right_shoulder_pitch_joint_dof,right_shoulder_roll_joint_dof,right_shoulder_yaw_joint_dof,right_elbow_joint_dof,right_wrist_roll_joint_dof,right_wrist_pitch_joint_dof,right_wrist_yaw_joint_dof
0,-0.4825843870639801,-3.075897216796875,75.65215301513672,2.0477435983237586,-12.168934030179496,76.9723485558497,3.1231432,6.311741,12.627687,28.58686,-18.364254,-4.5546126,-7.150602,-16.908611,-9.659613,43.52797,-18.541286,6.6899996,-1.036213,-3.4045587,15.8597975,-16.4338,28.038008,-5.892681,46.398582,-16.497871,7.437554,3.4989557,-26.854254,-16.990015,12.031962,55.870716,2.2785678,0.8767293,-2.5912273
1,-0.4862765669822693,-3.2516181468963623,75.65248107910156,2.085296252403887,-12.208460702752738,76.99222270256428,3.0103312,6.2902136,12.592827,28.568014,-18.214325,-4.5424647,-6.8694777,-16.990936,-9.237875,44.395157,-18.885511,6.6590443,-0.9977349,-3.491981,15.800373,-16.427647,28.038048,-5.8780084,46.330395,-16.427427,7.4086475,3.5098777,-26.803396,-16.991028,12.052551,55.829468,2.4160395,0.88046515,-2.5956552
2,-0.4866436719894409,-3.420976161956787,75.65155029296875,2.122329923857811,-12.247378851254599,77.0139059415328,2.8959227,6.267572,12.5576105,28.54931,-18.06442,-4.5281954,-6.5934153,-17.06878,-8.810832,45.269714,-19.22562,6.633838,-0.99671024,-3.5664604,15.737535,-16.361628,28.026024,-5.8063803,46.223682,-16.3476,7.3785267,3.5150306,-26.751608,-17.010437,12.136988,55.769806,2.5825107,0.8890417,-2.607265
3,-0.4769755005836487,-3.5957911014556885,75.64933776855469,2.1598444998254336,-12.286969416881153,77.03175412593873,2.7842026,6.247605,12.523248,28.530418,-17.914473,-4.5180335,-6.300364,-17.156641,-8.397445,46.118538,-19.570986,6.5996823,-0.9879233,-3.626595,15.680913,-16.300602,27.999306,-5.7325234,46.10775,-16.256752,7.353501,3.5180738,-26.702791,-17.0428,12.20278,55.714676,2.7325513,0.8951971,-2.6124449
4,-0.4598415493965149,-3.7716002464294434,75.64513397216797,2.2021951353116664,-12.327442258327471,77.03915830796754,2.6788056,6.231615,12.491923,28.510395,-17.763538,-4.517755,-5.971471,-17.269657,-8.014221,46.909786,-19.931335,6.54124,-0.9623894,-3.6790543,15.624914,-16.257587,27.967257,-5.6679277,45.988934,-16.152287,7.3411636,3.5163147,-26.641195,-17.07579,12.234559,55.66262,2.8472667,0.8952142,-2.6128817
5,-0.44492924213409424,-3.9340660572052,75.64299774169922,2.252783389704624,-12.369631279300993,77.0327895172135,2.587266,6.2149825,12.465311,28.4787,-17.60817,-4.528478,-5.601084,-17.428268,-7.6715364,47.64489,-20.316822,6.452554,-0.92541414,-3.712021,15.573029,-16.213633,27.911089,-5.590149,45.84578,-16.01611,7.3443875,3.5069199,-26.57274,-17.127333,12.245589,55.611546,2.9238002,0.8904994,-2.6059458
6,-0.4146064221858978,-4.11182165145874,75.63545989990234,2.3100010115510115,-12.413061839276496,77.01657092414908,2.5055654,6.197547,12.442158,28.438816,-17.449533,-4.5471153,-5.2014766,-17.619963,-7.3568716,48.33847,-20.720304,6.3415995,-0.872847,-3.74541,15.521091,-16.183464,27.856325,-5.522788,45.69865,-15.868041,7.3593006,3.4934127,-26.489525,-17.171024,12.221798,55.559425,2.9591215,0.88128984,-2.5948486
7,-0.380486398935318,-4.288686752319336,75.62716674804688,2.366915506517284,-12.456015544824368,76.99523309167587,2.4202957,6.190009,12.419192,28.411324,-17.294525,-4.573326,-4.776806,-17.81995,-7.0522566,48.975132,-21.124468,6.215068,-0.8182839,-3.7738833,15.468229,-16.158098,27.806728,-5.455558,45.5457,-15.719237,7.383498,3.4754915,-26.40028,-17.204447,12.174732,55.515602,2.9718168,0.8656559,-2.583389
8,-0.33726802468299866,-4.461634635925293,75.61473083496094,2.4118826764422225,-12.49748474520059,76.97441091921107,2.3172553,6.2043624,12.392906,28.41752,-17.150457,-4.6068964,-4.3310876,-17.99888,-6.741224,49.53961,-21.511635,6.0795636,-0.7649044,-3.7737255,15.415914,-16.140657,27.735897,-5.3820863,45.3921,-15.567158,7.4119406,3.4569921,-26.311312,-17.246313,12.114258,55.486683,2.9892552,0.84296316,-2.5734057
9,-0.2915867269039154,-4.638025760650635,75.60079956054688,2.4439373133293185,-12.537003043074561,76.95298730316546,2.197388,6.244258,12.365631,28.457762,-17.014961,-4.6511307,-3.8622434,-18.152988,-6.4188952,50.0292,-21.886183,5.92301,-0.7176409,-3.7711875,15.358723,-16.129446,27.692617,-5.311495,45.23522,-15.450147,7.4555745,3.4301047,-26.219152,-17.263643,12.0326395,55.477196,3.009027,0.80950564,-2.5685127
10,-0.23686744272708893,-4.81312370300293,75.5875473022461,2.4667642187711865,-12.575336378064723,76.9287682824057,2.0648768,6.3050447,12.337383,28.525848,-16.887295,-4.7051744,-3.3688233,-18.294714,-6.094692,50.450745,-22.25385,5.7465463,-0.6685523,-3.7448213,15.305075,-16.117493,27.630688,-5.2222548,45.060963,-15.322735,7.510912,3.3976681,-26.124792,-17.280273,11.918616,55.479645,3.0115051,0.7686353,-2.5628133
11,-0.17954199016094208,-4.994071960449219,75.57178497314453,2.484325876697355,-12.612386953348796,76.90579421147336,1.9167678,6.379175,12.303178,28.621387,-16.771091,-4.761787,-2.8578134,-18.425304,-5.7721252,50.808727,-22.602106,5.577588,-0.6198089,-3.6877542,15.24401,-16.128853,27.530045,-5.1443167,44.91718,-15.17685,7.5572968,3.376587,-26.031866,-17.302557,11.798938,55.50428,3.0074148,0.7224268,-2.5625293
12,-0.11619964987039566,-5.168344974517822,75.55567169189453,2.502497286094492,-12.647943987917584,76.88766444701325,1.7509885,6.458076,12.258203,28.741701,-16.668697,-4.8138676,-2.335467,-18.544666,-5.455478,51.10668,-22.917955,5.4430733,-0.59031063,-3.6449754,15.185061,-16.135826,27.47936,-5.0815115,44.779926,-15.037023,7.588433,3.3576891,-25.947329,-17.309399,11.701519,55.533756,3.0124207,0.67273825,-2.5619977
13,-0.04807295650243759,-5.346673488616943,75.53236389160156,2.519610531154877,-12.68037752175678,76.87863605633113,1.5620834,6.5394382,12.196526,28.889393,-16.583805,-4.8573904,-1.7996087,-18.654991,-5.146932,51.34135,-23.197704,5.3512115,-0.5758913,-3.5918427,15.124314,-16.157122,27.424044,-5.0344253,44.676525,-14.849049,7.586518,3.3551795,-25.883018,-17.315948,11.619649,55.589554,3.0128145,0.6203042,-2.5593145
14,0.0310283862054348,-5.537475109100342,75.49954986572266,2.5353303545448926,-12.71009142253145,76.87531923561578,1.3533379,6.6271863,12.12232,29.06315,-16.51338,-4.896688,-1.2481314,-18.754787,-4.8446774,51.513195,-23.448454,5.2871833,-0.5737124,-3.5277083,15.061698,-16.188549,27.370022,-4.9993787,44.59546,-14.633292,7.563479,3.362329,-25.820599,-17.31986,11.540375,55.65554,3.0035012,0.56430453,-2.5548296
15,0.10885798931121826,-5.725861072540283,75.46684265136719,2.548582684258489,-12.741090343749637,76.87139779769298,1.131764,6.7256184,12.044977,29.263838,-16.454226,-4.937387,-0.68605787,-18.839151,-4.547424,51.62905,-23.671804,5.243575,-0.5775945,-3.4586356,15.001007,-16.222502,27.327497,-4.9750752,44.520367,-14.439365,7.539473,3.3728213,-25.770046,-17.323217,11.484453,55.73288,3.0167332,0.50441074,-2.5581474
16,0.18400803208351135,-5.916209697723389,75.4308090209961,2.5612352111881798,-12.77679062392025,76.85972348581434,0.90507054,6.837947,11.974638,29.49048,-16.402296,-4.984977,-0.11764648,-18.904419,-4.2533255,51.693943,-23.86806,5.2129183,-0.58560795,-3.3925238,14.943758,-16.248434,27.316399,-4.9629517,44.43466,-14.32926,7.5350437,3.378134,-25.72931,-17.323921,11.466578,55.81212,3.0738163,0.4400629,-2.5772867
17,0.27582892775535583,-6.110682010650635,75.38798522949219,2.56843909300794,-12.820580653076494,76.84244534094982,0.67081434,6.9712152,11.909581,29.75694,-16.36211,-5.039375,0.46765992,-18.937292,-3.9541214,51.699234,-24.051577,5.199621,-0.58365285,-3.3050303,14.89891,-16.268726,27.285269,-4.9456625,44.327198,-14.284641,7.5579967,3.3844666,-25.673223,-17.330585,11.456149,55.869396,3.158088,0.37221378,-2.622768
18,0.3742968440055847,-6.310608863830566,75.34070587158203,2.5721232038459827,-12.869422012942014,76.821339793601,0.4277247,7.119719,11.847086,30.055658,-16.332348,-5.097876,1.0680624,-18.943722,-3.6525302,51.645435,-24.217005,5.205255,-0.5845462,-3.201756,14.8530245,-16.292822,27.252348,-4.9428554,44.2264,-14.308476,7.594521,3.3949156,-25.630674,-17.346424,11.486838,55.94294,3.288247,0.29884067,-2.6900332
19,0.47765034437179565,-6.512106895446777,75.29243469238281,2.5780654518167805,-12.918793278391135,76.79180877328218,0.17885916,7.2777376,11.788748,30.36884,-16.307983,-5.163511,1.6637342,-18.945864,-3.3684886,51.55284,-24.33692,5.2175684,-0.5831879,-3.103522,14.814838,-16.31401,27.240723,-4.9465413,44.11773,-14.355397,7.6360664,3.3996284,-25.589304,-17.355358,11.520458,56.0054,3.4230406,0.22396848,-2.7543023
20,0.5865110158920288,-6.7184224128723145,75.23900604248047,2.5895390223807624,-12.964007228303256,76.74919530848716,-0.07147624,7.440173,11.736648,30.67545,-16.281963,-5.2393465,2.2353828,-18.961775,-3.1225016,51.43867,-24.381943,5.224329,-0.5888703,-2.9921467,14.771857,-16.324299,27.215351,-4.9455295,44.014565,-14.371847,7.66618,3.4012635,-25.562157,-17.385315,11.591632,56.067444,3.5659056,0.1523276,-2.8032346
21,0.7048873901367188,-6.926949501037598,75.18113708496094,2.607633136423775,-13.00490211080354,76.69065200221075,-0.3217363,7.606928,11.691303,30.972881,-16.256151,-5.3257117,2.7622452,-18.990442,-2.903185,51.345062,-24.319715,5.157739,-0.5861947,-2.886388,14.737597,-16.334064,27.200205,-4.9507265,43.909107,-14.340739,7.6848545,3.3920794,-25.54797,-17.421038,11.663193,56.120613,3.6942787,0.07476272,-2.8192918
22,0.8264074921607971,-7.143270015716553,75.12176513671875,2.6300467410685084,-13.04362735613875,76.6191982948012,-0.57370305,7.7803807,11.651706,31.27028,-16.232685,-5.421247,3.2597547,-19.023674,-2.7053223,51.25025,-24.174088,5.045978,-0.5794555,-2.7834554,14.708,-16.342035,27.196234,-4.9636984,43.80347,-14.291588,7.698452,3.3755157,-25.53749,-17.45618,11.737281,56.163082,3.8111036,-0.007666024,-2.8163452
23,0.9487534165382385,-7.364178657531738,75.0594253540039,2.6588732770832477,-13.078862404101626,76.5387428897124,-0.8305522,7.9579897,11.617066,31.569489,-16.207281,-5.5263367,3.7616713,-19.06944,-2.557662,51.07888,-24.001347,5.020977,-0.5718907,-2.6781638,14.68248,-16.342627,27.197855,-4.972091,43.6905,-14.244707,7.709124,3.3549037,-25.5246,-17.50369,11.81566,56.18454,3.9315224,-0.07521214,-2.8055542
24,1.0884469747543335,-7.587336540222168,74.99284362792969,2.696412305034152,-13.109323650543537,76.45342070542439,-1.0933484,8.135329,11.587673,31.86822,-16.173973,-5.641106,4.3007526,-19.139017,-2.4871557,50.75766,-23.859146,5.214981,-0.5586713,-2.5802498,14.65358,-16.346031,27.200232,-4.9746394,43.583416,-14.210995,7.7180195,3.3398142,-25.50647,-17.53738,11.864745,56.1949,4.031508,-0.11190139,-2.803346
25,1.2317323684692383,-7.8177080154418945,74.92054748535156,2.748229484000707,-13.13581282377897,76.36328310563219,-1.3611147,8.308454,11.565048,32.16783,-16.132776,-5.7674985,4.893755,-19.264622,-2.5251658,50.29366,-23.734463,5.662521,-0.5422424,-2.481683,14.626713,-16.344748,27.198698,-4.9575987,43.468716,-14.20499,7.724684,3.3277378,-25.474133,-17.583649,11.8988495,56.169205,4.1312394,-0.09736719,-2.8123848
26,1.3843883275985718,-8.051108360290527,74.84457397460938,2.8108213790618137,-13.158935046800192,76.26654905607445,-1.6334466,8.47951,11.549143,32.468452,-16.08598,-5.904723,5.5205994,-19.429703,-2.649727,49.716953,-23.604677,6.293669,-0.51854736,-2.3970518,14.591018,-16.3561,27.196014,-4.94231,43.375546,-14.209668,7.726045,3.324896,-25.44722,-17.60144,11.909108,56.148537,4.208644,-0.049657308,-2.8350642
27,1.5383130311965942,-8.281208038330078,74.7708740234375,2.8767384039779125,-13.174814402710394,76.1633066604708,-1.9147568,8.658558,11.535865,32.769936,-16.033636,-6.0490537,6.1605363,-19.56711,-2.8099582,48.983746,-23.511929,7.0828433,-0.49900606,-2.2989438,14.557218,-16.350332,27.1864,-4.9113116,43.268166,-14.211306,7.727943,3.3199952,-25.414154,-17.635736,11.914256,56.1091,4.28035,0.0057629487,-2.851306
28,1.7047802209854126,-8.524137496948242,74.68993377685547,2.9372271154167606,-13.180743867953215,76.05400303660585,-2.2102392,8.853996,11.521359,33.07404,-15.976399,-6.196683,6.7930884,-19.61569,-2.9542558,48.049644,-23.50148,8.0031185,-0.48180628,-2.1968873,14.513038,-16.341642,27.179422,-4.8945656,43.172478,-14.199403,7.731842,3.3201797,-25.380995,-17.653275,11.900404,56.083874,4.3242984,0.037283096,-2.859606
29,1.8811308145523071,-8.768046379089355,74.60807037353516,2.997577426059596,-13.175384717564802,75.93689302600728,-2.5189803,9.061802,11.508496,33.379982,-15.914608,-6.343525,7.449456,-19.548044,-3.0464325,46.775536,-23.56652,9.203222,-0.46190375,-2.0802681,14.465517,-16.322733,27.166182,-4.8911476,43.074306,-14.163841,7.738331,3.31882,-25.338064,-17.682455,11.859109,56.054405,4.344046,0.036189537,-2.8429723
30,2.0633771419525146,-9.019620895385742,74.524169921875,3.0598993160106978,-13.160482272699161,75.81248535443565,-2.8396306,9.277916,11.498538,33.68778,-15.848103,-6.49225,8.129423,-19.410852,-3.1234834,45.221573,-23.695158,10.636753,-0.43673974,-1.961655,14.40808,-16.308022,27.15379,-4.9097147,42.992172,-14.119131,7.7449174,3.321377,-25.288454,-17.704988,11.792842,56.02861,4.340868,0.017593738,-2.8141065
31,2.252516746520996,-9.27932071685791,74.44244384765625,3.1154250043164624,-13.135811268006677,75.6834332732391,-3.1727624,9.511851,11.484682,33.992218,-15.772707,-6.6493216,8.762769,-19.246397,-3.2426522,43.6457,-23.92325,11.986292,-0.4272143,-1.8403355,14.341991,-16.279306,27.149498,-4.9161234,42.910934,-14.072028,7.7546616,3.3278854,-25.259317,-17.71,11.743521,56.02916,4.3339047,-0.008400192,-2.7923796
32,2.436746120452881,-9.538787841796875,74.36341857910156,3.152121339557383,-13.102445591533629,75.5529729437715,-3.5213997,9.774943,11.45865,34.2933,-15.687531,-6.821621,9.276851,-19.089148,-3.4586,42.313675,-24.28133,12.943201,-0.4094686,-1.7064403,14.279981,-16.262472,27.143948,-4.9190516,42.830517,-14.022959,7.7695746,3.342015,-25.229998,-17.713198,11.687559,56.032608,4.3283024,-0.029331222,-2.7816696
33,2.637195587158203,-9.810775756835938,74.28421020507812,3.1705329868259344,-13.05617668377858,75.41999679806621,-3.892513,10.066944,11.420362,34.593525,-15.594524,-7.0136714,9.640188,-18.94913,-3.8007722,41.297237,-24.826572,13.381007,-0.38766277,-1.5587808,14.215304,-16.258896,27.136326,-4.9146476,42.751934,-13.977315,7.7928596,3.3674784,-25.202911,-17.71453,11.636736,56.040806,4.3242607,-0.04077007,-2.7945192
34,2.843202829360962,-10.091325759887695,74.2010498046875,3.1767917281489195,-12.997913534500455,75.28347798391056,-4.2830667,10.383482,11.372089,34.893456,-15.494068,-7.2211385,9.892564,-18.80294,-4.229698,40.45997,-25.523687,13.48188,-0.35605523,-1.3975719,14.151371,-16.263063,27.12059,-4.904806,42.669147,-13.9211235,7.8227606,3.4022164,-25.172134,-17.714806,11.568355,56.047817,4.3050466,-0.04876791,-2.8185823
35,3.0576553344726562,-10.38444995880127,74.11524200439453,3.1607006946455414,-12.93831183724958,75.14757920096329,-4.67989,10.730414,11.308675,35.188053,-15.381927,-7.437922,10.065051,-18.629568,-4.6945014,39.7615,-26.262774,13.407054,-0.33381364,-1.2181772,14.091763,-16.26744,27.102127,-4.8857994,42.595528,-13.864003,7.851946,3.439907,-25.15501,-17.714495,11.521724,56.07354,4.3052444,-0.058882903,-2.8452504
36,3.2721779346466064,-10.676201820373535,74.03484344482422,3.1195603000891126,-12.888267346857189,75.01363916044903,-5.0644326,11.105799,11.231407,35.464176,-15.25008,-7.6567388,10.187981,-18.420715,-5.143495,39.16311,-26.935966,13.321008,-0.3248033,-1.0255646,14.043951,-16.274551,27.095554,-4.8703637,42.54573,-13.822211,7.8732696,3.4752898,-25.143208,-17.713995,11.503647,56.11282,4.3388305,-0.07567216,-2.8602302
37,3.491506814956665,-10.973873138427734,73.96189880371094,3.024690745917435,-12.849538864954397,74.88979326850844,-5.4567533,11.545874,11.115975,35.759075,-15.11319,-7.88407,10.28142,-18.144049,-5.617329,38.640873,-27.521582,13.238917,-0.33695948,-0.7568449,14.030939,-16.237926,27.016478,-4.778145,42.45727,-13.721641,7.889025,3.4988399,-25.149618,-17.724907,11.471225,56.165867,4.3618813,-0.09956621,-2.850069
38,3.716507911682129,-11.279526710510254,73.89350128173828,2.903622741242855,-12.818777095279879,74.76600076679546,-5.8441906,12.019803,10.983446,36.045902,-14.960876,-8.118378,10.317027,-17.835903,-6.113093,38.23478,-28.082222,13.089704,-0.3551465,-0.46938786,14.028848,-16.216177,26.947098,-4.6955714,42.39932,-13.644398,7.8985286,3.5189152,-25.155499,-17.742706,11.468848,56.22703,4.425875,-0.12897974,-2.8294518
39,3.9393351078033447,-11.59310531616211,73.82878112792969,2.762129413896747,-12.790393422799385,74.6462373966826,-6.22345,12.5138,10.836231,36.3041,-14.787384,-8.354538,10.289291,-17.486649,-6.5681696,37.929184,-28.599901,12.889111,-0.38805088,-0.1612153,14.034612,-16.181114,26.865734,-4.6016884,42.342793,-13.548768,7.9026694,3.5458062,-25.171738,-17.769785,11.483362,56.30191,4.5021205,-0.16109039,-2.804894
40,4.174394130706787,-11.908129692077637,73.772705078125,2.6124909004364496,-12.759496291467189,74.53152478463046,-6.5863924,13.007133,10.682669,36.507275,-14.58442,-8.586066,10.191375,-17.100739,-6.9159203,37.715733,-29.060575,12.655258,-0.44020656,0.17270431,14.035411,-16.126263,26.742851,-4.49938,42.29149,-13.407271,7.8979025,3.5960608,-25.199066,-17.81775,11.520803,56.3949,4.5780253,-0.1928153,-2.7878187
41,4.402688980102539,-12.229914665222168,73.72126770019531,2.450518230770374,-12.723385068068055,74.41519383112895,-6.9332213,13.507898,10.526561,36.653206,-14.35187,-8.812524,10.0056925,-16.66347,-7.1251225,37.61307,-29.45785,12.378296,-0.50013816,0.515376,14.032104,-16.056803,26.612103,-4.403269,42.241463,-13.226286,7.888455,3.6776967,-25.220032,-17.871767,11.564138,56.499687,4.637416,-0.23227936,-2.775236
42,4.627113342285156,-12.554101943969727,73.6811294555664,2.272421514072084,-12.685019248606197,74.29877008406626,-7.2671313,14.022935,10.362385,36.752823,-14.09269,-9.036999,9.744779,-16.1766,-7.238973,37.617588,-29.800076,12.054825,-0.572226,0.87922347,14.028639,-15.97164,26.45939,-4.300695,42.193108,-13.007921,7.873693,3.7826593,-25.246302,-17.937124,11.624467,56.623154,4.6935635,-0.27799666,-2.7651255
43,4.853979587554932,-12.874833106994629,73.64816284179688,2.090976546403851,-12.648477228614247,74.19627030111137,-7.5864863,14.528154,10.185949,36.805103,-13.805306,-9.258162,9.444958,-15.671594,-7.301448,37.69175,-30.097776,11.712454,-0.6624316,1.2495399,14.025319,-15.881652,26.29525,-4.210204,42.160763,-12.776077,7.8500957,3.8928528,-25.275661,-18.01068,11.685857,56.742794,4.7547565,-0.31391862,-2.757685
44,5.084601402282715,-13.200719833374023,73.61347961425781,1.9180395317923387,-12.617695066971095,74.122181299438,-7.889807,14.999202,9.993193,36.80901,-13.488229,-9.474783,9.141347,-15.179625,-7.3561277,37.797955,-30.361467,11.378422,-0.7776554,1.6122061,14.021618,-15.798613,26.131943,-4.151691,42.16047,-12.558223,7.814044,3.9900656,-25.29598,-18.087936,11.723487,56.82728,4.816728,-0.3236138,-2.7526717
45,5.315384864807129,-13.525694847106934,73.58570098876953,1.7451035086986535,-12.587548789179232,74.0785271632891,-8.185367,15.446711,9.778497,36.767147,-13.140586,-9.691356,8.819547,-14.685194,-7.39253,37.950096,-30.579756,11.052434,-0.921517,1.9768776,14.010771,-15.711048,25.966478,-4.1191287,42.187054,-12.348166,7.7561054,4.071718,-25.302681,-18.166925,11.729733,56.879486,4.8779674,-0.31125295,-2.7641873
46,5.541576862335205,-13.850481986999512,73.56288146972656,1.5704054409231731,-12.557689364227203,74.05800763238041,-8.470789,15.878085,9.545683,36.67921,-12.76362,-9.907087,8.470662,-14.180411,-7.3966794,38.160503,-30.752525,10.72222,-1.0898677,2.34529,13.995576,-15.617998,25.797323,-4.1075845,42.236244,-12.138198,7.681133,4.1470184,-25.300468,-18.24782,11.715658,56.91113,4.937632,-0.28291205,-2.7878835
47,5.758023262023926,-14.176961898803711,73.543212890625,1.415300878771029,-12.539281255882205,74.06167730363295,-8.727941,16.263325,9.306228,36.538208,-12.358009,-10.112385,8.133063,-13.704631,-7.4038863,38.390957,-30.90674,10.396995,-1.2767233,2.6911137,13.989841,-15.541856,25.633862,-4.13277,42.320503,-11.944862,7.6064596,4.215043,-25.296125,-18.333282,11.689137,56.907784,5.001311,-0.22487481,-2.7953012
48,5.980742454528809,-14.497515678405762,73.52616119384766,1.3047686641559864,-12.542952178259164,74.08948695365345,-8.936847,16.57267,9.072524,36.335598,-11.923922,-10.297726,7.8427916,-13.298578,-7.447602,38.604324,-31.069593,10.086398,-1.4763672,2.983309,14.0076275,-15.505679,25.492092,-4.212362,42.451607,-11.787802,7.5504055,4.274279,-25.308073,-18.431301,11.668834,56.86539,5.0862055,-0.12377938,-2.757977
49,6.200026512145996,-14.820019721984863,73.50959777832031,1.2474079646684688,-12.578504592948756,74.15172596211222,-9.086374,16.787718,8.841625,36.06386,-11.456161,-10.4610195,7.621208,-12.980431,-7.542445,38.784977,-31.251072,9.792525,-1.6959568,3.2024355,14.059396,-15.514079,25.38042,-4.3466997,42.626568,-11.648867,7.5355124,4.3195305,-25.339235,-18.543964,11.65089,56.763016,5.195007,0.03852522,-2.6477618
50,6.414905071258545,-15.142715454101562,73.49581909179688,1.2311533591343526,-12.637292893971258,74.24472129421088,-9.188731,16.928385,8.610337,35.73072,-10.957291,-10.607117,7.442726,-12.72582,-7.6673307,38.954884,-31.434711,9.510315,-1.9359485,3.3652055,14.136269,-15.552835,25.296883,-4.5278335,42.837128,-11.529451,7.5468173,4.3506136,-25.367264,-18.666975,11.617693,56.594788,5.308826,0.25096405,-2.4844158
51,6.628931522369385,-15.458108901977539,73.48206329345703,1.2417063722519184,-12.704709275131345,74.34917403741255,-9.258709,17.022842,8.391676,35.34909,-10.437649,-10.736719,7.271944,-12.514587,-7.800798,39.1345,-31.608969,9.239372,-2.176154,3.4950604,14.225845,-15.620719,25.241915,-4.765179,43.088005,-11.478719,7.546424,4.3738513,-25.397896,-18.80003,11.58943,56.40106,5.4472876,0.4820745,-2.3117435
52,6.829178333282471,-15.774081230163574,73.47462463378906,1.2662918935740395,-12.76563605393548,74.44557911255512,-9.312467,17.099026,8.197837,34.933784,-9.9088,-10.850496,7.0730114,-12.324346,-7.9222813,39.346428,-31.763817,8.979354,-2.397122,3.614829,14.315765,-15.714768,25.216469,-5.0656996,43.382168,-11.544745,7.4960427,4.395201,-25.441837,-18.946438,11.59093,56.226128,5.6342187,0.70011264,-2.1736064
53,7.023301124572754,-16.08951759338379,73.46713256835938,1.3027937313573876,-12.82384723214847,74.54185444595286,-9.352739,17.154913,8.0219345,34.4895,-9.370922,-10.948138,6.8477783,-12.160021,-8.040107,39.60145,-31.8997,8.735454,-2.6020226,3.726043,14.410782,-15.847096,25.226583,-5.4500933,43.738403,-11.751095,7.374104,4.418738,-25.490032,-19.108074,11.6215105,56.059486,5.896899,0.909825,-2.0810034
54,7.2179646492004395,-16.4018497467041,73.45933532714844,1.359019444979249,-12.884677217096362,74.64354559625036,-9.371474,17.179382,7.8613887,34.00855,-8.819114,-11.029314,6.6122737,-12.029622,-8.161061,39.884876,-32.02064,8.506217,-2.7968526,3.8163683,14.515263,-16.017096,25.272709,-5.910733,44.149498,-12.07055,7.204758,4.4392805,-25.544666,-19.284674,11.673703,55.888023,6.222019,1.1235275,-2.0106835
55,7.407111644744873,-16.70708656311035,73.45767974853516,1.4309534858586732,-12.936158642532687,74.72968524861737,-9.368831,17.187017,7.734083,33.488403,-8.257407,-11.09446,6.352006,-11.919988,-8.261629,40.18392,-32.12367,8.281796,-2.9686604,3.893687,14.616324,-16.198507,25.342388,-6.4088364,44.57607,-12.472719,7.018857,4.448087,-25.611322,-19.47219,11.743479,55.72944,6.549788,1.3221294,-1.9539216
56,7.584163665771484,-17.020235061645508,73.45626831054688,1.5139914130605066,-12.966851537141997,74.77913488064073,-9.346661,17.19302,7.6573596,32.92873,-7.6909103,-11.144106,6.052583,-11.818418,-8.318399,40.48608,-32.205917,8.052264,-3.106293,3.9686966,14.700208,-16.362423,25.416872,-6.9009266,44.978455,-12.922437,6.846719,4.43812,-25.70209,-19.665133,11.83159,55.608353,6.822184,1.4861295,-1.902884
57,7.757795810699463,-17.32486915588379,73.46182250976562,1.6077821517414623,-12.965743332480066,74.77471867615375,-9.309139,17.208685,7.648529,32.325737,-7.110584,-11.181777,5.6899886,-11.718277,-8.313024,40.80077,-32.261917,7.810135,-3.2002914,4.0558214,14.756408,-16.505312,25.488522,-7.3912964,45.36444,-13.432004,6.689794,4.3965282,-25.815695,-19.862642,11.943364,55.529816,7.0176644,1.6037118,-1.8641156
58,7.918252944946289,-17.622474670410156,73.47075653076172,1.7144118305228062,-12.941524816476305,74.73159890367307,-9.254776,17.224195,7.6939,31.682247,-6.5177064,-11.205778,5.2792687,-11.628524,-8.262268,41.13098,-32.29522,7.5622697,-3.261063,4.151219,14.791605,-16.641336,25.558344,-7.894609,45.75299,-14.008774,6.533532,4.3321247,-25.930801,-20.063993,12.066473,55.46789,7.152678,1.6875149,-1.8396143
59,8.065288543701172,-17.90860366821289,73.4870834350586,1.833412614174803,-12.911822202561986,74.67751625409714,-9.177174,17.222752,7.7656274,31.008286,-5.9337344,-11.208494,4.865099,-11.555134,-8.195974,41.449665,-32.314453,7.31985,-3.3080528,4.2368765,14.818127,-16.766726,25.620798,-8.382697,46.12168,-14.60955,6.3842955,4.271988,-26.046745,-20.265139,12.186881,55.418823,7.235665,1.7543571,-1.8162599
60,8.206488609313965,-18.190166473388672,73.50813293457031,1.9647248729158542,-12.894245914492233,74.63973243651034,-9.068433,17.186863,7.8368015,30.309916,-5.378281,-11.181927,4.4922285,-11.507585,-8.142927,41.730244,-32.327816,7.0947857,-3.363072,4.2943745,14.848072,-16.87595,25.668928,-8.824964,46.44871,-15.190066,6.2474074,4.2445726,-26.187002,-20.463453,12.304664,55.40276,7.285048,1.8206562,-1.7829679
61,8.340094566345215,-18.464229583740234,73.52960205078125,2.1176955436788107,-12.890636135799642,74.62127848381128,-8.92769,17.095808,7.894292,29.57343,-4.82458,-11.08865,4.164906,-11.499726,-8.102083,41.971966,-32.341007,6.8939853,-3.4325633,4.3154864,14.878877,-16.96347,25.695515,-9.212545,46.72659,-15.765023,6.124102,4.2602654,-26.320013,-20.651781,12.396891,55.391624,7.25362,1.8918978,-1.7408485
62,8.471170425415039,-18.732881546020508,73.55410766601562,2.290224580293085,-12.892534776727363,74.6088362063462,-8.757884,16.963306,7.957094,28.798344,-4.2739124,-10.942262,3.861928,-11.523917,-8.060116,42.18598,-32.34771,6.7102914,-3.5049617,4.309917,14.903861,-17.036015,25.70229,-9.562651,46.973587,-16.34689,6.009977,4.3054376,-26.47113,-20.83251,12.485149,55.412872,7.1604114,1.9580534,-1.6970773
63,8.593125343322754,-18.994800567626953,73.58285522460938,2.4628385000758075,-12.902245781149238,74.60580635890244,-8.562452,16.823019,8.040318,28.022198,-3.7865248,-10.819831,3.588204,-11.556754,-8.028233,42.368393,-32.340725,6.5343313,-3.5824096,4.29788,14.928954,-17.091928,25.691626,-9.871989,47.193542,-16.887613,5.9029346,4.3672814,-26.601007,-21.002659,12.550563,55.426815,7.0281067,2.01548,-1.6424881
64,8.71186637878418,-19.25733757019043,73.61388397216797,2.6157459947683446,-12.922108242677352,74.61548660690056,-8.338858,16.708046,8.159566,27.270548,-3.4179246,-10.797426,3.3509967,-11.573503,-8.018414,42.510784,-32.310753,6.3564377,-3.6633892,4.29637,14.961479,-17.136827,25.67011,-10.14453,47.394432,-17.342966,5.8007298,4.4346275,-26.730892,-21.163015,12.606822,55.451283,6.9170275,2.0594168,-1.5705501
65,8.827948570251465,-19.514122009277344,73.64903259277344,2.7449401569293306,-12.957483927307452,74.6404817629676,-8.06847,16.615047,8.299824,26.498468,-3.1882174,-10.913631,3.158639,-11.5711155,-8.0360775,42.61139,-32.256332,6.1726203,-3.75151,4.3031125,15.010131,-17.162497,25.638948,-10.366027,47.56359,-17.68071,5.7070594,4.514237,-26.86359,-21.311844,12.653703,55.48733,6.8449244,2.0855584,-1.4698868
66,8.935726165771484,-19.763927459716797,73.68780517578125,2.8620690759315837,-13.005133699510864,74.67795447750996,-7.7543178,16.528,8.459478,25.699795,-3.0604634,-11.12292,3.0052817,-11.561275,-8.074289,42.675167,-32.182587,5.98823,-3.8669174,4.2926583,15.064977,-17.146967,25.614758,-10.518869,47.69319,-17.930096,5.6230707,4.6091824,-27.031012,-21.405813,12.708123,55.572132,6.775139,2.093642,-1.357602
67,9.037276268005371,-20.015047073364258,73.7258529663086,2.9605142724078073,-13.057034273879475,74.7242944872448,-7.4292145,16.464617,8.673506,24.96446,-3.0080426,-11.375781,2.8767042,-11.538691,-8.127177,42.702515,-32.08985,5.8072824,-3.956856,4.3153214,15.124507,-17.151222,25.56664,-10.676203,47.817734,-18.149155,5.540275,4.700013,-27.15289,-21.546732,12.73276,55.61517,6.714697,2.0992284,-1.2296692
68,9.13547134399414,-20.25519371032715,73.76829528808594,3.0413492078641067,-13.103509757999785,74.77520661458146,-7.129273,16.440151,8.97697,24.389658,-3.008469,-11.622164,2.7559533,-11.501545,-8.187505,42.69994,-31.981556,5.6340485,-4.052181,4.348737,15.168925,-17.14594,25.525963,-10.821175,47.94214,-18.377436,5.454242,4.76827,-27.278555,-21.653786,12.754234,55.674244,6.621968,2.103354,-1.1235362
69,9.22201919555664,-20.490909576416016,73.81217193603516,3.1016654289369554,-13.14442663230023,74.82848289528434,-6.8495574,16.462807,9.398042,23.977518,-3.0732777,-11.881343,2.6431577,-11.447095,-8.254144,42.663277,-31.85554,5.4698243,-4.1392817,4.407262,15.201329,-17.144533,25.485582,-10.971391,48.073776,-18.631212,5.3607836,4.80782,-27.389954,-21.752804,12.760764,55.729202,6.489005,2.1074,-1.0333333
70,9.304994583129883,-20.72924041748047,73.85697174072266,3.1427832915093004,-13.183745423542947,74.886761654115,-6.576335,16.522636,9.912927,23.686714,-3.2088892,-12.169421,2.545121,-11.376975,-8.330766,42.592297,-31.711662,5.3122587,-4.213218,4.4900494,15.22808,-17.151752,25.437342,-11.12349,48.208202,-18.884678,5.2635837,4.829412,-27.478533,-21.85666,12.744633,55.771317,6.330445,2.1091976,-0.94724536
71,9.381271362304688,-20.96026039123535,73.9010009765625,3.1682574306610447,-13.219198404977574,74.95359699241573,-6.331547,16.609533,10.477458,23.548784,-3.386387,-12.43039,2.4581416,-11.29595,-8.418371,42.493523,-31.553734,5.1603527,-4.301698,4.5711794,15.241435,-17.137802,25.408571,-11.250488,48.325314,-19.131332,5.1712103,4.835849,-27.566015,-21.919336,12.732099,55.820686,6.1605463,2.109067,-0.8808115
72,9.45242977142334,-21.197601318359375,73.94825744628906,3.181456401575638,-13.248515351790946,75.03244252453871,-6.1371517,16.714558,11.046438,23.594711,-3.5775113,-12.607541,2.3787234,-11.208313,-8.518179,42.373257,-31.385427,5.0131927,-4.420194,4.6394186,15.249549,-17.08527,25.404594,-11.307318,48.39876,-19.338835,5.094045,4.8220367,-27.660051,-21.932253,12.732847,55.86515,5.998553,2.1126046,-0.83926445
73,9.516956329345703,-21.425262451171875,73.99617767333984,3.181088538661509,-13.267289829885831,75.12716087134307,-6.0137963,16.842083,11.619194,23.862597,-3.7671297,-12.6773615,2.304459,-11.113818,-8.632591,42.229168,-31.205784,4.87228,-4.441452,4.741195,15.211445,-17.166105,25.38098,-11.545882,48.56378,-19.603756,5.0158563,4.821544,-27.611584,-22.024757,12.657719,55.817158,5.9001646,2.1244226,-0.8023016
74,9.576925277709961,-21.652246475219727,74.04902648925781,3.166874513958241,-13.277936734607723,75.23497197372116,-5.9437404,16.995693,12.215529,24.32576,-3.9737334,-12.6711235,2.2374623,-11.011944,-8.760073,42.05936,-31.013668,4.737681,-4.4916883,4.8372273,15.172649,-17.208828,25.377165,-11.710869,48.679733,-19.829088,4.951838,4.795027,-27.624043,-22.078753,12.619966,55.81019,5.8354974,2.1409237,-0.78953475
75,9.637287139892578,-21.86793327331543,74.10297393798828,3.1402731812891616,-13.28838936514155,75.34908140784268,-5.8932414,17.171549,12.818755,24.923952,-4.2241883,-12.615326,2.1826825,-10.900047,-8.8968725,41.868782,-30.811337,4.6057124,-4.53215,4.937224,15.128954,-17.253517,25.383577,-11.871293,48.783436,-20.043892,4.89505,4.7631707,-27.61108,-22.122528,12.562999,55.781647,5.7668586,2.1588724,-0.7862549
76,9.693406105041504,-22.088176727294922,74.15641784667969,3.1000511617651956,-13.30733358481196,75.46355046630674,-5.8309,17.365057,13.411731,25.600657,-4.5470953,-12.536818,2.1459544,-10.776102,-9.039168,41.660397,-30.599676,4.4728317,-4.5577755,5.043973,15.091488,-17.29416,25.395052,-12.019307,48.86964,-20.242464,4.843869,4.7340674,-27.53115,-22.158735,12.454909,55.690147,5.6505365,2.1757276,-0.78149134
77,9.745562553405762,-22.30502700805664,74.20755767822266,3.0435876187621296,-13.334325219303354,75.57970590734618,-5.7581973,17.587553,14.006445,26.370234,-4.9606147,-12.416056,2.1318944,-10.635581,-9.192923,41.42462,-30.375717,4.3379884,-4.6235723,5.174344,15.061704,-17.26492,25.399702,-12.081019,48.900826,-20.409294,4.800105,4.707484,-27.479647,-22.162443,12.366662,55.614582,5.4803243,2.1976674,-0.7911435
78,9.788524627685547,-22.520057678222656,74.26161193847656,2.9717688491799708,-13.365958543509066,75.70017552163277,-5.6855927,17.837248,14.606106,27.249159,-5.4447007,-12.2471485,2.1361353,-10.481897,-9.357586,41.163918,-30.140347,4.203231,-4.605819,5.2984185,15.039936,-17.324982,25.414381,-12.227294,48.965652,-20.579098,4.760391,4.6939197,-27.47937,-22.16125,12.198667,55.600266,5.305964,2.225779,-0.7975719
79,9.836709976196289,-22.734716415405273,74.31237030029297,2.892912455707342,-13.404361065474578,75.81890941736876,-5.5973263,18.092682,15.180064,28.187601,-5.972311,-12.078036,2.152246,-10.32073,-9.520481,40.895634,-29.898804,4.0693707,-4.600197,5.4246655,15.014205,-17.355827,25.42847,-12.326214,49.01115,-20.717236,4.723995,4.6756473,-27.385616,-22.147104,12.022944,55.502373,5.1101093,2.2414196,-0.80812967
80,9.879465103149414,-22.942386627197266,74.35995483398438,2.811942875038381,-13.45226844886592,75.93097009393883,-5.4794354,18.33053,15.698384,29.136032,-6.515721,-11.956864,2.1738298,-10.159114,-9.668654,40.63632,-29.655754,3.9373708,-4.6058817,5.541126,14.99112,-17.355295,25.435892,-12.358139,49.035694,-20.800058,4.686764,4.6486096,-27.312912,-22.133512,11.928278,55.430115,4.990389,2.2278085,-0.82113165
81,9.91873550415039,-23.152074813842773,74.40510559082031,2.7319653514976503,-13.51192771789839,76.03194147180139,-5.3198514,18.557413,16.18524,30.090837,-7.0858226,-11.909077,2.1989653,-9.996501,-9.793693,40.3926,-29.409779,3.8055904,-4.594852,5.637722,14.969282,-17.359943,25.43881,-12.353468,49.069294,-20.822844,4.6410556,4.6103287,-27.235346,-22.125156,11.895172,55.371437,4.9655695,2.1705787,-0.82892597
82,9.948447227478027,-23.35282325744629,74.45501708984375,2.648464308758391,-13.581318051442434,76.12604234593361,-5.133099,18.782845,16.645014,31.082817,-7.6925025,-11.904616,2.230218,-9.830111,-9.9043045,40.15609,-29.159777,3.6741126,-4.5615764,5.7102895,14.952593,-17.371948,25.44401,-12.312913,49.10257,-20.783922,4.592842,4.562832,-27.115356,-22.103403,11.865226,55.281296,4.9797335,2.0847113,-0.8333602
83,9.976024627685547,-23.560443878173828,74.49901580810547,2.5638858805905174,-13.656421699667412,76.21931876172047,-4.9352646,18.98252,17.022795,32.095226,-8.305004,-11.908291,2.2700891,-9.666169,-10.012442,39.918743,-28.909925,3.5468006,-4.542195,5.775389,14.935068,-17.356007,25.44958,-12.229098,49.112255,-20.720108,4.5520883,4.5174303,-27.025972,-22.07257,11.889181,55.226097,5.0259757,1.9882095,-0.8452825
84,10.00020980834961,-23.75605583190918,74.54227447509766,2.4795626612008594,-13.732598334739823,76.31745216802253,-4.746873,19.133842,17.262291,33.11712,-8.894285,-11.886131,2.3188555,-9.5090685,-10.129586,39.67513,-28.665453,3.4271417,-4.503638,5.8415823,14.911253,-17.36084,25.451021,-12.17424,49.12327,-20.675055,4.52743,4.489419,-26.922152,-22.059546,11.906532,55.164135,5.07204,1.9058286,-0.8608804
85,10.026554107666016,-23.947450637817383,74.58787536621094,2.3958836537855803,-13.812039652950004,76.42282391138525,-4.574322,19.22781,17.338753,34.157703,-9.452268,-11.814851,2.3836734,-9.360708,-10.259692,39.41836,-28.427214,3.3165944,-4.4628477,5.9022374,14.886146,-17.36291,25.452133,-12.115548,49.109955,-20.633467,4.530618,4.4852257,-26.818216,-22.046906,11.929564,55.105423,5.1062703,1.8426814,-0.88797367
86,10.046972274780273,-24.13760757446289,74.62821960449219,2.3114704059653772,-13.89577048561348,76.53220891087554,-4.407865,19.276234,17.28612,35.21789,-9.994111,-11.717812,2.4612985,-9.217944,-10.395995,39.15362,-28.192503,3.2130902,-4.474343,5.9503937,14.864284,-17.287958,25.460257,-11.958534,49.030437,-20.557514,4.5577273,4.487956,-26.765097,-21.99809,12.028461,55.086624,5.1438665,1.7856604,-0.9370722
87,10.061540603637695,-24.326494216918945,74.66659545898438,2.2262167159800974,-13.978828774659771,76.64271239708859,-4.2400837,19.283127,17.135256,36.26632,-10.521429,-11.633474,2.5392625,-9.079306,-10.534667,38.891155,-27.96094,3.114969,-4.478708,5.987406,14.833415,-17.21836,25.477072,-11.815755,48.95618,-20.496431,4.5876007,4.494524,-26.72269,-21.935823,12.125181,55.08697,5.175715,1.7301935,-0.98881197
88,10.072640419006348,-24.51604461669922,74.70243835449219,2.137227813928423,-14.055902303556879,76.75167736373729,-4.0652447,19.255161,16.917797,37.27553,-11.0378,-11.598888,2.6051772,-8.941917,-10.671738,38.639103,-27.730595,3.0203843,-4.4426403,6.029081,14.796644,-17.196795,25.486967,-11.7243395,48.921246,-20.459938,4.6037464,4.4880204,-26.632141,-21.901651,12.156733,55.03845,5.187431,1.6770077,-1.021421
89,10.080559730529785,-24.700576782226562,74.73516082763672,2.044485423430049,-14.126313624583386,76.85820462891276,-3.8838058,19.1846,16.621828,38.24318,-11.541888,-11.633683,2.6562934,-8.807022,-10.808936,38.400047,-27.501146,2.9299774,-4.4187694,6.0744886,14.758289,-17.141329,25.49846,-11.60451,48.868923,-20.435534,4.6029477,4.452715,-26.568432,-21.860811,12.175639,55.0018,5.1721296,1.6210006,-1.0435808
90,10.082609176635742,-24.88551139831543,74.76424407958984,1.9495557626280666,-14.19222278298987,76.96285512408694,-3.698641,19.070984,16.239748,39.184597,-12.033899,-11.715714,2.6990228,-8.674963,-10.946666,38.168297,-27.272678,2.8441658,-4.400829,6.1138453,14.715554,-17.071133,25.51574,-11.467181,48.813114,-20.421127,4.593828,4.4003,-26.517977,-21.80578,12.185649,54.971256,5.135016,1.5647908,-1.0624435
91,10.078479766845703,-25.066566467285156,74.7948989868164,1.8517751154381572,-14.254316444647367,77.06964483373324,-3.5079355,18.928888,15.805998,40.098476,-12.519543,-11.818396,2.7348258,-8.545284,-11.082715,37.944344,-27.047367,2.761622,-4.3732243,6.1496925,14.667515,-17.009325,25.532341,-11.345222,48.76611,-20.411642,4.5835333,4.348287,-26.460287,-21.754412,12.178111,54.932102,5.088738,1.5107703,-1.0741384
92,10.070639610290527,-25.243371963500977,74.82276916503906,1.7506051031521561,-14.313315745574412,77.1823241014564,-3.309747,18.773731,15.354606,40.983257,-13.00456,-11.9147215,2.7651186,-8.41762,-11.214487,37.728546,-26.827051,2.681004,-4.357121,6.1710024,14.614856,-16.930492,25.55642,-11.218831,48.70892,-20.388487,4.582489,4.3106313,-26.42253,-21.684252,12.180693,54.911003,5.0373344,1.4582968,-1.085428
93,10.061898231506348,-25.425682067871094,74.84647369384766,1.6446575019994494,-14.368409047694419,77.30307770050119,-3.1064737,18.610723,14.886654,41.845715,-13.49182,-11.999134,2.792007,-8.2879,-11.341388,37.51749,-26.610754,2.600317,-4.316552,6.1982174,14.556102,-16.887096,25.565245,-11.138749,48.67599,-20.35061,4.593856,4.2974763,-26.349876,-21.648272,12.161806,54.856533,4.997806,1.4103174,-1.076512
94,10.043046951293945,-25.59545135498047,74.8674087524414,1.533821540500569,-14.420080778491053,77.4306391960132,-2.896575,18.43013,14.38684,42.68248,-13.977055,-12.085169,2.8151119,-8.158799,-11.46544,37.311417,-26.397928,2.520998,-4.3025656,6.210989,14.494117,-16.800152,25.58073,-11.026951,48.612804,-20.285706,4.6167493,4.2967196,-26.319887,-21.579355,12.159303,54.8402,4.9421234,1.360623,-1.0641645
95,10.023494720458984,-25.768613815307617,74.89032745361328,1.4231716689844254,-14.468583206832449,77.55902004428431,-2.676881,18.232548,13.863078,43.484867,-14.457872,-12.175127,2.829193,-8.034239,-11.586077,37.118362,-26.191067,2.446022,-4.2552376,6.2330723,14.426886,-16.755217,25.583279,-10.970772,48.57843,-20.244493,4.6349115,4.3013167,-26.254381,-21.555506,12.138073,54.78943,4.902177,1.3185191,-1.0484784
96,10.00404167175293,-25.93967056274414,74.90807342529297,1.3172428106121499,-14.514922989107491,77.68468573639835,-2.4423716,18.01443,13.32357,44.23946,-14.929696,-12.270736,2.8301203,-7.9217014,-11.703785,36.94621,-25.993624,2.3787854,-4.2289987,6.2353086,14.365204,-16.665123,25.589802,-10.869389,48.50829,-20.201403,4.6435647,4.2952857,-26.230516,-21.496027,12.123956,54.770985,4.828807,1.2815999,-1.0600268
97,9.971774101257324,-26.113679885864258,74.91881561279297,1.217202745759604,-14.559591807748129,77.80559109651936,-2.1929743,17.775887,12.767325,44.94915,-15.387312,-12.36859,2.8156123,-7.823545,-11.819035,36.79967,-25.807798,2.319902,-4.1850495,6.23472,14.300675,-16.585608,25.59533,-10.801237,48.44206,-20.208412,4.6371317,4.2788916,-26.20864,-21.451384,12.114229,54.755825,4.75847,1.2528956,-1.1053137
98,9.938214302062988,-26.286333084106445,74.93030548095703,1.1211345957526357,-14.601794167342444,77.92417295641994,-1.9306794,17.51862,12.190981,45.619354,-15.834746,-12.468789,2.7886474,-7.735957,-11.931343,36.673233,-25.631186,2.267549,-4.1289215,6.231099,14.236885,-16.50649,25.598442,-10.749136,48.36887,-20.242643,4.622191,4.256066,-26.186947,-21.420502,12.101595,54.73641,4.685025,1.2315714,-1.1707501
99,9.901798248291016,-26.455894470214844,74.94019317626953,1.025696050194888,-14.641729556025673,78.0426424636009,-1.6532876,17.244804,11.598525,46.24128,-16.281012,-12.578495,2.7512558,-7.6548853,-12.040214,36.561474,-25.460579,2.2213695,-4.082879,6.2167277,14.174303,-16.406324,25.602337,-10.677857,48.28196,-20.272188,4.5995855,4.2327285,-26.188768,-21.374146,12.090062,54.73529,4.59741,1.21521,-1.2394918
100,9.857281684875488,-26.624696731567383,74.94387817382812,0.9252211074536298,-14.679266111243413,78.16215560045637,-1.3605276,16.959122,10.994143,46.809994,-16.737629,-12.705258,2.7060802,-7.574123,-12.144408,36.456413,-25.291157,2.180579,-4.0222187,6.2031674,14.110026,-16.333658,25.600206,-10.626023,48.221905,-20.299526,4.5664735,4.216476,-26.16895,-21.350498,12.059517,54.70867,4.5220394,1.2072412,-1.2807676
101,9.808036804199219,-26.79520606994629,74.94852447509766,0.8187732042410764,-14.715117578448439,78.28388430820448,-1.05179,16.660873,10.369926,47.329044,-17.215645,-12.845521,2.6546178,-7.491508,-12.243024,36.356747,-25.124727,2.1455603,-3.985141,6.1822796,14.055486,-16.211843,25.588943,-10.510334,48.12578,-20.278542,4.5213113,4.2093973,-26.174717,-21.304302,12.006805,54.68977,4.406821,1.208509,-1.2917618
102,9.749593734741211,-26.96114730834961,74.94918823242188,0.7084706198014273,-14.748723881718266,78.40577050868816,-0.7276179,16.35118,9.72701,47.80144,-17.706812,-12.997134,2.5962844,-7.408481,-12.336295,36.262905,-24.960361,2.1159744,-3.9405122,6.1608953,13.998118,-16.105867,25.57155,-10.40472,48.052025,-20.260313,4.461367,4.2098145,-26.172699,-21.268639,11.940265,54.659184,4.2944417,1.2195119,-1.2834883
103,9.686967849731445,-27.13429069519043,74.94380950927734,0.5977384768131546,-14.779095814765027,78.52897556176391,-0.38854408,16.02934,9.081032,48.217728,-18.193659,-13.167334,2.5248775,-7.3333406,-12.427137,36.18623,-24.800186,2.0922391,-3.8982081,6.134352,13.939955,-16.002117,25.54335,-10.291238,47.982536,-20.219824,4.4002166,4.2116556,-26.178642,-21.231178,11.873019,54.63596,4.1833973,1.2316029,-1.2668664
104,9.625334739685059,-27.302799224853516,74.9392318725586,0.49151262370591464,-14.804481625577719,78.65383413583923,-0.03648028,15.695295,8.447526,48.570747,-18.659575,-13.363688,2.4330807,-7.2741876,-12.518083,36.139904,-24.647305,2.0745728,-3.8463423,6.100927,13.88286,-15.914915,25.519445,-10.198732,47.912487,-20.168867,4.3522205,4.2066307,-26.17515,-21.210655,11.813804,54.60479,4.10309,1.2383648,-1.2451787
105,9.55126667022705,-27.475452423095703,74.933349609375,0.38798401471088,-14.82356297381009,78.78408767316621,0.32722077,15.339303,7.8068495,48.85341,-19.10215,-13.60201,2.3196123,-7.2315426,-12.612946,36.125355,-24.500109,2.0618951,-3.7977097,6.062247,13.825281,-15.834649,25.486311,-10.102975,47.84005,-20.067583,4.3206625,4.1906176,-26.177816,-21.192497,11.767269,54.581196,4.0475345,1.2382407,-1.2193245
106,9.47419261932373,-27.64482879638672,74.91935729980469,0.2863754141386695,-14.837336095291244,78.91800131166926,0.70392877,14.965966,7.158531,49.072052,-19.530045,-13.873179,2.1877942,-7.2017646,-12.709412,36.136787,-24.358246,2.0543795,-3.750464,6.0202427,13.765091,-15.762894,25.444626,-10.009914,47.772316,-19.932451,4.29777,4.1691513,-26.186779,-21.181118,11.732694,54.56603,4.0137644,1.2346795,-1.1870207
107,9.387335777282715,-27.81805992126465,74.9038314819336,0.189837670953829,-14.848307047475124,79.04889283172686,1.0957036,14.595379,6.5461445,49.237362,-19.942537,-14.147315,2.0381837,-7.1860204,-12.800143,36.17461,-24.224691,2.0540361,-3.6955526,5.969805,13.708749,-15.700172,25.405424,-9.927036,47.69968,-19.80936,4.2810264,4.1478305,-26.191246,-21.17896,11.7035265,54.5466,3.9949737,1.2275648,-1.1542485
108,9.298731803894043,-27.99251937866211,74.88377380371094,0.10192772872683006,-14.859156703613147,79.1699390593563,1.5024738,14.2481365,6.012079,49.362167,-20.339579,-14.39494,1.8706671,-7.1854124,-12.877828,36.240868,-24.104055,2.0629816,-3.6348665,5.9086227,13.657256,-15.637289,25.379938,-9.85597,47.614197,-19.747372,4.2674317,4.1313763,-26.138897,-21.178333,11.658117,54.47544,3.9530833,1.2163502,-1.1285067
109,9.204093933105469,-28.166454315185547,74.8593521118164,0.025873306368179038,-14.871038264635901,79.27680236912806,1.9280417,13.923602,5.560987,49.449425,-20.742014,-14.610374,1.6861299,-7.2011595,-12.9377985,36.334583,-23.996367,2.0846744,-3.5693216,5.8516316,13.6202345,-15.569445,25.316965,-9.754762,47.51031,-19.731972,4.2533813,4.1272454,-26.105932,-21.18583,11.620323,54.423393,3.8890936,1.1995169,-1.1195421
110,9.100337028503418,-28.34569549560547,74.830078125,-0.041148605175596834,-14.882513402157453,79.37427379836345,2.3693812,13.612067,5.1709366,49.49257,-21.14236,-14.808598,1.4837023,-7.233072,-12.984599,36.45634,-23.900434,2.117107,-3.4860516,5.7745237,13.586998,-15.5212555,25.274162,-9.6872635,47.407185,-19.790827,4.243042,4.1317806,-26.110233,-21.202,11.615614,54.414787,3.8608508,1.1757597,-1.1233014
111,8.990219116210938,-28.52751350402832,74.79946899414062,-0.10206384235217492,-14.891611841640401,79.46763523843158,2.8185635,13.320119,4.845177,49.482353,-21.49347,-14.991747,1.2627368,-7.278352,-13.02489,36.60538,-23.814987,2.1540842,-3.3867807,5.670614,13.561144,-15.492679,25.250895,-9.640053,47.303726,-19.849009,4.236099,4.1398883,-26.199438,-21.22258,11.657426,54.484684,3.9085891,1.1481211,-1.1284914
112,8.874844551086426,-28.7076358795166,74.76483917236328,-0.13412173513786443,-14.893567143080354,79.57159719658466,3.2645528,13.002677,4.600481,49.39713,-21.738739,-15.000033,1.006566,-7.378935,-13.0630865,36.81425,-23.756475,2.2002354,-3.3264518,5.5505896,13.5345955,-15.424643,25.21548,-9.546019,47.170017,-19.832422,4.2328253,4.135185,-26.164282,-21.250484,11.66645,54.414886,3.922922,1.1255523,-1.1159885
113,8.74997329711914,-28.89150047302246,74.72711944580078,-0.15277298500374958,-14.888815599899988,79.685393720153,3.7145216,12.682409,4.4273806,49.23657,-21.814669,-15.000033,0.7261291,-7.511598,-13.10397,37.059467,-23.715189,2.2492924,-3.2501335,5.3821363,13.506875,-15.39841,25.194654,-9.482896,47.062077,-19.713356,4.2295756,4.1307425,-26.238008,-21.279928,11.733376,54.44351,4.0733013,1.0976871,-1.0876083
114,8.61861515045166,-29.078800201416016,74.68358612060547,-0.16578420936450738,-14.879752460102898,79.80264614080636,4.1696973,12.372641,4.3202643,49.01159,-21.76855,-15.000033,0.4263676,-7.662525,-13.143752,37.332253,-23.685955,2.3011818,-3.2201536,5.234071,13.485132,-15.309689,25.152054,-9.348556,46.90272,-19.516603,4.2316484,4.1085186,-26.132988,-21.326626,11.754964,54.27349,4.167064,1.0727994,-1.0369976
115,8.491379737854004,-29.26296615600586,74.63300323486328,-0.19476140458599842,-14.870451888322313,79.90894162524492,4.6191206,12.124735,4.2693634,48.741188,-21.728348,-15.000033,0.114026785,-7.7935658,-13.177468,37.619663,-23.656631,2.3454554,-3.1568487,5.0856323,13.472567,-15.265335,25.114174,-9.250577,46.770355,-19.310041,4.2329044,4.095774,-26.206944,-21.394144,11.865797,54.27421,4.3844867,1.0516781,-0.992385
116,8.360527992248535,-29.453310012817383,74.5726547241211,-0.26613715599285614,-14.866298613253687,79.9909362654078,5.050764,11.99256,4.2657676,48.448116,-21.824493,-15.000033,-0.20229456,-7.863468,-13.201957,37.906494,-23.613737,2.3713744,-3.080687,4.976058,13.465908,-15.2168255,25.091833,-9.160122,46.639202,-19.15665,4.2377105,4.086744,-26.150183,-21.425362,11.880876,54.157253,4.471878,1.0472809,-0.9570768
117,8.231375694274902,-29.645029067993164,74.50718688964844,-0.40715975259135384,-14.86999633478525,80.03872767966377,5.4639173,12.027176,4.3064637,48.1685,-22.076328,-15.000033,-0.5137991,-7.8316574,-13.220747,38.176662,-23.546904,2.3698628,-2.98429,4.9402204,13.479058,-15.164455,25.068533,-9.062091,46.503223,-19.052198,4.240136,4.0885396,-26.213644,-21.467602,11.955289,54.14702,4.57447,1.0682822,-0.9469551
118,8.08690071105957,-29.835786819458008,74.43534851074219,-0.44523475199132345,-14.86426614463163,80.1012138608082,5.854715,11.918227,4.4551272,47.807014,-22.362226,-14.230883,-0.90160626,-7.960154,-13.212239,38.59344,-23.542593,2.4021015,-2.9093485,4.803176,13.476079,-15.1093235,25.05282,-8.9681015,46.3713,-18.98232,4.2417927,4.0948505,-26.140604,-21.481155,11.942153,54.00926,4.558032,1.1092494,-0.9472219
119,7.938077926635742,-30.026935577392578,74.36187744140625,-0.43793337476196476,-14.854827966456318,80.16668742146251,6.2237325,11.764539,4.680385,47.357536,-22.73154,-13.2207575,-1.3273913,-8.157793,-13.185244,39.076767,-23.563238,2.4460757,-2.8247356,4.606231,13.472909,-15.081836,25.045979,-8.901252,46.259804,-18.935547,4.249171,4.107016,-26.147026,-21.488272,11.953462,53.958004,4.5752597,1.1481678,-0.95408046
120,7.781594276428223,-30.224985122680664,74.28312683105469,-0.4053492153945227,-14.843604941590181,80.23347331353978,6.57181,11.6023445,4.9682684,46.789986,-23.216541,-12.311012,-1.7715919,-8.389027,-13.144785,39.58439,-23.590155,2.4931512,-2.7663713,4.385566,13.486964,-15.018679,25.041662,-8.792181,46.111187,-18.89048,4.2755303,4.1037483,-26.191114,-21.496578,11.99171,53.93578,4.6118474,1.1691935,-0.95067817
121,7.626096725463867,-30.425039291381836,74.20044708251953,-0.34157397842286935,-14.836825207638475,80.29704652815636,6.9256244,11.43106,5.3452153,46.014816,-23.881872,-11.525223,-2.2369478,-8.660072,-13.082092,40.134594,-23.634283,2.544463,-2.6929712,4.130873,13.497181,-15.005191,25.042656,-8.733749,46.01886,-18.9012,4.3204165,4.0886817,-26.157976,-21.49491,11.985313,53.874954,4.63925,1.1637293,-0.92397726
122,7.462215423583984,-30.633058547973633,74.11622619628906,-0.2514682620660398,-14.833472258420317,80.35795501228195,7.2783713,11.249875,5.7995534,45.07786,-24.6951,-10.762446,-2.7224176,-8.967268,-12.99938,40.723137,-23.691387,2.6001887,-2.652196,3.8402429,13.542343,-14.916854,25.0628,-8.604295,45.83647,-18.914865,4.3931756,4.048908,-26.132786,-21.476795,11.978443,53.796257,4.653928,1.1476297,-0.8791614
123,7.295963764190674,-30.842512130737305,74.03067016601562,-0.14373800783748553,-14.819847759172626,80.42461318811196,7.5755897,11.055749,6.273854,44.14321,-25.537731,-10.047843,-3.2275012,-9.2997875,-12.911756,41.32014,-23.745363,2.6590686,-2.5906641,3.5225163,13.572122,-14.892523,25.086157,-8.532946,45.71955,-18.939024,4.4635973,4.023527,-26.142231,-21.456474,11.969611,53.77656,4.6838603,1.1205475,-0.848005
124,7.132905960083008,-31.054677963256836,73.94365692138672,-0.03181356869256381,-14.784342271542327,80.50878825899332,7.764881,10.847733,6.713187,43.37229,-26.288862,-9.406881,-3.7491064,-9.6483345,-12.836036,41.89475,-23.779497,2.7200718,-2.5617425,3.1895356,13.597648,-14.80965,25.127747,-8.424833,45.538197,-18.915821,4.5330343,4.0145893,-26.082458,-21.398148,11.879081,53.679066,4.5857816,1.0932435,-0.844695
125,6.966073036193848,-31.272972106933594,73.85824584960938,0.08385525020278328,-14.719983340170968,80.61569107432722,7.827825,10.64071,7.1456084,42.807068,-26.94071,-8.851077,-4.296546,-10.015545,-12.778453,42.453163,-23.796053,2.781596,-2.5450242,2.8352647,13.60172,-14.740395,25.179098,-8.336906,45.371033,-18.844519,4.591181,4.0415583,-26.04408,-21.310144,11.7527075,53.608025,4.4127917,1.0557468,-0.88569844
126,6.793562412261963,-31.494403839111328,73.77767944335938,0.20714709234128928,-14.634788944682253,80.7395509952368,7.7959585,10.433321,7.5897517,42.357613,-27.54752,-8.366887,-4.867638,-10.404782,-12.728978,43.007008,-23.801804,2.844883,-2.5471966,2.4543798,13.5914955,-14.664061,25.245129,-8.252246,45.19956,-18.742365,4.646469,4.091772,-25.999907,-21.181328,11.58261,53.537422,4.158196,1.0078099,-0.9580823
127,6.62300968170166,-31.727392196655273,73.70367431640625,0.3405051603210149,-14.537168142918324,80.8717505923204,7.6885676,10.203324,7.980169,41.99246,-28.084127,-7.9425225,-5.443656,-10.807424,-12.679705,43.532646,-23.78557,2.9126759,-2.5530713,2.0578763,13.573701,-14.586017,25.310465,-8.159302,45.024155,-18.603811,4.6970987,4.149616,-25.932446,-21.03059,11.366225,53.447964,3.8513474,0.96815246,-1.0502402
128,6.447914123535156,-31.96280288696289,73.64183044433594,0.4836061385770077,-14.435970609248594,81.00464839005552,7.5255876,9.927098,8.251412,41.679024,-28.524338,-7.5653605,-6.00716,-11.215216,-12.622408,44.008503,-23.7375,2.9876626,-2.5505977,1.6471044,13.551914,-14.50764,25.368328,-8.044911,44.845066,-18.423574,4.741757,4.199606,-25.808008,-20.853312,11.082141,53.309727,3.4959364,0.95430493,-1.1523252
129,6.274998188018799,-32.20579147338867,73.59133911132812,0.6463555055108661,-14.323266186318726,81.15152367839087,7.2814875,9.57772,8.349254,41.425713,-28.844297,-7.2466955,-6.5657444,-11.645332,-12.561542,44.436607,-23.656425,3.0751798,-2.5444872,1.204888,13.520679,-14.438548,25.420656,-7.9274955,44.6815,-18.177828,4.763964,4.251661,-25.678175,-20.655766,10.763554,53.163544,3.1507123,0.9804089,-1.2748975
130,6.104847431182861,-32.44877243041992,73.5466079711914,0.8230974396869085,-14.198312949291363,81.31214914015732,6.9584703,9.175588,8.324926,41.24254,-29.062265,-6.988275,-7.124294,-12.095266,-12.498706,44.824596,-23.546244,3.1721132,-2.5386698,0.738652,13.479898,-14.373983,25.467371,-7.805388,44.52644,-17.875452,4.770042,4.3089995,-25.52481,-20.437136,10.397758,52.99271,2.7820284,1.034765,-1.4171293
131,5.926076889038086,-32.692352294921875,73.50814056396484,0.9998280242375716,-14.07896117288918,81.4555535567179,6.6167374,8.768037,8.269366,41.099907,-29.214859,-6.7627106,-7.6624684,-12.528289,-12.422491,45.162304,-23.40672,3.2680945,-2.5137153,0.2766052,13.443881,-14.309392,25.503666,-7.648869,44.353718,-17.563093,4.790359,4.3516145,-25.354763,-20.198374,9.991897,52.821156,2.365045,1.092845,-1.5613327
132,5.7528791427612305,-32.93521499633789,73.47876739501953,1.1604495342967611,-13.98345432916651,81.55109442764184,6.3152833,8.403328,8.271485,40.96723,-29.338314,-6.542399,-8.159014,-12.907614,-12.322844,45.437508,-23.236103,3.3527148,-2.4524243,-0.1517278,13.426452,-14.237402,25.522215,-7.424094,44.137115,-17.285646,4.8549037,4.3593545,-25.171986,-19.941378,9.552684,52.670177,1.8695811,1.1301662,-1.6905146
133,5.576508522033691,-33.177642822265625,73.4543228149414,1.3028172153872222,-13.914658194393756,81.5921048380589,6.0575347,8.0901,8.345108,40.84936,-29.434011,-6.325031,-8.611739,-13.229326,-12.200923,45.650787,-23.035162,3.4219756,-2.3453326,-0.54053706,13.430476,-14.151863,25.513475,-7.1065016,43.861046,-17.066927,4.9782286,4.321741,-24.981913,-19.663206,9.058645,52.546646,1.2628685,1.1424673,-1.8012074
134,5.397957801818848,-33.42230987548828,73.43620300292969,1.434588919422864,-13.863362287261824,81.59426747284014,5.8152614,7.8054414,8.4459,40.758724,-29.485374,-6.12313,-9.031241,-13.510867,-12.062226,45.807373,-22.804237,3.4814827,-2.204489,-0.90059775,13.447243,-14.058208,25.476545,-6.7168164,43.546173,-16.875807,5.1409307,4.2519045,-24.77358,-19.362043,8.508705,52.433167,0.5583192,1.1424181,-1.9030725
135,5.22495174407959,-33.6629524230957,73.42710876464844,1.554742487966535,-13.828570681353066,81.56045493671621,5.5969963,7.5500846,8.573449,40.676815,-29.50169,-5.9313183,-9.415086,-13.747142,-11.903694,45.90361,-22.542309,3.5351977,-2.0407283,-1.2337376,13.476776,-13.969371,25.422731,-6.2937493,43.218372,-16.674662,5.3222027,4.1653233,-24.585508,-19.054134,7.98429,52.367596,-0.14806207,1.1294951,-2.0018635
136,5.056866645812988,-33.9024543762207,73.42607116699219,1.6601888399950675,-13.809685530664373,81.49401630977685,5.411827,7.3246894,8.727437,40.584553,-29.492083,-5.744301,-9.762113,-13.93338,-11.721947,45.93727,-22.248888,3.5874512,-1.8656673,-1.5415108,13.521754,-13.893112,25.368292,-5.8742294,42.89529,-16.429129,5.5024066,4.07524,-24.455723,-18.765377,7.5715437,52.385395,-0.7523114,1.1035173,-2.1013403
137,4.8875732421875,-34.14307403564453,73.43199157714844,1.7520456930993455,-13.818224352242812,81.38006800720436,5.2791057,7.1347938,8.923219,40.47991,-29.456306,-5.563107,-10.064369,-14.057926,-11.497267,45.905624,-21.917286,3.6383567,-1.6658328,-1.8180503,13.600711,-13.818954,25.315866,-5.4442163,42.549774,-16.119534,5.683812,3.9598062,-24.387297,-18.51043,7.2765613,52.485577,-1.2534511,1.063225,-2.205769
138,4.716257095336914,-34.38650894165039,73.44586944580078,1.8322037947150744,-13.850296430356952,81.22167538649515,5.186899,6.978913,9.155167,40.373634,-29.39077,-5.3896723,-10.324855,-14.12674,-11.238933,45.811382,-21.550364,3.6861334,-1.4380457,-2.0582225,13.710485,-13.743741,25.258722,-4.992321,42.174553,-15.77183,5.8751383,3.8162434,-24.337147,-18.28169,7.0431104,52.62571,-1.7087989,1.0097595,-2.3063045
139,4.5498552322387695,-34.6348991394043,73.46856689453125,1.8974525463151986,-13.882589561969125,81.04980313195897,5.1004586,6.8466477,9.392263,40.26017,-29.297056,-5.2202077,-10.556491,-14.162037,-10.986238,45.656986,-21.1606,3.7322183,-1.2093021,-2.2763772,13.820741,-13.684354,25.203558,-4.5576935,41.815666,-15.4156,6.0669646,3.6888108,-24.330502,-18.085873,6.912705,52.83327,-2.0444589,0.94515383,-2.3921762
140,4.385946273803711,-34.87263107299805,73.50042724609375,1.948098474170003,-13.891490906698639,80.89449233668614,4.9853244,6.727306,9.603849,40.13523,-29.177637,-5.05086,-10.773591,-14.185892,-10.777728,45.446217,-20.761333,3.7780242,-1.006917,-2.4835086,13.903526,-13.653991,25.15945,-4.177019,41.512035,-15.083796,6.251594,3.618933,-24.36404,-17.926989,6.904691,53.10576,-2.209578,0.8717381,-2.447608
141,4.227494239807129,-35.104103088378906,73.53839874267578,1.979232631496481,-13.871540365424929,80.75890566564381,4.8304524,6.6230974,9.785718,40.00449,-29.033121,-4.8770328,-10.986465,-14.196195,-10.6144905,45.18534,-20.344278,3.7970564,-0.80787724,-2.675425,13.960341,-13.692431,25.138224,-3.9077995,41.291298,-14.818586,6.421339,3.6256537,-24.415846,-17.842438,7.0119653,53.431496,-2.1700225,0.791139,-2.4573267
142,4.078700542449951,-35.338802337646484,73.58757781982422,1.9939534138680093,-13.834843526532463,80.62820735281112,4.655976,6.537241,9.953466,39.866875,-28.861933,-4.7020035,-11.185229,-14.185221,-10.478713,44.869583,-19.905817,3.7974586,-0.65620357,-2.8577201,13.994473,-13.720613,25.126411,-3.6479518,41.094604,-14.569563,6.5837464,3.683045,-24.542326,-17.77165,7.275045,53.86085,-1.9737784,0.7010159,-2.4521158
143,3.9256441593170166,-35.57120895385742,73.6412124633789,1.9981830237884055,-13.785030284354704,80.50740092388153,4.47274,6.462214,10.106477,39.711735,-28.665926,-4.5335903,-11.35318,-14.16794,-10.380757,44.491024,-19.468822,3.8325522,-0.51251346,-3.0319154,14.011941,-13.78034,25.125927,-3.4267898,40.939995,-14.313717,6.7527437,3.768078,-24.68113,-17.729492,7.616053,54.318295,-1.6481123,0.5987787,-2.4156985
144,3.784909725189209,-35.803619384765625,73.703125,1.9995348470493797,-13.725347431674992,80.40105560146563,4.2918262,6.390376,10.243223,39.527332,-28.446245,-4.3796616,-11.472244,-14.158463,-10.33061,44.037746,-19.055098,3.9552586,-0.4056863,-3.2009637,14.014031,-13.8217325,25.130365,-3.1740172,40.78485,-14.001311,6.944752,3.8484468,-24.840528,-17.694588,8.037033,54.783054,-1.2171091,0.48207733,-2.3512676
145,3.6546685695648193,-36.0276985168457,73.77391815185547,1.9953350483289656,-13.648929874160421,80.32184235910607,4.102855,6.3178635,10.352197,39.313423,-28.197392,-4.2403717,-11.541127,-14.132369,-10.286551,43.477646,-18.651487,4.207211,-0.27410626,-3.3683953,13.990103,-13.953142,25.138927,-2.9976516,40.706764,-13.626895,7.1755376,3.9542592,-24.9507,-17.69129,8.47043,55.2228,-0.6533944,0.3320638,-2.2203453
146,3.536858081817627,-36.249366760253906,73.84638214111328,1.9843656641362786,-13.556648804590463,80.26314087833123,3.904022,6.249018,10.4378395,39.076275,-27.921516,-4.1121235,-11.567655,-14.093532,-10.256021,42.825462,-18.25438,4.549524,-0.1310552,-3.532474,13.942691,-14.153656,25.150238,-2.8831189,40.694324,-13.208136,7.432971,4.089976,-25.03541,-17.709473,8.935085,55.661983,0.03444302,0.15765674,-2.0359807
147,3.4148480892181396,-36.45988845825195,73.92900848388672,1.9704218480147904,-13.463750056580665,80.20234499562616,3.7206967,6.1890273,10.523093,38.810753,-27.627861,-3.9973736,-11.547589,-14.096302,-10.3241,42.140957,-17.899496,4.914759,-0.050102323,-3.6762445,13.896085,-14.275342,25.16214,-2.6786299,40.63766,-12.762999,7.687731,4.1910057,-25.177376,-17.751842,9.519045,56.11098,0.8056142,-0.002268549,-1.856128
148,3.311291217803955,-36.67795181274414,74.01244354248047,1.957585754039172,-13.3866312047017,80.11696978430005,3.5777824,6.1413946,10.630839,38.513306,-27.326918,-3.8984857,-11.478256,-14.19417,-10.57711,41.486458,-17.620354,5.2370777,0.1161863,-3.816333,13.869557,-14.484403,25.165007,-2.5497093,40.667587,-12.334051,7.894308,4.253995,-25.254452,-17.788286,9.975325,56.46855,1.4883572,-0.11356722,-1.7172874
149,3.209279775619507,-36.89323043823242,74.09510803222656,1.9447429225299462,-13.326523211577102,80.00509926310845,3.4811113,6.10942,10.762658,38.17601,-27.017847,-3.818981,-11.342314,-14.386021,-11.047278,40.82682,-17.415321,5.5463214,0.30394733,-3.941842,13.86765,-14.687353,25.157188,-2.3873975,40.72511,-11.89677,8.0371,4.244562,-25.32536,-17.825602,10.404698,56.74821,2.1204622,-0.1567385,-1.6323454
150,3.1107451915740967,-37.105186462402344,74.1849136352539,1.9319200215595909,-13.275750510386258,79.8771280700469,3.4179277,6.089977,10.90755,37.802834,-26.695995,-3.7566004,-11.144667,-14.643491,-11.689227,40.144943,-17.266613,5.863846,0.521795,-4.059291,13.877162,-14.9187975,25.141798,-2.231427,40.83321,-11.444828,8.136521,4.1923013,-25.37821,-17.859713,10.800663,56.969223,2.7295687,-0.1556186,-1.57899
151,3.024038314819336,-37.31779098510742,74.26940155029297,1.9193111002404601,-13.236755404209312,79.72956041469682,3.3827982,6.0812635,11.0685835,37.41202,-26.368572,-3.7052152,-10.916923,-14.9752655,-12.47662,39.534084,-17.183777,6.1128387,0.71956295,-4.148987,13.900854,-15.094039,25.105463,-2.0205956,40.901768,-11.002719,8.221577,4.106098,-25.45955,-17.90427,11.217376,57.176655,3.3049824,-0.13627832,-1.5695845
152,2.937481164932251,-37.541404724121094,74.35202026367188,1.9114344877580578,-13.211889369519216,79.55824950130719,3.3717515,6.079375,11.249785,37.019424,-26.041168,-3.6587248,-10.689143,-15.392796,-13.382259,39.086987,-17.17761,6.2159915,0.95593816,-4.2282434,13.938247,-15.286997,25.067327,-1.8616474,40.963795,-10.626841,8.317268,4.0212984,-25.517122,-17.940329,11.543415,57.365944,3.7762475,-0.12787254,-1.6055194
153,2.8525009155273438,-37.7595100402832,74.43400573730469,1.909265291229585,-13.202549637420265,79.34986136401803,3.3917878,6.0886974,11.463557,36.620766,-25.712893,-3.6186604,-10.453456,-15.933181,-14.489812,38.82055,-17.27886,6.1196513,1.2109039,-4.281135,13.994423,-15.453877,25.01948,-1.703774,40.973206,-10.3230715,8.445371,3.919856,-25.57815,-17.974236,11.821656,57.552162,4.1444454,-0.13113278,-1.7151276
154,2.7777655124664307,-37.979183197021484,74.5159683227539,1.9098193764893618,-13.20773675506163,79.1107307013999,3.442292,6.108323,11.7044325,36.2108,-25.381695,-3.587193,-10.191058,-16.577454,-15.78702,38.69138,-17.477736,5.8790355,1.5045364,-4.325307,14.06712,-15.63425,24.980566,-1.5801818,40.974598,-10.081701,8.586691,3.8004866,-25.624678,-17.99712,12.031072,57.71633,4.4254255,-0.13494547,-1.8842466
155,2.703158378601074,-38.20043182373047,74.59434509277344,1.9157071311483769,-13.22406570661406,78.86528719533985,3.508145,6.1290607,11.948109,35.80313,-25.051455,-3.559341,-9.9191265,-17.255554,-17.0998,38.69907,-17.722801,5.576674,1.7796234,-4.3575478,14.148692,-15.772489,24.936142,-1.4484508,40.941746,-9.874992,8.710996,3.682147,-25.68155,-18.017738,12.21085,57.87324,4.6369944,-0.14528164,-2.0673478
156,2.6328585147857666,-38.41781997680664,74.67083740234375,1.9287846426966773,-13.24886486426037,78.63814669255049,3.5734668,6.140044,12.170628,35.412273,-24.726536,-3.5299604,-9.664374,-17.903412,-18.249847,38.846027,-17.9599,5.291455,2.0233116,-4.396662,14.232185,-15.875973,24.896448,-1.3361522,40.89503,-9.693283,8.787476,3.593011,-25.739174,-18.033207,12.342882,58.019817,4.7877812,-0.16870742,-2.2136908
157,2.5699753761291504,-38.63590621948242,74.73979949951172,1.9512525797108418,-13.282943049225493,78.43531412230084,3.6386495,6.1343484,12.36597,35.034096,-24.40232,-3.4978795,-9.433379,-18.539522,-19.24454,39.160954,-18.19307,5.006987,2.2152247,-4.4392295,14.321841,-15.915252,24.84988,-1.2210811,40.811718,-9.518225,8.794484,3.5378284,-25.810837,-18.044104,12.425477,58.16718,4.85406,-0.21377881,-2.3195136
158,2.51819109916687,-38.84268569946289,74.8038101196289,1.982761392399756,-13.327266451724935,78.24395861691521,3.7100718,6.1171494,12.54679,34.66444,-24.078995,-3.4656034,-9.212961,-19.191975,-20.157797,39.631306,-18.443666,4.690095,2.3915038,-4.492951,14.420663,-15.932917,24.816647,-1.1386458,40.71696,-9.375238,8.753235,3.5061493,-25.874723,-18.044441,12.434365,58.298504,4.8337445,-0.27457923,-2.4047146
159,2.46975040435791,-39.0519905090332,74.86009216308594,2.0188952712139216,-13.379577592927085,78.06067032441814,3.7847033,6.097335,12.7182455,34.31023,-23.76405,-3.4334543,-9.006771,-19.808933,-20.910088,40.193016,-18.678465,4.3929853,2.5507903,-4.553025,14.515591,-15.93926,24.79741,-1.084764,40.62756,-9.282108,8.696875,3.4923558,-25.93138,-18.041264,12.418242,58.408825,4.7856593,-0.33466572,-2.4659383
160,2.429541826248169,-39.2580451965332,74.91859436035156,2.053470579297317,-13.43731083582854,77.88295746849828,3.8578327,6.0850697,12.884378,33.98175,-23.467016,-3.4018226,-8.818782,-20.33561,-21.423141,40.77635,-18.860796,4.168593,2.696232,-4.6123757,14.595707,-15.936097,24.789125,-1.0572348,40.5458,-9.251305,8.660243,3.4924219,-25.985823,-18.040373,12.416744,58.498997,4.764225,-0.37892714,-2.498616
161,2.39200496673584,-39.45188903808594,74.96875,2.0853540523229657,-13.504936435972485,77.70849700059078,3.9357448,6.08263,13.049273,33.679893,-23.190056,-3.3682346,-8.661606,-20.758606,-21.657282,41.395653,-18.974934,4.0206265,2.821098,-4.665514,14.66631,-15.914582,24.78351,-1.0389328,40.45998,-9.294712,8.656444,3.507233,-26.053844,-18.042418,12.438203,58.57641,4.7740564,-0.40273252,-2.492753
162,2.3555729389190674,-39.648746490478516,75.0134048461914,2.116708632749039,-13.58171677575287,77.53927362471042,4.0176606,6.0858827,13.209514,33.40088,-22.929052,-3.3333683,-8.533596,-21.105185,-21.659758,42.07307,-19.039116,3.9255545,2.9025517,-4.7046676,14.724531,-15.8431,24.775282,-1.0124364,40.351772,-9.406806,8.665512,3.537568,-26.153067,-18.054544,12.510797,58.658344,4.8129115,-0.41432723,-2.4579077
163,2.3337461948394775,-39.84404373168945,75.05540466308594,2.1485758398057455,-13.658734721792456,77.37813278062399,4.0899177,6.0945263,13.358414,33.146484,-22.681961,-3.302377,-8.423823,-21.380102,-21.480318,42.758205,-19.07134,3.8961031,2.9721594,-4.7442746,14.7718935,-15.773457,24.772203,-1.0040227,40.262367,-9.541215,8.67147,3.5730226,-26.23693,-18.073853,12.58096,58.705105,4.860594,-0.41619247,-2.4058454
164,2.315037727355957,-40.03623962402344,75.09224700927734,2.1770152299116,-13.727880792401027,77.2289202451249,4.1392865,6.1083984,13.489345,32.917137,-22.445875,-3.2804422,-8.319145,-21.592657,-21.16858,43.4029,-19.09126,3.9444938,3.0265355,-4.7853637,14.80773,-15.704762,24.771374,-0.99502456,40.193977,-9.650178,8.6590185,3.5990548,-26.308138,-18.100067,12.650003,58.71606,4.9160743,-0.41172314,-2.3522744
165,2.29815411567688,-40.22645568847656,75.12483978271484,2.2047973944442383,-13.788016884698255,77.09108345643905,4.164497,6.126784,13.599864,32.712658,-22.222843,-3.2695096,-8.227213,-21.725307,-20.686588,44.00062,-19.091461,4.1044736,3.0645678,-4.82997,14.83413,-15.6310625,24.769718,-0.9809597,40.142452,-9.722921,8.62165,3.6197815,-26.36609,-18.13357,12.715386,58.68298,4.9824047,-0.40361694,-2.2926137
166,2.2905848026275635,-40.42182159423828,75.14856719970703,2.2315754618022794,-13.843193173348013,76.96302632236822,4.1719384,6.1506844,13.694015,32.53243,-22.013052,-3.266726,-8.152165,-21.776447,-20.025955,44.577526,-19.068983,4.361291,3.0869925,-4.875468,14.849247,-15.55518,24.76616,-0.9697948,40.110924,-9.781955,8.567458,3.6408992,-26.415705,-18.17133,12.776833,58.61745,5.0548596,-0.39018908,-2.2224395
167,2.2889692783355713,-40.60130310058594,75.17041015625,2.2555481163830895,-13.891881123513961,76.84590646394194,4.157779,6.1824846,13.773486,32.381374,-21.814249,-3.270028,-8.074271,-21.785484,-19.279602,45.13528,-19.049381,4.6528196,3.1010711,-4.925248,14.847253,-15.493068,24.763794,-0.96955395,40.110558,-9.82549,8.505609,3.6543388,-26.454586,-18.197086,12.821556,58.536167,5.1107945,-0.3675306,-2.1598203
168,2.298783779144287,-40.79389190673828,75.1888427734375,2.2731102304863247,-13.932648024089799,76.7412969975239,4.120004,6.225695,13.840153,32.260555,-21.621826,-3.2772608,-7.9732594,-21.79174,-18.540598,45.671345,-19.054338,4.9150453,3.0951276,-4.9616265,14.830341,-15.430071,24.761108,-0.960832,40.12086,-9.861294,8.445702,3.6395588,-26.476784,-18.233864,12.884462,58.42734,5.1723704,-0.32666144,-2.1148396
169,2.3126139640808105,-40.97883224487305,75.20824432373047,2.2865901950925713,-13.960873734891447,76.64806542367657,4.0527205,6.2788777,13.896365,32.17288,-21.433481,-3.2880094,-7.859464,-21.78946,-17.785141,46.18401,-19.076977,5.155954,3.0783386,-4.989211,14.796069,-15.373015,24.756609,-0.9416041,40.15081,-9.864306,8.385814,3.5835063,-26.471973,-18.288673,12.962384,58.27472,5.2366223,-0.25648618,-2.09319
170,2.3381705284118652,-41.16086196899414,75.22175598144531,2.2969907323818517,-13.978676703855786,76.56578619266894,3.9596176,6.340783,13.940797,32.115047,-21.25094,-3.30328,-7.737768,-21.765652,-16.979548,46.675507,-19.10994,5.400564,3.054518,-5.0115786,14.743348,-15.331857,24.749199,-0.9240522,40.213642,-9.840404,8.321527,3.4990935,-26.445873,-18.353748,13.041302,58.090504,5.2971497,-0.16561021,-2.0865576
171,2.3621160984039307,-41.34326171875,75.23457336425781,2.302149029039045,-13.994603027684796,76.49726013288613,3.8498282,6.413548,13.968354,32.084877,-21.07911,-3.3228705,-7.5843816,-21.748692,-16.200153,47.151756,-19.173384,5.6084614,3.0179448,-5.0355263,14.676551,-15.303934,24.747173,-0.923211,40.29348,-9.8291025,8.261278,3.416617,-26.413782,-18.38654,13.088432,57.915337,5.3193054,-0.07497717,-2.0952237
172,2.391270399093628,-41.524784088134766,75.24217224121094,2.295353450976834,-14.018178947236766,76.44589366293243,3.7325718,6.501102,13.973665,32.080982,-20.923555,-3.3467417,-7.3747554,-21.770306,-15.52218,47.616253,-19.285234,5.7389975,2.9603803,-5.0352793,14.622447,-15.267784,24.747988,-0.93161607,40.335808,-9.877216,8.216084,3.348087,-26.354334,-18.43494,13.100794,57.712822,5.3174634,0.0035248527,-2.09768
173,2.430398464202881,-41.7071418762207,75.24605560302734,2.27423300426104,-14.050499084315645,76.41844116959444,3.6052408,6.6063476,13.948771,32.10675,-20.7864,-3.3755832,-7.099532,-21.847273,-14.983392,48.07497,-19.457272,5.767429,2.881896,-5.018805,14.575672,-15.233257,24.75425,-0.96685237,40.34713,-10.015269,8.191447,3.3067622,-26.271019,-18.463276,13.03813,57.503525,5.243339,0.05797797,-2.0998309
174,2.481853723526001,-41.886436462402344,75.24748229980469,2.2409560840047935,-14.087413482923516,76.41169591818412,3.4645758,6.7266607,13.89838,32.161922,-20.664602,-3.4091816,-6.773937,-21.964315,-14.535457,48.522434,-19.675892,5.718792,2.7974834,-4.991533,14.533194,-15.218294,24.771494,-1.0399216,40.350792,-10.22091,8.181436,3.2801077,-26.148767,-18.484348,12.906469,57.265907,5.1165495,0.100375205,-2.101461
175,2.53244948387146,-42.06660079956055,75.24456024169922,2.206160992312657,-14.128551688054936,76.41181393213768,3.3199818,6.8533263,13.83725,32.234634,-20.553059,-3.4456477,-6.41394,-22.102196,-14.124886,48.94925,-19.923677,5.6269016,2.7000148,-4.958763,14.490126,-15.206698,24.79399,-1.1197784,40.350914,-10.429156,8.175846,3.262539,-26.020615,-18.490704,12.751254,57.03929,4.9722867,0.13899401,-2.1055655
176,2.5945956707000732,-42.245269775390625,75.24026489257812,2.178990992259277,-14.174255854094438,76.40517555566262,3.1804905,6.9782357,13.780289,32.314663,-20.447313,-3.4832537,-6.0351615,-22.237244,-13.699491,49.345604,-20.18266,5.5256033,2.622427,-4.9327593,14.449515,-15.232484,24.831184,-1.2301412,40.38087,-10.589992,8.164513,3.2518387,-25.8705,-18.486826,12.558037,56.819435,4.8314576,0.18368015,-2.1035607
177,2.6617674827575684,-42.42633819580078,75.22834777832031,2.158443668197123,-14.229501962772469,76.3930646552126,3.0538392,7.099733,13.7258625,32.399635,-20.35012,-3.5173433,-5.6266007,-22.380795,-13.27158,49.715775,-20.457256,5.403151,2.516709,-4.895132,14.410033,-15.232264,24.855387,-1.2977554,40.401287,-10.661265,8.140314,3.242274,-25.74345,-18.473404,12.3894205,56.636658,4.712507,0.24352174,-2.1056738
178,2.731127977371216,-42.60980224609375,75.21512603759766,2.141455448505712,-14.29257493053477,76.38107549413819,2.9336224,7.221715,13.667918,32.494568,-20.26202,-3.5502775,-5.185606,-22.538778,-12.859785,50.06158,-20.753757,5.248607,2.4166453,-4.8562064,14.373862,-15.254746,24.882889,-1.3826283,40.43909,-10.688716,8.109521,3.242227,-25.60086,-18.448833,12.184608,56.46156,4.5882764,0.31116387,-2.1060784
179,2.8067874908447266,-42.78276443481445,75.20287322998047,2.130272130051413,-14.353576485661836,76.36254715371776,2.8074512,7.345943,13.6146345,32.601067,-20.177114,-3.5908954,-4.738151,-22.684513,-12.422711,50.371758,-21.057714,5.097677,2.3338263,-4.8255863,14.3327875,-15.311728,24.924856,-1.5011154,40.502384,-10.702287,8.083281,3.2505548,-25.44478,-18.40513,11.948742,56.306335,4.4566765,0.3708105,-2.1031137
180,2.885289192199707,-42.9567756652832,75.1857681274414,2.127141875507611,-14.402024959810142,76.33079671459275,2.662996,7.475616,13.573625,32.720287,-20.088572,-3.647973,-4.310135,-22.786388,-11.92047,50.635174,-21.354183,4.9855313,2.234847,-4.7824187,14.282927,-15.34625,24.95746,-1.5908104,40.5416,-10.708921,8.0732975,3.2538705,-25.318214,-18.365314,11.76271,56.19768,4.348806,0.40889946,-2.0980601
181,2.969533920288086,-43.145477294921875,75.1672134399414,2.134724766093887,-14.432885369582287,76.28222321882323,2.4950495,7.6105824,13.549321,32.851997,-19.992277,-3.728251,-3.9136977,-22.83759,-11.335072,50.854527,-21.639345,4.9086056,2.1473124,-4.7393312,14.220018,-15.394844,24.991903,-1.6937677,40.579185,-10.716473,8.087713,3.2590127,-25.19973,-18.321909,11.583225,56.130054,4.2492185,0.42138627,-2.0781097
182,3.0658793449401855,-43.33695602416992,75.14143371582031,2.150281836960895,-14.452616304531208,76.221122088408,2.310524,7.749867,13.536382,32.99656,-19.892715,-3.8254633,-3.5321615,-22.852577,-10.691618,51.03532,-21.921648,4.8521824,2.06617,-4.693699,14.148847,-15.455431,25.028278,-1.8062699,40.616577,-10.715789,8.118724,3.2662303,-25.087124,-18.27531,11.408581,56.095646,4.1602283,0.41630545,-2.0473492
183,3.1591482162475586,-43.5286865234375,75.11042022705078,2.172785751646531,-14.46753312315083,76.1518294809234,2.1169262,7.892519,13.529439,33.152317,-19.795135,-3.9288945,-3.14808,-22.836788,-10.013458,51.170692,-22.20356,4.83487,2.007546,-4.6654167,14.070348,-15.556189,25.090252,-1.9589604,40.690044,-10.726586,8.152655,3.2791421,-24.965199,-18.201653,11.217371,56.08765,4.065686,0.39339224,-2.026118
184,3.2644906044006348,-43.72941589355469,75.07696533203125,2.198107185882829,-14.484473304026823,76.07868387699718,1.9192101,8.040459,13.522213,33.32298,-19.707237,-4.028033,-2.7437148,-22.792963,-9.3252535,51.253906,-22.48814,4.874967,1.9327682,-4.626115,13.99413,-15.638291,25.149519,-2.082062,40.760483,-10.738923,8.177151,3.28481,-24.862251,-18.132196,11.080647,56.10591,3.99201,0.3565444,-2.0345066
185,3.3756942749023438,-43.92820739746094,75.03784942626953,2.225005993654698,-14.504648937992682,76.00477229219796,1.7188497,8.192652,13.513636,33.50931,-19.631693,-4.117132,-2.3034227,-22.717665,-8.626872,51.265068,-22.784218,5.0082846,1.8540806,-4.5744486,13.917224,-15.722229,25.199892,-2.194202,40.853146,-10.755077,8.182409,3.290579,-24.763441,-18.072683,10.993027,56.151054,3.93062,0.2972267,-2.0853243
186,3.4945015907287598,-44.12960433959961,74.9984359741211,2.2556684607999276,-14.524464629122335,75.92680950858906,1.5121993,8.349544,13.506523,33.7114,-19.565432,-4.202803,-1.8380404,-22.61016,-7.9094014,51.214138,-23.088665,5.2135243,1.7742038,-4.5048027,13.839842,-15.80881,25.234829,-2.2968411,40.95956,-10.769157,8.17707,3.2962434,-24.66916,-18.030672,10.947157,56.220818,3.886368,0.21817048,-2.1639974
187,3.617455005645752,-44.32447052001953,74.95561218261719,2.2900870139416285,-14.544070275089137,75.84106709800795,1.2998426,8.512396,13.501467,33.925396,-19.50354,-4.2929034,-1.3717223,-22.482515,-7.1817956,51.140583,-23.38593,5.4240546,1.7015402,-4.4267564,13.765808,-15.904552,25.266024,-2.4024234,41.072613,-10.783388,8.173406,3.2973561,-24.578527,-17.994379,10.910405,56.30043,3.8579528,0.13671905,-2.2489767
188,3.734829902648926,-44.5235595703125,74.90921020507812,2.3293236071581904,-14.56310665832958,75.7432419781305,1.0811187,8.682808,13.499003,34.150375,-19.443045,-4.3952165,-0.92871195,-22.343744,-6.452673,51.082973,-23.659338,5.573754,1.6361446,-4.341306,13.701919,-16.000715,25.296635,-2.506065,41.170452,-10.794544,8.184055,3.2861402,-24.499466,-17.961126,10.866771,56.376423,3.8556838,0.070820086,-2.3179245
189,3.8687760829925537,-44.73981475830078,74.85550689697266,2.373115512859545,-14.581681324092468,75.63069754079443,0.85801136,8.86015,13.501094,34.38279,-19.38312,-4.5127683,-0.51612175,-22.190262,-5.7105083,51.048733,-23.912949,5.639712,1.5869789,-4.2555676,13.648179,-16.112146,25.337831,-2.621656,41.259502,-10.811272,8.217156,3.2549913,-24.42969,-17.922817,10.802927,56.450954,3.8889263,0.024922915,-2.3702464
190,4.002885341644287,-44.952720642089844,74.79788970947266,2.4199223114949944,-14.59996548191894,75.50628960915641,0.6295568,9.04448,13.506499,34.625473,-19.326046,-4.64097,-0.120062396,-22.017597,-4.955023,51.01862,-24.15254,5.6588397,1.532695,-4.153352,13.605785,-16.204966,25.369778,-2.7101524,41.31702,-10.82027,8.265334,3.2042158,-24.381777,-17.897915,10.756503,56.53198,3.9598024,-0.009210666,-2.415439
191,4.147457122802734,-45.17337417602539,74.73521423339844,2.4710703708960136,-14.617895941798414,75.37414090270919,0.3927002,9.236827,13.511755,34.88311,-19.27123,-4.7762914,0.26384887,-21.835201,-4.2094135,50.99254,-24.363798,5.6559362,1.4902878,-4.0518403,13.5692,-16.311636,25.408833,-2.814477,41.382786,-10.830439,8.315366,3.1558118,-24.332983,-17.871815,10.697265,56.604633,4.0335073,-0.037372,-2.4477727
192,4.295351982116699,-45.40241241455078,74.6684341430664,2.5234242861209033,-14.636097059568677,75.23925967656089,0.1427762,9.439395,13.5129,35.16377,-19.21993,-4.9152765,0.63901657,-21.654123,-3.4964783,50.971188,-24.53269,5.6563263,1.4451118,-3.9471745,13.53903,-16.406673,25.446213,-2.9148226,41.443867,-10.828787,8.355467,3.1235585,-24.29184,-17.849508,10.640586,56.665478,4.0917087,-0.06363194,-2.462371
193,4.448516368865967,-45.626590728759766,74.60028839111328,2.5733722356170547,-14.653403033116623,75.10564555732418,-0.12662931,9.654286,13.504051,35.473564,-19.172646,-5.055548,0.98933226,-21.461569,-2.79947,50.98418,-24.642563,5.599005,1.3916153,-3.8368497,13.512469,-16.48831,25.481174,-3.0113025,41.50363,-10.802606,8.384861,3.1158085,-24.25659,-17.829971,10.585249,56.710228,4.1250486,-0.089360796,-2.4565787
194,4.612407207489014,-45.867530822753906,74.51773071289062,2.6234147447931773,-14.669765968904487,74.96964228526517,-0.41131195,9.880052,13.488553,35.806923,-19.128817,-5.1994023,1.3181136,-21.257463,-2.1130588,51.021423,-24.704714,5.493933,1.3330281,-3.7192812,13.490796,-16.561241,25.511604,-3.102403,41.560955,-10.756978,8.408794,3.1227286,-24.229675,-17.814121,10.533297,56.74487,4.1485248,-0.11194328,-2.4343228
195,4.780186176300049,-46.11585998535156,74.4343490600586,2.678748706055472,-14.688476997447285,74.82514338913741,-0.6995528,10.112552,13.476838,36.152496,-19.086557,-5.350313,1.6563696,-21.067207,-1.4775199,51.02382,-24.74831,5.4723706,1.2859337,-3.606761,13.477237,-16.636082,25.54778,-3.2029164,41.619225,-10.72244,8.425195,3.1344824,-24.200865,-17.795967,10.468544,56.76778,4.1583595,-0.13052966,-2.3980496
196,4.956905364990234,-46.367733001708984,74.34474182128906,2.747313018170801,-14.711834962462907,74.6650861252447,-0.980721,10.348303,13.479175,36.501503,-19.04541,-5.5119843,2.0328293,-20.91736,-0.93204564,50.934353,-24.80413,5.665536,1.246456,-3.5007472,13.47575,-16.695436,25.584633,-3.290942,41.661728,-10.715803,8.431701,3.136795,-24.182646,-17.77862,10.406705,56.791573,4.1610622,-0.14377448,-2.3535953
197,5.137511730194092,-46.61859130859375,74.2464370727539,2.8365596838145004,-14.743374972676985,74.4819351668595,-1.2446135,10.581453,13.506386,36.84878,-19.0066,-5.6856637,2.4578655,-20.834026,-0.48625475,50.778496,-24.852486,6.1022725,1.2256763,-3.4145658,13.490105,-16.740982,25.632095,-3.3731318,41.686237,-10.751522,8.422455,3.1252677,-24.171461,-17.756796,10.335068,56.81516,4.153315,-0.14962807,-2.2902312
198,5.327300071716309,-46.875144958496094,74.14534759521484,2.940383945873053,-14.780278950223689,74.28096346058919,-1.5007828,10.816797,13.550099,37.20319,-18.971601,-5.8695116,2.9117165,-20.799414,-0.118296266,50.574802,-24.88518,6.715093,1.2009791,-3.3241081,13.516276,-16.749336,25.661463,-3.418366,41.679874,-10.799479,8.399737,3.1055148,-24.182446,-17.742762,10.281346,56.846134,4.1393714,-0.1486015,-2.2128935
199,5.519373893737793,-47.14703369140625,74.03569793701172,3.0450489256004567,-14.81685274317659,74.07568403888351,-1.7634325,11.063285,13.592824,37.566277,-18.934704,-6.062073,3.3823721,-20.76901,0.17533836,50.247955,-24.947292,7.489973,1.1811124,-3.2340465,13.548799,-16.757086,25.696894,-3.4660425,41.672234,-10.863698,8.375823,3.0845923,-24.195587,-17.726553,10.225107,56.870575,4.115689,-0.14563121,-2.1385825
200,5.726319313049316,-47.41936492919922,73.92324829101562,3.1403863543511834,-14.846728086202159,73.877898106516,-2.047328,11.328955,13.61757,37.941284,-18.89119,-6.2617445,3.8569198,-20.701767,0.398672,49.725464,-25.086212,8.414101,1.1585598,-3.1345131,13.582578,-16.782463,25.737013,-3.5235362,41.68122,-10.935247,8.36291,3.0687318,-24.20303,-17.710201,10.1766205,56.878952,4.0895443,-0.1446341,-2.0874677
201,5.942647457122803,-47.700557708740234,73.81078338623047,3.22963377639866,-14.868135145523501,73.68989955247332,-2.3582711,11.609746,13.624155,38.334053,-18.842003,-6.470053,4.37378,-20.58996,0.56052214,48.875965,-25.284245,9.668535,1.1312379,-3.0306807,13.613524,-16.824774,25.792946,-3.5965073,41.70645,-11.021205,8.368589,3.0540006,-24.208761,-17.691412,10.142582,56.874638,4.0572867,-0.1489328,-2.071335
202,6.162689208984375,-47.99277114868164,73.6885986328125,3.3179788392565874,-14.88405532717569,73.50491381704083,-2.687772,11.902364,13.620623,38.740894,-18.788963,-6.686911,4.925797,-20.455057,0.6491185,47.771965,-25.521616,11.198972,1.099739,-2.9272563,13.646963,-16.87137,25.86588,-3.6733456,41.734756,-11.125107,8.386145,3.0367024,-24.21314,-17.66876,10.119803,56.854897,4.018049,-0.15528175,-2.076468
203,6.389842987060547,-48.28301239013672,73.5636978149414,3.389537314347896,-14.89628346004235,73.32468489778124,-3.0306523,12.219603,13.598942,39.15041,-18.727903,-6.9089713,5.4358053,-20.30151,0.63783985,46.643303,-25.844456,12.639841,1.0550054,-2.802131,13.6843195,-16.905071,25.926165,-3.7309902,41.755817,-11.21947,8.402612,3.02554,-24.228643,-17.650702,10.112406,56.83616,3.9849443,-0.15918006,-2.0892847
204,6.629419326782227,-48.58549118041992,73.44412994384766,3.4285595244378877,-14.907241715830185,73.15133782121009,-3.3828905,12.574317,13.550036,39.553932,-18.65623,-7.133292,5.8267174,-20.129692,0.5060512,45.722797,-26.30369,13.626478,0.9957383,-2.6510952,13.730907,-16.919,25.9786,-3.7651813,41.76171,-11.295857,8.40727,3.0254347,-24.25065,-17.633549,10.104936,56.81649,3.965227,-0.15637945,-2.0910518
205,6.868395805358887,-48.88646697998047,73.3332290649414,3.427819186222493,-14.918201985514116,72.9902113137801,-3.7528186,12.973263,13.462386,39.96346,-18.579817,-7.358617,6.076229,-19.939669,0.21859421,45.05934,-26.98296,13.997503,0.9171343,-2.4707532,13.789097,-16.910454,26.026083,-3.7779696,41.74459,-11.361752,8.396558,3.0420926,-24.280064,-17.614235,10.088302,56.795788,3.9615457,-0.14355254,-2.072418
206,7.115601062774658,-49.20439147949219,73.21847534179688,3.39534751407763,-14.928338883811485,72.83920975717982,-4.139698,13.408334,13.342398,40.378517,-18.497707,-7.587154,6.227098,-19.723562,-0.19659558,44.532295,-27.835081,13.969228,0.8212497,-2.2633476,13.856601,-16.88287,26.064573,-3.7700503,41.710075,-11.417826,8.376446,3.0714562,-24.316984,-17.593966,10.069636,56.773685,3.9669318,-0.12376593,-2.0448294
207,7.360700607299805,-49.52235794067383,73.10489654541016,3.340453683571478,-14.937212881159132,72.68842692666534,-4.5250907,13.870125,13.20701,40.770443,-18.396734,-7.821479,6.293072,-19.47939,-0.6576735,44.136005,-28.725677,13.743732,0.71662396,-2.0411446,13.929994,-16.840464,26.098207,-3.7381477,41.672863,-11.447736,8.351068,3.1040013,-24.360712,-17.57063,10.062353,56.75351,3.9796224,-0.10261526,-2.0217984
208,7.60706901550293,-49.85361099243164,72.99404907226562,3.272083673716255,-14.944089067719274,72.52796663269268,-4.889398,14.349671,13.074389,41.1092,-18.262712,-8.06401,6.289406,-19.206726,-1.088818,43.860825,-29.516018,13.522296,0.6214554,-1.8043269,14.003804,-16.803305,26.110836,-3.6898854,41.663338,-11.430267,8.322198,3.1344795,-24.40041,-17.556225,10.0758295,56.73324,4.001625,-0.085016996,-2.0164478
209,7.861335754394531,-50.187278747558594,72.89263916015625,3.1956482601472587,-14.949539445698235,72.34991181120378,-5.225015,14.846327,12.952491,41.38792,-18.092508,-8.318383,6.2092395,-18.923666,-1.5191437,43.728977,-30.196405,13.312326,0.5393787,-1.5619506,14.082887,-16.758595,26.106373,-3.6056712,41.66384,-11.346987,8.29258,3.1568282,-24.438744,-17.54752,10.12804,56.709682,4.0464563,-0.077674694,-2.033343
210,8.12390422821045,-50.527008056640625,72.80489349365234,3.1038296714324,-14.954170344889654,72.16177500595427,-5.5435934,15.36508,12.829462,41.622555,-17.893663,-8.582615,6.0470314,-18.62474,-1.9715443,43.738228,-30.832357,13.020111,0.43998253,-1.2988087,14.166085,-16.673859,26.07106,-3.4543073,41.650845,-11.197905,8.259733,3.1735773,-24.504494,-17.54672,10.242065,56.70541,4.117691,-0.07611481,-2.070753
211,8.384535789489746,-50.875484466552734,72.72637176513672,2.991284480883322,-14.95639511975906,71.9758351696658,-5.8531847,15.902965,12.69552,41.81679,-17.667732,-8.850194,5.8206377,-18.277765,-2.365917,43.840206,-31.396002,12.696269,0.343268,-1.0101552,14.248016,-16.600456,26.015104,-3.3085537,41.669914,-11.030108,8.221742,3.1952105,-24.560541,-17.554905,10.34322,56.69806,4.1739492,-0.068834506,-2.1148093
212,8.646450996398926,-51.22055435180664,72.65637969970703,2.850206208603537,-14.955144387695197,71.8052676941998,-6.1630225,16.457787,12.540003,41.973995,-17.415865,-9.114391,5.5480127,-17.850254,-2.6237707,43.98612,-31.85887,12.391506,0.21277095,-0.6743342,14.321129,-16.505222,25.920233,-3.1514423,41.70866,-10.859358,8.178086,3.2257745,-24.638882,-17.573017,10.434648,56.721443,4.188348,-0.045125242,-2.1653926
213,8.903047561645508,-51.57598876953125,72.59765625,2.6733425635940367,-14.943434795015293,71.64838476714311,-6.4838157,17.040688,12.360565,42.09483,-17.135572,-9.381937,5.2032785,-17.314121,-2.6859293,44.193516,-32.197342,12.120304,0.0668629,-0.28466168,14.3788,-16.410597,25.780367,-2.999157,41.781803,-10.680543,8.130444,3.2681434,-24.722246,-17.599123,10.483847,56.789078,4.138719,-0.00881804,-2.2280111
214,9.160778999328613,-51.92861557006836,72.54522705078125,2.4662212478643784,-14.924808336127143,71.5001771928682,-6.8083086,17.647371,12.161984,42.176407,-16.826313,-9.653355,4.7873826,-16.692762,-2.6111307,44.47916,-32.43104,11.856499,-0.08120268,0.11925754,14.43287,-16.326216,25.658733,-2.8672507,41.882763,-10.51405,8.082896,3.311283,-24.79157,-17.617218,10.48532,56.864773,4.0424037,0.036234677,-2.2945755
215,9.419221878051758,-52.28593444824219,72.4982681274414,2.2427279688711277,-14.911689857042786,71.36746174873694,-7.121137,18.25576,11.943558,42.220325,-16.493992,-9.912782,4.36147,-16.0337,-2.4975367,44.787727,-32.594013,11.590385,-0.25874105,0.570482,14.482162,-16.231997,25.47492,-2.73928,42.020935,-10.33844,8.023016,3.3736556,-24.887762,-17.650562,10.495168,56.952557,3.9290042,0.10140436,-2.3633754
216,9.672008514404297,-52.63722610473633,72.45980834960938,2.016727159662336,-14.917811845882012,71.25801437523315,-7.4068036,18.840961,11.706011,42.230267,-16.145527,-10.144302,3.9829788,-15.38958,-2.4393039,45.070225,-32.72504,11.31136,-0.45719212,1.0213151,14.54615,-16.147924,25.309202,-2.6741989,42.204384,-10.219393,7.9505396,3.4502316,-24.988167,-17.698236,10.500219,56.975357,3.8306272,0.19815092,-2.40388
217,9.923242568969727,-52.98525619506836,72.42536163330078,1.7715732289794635,-14.948505129846033,71.17873105412217,-7.6698136,19.41954,11.435077,42.21903,-15.785382,-10.351295,3.6608548,-14.745056,-2.4559448,45.32892,-32.8147,11.00928,-0.69114757,1.4952215,14.626737,-16.057058,25.147068,-2.6620376,42.426754,-10.147015,7.8661485,3.5484018,-25.085638,-17.762503,10.492267,56.91639,3.7328641,0.31519565,-2.4153702
218,10.168981552124023,-53.33417510986328,72.39923858642578,1.506721147039346,-14.995845844482169,71.1242843090313,-7.9170957,19.996765,11.135189,42.182587,-15.409906,-10.539859,3.366217,-14.082837,-2.499301,45.584545,-32.848984,10.692807,-0.9545654,1.9877372,14.7208605,-15.960076,24.993078,-2.6927722,42.682674,-10.113664,7.7724895,3.6620288,-25.184574,-17.83895,10.472704,56.80255,3.633692,0.45077938,-2.4055796
219,10.4132719039917,-53.67911911010742,72.38182830810547,1.2593488136586994,-15.053126133353787,71.08317215186388,-8.132621,20.531631,10.837932,42.093235,-15.010899,-10.697535,3.099218,-13.449755,-2.5593324,45.8147,-32.85935,10.377518,-1.2295758,2.4598956,14.828909,-15.874795,24.859812,-2.7762196,42.9774,-10.136462,7.6650453,3.7777536,-25.297552,-17.92865,10.461947,56.647785,3.556158,0.63256645,-2.3710544
220,10.651538848876953,-54.026187896728516,72.36808776855469,1.0667639676805778,-15.11370163318847,71.04372265086207,-8.301082,20.984207,10.575564,41.926033,-14.581572,-10.811805,2.8609312,-12.891067,-2.625733,45.995754,-32.877068,10.078243,-1.4905777,2.8794968,14.951692,-15.828039,24.750341,-2.929484,43.320847,-10.230283,7.5382276,3.8833025,-25.437244,-18.047018,10.485517,56.46611,3.5395,0.88833016,-2.3063903
221,10.88534164428711,-54.3681755065918,72.36152648925781,0.9345013964418393,-15.186332387424736,71.01589081856882,-8.417133,21.341713,10.343156,41.679146,-14.116026,-10.8846035,2.6811218,-12.418263,-2.7164176,46.1004,-32.91671,9.803314,-1.7435484,3.2304964,15.103282,-15.8264675,24.680943,-3.1580665,43.726177,-10.392281,7.3916335,3.9809854,-25.607819,-18.193287,10.537116,56.222603,3.5891943,1.2737597,-2.1940494
222,11.110746383666992,-54.712223052978516,72.36384582519531,0.8430636011993089,-15.271271087201514,71.0016468117664,-8.489989,21.626438,10.130386,41.36676,-13.620895,-10.920457,2.5490725,-12.007418,-2.8283265,46.149406,-32.960762,9.54264,-1.9954321,3.5307274,15.279038,-15.857711,24.650448,-3.456346,44.184387,-10.620473,7.227891,4.073425,-25.80211,-18.366434,10.609987,55.920853,3.6925302,1.7584127,-2.0410855
223,11.326164245605469,-55.04850769042969,72.37540435791016,0.7960196068358874,-15.347946457769151,70.97708852753988,-8.5253105,21.850435,9.962479,40.989296,-13.107336,-10.910714,2.4067366,-11.64881,-2.920767,46.191822,-32.992577,9.282939,-2.232171,3.7878447,15.452445,-15.905568,24.65448,-3.8121474,44.66035,-10.935528,7.0484424,4.14417,-26.007921,-18.554615,10.713489,55.62259,3.8349102,2.2404535,-1.8796008
224,11.536008834838867,-55.378509521484375,72.39673614501953,0.7957630174288067,-15.39649720798512,70.91825742740639,-8.528668,22.025427,9.864487,40.5464,-12.586486,-10.846744,2.197618,-11.336917,-2.9534876,46.27628,-32.995907,9.011734,-2.4297888,4.014929,15.599326,-15.9634075,24.685621,-4.2225113,45.121315,-11.359269,6.854703,4.175653,-26.206764,-18.76629,10.856704,55.37984,4.016545,2.6188867,-1.7365324
225,11.727609634399414,-55.701412200927734,72.42402648925781,0.8517819170449914,-15.408159947106864,70.81421034178796,-8.496651,22.146832,9.856784,40.027702,-12.053633,-10.735804,1.8933718,-11.074777,-2.9097161,46.43152,-32.965855,8.721297,-2.5910134,4.2071023,15.709837,-16.02743,24.751707,-4.7058573,45.574707,-11.932726,6.6312175,4.1551595,-26.426998,-18.99726,11.085694,55.240986,4.2756643,2.8578925,-1.6167709
226,11.916046142578125,-56.02341842651367,72.45672607421875,0.9598550276254105,-15.394717531879156,70.67916182948845,-8.426907,22.20959,9.924352,39.43732,-11.506299,-10.579669,1.5299824,-10.863533,-2.8139133,46.627197,-32.912807,8.419256,-2.7232184,4.36082,15.798314,-16.104832,24.85432,-5.257669,46.032227,-12.632115,6.383472,4.0920777,-26.66914,-19.247643,11.381796,55.165596,4.6050177,3.0147223,-1.5055557
227,12.101066589355469,-56.336341857910156,72.49976348876953,1.102231834744585,-15.366069003409441,70.52739719889067,-8.330315,22.225594,10.037866,38.803505,-10.964235,-10.361773,1.1470895,-10.691069,-2.6889267,46.82286,-32.842842,8.116191,-2.8311927,4.485536,15.8693495,-16.1875,24.974344,-5.822772,46.467487,-13.379672,6.143276,4.0080194,-26.891653,-19.500694,11.665299,55.101707,4.9090667,3.1250541,-1.411959
228,12.268061637878418,-56.63484191894531,72.5495834350586,1.261588679212578,-15.332095139273477,70.37310908701255,-8.21868,22.20814,10.167321,38.15524,-10.447231,-10.065284,0.7819394,-10.542352,-2.5573847,46.980747,-32.762768,7.822872,-2.9217799,4.589935,15.925043,-16.263529,25.084698,-6.341968,46.855564,-14.089524,5.9410133,3.9293435,-27.077532,-19.737171,11.876716,55.025173,5.1090784,3.2230146,-1.3496209
229,12.436095237731934,-56.92719650268555,72.60692596435547,1.4382665752411632,-15.286471080748512,70.21277759294067,-8.092906,22.163593,10.321755,37.48369,-9.945342,-9.66519,0.43147123,-10.415952,-2.413327,47.091908,-32.67075,7.5366564,-2.9934862,4.67905,15.949481,-16.329515,25.171833,-6.80903,47.203457,-14.769878,5.779421,3.8569992,-27.221811,-19.949009,12.016208,54.944622,5.1866827,3.3013575,-1.3401124
230,12.59465217590332,-57.208885192871094,72.66918182373047,1.6408550881698893,-15.226377900744033,70.04145528800261,-7.948913,22.083239,10.513287,36.782974,-9.456889,-9.177834,0.07965205,-10.318409,-2.248537,47.17591,-32.564457,7.253675,-3.046068,4.7489686,15.942434,-16.392748,25.239494,-7.249483,47.52832,-15.4478445,5.642418,3.7844694,-27.35207,-20.140835,12.122941,54.892395,5.189235,3.3457754,-1.3752217
231,12.743290901184082,-57.484615325927734,72.74136352539062,1.8611387925179455,-15.168220325533508,69.87142407867276,-7.7898455,21.960224,10.7159395,36.085083,-9.013527,-8.647338,-0.25554335,-10.250232,-2.08097,47.23824,-32.449017,6.9836836,-3.0927107,4.800295,15.928533,-16.452162,25.286375,-7.6501045,47.817314,-16.071974,5.531243,3.726084,-27.438183,-20.306269,12.150922,54.822468,5.0809793,3.3817732,-1.4205546
232,12.885047912597656,-57.75175094604492,72.81609344482422,2.0919018550673574,-15.128391540722221,69.71487467728522,-7.6135945,21.787334,10.902522,35.40982,-8.63674,-8.117772,-0.55359817,-10.213023,-1.9290205,47.279636,-32.32633,6.7366934,-3.164896,4.821169,15.927973,-16.490252,25.311724,-7.9752564,48.057278,-16.57848,5.4455776,3.700434,-27.564438,-20.418652,12.137183,54.803265,4.8887196,3.4298978,-1.4565262
233,13.019158363342285,-58.01457214355469,72.89359283447266,2.3431719886283835,-15.114335012154584,69.57119253042022,-7.432455,21.5634,11.06452,34.781395,-8.347073,-7.4551477,-0.806302,-10.219468,-1.7914305,47.302155,-32.19848,6.5182004,-3.211293,4.813417,15.962707,-16.559017,25.316685,-8.275587,48.24675,-16.966291,5.401605,3.7118013,-27.613503,-20.53289,11.96189,54.702427,4.538587,3.5119042,-1.4546783
234,13.14523983001709,-58.276031494140625,72.97406768798828,2.6154415656026924,-15.116307398362595,69.4350747792167,-7.2447233,21.293606,11.215802,34.184933,-8.127599,-6.6832113,-1.026006,-10.266392,-1.6592854,47.304573,-32.0632,6.3223825,-3.2911203,4.771472,16.009375,-16.584698,25.297613,-8.475889,48.365658,-17.240107,5.393302,3.7510915,-27.666437,-20.586742,11.718009,54.614105,4.04145,3.606593,-1.4535646
235,13.266960144042969,-58.53378677368164,73.05748748779297,2.887043487919668,-15.124809153643,69.31086802373171,-7.026804,20.983036,11.357426,33.580456,-7.9418583,-6.082455,-1.2232782,-10.328978,-1.5395461,47.28541,-31.91728,6.1419134,-3.3709598,4.7190495,16.055126,-16.614792,25.267992,-8.653331,48.46425,-17.450329,5.39036,3.810996,-27.71811,-20.617725,11.442127,54.550373,3.5291734,3.6918414,-1.4387579
236,13.381918907165527,-58.79043197631836,73.13870239257812,3.1381146498825405,-15.129284196564749,69.20215184901356,-6.751163,20.637035,11.487305,32.917423,-7.7453523,-5.9340568,-1.4076109,-10.380845,-1.4400471,47.24121,-31.756147,5.9691644,-3.4526768,4.6806517,16.088188,-16.649876,25.239967,-8.83222,48.563606,-17.632717,5.364118,3.8794982,-27.793575,-20.641954,11.205046,54.54684,3.1265173,3.7442505,-1.4044014
237,13.491389274597168,-59.04386520385742,73.2235336303711,3.3654529516949676,-15.128863611106429,69.11001778151831,-6.374444,20.239561,11.615396,32.100582,-7.512667,-6.4319124,-1.5808384,-10.422176,-1.3637903,47.171566,-31.577335,5.804389,-3.5086963,4.667122,16.10691,-16.727633,25.206375,-9.060372,48.690323,-17.785452,5.2978344,3.97018,-27.80328,-20.671255,10.930419,54.534157,2.808789,3.7547843,-1.3262446
238,13.592630386352539,-59.288578033447266,73.30609130859375,3.57697263561085,-15.128327131229712,69.03229178005537,-5.919645,19.795677,11.734659,31.168379,-7.2678475,-7.383889,-1.7381546,-10.4621105,-1.3068337,47.078636,-31.383465,5.65038,-3.587791,4.6654115,16.126148,-16.77195,25.179426,-9.250735,48.772667,-17.887398,5.2147164,4.0731597,-27.821024,-20.69205,10.675718,54.553776,2.5544505,3.7361896,-1.2198137
239,13.687843322753906,-59.52822494506836,73.3837890625,3.7648539374089194,-15.128039378015712,68.9681992954983,-5.4493327,19.340792,11.82147,30.256462,-7.041551,-8.4931965,-1.876885,-10.48669,-1.2671885,46.95838,-31.176416,5.503257,-3.6484573,4.680486,16.137377,-16.842007,25.15113,-9.450722,48.858578,-17.977276,5.1320047,4.170499,-27.806673,-20.714622,10.412846,54.56279,2.350127,3.7042296,-1.1064062
240,13.778660774230957,-59.76558303833008,73.4623794555664,3.9206420994637927,-15.129051519351503,68.91753309664189,-5.030993,18.90996,11.851914,29.51466,-6.866396,-9.466005,-1.9961109,-10.483801,-1.242221,46.810696,-30.959965,5.35974,-3.6952875,4.7243958,16.13737,-16.9292,25.116705,-9.641056,48.945328,-18.084797,5.0703826,4.2333717,-27.722775,-20.74446,10.15142,54.504856,2.171458,3.6755817,-1.0108262
