unveil-humanoid-operators/unveil-humanoid-operators.github.io/feature-analysis-animation/data/feature_matrix_instances/weight_ankle_peak_vel_gesture_A036_triumph_001__A036.csv
Frame,root_translateX,root_translateY,root_translateZ,root_rotateX,root_rotateY,root_rotateZ,left_hip_pitch_joint_dof,left_hip_roll_joint_dof,left_hip_yaw_joint_dof,left_knee_joint_dof,left_ankle_pitch_joint_dof,left_ankle_roll_joint_dof,right_hip_pitch_joint_dof,right_hip_roll_joint_dof,right_hip_yaw_joint_dof,right_knee_joint_dof,right_ankle_pitch_joint_dof,right_ankle_roll_joint_dof,waist_yaw_joint_dof,waist_roll_joint_dof,waist_pitch_joint_dof,left_shoulder_pitch_joint_dof,left_shoulder_roll_joint_dof,left_shoulder_yaw_joint_dof,left_elbow_joint_dof,left_wrist_roll_joint_dof,left_wrist_pitch_joint_dof,left_wrist_yaw_joint_dof,right_shoulder_pitch_joint_dof,right_shoulder_roll_joint_dof,right_shoulder_yaw_joint_dof,right_elbow_joint_dof,right_wrist_roll_joint_dof,right_wrist_pitch_joint_dof,right_wrist_yaw_joint_dof
0,0.014601083472371101,2.163689613342285,78.17881774902344,1.3263853320374535,1.4357093527220046,-93.29941273140561,-1.5579855,6.2499094,19.004272,12.96583,-12.050327,-6.4397283,-4.051587,-9.085988,-2.3471832,14.343575,-11.44651,9.952599,4.72763,1.1924728,4.980064,-13.427679,14.055628,-51.120724,71.39708,-1.4448395,-1.9337649,-0.66850203,1.5078224,-19.634144,29.010042,56.21325,-12.174622,-1.5597663,-3.9305356
1,0.029079118743538857,2.1798956394195557,78.17768859863281,1.325969349646756,1.4149423129012146,-93.29511784783942,-1.5935423,6.2429814,18.986546,13.063454,-12.092416,-6.378864,-4.031519,-9.103097,-2.348669,14.322978,-11.420177,10.000811,4.7514114,1.186466,4.975531,-13.4181595,14.037606,-50.968094,71.45353,-1.3485957,-1.9390925,-0.5954767,1.5345573,-19.655197,28.98413,56.219055,-12.180011,-1.5594469,-3.9099844
2,0.04663961008191109,2.196476697921753,78.17774963378906,1.326667844404993,1.3950462984984089,-93.29173755663238,-1.6296164,6.2351484,18.968811,13.160462,-12.132724,-6.3157434,-4.0129805,-9.120889,-2.3487575,14.302919,-11.3939705,10.051191,4.7703137,1.1770638,4.9695497,-13.408976,14.02819,-50.82955,71.506325,-1.2612872,-1.9412707,-0.519435,1.5516049,-19.670614,28.966866,56.23508,-12.186742,-1.5590898,-3.889253
3,0.06838816404342651,2.211371898651123,78.17076873779297,1.3255169886195772,1.3734471112464597,-93.28638336193607,-1.6646302,6.2290936,18.95106,13.25852,-12.176424,-6.2570844,-3.992589,-9.13764,-2.3514187,14.284409,-11.368937,10.097212,4.780633,1.1717508,4.965884,-13.394482,14.02153,-50.674706,71.55488,-1.1866308,-1.9497621,-0.45007098,1.5659614,-19.687984,28.955038,56.25066,-12.188195,-1.5590928,-3.8714666
4,0.09709788113832474,2.228543281555176,78.16756439208984,1.3202075859988975,1.3477393022867448,-93.27614007700106,-1.6962851,6.2273655,18.93335,13.356936,-12.226617,-6.209787,-3.9664717,-9.151885,-2.3599281,14.2671175,-11.345342,10.132511,4.7868576,1.1716483,4.964025,-13.374088,14.0187435,-50.50655,71.60065,-1.1536303,-1.9739147,-0.39641133,1.5844985,-19.707905,28.941364,56.2627,-12.175854,-1.5603863,-3.8614647
5,0.12294089049100876,2.246180772781372,78.16585540771484,1.3072805642097363,1.3151081145174124,-93.25800162919454,-1.7212359,6.234814,18.915934,13.454063,-12.284931,-6.184637,-3.9300632,-9.159981,-2.3789349,14.251361,-11.323418,10.150502,4.7969265,1.1763008,4.9637074,-13.361676,14.021599,-50.36245,71.65483,-1.2185944,-2.0289555,-0.36562818,1.6179998,-19.722155,28.913603,56.26739,-12.143824,-1.5635207,-3.8688767
6,0.1467432975769043,2.256908655166626,78.16441345214844,1.2890031158727573,1.277447955421315,-93.23399171738922,-1.7417438,6.24884,18.898357,13.550843,-12.349263,-6.174991,-3.8864343,-9.163621,-2.4054775,14.236919,-11.30297,10.156243,4.8023653,1.1860754,4.967102,-13.348421,14.03007,-50.215477,71.70856,-1.3396045,-2.105257,-0.35144573,1.6555313,-19.734999,28.881054,56.268837,-12.098671,-1.567655,-3.8879275
7,0.1649664342403412,2.2726263999938965,78.1611099243164,1.2711442661754986,1.2398285973506038,-93.20973440656672,-1.7633581,6.2600336,18.880812,13.650171,-12.417846,-6.161505,-3.8444388,-9.170403,-2.431236,14.2251005,-11.284348,10.160777,4.8046575,1.1968285,4.9702587,-13.328438,14.046828,-50.06344,71.75283,-1.4731663,-2.177148,-0.34280705,1.6905279,-19.750214,28.85023,56.271687,-12.053161,-1.5730784,-3.9018853
8,0.1967524141073227,2.2883191108703613,78.15872955322266,1.2598870557705266,1.2073517760057737,-93.1906974392987,-1.7921895,6.258999,18.863226,13.756221,-12.489513,-6.1247616,-3.8127117,-9.187988,-2.4484591,14.216714,-11.267692,10.175112,4.815917,1.2015378,4.9665494,-13.305293,14.065834,-49.922775,71.792656,-1.5830406,-2.2190812,-0.32737803,1.7213706,-19.765276,28.818367,56.284096,-12.021037,-1.5801094,-3.8953335
9,0.2399972379207611,2.3083133697509766,78.1586685180664,1.2580503695555794,1.1826234863962664,-93.180838114292,-1.8276203,6.2401032,18.847027,13.864217,-12.560511,-6.059349,-3.796402,-9.220173,-2.4523737,14.212647,-11.252332,10.203196,4.831822,1.2017388,4.956041,-13.266758,14.088988,-49.767067,71.812355,-1.6346244,-2.2127907,-0.29836112,1.7420686,-19.788286,28.788313,56.306026,-12.005365,-1.5908467,-3.85446
10,0.2904902696609497,2.3239221572875977,78.1524887084961,1.2619914897915172,1.1625796542343205,-93.17645218000158,-1.8676759,6.2094393,18.831633,13.974919,-12.6332445,-5.97573,-3.7918885,-9.26253,-2.4479032,14.216372,-11.240981,10.238793,4.859567,1.1976769,4.936715,-13.231253,14.105405,-49.630745,71.837776,-1.6776582,-2.1772044,-0.26199138,1.7613052,-19.810495,28.752062,56.337936,-11.999198,-1.6046053,-3.7920606
11,0.3297824561595917,2.338045120239258,78.146240234375,1.2678749977154247,1.1434837315798896,-93.1713477273812,-1.9148818,6.1756,18.814085,14.097856,-12.713783,-5.878187,-3.788106,-9.309316,-2.4418893,14.218467,-11.229778,10.277882,4.8788395,1.198029,4.9219093,-13.17772,14.12941,-49.4532,71.843216,-1.6820983,-2.1364193,-0.23073386,1.7822437,-19.85206,28.726334,56.35542,-11.998253,-1.6160555,-3.7242932
12,0.3574329912662506,2.352468967437744,78.14231872558594,1.2718677911754073,1.1218047676595582,-93.15945380500126,-1.972154,6.1470413,18.791605,14.243347,-12.809066,-5.7711043,-3.7788262,-9.354963,-2.4408221,14.219693,-11.220548,10.316382,4.906997,1.1935345,4.904721,-13.13461,14.145711,-49.28877,71.87522,-1.693669,-2.117979,-0.21265519,1.8093936,-19.882679,28.699856,56.37799,-12.005307,-1.621603,-3.6758893
13,0.3900676369667053,2.3689417839050293,78.13752746582031,1.2733721912800062,1.096997136396781,-93.13766019615584,-2.045763,6.1273937,18.761763,14.422505,-12.9258585,-5.6484513,-3.7610273,-9.39813,-2.4457037,14.215451,-11.212878,10.35371,4.9249673,1.187929,4.8920765,-13.086359,14.164944,-49.09037,71.91576,-1.6856357,-2.1331685,-0.2183883,1.8377043,-19.915726,28.691458,56.394173,-12.020227,-1.6183219,-3.646902
14,0.43090367317199707,2.3814666271209717,78.13445281982422,1.2743916825707107,1.0709192596459605,-93.1098551570765,-2.133127,6.1118937,18.72662,14.628663,-13.059843,-5.5103035,-3.7397482,-9.441523,-2.453274,14.209777,-11.207815,10.3918295,4.942192,1.1785213,4.878857,-13.041769,14.184616,-48.890778,71.97041,-1.677061,-2.1671078,-0.23947053,1.8656285,-19.943989,28.693787,56.41293,-12.041755,-1.6093587,-3.6288648
15,0.4839366674423218,2.402000904083252,78.13156127929688,1.27440087506497,1.043166680449381,-93.07983163468936,-2.2206526,6.0957637,18.68957,14.838779,-13.196604,-5.3702116,-3.715534,-9.486306,-2.4637353,14.204008,-11.201855,10.430645,4.95163,1.17148,4.8673916,-12.986485,14.208924,-48.67586,72.02054,-1.6611012,-2.2035413,-0.26202363,1.8900822,-19.97361,28.70517,56.43555,-12.068847,-1.5974646,-3.6237068
16,0.5307736992835999,2.419651746749878,78.12928009033203,1.273546896116032,1.0134009382599258,-93.05137423528497,-2.2952473,6.074247,18.654173,15.030667,-13.322204,-5.2416916,-3.688771,-9.533142,-2.4770288,14.199901,-11.192006,10.470191,4.9473643,1.1740671,4.8615527,-12.907092,14.250603,-48.448925,72.0393,-1.648741,-2.2261,-0.27246845,1.912661,-20.016146,28.727186,56.453476,-12.093771,-1.5849075,-3.6321805
17,0.588954508304596,2.4331157207489014,78.12294006347656,1.2703681831698763,0.9815409944502265,-93.02468880830256,-2.3548555,6.0484257,18.620123,15.202439,-13.431762,-5.1291676,-3.6606236,-9.580711,-2.4956126,14.20034,-11.177277,10.508909,4.977848,1.1762007,4.848568,-12.837122,14.27158,-48.267822,72.07915,-1.6522658,-2.2291172,-0.25637513,1.9593191,-20.035273,28.702547,56.483757,-12.143453,-1.57159,-3.6724281
18,0.6396051645278931,2.448989152908325,78.11702728271484,1.265323246643666,0.9474942678383074,-92.99794900430336,-2.4059613,6.0202928,18.58587,15.365162,-13.533491,-5.025155,-3.6291816,-9.628958,-2.5188353,14.20211,-11.158539,10.547367,4.992229,1.1877186,4.8390617,-12.754018,14.296604,-48.07824,72.10923,-1.6678586,-2.2224898,-0.2259207,1.9953934,-20.05615,28.690485,56.525715,-12.201979,-1.5550776,-3.736357
19,0.6900227069854736,2.4601686000823975,78.11200714111328,1.2616212882981304,0.9118761221751508,-92.97247952999926,-2.4496465,5.985795,18.553719,15.516987,-13.632918,-4.9253087,-3.5967467,-9.681724,-2.5411704,14.205883,-11.139998,10.588457,5.010786,1.1983654,4.8283234,-12.670674,14.32181,-47.902973,72.14516,-1.6880289,-2.213012,-0.19868402,2.034395,-20.075558,28.672544,56.569073,-12.25538,-1.5415576,-3.7962286
20,0.751196026802063,2.4715614318847656,78.10779571533203,1.2619252444713842,0.875008200950946,-92.94940801794965,-2.4855936,5.940925,18.525589,15.654298,-13.734885,-4.825327,-3.5645785,-9.742332,-2.5572166,14.211383,-11.125549,10.63502,5.0333915,1.2040777,4.8170476,-12.588382,14.347061,-47.729057,72.190125,-1.6902851,-2.207128,-0.19281498,2.0708823,-20.095049,28.649494,56.610783,-12.287282,-1.5367942,-3.8232439
21,0.8106954097747803,2.478003978729248,78.1028060913086,1.266360346527991,0.83595030904688,-92.93017800801371,-2.5102053,5.884512,18.502993,15.769846,-13.840212,-4.732748,-3.5344682,-9.811283,-2.5642726,14.223096,-11.117912,10.68537,5.0612855,1.203078,4.804672,-12.515851,14.37118,-47.574226,72.25656,-1.684522,-2.2089758,-0.21653014,2.1026447,-20.116108,28.621193,56.65253,-12.285254,-1.5449771,-3.8024638
22,0.8772696256637573,2.4903974533081055,78.09569549560547,1.2737792286134588,0.7948064591530901,-92.91373747494735,-2.5267377,5.8195124,18.484116,15.872222,-13.947632,-4.646991,-3.5044706,-9.886837,-2.5657008,14.2382965,-11.113828,10.73888,5.0924563,1.1998516,4.793637,-12.442078,14.395822,-47.418823,72.329384,-1.6597478,-2.2132792,-0.2594345,2.1328373,-20.140942,28.588663,56.690643,-12.259055,-1.5620751,-3.750539
23,0.9588104486465454,2.5078465938568115,78.08979034423828,1.2851158244278,0.7536620214512951,-92.89791118603384,-2.5389311,5.7454944,18.467373,15.966891,-14.056655,-4.551525,-3.4750175,-9.969751,-2.5648139,14.254471,-11.112239,10.799762,5.1165957,1.1977471,4.7850456,-12.360499,14.429715,-47.2574,72.39084,-1.632252,-2.2166135,-0.31108737,2.1655738,-20.177702,28.557703,56.715954,-12.229868,-1.5811456,-3.6874986
24,1.03105628490448,2.516592025756836,78.07939910888672,1.3018350556570983,0.7145974446766992,-92.88061265173384,-2.5574942,5.6641965,18.45005,16.075111,-14.169567,-4.429821,-3.4461243,-10.06148,-2.5647612,14.268492,-11.111535,10.872661,5.1388206,1.1947699,4.774544,-12.265477,14.46901,-47.075863,72.43359,-1.5914196,-2.2140617,-0.3600296,2.205585,-20.21995,28.522871,56.731396,-12.219343,-1.5959721,-3.635397
25,1.0995306968688965,2.523827314376831,78.0703353881836,1.326326751991089,0.6798597004995591,-92.86038765979312,-2.5885434,5.573463,18.42959,16.204876,-14.288763,-4.2665,-3.419817,-10.164202,-2.5664253,14.280151,-11.112951,10.9647665,5.163297,1.1842711,4.7523427,-12.166558,14.497173,-46.88157,72.48223,-1.5279864,-2.2056851,-0.4077729,2.2458005,-20.248186,28.479198,56.760777,-12.243157,-1.605157,-3.601507
26,1.1757264137268066,2.527625799179077,78.0665512084961,1.3570563277947256,0.6476835929167737,-92.83856336830524,-2.6259959,5.4734793,18.40777,16.345995,-14.412517,-4.0740027,-3.39311,-10.276573,-2.5687387,14.286585,-11.114325,11.071629,5.173024,1.1724036,4.727639,-12.050518,14.533221,-46.659267,72.51276,-1.4444511,-2.1931837,-0.46013692,2.2785094,-20.280571,28.446693,56.791363,-12.280657,-1.6113718,-3.5726318
27,1.2578994035720825,2.535548686981201,78.05514526367188,1.3899754840042728,0.6144732762334539,-92.81747335773726,-2.6619992,5.3687196,18.389349,16.489588,-14.537268,-3.877524,-3.3685825,-10.39453,-2.569281,14.2993355,-11.11952,11.180218,5.1968575,1.1572938,4.6989617,-11.938583,14.557214,-46.43835,72.55725,-1.3641305,-2.1773303,-0.50503236,2.3190315,-20.300087,28.397177,56.826202,-12.326308,-1.6175891,-3.5501764
28,1.3431742191314697,2.5480093955993652,78.0438003540039,1.4209049576593662,0.576337563417638,-92.7994102932249,-2.687357,5.263678,18.378967,16.624346,-14.658236,-3.7022743,-3.3445342,-10.513537,-2.5667734,14.322887,-11.128804,11.27732,5.207262,1.1504276,4.682792,-11.810947,14.59079,-46.176846,72.58325,-1.2988232,-2.1582706,-0.53517306,2.3501437,-20.327555,28.36128,56.85466,-12.358185,-1.6249311,-3.5307677
29,1.43245530128479,2.556246280670166,78.033935546875,1.448121096041135,0.5304277235990915,-92.78632343759074,-2.699808,5.160909,18.380114,16.754171,-14.778251,-3.5561526,-3.3188107,-10.633219,-2.5611327,14.358473,-11.144441,11.355479,5.230059,1.1513158,4.6756606,-11.692235,14.621546,-45.931416,72.61959,-1.3026868,-2.1351035,-0.5434274,2.3888423,-20.354605,28.315813,56.874664,-12.37414,-1.6357609,-3.5155587
30,1.5264848470687866,2.5628833770751953,78.02378845214844,1.4733859863320835,0.47939449732563016,-92.7764047139498,-2.7051256,5.058107,18.389265,16.884905,-14.899611,-3.4254065,-3.2932105,-10.755479,-2.5530074,14.40467,-11.166191,11.423024,5.2506647,1.1603554,4.6785765,-11.564999,14.658149,-45.668396,72.64441,-1.3383095,-2.1074176,-0.5372295,2.4297752,-20.391037,28.272089,56.881493,-12.3796015,-1.6481354,-3.5032315
31,1.6299173831939697,2.56826114654541,78.01397705078125,1.500447203017052,0.4278423359589657,-92.76676599707424,-2.7037425,4.9505944,18.40171,17.002625,-15.014188,-3.3023436,-3.2714381,-10.880849,-2.541649,14.459337,-11.188763,11.49074,5.2827387,1.1664736,4.680775,-11.450547,14.684526,-45.422684,72.68559,-1.3882922,-2.0801399,-0.5218143,2.4791179,-20.418953,28.213634,56.886776,-12.386833,-1.6596953,-3.495583
32,1.723372220993042,2.570452928543091,78.00482940673828,1.5301167081377722,0.3802060919268998,-92.75456072492794,-2.6947346,4.8331857,18.412485,17.090519,-15.114047,-3.179491,-3.257771,-11.00978,-2.5263767,14.522117,-11.208094,11.569456,5.308575,1.1664792,4.6814013,-11.340559,14.710514,-45.182465,72.728096,-1.4215971,-2.0576148,-0.50508237,2.526912,-20.443806,28.15885,56.890923,-12.395224,-1.6669832,-3.4915125
33,1.8194890022277832,2.5726990699768066,77.99435424804688,1.5625699236610722,0.33701249589437254,-92.73573302355234,-2.6812513,4.707569,18.417397,17.151705,-15.197607,-3.058782,-3.2491682,-11.139213,-2.510674,14.587358,-11.219421,11.663381,5.3200345,1.1589733,4.681387,-11.234822,14.74659,-44.9524,72.76448,-1.4471132,-2.0400832,-0.48284894,2.575077,-20.466103,28.10582,56.88981,-12.415136,-1.6673356,-3.4899445
34,1.9217342138290405,2.583148956298828,77.98438262939453,1.597362661190867,0.2961350722064448,-92.71303710118521,-2.6614974,4.5747843,18.420269,17.19003,-15.268655,-2.9428568,-3.2450855,-11.270662,-2.4932537,14.657954,-11.226551,11.766293,5.338328,1.1422493,4.677045,-11.139492,14.778179,-44.736847,72.811676,-1.4641025,-2.0249503,-0.4521371,2.6297834,-20.475573,28.037716,56.891296,-12.444856,-1.6634805,-3.493162
35,2.0115115642547607,2.5916285514831543,77.97493743896484,1.636711071125043,0.25812334024599926,-92.693284001383,-2.6374304,4.433146,18.427185,17.212105,-15.330352,-2.8254714,-3.2544124,-11.408457,-2.467305,14.745961,-11.238061,11.873109,5.352407,1.1209043,4.674082,-11.04105,14.814562,-44.520683,72.85137,-1.4671412,-2.013125,-0.42652705,2.6751778,-20.480635,27.982195,56.89632,-12.463436,-1.659373,-3.5010486
36,2.1164348125457764,2.59480619430542,77.9632339477539,1.6818790158117494,0.22352103148972072,-92.6834948189202,-2.6113472,4.2806835,18.444506,17.22536,-15.386382,-2.7002783,-3.288242,-11.558482,-2.424401,14.868882,-11.265149,11.978897,5.3554244,1.0952355,4.676993,-10.930758,14.873043,-44.31677,72.86501,-1.4753087,-2.0053632,-0.41965923,2.6950932,-20.489202,27.965519,56.90872,-12.448007,-1.6588553,-3.5147073
37,2.236670732498169,2.603102207183838,77.94771575927734,1.7371685166330093,0.1935019144460494,-92.6853627650609,-2.5847132,4.1159506,18.47331,17.231506,-15.437948,-2.5598102,-3.3540797,-11.724292,-2.3601766,15.038078,-11.313362,12.081668,5.3788347,1.0661821,4.677185,-10.828457,14.916776,-44.127464,72.89174,-1.4637923,-2.0049589,-0.43753397,2.7093997,-20.502012,27.97028,56.923058,-12.377363,-1.6662047,-3.5391686
38,2.350559711456299,2.609975814819336,77.93247985839844,1.7983835775871353,0.1674008019975251,-92.69525685563109,-2.5569265,3.9406888,18.510355,17.229315,-15.484583,-2.4093533,-3.4416463,-11.902463,-2.2802389,15.236017,-11.37519,12.184549,5.4051785,1.0356567,4.677576,-10.726304,14.953651,-43.93616,72.92087,-1.4327422,-2.0108206,-0.4724961,2.7125888,-20.52329,28.002327,56.93855,-12.265022,-1.6779345,-3.5717747
39,2.4631223678588867,2.607121229171753,77.92011260986328,1.8655563168767442,0.1433284871512435,-92.71197384621644,-2.5239258,3.7566652,18.555244,17.2131,-15.522987,-2.2614129,-3.542526,-12.086351,-2.1900103,15.449993,-11.441458,12.28916,5.4246554,1.0070174,4.6828136,-10.625172,14.990593,-43.768036,72.94257,-1.404451,-2.018082,-0.51059777,2.7110593,-20.553736,28.0465,56.946358,-12.153222,-1.6872689,-3.6012716
40,2.5768725872039795,2.6210720539093018,77.9078140258789,1.9347908732589045,0.11937281303747381,-92.73472309469115,-2.4832165,3.5672202,18.607368,17.180702,-15.551019,-2.1306007,-3.6485972,-12.27291,-2.0946128,15.668205,-11.504649,12.3975315,5.4534636,0.9757571,4.690675,-10.540795,15.014524,-43.654648,72.97406,-1.3792078,-2.021158,-0.5364907,2.7190123,-20.57599,28.059095,56.95145,-12.093864,-1.6888082,-3.6191232
41,2.6895766258239746,2.625743865966797,77.89508819580078,2.0075267297238177,0.09515410697372527,-92.7649275415092,-2.4345741,3.3711398,18.668175,17.133284,-15.569125,-2.0212195,-3.7565172,-12.460832,-1.9936751,15.88385,-11.5617485,12.511794,5.4754505,0.9454753,4.702752,-10.46851,15.033897,-43.603306,73.00601,-1.3845825,-2.0186741,-0.5478735,2.7256117,-20.591963,28.053347,56.959805,-12.102095,-1.6794606,-3.6241083
42,2.809008836746216,2.627349615097046,77.8804931640625,2.083172118187538,0.07137424005452342,-92.80217242403836,-2.3789032,3.1676633,18.736845,17.07099,-15.577539,-1.9265977,-3.8713827,-12.652896,-1.8849543,16.105646,-11.617602,12.630344,5.492925,0.9165096,4.724371,-10.393059,15.061782,-43.59169,73.01111,-1.4007403,-2.0096788,-0.55209756,2.7331502,-20.61019,28.036135,56.957424,-12.151724,-1.6611328,-3.6195972
43,2.9453930854797363,2.639152765274048,77.86430358886719,2.1626715779299857,0.04887524395678948,-92.84362162707446,-2.3169925,2.9593475,18.81166,16.992804,-15.576855,-1.8376567,-3.9962623,-12.847745,-1.7712386,16.339806,-11.674254,12.749149,5.512554,0.8823138,4.7482996,-10.331167,15.086301,-43.62099,73.0268,-1.4116529,-2.002267,-0.5511741,2.7414968,-20.620703,28.007378,56.954533,-12.2207,-1.6403893,-3.606372
44,3.067868232727051,2.647183895111084,77.84550476074219,2.242978703646772,0.02802208509268845,-92.88595226504974,-2.2470503,2.7478127,18.890352,16.892328,-15.564518,-1.7452369,-4.1324825,-13.042994,-1.6559929,16.59003,-11.732257,12.864228,5.5279045,0.8414116,4.774722,-10.278786,15.101908,-43.655388,73.06005,-1.3757596,-1.9998058,-0.5459421,2.742277,-20.623901,27.980843,56.953766,-12.281518,-1.6203874,-3.584563
45,3.194247245788574,2.6516458988189697,77.83077239990234,2.321256676451686,0.009901519441971733,-92.92707007155451,-2.16984,2.5370781,18.971827,16.769539,-15.541593,-1.650517,-4.2808247,-13.236165,-1.5444659,16.857363,-11.790947,12.974548,5.551101,0.78877074,4.8078732,-10.237977,15.131661,-43.727238,73.09558,-1.2945713,-2.0041683,-0.5279808,2.7569516,-20.621363,27.930506,56.930847,-12.345624,-1.5997802,-3.5412278
46,3.316838026046753,2.655566692352295,77.8187255859375,2.3997333289352523,-0.00604230560622783,-92.96913674063345,-2.0840642,2.3245575,19.057339,16.622879,-15.506489,-1.557175,-4.4391193,-13.42951,-1.4335343,17.137928,-11.849208,13.0820465,5.5604715,0.7313926,4.8433867,-10.202403,15.155692,-43.803154,73.14511,-1.1649526,-2.0138485,-0.49765348,2.7569742,-20.61163,27.889486,56.91475,-12.412729,-1.5764959,-3.4837532
47,3.4337143898010254,2.6655261516571045,77.80426025390625,2.483699645855036,-0.021795975746961314,-93.01498804741617,-1.9929569,2.1045806,19.148392,16.462774,-15.46319,-1.4600011,-4.610394,-13.625711,-1.3128531,17.436882,-11.912002,13.187319,5.577321,0.66486096,4.8841743,-10.178695,15.1869335,-43.92094,73.19413,-1.0460879,-2.0232794,-0.47883123,2.7569184,-20.589476,27.839645,56.89702,-12.4735155,-1.5571476,-3.4297624
48,3.554903030395508,2.6811909675598145,77.78803253173828,2.575974007228518,-0.03912937192816264,-93.06737540924038,-1.8974705,1.8712999,19.246305,16.294825,-15.413745,-1.3541133,-4.7973304,-13.832126,-1.171194,17.76092,-11.985308,13.291287,5.6002517,0.5906905,4.9303966,-10.163864,15.222063,-44.071514,73.23743,-0.9697173,-2.0281317,-0.4933615,2.7455282,-20.554998,27.795742,56.890923,-12.50877,-1.5473603,-3.3997705
49,3.6835267543792725,2.6879444122314453,77.76900482177734,2.6806297288110255,-0.061582786382086606,-93.12756489290078,-1.7971637,1.6242582,19.352827,16.1281,-15.359751,-1.2390969,-4.9951134,-14.048534,-1.0046515,18.106062,-12.071511,13.395293,5.618392,0.5221487,4.9857388,-10.158312,15.243554,-44.23646,73.28303,-0.94378984,-2.0293813,-0.55776316,2.7236872,-20.527086,27.771097,56.886314,-12.495107,-1.5496912,-3.4002912
50,3.8089816570281982,2.7014260292053223,77.7527847290039,2.7933897260003087,-0.08703236721381749,-93.19379167336508,-1.6884363,1.3653702,19.46675,15.949278,-15.29881,-1.1173154,-5.206295,-14.272102,-0.8185419,18.474556,-12.167881,13.498503,5.639947,0.45464218,5.049146,-10.169246,15.258072,-44.440445,73.33445,-0.9626682,-2.0290525,-0.6567737,2.6995144,-20.501091,27.74877,56.878876,-12.450686,-1.5608851,-3.4199543
51,3.9333715438842773,2.717132806777954,77.73235321044922,2.912878346146321,-0.10921611362600044,-93.26461084461525,-1.5784632,1.0958023,19.584242,15.757078,-15.231094,-0.987963,-5.4337144,-14.501131,-0.6196762,18.859522,-12.266828,13.59857,5.6697035,0.3804233,5.1145144,-10.188317,15.267093,-44.661526,73.38524,-0.9807349,-2.0254128,-0.76228946,2.6783528,-20.473354,27.72821,56.86382,-12.402853,-1.5753866,-3.4475627
52,4.062745571136475,2.7351012229919434,77.71003723144531,3.0376196369248802,-0.1217789281970356,-93.33828433333179,-1.4732245,0.8166798,19.701605,15.547092,-15.156908,-0.8501226,-5.693323,-14.733729,-0.41139305,19.281433,-12.367246,13.692264,5.698731,0.2960144,5.1767983,-10.211841,15.27069,-44.88621,73.43496,-0.9751108,-2.0186176,-0.8456649,2.651857,-20.444084,27.72763,56.84456,-12.372752,-1.5869551,-3.473237
53,4.175988674163818,2.75406551361084,77.69075012207031,3.1745189477559603,-0.11990559739306311,-93.41579511976575,-1.3733149,0.51652604,19.818897,15.306781,-15.0722275,-0.6948358,-5.9864373,-14.978354,-0.1903423,19.730825,-12.470733,13.780145,5.732005,0.19290715,5.229869,-10.24418,15.268175,-45.13849,73.48968,-0.9460662,-2.0097883,-0.8987125,2.6171374,-20.406061,27.752369,56.83406,-12.380583,-1.5936496,-3.501872
54,4.312497138977051,2.763546943664551,77.67371368408203,3.3217083777324588,-0.1080193194017941,-93.4974262941574,-1.2754916,0.19898055,19.93749,15.041418,-14.977354,-0.52557987,-6.3089733,-15.230894,0.044718556,20.20833,-12.577836,13.862894,5.747681,0.083451755,5.2829156,-10.272345,15.261756,-45.38063,73.534966,-0.89230615,-1.9992228,-0.93732166,2.565771,-20.377033,27.818586,56.82268,-12.403234,-1.5978146,-3.5345526
55,4.440958023071289,2.7766225337982178,77.65494537353516,3.4631615780004656,-0.09364125083244966,-93.58059863186593,-1.1820853,-0.11235388,20.056124,14.778743,-14.883977,-0.360346,-6.652237,-15.474658,0.28418085,20.714802,-12.680292,13.938928,5.7691097,-0.03148929,5.3337965,-10.313911,15.247622,-45.637836,73.59162,-0.8457331,-1.9849364,-0.96681106,2.5149927,-20.337788,27.886885,56.805584,-12.417563,-1.6031629,-3.5634232
56,4.563561916351318,2.796945333480835,77.63654327392578,3.5888306835255364,-0.08440595283181394,-93.66284390243827,-1.0959595,-0.39319938,20.173628,14.546612,-14.802727,-0.21698493,-7.006966,-15.693584,0.5181016,21.251858,-12.769586,14.006828,5.7801294,-0.13948065,5.391178,-10.365158,15.227319,-45.870808,73.65776,-0.8143096,-1.9659731,-0.994027,2.4596314,-20.28993,27.953129,56.771454,-12.39568,-1.6121119,-3.5770733
57,4.685644149780273,2.815760374069214,77.61272430419922,3.6925333706632575,-0.08223553283256563,-93.7424819396639,-1.021744,-0.6362384,20.289152,14.359015,-14.741101,-0.09980287,-7.3712463,-15.884893,0.73351514,21.822863,-12.847571,14.062853,5.7655926,-0.23340295,5.464289,-10.418297,15.214739,-46.068752,73.712776,-0.8009222,-1.9351404,-1.026031,2.4007018,-20.257185,28.027527,56.692524,-12.303786,-1.6280546,-3.5621755
58,4.795641899108887,2.8414883613586426,77.59185791015625,3.78377239260651,-0.0829730350966398,-93.82121238570492,-0.9567798,-0.8548814,20.403921,14.199038,-14.691918,0.0006725616,-7.75045,-16.057476,0.9394837,22.427557,-12.918327,14.108791,5.761009,-0.33510095,5.5329475,-10.497474,15.190685,-46.295544,73.80058,-0.81707966,-1.8950764,-1.0552989,2.3375957,-20.189249,28.087822,56.618137,-12.176462,-1.6500179,-3.5350747
59,4.903275012969971,2.860661268234253,77.57473754882812,3.864539788898846,-0.0859708198879156,-93.90170176028202,-0.8922873,-1.0563817,20.51931,14.046151,-14.642765,0.0874675,-8.142772,-16.211,1.1572931,23.057116,-12.973547,14.151598,5.7392235,-0.42750815,5.6122656,-10.567433,15.172885,-46.474396,73.867714,-0.835341,-1.8594004,-1.0756317,2.2701402,-20.132812,28.161894,56.521996,-12.044141,-1.6692315,-3.5035465
60,5.025235176086426,2.8804447650909424,77.55854797363281,3.9373306481654153,-0.09024669720729275,-93.986665105024,-0.8195035,-1.2481589,20.636667,13.879909,-14.581659,0.16345517,-8.546422,-16.341936,1.4075162,23.701859,-13.004268,14.198074,5.7191176,-0.5166032,5.6930776,-10.634797,15.151975,-46.62135,73.93027,-0.86934376,-1.8421098,-1.0766169,2.1987298,-20.061838,28.238644,56.43644,-11.953785,-1.6794505,-3.4873714
61,5.144477844238281,2.9026856422424316,77.54483795166016,4.001523587168463,-0.09585099106764146,-94.07726515311572,-0.73342794,-1.4314984,20.755941,13.688428,-14.501138,0.22470553,-8.962584,-16.447159,1.7021525,24.361645,-13.004222,14.256863,5.69354,-0.6019263,5.778951,-10.696919,15.128892,-46.72023,73.98806,-0.94817865,-1.8517684,-1.051645,2.116912,-19.980923,28.330803,56.362427,-11.919492,-1.6750104,-3.4937289
62,5.253312587738037,2.9228355884552,77.53255462646484,4.055797722156504,-0.10322563467170763,-94.17190915553111,-0.6434096,-1.6014776,20.876657,13.49287,-14.410419,0.27122572,-9.391281,-16.528387,2.0276895,25.041414,-12.9799385,14.322598,5.661416,-0.68168724,5.871728,-10.753656,15.106479,-46.774754,74.03538,-1.0564734,-1.879066,-1.0073525,2.0313342,-19.899395,28.434423,56.28275,-11.915661,-1.6606448,-3.511498
63,5.359341621398926,2.949174404144287,77.52667999267578,4.104268219941551,-0.11195971056380688,-94.26906934054392,-0.5500929,-1.759782,20.999132,13.29437,-14.317375,0.31209144,-9.829276,-16.590738,2.366235,25.738005,-12.940804,14.38121,5.6296744,-0.75055325,5.96854,-10.803889,15.087221,-46.80499,74.06041,-1.1386673,-1.911964,-0.95463747,1.9573187,-19.825884,28.531424,56.18634,-11.9251,-1.6448101,-3.5290248
64,5.448980331420898,2.972679853439331,77.52025604248047,4.146367266637974,-0.12182948923810996,-94.36702889459089,-0.4541694,-1.9086866,21.123753,13.094578,-14.2283125,0.35642853,-10.271929,-16.640303,2.6996522,26.445942,-12.895144,14.418455,5.5994363,-0.8123054,6.056826,-10.858305,15.065808,-46.855503,74.08086,-1.1662937,-1.9397314,-0.902394,1.8810335,-19.735033,28.61793,56.108494,-11.932177,-1.6365677,-3.5416238
65,5.551977634429932,2.998572587966919,77.50967407226562,4.185677837660409,-0.13312960217907216,-94.46602858894573,-0.35545236,-2.0495248,21.253014,12.894696,-14.147627,0.4120763,-10.719493,-16.680672,3.0265934,27.168016,-12.843148,14.435353,5.5782733,-0.8637676,6.138592,-10.910668,15.043776,-46.91683,74.08548,-1.0706269,-1.9586371,-0.8475821,1.8169813,-19.633717,28.672396,56.034355,-11.934186,-1.6415867,-3.5283477
66,5.6479902267456055,3.0231823921203613,77.5053939819336,4.2208998896590595,-0.14592813261930496,-94.56665391185072,-0.25273228,-2.1813645,21.386055,12.691791,-14.070004,0.47244063,-11.171457,-16.706652,3.354474,27.901152,-12.780401,14.438093,5.5628715,-0.9047109,6.218297,-10.962717,15.023033,-46.98515,74.07442,-0.9003618,-1.9750161,-0.78674275,1.7669485,-19.53106,28.704197,55.952633,-11.938617,-1.6536385,-3.4983997
67,5.73178243637085,3.038517475128174,77.49671173095703,4.248413762999381,-0.15933770166677577,-94.66815457115584,-0.14897324,-2.3017125,21.517889,12.489805,-13.992367,0.5247893,-11.629368,-16.716345,3.6810803,28.645916,-12.710106,14.420147,5.5521126,-0.9367421,6.2967257,-11.014081,15.0040245,-47.050884,74.04374,-0.72890013,-1.9895949,-0.73175555,1.7254218,-19.431526,28.73068,55.865795,-11.949187,-1.6648946,-3.485816
68,5.809109210968018,3.052654266357422,77.4967041015625,4.267146749972836,-0.17247522082802835,-94.77001750114592,-0.04614775,-2.4077415,21.643373,12.290419,-13.91037,0.55620736,-12.089352,-16.709957,4.002916,29.392187,-12.634677,14.375741,5.544899,-0.963964,6.3721867,-11.070991,14.985912,-47.122086,73.99965,-0.646766,-2.0040998,-0.6939421,1.6780467,-19.32905,28.773024,55.79011,-11.967826,-1.6674252,-3.5262854
69,5.905022621154785,3.0794179439544678,77.49237060546875,4.271525807607871,-0.1852987216659198,-94.8759055983887,0.059079126,-2.495898,21.76367,12.087653,-13.817631,0.5556633,-12.561393,-16.680672,4.3218846,30.155083,-12.549684,14.296661,5.5424066,-0.9796473,6.44719,-11.13509,14.97077,-47.20982,73.93234,-0.7122518,-2.0185747,-0.6801126,1.6292912,-19.233618,28.846376,55.7134,-11.993503,-1.6598947,-3.6194234
70,5.980107307434082,3.094557046890259,77.48374938964844,4.2651218307449,-0.19804423263253898,-94.98479767960043,0.16637012,-2.5683334,21.880491,11.882931,-13.718378,0.53253955,-13.041951,-16.629921,4.637468,30.93081,-12.4543915,14.188752,5.5453196,-0.98653936,6.52012,-11.198011,14.9565325,-47.28944,73.84205,-0.84626037,-2.0316398,-0.68310994,1.5769988,-19.137753,28.938335,55.64337,-12.024663,-1.646337,-3.7509522
71,6.057477951049805,3.119001626968384,77.48294067382812,4.2553999949682355,-0.21113417194554948,-95.0890927575469,0.269518,-2.6324365,21.990479,11.687697,-13.623426,0.50498164,-13.511321,-16.570444,4.9443007,31.689013,-12.358908,14.067446,5.546369,-0.9917164,6.590781,-11.26334,14.945667,-47.36726,73.74176,-0.9962701,-2.04503,-0.69331664,1.5293509,-19.045424,29.022446,55.573597,-12.065664,-1.625954,-3.9287996
72,6.121999263763428,3.1352195739746094,77.48605346679688,4.251453412335465,-0.22454235555201396,-95.18099402644181,0.36379483,-2.696154,22.08969,11.509149,-13.540765,0.4911045,-13.951544,-16.51414,5.2373905,32.401615,-12.274535,13.948211,5.540549,-1.0030198,6.6589684,-11.332756,14.94105,-47.443142,73.642876,-1.1006801,-2.0603647,-0.7013284,1.4920158,-18.962452,29.072392,55.500725,-12.118179,-1.597975,-4.161071
73,6.18283224105835,3.1490135192871094,77.48776245117188,4.25425537514691,-0.2385523440604694,-95.25928227731957,0.445142,-2.7599533,22.179205,11.354671,-13.478212,0.4997988,-14.366045,-16.463112,5.5139694,33.08139,-12.194296,13.836505,5.5265155,-1.028927,6.7225995,-11.409432,14.945002,-47.52178,73.55072,-1.1496234,-2.0801308,-0.71620643,1.4576004,-18.87253,29.082687,55.43638,-12.197297,-1.5583038,-4.484355
74,6.242307662963867,3.1619582176208496,77.4883041381836,4.261108585026045,-0.25284451615631237,-95.3276917723947,0.5195889,-2.8214324,22.260195,11.213291,-13.426591,0.5201151,-14.762745,-16.412683,5.7776494,33.738327,-12.116277,13.724501,5.507055,-1.0625865,6.783906,-11.490767,14.959377,-47.60429,73.45323,-1.1770833,-2.102675,-0.73950315,1.4288567,-18.784222,29.066235,55.371864,-12.295993,-1.5080858,-4.881774
75,6.296525001525879,3.17525053024292,77.49091339111328,4.2676372902035125,-0.26744854825703823,-95.3863904956624,0.5872951,-2.8789268,22.330254,11.086588,-13.380879,0.54021853,-15.125319,-16.36107,6.03153,34.33213,-12.055253,13.607039,5.479733,-1.0896106,6.8456483,-11.570316,14.974816,-47.672497,73.34929,-1.1754842,-2.1238563,-0.74917656,1.416788,-18.72778,29.030369,55.289707,-12.384063,-1.454701,-5.28406
76,6.338293075561523,3.185265064239502,77.48760986328125,4.27266946339839,-0.28203080653373963,-95.43547195755008,0.6535006,-2.9341455,22.386932,10.964402,-13.32985,0.54845697,-15.440333,-16.307734,6.2798014,34.827316,-12.028592,13.4783,5.4624653,-1.1244144,6.899386,-11.652773,15.002249,-47.764297,73.25101,-1.1701546,-2.137588,-0.724085,1.3999401,-18.652166,28.960083,55.246983,-12.453629,-1.4096237,-5.6320925
77,6.381793975830078,3.1922049522399902,77.48314666748047,4.27531884818849,-0.2964324021459704,-95.47635621583065,0.72121614,-2.9900198,22.42921,10.840293,-13.266194,0.5377532,-15.709485,-16.24519,6.539108,35.23267,-12.043475,13.320648,5.4468074,-1.1569611,6.9474926,-11.732835,15.036223,-47.865055,73.15122,-1.1394906,-2.1412146,-0.6423163,1.381469,-18.581436,28.86366,55.22965,-12.509202,-1.3666149,-5.9254417
78,6.420767307281494,3.197594404220581,77.47779846191406,4.277122731617842,-0.31086655722385015,-95.50839462556699,0.78792506,-3.0449042,22.458359,10.718977,-13.196354,0.51564753,-15.938956,-16.17852,6.802807,35.56314,-12.090463,13.142145,5.419647,-1.1771122,6.9927125,-11.814717,15.060148,-47.959324,73.058525,-1.0837984,-2.1399262,-0.51927114,1.3709749,-18.546307,28.757383,55.20868,-12.54535,-1.3219054,-6.189414
79,6.447914123535156,3.1992897987365723,77.47454833984375,4.277342231131894,-0.325571708622976,-95.52886257042682,0.84774494,-3.0926003,22.475714,10.615482,-13.134466,0.4924157,-16.118876,-16.11945,7.0380454,35.785206,-12.158446,12.973894,5.398972,-1.1977578,7.034454,-11.90191,15.086301,-48.060524,72.97505,-1.0338693,-2.1368124,-0.39217743,1.377645,-18.517576,28.619133,55.189156,-12.546738,-1.2913544,-6.3998213
80,6.480358600616455,3.199833631515503,77.47199249267578,4.273937277080424,-0.3409866277698271,-95.53498849938117,0.89698875,-3.1270986,22.482405,10.539932,-13.092089,0.47821438,-16.240332,-16.08433,7.213439,35.867516,-12.238145,12.84725,5.3750315,-1.2210836,7.0718684,-11.99062,15.11546,-48.15072,72.90787,-1.0159501,-2.137822,-0.29666406,1.3965199,-18.49373,28.467009,55.17432,-12.479905,-1.2890605,-6.532178
81,6.497384548187256,3.194124698638916,77.47016906738281,4.2701750419515605,-0.3608470734917219,-95.5250252697036,0.93845534,-3.1472266,22.478746,10.498042,-13.077232,0.47744963,-16.28948,-16.074005,7.331272,35.78923,-12.339768,12.779733,5.335909,-1.2477664,7.106796,-12.074661,15.145691,-48.202545,72.86078,-1.0348767,-2.1463826,-0.24399824,1.4260212,-18.475277,28.30027,55.1632,-12.314572,-1.3259304,-6.5653143
82,6.511848449707031,3.1900267601013184,77.47091674804688,4.265312331639021,-0.3837160562965565,-95.50103902364162,0.97361267,-3.156523,22.463995,10.480657,-13.080503,0.4840844,-16.275675,-16.084286,7.405791,35.572506,-12.465147,12.750229,5.282803,-1.2753984,7.1380057,-12.157139,15.175689,-48.229515,72.832184,-1.0806124,-2.1594667,-0.21425918,1.4629263,-18.462273,28.12136,55.1593,-12.072489,-1.3916723,-6.5176744
83,6.5252227783203125,3.1802778244018555,77.470703125,4.257031049815513,-0.4022327601994469,-95.46491011624153,0.992943,-3.154304,22.438442,10.489188,-13.095162,0.492853,-16.224228,-16.115442,7.421664,35.24764,-12.591231,12.731801,5.236347,-1.3049717,7.1630163,-12.237354,15.215342,-48.25628,72.80302,-1.1271329,-2.170386,-0.19741894,1.5100543,-18.453701,27.934225,55.16246,-11.806397,-1.468812,-6.4229255
84,6.536456108093262,3.1678740978240967,77.4694595336914,4.242305282209328,-0.4090073868952076,-95.4185625608381,0.988663,-3.140152,22.40179,10.52105,-13.112578,0.4983548,-16.159351,-16.165499,7.3625765,34.84372,-12.694364,12.698098,5.181891,-1.3266503,7.171742,-12.322018,15.252413,-48.310867,72.78614,-1.1853821,-2.1772077,-0.17978577,1.5493166,-18.455236,27.79349,55.18741,-11.552957,-1.5379224,-6.3187118
85,6.5323920249938965,3.150308132171631,77.47162628173828,4.218431953925423,-0.4015622404200304,-95.35794278985789,0.94931084,-3.111136,22.350885,10.593698,-13.13602,0.5037897,-16.080397,-16.243324,7.2061377,34.348072,-12.774824,12.643124,5.1224937,-1.3420098,7.1611223,-12.411833,15.2812805,-48.384632,72.78889,-1.2322176,-2.1767411,-0.16044803,1.5803534,-18.466396,27.701603,55.23728,-11.294859,-1.6025261,-6.2014737
86,6.526015758514404,3.13810396194458,77.47391510009766,4.187704287972344,-0.383963393128528,-95.28348561293551,0.8845563,-3.069468,22.286781,10.696732,-13.164833,0.5104518,-15.976171,-16.34433,6.966031,33.751587,-12.84309,12.581142,5.0691957,-1.3533859,7.1387634,-12.506458,15.312343,-48.479733,72.79886,-1.2779984,-2.170676,-0.1461461,1.6215575,-18.491451,27.62518,55.292225,-11.022346,-1.6697081,-6.053812
87,6.516753196716309,3.1205403804779053,77.48435974121094,4.153064226103559,-0.35880728285318386,-95.20428755849325,0.80704063,-3.0176494,22.215872,10.811086,-13.198874,0.5100255,-15.855522,-16.45471,6.6825814,33.090187,-12.891311,12.517457,5.011942,-1.3573564,7.1034584,-12.602934,15.335618,-48.585094,72.82,-1.3307391,-2.1644626,-0.13353904,1.6539514,-18.519245,27.577663,55.372704,-10.785424,-1.7269408,-5.8979354
88,6.507514476776123,3.104599714279175,77.49039459228516,4.11774215321531,-0.32865810259879474,-95.12954137463464,0.7312705,-2.9597208,22.144907,10.9123745,-13.234639,0.49438375,-15.727487,-16.556156,6.395276,32.39783,-12.9109125,12.456485,4.991786,-1.3495005,7.070985,-12.688685,15.371605,-48.699158,72.79651,-1.3634456,-2.1566691,-0.12372749,1.7319102,-18.575897,27.500715,55.41315,-10.644594,-1.7619195,-5.7448444
89,6.491468906402588,3.083036422729492,77.49128723144531,4.078257439443104,-0.29282998135628985,-95.05601567134103,0.6524026,-2.891328,22.068884,11.0046015,-13.277617,0.45816988,-15.586723,-16.651463,6.1049337,31.66173,-12.89691,12.398152,4.9665246,-1.3321013,7.0224,-12.764006,15.391072,-48.78451,72.77957,-1.3714769,-2.1544015,-0.11607623,1.7848788,-18.612257,27.443127,55.507908,-10.632343,-1.7660214,-5.6149187
90,6.457588195800781,3.068124294281006,77.49722290039062,4.0370291653958645,-0.25021399486437473,-94.9809237003453,0.5656853,-2.812425,21.986376,11.097406,-13.327817,0.40686044,-15.430073,-16.745064,5.792675,30.869564,-12.854225,12.341182,4.9673014,-1.3032216,6.968746,-12.838797,15.412017,-48.887207,72.74552,-1.371715,-2.1528103,-0.11276137,1.8663248,-18.660553,27.363981,55.591145,-10.718493,-1.7481023,-5.487904
91,6.423192501068115,3.0458476543426514,77.50419616699219,3.996312459062087,-0.20373548645195658,-94.9132560505166,0.4861568,-2.732509,21.909655,11.172148,-13.370929,0.34836084,-15.271532,-16.83146,5.471266,30.060156,-12.791147,12.288132,4.9787292,-1.2742976,6.9072685,-12.901709,15.427301,-48.971325,72.70328,-1.3458072,-2.148178,-0.10598496,1.939639,-18.70612,27.310299,55.697025,-10.841759,-1.7241269,-5.3601117
92,6.38368558883667,3.017695426940918,77.50738525390625,3.961408942523841,-0.15598973010730155,-94.86201531393849,0.42313048,-2.6591454,21.850945,11.223141,-13.399506,0.29066622,-15.127021,-16.907177,5.154726,29.276318,-12.717563,12.24122,5.0075665,-1.2514795,6.8439145,-12.950938,15.440856,-49.040634,72.64363,-1.298092,-2.1357284,-0.089457706,2.0101805,-18.756683,27.295795,55.807743,-10.944403,-1.7095007,-5.220687
93,6.339555740356445,2.9875659942626953,77.51123809814453,3.9354168270493033,-0.1074268766988869,-94.83359071720257,0.38761142,-2.5980823,21.817327,11.231848,-13.402165,0.23525697,-14.999618,-16.971859,4.853822,28.516499,-12.626566,12.197346,5.056197,-1.239619,6.7754374,-12.973988,15.450413,-49.06645,72.559494,-1.1789217,-2.1105428,-0.057040833,2.062283,-18.804193,27.344654,55.94612,-11.006213,-1.7139626,-5.071272
94,6.306224822998047,2.9577958583831787,77.51670837402344,3.91471797312637,-0.056694512312733425,-94.82192438903962,0.37113625,-2.544015,21.801268,11.20885,-13.386996,0.17828293,-14.883303,-17.029154,4.5600057,27.766163,-12.51658,12.156242,5.120303,-1.2325445,6.701747,-12.981647,15.459222,-49.078045,72.45629,-1.0266341,-2.076984,-0.013752381,2.1048923,-18.855293,27.441566,56.102516,-11.05909,-1.727026,-4.9147735
95,6.260441303253174,2.924165725708008,77.5208740234375,3.897786952656529,-0.00407308761177386,-94.81710186022985,0.3587149,-2.4888148,21.792011,11.179559,-13.368949,0.119048856,-14.771237,-17.075916,4.254054,27.029554,-12.40129,12.12343,5.191675,-1.2288295,6.627675,-12.968951,15.468035,-49.050274,72.335045,-0.8575847,-2.0402462,0.029997168,2.146564,-18.909092,27.556032,56.257786,-11.122152,-1.7350359,-4.7491
96,6.198564052581787,2.887298583984375,77.52998352050781,3.882352671016252,0.04999434578921658,-94.80941434713645,0.33764094,-2.4257314,21.779253,11.164845,-13.360292,0.057072382,-14.661579,-17.113985,3.9191418,26.322147,-12.295644,12.104339,5.2593017,-1.2293589,6.5551205,-12.951857,15.478172,-49.01377,72.216675,-0.74847364,-2.0084229,0.064703844,2.1882908,-18.9571,27.660873,56.405334,-11.216483,-1.7246027,-4.573677
97,6.134087085723877,2.8563549518585205,77.53717041015625,3.871684569397809,0.1080680147975689,-94.79715013730511,0.30046165,-2.3576531,21.762707,11.172303,-13.367314,-0.0030063144,-14.55532,-17.15302,3.5240734,25.637781,-12.210241,12.104174,5.319869,-1.2420502,6.4841614,-12.920706,15.494252,-48.942863,72.089096,-0.690123,-1.9783667,0.09013288,2.231876,-19.00514,27.757145,56.54181,-11.35849,-1.6859705,-4.367454
98,6.068526268005371,2.821373224258423,77.53947448730469,3.868004902310243,0.16948246960138214,-94.78528810606198,0.25674286,-2.2871776,21.74706,11.187114,-13.380848,-0.062596515,-14.454741,-17.19113,3.0876698,24.97524,-12.135892,12.118866,5.4082313,-1.2752267,6.4090056,-12.897878,15.503019,-48.883858,71.977646,-0.6734763,-1.9478853,0.11122885,2.2811418,-19.021471,27.820362,56.690956,-11.550016,-1.6307509,-4.1404414
99,5.976071834564209,2.776122570037842,77.54640197753906,3.85922552570091,0.22893172908229806,-94.77356385071715,0.21343681,-2.2055051,21.729158,11.209364,-13.397167,-0.13094929,-14.353211,-17.203463,2.6653671,24.34235,-12.051684,12.13908,5.469045,-1.2982259,6.3375583,-12.84249,15.521443,-48.76636,71.846,-0.6661251,-1.923528,0.12370086,2.3107774,-19.040483,27.912971,56.839005,-11.736864,-1.5710918,-3.9319215
100,5.9037580490112305,2.7450363636016846,77.5540542602539,3.836754118054097,0.2812779924350612,-94.76215555430664,0.17733352,-2.1029992,21.705526,11.240131,-13.41364,-0.21765757,-14.246088,-17.168394,2.3139,23.750343,-11.938315,12.155378,5.530006,-1.2982233,6.275905,-12.774512,15.546226,-48.642315,71.70699,-0.67836016,-1.9109923,0.12340685,2.3413587,-19.05459,27.989933,56.968002,-11.9007225,-1.5227947,-3.7803562
101,5.82625150680542,2.707383394241333,77.56070709228516,3.7938206149312754,0.32618110887418383,-94.75258413254205,0.14908488,-1.9714595,21.675354,11.280312,-13.428109,-0.3338655,-14.132431,-17.078114,2.0249932,23.183348,-11.777065,12.178652,5.6155148,-1.2639664,6.2255235,-12.704061,15.561496,-48.51313,71.57076,-0.7143057,-1.9154966,0.098644055,2.3897061,-19.060331,28.019142,57.07174,-12.043891,-1.4876164,-3.708262
102,5.73128604888916,2.6689443588256836,77.57788848876953,3.7360195249185466,0.3659228775102247,-94.74433199378596,0.12589194,-1.8180221,21.640518,11.328288,-13.442077,-0.47155753,-14.015569,-16.946722,1.7771233,22.641092,-11.58284,12.208878,5.688042,-1.2023892,6.185108,-12.612671,15.580837,-48.34376,71.42076,-0.7741412,-1.9333577,0.05472557,2.4260166,-19.065338,28.04931,57.16752,-12.170868,-1.457262,-3.691107
103,5.637435436248779,2.623425245285034,77.5898666381836,3.6752518657305795,0.3999963832550428,-94.73426370903685,0.10712636,-1.6553059,21.601389,11.384798,-13.459801,-0.6117157,-13.901102,-16.78209,1.6080804,22.164846,-11.38837,12.21984,5.7733326,-1.1370745,6.1461477,-12.523153,15.592901,-48.20183,71.28807,-0.8399405,-1.9552869,0.01603248,2.4800587,-19.066305,28.05693,57.235096,-12.284456,-1.433881,-3.6955202
104,5.53665018081665,2.5779027938842773,77.60352325439453,3.6210675001313453,0.42762160932802623,-94.71939547793735,0.09324656,-1.4965566,21.558653,11.4488535,-13.485182,-0.7353527,-13.795541,-16.592922,1.5557587,21.799019,-11.228537,12.18565,5.8263865,-1.0850377,6.106064,-12.404655,15.613844,-48.036854,71.156166,-0.8435269,-1.971665,0.0044346657,2.5197797,-19.065084,28.092663,57.28839,-12.378936,-1.4184252,-3.689987
105,5.440465450286865,2.522334575653076,77.62110137939453,3.57877956245352,0.44890262765706707,-94.7003338735321,0.07996233,-1.3450311,21.512793,11.526937,-13.521489,-0.8301225,-13.714646,-16.356667,1.6999252,21.597206,-11.1184845,12.075161,5.8920145,-1.0548736,6.059851,-12.296664,15.626547,-47.94339,71.05894,-0.8093233,-1.9833854,0.036850654,2.5846562,-19.061817,28.115982,57.304253,-12.462749,-1.4160082,-3.6695135
106,5.327960014343262,2.473207950592041,77.63143920898438,3.5410790656240545,0.46406259424997937,-94.67838394590088,0.068721674,-1.193252,21.463352,11.617358,-13.566222,-0.9087436,-13.649176,-16.075727,1.9961231,21.52213,-11.036885,11.91071,5.9242353,-1.0340978,6.0138893,-12.151378,15.656567,-47.81497,70.94753,-0.71028614,-1.9929212,0.095226064,2.6274624,-19.052185,28.174007,57.31462,-12.528307,-1.4235666,-3.6524682
107,5.205555438995361,2.4238076210021973,77.64163208007812,3.504217250114711,0.4733603759446418,-94.65116563140549,0.0649673,-1.0375192,21.40985,11.710953,-13.615092,-0.98941636,-13.571558,-15.796653,2.2959971,21.487093,-10.966444,11.746874,5.973283,-1.0190438,5.9666476,-12.020536,15.673864,-47.74233,70.873436,-0.6258778,-1.9988942,0.16035153,2.7043211,-19.043308,28.197412,57.279015,-12.577132,-1.4337038,-3.6314898
108,5.076988220214844,2.3602206707000732,77.64620971679688,3.463646207210577,0.47670384641395674,-94.61593864707638,0.07507027,-0.87437195,21.35124,11.796447,-13.662058,-1.090304,-13.454281,-15.567631,2.452553,21.404924,-10.89116,11.637972,5.9922233,-1.0027567,5.918803,-11.865471,15.698571,-47.652866,70.80544,-0.5623879,-1.9959923,0.21013847,2.7657077,-19.026123,28.227339,57.237617,-12.595326,-1.4394138,-3.6059413
109,4.950802326202393,2.290598154067993,77.65666198730469,3.420938207396252,0.4712870046285683,-94.57094810902407,0.104323626,-0.7034469,21.288595,11.870098,-13.704728,-1.2189074,-13.280123,-15.412479,2.4052017,21.250212,-10.813069,11.596663,6.002229,-0.99110895,5.875738,-11.707962,15.722162,-47.571583,70.7664,-0.54299265,-1.9811449,0.24657996,2.8414319,-19.001858,28.231241,57.160465,-12.565775,-1.4381307,-3.573587
110,4.819155693054199,2.229949951171875,77.6642074584961,3.377422760507541,0.4579899276580936,-94.51789615869664,0.14895694,-0.5273845,21.22198,11.936127,-13.74506,-1.364505,-13.067792,-15.302212,2.2399554,21.072414,-10.740584,11.595025,5.9927373,-0.99115336,5.834249,-11.535556,15.760886,-47.49389,70.73965,-0.5508607,-1.9560549,0.27782035,2.9048307,-18.951921,28.2282,57.08016,-12.502174,-1.4349743,-3.5396364
111,4.673056125640869,2.1606647968292236,77.6769790649414,3.3304242346504216,0.44268057295034635,-94.46001660190718,0.19785725,-0.34370372,21.149973,12.004467,-13.790557,-1.5186176,-12.837764,-15.201674,2.028723,20.88006,-10.658821,11.626022,5.979502,-0.9935599,5.7837343,-11.351924,15.801582,-47.43746,70.72694,-0.56531376,-1.9291466,0.2926021,2.9708557,-18.888063,28.218248,56.99058,-12.439417,-1.4297262,-3.503752
112,4.520396709442139,2.08610200881958,77.6903076171875,3.276721333671678,0.4312842384706488,-94.40033174002988,0.24113306,-0.1504449,21.070927,12.081879,-13.8468275,-1.6726378,-12.611589,-15.078398,1.8440859,20.68479,-10.55458,11.682139,5.9623785,-0.9859703,5.714692,-11.159492,15.835002,-47.41782,70.72892,-0.57947695,-1.9098625,0.279566,3.041441,-18.828209,28.218792,56.892345,-12.409526,-1.422165,-3.4654686
113,4.371573448181152,2.005770683288574,77.70343017578125,3.2146519530949305,0.424770306303655,-94.33706861920002,0.27096567,0.05541771,20.982374,12.181509,-13.923268,-1.8255037,-12.389109,-14.92377,1.7005942,20.4771,-10.406824,11.786179,5.9389324,-0.962367,5.6242437,-10.956339,15.859897,-47.43791,70.74089,-0.58262277,-1.9063904,0.22691765,3.1197774,-18.779673,28.235744,56.776894,-12.430772,-1.4078914,-3.4149573
114,4.219343662261963,1.9257756471633911,77.71086883544922,3.1446633314170787,0.42026626158295927,-94.2694609250996,0.29428598,0.2722046,20.885754,12.295861,-14.014319,-1.9814491,-12.160069,-14.7550125,1.5613598,20.253405,-10.227863,11.933521,5.907209,-0.9293236,5.518056,-10.742734,15.881692,-47.491936,70.76435,-0.58640873,-1.9121122,0.14359997,3.2020307,-18.73429,28.263136,56.647057,-12.481276,-1.3884212,-3.355505
115,4.06898307800293,1.8371816873550415,77.72313690185547,3.073131825127225,0.4177420626127833,-94.2023554564178,0.323062,0.4934512,20.78586,12.400912,-14.102505,-2.139485,-11.934918,-14.578058,1.4225043,20.038437,-10.055256,12.075512,5.8728466,-0.89321464,5.4002237,-10.511611,15.900325,-47.552876,70.796486,-0.58259284,-1.9124795,0.048958056,3.2888741,-18.689167,28.292421,56.509857,-12.5351,-1.3725129,-3.3052008
116,3.908431053161621,1.7402539253234863,77.73690795898438,3.0016029107982147,0.4170224865120253,-94.14083271614489,0.3671677,0.7132886,20.687244,12.477002,-14.172176,-2.2986329,-11.722608,-14.399329,1.2794149,19.85516,-9.926497,12.163441,5.8377643,-0.85948944,5.274657,-10.268109,15.914721,-47.619926,70.846146,-0.59414124,-1.8946527,-0.037105277,3.3756273,-18.643976,28.32278,56.37594,-12.561432,-1.3685787,-3.2821217
117,3.7367045879364014,1.6423709392547607,77.74862670898438,2.9376257480191343,0.4197585942864098,-94.08465819191406,0.42975765,0.9238189,20.588331,12.512752,-14.215355,-2.457544,-11.529279,-14.225163,1.1293261,19.71624,-9.859907,12.185287,5.804927,-0.8358139,5.1381626,-10.000721,15.924341,-47.66954,70.90867,-0.6026404,-1.8438306,-0.11203447,3.4604974,-18.588848,28.357706,56.25193,-12.555433,-1.3818107,-3.3074403
118,3.5652778148651123,1.5391510725021362,77.76306915283203,2.875325056095423,0.425334870602352,-94.03181847268563,0.5048367,1.1306155,20.487701,12.521117,-14.241594,-2.617115,-11.348685,-14.052431,0.9751388,19.608261,-9.833599,12.16711,5.769261,-0.80985934,4.9934573,-9.717016,15.924626,-47.715637,70.984955,-0.6148954,-1.7720484,-0.18533318,3.5550423,-18.549171,28.398783,56.11161,-12.527872,-1.4060076,-3.362567
119,3.397737503051758,1.429485559463501,77.77693939208984,2.807367673764702,0.430572143055226,-93.98412714847508,0.5891776,1.3479418,20.39006,12.519035,-14.262287,-2.7799392,-11.170486,-13.86612,0.8193862,19.511578,-9.8223715,12.116465,5.7316427,-0.77961344,4.841318,-9.421061,15.918373,-47.765144,71.07818,-0.62354785,-1.701046,-0.2555728,3.6468017,-18.504692,28.43496,55.979,-12.485378,-1.4346963,-3.4176075
120,3.228445291519165,1.329142451286316,77.78599548339844,2.7249074174715195,0.4321723368259689,-93.9435310903105,0.68034506,1.5900881,20.300524,12.521861,-14.288098,-2.9484828,-10.985477,-13.652919,0.6652941,19.410051,-9.803263,12.040967,5.6901264,-0.7358505,4.687898,-9.12396,15.9073305,-47.834938,71.19053,-0.6372833,-1.6539571,-0.3215681,3.7345073,-18.46098,28.452377,55.854713,-12.434186,-1.461038,-3.4379935
121,3.0497570037841797,1.2136635780334473,77.8159408569336,2.622963924202088,0.42824300680728816,-93.91152217410547,0.77775073,1.8639882,20.220814,12.53706,-14.323799,-3.1217945,-10.798911,-13.405159,0.5156072,19.316124,-9.773433,11.928966,5.6538396,-0.68152165,4.5305586,-8.821852,15.884533,-47.915295,71.33348,-0.63237685,-1.6420286,-0.3766944,3.8109362,-18.39685,28.438488,55.759583,-12.368642,-1.4867927,-3.4114685
122,2.86794376373291,1.0892916917800903,77.83512115478516,2.5066446868103607,0.4207924670929794,-93.88660964594811,0.88298994,2.1613052,20.148317,12.555129,-14.362964,-3.299119,-10.608283,-13.130986,0.36676675,19.223993,-9.742949,11.781181,5.612436,-0.6121306,4.373906,-8.508289,15.859409,-48.00242,71.48798,-0.62441474,-1.6518241,-0.4246299,3.8888257,-18.341711,28.408545,55.660404,-12.284373,-1.5136185,-3.3532574
123,2.677839517593384,0.9811528921127319,77.85646057128906,2.3819971525050274,0.4125107645570912,-93.86670722101795,0.99615175,2.4728186,20.08084,12.56622,-14.399906,-3.482823,-10.408375,-12.842003,0.21681143,19.118626,-9.712587,11.623043,5.574961,-0.53579324,4.211644,-8.193213,15.827185,-48.10068,71.65645,-0.6079075,-1.6656967,-0.47694936,3.9677536,-18.282515,28.36159,55.568832,-12.203823,-1.5374422,-3.2847917
124,2.4772109985351562,0.8643059730529785,77.880859375,2.254171788137294,0.4060848676540948,-93.84978619577517,1.116263,2.7896159,20.0158,12.563063,-14.429539,-3.6774828,-10.190818,-12.547803,0.06251459,18.978851,-9.681757,11.479945,5.544678,-0.45804223,4.0387955,-7.8863735,15.7829,-48.21412,71.84147,-0.5829796,-1.6664699,-0.54511714,4.0471835,-18.213112,28.300762,55.492416,-12.149345,-1.553946,-3.2267869
125,2.2737088203430176,0.7368689775466919,77.90029907226562,2.1268013752190287,0.40361315528229946,-93.83852437494194,1.2442338,3.1088133,19.955769,12.539824,-14.450748,-3.8757641,-9.955551,-12.249929,-0.09311361,18.79623,-9.647406,11.359468,5.507738,-0.37419245,3.8621993,-7.563903,15.748525,-48.31839,72.00126,-0.5552002,-1.6504742,-0.6388814,4.1352253,-18.164732,28.240332,55.396152,-12.125166,-1.5575974,-3.178218
126,2.072742223739624,0.6052248477935791,77.92106628417969,1.9959676693783905,0.4031148983927937,-93.83300864989373,1.3799759,3.4345503,19.901371,12.50258,-14.466557,-4.0776696,-9.706392,-11.943405,-0.24930221,18.582272,-9.610274,11.247868,5.4928594,-0.2946156,3.6706152,-7.254456,15.6904125,-48.44707,72.1972,-0.52054,-1.627493,-0.747524,4.224699,-18.09101,28.146717,55.32494,-12.133696,-1.5539451,-3.1356235
127,1.8684364557266235,0.47498586773872375,77.9421615600586,1.8590319492646956,0.4013817946106761,-93.82710528999773,1.5239711,3.7698143,19.846457,12.454457,-14.474901,-4.2991424,-9.442425,-11.627876,-0.41190994,18.349344,-9.57636,11.13879,5.470911,-0.20464002,3.4748538,-6.95396,15.629087,-48.59377,72.403336,-0.47853467,-1.5976737,-0.86113524,4.3124685,-18.02031,28.05483,55.263367,-12.141989,-1.5487727,-3.0951345
128,1.6553093194961548,0.3501485586166382,77.96643829345703,1.7147059709596877,0.3952370583889374,-93.81474687342958,1.6779085,4.116199,19.785177,12.39617,-14.472423,-4.555586,-9.15918,-11.303193,-0.5877017,18.100237,-9.549337,11.025649,5.44589,-0.099318646,3.278774,-6.6690516,15.56488,-48.755436,72.61818,-0.39589798,-1.5600431,-0.9689124,4.405162,-17.952002,27.960648,55.211937,-12.13164,-1.5494336,-3.0551207
129,1.4337751865386963,0.2017686814069748,77.98689270019531,1.557209001896634,0.38190729985156124,-93.79571572094129,1.8475559,4.4779916,19.715704,12.324531,-14.456129,-4.8648677,-8.855204,-10.965478,-0.7817238,17.840532,-9.533029,10.907522,5.419128,0.02850151,3.0833764,-6.391949,15.496665,-48.93442,72.84395,-0.2514662,-1.5133129,-1.0535393,4.5047426,-17.886927,27.862965,55.172386,-12.092566,-1.5590055,-3.014256
130,1.2133281230926514,0.06854021549224854,78.00116729736328,1.3902541558252355,0.3638105776234538,-93.77258345726231,2.0306418,4.8532667,19.641335,12.239593,-14.428588,-5.214211,-8.533095,-10.6158905,-0.98881286,17.564886,-9.524189,10.787206,5.39122,0.17459667,2.8868873,-6.127467,15.424426,-49.143845,73.08402,-0.07740029,-1.4591366,-1.1257032,4.609498,-17.824575,27.76158,55.142044,-12.03574,-1.5730902,-2.9733925
131,0.9913575649261475,-0.07184745371341705,78.01460266113281,1.2217094560956148,0.3454772433575151,-93.74397326479463,2.2161446,5.232974,19.564188,12.148589,-14.394556,-5.57257,-8.201498,-10.260977,-1.1985183,17.274378,-9.516339,10.663768,5.3604054,0.32451642,2.6882656,-5.8855667,15.350303,-49.356873,73.32864,0.11675705,-1.398434,-1.2168106,4.7172685,-17.763952,27.65584,55.120205,-11.978353,-1.5884706,-2.9350288
132,0.7754817605018616,-0.20627887547016144,78.02920532226562,1.0571547520073439,0.3313550235217987,-93.70853368858268,2.3924217,5.6090436,19.485828,12.059217,-14.3594,-5.9091487,-7.87098,-9.90824,-1.4001163,16.97538,-9.506188,10.536303,5.3243995,0.46405125,2.4865305,-5.667021,15.277861,-49.52391,73.56048,0.34493405,-1.3320348,-1.3584062,4.8261504,-17.702906,27.545876,55.105576,-11.936892,-1.6018592,-2.9018383
133,0.5482010245323181,-0.3508510887622833,78.04486846923828,0.8985178202324732,0.3254004090375595,-93.66367698197463,2.5516815,5.9806423,19.4039,11.975288,-14.324046,-6.2147965,-7.5433784,-9.557979,-1.5903848,16.661943,-9.490158,10.404308,5.27559,0.5894915,2.280244,-5.4702687,15.212082,-49.640163,73.779434,0.57497233,-1.2417676,-1.5740014,4.9301314,-17.641586,27.439106,55.101627,-11.918406,-1.6131693,-2.8797395
134,0.30983513593673706,-0.48403051495552063,78.06183624267578,0.7448959640411008,0.3244885233254939,-93.61091935338293,2.704801,6.3508134,19.318502,11.885384,-14.284478,-6.5062556,-7.2142673,-9.206894,-1.7750782,16.334747,-9.471652,10.267879,5.217904,0.7066007,2.069067,-5.2971396,15.148799,-49.73243,73.996994,0.8091966,-1.1342213,-1.8417801,5.030085,-17.574492,27.331104,55.113457,-11.916437,-1.6240745,-2.8666039
135,0.0833054631948471,-0.6182613968849182,78.07465362548828,0.5918870233553611,0.3221136482213581,-93.55490730264748,2.858281,6.719608,19.234064,11.798202,-14.244494,-6.7912936,-6.8823214,-8.856643,-1.9573343,16.005045,-9.454922,10.127975,5.149499,0.82186687,1.8634719,-5.1374793,15.107157,-49.796223,74.1715,1.0942307,-1.0459944,-2.1269047,5.133079,-17.51965,27.229345,55.11877,-11.910147,-1.633018,-2.8489492
136,-0.13710156083106995,-0.7650699019432068,78.0869140625,0.4447547616497688,0.3119213301394834,-93.500311671548,3.0272896,7.084339,19.156078,11.70276,-14.202948,-7.077826,-6.5473537,-8.508626,-2.1404586,15.68747,-9.446104,9.9855175,5.095606,0.9283208,1.6595395,-5.017166,15.067378,-49.866783,74.329956,1.466863,-1.0157068,-2.391097,5.234667,-17.448738,27.110455,55.14488,-11.896322,-1.6406381,-2.8203478
137,-0.3662704825401306,-0.9078302383422852,78.09709167480469,0.2997413742636368,0.2919982194191719,-93.44750444835225,3.2197125,7.4429097,19.088339,11.590692,-14.157176,-7.370002,-6.2043023,-8.164316,-2.3282642,15.379352,-9.445228,9.842999,5.037133,1.0289359,1.4658734,-4.912293,15.046028,-49.938457,74.44296,1.8780853,-1.0360222,-2.6482122,5.3374333,-17.38317,26.990246,55.167248,-11.858877,-1.6463457,-2.763796
138,-0.5973015427589417,-1.058226227760315,78.10433197021484,0.16034677133925718,0.26592272709197845,-93.39413130419939,3.4259272,7.7971196,19.027205,11.470414,-14.109899,-7.662883,-5.8552637,-7.822613,-2.5176706,15.076214,-9.450209,9.699462,4.9711475,1.1274427,1.2817938,-4.816425,15.043001,-49.98629,74.50665,2.3408215,-1.0924858,-2.9098966,5.4473524,-17.333965,26.871264,55.175972,-11.804207,-1.6499745,-2.6868892
139,-0.8262473940849304,-1.1982966661453247,78.10906982421875,0.021815655339526615,0.23502894411379768,-93.34137651507241,3.6361778,8.150835,18.967857,11.352763,-14.063172,-7.951033,-5.508712,-7.48031,-2.7027612,14.786478,-9.462794,9.55023,4.9248033,1.2176657,1.0994616,-4.774364,15.063946,-50.059258,74.54129,2.9145272,-1.2126055,-3.1368687,5.5567813,-17.262878,26.733177,55.20732,-11.756521,-1.6519481,-2.6183918
140,-1.0699869394302368,-1.3495867252349854,78.11711120605469,-0.11635026356739502,0.20086835262897274,-93.29010440390253,3.8361986,8.509512,18.90462,11.259119,-14.025713,-8.228901,-5.174014,-7.133505,-2.8774326,14.520515,-9.4859705,9.390873,4.881888,1.3183788,0.9215031,-4.790912,15.12093,-50.121315,74.52185,3.7003381,-1.4234165,-3.2885854,5.6645985,-17.198952,26.610102,55.249012,-11.712653,-1.6492196,-2.5805695
141,-1.318209171295166,-1.4976699352264404,78.12057495117188,-0.2557612893731531,0.16255157053263214,-93.24702981065793,4.0279865,8.874243,18.84018,11.190445,-13.998553,-8.487786,-4.850592,-6.77967,-3.0334444,14.277346,-9.519392,9.220462,4.8517566,1.4352804,0.7470172,-4.860488,15.221046,-50.21995,74.43898,4.8017225,-1.7447138,-3.3544574,5.773752,-17.14122,26.49747,55.301445,-11.674151,-1.6366535,-2.5886476
142,-1.55129075050354,-1.6381468772888184,78.12271881103516,-0.39616277097662256,0.11958362478950779,-93.20955809107186,4.2149787,9.243064,18.775642,11.141809,-13.980066,-8.733127,-4.535246,-6.4215455,-3.1761315,14.055536,-9.563654,9.041678,4.8311844,1.5607033,0.578686,-4.9748225,15.366976,-50.34708,74.29051,6.141081,-2.1556811,-3.3501246,5.8849025,-17.088873,26.389788,55.359745,-11.637601,-1.6168427,-2.626307
143,-1.78476083278656,-1.767236351966858,78.11886596679688,-0.5333901910913194,0.07443511630297453,-93.16458636343474,4.3934307,9.614241,18.70462,11.106293,-13.963737,-8.980638,-4.224666,-6.0632644,-3.3206503,13.847311,-9.61554,8.855139,4.8141413,1.6837585,0.4219224,-5.1560645,15.563786,-50.43409,74.07828,7.5254126,-2.6205041,-3.2762694,5.9992356,-17.040648,26.284966,55.41518,-11.60483,-1.6005871,-2.6693366
144,-2.028632640838623,-1.9109382629394531,78.11245727539062,-0.6690351540145223,0.02956984645928522,-93.0992345167175,4.556176,9.987624,18.619967,11.083919,-13.946749,-9.246266,-3.9247856,-5.709746,-3.4812682,13.664668,-9.677474,8.661282,4.7920427,1.7932509,0.28167066,-5.4260454,15.819384,-50.419037,73.80372,8.753356,-3.1039596,-3.1377466,6.115321,-16.995657,26.184313,55.46082,-11.576486,-1.5984147,-2.6935928
145,-2.283996820449829,-2.0417332649230957,78.10462951660156,-0.798465253660915,-0.01263141933475701,-93.01119328680541,4.7025743,10.364003,18.524014,11.07051,-13.925446,-9.539497,-3.6366599,-5.3607783,-3.6597693,13.507283,-9.749277,8.458226,4.7621765,1.8796383,0.15682815,-5.7725487,16.143103,-50.28042,73.48157,9.88718,-3.6398656,-2.9514866,6.2325783,-16.952356,26.094334,55.495255,-11.545598,-1.618208,-2.693046
146,-2.5254974365234375,-2.1534316539764404,78.10053253173828,-0.9263445765528958,-0.05389082683099896,-92.90693229703454,4.835373,10.743636,18.418947,11.068601,-13.903297,-9.850022,-3.3583195,-5.014078,-3.8494546,13.3734455,-9.83136,8.246506,4.7235303,1.9508686,0.046385825,-6.194516,16.541277,-50.084625,73.10359,10.962441,-4.2308307,-2.7090507,6.3482347,-16.910019,26.018312,55.52339,-11.513728,-1.6524907,-2.6807399
147,-2.785550594329834,-2.2960078716278076,78.09410858154297,-1.0536668701306187,-0.0977057342223365,-92.78642422824716,4.9556627,11.123518,18.297537,11.080418,-13.882729,-10.164351,-3.082395,-4.6717186,-4.051735,13.252078,-9.92115,8.030513,4.687552,2.0205002,-0.048920985,-6.6632943,17.012938,-49.734005,72.590294,11.93097,-4.788556,-2.3858993,6.4649253,-16.870161,25.9367,55.5498,-11.493237,-1.6892864,-2.6610267
148,-3.043668508529663,-2.423964262008667,78.08464050292969,-1.1793232824139983,-0.1473729438452055,-92.64914520152533,5.0651956,11.499735,18.152718,11.107733,-13.866746,-10.468224,-2.8026588,-4.335431,-4.2679996,13.133337,-10.016256,7.814496,4.6618323,2.1032932,-0.12985168,-7.144904,17.554583,-49.124527,71.8625,12.746289,-5.225953,-1.9616582,6.581846,-16.83849,25.836136,55.583046,-11.493897,-1.7165282,-2.638708
149,-3.297664165496826,-2.5460426807403564,78.07499694824219,-1.3044476896852903,-0.20430121426938574,-92.4951960282601,5.1705627,11.868217,17.979683,11.139837,-13.853034,-10.757518,-2.5182571,-4.0066056,-4.4992185,13.016895,-10.118516,7.600833,4.6289067,2.2101004,-0.18831542,-7.7538095,18.171095,-48.478004,71.00912,13.08489,-5.525265,-1.4195957,6.688275,-16.822363,25.724522,55.622505,-11.510457,-1.7328444,-2.6051269
150,-3.536158800125122,-2.6436331272125244,78.06095123291016,-1.4277840030821711,-0.26644787633616307,-92.32463486752282,5.2683744,12.2317505,17.783068,11.179738,-13.841238,-11.039793,-2.233085,-3.6839192,-4.7443814,12.9078865,-10.228455,7.3867555,4.6163874,2.3318262,-0.23580664,-8.365142,18.860777,-47.564697,69.96529,13.314257,-5.72582,-0.7834443,6.812257,-16.820261,25.577684,55.65453,-11.544962,-1.7442846,-2.558918
151,-3.7690770626068115,-2.7549333572387695,78.0455093383789,-1.55397513211849,-0.33206098852366733,-92.13751198433825,5.3442993,12.59958,17.56913,11.252175,-13.838319,-11.319497,-1.9460593,-3.3627262,-5.0023494,12.801318,-10.34041,7.1684394,4.5998025,2.4639137,-0.26860133,-9.031312,19.62571,-46.533916,68.74596,13.3442335,-5.864888,-0.08942326,6.930652,-16.834152,25.44422,55.687588,-11.593927,-1.7476876,-2.5208695
152,-4.028798580169678,-2.878206253051758,78.02555847167969,-1.6804982011203533,-0.39916471054580377,-91.93345643760064,5.3837194,12.9804325,17.344088,11.382792,-13.851521,-11.600853,-1.6537688,-3.0382001,-5.272277,12.688521,-10.447089,6.942283,4.593844,2.5984168,-0.29902285,-9.635238,20.46176,-45.238335,67.24079,13.435081,-5.9661493,0.62623453,7.053387,-16.86043,25.330479,55.722847,-11.663013,-1.740539,-2.5092542
153,-4.28329610824585,-2.9824986457824707,78.00495147705078,-1.8141687844546661,-0.46952957209969476,-91.70534962781495,5.3805346,13.384028,17.107054,11.586619,-13.88615,-11.891449,-1.3476044,-2.7038643,-5.561473,12.561524,-10.54368,6.703277,4.5741625,2.7402308,-0.318252,-10.289163,21.375793,-43.832996,65.531006,13.33105,-6.059138,1.3767354,7.166428,-16.899992,25.26065,55.763462,-11.76563,-1.7134029,-2.5391572
154,-4.525662422180176,-3.0774641036987305,77.98555755615234,-1.951796649002865,-0.5431733012527696,-91.45551782488437,5.344754,13.802224,16.855474,11.845345,-13.936961,-12.187225,-1.0315572,-2.3631911,-5.8676972,12.425431,-10.634399,6.4546385,4.5593963,2.8909423,-0.3330557,-10.9364,22.371183,-42.23906,63.588936,13.114052,-6.121087,2.168736,7.281294,-16.95136,25.208939,55.809704,-11.895543,-1.670632,-2.5966098
155,-4.778156757354736,-3.175051212310791,77.96493530273438,-2.08562501647563,-0.6157505236718157,-91.19843030834299,5.2882795,14.216798,16.593483,12.1292515,-13.992754,-12.4755945,-0.7214057,-2.0270014,-6.176312,12.291459,-10.725397,6.2052464,4.54421,3.043084,-0.3417797,-11.5719595,23.442846,-40.53556,61.42772,12.853466,-6.1299887,2.9609404,7.38487,-17.016935,25.184452,55.864918,-12.023475,-1.6290063,-2.6620796
156,-5.034862518310547,-3.278029441833496,77.94440460205078,-2.208757543010489,-0.6830968379327524,-90.94854906719937,5.224391,14.609227,16.325653,12.4047785,-14.039865,-12.743099,-0.4332258,-1.7067033,-6.4728165,12.1719,-10.8231945,5.9638557,4.525642,3.1885943,-0.34038866,-12.222969,24.574112,-38.823467,59.08583,12.596331,-6.061491,3.7135904,7.4615493,-17.101072,25.196064,55.93207,-12.117263,-1.605855,-2.7157629
157,-5.273555755615234,-3.365743637084961,77.92456817626953,-2.3144842672474213,-0.7431395338769291,-90.70984354053937,5.1466684,14.971822,16.04786,12.67692,-14.077802,-12.985557,-0.1808856,-1.409976,-6.749708,12.08293,-10.936507,5.733339,4.5142775,3.323859,-0.33169055,-12.888777,25.747177,-37.081924,56.552856,12.324485,-5.8941627,4.427001,7.5093837,-17.207348,25.251064,56.01489,-12.157435,-1.6117809,-2.7499108
158,-5.496004581451416,-3.4419667720794678,77.90219116210938,-2.408127420775936,-0.798700686843723,-90.47456543317496,5.0548797,15.314073,15.76029,12.950753,-14.107992,-13.210346,0.048353612,-1.12942,-7.0166163,12.012177,-11.058585,5.5087714,4.5145917,3.4566944,-0.32285127,-13.563867,26.956285,-35.281067,53.837345,12.014508,-5.6467786,5.11979,7.5418115,-17.337074,25.338516,56.112156,-12.1636715,-1.6356652,-2.7755225
159,-5.7362260818481445,-3.515916585922241,77.8805923461914,-2.4989783799117116,-0.8529411658695766,-90.23991032777634,4.9537706,15.649673,15.46932,13.232655,-14.141596,-13.421743,0.27343646,-0.85411906,-7.284166,11.939721,-11.178311,5.2873573,4.5163136,3.5962212,-0.3153644,-14.264761,28.198536,-33.49081,50.999348,11.72546,-5.3511524,5.780862,7.574658,-17.486721,25.433218,56.209923,-12.167451,-1.6614861,-2.7997098
160,-5.9783101081848145,-3.605010747909546,77.85813903808594,-2.594792817272165,-0.9090566520224265,-90.00306923323089,4.852439,15.990333,15.182668,13.51975,-14.184793,-13.623711,0.5123692,-0.5731948,-7.5625577,11.847273,-11.285143,5.0663567,4.5150747,3.7486663,-0.31219146,-15.012591,29.47103,-31.787678,48.098392,11.5208025,-5.0378604,6.399381,7.6226597,-17.648998,25.50636,56.29936,-12.199205,-1.6736251,-2.8302133
161,-6.208737850189209,-3.6898598670959473,77.8288803100586,-2.7006893918930492,-0.9707456667331233,-89.76131226134389,4.7566924,16.343393,14.9019165,13.812367,-14.240783,-13.813758,0.77772474,-0.28097767,-7.8605204,11.723729,-11.374118,4.843462,4.5161667,3.9172344,-0.32077676,-15.820944,30.771738,-30.205454,45.132107,11.424222,-4.7152376,6.9665008,7.6975594,-17.816597,25.54554,56.38404,-12.276192,-1.6686902,-2.871688
162,-6.4467363357543945,-3.7831854820251465,77.80471801757812,-2.811171737456381,-1.035250906121666,-89.5168088896741,4.6614065,16.700237,14.623482,14.11045,-14.305218,-13.990785,1.0569453,0.016020259,-8.170139,11.581556,-11.452007,4.6207075,4.527985,4.0948257,-0.3432511,-16.694065,32.09653,-28.715141,42.088844,11.39649,-4.363562,7.491131,7.791275,-17.98675,25.560139,56.47412,-12.381574,-1.6549748,-2.9199939
163,-6.681007385253906,-3.869140148162842,77.77806091308594,-2.919613057337627,-1.0964120665741555,-89.27407676008008,4.560817,17.050274,14.347448,14.4068365,-14.369894,-14.161458,1.332076,0.3098235,-8.477557,11.434474,-11.524067,4.402109,4.5500546,4.2745705,-0.37627733,-17.636099,33.440968,-27.300083,39.00769,11.40653,-3.972404,7.9898114,7.892128,-18.159197,25.553286,56.56895,-12.496876,-1.634213,-2.9695451
164,-6.88716459274292,-3.9484899044036865,77.7555160522461,-3.0183635115666676,-1.1482339353035804,-89.03770372363816,4.4498324,17.382502,14.074182,14.692719,-14.426127,-14.331999,1.5863487,0.59254843,-8.768873,11.293471,-11.593871,4.191547,4.5830483,4.450082,-0.41704264,-18.65154,34.800438,-25.945728,35.928486,11.420587,-3.5323534,8.480156,7.9915504,-18.33498,25.52608,56.66524,-12.603882,-1.6081018,-3.0142188
165,-7.10392427444458,-4.015239238739014,77.72602844238281,-3.1101606011080163,-1.1880897203477776,-88.80796427368662,4.3238115,17.698328,13.801545,14.967534,-14.477242,-14.510378,1.8132262,0.8648704,-9.044012,11.163586,-11.662471,3.9910617,4.6314497,4.627219,-0.46852806,-19.763113,36.173264,-24.673906,32.838646,11.465551,-3.015979,8.996082,8.089296,-18.516628,25.475534,56.76639,-12.69593,-1.573078,-3.0523143
166,-7.316185474395752,-4.101873397827148,77.701171875,-3.195199131082989,-1.2198434387276877,-88.58281862914042,4.1905947,18.001162,13.531396,15.22654,-14.523751,-14.690968,2.0233684,1.1297647,-9.309483,11.036759,-11.726857,3.7982137,4.698235,4.808596,-0.53586507,-20.975294,37.56119,-23.499619,29.728762,11.539533,-2.4363456,9.520497,8.196499,-18.704535,25.396929,56.87121,-12.784566,-1.5292852,-3.0865424
167,-7.523913860321045,-4.17582893371582,77.68222045898438,-3.2708772932479824,-1.2467478076095728,-88.36338768506884,4.047415,18.2873,13.265178,15.489337,-14.562573,-14.860131,2.2199168,1.3817627,-9.561776,10.916077,-11.791233,3.6099994,4.771395,4.97752,-0.60940456,-22.256193,38.953026,-22.366297,26.642105,11.594033,-1.8444794,9.994417,8.304591,-18.894787,25.305437,56.972694,-12.871064,-1.4851925,-3.1175287
168,-7.7327117919921875,-4.245433330535889,77.65740966796875,-3.3328538031466253,-1.2722414232630046,-88.15085622178137,3.89486,18.551529,13.004828,15.768591,-14.588414,-15.000033,2.4062889,1.6155205,-9.797592,10.805045,-11.860109,3.4235523,4.8474917,5.124503,-0.68972546,-23.593885,40.349228,-21.250216,23.640156,11.548277,-1.2953532,10.362283,8.410625,-19.085577,25.209766,57.072876,-12.957728,-1.4484398,-3.1478703
169,-7.926032066345215,-4.315596580505371,77.64175415039062,-3.375005774197225,-1.2937881398287863,-87.9433372934303,3.7262628,18.77468,12.74108,16.062838,-14.591493,-15.000033,2.5780427,1.8260461,-10.01407,10.705567,-11.93598,3.2367232,4.9056053,5.23639,-0.7654408,-24.969282,41.725964,-20.094587,20.689426,11.498872,-0.7538752,10.605073,8.498196,-19.272324,25.128538,57.169167,-13.0487585,-1.4221561,-3.174095
170,-8.1235933303833,-4.383632659912109,77.62615966796875,-3.4016764239146045,-1.3097745517097825,-87.73816366126681,3.5456188,18.972036,12.481864,16.362942,-14.573992,-15.000033,2.7306814,2.012372,-10.216518,10.624331,-12.020842,3.052226,5.002466,5.3463893,-0.8833458,-26.528418,43.150986,-19.089188,17.857014,11.297542,-0.21789277,10.76051,8.609313,-19.467249,25.014336,57.283066,-13.141518,-1.3996137,-3.2024846
171,-8.324986457824707,-4.4519829750061035,77.60934448242188,-3.4114111920823973,-1.3255710729496473,-87.53881988041546,3.361769,19.149366,12.229098,16.669815,-14.550716,-15.000033,2.8656132,2.1758819,-10.410743,10.574866,-12.119191,2.8747344,5.0184937,5.389587,-0.94495493,-27.969748,44.49264,-17.897232,15.019651,11.177334,0.24953918,10.846936,8.663542,-19.643871,24.95556,57.368027,-13.227908,-1.3837609,-3.2226682
172,-8.509598731994629,-4.519147872924805,77.59221649169922,-3.419000524629543,-1.349559041065647,-87.35261349036882,3.1840088,19.324785,11.98703,16.993805,-14.542264,-15.000033,3.0067492,2.332134,-10.598917,10.527815,-12.212461,2.707711,5.055308,5.446313,-1.0205067,-29.513351,45.817295,-16.778082,12.40825,10.779618,0.54443365,10.888065,8.720937,-19.819239,24.87751,57.468628,-13.304216,-1.3669516,-3.2566226
173,-8.706042289733887,-4.591440677642822,77.57526397705078,-3.4246617852161525,-1.384941833288939,-87.17989524441735,3.0106907,19.502281,11.7558975,17.348701,-14.561061,-15.000033,3.157047,2.4803123,-10.785561,10.486699,-12.300567,2.553438,5.090027,5.4868197,-1.0848895,-31.138224,47.114643,-15.676556,9.983645,10.116817,0.6362053,10.866674,8.777503,-19.985794,24.791039,57.558212,-13.373355,-1.3503941,-3.2994244
174,-8.878174781799316,-4.659482955932617,77.56087493896484,-3.424996004325052,-1.4280796551101573,-87.01910488194427,2.8390386,19.677166,11.534985,17.72761,-14.594908,-15.000033,3.3118346,2.6191602,-10.966917,10.450804,-12.384927,2.408757,5.1177616,5.510281,-1.1417036,-32.855553,48.3785,-14.596977,7.725927,9.25941,0.57567173,10.779451,8.823766,-20.14262,24.703808,57.647236,-13.437587,-1.3354044,-3.3492868
175,-9.050832748413086,-4.726446628570557,77.54912567138672,-3.4209108807793114,-1.474233289148086,-86.87039432924041,2.6728096,19.843723,11.323053,18.108114,-14.626417,-15.000033,3.4647975,2.7510102,-11.136098,10.416785,-12.466456,2.2702541,5.133928,5.521562,-1.1893107,-34.642635,49.59821,-13.555077,5.6782584,8.277184,0.4099848,10.678155,8.851358,-20.29064,24.626595,57.734432,-13.485349,-1.3231382,-3.4006503
176,-9.215017318725586,-4.778280735015869,77.53669738769531,-3.413999228014324,-1.518653593361647,-86.73400805106715,2.5150414,19.996094,11.119043,18.469591,-14.638918,-15.000033,3.6099837,2.877458,-11.286132,10.381433,-12.546449,2.1347709,5.138146,5.5277457,-1.227676,-36.484875,50.763283,-12.57309,3.8904994,7.236259,0.18472038,10.614762,8.854915,-20.43233,24.567606,57.81804,-13.503722,-1.314767,-3.448233
177,-9.377340316772461,-4.841729164123535,77.5192642211914,-3.402486254418606,-1.5622704747506708,-86.61120008242081,2.3718052,20.131535,10.924094,18.802065,-14.62344,-15.000033,3.7492054,2.9993746,-11.413272,10.3405,-12.623458,1.9990135,5.135177,5.5322967,-1.2528225,-38.417194,51.86469,-11.663143,2.4005668,6.147247,-0.12260138,10.596213,8.832386,-20.57217,24.524506,57.89669,-13.480608,-1.3116503,-3.4903502
178,-9.529236793518066,-4.904496669769287,77.50337982177734,-3.3874662662569786,-1.6070526605988142,-86.50143234811237,2.2427483,20.253109,10.739823,19.11185,-14.589273,-15.000033,3.8849564,3.11561,-11.522096,10.296105,-12.696988,1.865494,5.127501,5.534995,-1.267321,-40.46462,52.898067,-10.832737,1.1882592,4.983096,-0.5255362,10.592535,8.792077,-20.711132,24.490831,57.967922,-13.425339,-1.3125752,-3.5297782
179,-9.680153846740723,-4.960822582244873,77.4956283569336,-3.369014692511904,-1.6494141257608472,-86.40239484106753,2.1092033,20.366524,10.561714,19.429165,-14.554425,-15.000033,4.011919,3.2243645,-11.617647,10.255357,-12.769634,1.739569,5.1111336,5.533878,-1.2795517,-42.599712,53.86325,-10.097212,0.22328661,3.7538035,-0.97233844,10.60224,8.737573,-20.84758,24.4699,58.033875,-13.356572,-1.3152511,-3.5690026
180,-9.826790809631348,-5.014841079711914,77.49063873291016,-3.3472660852563,-1.6857415990771436,-86.31208325097339,1.9592452,20.475758,10.387437,19.770407,-14.533068,-15.000033,4.1252174,3.323815,-11.705109,10.2237835,-12.842997,1.6266593,5.0807433,5.525185,-1.2976755,-44.78605,54.762707,-9.466201,-0.5310312,2.4696555,-1.4104506,10.625913,8.671531,-20.978321,24.464275,58.098072,-13.295574,-1.3172579,-3.6107943
181,-9.954401969909668,-5.060314655303955,77.48640441894531,-3.319604150449526,-1.712732881580151,-86.23243166175223,1.7926915,20.578436,10.223573,20.13043,-14.529716,-15.000033,4.2210517,3.4099398,-11.780529,10.202523,-12.918304,1.5342059,5.0334196,5.503989,-1.3236008,-47.03283,55.60026,-8.94538,-1.064192,1.0985209,-1.8186812,10.664793,8.587279,-21.100838,24.47945,58.16539,-13.244547,-1.3185627,-3.6610005
182,-10.093645095825195,-5.113616466522217,77.47735595703125,-3.2881080501941002,-1.7329278396210714,-86.1636834603492,1.6111808,20.674423,10.067363,20.510794,-14.537721,-15.000033,4.3027706,3.4849985,-11.84323,10.188607,-12.994389,1.4572611,4.970934,5.472619,-1.3510891,-49.357105,56.37708,-8.530317,-1.368645,-0.35317522,-2.2284446,10.714863,8.481048,-21.214964,24.514204,58.235596,-13.193682,-1.3203204,-3.7174187
183,-10.217220306396484,-5.154999256134033,77.46722412109375,-3.255378611761393,-1.7518979027914392,-86.10126225994766,1.4212643,20.767237,9.908036,20.905313,-14.548018,-15.000033,4.3771963,3.5557787,-11.902499,10.181243,-13.068999,1.3831002,4.893999,5.4386954,-1.3733156,-51.724308,57.090534,-8.204007,-1.4913833,-1.8176147,-2.6662195,10.769884,8.360194,-21.31956,24.56204,58.301323,-13.144956,-1.3218609,-3.7704697
184,-10.338505744934082,-5.198164463043213,77.44770812988281,-3.228939209911653,-1.7751764964123111,-86.04010340229985,1.2254895,20.860893,9.733354,21.315449,-14.554285,-15.000033,4.4517827,3.62928,-11.968032,10.176793,-13.138163,1.2988087,4.8038034,5.410551,-1.3836323,-54.09634,57.7359,-7.9452033,-1.4798989,-3.226198,-3.1580114,10.82313,8.2271185,-21.414728,24.620504,58.359955,-13.095715,-1.3225144,-3.8111715
185,-10.459898948669434,-5.239599227905273,77.4344482421875,-3.2082852256574577,-1.805772309901545,-85.98071842874059,1.0281832,20.95336,9.543419,21.741322,-14.549038,-15.000033,4.5266643,3.7047763,-12.0439625,10.182872,-13.202689,1.1986737,4.6964602,5.3901253,-1.375898,-56.46081,58.307457,-7.731001,-1.3458016,-4.54977,-3.7099204,10.865892,8.076473,-21.501072,24.692673,58.412445,-13.047135,-1.3199368,-3.8375793
186,-10.575860023498535,-5.27871036529541,77.42648315429688,-3.190494261888678,-1.8400990701901954,-85.9251240180573,0.82695967,21.04269,9.343774,22.18166,-14.537276,-15.000033,4.59828,3.7791939,-12.124323,10.197881,-13.263483,1.0900843,4.5722075,5.3765078,-1.3527638,-58.82412,58.804462,-7.558718,-1.0739297,-5.825634,-4.3081236,10.899268,7.908488,-21.580158,24.776487,58.458294,-13.001923,-1.3149871,-3.855356
187,-10.680571556091309,-5.317775726318359,77.41889190673828,-3.1781948879953226,-1.8736534214945642,-85.8707897809443,0.6147761,21.133358,9.13084,22.635077,-14.530998,-15.000033,4.6686306,3.8564224,-12.204457,10.208114,-13.31944,0.9808717,4.4387364,5.3724756,-1.3199607,-61.181683,59.230988,-7.442482,-0.6674255,-7.088568,-4.948872,10.932067,7.7329535,-21.654343,24.8647,58.4934,-12.957005,-1.3116902,-3.866757
188,-10.784272193908691,-5.3567728996276855,77.40868377685547,-3.1722321340296644,-1.9017889593577493,-85.8153911851004,0.3853573,21.229883,8.901122,23.09898,-14.541267,-15.000033,4.739498,3.9405532,-12.27869,10.198766,-13.368448,0.8779705,4.302152,5.379638,-1.2832012,-63.53109,59.592804,-7.400209,-0.12853716,-8.375087,-5.628646,10.973032,7.5598903,-21.72601,24.95089,58.51263,-12.909424,-1.3141901,-3.8735955
189,-10.891905784606934,-5.383543968200684,77.3968505859375,-3.1763595157217552,-1.9212972973286293,-85.75872351209757,0.13164207,21.338467,8.654461,23.579897,-14.573994,-15.000033,4.809008,4.0357614,-12.344962,10.166028,-13.412574,0.78181803,4.1563506,5.3998294,-1.2422754,-65.87011,59.887764,-7.424743,0.537829,-9.714427,-6.370622,11.012392,7.3901916,-21.795498,25.03166,58.50789,-12.865997,-1.3230367,-3.8690155
190,-10.988533020019531,-5.405083656311035,77.38090515136719,-3.188540012921743,-1.9352736557874428,-85.70202679806332,-0.14110379,21.454638,8.392169,24.076136,-14.6216755,-15.000033,4.877842,4.138904,-12.406214,10.115991,-13.4508705,0.68906546,3.998801,5.431813,-1.1928409,-68.19771,60.112587,-7.504017,1.3335935,-11.083505,-7.1683607,11.045111,7.2164145,-21.863298,25.113937,58.483894,-12.823896,-1.3361751,-3.8544261
191,-11.078250885009766,-5.43534517288208,77.37060546875,-3.2045586394387184,-1.9482378293584048,-85.6449514468774,-0.42110085,21.566694,8.11272,24.57362,-14.6762295,-15.000033,4.9472585,4.2423854,-12.464592,10.057482,-13.482338,0.60141325,3.8395278,5.472363,-1.134017,-70.509926,60.274113,-7.6473866,2.2642708,-12.441353,-7.974817,11.090245,7.044927,-21.929857,25.199644,58.446445,-12.774739,-1.3538324,-3.842795
192,-11.162003517150879,-5.4665045738220215,77.35736083984375,-3.216323270809225,-1.9649185192908283,-85.58764289078302,-0.6968249,21.663078,7.814712,25.058294,-14.72935,-15.000033,5.017972,4.338423,-12.52253,10.001275,-13.50709,0.52048296,3.687256,5.514894,-1.0655471,-72.807274,60.385803,-7.8696146,3.3381042,-13.749333,-8.743911,11.1713505,6.8803277,-21.995665,25.29325,58.40303,-12.708606,-1.3764977,-3.8464715
193,-11.243831634521484,-5.488283634185791,77.34761047363281,-3.2258227289427746,-1.9882581355287638,-85.5285249468133,-0.9676432,21.73883,7.4903836,25.540552,-14.775563,-15.000033,5.0907993,4.425759,-12.580295,9.950926,-13.523477,0.4469631,3.532898,5.556976,-0.9820889,-75.07761,60.454575,-8.163516,4.556557,-15.066099,-9.516813,11.275361,6.716863,-22.059597,25.409018,58.354557,-12.608037,-1.409017,-3.8758855
194,-11.328263282775879,-5.510737419128418,77.33631134033203,-3.2345276426338554,-2.0152403635150566,-85.46821271933212,-1.2397121,21.80043,7.1426888,26.024817,-14.821159,-15.000033,5.163664,4.5078726,-12.636877,9.904067,-13.534255,0.3798434,3.369982,5.6005864,-0.8839448,-77.312614,60.481834,-8.513114,5.910249,-16.394335,-10.301219,11.396373,6.5501585,-22.120312,25.54599,58.298878,-12.482894,-1.4497776,-3.92171
195,-11.401885032653809,-5.527119159698486,77.32278442382812,-3.2409685529164296,-2.041232351901289,-85.40941182410869,-1.5086819,21.853247,6.7874465,26.482815,-14.872656,-15.000033,5.2382264,4.5852737,-12.692441,9.848604,-13.536722,0.31838867,3.2110364,5.6436753,-0.7794265,-79.51822,60.47493,-8.92161,7.3899474,-17.608887,-11.002516,11.5765295,6.387151,-22.177967,25.684086,58.237427,-12.36449,-1.4892784,-3.966441
196,-11.468633651733398,-5.543852806091309,77.31450653076172,-3.227379881398521,-2.05761099553971,-85.34353987770118,-1.7748122,21.86206,6.4340186,26.873638,-14.928078,-14.863795,5.282603,4.6262817,-12.758745,9.840089,-13.56454,0.26855135,3.0573835,5.6673536,-0.67899066,-81.701485,60.443962,-9.3949,8.986549,-18.58372,-11.52734,11.866335,6.2367887,-22.232393,25.803759,58.16941,-12.284038,-1.5184122,-3.9917908
197,-11.533435821533203,-5.560236930847168,77.30554962158203,-3.1999287794969122,-2.0647699176749352,-85.27444380074454,-2.049516,21.842955,6.066184,27.23168,-14.999061,-14.612393,5.3118324,4.645584,-12.837675,9.847161,-13.603502,0.23026906,2.9109638,5.678424,-0.5819688,-83.87139,60.396492,-9.944881,10.744543,-19.22324,-11.861388,12.312768,6.1000695,-22.28274,25.899857,58.089375,-12.256935,-1.5339246,-3.9846923
198,-11.59971809387207,-5.573411464691162,77.3031005859375,-3.1640288328462383,-2.065728337738282,-85.20314915727458,-2.3294415,21.802547,5.6844983,27.562788,-15.080868,-14.292293,5.3312225,4.6485143,-12.924974,9.863621,-13.647842,0.20171022,2.765475,5.6785884,-0.4841559,-86.015526,60.333477,-10.560705,12.649499,-19.617737,-12.050996,12.888818,5.9698033,-22.327827,25.987152,58.000706,-12.263237,-1.5410526,-3.95683
199,-11.658226013183594,-5.595475196838379,77.29898834228516,-3.12151177319779,-2.0633966106535016,-85.13519734457135,-2.5880117,21.753042,5.3329344,27.808039,-15.163108,-13.9634075,5.3424377,4.6399894,-13.005191,9.886468,-13.691949,0.1754714,2.6272984,5.6695566,-0.38666177,-88.10816,60.255276,-11.211769,14.604156,-19.921165,-12.094014,13.53388,5.845395,-22.366716,26.07304,57.91291,-12.283733,-1.54302,-3.9276972
200,-11.716158866882324,-5.603654861450195,77.30291748046875,-3.0738142490381803,-2.060283729116104,-85.07622459123507,-2.7992985,21.706951,5.055033,27.909607,-15.237323,-13.685153,5.346731,4.6245227,-13.0631275,9.913621,-13.731243,0.14435431,2.5027714,5.6544447,-0.29019383,-90.11918,60.162544,-11.862245,16.50967,-20.287632,-11.989691,14.184949,5.7262435,-22.398615,26.164742,57.8343,-12.299451,-1.5429362,-3.9167461
201,-11.776506423950195,-5.6166486740112305,77.30807495117188,-3.0227004518940856,-2.0574209151009497,-85.02501106748318,-2.9541447,21.66613,4.851179,27.835434,-15.308921,-13.464308,5.3422623,4.604804,-13.090708,9.948834,-13.764069,0.103806295,2.3919117,5.64064,-0.19079758,-92.05254,60.059074,-12.525511,18.466116,-20.712475,-11.720411,14.794848,5.607371,-22.425476,26.269123,57.770706,-12.305855,-1.5387657,-3.9339406
202,-11.82640266418457,-5.628140449523926,77.31903839111328,-2.966918966875546,-2.0533555072438388,-84.97957445317378,-3.0677147,21.625505,4.701393,27.623196,-15.381628,-13.271097,5.3291893,4.577706,-13.097199,9.991808,-13.793373,0.05860565,2.2899265,5.6248364,-0.08938554,-93.9136,59.94734,-13.20664,20.480827,-21.133392,-11.29223,15.408997,5.489931,-22.447641,26.381947,57.716187,-12.313514,-1.5297709,-3.967155
203,-11.869112014770508,-5.646807670593262,77.33074188232422,-2.904845871244613,-2.04674279751726,-84.94395883349694,-3.1510997,21.588512,4.6184683,27.319162,-15.444706,-13.111084,5.308958,4.538832,-13.094177,10.039221,-13.82254,0.015406953,2.1977763,5.5967426,0.0070614307,-95.66925,59.825844,-13.849503,22.313358,-21.616426,-10.743894,16.101963,5.379494,-22.462273,26.495506,57.665596,-12.322258,-1.5207211,-4.0037627
204,-11.905399322509766,-5.657286167144775,77.34437561035156,-2.83054963491897,-2.036457075798469,-84.92245835096136,-3.214226,21.557417,4.6159163,26.967346,-15.485899,-12.989972,5.2818236,4.483341,-13.092844,10.090497,-13.857419,-0.019103961,2.1192029,5.54887,0.09129918,-97.27193,59.693188,-14.382494,23.714996,-22.22602,-10.117039,16.946901,5.281034,-22.466162,26.59908,57.61625,-12.333312,-1.5162886,-4.032294
205,-11.939998626708984,-5.67625617980957,77.35636901855469,-2.7393311290022253,-2.026180910102769,-84.9147584809097,-3.241102,21.533253,4.7179403,26.54707,-15.520113,-12.923826,5.2513285,4.403592,-13.098661,10.149432,-13.905221,-0.043246765,2.0556042,5.478234,0.16175397,-98.66875,59.547737,-14.778792,24.626842,-23.043709,-9.296624,18.10666,5.194244,-22.459623,26.693447,57.57456,-12.355309,-1.5171835,-4.052871
206,-11.972408294677734,-5.688710689544678,77.37020111083984,-2.6344265076758346,-2.0151968518184584,-84.91921372338483,-3.2316034,21.513245,4.911561,26.04339,-15.546881,-12.9063635,5.218389,4.304992,-13.104523,10.210256,-13.958399,-0.06061303,2.009457,5.3926067,0.22160059,-99.88237,59.39321,-15.0597925,25.170818,-24.023048,-8.315659,19.500582,5.118206,-22.444733,26.77872,57.54051,-12.385299,-1.5209816,-4.07158
207,-12.001258850097656,-5.697125434875488,77.38532257080078,-2.528294706791505,-1.9952905578099978,-84.93737815245964,-3.2181578,21.49324,5.1552854,25.50739,-15.530285,-12.909575,5.172686,4.199944,-13.103463,10.27281,-14.008434,-0.07209863,1.98427,5.2983217,0.27081108,-100.98384,59.23988,-15.231838,25.372154,-25.025055,-7.431445,20.831408,5.056844,-22.42144,26.8449,57.50274,-12.407297,-1.5276048,-4.085686
208,-12.03507137298584,-5.704902172088623,77.40545654296875,-2.4299924174768868,-1.9585320294486435,-84.97084560981608,-3.2352667,21.471174,5.4063325,24.994205,-15.4367695,-12.904019,5.107281,4.102017,-13.088079,10.330407,-14.042866,-0.07874885,1.9809848,5.2024336,0.30966017,-102.03849,59.102142,-15.298218,25.249731,-25.894085,-6.8848934,21.792131,5.008143,-22.390404,26.885399,57.455555,-12.404641,-1.5370445,-4.093229
209,-12.06019115447998,-5.710876941680908,77.42675018310547,-2.337128979477786,-1.9002396745425199,-85.01947303646433,-3.2951145,21.451216,5.6843066,24.520294,-15.289828,-12.86422,5.0146995,4.0080357,-13.061151,10.387735,-14.061104,-0.07821216,2.0000749,5.0953894,0.33695105,-103.04512,58.995907,-15.239253,24.710562,-26.603323,-6.7146463,22.319834,4.970921,-22.350616,26.901217,57.38975,-12.360022,-1.549931,-4.08557
210,-12.077350616455078,-5.718174457550049,77.45246124267578,-2.2485379860924475,-1.8255767135942111,-85.08225802964265,-3.3794482,21.433159,6.0015364,24.058332,-15.098026,-12.811427,4.901122,3.9134688,-13.024773,10.445181,-14.068249,-0.07089772,2.016324,4.982466,0.36105624,-103.97463,58.960335,-15.06706,23.768272,-27.23606,-6.786041,22.562206,4.9420366,-22.32207,26.917278,57.29316,-12.280786,-1.5654266,-4.0608897
211,-12.083467483520508,-5.724049091339111,77.47452545166016,-2.1680976647272576,-1.7407314085979173,-85.16062810364116,-3.4745734,21.408152,6.3048463,23.592329,-14.802971,-12.784843,4.7775908,3.828258,-12.971336,10.493481,-14.062654,-0.061657377,2.0593657,4.8790507,0.37209165,-104.812004,58.93184,-14.785653,22.589685,-27.747715,-7.0715165,22.524149,4.91342,-22.267994,26.903715,57.22801,-12.206755,-1.5832435,-4.04677
212,-12.083949089050293,-5.726395130157471,77.49005889892578,-2.1042996519104795,-1.6520503263916901,-85.25580870968788,-3.5688677,21.368109,6.5396123,23.109737,-14.347753,-12.823468,4.65858,3.763548,-12.893348,10.516386,-14.0391865,-0.055442795,2.1020405,4.8071537,0.37938482,-105.60691,58.93081,-14.466155,21.37512,-28.138474,-7.5454144,22.212112,4.8795977,-22.206577,26.884512,57.195465,-12.1573715,-1.6014326,-4.0539627
213,-12.083634376525879,-5.734210968017578,77.50718688964844,-2.0581370904430405,-1.5575595255434656,-85.37181819549559,-3.6800153,21.2977,6.6532946,22.604261,-13.656724,-12.908932,4.541869,3.7252352,-12.7828,10.510773,-13.992652,-0.05504977,2.141903,4.768314,0.38557523,-106.41706,58.953053,-14.119322,20.115913,-28.334332,-8.238872,21.496922,4.8554287,-22.145433,26.852167,57.17527,-12.141494,-1.6237367,-4.0918436
214,-12.078958511352539,-5.748306751251221,77.52288818359375,-2.028465086514141,-1.45505375001009,-85.5069042757946,-3.8094504,21.206638,6.685082,22.086922,-12.78202,-13.029761,4.422147,3.7062013,-12.645734,10.483726,-13.926373,-0.05727889,2.188996,4.7534404,0.3860823,-107.19769,59.000134,-13.709198,18.721249,-28.375204,-9.150821,20.416456,4.8367133,-22.075493,26.80115,57.173172,-12.146853,-1.6495657,-4.1521034
215,-12.06397819519043,-5.76258659362793,77.5375747680664,-2.0086297547746144,-1.3509130036975368,-85.65287573273422,-3.9195716,21.122953,6.717119,21.56816,-11.856276,-13.233926,4.306137,3.6981938,-12.495995,10.443496,-13.853012,-0.05820123,2.2425008,4.756548,0.3850542,-107.96306,59.064556,-13.328582,17.348373,-28.430122,-10.214879,19.23577,4.823788,-22.008957,26.749199,57.18189,-12.153993,-1.6715723,-4.210289
216,-12.052234649658203,-5.772729396820068,77.55014038085938,-1.9926408993340332,-1.2517824845147683,-85.80213868681199,-3.9713914,21.073345,6.831822,21.055826,-11.008646,-13.568512,4.201922,3.693948,-12.346771,10.394964,-13.783358,-0.054069776,2.2989852,4.775475,0.3847443,-108.6978,59.144955,-13.046484,16.13649,-28.661638,-11.358913,18.212732,4.799709,-21.948336,26.718348,57.21791,-12.145968,-1.6826078,-4.245648
217,-12.037504196166992,-5.77832555770874,77.55982208251953,-1.9794534411631666,-1.1568161635136998,-85.95713960098907,-3.9337828,21.066513,7.075724,20.496843,-10.20441,-14.136514,4.1087856,3.6927547,-12.198005,10.337569,-13.720338,-0.041766305,2.362354,4.8085923,0.38673404,-109.44695,59.232994,-12.934932,15.1019945,-29.138924,-12.705147,17.38587,4.7714524,-21.901731,26.707472,57.267136,-12.103628,-1.6783738,-4.2442703
218,-12.01364803314209,-5.797965049743652,77.57704162597656,-1.9747507780832276,-1.063255885173538,-86.12087121448525,-3.8359058,21.084099,7.39275,19.90836,-9.391986,-14.880538,4.0251718,3.6993763,-12.043636,10.265665,-13.6562,-0.024179164,2.4339447,4.8552704,0.39041865,-110.23752,59.32073,-12.967323,14.201165,-29.773859,-14.243689,16.616512,4.748371,-21.86825,26.706799,57.320374,-12.038402,-1.6636685,-4.2183456
219,-11.97917652130127,-5.8162007331848145,77.59033966064453,-1.9055900752476624,-0.9574073470749561,-86.23967914472522,-3.719547,20.946465,7.7206364,19.29099,-8.62289,-15.000033,3.8338628,3.5870576,-11.929627,10.415581,-13.712094,0.021575203,2.466878,4.8480706,0.38222677,-111.04616,59.39401,-13.079192,13.498256,-30.474281,-15.705164,15.907001,4.7351775,-21.844685,26.719696,57.37997,-11.978925,-1.645062,-4.183481
220,-11.9403076171875,-5.839874267578125,77.59627532958984,-1.8544379687063985,-0.863583315681596,-86.35774482499828,-3.6276622,20.83879,8.001984,18.84526,-8.070001,-15.000033,3.6712232,3.4991536,-11.814219,10.536565,-13.751836,0.058423955,2.4816911,4.850183,0.3830705,-111.899025,59.4731,-13.257207,13.079846,-31.156595,-16.82217,15.272628,4.7085233,-21.815926,26.772438,57.46386,-11.954957,-1.6292939,-4.154897
221,-11.91257381439209,-5.857087135314941,77.60259246826172,-1.8554414261715926,-0.789452418596387,-86.4896464799841,-3.5936863,20.838139,8.20985,18.708992,-7.8629174,-15.000033,3.5816767,3.4932048,-11.687414,10.545525,-13.730559,0.069800645,2.5095818,4.900395,0.39124265,-112.75438,59.527084,-13.432569,12.943808,-31.772108,-17.493942,14.687479,4.6870346,-21.783937,26.852148,57.57334,-11.971807,-1.6194113,-4.1383896
222,-11.883485794067383,-5.8842453956604,77.60474395751953,-1.891789098279423,-0.7295727785933538,-86.63064453306188,-3.5873928,20.911959,8.380151,18.788301,-7.9090633,-15.000033,3.5398128,3.5395155,-11.553609,10.486426,-13.673368,0.06573926,2.5471294,4.980842,0.40381572,-113.623566,59.55669,-13.644411,13.056844,-32.36319,-17.875526,14.1652355,4.6660395,-21.746435,26.953308,57.711155,-12.016978,-1.6116884,-4.1267395
223,-11.852740287780762,-5.922440052032471,77.60913848876953,-1.928456853758681,-0.6805101610327327,-86.77311280165264,-3.5614052,20.992258,8.541039,18.901976,-8.029232,-15.000033,3.520158,3.5875344,-11.413953,10.4097,-13.607821,0.06338124,2.5946183,5.057241,0.41667286,-114.48022,59.564404,-13.902718,13.39617,-32.938408,-18.082983,13.780405,4.6493125,-21.705305,27.067844,57.85959,-12.086377,-1.6011488,-4.1155896
224,-11.82211685180664,-5.952256202697754,77.62123107910156,-1.929660007143219,-0.6386103517104549,-86.90923668953926,-3.4636219,21.009832,8.722761,18.85807,-8.041545,-15.000033,3.4957323,3.587125,-11.269431,10.368788,-13.563087,0.07976803,2.6449971,5.0935106,0.42674023,-115.311424,59.56182,-14.232893,13.944995,-33.513885,-18.233713,13.604442,4.6329017,-21.662214,27.1955,58.006107,-12.174924,-1.5830516,-4.100443
225,-11.783697128295898,-5.982008457183838,77.63970184326172,-1.880283746744079,-0.6050344153504501,-87.03748222176318,-3.267131,20.939304,8.93918,18.591362,-7.895326,-15.000033,3.464009,3.5195777,-11.1151905,10.373198,-13.542398,0.12313189,2.690133,5.0726395,0.43557492,-116.12728,59.55676,-14.653381,14.73884,-34.082947,-18.31939,13.715229,4.60554,-21.61894,27.361004,58.159653,-12.285324,-1.5533681,-4.074789
226,-11.755624771118164,-6.017777919769287,77.65840148925781,-1.8022808760719975,-0.5808904351724832,-87.16175432880314,-3.006345,20.819286,9.170895,18.211946,-7.687981,-15.000033,3.4371758,3.4136348,-10.952344,10.396929,-13.532199,0.18313083,2.7285304,5.0161457,0.4457702,-116.93608,59.551617,-15.155127,15.774361,-34.642452,-18.295921,14.059406,4.5668273,-21.574635,27.564524,58.32434,-12.416935,-1.5156274,-4.042099
227,-11.71214771270752,-6.0525221824646,77.67879486083984,-1.7133217353549008,-0.5621706291865467,-87.28256922387015,-2.71453,20.675491,9.400158,17.778103,-7.457458,-15.000033,3.41251,3.2909524,-10.790551,10.433849,-13.532879,0.24885158,2.7637784,4.947354,0.45593825,-117.71377,59.551376,-15.714031,16.971045,-35.216312,-18.22541,14.508559,4.5309796,-21.527544,27.76491,58.479065,-12.563827,-1.4759257,-4.0132394
228,-11.671462059020996,-6.094808578491211,77.69898223876953,-1.63102389095024,-0.5450307612231647,-87.4004356519785,-2.4286325,20.534555,9.608433,17.35636,-7.244178,-15.000033,3.3844397,3.1724503,-10.639861,10.484742,-13.548523,0.3093317,2.8010445,4.890801,0.46415803,-118.429054,59.562157,-16.299173,18.244816,-35.828083,-18.16757,14.932426,4.5116296,-21.47679,27.920801,58.604115,-12.718956,-1.4403855,-3.999464
229,-11.627531051635742,-6.136567115783691,77.71672058105469,-1.5578904638345266,-0.5328344402766301,-87.51803733492959,-2.1416278,20.394941,9.793935,16.944197,-7.048741,-15.000033,3.3563516,3.0575812,-10.4999895,10.551834,-13.583983,0.36208376,2.8499591,4.8525605,0.471801,-119.06651,59.590794,-16.897259,19.595297,-36.544086,-18.12224,15.375487,4.5184693,-21.421986,28.01861,58.694912,-12.899877,-1.408656,-4.0144596
230,-11.577136993408203,-6.173362731933594,77.731201171875,-1.4844662818481136,-0.5262977319392237,-87.63416835696853,-1.8394514,20.245598,9.964981,16.51282,-6.852625,-15.000033,3.3299596,2.9374764,-10.366315,10.633373,-13.635499,0.41277036,2.905357,4.82254,0.4785527,-119.62894,59.64056,-17.513233,21.047956,-37.33279,-18.064674,15.881034,4.541052,-21.36481,28.080875,58.76361,-13.104515,-1.3778013,-4.049157
231,-11.525294303894043,-6.211616039276123,77.741943359375,-1.4166883167393953,-0.5170855049775381,-87.74379437459105,-1.5461111,20.098022,10.120246,16.085026,-6.6649857,-15.000033,3.2987294,2.820682,-10.243307,10.721317,-13.692801,0.4625613,2.949182,4.801474,0.48018286,-120.11357,59.70952,-18.142096,22.559185,-38.071693,-18.012716,16.315248,4.5646443,-21.307419,28.122122,58.81453,-13.295258,-1.3502965,-4.0803337
232,-11.466347694396973,-6.258205413818359,77.75321197509766,-1.3617987078823492,-0.49686970147617526,-87.84187268825868,-1.2863866,19.964262,10.258314,15.684367,-6.494912,-15.000033,3.258517,2.7160277,-10.134948,10.80075,-13.741147,0.51273286,2.9680688,4.7903676,0.47201598,-120.51572,59.79354,-18.77656,24.086954,-38.63509,-17.979393,16.543112,4.580135,-21.251007,28.152264,58.84693,-13.434459,-1.3285563,-4.084455
233,-11.41272258758545,-6.298486709594727,77.76347351074219,-1.3258372748659548,-0.459007874436096,-87.92812861295396,-1.0710621,19.851429,10.377056,15.31697,-6.347686,-15.000033,3.2012782,2.62872,-10.045291,10.872973,-13.778581,0.5624497,2.957698,4.7926927,0.44482377,-120.833405,59.891342,-19.419874,25.645376,-39.00256,-17.988298,16.512463,4.585462,-21.19667,28.173786,58.85919,-13.5102215,-1.3127769,-4.044274
234,-11.353754997253418,-6.332357883453369,77.77385711669922,-1.303209690480082,-0.409523324949648,-88.00489417050117,-0.8839677,19.751966,10.4787245,14.967433,-6.216044,-15.000033,3.132451,2.5534608,-9.971261,10.942383,-13.811296,0.6113919,2.9277353,4.806359,0.4037076,-121.07141,60.00411,-20.07519,27.249916,-39.23515,-18.021635,16.301054,4.5885754,-21.144768,28.178717,58.848778,-13.54334,-1.3019452,-3.975644
235,-11.290555000305176,-6.361006259918213,77.77349090576172,-1.2855509153341491,-0.35906736784874715,-88.07105819366133,-0.7164676,19.657309,10.566374,14.642013,-6.099037,-15.000033,3.0639806,2.4815447,-9.906151,11.008399,-13.84243,0.661697,2.884607,4.824646,0.36511016,-121.23002,60.1284,-20.729864,28.857653,-39.330177,-18.027578,15.968278,4.5939927,-21.094553,28.163607,58.815998,-13.544749,-1.2966297,-3.9052749
236,-11.230692863464355,-6.389298439025879,77.77763366699219,-1.2640621359529471,-0.3184239822203765,-88.12526296645814,-0.5583777,19.559128,10.643384,14.3436165,-5.9941726,-15.000033,3.0062351,2.4049776,-9.843558,11.074509,-13.877946,0.715204,2.8366675,4.8416157,0.34529963,-121.30777,60.258236,-21.367846,30.427464,-39.282875,-17.956488,15.572735,4.6099653,-21.044046,28.119677,58.759163,-13.52875,-1.2976464,-3.8598485
237,-11.172185897827148,-6.415802955627441,77.78089904785156,-1.2346129987744265,-0.29162393083438964,-88.16601900762346,-0.40532786,19.453417,10.710011,14.072154,-5.9010386,-15.000033,2.9636726,2.3201554,-9.778423,11.141244,-13.919992,0.77501386,2.7873297,4.8522468,0.34938616,-121.30724,60.388916,-21.97864,31.965338,-39.042084,-17.775143,15.067668,4.6449122,-20.99102,28.029501,58.67227,-13.489776,-1.3090804,-3.8519921
