unveil-humanoid-operators/unveil-humanoid-operators.github.io/feature-analysis-animation/data/feature_matrix_instances/weight_ankle_peak_vel_jogging_A265_jog_ff_loop_360_R_001__A265.csv
Frame,root_translateX,root_translateY,root_translateZ,root_rotateX,root_rotateY,root_rotateZ,left_hip_pitch_joint_dof,left_hip_roll_joint_dof,left_hip_yaw_joint_dof,left_knee_joint_dof,left_ankle_pitch_joint_dof,left_ankle_roll_joint_dof,right_hip_pitch_joint_dof,right_hip_roll_joint_dof,right_hip_yaw_joint_dof,right_knee_joint_dof,right_ankle_pitch_joint_dof,right_ankle_roll_joint_dof,waist_yaw_joint_dof,waist_roll_joint_dof,waist_pitch_joint_dof,left_shoulder_pitch_joint_dof,left_shoulder_roll_joint_dof,left_shoulder_yaw_joint_dof,left_elbow_joint_dof,left_wrist_roll_joint_dof,left_wrist_pitch_joint_dof,left_wrist_yaw_joint_dof,right_shoulder_pitch_joint_dof,right_shoulder_roll_joint_dof,right_shoulder_yaw_joint_dof,right_elbow_joint_dof,right_wrist_roll_joint_dof,right_wrist_pitch_joint_dof,right_wrist_yaw_joint_dof
0,0.12523998320102692,2.117788791656494,78.77362060546875,2.2605721257812714,-0.03742006513471867,-94.24653368135483,0.055057105,-0.5691763,0.7723264,56.3432,-2.8553088,-15.000033,-23.833685,-3.0242145,-8.623502,29.080109,2.730019,-1.742366,-1.1951894,-3.709497,13.163848,-14.533913,23.236889,-20.525492,24.494244,-13.582855,-0.97199553,12.650598,-6.0056696,-22.326998,24.836403,19.523066,2.3398654,-0.81126046,-4.983065
1,0.18157637119293213,3.3470287322998047,79.04314422607422,2.3886259764320745,0.09736948436473623,-94.29194278142538,0.40152055,-1.9318897,-0.29675546,54.04339,0.16447566,-15.000033,-24.16292,-2.9109173,-8.153358,26.750225,6.1751895,-1.0484248,-1.3481374,-3.9357371,13.349767,-15.0139675,23.29725,-20.68198,22.827147,-14.515483,-1.2721664,12.605936,-5.944902,-22.332052,24.64598,18.80837,2.4752536,-0.9581329,-4.9716573
2,0.24454808235168457,4.597408771514893,79.28453826904297,2.5591785952140476,0.24251238049336385,-94.32572309311712,0.73929137,-3.3933086,-1.4304736,51.75796,3.4207947,-15.000033,-24.555641,-2.8537292,-7.6071672,24.488441,9.673178,-0.5036499,-1.5021547,-4.218597,13.535067,-15.499475,23.379335,-20.862055,21.139421,-15.502288,-1.5764706,12.570234,-5.855754,-22.314714,24.418152,18.070477,2.6158092,-1.1088518,-4.9619164
3,0.31557711958885193,5.842390537261963,79.47760009765625,2.7578528445824655,0.3831111232363419,-94.34730457768642,1.0942724,-4.677806,-2.3659747,49.463688,6.2497077,-14.751897,-24.85405,-2.8592603,-6.971765,22.160069,12.998404,0.4651111,-1.6535801,-4.5369663,13.705563,-15.969211,23.474564,-21.047062,19.453568,-16.422096,-1.8619466,12.518413,-5.826117,-22.294699,24.226862,17.387566,2.7352326,-1.2532313,-4.9430223
4,0.40543586015701294,7.082883358001709,79.6212387084961,3.040960484494022,0.4949824483242322,-94.34589111945262,1.5032445,-5.395918,-2.300146,47.07956,8.004625,-12.720143,-24.930408,-3.0067873,-6.142757,19.700497,15.878548,2.4684422,-1.7921327,-4.9377065,13.862192,-16.410004,23.592804,-21.238731,17.782001,-17.16694,-2.1060884,12.428794,-5.909885,-22.30183,24.1217,16.798801,2.8079302,-1.3808695,-4.897968
5,0.49462324380874634,8.32800579071045,79.67122650146484,3.3776646549762432,0.5393103020140088,-94.3005673210078,2.0746589,-5.5924177,-1.4407176,44.52187,8.241611,-9.433466,-24.411798,-3.1939468,-5.0435877,16.339067,18.660275,6.2709293,-1.9377668,-5.3947096,14.026845,-16.811476,23.732452,-21.426836,16.124798,-17.683296,-2.3120928,12.273374,-6.09426,-22.357985,24.132917,16.32571,2.8622022,-1.4865073,-4.792377
6,0.5802112817764282,9.571906089782715,79.64704132080078,3.85283566241344,0.49701376669503616,-94.19424111614234,2.845891,-5.6665874,-0.082504384,41.813408,7.2859426,-5.3685756,-23.409622,-3.5424533,-3.6738148,12.30153,21.333313,11.376867,-2.1146047,-5.9937735,14.2314,-17.18064,23.894035,-21.610836,14.466439,-18.040503,-2.4871445,12.070227,-6.3360653,-22.463627,24.23011,15.909787,2.91051,-1.5732135,-4.6453905
7,0.6432069540023804,10.80270004272461,79.56773376464844,4.263973639144988,0.39088418480630577,-94.11375812264208,3.6351826,-5.669902,1.3577452,39.374767,5.4547935,-1.5792239,-22.156939,-3.94561,-2.935985,8.243592,23.530607,15.000033,-2.245186,-6.537822,14.491782,-17.522245,24.079124,-21.791124,12.800012,-18.306448,-2.6154802,11.863271,-6.6597652,-22.617628,24.390057,15.48761,2.9072714,-1.6435945,-4.522967
8,0.6576588749885559,12.05576229095459,79.47454833984375,4.302807152860828,0.2984593557664475,-94.17674249775263,4.138003,-5.37831,2.5903935,37.677063,3.1835215,1.0232904,-21.228935,-4.078786,-3.5398562,5.405147,24.709478,15.000033,-2.2275605,-6.7117257,14.782497,-17.83294,24.288877,-21.96306,11.111104,-18.546476,-2.6836114,11.6973715,-7.102616,-22.82354,24.590912,15.00587,2.8029459,-1.7033132,-4.4893785
9,0.7251837253570557,13.315014839172363,79.39045715332031,4.175431485375386,0.3049948881523972,-94.28465223690097,4.3804307,-5.010685,3.6667104,36.336212,0.7490901,2.3079956,-21.45645,-4.1858063,-3.876701,5.409852,23.821972,15.000033,-2.16966,-6.6639504,15.0204,-18.114119,24.522486,-22.131147,9.34761,-18.73577,-2.6764398,11.601574,-7.7042727,-23.09933,24.849958,14.47622,2.504746,-1.7807351,-4.5572486
10,0.8039512634277344,14.60086441040039,79.32482147216797,3.881793999794652,0.3822055767153555,-94.43675616555726,4.4475155,-4.456329,4.729367,35.228317,-2.028693,2.7489774,-21.565353,-4.197241,-4.1901016,5.5215497,22.352219,15.000033,-2.067757,-6.4027724,15.218672,-18.357447,24.77913,-22.288027,7.5193763,-18.849674,-2.607681,11.545805,-8.432099,-23.45305,25.170938,13.90455,2.0665896,-1.8645918,-4.69284
11,0.8917762637138367,15.898680686950684,79.25161743164062,3.4472232085097105,0.5192665477279695,-94.64298909474248,4.2575936,-3.753943,5.743336,34.433636,-4.8038974,2.7684822,-21.761744,-4.13707,-4.4935203,6.1354675,20.442953,15.000033,-1.913049,-5.959766,15.385378,-18.528862,25.044338,-22.39502,5.6865635,-18.944372,-2.5150998,11.498397,-9.250574,-23.881336,25.516045,13.256057,1.6489996,-1.9099338,-4.8871694
12,0.9898430705070496,17.21198081970215,79.16775512695312,2.9140001405247165,0.6992833067002612,-94.9098182403406,3.7283657,-2.971954,6.6423407,34.05994,-7.2681885,2.7990725,-22.991282,-4.1057515,-4.7244577,9.222251,17.420605,15.000033,-1.6975309,-5.3860373,15.529097,-18.604897,25.295166,-22.418991,3.926632,-19.07403,-2.436792,11.428471,-10.125425,-24.374409,25.845974,12.506056,1.4098558,-1.8728237,-5.1308475
13,1.1079912185668945,18.52798843383789,79.07966613769531,2.2898824751513924,0.9190254790556356,-95.24190340879547,2.8035583,-2.1142373,7.4053144,34.182487,-9.368426,2.9785116,-24.490074,-4.091169,-4.8975244,13.221667,14.023497,15.000033,-1.4174093,-4.680964,15.654244,-18.63317,25.521076,-22.360767,2.2470932,-19.27195,-2.3813484,11.32372,-11.099312,-24.937944,26.180769,11.678957,1.4419891,-1.7472309,-5.4352856
14,1.2405011653900146,19.847450256347656,78.9714126586914,1.6606559908380085,1.1404212051245215,-95.59548315767516,1.6069403,-1.2535714,8.0482855,34.67263,-11.230814,3.1351748,-26.246082,-4.216814,-4.966325,18.211077,10.054485,15.000033,-1.1086824,-3.933683,15.7832,-18.63107,25.722538,-22.242386,0.64272046,-19.4979,-2.3264422,11.197479,-12.160169,-25.573856,26.522284,10.77194,1.6440465,-1.553594,-5.803508
15,1.3269480466842651,21.16151237487793,78.8200454711914,0.8871095355415383,1.3187856775700637,-96.02218586791935,0.16984415,-0.15016136,8.55483,35.69816,-13.041483,3.128032,-27.763916,-4.2315392,-5.666799,23.13508,6.317292,12.671835,-0.70529205,-3.052046,15.938713,-18.53445,25.889824,-22.07177,-0.8215396,-19.695948,-2.2658303,11.05913,-13.190706,-26.25415,26.80017,9.729056,1.8819731,-1.2896327,-6.2128086
16,1.400193214416504,22.46049690246582,78.63185119628906,0.25758648928150685,1.43516034745239,-96.39797103820274,-1.2972155,0.80093116,8.902964,36.848415,-14.63815,2.9950428,-29.09554,-4.4368644,-6.2360463,28.022259,3.0822885,10.581651,-0.30597576,-2.3184912,16.104845,-18.281044,26.000952,-21.861193,-2.0724142,-19.807276,-2.1983387,10.924898,-14.094746,-26.940805,26.951624,8.527445,2.0127108,-0.95569915,-6.636174
17,1.4592756032943726,23.731550216674805,78.42290496826172,-0.20304197950954314,1.4908955170127365,-96.7280979497204,-2.8301935,1.570371,9.068156,38.18563,-16.018158,2.672293,-30.303936,-4.8797297,-6.6946063,33.03191,0.44696054,8.780398,0.09990477,-1.7605522,16.26931,-17.880552,26.030369,-21.608528,-3.032513,-19.842993,-2.1560748,10.761571,-14.898527,-27.61473,26.995472,7.213471,1.9799898,-0.48494986,-7.1182423
18,1.5069211721420288,24.98906707763672,78.1866226196289,-0.5518658500196877,1.5008518732876488,-97.03181052295878,-4.4829617,2.2249606,9.074672,39.775093,-17.199594,2.2037058,-31.42758,-5.5260186,-7.0807433,38.26781,-1.8282055,7.035367,0.52517736,-1.3136703,16.423908,-17.382294,25.969418,-21.325062,-3.7195637,-19.817131,-2.1314676,10.573973,-15.65292,-28.272898,26.959248,5.8263564,1.8583295,0.09978659,-7.6539183
19,1.5596392154693604,26.225645065307617,77.93721008300781,-0.7972528632306315,1.4778806785554115,-97.27850253301415,-6.165634,2.7612379,8.995402,41.435417,-18.181229,1.7129768,-32.345497,-6.32367,-7.3739605,43.372303,-3.7912781,5.4219084,0.94353753,-0.96768695,16.5603,-16.787449,25.826128,-21.048325,-4.20172,-19.679466,-2.064666,10.435699,-16.29904,-28.900072,26.792587,4.3348794,1.7006948,0.6643882,-8.140616
20,1.5935572385787964,27.4421329498291,77.69766998291016,-0.9540961170934548,1.4370053058542387,-97.43903432024027,-7.792733,3.1860852,8.899414,42.98612,-18.957233,1.3259873,-32.964264,-7.2024555,-7.559804,48.035156,-5.5076222,4.0326767,1.3318969,-0.7106773,16.670134,-16.09063,25.62001,-20.816849,-4.5569644,-19.383133,-1.8956037,10.421964,-16.773375,-29.474054,26.437366,2.7059762,1.5519707,1.0729136,-8.475687
21,1.615600824356079,28.621837615966797,77.47589111328125,-1.0030384488564004,1.4073075540981093,-97.48501744435367,-9.434474,3.4846487,8.790375,44.481216,-19.464659,1.0869546,-33.310177,-8.165993,-7.6282415,52.282265,-6.95004,2.9570293,1.6771075,-0.5829706,16.731913,-15.256882,25.360224,-20.620514,-4.784035,-18.845245,-1.5763706,10.560279,-17.038229,-29.973757,25.829817,0.8862682,1.3703334,1.2813386,-8.626214
22,1.6087455749511719,29.78008460998535,77.26438903808594,-0.9549463200508279,1.3780927506916942,-97.44292618646318,-11.114662,3.667678,8.641243,45.987637,-19.72825,0.9161054,-33.444473,-9.234676,-7.618729,56.29984,-8.115564,2.1199505,1.9950482,-0.57339007,16.752934,-14.290628,25.048769,-20.44503,-4.858023,-18.118294,-1.147325,10.807303,-17.150122,-30.394539,25.01917,-1.0673577,1.1392596,1.362583,-8.647154
23,1.5837382078170776,30.89983367919922,77.0593490600586,-0.8714001169372639,1.3045280962675778,-97.36643374954424,-12.672548,3.787418,8.4700775,47.329052,-19.86235,0.7625716,-33.32788,-10.347228,-7.5931873,60.020195,-9.107982,1.3857659,2.3015752,-0.5897304,16.769636,-13.238368,24.70128,-20.315071,-4.8279963,-17.363316,-0.6801458,11.132164,-17.206688,-30.741076,24.126133,-3.0121562,0.9500037,1.3549507,-8.571059
24,1.5570591688156128,31.991424560546875,76.86382293701172,-0.814250788026033,1.141797947587795,-97.30936535439247,-13.949153,3.8990986,8.292437,48.336697,-19.98588,0.5833553,-32.921177,-11.43705,-7.6119595,63.3731,-10.028164,0.62333405,2.6108172,-0.54111224,16.81872,-12.138414,24.341816,-20.253153,-4.7537217,-16.74334,-0.24856025,11.508961,-17.300852,-31.022823,23.2724,-4.815021,0.893694,1.2976525,-8.430308
25,1.5421983003616333,33.05881881713867,76.68699645996094,-0.8073339371434861,0.8471938148675549,-97.26018706776844,-14.878987,4.0179787,8.085996,48.981922,-20.143541,0.3635546,-32.148594,-12.4772005,-7.709683,66.363716,-10.890021,-0.16693753,2.897181,-0.40095565,16.938654,-10.940514,23.985622,-20.25376,-4.673645,-16.263971,0.14940304,12.004285,-17.433199,-31.23374,22.43523,-6.5144157,1.0633183,1.165776,-8.177788
26,1.5246152877807617,34.11561584472656,76.54239654541016,-0.8180740828557826,0.45537926918369553,-97.19881407379006,-15.557048,4.118703,7.8516846,49.35267,-20.268929,0.13346247,-31.052174,-13.493988,-7.8687406,69.038,-11.645335,-0.91824853,3.1559103,-0.21900657,17.102144,-9.624473,23.63743,-20.301237,-4.570978,-15.859627,0.54703444,12.61031,-17.583784,-31.366272,21.579298,-8.147239,1.3923677,0.9512231,-7.816452
27,1.520110845565796,35.16166687011719,76.42584228515625,-0.8241065400056246,0.03771316006738127,-97.16623190624959,-16.062654,4.1984,7.6380687,49.450054,-20.31212,-0.08333208,-29.768679,-14.497003,-8.068096,71.37487,-12.301616,-1.661143,3.4300754,-0.019486303,17.245508,-8.271622,23.306181,-20.401024,-4.4243045,-15.584421,0.91272825,13.192938,-17.78211,-31.435076,20.803852,-9.60869,1.7206289,0.7185575,-7.451998
28,1.528798222541809,36.18695068359375,76.35175323486328,-0.8022404421352072,-0.3340449624567268,-97.20443313376477,-16.476816,4.25394,7.4936385,49.276955,-20.223066,-0.263765,-28.443624,-15.500393,-8.279836,73.35715,-12.869025,-2.4275565,3.7594187,0.17474875,17.308952,-6.956432,23.001102,-20.549456,-4.222771,-15.491446,1.2130046,13.617331,-18.063768,-31.46683,20.212374,-10.797903,1.8971171,0.5307154,-7.19291
29,1.545464038848877,37.19511795043945,76.316650390625,-0.7530870309260058,-0.6765191034781862,-97.34685319550206,-16.754625,4.283435,7.4473176,48.80597,-20.034306,-0.39271957,-27.050325,-16.539062,-8.534042,74.98473,-13.372366,-3.2338345,4.1632547,0.37620744,17.29773,-5.665656,22.725195,-20.765894,-3.9497356,-15.704832,1.3958523,13.864739,-18.442816,-31.48067,19.835627,-11.706255,1.8609172,0.39080527,-7.0611215
30,1.5597877502441406,38.20634460449219,76.31826782226562,-0.6866155616910657,-1.0154938854637932,-97.56448882213022,-16.874573,4.287696,7.4698625,48.044018,-19.75576,-0.4867557,-25.539576,-17.592945,-8.84262,76.27669,-13.80163,-4.058179,4.6172905,0.5941438,17.240067,-4.3710546,22.476013,-21.046415,-3.6225064,-16.160908,1.4907186,14.001851,-18.886585,-31.478567,19.614117,-12.405509,1.7076001,0.26983014,-7.004188
31,1.5660918951034546,39.225555419921875,76.36194610595703,-0.5940788317618039,-1.2931301090472953,-97.80585869745123,-16.950693,4.2663846,7.5227776,47.039124,-19.301058,-0.57103,-24.030481,-18.592499,-9.146838,77.24255,-14.111903,-4.8726425,5.097633,0.8011789,17.114603,-3.1183834,22.253181,-21.347372,-3.2906978,-16.630735,1.5880942,14.022534,-19.334194,-31.459558,19.507854,-12.933694,1.5115792,0.17863926,-7.0193505
32,1.565725326538086,40.23105239868164,76.44737243652344,-0.4701599448842688,-1.4509111457468198,-98.01995081854948,-17.096851,4.220358,7.5667596,45.838768,-18.583687,-0.66872394,-22.64656,-19.465744,-9.386826,77.89261,-14.254898,-5.6500993,5.5772343,0.9686162,16.901834,-1.9417133,22.058727,-21.615496,-3.0140631,-16.884558,1.7795953,13.921201,-19.725327,-31.419691,19.482122,-13.332339,1.3433925,0.12849675,-7.104156
33,1.5472121238708496,41.251708984375,76.57315063476562,-0.29246670009248826,-1.4628283132097504,-98.21026476390867,-17.33015,4.1272917,7.6258016,44.422543,-17.599302,-0.7599568,-21.415878,-20.27638,-9.589406,78.22878,-14.227984,-6.450463,6.06742,1.0776566,16.571518,-0.8228542,21.89778,-21.847553,-2.82014,-16.843384,2.127865,13.663243,-20.057404,-31.357342,19.558247,-13.577092,1.208188,0.13042893,-7.306568
34,1.5130029916763306,42.285640716552734,76.74114990234375,-0.07435481831015443,-1.3623939940608025,-98.39886543786878,-17.59001,3.9876094,7.7122188,42.76968,-16.38505,-0.84233737,-20.28452,-21.03091,-9.778674,78.25685,-14.052543,-7.2662187,6.5754275,1.1429071,16.145758,0.25603026,21.771677,-22.062449,-2.6832871,-16.634111,2.5713282,13.262028,-20.357098,-31.272816,19.74569,-13.659002,1.0713218,0.17667176,-7.6105394
35,1.4519987106323242,43.32687759399414,76.956787109375,0.1404256169831301,-1.1810823591522486,-98.56274829381802,-17.877853,3.840193,7.764494,40.930523,-14.91785,-0.9621938,-19.25501,-21.571245,-9.8833885,77.99125,-13.710504,-7.969179,7.0699244,1.1871698,15.683891,1.2669333,21.676388,-22.236435,-2.5891986,-16.333256,3.0142365,12.7839985,-20.618761,-31.165022,19.991707,-13.642214,0.9494307,0.24942681,-7.9173336
36,1.3684167861938477,44.40129852294922,77.20413970947266,0.3105839036365528,-0.9500963031379058,-98.67883200888959,-18.198551,3.7296796,7.7145743,38.958458,-13.176215,-1.1643162,-18.328583,-21.741833,-9.829678,77.445435,-13.186675,-8.435661,7.5213175,1.2359535,15.243544,2.178185,21.606487,-22.34602,-2.5197046,-16.018875,3.3618965,12.297166,-20.838114,-31.03438,20.240955,-13.585208,0.8597274,0.33022523,-8.127537
37,1.2555252313613892,45.49506759643555,77.4781494140625,0.44085167757692606,-0.6388896972541304,-98.7490030298095,-18.589092,3.6518526,7.5424075,36.83924,-11.124523,-1.4312818,-17.54139,-21.46274,-9.526812,76.57742,-12.565585,-8.579127,7.941171,1.2799408,14.804595,2.9993544,21.559753,-22.362219,-2.4849942,-15.660424,3.5805945,11.776532,-20.99537,-30.87856,20.47709,-13.504823,0.8009864,0.43557596,-8.212779
38,1.1232757568359375,46.618064880371094,77.77709197998047,0.5481255336048785,-0.2438078969479716,-98.78248199977907,-19.03591,3.593417,7.2692204,34.554653,-8.78668,-1.7487037,-16.878162,-20.835144,-9.023727,75.40117,-11.833885,-8.487362,8.339291,1.3123146,14.348703,3.7440403,21.537796,-22.301195,-2.4920204,-15.231816,3.7214177,11.200214,-21.100292,-30.698074,20.7279,-13.367208,0.7668233,0.5678035,-8.225864
39,0.9663470983505249,47.75811004638672,78.09394836425781,0.6063614954097496,0.16269930278038425,-98.7688894335195,-19.471224,3.5849805,6.882945,32.152737,-6.2273464,-2.1664305,-16.266808,-19.968578,-8.44586,74.00665,-10.817543,-8.287784,8.686153,1.3670645,13.935325,4.3821344,21.54052,-22.208212,-2.5159562,-14.820921,3.8196342,10.642016,-21.176117,-30.499634,20.998934,-13.171738,0.76185465,0.6870139,-8.190493
40,0.7983763813972473,48.93114471435547,78.41345977783203,0.5878503327380332,0.5088956425360521,-98.69966239895525,-19.830057,3.6517212,6.3716755,29.682318,-3.508351,-2.7356415,-15.642381,-18.961086,-7.9174833,72.479645,-9.33331,-8.095498,8.957257,1.4818033,13.622528,4.87847,21.56629,-22.133745,-2.5278413,-14.514668,3.9129665,10.176362,-21.239635,-30.29607,21.291082,-12.924091,0.79191524,0.7536272,-8.130162
41,0.6213321089744568,50.13288879394531,78.72945404052734,0.4743262312378924,0.7882266560654411,-98.57014006071687,-20.116945,3.8104367,5.7370653,27.117544,-0.5078542,-3.399181,-15.082242,-17.697702,-7.33602,70.85441,-6.9565954,-7.9776,9.153631,1.6787864,13.440669,5.220429,21.608103,-22.074974,-2.5231225,-14.346107,4.0079813,9.83274,-21.289013,-30.097404,21.586512,-12.631479,0.8699554,0.7550508,-8.005323
42,0.43261462450027466,51.347137451171875,79.03944396972656,0.2821909058377332,1.0364768044183417,-98.38762751138418,-20.370367,4.040992,4.9587417,24.458252,2.7562673,-4.160602,-14.586505,-16.16318,-6.6578665,69.0744,-3.9076595,-7.8314424,9.292652,1.9424058,13.352866,5.419076,21.663177,-22.016344,-2.509398,-14.264289,4.087589,9.568776,-21.304205,-29.90795,21.882399,-12.301955,0.99225074,0.7138513,-7.819785
43,0.22927448153495789,52.567378997802734,79.32167053222656,0.03371678227693048,1.2436001896411428,-98.1621015171136,-20.558393,4.3084087,3.98979,21.755993,6.030924,-5.1645856,-13.989051,-14.601206,-6.1028323,67.09118,-0.970713,-7.540434,9.3762455,2.2571213,13.319863,5.4719763,21.73926,-21.99103,-2.4769988,-14.232493,4.155606,9.3509865,-21.271246,-29.730942,22.198341,-11.9441,1.1423683,0.642843,-7.662934
44,0.012689719907939434,53.78695297241211,79.562255859375,-0.25201568202959695,1.3951510110182697,-97.90525660113842,-20.631119,4.585337,2.7849634,19.040138,9.0742445,-6.556129,-13.130898,-13.257664,-5.908169,64.86489,1.0609092,-7.03533,9.409099,2.6093102,13.307246,5.381918,21.849571,-22.034058,-2.4241698,-14.215435,4.2154527,9.146858,-21.16977,-29.568243,22.549604,-11.574527,1.3028959,0.55458254,-7.6236653
45,-0.2155064195394516,55.01300811767578,79.74349212646484,-0.6296309967665621,1.4703076945063684,-97.61255256726206,-20.495367,4.9220905,1.2193004,16.031322,12.042821,-8.556786,-11.863131,-12.17571,-6.2843504,62.23984,2.0837235,-6.231917,9.391477,3.0557313,13.324245,5.157803,22.004202,-22.163847,-2.3542914,-14.218835,4.278623,8.985852,-20.981234,-29.421526,22.943592,-11.194996,1.4637215,0.4468207,-7.7614784
46,-0.4406137764453888,56.23834228515625,79.8616943359375,-1.1237151021332674,1.4686752825014087,-97.29217447687785,-20.157404,5.3703656,-0.68864,12.749233,15.00787,-11.051835,-10.285327,-11.153208,-7.067949,59.245113,2.5207536,-5.194249,9.334414,3.6168962,13.395414,4.801421,22.20209,-22.366936,-2.278049,-14.262887,4.340917,8.875266,-20.708738,-29.29289,23.360956,-10.807639,1.6361877,0.31467876,-8.016042
47,-0.6721751093864441,57.459110260009766,79.91303253173828,-1.6494935314300825,1.4096601611540676,-96.96841603360423,-19.712645,5.892354,-2.7124848,9.658359,17.606962,-13.661988,-8.622531,-10.114668,-7.946148,56.126484,2.3733375,-4.095058,9.252856,4.2025714,13.506015,4.3052435,22.439053,-22.628271,-2.202299,-14.3326235,4.381491,8.7477,-20.370195,-29.186943,23.783335,-10.423762,1.8326348,0.16583273,-8.295283
48,-0.8867425918579102,58.67900085449219,79.91827392578125,-1.9271911668536612,1.297763450103694,-96.62865569128697,-19.059952,6.231427,-4.124736,6.8622456,19.67768,-15.000033,-7.138565,-9.274815,-8.515077,53.27212,1.5389693,-3.0587327,9.123848,4.5443177,13.683138,3.6618993,22.709963,-22.929003,-2.1343691,-14.412165,4.3794007,8.53501,-19.988773,-29.110146,24.197605,-10.052101,2.0680385,0.008000658,-8.506712
49,-1.082031488418579,59.895057678222656,79.89474487304688,-1.9950419672410666,1.1467000478058456,-96.27884790581317,-18.804787,6.350839,-4.9952397,5.6404057,20.517834,-15.000033,-5.8228807,-8.566038,-8.743174,50.588894,-0.28945595,-2.1745183,8.958198,4.6803966,13.897403,2.8470163,23.015545,-23.263823,-2.0776498,-14.498225,4.3191013,8.16514,-19.567188,-29.071281,24.626774,-9.704933,2.371858,-0.17520489,-8.657293
50,-1.262511968612671,61.122554779052734,79.83113098144531,-1.9667627185315824,0.972913350246913,-95.9176562341613,-18.890982,6.353719,-5.8148866,5.6776075,20.36496,-15.000033,-4.5765615,-7.9492493,-8.87751,47.908836,-2.9507258,-1.3960388,8.761284,4.7063074,14.125804,1.8633801,23.356201,-23.644253,-2.0266962,-14.599416,4.2145653,7.6903734,-19.09571,-29.071436,25.069519,-9.379064,2.7309918,-0.38363352,-8.788172
51,-1.4396700859069824,62.34825134277344,79.76596069335938,-1.828296746373006,0.8232383756656865,-95.53767864882312,-18.80712,6.3053255,-6.4495773,5.7722087,19.941746,-15.000033,-3.5499687,-7.528855,-9.039582,45.459747,-5.814695,-0.70978737,8.526549,4.590954,14.339898,0.7338375,23.727276,-24.073046,-1.9655713,-14.714832,4.0872383,7.2280607,-18.57739,-29.100092,25.478125,-9.06734,3.0910678,-0.5832299,-8.859348
52,-1.6238315105438232,63.5486946105957,79.70092010498047,-1.5712185362135034,0.7429907042897983,-95.13547963212943,-18.600704,6.232986,-6.823151,5.8984566,19.35888,-15.000033,-2.9034665,-7.3782415,-9.337298,43.49947,-8.267565,-0.07714404,8.250897,4.3114634,14.510651,-0.5198388,24.122355,-24.55146,-1.8761613,-14.841268,3.9581547,6.896247,-18.022354,-29.138302,25.807278,-8.751325,3.3968277,-0.7410831,-8.830454
53,-1.8417325019836426,64.77733612060547,79.61935424804688,-1.1681767052003558,0.7519284360951592,-94.69382835763544,-18.276756,6.113682,-6.923153,6.0729494,18.531475,-15.000033,-2.7176738,-7.5453267,-9.820934,42.146744,-10.1994295,0.54264563,7.920988,3.833049,14.619319,-1.9381796,24.544376,-25.096476,-1.7557068,-14.97781,3.8124359,6.731145,-17.456812,-29.172184,26.059074,-8.413459,3.688133,-0.8804432,-8.654965
54,-2.0572750568389893,66.03749084472656,79.51839447021484,-0.647954217363209,0.8182751760178611,-94.22166199288054,-19.090942,5.7877846,-6.931351,9.014745,16.015368,-15.000033,-2.8955474,-7.949278,-10.424041,41.260174,-11.925974,1.1361865,7.540986,3.1964452,14.681293,-3.510893,24.994726,-25.688694,-1.6231185,-15.122541,3.6453788,6.6712685,-16.896074,-29.196062,26.265776,-8.040836,3.9730196,-1.0064099,-8.363861
55,-2.2763469219207764,67.30628967285156,79.40121459960938,-0.12255134881926565,0.8968514948520441,-93.76876037554418,-20.288486,5.489573,-6.7913136,13.096641,12.858992,-15.000033,-3.3123405,-8.41748,-11.068607,40.705555,-13.481871,1.654205,7.139573,2.529111,14.725637,-5.131895,25.460604,-26.270075,-1.4899807,-15.268841,3.4938114,6.6868997,-16.336487,-29.202854,26.434341,-7.617972,4.150029,-1.0584344,-8.034194
56,-2.4872400760650635,68.5731201171875,79.2638931274414,0.29608318800344785,0.9458343724839771,-93.38626957375389,-21.466438,5.412278,-6.502671,17.446033,9.706257,-15.000033,-3.8439286,-8.779117,-11.675475,40.34347,-14.9007845,2.0403986,6.7454596,1.9572755,14.777648,-6.6985426,25.92132,-26.78851,-1.3517256,-15.407109,3.3945425,6.746212,-15.772071,-29.187681,26.57308,-7.124532,4.1168914,-0.97844034,-7.7430463
57,-2.689366340637207,69.83216094970703,79.10002899169922,0.582104780950147,0.9520367365700807,-93.0737657999013,-22.681887,5.6102405,-6.104878,22.248608,6.4507756,-15.000033,-4.5244036,-9.020347,-12.260585,40.278267,-16.18589,2.235541,6.3560915,1.5084835,14.846264,-8.260944,26.371948,-27.289518,-1.1371863,-15.613567,3.3325248,6.860946,-15.219594,-29.146072,26.692049,-6.5036345,3.7785301,-0.73874,-7.487015
58,-2.8896071910858154,71.08745574951172,78.89936828613281,0.7382553360543167,0.9136192045759528,-92.83694284092437,-23.893461,6.0847044,-5.6248527,27.49055,2.9985383,-14.957948,-5.3603845,-9.152447,-12.838324,40.519684,-17.325603,2.260597,5.9808025,1.180524,14.931108,-9.8471775,26.810678,-27.776808,-0.8583672,-15.861696,3.2965508,7.0415893,-14.682733,-29.078,26.792435,-5.768178,3.209186,-0.37636438,-7.228949
59,-3.046079158782959,72.3222885131836,78.66948699951172,1.058876711870966,0.8210773706408855,-92.64703606338728,-24.755354,6.529756,-4.443815,32.43165,-0.20966317,-12.954307,-6.317177,-9.538394,-13.238888,41.061424,-18.466902,2.2987306,5.585312,0.71160924,15.068173,-11.341771,27.219063,-28.146072,-0.61137265,-15.991818,3.328175,7.2487383,-14.119106,-28.984442,26.86578,-5.017611,2.5603611,0.06826895,-7.001345
60,-3.1709835529327393,73.53751373291016,78.42062377929688,1.289430853665069,0.7173487214018006,-92.57422125778967,-25.325634,7.1893826,-3.2263823,37.02679,-3.0900877,-11.192477,-7.220528,-9.765907,-13.485067,41.41393,-19.499231,2.332414,5.222204,0.33966136,15.18616,-12.613311,27.570086,-28.290617,-0.4930468,-15.834963,3.4710128,7.4401493,-13.495634,-28.8691,26.91227,-4.340201,1.9860364,0.5566115,-6.8388524
61,-3.27067232131958,74.72802734375,78.1600341796875,1.3706972541249123,0.6131165167274608,-92.66189761266003,-25.646446,8.1813345,-1.933791,41.40544,-5.6965084,-9.735913,-8.055492,-9.736623,-13.534975,41.481884,-20.411911,2.3659265,4.9106097,0.13218722,15.271317,-13.636734,27.839314,-28.173449,-0.47114366,-15.26214,3.80398,7.604559,-12.798173,-28.730373,26.935844,-3.7115529,1.4895186,1.1458049,-6.7860875
62,-3.3460426330566406,75.9007797241211,77.91275024414062,1.3426649636418482,0.5045302838723098,-92.87642567755032,-25.766005,9.472975,-0.5493753,45.728973,-8.155891,-8.418133,-8.88677,-9.529993,-13.433088,41.42275,-21.209114,2.3636408,4.6328926,0.048928313,15.327401,-14.505323,28.021885,-27.866892,-0.46680897,-14.387429,4.2830973,7.752752,-12.045199,-28.568098,26.937685,-3.090553,1.0029131,1.8353935,-6.8127317
63,-3.422978401184082,77.05577087402344,77.69091033935547,1.265428124668556,0.39101084538072217,-93.14583939459153,-25.64563,10.891141,0.8263466,49.817257,-10.3776245,-7.1993246,-9.696637,-9.239289,-13.2741785,41.27212,-21.876947,2.3196938,4.367091,0.01995248,15.348207,-15.270393,28.125761,-27.434109,-0.50963944,-13.410257,4.7669334,7.8795576,-11.241598,-28.393272,26.906595,-2.5524035,0.5709705,2.5009797,-6.844841
64,-3.4973409175872803,78.2095947265625,77.48285675048828,1.1986854985532813,0.27290427558771263,-93.39848051106648,-25.262003,12.239486,2.107348,53.49259,-12.261812,-6.0497723,-10.470209,-8.959258,-13.151507,41.069828,-22.403429,2.2300062,4.0910025,-0.024151523,15.331431,-15.959603,28.168394,-26.929419,-0.6588211,-12.52607,5.1130276,7.989064,-10.383656,-28.224138,26.828861,-2.188904,0.24014148,3.017074,-6.8126497
65,-3.5624277591705322,79.33910369873047,77.29424285888672,1.149278623495145,0.1666004644461774,-93.62768937617425,-24.627789,13.515725,3.3544543,56.778667,-13.7379,-4.919101,-11.196895,-8.699147,-13.084886,40.771263,-22.81612,2.083514,3.8052557,-0.08582525,15.264378,-16.553957,28.155571,-26.322351,-0.98096716,-11.654432,5.310833,8.089457,-9.412555,-28.072502,26.645493,-2.0904756,-0.0078862095,3.3529537,-6.6857333
66,-3.618316411972046,80.44740295410156,77.13591766357422,1.0889670116335481,0.0671560938531021,-93.86704259024926,-23.75488,14.793277,4.621663,59.769184,-14.878719,-3.832192,-11.886493,-8.417401,-13.024493,40.371548,-23.110083,1.8856177,3.5277743,-0.13621652,15.159403,-17.038294,28.08645,-25.602533,-1.4498495,-10.731365,5.4265995,8.181418,-8.324232,-27.943987,26.364832,-2.2206595,-0.1829137,3.5747492,-6.507761
67,-3.6597392559051514,81.53230285644531,76.99439239501953,1.0302276817318714,-0.05572407290917485,-94.10535669687752,-22.645508,15.964936,5.824218,62.403603,-15.787565,-2.8844125,-12.556465,-8.134488,-12.961701,39.970284,-23.224913,1.660161,3.2577758,-0.19636425,15.052122,-17.494207,27.978554,-24.857855,-1.9488802,-10.01063,5.431494,8.264644,-7.2009373,-27.847343,26.079931,-2.4812338,-0.22466828,3.7024632,-6.323239
68,-3.6951732635498047,82.62202453613281,76.88365936279297,0.983581456708622,-0.2309917018007625,-94.32989044241931,-21.313862,16.907097,6.8721204,64.61425,-16.553736,-2.1853018,-13.227384,-7.870968,-12.886495,39.667988,-23.100037,1.429886,2.9913468,-0.2906928,14.979306,-17.980957,27.859304,-24.17107,-2.3862414,-9.743804,5.2964,8.340218,-6.127023,-27.789968,25.884716,-2.7742755,-0.07188667,3.756338,-6.1764617
69,-3.7461020946502686,83.70970916748047,76.80703735351562,0.9463083521437169,-0.4969981194375195,-94.52145145887759,-19.731554,17.607655,7.762822,66.401405,-17.177584,-1.7340496,-13.906437,-7.6435513,-12.813508,39.58051,-22.716736,1.197006,2.7213583,-0.43686172,14.984115,-18.50505,27.762592,-23.53112,-2.8022778,-10.116994,4.953725,8.37438,-5.0974045,-27.77565,25.788078,-3.1279776,0.4209634,3.6843066,-6.0818915
70,-3.7872166633605957,84.80635070800781,76.7696533203125,0.9149037366503165,-0.826852957299207,-94.6912992130503,-17.925173,18.099522,8.556013,67.80304,-17.60486,-1.4927647,-14.584907,-7.4402227,-12.744444,39.625153,-22.106894,0.9546187,2.4278,-0.61478895,15.036843,-18.993872,27.662477,-22.863668,-3.258507,-10.944527,4.439896,8.361896,-4.1044335,-27.806057,25.774916,-3.562678,1.1829455,3.4965026,-6.017522
71,-3.8202576637268066,85.89458465576172,76.77054595947266,0.9038465615447454,-1.1509827322947592,-94.87276909533027,-16.00661,18.322002,9.25138,68.814125,-17.848848,-1.516072,-15.264722,-7.245284,-12.649386,39.616676,-21.291393,0.7144944,2.1419084,-0.8270852,15.07687,-19.439936,27.582054,-22.252735,-3.7072527,-11.978585,3.8769748,8.389849,-3.151723,-27.875666,25.823261,-4.0332956,1.9440972,3.3026812,-5.9606
72,-3.834092617034912,86.9792709350586,76.80448150634766,0.9252716375786949,-1.399421698841108,-95.09886763848526,-14.091547,18.217915,9.840663,69.430145,-17.926168,-1.8585538,-15.945754,-7.043988,-12.495876,39.367245,-20.290586,0.48671,1.8720707,-1.0663058,15.038435,-19.823576,27.521732,-21.74663,-4.090872,-12.956902,3.3861299,8.537024,-2.2770534,-27.977713,25.940054,-4.463756,2.4332573,3.2134242,-5.8963203
73,-3.8207883834838867,88.0610122680664,76.87630462646484,0.9790533671687588,-1.5474017876607622,-95.38691759742717,-12.186575,17.729404,10.288965,69.60495,-17.918062,-2.6304708,-16.650301,-6.8391824,-12.259339,38.853836,-19.100965,0.26776126,1.6215166,-1.3399525,14.885146,-20.128988,27.478926,-21.361126,-4.391663,-13.932768,2.953537,8.862304,-1.5047188,-28.1112,26.169556,-4.8241253,2.5333052,3.2915397,-5.8419547
74,-3.795513153076172,89.15605926513672,76.9861831665039,1.060934950215578,-1.6325053838470556,-95.71622189062849,-10.264846,16.898203,10.59867,69.35894,-17.805016,-3.766006,-17.371744,-6.642476,-11.958402,38.16888,-17.714819,0.057061438,1.3805672,-1.6483887,14.654762,-20.374222,27.453056,-21.066502,-4.6333246,-15.005209,2.523888,9.308354,-0.8217497,-28.275204,26.498693,-5.144603,2.4013898,3.4661582,-5.7993016
75,-3.737452268600464,90.23908996582031,77.12649536132812,1.1672653319481725,-1.6786510841187572,-96.0622463561088,-8.388071,15.820527,10.806616,68.787415,-17.451263,-5.0602345,-18.067776,-6.453741,-11.622537,37.301926,-16.149513,-0.1335615,1.1448563,-1.9748633,14.394506,-20.565672,27.445173,-20.84865,-4.847283,-15.966977,2.1585188,9.794115,-0.19172458,-28.458574,26.838583,-5.4544353,2.177163,3.646867,-5.7319713
76,-3.6631743907928467,91.34906005859375,77.29251098632812,1.2975302297524434,-1.7098627946208094,-96.40024124285692,-6.6132483,14.588894,10.944231,67.98576,-16.709635,-6.319326,-18.695475,-6.272812,-11.280846,36.239643,-14.4200535,-0.2935829,0.91459,-2.3055637,14.150648,-20.720373,27.456966,-20.701143,-5.055579,-16.615238,1.9245224,10.244086,0.42451555,-28.644497,27.094496,-5.781073,1.9985512,3.7430117,-5.6026645
77,-3.578336238861084,92.4670181274414,77.4827651977539,1.450872393098912,-1.7238484961206226,-96.73657195727277,-4.909182,13.184789,11.008584,66.90211,-15.516483,-7.6850295,-19.228527,-6.0912166,-10.935696,34.930225,-12.523772,-0.4316624,0.6946364,-2.6398249,13.913178,-20.836985,27.49036,-20.645174,-5.253335,-16.836306,1.8881071,10.691298,1.0395341,-28.822775,27.245895,-6.126318,1.8498046,3.7282774,-5.374371
78,-3.4835338592529297,93.5888671875,77.69046783447266,1.6266808380186693,-1.7091487622926602,-97.08003816857456,-3.2636359,11.570402,10.949752,65.504326,-13.968648,-9.209209,-19.696007,-5.9209614,-10.565497,33.40094,-10.458385,-0.5502895,0.48734966,-2.9886882,13.661985,-20.913984,27.544632,-20.684336,-5.427004,-16.761759,2.0027668,11.16431,1.6315165,-28.991285,27.337526,-6.47,1.6712637,3.6505067,-5.073778
79,-3.376352071762085,94.72606658935547,77.8942642211914,1.8277238006572236,-1.6760470184198288,-97.40782974000942,-1.7583882,9.822771,10.736295,63.93151,-12.145582,-10.570461,-20.147446,-5.785118,-10.16883,31.774933,-8.247807,-0.62973714,0.28533632,-3.3511496,13.42766,-20.964334,27.61742,-20.781982,-5.5871024,-16.555061,2.1690285,11.581026,2.188372,-29.144756,27.37369,-6.806748,1.5329798,3.5317404,-4.7605157
80,-3.264469623565674,95.87916564941406,78.09630584716797,2.0560514563276353,-1.6357866436805075,-97.6974729721491,-0.47039515,8.02952,10.356649,62.32812,-10.104084,-11.448963,-20.628294,-5.698901,-9.743728,30.164856,-5.9081593,-0.6476722,0.082118034,-3.7268212,13.241065,-21.00026,27.705612,-20.90207,-5.7445164,-16.376842,2.2843633,11.860161,2.6971407,-29.277386,27.359095,-7.129528,1.5044482,3.3948522,-4.4935117
81,-3.142777919769287,97.03997039794922,78.298828125,2.3250365604675602,-1.586187582050287,-97.94459989157977,0.5382943,6.125715,9.73225,60.76644,-7.680871,-11.773374,-21.146444,-5.668138,-9.281075,28.569763,-3.4042485,-0.64539796,-0.12792149,-4.1268635,13.104522,-21.026634,27.809992,-21.040628,-5.896,-16.207378,2.349045,11.964975,3.177423,-29.380579,27.276785,-7.4402213,1.6330945,3.2307603,-4.2870317
82,-3.0174667835235596,98.23296356201172,78.49883270263672,2.630544171522406,-1.5223043207559834,-98.16189556086225,1.3384639,4.1231956,8.91389,59.16673,-4.8804584,-11.722371,-21.683155,-5.681073,-8.7784195,26.946157,-0.7416143,-0.61533046,-0.33949748,-4.550382,13.001105,-21.03456,27.931602,-21.21436,-6.0371466,-15.979741,2.4081402,11.94348,3.6201823,-29.451094,27.134312,-7.7302737,1.8702495,3.0331802,-4.1094713
83,-2.8805453777313232,99.44818878173828,78.67243957519531,2.943521576662552,-1.45347143463334,-98.35212470539496,2.0494087,2.238722,8.115147,57.454865,-2.0066457,-11.319427,-22.240017,-5.7185073,-8.238848,25.333078,2.0010607,-0.46030217,-0.54350054,-4.976977,12.935012,-21.016468,28.066612,-21.416033,-6.1767755,-15.783503,2.4245079,11.842184,3.9722307,-29.493397,26.974907,-7.9821444,2.1419375,2.8298118,-3.952336
84,-2.736215591430664,100.66859436035156,78.81588745117188,3.234508505862754,-1.390601197456684,-98.51711938979348,2.782223,0.68261653,7.552098,55.55852,0.62807024,-10.563658,-22.803158,-5.7550592,-7.660103,23.740923,4.763667,-0.08038212,-0.73363566,-5.3854055,12.912344,-20.959726,28.209126,-21.63351,-6.326528,-15.706538,2.3618636,11.706698,4.1798477,-29.51727,26.84488,-8.179592,2.3760712,2.6480145,-3.808611
85,-2.5924549102783203,101.9079818725586,78.92018127441406,3.5139101253315705,-1.3309322586653287,-98.66405990375043,3.5222805,-0.508377,7.330323,53.45184,3.3083913,-9.278301,-23.466732,-5.7641425,-6.982615,22.264389,7.662641,0.2962634,-0.9035007,-5.7827067,12.939126,-20.874474,28.353432,-21.862768,-6.4750333,-15.751443,2.1845334,11.511631,4.2435117,-29.527218,26.74968,-8.319615,2.5747705,2.4971495,-3.6843464
86,-2.4545094966888428,103.16797637939453,79.000244140625,3.7935409036401535,-1.272256723003715,-98.79085709203474,4.214587,-1.4220654,7.3979883,51.212303,6.051067,-7.4706755,-24.193789,-5.7590446,-6.2152686,20.8463,10.69601,0.71263933,-1.0568864,-6.174517,13.012142,-20.758526,28.49536,-22.105326,-6.6205707,-15.873095,1.921171,11.243188,4.1854553,-29.524761,26.67124,-8.410742,2.772357,2.3620782,-3.582607
87,-2.3232738971710205,104.42595672607422,79.02637481689453,4.055742496665594,-1.2324629301156882,-98.87999036406123,4.9218764,-2.0922303,7.6820407,48.89534,8.130041,-5.43935,-24.758797,-5.771002,-5.4279437,19.244816,13.626469,1.6784992,-1.2068192,-6.552619,13.134569,-20.588884,28.661121,-22.36214,-6.7957153,-16.109413,1.6322801,10.969347,3.9975822,-29.512365,26.612747,-8.470248,2.9414883,2.2332673,-3.4895787
88,-2.191117286682129,105.69071960449219,78.98198699951172,4.293881541733036,-1.2365487880547237,-98.90513866624636,5.726696,-2.6186368,8.015176,46.513588,8.851618,-3.547299,-24.91991,-5.8395605,-4.666703,17.197899,16.220497,3.7057352,-1.3877901,-6.9063387,13.301015,-20.344265,28.822546,-22.615055,-6.999298,-16.4683,1.380776,10.742164,3.6468828,-29.498663,26.603432,-8.484412,3.0579612,2.102549,-3.399682
89,-2.057013750076294,106.97628021240234,78.8697509765625,4.5928881585231665,-1.3339271324455357,-98.81024476905165,6.833579,-3.1749182,8.2372465,43.745804,7.8086877,-1.8593817,-24.36412,-6.072738,-3.932362,14.1278715,18.632902,7.594037,-1.6457247,-7.3273883,13.538962,-20.028519,28.981485,-22.88895,-7.230013,-17.034327,1.1686616,10.575817,3.1583369,-29.488329,26.637138,-8.471776,3.1109512,1.9742949,-3.3027139
90,-1.9337266683578491,108.24720764160156,78.69673156738281,5.025600620666937,-1.5365214546258807,-98.58767593558596,8.23014,-3.8864627,8.332176,40.541584,5.5097265,-0.31055227,-23.258295,-6.533104,-3.1757324,10.312919,20.91877,12.866438,-1.9845233,-7.8885703,13.866413,-19.647886,29.141985,-23.181353,-7.483096,-17.769556,0.9705442,10.436813,2.5492864,-29.481478,26.704027,-8.441714,3.1178944,1.8528595,-3.2068994
91,-1.867419719696045,109.5244140625,78.48175811767578,5.188221521003325,-1.7921344211512715,-98.42822972323502,9.525908,-4.247578,8.382242,37.70618,2.4277265,0.8157165,-21.568861,-6.7397103,-3.7462976,5.6984076,23.297722,15.000033,-2.224448,-8.206462,14.277324,-19.209703,29.298672,-23.458319,-7.7470503,-18.515955,0.80605227,10.313023,1.8040315,-29.478962,26.802742,-8.393204,3.0978842,1.7299907,-3.1299183
92,-1.8134604692459106,110.81563568115234,78.26892852783203,5.086796588191304,-1.9711106806916943,-98.36355947151,10.353348,-4.242243,8.596295,35.639046,-0.669551,1.5542847,-21.812374,-6.751894,-4.4656954,5.386731,23.30683,15.000033,-2.347296,-8.240533,14.675241,-18.720266,29.424095,-23.682137,-8.010178,-19.104477,0.6870794,10.1997795,0.87538,-29.487831,26.93211,-8.294649,3.0631163,1.590638,-3.085552
93,-1.717646598815918,112.12416076660156,78.07669830322266,4.793345065841753,-2.0073357698417587,-98.32878996975673,10.635124,-3.915659,9.1296425,34.313755,-3.705929,2.0112348,-22.142813,-6.5876956,-4.558517,5.3900967,22.943985,15.000033,-2.3966966,-8.01389,15.011684,-18.225653,29.47265,-23.873312,-8.274881,-19.50832,0.6109243,10.104598,-0.24603234,-29.507542,27.0405,-8.146104,2.9725893,1.4041055,-3.0469055
94,-1.592786192893982,113.46619415283203,77.9025650024414,4.321230391505616,-1.9439929217645062,-98.3126990487264,10.529616,-3.278668,9.896271,33.50465,-6.987634,2.2190838,-22.425997,-6.2709036,-4.333123,5.473371,22.261234,15.000033,-2.4672158,-7.579759,15.295725,-17.606365,29.55743,-23.99343,-8.628829,-19.84395,0.55718374,10.067771,-1.648818,-29.554453,27.291521,-7.901851,2.873982,1.1806868,-3.0802476
95,-1.4572808742523193,114.84364318847656,77.74594116210938,3.7277089800911365,-1.8072557897536863,-98.3389550855305,10.07382,-2.4494126,10.707726,33.132847,-10.210474,2.2282376,-22.631668,-5.8631606,-3.9895923,5.622602,21.370895,15.000033,-2.4671595,-6.9822187,15.56746,-16.94091,29.609339,-24.051199,-8.958322,-20.049732,0.5495245,10.012723,-3.1568456,-29.621504,27.514093,-7.6675572,2.7754917,0.97583854,-3.1346612
96,-1.3099862337112427,116.23070526123047,77.5859146118164,3.070684411504256,-1.6271135327291026,-98.42960739373773,9.307236,-1.5530301,11.367202,33.11469,-13.070191,2.0919409,-23.335234,-5.4656396,-3.6653354,7.110092,19.716915,15.000033,-2.38736,-6.2819314,15.829,-16.22368,29.62339,-24.03007,-9.183528,-20.098688,0.5915628,9.916872,-4.7266374,-29.733742,27.73825,-7.4580975,2.7474852,0.8398296,-3.2471151
97,-1.1507184505462646,117.62911987304688,77.41895294189453,2.344563669347685,-1.4191891965991812,-98.59393743229855,8.1914215,-0.58321005,11.806113,33.51269,-15.501317,1.7758191,-25.094824,-5.101781,-3.277846,11.195581,16.482449,15.000033,-2.1867132,-5.468506,16.104939,-15.537556,29.569305,-23.980783,-9.195707,-20.032047,0.6377356,9.728467,-6.359518,-29.901163,27.949137,-7.2785807,2.8606155,0.77886695,-3.443956
98,-0.976325273513794,119.01681518554688,77.23715209960938,1.6048697435400476,-1.1999647702364913,-98.79506968276962,6.776628,0.4322086,12.112002,34.301556,-17.646076,1.3076636,-27.052458,-4.7841287,-2.8028708,16.080954,12.615986,15.000033,-1.8999188,-4.601184,16.400135,-14.885847,29.44196,-23.917803,-9.03189,-19.84785,0.7001411,9.478438,-8.052729,-30.121279,28.140501,-7.136926,3.06737,0.7694895,-3.7110918
99,-0.8089008927345276,120.38906860351562,77.03837585449219,0.9867647945502795,-0.9992198759094847,-98.98129254402838,5.2241344,1.3248302,12.316561,35.267597,-19.510353,0.82661635,-29.028801,-4.6581955,-2.338745,21.359293,8.664809,15.000033,-1.5709679,-3.8272266,16.699476,-14.219511,29.246944,-23.835741,-8.783302,-19.446938,0.8701015,9.261511,-9.685247,-30.377514,28.249182,-7.0811963,3.2350395,0.8188012,-3.9808364
100,-0.6569766998291016,121.74160766601562,76.8369140625,0.5580236444214371,-0.8165460017852009,-99.12549552157131,3.6435428,2.012733,12.47292,36.25206,-21.126608,0.4533072,-30.832678,-4.795233,-1.9997977,26.54823,5.217526,15.000033,-1.2144812,-3.2218177,16.96645,-13.485656,28.993536,-23.736341,-8.545052,-18.728941,1.2370095,9.175095,-11.151416,-30.640804,28.211143,-7.1354566,3.225974,0.9331722,-4.1791663
101,-0.514457643032074,123.0825424194336,76.62496185302734,0.3187841658034543,-0.615702015329398,-99.24814001600987,1.9695772,2.4967763,12.588725,37.30265,-22.520317,0.20338832,-32.521088,-5.208134,-1.7775054,31.708107,2.367155,15.000033,-0.80639404,-2.7862728,17.165154,-12.667397,28.682346,-23.621122,-8.297993,-17.501936,1.9230834,9.273771,-12.484708,-30.894138,28.033075,-7.250075,2.9337423,1.1577293,-4.267856
102,-0.39879438281059265,124.40254974365234,76.41935729980469,0.1514651641987318,-0.4037555819339159,-99.38264338127969,0.13773336,2.935371,12.643724,38.56661,-23.724567,-0.01124607,-34.095528,-5.789057,-1.7907214,36.90621,-0.123418525,14.3503,-0.32171914,-2.4091187,17.316889,-11.788115,28.313719,-23.490913,-8.005121,-15.877752,2.8528655,9.479029,-13.755167,-31.134296,27.756212,-7.385828,2.4524648,1.4738598,-4.286421
103,-0.3101341724395752,125.70389556884766,76.23578643798828,-0.04503360150680079,-0.22261905852047462,-99.52048296216107,-1.750169,3.4545405,12.651593,39.989265,-24.751114,-0.21120125,-35.38192,-6.4625206,-2.14818,41.837097,-2.254265,12.905233,0.2235724,-1.9980402,17.449627,-10.844787,27.899727,-23.341087,-7.7438784,-14.210448,3.815953,9.699701,-14.894069,-31.350458,27.369513,-7.59652,1.9285089,1.7923305,-4.2766857
104,-0.24068202078342438,126.97637939453125,76.07771301269531,-0.19498402238018386,-0.1228576630208252,-99.5839912666448,-3.5216465,3.9213848,12.621441,41.33798,-25.511381,-0.3546448,-36.298046,-7.3072143,-2.5981753,46.398468,-4.1288805,11.4667015,0.74838954,-1.629829,17.600756,-9.834658,27.462059,-23.168493,-7.59695,-12.85615,4.595066,9.868513,-15.850522,-31.52964,26.860754,-7.9225416,1.5181315,2.0243146,-4.2815423
105,-0.20038320124149323,128.21754455566406,75.93525695800781,-0.293319702338979,-0.10846705651983087,-99.5406445994318,-5.190365,4.337708,12.558118,42.6458,-25.958769,-0.4196141,-36.81831,-8.396218,-3.2204106,50.624832,-5.7543216,10.028097,1.229831,-1.3217219,17.785252,-8.698544,27.014969,-22.937878,-7.646464,-11.774961,5.1700344,10.009234,-16.569254,-31.64841,26.170301,-8.430233,1.195435,2.1487367,-4.2912087
106,-0.19036294519901276,129.42132568359375,75.81272888183594,-0.3315863001079773,-0.15266655192876363,-99.41719952580299,-6.812549,4.692252,12.456679,43.949146,-26.115969,-0.41930744,-37.02488,-9.742539,-3.9834988,54.654026,-7.1490355,8.558537,1.6873057,-1.080972,17.981226,-7.4380765,26.565329,-22.653261,-7.850333,-10.827795,5.642862,10.157013,-17.13849,-31.699152,25.339432,-9.037788,0.9036407,2.210773,-4.288173
107,-0.1903841197490692,130.59243774414062,75.7127456665039,-0.350259362913099,-0.25622572565523566,-99.270131443251,-8.3291025,5.0102353,12.318148,45.14782,-26.067635,-0.40464252,-36.93717,-11.192737,-4.764061,58.394535,-8.35059,7.0637527,2.1403346,-0.85423136,18.170341,-6.127158,26.125402,-22.359545,-8.117594,-10.21729,5.9748178,10.278632,-17.650305,-31.698215,24.497765,-9.633495,0.72319895,2.2225773,-4.3089166
108,-0.20487147569656372,131.7254180908203,75.63587951660156,-0.3911158490061555,-0.4189879799546104,-99.15703464137594,-9.682921,5.3189836,12.141745,46.1442,-25.90031,-0.4258457,-36.590027,-12.569489,-5.4469614,61.761196,-9.386329,5.563421,2.6111736,-0.5840585,18.336372,-4.839371,25.709364,-22.09992,-8.363522,-10.147865,6.1258616,10.341804,-18.198809,-31.677818,23.771952,-10.112371,0.7477019,2.1966486,-4.391455
109,-0.21253232657909393,132.85357666015625,75.57994842529297,-0.4727615008815729,-0.6828598716083553,-99.0958338336833,-10.844145,5.6365466,11.916191,46.974407,-25.617317,-0.4973388,-35.942,-13.832117,-6.0424447,64.76777,-10.236999,4.0401125,3.1096418,-0.23926002,18.513538,-3.5494719,25.32254,-21.862862,-8.614418,-10.92706,6.000026,10.322927,-18.770725,-31.657505,23.161983,-10.507949,1.077408,2.1113572,-4.5576677
110,-0.21373233199119568,133.97474670410156,75.55313873291016,-0.5712383801357669,-1.0326435400695255,-99.05512261154695,-11.851797,5.947171,11.647294,47.673164,-25.180822,-0.5923707,-35.000515,-15.059805,-6.627836,67.47065,-10.903842,2.4930122,3.6212883,0.15221801,18.702765,-2.218882,24.964197,-21.62436,-8.923299,-12.364444,5.647812,10.240082,-19.316545,-31.639217,22.608854,-10.885422,1.6452987,1.9677503,-4.786583
111,-0.21288126707077026,135.0784149169922,75.56224822998047,-0.673571929047485,-1.382353025826938,-99.02075388682654,-12.755591,6.2277017,11.35856,48.147167,-24.620064,-0.68759114,-33.88777,-16.230804,-7.18495,69.84186,-11.423487,0.9879057,4.135387,0.5591244,18.83788,-0.9104257,24.639765,-21.410389,-9.236966,-13.91936,5.248196,10.126705,-19.854155,-31.631355,22.143677,-11.202887,2.289686,1.8103153,-5.0518036
112,-0.22682538628578186,136.16989135742188,75.60877227783203,-0.7614716542659172,-1.6448179778661052,-98.9799784069314,-13.605518,6.458393,11.0750265,48.30476,-23.965641,-0.7601186,-32.73082,-17.31995,-7.6959195,71.855675,-11.832985,-0.40855357,4.6406813,0.9475089,18.853554,0.32003748,24.355795,-21.242605,-9.507375,-15.050193,4.976923,10.030423,-20.385517,-31.64434,21.79772,-11.435763,2.8434498,1.687259,-5.328403
113,-0.23594383895397186,137.25180053710938,75.68199920654297,-0.8414201362204118,-1.8065892347212464,-98.94451378854305,-14.408428,6.644796,10.805789,48.139145,-23.244392,-0.7970412,-31.547094,-18.335941,-8.19241,73.52145,-12.093235,-1.7277269,5.151793,1.3276567,18.724066,1.4671615,24.117504,-21.139082,-9.724731,-15.644807,4.885325,9.97852,-20.924011,-31.691013,21.59896,-11.561943,3.321707,1.605442,-5.6412406
114,-0.2649192214012146,138.31268310546875,75.7890396118164,-0.9212463840441186,-1.9103399365373153,-98.91768611785234,-15.140951,6.7953753,10.53937,47.694775,-22.434652,-0.8114729,-30.285109,-19.27403,-8.68926,74.86068,-12.194384,-2.9822884,5.6737533,1.7107172,18.490482,2.559385,23.92316,-21.08401,-9.920717,-15.9836445,4.876969,9.946036,-21.439293,-31.773783,21.514727,-11.627722,3.7948558,1.5408897,-5.9949474
115,-0.30847153067588806,139.37808227539062,75.92611694335938,-0.9835414852858112,-1.9515534255580527,-98.8751265620443,-15.808588,6.895393,10.270821,46.958992,-21.495384,-0.8198197,-28.97704,-20.082493,-9.136708,75.87038,-12.213645,-4.0725484,6.1846957,2.062541,18.187546,3.5840776,23.769056,-21.048899,-10.101042,-16.115276,4.902965,9.91046,-21.90254,-31.88438,21.48965,-11.678692,4.1910696,1.4977027,-6.3340445
116,-0.3634869456291199,140.44818115234375,76.0931167602539,-1.009416375561017,-1.9252603390128478,-98.79319559389477,-16.416672,6.929475,9.995334,45.918503,-20.385584,-0.8391832,-27.657024,-20.703331,-9.480482,76.54459,-12.22249,-4.8930726,6.662134,2.3493876,17.848625,4.5290165,23.651245,-21.005314,-10.268832,-16.086609,4.9146686,9.848581,-22.281109,-32.007168,21.469086,-11.762277,4.432472,1.4817576,-6.6022577
117,-0.4312673509120941,141.5112762451172,76.29148864746094,-0.9826111028663799,-1.8136246178521411,-98.67187696597317,-16.953972,6.8671165,9.72821,44.517757,-19.116049,-0.8664285,-26.32732,-21.14554,-9.715961,76.86755,-12.321699,-5.4107633,7.107818,2.552051,17.448528,5.401734,23.57291,-20.94676,-10.422963,-15.799228,4.907948,9.740332,-22.574348,-32.13351,21.461208,-11.862065,4.4422846,1.5122352,-6.781157
118,-0.517309308052063,142.58766174316406,76.52149963378906,-0.9156987352619291,-1.6239223049327924,-98.52299478912634,-17.417387,6.720395,9.47082,42.77672,-17.70049,-0.8972836,-24.981977,-21.41854,-9.871098,76.85313,-12.436739,-5.6762133,7.5309544,2.6891186,16.979788,6.207238,23.537258,-20.885353,-10.559677,-15.264639,4.9047,9.603252,-22.803068,-32.26221,21.490467,-11.951792,4.276505,1.5821271,-6.8999968
119,-0.6182273626327515,143.6749725341797,76.7684555053711,-0.8420673937164724,-1.3897953289882876,-98.3409615526062,-17.825048,6.5369315,9.1955385,40.792397,-16.0984,-0.9461059,-23.644876,-21.467138,-9.934481,76.54121,-12.378056,-5.7113023,7.927773,2.7739918,16.487844,6.908312,23.53717,-20.83872,-10.643248,-14.689211,4.895756,9.477332,-22.987963,-32.337723,21.520666,-12.015726,4.03538,1.6574025,-6.959376
120,-0.739513635635376,144.77203369140625,77.04206848144531,-0.7906481669163434,-1.144196441199733,-98.11976643560263,-18.199715,6.3693175,8.869584,38.665844,-14.271648,-1.025676,-22.337627,-21.236069,-9.8920965,75.96648,-11.956735,-5.538245,8.258148,2.8608024,16.064125,7.552407,23.566555,-20.750479,-10.760248,-14.287707,4.8765764,9.37493,-23.11945,-32.467087,21.554333,-12.167135,3.8946197,1.7047932,-7.012278
121,-0.8783214092254639,145.89187622070312,77.32891845703125,-0.7490913614335182,-0.8714006683962489,-97.86263153601793,-18.537128,6.206269,8.497933,36.34728,-12.188858,-1.0978026,-21.073734,-20.692297,-9.691304,75.101616,-11.224978,-5.112514,8.566877,2.9157457,15.676519,8.063667,23.614714,-20.67645,-10.805979,-14.099423,4.8365088,9.315631,-23.173597,-32.575737,21.529139,-12.375844,3.822458,1.7274085,-7.0100045
122,-1.045390009880066,147.0238037109375,77.62361907958984,-0.7090728392254597,-0.5616973457110995,-97.57097599000039,-18.829573,6.0250463,8.089291,33.81043,-9.87908,-1.169745,-19.838999,-19.872324,-9.338842,73.94031,-10.261771,-4.438982,8.839685,2.9363463,15.302899,8.469397,23.68294,-20.597645,-10.800861,-14.014425,4.7828345,9.278938,-23.175663,-32.667095,21.487505,-12.610724,3.766409,1.7388217,-6.957484
123,-1.219067096710205,148.16848754882812,77.91935729980469,-0.7028724214014754,-0.2562016412990192,-97.23732374686475,-19.099693,5.864322,7.609039,31.193907,-7.3929486,-1.3208311,-18.619251,-18.82097,-8.897959,72.55372,-8.920964,-3.6061404,9.059719,2.970289,14.97063,8.759564,23.772135,-20.532629,-10.765212,-14.006189,4.7314057,9.272094,-23.14024,-32.741432,21.44428,-12.844647,3.7459257,1.7214799,-6.892581
124,-1.4044575691223145,149.31878662109375,78.21019744873047,-0.7625544495899285,0.004816568368871951,-96.85532736168469,-19.371792,5.768183,7.0145364,28.634928,-4.779249,-1.6311066,-17.404549,-17.569784,-8.424596,71.00965,-7.0458236,-2.6875157,9.214562,3.0663207,14.70527,8.920729,23.882975,-20.50445,-10.716174,-14.047931,4.6978583,9.30351,-23.08276,-32.799206,21.411076,-13.048693,3.7809346,1.658111,-6.851798
125,-1.6038844585418701,150.4854736328125,78.47895812988281,-0.9054072184426719,0.218390659611273,-96.41248419892011,-19.667524,5.7557015,6.2641425,26.135107,-1.932991,-2.0650349,-16.228392,-15.959499,-7.763777,69.28682,-4.0211086,-1.4521554,9.2968445,3.2439737,14.522771,8.938604,24.01377,-20.518805,-10.649477,-14.158572,4.712451,9.39028,-23.00414,-32.839264,21.381058,-13.215924,3.8935726,1.5258188,-6.8251424
126,-1.8188258409500122,151.66607666015625,78.72410583496094,-1.1158064545134716,0.4075591379604058,-95.91843661665746,-19.98139,5.812627,5.362618,23.64609,1.1234376,-2.6053913,-15.080034,-13.966098,-6.8590064,67.34902,-0.13543455,0.13932441,9.317831,3.481822,14.402515,8.820188,24.16328,-20.567694,-10.554675,-14.343219,4.7577944,9.52342,-22.895866,-32.861294,21.349714,-13.363787,4.0667896,1.3401592,-6.7993755
127,-2.0374982357025146,152.87657165527344,78.92547607421875,-1.3793080991622866,0.5669898638930188,-95.39761986415937,-20.286818,5.9261885,4.332166,21.213205,4.1656313,-3.3601272,-13.889005,-11.893677,-5.983602,65.248314,3.4331489,1.6401715,9.2917795,3.763187,14.320748,8.582447,24.333517,-20.65331,-10.440182,-14.556792,4.778097,9.6716795,-22.763132,-32.867775,21.3323,-13.48498,4.2647843,1.1408004,-6.8068004
128,-2.274362325668335,154.0823516845703,79.09236145019531,-1.6741676541679555,0.6856757427871021,-94.87351230847072,-20.527193,6.075524,3.2029548,18.835665,6.9892745,-4.434963,-12.600722,-10.150781,-5.5254574,63.055607,5.5433583,2.460415,9.231851,4.066396,14.260712,8.245987,24.527645,-20.777563,-10.3187065,-14.754579,4.717864,9.803472,-22.599762,-32.861206,21.340868,-13.585298,4.4495516,0.9672968,-6.8808494
129,-2.518526554107666,155.27163696289062,79.20333862304688,-2.0480530548633453,0.7449723188810594,-94.35114910176284,-20.636341,6.312021,1.9162889,16.30304,9.713575,-5.9772034,-11.149846,-8.859545,-5.774628,60.757492,5.799955,2.1040869,9.142766,4.44217,14.219843,7.8207965,24.751831,-20.951939,-10.18619,-14.9270735,4.5413136,9.9249325,-22.400135,-32.841946,21.383703,-13.658724,4.6269784,0.8322442,-7.0394573
130,-2.764570951461792,156.47120666503906,79.25021362304688,-2.5139805991518185,0.7468421636960993,-93.82629350058016,-20.61957,6.663996,0.44733453,13.623928,12.402494,-7.9068484,-9.577628,-7.7641683,-6.503973,58.319164,4.8675036,0.9687269,9.025164,4.902617,14.2156105,7.298197,25.005424,-21.176376,-10.044207,-15.100313,4.285236,10.048702,-22.163326,-32.809742,21.447838,-13.708969,4.8127956,0.7136976,-7.261984
131,-3.009364366531372,157.6800537109375,79.24481964111328,-2.9911884398665536,0.7092144890609325,-93.30641008175952,-20.532219,7.069004,-1.082098,11.139921,14.770355,-9.975477,-8.001512,-6.753093,-7.372821,55.787685,3.2225838,-0.24839927,8.883451,5.36046,14.259597,6.669404,25.279047,-21.432451,-9.911562,-15.28071,4.00391,10.151939,-21.898767,-32.770695,21.52172,-13.751867,4.9831996,0.5998988,-7.52192
132,-3.2627689838409424,158.8810272216797,79.2059326171875,-3.368917961990282,0.6574652536750226,-92.7905832915135,-20.45072,7.4185214,-2.502167,9.216077,16.53384,-11.915808,-6.547709,-5.8185215,-8.07411,53.208927,1.3580506,-0.9011683,8.714103,5.6999435,14.359393,5.919664,25.558975,-21.69837,-9.801569,-15.473415,3.7511697,10.209947,-21.617638,-32.733845,21.596733,-13.803713,5.117308,0.4786983,-7.7943273
133,-3.5141334533691406,160.09628295898438,79.14359283447266,-3.622594646016354,0.5877513442581898,-92.26831036463761,-20.340425,7.667582,-3.8238578,7.778995,17.673355,-13.856387,-5.1501,-4.984917,-8.584465,50.388905,-0.8312655,-0.7477785,8.509146,5.899237,14.521442,5.036689,25.836115,-21.96591,-9.735817,-15.677204,3.5354166,10.203903,-21.32331,-32.709763,21.689894,-13.880461,5.2160935,0.3297629,-8.122411
134,-3.73649001121521,161.3197021484375,79.04708099365234,-3.65919324268817,0.47087524251628493,-91.71556629403273,-19.992199,7.7151303,-4.6957116,6.3668957,18.489407,-15.000033,-3.7620065,-4.445154,-9.022,47.40794,-3.5434415,-0.07955735,8.244026,5.8844285,14.777672,4.0270963,26.107054,-22.24499,-9.697568,-15.887179,3.3305566,10.149248,-21.010021,-32.70284,21.804398,-13.973445,5.2922487,0.16563477,-8.503847
135,-3.933760643005371,162.55645751953125,78.94776916503906,-3.4910484915253015,0.35990296331231564,-91.14036976471716,-19.815306,7.55727,-5.035333,5.782591,18.69891,-15.000033,-2.5913231,-4.2256455,-9.465308,44.635536,-6.342161,0.78505147,7.9298677,5.655507,15.078497,2.8907943,26.368645,-22.539402,-9.635108,-16.099281,3.1365845,10.071276,-20.673332,-32.70563,21.9042,-14.066399,5.3415017,0.02199905,-8.848957
136,-4.142666816711426,163.81881713867188,78.85032653808594,-3.188354916770102,0.32759566287432335,-90.55505693956363,-20.145254,7.2881684,-5.210467,6.6136,18.125977,-15.000033,-1.865839,-4.2491255,-9.988344,42.43816,-8.80425,1.4877175,7.5793214,5.253425,15.347358,1.6268955,26.62046,-22.852488,-9.492878,-16.30808,2.952715,9.995613,-20.31419,-32.7035,21.955637,-14.138559,5.355326,-0.065393105,-9.066784
137,-4.370718955993652,165.09056091308594,78.75204467773438,-2.7137087926140437,0.39733491987169783,-89.93162163475844,-21.24713,6.8312955,-5.213536,9.439347,16.441175,-15.000033,-1.7245221,-4.5915585,-10.627793,41.04652,-10.8820505,1.9486879,7.170352,4.629682,15.579634,0.19026305,26.869432,-23.189625,-9.251945,-16.534504,2.7452805,9.90441,-19.960514,-32.685703,21.955965,-14.175146,5.361497,-0.11886057,-9.125411
138,-4.609566688537598,166.39527893066406,78.6392593383789,-2.1297963880571826,0.5217096952755077,-89.28910421776183,-22.739151,6.280023,-5.0512977,13.492484,14.004152,-15.000033,-2.010036,-5.1615534,-11.357601,40.2051,-12.778076,2.3219135,6.7159777,3.858035,15.798595,-1.3865535,27.117634,-23.53147,-8.961057,-16.77258,2.5264962,9.7953005,-19.62204,-32.65007,21.929466,-14.174787,5.3511906,-0.14565477,-9.072643
139,-4.846958637237549,167.7058868408203,78.5089111328125,-1.5817549914925215,0.6430934165509384,-88.70166414981854,-24.380407,5.838689,-4.79197,18.261305,11.182117,-15.000033,-2.5134761,-5.734524,-12.077605,39.653194,-14.523069,2.6220305,6.2680902,3.1060944,16.007723,-2.9813023,27.352926,-23.84445,-8.667097,-16.975704,2.3653028,9.717346,-19.273685,-32.59456,21.887213,-14.130165,5.265258,-0.087147914,-8.9373865
140,-5.06020450592041,169.0174560546875,78.34246063232422,-1.1672341338475578,0.7272148128994164,-88.2288745206192,-25.955572,5.651979,-4.4951224,23.263214,8.32674,-15.000033,-3.055946,-6.1452537,-12.693287,39.148266,-16.15295,2.8707526,5.8656597,2.4894812,16.198963,-4.491882,27.555826,-24.106155,-8.390543,-17.096075,2.3288012,9.7165785,-18.877253,-32.51616,21.838339,-14.040081,5.040737,0.11348249,-8.750109
141,-5.243556022644043,170.32528686523438,78.13677215576172,-0.8760332014680733,0.7740533308382814,-87.8571420731428,-27.508326,5.718381,-4.113488,28.639786,5.367992,-14.699089,-3.6670418,-6.4241495,-13.192855,38.766533,-17.699404,3.0735655,5.492904,1.9981017,16.369516,-5.9463325,27.717003,-24.346733,-8.077637,-17.160725,2.471671,9.813325,-18.454895,-32.41467,21.795374,-13.861851,4.6464972,0.5208549,-8.484026
142,-5.398927211761475,171.61264038085938,77.89656066894531,-0.5143131853502777,0.7871883636195752,-87.53162971330384,-28.961227,5.848902,-3.3647437,34.299984,2.301718,-13.506924,-4.4653597,-6.8620987,-13.574692,38.75833,-19.235483,3.2527986,5.1036777,1.4434106,16.54879,-7.393602,27.834145,-24.568558,-7.712791,-17.179071,2.7455626,9.978494,-18.012196,-32.290695,21.755339,-13.607371,4.1139665,1.0856351,-8.131106
143,-5.5277814865112305,172.87059020996094,77.63321685791016,-0.23213136427088282,0.7846514730051547,-87.32040707434513,-30.230429,6.1870885,-2.580935,39.9451,-0.6925617,-12.292158,-5.3207884,-7.2078385,-13.849048,38.783695,-20.65609,3.3429368,4.761709,0.97915065,16.704147,-8.7655115,27.897932,-24.715315,-7.368008,-17.072489,3.063059,10.180413,-17.504927,-32.140053,21.706005,-13.334863,3.4870758,1.692826,-7.751863
144,-5.631914138793945,174.09716796875,77.36432647705078,-0.035938088133092044,0.7764067746968025,-87.25797343212501,-31.155048,6.7510405,-1.7711642,45.14328,-3.364847,-11.180128,-6.1420527,-7.4066567,-13.998784,38.632324,-21.925585,3.3343828,4.4953637,0.62613577,16.82488,-9.999718,27.896872,-24.729464,-7.1062765,-16.764067,3.337641,10.385064,-16.898378,-31.956264,21.642693,-13.092428,2.8123047,2.2288342,-7.409776
145,-5.710845470428467,175.30328369140625,77.09847259521484,0.07307533290665924,0.7787563069032165,-87.38795730915528,-31.731247,7.6058626,-0.8899109,49.923164,-5.734132,-10.187167,-6.8901596,-7.4329896,-13.997842,38.158154,-23.096916,3.1985433,4.33183,0.39443952,16.88928,-11.063035,27.815989,-24.591896,-6.9163384,-16.097412,3.5694797,10.600462,-16.167782,-31.72968,21.566914,-12.867332,1.9803408,2.6977475,-7.1256223
146,-5.761675834655762,176.50595092773438,76.84302520751953,0.10920274958195655,0.7861389017913561,-87.67641263975206,-32.036293,8.728205,0.052221462,54.51357,-7.935405,-9.233313,-7.620019,-7.3261228,-13.860608,37.50228,-24.170689,2.9491124,4.2435794,0.26189557,16.901554,-12.016413,27.653542,-24.340715,-6.7398934,-15.158241,3.8002496,10.832994,-15.348246,-31.458603,21.48895,-12.622796,1.0046232,3.147485,-6.8614597
147,-5.801389217376709,177.68475341796875,76.61046600341797,0.0865985427125707,0.7753648403603991,-88.04241079489663,-32.044456,10.0030365,0.9826562,58.792217,-9.898071,-8.300185,-8.38294,-7.1261754,-13.634706,36.888664,-25.033731,2.6415396,4.1793556,0.20091823,16.892971,-12.899858,27.422625,-23.999117,-6.6079917,-14.215926,4.003605,11.050106,-14.46982,-31.151033,21.409004,-12.395224,0.111667484,3.5329044,-6.599583
148,-5.837782382965088,178.83914184570312,76.39611053466797,0.01845450470889477,0.7234413158820288,-88.40528378970296,-31.74278,11.304708,1.8400112,62.63794,-11.54516,-7.3738985,-9.23537,-6.8786225,-13.371565,36.551247,-25.576305,2.3331256,4.088187,0.18448295,16.89851,-13.749894,27.14835,-23.58679,-6.5631666,-13.547393,4.149743,11.223048,-13.560908,-30.821838,21.32596,-12.229775,-0.46576852,3.809895,-6.3280983
149,-5.865301132202148,179.97544860839844,76.21149444580078,-0.11590636341378488,0.622895699228646,-88.76061670147502,-31.110697,12.695289,2.6600814,66.0527,-12.810719,-6.439902,-10.232992,-6.5627813,-13.058506,36.62504,-25.747429,2.0113122,3.9729283,0.24073736,16.943985,-14.556319,26.844847,-23.068188,-6.6897526,-13.224472,4.2468114,11.340851,-12.57888,-30.47588,21.190924,-12.208322,-0.62058884,3.9475741,-6.0242066
150,-5.891265869140625,181.08958435058594,76.07823944091797,-0.316589547445835,0.48525253451277267,-89.1464551734252,-30.165443,14.214761,3.4799416,69.11014,-13.7591715,-5.5027504,-11.332919,-6.1652417,-12.68409,36.96755,-25.616396,1.6513826,3.859485,0.37072858,17.013102,-15.295006,26.517355,-22.444016,-6.965307,-13.106677,4.3029656,11.423852,-11.51267,-30.114384,21.014706,-12.304546,-0.48523453,3.9788282,-5.70577
151,-5.924527168273926,182.20086669921875,75.9848861694336,-0.5320776447034075,0.31758506307654244,-89.5446811038115,-28.960789,15.681784,4.2534795,71.78048,-14.495912,-4.588868,-12.444768,-5.7494836,-12.300735,37.390022,-25.247663,1.2962259,3.728703,0.5039381,17.077929,-15.96936,26.180433,-21.786497,-7.2863464,-13.150033,4.2873225,11.492049,-10.430471,-29.749334,20.88437,-12.414033,-0.18687464,3.9594963,-5.4241524
152,-5.967932224273682,183.31072998046875,75.91947937011719,-0.7058049200377924,0.12880507712156786,-89.93608413023665,-27.562826,16.896196,4.9342694,74.03435,-15.119057,-3.7350004,-13.481707,-5.384275,-11.954016,37.703117,-24.70401,0.99156106,3.5582168,0.56622875,17.111578,-16.579105,25.851648,-21.169106,-7.5577292,-13.311589,4.1692324,11.565625,-9.395943,-29.398048,20.88244,-12.438778,0.14664641,3.943579,-5.231935
153,-5.9989776611328125,184.39657592773438,75.88326263427734,-0.844610713934525,-0.10026881963984187,-90.31209751297868,-25.969284,17.834894,5.503538,75.897,-15.630168,-2.8309264,-14.442836,-5.088755,-11.66038,37.949005,-23.9733,0.7500118,3.3282683,0.5457313,17.129732,-17.099747,25.5317,-20.56948,-7.7909718,-13.660283,3.884223,11.63569,-8.411468,-29.07084,21.033215,-12.354425,0.59984285,3.9061866,-5.163608
154,-5.996793746948242,185.46408081054688,75.86721801757812,-0.9671938768802915,-0.3661432493010544,-90.68347958268284,-24.171844,18.574326,6.006421,77.38401,-15.975145,-1.9045798,-15.371337,-4.83429,-11.391433,38.198242,-23.029177,0.55495983,3.0500941,0.4765351,17.141808,-17.534342,25.21807,-19.961315,-8.038526,-14.195173,3.4669409,11.694046,-7.4424205,-28.768526,21.29079,-12.224173,1.205021,3.831029,-5.18654
155,-5.962672233581543,186.51556396484375,75.89261627197266,-1.0432600658062312,-0.6235257672865852,-91.05967930225084,-22.23344,19.051485,6.486385,78.44961,-16.164919,-1.2055498,-16.249117,-4.621209,-11.11743,38.305424,-21.914188,0.40881705,2.7518804,0.35090706,17.112246,-17.933393,24.928753,-19.418495,-8.262351,-14.773911,3.0354433,11.764986,-6.494822,-28.49561,21.621357,-12.083558,1.7591511,3.7839062,-5.252763
156,-5.907917022705078,187.55136108398438,75.95342254638672,-1.0436619006544718,-0.8262596787229425,-91.45009621809045,-20.22145,19.20184,6.978477,79.05121,-16.212902,-0.98383456,-17.058321,-4.4512944,-10.806152,38.12956,-20.674345,0.30970457,2.464432,0.15807074,17.008415,-18.336449,24.693823,-19.015207,-8.438675,-15.257085,2.7075078,11.87815,-5.565918,-28.257439,21.984165,-11.97881,2.0579832,3.831697,-5.3139277
157,-5.8457536697387695,188.5894317626953,76.03428649902344,-0.952792247192482,-0.9658446747361724,-91.87290326274967,-18.101757,18.984125,7.5027294,79.14374,-16.227537,-1.3811436,-17.793863,-4.335926,-10.427228,37.64145,-19.319832,0.27470767,2.1982412,-0.12036755,16.82175,-18.737137,24.536625,-18.786795,-8.580735,-15.647973,2.5250132,12.0990095,-4.6532683,-28.059303,22.39784,-11.935765,1.9656461,4.0456686,-5.3820853
158,-5.763079643249512,189.62841796875,76.15066528320312,-0.790879325206994,-1.0628816916800892,-92.31799796252061,-15.882853,18.429834,8.018863,78.76642,-16.169462,-2.2361383,-18.46542,-4.2792163,-9.992024,36.91518,-17.830393,0.30052042,1.9361233,-0.4795195,16.575188,-19.104158,24.460443,-18.687311,-8.721479,-16.019361,2.4202113,12.398852,-3.7458344,-27.901474,22.864248,-11.945198,1.6195786,4.3727016,-5.47198
159,-5.676018238067627,190.67376708984375,76.3010025024414,-0.5763515268699968,-1.1147284138459002,-92.75172744088663,-13.694247,17.588434,8.46445,78.00259,-15.837196,-3.3430388,-19.084578,-4.2728176,-9.533228,35.978622,-16.211914,0.34800526,1.6670614,-0.8924929,16.285503,-19.428177,24.462101,-18.667624,-8.878146,-16.33178,2.34791,12.668313,-2.8323944,-27.77762,23.317808,-12.001806,1.230032,4.6930614,-5.542279
160,-5.576643943786621,191.71763610839844,76.47325134277344,-0.33070844236040525,-1.1189741444773789,-93.13965264622108,-11.661011,16.505486,8.768489,76.9368,-15.022617,-4.511674,-19.660894,-4.3027277,-9.087563,34.851437,-14.463325,0.37512177,1.3841343,-1.3322479,15.967606,-19.718102,24.535448,-18.68581,-9.051195,-16.548828,2.2641907,12.797183,-1.8959823,-27.678335,23.688595,-12.102889,1.0045649,4.8868876,-5.553712
161,-5.468742370605469,192.76315307617188,76.65714263916016,-0.05511835833908759,-1.0532464822310408,-93.48103274282478,-9.78056,15.146427,8.90206,75.50533,-13.560758,-5.9169583,-20.19875,-4.356816,-8.6694145,33.493702,-12.573684,0.35142946,1.0886619,-1.7910693,15.586534,-19.975195,24.681145,-18.753305,-9.238628,-16.628681,2.1819007,12.73956,-0.9199126,-27.599636,23.962564,-12.255237,1.0153959,4.902676,-5.5042176
162,-5.347880840301514,193.8091583251953,76.8642578125,0.25787982250527647,-0.9242737956089794,-93.7899844276926,-8.00444,13.490475,8.8545265,73.69011,-11.619458,-7.605678,-20.698214,-4.445724,-8.2576275,31.918541,-10.550491,0.30025363,0.78321606,-2.2834833,15.143881,-20.201761,24.899868,-18.889668,-9.434886,-16.602907,2.1171165,12.560309,0.08148988,-27.541279,24.17406,-12.456258,1.145194,4.8112144,-5.4115887
163,-5.217322826385498,194.863525390625,77.07913970947266,0.610842136250646,-0.7737938973057211,-94.05451866675304,-6.370785,11.624527,8.606895,71.64287,-9.476803,-9.19027,-21.165596,-4.5868034,-7.8394117,30.228878,-8.421078,0.26138029,0.46111122,-2.8155944,14.709892,-20.396242,25.180248,-19.06235,-9.643811,-16.53647,2.0313153,12.314777,1.0761774,-27.496677,24.327938,-12.683386,1.3153718,4.672064,-5.268583
164,-5.075220584869385,195.9364471435547,77.28646087646484,1.0040026417914376,-0.6444521150419036,-94.26413696128286,-4.911074,9.666427,8.177038,69.52152,-7.3905168,-10.265477,-21.60734,-4.7953267,-7.3982153,28.528364,-6.2129316,0.27656358,0.1182188,-3.390379,14.353186,-20.562716,25.5044,-19.238924,-9.860287,-16.491861,1.8863336,12.05696,2.0282128,-27.456514,24.429365,-12.906723,1.446824,4.5444202,-5.068457
165,-4.9408087730407715,197.01524353027344,77.48928833007812,1.4606450029187101,-0.5405180523633718,-94.41466831166846,-3.6667368,7.536076,7.5015135,67.37457,-5.2800517,-10.653163,-22.007996,-5.096036,-6.915564,26.796421,-3.9264703,0.3252193,-0.25167808,-4.0326185,14.073838,-20.714132,25.86604,-19.418776,-10.063348,-16.42129,1.6660783,11.742081,2.9518712,-27.414186,24.466719,-13.117851,1.5477186,4.4278803,-4.7833476
166,-4.795724868774414,198.1172332763672,77.6810531616211,1.9696549639035241,-0.44148582496267286,-94.51434667346099,-2.5872114,5.256845,6.616362,65.12508,-3.0403852,-10.58022,-22.377626,-5.4689994,-6.400364,25.005705,-1.558372,0.3948582,-0.6413192,-4.728467,13.83519,-20.857038,26.264618,-19.620417,-10.246359,-16.310265,1.3921384,11.359903,3.8533535,-27.368107,24.441473,-13.32152,1.6479852,4.296469,-4.4250817
167,-4.653817653656006,199.22825622558594,77.84831237792969,2.4755536851381343,-0.3542422513031783,-94.57132171220556,-1.5744027,3.1054442,5.7169685,62.75193,-0.8828539,-10.231229,-22.760246,-5.862515,-5.870493,23.251173,0.8794961,0.5436598,-1.034184,-5.4219446,13.651545,-20.981258,26.686632,-19.83849,-10.4264555,-16.26642,1.084727,11.015146,4.6842847,-27.316763,24.38072,-13.505141,1.6990565,4.1707063,-4.047728
168,-4.511525630950928,200.36346435546875,78.0040054321289,2.929091623811479,-0.2860698144202468,-94.59380626552678,-0.53582555,1.3318602,4.997547,60.219604,0.9741026,-9.790948,-23.178541,-6.226717,-5.338791,21.587982,3.3924181,0.8349876,-1.4136938,-6.059491,13.536646,-21.07794,27.111633,-20.066145,-10.613188,-16.392443,0.7655928,10.809647,5.3918557,-27.259573,24.31461,-13.64877,1.6512953,4.0706606,-3.7057757
169,-4.365665435791016,201.52557373046875,78.13240814208984,3.3303133516341297,-0.23256213925850197,-94.5637356875899,0.5425298,-0.04625122,4.507013,57.434757,2.6577756,-9.341767,-23.696777,-6.557853,-4.772403,20.084059,6.083976,1.112765,-1.7857811,-6.6430554,13.492569,-21.176872,27.530396,-20.321817,-10.779856,-16.748316,0.40908474,10.774849,5.991026,-27.193523,24.236284,-13.747794,1.4498491,4.012452,-3.4042242
170,-4.221096515655518,202.70126342773438,78.22449493408203,3.702895219746529,-0.1917946470155779,-94.48455379226124,1.6155909,-1.175109,4.173232,54.441673,4.215107,-8.779265,-24.276793,-6.8840294,-4.163573,18.679152,8.9219,1.4148968,-2.149055,-7.1956186,13.509711,-21.284344,27.940166,-20.608355,-10.913665,-17.261305,0.013759666,10.851083,6.499063,-27.11634,24.133041,-13.805557,1.1336179,3.980452,-3.1171625
171,-4.083540916442871,203.885986328125,78.27867889404297,4.039314781260829,-0.1803798022308609,-94.39109783679127,2.682524,-2.0836024,3.9982884,51.407734,5.3030186,-8.016583,-24.768328,-7.2043123,-3.5459948,17.208683,11.7169695,2.0997248,-2.4816546,-7.705262,13.588529,-21.359947,28.328852,-20.893658,-11.037335,-17.835737,-0.36207822,11.002541,6.8640666,-27.032776,24.029562,-13.808607,0.79256624,3.9477475,-2.853315
172,-3.935861587524414,205.08389282226562,78.26887512207031,4.341806195566577,-0.22210748646638265,-94.31180033868542,3.750431,-2.811023,3.9642127,48.48708,5.5834246,-6.9724994,-24.994373,-7.5182056,-2.9414277,15.466648,14.289769,3.5243788,-2.7704048,-8.166775,13.735642,-21.359774,28.680544,-21.139894,-11.173255,-18.374744,-0.658832,11.193001,7.037425,-26.951563,23.95446,-13.749347,0.51935446,3.890523,-2.6239586
173,-3.789388418197632,206.28648376464844,78.20114135742188,4.661562832074982,-0.354836069818904,-94.21739809014326,4.9483495,-3.4259357,4.02511,45.47948,4.8365965,-5.477437,-24.78761,-7.867259,-2.2696397,13.078385,16.793154,6.0908723,-3.0379114,-8.632966,13.971122,-21.279774,28.986393,-21.357706,-11.318729,-18.914965,-0.8522479,11.451728,7.039792,-26.879667,23.903837,-13.637519,0.3172177,3.8058217,-2.4183097
174,-3.638874053955078,207.49838256835938,78.08253479003906,5.037126666202102,-0.5837037344003433,-94.08076460031509,6.2795672,-4.033518,4.1397333,42.319107,3.290045,-3.7053049,-24.223606,-8.304877,-1.5066382,10.196574,19.25126,9.528487,-3.3008926,-9.144686,14.3057575,-21.146582,29.245884,-21.562395,-11.451483,-19.483023,-0.9781142,11.782594,6.899013,-26.818872,23.86468,-13.484614,0.1470718,3.7077632,-2.2370489
175,-3.4840285778045654,208.7123565673828,77.93434143066406,5.410474459153816,-0.8666539541113111,-93.94558297767053,7.5334086,-4.630713,4.3093824,39.384563,1.2897173,-2.0459352,-23.50981,-8.7937975,-0.8247992,7.409833,21.31765,13.150411,-3.528366,-9.6366005,14.720202,-20.962044,29.457228,-21.719824,-11.567329,-19.970594,-1.0616221,12.113537,6.5691123,-26.77197,23.854073,-13.273617,0.037754577,3.5958285,-2.1080763
176,-3.347789764404297,209.9403839111328,77.78779602050781,5.542478744863994,-1.136483390846258,-93.92107474257101,8.399046,-4.918745,4.6188655,37.252323,-0.9093917,-0.8604672,-22.950268,-9.059308,-0.92649174,5.468184,22.618101,15.000033,-3.6345556,-9.873042,15.191101,-20.71929,29.617727,-21.787777,-11.669305,-20.266167,-1.1267918,12.370815,5.9952407,-26.742126,23.895021,-12.983114,0.018126978,3.4688568,-2.060549
177,-3.2271363735198975,211.18927001953125,77.62210083007812,5.345935581649242,-1.3724062565632482,-94.04606169729473,8.742964,-4.703009,5.2425847,36.190693,-3.44491,-0.19238293,-23.05408,-8.997853,-2.0143015,5.451066,22.578203,15.000033,-3.582835,-9.760316,15.71951,-20.434523,29.710615,-21.764126,-11.763267,-20.344671,-1.1898706,12.538679,5.1493583,-26.732141,23.979301,-12.602845,0.14844252,3.2845025,-2.1013896
178,-3.0963878631591797,212.46871948242188,77.4523696899414,5.019635192636586,-1.5611997579233436,-94.25091755270634,8.703345,-4.225744,6.1371255,35.784016,-6.308209,0.21545714,-23.017694,-8.818438,-3.4374886,5.472217,22.255257,15.000033,-3.4574487,-9.482009,16.26714,-20.071848,29.764385,-21.64189,-11.882767,-20.269526,-1.2344949,12.658279,4.0346265,-26.736145,24.11531,-12.130206,0.39433128,3.0548322,-2.217241
179,-2.9570958614349365,213.78945922851562,77.30970764160156,4.560974689712028,-1.6663515654283214,-94.54735332350381,8.301445,-3.5491295,7.1353183,35.850986,-9.182606,0.4400819,-22.892307,-8.481783,-4.819149,5.511553,21.8004,15.000033,-3.2251587,-9.02241,16.788574,-19.675228,29.759258,-21.46253,-11.949036,-20.04461,-1.2368457,12.739073,2.7393174,-26.759682,24.27277,-11.614438,0.6425622,2.8609989,-2.4000533
180,-2.787123203277588,215.1416778564453,77.19937896728516,3.974005501942078,-1.668536132323553,-94.93644152800682,7.57892,-2.7458515,8.052438,36.202724,-11.753079,0.5592216,-22.738953,-7.9685583,-5.7793837,5.620673,21.285902,15.000033,-2.9117775,-8.371266,17.240492,-19.210161,29.685373,-21.192842,-11.934194,-19.667755,-1.1662546,12.77581,1.283656,-26.815926,24.494682,-11.058231,0.78656155,2.7865741,-2.657969
181,-2.5786678791046143,216.49423217773438,77.0920181274414,3.225014593606857,-1.5807595657036102,-95.43187450173525,6.50128,-1.7866915,8.83496,36.889935,-13.954834,0.5624273,-23.740742,-7.351031,-5.912708,8.3616,19.241835,15.000033,-2.482941,-7.4834485,17.660864,-18.751478,29.518267,-20.858547,-11.754689,-19.104425,-1.0445299,12.731151,-0.34595564,-26.924997,24.7777,-10.470764,0.84775114,2.8855088,-3.0514104
182,-2.3435497283935547,217.85986328125,76.96880340576172,2.4018169484940017,-1.45592311415672,-95.99554205723325,5.133276,-0.72110295,9.547121,37.936554,-15.92978,0.45593676,-25.866762,-6.7429605,-5.4491744,13.788816,15.608169,15.000033,-1.9640644,-6.4572115,18.08442,-18.304152,29.25916,-20.477493,-11.44168,-18.365774,-0.8765063,12.615592,-2.1159415,-27.085695,25.090462,-9.8893795,0.87224966,3.1052797,-3.5616326
183,-2.1088435649871826,219.1931915283203,76.8280029296875,1.6903944058011156,-1.340251168402819,-96.54094604958772,3.6689537,0.2331609,10.177526,39.098003,-17.666954,0.32893074,-28.022507,-6.2657537,-4.8185205,19.62175,11.803905,15.000033,-1.429987,-5.5072956,18.478533,-17.805891,28.919258,-20.073828,-11.0776,-17.524605,-0.6120967,12.503306,-3.8835351,-27.283396,25.381529,-9.384942,0.7878394,3.370873,-4.063086
184,-1.8839654922485352,220.49807739257812,76.66958618164062,1.1689835356015243,-1.23107291009187,-97.02138435799023,2.2194939,0.99538314,10.748219,40.204525,-19.191914,0.24432148,-29.953161,-6.037381,-4.3624606,25.281376,8.33959,15.000033,-0.9139422,-4.73369,18.783613,-17.193344,28.517292,-19.6781,-10.750648,-16.655811,-0.20329386,12.474018,-5.525177,-27.493948,25.597511,-9.004436,0.51534647,3.605024,-4.4224396
185,-1.680445671081543,221.77789306640625,76.49664306640625,0.8088055643003872,-1.0814463796065563,-97.46786084612393,0.6981315,1.6141351,11.285282,41.33051,-20.507126,0.19222325,-31.725578,-6.0450883,-4.0916843,30.843279,5.1914105,15.000033,-0.39022925,-4.112377,18.952702,-16.427921,28.056868,-19.27975,-10.464499,-15.680105,0.4677964,12.571802,-7.0795584,-27.706062,25.765816,-8.703196,-0.08007798,3.8157003,-4.5894427
186,-1.4972392320632935,223.024169921875,76.32157897949219,0.5667665336500046,-0.9011219445737497,-97.89325604072224,-0.92858917,2.1238878,11.781701,42.537437,-21.60981,0.1458184,-33.436703,-6.225125,-3.8027277,36.55779,2.1208892,14.989796,0.1507378,-3.5991929,19.025406,-15.543398,27.538383,-18.86868,-10.18522,-14.595222,1.3429979,12.7380295,-8.613886,-27.916798,25.913431,-8.44544,-0.92349166,4.033573,-4.6342015
187,-1.3585963249206543,224.2398681640625,76.15547943115234,0.22312407382493418,-0.7211408215456427,-98.34200230160052,-2.6079838,2.8251426,12.221712,43.87616,-22.645601,0.045802396,-34.82624,-6.444783,-4.1440196,41.937977,-0.60671526,13.367343,0.7600341,-2.99126,19.032217,-14.577947,26.98043,-18.47514,-9.952179,-13.590445,2.203384,12.912261,-10.054397,-28.112316,25.985706,-8.281834,-1.7864189,4.213347,-4.602344
188,-1.2458117008209229,225.42355346679688,75.99810791015625,-0.062114655538982155,-0.6026931849333779,-98.6927755185743,-4.1264644,3.4453368,12.58089,45.013966,-23.541712,-0.019329334,-35.833607,-6.8861747,-4.6101885,46.95413,-2.9681203,11.847235,1.3398288,-2.4447937,19.031353,-13.569655,26.413445,-18.135939,-9.808355,-12.859012,2.8264408,13.051473,-11.324993,-28.27464,25.919298,-8.262026,-2.4402857,4.310081,-4.538664
189,-1.158448576927185,226.5749969482422,75.85017395019531,-0.2523081576009766,-0.5480259606268424,-98.89865597025212,-5.4718313,3.9409883,12.865504,45.921627,-24.28065,-0.027713578,-36.441746,-7.6507325,-5.2548575,51.675697,-4.998347,10.516596,1.8601834,-2.0109723,19.031752,-12.486164,25.859106,-17.848425,-9.810933,-12.449165,3.1384935,13.181313,-12.390087,-28.382608,25.650444,-8.437582,-2.8603225,4.2884083,-4.3969965
190,-1.0920989513397217,227.68487548828125,75.70960235595703,-0.35709382677740037,-0.528985862880388,-98.99611769524654,-6.716863,4.330857,13.087563,46.674763,-24.853518,0.0042739934,-36.73115,-8.721957,-6.0360947,56.23676,-6.7865257,9.275828,2.3424435,-1.682809,19.009945,-11.303384,25.32451,-17.595976,-9.941597,-12.266891,3.2611043,13.32784,-13.313876,-28.431082,25.231628,-8.746612,-3.1619751,4.1770444,-4.169665
191,-1.039359211921692,228.76132202148438,75.57978820800781,-0.40268995482655745,-0.554594521825542,-99.04103563807097,-7.8325377,4.620908,13.243428,47.2373,-25.278349,0.05242741,-36.719524,-9.9945755,-6.8370433,60.54046,-8.282994,7.974667,2.8045268,-1.4197289,18.971195,-10.0635195,24.818827,-17.385935,-10.133154,-12.29025,3.2631848,13.452398,-14.177935,-28.435287,24.782518,-9.065638,-3.3244607,4.0311065,-3.9608316
192,-0.989051342010498,229.81161499023438,75.47684478759766,-0.4136249606765141,-0.6341250357098297,-99.08978648501521,-8.790268,4.816646,13.329455,47.574455,-25.573668,0.09268126,-36.434692,-11.341179,-7.5515876,64.47773,-9.430224,6.4751763,3.2646563,-1.1784393,18.922686,-8.803922,24.3504,-17.222675,-10.326441,-12.496874,3.2139466,13.514159,-15.048979,-28.422806,24.420616,-9.292759,-3.3253658,3.9069955,-3.8754482
193,-0.9406836628913879,230.84597778320312,75.39624786376953,-0.3846873503708431,-0.8042877073853916,-99.14768524018868,-9.525478,4.884535,13.314666,47.63281,-25.755495,0.11341436,-35.83221,-12.788341,-8.222145,68.067665,-10.219023,4.689105,3.7156432,-0.95307934,18.897324,-7.4950776,23.924057,-17.092352,-10.555472,-13.024683,3.0750635,13.484226,-15.93075,-28.407724,24.159452,-9.444307,-3.0705574,3.8120117,-3.964445
194,-0.8815255165100098,231.86447143554688,75.3481674194336,-0.30716483653161847,-1.0497557666744834,-99.18641716427469,-10.071006,4.827373,13.215449,47.44353,-25.80892,0.12870425,-34.912247,-14.386559,-8.917337,71.363655,-10.686316,2.6971352,4.144499,-0.7609948,18.888683,-6.115025,23.539825,-16.987122,-10.854061,-13.840907,2.8300421,13.385984,-16.789997,-28.389845,23.948103,-9.576996,-2.592558,3.7184243,-4.167222
195,-0.8066854476928711,232.8704376220703,75.32561492919922,-0.19891158160318895,-1.3003699696532545,-99.2127262716664,-10.542237,4.707701,13.098749,47.09541,-25.705976,0.15272264,-33.786636,-16.024916,-9.58052,74.30459,-10.83388,0.62944573,4.565792,-0.59027106,18.843212,-4.7228813,23.196375,-16.923256,-11.154163,-14.669407,2.5803533,13.260268,-17.616291,-28.378084,23.800068,-9.6682825,-2.06413,3.6309152,-4.4214783
196,-0.7374238967895508,233.85585021972656,75.33976745605469,-0.0787749873191461,-1.4847009383372227,-99.2349151802399,-11.056255,4.59108,13.0315,46.677235,-25.418922,0.20026016,-32.58165,-17.584806,-10.15457,76.83285,-10.65304,-1.3802311,4.995306,-0.4285163,18.706623,-3.3768814,22.89007,-16.914268,-11.388768,-15.232086,2.4250934,13.1525545,-18.407536,-28.387405,23.73046,-9.690551,-1.6517441,3.556398,-4.6659636
197,-0.6737173795700073,234.8252716064453,75.38355255126953,0.058332139387386545,-1.5970459380172752,-99.27129981609639,-11.621572,4.484146,13.0622225,46.209866,-24.940176,0.3013336,-31.344048,-19.077217,-10.6222,78.976616,-9.972574,-3.4385943,5.45425,-0.27430695,18.460245,-2.08122,22.617552,-16.985582,-11.529404,-15.444682,2.3938103,13.087172,-19.168905,-28.435186,23.759762,-9.621666,-1.3762677,3.496066,-4.9070435
198,-0.6184384822845459,235.7917022705078,75.4613037109375,0.22185979970248254,-1.6716809361866267,-99.31099219119254,-12.180496,4.351554,13.147701,45.644627,-24.28491,0.4408264,-30.0165,-20.568275,-11.0578985,80.76726,-8.842597,-5.5859756,5.9333115,-0.13074869,18.13842,-0.8159539,22.375656,-17.12597,-11.61153,-15.457378,2.4315014,13.037627,-19.880835,-28.526108,23.8661,-9.503836,-1.1509389,3.4471543,-5.17196
199,-0.5821244120597839,236.7489776611328,75.56976318359375,0.38665954233775496,-1.695469141925198,-99.32132820538774,-12.755026,4.2033477,13.216166,44.96546,-23.456385,0.56467223,-28.57699,-21.983799,-11.518819,82.15325,-7.5773506,-7.5574784,6.4058948,0.008650642,17.762789,0.39905828,22.161737,-17.291588,-11.663781,-15.341816,2.5089455,12.975221,-20.50551,-28.65271,24.00168,-9.402536,-0.984998,3.4126155,-5.4299555
200,-0.5579758882522583,237.7104034423828,75.71082305908203,0.5237260901315761,-1.6529338954741848,-99.27339557714093,-13.373499,4.059238,13.19322,44.164543,-22.46093,0.6166799,-27.007284,-23.20635,-12.036617,83.086914,-6.4858327,-9.055334,6.846857,0.15228413,17.350655,1.5464406,21.974613,-17.436686,-11.715213,-15.169441,2.5972686,12.871375,-21.012297,-28.80024,24.121225,-9.374394,-0.89023197,3.396215,-5.649339
201,-0.5545905232429504,238.67034912109375,75.88275909423828,0.6264072517002013,-1.522419252675304,-99.1686710365707,-14.059937,3.934162,13.06643,43.242447,-21.294565,0.5856726,-25.284153,-24.21134,-12.629926,83.54382,-5.6119876,-9.938585,7.2604513,0.30052465,16.872723,2.6417384,21.817142,-17.549095,-11.776071,-14.88232,2.7203238,12.705496,-21.39593,-28.959068,24.230034,-9.414684,-0.91944885,3.4116414,-5.818126
202,-0.5759612321853638,239.6309814453125,76.09017181396484,0.7065981610197498,-1.3148568743953808,-99.02427592642317,-14.799731,3.8288007,12.865413,42.209503,-19.959404,0.49512792,-23.440321,-25.003115,-13.265252,83.56744,-4.787523,-10.3498335,7.658501,0.44956902,16.32575,3.6927762,21.691813,-17.647839,-11.831429,-14.46706,2.8820627,12.496676,-21.684721,-29.127665,24.350563,-9.4851,-1.051932,3.4537363,-5.9530478
203,-0.6206390857696533,240.60922241210938,76.313720703125,0.7546555455111007,-1.062536089546138,-98.83647845209519,-15.563881,3.7444503,12.576922,41.06986,-18.470016,0.34489328,-21.545156,-25.489946,-13.878447,83.20513,-4.003034,-10.404462,8.030065,0.6060881,15.7641735,4.6674395,21.596739,-17.735483,-11.870893,-14.062458,3.024547,12.27637,-21.886908,-29.301376,24.461174,-9.596544,-1.1972563,3.4945662,-6.065472
204,-0.6765711307525635,241.59922790527344,76.55508422851562,0.7599045297043846,-0.7986378255083173,-98.6005613580052,-16.322094,3.67592,12.189298,39.82595,-16.839607,0.1367699,-19.669138,-25.593616,-14.402077,82.499886,-3.2573621,-10.227226,8.364939,0.7791235,15.242816,5.530558,21.528069,-17.81635,-11.881433,-13.80709,3.0912685,12.077449,-22.00701,-29.474081,24.53678,-9.761458,-1.265608,3.5056448,-6.166634
205,-0.7476511597633362,242.61172485351562,76.80650329589844,0.7151037947634987,-0.5098271334957389,-98.30425619374604,-17.093378,3.6146653,11.676874,38.474964,-15.05658,-0.14093009,-17.794659,-25.280813,-14.831533,81.421776,-2.7454982,-9.809583,8.657699,0.97077763,14.745717,6.280019,21.487495,-17.888512,-11.851202,-13.760827,3.047218,11.883965,-22.037115,-29.644344,24.573643,-9.987834,-1.216398,3.47503,-6.2530284
206,-0.837473452091217,243.626953125,77.07677459716797,0.627457781421804,-0.18561466544427516,-97.95321318235654,-17.881811,3.5633285,11.042321,37.012817,-13.118656,-0.48632422,-15.91259,-24.602678,-15.172141,79.96066,-2.4118233,-9.107127,8.9142065,1.1785405,14.253546,6.9326634,21.477034,-17.94903,-11.790235,-13.842371,2.930345,11.687217,-21.977917,-29.812132,24.582064,-10.263672,-1.1045398,3.4190114,-6.3202567
207,-0.9519652724266052,244.6491241455078,77.35542297363281,0.5082811575785048,0.13739111416884037,-97.57013793057047,-18.640097,3.5283313,10.320804,35.448723,-11.054014,-0.8793344,-14.106761,-23.61336,-15.364548,78.19468,-1.8840438,-8.189202,9.139042,1.4045553,13.813083,7.4806867,21.490744,-18.00045,-11.712831,-13.976506,2.7941012,11.531193,-21.854612,-29.974085,24.563274,-10.570068,-0.98456734,3.3516681,-6.377523
208,-1.0615209341049194,245.70925903320312,77.63387298583984,0.3659236812947813,0.4239983241892888,-97.17963902177773,-19.324593,3.5171444,9.552173,33.79388,-8.890116,-1.2980514,-12.457689,-22.352146,-15.342672,76.201584,-0.7905096,-7.106861,9.339236,1.6549487,13.468454,7.9111533,21.517433,-18.047825,-11.626117,-14.08663,2.6912408,11.459582,-21.695713,-30.124294,24.51892,-10.877701,-0.9106524,3.286936,-6.4342227
209,-1.1786450147628784,246.7905731201172,77.90850067138672,0.18866837571103792,0.6639540934671978,-96.77180741956671,-19.924475,3.5241084,8.706622,32.032032,-6.6086345,-1.7397071,-11.005945,-20.691639,-14.974851,73.9454,1.4302711,-5.713157,9.508857,1.9463481,13.235887,8.205866,21.55018,-18.10033,-11.5121155,-14.166685,2.637193,11.514046,-21.500414,-30.256767,24.43863,-11.18496,-0.897776,3.2261016,-6.470628
210,-1.3108487129211426,247.88478088378906,78.17645263671875,-0.03129540536251897,0.8790232365315166,-96.34234899277641,-20.469309,3.547611,7.77121,30.169682,-4.204079,-2.2171323,-9.693193,-18.616058,-14.260454,71.39437,4.3957253,-3.9784057,9.648415,2.2804847,13.084339,8.371016,21.58774,-18.154238,-11.362681,-14.248712,2.6030211,11.660255,-21.261133,-30.369772,24.32855,-11.497728,-0.9202008,3.1626384,-6.4886928
211,-1.449065089225769,248.9979705810547,78.42640686035156,-0.2733151685507914,1.0798763024443412,-95.92172548250932,-20.97397,3.59365,6.81696,28.2481,-1.7190224,-2.7274072,-8.441771,-16.37906,-13.382106,68.63887,7.077873,-2.178519,9.769521,2.6348088,12.989036,8.431881,21.62618,-18.192366,-11.201167,-14.31316,2.574964,11.827975,-21.006458,-30.465275,24.219564,-11.78361,-0.9676752,3.0988421,-6.530306
212,-1.5933176279067993,250.12367248535156,78.65782928466797,-0.5033658155302863,1.2731469782452332,-95.5345869854669,-21.440722,3.654644,5.9191914,26.28839,0.81420916,-3.2644567,-7.1752124,-14.323749,-12.61352,65.77986,8.486389,-0.69380003,9.875912,2.9745195,12.930112,8.415752,21.659412,-18.19527,-11.050661,-14.338856,2.5397673,11.946054,-20.766973,-30.54744,24.147158,-12.015388,-1.0304719,3.0374637,-6.6378746
213,-1.7410728931427002,251.26593017578125,78.85675048828125,-0.7108931863641699,1.458010069750396,-95.175566930765,-21.889292,3.728668,5.105701,24.298294,3.4789224,-3.7233002,-5.820025,-12.495374,-12.064032,62.700806,8.2175865,0.3847831,9.95992,3.290233,12.918454,8.324173,21.677343,-18.14561,-10.909805,-14.297016,2.5024157,11.989688,-20.55079,-30.608948,24.12634,-12.181891,-1.1232091,2.9791865,-6.8595076
214,-1.8814390897750854,252.4160614013672,79.02479553222656,-0.9051593256183309,1.6301274908898946,-94.83121984975207,-22.308624,3.8060906,4.3370275,22.256594,6.267689,-4.1392336,-4.4183626,-10.77134,-11.624361,59.37052,6.8942413,1.2130258,10.016236,3.59286,12.961363,8.140774,21.680956,-18.058573,-10.762234,-14.204765,2.467419,11.997983,-20.344032,-30.650984,24.139866,-12.2964945,-1.2461288,2.9234078,-7.1607137
215,-2.015582799911499,253.58212280273438,79.144775390625,-1.0859565595982765,1.7889515374697507,-94.51720986494388,-22.652122,3.8794963,3.577768,20.141777,9.013711,-4.7209926,-3.0851958,-9.236761,-11.286889,56.027737,5.0865016,1.7627058,10.053555,3.8819027,13.032471,7.8631406,21.677847,-17.962852,-10.603411,-14.109838,2.4208393,11.995416,-20.155455,-30.6774,24.178854,-12.348393,-1.3686415,2.870185,-7.459063
216,-2.144700050354004,254.76502990722656,79.22140502929688,-1.2641781207813394,1.9306994140452167,-94.25485892227645,-22.85653,3.9575906,2.777921,17.909172,11.557186,-5.684697,-1.9436384,-7.9513087,-11.039886,52.93667,3.3447013,2.0172036,10.074527,4.1739454,13.113858,7.5086007,21.66951,-17.866955,-10.45005,-14.05781,2.349985,11.998608,-19.995508,-30.710161,24.246828,-12.344129,-1.451079,2.8195229,-7.6784077
217,-2.2706780433654785,255.9388885498047,79.24567413330078,-1.489169794382531,2.0474685606020753,-94.07023657336667,-22.862003,4.1157937,1.8904697,15.323388,13.986995,-7.176543,-1.0069454,-6.8667264,-10.881542,50.066273,1.7245624,1.9088732,10.116226,4.514414,13.189885,7.069444,21.66315,-17.792566,-10.292432,-14.081435,2.2353334,12.029437,-19.85635,-30.73441,24.32781,-12.268737,-1.4865875,2.7618089,-7.7962556
218,-2.390465021133423,257.1152038574219,79.22064208984375,-1.7805125102569463,2.1308523070923173,-93.96110264554376,-22.671312,4.3848753,0.92021585,12.421026,16.364931,-9.068073,-0.18591128,-5.8520107,-10.811612,47.252018,-0.011162286,1.5394189,10.170644,4.928698,13.283248,6.5579343,21.65107,-17.715027,-10.145202,-14.14987,2.0900562,12.068905,-19.735714,-30.767118,24.438637,-12.139849,-1.4852428,2.701088,-7.8609786
219,-2.51104474067688,258.2892761230469,79.15938568115234,-2.0792965854480148,2.178762066822316,-93.90337234740757,-22.366592,4.6930776,-0.07927181,9.650957,18.44918,-11.155506,0.4879838,-4.9174175,-10.823135,44.68521,-1.826051,1.1008396,10.230723,5.3492427,13.407102,5.945689,21.64617,-17.659582,-9.985231,-14.219829,1.9459411,12.102835,-19.627865,-30.79247,24.551859,-11.95869,-1.4739506,2.6528282,-7.862485
220,-2.6230268478393555,259.4759826660156,79.0913314819336,-2.286666359504089,2.205123502799303,-93.8563201829331,-22.052042,4.916479,-1.0176809,7.4766345,19.993422,-13.218457,0.9451262,-4.1644936,-10.925454,42.60503,-3.7003932,0.74371845,10.24994,5.680435,13.574384,5.227926,21.646723,-17.624542,-9.809316,-14.248438,1.8337975,12.111194,-19.55199,-30.829481,24.68712,-11.730192,-1.4593432,2.634147,-7.816731
221,-2.7189996242523193,260.67071533203125,79.00482940673828,-2.2990042266078383,2.2047059594564877,-93.8071424008581,-21.5582,4.9163165,-1.7163513,5.5894465,21.123661,-15.000033,1.1033802,-3.7865458,-11.165273,41.240673,-5.8083696,0.44213256,10.225712,5.8232055,13.813397,4.385609,21.661516,-17.615824,-9.623727,-14.236821,1.7530713,12.080986,-19.50592,-30.87522,24.827522,-11.453033,-1.4216226,2.633737,-7.6799803
222,-2.7731869220733643,261.85906982421875,78.8803482055664,-2.044899511847099,2.1627487606555227,-93.73927494822992,-21.68189,4.571426,-1.689866,5.580861,21.008825,-15.000033,0.95769686,-3.9068365,-11.504428,40.593163,-8.206381,0.174106,10.141457,5.728962,14.146826,3.4414384,21.692818,-17.627201,-9.446359,-14.208225,1.6897876,12.028289,-19.479002,-30.936195,24.974047,-11.135576,-1.3575684,2.6485522,-7.465421
223,-2.8194005489349365,263.06085205078125,78.76580047607422,-1.6864788517382772,2.149201334987255,-93.64185078240557,-21.633991,4.1337986,-1.5395532,5.6269174,20.692505,-15.000033,0.5582857,-4.232838,-11.916399,40.336014,-10.560452,-0.049887184,9.997363,5.5083685,14.48514,2.4111056,21.755096,-17.66246,-9.268128,-14.149722,1.6537591,11.97609,-19.430054,-31.02192,25.10186,-10.830089,-1.3217232,2.7041025,-7.2496624
224,-2.874328851699829,264.2661437988281,78.66442108154297,-1.2246173693878901,2.197652353654431,-93.47245013302597,-21.436161,3.642421,-1.2715217,5.7266836,20.250484,-15.000033,-0.05535813,-4.696988,-12.326265,40.290916,-12.622256,-0.1488329,9.759419,5.1377993,14.790876,1.3097155,21.856426,-17.727634,-9.070099,-14.044553,1.6566603,11.947209,-19.340439,-31.109146,25.189827,-10.549849,-1.3786756,2.8253956,-7.0971513
225,-2.9504237174987793,265.49896240234375,78.56871795654297,-0.6242034220277719,2.325166934276974,-93.21122539921136,-21.496103,3.0283837,-0.9549574,6.763552,19.159956,-15.000033,-0.9340991,-5.357893,-12.754705,40.50201,-14.309716,-0.09263473,9.398785,4.573684,15.05803,0.11439064,21.99832,-17.823957,-8.839087,-13.877668,1.7120125,11.946234,-19.26592,-31.177948,25.265774,-10.24979,-1.5610446,3.0470462,-7.038027
226,-3.0476789474487305,266.7205810546875,78.48355102539062,0.08779054078593021,2.495801414113407,-92.89024918720327,-22.964737,2.2795556,-0.6299959,11.210733,16.112066,-15.000033,-2.0610726,-6.2237124,-13.21553,41.031292,-15.759728,0.05391503,8.944228,3.8549535,15.309714,-1.1529508,22.190235,-17.940102,-8.610804,-13.665482,1.8109479,11.964835,-19.213713,-31.228224,25.334316,-9.921537,-1.8321998,3.346522,-7.0295143
227,-3.154463291168213,267.9382019042969,78.37926483154297,0.7682822598176009,2.643044872214097,-92.56690334609965,-24.462423,1.651641,-0.15918098,16.193573,12.776993,-15.000033,-3.2641275,-7.079785,-13.628448,41.69838,-17.040497,0.22283304,8.450922,3.1402602,15.551761,-2.4134345,22.417511,-18.06123,-8.411362,-13.426019,1.9323044,12.002872,-19.11948,-31.250853,25.373898,-9.590844,-2.1611338,3.6628911,-7.0288367
228,-3.256138801574707,269.1476745605469,78.25086212158203,1.3013052599053199,2.7161995204600062,-92.29051461297969,-25.81744,1.3481251,0.50420797,21.390835,9.466172,-15.000033,-4.392781,-7.7380157,-13.926702,42.33413,-18.224371,0.35531574,7.969646,2.5581279,15.786472,-3.6046958,22.666014,-18.181921,-8.251217,-13.178454,2.0538378,12.059861,-18.91735,-31.2386,25.35968,-9.285537,-2.514283,3.935627,-6.9931946
229,-3.354989767074585,270.338623046875,78.09640502929688,1.6736836247014215,2.6931785292629185,-92.06171111470837,-27.021927,1.4553919,1.3999157,26.942154,6.0967364,-15.000033,-5.433746,-8.160156,-14.062275,42.955784,-19.335499,0.4539583,7.4994664,2.122148,16.02599,-4.7536983,22.930689,-18.325455,-8.088145,-12.917907,2.180422,12.15075,-18.595205,-31.18351,25.29479,-8.975905,-2.9471242,4.1528535,-6.914739
230,-3.452820062637329,271.4920654296875,77.92972564697266,1.896642761429219,2.5839733252504193,-91.88644829884775,-28.08306,1.9475775,2.41459,32.905773,2.5552025,-15.000033,-6.4266887,-8.376687,-14.08346,43.606174,-20.324823,0.53332233,7.040949,1.8183273,16.277521,-5.887579,23.209595,-18.494255,-7.9169154,-12.635717,2.3209221,12.270302,-18.189838,-31.084711,25.194723,-8.649271,-3.4585466,4.3449693,-6.811586
231,-3.5481929779052734,272.6035461425781,77.7574691772461,1.982799379522572,2.424166449186302,-91.78348657863255,-28.869432,2.7464163,3.4063256,38.79537,-0.860369,-15.000033,-7.3610945,-8.41879,-14.074764,44.206036,-21.175312,0.57348615,6.613544,1.6355581,16.51781,-6.9603486,23.491955,-18.652325,-7.786835,-12.344139,2.4575584,12.384117,-17.706148,-30.946922,25.05329,-8.358495,-3.932401,4.5115137,-6.685306
232,-3.610775947570801,273.6958312988281,77.57789611816406,2.139106014826457,2.266860726154882,-91.69127223412364,-29.243683,3.5881186,4.72448,44.04104,-3.7949758,-13.603176,-8.311961,-8.604297,-14.084687,44.846294,-21.95502,0.6267102,6.1641803,1.3874336,16.724613,-7.925546,23.762634,-18.762796,-7.74737,-12.051729,2.57191,12.4565525,-17.13603,-30.777916,24.860582,-8.170243,-4.254553,4.6527953,-6.539887
233,-3.659921884536743,274.7705078125,77.40157318115234,2.2140167633567596,2.1355652754653622,-91.65647710922512,-29.335337,4.612777,5.9469438,48.912106,-6.376572,-12.13515,-9.233452,-8.729098,-14.19549,45.365597,-22.597507,0.6295128,5.728436,1.2135651,16.862432,-8.762778,24.0068,-18.802317,-7.8145127,-11.7030115,2.6734848,12.471873,-16.454721,-30.578672,24.592844,-8.12332,-4.3847694,4.7750983,-6.3643346
234,-3.6917998790740967,275.8198547363281,77.23943328857422,2.198098942834446,2.0106685860255684,-91.67518423127648,-29.184635,5.866129,7.107549,53.62756,-8.761615,-10.578049,-10.128527,-8.765966,-14.35791,45.799316,-23.1044,0.5887591,5.30641,1.1249608,16.945358,-9.5147295,24.222235,-18.800478,-7.9409533,-11.306963,2.7661922,12.447858,-15.669363,-30.349844,24.262823,-8.179175,-4.3872495,4.8770404,-6.163516
235,-3.719931125640869,276.8487548828125,77.08515167236328,2.1443227804790843,1.8766297594559906,-91.73289198212618,-28.74975,7.215346,8.182623,58.006123,-10.871166,-9.046124,-11.008647,-8.759852,-14.508719,46.196613,-23.474194,0.5173866,4.9053054,1.0698613,16.994234,-10.228269,24.41701,-18.798807,-8.086527,-10.969986,2.8230164,12.400481,-14.827756,-30.102058,23.913935,-8.282416,-4.2968774,4.947537,-5.9655066
236,-3.734037399291992,277.8543701171875,76.9464111328125,2.1053216374692556,1.7182039236502429,-91.81478159009797,-28.007326,8.515652,9.166049,61.87778,-12.6131735,-7.662157,-11.888977,-8.753056,-14.581113,46.612392,-23.70663,0.4273285,4.531026,0.99461997,17.030735,-10.944452,24.605593,-18.83567,-8.220542,-10.801702,2.8175201,12.346862,-13.972842,-29.852495,23.588665,-8.385862,-4.1479635,4.975579,-5.7985945
237,-3.7421751022338867,278.85150146484375,76.8280258178711,2.0935222466000503,1.515303759534635,-91.91807960729868,-26.923512,9.758633,10.105323,65.25031,-13.926059,-6.4522824,-12.77434,-8.761492,-14.5471735,47.096687,-23.790045,0.32783642,4.1924095,0.88975847,17.077932,-11.680237,24.79876,-18.920889,-8.357315,-10.889196,2.719138,12.286499,-13.078419,-29.612434,23.262014,-8.524418,-3.8931437,4.9271355,-5.667672
238,-3.7456209659576416,279.8350524902344,76.72992706298828,2.084410557778823,1.282197540737991,-92.04966207847689,-25.537619,11.002069,11.028734,68.23218,-14.875509,-5.349407,-13.658918,-8.763194,-14.445219,47.61048,-23.72755,0.21469268,3.888093,0.7786369,17.125364,-12.407574,24.99703,-19.035925,-8.521375,-11.160004,2.5501072,12.213636,-12.114759,-29.384047,22.91262,-8.735074,-3.5277662,4.819113,-5.558799
