unveil-humanoid-operators/unveil-humanoid-operators.github.io/feature-analysis-animation/data/feature_matrix_instances/weight_ankle_rom_walking_A061_walk_ff_loop_360_005__A061.csv
Frame,root_translateX,root_translateY,root_translateZ,root_rotateX,root_rotateY,root_rotateZ,left_hip_pitch_joint_dof,left_hip_roll_joint_dof,left_hip_yaw_joint_dof,left_knee_joint_dof,left_ankle_pitch_joint_dof,left_ankle_roll_joint_dof,right_hip_pitch_joint_dof,right_hip_roll_joint_dof,right_hip_yaw_joint_dof,right_knee_joint_dof,right_ankle_pitch_joint_dof,right_ankle_roll_joint_dof,waist_yaw_joint_dof,waist_roll_joint_dof,waist_pitch_joint_dof,left_shoulder_pitch_joint_dof,left_shoulder_roll_joint_dof,left_shoulder_yaw_joint_dof,left_elbow_joint_dof,left_wrist_roll_joint_dof,left_wrist_pitch_joint_dof,left_wrist_yaw_joint_dof,right_shoulder_pitch_joint_dof,right_shoulder_roll_joint_dof,right_shoulder_yaw_joint_dof,right_elbow_joint_dof,right_wrist_roll_joint_dof,right_wrist_pitch_joint_dof,right_wrist_yaw_joint_dof
0,0.48608943819999695,-2.4729206562042236,76.52256774902344,5.80469113082049,-4.005590428091538,88.19316120285116,-4.6219425,0.35009122,28.779642,22.449568,-12.5949335,4.1691008,14.596953,-25.993244,-23.53381,61.531258,-15.768833,2.132684,4.955147,-5.718448,5.6834984,15.235625,18.335537,-24.811235,73.19101,9.686563,-3.486755,9.540071,-2.0738068,-13.32738,19.686905,61.13536,-8.104935,-2.4996414,-11.260921
1,0.6450016498565674,-3.1348395347595215,76.42286682128906,5.757267643225932,-3.605084187036697,88.14087278849951,-6.2544847,0.9499533,28.827354,23.797293,-12.545614,4.426746,15.588255,-25.417034,-24.40112,58.30737,-15.086685,2.3928216,5.2028265,-5.6905613,5.3199744,15.557413,18.343199,-24.679123,73.08369,10.068381,-3.381668,9.49269,-2.1644335,-13.318955,19.608044,61.047832,-8.20457,-2.4758887,-11.328765
2,0.8222947716712952,-3.820037364959717,76.3050765991211,5.692352942257665,-3.2053458931068732,88.10252302681675,-7.888361,1.5622221,28.845219,25.150417,-12.502895,4.693014,16.600138,-24.808079,-25.32164,55.080143,-14.35565,2.5973313,5.4328814,-5.6456556,4.9427333,15.875791,18.335222,-24.542278,73.003136,10.484312,-3.2678764,9.442256,-2.2527423,-13.312877,19.53716,60.96535,-8.30962,-2.4500751,-11.401684
3,1.0111342668533325,-4.5259809494018555,76.1807632446289,5.63029084535769,-2.8104249622562985,88.04162794039794,-9.488183,2.1718693,28.879595,26.432854,-12.420854,4.949803,17.55065,-24.126324,-26.101896,51.86037,-13.748984,2.9714463,5.670375,-5.6009154,4.5858645,16.178686,18.315845,-24.393227,72.91956,10.84614,-3.1779788,9.404163,-2.363159,-13.308922,19.475077,60.89233,-8.399423,-2.4272068,-11.465789
4,1.1965219974517822,-5.236634254455566,76.05025482177734,5.5944078095119005,-2.42340299647476,87.92174543968567,-11.007146,2.7528489,28.97419,27.536171,-12.229718,5.1841607,18.366964,-23.337914,-26.546602,48.63815,-13.416973,3.7414784,5.9316387,-5.5745254,4.2814317,16.454113,18.282871,-24.212269,72.81078,11.073364,-3.1461573,9.396434,-2.530092,-13.309435,19.434605,60.842278,-8.4497175,-2.4123342,-11.507017
5,1.3928368091583252,-5.955870628356934,75.92442321777344,5.605387108728036,-2.0237519848610717,87.71750653896277,-12.462595,3.3004687,29.16901,28.461012,-11.923445,5.3917313,19.05674,-22.389645,-26.53965,45.248024,-13.349517,5.1702647,6.2509484,-5.590214,4.0208864,16.696491,18.242561,-24.008581,72.67716,11.068905,-3.210792,9.432789,-2.7487087,-13.317537,19.39811,60.80478,-8.430156,-2.408981,-11.502185
6,1.5910837650299072,-6.72526216506958,75.78750610351562,5.6517025260930485,-1.6154465984694497,87.45315168360656,-13.867463,3.824779,29.435217,29.251411,-11.5317545,5.5799623,19.68495,-21.33468,-26.226196,41.691513,-13.444476,7.058589,6.6059723,-5.6374874,3.7955906,16.918112,18.193447,-23.777205,72.52138,10.907191,-3.3439388,9.500159,-3.0056915,-13.334221,19.368555,60.77231,-8.361491,-2.4137304,-11.463041
7,1.7804208993911743,-7.493523597717285,75.65090942382812,5.705006088187844,-1.2368216542418018,87.16509146215088,-15.179215,4.330678,29.719278,29.892069,-11.058071,5.749129,20.258518,-20.287882,-25.812061,38.216667,-13.7147255,8.945305,6.934389,-5.673385,3.6238215,17.11591,18.108624,-23.51233,72.354225,10.737265,-3.480447,9.579123,-3.310569,-13.372898,19.405182,60.760254,-8.279263,-2.4192476,-11.433668
8,1.9776437282562256,-8.282711029052734,75.51129913330078,5.735375745779108,-0.9262662951787681,86.88954628137184,-16.358734,4.82263,29.96663,30.371138,-10.507135,5.89923,20.756819,-19.35588,-25.488901,35.11141,-14.190954,10.389206,7.2545767,-5.683168,3.5288515,17.275097,18.050306,-23.303574,72.15688,10.667253,-3.5519845,9.635623,-3.62769,-13.4092655,19.472755,60.765778,-8.241577,-2.4216835,-11.459154
9,2.174973726272583,-9.098898887634277,75.37673950195312,5.7605440875737415,-0.6697596875779702,86.5972943021204,-17.40447,5.2954187,30.20487,30.673145,-9.879137,6.033025,21.110146,-18.59019,-25.202826,32.483032,-14.991027,11.290095,7.5452943,-5.6720953,3.492103,17.425648,17.988512,-23.09664,71.91426,10.781221,-3.5198681,9.669811,-3.9888806,-13.455574,19.647932,60.811676,-8.244753,-2.4191098,-11.571173
10,2.3706109523773193,-9.909375190734863,75.26640319824219,5.788029216585038,-0.45287266821001526,86.28007413165723,-18.34056,5.7492285,30.451515,30.815008,-9.174594,6.1492057,21.340864,-17.918957,-24.89096,30.17643,-16.06287,11.906066,7.794345,-5.6366386,3.5056522,17.569813,17.893574,-22.860336,71.64065,11.004563,-3.4277039,9.697873,-4.401787,-13.530266,19.942362,60.887615,-8.254262,-2.412798,-11.738283
11,2.5726799964904785,-10.729445457458496,75.17118835449219,5.773951954863178,-0.31524735584665636,86.00621122468164,-19.168049,6.197401,30.632786,30.836838,-8.399273,6.240049,21.545706,-17.253256,-24.712473,28.114817,-17.203854,12.326199,8.000756,-5.547325,3.6112206,17.664438,17.80758,-22.652641,71.3591,11.243941,-3.331548,9.715233,-4.826133,-13.603341,20.243052,60.963882,-8.290517,-2.4044733,-11.91077
12,2.7808477878570557,-11.574684143066406,75.0926284790039,5.677973371096023,-0.29753632160734284,85.84446960120614,-19.885416,6.650529,30.672743,30.77265,-7.555316,6.2963963,21.82807,-16.512451,-24.822052,26.213469,-18.214329,12.618052,8.088558,-5.3571615,3.8481703,17.706411,17.72656,-22.44424,71.0777,11.434102,-3.289455,9.7218,-5.2582817,-13.67643,20.534185,61.01838,-8.341985,-2.3927696,-12.0381775
13,2.992964267730713,-12.459273338317871,75.02297973632812,5.48811416330037,-0.41829010901737274,85.80561339737078,-20.480381,7.119105,30.55596,30.630398,-6.6487403,6.3370423,22.177773,-15.710047,-25.28139,24.522518,-19.117054,12.725855,8.054064,-5.0647,4.2458396,17.68756,17.668303,-22.24611,70.7922,11.539047,-3.3304732,9.703061,-5.7100544,-13.735106,20.80763,61.062927,-8.436015,-2.3756208,-12.120592
14,3.198831796646118,-13.346558570861816,74.96404266357422,5.227239755801294,-0.6528735733546325,85.85703841369552,-20.960743,7.5944724,30.317183,30.39766,-5.679497,6.3564744,22.533604,-14.884511,-25.981672,23.08847,-20.020636,12.623036,7.9295607,-4.6971736,4.777103,17.613241,17.633305,-22.0677,70.499664,11.598978,-3.4192576,9.664002,-6.1817484,-13.778123,21.072577,61.110035,-8.570325,-2.3546412,-12.181305
15,3.410301685333252,-14.235514640808105,74.90924835205078,4.906866508814954,-0.977051398505979,86.00321923619168,-21.351404,8.055756,29.954695,30.07385,-4.640016,6.3076196,22.909151,-14.011519,-26.81561,21.844269,-20.858719,12.401212,7.660025,-4.252891,5.400234,17.532763,17.58661,-21.83282,70.18136,11.676507,-3.5182893,9.629563,-6.6638803,-13.835367,21.38187,61.132797,-8.67353,-2.3327086,-12.204024
16,3.621528387069702,-15.119287490844727,74.86756896972656,4.537511830310017,-1.3667260772423373,86.24826172485007,-21.672749,8.477868,29.4676,29.650908,-3.5202303,6.142901,23.317953,-13.072835,-27.67891,20.718357,-21.557636,12.145879,7.34292,-3.7593005,6.0729504,17.385172,17.560833,-21.65341,69.890434,11.775114,-3.585776,9.627666,-7.083225,-13.880665,21.585108,61.10991,-8.744924,-2.319343,-12.175789
17,3.838977336883545,-16.009183883666992,74.83312225341797,4.101287477652234,-1.8473289857263044,86.64642367414109,-21.927277,8.869668,28.868885,29.15721,-2.282022,5.9909825,23.775255,-12.049494,-28.639963,19.752266,-22.096464,11.827703,6.9060526,-3.2003498,6.8282194,17.177588,17.554731,-21.523823,69.615715,11.903446,-3.6126542,9.683129,-7.4493575,-13.916465,21.68902,61.030174,-8.765167,-2.3123658,-12.077053
18,4.051455020904541,-16.90485382080078,74.7984848022461,3.5962889121225343,-2.4188188578395633,87.1841136360959,-22.09766,9.238331,28.14677,28.585125,-0.9487299,5.825804,24.236134,-10.958491,-29.712763,18.97989,-22.518246,11.397466,6.3412786,-2.5807836,7.681934,16.92083,17.562887,-21.420706,69.34386,12.050336,-3.6198106,9.774035,-7.7793093,-13.950413,21.73259,60.900936,-8.748553,-2.3089657,-11.919434
19,4.267276287078857,-17.803726196289062,74.7646255493164,3.0575888158226494,-3.0201070888018435,87.76027946603196,-22.182217,9.558098,27.256834,27.892162,0.38428468,5.3661284,24.621098,-9.853084,-30.715557,18.362576,-22.869781,10.920517,5.748969,-1.9482815,8.565237,16.645489,17.590508,-21.304235,69.05765,12.224427,-3.6126904,9.852408,-8.059755,-13.994958,21.741993,60.732727,-8.701344,-2.3146431,-11.735857
20,4.487189769744873,-18.676494598388672,74.7403793334961,2.5214188955425145,-3.59401335537351,88.27006661324008,-22.16829,9.797668,26.152365,27.013697,1.6182846,4.3321157,24.886524,-8.790018,-31.473534,17.849806,-23.19922,10.4695,5.24106,-1.3413182,9.394997,16.364517,17.631495,-21.151133,68.76982,12.428849,-3.5960672,9.877652,-8.291559,-14.037209,21.736464,60.569847,-8.637147,-2.3351855,-11.567262
21,4.695802688598633,-19.56271743774414,74.7059555053711,1.9640934780518147,-4.146498412464195,88.683827519077,-21.980555,9.907553,24.704489,25.683561,2.8925974,2.3556557,25.039877,-7.7544456,-31.888184,17.47447,-23.532742,10.085248,4.839861,-0.7286926,10.179946,16.10511,17.696537,-20.896416,68.44103,12.719934,-3.5632458,9.814226,-8.474292,-14.093134,21.731781,60.38176,-8.517818,-2.3818386,-11.387269
22,4.906427383422852,-20.40907859802246,74.66993713378906,1.3690673179533193,-4.706579037620336,89.0560844272349,-21.601692,9.931124,22.96853,23.977913,4.149816,-0.31049153,25.12631,-6.722065,-32.075428,17.24814,-23.844143,9.728066,4.4904957,-0.093258545,10.958743,15.860106,17.793907,-20.572113,68.06563,13.075865,-3.5151122,9.688139,-8.602453,-14.167474,21.715014,60.149567,-8.346484,-2.4478264,-11.18536
23,5.118975639343262,-21.21967315673828,74.6316909790039,0.7931579305795613,-5.252527826448327,89.40527089935391,-21.13248,9.973869,21.207924,22.366661,5.028799,-3.0027983,25.17404,-5.7401886,-32.185318,17.089642,-24.11165,9.351076,4.1689715,0.5112935,11.6951065,15.604664,17.902205,-20.257961,67.69378,13.399548,-3.4682467,9.550692,-8.682724,-14.238404,21.687325,59.931103,-8.19314,-2.511994,-11.022295
24,5.328060626983643,-21.980453491210938,74.60620880126953,0.30065050672933114,-5.757645582825169,89.7530481856827,-20.73086,10.115635,19.706068,21.368807,5.2311807,-5.060522,25.196598,-4.8678174,-32.373684,16.92539,-24.317226,8.908452,3.8380454,1.0118046,12.361109,15.352432,18.028332,-20.00383,67.31923,13.599508,-3.438255,9.440617,-8.710467,-14.302277,21.666529,59.74829,-8.115427,-2.5534139,-10.952531
25,5.537624359130859,-22.7232666015625,74.60253143310547,-0.09252797170031182,-6.224800454668312,90.11031406081682,-20.450369,10.333242,18.478003,21.077631,4.5264297,-6.3549557,25.215273,-4.109324,-32.69861,16.733444,-24.457823,8.375088,3.489519,1.3919256,12.948492,15.119014,18.18037,-19.815905,66.922424,13.625401,-3.428619,9.356907,-8.679401,-14.356198,21.657509,59.604286,-8.147859,-2.5702567,-11.004351
26,5.7145490646362305,-23.444595336914062,74.62747192382812,-0.41853973739004985,-6.663519230944059,90.46500597251689,-20.247076,10.587653,17.417875,21.27069,3.1625302,-7.2142544,25.219213,-3.4408996,-33.08001,16.554667,-24.547535,7.781344,3.1443055,1.6847358,13.46973,14.90137,18.3606,-19.664907,66.49967,13.535086,-3.4295013,9.279989,-8.59353,-14.399906,21.650316,59.485657,-8.253604,-2.5727103,-11.144066
27,5.887252330780029,-24.150781631469727,74.67964935302734,-0.6654767665387624,-7.055039308861612,90.80559347636512,-20.161858,10.90012,16.598764,22.004208,1.6013331,-7.6925435,25.157574,-2.892126,-33.471622,16.435299,-24.605265,7.165964,2.8127658,1.8856912,13.923818,14.671086,18.563639,-19.557346,66.0927,13.395761,-3.4441173,9.225428,-8.465164,-14.431895,21.635887,59.392994,-8.382873,-2.5581486,-11.334659
28,6.0367655754089355,-24.855316162109375,74.75821685791016,-0.8311383255304794,-7.381942931704901,91.11920477483751,-20.218403,11.294906,16.084164,23.309704,0.30897167,-7.852986,24.98259,-2.4868698,-33.825222,16.410799,-24.641342,6.5660176,2.506538,1.997296,14.310136,14.397064,18.77911,-19.50123,65.74772,13.27584,-3.4759042,9.210184,-8.306331,-14.450299,21.604677,59.328156,-8.486321,-2.5244112,-11.539031
29,6.17649507522583,-25.54227638244629,74.86595916748047,-0.890858710586567,-7.625960736974074,91.3984175763546,-20.449923,11.821905,16.017124,25.284061,-0.5259394,-7.5811253,24.653019,-2.2616735,-34.1396,16.512962,-24.664497,5.9599905,2.2333398,2.0013504,14.615664,14.053499,19.002111,-19.527117,65.49816,13.160327,-3.5482152,9.258417,-8.122637,-14.453424,21.561867,59.300663,-8.568542,-2.4553268,-11.793345
30,6.32351541519165,-26.210317611694336,74.99893951416016,-0.865611343991208,-7.806615099423488,91.64227345100589,-20.79719,12.482197,16.29967,27.81426,-1.1431143,-6.885325,24.213099,-2.1753633,-34.430157,16.698605,-24.659742,5.334142,1.9930811,1.9225885,14.844443,13.66047,19.23166,-19.622898,65.31796,13.024407,-3.6518276,9.356582,-7.9094133,-14.442422,21.510935,59.311447,-8.6505165,-2.357009,-12.102034
31,6.449328899383545,-26.868688583374023,75.13423919677734,-0.8172343329196483,-7.961559808666417,91.84993243054988,-21.154001,13.21872,16.640059,30.634842,-1.7255203,-6.013781,23.739012,-2.1412582,-34.675117,16.901632,-24.60422,4.73829,1.7810681,1.8242503,15.022302,13.254944,19.461962,-19.729794,65.16607,12.922737,-3.741849,9.465534,-7.6650205,-14.4208355,21.442976,59.350037,-8.706578,-2.261311,-12.380939
32,6.551090717315674,-27.510156631469727,75.27946472167969,-0.7995814882911317,-8.125671823064206,92.02700665088058,-21.441881,13.937836,16.7444,33.5124,-2.462212,-5.2358494,23.30109,-2.0856981,-34.859825,17.066614,-24.477905,4.2249255,1.585076,1.7608584,15.173835,12.872322,19.684599,-19.788214,65.00467,12.910194,-3.7728374,9.546978,-7.3883724,-14.393234,21.351519,59.40542,-8.710395,-2.200178,-12.546364
33,6.662306785583496,-28.13405990600586,75.42276763916016,-0.8158214289081251,-8.303643809352375,92.1669235364243,-21.678549,14.634359,16.581987,36.514236,-3.4439597,-4.5851564,22.896502,-2.0164216,-34.96384,17.217932,-24.26951,3.825654,1.4059988,1.7457547,15.298831,12.517771,19.891594,-19.78494,64.83302,13.062682,-3.710312,9.592821,-7.071203,-14.361811,21.218632,59.4808,-8.646707,-2.189028,-12.559026
34,6.750120162963867,-28.72612762451172,75.56982421875,-0.8381750833387854,-8.477554766989787,92.27151361856181,-21.897635,15.342459,16.286459,39.722977,-4.5584,-3.9324727,22.491236,-1.9697379,-35.002773,17.378115,-23.991137,3.5076265,1.2441903,1.7503806,15.385711,12.170215,20.082079,-19.749048,64.67517,13.33226,-3.5857134,9.624187,-6.717297,-14.327089,21.056444,59.579273,-8.53104,-2.208225,-12.46904
35,6.824040412902832,-29.29965591430664,75.71774291992188,-0.8650839010514093,-8.645696439463743,92.36219857973455,-22.073463,15.993898,15.814144,42.963985,-5.6886973,-3.3272967,22.104591,-1.9226862,-35.02057,17.49714,-23.661137,3.2289312,1.0831162,1.7598342,15.440828,11.826103,20.260675,-19.684021,64.52937,13.588452,-3.4531283,9.64672,-6.342623,-14.29048,20.90228,59.689377,-8.385004,-2.2376673,-12.327081
36,6.895951747894287,-29.867626190185547,75.8634262084961,-0.8947167120386244,-8.8066648434428,92.46063236976025,-22.180738,16.513145,15.130736,46.067707,-6.716087,-2.8244774,21.756592,-1.8514433,-35.06251,17.524776,-23.298899,2.9475403,0.90485233,1.7575978,15.470858,11.486086,20.435078,-19.589275,64.38841,13.702023,-3.366381,9.666015,-5.9651694,-14.254205,20.796211,59.801254,-8.22916,-2.2577808,-12.183613
37,6.9762492179870605,-30.435832977294922,76.01166534423828,-0.9317314159419421,-8.959782264951661,92.58093371762254,-22.240772,16.827154,14.136234,49.036674,-7.6177907,-2.4763033,21.45832,-1.7461182,-35.148266,17.435728,-22.893158,2.6665626,0.69822395,1.7386943,15.474886,11.15637,20.609673,-19.441982,64.25196,13.610869,-3.3435073,9.676372,-5.5816975,-14.217795,20.756413,59.908234,-8.036504,-2.271679,-12.028108
38,7.044156074523926,-30.97809600830078,76.15670776367188,-0.9730630497008516,-9.10534980488053,92.71050282740528,-22.260595,16.96407,12.896263,51.960964,-8.454702,-2.2601697,21.19614,-1.6239078,-35.25316,17.261944,-22.43894,2.404974,0.47171652,1.7078553,15.4501295,10.839159,20.784773,-19.246273,64.11762,13.392982,-3.354659,9.676088,-5.1878395,-14.180746,20.76217,60.01826,-7.8057466,-2.2866497,-11.841589
39,7.106020450592041,-31.484922409057617,76.30880737304688,-1.009681113425926,-9.243362505043761,92.83049939887925,-22.191433,17.010523,11.626355,54.801926,-9.2338295,-2.1140304,20.948349,-1.5054731,-35.353577,17.051945,-21.971687,2.1442804,0.24111295,1.6665466,15.401806,10.528492,20.960604,-19.046177,63.973488,13.129503,-3.381928,9.676013,-4.7904487,-14.142817,20.789646,60.13322,-7.5969834,-2.2898884,-11.661021
40,7.155200004577637,-32.0103645324707,76.44496154785156,-1.0317949996178162,-9.374118537093413,92.92133175174345,-21.988472,17.073368,10.530534,57.518726,-9.961554,-1.9641719,20.695961,-1.406541,-35.42569,16.848267,-21.524115,1.8651282,0.023927543,1.6186421,15.335589,10.215544,21.137802,-18.889587,63.809986,12.899447,-3.4077165,9.68769,-4.3952756,-14.104475,20.813633,60.253666,-7.469772,-2.2691016,-11.5232315
41,7.212855815887451,-32.53158187866211,76.57540893554688,-1.0329157019767816,-9.499621414910632,92.98199944844252,-21.63987,17.153828,9.61132,60.104813,-10.631058,-1.804989,20.442438,-1.3348132,-35.467575,16.656382,-21.098507,1.5560162,-0.17268226,1.5583928,15.249123,9.89824,21.316936,-18.791897,63.61999,12.69794,-3.4309013,9.710826,-3.9946854,-14.0670595,20.831848,60.38025,-7.4626174,-2.2083979,-11.441509
42,7.253111839294434,-33.03199005126953,76.70159912109375,-1.0180089333978202,-9.61955552062293,93.02064872528955,-21.166988,17.213308,8.778179,62.58599,-11.244383,-1.6680467,20.197252,-1.2782933,-35.490078,16.451132,-20.677305,1.2291183,-0.3555499,1.4876974,15.141045,9.577929,21.498165,-18.731316,63.41182,12.48983,-3.4597027,9.740444,-3.5855606,-14.031243,20.852467,60.509537,-7.5367737,-2.1190157,-11.394516
43,7.285612106323242,-33.5182991027832,76.82710266113281,-1.0024136023411432,-9.730279154233164,93.03234575141752,-20.575674,17.314266,8.086898,64.95499,-11.821552,-1.524151,19.946198,-1.2246907,-35.488148,16.240307,-20.270308,0.9002974,-0.5280282,1.4211667,15.018791,9.254478,21.680824,-18.697134,63.195576,12.311008,-3.4906592,9.780783,-3.1802654,-13.996652,20.864372,60.636585,-7.6372924,-2.0296152,-11.367024
44,7.311705589294434,-34.01344680786133,76.93817901611328,-0.9992957012770795,-9.828528013086105,93.01176399016643,-19.87258,17.521576,7.591065,67.20307,-12.382656,-1.3412781,19.676458,-1.160203,-35.456726,16.027397,-19.885178,0.5853679,-0.6918015,1.3742867,14.890027,8.927152,21.863512,-18.678667,62.980774,12.198434,-3.5200036,9.836098,-2.7882457,-13.960657,20.854698,60.753395,-7.7094893,-1.9689249,-11.343795
45,7.340033531188965,-34.51406478881836,77.03971862792969,-1.0082464678809915,-9.91634152264684,92.94186554613557,-19.042414,17.878445,7.3329225,69.344444,-12.943715,-1.0858951,19.38283,-1.0853555,-35.37928,15.822291,-19.524889,0.2890375,-0.8372044,1.3489715,14.757676,8.594862,22.04789,-18.683245,62.778812,12.179632,-3.5506277,9.908732,-2.415399,-13.921277,20.825916,60.870193,-7.7569175,-1.9475752,-11.331603
46,7.35464334487915,-34.99967575073242,77.13323974609375,-1.0246633022536042,-9.994842472338973,92.83022648363246,-18.084406,18.35156,7.2713394,71.37807,-13.491389,-0.7749026,19.07122,-1.0047423,-35.262924,15.624599,-19.186966,0.0023556026,-0.96584463,1.3375782,14.61804,8.25946,22.234497,-18.712614,62.579166,12.229059,-3.5823085,9.995897,-2.0554333,-13.877697,20.781986,60.987133,-7.8033113,-1.9492652,-11.335297
47,7.375588893890381,-35.48128890991211,77.21623992919922,-1.0523287693541412,-10.059253169796312,92.70800412846843,-17.030073,18.890574,7.3343515,73.27338,-14.002732,-0.45280877,18.757044,-0.9033675,-35.137493,15.393174,-18.859877,-0.27960485,-1.0977411,1.3400289,14.467752,7.920852,22.419786,-18.747906,62.36879,12.303414,-3.6098251,10.096039,-1.7053035,-13.8320055,20.714529,61.088955,-7.82459,-1.9624541,-11.337851
48,7.378652572631836,-35.979679107666016,77.28231811523438,-1.0961181030647946,-10.104831570841133,92.60691241724264,-15.912338,19.443508,7.451322,74.99943,-14.453043,-0.16632877,18.446478,-0.7736258,-35.032585,15.111108,-18.53822,-0.56121016,-1.2542323,1.3581897,14.303428,7.577045,22.598083,-18.771374,62.136776,12.358248,-3.6279051,10.208016,-1.362319,-13.788689,20.615685,61.16061,-7.7970567,-1.9756498,-11.322119
49,7.3715009689331055,-36.45649719238281,77.33519744873047,-1.159235489083773,-10.122909552079035,92.53751787710672,-14.736153,20.015177,7.630355,76.56413,-14.854978,0.08647681,18.154007,-0.60377663,-34.95844,14.727052,-18.211332,-0.8438247,-1.4478208,1.3946064,14.1107,7.2313504,22.76542,-18.780958,61.876717,12.386229,-3.6356156,10.336296,-1.0175896,-13.750688,20.471958,61.19037,-7.695632,-1.9901793,-11.278598
50,7.366529941558838,-36.94874572753906,77.37390899658203,-1.2368477356640852,-10.118870389465567,92.48177506149648,-13.483513,20.627552,7.902227,77.981026,-15.214802,0.32756123,17.869678,-0.40398386,-34.897793,14.272789,-17.886055,-1.124851,-1.6648742,1.4516625,13.896563,6.882365,22.921276,-18.784973,61.595947,12.41067,-3.6340775,10.480457,-0.6718798,-13.717696,20.290627,61.184593,-7.539368,-2.0102751,-11.217274
51,7.3551506996154785,-37.43473434448242,77.41091918945312,-1.3305989163603067,-10.108326780778343,92.43022415950917,-12.158361,21.251873,8.232795,79.230415,-15.499872,0.5390476,17.576744,-0.19151697,-34.839725,13.820501,-17.574995,-1.4032176,-1.8899124,1.5294096,13.688643,6.5157833,23.060629,-18.780554,61.31841,12.433692,-3.6273012,10.634756,-0.3432787,-13.692813,20.10111,61.1622,-7.3665566,-2.029077,-11.15113
52,7.326168537139893,-37.9443359375,77.43268585205078,-1.4407271493057379,-10.106970609253262,92.37326773102792,-10.766526,21.857447,8.587612,80.29123,-15.675217,0.7002304,17.256783,0.016244782,-34.773937,13.44599,-17.291817,-1.6780132,-2.1042602,1.6246204,13.516577,6.1240134,23.189342,-18.764645,61.05491,12.455878,-3.6184747,10.789967,-0.04478236,-13.676937,19.928043,61.134792,-7.216858,-2.039788,-11.091948
53,7.295905113220215,-38.45589065551758,77.43833923339844,-1.566063181353647,-10.119897668464512,92.30999848816226,-9.302969,22.448915,8.977744,81.17229,-15.699737,0.82128793,16.913754,0.21435596,-34.70011,13.155149,-17.048832,-1.9437022,-2.3075416,1.7358919,13.386592,5.695824,23.298298,-18.730799,60.82255,12.490384,-3.602452,10.947101,0.2202688,-13.672214,19.770006,61.099316,-7.086205,-2.0323577,-11.033146
54,7.263660430908203,-38.97958755493164,77.43578338623047,-1.7058693124025697,-10.138733259857673,92.24502470484558,-7.767513,23.033897,9.41905,81.88057,-15.599337,0.9075478,16.557777,0.41413626,-34.623142,12.90414,-16.83107,-2.202859,-2.505659,1.86323,13.285341,5.24148,23.394436,-18.683088,60.604,12.531273,-3.5796607,11.107876,0.4621249,-13.677546,19.614174,61.046825,-6.95788,-2.013361,-10.970843
55,7.226193904876709,-39.50553894042969,77.42636108398438,-1.8667373216791279,-10.158172768239615,92.17781006460034,-6.1764097,23.586447,9.884359,82.39668,-15.441144,0.9312747,16.16461,0.612688,-34.54061,12.730688,-16.630917,-2.465843,-2.6999872,2.0100086,13.21033,4.780562,23.490297,-18.628035,60.3727,12.553348,-3.5612538,11.269069,0.6809071,-13.694945,19.477875,60.9885,-6.8525853,-2.0003753,-10.922065
56,7.193569183349609,-40.0266227722168,77.41229248046875,-2.0551198340526478,-10.173288456749015,92.10799957123481,-4.545776,24.08192,10.346172,82.696625,-15.293216,0.8642885,15.712182,0.8097254,-34.451008,12.668283,-16.439032,-2.742963,-2.90764,2.1897614,13.148119,4.315998,23.554962,-18.561863,60.14587,12.546765,-3.5583892,11.440513,0.8513792,-13.719675,19.398468,60.973915,-6.789843,-2.0103955,-10.912978
57,7.148955821990967,-40.56917953491211,77.38885498046875,-2.2864434345159728,-10.205510509263796,92.04231024475553,-2.8370938,24.544933,10.803059,82.76801,-15.153607,0.66514796,15.241737,1.0366521,-34.35469,12.6762495,-16.232225,-3.0438237,-3.1275864,2.410282,13.125084,3.8505137,23.60251,-18.48555,59.909096,12.482032,-3.5799797,11.6159725,0.9810835,-13.753145,19.37574,60.99806,-6.791623,-2.059059,-10.96036
58,7.102805137634277,-41.12797927856445,77.35299682617188,-2.5520418684192654,-10.249969153732978,91.97912672763093,-1.0587944,24.974836,11.269557,82.62581,-14.990813,0.35929692,14.749919,1.2842828,-34.253845,12.754329,-16.024149,-3.3616,-3.3575737,2.6626153,13.139834,3.3866336,23.642052,-18.394337,59.655777,12.373955,-3.618655,11.792641,1.076087,-13.801072,19.3983,61.040367,-6.840553,-2.1333275,-11.046734
59,7.040747165679932,-41.66891098022461,77.32537841796875,-2.8237110522257582,-10.261203253878984,91.90554027914526,0.6961206,25.311031,11.73663,82.29578,-14.830257,0.019221349,14.148178,1.4925596,-34.150684,12.990455,-15.856932,-3.6822534,-3.5884054,2.9274735,13.145271,2.9332147,23.671751,-18.295296,59.38253,12.2665825,-3.6605427,11.975253,1.1378709,-13.865685,19.457766,61.090977,-6.8998294,-2.2085745,-11.139165
60,6.974328517913818,-42.229671478271484,77.28821563720703,-3.0714713679015495,-10.193281805975124,91.80746712671721,2.332781,25.494623,12.191838,81.80333,-14.700241,-0.2811484,13.346692,1.6001973,-34.04677,13.469682,-15.769432,-3.9906502,-3.811551,3.190598,13.096915,2.5003793,23.688915,-18.193865,59.08043,12.202021,-3.6925344,12.166345,1.177479,-13.967038,19.546412,61.122505,-6.928704,-2.259864,-11.199715
61,6.8987345695495605,-42.82528305053711,77.2436294555664,-3.2971791843848415,-10.034809186183953,91.68305376224161,3.8272827,25.52611,12.621686,81.16258,-14.639935,-0.47832832,12.322675,1.6012907,-33.93971,14.213751,-15.769557,-4.2769756,-4.011529,3.4534614,12.969021,2.0531702,23.681255,-18.123596,58.795322,12.188454,-3.7088096,12.385032,1.1814723,-14.078193,19.666185,61.17087,-6.9217615,-2.2752619,-11.23617
62,6.811954021453857,-43.4033203125,77.1988754272461,-3.5110666926640755,-9.80952698121833,91.53786716906346,5.223666,25.432484,13.030345,80.36012,-14.628258,-0.6217534,11.120219,1.5190384,-33.8279,15.179687,-15.83638,-4.5490174,-4.190214,3.7108002,12.783488,1.5931796,23.659672,-18.077034,58.524998,12.203808,-3.7162118,12.625472,1.1350449,-14.174719,19.81404,61.262505,-6.9062457,-2.270882,-11.268813
63,6.711024761199951,-44.00798034667969,77.14512634277344,-3.6919813061460993,-9.52394957663208,91.36806452066769,6.524356,25.196207,13.425784,79.38272,-14.598535,-0.80753094,9.765256,1.3488307,-33.71142,16.311913,-15.94178,-4.8173575,-4.364042,3.9658723,12.563326,1.1499665,23.60769,-18.014048,58.23386,12.248855,-3.7210093,12.864173,1.0682539,-14.313027,19.971622,61.33427,-6.885509,-2.261828,-11.275087
64,6.601110935211182,-44.63011169433594,77.08474731445312,-3.8165336966655015,-9.18470731857152,91.17016768306516,7.7306614,24.796701,13.814298,78.217255,-14.485064,-1.1328872,8.276338,1.0792418,-33.589817,17.575014,-16.069378,-5.0932302,-4.5137486,4.186731,12.310128,0.71374726,23.535257,-17.94557,57.931686,12.313349,-3.7263675,13.084264,0.97022724,-14.4516945,20.077906,61.415146,-6.897278,-2.2673523,-11.253787
65,6.4725189208984375,-45.28783416748047,77.01493072509766,-3.869693328891741,-8.762922827834116,90.92721987378803,8.810512,24.201935,14.19933,76.86039,-14.265013,-1.6475877,6.5902243,0.6759291,-33.45121,19.03097,-16.23797,-5.3790035,-4.63286,4.3638043,12.003932,0.289657,23.439991,-17.859194,57.61004,12.401106,-3.7349896,13.285646,0.825299,-14.589289,20.113907,61.520267,-6.971443,-2.2955341,-11.181845
66,6.331423759460449,-45.9476432800293,76.94237518310547,-3.863573708910787,-8.264557377594917,90.64706577735821,9.770502,23.431265,14.5659685,75.3149,-13.977604,-2.2890525,4.7264166,0.15725122,-33.291412,20.654509,-16.436392,-5.6655726,-4.7249084,4.505115,11.645046,-0.12795267,23.322487,-17.764282,57.277172,12.513351,-3.7436755,13.477379,0.63642365,-14.72713,20.105785,61.64893,-7.0873456,-2.3361056,-11.071449
67,6.191178798675537,-46.61488723754883,76.86370086669922,-3.822233766159114,-7.748697674769957,90.36420741821735,10.670083,22.543716,14.892386,73.5778,-13.649858,-2.9887953,2.8299317,-0.40551397,-33.123505,22.274574,-16.600931,-5.9497085,-4.808295,4.61907,11.275818,-0.5372968,23.189268,-17.671774,56.9388,12.643603,-3.748676,13.65132,0.4329284,-14.86572,20.087374,61.769924,-7.1893353,-2.3786407,-10.965961
68,6.04578161239624,-47.27312088012695,76.78384399414062,-3.769698008843637,-7.27433471216378,90.11214243526709,11.572911,21.599411,15.160347,71.6435,-13.306479,-3.679531,1.0378406,-0.945239,-32.96535,23.741276,-16.68013,-6.2310157,-4.9019313,4.713992,10.9391985,-0.93546265,23.050833,-17.593565,56.598587,12.78217,-3.7460008,13.798739,0.24312343,-15.006152,20.092379,61.852688,-7.222671,-2.4122565,-10.908823
69,5.898624897003174,-47.95450210571289,76.69764709472656,-3.6982665645048693,-6.85268125150489,89.88774384205819,12.501229,20.556452,15.343919,69.48586,-12.933886,-4.416583,-0.6424272,-1.4684201,-32.811733,25.06719,-16.68278,-6.5140867,-5.002908,4.779872,10.641626,-1.3083738,22.911324,-17.514076,56.233624,12.938938,-3.7304533,13.908102,0.07089834,-15.149348,20.14057,61.888123,-7.144848,-2.437649,-10.920328
70,5.7463860511779785,-48.637847900390625,76.61283874511719,-3.6018930236505438,-6.4535893067541545,89.67812798467534,13.42478,19.408329,15.452285,67.11281,-12.52759,-5.2100472,-2.2774396,-2.0017226,-32.65706,26.322063,-16.63355,-6.799941,-5.107587,4.816567,10.363606,-1.6559596,22.770771,-17.430191,55.841724,13.112954,-3.7055585,13.98533,-0.09828964,-15.294623,20.213257,61.89074,-6.9931035,-2.4593287,-10.973804
71,5.597410678863525,-49.336647033691406,76.5199203491211,-3.5036662118267135,-6.074115988776593,89.50012938181032,14.329345,18.262852,15.528064,64.57443,-12.124461,-5.9287224,-3.8469672,-2.5156329,-32.523144,27.458212,-16.515196,-7.084219,-5.229154,4.8452015,10.108803,-1.9952717,22.634226,-17.372103,55.455853,13.281776,-3.6807363,14.046737,-0.2615333,-15.439385,20.282272,61.863815,-6.8338594,-2.4725,-11.041492
72,5.438660144805908,-50.035865783691406,76.43512725830078,-3.4250640401666863,-5.711533419505946,89.36905282614832,15.20186,17.219185,15.622698,61.917477,-11.756299,-6.4471264,-5.3309546,-2.9853737,-32.4314,28.43266,-16.308113,-7.361274,-5.376777,4.883943,9.881172,-2.3419304,22.508644,-17.370527,55.1063,13.423835,-3.665233,14.108331,-0.41301712,-15.578672,20.316418,61.80797,-6.7340765,-2.4720745,-11.095456
73,5.285617828369141,-50.730918884277344,76.35006713867188,-3.3642998264243196,-5.3762183094831135,89.28391500080608,16.046259,16.257385,15.73017,59.10458,-11.368973,-6.7275214,-6.7112865,-3.410423,-32.38374,29.240229,-16.017496,-7.6289897,-5.5515213,4.9332705,9.6844635,-2.6909587,22.398691,-17.445045,54.79746,13.5126505,-3.6662486,14.173799,-0.547605,-15.710498,20.313772,61.72411,-6.7269893,-2.4468038,-11.1366
74,5.12258243560791,-51.440093994140625,76.2674789428711,-3.3113949356847234,-5.06641565166217,89.23680835823325,16.874067,15.32548,15.838687,56.124176,-10.966101,-6.8499136,-8.004478,-3.8086464,-32.370216,29.908943,-15.653008,-7.8908114,-5.74451,4.9796658,9.515727,-3.035407,22.304008,-17.577444,54.510784,13.566537,-3.6773784,14.233918,-0.66804194,-15.833969,20.284996,61.610912,-6.77303,-2.4028976,-11.176962
75,4.952488899230957,-52.18750762939453,76.18134307861328,-3.266234365863283,-4.761424583964118,89.23197571662446,17.676167,14.468323,15.996787,53.06731,-10.663668,-6.8717937,-9.252819,-4.1914277,-32.395386,30.47169,-15.2214,-8.148245,-5.952569,5.0210576,9.36873,-3.3948734,22.225061,-17.748228,54.248947,13.622477,-3.687073,14.285747,-0.7845567,-15.945493,20.220081,61.471058,-6.8301525,-2.3611166,-11.206403
76,4.7945685386657715,-52.933841705322266,76.10066986083984,-3.2318467652611176,-4.440759300421292,89.27426007691349,18.443325,13.726556,16.254799,50.014763,-10.57364,-6.85538,-10.496265,-4.567762,-32.46254,30.953873,-14.725426,-8.403611,-6.171668,5.054336,9.236437,-3.7876244,22.162264,-17.937191,54.014107,13.719545,-3.6839235,14.32585,-0.9080515,-16.03988,20.108261,61.308662,-6.856771,-2.3426425,-11.214887
77,4.632475852966309,-53.70936965942383,76.01294708251953,-3.226359054814934,-4.078748184301476,89.37975565997064,19.167547,13.126956,16.626347,46.900845,-10.699035,-6.8063016,-11.762906,-4.929368,-32.596508,31.363865,-14.170356,-8.659102,-6.419912,5.0933027,9.097895,-4.209117,22.121893,-18.135006,53.790985,13.876535,-3.6544387,14.350438,-1.0455409,-16.104607,19.936634,61.126495,-6.845687,-2.3563237,-11.196996
78,4.475803375244141,-54.510318756103516,75.92660522460938,-3.239099131121148,-3.693328732245304,89.54008619071288,19.85922,12.607778,17.097412,43.690353,-10.977926,-6.725788,-13.024301,-5.278355,-32.784813,31.68419,-13.550952,-8.914734,-6.6937985,5.1312394,8.962308,-4.6511984,22.099548,-18.3512,53.58422,14.072365,-3.6082742,14.362075,-1.1911763,-16.145012,19.716549,60.923576,-6.817061,-2.3897438,-11.159513
79,4.315392971038818,-55.330596923828125,75.8324966430664,-3.230110784620893,-3.327990688422041,89.72511703962198,20.533154,12.088906,17.67636,40.51392,-11.428758,-6.660099,-14.253616,-5.65528,-32.98216,31.952454,-12.884257,-9.165006,-6.942076,5.1317763,8.864686,-5.146157,22.086546,-18.62329,53.43716,14.272971,-3.5678144,14.369175,-1.3288478,-16.176277,19.450596,60.6987,-6.7790194,-2.4330926,-11.110459
80,4.163245677947998,-56.183963775634766,75.71422576904297,-3.1619456366529417,-3.026025749831412,89.90592792342132,21.2058,11.507359,18.365341,37.49926,-12.065267,-6.642189,-15.422298,-6.094738,-33.142834,32.198055,-12.182038,-9.404609,-7.1948023,5.0488353,8.845391,-5.638056,22.090677,-18.879313,53.335285,14.468701,-3.5571938,14.370808,-1.5249951,-16.190792,19.24354,60.51623,-6.7196703,-2.475462,-11.070449
81,4.01101541519165,-57.07325744628906,75.59716033935547,-3.0407558197587945,-2.7683229825053366,90.09724860750637,21.857222,10.890943,19.199318,34.66851,-13.014534,-6.6658525,-16.557186,-6.606888,-33.285706,32.436478,-11.457783,-9.641808,-7.4307017,4.885061,8.889355,-6.172697,22.108295,-19.158274,53.307564,14.654865,-3.5915558,14.369771,-1.7575008,-16.199183,19.072657,60.353474,-6.6200047,-2.5245469,-11.028241
82,3.8528263568878174,-57.966644287109375,75.50154876708984,-2.8826116375397866,-2.539572558233421,90.30990594352315,22.496872,10.250566,20.167933,31.914362,-14.201478,-6.7348256,-17.665043,-7.17058,-33.426235,32.648407,-10.701122,-9.876918,-7.63071,4.658484,8.980861,-6.7693844,22.144901,-19.502613,53.350643,14.827484,-3.654592,14.364587,-1.9875658,-16.201555,18.881063,60.17388,-6.4934916,-2.5829492,-10.975136
83,3.6893699169158936,-58.850616455078125,75.42584991455078,-2.6776967800957068,-2.3879488313837443,90.50948513141451,23.17963,9.525356,21.197132,29.184147,-15.34371,-6.8667674,-18.683945,-7.764801,-33.514965,32.802467,-9.882666,-10.0917225,-7.841943,4.368004,9.15609,-7.3375096,22.186462,-19.8202,53.42381,14.998929,-3.7247653,14.353672,-2.266972,-16.197151,18.73375,60.029766,-6.3778434,-2.6309664,-10.937143
84,3.525432586669922,-59.74546813964844,75.36170196533203,-2.413037099354563,-2.362837688008253,90.66001623554054,23.953346,8.670571,22.206535,26.445765,-16.170956,-7.0534377,-19.55227,-8.366748,-33.50174,32.868134,-8.973227,-10.266718,-7.9843884,3.9993458,9.445874,-7.9002643,22.245626,-20.197168,53.540394,15.123483,-3.7756135,14.34236,-2.5324192,-16.178003,18.540863,59.88689,-6.342797,-2.6519964,-10.924671
85,3.359694004058838,-60.64924621582031,75.31769561767578,-2.0763676004492306,-2.510748003106743,90.74953654071551,24.88321,7.675591,23.240635,23.650658,-16.617477,-7.276286,-20.22565,-8.987866,-33.375214,32.849533,-7.9663277,-10.445558,-8.1056385,3.543987,9.903715,-8.415839,22.301863,-20.557465,53.687355,15.218309,-3.8017297,14.339119,-2.8395526,-16.14933,18.35391,59.785797,-6.4175663,-2.629555,-10.961583
86,3.1985669136047363,-61.54892349243164,75.29554748535156,-1.6879491208613615,-2.7894662815840654,90.8004928228941,25.913857,6.58699,24.303932,20.823942,-16.824066,-7.5172024,-20.748343,-9.623867,-33.17082,32.75638,-6.876348,-10.621124,-8.139373,3.000713,10.48992,-8.961477,22.38817,-21.014927,53.8962,15.254648,-3.812594,14.342213,-3.1336477,-16.08437,18.085741,59.69109,-6.5915947,-2.5796652,-11.028643
87,3.0477893352508545,-62.46028518676758,75.28828430175781,-1.2962854833563762,-3.1156475775986263,90.82875365972282,26.903713,5.472055,25.254866,18.07875,-16.860117,-7.752442,-21.186712,-10.222034,-32.910522,32.559704,-5.7020435,-10.6968155,-8.201505,2.4626534,11.116219,-9.433725,22.453785,-21.409613,54.12265,15.304528,-3.8206544,14.329059,-3.4753366,-16.030237,17.902306,59.640156,-6.7540183,-2.521948,-11.104345
88,2.8767964839935303,-63.405452728271484,75.28687286376953,-0.9416926123219492,-3.408633731794075,90.8495740995478,27.705856,4.4093285,25.957932,15.568292,-16.814806,-7.9570966,-21.605026,-10.7334585,-32.60688,32.229424,-4.4432006,-10.574498,-8.210196,1.954675,11.684979,-9.892462,22.537182,-21.86953,54.389267,15.339209,-3.828758,14.283317,-3.7867894,-15.9526825,17.718296,59.5963,-6.8672137,-2.4843714,-11.156136
89,2.696960210800171,-64.32133483886719,75.29843139648438,-0.6219449415153748,-3.6525459955658923,90.84550147774071,28.233875,3.4387925,26.351824,13.442612,-16.734009,-8.118375,-22.029951,-11.164898,-32.32527,31.749931,-3.0442972,-10.416515,-8.235642,1.5080296,12.193413,-10.278143,22.597364,-22.275698,54.68451,15.385735,-3.849635,14.207821,-4.1317215,-15.900691,17.66622,59.588493,-6.862632,-2.4663098,-11.185016
90,2.536102771759033,-65.23223114013672,75.31629180908203,-0.3107854066786341,-3.8938584183585987,90.80878570777678,28.552786,2.5470316,26.521332,11.683541,-16.618591,-8.232623,-22.42073,-11.543969,-32.020535,31.147047,-1.533028,-10.207847,-8.218182,1.075986,12.687975,-10.6395035,22.65532,-22.706818,55.02802,15.415434,-3.874718,14.112111,-4.475395,-15.851196,17.659016,59.596138,-6.8021426,-2.4581358,-11.201082
91,2.3765006065368652,-66.12548828125,75.34226989746094,-0.009292916192266068,-4.148739454320606,90.76913604767995,28.760391,1.7240944,26.558527,10.175341,-16.486263,-8.292325,-22.736631,-11.8436575,-31.527044,30.444918,-0.028549962,-9.577859,-8.2167635,0.6755256,13.169478,-10.922508,22.692936,-23.092098,55.365936,15.489092,-3.8929014,13.977419,-4.805037,-15.822968,17.698736,59.599915,-6.7182937,-2.4595866,-11.196781
92,2.2114861011505127,-66.99302673339844,75.35979461669922,0.27482701047733094,-4.431587414288755,90.76254079542866,28.961817,0.95261806,26.549557,8.779777,-16.3387,-8.3014765,-22.928057,-12.021191,-30.682182,29.642937,1.3469284,-8.153089,-8.20067,0.2968995,13.626599,-11.15777,22.732319,-23.513002,55.688957,15.610068,-3.8877404,13.790783,-5.046865,-15.787792,17.676367,59.558475,-6.6723533,-2.4742913,-11.164127
93,2.063446283340454,-67.8327407836914,75.37860107421875,0.5574454811571389,-4.7602063527846665,90.81746223909423,29.109848,0.2514561,26.455927,7.6683307,-16.26172,-8.305409,-22.86859,-11.997103,-29.375614,28.422403,2.62444,-5.3635936,-8.255696,-0.061388936,14.070587,-11.29346,22.75475,-23.885706,55.96607,15.866802,-3.8444614,13.51082,-5.2218738,-15.770179,17.632622,59.469463,-6.658957,-2.5053544,-11.081549
94,1.8910225629806519,-68.65020751953125,75.38973236083984,0.8525892364564611,-5.130606389948144,90.90573851007825,28.874401,-0.24021707,26.254448,7.5865407,-16.612432,-8.295015,-22.587355,-11.832969,-27.71511,26.877222,3.7681596,-1.5675292,-8.329716,-0.42018723,14.5046215,-11.365749,22.766571,-24.25431,56.23076,16.210472,-3.7751,13.159472,-5.32882,-15.76481,17.561344,59.337273,-6.6619577,-2.5511987,-10.958766
95,1.7196274995803833,-69.43881225585938,75.40574645996094,1.1341642951482307,-5.5178021718710415,90.97754166016657,28.668406,-0.7259089,26.062244,7.509413,-16.889927,-8.186457,-22.296984,-11.677918,-25.888592,25.660795,4.5789747,2.21709,-8.37767,-0.7499441,14.920776,-11.365294,22.766556,-24.587885,56.471214,16.54845,-3.7135537,12.805468,-5.397533,-15.771153,17.502268,59.192207,-6.67348,-2.6015968,-10.838182
96,1.5576130151748657,-70.19691467285156,75.4430923461914,1.3624707468363053,-5.891007658146292,90.9751160832681,28.459734,-1.167763,26.00017,7.454475,-17.139805,-7.9063134,-22.260725,-11.64012,-24.060095,25.45773,4.9363737,4.998911,-8.35722,-1.0089778,15.3102455,-11.273499,22.75512,-24.840069,56.6697,16.792007,-3.691563,12.518175,-5.470784,-15.787949,17.50627,59.075245,-6.6866035,-2.6465633,-10.763941
97,1.3963292837142944,-70.92605590820312,75.49903106689453,1.531376455872257,-6.262436519877152,90.86255837971508,28.277752,-1.5775766,26.128777,7.399749,-17.359194,-7.3783617,-22.588186,-11.699295,-22.169115,26.496912,4.839717,6.5139,-8.211953,-1.1711419,15.687622,-11.121943,22.714178,-25.050285,56.841732,16.909159,-3.7283905,12.306292,-5.5236034,-15.835103,17.561169,58.968216,-6.6853614,-2.6968591,-10.74593
98,1.2427666187286377,-71.64974212646484,75.57492065429688,1.662897301247334,-6.640981175717394,90.67478445783033,28.12633,-1.9720322,26.37738,7.3506947,-17.537367,-6.6640706,-23.148148,-11.768349,-20.161789,28.392199,4.4103208,7.315041,-8.013326,-1.267878,16.053644,-10.872389,22.655443,-25.171522,56.96452,16.967056,-3.803453,12.132753,-5.5817223,-15.901608,17.687952,58.88555,-6.6736054,-2.7529829,-10.7653265
99,1.1007254123687744,-72.35000610351562,75.66996765136719,1.7626806542133346,-6.991230969062852,90.45957065049414,27.960445,-2.3287153,26.672138,7.302018,-17.672438,-5.895575,-23.843569,-11.828877,-18.18478,30.861494,3.7815456,7.659214,-7.7868986,-1.3078562,16.373547,-10.55629,22.569231,-25.223837,57.081215,16.96794,-3.8847685,12.016707,-5.6138277,-15.99176,17.852222,58.79652,-6.6781754,-2.7895274,-10.803706
100,0.9750959277153015,-73.03717803955078,75.76243591308594,1.830472695250663,-7.27678945403813,90.26259038081713,27.732105,-2.6203704,26.942097,7.250383,-17.758394,-5.204326,-24.587458,-11.889284,-16.384558,33.66018,3.0553837,7.790367,-7.5660477,-1.3123956,16.61113,-10.183607,22.467104,-25.210802,57.21572,16.91714,-3.9401515,11.974158,-5.6174526,-16.08291,18.029558,58.702694,-6.7328854,-2.7821882,-10.848855
101,0.8623174428939819,-73.70838165283203,75.8766098022461,1.852829404036512,-7.479053422796339,90.08224765967144,27.418116,-2.827518,27.187824,7.198209,-17.789799,-4.6067786,-25.425062,-11.982661,-14.801783,36.899292,2.2129176,7.6176934,-7.349832,-1.2752181,16.744106,-9.746847,22.348633,-25.12369,57.37793,16.805063,-3.9622424,12.041229,-5.5991673,-16.170357,18.249174,58.61325,-6.860379,-2.703583,-10.914481
102,0.7577692866325378,-74.35977172851562,75.9954605102539,1.8398397053582904,-7.622179656379402,89.9034066079413,27.048597,-2.9744873,27.435385,7.1435566,-17.769213,-4.036855,-26.366558,-12.102143,-13.345089,40.60932,1.2512146,7.0544653,-7.1284122,-1.2013466,16.7937,-9.242246,22.214003,-24.966412,57.553253,16.630877,-3.9679492,12.197937,-5.5652175,-16.253574,18.512716,58.53532,-7.040806,-2.5737395,-11.003637
103,0.6657124757766724,-74.98519134521484,76.10903930664062,1.8154026985608993,-7.73215612350341,89.74692691076424,26.650091,-3.091101,27.658606,7.0833235,-17.699533,-3.5016434,-27.284634,-12.213901,-11.968461,44.47181,0.25937825,6.344684,-6.917072,-1.1188916,16.78921,-8.686639,22.066566,-24.757027,57.7325,16.41737,-3.9615288,12.377636,-5.5070543,-16.32641,18.754976,58.460808,-7.241968,-2.439244,-11.086807
104,0.5904054045677185,-75.60182189941406,76.22602844238281,1.80233897225568,-7.8343052964865585,89.63105033857079,26.250046,-3.2052565,27.833294,7.0116124,-17.581308,-3.0091672,-28.060558,-12.280238,-10.635003,48.19862,-0.6896273,5.740779,-6.725955,-1.0546172,16.76017,-8.100306,21.911774,-24.518656,57.90897,16.184696,-3.9467952,12.514224,-5.4153914,-16.379951,18.907394,58.382523,-7.4334855,-2.347017,-11.135206
105,0.5264866352081299,-76.21043395996094,76.35331726074219,1.80698058222035,-7.928387842337643,89.56756160719912,25.844252,-3.3140059,27.944801,6.934029,-17.402527,-2.568972,-28.698408,-12.289222,-9.315346,51.822254,-1.6123122,5.269665,-6.5614066,-1.0191187,16.705795,-7.475362,21.750467,-24.23012,58.068344,15.9461565,-3.9091728,12.601154,-5.280504,-16.403873,18.928225,58.299904,-7.644768,-2.314474,-11.134102
106,0.4713876247406006,-76.80360412597656,76.48303985595703,1.8145473842107744,-8.003231359920818,89.54353883103286,25.422411,-3.4034913,28.009476,6.8501515,-17.164156,-2.172833,-29.25029,-12.2648535,-8.037105,55.47759,-2.5433538,4.8125415,-6.413288,-1.0006347,16.612299,-6.806217,21.58228,-23.89262,58.21923,15.686792,-3.8515077,12.670057,-5.1137285,-16.39617,18.858742,58.22449,-7.8828096,-2.31577,-11.103015
107,0.43095749616622925,-77.37700653076172,76.60690307617188,1.8235879845837082,-8.066577584771869,89.5384224740773,24.99841,-3.4806066,28.050882,6.7528024,-16.887838,-1.8060652,-29.671095,-12.226749,-6.8590264,59.0402,-3.4478369,4.4053793,-6.267329,-0.9893289,16.489988,-6.1170716,21.413223,-23.562967,58.38935,15.382641,-3.8027585,12.711659,-4.9365706,-16.364603,18.756954,58.16515,-8.081922,-2.3325238,-11.064189
108,0.3837749660015106,-77.94878387451172,76.72867584228516,1.8275397960107618,-8.12610360357932,89.53281409923993,24.591879,-3.554631,28.092672,6.622676,-16.59267,-1.4519894,-29.922426,-12.205353,-5.8378973,62.39517,-4.29157,4.077697,-6.108256,-0.9736977,16.350609,-5.431037,21.25268,-23.298481,58.602028,15.008998,-3.7918193,12.715928,-4.7657976,-16.32386,18.676933,58.1237,-8.177613,-2.3463216,-11.038215
109,0.3528907001018524,-78.51482391357422,76.84818267822266,1.826333738014399,-8.183334228908251,89.52823734077162,24.204504,-3.6261063,28.135866,6.463279,-16.274212,-1.1064186,-29.994347,-12.212182,-4.975857,65.53911,-5.066785,3.8778486,-5.935455,-0.9507831,16.196098,-4.7473383,21.10719,-23.113312,58.858074,14.496582,-3.8394237,12.670836,-4.588348,-16.28162,18.626707,58.080734,-8.109508,-2.352149,-11.030383
110,0.32688912749290466,-79.06987762451172,76.96040344238281,1.8206714027701227,-8.23568769442623,89.53378594294,23.825914,-3.685912,28.168594,6.289251,-15.930348,-0.7780227,-29.91129,-12.250378,-4.245998,68.54369,-5.80267,3.7677453,-5.75644,-0.9238302,16.025406,-4.0499363,20.976648,-22.97492,59.13529,13.878665,-3.9250214,12.581982,-4.394029,-16.237083,18.57839,58.02912,-7.92406,-2.3597336,-11.026798
111,0.2988486886024475,-79.62078857421875,77.05937957763672,1.8117882234202436,-8.281453036104576,89.53969905826017,23.478018,-3.7492948,28.195242,6.041849,-15.547157,-0.46880665,-29.68597,-12.345469,-3.6550274,71.38904,-6.5136285,3.6420107,-5.5669703,-0.89361215,15.842833,-3.3431537,20.86071,-22.87455,59.42621,13.279153,-4.016023,12.466553,-4.2020717,-16.19296,18.532597,57.986973,-7.7160616,-2.3718617,-11.01973
112,0.28655165433883667,-80.169189453125,77.1571044921875,1.8172842900120656,-8.329491944942683,89.528441579652,23.05369,-3.776477,28.232882,6.0040803,-15.29512,-0.1811237,-29.333803,-12.532078,-3.1839988,74.066795,-7.218795,3.3992767,-5.3544035,-0.8777127,15.662868,-2.6325216,20.758795,-22.803265,59.723606,12.8229265,-4.080829,12.342874,-4.0295944,-16.151619,18.489765,57.968426,-7.5785837,-2.3913696,-11.001075
113,0.2801293432712555,-80.7093734741211,77.23815155029297,1.8197098762061068,-8.372176454228555,89.50290271788847,22.60555,-3.7842999,28.273153,6.03437,-15.10191,0.07843593,-28.85454,-12.816597,-2.8567953,76.57369,-7.910711,2.9891248,-5.1228065,-0.8561453,15.475213,-1.9115776,20.670519,-22.759352,60.02303,12.56894,-4.108224,12.200543,-3.8755393,-16.115915,18.445742,57.980366,-7.5331297,-2.4283948,-10.953422
114,0.27138662338256836,-81.25506591796875,77.31295776367188,1.8170669542897684,-8.408015342831366,89.4709138099687,22.157763,-3.7850947,28.310677,6.0697412,-14.926249,0.31310004,-28.242092,-13.193438,-2.6689248,78.914536,-8.583698,2.4643862,-4.876903,-0.8286973,15.2805,-1.1715955,20.60737,-22.745413,60.313526,12.439484,-4.116362,12.032367,-3.7264993,-16.09101,18.400623,58.00201,-7.5288506,-2.478376,-10.883462
115,0.2644048035144806,-81.78251647949219,77.37837219238281,1.8205113485543785,-8.442770355191403,89.43556257100707,21.712473,-3.7914627,28.350143,6.103668,-14.763437,0.53561527,-27.502918,-13.658378,-2.5901785,81.07451,-9.249589,1.881202,-4.620925,-0.8087765,15.091444,-0.43355536,20.55788,-22.759514,60.614628,12.361781,-4.117964,11.869177,-3.593256,-16.070686,18.36566,58.030827,-7.554006,-2.5217063,-10.824345
116,0.26223281025886536,-82.30802917480469,77.4398422241211,1.8437128723191194,-8.48210119844256,89.39949925418368,21.27065,-3.8125303,28.396402,6.133699,-14.611661,0.75869846,-26.642176,-14.204908,-2.5937297,83.03509,-9.920672,1.2972785,-4.35739,-0.8106592,14.9231825,0.28619775,20.51775,-22.800602,60.936745,12.260846,-4.1256394,11.739954,-3.4831173,-16.051443,18.35056,58.058094,-7.595667,-2.5388997,-10.807927
117,0.2759469449520111,-82.84521484375,77.49171447753906,1.8866923167199234,-8.531224415024662,89.36545852879651,20.837265,-3.8477616,28.454153,6.160211,-14.473356,0.98397565,-25.646236,-14.85272,-2.7006576,84.803474,-10.621797,0.69243085,-4.0890093,-0.8374567,14.780255,0.96924853,20.47681,-22.886732,61.310997,12.140848,-4.1440644,11.665893,-3.4115002,-16.025686,18.3668,58.101997,-7.68215,-2.5156024,-10.859251
118,0.29159456491470337,-83.37870788574219,77.53302764892578,1.9448420304179965,-8.58662348933393,89.33149054175078,20.41154,-3.8927846,28.51906,6.1829324,-14.347778,1.2055256,-24.51485,-15.598071,-2.9167566,86.386986,-11.341562,0.04829507,-3.816158,-0.8822799,14.661557,1.6422428,20.453064,-23.004843,61.699753,12.033216,-4.16583,11.622619,-3.3645234,-16.003746,18.406807,58.14619,-7.8072343,-2.465118,-10.952115
119,0.31929004192352295,-83.92008209228516,77.55609130859375,2.01620072344895,-8.641046609670283,89.29427216402392,19.985693,-3.9491692,28.582205,6.203546,-14.232974,1.4244254,-23.27595,-16.395105,-3.1963923,87.770996,-12.032046,-0.5726115,-3.5332506,-0.9411244,14.552271,2.3077595,20.438555,-23.129793,62.096054,11.906852,-4.1870227,11.588297,-3.3305626,-15.982292,18.4514,58.187405,-7.9167666,-2.4095385,-11.055844
120,0.3443467319011688,-84.46476745605469,77.56775665283203,2.100487397074652,-8.686927780662929,89.25012231718986,19.55153,-4.018232,28.63477,6.2222047,-14.124942,1.6418343,-21.96026,-17.197674,-3.4966624,88.94085,-12.642566,-1.1081966,-3.2345293,-1.01038,14.436893,2.9718668,20.428701,-23.23753,62.48407,11.728753,-4.2003098,11.538787,-3.2979476,-15.958265,18.483406,58.222088,-7.9539,-2.3714116,-11.139278
121,0.3779119551181793,-85.00291442871094,77.5773696899414,2.1926762626590475,-8.71649194677235,89.20106801691121,19.10012,-4.093098,28.669178,6.242198,-14.0378685,1.8594289,-20.566986,-18.013895,-3.8406396,89.89674,-13.146709,-1.5462133,-2.923409,-1.08231,14.31496,3.6399114,20.423914,-23.316399,62.846104,11.493624,-4.199754,11.467224,-3.2599545,-15.940272,18.49782,58.233727,-7.877459,-2.35724,-11.193824
122,0.4041951596736908,-85.55755615234375,77.57174682617188,2.2932058348778486,-8.735722323297844,89.1480475335612,18.637049,-4.1744194,28.69192,6.26231,-13.967075,2.0762887,-19.082907,-18.856947,-4.247904,90.647255,-13.57163,-1.9166226,-2.5973892,-1.1633316,14.1821165,4.298297,20.423223,-23.400316,63.21757,11.205825,-4.1924124,11.39114,-3.2317107,-15.916068,18.511139,58.253056,-7.721287,-2.3557997,-11.242599
123,0.4437166750431061,-86.109130859375,77.56050872802734,2.415574238741239,-8.75900364683806,89.08458764053792,18.180317,-4.2759576,28.715504,6.278545,-13.887644,2.2891352,-17.52151,-19.686913,-4.6719823,91.1898,-13.944215,-2.2203424,-2.2570376,-1.2657887,14.057961,4.9589715,20.428251,-23.463604,63.5846,10.890335,-4.183449,11.308136,-3.2118363,-15.8816595,18.515398,58.27136,-7.561421,-2.360262,-11.282002
124,0.4869849979877472,-86.66039276123047,77.53755950927734,2.5690329392155786,-8.79983040372095,89.00431948654882,17.743916,-4.4103928,28.75389,6.2909513,-13.774729,2.4951303,-15.898953,-20.460665,-5.0661864,91.520676,-14.289972,-2.4583156,-1.9064137,-1.3950123,13.959287,5.632988,20.432892,-23.483246,63.94215,10.567459,-4.182813,11.21725,-3.19367,-15.850485,18.511766,58.273647,-7.46485,-2.363988,-11.306417
125,0.5323253870010376,-87.19660949707031,77.51787567138672,2.7599010271335502,-8.87335991248149,88.89977992121418,17.34649,-4.587804,28.810474,6.2977676,-13.625847,2.7004375,-14.201899,-21.164688,-5.4092884,91.64277,-14.619874,-2.622812,-1.5486751,-1.5614132,13.897524,6.3293633,20.438496,-23.450851,64.29445,10.235725,-4.191086,11.109927,-3.200788,-15.804669,18.50352,58.286694,-7.4594398,-2.3674488,-11.312897
126,0.5736593008041382,-87.7548599243164,77.49050903320312,2.9810274230571125,-8.96820141857639,88.77547550411686,16.975117,-4.798304,28.878696,6.3014946,-13.454175,2.9048333,-12.430302,-21.816599,-5.7360363,91.55726,-14.913941,-2.7155306,-1.1776803,-1.7496886,13.865628,7.0343013,20.438528,-23.383318,64.64505,9.887755,-4.2041388,10.989412,-3.2124572,-15.7623205,18.484253,58.28589,-7.503374,-2.3725805,-11.3001795
127,0.616033136844635,-88.30252075195312,77.46155548095703,3.2236172013331177,-9.058209668057955,88.64303367992508,16.599154,-5.027167,28.956991,6.3023834,-13.255558,3.0954936,-10.622673,-22.428957,-6.0789814,91.26079,-15.154628,-2.7503052,-0.7979786,-1.9570858,13.830539,7.7419286,20.434093,-23.288527,64.99728,9.527985,-4.222921,10.875843,-3.2257884,-15.716324,18.470491,58.284336,-7.565712,-2.3781765,-11.288218
128,0.6586630940437317,-88.85186004638672,77.431640625,3.4801195248878294,-9.117649747090931,88.51395961088237,16.18692,-5.2590137,29.04393,6.303098,-13.027128,3.259341,-8.816936,-23.009665,-6.4701357,90.7514,-15.325735,-2.7416184,-0.41470364,-2.1812482,13.7596035,8.447704,20.426071,-23.171442,65.35278,9.16294,-4.2484784,10.789403,-3.2375114,-15.660094,18.47895,58.293182,-7.616003,-2.3826647,-11.296793
129,0.7167556881904602,-89.39178466796875,77.40056610107422,3.753703800856106,-9.149261006062082,88.39248225242208,15.743662,-5.4967155,29.142893,6.30178,-12.765424,3.3834662,-6.9985466,-23.569036,-6.917195,90.02899,-15.4291725,-2.691152,-0.026046423,-2.4287212,13.650142,9.157669,20.41524,-23.02196,65.71052,8.78505,-4.293322,10.745872,-3.242895,-15.591468,18.521572,58.314655,-7.6474147,-2.3832374,-11.342995
130,0.7751805186271667,-89.93408966064453,77.3671875,4.045763756992737,-9.163294185192465,88.27167205702045,15.28147,-5.745242,29.254084,6.2983766,-12.472894,3.478146,-5.1562004,-24.09696,-7.4038153,89.09756,-15.472454,-2.5929744,0.37265798,-2.6973593,13.51869,9.872061,20.401834,-22.844679,66.06794,8.393406,-4.3531733,10.730018,-3.2407498,-15.517527,18.584429,58.3379,-7.674382,-2.381505,-11.411198
131,0.8419363498687744,-90.50498962402344,77.33399963378906,4.345704810793648,-9.14550989729878,88.14674120732884,14.778935,-5.993834,29.372232,6.2959523,-12.153838,3.5649774,-3.3336048,-24.570938,-7.9227705,87.961655,-15.448444,-2.4496765,0.7858658,-2.9700122,13.361374,10.568716,20.386948,-22.679605,66.43157,7.997707,-4.4040537,10.716937,-3.2216797,-15.452028,18.635843,58.344444,-7.701564,-2.3824182,-11.470453
132,0.9180297255516052,-91.06977081298828,77.30147552490234,4.6453381254789425,-9.081047805585303,88.01291735434879,14.215247,-6.2316093,29.492273,6.2964907,-11.811833,3.6656423,-1.5757028,-24.973965,-8.463888,86.62575,-15.350989,-2.2633245,1.1815369,-3.2507372,13.162275,11.251015,20.364859,-22.515854,66.81006,7.62445,-4.4214168,10.687279,-3.2432377,-15.353059,18.690458,58.394794,-7.736511,-2.391552,-11.506645
133,0.9946691989898682,-91.63867950439453,77.27194213867188,4.941554037647619,-8.963471095949421,87.86696027891637,13.585535,-6.459404,29.609207,6.2989593,-11.443601,3.779739,0.1036961,-25.298136,-9.01292,85.08879,-15.168428,-2.0348237,1.5913601,-3.5275261,12.919975,11.8931465,20.340223,-22.406725,67.219086,7.2431035,-4.391703,10.64461,-3.2560713,-15.247449,18.688019,58.44018,-7.7858276,-2.4164836,-11.492582
134,1.0896965265274048,-92.22427368164062,77.2421646118164,5.240017831742964,-8.800861827362594,87.71253650034531,12.898984,-6.680205,29.72765,6.3050423,-11.049213,3.8982112,1.7280391,-25.55365,-9.573697,83.3514,-14.912831,-1.7647219,2.009749,-3.807224,12.640615,12.507121,20.31311,-22.328215,67.65111,6.8552604,-4.3322215,10.5976925,-3.2629743,-15.135852,18.651741,58.482815,-7.844273,-2.4522514,-11.446303
135,1.1773607730865479,-92.79910278320312,77.21775817871094,5.5360994628403475,-8.601128748267467,87.55659462060666,12.162812,-6.890904,29.856411,6.309747,-10.634699,4.0293736,3.3050177,-25.750969,-10.159924,81.423775,-14.612629,-1.4529799,2.4305491,-4.089489,12.334615,13.09055,20.282724,-22.263493,68.08915,6.502308,-4.257976,10.528979,-3.2847855,-15.014046,18.621815,58.53926,-7.903616,-2.485915,-11.396629
136,1.2753233909606934,-93.38599395751953,77.1895751953125,5.82379142381485,-8.372508999378315,87.40620775346353,11.380709,-7.0852427,30.004364,6.3151135,-10.209522,4.181471,4.841821,-25.89866,-10.786312,79.31477,-14.295828,-1.0983799,2.85293,-4.367241,12.018502,13.638688,20.251019,-22.202723,68.51199,6.222284,-4.1883,10.417716,-3.32205,-14.90012,18.633202,58.595245,-7.949749,-2.503689,-11.365919
137,1.379887342453003,-93.97563171386719,77.1545181274414,6.10246712168832,-8.122348519619026,87.25635229233806,10.56482,-7.2598667,30.178188,6.317761,-9.777462,4.3574595,6.3607807,-25.987303,-11.456218,76.99641,-13.959893,-0.6582889,3.2825186,-4.633347,11.6932125,14.157635,20.215721,-22.14059,68.92222,6.037531,-4.1177144,10.245807,-3.3718615,-14.799664,18.719334,58.649696,-7.967871,-2.4958646,-11.365884
138,1.4921833276748657,-94.59881591796875,77.12113952636719,6.374234794250879,-7.844420816378878,87.10705585770724,9.70608,-7.420666,30.37216,6.3233376,-9.336038,4.5538907,7.8483925,-26.015808,-12.156011,74.47784,-13.59812,-0.14579353,3.7131343,-4.8928223,11.35154,14.648608,20.173899,-22.080082,69.32766,5.9242435,-4.0401373,10.028405,-3.43476,-14.7089,18.858692,58.705383,-7.9662056,-2.4714382,-11.381713
139,1.5963984727859497,-95.22380828857422,77.09099578857422,6.641269914521286,-7.527060490801767,86.97123258146787,8.786059,-7.5692887,30.574675,6.3277063,-8.874117,4.767933,9.262498,-25.999477,-12.880405,71.81516,-13.229547,0.3550072,4.127452,-5.1554246,10.995074,15.099703,20.123499,-22.019775,69.72008,5.8564043,-3.9732187,9.7960415,-3.5231218,-14.6187725,19.000795,58.76715,-7.970475,-2.4454722,-11.398616
140,1.6945245265960693,-95.90064239501953,77.04969787597656,6.904760072853031,-7.158277327330964,86.86141170913157,7.7845397,-7.707984,30.775583,6.329923,-8.382763,4.995332,10.562084,-25.951275,-13.62523,69.05993,-12.871371,0.7636569,4.534949,-5.4205003,10.640293,15.496144,20.088688,-21.986786,70.06282,5.7950487,-3.933635,9.568628,-3.598202,-14.561925,19.064468,58.771683,-7.999954,-2.4328644,-11.387058
141,1.8284573554992676,-96.57304382324219,77.0157241821289,7.17112321011192,-6.755100587277349,86.78097695115956,6.718875,-7.834634,30.964832,6.335098,-7.869783,5.2347646,11.758218,-25.881527,-14.401051,66.19877,-12.483159,0.95407885,4.8879137,-5.712931,10.275087,15.845673,20.031033,-21.939888,70.406654,5.7510285,-3.9404,9.368094,-3.7496226,-14.453578,19.06782,58.846706,-8.099839,-2.4367857,-11.358281
142,1.9617457389831543,-97.25885009765625,76.97572326660156,7.4366578887743735,-6.31806159960175,86.7240518000485,5.5953884,-7.9451275,31.149311,6.337951,-7.334989,5.48669,12.86372,-25.780428,-15.204286,63.2212,-12.080473,1.0074433,5.229943,-6.017012,9.9128475,16.146503,19.983438,-21.91589,70.722435,5.7225404,-3.9789727,9.166964,-3.9095142,-14.3455715,19.001144,58.90732,-8.243771,-2.4497828,-11.306955
143,2.0912437438964844,-97.99369049072266,76.92798614501953,7.688789008108621,-5.810291726806871,86.68967826489514,4.367341,-8.034269,31.345526,6.337453,-6.7614355,5.749178,13.839382,-25.63036,-16.01023,60.17346,-11.755851,1.1566293,5.556641,-6.322504,9.525476,16.393486,19.944263,-21.89393,70.999565,5.7183366,-4.020057,8.968769,-4.094946,-14.2451,18.920332,58.955486,-8.373063,-2.4719064,-11.260901
144,2.2248001098632812,-98.75056457519531,76.8760757446289,7.917108423961228,-5.194818691936707,86.67584603342218,2.985837,-8.091674,31.570522,6.3381367,-6.1353455,6.019819,14.648342,-25.4073,-16.795029,57.08146,-11.588663,1.6374123,5.8682384,-6.619644,9.085295,16.573187,19.911726,-21.865936,71.234085,5.73868,-4.03433,8.777749,-4.3176484,-14.164277,18.874651,58.987278,-8.431728,-2.502786,-11.246438
145,2.3709816932678223,-99.52864074707031,76.8199234008789,8.133340295808065,-4.406296208191073,86.68779054258447,1.3749264,-8.120505,31.839884,6.334204,-5.4437404,6.301776,15.251519,-25.097984,-17.556389,53.83167,-11.492041,2.6185598,6.162583,-6.929097,8.53472,16.66912,19.87938,-21.832163,71.44307,5.793419,-4.005859,8.59343,-4.5884643,-14.097167,18.87646,59.00726,-8.376448,-2.5489285,-11.280831
146,2.5209848880767822,-100.33139038085938,76.75574493408203,8.337176611968726,-3.48366536605453,86.72438038198861,-0.4188098,-8.110704,32.139706,6.3271785,-4.69648,6.59131,15.685399,-24.703129,-18.31146,50.411877,-11.431508,3.9472797,6.438242,-7.246576,7.9078107,16.693785,19.849428,-21.795835,71.61855,5.877656,-3.9535267,8.413162,-4.891401,-14.052212,18.9019,59.00288,-8.243389,-2.6081553,-11.34373
147,2.6795949935913086,-101.1887435913086,76.67963409423828,8.505407231282735,-2.544045544812462,86.77343755092036,-2.2534754,-8.036267,32.439175,6.3187647,-3.9078157,6.8765955,16.026287,-24.233702,-19.070408,46.99808,-11.55144,5.3810453,6.694159,-7.532666,7.302107,16.671064,19.820684,-21.7445,71.74286,5.980165,-3.900641,8.245003,-5.229314,-14.025614,18.948341,58.993366,-8.104682,-2.66747,-11.415238
148,2.831693410873413,-102.07809448242188,76.59210205078125,8.614103110074572,-1.7027442062572729,86.82282465872782,-3.9904613,-7.884055,32.706432,6.3126,-3.093623,7.148428,16.34725,-23.704374,-19.850153,43.776993,-12.003816,6.677948,6.915295,-7.7452216,6.809147,16.632067,19.782091,-21.649723,71.79944,6.095,-3.8703396,8.099998,-5.620066,-14.0073185,19.030056,59.012955,-8.030829,-2.713307,-11.478679
149,2.9915859699249268,-102.96971893310547,76.50634002685547,8.67306040176036,-0.9283787541672528,86.84966249238887,-5.66109,-7.6641326,32.970516,6.3064055,-2.2508383,7.4174333,16.60814,-23.12498,-20.63407,40.748352,-12.945233,7.8428497,7.132772,-7.8948736,6.4083905,16.580011,19.744637,-21.511778,71.77161,6.2113247,-3.879117,7.973169,-6.059938,-14.004018,19.135101,59.052624,-8.05386,-2.7405176,-11.531816
150,3.161970615386963,-103.89877319335938,76.42073822021484,8.689734713960322,-0.1763635021116073,86.86578414682482,-7.3202267,-7.3815293,33.232456,6.3012877,-1.3740355,7.6851516,16.802858,-22.479658,-21.44764,37.785824,-14.224264,8.999019,7.322673,-7.9958134,6.057882,16.51158,19.697721,-21.320086,71.67078,6.3410773,-3.9115317,7.8638926,-6.5607123,-14.012257,19.287302,59.11471,-8.127084,-2.7560458,-11.585646
151,3.337726354598999,-104.82034301757812,76.34551239013672,8.63897683437424,0.4592575058252239,86.91161629657715,-8.864047,-7.029389,33.4176,6.2987328,-0.47215095,7.9310975,17.046276,-21.75085,-22.356874,34.910698,-15.551909,10.077808,7.457609,-8.006204,5.827878,16.417255,19.640057,-21.10185,71.51628,6.4963613,-3.940914,7.778931,-7.093311,-14.035495,19.471672,59.186817,-8.214052,-2.7656143,-11.630645
152,3.50651216506958,-105.73139190673828,76.27897644042969,8.493615109461162,0.8840783671329423,87.02920988631085,-10.189833,-6.6029634,33.450207,6.301618,0.44579205,8.134577,17.443703,-20.923502,-23.409386,32.166958,-16.658758,10.999265,7.5247116,-7.8874583,5.791929,16.276993,19.586031,-20.91023,71.328804,6.6739273,-3.9403129,7.722529,-7.618082,-14.072796,19.654356,59.249763,-8.282383,-2.7755778,-11.65615
153,3.6853346824645996,-106.66658782958984,76.22332763671875,8.241502154006492,1.0501278631739834,87.22896833721575,-11.243816,-6.103587,33.313805,6.310735,1.37908,8.300158,18.048792,-19.995089,-24.654871,29.563923,-17.518534,11.752178,7.5015426,-7.6170692,5.996053,16.087435,19.533798,-20.753544,71.10915,6.894114,-3.8847327,7.688969,-8.142024,-14.127891,19.85601,59.31239,-8.32483,-2.7911553,-11.656097
154,3.859607219696045,-107.6091537475586,76.17709350585938,7.897546150240933,1.0201477125322318,87.49067992167029,-12.096851,-5.5421934,33.049854,6.3228345,2.3336112,8.437118,18.78575,-18.961718,-26.036753,27.074562,-18.264221,12.374522,7.4123354,-7.222022,6.39069,15.852728,19.488777,-20.620205,70.84832,7.1471653,-3.7940743,7.676148,-8.6720915,-14.195468,20.06906,59.377865,-8.362785,-2.8082635,-11.636381
155,4.039168357849121,-108.5730209350586,76.13575744628906,7.475311195581793,0.8647545972103011,87.81130551393431,-12.831237,-4.933084,32.66996,6.335756,3.3081632,8.529359,19.55928,-17.810375,-27.428907,24.705885,-18.887028,12.839644,7.243813,-6.7142696,6.906367,15.599775,19.424774,-20.452759,70.53733,7.412393,-3.7107484,7.6978617,-9.194372,-14.302717,20.307167,59.409508,-8.375517,-2.8161452,-11.601222
156,4.218603134155273,-109.5386962890625,76.09618377685547,6.990044313964829,0.6535721611637562,88.18615008401568,-13.525987,-4.2898865,32.184536,6.346089,4.3036103,8.557118,20.267412,-16.545582,-28.700539,22.490456,-19.390158,13.111318,7.039927,-6.1367483,7.470356,15.327241,19.364717,-20.25649,70.184,7.6473613,-3.6744285,7.7669473,-9.692504,-14.415129,20.504852,59.40969,-8.379026,-2.8079455,-11.564191
157,4.406345844268799,-110.50800323486328,76.0565185546875,6.449506578672796,0.3902751112610642,88.64473518412247,-14.194302,-3.6290133,31.62872,6.356002,5.363248,8.674886,20.867777,-15.188658,-29.823616,20.506565,-19.794212,13.120203,6.760626,-5.5017476,8.089834,15.037001,19.306688,-20.005121,69.77903,7.846958,-3.7097714,7.911482,-10.185584,-14.529915,20.678074,59.390945,-8.351642,-2.7706265,-11.535046
158,4.599454402923584,-111.49775695800781,76.01411437988281,5.834703084824129,0.04671445663613476,89.18330070395191,-14.797353,-2.9326909,30.987928,6.3685303,6.4733734,8.833315,21.39507,-13.746187,-30.84335,18.75463,-20.122946,12.879676,6.3994107,-4.794679,8.795421,14.722304,19.252193,-19.718168,69.32821,8.024963,-3.7899404,8.11676,-10.680475,-14.643001,20.839506,59.366642,-8.301471,-2.7127059,-11.508113
159,4.799133777618408,-112.48355102539062,75.96688842773438,5.140664637724116,-0.3592673904655972,89.73903529135667,-15.6171055,-1.998463,30.205431,7.0910316,7.1728354,8.691648,21.877314,-12.218444,-31.740526,17.143251,-20.378109,12.482287,6.010074,-4.0115695,9.556211,14.411241,19.198353,-19.394266,68.82829,8.201276,-3.8791544,8.329493,-11.152052,-14.760356,20.98633,59.3153,-8.260719,-2.6562095,-11.468135
160,5.007274627685547,-113.47166442871094,75.90161895751953,4.377821644835387,-0.8145810272182301,90.24177807653602,-16.238949,-1.0771098,29.206345,7.522487,7.878483,7.9265385,22.355932,-10.620133,-32.494564,15.576947,-20.556358,12.032846,5.6593013,-3.1626194,10.3434925,14.130012,19.144703,-19.036386,68.27662,8.392542,-3.9417775,8.496039,-11.575913,-14.888857,21.112234,59.215538,-8.261209,-2.623594,-11.399653
161,5.211601257324219,-114.43623352050781,75.79997253417969,3.458507631975084,-1.3298411401980117,90.67586066495737,-17.068447,0.14251485,27.926903,8.62458,7.999545,6.349162,22.846102,-8.861799,-33.05805,14.074361,-20.677065,11.536874,5.375039,-2.1593187,11.158319,13.883111,19.09097,-18.617893,67.65985,8.610279,-3.9629092,8.592755,-11.948488,-15.029359,21.20245,59.052227,-8.330853,-2.6229322,-11.277459
162,5.402440547943115,-115.37316131591797,75.68881225585938,2.465450980055513,-1.9188611285540715,91.07642997261406,-17.655012,1.3105971,26.448086,9.350212,8.104814,4.175253,23.328457,-7.056283,-33.452644,12.729479,-20.757454,10.954187,5.119364,-1.0852362,12.032581,13.652018,19.03648,-18.146776,66.98383,8.843752,-3.9621093,8.650671,-12.279834,-15.183469,21.264584,58.83543,-8.4440775,-2.6416552,-11.116504
163,5.598862648010254,-116.29558563232422,75.57367706298828,1.51091581134595,-2.555704129343799,91.44318508868115,-18.02213,2.3537197,24.878418,9.84558,8.177114,1.6376781,23.791996,-5.3487406,-33.739693,11.552433,-20.823011,10.317512,4.879153,-0.06043205,12.943036,13.429264,18.989023,-17.690815,66.27771,9.069532,-3.9593835,8.698259,-12.563223,-15.344152,21.309738,58.585575,-8.561243,-2.671311,-10.962484
164,5.785044193267822,-117.19788360595703,75.4599838256836,0.6888339084524756,-3.2140465792176167,91.77490750205823,-18.217302,3.221972,23.303102,10.289291,8.208546,-1.0383976,24.224596,-3.8531704,-33.98613,10.542119,-20.890627,9.656064,4.646517,0.8154109,13.859964,13.216266,18.962206,-17.319357,65.55836,9.261422,-3.9697125,8.762806,-12.79503,-15.501609,21.347265,58.327393,-8.644818,-2.703245,-10.861807
165,5.9736433029174805,-118.05955505371094,75.35379028320312,-0.04147328658646989,-3.9355860615409965,92.05957669067189,-18.101822,3.9196396,21.714201,10.450787,8.29362,-4.2694407,24.683172,-2.508793,-34.18561,9.662018,-20.946663,8.930439,4.4389796,1.5803813,14.808148,13.047877,18.966524,-17.023752,64.78312,9.395224,-3.9933438,8.840808,-12.974932,-15.6515465,21.36742,58.062,-8.675977,-2.7469144,-10.814092
166,6.147063732147217,-118.89569854736328,75.2777099609375,-0.709518755158223,-4.717559539641396,92.32046036285655,-17.743814,4.4886093,20.10143,10.43592,8.293448,-8.008932,25.151157,-1.2884738,-34.337406,8.949549,-21.005161,8.139851,4.243401,2.2647028,15.786853,12.919934,19.003338,-16.77633,63.946182,9.487911,-4.02231,8.918648,-13.103844,-15.793295,21.363184,57.776306,-8.680175,-2.8033898,-10.800088
167,6.3174920082092285,-119.71022033691406,75.22935485839844,-1.2276481165547595,-5.468754982687837,92.59944428981748,-17.517864,4.9333935,18.497042,10.923741,7.9435387,-11.351051,25.499626,-0.33526385,-34.518463,8.50786,-21.122477,7.3686185,4.0172663,2.7748268,16.727095,12.777751,19.07117,-16.614042,63.124733,9.57932,-4.061666,9.010025,-13.185319,-15.923834,21.349129,57.48017,-8.68497,-2.851784,-10.837937
168,6.474972724914551,-120.51763916015625,75.22541809082031,-1.521430429333344,-6.10434632368127,92.92084004051154,-17.761745,5.243954,16.8864,12.49375,7.1141477,-13.413993,25.60883,0.23262502,-34.79512,8.414728,-21.343725,6.6972666,3.7352967,3.036608,17.563454,12.565627,19.166315,-16.576094,62.39984,9.709381,-4.1167407,9.12963,-13.224928,-16.040367,21.338852,57.1875,-8.719769,-2.8713765,-10.945558
169,6.595559597015381,-121.30433654785156,75.2750244140625,-1.566778284177433,-6.618527173180679,93.28169225087615,-18.60614,5.380251,15.108907,15.35191,5.8195753,-13.690882,25.452442,0.3682321,-35.198597,8.706108,-21.67891,6.1349735,3.4019082,3.030303,18.29464,12.263735,19.28932,-16.698002,61.781597,9.879754,-4.204299,9.28704,-13.2295475,-16.14481,21.349684,56.893784,-8.799357,-2.84337,-11.160396
170,6.719414234161377,-122.08336639404297,75.35204315185547,-1.4748956831083408,-7.0689873750270085,93.62673775210493,-19.782063,5.376687,13.171226,18.988876,4.3027225,-12.780037,25.15391,0.25280493,-35.639393,9.194715,-22.032303,5.6229873,3.071797,2.8783991,18.95116,11.914327,19.437563,-16.951487,61.225548,10.072754,-4.3169746,9.473282,-13.194706,-16.241337,21.369864,56.59826,-8.907281,-2.7828765,-11.459621
171,6.818490982055664,-122.84280395507812,75.44615936279297,-1.3645192723774402,-7.465426923650699,93.90812993811213,-21.01537,5.333538,11.293771,22.886734,2.8124907,-11.4622555,24.796286,0.08449438,-36.011143,9.673715,-22.306772,5.1442246,2.7870991,2.7112217,19.519264,11.549199,19.599567,-17.281181,60.733273,10.297522,-4.421653,9.675873,-13.110536,-16.32785,21.373337,56.31997,-9.019755,-2.7195919,-11.77178
172,6.8988823890686035,-123.58686065673828,75.54660034179688,-1.3136845428903743,-7.807049968220317,94.10771580001827,-22.081158,5.3550434,9.710653,26.639814,1.5080007,-10.50088,24.419796,-0.00998375,-36.248985,10.034234,-22.456139,4.694082,2.5599718,2.6096945,19.98266,11.190827,19.760885,-17.628925,60.31827,10.565698,-4.4869347,9.884279,-12.973777,-16.397594,21.336191,56.0842,-9.1143875,-2.6838946,-12.028233
173,6.969641208648682,-124.30239868164062,75.65409088134766,-1.3151736164551127,-8.078049591256594,94.22412054907691,-22.980143,5.4953465,8.477725,30.27989,0.38617334,-10.055752,23.982231,-0.053673323,-36.338005,10.337657,-22.499023,4.285693,2.383576,2.5756664,20.319792,10.828408,19.916029,-18.017914,60.009514,10.917134,-4.5065866,10.123492,-12.788712,-16.44274,21.256006,55.91673,-9.193814,-2.6840887,-12.238357
174,7.035120010375977,-124.99284362792969,75.77044677734375,-1.3203923558427526,-8.280754357542536,94.27417202481821,-23.821192,5.7206645,7.467291,33.99839,-0.64652354,-9.710542,23.47073,-0.117854975,-36.329006,10.631742,-22.455235,3.9257214,2.2432141,2.5576286,20.542177,10.44913,20.065304,-18.462608,59.80111,11.33569,-4.4959106,10.392361,-12.564035,-16.461975,21.147972,55.809086,-9.269263,-2.704133,-12.431965
175,7.079647541046143,-125.67102813720703,75.8945083618164,-1.3225842144388125,-8.436497259597141,94.2787060099743,-24.578707,6.014374,6.643132,37.709652,-1.6222975,-9.361631,22.93306,-0.18156233,-36.262035,10.863334,-22.330666,3.588185,2.1243286,2.539389,20.682636,10.073102,20.203695,-18.88921,59.6559,11.749326,-4.4564624,10.641224,-12.305088,-16.457874,21.018639,55.734947,-9.328879,-2.7380779,-12.571733
176,7.121203899383545,-126.33942413330078,76.0145034790039,-1.3215039785181517,-8.567609727621576,94.25956892313869,-25.224337,6.34828,5.96984,41.32733,-2.5697925,-8.915062,22.421473,-0.22162253,-36.1816,10.974974,-22.120686,3.253772,2.0083866,2.5075314,20.774275,9.723724,20.32383,-19.220005,59.53702,12.088121,-4.3911386,10.82092,-12.021464,-16.43611,20.880814,55.671844,-9.358381,-2.780115,-12.6207285
177,7.148872375488281,-126.99403381347656,76.14588928222656,-1.313424583060229,-8.6696212485219,94.21267726923176,-25.776428,6.7368975,5.471132,44.906467,-3.506315,-8.322323,21.93875,-0.23637483,-36.088642,10.94496,-21.811419,2.9258714,1.8943853,2.4605188,20.809778,9.407279,20.417713,-19.427736,59.44795,12.364598,-4.275297,10.91568,-11.706901,-16.396074,20.730585,55.6181,-9.339626,-2.8403575,-12.531463
178,7.180764675140381,-127.61931610107422,76.28042602539062,-1.297382019965213,-8.733681593538783,94.13180013491288,-26.245626,7.205069,5.14672,48.484295,-4.4247355,-7.63246,21.45736,-0.24086717,-35.966347,10.815555,-21.412582,2.6138942,1.7821634,2.4059317,20.77585,9.110714,20.482529,-19.54937,59.410484,12.610145,-4.117157,10.9540415,-11.364602,-16.338345,20.5727,55.588375,-9.282678,-2.9176307,-12.336573
179,7.191043376922607,-128.22494506835938,76.41891479492188,-1.2780750471230278,-8.775974483246326,94.03587418716512,-26.59319,7.724648,4.930484,51.950397,-5.31591,-6.9079056,20.990791,-0.23196666,-35.832165,10.608496,-20.953129,2.3051,1.6635189,2.3428764,20.697607,8.825542,20.530107,-19.615149,59.41248,12.776803,-3.9695883,10.952204,-11.00734,-16.263807,20.418533,55.575626,-9.219481,-2.9895322,-12.118512
180,7.2036542892456055,-128.8163604736328,76.56101989746094,-1.2601144224047953,-8.812346186799067,93.94358633279741,-26.783175,8.263331,4.760341,55.198177,-6.170828,-6.213872,20.551973,-0.20743465,-35.703667,10.346882,-20.463057,1.9869826,1.5218409,2.2740605,20.603521,8.548449,20.563953,-19.645092,59.4359,12.820754,-3.8856769,10.9261875,-10.644993,-16.187841,20.29108,55.560623,-9.174851,-3.0330715,-11.957879
181,7.213153839111328,-129.4015655517578,76.7042007446289,-1.234478990905866,-8.840323312965209,93.85981003214393,-26.804146,8.818778,4.6421843,58.217625,-7.0030184,-5.5794835,20.149368,-0.1673066,-35.58832,10.009041,-19.933159,1.6529036,1.3611609,2.1880195,20.490246,8.285903,20.591858,-19.635601,59.478554,12.6836,-3.896688,10.860082,-10.268259,-16.10882,20.19128,55.53249,-9.149457,-3.0357296,-11.87407
182,7.207147598266602,-129.9733123779297,76.84417724609375,-1.204411887021976,-8.853193298501647,93.77565296633558,-26.680801,9.414224,4.600172,61.07949,-7.8221745,-4.9633107,19.771847,-0.11467108,-35.477345,9.599237,-19.356787,1.3111119,1.1859603,2.088781,20.348993,8.040536,20.612045,-19.576527,59.541878,12.404639,-3.9685853,10.750077,-9.870083,-16.030502,20.110847,55.491653,-9.127677,-3.0117962,-11.822649
183,7.20515775680542,-130.5478515625,76.97883605957031,-1.179679207436342,-8.86191429806069,93.68700115936916,-26.424397,10.047219,4.6068444,63.779873,-8.611908,-4.3293905,19.41057,-0.048922434,-35.36187,9.158437,-18.759836,0.97065425,0.9982265,1.9895828,20.194159,7.794988,20.631413,-19.498545,59.620575,12.076799,-4.054985,10.631556,-9.467425,-15.943871,20.033838,55.457024,-9.127323,-2.9801774,-11.793069
184,7.206560134887695,-131.10948181152344,77.1001968383789,-1.174167087154181,-8.877590705336658,93.59050521409117,-26.046986,10.711728,4.635594,66.31339,-9.354648,-3.6443467,19.053787,0.03012904,-35.23419,8.736274,-18.16801,0.64136356,0.80115396,1.9124941,20.044628,7.5302787,20.652721,-19.434782,59.70513,11.793309,-4.1109815,10.539115,-9.061001,-15.862997,19.944231,55.422035,-9.157192,-2.9591002,-11.769792
185,7.201480865478516,-131.65835571289062,77.21823120117188,-1.188004931943148,-8.898232765205542,93.47926854374182,-25.550758,11.4132185,4.7008567,68.69155,-10.051661,-2.8557734,18.69099,0.11947713,-35.08442,8.348153,-17.58538,0.32091245,0.601941,1.8586105,19.899193,7.2438054,20.679491,-19.384998,59.793003,11.558591,-4.125386,10.47081,-8.646147,-15.78932,19.841696,55.38691,-9.267812,-2.955261,-11.750756
186,7.185105323791504,-132.2058868408203,77.32406616210938,-1.2129819789818626,-8.92023387633492,93.35673254465794,-24.927294,12.149034,4.8147078,70.91505,-10.7110815,-1.9982078,18.33254,0.22177678,-34.919926,7.9637814,-16.996956,0.0056059486,0.40452385,1.8103228,19.749182,6.9455724,20.722073,-19.340845,59.885483,11.3259,-4.1216197,10.410806,-8.226603,-15.701477,19.7231,55.362366,-9.444568,-2.9590752,-11.745123
187,7.177091598510742,-132.75257873535156,77.41722869873047,-1.252322677264961,-8.950348893035372,93.23435941016541,-24.172903,12.894536,4.953454,72.95436,-11.319442,-1.1708847,17.96199,0.31830588,-34.75649,7.6508207,-16.44805,-0.29706573,0.19799548,1.7688305,19.605639,6.639211,20.780804,-19.313074,59.976906,11.116922,-4.107914,10.373498,-7.808779,-15.603488,19.582853,55.339767,-9.588175,-2.9634156,-11.751409
188,7.156549453735352,-133.2995147705078,77.49714660644531,-1.3040931083213623,-8.99578437891366,93.12303120312079,-23.284698,13.623738,5.095944,74.78073,-11.861556,-0.47446948,17.533794,0.36848512,-34.610462,7.552302,-16.023825,-0.5781772,-0.025681723,1.7412982,19.479256,6.3185472,20.845896,-19.318478,60.07189,10.954103,-4.0926156,10.375319,-7.392101,-15.508307,19.410618,55.30357,-9.600012,-2.9609587,-11.766212
189,7.13448429107666,-133.85040283203125,77.56356811523438,-1.3644608559427462,-9.069494574106537,93.02682005492144,-22.236595,14.317253,5.2445493,76.38636,-12.336109,0.061471533,17.153019,0.4306389,-34.486362,7.442278,-15.611852,-0.8316256,-0.2698116,1.7267622,19.381943,5.9771047,20.914036,-19.371302,60.179195,10.839079,-4.0778556,10.431925,-6.969287,-15.41519,19.185059,55.239544,-9.402855,-2.946919,-11.798021
190,7.111279487609863,-134.38450622558594,77.6306381225586,-1.4339337965503134,-9.164188123815455,92.93961213027995,-21.037655,14.984821,5.4193416,77.79013,-12.746631,0.48771256,16.809956,0.5051946,-34.37521,7.3190093,-15.204489,-1.0633544,-0.52411264,1.7210966,19.304455,5.614637,20.991434,-19.466679,60.297684,10.759109,-4.0592165,10.531086,-6.5405445,-15.316249,18.910995,55.159763,-9.068851,-2.92669,-11.845616
191,7.088263511657715,-134.92132568359375,77.68362426757812,-1.5208926706891164,-9.256672253620616,92.85789791819965,-19.738995,15.646105,5.6247725,78.998856,-13.081217,0.82368916,16.471624,0.60080063,-34.273785,7.187615,-14.796182,-1.2886554,-0.78883225,1.7331908,19.22722,5.2375474,21.070536,-19.578949,60.419296,10.722236,-4.035853,10.649517,-6.1177554,-15.223193,18.630981,55.08354,-8.717521,-2.9070082,-11.89007
192,7.0532307624816895,-135.43910217285156,77.72887420654297,-1.634265137761904,-9.323585432684652,92.77825941216965,-18.392094,16.321573,5.863923,80.020485,-13.329652,1.0891104,16.104385,0.724852,-34.180004,7.055567,-14.383288,-1.522529,-1.0545682,1.7708082,19.129938,4.8466005,21.15207,-19.695633,60.536633,10.730077,-4.0064945,10.762523,-5.710492,-15.137452,18.375721,55.032696,-8.4724,-2.8949857,-11.913116
193,7.018687725067139,-135.9705047607422,77.76509857177734,-1.7744820919486697,-9.355569233539672,92.70230331830535,-17.005041,17.007471,6.1378417,80.855415,-13.45834,1.2712616,15.696199,0.87565494,-34.099586,6.9275303,-13.967344,-1.7670742,-1.3237733,1.8351985,19.003143,4.4365296,21.237167,-19.82278,60.660076,10.808309,-3.968306,10.869626,-5.318128,-15.061894,18.15048,55.010902,-8.379164,-2.8905349,-11.898254
194,6.977897644042969,-136.51065063476562,77.78685760498047,-1.9390295787620715,-9.366108999516312,92.63137324708968,-15.552384,17.690128,6.4520383,81.502525,-13.480737,1.3643391,15.266734,1.0485443,-34.032234,6.798208,-13.550902,-2.014704,-1.6048523,1.9267145,18.860579,4.00965,21.318018,-19.958841,60.7898,10.949532,-3.9228127,10.982115,-4.9360986,-15.003037,17.946106,55.003532,-8.363712,-2.8899553,-11.858335
195,6.941300392150879,-137.03948974609375,77.79518127441406,-2.1259703170358852,-9.36649297636044,92.56081964670173,-14.036471,18.377663,6.8142824,81.96605,-13.4545965,1.3993295,14.821004,1.244165,-33.966274,6.6766353,-13.133278,-2.2664363,-1.9146206,2.0514257,18.715239,3.589176,21.370401,-20.056856,60.904213,11.116529,-3.8757586,11.096336,-4.581122,-14.972155,17.792122,55.015854,-8.367441,-2.8938324,-11.821147
196,6.894904136657715,-137.5779571533203,77.78907012939453,-2.3346356659579883,-9.368026775299295,92.48644747857765,-12.456479,19.076351,7.233695,82.24581,-13.43847,1.405265,14.366889,1.462925,-33.889854,6.56778,-12.716829,-2.5232046,-2.1791718,2.19348,18.580004,3.1550114,21.448317,-20.177319,60.976845,11.228105,-3.8298507,11.199447,-4.21742,-14.937118,17.603498,55.02713,-8.368716,-2.9078197,-11.808939
197,6.839316368103027,-138.0890350341797,77.77748107910156,-2.564870969710743,-9.378593638403643,92.40404929382647,-10.798934,19.795963,7.719505,82.35133,-13.425701,1.3772275,13.903008,1.7040029,-33.794186,6.492026,-12.311917,-2.7886975,-2.467336,2.359572,18.463871,2.7538927,21.508827,-20.224184,60.99143,11.302758,-3.7855852,11.2862425,-3.8980951,-14.920768,17.47211,55.07327,-8.33873,-2.9378173,-11.844554
198,6.797482967376709,-138.65313720703125,77.75276947021484,-2.821049077489345,-9.39036968069086,92.31833865482099,-9.066365,20.525703,8.269085,82.27893,-13.389958,1.3023667,13.424188,1.9676901,-33.688786,6.4471064,-11.918458,-3.0611641,-2.7600665,2.5533466,18.357939,2.3598351,21.561262,-20.239363,60.970512,11.357283,-3.7407835,11.362749,-3.6016824,-14.919007,17.367064,55.141228,-8.308303,-2.9809003,-11.908385
199,6.754964828491211,-139.20687866210938,77.72109985351562,-3.0932719450537465,-9.392102897224646,92.2343043482765,-7.2866035,21.239311,8.878162,82.02002,-13.365717,1.2045068,12.92667,2.244553,-33.58821,6.4148736,-11.525288,-3.334161,-3.0645647,2.7654378,18.247555,1.9757924,21.597557,-20.225576,60.92464,11.403946,-3.7007914,11.447905,-3.3317902,-14.927996,17.293638,55.230705,-8.26659,-3.018936,-11.978697
200,6.6979451179504395,-139.73666381835938,77.69046783447266,-3.370467795271957,-9.37292310454521,92.1565362919429,-5.489147,21.91145,9.539534,81.57112,-13.388459,1.1069642,12.403733,2.5223584,-33.506287,6.389581,-11.129838,-3.6008,-3.3697102,2.9844716,18.12459,1.6036549,21.631636,-20.203854,60.846107,11.445216,-3.6704278,11.554829,-3.0700822,-14.947018,17.232254,55.31493,-8.206953,-3.0347042,-12.027523
201,6.643631935119629,-140.2670440673828,77.65433502197266,-3.657379803699388,-9.348285800994686,92.09981246763071,-3.6502616,22.550879,10.249306,80.931114,-13.49203,1.0209482,11.883555,2.8055654,-33.45509,6.3548203,-10.7276325,-3.857495,-3.6911573,3.2062495,17.997782,1.2422843,21.65874,-20.167833,60.74921,11.482927,-3.6558578,11.697934,-2.8203552,-14.971704,17.197567,55.40021,-8.119108,-3.0182805,-12.050645
202,6.584534168243408,-140.8040008544922,77.6101303100586,-3.957945721162613,-9.317768405445186,92.0570701297781,-1.7661215,23.1648,11.012541,80.10589,-13.650148,0.93221927,11.359423,3.0995808,-33.424515,6.3194604,-10.321992,-4.1092525,-4.021059,3.439347,17.877562,0.90124995,21.689924,-20.113152,60.604694,11.511188,-3.65181,11.861042,-2.567433,-15.016525,17.181162,55.461502,-8.00862,-2.9797192,-12.055618
203,6.519092559814453,-141.36355590820312,77.55481719970703,-4.261587054772229,-9.246161467541546,92.00075944588565,0.100912906,23.726091,11.831961,79.10169,-13.810938,0.8271367,10.769835,3.389078,-33.39649,6.313871,-9.918345,-4.3612986,-4.3470945,3.68568,17.726969,0.57577926,21.711946,-20.043646,60.425343,11.535487,-3.649731,12.029356,-2.3461156,-15.066596,17.182465,55.546284,-7.890856,-2.934545,-12.054683
204,6.4457855224609375,-141.92822265625,77.49839782714844,-4.559031197248893,-9.097953966057306,91.9023566173212,1.8852196,24.20953,12.706995,77.9254,-13.923401,0.6922818,10.052501,3.659557,-33.352486,6.365898,-9.519878,-4.618259,-4.6501646,3.957647,17.52712,0.27892742,21.728243,-19.961056,60.176464,11.556373,-3.6401582,12.178651,-2.1486466,-15.146466,17.188328,55.630783,-7.7723007,-2.896208,-12.045545
205,6.366612911224365,-142.49635314941406,77.43721008300781,-4.857964725580785,-8.871661508222942,91.75713183592872,3.5841556,24.628292,13.639163,76.57953,-13.97963,0.5408163,9.212387,3.9187994,-33.289085,6.4550834,-9.118083,-4.8749976,-4.9189587,4.2567654,17.264524,-0.010139667,21.726845,-19.880869,59.879364,11.580621,-3.610919,12.301716,-1.9921473,-15.225667,17.187891,55.759457,-7.6596117,-2.867254,-12.040569
206,6.284147262573242,-143.0715789794922,77.37338256835938,-5.154682578187768,-8.58420365299966,91.57731706865128,5.2243066,24.985254,14.623791,75.068054,-14.01187,0.37432808,8.278139,4.1655846,-33.214783,6.5669365,-8.70859,-5.128406,-5.162892,4.576406,16.954216,-0.2891507,21.708803,-19.795633,59.53838,11.606745,-3.570302,12.411109,-1.8686904,-15.309356,17.189098,55.91863,-7.5458994,-2.8406513,-12.034601
207,6.185879707336426,-143.6729278564453,77.30669403076172,-5.430687007998795,-8.226909384752451,91.36075139596481,6.781766,25.244102,15.6479435,73.392044,-14.024512,0.16259542,7.2362113,4.3829746,-33.12852,6.696938,-8.276163,-5.3863187,-5.3799996,4.9028506,16.588911,-0.56096846,21.67542,-19.70796,59.17956,11.621541,-3.538103,12.530142,-1.7808723,-15.400858,17.193098,56.096527,-7.4473996,-2.8170457,-12.023482
208,6.0791850090026855,-144.2725372314453,77.23834228515625,-5.668559911019826,-7.7903790148481615,91.10497070201677,8.230672,25.367363,16.697226,71.54899,-14.019957,-0.12573174,6.0753584,4.5562134,-33.028217,6.8397055,-7.80626,-5.657383,-5.562675,5.2106977,16.157719,-0.8257311,21.64086,-19.623306,58.82664,11.610702,-3.533438,12.681818,-1.7403989,-15.4798155,17.197052,56.297363,-7.386963,-2.798087,-12.007222
209,5.965141773223877,-144.90045166015625,77.1622085571289,-5.863347799128105,-7.245725158198855,90.78834356096404,9.551956,25.35391,17.807661,69.52382,-13.988567,-0.4944111,4.763468,4.689135,-32.897068,6.982724,-7.290144,-5.944547,-5.705903,5.5307355,15.642618,-1.0801548,21.578331,-19.529621,58.47058,11.565647,-3.5728204,12.880553,-1.723283,-15.606085,17.208912,56.475227,-7.378938,-2.7806683,-11.9666395
210,5.847375392913818,-145.51605224609375,77.08766174316406,-6.023821462253301,-6.6054589391259695,90.41812411398344,10.757226,25.214382,18.966938,67.31813,-13.931821,-0.9297316,3.3193638,4.7845187,-32.73831,7.1221914,-6.7292585,-6.241653,-5.8027253,5.8473897,15.047003,-1.3281502,21.504644,-19.439528,58.106945,11.491195,-3.6417477,13.111649,-1.7407244,-15.742543,17.217752,56.662426,-7.41778,-2.7661831,-11.913261
211,5.702229976654053,-146.1743927001953,76.99970245361328,-6.1438198532792025,-5.9205919800241835,90.03528523433951,11.862814,24.932535,20.086277,64.948296,-13.864994,-1.4369614,1.4847835,4.6119585,-32.603733,8.073383,-6.554304,-6.534515,-5.8842893,6.142121,14.420211,-1.5692168,21.420511,-19.347198,57.744637,11.414491,-3.718041,13.350401,-1.7847342,-15.888635,17.230394,56.843834,-7.442183,-2.7570455,-11.858595
212,5.547177791595459,-146.84925842285156,76.90460968017578,-6.223931111300385,-5.241691138874263,89.6826915895784,12.88263,24.497492,21.074703,62.432705,-13.804259,-2.0218651,-0.45566288,4.311635,-32.505417,9.279877,-6.4800634,-6.8267016,-5.981599,6.3988247,13.810899,-1.8067937,21.327728,-19.25156,57.396465,11.360538,-3.7788634,13.572946,-1.8480318,-16.042217,17.250797,57.00739,-7.393332,-2.7557044,-11.815121
213,5.385812282562256,-147.54852294921875,76.79762268066406,-6.25334451105784,-4.54615956168588,89.3492805627119,13.80082,23.878576,21.938189,59.745483,-13.669038,-2.7161627,-2.4696388,3.9177809,-32.431606,10.589583,-6.418424,-7.1256933,-6.0930996,6.6168942,13.196086,-2.0318706,21.224573,-19.13811,57.055492,11.320382,-3.8250017,13.777191,-1.9419892,-16.20294,17.294064,57.162067,-7.227327,-2.7657213,-11.788984
214,5.229603290557861,-148.24432373046875,76.68663024902344,-6.230754705104888,-3.817990847134208,89.01993531604887,14.620419,23.08088,22.711895,56.8679,-13.471866,-3.5086846,-4.5774007,3.4263968,-32.36193,12.006361,-6.3707213,-7.4271398,-6.2061305,6.79775,12.560221,-2.2442214,21.1109,-19.010384,56.718025,11.286282,-3.866257,13.974479,-2.0675166,-16.371004,17.355608,57.311787,-6.9849696,-2.7848408,-11.772951
215,5.059685707092285,-148.93487548828125,76.57759094238281,-6.1674798210858555,-3.118387672879388,88.73162207841548,15.38473,22.155815,23.351198,53.83352,-13.364585,-4.343947,-6.648265,2.8737688,-32.305054,13.3982115,-6.2854757,-7.718185,-6.3352585,6.9339237,11.964709,-2.4626374,20.99294,-18.897196,56.40069,11.284223,-3.8931708,14.160422,-2.198144,-16.542147,17.406282,57.434353,-6.7342906,-2.806641,-11.758619
216,4.8862152099609375,-149.67947387695312,76.45299530029297,-6.076917404286101,-2.5087980112863657,88.52083797620594,16.142824,21.159662,23.81916,50.669586,-13.498676,-5.169419,-8.554319,2.3004425,-32.274498,14.641542,-6.120387,-7.991314,-6.494137,7.01974,11.471473,-2.7073042,20.880505,-18.831295,56.119755,11.336673,-3.896037,14.33037,-2.3051805,-16.708345,17.413425,57.50616,-6.5455112,-2.8247905,-11.737369
217,4.703426361083984,-150.44497680664062,76.32113647460938,-5.965498197824911,-1.9825417846891749,88.40831672618063,16.909225,20.052284,24.031391,47.229897,-13.937022,-6.0878234,-10.302322,1.7129414,-32.292324,15.7363,-5.8781524,-8.254074,-6.69683,7.056166,11.081254,-2.984431,20.779604,-18.815567,55.86876,11.466189,-3.855876,14.4910345,-2.3862736,-16.863806,17.363684,57.517483,-6.459726,-2.831567,-11.700104
218,4.53522253036499,-151.19447326660156,76.19534301757812,-5.825439509042675,-1.51446494368981,88.37113330203235,17.684914,18.82008,24.047403,43.5098,-14.565658,-7.097717,-11.947142,1.095729,-32.344822,16.737951,-5.5804043,-8.514359,-6.931988,7.0425324,10.76514,-3.2825823,20.6912,-18.837963,55.639847,11.652161,-3.7824757,14.641188,-2.4551299,-17.00764,17.272572,57.484398,-6.434647,-2.832574,-11.6540785
219,4.363832473754883,-151.95864868164062,76.07556915283203,-5.646094365912783,-1.137615994738262,88.37991972815878,18.488083,17.553434,24.043732,39.75921,-15.274368,-8.000893,-13.4470825,0.4506772,-32.39706,17.636957,-5.227007,-8.765932,-7.1761556,6.970334,10.540899,-3.592281,20.616367,-18.906149,55.44291,11.855083,-3.7098103,14.763279,-2.5082195,-17.137465,17.152176,57.42165,-6.4129725,-2.84182,-11.615364
220,4.184626579284668,-152.7431640625,75.96566009521484,-5.41980142839215,-0.8847403989931788,88.40508881714814,19.31744,16.3332,24.186932,36.24881,-15.966908,-8.6055565,-14.763542,-0.22267254,-32.413,18.427572,-4.816575,-8.999855,-7.4064236,6.8261485,10.425078,-3.9045384,20.559011,-19.028328,55.288902,12.034243,-3.6719103,14.84036,-2.5451944,-17.247429,17.01406,57.348675,-6.340264,-2.8731725,-11.601232
221,4.005718231201172,-153.53575134277344,75.8634262084961,-5.148369194070525,-0.7792608025412994,88.45427705201622,20.161884,15.188231,24.497301,33.061558,-16.706545,-8.799216,-15.861567,-0.92119074,-32.402153,19.09897,-4.3534007,-9.220596,-7.6288147,6.6087127,10.44059,-4.2160244,20.51933,-19.212423,55.173935,12.161477,-3.6845095,14.86009,-2.5633426,-17.334776,16.844452,57.26229,-6.201974,-2.9317093,-11.607088
222,3.8404366970062256,-154.3291473388672,75.77804565429688,-4.835326126951416,-0.7976476690843801,88.53745981172382,21.02632,14.044492,24.891323,30.03264,-17.513395,-8.737117,-16.780867,-1.6489873,-32.378498,19.672613,-3.8444524,-9.431587,-7.848962,6.3216476,10.569374,-4.536511,20.493145,-19.45699,55.098503,12.26331,-3.7274017,14.8346405,-2.559844,-17.405916,16.638845,57.15113,-6.027742,-3.0095677,-11.625903
223,3.6580443382263184,-155.1435089111328,75.69298553466797,-4.469778604947132,-0.9016877407060457,88.62898354879975,21.91802,12.844715,25.368399,27.08566,-18.241697,-8.603169,-17.591696,-2.4155512,-32.312916,20.185926,-3.2893329,-9.619343,-8.044007,5.9618235,10.768059,-4.869656,20.478619,-19.753132,55.072567,12.383172,-3.7814999,14.783264,-2.5369716,-17.46516,16.425093,57.024128,-5.827899,-3.1014247,-11.6707945
224,3.4821197986602783,-155.96434020996094,75.61834716796875,-4.042887592517707,-1.052850660504094,88.70441573158104,22.840878,11.556405,25.923931,24.14509,-18.742878,-8.549179,-18.35671,-3.22229,-32.17704,20.659721,-2.6790364,-9.769029,-8.220381,5.522944,10.994262,-5.192724,20.480555,-20.054688,55.092587,12.573752,-3.8280067,14.723054,-2.531271,-17.502346,16.26646,56.92136,-5.610064,-3.2020345,-11.762152
225,3.3176050186157227,-156.7857666015625,75.55116271972656,-3.543859672559114,-1.260064882981974,88.75855775245591,23.793053,10.2005415,26.621672,21.223804,-18.990152,-8.546815,-19.061537,-4.075726,-31.961418,21.079536,-2.0079618,-9.893192,-8.349577,4.9925504,11.251736,-5.530934,20.499903,-20.397154,55.182533,12.862488,-3.868937,14.644283,-2.5170934,-17.523045,16.16114,56.826954,-5.3598413,-3.316443,-11.9309025
226,3.152634620666504,-157.6201171875,75.48751831054688,-2.992689732775513,-1.5326477211149012,88.8078935846464,24.749006,8.815312,27.423767,18.360874,-19.068998,-8.505385,-19.685331,-4.9614005,-31.690586,21.434748,-1.2781804,-9.992828,-8.453908,4.3873463,11.556487,-5.8734307,20.537382,-20.775152,55.32832,13.218728,-3.912593,14.541136,-2.5016932,-17.524837,16.097628,56.74092,-5.076764,-3.4459813,-12.159892
227,2.983538866043091,-158.47572326660156,75.42327880859375,-2.4363864473647654,-1.8305420743079162,88.86454490800197,25.665573,7.4271193,28.169981,15.54825,-19.001753,-8.4648905,-20.267431,-5.8367753,-31.394556,21.7254,-0.48270822,-10.035394,-8.5494795,3.7629132,11.882365,-6.203842,20.595364,-21.171228,55.497105,13.586416,-3.9475653,14.440225,-2.4910746,-17.506842,16.035023,56.658085,-4.802161,-3.5799756,-12.383407
228,2.8092336654663086,-159.33114624023438,75.3572998046875,-1.9269728388064773,-2.1133049332196983,88.94407357856873,26.492565,6.08373,28.7017,12.816,-18.82779,-8.466227,-20.842947,-6.6569076,-31.107422,21.946304,0.39090282,-9.987243,-8.692262,3.188178,12.203376,-6.484916,20.65417,-21.516869,55.65476,13.928786,-3.9638784,14.368861,-2.5232053,-17.48021,15.978267,56.595142,-4.565293,-3.7057698,-12.538492
229,2.64259934425354,-160.2085418701172,75.2968978881836,-1.4768241690245505,-2.3545146434150475,89.04790149568673,27.151987,4.8355823,28.97152,10.280177,-18.582724,-8.542563,-21.440498,-7.434145,-30.941755,22.096788,1.3898115,-9.9742,-8.865592,2.677985,12.506261,-6.739931,20.72129,-21.840319,55.808132,14.2375345,-3.948933,14.350163,-2.5878897,-17.440577,15.887134,56.541264,-4.383946,-3.8225067,-12.6038475
230,2.4713528156280518,-161.09642028808594,75.2343978881836,-1.0546557633301608,-2.5852489004648436,89.16551999420886,27.664215,3.685198,29.068647,7.9664564,-18.28592,-8.638537,-22.028244,-8.193392,-30.839125,22.189941,2.4868066,-9.964024,-9.050343,2.1918662,12.810989,-6.973414,20.80348,-22.154715,55.96856,14.534935,-3.9112837,14.364064,-2.6801934,-17.380787,15.779396,56.499943,-4.2386837,-3.9355886,-12.615749
231,2.3100414276123047,-161.95404052734375,75.16876220703125,-0.645787515108272,-2.853850543982374,89.29389718123845,27.396492,3.0235722,29.001968,7.57996,-18.885414,-8.691613,-22.547764,-8.903008,-30.569513,22.232384,3.5825202,-9.68054,-9.24557,1.7152652,13.140603,-7.1647778,20.885965,-22.442476,56.129112,14.805578,-3.8703136,14.376264,-2.7835295,-17.31843,15.681422,56.45965,-4.1120076,-4.041747,-12.591091
232,2.1408145427703857,-162.79779052734375,75.09677124023438,-0.24190164119897964,-3.2054516503955135,89.43380419825259,27.147152,2.4167533,28.87806,7.3736134,-19.520338,-8.634218,-22.933174,-9.5091505,-29.908495,22.203564,4.5793633,-8.843744,-9.4312525,1.2351097,13.5161295,-7.308274,20.968441,-22.72077,56.283337,15.021325,-3.8442914,14.35254,-2.8592873,-17.265608,15.587724,56.392044,-3.9929283,-4.1383667,-12.542885
233,1.9843312501907349,-163.63314819335938,75.01425170898438,0.18396661569258607,-3.673080261143644,89.60363280003132,27.049639,1.7697273,28.658136,7.1394954,-20.09605,-8.480395,-23.107208,-9.963099,-28.708284,21.899199,5.47355,-7.1225667,-9.632279,0.7282303,13.958486,-7.401092,21.036528,-22.979261,56.4346,15.172686,-3.84445,14.273583,-2.8926127,-17.237898,15.48773,56.2731,-3.8727534,-4.2232504,-12.425836
234,1.8272138833999634,-164.44403076171875,74.9350357055664,0.6298961749966133,-4.235317779069831,89.78567703186953,27.084747,1.0747257,28.343775,6.866379,-20.577803,-8.266694,-23.11348,-10.307656,-27.111202,21.420874,6.2367935,-4.742665,-9.807068,0.18937024,14.46405,-7.4601407,21.120232,-23.256367,56.574883,15.256576,-3.8576906,14.15892,-2.873298,-17.221014,15.345122,56.093765,-3.7673926,-4.2987943,-12.24371
235,1.674821376800537,-165.2359619140625,74.8536376953125,1.0518100249659663,-4.844946339801118,89.93040725561109,27.224333,0.37391317,28.045197,6.5224905,-20.939104,-7.9756465,-23.081964,-10.605736,-25.344034,21.1924,6.76381,-2.2577863,-9.934209,-0.32308888,15.001145,-7.4688516,21.2034,-23.513079,56.701927,15.312245,-3.8711734,14.039864,-2.843224,-17.221077,15.235245,55.902412,-3.6706767,-4.366323,-12.093267
236,1.5267258882522583,-166.01406860351562,74.78417205810547,1.4034612748475797,-5.453914445875991,89.98689600733029,27.42184,-0.27588126,27.876486,6.103373,-21.16472,-7.583621,-23.175928,-10.901668,-23.616676,21.654827,7.006399,-0.21124026,-9.977509,-0.74667203,15.534561,-7.4373302,21.262157,-23.734636,56.842506,15.372994,-3.8710551,13.95192,-2.8406737,-17.234215,15.217722,55.756363,-3.5841177,-4.428225,-12.073427
237,1.3936402797698975,-166.7777557373047,74.73625183105469,1.6875274154350342,-6.080815583372309,89.91304023381792,27.61893,-0.846388,27.903675,5.801116,-21.374134,-6.99845,-23.427576,-11.1703205,-21.903168,22.87247,7.019898,1.3964424,-9.868123,-1.0830038,16.100784,-7.3714447,21.33423,-23.966896,56.952538,15.426951,-3.8469083,13.892773,-2.8400915,-17.269503,15.281231,55.618816,-3.5128124,-4.488603,-12.235952
238,1.2614190578460693,-167.5330047607422,74.71944427490234,1.9412166845499754,-6.739174747161101,89.73490907804836,27.76971,-1.3409958,28.062931,5.755721,-21.645546,-6.2632713,-23.768044,-11.376339,-20.107077,24.619898,6.8386025,2.8216639,-9.657228,-1.366099,16.69941,-7.2568407,21.405354,-24.1722,57.040543,15.475058,-3.8092303,13.848631,-2.8547902,-17.325962,15.42931,55.496613,-3.4508224,-4.5452375,-12.523351
239,1.151111364364624,-168.2372283935547,74.74687957763672,2.1554505547806713,-7.370795442337386,89.51533062002406,27.91032,-1.7795079,28.263601,5.705075,-21.804602,-5.5483794,-24.21174,-11.534462,-18.325563,26.868732,6.455085,3.9109156,-9.397066,-1.5905526,17.264574,-7.0936184,21.470066,-24.345053,57.139248,15.503871,-3.7705877,13.823746,-2.8599303,-17.389542,15.614561,55.38833,-3.3972058,-4.5926566,-12.845521
240,1.0703463554382324,-168.928955078125,74.80167388916016,2.3444809655824512,-7.930721671453569,89.30569398367695,27.975655,-2.1422663,28.41863,5.665912,-21.821747,-5.021318,-24.770561,-11.684696,-16.628923,29.60571,5.8638883,4.5062966,-9.125703,-1.7778512,17.734055,-6.896456,21.510702,-24.482218,57.30764,15.506733,-3.7441938,13.825973,-2.8408751,-17.42647,15.784619,55.3144,-3.3598971,-4.625966,-13.117437
