unveil-humanoid-operators/unveil-humanoid-operators.github.io/feature-analysis-animation/data/feature_matrix_instances/weight_root_translate_peak_vel_walking_A049_walk_ff_start_270_004__A049.csv
Frame,root_translateX,root_translateY,root_translateZ,root_rotateX,root_rotateY,root_rotateZ,left_hip_pitch_joint_dof,left_hip_roll_joint_dof,left_hip_yaw_joint_dof,left_knee_joint_dof,left_ankle_pitch_joint_dof,left_ankle_roll_joint_dof,right_hip_pitch_joint_dof,right_hip_roll_joint_dof,right_hip_yaw_joint_dof,right_knee_joint_dof,right_ankle_pitch_joint_dof,right_ankle_roll_joint_dof,waist_yaw_joint_dof,waist_roll_joint_dof,waist_pitch_joint_dof,left_shoulder_pitch_joint_dof,left_shoulder_roll_joint_dof,left_shoulder_yaw_joint_dof,left_elbow_joint_dof,left_wrist_roll_joint_dof,left_wrist_pitch_joint_dof,left_wrist_yaw_joint_dof,right_shoulder_pitch_joint_dof,right_shoulder_roll_joint_dof,right_shoulder_yaw_joint_dof,right_elbow_joint_dof,right_wrist_roll_joint_dof,right_wrist_pitch_joint_dof,right_wrist_yaw_joint_dof
0,2.0920212268829346,-0.19536739587783813,73.93412017822266,-2.400665925452,-0.0593329377735851,-176.3436879554783,-0.5352176,31.557869,-5.5303717,30.825079,-1.9474019,-15.000033,-16.214212,-17.012281,-9.819093,34.55766,-14.538386,10.547976,-5.8396196,-2.7500606,6.9636397,-2.9887571,26.315546,-40.967094,67.02037,-2.9883487,-0.11896297,9.346545,9.7129345,-10.902382,10.587688,52.51913,-4.7438593,-6.9798074,-6.9687395
1,1.873496413230896,0.7941530346870422,74.03160858154297,-2.4497942049180113,-0.015136124728978366,-176.22255711562505,-0.5557698,32.639385,-4.413809,30.323624,-0.2562937,-14.404436,-16.077608,-16.263817,-10.341941,34.88866,-15.215495,10.041919,-5.8196535,-2.9555159,6.8734684,-3.3137846,26.369953,-40.882854,66.98135,-3.093115,-0.19694145,9.083692,9.714847,-10.9454565,11.054707,52.863365,-4.6646905,-6.8478184,-6.900356
2,1.667549967765808,1.7772945165634155,74.12132263183594,-2.4053797615395456,0.029954716586813705,-176.09917798625315,-0.5946501,33.629704,-3.2036211,29.875252,1.5044885,-13.574951,-15.999929,-15.620232,-10.789825,35.29494,-15.931623,9.571374,-5.8583074,-3.2357364,6.7729936,-3.5774636,26.422653,-40.694084,66.91714,-3.1865618,-0.27891538,8.803819,9.696764,-11.037449,11.594718,53.21386,-4.5407367,-6.708727,-6.8309216
3,1.4676527976989746,2.7455036640167236,74.21309661865234,-2.3756917499156884,0.08337457507671829,-175.94636945053352,-0.7349457,34.607716,-2.007062,29.607628,2.9474065,-12.543052,-15.903777,-14.965999,-11.276892,35.637188,-16.59899,9.075729,-5.9062414,-3.4912462,6.6652174,-3.8885589,26.453897,-40.595093,66.867615,-3.2749777,-0.35711983,8.558932,9.689883,-11.135497,12.095248,53.54067,-4.4516964,-6.579083,-6.756269
4,1.2708494663238525,3.698146343231201,74.31281280517578,-2.3749806929904134,0.15880867476747104,-175.71921664206073,-1.0565141,35.535255,-0.8421784,29.622034,3.687753,-11.036428,-15.754799,-14.308886,-11.866474,35.839767,-17.160015,8.522926,-6.0715537,-3.686033,6.540491,-4.1969194,26.480862,-40.58043,66.74802,-3.3189163,-0.42451692,8.399,9.67184,-11.299563,12.61819,53.812847,-4.406356,-6.469424,-6.6719427
5,1.0576573610305786,4.648924350738525,74.42892456054688,-2.4181105926848865,0.2623376035713182,-175.3662638115241,-1.68696,36.488205,0.34517008,30.029858,3.5562422,-8.658998,-15.508188,-13.652815,-12.632366,35.86172,-17.593487,7.9026675,-6.3412704,-3.8239682,6.386317,-4.5962873,26.493746,-40.81114,66.63144,-3.3742332,-0.48541838,8.3335,9.655136,-11.476443,13.115906,54.03805,-4.4768157,-6.390445,-6.583056
6,0.8415230512619019,5.569892883300781,74.55752563476562,-2.4891838994328865,0.3887095183993309,-174.92254684686574,-2.5251946,37.44462,1.5364757,30.709566,2.7277064,-5.689885,-15.190617,-12.997367,-13.520344,35.747517,-17.936567,7.2364597,-6.704497,-3.904237,6.212475,-5.040654,26.491474,-41.191788,66.49324,-3.4334357,-0.5418554,8.336026,9.647524,-11.707904,13.615349,54.202522,-4.610073,-6.331562,-6.4824295
7,0.6913414001464844,6.440957546234131,74.69412994384766,-2.549830456176178,0.531706338734323,-174.47415411663104,-3.2917519,38.199036,2.5971284,31.388754,1.4023465,-2.8823364,-14.88111,-12.354397,-14.396749,35.567528,-18.227861,6.541569,-7.0746846,-3.966487,6.031568,-5.5015564,26.46493,-41.60631,66.30893,-3.4106843,-0.58358324,8.408558,9.639951,-11.960453,14.046413,54.327305,-4.7558823,-6.2832384,-6.3722825
8,0.5462951064109802,7.294079780578613,74.81598663330078,-2.56498372118154,0.682663727727136,-174.10952281744167,-3.7070372,38.557312,3.4101264,31.785994,-0.12571889,-0.9684912,-14.654883,-11.734731,-15.129809,35.38964,-18.502235,5.8330226,-7.3735933,-4.036778,5.859791,-5.9342203,26.40328,-41.92297,66.03978,-3.2165663,-0.60036224,8.552348,9.637696,-12.2309885,14.354511,54.412697,-4.8499923,-6.2347302,-6.24859
9,0.41912025213241577,8.139119148254395,74.91786193847656,-2.537359621300019,0.859535210593549,-173.85214821574093,-3.6793582,38.485287,3.9853013,31.748472,-1.901957,-0.2196991,-14.553903,-11.127475,-15.691729,35.224163,-18.768328,5.081778,-7.579428,-4.1083136,5.6857944,-6.335962,26.297445,-42.10497,65.673386,-2.7468286,-0.567958,8.804085,9.641081,-12.524939,14.52297,54.44533,-4.9162307,-6.1776605,-6.080572
10,0.2710711359977722,8.904684066772461,75.02737426757812,-2.4844550635367635,1.0584136843286107,-173.65700896038098,-3.3653057,38.086094,4.3739023,31.426403,-3.9652946,-0.20272276,-14.524309,-10.528708,-16.155245,35.037933,-19.010765,4.290823,-7.7350345,-4.1667905,5.5064716,-6.728746,26.145973,-42.21883,65.2406,-2.0736277,-0.49686757,9.151001,9.652445,-12.846081,14.586365,54.428474,-4.9736543,-6.119508,-5.880166
11,0.1391468495130539,9.663970947265625,75.1318359375,-2.400455596665057,1.2361028500851374,-173.510372242966,-2.879781,37.398956,4.5358133,31.021894,-5.994265,-0.56089574,-14.502598,-9.956028,-16.542032,34.841934,-19.229565,3.5202694,-7.856002,-4.223869,5.350559,-7.110538,25.95241,-42.300587,64.77108,-1.3808001,-0.43006033,9.520895,9.679338,-13.184779,14.563854,54.389507,-4.9515367,-6.072524,-5.707936
12,0.029541097581386566,10.415947914123535,75.22505950927734,-2.277560683313402,1.3496485049258542,-173.39784799750973,-2.3353505,36.45284,4.4139466,30.749077,-7.6832333,-0.9498815,-14.426064,-9.43002,-16.870821,34.643833,-19.419834,2.8302085,-7.957362,-4.29709,5.24615,-7.4717364,25.724442,-42.37528,64.28845,-0.8401108,-0.4134074,9.842635,9.724907,-13.523825,14.473739,54.361767,-4.780698,-6.049237,-5.6259003
13,-0.09308949112892151,11.161008834838867,75.31818389892578,-2.099890205515975,1.3723624985156422,-173.32733320785675,-1.7215701,35.173477,3.8658185,30.65258,-8.9361315,-1.3705156,-14.276347,-8.970592,-17.127535,34.461964,-19.584627,2.239904,-8.031393,-4.4140863,5.2154284,-7.796166,25.467813,-42.424522,63.781757,-0.494537,-0.46804413,10.119444,9.786062,-13.84869,14.290528,54.36279,-4.426615,-6.0588374,-5.657743
14,-0.20461057126522064,11.860444068908691,75.40911865234375,-1.8825456638036797,1.333108647660274,-173.30202386165362,-1.0080084,33.58717,2.9554958,30.648115,-9.945091,-1.9671898,-14.084095,-8.556337,-17.313696,34.280293,-19.720278,1.7144836,-8.0721655,-4.559647,5.237297,-8.090517,25.184906,-42.442657,63.24065,-0.2492804,-0.5671219,10.382029,9.856982,-14.157497,14.012368,54.382107,-3.9353807,-6.0941353,-5.770224
15,-0.30462807416915894,12.552532196044922,75.49431610107422,-1.660055350370972,1.2719250624906742,-173.29978373902722,-0.2730903,31.854525,1.9222237,30.76276,-10.82916,-2.6283352,-13.867598,-8.152719,-17.46762,34.06582,-19.814976,1.2331746,-8.10154,-4.6897726,5.275236,-8.386343,24.88087,-42.49173,62.692734,-0.089337476,-0.6875095,10.601473,9.936342,-14.454525,13.694334,54.409405,-3.3587785,-6.142922,-5.940349
16,-0.41851139068603516,13.233301162719727,75.58320617675781,-1.4646774658220851,1.227957272081403,-173.2989292007137,0.40586808,30.129677,1.0070043,31.013046,-11.696476,-3.2420971,-13.645803,-7.7268887,-17.62597,33.78599,-19.856352,0.7751147,-8.139803,-4.7627788,5.293589,-8.713871,24.561626,-42.63097,62.163433,0.002116168,-0.8058992,10.748284,10.024815,-14.747498,13.39013,54.43137,-2.748228,-6.192699,-6.1447296
17,-0.5387927293777466,13.896353721618652,75.6725082397461,-1.2931965135760723,1.2070890641815626,-173.29882251449348,1.0202414,28.39661,0.20546769,31.411297,-12.547712,-3.8351276,-13.427885,-7.2873206,-17.787333,33.43918,-19.833345,0.34889227,-8.192146,-4.7742057,5.287212,-9.0692005,24.229784,-42.867382,61.641075,-0.021782635,-0.9303552,10.783166,10.118868,-15.040621,13.108956,54.447063,-2.0288322,-6.2434688,-6.4124365
18,-0.6444134712219238,14.509245872497559,75.76382446289062,-1.1320078033904826,1.1903733989231589,-173.308600338943,1.5952333,26.585667,-0.59408355,31.968534,-13.346125,-4.4576516,-13.204888,-6.8472395,-17.936644,33.041077,-19.752459,-0.040650968,-8.2493105,-4.7436156,5.274692,-9.433506,23.885647,-43.167225,61.108955,-0.15120937,-1.0681406,10.731119,10.22153,-15.332458,12.824172,54.45786,-1.2013634,-6.303305,-6.742585
19,-0.7269508838653564,15.142339706420898,75.84207916259766,-0.9940143920951895,1.1784185851883546,-173.3222832183784,2.1254723,24.765366,-1.3010166,32.649834,-14.116154,-5.0271773,-12.967519,-6.383269,-18.085943,32.582134,-19.626032,-0.41947767,-8.309652,-4.668233,5.2571807,-9.819403,23.532427,-43.53716,60.58982,-0.29402062,-1.197398,10.659487,10.343285,-15.622186,12.536485,54.454025,-0.430428,-6.369176,-7.0675836
20,-0.7821493744850159,15.754239082336426,75.92353057861328,-0.8913828859356845,1.1714031134965077,-173.3343233473202,2.6071181,23.003836,-1.8255498,33.41197,-14.873874,-5.4576073,-12.709475,-5.873685,-18.245878,32.059334,-19.469503,-0.8134097,-8.370738,-4.544995,5.236873,-10.23363,23.173494,-43.974266,60.100033,-0.3487976,-1.2959253,10.635778,10.495913,-15.905855,12.247181,54.42375,0.11989105,-6.434383,-7.319531
21,-0.8558480143547058,16.345773696899414,76.00279235839844,-0.840302229935615,1.1788562697192515,-173.33063408282203,2.995639,21.335913,-2.1336231,34.323875,-15.626156,-5.6863275,-12.429487,-5.3032966,-18.438848,31.448006,-19.274593,-1.234194,-8.440381,-4.354909,5.211473,-10.691128,22.81169,-44.50559,59.64058,-0.29807878,-1.3554422,10.681452,10.684275,-16.18232,11.938726,54.347244,0.36225298,-6.4898686,-7.4837074
22,-0.9193686842918396,16.953811645507812,76.07671356201172,-0.8272806775019189,1.1968160844198925,-173.3190800821781,3.3124437,19.715086,-2.2754521,35.370026,-16.35161,-5.7721167,-12.134508,-4.6915317,-18.648905,30.760612,-19.036264,-1.6678634,-8.515142,-4.1093907,5.1825747,-11.1811695,22.446913,-45.122143,59.19823,-0.19189268,-1.3881167,10.759111,10.902219,-16.450205,11.614618,54.235466,0.39816448,-6.5389338,-7.5956097
23,-0.9901739358901978,17.54251480102539,76.14686584472656,-0.8216271551731009,1.205381182067717,-173.32715325121094,3.6653469,18.089252,-2.2856193,36.340908,-17.009592,-5.807873,-11.830205,-4.067412,-18.829737,30.050777,-18.777006,-2.1009114,-8.577371,-3.8517907,5.1562805,-11.6757145,22.079254,-45.773262,58.77357,-0.037647475,-1.4029702,10.848484,11.139491,-16.707869,11.309339,54.128487,0.34568155,-6.5929785,-7.6644707
24,-1.0625791549682617,18.11331558227539,76.2151107788086,-0.7948198139948415,1.1857160663904753,-173.3821371795188,4.1583605,16.407045,-2.2030222,37.023727,-17.557695,-5.8870673,-11.521823,-3.4568772,-18.936735,29.377048,-18.522621,-2.5191624,-8.61309,-3.6221836,5.1377344,-12.143787,21.710285,-46.405216,58.365158,0.15811382,-1.4089959,10.929183,11.384255,-16.95276,11.061993,54.067005,0.32371318,-6.663877,-7.699297
25,-1.1327760219573975,18.686140060424805,76.2794189453125,-0.7303442724443464,1.1043479874955089,-173.52123057648163,4.8747,14.660929,-1.9423953,37.370663,-17.986513,-5.954418,-11.1520195,-2.8552494,-18.932268,28.704685,-18.28704,-2.9111497,-8.594672,-3.4446266,5.143586,-12.561827,21.342499,-47.00594,57.965744,0.44213685,-1.3951447,11.00154,11.641666,-17.187794,10.892069,54.059303,0.32851195,-6.766976,-7.689833
26,-1.1889638900756836,19.25090217590332,76.33619689941406,-0.6477346663052594,0.9815349872261581,-173.71960704541266,5.7397966,12.87214,-1.5284221,37.459877,-18.300772,-5.9846625,-10.736825,-2.2517138,-18.84897,28.02196,-18.055393,-3.287693,-8.542297,-3.291255,5.165749,-12.9463005,20.978289,-47.59853,57.572865,0.80225635,-1.360483,11.073914,11.911912,-17.415497,10.780896,54.085842,0.30977568,-6.891897,-7.6357446
27,-1.2517136335372925,19.80592918395996,76.3860855102539,-0.5731683019269493,0.8791511585186778,-173.91109559597209,6.6241636,11.035603,-1.1595205,37.26697,-18.480728,-6.1166353,-10.387533,-1.660301,-18.752178,27.413416,-17.80723,-3.6657686,-8.511902,-3.1254325,5.1714525,-13.327757,20.619488,-48.18493,57.194218,1.1446086,-1.3298682,11.138705,12.175519,-17.631144,10.708835,54.146362,0.31606746,-7.011735,-7.5611725
28,-1.346139669418335,20.36970329284668,76.42572784423828,-0.5333386719269061,0.8585312024491403,-174.02906432448526,7.403378,9.154226,-1.0244691,36.77486,-18.513357,-6.488885,-10.215529,-1.093817,-18.709538,26.961208,-17.521523,-4.0607576,-8.559034,-2.9128978,5.1273727,-13.737313,20.268126,-48.766247,56.839737,1.376743,-1.3284361,11.188695,12.412594,-17.8272,10.655235,54.243423,0.39349556,-7.099666,-7.4913244
29,-1.2415275573730469,20.85834503173828,76.4389877319336,-0.5310320653048427,0.9557798862107169,-174.031850776919,8.009763,7.220755,-1.1729555,35.983044,-18.408802,-7.1362166,-10.277995,-0.5737398,-18.751299,26.693275,-17.206154,-4.4801393,-8.714828,-2.6438866,5.023825,-14.205013,19.924992,-49.344414,56.509327,1.4526166,-1.3736057,11.219438,12.597563,-18.001709,10.6263075,54.389065,0.60330755,-7.15395,-7.4244018
30,-1.2416216135025024,21.40796661376953,76.45986938476562,-0.5566220562419062,1.1315506027175066,-173.9619335579468,8.535539,5.2537136,-1.5033996,34.884678,-18.172749,-7.981048,-10.503476,-0.08243595,-18.844294,26.556574,-16.86552,-4.913583,-8.942874,-2.3351865,4.8801045,-14.707671,19.590689,-49.92051,56.19923,1.4286112,-1.4485036,11.235611,12.747841,-18.156162,10.627708,54.579956,0.9023292,-7.186927,-7.3509054
31,-1.3126933574676514,21.9766845703125,76.48628997802734,-0.6180239649545854,1.334745956000417,-173.87885455306989,9.093794,3.2986279,-1.9783756,33.465313,-17.797958,-8.991479,-10.817148,0.42181998,-18.961994,26.524984,-16.479074,-5.3492866,-9.197849,-1.9905789,4.706378,-15.196793,19.267643,-50.497715,55.912235,1.3604538,-1.5273566,11.24381,12.905185,-18.282398,10.642591,54.796722,1.1827523,-7.1934223,-7.283732
32,-1.31899094581604,22.522483825683594,76.50679016113281,-0.7267704031687343,1.5147658812036475,-173.84133750931275,9.79428,1.4045292,-2.5695138,31.705067,-17.276026,-10.13411,-11.138415,0.9866625,-19.07935,26.556086,-16.01703,-5.7753735,-9.433634,-1.6141537,4.511577,-15.633155,18.96082,-51.09207,55.656506,1.2926749,-1.5843798,11.25094,13.110084,-18.36868,10.6514015,55.02303,1.3341706,-7.1689057,-7.2372255
33,-1.3509730100631714,23.076929092407227,76.52101135253906,-0.9022320241272082,1.6533306812179303,-173.90061939491218,10.758039,-0.43496752,-3.333456,29.40161,-16.563828,-11.490328,-11.442617,1.6593932,-19.157759,26.646969,-15.471316,-6.2027626,-9.611752,-1.1964663,4.282267,-15.988222,18.673578,-51.72083,55.43511,1.2259845,-1.6053189,11.254106,13.376695,-18.408726,10.671941,55.277283,1.2884115,-7.1024604,-7.228646
34,-1.3358827829360962,23.61851692199707,76.53564453125,-1.1483206385134794,1.7840971644508294,-174.00688038760288,11.908641,-2.1859455,-4.3044715,26.588583,-15.689683,-13.022639,-11.769485,2.4198873,-19.237204,26.793652,-14.845723,-6.6349697,-9.770549,-0.7266626,4.0165253,-16.2925,18.407396,-52.377495,55.242325,1.1354325,-1.605727,11.25095,13.67933,-18.402695,10.706658,55.564934,1.1146562,-7.000341,-7.2470994
35,-1.415428876876831,24.21552848815918,76.54226684570312,-1.4507455838903307,1.9337674223860117,-174.06792213934744,13.051481,-3.7596948,-5.4024115,23.628712,-14.7461605,-14.536019,-12.139196,3.2081785,-19.406603,26.962084,-14.132729,-7.047496,-9.977975,-0.21200664,3.7414007,-16.5833,18.162949,-53.02589,55.06774,1.0471396,-1.6038035,11.248883,13.99907,-18.348494,10.71065,55.848846,0.9068467,-6.8840957,-7.2647476
36,-1.4252817630767822,24.764978408813477,76.54302215576172,-1.6642689590598323,2.125483076586443,-173.98466298439595,14.072402,-5.3556166,-6.566685,20.740688,-13.698683,-15.000033,-12.6889925,3.7594955,-19.702744,27.399887,-13.4646435,-7.3760977,-10.307993,0.22225223,3.4678755,-16.901316,17.94044,-53.634567,54.90221,0.9831819,-1.617927,11.255398,14.318414,-18.243425,10.637057,56.091034,0.75877565,-6.7754807,-7.2540355
37,-1.394980549812317,25.279617309570312,76.53900146484375,-1.8807935082191312,2.3771486049305843,-173.73823174154782,14.879851,-6.804806,-7.7443123,18.10255,-12.590973,-15.000033,-13.366863,4.1928554,-20.203611,27.939392,-12.7396,-7.6428943,-10.780845,0.6710028,3.2098858,-17.261387,17.73953,-54.20375,54.744278,0.9495367,-1.6543148,11.276076,14.628263,-18.083822,10.46713,56.28448,0.6959073,-6.6729827,-7.2185745
38,-1.3462480306625366,25.84040069580078,76.5319595336914,-2.153398104663716,2.6710358828165965,-173.38201680990906,15.546278,-8.044022,-8.9480915,15.613338,-11.434401,-15.000033,-14.114599,4.6121907,-20.874992,28.490181,-11.915443,-7.8723917,-11.353057,1.1772383,2.9674127,-17.644989,17.560795,-54.753063,54.601173,0.9302573,-1.7028991,11.305569,14.938068,-17.868422,10.22776,56.449783,0.6674809,-6.56752,-7.1699452
39,-1.2539950609207153,26.394739151000977,76.52903747558594,-2.492280440024899,2.965336278717922,-172.96151305500882,16.070309,-9.065049,-10.12896,13.406424,-10.347495,-15.000033,-14.848933,5.0767193,-21.644632,28.95105,-10.984207,-8.071386,-11.970177,1.7301812,2.775443,-18.028858,17.405485,-55.26229,54.471367,0.9347235,-1.7572204,11.335286,15.258698,-17.596556,9.94334,56.590084,0.6520726,-6.470049,-7.0932384
40,-1.1395496129989624,26.96678352355957,76.52595520019531,-2.8941944736845424,3.2165049130373125,-172.52615761900464,16.457666,-9.876454,-11.236006,11.592054,-9.4382305,-15.000033,-15.491435,5.6337924,-22.429012,29.235312,-9.94477,-8.2470255,-12.574566,2.3012984,2.6649075,-18.39492,17.277592,-55.721153,54.356544,0.9609808,-1.8114147,11.356931,15.600952,-17.270836,9.638359,56.709473,0.62915576,-6.3913994,-6.9741325
41,-1.0342085361480713,27.564355850219727,76.52110290527344,-3.3474782715299556,3.4117885905790826,-172.08266954271053,16.663986,-10.490555,-12.197493,10.294142,-8.767212,-15.000033,-16.036896,6.2736006,-23.21354,29.355314,-8.782075,-8.395754,-13.169888,2.8703785,2.6506436,-18.727942,17.182194,-56.10934,54.251713,1.0418324,-1.8677802,11.375998,15.967086,-16.887524,9.304934,56.79788,0.5917424,-6.3367443,-6.794832
42,-0.9059990644454956,28.18511390686035,76.52571868896484,-3.820671433606532,3.569487824230175,-171.61644122434,16.691254,-10.97161,-13.022317,9.444131,-8.265444,-15.000033,-16.537361,6.936191,-24.012259,29.393423,-7.5243735,-8.510797,-13.774881,3.413746,2.7118146,-19.037668,17.12294,-56.44009,54.15283,1.1653987,-1.9282583,11.394801,16.348679,-16.444647,8.939508,56.859478,0.55182505,-6.299894,-6.5686693
43,-0.7549198269844055,28.817588806152344,76.53193664550781,-4.2844342934381805,3.6935319042468655,-171.14377761159903,16.60694,-11.396495,-13.788886,8.873077,-7.856592,-15.000033,-16.997229,7.602918,-24.78525,29.361311,-6.232415,-8.597673,-14.355858,3.902564,2.8237402,-19.33416,17.100222,-56.739876,54.056606,1.2760158,-1.9859502,11.400009,16.743214,-15.949578,8.571703,56.914696,0.5169113,-6.2744703,-6.3269267
44,-0.6054534316062927,29.467323303222656,76.53045654296875,-4.717434182362031,3.7877651178346508,-170.67922836410497,16.474363,-11.826155,-14.580882,8.425008,-7.4766994,-15.000033,-17.415302,8.264367,-25.497986,29.259808,-4.9618177,-8.662894,-14.881267,4.319491,2.9624906,-19.629644,17.112059,-57.03511,53.961063,1.3158622,-2.0343087,11.377928,17.150013,-15.415352,8.231731,56.981735,0.4963047,-6.253601,-6.099464
45,-0.4533025920391083,30.136377334594727,76.51979064941406,-5.1261602998037334,3.8449879924121566,-170.2179173568336,16.308107,-12.283231,-15.490576,8.097265,-7.1213307,-15.000033,-17.774256,8.935945,-26.13836,29.065014,-3.7207282,-8.715278,-15.354195,4.6709847,3.1358004,-19.918293,17.157076,-57.31418,53.865242,1.255079,-2.0721567,11.3144865,17.581356,-14.846175,7.909882,57.047108,0.5153737,-6.240086,-5.860801
46,-0.2829105854034424,30.81890106201172,76.49466705322266,-5.514214800276764,3.8650743584110088,-169.75527987417843,16.048052,-12.751321,-16.438263,8.02294,-6.8579264,-15.000033,-18.078394,9.616132,-26.720692,28.789194,-2.4838965,-8.751003,-15.7885275,4.9605303,3.3486247,-20.199932,17.235746,-57.57297,53.770947,1.1233373,-2.1031497,11.220551,18.035648,-14.24171,7.5972257,57.10379,0.5633126,-6.235296,-5.6044464
47,-0.10540580004453659,31.49762535095215,76.46824645996094,-5.859740095168984,3.8605980512480356,-169.30678758130978,15.726096,-13.201696,-17.270811,8.074661,-6.6337566,-15.000033,-18.357876,10.272659,-27.250868,28.484818,-1.255965,-8.755883,-16.168474,5.171746,3.574827,-20.477299,17.344635,-57.822334,53.67331,0.98197985,-2.1266897,11.119356,18.490316,-13.609761,7.3272233,57.179344,0.5974028,-6.23073,-5.388609
48,0.07330017536878586,32.19005584716797,76.43563079833984,-6.141635742042988,3.8454108256497395,-168.886751964698,15.348996,-13.606904,-17.833754,8.165491,-6.4126334,-15.000033,-18.646076,10.872673,-27.736591,28.203238,-0.04122093,-8.713035,-16.480726,5.2939267,3.787114,-20.75371,17.477787,-58.071064,53.56849,0.89128006,-2.143088,11.03434,18.923834,-12.960534,7.1360707,57.300278,0.5766038,-6.217785,-5.270152
49,0.25043776631355286,32.90680694580078,76.40098571777344,-6.358758941444694,3.8303771016782804,-168.49344346066889,14.936496,-13.967885,-18.114065,8.233232,-6.1844935,-15.000033,-18.934797,11.417234,-28.203835,27.910221,1.1528141,-8.6169815,-16.720083,5.331109,3.9693248,-21.046232,17.631304,-58.35485,53.472645,0.8371157,-2.1584501,10.976867,19.339428,-12.297087,7.049344,57.480026,0.47551763,-6.1842217,-5.314652
50,0.4441838264465332,33.61400604248047,76.35408782958984,-6.51961859679613,3.806103746855423,-168.11982115561392,14.462713,-14.30171,-18.18137,8.359903,-5.9765806,-15.000033,-19.215313,11.918456,-28.63809,27.597044,2.329193,-8.473266,-16.894457,5.289629,4.135145,-21.349222,17.80301,-58.655266,53.387184,0.79937637,-2.1712654,10.932918,19.747557,-11.6182165,7.043743,57.701878,0.32263303,-6.1374035,-5.4736743
51,0.6585803031921387,34.33063507080078,76.3075180053711,-6.619848974062026,3.7564165792391546,-167.77229184125017,13.910096,-14.58378,-18.021814,8.570439,-5.7510686,-15.000033,-19.519625,12.361233,-28.987185,27.348381,3.501555,-8.279362,-17.01064,5.164795,4.301394,-21.638243,17.990166,-58.90675,53.290695,0.82014453,-2.1713035,10.888051,20.13766,-10.93262,7.078837,57.94487,0.15833321,-6.0979733,-5.632764
52,0.8881502747535706,35.04770278930664,76.2509765625,-6.656810412787793,3.6663690675764253,-167.4563541782923,13.217184,-14.800983,-17.613604,8.980153,-5.513842,-15.000033,-19.880997,12.731885,-29.200464,27.250158,4.6833115,-8.032072,-17.07763,4.9557824,4.4852457,-21.891043,18.191013,-59.04559,53.16201,0.9362449,-2.1487553,10.828152,20.499857,-10.256302,7.1143403,58.186,0.024637638,-6.0872025,-5.6763086
53,1.1236294507980347,35.78337478637695,76.1863021850586,-6.6440960188344125,3.532879232359513,-167.16696435021038,12.461245,-14.887846,-16.946804,9.312117,-5.0521636,-15.000033,-20.292767,13.021994,-29.333223,27.320879,5.868788,-7.7341814,-17.102053,4.6877246,4.692633,-22.104132,18.402695,-59.05862,52.996803,1.1773088,-2.0958292,10.731454,20.842379,-9.599393,7.125132,58.425106,-0.05115194,-6.123827,-5.566516
54,1.3597906827926636,36.53878402709961,76.11038970947266,-6.579269897720778,3.361604147849714,-166.9066950907522,11.632716,-14.871382,-16.036652,9.641881,-4.4591312,-15.000033,-20.740038,13.245404,-29.384022,27.517473,7.051658,-7.3812203,-17.077095,4.3589816,4.915007,-22.289007,18.624592,-58.975697,52.807785,1.5143023,-2.0208983,10.611759,21.16926,-8.9618225,7.139491,58.668427,-0.092909254,-6.1919427,-5.364297
55,1.5967328548431396,37.268619537353516,76.0674057006836,-6.438039260635071,3.15246212510994,-166.6921838375049,10.593099,-14.84638,-14.920355,10.493234,-4.1410165,-15.000033,-21.240751,13.429605,-29.217901,27.821766,8.250306,-6.955464,-16.9934,3.930918,5.1475377,-22.43361,18.859274,-58.78032,52.592033,1.9155064,-1.9368742,10.507863,21.461538,-8.345918,7.19555,58.903137,-0.13566077,-6.2612996,-5.1027737
56,1.8309109210968018,38.020233154296875,76.02278137207031,-6.209194818936587,2.909581749434196,-166.53580521205944,9.236196,-14.8705435,-13.654607,12.309895,-4.4626136,-15.000033,-21.807823,13.623501,-28.708086,28.191526,9.492608,-6.4354157,-16.850533,3.3815367,5.387341,-22.525383,19.113209,-58.454674,52.341705,2.3451102,-1.8559403,10.458288,21.700361,-7.754579,7.336678,59.11611,-0.21279536,-6.301678,-4.813971
57,2.050595283508301,38.778690338134766,75.99637603759766,-5.79607851729775,2.598861617676356,-166.44829823830077,7.5796638,-15.130875,-12.160604,15.236039,-5.482277,-13.5119,-22.528324,13.707558,-27.73013,28.914364,10.640975,-5.8570323,-16.637348,2.6190078,5.643636,-22.548885,19.390951,-57.962845,52.044224,2.8369198,-1.7704883,10.483413,21.878382,-7.1909037,7.586427,59.31368,-0.31883115,-6.294591,-4.467208
58,2.3301141262054443,39.505126953125,75.89851379394531,-5.1288427624057755,2.214389515953439,-166.39491676657934,5.9346857,-15.791996,-10.421117,18.558529,-6.771522,-8.761852,-23.503925,13.516027,-26.33457,30.30649,11.522088,-5.1447625,-16.385206,1.6074106,5.9142103,-22.520664,19.692295,-57.32233,51.691746,3.3860874,-1.6736537,10.55507,22.011293,-6.6666045,7.9121017,59.488487,-0.4400369,-6.2594323,-4.0551453
59,2.6218783855438232,40.257225036621094,75.76056671142578,-4.502058177907553,1.8464403897175319,-166.33146973064675,4.2523384,-16.323088,-8.6925335,22.06157,-8.333609,-3.811429,-24.507872,13.4778595,-24.783688,31.579983,12.495803,-4.196623,-16.151424,0.6360556,6.200714,-22.4496,20.017763,-56.572365,51.283844,3.9320385,-1.5801405,10.643223,22.10968,-6.1901655,8.279693,59.617397,-0.59749866,-6.2234855,-3.6474712
60,2.9330623149871826,41.05561828613281,75.56119537353516,-3.999069554576375,1.5306024039104023,-166.2472008493483,2.7864459,-16.636805,-7.193653,25.099047,-9.887689,0.52397054,-25.502428,13.654881,-23.211296,32.596268,13.596162,-2.8551555,-15.951464,-0.20185079,6.4933386,-22.359646,20.36719,-55.766914,50.822372,4.396589,-1.5050085,10.717644,22.182913,-5.773154,8.648515,59.67398,-0.8126482,-6.2138815,-3.3129466
61,3.258040428161621,41.86184310913086,75.33039855957031,-3.617182256162631,1.2671116458692584,-166.15714195371467,1.5619221,-16.753609,-5.9248405,27.660439,-11.446796,4.200494,-26.541424,14.052683,-21.592112,33.462715,14.735043,-1.1300708,-15.767754,-0.9150579,6.789776,-22.246525,20.743053,-54.87584,50.288784,4.7568784,-1.4560292,10.759912,22.231678,-5.412722,9.028242,59.645485,-1.1310273,-6.2393346,-3.0669682
62,3.578913688659668,42.64935302734375,75.10746002197266,-3.2994148181575627,1.0297194745043912,-166.07452730696,0.4762998,-16.759094,-4.811008,30.034882,-13.122734,7.600723,-27.627811,14.629607,-19.84369,34.27138,15.859193,0.9358587,-15.585082,-1.5635818,7.0957413,-22.099257,21.147573,-53.886646,49.687565,5.0519934,-1.4245358,10.79104,22.251104,-5.105422,9.435293,59.549473,-1.526968,-6.2850976,-2.8739839
63,3.8966429233551025,43.412837982177734,74.88204193115234,-3.006836976701193,0.8079507937681427,-165.99793935097773,-0.43347132,-16.723215,-3.9115732,32.08163,-14.80207,10.547497,-28.67466,15.316974,-17.97169,34.944374,17.004883,3.456321,-15.41074,-2.1749825,7.405004,-21.920013,21.57579,-52.865494,49.05374,5.3137584,-1.4016193,10.840961,22.24029,-4.860962,9.840388,59.405247,-1.9147452,-6.3428774,-2.7250385
64,4.209550380706787,44.127967834472656,74.66033172607422,-2.698653003131945,0.59182335508366,-165.92678645910033,-1.1397991,-16.710518,-3.268907,33.67011,-16.378063,12.852066,-29.594389,16.04465,-15.967414,35.402603,18.19943,6.5495,-15.251035,-2.776734,7.7102046,-21.711733,22.01472,-51.880596,48.428,5.572663,-1.3788102,10.939803,22.199228,-4.694051,10.211108,59.229374,-2.2080936,-6.403781,-2.6088543
65,4.508974075317383,44.8442268371582,74.44776916503906,-2.3405668688420898,0.37404920661124424,-165.86076461888652,-1.5978553,-16.758413,-2.914907,34.68946,-17.830162,14.318624,-30.428652,16.833733,-13.669548,35.70228,19.424274,10.370141,-15.10562,-3.402785,8.014097,-21.488068,22.45311,-50.932518,47.810852,5.8269205,-1.3613291,11.094532,22.123783,-4.6119165,10.548955,59.00516,-2.364344,-6.4731293,-2.519055
66,4.808813571929932,45.56745529174805,74.23957824707031,-1.9547996460148143,0.15855576696568746,-165.8033352368456,-1.8551508,-16.824736,-2.789812,35.27483,-19.223076,15.000033,-31.192175,17.71619,-11.096757,35.917377,20.535593,14.8458185,-14.968128,-4.0355935,8.318014,-21.242401,22.884459,-49.991253,47.19821,6.064773,-1.3522385,11.290772,22.016579,-4.612995,10.865254,58.72705,-2.4344685,-6.552302,-2.4601703
67,5.097658634185791,46.336463928222656,74.01187896728516,-1.7715445167979516,-0.05561592639289603,-165.85388234063785,-2.1587436,-16.57468,-2.7283685,36.012558,-20.810337,15.000033,-31.464996,17.985733,-10.772999,35.585644,21.80491,15.000033,-14.747035,-4.4707217,8.6508,-20.951672,23.303762,-49.084797,46.630707,6.2945676,-1.3412118,11.523941,21.90335,-4.6883883,11.154944,58.419746,-2.4698472,-6.6260924,-2.4371097
68,5.37114953994751,47.09976577758789,73.78466796875,-1.7668961441096813,-0.2490666272003642,-166.0088143442944,-2.5514867,-16.104662,-2.6403584,36.940723,-22.490822,15.000033,-31.401005,18.122976,-11.152293,34.78206,23.209063,15.000033,-14.438747,-4.6979766,8.981611,-20.610079,23.702784,-48.25042,46.151634,6.5140867,-1.3169688,11.790953,21.795914,-4.8311453,11.400998,58.117012,-2.5252218,-6.679943,-2.4553375
69,5.61453914642334,47.85856628417969,73.57280731201172,-1.8457174093695088,-0.379097979356989,-166.2064274394949,-3.0319562,-15.546464,-2.5908158,37.939316,-24.18774,15.000033,-30.953695,18.06483,-12.201651,33.28815,25.11058,15.000033,-14.1072445,-4.796428,9.24077,-20.228216,24.067797,-47.506268,45.77725,6.742455,-1.2725024,12.115563,21.699406,-5.041976,11.592235,57.81918,-2.6333628,-6.7143087,-2.5188925
70,5.844541072845459,48.54794692993164,73.35081481933594,-1.951248066433713,-0.43518564234034995,-166.46879106676508,-3.5593643,-14.970787,-2.5833375,38.856915,-25.84439,15.000033,-30.262165,17.83447,-13.799555,31.288565,27.50906,15.000033,-13.731381,-4.8213835,9.412376,-19.826189,24.389584,-46.84026,45.50431,6.9705067,-1.2151178,12.491701,21.606327,-5.321639,11.732108,57.512264,-2.7609487,-6.7353826,-2.6244726
71,6.073818206787109,49.223609924316406,73.16963958740234,-2.0293474306535813,-0.4459721611754471,-166.7926549810744,-4.0707016,-14.424503,-2.5481038,39.58848,-27.322897,15.000033,-29.665989,17.466057,-15.529161,29.571108,29.61798,15.000033,-13.3234825,-4.827826,9.525802,-19.401299,24.661207,-46.225338,45.333004,7.1660805,-1.1547054,12.87638,21.487482,-5.6648026,11.825678,57.222702,-2.862944,-6.738456,-2.764277
72,6.30423641204834,49.89356231689453,73.03239440917969,-2.046997912450957,-0.477238676295861,-167.1370076715635,-4.459506,-13.935725,-2.4515965,40.066376,-28.51811,15.000033,-29.644451,16.946983,-16.892826,29.37184,30.000067,15.000033,-12.922991,-4.853428,9.651546,-18.947666,24.877493,-45.633087,45.2602,7.2988343,-1.1016357,13.226397,21.311346,-6.0636296,11.878605,56.97953,-2.8946106,-6.719215,-2.9313862
73,6.530623912811279,50.499183654785156,72.95917510986328,-2.0111970637018817,-0.5692231802478952,-167.464449595267,-4.6498923,-13.483684,-2.3023767,40.21407,-29.371437,14.891948,-29.778906,16.379627,-17.557232,29.88075,29.150208,15.000033,-12.569178,-4.914621,9.837073,-18.461525,25.029842,-45.05086,45.294636,7.3471503,-1.0575941,13.566947,21.056816,-6.5228224,11.886098,56.803192,-2.8290915,-6.670235,-3.1417978
74,6.783229827880859,51.02690887451172,72.9272689819336,-1.9344821310754108,-0.7110764019280429,-167.77203210707435,-4.685946,-13.0699215,-2.1252437,40.134888,-29.984808,14.688002,-30.342257,15.640534,-17.831022,31.73548,26.44032,15.000033,-12.25274,-4.980172,10.062973,-17.958067,25.114368,-44.503292,45.447327,7.328473,-1.019072,13.909017,20.749407,-7.044075,11.849385,56.67239,-2.694179,-6.596576,-3.3934715
75,6.980240345001221,51.58012390136719,72.94359588623047,-1.836087059454692,-0.8847515376925683,-168.08524684025554,-4.626711,-12.677699,-1.9325473,39.925686,-30.414879,14.464436,-30.896406,14.842456,-17.907505,33.84663,23.302633,15.000033,-11.949521,-5.045605,10.309563,-17.445011,25.136183,-44.0056,45.70533,7.289244,-0.98739004,14.188345,20.421917,-7.6105113,11.778438,56.559788,-2.5302162,-6.512595,-3.653789
76,7.164834976196289,52.09666442871094,72.98358917236328,-1.7637622423905508,-1.0694590920897247,-168.4337070253593,-4.5486207,-12.240971,-1.7308515,39.72432,-30.744265,14.211759,-31.217173,14.106003,-17.98994,35.57299,20.69768,15.000033,-11.626143,-5.0762644,10.559681,-16.942717,25.110535,-43.58951,46.060604,7.2584057,-0.96343786,14.341342,20.101929,-8.197322,11.679541,56.445946,-2.3813186,-6.4324145,-3.8928704
77,7.369449138641357,52.59109115600586,73.0383071899414,-1.7354517579441786,-1.2692263472982415,-168.82392667611865,-4.482014,-11.7323265,-1.5220364,39.605957,-30.983294,13.924012,-31.230747,13.495531,-18.127573,36.746063,18.819141,15.000033,-11.265221,-5.0669856,10.815698,-16.447268,25.050303,-43.256676,46.51669,7.2677813,-0.94596076,14.309152,19.791786,-8.786282,11.535886,56.345905,-2.2740705,-6.3498936,-4.0937076
78,7.54329252243042,53.0916748046875,73.12833404541016,-1.7282060653908171,-1.4904406247383473,-169.2423237356966,-4.38709,-11.186715,-1.3025417,39.48878,-31.093006,13.608516,-31.073776,12.946769,-18.221481,37.71779,17.169252,15.000033,-10.880173,-5.0380964,11.084187,-15.952348,24.96085,-43.001507,47.068523,7.2907877,-0.93370205,14.139269,19.470371,-9.376809,11.34558,56.27629,-2.1866405,-6.2612925,-4.2800193
79,7.681356430053711,53.60188293457031,73.23786926269531,-1.7387871278049984,-1.7169194840030846,-169.69018717891325,-4.2389064,-10.611367,-1.0727787,39.287605,-31.089151,13.270008,-30.868187,12.418441,-18.211824,38.68167,15.588149,15.000033,-10.485644,-4.979781,11.356608,-15.45998,24.84735,-42.829414,47.68302,7.279781,-0.92658085,13.927405,19.128902,-9.968524,11.144002,56.2188,-2.0873306,-6.184357,-4.481178
80,7.813318729400635,54.1351432800293,73.3894271850586,-1.7604009032627426,-1.9341645873331446,-170.16695050566764,-4.010755,-10.021538,-0.83100325,38.915154,-30.986822,12.912967,-30.722254,11.85805,-18.046158,39.81141,13.932916,15.000033,-10.097755,-4.887804,11.625092,-14.972107,24.714935,-42.745136,48.327744,7.1882358,-0.92407215,13.769376,18.759027,-10.563109,10.965107,56.153736,-1.9453744,-6.1372356,-4.7269773
81,7.94962739944458,54.597930908203125,73.56299591064453,-1.7993156856168973,-2.151453245611759,-170.7006876690675,-3.6867657,-9.409604,-0.55329174,38.35293,-30.782906,12.527114,-30.663343,11.321069,-17.610857,41.155666,12.19231,15.000033,-9.70504,-4.747151,11.909606,-14.488186,24.56669,-42.757263,49.003704,6.978087,-0.93100864,13.7094555,18.337957,-11.168982,10.82444,56.0926,-1.7302755,-6.136667,-5.057359
82,8.055176734924316,55.0546760559082,73.7751693725586,-1.8502352644789735,-2.3725933571437765,-171.28189794009916,-3.285152,-8.78228,-0.24419785,37.642544,-30.467491,12.114725,-30.63121,10.807684,-16.974724,42.614037,10.453858,15.000033,-9.308536,-4.5686893,12.204194,-14.005231,24.406143,-42.85968,49.719955,6.679537,-0.945895,13.690188,17.87558,-11.788232,10.705375,56.038536,-1.4646347,-6.1698995,-5.4444637
83,8.2374267578125,55.43883514404297,73.99966430664062,-1.8870954374994295,-2.5766880194270447,-171.8531901471191,-2.8235838,-8.183126,0.055016197,36.778004,-30.043623,11.698096,-30.598454,10.174364,-16.346931,44.136703,8.720692,15.000033,-8.944348,-4.3906536,12.464583,-13.511727,24.238724,-43.024437,50.449856,6.3584256,-0.9580001,13.653911,17.412329,-12.403562,10.597521,55.96111,-1.1964018,-6.210105,-5.8165607
84,8.3659029006958,55.87739944458008,74.25210571289062,-1.8854186572964926,-2.7456395945797643,-172.3539787446102,-2.3156028,-7.650443,0.29789165,35.7544,-29.516644,11.299749,-30.53509,9.262896,-15.937817,45.677544,6.983316,15.000033,-8.64715,-4.256859,12.651733,-12.996531,24.072065,-43.2259,51.16715,6.0817604,-0.9556619,13.543116,16.987669,-12.988308,10.487261,55.834812,-0.9761932,-6.2296305,-6.105192
85,8.455138206481934,56.319419860839844,74.51134490966797,-1.820071016793916,-2.8883897043927913,-172.74550965656985,-1.7225739,-7.2257795,0.4451475,34.514496,-28.851093,10.937861,-30.432749,7.967797,-15.773028,47.311718,5.1056995,15.000033,-8.440216,-4.2123127,12.762534,-12.458479,23.915865,-43.4788,51.882957,5.877001,-0.9283312,13.330873,16.612429,-13.521995,10.360527,55.661118,-0.82172084,-6.208982,-6.2976933
86,8.52941608428955,56.74575424194336,74.7986831665039,-1.7028809454814136,-3.019306627615631,-173.05793467413446,-1.0333779,-6.890798,0.5193159,33.06472,-28.051764,10.599077,-30.290009,6.36034,-15.7487335,49.035778,3.109679,15.000033,-8.301011,-4.243328,12.82473,-11.901296,23.775707,-43.793945,52.601963,5.7061725,-0.88327354,13.05121,16.261736,-14.003054,10.222871,55.46083,-0.71113,-6.1670322,-6.4343467
87,8.60615062713623,57.158531188964844,75.0698013305664,-1.5715119639893813,-3.129471761024172,-173.3334405671007,-0.3076903,-6.5862346,0.5649557,31.5121,-27.193832,10.257232,-30.090746,4.561226,-15.864198,50.69753,1.1874489,15.000033,-8.197442,-4.2984505,12.847855,-11.329214,23.652847,-44.14826,53.293137,5.5260844,-0.8356545,12.737756,15.921082,-14.439265,10.090273,55.2361,-0.6338826,-6.1325483,-6.5257106
88,8.687257766723633,57.56137466430664,75.32328796386719,-1.4707783441626137,-3.2047400902838423,-173.62047582571674,0.38372767,-6.243221,0.63383543,29.974068,-26.35792,9.884508,-29.830505,2.7124453,-16.117853,52.144375,-0.4559283,15.000033,-8.09538,-4.3155346,12.836949,-10.746328,23.545467,-44.51638,53.925003,5.293367,-0.8007266,12.424296,15.5750265,-14.844536,9.981795,54.986897,-0.5772629,-6.134311,-6.5806775
89,8.749564170837402,57.98271942138672,75.57719421386719,-1.4217396271438907,-3.235139881692395,-173.94242629531098,1.0364697,-5.829919,0.7492604,28.446098,-25.553778,9.470013,-29.494743,0.8017814,-16.604572,53.35591,-1.7647778,15.000033,-7.98867,-4.2658978,12.7814865,-10.136969,23.451397,-44.896687,54.48251,4.979455,-0.7796137,12.118358,15.216225,-15.232207,9.91066,54.71441,-0.54788303,-6.1870556,-6.5882134
90,8.804315567016602,58.401004791259766,75.8230209350586,-1.403764177430385,-3.2327520747832055,-174.2687470661248,1.6858945,-5.380779,0.8773993,26.88071,-24.747904,9.029165,-29.082657,-1.2215233,-17.297075,54.411217,-2.871348,15.000033,-7.901444,-4.1772957,12.68539,-9.500149,23.370607,-45.29331,54.980305,4.613939,-0.76479983,11.801994,14.855423,-15.6031275,9.868969,54.41199,-0.5443768,-6.2724557,-6.5449166
91,8.841652870178223,58.81746292114258,76.06713104248047,-1.4017260050131468,-3.2079114075755264,-174.575432870807,2.3011858,-4.9192853,0.9943105,25.349321,-23.955608,8.572657,-28.634808,-3.2543519,-18.009605,55.30974,-3.8256416,15.000033,-7.8355036,-4.0697975,12.567939,-8.86235,23.30329,-45.690067,55.432762,4.24261,-0.75876147,11.471462,14.503263,-15.952082,9.840106,54.069023,-0.5447814,-6.3696213,-6.4721646
92,8.887449264526367,59.24678421020508,76.29315185546875,-1.4253279220737256,-3.1570978482831857,-174.8654291717,2.8205366,-4.429731,1.0978576,23.963217,-23.217928,8.103535,-28.210117,-5.1561465,-18.568602,56.024868,-4.644058,15.000033,-7.766514,-3.9371133,12.438345,-8.250788,23.250557,-46.072254,55.855568,3.9106383,-0.764581,11.123015,14.170075,-16.270601,9.807469,53.677082,-0.5275462,-6.45773,-6.392321
93,8.940317153930664,59.71150207519531,76.50099182128906,-1.577512626954056,-3.0247987766414224,-175.22777157594808,3.0858238,-3.7452674,1.2527825,22.935839,-22.640188,7.5807447,-27.810774,-6.885361,-19.410952,56.44764,-5.263048,13.5589695,-7.6131725,-3.6820843,12.258484,-7.672519,23.215591,-46.449356,56.25299,3.6165905,-0.7938782,10.738597,13.8557415,-16.550743,9.76857,53.227123,-0.47287223,-6.529687,-6.299721
94,8.975987434387207,60.178531646728516,76.69103240966797,-1.7334885416763188,-2.8569762322678955,-175.55745791020075,3.276167,-3.0641975,1.3772542,21.986305,-22.075455,7.0574284,-27.463808,-8.521768,-20.094885,56.7277,-5.753093,12.2657995,-7.4779005,-3.4272683,12.0521145,-7.1151657,23.198578,-46.82761,56.61634,3.339172,-0.8409607,10.326013,13.553493,-16.793139,9.727905,52.729416,-0.39955938,-6.5973697,-6.1878185
95,9.036151885986328,60.642032623291016,76.85346984863281,-1.8792286410260366,-2.675165743444596,-175.8635149078493,3.4176948,-2.3999186,1.4908442,21.11458,-21.548763,6.531049,-27.161758,-10.079171,-20.609512,56.894173,-6.087385,11.087788,-7.3501797,-3.184336,11.8380785,-6.5719657,23.196985,-47.18223,56.941887,3.0985818,-0.8842477,9.920236,13.264742,-17.000723,9.684468,52.203346,-0.34292924,-6.6685586,-6.0784097
96,9.096341133117676,61.126930236816406,76.99942779541016,-2.000884770332468,-2.5013933683863683,-176.15440922660963,3.538851,-1.7665699,1.6144174,20.316803,-21.085045,5.998701,-26.896488,-11.57313,-20.946089,56.975235,-6.244244,9.979305,-7.221282,-2.9644666,11.6353245,-6.035396,23.206059,-47.486065,57.22646,2.9176574,-0.90289706,9.556397,12.991315,-17.178452,9.638205,51.667492,-0.33774206,-6.75095,-5.9929714
97,9.15221118927002,61.596466064453125,77.12646484375,-2.1009510348126126,-2.3328793262075527,-176.42951070067045,3.64145,-1.1584742,1.756033,19.586796,-20.686161,5.452727,-26.680264,-12.998736,-21.099798,56.959225,-6.1895766,8.969597,-7.0924463,-2.7620976,11.441382,-5.501751,23.22201,-47.732487,57.463097,2.8306727,-0.8907385,9.228177,12.73708,-17.330872,9.595999,51.118793,-0.3897157,-6.8536897,-5.931815
98,9.196342468261719,62.06772994995117,77.22992706298828,-2.1858756412382228,-2.159764647704708,-176.684885266054,3.7152894,-0.56758815,1.903466,18.924053,-20.340496,4.897308,-26.524076,-14.354359,-21.07959,56.84007,-5.9336734,8.059662,-6.9695654,-2.5722127,11.247621,-4.9770427,23.242699,-47.934803,57.66021,2.8165405,-0.8606407,8.922571,12.498715,-17.455326,9.557501,50.551,-0.4810661,-6.970311,-5.8857985
99,9.225269317626953,62.540828704833984,77.31482696533203,-2.247771351017328,-1.9935219239991433,-176.92391396620954,3.7689865,-0.005495859,2.0490022,18.334545,-20.046417,4.3467593,-26.416815,-15.65996,-20.896166,56.6506,-5.525779,7.163198,-6.850443,-2.3993285,11.066324,-4.4639893,23.267445,-48.093822,57.826687,2.8150167,-0.8202499,8.6644,12.275067,-17.558815,9.509341,49.966476,-0.606011,-7.084774,-5.8573422
100,9.268694877624512,63.01955032348633,77.38174438476562,-2.278125033560273,-1.8454147380626198,-177.1499701065583,3.8150165,0.5144969,2.1856291,17.815252,-19.798983,3.8149571,-26.348505,-16.936493,-20.55946,56.42625,-5.0203247,6.1946907,-6.732523,-2.257055,10.906951,-3.9714994,23.293056,-48.21343,57.985092,2.7652602,-0.77662814,8.479026,12.05552,-17.631948,9.440735,49.382282,-0.7652137,-7.1816936,-5.8547673
101,9.314042091369629,63.50053405761719,77.42230224609375,-2.2735726564386765,-1.7182744067532778,-177.3502707792323,3.8446326,0.98460406,2.301487,17.384502,-19.606087,3.3009858,-26.33391,-18.194307,-20.054396,56.181763,-4.3994513,5.1068196,-6.6285458,-2.154597,10.774893,-3.5057223,23.309828,-48.28716,58.145123,2.6684093,-0.7215777,8.393504,11.827237,-17.661406,9.349407,48.801693,-0.978918,-7.247039,-5.889515
102,9.351353645324707,63.98051834106445,77.44692993164062,-2.239433277852695,-1.6052831821365516,-177.5271505696793,3.8580368,1.4135054,2.4049284,17.029078,-19.463633,2.798504,-26.381327,-19.422031,-19.382387,55.897324,-3.6450996,3.9467597,-6.5511246,-2.0830135,10.656453,-3.0555983,23.31386,-48.309563,58.304424,2.5461595,-0.65578204,8.389252,11.589013,-17.664326,9.270312,48.226948,-1.2269703,-7.291423,-5.959864
103,9.393243789672852,64.46143341064453,77.45365142822266,-2.180233910986211,-1.5040675260424559,-177.70629629847164,3.8650403,1.8137549,2.5191174,16.734875,-19.360096,2.312801,-26.472317,-20.605742,-18.577192,55.560658,-2.8130085,2.7728436,-6.430114,-2.0145867,10.563941,-2.6363008,23.32464,-48.322395,58.43632,2.3868458,-0.5965016,8.417294,11.399836,-17.65475,9.116282,47.619995,-1.4999709,-7.3392973,-6.0260096
104,9.420151710510254,64.94744873046875,77.4503173828125,-2.1005489001735125,-1.4116239181916788,-177.9137407896522,3.875079,2.1980145,2.6670752,16.4875,-19.28287,1.8488007,-26.583933,-21.72918,-17.671473,55.152596,-1.9580171,1.6464653,-6.270777,-1.9607457,10.466913,-2.2362294,23.335577,-48.31375,58.58618,2.1748621,-0.5634636,8.436395,11.234609,-17.61894,8.965195,47.040867,-1.746544,-7.41346,-6.0990677
105,9.436336517333984,65.42926788330078,77.43128204345703,-1.9949742887386566,-1.3288526913787824,-178.16519405439237,3.8970578,2.5591862,2.8670669,16.28011,-19.23372,1.4175694,-26.727814,-22.792805,-16.649813,54.674408,-1.0572467,0.5722951,-6.066897,-1.9213086,10.357549,-1.845229,23.340837,-48.271393,58.751133,1.8870653,-0.5734188,8.447809,11.085109,-17.567558,8.832416,46.49845,-1.9362565,-7.532427,-6.1779513
106,9.426877975463867,65.9266128540039,77.40071868896484,-1.8628147226310499,-1.2562700626941978,-178.44392192938724,3.9206655,2.8934202,3.1035743,16.127724,-19.220577,1.0128621,-26.916271,-23.799576,-15.499851,54.13673,-0.0939025,-0.47981414,-5.8140593,-1.911839,10.247365,-1.4826277,23.344389,-48.20646,58.93671,1.5421202,-0.61172503,8.46999,10.950268,-17.46224,8.682376,45.987953,-2.116963,-7.6810937,-6.2711973
107,9.433133125305176,66.41844177246094,77.36316680908203,-1.718012215876189,-1.1897072899772658,-178.72731977175025,3.9331877,3.2197225,3.348951,16.033352,-19.231247,0.61403376,-27.121922,-24.733866,-14.257973,53.53039,0.8704217,-1.4955124,-5.565475,-1.8961859,10.138421,-1.1245039,23.34002,-48.1067,59.128338,1.1804022,-0.6544502,8.4870205,10.825996,-17.367666,8.545795,45.506,-2.2902853,-7.8289504,-6.3652296
108,9.43642520904541,66.91893768310547,77.31785583496094,-1.572508314623011,-1.1264234022224326,-178.99269573817912,3.921701,3.5553982,3.5752594,16.002544,-19.256021,0.2004002,-27.31548,-25.583403,-12.957769,52.8513,1.772238,-2.4581378,-5.3193054,-1.9133075,10.030675,-0.8110403,23.324377,-47.990665,59.40117,0.86538744,-0.67561644,8.485386,10.668475,-17.16971,8.388409,45.130737,-2.5527048,-7.9527335,-6.4793572
109,9.440620422363281,67.4325180053711,77.26848602294922,-1.4253304203881687,-1.0616197314956692,-179.23129991358783,3.867106,3.9014363,3.7760282,16.058119,-19.30075,-0.23483767,-27.50056,-26.35043,-11.592829,52.10953,2.5916839,-3.4070375,-5.104776,-1.926458,9.925759,-0.51620096,23.29695,-47.84581,59.716908,0.59137654,-0.67975676,8.465559,10.497006,-16.953346,8.228171,44.81688,-2.868441,-8.0416,-6.5836873
110,9.433897972106934,67.95616149902344,77.21343231201172,-1.2711386673034817,-0.9980369005873364,-179.45648578346436,3.7831335,4.249308,3.966417,16.186636,-19.36686,-0.6803453,-27.686573,-27.036919,-10.147164,51.30914,3.3626337,-4.333718,-4.903843,-1.9431757,9.823082,-0.24248926,23.25597,-47.669376,60.073696,0.33977142,-0.6766092,8.433779,10.316352,-16.709988,8.061921,44.559544,-3.2243526,-8.1107435,-6.685053
111,9.406964302062988,68.48298645019531,77.1509017944336,-1.1184531128163575,-0.9433631269233882,-179.68012011363234,3.6922917,4.608192,4.150148,16.367945,-19.45261,-1.1307615,-27.849419,-27.626596,-8.641226,50.43877,4.102439,-5.1482034,-4.705452,-1.9580672,9.726369,0.010393007,23.202421,-47.47461,60.46275,0.11008724,-0.65001225,8.3822,10.133132,-16.441187,7.894591,44.36651,-3.6170354,-8.164997,-6.806272
112,9.385564804077148,69.02238464355469,77.07984161376953,-0.9761180019258857,-0.9049491736956727,-179.91392247405545,3.616551,4.987621,4.3307576,16.583858,-19.55582,-1.5806447,-27.960438,-28.105246,-7.0950828,49.485886,4.829579,-5.759015,-4.4998465,-1.9631788,9.640194,0.2475295,23.138462,-47.26855,60.86886,-0.0933222,-0.5834304,8.302808,9.954756,-16.153664,7.7327127,44.24269,-4.0403724,-8.208888,-6.9688435
113,9.35645580291748,69.56114196777344,77.00860595703125,-0.8448099398014993,-0.8902096550378142,179.83927992481912,3.5705278,5.3864675,4.507861,16.821281,-19.673449,-2.0208828,-27.992643,-28.459347,-5.488927,48.42395,5.598241,-6.096859,-4.282883,-1.9523444,9.572862,0.4698923,23.063873,-47.03736,61.288765,-0.24833809,-0.4510926,8.16365,9.7821,-15.845673,7.568671,44.200752,-4.5479937,-8.230993,-7.1932755
114,9.31952953338623,70.12394714355469,76.92741394042969,-0.7210730201298065,-0.8932636348168802,179.58542537707999,3.5357068,5.8026676,4.6795635,17.100452,-19.809185,-2.4569368,-27.954094,-28.703497,-3.81797,47.27109,6.383129,-6.222115,-4.060267,-1.9303255,9.519536,0.67654824,22.978304,-46.780212,61.728104,-0.36173204,-0.26849145,7.9790044,9.6099,-15.5159235,7.402624,44.23491,-5.1244593,-8.231528,-7.4626
115,9.276082038879395,70.68916320800781,76.8401107788086,-0.6074585570808059,-0.9021819719862947,179.32575523510795,3.5003655,6.243645,4.8486476,17.417757,-19.961771,-2.9050798,-27.867607,-28.863842,-2.1268265,46.080254,7.0841875,-6.238388,-3.8398507,-1.9022338,9.46632,0.8678718,22.885698,-46.52851,62.18333,-0.48165414,-0.082111865,7.810232,9.439342,-15.174547,7.255789,44.3173,-5.6580176,-8.23341,-7.7411923
116,9.234781265258789,71.27049255371094,76.74708557128906,-0.5064678559563269,-0.9050525108850271,179.06182340056702,3.4478042,6.716947,5.017309,17.780571,-20.135529,-3.3814101,-27.760439,-28.967274,-0.46188223,44.905884,7.6001945,-6.25103,-3.630905,-1.8712143,9.399903,1.0494988,22.792532,-46.310413,62.643105,-0.65523845,0.06265634,7.7183146,9.274146,-14.837451,7.149902,44.41663,-6.0341697,-8.260914,-7.9923525
117,9.18254566192627,71.85823822021484,76.64073944091797,-0.42206652668008554,-0.9011624606775671,178.79319936374273,3.3716767,7.2290325,5.187059,18.20322,-20.340746,-3.8894753,-27.619074,-28.998636,1.209953,43.73443,7.8751025,-6.2702904,-3.438781,-1.8293664,9.318621,1.2288055,22.702358,-46.13069,63.1094,-0.9226832,0.14747538,7.7418723,9.113949,-14.510823,7.0963936,44.545216,-6.1909895,-8.33373,-8.216489
118,9.119311332702637,72.45979309082031,76.52801513671875,-0.35168681421078113,-0.8965253687616976,178.51976515019797,3.2800236,7.7752666,5.3557606,18.680687,-20.572865,-4.4206343,-27.429663,-28.959858,2.8965492,42.551674,7.969093,-6.249514,-3.26046,-1.7753136,9.230183,1.4073458,22.616283,-45.971622,63.574173,-1.2496601,0.20026857,7.840222,8.959558,-14.1945715,7.08395,44.708904,-6.196597,-8.435939,-8.427954
119,9.055586814880371,73.06969451904297,76.40994262695312,-0.28807340738515896,-0.8889687478576501,178.24309583809892,3.1829002,8.345439,5.5210834,19.18159,-20.80875,-4.9727044,-27.221233,-28.897747,4.5109673,41.40187,7.961028,-6.2084203,-3.0938823,-1.7205079,9.136746,1.5804206,22.537367,-45.82693,64.01853,-1.5747929,0.2357238,7.9547186,8.817572,-13.894586,7.1015296,44.863415,-6.129843,-8.539427,-8.609802
120,8.995513916015625,73.69969940185547,76.28157806396484,-0.2236053328386143,-0.8761078448987254,177.96438209069396,3.0953732,8.928978,5.6818686,19.663681,-21.023062,-5.5437407,-27.0286,-28.85972,5.9708347,40.328087,7.9318666,-6.16325,-2.9362648,-1.6761392,9.0405655,1.7446297,22.470373,-45.691254,64.418076,-1.8375347,0.27282456,8.026798,8.695006,-13.621644,7.1368613,44.963882,-6.068448,-8.615293,-8.744789
121,8.924603462219238,74.34210205078125,76.14457702636719,-0.1554836645552393,-0.8563588404055189,177.6777067341517,3.0149784,9.526206,5.864437,20.133448,-21.22654,-6.1182046,-26.863823,-28.8481,7.294389,39.327164,7.839514,-6.160688,-2.7860453,-1.6444753,8.942346,1.908391,22.419348,-45.551006,64.7561,-2.0025215,0.3185959,8.030447,8.595124,-13.382079,7.1921954,44.988953,-5.9809856,-8.650264,-8.800116
122,8.857138633728027,74.98896026611328,75.99980926513672,-0.08793107259018784,-0.8312244359286866,177.38438731068322,2.935152,10.14208,6.0603666,20.608332,-21.426899,-6.7015495,-26.709633,-28.842068,8.513581,38.37887,7.664786,-6.177495,-2.647237,-1.6179453,8.842262,2.0756173,22.386057,-45.410717,65.03912,-2.1095917,0.36332676,7.999467,8.514571,-13.175829,7.274099,44.962624,-5.8401365,-8.661652,-8.792634
123,8.796653747558594,75.64886474609375,75.84939575195312,-0.024420190089598715,-0.8027294953732014,177.0964347965793,2.8553762,10.774637,6.215079,21.07823,-21.596384,-7.3235617,-26.55319,-28.84804,9.563261,37.490284,7.522053,-6.122982,-2.5250525,-1.5912617,8.741681,2.2376282,22.370604,-45.2876,65.27806,-2.205677,0.39952257,7.964723,8.451172,-13.002709,7.3760533,44.90687,-5.729142,-8.666022,-8.779205
124,8.721067428588867,76.33074188232422,75.69642639160156,0.030744692238236726,-0.7731498123569839,176.82579239748344,2.7721643,11.421976,6.27311,21.537935,-21.710579,-8.01387,-26.377382,-28.871601,10.375314,36.660583,7.529262,-5.9061303,-2.420231,-1.5410306,8.646196,2.3866627,22.369783,-45.208553,65.470375,-2.3433099,0.4193238,7.954918,8.422055,-12.898675,7.482664,44.81742,-5.717935,-8.680133,-8.805476
125,8.641040802001953,77.01519775390625,75.53353118896484,0.08278573557120894,-0.7500730578175608,176.57258253284087,2.7176218,12.073847,6.2261596,21.936678,-21.764906,-8.7950535,-26.181599,-28.951313,10.897411,35.868397,7.766733,-5.515448,-2.3411877,-1.4990667,8.552501,2.5158896,22.379265,-45.172688,65.649666,-2.543609,0.41442347,7.992535,8.396674,-12.810033,7.6158295,44.73693,-5.9035907,-8.712171,-8.927904
126,8.560944557189941,77.72618865966797,75.36868286132812,0.13147033714128004,-0.7304775429658567,176.3314509595481,2.6791008,12.735014,6.1005254,22.295212,-21.771845,-9.645998,-25.96818,-29.06955,11.1778345,35.108177,8.161871,-4.99134,-2.2746422,-1.4568659,8.46161,2.623804,22.39772,-45.18184,65.80597,-2.7795236,0.3907538,8.056358,8.391403,-12.751914,7.7609525,44.638187,-6.219569,-8.75145,-9.10126
127,8.482254028320312,78.45246124267578,75.20081329345703,0.1676952681278941,-0.701045186327788,176.10628274082381,2.5896094,13.421388,5.891526,22.710606,-21.730343,-10.530239,-25.723597,-29.157768,11.303477,34.40037,8.601275,-4.320541,-2.2287188,-1.4121501,8.363312,2.7103848,22.428505,-45.208965,65.94909,-3.0078216,0.3604705,8.121143,8.392263,-12.709772,7.9133234,44.54248,-6.5463696,-8.78655,-9.275288
128,8.41671085357666,79.20098114013672,75.02796936035156,0.1810844428529153,-0.6494082251471509,175.90131107442392,2.3853147,14.148064,5.5917964,23.275732,-21.63932,-11.411262,-25.4315,-29.151543,11.357526,33.762024,8.972919,-3.4923544,-2.1878445,-1.3414502,8.259569,2.7455916,22.44872,-45.244614,66.10659,-3.1778345,0.33401978,8.159533,8.4135685,-12.695604,8.019594,44.435276,-6.7694507,-8.809377,-9.377876
129,8.320253372192383,79.97625732421875,74.85489654541016,0.16056965856878277,-0.5676310726173805,175.7094075392865,2.0437384,14.921967,5.1766315,24.030466,-21.513445,-12.3059845,-25.158527,-28.99939,11.389491,33.291332,9.335081,-2.7100172,-2.1901593,-1.2659044,8.112357,2.7926283,22.503181,-45.27371,66.24386,-3.2971883,0.31304523,8.161557,8.418597,-12.676764,8.174953,44.36511,-6.8345327,-8.80883,-9.419628
130,8.247145652770996,80.77542114257812,74.68389129638672,0.11265667819279084,-0.46524429088790237,175.53103177262452,1.6004664,15.731124,4.650511,24.917202,-21.350006,-13.225449,-24.885338,-28.742535,11.342374,32.93751,9.716067,-1.9082162,-2.2020278,-1.1699127,7.957601,2.813756,22.575651,-45.310143,66.361855,-3.366697,0.29122797,8.136911,8.434111,-12.67355,8.30148,44.28562,-6.831743,-8.796782,-9.399274
131,8.185840606689453,81.58577728271484,74.50971984863281,0.05996962743153426,-0.3530946196711057,175.3828995428482,1.0866278,16.551706,4.0516114,25.862934,-21.112633,-14.12579,-24.472164,-28.467684,11.139028,32.492577,9.950549,-0.6817891,-2.2376454,-1.0844979,7.8107753,2.815512,22.688705,-45.341255,66.44246,-3.4126472,0.2798405,8.108586,8.455409,-12.6798115,8.416185,44.216415,-6.7747803,-8.782338,-9.367149
132,8.136226654052734,82.4297866821289,74.35359191894531,0.025752989499601087,-0.24244328339618898,175.28208118285,0.5344517,17.359911,3.418361,26.79541,-20.765186,-14.963658,-23.780466,-28.259655,10.68603,31.752693,9.870241,1.3598881,-2.2988288,-1.0394404,7.6867046,2.7596161,22.81375,-45.3618,66.53892,-3.448854,0.28551623,8.102376,8.475936,-12.676904,8.508205,44.18517,-6.695946,-8.775993,-9.369584
133,8.091961860656738,83.28608703613281,74.2021713256836,0.14814789314809088,-0.12599043659396603,175.25514038996852,-0.04519702,17.880554,2.7322583,27.667822,-20.276026,-15.000033,-22.679134,-28.32828,9.952497,30.465832,9.487605,4.869209,-2.414355,-1.1734625,7.571674,2.6485512,22.958603,-45.36358,66.65651,-3.467227,0.31614003,8.124462,8.495579,-12.647322,8.573406,44.19151,-6.598484,-8.7862835,-9.4327135
134,8.04922866821289,84.19515228271484,74.03860473632812,0.3520313464231218,-0.003589166913517939,175.27850732447465,-0.6645089,18.311705,2.0394,28.544937,-19.679874,-15.000033,-21.292908,-28.543978,8.873991,28.83662,8.880002,9.39364,-2.5651202,-1.4217674,7.4618616,2.4895434,23.128687,-45.357483,66.78703,-3.4650838,0.36550102,8.162713,8.512181,-12.589427,8.615022,44.23407,-6.474606,-8.805824,-9.531472
135,8.016908645629883,85.14215087890625,73.889892578125,0.5464549809124678,0.12130547309315821,175.34516045837861,-1.3049785,18.759106,1.3163707,29.364273,-18.963644,-15.000033,-19.919857,-28.743483,7.4965463,27.317984,8.005372,13.766125,-2.732784,-1.6877377,7.3693304,2.2783587,23.323456,-45.350567,66.91949,-3.4616234,0.42129838,8.21214,8.517123,-12.508426,8.645489,44.330784,-6.333389,-8.821387,-9.634919
136,7.992770671844482,86.1513671875,73.76918029785156,0.31100002153859263,0.29383957374230374,175.3288791108983,-2.0256376,19.758736,0.5136009,30.161339,-18.167109,-15.000033,-18.827696,-28.396036,5.3016863,26.239103,6.882244,15.000033,-2.7903545,-1.5576426,7.2799687,2.0064046,23.53327,-45.353607,67.04507,-3.4809659,0.47168356,8.27014,8.494817,-12.417773,8.676596,44.505478,-6.183353,-8.82078,-9.711139
137,7.991398811340332,87.16922760009766,73.67157745361328,0.07466499362556434,0.46624511377544664,175.39626391838806,-2.768244,20.735811,-0.43195033,30.81169,-17.18305,-15.000033,-18.059769,-27.908808,3.260642,25.766693,5.2676444,15.000033,-2.893394,-1.4381896,7.218719,1.6600826,23.75621,-45.380028,67.18309,-3.5410333,0.51009345,8.326222,8.455773,-12.317752,8.691696,44.74545,-6.030568,-8.794372,-9.758588
138,7.982181072235107,88.20188903808594,73.5988998413086,-0.04624133187877552,0.6228296248203896,175.5762730274315,-3.5044415,21.54488,-1.480901,31.317024,-16.018305,-15.000033,-17.469492,-27.46861,1.5043423,25.714827,3.1925952,15.000033,-3.0719216,-1.4425994,7.1914716,1.2441503,23.993227,-45.42381,67.33526,-3.626759,0.54342484,8.385151,8.406415,-12.204734,8.690804,45.041374,-5.8676395,-8.750568,-9.791209
139,7.980311870574951,89.24655151367188,73.54457092285156,-0.08062705353520425,0.7718891500520857,175.82574223720977,-4.139653,22.238197,-2.4951048,31.535706,-14.673319,-15.000033,-17.074772,-27.081867,-0.033080272,26.039913,0.9221764,15.000033,-3.2844472,-1.5475006,7.187431,0.77952373,24.24049,-45.458908,67.47932,-3.7026944,0.57678795,8.463605,8.340786,-12.087396,8.716404,45.406933,-5.678413,-8.70073,-9.801374
140,7.984349250793457,90.29150390625,73.51568603515625,-0.05384273853554515,0.923770954145021,176.10090520358932,-4.5835557,22.87113,-3.338844,31.324524,-13.144821,-15.000033,-16.900541,-26.744308,-1.4067923,26.6936,-1.2583245,15.000033,-3.4929628,-1.7292559,7.193204,0.2877815,24.491058,-45.45872,67.594025,-3.736515,0.6150123,8.578203,8.253141,-11.981273,8.815789,45.853806,-5.4427905,-8.655881,-9.780413
141,7.992300510406494,91.34691619873047,73.51211547851562,0.0724844512363441,1.080939871947839,176.4178560371422,-4.770272,23.408072,-3.9802823,30.5435,-11.400537,-15.000033,-17.04526,-26.513287,-2.5815957,27.822134,-3.3579173,15.000033,-3.706838,-2.0212054,7.211836,-0.24510655,24.740133,-45.429394,67.68825,-3.7180598,0.6664638,8.752519,8.140799,-11.896558,9.008042,46.39612,-5.0957317,-8.624107,-9.718725
142,7.980615615844727,92.39794921875,73.53587341308594,0.29514361596616806,1.2299320904807867,176.79788407703813,-4.7674413,23.849009,-4.508275,29.332832,-9.468638,-15.000033,-17.447702,-26.392673,-3.575058,29.386185,-5.5024295,15.000033,-3.950866,-2.4157288,7.254175,-0.82211494,24.985392,-45.37473,67.77029,-3.6626837,0.7258929,8.971426,8.008174,-11.83416,9.270486,47.020615,-4.6627374,-8.596771,-9.621993
143,7.987038612365723,93.45718383789062,73.58150482177734,0.5285408793958595,1.3624438376632542,177.20283971399124,-4.7007084,24.297112,-4.9722466,27.982077,-7.4369946,-15.000033,-17.909473,-26.282236,-4.502362,31.067797,-7.569106,15.000033,-4.208864,-2.829491,7.314603,-1.4053717,25.222734,-45.265858,67.819046,-3.5772722,0.77767605,9.193017,7.8601837,-11.795279,9.588739,47.698456,-4.2595267,-8.560124,-9.5045595
144,8.00241756439209,94.5345230102539,73.64339447021484,0.6849981615311872,1.475963796837533,177.58990664139816,-4.698244,24.851433,-5.413737,26.770454,-5.3873086,-15.000033,-18.236242,-26.073956,-5.481221,32.547176,-9.442831,14.977253,-4.4613366,-3.1777856,7.383536,-1.9554024,25.447346,-45.069546,67.81395,-3.4648232,0.80591774,9.375544,7.7011404,-11.7822,9.950389,48.402107,-4.0011997,-8.50108,-9.3810215
145,8.007415771484375,95.64877319335938,73.72705841064453,0.5241128676566077,1.6244961717432025,177.82861715429334,-4.8095884,25.808939,-5.896832,25.720013,-3.2799585,-15.000033,-18.420473,-25.368788,-6.7245603,33.660217,-11.01903,13.751655,-4.5940876,-3.2330637,7.4363766,-2.4615443,25.65222,-44.740402,67.754295,-3.3005755,0.80681026,9.529389,7.5049987,-11.799683,10.373435,49.176125,-3.9438996,-8.412659,-9.247893
146,8.022780418395996,96.76165008544922,73.8251953125,0.30502481798437797,1.763024953891175,178.04225311955435,-4.9762745,26.828714,-6.409899,24.751842,-1.1110678,-15.000033,-18.552359,-24.559624,-7.9705067,34.651913,-12.411267,12.439367,-4.7125225,-3.2421424,7.500471,-2.9451165,25.836212,-44.302574,67.656906,-3.0862944,0.7880964,9.669001,7.2816925,-11.847922,10.862989,50.016434,-4.015253,-8.302903,-9.099771
147,8.030470848083496,97.87480163574219,73.93441772460938,0.04265848884765285,1.8915557359027484,178.2749260637925,-5.27125,27.91937,-6.8388863,24.002888,0.97929007,-15.000033,-18.591564,-23.670992,-9.194124,35.46652,-13.633992,11.20466,-4.8548303,-3.2116833,7.557078,-3.4210904,26.001593,-43.84401,67.52458,-2.8827825,0.75178665,9.762067,7.0781236,-11.926068,11.3806305,50.832054,-4.141919,-8.183732,-8.947331
148,8.031758308410645,98.99784088134766,74.04130554199219,-0.25032314007390755,2.0098616384456283,178.5697770092098,-5.760688,29.089272,-7.0668364,23.594416,2.8510137,-15.000033,-18.49327,-22.729828,-10.372248,36.051388,-14.708938,10.213567,-5.048588,-3.1460948,7.5883603,-3.9139342,26.146105,-43.463852,67.36783,-2.7521365,0.69956136,9.776602,6.9431257,-12.029447,11.875807,51.531406,-4.2539835,-8.066762,-8.801296
149,8.009720802307129,100.12406921386719,74.15050506591797,-0.591753802509058,2.1024223659138532,178.9376475956188,-6.4940352,30.400333,-7.0314484,23.575647,4.6508455,-15.000033,-18.166107,-21.704824,-11.4873,36.30477,-15.607908,9.612199,-5.306657,-3.028984,7.604128,-4.4035964,26.28429,-43.14429,67.16228,-2.7133715,0.6251526,9.655715,6.8863297,-12.165378,12.367409,52.097828,-4.338841,-7.949408,-8.656977
150,8.005736351013184,101.25325775146484,74.25611877441406,-0.992027511672614,2.170195858747601,179.34938057493784,-7.424317,31.834097,-6.830225,23.87012,6.3800464,-15.000033,-17.651138,-20.578531,-12.560361,36.267666,-16.328043,9.274382,-5.5943522,-2.8539448,7.615152,-4.8994155,26.408173,-42.865883,66.920265,-2.7389097,0.5299403,9.432736,6.8870564,-12.32805,12.855702,52.575985,-4.4368773,-7.827809,-8.510327
151,7.982179641723633,102.36180114746094,74.3517074584961,-1.4234845894768913,2.2367044129213087,179.78765115481562,-8.43287,33.284824,-6.5474186,24.349346,7.725838,-15.000033,-17.097044,-19.402021,-13.623711,36.11149,-16.936419,8.962685,-5.90146,-2.6415963,7.60983,-5.4192586,26.511505,-42.667908,66.65257,-2.8061502,0.42873546,9.2091055,6.9274254,-12.513333,13.300537,52.969463,-4.5440235,-7.710397,-8.373885
152,7.94124698638916,103.4428482055664,74.46491241455078,-1.6857096645808842,2.3444881995186937,-179.71825711931402,-9.4100485,34.463673,-5.925411,24.875216,8.393077,-14.058452,-16.732347,-18.46313,-14.633774,36.12107,-17.54434,8.493854,-6.268036,-2.5639129,7.547329,-5.966108,26.599298,-42.57838,66.34859,-2.891224,0.33550617,9.085796,7.0008907,-12.730643,13.6708975,53.26036,-4.6468096,-7.6047235,-8.255647
153,7.915308475494385,104.4952621459961,74.57791900634766,-1.7409278520237508,2.535943794072328,-179.1197120900896,-10.390112,35.371277,-4.9213357,25.391281,8.198604,-12.315635,-16.647099,-17.847279,-15.634639,36.44211,-18.204624,7.7863245,-6.726703,-2.6644297,7.374781,-6.582391,26.666527,-42.666924,66.039925,-3.0609715,0.2504667,9.085177,7.113365,-12.965938,13.961557,53.430725,-4.7928505,-7.5099845,-8.1701765
154,7.897544860839844,105.52310943603516,74.68338012695312,-1.785019426766346,2.7679403917977,-178.47040782800403,-11.349708,36.245865,-3.768435,25.925953,7.32892,-10.514134,-16.648865,-17.279442,-16.682207,36.850502,-18.841936,6.9236894,-7.2227325,-2.7587028,7.1451797,-7.2546115,26.710073,-42.90035,65.71956,-3.3064296,0.16732752,9.1553955,7.265089,-13.220851,14.185926,53.49477,-4.9730263,-7.422957,-8.108708
155,7.892508029937744,106.50312042236328,74.77349853515625,-1.816452874380376,2.980778875053621,-177.844150212085,-12.088083,36.98984,-2.5782948,26.429451,6.0935283,-8.929163,-16.63902,-16.721104,-17.698421,37.22205,-19.437698,6.008392,-7.6968646,-2.8403943,6.9262314,-7.9329586,26.720821,-43.177273,65.36303,-3.486241,0.088496886,9.286983,7.4437294,-13.4915,14.319335,53.499313,-5.102429,-7.3487864,-8.049833
156,7.905897617340088,107.46316528320312,74.87215423583984,-1.8394947957300722,3.1153456152599577,-177.31459559229282,-12.428849,37.522076,-1.449357,26.874918,4.821161,-7.807597,-16.524868,-16.12521,-18.60811,37.428154,-19.9624,5.142772,-8.090939,-2.9025195,6.7846823,-8.571986,26.687714,-43.401623,64.95403,-3.4632392,0.017052827,9.471277,7.636344,-13.774137,14.336427,53.494476,-5.097333,-7.2929144,-7.97336
157,7.898810386657715,108.38829040527344,74.98480987548828,-1.869865563894647,3.160966336436438,-176.8897377376925,-12.301428,37.854607,-0.30660033,27.216024,3.5423481,-7.31068,-16.281034,-15.46345,-19.412872,37.41491,-20.398006,4.323118,-8.397162,-2.929777,6.740096,-9.175409,26.60185,-43.5582,64.49433,-3.1350942,-0.036821503,9.737336,7.8470287,-14.071528,14.201125,53.470287,-4.938887,-7.2595935,-7.855484
158,7.886821746826172,109.27696228027344,75.09349822998047,-1.9023935203578604,3.149384534669882,-176.5327064461296,-11.833205,38.014763,0.86595756,27.509233,2.118685,-7.265182,-15.959854,-14.763856,-20.14911,37.257664,-20.762999,3.5061061,-8.645919,-2.9293404,6.753631,-9.767607,26.46037,-43.69339,64.00326,-2.595972,-0.076264754,10.080562,8.085289,-14.38566,13.937444,53.40757,-4.6700287,-7.244526,-7.713208
159,7.869365692138672,110.14881134033203,75.19656372070312,-1.9153829883582114,3.0856100192346525,-176.25032062124845,-11.156989,37.957924,1.888359,27.879454,0.6335738,-7.393734,-15.587626,-14.057157,-20.796106,37.01529,-21.070213,2.7322023,-8.83694,-2.926626,6.8040643,-10.332196,26.263924,-43.80272,63.491276,-2.0004847,-0.11892151,10.441909,8.342942,-14.710691,13.609158,53.34539,-4.300215,-7.240135,-7.5882998
160,7.839629650115967,110.99590301513672,75.30526733398438,-1.8869307952555445,2.972982969851555,-176.0505771274086,-10.400421,37.639347,2.5710359,28.441498,-0.83152765,-7.4211955,-15.19012,-13.375391,-21.332176,36.747047,-21.33119,2.0410895,-8.971739,-2.9491544,6.8709116,-10.845357,26.017319,-43.87282,62.96316,-1.4958805,-0.184817,10.762096,8.604409,-15.036815,13.284294,53.328125,-3.8387263,-7.2397327,-7.523955
161,7.825930595397949,111.82916259765625,75.40985107421875,-1.7997753071278235,2.7871513074540037,-175.9675060596873,-9.549843,36.987988,2.7767825,29.256731,-2.2840307,-7.2501807,-14.758242,-12.733223,-21.722946,36.463852,-21.536083,1.4537483,-9.025373,-3.021773,6.9715023,-11.285456,25.72388,-43.874554,62.40154,-1.105111,-0.28370583,11.04796,8.859152,-15.356119,12.958402,53.37709,-3.232409,-7.24779,-7.545489
162,7.80492639541626,112.6398696899414,75.51249694824219,-1.6723878511792514,2.535212733629968,-175.9864626583151,-8.585444,36.02622,2.6144388,30.271564,-3.7604032,-7.0294824,-14.284058,-12.110583,-21.993568,36.13623,-21.679464,0.9426709,-9.0073395,-3.1253822,7.108418,-11.666225,25.386171,-43.820034,61.806957,-0.7516129,-0.4035303,11.32345,9.110307,-15.668691,12.605067,53.472584,-2.4957664,-7.2674184,-7.6270857
163,7.756471633911133,113.43148040771484,75.61483001708984,-1.535405785403824,2.2668193356447657,-176.04341674029234,-7.583498,34.85761,2.2822838,31.374514,-5.205966,-6.859301,-13.791497,-11.487846,-22.21082,35.76003,-21.777967,0.47445688,-8.969841,-3.2218976,7.241017,-12.020858,25.011047,-43.76962,61.21017,-0.44438338,-0.5335892,11.555248,9.3636265,-15.9765215,12.258917,53.594402,-1.740475,-7.289551,-7.7349653
164,7.699577331542969,114.20466613769531,75.7114028930664,-1.419411127393123,2.030665674943712,-176.07388605855186,-6.6183915,33.608078,1.9796346,32.461533,-6.5758266,-6.839447,-13.305967,-10.845804,-22.439503,35.333553,-21.851046,0.017462144,-8.966526,-3.2748826,7.3291426,-12.377833,24.607136,-43.776222,60.64055,-0.18789059,-0.6664787,11.709409,9.625801,-16.282038,11.955225,53.721348,-1.0784343,-7.3043065,-7.8354945
165,7.646812438964844,114.9642562866211,75.79753112792969,-1.3326557072862242,1.8298863602739044,-176.07373441237795,-5.6759415,32.300343,1.7152987,33.518333,-7.8731875,-7.040476,-12.820957,-10.173151,-22.683577,34.84316,-21.899946,-0.42285508,-9.007306,-3.274935,7.3659196,-12.724125,24.17899,-43.84429,60.084766,-0.0124501595,-0.7980452,11.760088,9.893708,-16.58745,11.707179,53.858177,-0.48858395,-7.3119655,-7.9380207
166,7.576551914215088,115.70748901367188,75.88530731201172,-1.2592133194229571,1.6418526828133053,-176.07265869068047,-4.7322745,30.881691,1.3988856,34.605427,-9.129113,-7.3964114,-12.325319,-9.481507,-22.91326,34.291306,-21.9143,-0.8332084,-9.0661745,-3.242105,7.373119,-13.043938,23.727846,-43.943108,59.525097,0.09752954,-0.93477535,11.729963,10.16632,-16.892412,11.494378,54.010174,0.07215181,-7.3170958,-8.053973
167,7.554986953735352,116.4422378540039,75.96131896972656,-1.1928981772043352,1.47590052403345,-176.05673064015866,-3.8287964,29.380638,1.0863832,35.706486,-10.333252,-7.8005757,-11.836201,-8.785039,-23.142227,33.697037,-21.894093,-1.2338272,-9.1418085,-3.183454,7.352675,-13.365422,23.259905,-44.0866,58.974464,0.19175686,-1.0753857,11.658314,10.452837,-17.193718,11.303718,54.157825,0.52572846,-7.3143306,-8.152787
168,7.509864330291748,117.16936492919922,76.03717041015625,-1.1274444976357185,1.3413269158928633,-176.01252762854932,-3.002461,27.825308,0.8321835,36.79743,-11.461284,-8.145677,-11.373774,-8.099579,-23.38432,33.083588,-21.841187,-1.6460315,-9.230963,-3.107478,7.30721,-13.712735,22.783405,-44.284286,58.441185,0.32497847,-1.2181133,11.58425,10.762959,-17.485107,11.120418,54.282413,0.79290676,-7.297576,-8.204037
169,7.464388847351074,117.8818588256836,76.11156463623047,-1.0654875147117613,1.2484109957860454,-175.93688173380394,-2.2687407,26.227589,0.6500024,37.89166,-12.4914465,-8.409523,-10.94869,-7.427124,-23.65086,32.446648,-21.742977,-2.0823476,-9.32752,-3.0107584,7.2315545,-14.082786,22.302643,-44.520473,57.906204,0.5222102,-1.3684607,11.492476,11.094481,-17.764574,10.9459715,54.381275,0.7754833,-7.2522063,-8.1915865
170,7.427452564239502,118.5951919555664,76.17494201660156,-1.0087419144159435,1.18915340675914,-175.83724749762382,-1.592414,24.581652,0.51180243,38.982426,-13.431475,-8.647395,-10.550297,-6.7613277,-23.932302,31.778513,-21.602308,-2.53021,-9.434702,-2.892818,7.1277795,-14.462515,21.820282,-44.797577,57.364788,0.74640816,-1.5253283,11.370318,11.442161,-18.032228,10.787352,54.465107,0.5403988,-7.185606,-8.134622
171,7.38315486907959,119.30255889892578,76.23259735107422,-0.9493413757329895,1.1441968384984793,-175.71625160509444,-0.93223745,22.884054,0.40841016,40.004105,-14.298328,-8.868893,-10.168952,-6.10559,-24.210348,31.101982,-21.446012,-2.9747534,-9.562086,-2.7685003,7.009989,-14.851202,21.341131,-45.136818,56.839684,0.976619,-1.6757665,11.260146,11.809716,-18.283096,10.636703,54.536777,0.2549235,-7.1250305,-8.055775
172,7.331934452056885,120.0012435913086,76.2892074584961,-0.8802241728063335,1.0944760897154553,-175.576736134388,-0.24981034,21.126028,0.33090135,40.886345,-15.107008,-9.083798,-9.793918,-5.4617805,-24.466324,30.437387,-21.29973,-3.4017081,-9.717881,-2.6535068,6.892025,-15.2507305,20.87126,-45.566456,56.35504,1.18668,-1.8065318,11.204267,12.199806,-18.508865,10.485782,54.600655,0.085745476,-7.0972195,-7.978889
173,7.2781219482421875,120.68701171875,76.33946990966797,-0.7916956265523382,1.033161721022146,-175.41086009325554,0.45664635,19.299572,0.3067914,41.64494,-15.872296,-9.241595,-9.411536,-4.8317714,-24.687954,29.771042,-21.177221,-3.7933967,-9.907504,-2.5641446,6.7762856,-15.647267,20.412905,-46.087353,55.899536,1.3747023,-1.9041907,11.239104,12.621014,-18.703205,10.331915,54.649868,0.05689037,-7.113966,-7.910572
174,7.218024730682373,121.3695068359375,76.38349914550781,-0.6907358287311426,0.9707454387274023,-175.2199999837756,1.1719882,17.409647,0.3267781,42.291016,-16.573442,-9.354592,-9.033215,-4.2153554,-24.887642,29.099825,-21.061304,-4.164985,-10.124711,-2.4905863,6.6560025,-16.041332,19.966644,-46.688637,55.46172,1.5518987,-1.9780831,11.332977,13.065802,-18.86449,10.180902,54.688663,0.0847142,-7.1595616,-7.8394575
175,7.175869464874268,122.04373931884766,76.41748046875,-0.5947911222635388,0.9142837537437472,-175.0210183108024,1.9069842,15.462602,0.3297812,42.744514,-17.171917,-9.525285,-8.68556,-3.6113286,-25.08299,28.462824,-20.934145,-4.5482397,-10.359289,-2.4114146,6.531057,-16.456562,19.536787,-47.382732,55.066475,1.7111768,-2.048989,11.425803,13.51576,-18.994686,10.03261,54.737564,0.17115004,-7.21939,-7.76305
176,7.139404296875,122.70126342773438,76.44735717773438,-0.5217680632259531,0.8709775114601435,-174.83050101526422,2.6709714,13.466193,0.25599948,42.92989,-17.634687,-9.855925,-8.392634,-3.01624,-25.29399,27.89588,-20.777842,-4.972664,-10.600736,-2.3045466,6.40228,-16.918098,19.13006,-48.187374,54.736515,1.8391777,-2.1382203,11.457308,13.952711,-19.097124,9.886306,54.81474,0.31914955,-7.2785516,-7.6781783
177,7.1057448387146,123.34280395507812,76.47000885009766,-0.46129523647883625,0.839867562430379,-174.64930759528198,3.470618,11.41481,0.15233342,42.84934,-18.00374,-10.291427,-8.136597,-2.448897,-25.536638,27.383888,-20.607443,-5.44867,-10.850076,-2.174696,6.2748165,-17.429108,18.750298,-49.12381,54.460686,1.9237564,-2.2541938,11.408524,14.3723545,-19.176592,9.741336,54.923794,0.5774768,-7.349378,-7.572877
178,7.085232257843018,123.9930419921875,76.47528839111328,-0.410653508241022,0.8184736853677466,-174.4692359532021,4.300742,9.310493,0.024101583,42.524925,-18.277695,-10.801973,-7.9103475,-1.9009799,-25.800177,26.914242,-20.427076,-5.9581857,-11.113769,-2.027388,6.1488047,-17.970798,18.397366,-50.177704,54.22086,1.9709724,-2.3844087,11.311525,14.784608,-19.232126,9.599871,55.051807,0.9296634,-7.4336514,-7.4509616
179,7.067129611968994,124.64042663574219,76.47062683105469,-0.3989366627822455,0.8122010772707631,-174.29315041783178,5.1581016,7.174731,-0.24680266,41.90784,-18.364014,-11.525955,-7.7528763,-1.328975,-26.0653,26.524542,-20.201424,-6.4856935,-11.389258,-1.8444254,6.0178766,-18.529202,18.071161,-51.30331,54.026936,2.007493,-2.5182376,11.182696,15.1902685,-19.258024,9.463877,55.19562,1.2798665,-7.5016084,-7.334197
180,7.048368453979492,125.30023956298828,76.46346282958984,-0.45508978835697,0.8268575513470691,-174.1237183271448,6.0426483,5.032518,-0.7786677,40.95202,-18.182579,-12.601279,-7.702954,-0.6908114,-26.313553,26.252476,-19.895195,-7.0163045,-11.674828,-1.6077706,5.8756022,-19.08921,17.772139,-52.451225,53.888985,2.0638263,-2.6450326,11.038556,15.589643,-19.244688,9.338083,55.353172,1.5314031,-7.524164,-7.245462
181,7.0388288497924805,125.9647216796875,76.44690704345703,-0.5925257644461507,0.8659006037265602,-173.9752496398904,7.010189,2.8615468,-1.6539502,39.540634,-17.670149,-14.18186,-7.7773795,0.04317587,-26.514503,26.119247,-19.52468,-7.575521,-11.9575205,-1.3092508,5.7153153,-19.659275,17.504326,-53.647118,53.81775,2.1633778,-2.7653708,10.873291,15.982545,-19.186987,9.229793,55.530464,1.6474129,-7.4820485,-7.2003217
182,7.044809341430664,126.60338592529297,76.423583984375,-0.6185948988134173,0.9311694738493131,-173.81581707300742,8.115263,0.36865956,-2.7526867,37.55796,-16.814106,-15.000033,-8.100648,0.53787935,-26.646112,26.464132,-19.275408,-8.110648,-12.267405,-1.1198759,5.5044327,-20.242054,17.269192,-54.908764,53.801083,2.281871,-2.883894,10.681556,16.365236,-19.084679,9.136403,55.72999,1.6812901,-7.395528,-7.185368
183,7.062219619750977,127.22869110107422,76.39844512939453,-0.5760933056237726,1.0107302827760551,-173.63166539495873,9.2996645,-2.262427,-4.0195107,35.2118,-15.777888,-15.000033,-8.603842,0.8419696,-26.778643,27.170961,-19.066338,-8.587944,-12.615689,-0.9987695,5.2721663,-20.818367,17.06142,-56.171494,53.82022,2.3835099,-2.9950507,10.480039,16.732773,-18.939856,9.046608,55.945507,1.6716747,-7.2946563,-7.1799397
184,7.073552131652832,127.85769653320312,76.37147521972656,-0.6217132196412994,1.0966691623513674,-173.41719839792074,10.428475,-4.651871,-5.413352,32.867107,-14.797264,-15.000033,-9.132975,1.1987902,-27.020298,27.887896,-18.701824,-9.00636,-13.007128,-0.8003675,5.068355,-21.371645,16.872982,-57.367657,53.86351,2.434491,-3.093967,10.285528,17.080587,-18.757544,8.950767,56.170612,1.6585052,-7.2092686,-7.1636405
185,7.107249736785889,128.47169494628906,76.33869934082031,-0.7552061159208665,1.1889835877735164,-173.17646490051433,11.517676,-6.83521,-7.0056067,30.484526,-13.86062,-15.000033,-9.702165,1.5927281,-27.385437,28.6429,-18.16226,-9.351346,-13.44771,-0.5158866,4.8926983,-21.913124,16.69892,-58.496925,53.940147,2.408361,-3.1884496,10.08808,17.399277,-18.546597,8.855752,56.41849,1.6437799,-7.1450534,-7.1387663
186,7.154522895812988,129.09767150878906,76.31305694580078,-0.9753847825598512,1.2906307871486145,-172.91674928208317,12.6194935,-8.834292,-8.827944,27.973185,-12.910694,-15.000033,-10.32654,2.0288663,-27.844862,29.458998,-17.481089,-9.648603,-13.929473,-0.14555,4.7401366,-22.449196,16.537228,-59.581642,54.058865,2.3361268,-3.278168,9.883563,17.69641,-18.310131,8.764619,56.68431,1.6113206,-7.0865183,-7.11197
187,7.206033229827881,129.72430419921875,76.2926025390625,-1.2802575572033543,1.4076463693152148,-172.61316667841734,13.652238,-10.539694,-10.668049,25.520126,-11.990142,-15.000033,-10.965135,2.5281672,-28.402634,30.22089,-16.649809,-9.911475,-14.458249,0.2997642,4.612987,-22.97255,16.38797,-60.61349,54.217964,2.24164,-3.3475301,9.699076,17.993074,-18.039402,8.664936,56.937176,1.5750756,-7.0312753,-7.069853
188,7.284282207489014,130.36770629882812,76.27982330322266,-1.6516392136443887,1.5465727550331991,-172.2403063446932,14.514102,-11.887944,-12.281679,23.318048,-11.127424,-15.000033,-11.58898,3.089631,-29.056131,30.836796,-15.670888,-10.147719,-15.038493,0.78959554,4.5081697,-23.475409,16.253471,-61.58866,54.416718,2.1481838,-3.3813162,9.562005,18.307556,-17.721056,8.542892,57.150486,1.5467011,-6.9774756,-7.000842
189,7.393222808837891,131.04244995117188,76.2774658203125,-2.0816525628835154,1.7285318819552815,-171.7675404879129,15.129676,-12.879188,-13.548677,21.442865,-10.287575,-15.000033,-12.222073,3.689107,-29.83393,31.31295,-14.548312,-10.357648,-15.700972,1.3178092,4.4086766,-23.965706,16.136177,-62.53776,54.670635,2.0568583,-3.3653321,9.495897,18.638676,-17.343544,8.393126,57.32003,1.5293343,-6.924661,-6.8927255
190,7.502547740936279,131.72547912597656,76.28147888183594,-2.5553648015888943,1.9452092020115368,-171.2167815498312,15.543437,-13.605607,-14.567094,19.801205,-9.458003,-15.000033,-12.89023,4.296339,-30.719091,31.722153,-13.293553,-10.526452,-16.429356,1.870716,4.317926,-24.44928,16.037798,-63.46554,54.979115,1.9508059,-3.311577,9.481216,18.976742,-16.904285,8.223082,57.465008,1.512955,-6.874531,-6.7576146
191,7.6235761642456055,132.41053771972656,76.29627990722656,-3.0374180325554283,2.159379287930405,-170.63942269973282,15.829152,-14.156219,-15.399586,18.309927,-8.648339,-15.000033,-13.566793,4.8925714,-31.63695,32.075806,-11.921727,-10.638091,-17.163347,2.400337,4.259842,-24.900204,15.958705,-64.30662,55.311092,1.84846,-3.242861,9.480419,19.325573,-16.403797,8.0427885,57.594,1.4913081,-6.8285365,-6.620019
192,7.772204875946045,133.13095092773438,76.3252182006836,-3.4997805028618716,2.3332969665125542,-170.08567703110418,16.066566,-14.605324,-16.126074,16.884365,-7.8867636,-15.000033,-14.220154,5.470382,-32.514774,32.382076,-10.4470005,-10.682458,-17.846476,2.8652425,4.256662,-25.294014,15.899785,-64.9953,55.63695,1.7652855,-3.1822839,9.45546,19.688278,-15.846219,7.863063,57.71437,1.4591078,-6.788011,-6.5037365
193,7.931178092956543,133.86593627929688,76.3546371459961,-3.9332453891005015,2.45620926327826,-169.546368913874,16.258984,-14.962437,-16.72887,15.5349455,-7.217342,-15.000033,-14.847017,6.005259,-33.36522,32.66565,-8.849277,-10.644633,-18.489624,3.2470162,4.3175297,-25.63384,15.865644,-65.5237,55.97427,1.6903017,-3.1410666,9.404656,20.066456,-15.229064,7.6817355,57.817123,1.40348,-6.743141,-6.4139233
194,8.100330352783203,134.61573791503906,76.37943267822266,-4.343348735759996,2.5469968471100013,-169.00266375444176,16.370878,-15.21513,-17.165771,14.284227,-6.5972404,-15.000033,-15.4656925,6.4961896,-34.20577,32.930435,-7.1360564,-10.535202,-19.116632,3.5567682,4.4246016,-25.9228,15.858126,-65.91219,56.32722,1.63292,-3.1044447,9.345254,20.45513,-14.552433,7.497477,57.903294,1.3312256,-6.69678,-6.338361
195,8.281014442443848,135.3799285888672,76.40379333496094,-4.730335968127297,2.6117659886411975,-168.48933324705396,16.41868,-15.390777,-17.483686,13.080775,-5.9373584,-15.000033,-16.07215,6.9814186,-34.97541,33.144985,-5.3594007,-10.38422,-19.688507,3.8066218,4.5572276,-26.168419,15.879085,-66.18616,56.65475,1.581274,-3.0600176,9.268189,20.851652,-13.829375,7.3216753,57.991253,1.2707834,-6.6684203,-6.273028
196,8.477714538574219,136.15899658203125,76.42366027832031,-5.096221381811094,2.6561073418552796,-168.04156318788392,16.421902,-15.511291,-17.734163,11.868284,-5.148512,-15.000033,-16.660809,7.5038776,-35.614918,33.26833,-3.5665257,-10.218062,-20.169682,4.014842,4.696963,-26.365416,15.927759,-66.34598,56.910538,1.5465944,-2.9941292,9.164742,21.254015,-13.079159,7.1680994,58.096493,1.2522202,-6.67688,-6.212322
197,8.676861763000488,136.92935180664062,76.43157958984375,-5.472635136540324,2.7014234797330756,-167.66957205920568,16.471554,-15.562775,-18.00023,10.397821,-4.0868063,-15.000033,-17.245342,8.089418,-36.183067,33.281292,-1.756787,-10.060294,-20.556675,4.2269425,4.832042,-26.507694,16.005318,-66.366394,57.079296,1.5384556,-2.8874984,9.005821,21.674324,-12.30795,7.025199,58.212334,1.3169717,-6.741566,-6.169514
198,8.881263732910156,137.70457458496094,76.42800903320312,-5.849691026190982,2.7364887107937075,-167.3547899668188,16.575459,-15.525113,-18.239952,8.676739,-2.789659,-15.000033,-17.821348,8.7163515,-36.684563,33.20009,0.09538066,-9.887484,-20.86895,4.426762,4.9747486,-26.603277,16.11488,-66.25429,57.18432,1.543455,-2.7532175,8.805543,22.11107,-11.5145035,6.8930273,58.329334,1.4414316,-6.8467913,-6.1396933
199,9.098590850830078,138.50491333007812,76.4227523803711,-6.153918278169311,2.716645692509995,-167.09209889577562,16.29553,-15.542764,-18.221966,7.756382,-1.808895,-15.000033,-18.363277,9.339496,-36.96869,33.06019,1.9684948,-9.647551,-21.10198,4.525112,5.138965,-26.657042,16.254225,-66.038765,57.235653,1.5615432,-2.6248958,8.620146,22.540974,-10.712798,6.8008733,58.45984,1.5581574,-6.959336,-6.0903516
200,9.31429672241211,139.33221435546875,76.42020416259766,-6.302859093883763,2.5975433059831214,-166.87861330721122,15.684659,-15.608299,-17.850695,7.6227365,-1.1381823,-15.000033,-18.84779,9.906467,-36.87407,32.907433,3.836117,-9.283231,-21.248373,4.427368,5.3302693,-26.687792,16.422209,-65.7783,57.249687,1.5569298,-2.5391634,8.50637,22.944862,-9.925533,6.7772284,58.614838,1.6028816,-7.0456653,-5.9866095
201,9.55411148071289,140.19773864746094,76.42060852050781,-6.242777810546238,2.3304962958954336,-166.73843180154688,15.079009,-15.612818,-17.12314,7.4944253,-0.27808127,-15.000033,-19.18144,10.402069,-36.334152,32.695522,5.6810765,-8.820747,-21.290195,4.0757527,5.5699434,-26.677309,16.614342,-65.46212,57.22726,1.4874214,-2.5183325,8.486719,23.317505,-9.166811,6.837308,58.803856,1.5713402,-7.0998874,-5.8145843
202,9.769092559814453,141.03684997558594,76.47746276855469,-6.019461203121189,1.947998028005945,-166.67424824023993,13.751322,-15.789326,-15.945351,8.930189,-0.11690331,-15.000033,-19.399534,10.857253,-35.419903,32.430862,7.5124393,-8.264382,-21.2297,3.5287306,5.842498,-26.629826,16.83267,-65.0845,57.165585,1.357683,-2.5414004,8.529186,23.674078,-8.437053,6.9653087,59.017326,1.499127,-7.1380687,-5.590125
203,9.970941543579102,141.86431884765625,76.54790496826172,-5.709595000549679,1.533412980773156,-166.64704532458646,12.172859,-15.972456,-14.614048,11.071825,-0.41432372,-15.000033,-19.666685,11.312945,-34.17933,32.213142,9.349886,-7.514876,-21.10467,2.8769915,6.104015,-26.540947,17.076654,-64.6114,57.053562,1.310535,-2.5722451,8.609,24.018354,-7.731897,7.150308,59.239956,1.3795583,-7.1607885,-5.323845
204,10.170997619628906,142.6710205078125,76.61739349365234,-5.410979887532624,1.177807616979743,-166.60542559127862,10.512323,-16.079283,-13.342487,13.700127,-1.2458777,-15.000033,-20.147867,11.842395,-32.675243,32.10936,11.222072,-6.4624224,-20.960571,2.2337606,6.3104243,-26.432545,17.349527,-64.04911,56.887314,1.4448276,-2.5766706,8.701221,24.356985,-7.0468388,7.377896,59.45447,1.2060714,-7.168768,-5.0266557
205,10.401942253112793,143.4982452392578,76.61450958251953,-5.081239145593787,0.9057945512313761,-166.5225119659128,8.720871,-16.23123,-12.03633,17.04667,-2.7381816,-13.798488,-21.017542,12.40572,-30.756845,32.384468,13.017273,-5.064272,-20.817867,1.5677764,6.427686,-26.315456,17.656301,-63.385593,56.67094,1.8314764,-2.543888,8.79994,24.700344,-6.3698573,7.64804,59.660587,0.94812965,-7.1569424,-4.6826863
206,10.653809547424316,144.29940795898438,76.5184097290039,-4.554085335315554,0.6532947601105039,-166.3923868324789,7.053399,-16.729586,-10.467796,20.582102,-4.5116425,-8.771661,-22.305182,12.760241,-28.367874,33.405476,14.477832,-3.2650166,-20.681726,0.7355314,6.469854,-26.188643,17.992847,-62.619213,56.392708,2.4022706,-2.4877567,8.91325,25.04662,-5.7087164,7.954139,59.853752,0.61475325,-7.1282835,-4.2926006
207,10.928086280822754,145.15658569335938,76.33686828613281,-4.098975730331884,0.4309040495131941,-166.22328783748003,5.467493,-17.065624,-9.019205,24.104177,-6.5392423,-3.738072,-23.621847,13.300927,-25.893438,34.342537,15.925562,-1.0685842,-20.555744,-0.020748436,6.5197773,-26.039988,18.350904,-61.773525,56.038998,3.0507364,-2.4158103,9.04359,25.380436,-5.0858936,8.286277,60.024586,0.26240817,-7.09484,-3.8929272
208,11.204784393310547,146.03366088867188,76.10997009277344,-3.6958480596238292,0.19099904923188932,-166.04437417717435,4.2835503,-17.266932,-7.8126826,26.85265,-8.426416,0.713734,-24.823847,13.89306,-23.55243,35.171413,17.294376,1.5836421,-20.417953,-0.7142883,6.6172547,-25.863945,18.71591,-60.871784,55.59351,3.662482,-2.3350797,9.192023,25.686367,-4.535683,8.630962,60.15611,-0.04929663,-7.0668626,-3.515966
209,11.471857070922852,146.87059020996094,75.8631591796875,-3.29143429984563,-0.09982884865551107,-165.85735861496167,3.6162755,-17.3975,-6.843232,28.655169,-10.119475,4.5349355,-26.000656,14.462054,-21.263842,36.09264,18.475368,4.6613026,-20.2599,-1.4012682,6.7749667,-25.65974,19.076693,-59.889008,55.05335,4.2556267,-2.2381327,9.355988,25.970846,-4.0723395,8.99918,60.235645,-0.2894546,-7.0407104,-3.1387267
210,11.731319427490234,147.68226623535156,75.6167984008789,-2.8764416792163807,-0.42269184098961404,-165.66582205261847,3.2880936,-17.498026,-6.0472026,29.936684,-11.821768,8.001516,-27.196976,15.06636,-18.922375,37.139442,19.419819,8.1714525,-20.082394,-2.0872893,6.966575,-25.42289,19.428413,-58.813328,54.438633,4.8774834,-2.1258311,9.537701,26.241013,-3.692671,9.399278,60.271797,-0.48822644,-7.0118394,-2.7497175
211,11.970903396606445,148.45225524902344,75.37185668945312,-2.4709089755168336,-0.7466339905878252,-165.51024488521185,3.1481376,-17.582548,-5.4047747,30.88611,-13.55286,11.008143,-28.243475,15.693848,-16.699442,38.097557,20.152485,12.192691,-19.86864,-2.7343328,7.1642003,-25.142582,19.765047,-57.694447,53.771362,5.452302,-2.0189342,9.746202,26.481234,-3.4069445,9.809428,60.28086,-0.6788407,-6.9879937,-2.3983395
212,12.206999778747559,149.20587158203125,75.1034927368164,-2.1255974278951753,-1.0353745072137186,-165.4477656376912,3.02114,-17.60657,-4.884854,31.733213,-15.3714,13.418799,-28.880043,16.017876,-15.561703,38.692497,20.802721,15.000033,-19.591341,-3.277804,7.3419704,-24.814276,20.080572,-56.593033,53.076378,5.8904133,-1.9398202,9.991017,26.678926,-3.2301557,10.207503,60.275166,-0.89293504,-6.9766736,-2.1320908
213,12.432344436645508,150.01779174804688,74.79705810546875,-2.103838537062504,-1.233047730278611,-165.7269368568473,2.608279,-17.200096,-4.2680974,32.96586,-17.661404,14.985461,-28.74832,15.800636,-16.904667,38.245144,22.096155,15.000033,-19.000526,-3.450533,7.5161815,-24.43562,20.373844,-55.51188,52.328983,6.149798,-1.8993423,10.277956,26.875399,-3.1667848,10.599437,60.213375,-1.1411378,-6.990901,-1.960616
214,12.642518997192383,150.84678649902344,74.4805908203125,-2.2171965970322964,-1.3308040074172873,-166.16910717540904,2.118319,-16.489164,-3.672346,34.119026,-20.114174,15.000033,-28.31256,15.44612,-19.121119,37.24576,23.887566,15.000033,-18.271196,-3.4206405,7.6334567,-24.008793,20.639303,-54.42044,51.527676,6.281121,-1.8853899,10.604828,27.042175,-3.2178497,10.987594,60.112404,-1.4041532,-7.022365,-1.8564596
215,12.845972061157227,151.62777709960938,74.16770935058594,-2.281224554389895,-1.364053814879521,-166.72357175493673,1.6951791,-15.829318,-3.0776024,34.94138,-22.40801,15.000033,-27.948812,14.910879,-21.55664,36.49854,25.56944,15.000033,-17.474161,-3.3740733,7.6694765,-23.513313,20.872107,-53.326954,50.741177,6.3581495,-1.8876964,10.955876,27.14789,-3.3770514,11.375402,60.0208,-1.6665039,-7.0453067,-1.816347
216,13.025214195251465,152.34616088867188,73.89389038085938,-2.277949546729302,-1.4074288803825705,-167.304333019462,1.4151524,-15.246648,-2.5323062,35.447273,-24.400978,15.000033,-27.832685,14.361893,-23.523819,36.417168,26.492739,15.000033,-16.702263,-3.3688378,7.6883945,-22.939241,21.069698,-52.25366,50.046177,6.44358,-1.8964229,11.316037,27.162209,-3.6316934,11.766512,59.990635,-1.9135295,-7.034126,-1.8384303
217,13.197307586669922,153.028564453125,73.66648864746094,-2.2103961759681607,-1.511043874466472,-167.858372075573,1.34967,-14.758197,-2.1085691,35.61326,-26.069494,15.000033,-27.94101,13.873418,-24.77811,37.050453,26.266834,15.000033,-15.995983,-3.4265335,7.738002,-22.285858,21.226624,-51.202324,49.445515,6.552155,-1.914678,11.715212,27.067616,-3.9796393,12.196294,60.05029,-2.160964,-6.9807534,-1.9420192
218,13.367898941040039,153.67745971679688,73.47872924804688,-2.089719762266257,-1.656236077474687,-168.40970766006387,1.4594655,-14.366281,-1.7914654,35.47679,-27.481764,15.000033,-28.131077,13.387152,-25.605072,38.10741,25.211367,15.000033,-15.3251505,-3.5241308,7.8065667,-21.561756,21.338253,-50.16335,48.909943,6.6554594,-1.9461082,12.149681,26.882591,-4.420642,12.652894,60.167316,-2.4105463,-6.898631,-2.1223536
219,13.518503189086914,154.31448364257812,73.33562469482422,-1.9300238775815448,-1.8400781169709572,-168.96904370738739,1.6878352,-14.039043,-1.5164262,35.160442,-28.668936,15.000033,-28.34865,12.909353,-26.074564,39.41543,23.6609,15.000033,-14.689245,-3.6424098,7.898358,-20.782776,21.407225,-49.15544,48.470192,6.737866,-1.9812404,12.553601,26.63466,-4.9380875,13.068643,60.304207,-2.627877,-6.795274,-2.3430605
220,13.66091251373291,154.93479919433594,73.21366119384766,-1.7438987962612913,-2.052344898740767,-169.55392361155359,1.971921,-13.739714,-1.2109797,34.78621,-29.665232,15.000033,-28.554983,12.438318,-26.272709,40.822914,21.96445,15.000033,-14.077486,-3.7661107,8.011821,-19.953117,21.43713,-48.185642,48.146225,6.8036785,-2.008991,12.860584,26.349949,-5.5057096,13.371807,60.428444,-2.783122,-6.67917,-2.5702534
221,13.773334503173828,155.5442657470703,73.129638671875,-1.517238092925301,-2.310055426527736,-170.17572583290385,2.3342624,-13.480821,-0.86046827,34.346275,-30.466497,15.000033,-28.753695,12.019013,-26.108679,42.341736,20.078382,15.000033,-13.469071,-3.9203703,8.158795,-19.071117,21.427427,-47.257607,47.948063,6.8533134,-2.0300465,13.044491,26.01665,-6.113363,13.548935,60.574398,-2.8750052,-6.547575,-2.7999926
222,13.880117416381836,156.1182403564453,73.08172607421875,-1.2464461023307252,-2.613662135939507,-170.81952117368297,2.7922986,-13.276904,-0.5069257,33.802856,-31.067547,15.000033,-28.95163,11.655864,-25.58134,44.013718,17.873184,15.000033,-12.870832,-4.112052,8.340048,-18.146912,21.37565,-46.3792,47.86685,6.8828382,-2.0486605,13.143234,25.626537,-6.7614355,13.632282,60.753197,-2.92193,-6.39862,-3.0522654
223,13.974736213684082,156.65074157714844,73.06033325195312,-0.9610337601750408,-2.9256390577617646,-171.46821150663342,3.2899454,-13.098108,-0.15807955,33.196735,-31.478346,15.000033,-29.1205,11.27361,-24.91813,45.745586,15.577808,15.000033,-12.306449,-4.298283,8.53158,-17.20276,21.283922,-45.5655,47.89582,6.889998,-2.058863,13.186255,25.211376,-7.436841,13.614796,60.900448,-2.9251199,-6.2428145,-3.330265
224,14.08971118927002,157.1615753173828,73.06843566894531,-0.6920879671665305,-3.2086189335812665,-172.10485542970844,3.7640936,-12.907518,0.18110545,32.584553,-31.716873,15.000033,-29.239721,10.785453,-24.33674,47.459404,13.406225,15.000033,-11.795788,-4.438803,8.707497,-16.267479,21.158934,-44.843422,48.032093,6.863569,-2.0548897,13.203166,24.799793,-8.117884,13.486545,60.957012,-2.8874927,-6.090639,-3.6390285
225,14.188196182250977,157.6511688232422,73.11781311035156,-0.44434560085510155,-3.4572450132572494,-172.73128631169223,4.1826067,-12.661505,0.5573258,32.014793,-31.774237,14.800415,-29.314802,10.196629,-23.838057,49.15143,11.41509,15.000033,-11.339459,-4.530647,8.86253,-15.345607,21.006725,-44.225887,48.280922,6.800244,-2.023054,13.181135,24.387146,-8.791252,13.206842,60.927475,-2.8166559,-5.930212,-4.011795
226,14.2653169631958,158.1550750732422,73.20901489257812,-0.2224297277214686,-3.6921387231980276,-173.3578002891187,4.572701,-12.357059,0.9748835,31.479712,-31.663397,14.448809,-29.337467,9.569594,-23.335209,50.82551,9.512873,15.000033,-10.917255,-4.581406,9.012358,-14.425335,20.828701,-43.70524,48.64268,6.7080717,-1.9695044,13.111206,23.957539,-9.455663,12.788499,60.8504,-2.7129247,-5.761983,-4.43933
227,14.307080268859863,158.6451873779297,73.34075164794922,-0.01951727655136419,-3.9150371132850776,-173.97328553336595,4.982063,-12.030643,1.3845869,30.8931,-31.396893,14.060492,-29.284096,8.836363,-22.894167,52.462593,7.672743,15.000033,-10.526471,-4.605373,9.152782,-13.518412,20.627588,-43.285015,49.112736,6.581468,-1.9184875,13.027951,23.523987,-10.108323,12.301555,60.714695,-2.5687706,-5.614992,-4.863294
228,14.350605010986328,159.12890625,73.5050048828125,0.1671176101579173,-4.129417583982938,-174.56557447509405,5.4574127,-11.691292,1.7596337,30.173277,-30.990068,13.61135,-29.129362,7.929901,-22.575426,54.04015,5.860803,15.000033,-10.166295,-4.614516,9.281993,-12.632841,20.40728,-42.964386,49.68355,6.4187937,-1.8942387,12.9660015,23.098545,-10.7457,11.816712,60.507893,-2.377596,-5.5183125,-5.225676
229,14.380548477172852,159.59385681152344,73.697998046875,0.3383566802714927,-4.349394126636194,-175.12342844004965,6.042436,-11.343747,2.0747607,29.262066,-30.41532,13.088127,-28.842505,6.793741,-22.401318,55.58488,4.013376,15.000033,-9.850706,-4.614552,9.406321,-11.761921,20.173119,-42.756336,50.375484,6.211803,-1.916081,12.953195,22.684542,-11.367798,11.321171,60.217457,-2.1240537,-5.478901,-5.5166407
230,14.397552490234375,160.04989624023438,73.91704559326172,0.5006494856814916,-4.576766645939798,-175.648306578423,6.715138,-10.9980545,2.3380487,28.19997,-29.666658,12.512767,-28.436054,5.443628,-22.33711,57.111904,2.1491039,15.000033,-9.582859,-4.6089892,9.527218,-10.901551,19.929579,-42.6557,51.18201,5.964022,-1.9663655,12.964347,22.274868,-11.974715,10.78907,59.854828,-1.8167936,-5.481763,-5.7656693
231,14.412309646606445,160.49607849121094,74.15991973876953,0.6542696915991427,-4.796625720195752,-176.14947918377263,7.422053,-10.6493225,2.5771968,27.060356,-28.807875,11.908636,-27.946163,3.9272182,-22.364624,58.56983,0.36062416,15.000033,-9.342384,-4.59737,9.639377,-10.062037,19.67964,-42.630512,52.05562,5.694069,-2.0140717,12.954889,21.865269,-12.563935,10.270446,59.442177,-1.4858502,-5.522682,-5.974593
232,14.423537254333496,160.95223999023438,74.4103775024414,0.796931663796434,-4.990717189006414,-176.6396615486705,8.10776,-10.2927475,2.8246396,25.915516,-27.90186,11.298043,-27.416086,2.3056622,-22.457773,59.90418,-1.2681452,15.000033,-9.108677,-4.5764604,9.735616,-9.248619,19.425568,-42.641502,52.944485,5.426119,-2.0274556,12.88013,21.448921,-13.132885,9.818073,59.0021,-1.160179,-5.5971875,-6.145568
233,14.430859565734863,161.40638732910156,74.66911315917969,0.9295503004067305,-5.1560223828116944,-177.1346957430766,8.775747,-9.923467,3.0989466,24.753717,-26.939842,10.674994,-26.836643,0.5250454,-22.66956,61.13568,-2.742973,15.000033,-8.870132,-4.549039,9.812946,-8.451919,19.168785,-42.67349,53.852695,5.171293,-1.9933854,12.732308,21.019272,-13.68373,9.448854,58.537804,-0.80996495,-5.7231913,-6.274037
234,14.431297302246094,161.85931396484375,74.93366241455078,1.0525810631941488,-5.307133436636266,-177.61968194118973,9.464493,-9.549746,3.3710566,23.53101,-25.891317,10.033492,-26.182476,-1.4301747,-22.996698,62.28159,-4.1371036,15.000033,-8.646894,-4.516728,9.879654,-7.66844,18.912708,-42.74407,54.797733,4.914767,-1.9297751,12.533944,20.579655,-14.218002,9.137512,58.03651,-0.43123794,-5.8960543,-6.3598886
235,14.40609073638916,162.31747436523438,75.19990539550781,1.1599390803164147,-5.443393409877661,-178.06868309993362,10.125098,-9.164175,3.6169095,22.34365,-24.825329,9.391326,-25.501501,-3.4297915,-23.324326,63.29404,-5.4350543,15.000033,-8.456613,-4.473884,9.94005,-6.9131336,18.663214,-42.863205,55.748356,4.6442266,-1.8509157,12.286565,20.137472,-14.732221,8.870516,57.498955,-0.09235173,-6.07751,-6.41319
236,14.422771453857422,162.77049255371094,75.45411682128906,1.2456664160795643,-5.558982639194973,-178.46077515515836,10.699024,-8.758783,3.8200114,21.293283,-23.811365,8.765744,-24.855503,-5.3360357,-23.533047,64.12385,-6.60096,15.000033,-8.312812,-4.4144006,9.994064,-6.198565,18.427982,-43.03837,56.671112,4.34889,-1.770971,11.991582,19.698519,-15.2194,8.635332,56.927105,0.13744538,-6.2293134,-6.4454517
237,14.421470642089844,163.23165893554688,75.7060775756836,1.301867563531237,-5.641010089793882,-178.80065696996894,11.151525,-8.322445,3.9941194,20.41737,-22.853434,8.174478,-24.27957,-7.115445,-23.60119,64.75118,-7.632626,15.000033,-8.215322,-4.3315215,10.037198,-5.522772,18.213139,-43.26076,57.563732,4.011216,-1.6857995,11.637072,19.254824,-15.674657,8.432254,56.306133,0.21240067,-6.3294163,-6.445004
238,14.414207458496094,163.70912170410156,75.95123291015625,1.3070430806012678,-5.6748767172065655,-179.1336290454129,11.447915,-7.81711,4.186621,19.761738,-21.977583,7.5916524,-23.760174,-8.811279,-23.648827,65.187065,-8.519817,14.827508,-8.122071,-4.2031574,10.056201,-4.877729,18.022642,-43.529167,58.4367,3.640932,-1.589057,11.226434,18.80395,-16.097322,8.266587,55.64089,0.17709666,-6.40219,-6.4126472
239,14.433832168579102,164.22145080566406,76.18063354492188,1.1804418821092753,-5.615932178335777,-179.56623956403928,11.476784,-7.1077433,4.4934635,19.477863,-21.305391,6.9450483,-23.279482,-10.4062395,-24.042788,65.38921,-9.173053,13.299707,-7.924656,-3.9424956,10.013849,-4.266606,17.861448,-43.862076,59.27567,3.267775,-1.4918916,10.783969,18.358595,-16.485195,8.134431,54.965286,0.098011695,-6.479044,-6.379051
