unveil-humanoid-operators/unveil-humanoid-operators.github.io/feature-analysis-animation/data/feature_matrix_instances/weight_ankle_rom_walking_A450_walk_ff_stop_360_R_fast_002__A450.csv
Frame,root_translateX,root_translateY,root_translateZ,root_rotateX,root_rotateY,root_rotateZ,left_hip_pitch_joint_dof,left_hip_roll_joint_dof,left_hip_yaw_joint_dof,left_knee_joint_dof,left_ankle_pitch_joint_dof,left_ankle_roll_joint_dof,right_hip_pitch_joint_dof,right_hip_roll_joint_dof,right_hip_yaw_joint_dof,right_knee_joint_dof,right_ankle_pitch_joint_dof,right_ankle_roll_joint_dof,waist_yaw_joint_dof,waist_roll_joint_dof,waist_pitch_joint_dof,left_shoulder_pitch_joint_dof,left_shoulder_roll_joint_dof,left_shoulder_yaw_joint_dof,left_elbow_joint_dof,left_wrist_roll_joint_dof,left_wrist_pitch_joint_dof,left_wrist_yaw_joint_dof,right_shoulder_pitch_joint_dof,right_shoulder_roll_joint_dof,right_shoulder_yaw_joint_dof,right_elbow_joint_dof,right_wrist_roll_joint_dof,right_wrist_pitch_joint_dof,right_wrist_yaw_joint_dof
0,-0.25746217370033264,2.6738765239715576,75.91349792480469,2.2578497259184833,-6.563835853142647,-91.75068690420612,-16.291307,-5.0134907,1.111458,25.412626,-3.626831,3.7913365,-5.484833,-2.0981991,4.967648,73.49721,-5.125236,5.599333,1.3689005,-0.85947,14.998808,12.343591,10.32125,-24.892935,65.666306,14.776967,0.6786815,7.54457,3.607274,-14.873401,12.425367,59.192467,-11.436811,-4.195408,-12.1524315
1,-0.3129125237464905,3.732365846633911,75.8037109375,2.2932591290092605,-6.2786251193949685,-91.83462143258943,-16.88835,-4.7586255,1.3771843,24.137987,-2.5456345,3.122776,-3.7897632,-1.1386955,6.019606,70.8975,-4.800893,5.9698796,1.8643491,-0.9179287,14.751504,12.919141,10.228122,-24.52159,65.73875,14.865679,0.8525796,7.537626,2.7676022,-15.075461,12.196081,58.85877,-11.645628,-4.231513,-12.465894
2,-0.36455848813056946,4.80248498916626,75.69611358642578,2.32365234213468,-6.005282427148205,-91.9243022700419,-17.468565,-4.512143,1.6220654,22.848263,-1.3867788,2.4479668,-2.029286,-0.13127707,7.214602,68.344315,-4.2730546,6.4402475,2.3407779,-0.9317816,14.503397,13.489324,10.061221,-24.187405,65.87894,14.98423,1.0350931,7.5439997,1.9574696,-15.371424,11.991566,58.479607,-11.835768,-4.267228,-12.754711
3,-0.42724594473838806,5.879251003265381,75.5870590209961,2.3441780015155733,-5.717245213908673,-92.00755093941298,-18.032625,-4.2548795,1.8747178,21.509916,-0.3348863,1.7828345,-0.34356284,0.6303798,8.213078,65.72583,-4.2018976,6.562075,2.799539,-0.9069368,14.256686,14.009555,9.845164,-23.774843,65.990715,15.061229,1.1915247,7.5341625,1.1725605,-15.721998,11.795821,58.075195,-12.001144,-4.301729,-13.037056
4,-0.49635252356529236,6.96023416519165,75.47390747070312,2.337763371216402,-5.388253763178201,-92.07427214712297,-18.579407,-3.9604678,2.1677532,20.08803,0.42657003,1.141736,1.1122309,0.9016692,8.657685,62.92726,-5.235174,5.9065347,3.2314377,-0.84389216,14.016264,14.449307,9.605461,-23.150732,65.959984,15.029957,1.2860601,7.4751945,0.40407538,-16.098988,11.606749,57.66249,-12.128405,-4.334952,-13.327272
5,-0.5623926520347595,8.04725170135498,75.35929870605469,2.3058213750242964,-4.976097457537531,-92.1212531304022,-19.137701,-3.6262527,2.506437,18.548174,0.8325576,0.4375557,2.349422,0.6095858,8.36375,59.722652,-7.967124,4.153416,3.635222,-0.76080126,13.751519,14.823896,9.363689,-22.233309,65.724205,14.865853,1.3096925,7.3253236,-0.37395632,-16.484318,11.432303,57.256287,-12.229415,-4.35772,-13.63576
6,-0.6444607973098755,9.161606788635254,75.23641204833984,2.228300904710659,-4.513617701987413,-92.15290482785595,-19.703842,-3.236651,2.8680334,16.938684,0.980259,-0.3152309,3.4776316,0.11667733,7.609538,56.221027,-11.971459,1.7952933,4.0144973,-0.64439356,13.477157,15.16195,9.126804,-21.100428,65.32608,14.606181,1.2829105,7.108227,-1.1651701,-16.867746,11.27439,56.86135,-12.310284,-4.37341,-13.9589205
7,-0.7251812815666199,10.286981582641602,75.10698699951172,2.069731478351344,-4.0830948800465,-92.18084091973633,-20.21827,-2.7526278,3.257269,15.339337,0.92418975,-0.9490173,4.486145,-0.23786202,6.7024817,52.77206,-16.30794,-0.4339874,4.3786445,-0.44835868,13.262081,15.445239,8.891503,-19.864809,64.81908,14.273263,1.2134911,6.8906293,-1.9389389,-17.242329,11.118221,56.471977,-12.3479,-4.4011135,-14.2875805
8,-0.8127633333206177,11.438681602478027,75.00386810302734,1.8245270791130734,-3.760453060015087,-92.21208245074493,-20.621117,-2.167563,3.6847708,13.802894,0.7339134,-1.2961673,5.3038373,-0.31898758,5.844798,49.741795,-19.97737,-1.9781729,4.7328024,-0.14805104,13.168423,15.648808,8.65063,-18.64106,64.268394,13.889345,1.1082944,6.741589,-2.6638803,-17.60481,10.948566,56.083282,-12.319496,-4.4600325,-14.612616
9,-0.8979467749595642,12.588993072509766,74.90333557128906,1.4770805280160229,-3.5556812094817034,-92.23369718389885,-20.885023,-1.4879184,4.0753374,12.217607,0.3409596,-1.2282828,5.884074,-0.23036511,4.8573565,47.155636,-22.786142,-2.750496,5.0800776,0.2820694,13.202958,15.7556715,8.404764,-17.417147,63.673206,13.411227,0.9408875,6.6649113,-3.330398,-17.956335,10.729889,55.68069,-12.191736,-4.562366,-14.938865
10,-0.9701389670372009,13.746488571166992,74.8093032836914,1.051842607967898,-3.4273121836607205,-92.24490271766057,-21.045574,-0.7425999,4.4554067,10.579823,-0.25947142,-0.8733591,6.2791686,-0.08169848,3.6400497,44.79791,-25.198378,-3.0551555,5.417478,0.8087414,13.329864,15.780603,8.158863,-16.148966,63.008595,12.843131,0.71679115,6.627908,-3.9527848,-18.297342,10.475023,55.270187,-11.98775,-4.696431,-15.26824
11,-1.0466721057891846,14.917930603027344,74.71515655517578,0.6206089837218988,-3.3693407224740946,-92.26763481974301,-21.145622,0.024485508,4.993858,9.114992,-0.90393174,-0.43914747,6.498672,0.13213074,2.4669845,42.73928,-27.20814,-3.0570078,5.7354946,1.3539668,13.544159,15.739,7.9116807,-14.899914,62.311157,12.278505,0.4893126,6.6479936,-4.5399523,-18.625866,10.244765,54.88072,-11.769499,-4.8454933,-15.588208
12,-1.1100672483444214,16.08772087097168,74.62761688232422,0.24761486155993317,-3.375933575504506,-92.32199812244646,-21.241022,0.7792235,5.8605347,8.085326,-1.4403175,-0.12560286,6.523489,0.4092833,1.6411935,41.09176,-28.83317,-2.9583137,6.024912,1.8437941,13.842249,15.63958,7.6576715,-13.734326,61.620415,11.811879,0.31227225,6.745309,-5.0987105,-18.938137,10.098012,54.53939,-11.59889,-4.9919558,-15.886749
13,-1.1634947061538696,17.246660232543945,74.54429626464844,-0.08179485390543795,-3.456460961012203,-92.4522673304029,-21.293993,1.5975842,7.2955766,7.4207644,-1.8070472,0.013859831,6.2506285,0.78168106,1.3387665,40.000576,-30.020315,-2.8103027,6.31834,2.2999146,14.252776,15.461324,7.387204,-12.6627865,60.943874,11.448318,0.19329531,6.9487767,-5.6588907,-19.24244,10.0596,54.26327,-11.491888,-5.1473804,-16.181067
14,-1.2074990272521973,18.43124771118164,74.49330139160156,-0.3849568528259293,-3.608142407547688,-92.6284088592467,-21.30642,2.4662933,9.144603,7.077503,-2.1161187,0.09095563,5.6820407,1.1967071,1.3650255,39.426983,-30.810192,-2.56619,6.5974092,2.7486048,14.766127,15.1989355,7.0990324,-11.649524,60.26559,11.146629,0.10720443,7.2422547,-6.2091603,-19.54085,10.09782,54.035,-11.414592,-5.315278,-16.47053
15,-1.238015055656433,19.63872718811035,74.44969177246094,-0.608609159486837,-3.8060549599074833,-92.7593605583863,-21.416393,3.2548478,10.974812,7.404659,-2.5022478,0.17673156,4.948256,1.5342082,1.4863154,39.213142,-31.370073,-2.2877178,6.78087,3.1187706,15.325468,14.877058,6.8070216,-10.690238,59.60438,10.927648,0.0494023,7.5822043,-6.6994414,-19.815697,10.186432,53.83367,-11.354791,-5.4651384,-16.718857
16,-1.2634189128875732,20.827619552612305,74.41827392578125,-0.6997586812972276,-4.025109905070194,-92.75724630328297,-21.736769,3.8496614,12.347636,8.681884,-3.0681279,0.34982643,4.184594,1.6804705,1.473016,39.189182,-31.858187,-2.0290089,6.7970047,3.3345375,15.876249,14.530053,6.5349708,-9.781845,58.9687,10.811625,0.017433407,7.923066,-7.0758233,-20.036171,10.292249,53.63644,-11.304884,-5.5662704,-16.891748
17,-1.2890205383300781,22.010540008544922,74.39997863769531,-0.6319965507901177,-4.280628590352261,-92.6087566873117,-22.281015,4.1946363,13.146344,11.0017805,-3.772941,0.62453884,3.3834527,1.5939732,1.3097582,39.42271,-32.29923,-1.7929469,6.630345,3.345832,16.44001,14.191083,6.296426,-8.873006,58.316097,10.862332,0.019169217,8.2458935,-7.3385983,-20.180298,10.410744,53.43468,-11.2792425,-5.5926595,-16.984606
18,-1.322082281112671,23.164506912231445,74.39775085449219,-0.47499744215680284,-4.592077784197996,-92.37377751894107,-22.922941,4.385387,13.60391,14.074316,-4.5106606,0.9465871,2.50817,1.3845516,1.1208955,39.947308,-32.604424,-1.5610433,6.337862,3.2265136,17.040611,13.845807,6.0943685,-7.9800696,57.644356,11.047375,0.055617932,8.575877,-7.515363,-20.246561,10.554903,53.250004,-11.283882,-5.5662184,-17.018951
19,-1.3601479530334473,24.297298431396484,74.41493225097656,-0.3264165076343446,-4.939512208148834,-92.07483391596078,-23.572472,4.530054,13.8050165,17.602278,-5.2771516,1.2897861,1.6515417,1.1637048,0.88495886,40.53711,-32.75575,-1.3549455,5.9627633,3.0842516,17.628496,13.460648,5.941293,-7.2085376,57.019054,11.239643,0.113561,8.932977,-7.592066,-20.241318,10.715099,53.104023,-11.295831,-5.528957,-16.99919
20,-1.4066129922866821,25.3906192779541,74.45055389404297,-0.2566045493373485,-5.292994438515665,-91.72387488965408,-24.140387,4.7278085,13.8300495,21.284548,-6.074896,1.6549731,0.8863473,1.0099972,0.5718766,40.985497,-32.744827,-1.1964543,5.545055,3.0023923,18.15124,13.002054,5.855376,-6.672181,56.50554,11.309677,0.1776488,9.334767,-7.5428047,-20.173885,10.870186,53.006218,-11.292336,-5.523375,-16.927023
21,-1.456322193145752,26.4671688079834,74.5081787109375,-0.28179941640094464,-5.657680095752167,-91.27696085015792,-24.632156,4.990677,13.641312,25.180517,-6.9245667,2.062867,0.2351647,0.92825925,0.12721157,41.273643,-32.54298,-1.1000476,5.0548706,2.9940054,18.610023,12.4402895,5.857986,-6.4720507,56.153614,11.129435,0.24895425,9.843772,-7.342179,-20.048525,11.018111,52.944042,-11.213938,-5.591874,-16.78645
22,-1.4939661026000977,27.558616638183594,74.5735092163086,-0.3636865377262255,-6.045040122085539,-90.74466722318496,-25.057472,5.240544,13.219752,29.335552,-7.782674,2.4973688,-0.34118277,0.88130736,-0.4184373,41.499214,-32.16183,-1.0508741,4.502736,3.014028,19.029524,11.800925,5.9493866,-6.545016,55.917774,10.789314,0.3291883,10.426069,-6.9887805,-19.865341,11.150823,52.899246,-11.088892,-5.7021976,-16.576424
23,-1.5331242084503174,28.619993209838867,74.64232635498047,-0.472406331480939,-6.425774107958651,-90.20969284572118,-25.374575,5.45746,12.665353,33.516388,-8.601043,2.936416,-0.8809889,0.85485375,-0.97369325,41.65159,-31.665712,-1.0284101,3.9705958,3.0387638,19.38823,11.131938,6.10659,-6.7498374,55.723408,10.491641,0.40622348,10.95666,-6.504207,-19.625223,11.249232,52.881317,-11.024978,-5.7848234,-16.325684
24,-1.5889416933059692,29.634963989257812,74.728271484375,-0.5763845603484804,-6.769773352299475,-89.75338212436313,-25.555044,5.637173,12.076316,37.52383,-9.354728,3.3675885,-1.424257,0.8326742,-1.4474423,41.722813,-31.121319,-1.0127168,3.5296237,3.0472524,19.66406,10.480957,6.296787,-6.9350777,55.495457,10.4440365,0.47398576,11.313919,-5.920478,-19.33106,11.304201,52.907345,-11.130608,-5.7707343,-16.064419
25,-1.6445016860961914,30.639293670654297,74.82643127441406,-0.6655474624533536,-7.071374220602897,-89.38918312506334,-25.63242,5.808915,11.442469,41.46368,-10.089875,3.8465476,-1.9667411,0.8143532,-1.8334434,41.692772,-30.529875,-1.0090548,3.1869967,3.0453885,19.840899,9.840717,6.502572,-7.095675,55.26281,10.740089,0.5209572,11.475077,-5.2310376,-18.978529,11.307097,52.984413,-11.497804,-5.62884,-15.802702
26,-1.6874966621398926,31.64838218688965,74.92445373535156,-0.7501744955147699,-7.343043896958618,-89.07353344827774,-25.62237,5.9679127,10.722015,45.422028,-10.821818,4.370396,-2.4958804,0.799582,-2.177112,41.576958,-29.864853,-1.026301,2.8935747,3.0375,19.92965,9.191551,6.7253804,-7.2882724,55.05605,11.264856,0.55595464,11.507145,-4.4405937,-18.567648,11.284428,53.11843,-12.0486965,-5.401792,-15.524688
27,-1.7172969579696655,32.63408279418945,75.03166198730469,-0.8152066441089186,-7.581941890268529,-88.80082458915705,-25.482782,6.0707617,9.95828,49.197876,-11.489831,4.840818,-3.0367994,0.7747179,-2.467063,41.41588,-29.147606,-1.0491738,2.6307957,3.0064893,19.949026,8.563783,6.9610105,-7.449779,54.80024,11.914838,0.6041462,11.422513,-3.5976338,-18.111622,11.280536,53.321583,-12.635272,-5.1301513,-15.222612
28,-1.7377471923828125,33.597843170166016,75.14097595214844,-0.8515085578384655,-7.785232376020696,-88.56473514381533,-25.17733,6.072465,9.199006,52.601707,-12.039027,5.156484,-3.6179779,0.7236855,-2.6905127,41.254105,-28.401165,-1.0606198,2.3746202,2.9361017,19.917799,7.9884324,7.199748,-7.5106235,54.420315,12.589836,0.69001967,11.23351,-2.754623,-17.632008,11.343846,53.607334,-13.107355,-4.8530035,-14.890591
29,-1.7600789070129395,34.56908416748047,75.25282287597656,-0.8430266299464916,-7.946075461839965,-88.36893288475811,-24.698795,5.951217,8.448149,55.62251,-12.466782,5.2679825,-4.255251,0.6331506,-2.8278189,41.107124,-27.62905,-1.0577015,2.1203375,2.815449,19.82621,7.481478,7.43204,-7.436531,53.86921,13.348506,0.8483295,10.872578,-1.9103385,-17.139952,11.496173,53.983017,-13.422043,-4.5543237,-14.527127
30,-1.765356421470642,35.53980255126953,75.3639907836914,-0.7977146542605503,-8.06745581356863,-88.21386553787973,-24.077967,5.7424207,7.6835346,58.38485,-12.817129,5.239295,-4.9339156,0.5144615,-2.8913093,40.95264,-26.821476,-1.0483911,1.8707627,2.660868,19.667711,7.025289,7.655343,-7.2621403,53.19637,14.221421,1.050483,10.355663,-1.0432262,-16.63621,11.717485,54.43866,-13.656022,-4.2208815,-14.13401
31,-1.7581449747085571,36.50364685058594,75.47502899169922,-0.7410255341315005,-8.160557663102894,-88.08885371814868,-23.332424,5.48393,6.91668,60.892696,-13.10429,5.1363306,-5.6337676,0.3870661,-2.9141726,40.77341,-25.977379,-1.0307395,1.6176641,2.4982626,19.46732,6.5971913,7.870577,-7.0255537,52.47219,15.063722,1.2306616,9.822127,-0.16949296,-16.129055,11.985662,54.95682,-13.838593,-3.8946753,-13.712434
32,-1.7372561693191528,37.44107437133789,75.58426666259766,-0.6966121299518296,-8.237083692135569,-87.98387433772035,-22.479849,5.211498,6.159602,63.14412,-13.33448,5.0244436,-6.3330703,0.26964468,-2.9296854,40.5503,-25.094687,-1.0028653,1.354199,2.3544214,19.251421,6.172182,8.079652,-6.7671647,51.76822,15.726493,1.3295866,9.412821,0.6985073,-15.630643,12.275614,55.514893,-13.998984,-3.6181278,-13.26164
33,-1.7059634923934937,38.39202117919922,75.68704223632812,-0.6697273839013961,-8.295893646611983,-87.89462850781858,-21.515043,4.9315557,5.411468,65.13633,-13.501653,4.9316916,-7.0282235,0.15956901,-2.9455295,40.27659,-24.166994,-0.96238524,1.0744597,2.2374933,19.021349,5.7482557,8.279802,-6.483383,51.087624,16.145203,1.3236347,9.137551,1.5733718,-15.14595,12.580604,56.108185,-14.112472,-3.4110198,-12.781758
34,-1.6750104427337646,39.345489501953125,75.78504180908203,-0.6468642253521102,-8.332409362065235,-87.8272729891223,-20.433332,4.6315007,4.666198,66.87679,-13.605553,4.821785,-7.7289596,0.050890274,-2.943773,39.960587,-23.195435,-0.9109123,0.7852466,2.1371474,18.766003,5.3345976,8.470033,-6.160125,50.39924,16.405134,1.2512426,8.932264,2.4631991,-14.676117,12.909645,56.74131,-14.173104,-3.2470891,-12.271678
35,-1.6357462406158447,40.289466857910156,75.87718200683594,-0.632836000600334,-8.352910599833423,-87.7866610735821,-19.251179,4.3169036,3.9287114,68.370575,-13.659248,4.6628847,-8.435794,-0.042750116,-2.9201221,39.611965,-22.194296,-0.85205585,0.50082624,2.0534883,18.494965,4.922621,8.654925,-5.823188,49.721123,16.582216,1.14921,8.826702,3.351033,-14.226579,13.261315,57.402668,-14.23336,-3.1011171,-11.727357
36,-1.5870859622955322,41.23737335205078,75.95218658447266,-0.6284421467269541,-8.363587900399102,-87.7779142181903,-17.98461,3.991333,3.2047153,69.62155,-13.676544,4.4226394,-9.147906,-0.10823532,-2.8706064,39.237602,-21.17582,-0.7890935,0.2376196,1.9870462,18.218554,4.501136,8.841706,-5.5028777,49.07099,16.749268,1.0535251,8.849255,4.2243824,-13.803451,13.630773,58.075264,-14.345867,-2.9489048,-11.143204
37,-1.5326493978500366,42.18095397949219,76.01981353759766,-0.6348951617240908,-8.359309231592132,-87.80377640075875,-16.627832,3.6730118,2.5108654,70.6271,-13.669354,4.089601,-9.873512,-0.14459638,-2.7887423,38.844704,-20.143959,-0.7235591,0.002769506,1.9399873,17.929682,4.065457,9.032758,-5.216525,48.460365,16.877987,0.9522619,9.037746,5.0942883,-13.40896,14.021143,58.75548,-14.52197,-2.787687,-10.511674
38,-1.4815783500671387,43.12723159790039,76.07585906982422,-0.650604812936317,-8.339354683049084,-87.86102928804893,-15.177118,3.3573062,1.8383483,71.389626,-13.629457,3.6846397,-10.608358,-0.15783186,-2.678303,38.424854,-19.090355,-0.6524723,-0.2113044,1.9119993,17.62738,3.6206946,9.226952,-4.948174,47.877247,16.94352,0.83383435,9.365664,5.967388,-13.042294,14.429928,59.446617,-14.733953,-2.630604,-9.835855
39,-1.431894063949585,44.08614730834961,76.11531829833984,-0.6776987821595102,-8.316299742860377,-87.94550659706697,-13.650468,3.0114005,1.155811,71.917885,-13.540944,3.2228668,-11.336582,-0.14597838,-2.550449,37.968803,-18.012848,-0.5718041,-0.4098067,1.8990988,17.331207,3.1721919,9.425895,-4.6782746,47.302773,17.024971,0.7348268,9.764671,6.823467,-12.704266,14.844164,60.142933,-14.974991,-2.4781132,-9.126235
40,-1.3744984865188599,45.04818344116211,76.13911437988281,-0.7170608817645597,-8.302916561727669,-88.05256079555542,-12.063827,2.600593,0.43216228,72.22,-13.387687,2.7186024,-12.041125,-0.10822306,-2.4157586,37.46461,-16.907688,-0.47719076,-0.5976348,1.8971212,17.060944,2.7244248,9.63262,-4.3883595,46.718166,17.199226,0.6926315,10.166216,7.6433477,-12.3961,15.250011,60.83692,-15.23825,-2.3303385,-8.393032
41,-1.3097126483917236,46.013824462890625,76.15033721923828,-0.7704227685250151,-8.305824541377014,-88.20505711925156,-10.396077,2.1187503,-0.3392852,72.31286,-13.20164,2.182155,-12.721478,-0.028756652,-2.2547104,36.913597,-15.77203,-0.36670023,-0.7569242,1.9115666,16.82439,2.2761455,9.848689,-4.0750723,46.120815,17.515896,0.7343972,10.584195,8.42881,-12.1192045,15.63635,61.521736,-15.550177,-2.1837208,-7.58198
42,-1.2479686737060547,46.99787902832031,76.13900756835938,-0.8381539259461488,-8.317506978687822,-88.39740168604247,-8.644339,1.585014,-1.143243,72.18806,-12.982879,1.6076782,-13.384491,0.085641235,-2.0679607,36.31947,-14.6076765,-0.24136594,-0.89060265,1.9422063,16.61087,1.8242215,10.073483,-3.7495108,45.52055,17.92227,0.8364518,11.043212,9.189079,-11.873817,16.010838,62.20096,-15.904938,-2.0415003,-6.7060676
43,-1.1742585897445679,47.98030471801758,76.11597442626953,-0.9132937627277622,-8.329672270102021,-88.58280936792825,-6.8520374,1.0055175,-1.982519,71.819145,-12.670685,0.9845991,-14.025009,0.20105982,-1.89614,35.676685,-13.420879,-0.1021129,-1.0358175,1.9771724,16.412565,1.3721975,10.305718,-3.4128582,44.915462,18.34269,0.9590476,11.491042,9.917352,-11.6559725,16.389196,62.881027,-16.246515,-1.9120877,-5.876252
44,-1.1003118753433228,48.96590042114258,76.08316040039062,-0.9911176394227184,-8.333153088280662,-88.71469433880247,-5.0633774,0.38908342,-2.865766,71.180084,-12.202931,0.30016163,-14.637759,0.2826626,-1.7791766,34.97707,-12.21579,0.04994049,-1.2307984,2.0041606,16.221016,0.9245517,10.543979,-3.0647628,44.303566,18.702688,1.0603936,11.876198,10.604187,-11.458763,16.789156,63.57043,-16.518154,-1.8004268,-5.204102
45,-1.03416109085083,49.972904205322266,76.03331756591797,-1.0750633842628272,-8.34027102228236,-88.78284696873042,-3.2495954,-0.28795382,-3.8312557,70.27842,-11.594727,-0.6056719,-15.234549,0.3362261,-1.7083229,34.264473,-10.971713,0.14663018,-1.4834331,2.0199485,16.045284,0.48748472,10.787879,-2.6894107,43.662506,19.004887,1.1362191,12.185152,11.242638,-11.279322,17.25691,64.2901,-16.693357,-1.7155824,-4.7394285
46,-0.9508515000343323,50.98204803466797,75.98310852050781,-1.1633972031597573,-8.35053386386576,-88.81175527195522,-1.3974229,-1.0120546,-4.8778625,69.12601,-10.876725,-1.670928,-15.815358,0.36964005,-1.6667323,33.528187,-9.693264,0.21278083,-1.7768686,2.0298727,15.885271,0.057891008,11.038123,-2.2882986,43.00005,19.283106,1.2052851,12.445344,11.835373,-11.117379,17.771841,65.03058,-16.80549,-1.6474314,-4.4168816
47,-0.8576909303665161,51.99874496459961,75.9250717163086,-1.2547943430185393,-8.33523096523089,-88.80629845292205,0.41915292,-1.717227,-5.95578,67.71347,-10.005881,-2.5777814,-16.359854,0.35653937,-1.6798103,32.685448,-8.427752,0.38453403,-2.1070814,2.0362973,15.719287,-0.37544963,11.296253,-1.8934453,42.36055,19.508278,1.259599,12.668921,12.382189,-10.969735,18.247536,65.76891,-16.887774,-1.5793093,-4.1788225
48,-0.75587397813797,53.03974914550781,75.8658447265625,-1.3436900075571478,-8.266319413352209,-88.77145896767884,2.1192553,-2.3395195,-7.00806,66.03557,-8.927645,-3.0089023,-16.847359,0.2762242,-1.770994,31.652966,-7.222982,0.79576606,-2.465811,2.0399442,15.525934,-0.82497215,11.564084,-1.5406754,41.78901,19.651978,1.2912045,12.868863,12.885325,-10.83137,18.592794,66.4801,-16.975754,-1.4944968,-3.967205
49,-0.6495314836502075,54.08976745605469,75.80419921875,-1.4165174650829384,-8.142278202306116,-88.69835022212122,3.6835456,-2.971292,-8.108413,64.08191,-7.1190243,-2.828887,-17.25006,0.1036329,-1.9635597,30.382513,-6.0163093,1.5829881,-2.862901,2.0292344,15.301611,-1.2930071,11.843625,-1.2402257,41.290714,19.681303,1.2913523,13.052008,13.346023,-10.695439,18.794477,67.17793,-17.102448,-1.3876151,-3.7760785
50,-0.5316247940063477,55.13220977783203,75.7555923461914,-1.472976265961147,-7.977406616860995,-88.58699396831068,5.143656,-3.5998242,-9.239122,61.882706,-4.7779117,-2.2157595,-17.57897,-0.13666788,-2.2321737,28.914812,-4.7966156,2.6410534,-3.2935443,2.0001578,15.057386,-1.7750303,12.135636,-0.97852457,40.845474,19.619656,1.2658376,13.21153,13.763704,-10.559368,18.891443,67.87044,-17.243654,-1.2675885,-3.6341941
51,-0.4312587380409241,56.18347930908203,75.6954574584961,-1.5274359839655598,-7.767999897746419,-88.45504271554263,6.486898,-4.022275,-10.196524,59.48386,-2.929817,-1.3170532,-17.863703,-0.39244348,-2.5347178,27.28615,-3.6823537,3.740844,-3.7323997,1.9684149,14.795041,-2.2746909,12.439086,-0.7551841,40.461304,19.518923,1.2286083,13.339093,14.143853,-10.421235,18.874664,68.51676,-17.34873,-1.1393625,-3.5345244
52,-0.33397960662841797,57.26021957397461,75.624755859375,-1.593118056955176,-7.509992699005449,-88.31933831436406,7.707442,-4.0810075,-10.8030205,56.909546,-2.602093,-0.30479503,-18.136398,-0.6215647,-2.8358562,25.536434,-2.7976806,4.6541443,-4.152021,1.9499724,14.516459,-2.7983513,12.751794,-0.5731805,40.14844,19.430944,1.1941898,13.427565,14.491927,-10.280306,18.730837,69.07948,-17.36858,-1.010393,-3.47118
53,-0.22667555510997772,58.35836410522461,75.55438995361328,-1.7148773387550764,-7.161569796912309,-88.18670785863561,8.851384,-3.6648355,-10.969818,53.951157,-4.490823,0.8166031,-18.425789,-0.76745033,-3.1245184,23.61928,-2.2315054,5.335362,-4.548623,1.9921473,14.189724,-3.3588607,13.072083,-0.43177155,39.919918,19.35943,1.1601607,13.474027,14.80747,-10.137315,18.436869,69.54322,-17.275972,-0.86687005,-3.4600787
54,-0.10451002418994904,59.450382232666016,75.49138641357422,-1.8502598262308563,-6.743503008587012,-88.04557454975773,9.947107,-3.023226,-10.846172,50.602962,-7.905333,1.9896778,-18.694624,-0.89226425,-3.4205892,21.51904,-1.8921224,5.909299,-4.936554,2.052311,13.829409,-3.9496958,13.399801,-0.3314135,39.766994,19.280561,1.1209491,13.48284,15.092822,-9.9904,18.005201,69.9284,-17.102674,-0.71146834,-3.499651
55,0.012744244188070297,60.55294418334961,75.4222183227539,-1.8948806299973115,-6.343519615914957,-87.88455535296386,10.958562,-2.4968896,-10.615086,47.188038,-11.7659645,3.0036516,-18.878708,-1.1258867,-3.741767,19.321283,-1.6458415,6.400855,-5.3169713,2.019953,13.502603,-4.548934,13.735601,-0.27605063,39.668785,19.205631,1.0867742,13.45731,15.359734,-9.835522,17.479458,70.241035,-16.88613,-0.5670567,-3.5559292
56,0.1251208484172821,61.65792465209961,75.35597229003906,-1.766330147999011,-6.044694633557591,-87.6920250931083,11.808839,-2.3168411,-10.420682,44.087566,-15.010445,3.780478,-18.925175,-1.5786407,-4.113325,17.119648,-1.3605044,6.829845,-5.691381,1.8007456,13.27078,-5.1353483,14.0811825,-0.2693823,39.60446,19.14482,1.0676861,13.400805,15.615755,-9.669265,16.904125,70.49108,-16.66328,-0.4563118,-3.5951924
57,0.23537452518939972,62.76533508300781,75.29788208007812,-1.4210438125089162,-5.878256323419897,-87.46535373462407,12.490141,-2.4847825,-10.202592,41.338593,-17.506529,4.4045067,-18.747803,-2.2965772,-4.4978085,14.746694,-1.0064722,7.2241116,-6.0680766,1.3427126,13.14508,-5.69991,14.437725,-0.30882072,39.56889,19.1178,1.0795362,13.299278,15.867412,-9.492108,16.272415,70.672615,-16.42164,-0.3847259,-3.6152167
58,0.3485412895679474,63.872528076171875,75.25015258789062,-0.9212695396063159,-5.796647541824799,-87.208559018258,13.051961,-2.8584478,-9.905209,38.727818,-19.751677,4.9162383,-18.401428,-3.2073147,-4.9098954,12.213825,-0.6495228,7.5682216,-6.4454327,0.70890766,13.087947,-6.254318,14.804952,-0.3928822,39.57218,19.11326,1.1123285,13.15528,16.110985,-9.303972,15.568842,70.78397,-16.148878,-0.34059748,-3.631857
59,0.4540555775165558,64.98619079589844,75.1944808959961,-0.3587399234238032,-5.758111287804535,-86.92563618343372,13.451254,-3.365235,-9.655747,36.33937,-21.672127,5.272805,-18.050848,-4.211563,-5.457501,9.884808,-0.29969537,7.8098736,-6.8055716,0.0037992909,13.085476,-6.8101616,15.181624,-0.52649736,39.61661,19.09384,1.1374657,12.996955,16.332912,-9.100174,14.823342,70.843735,-15.882777,-0.3202962,-3.637693
60,0.5701306462287903,66.09721374511719,75.1407241821289,0.16068415417550277,-5.716987739566933,-86.62412163800474,13.616674,-3.9117508,-9.576268,34.29895,-23.208206,5.4502134,-17.880308,-5.1978583,-6.239204,8.165015,0.0069498997,7.8923087,-7.1282415,-0.65731037,13.125673,-7.3773465,15.565626,-0.71208936,39.702656,19.023596,1.126356,12.852775,16.512888,-8.873121,14.065856,70.87404,-15.661327,-0.31992692,-3.6255252
61,0.6653465628623962,67.21923065185547,75.10179138183594,0.6542368391685245,-5.639537165306156,-86.27538760405966,13.42694,-4.514175,-9.746692,32.716675,-24.294748,5.4532065,-17.974888,-6.230529,-7.430092,7.123226,0.2608108,7.735631,-7.429345,-1.2881867,13.189392,-7.980513,15.963741,-0.95993423,39.840267,18.895788,1.0630159,12.715206,16.644922,-8.61204,13.248849,70.87443,-15.51293,-0.35564774,-3.586434
62,0.7435664534568787,68.3702163696289,75.08981323242188,1.1444152890803299,-5.551500873826994,-85.89285369908485,12.911643,-5.163142,-10.068796,31.557592,-25.00979,5.331368,-18.293577,-7.3305464,-8.915363,6.714802,0.39073306,7.384497,-7.700192,-1.9185907,13.285382,-8.613228,16.376554,-1.2691531,40.028378,18.727142,0.96578515,12.574532,16.728783,-8.313573,12.371118,70.84464,-15.412436,-0.42373523,-3.527778
63,0.8052945137023926,69.53624725341797,75.09751892089844,1.552399030300057,-5.4951648437537175,-85.54743230964847,12.216405,-5.7428584,-10.399743,30.744114,-25.512642,5.132172,-18.763573,-8.337666,-10.349831,7.019517,0.35587552,6.960411,-7.887111,-2.4704177,13.449025,-9.236389,16.789028,-1.6212311,40.24878,18.518318,0.85754055,12.456364,16.750185,-7.9916344,11.531566,70.80475,-15.317063,-0.4900595,-3.4679384
64,0.8676629662513733,70.71646881103516,75.11628723144531,1.8041831781728699,-5.515079492493913,-85.30612771604667,11.49112,-6.1422887,-10.605267,30.192755,-25.956347,4.899196,-19.356552,-9.101858,-11.387806,8.19621,0.07866906,6.5838504,-7.948656,-2.863187,13.722514,-9.800059,17.177853,-1.9876863,40.475018,18.275444,0.761072,12.385732,16.702328,-7.6745973,10.832393,70.764824,-15.1827,-0.51995677,-3.4240794
65,0.9204980134963989,71.9020004272461,75.14960479736328,1.870455933457244,-5.631421055126368,-85.16086415302497,10.714436,-6.336416,-10.692447,29.989132,-26.36105,4.6007385,-20.027872,-9.575473,-11.959747,10.226402,-0.38018745,6.284883,-7.896238,-3.062786,14.154788,-10.307378,17.533747,-2.3580887,40.696903,17.992489,0.67807794,12.381821,16.592152,-7.3774242,10.245184,70.69311,-14.9897375,-0.4868082,-3.3867824
66,0.9754405617713928,73.08069610595703,75.19380187988281,1.828809930280781,-5.827387319379169,-85.07417081889116,9.836362,-6.416548,-10.73287,30.13887,-26.652113,4.231164,-20.760149,-9.873722,-12.243222,12.95635,-0.956256,6.0063314,-7.76208,-3.139243,14.720081,-10.771015,17.857573,-2.7383385,40.923107,17.673689,0.59760594,12.4267,16.427418,-7.103736,9.735737,70.58339,-14.761628,-0.4148208,-3.3491387
67,1.0332642793655396,74.22461700439453,75.24625396728516,1.7466905834124875,-6.091078025699928,-85.06539941380422,8.970963,-6.4472814,-10.691884,30.427973,-26.830198,3.871964,-21.480494,-10.059229,-12.282422,16.1462,-1.6158013,5.741243,-7.5439963,-3.1635783,15.34997,-11.147691,18.139946,-3.118304,41.149982,17.342815,0.5230851,12.488719,16.206812,-6.8731217,9.402163,70.47896,-14.516212,-0.3459151,-3.3306813
68,1.091920256614685,75.35415649414062,75.30900573730469,1.683721673603916,-6.405566633942887,-85.15972831792794,8.219101,-6.474751,-10.528066,30.654556,-26.897728,3.6082876,-22.125267,-10.178195,-12.121516,19.571627,-2.3301868,5.475714,-7.244403,-3.1841006,15.973782,-11.386462,18.367746,-3.4759731,41.36798,17.024126,0.4576194,12.536099,15.929437,-6.7159834,9.35131,70.42106,-14.268111,-0.3230663,-3.3476245
69,1.1632317304611206,76.4555892944336,75.38145446777344,1.630376082668607,-6.810907784328125,-85.39883607744507,7.641593,-6.4864345,-10.188266,30.810562,-26.845572,3.4724092,-22.664217,-10.186654,-11.702361,23.291927,-3.1051376,5.226732,-6.8412027,-3.1785266,16.628355,-11.45685,18.527655,-3.7859864,41.558037,16.716803,0.40583968,12.562837,15.5910225,-6.6583877,9.666967,70.434235,-13.982642,-0.36572748,-3.4002464
70,1.2455884218215942,77.5538101196289,75.45189666748047,1.5608088162263267,-7.302007334832666,-85.75569290432291,7.1776166,-6.46509,-9.709106,30.98455,-26.670265,3.4145975,-23.116667,-10.042139,-11.037913,27.342602,-3.9270358,5.010543,-6.3630066,-3.1117148,17.330559,-11.370805,18.618372,-4.041654,41.717693,16.415274,0.36372524,12.584008,15.198482,-6.7013164,10.293272,70.48958,-13.657644,-0.45051178,-3.4727836
71,1.3381431102752686,78.635498046875,75.53189849853516,1.4946241261096334,-7.785794568275872,-86.16042276946808,6.721429,-6.4333196,-9.175953,31.154232,-26.400003,3.4012604,-23.516388,-9.797826,-10.274786,31.511137,-4.7605453,4.7936115,-5.8740873,-3.0025098,17.976631,-11.148489,18.64708,-4.2578554,41.86719,16.13532,0.32228005,12.600685,14.766593,-6.829839,11.121374,70.549934,-13.357571,-0.55616736,-3.5593877
72,1.4370466470718384,79.6904525756836,75.6219253540039,1.44898914550814,-8.168454902092106,-86.54457524684334,6.166961,-6.4128914,-8.672723,31.296663,-26.064217,3.3989928,-23.910423,-9.530805,-9.5487585,35.620518,-5.5907483,4.528054,-5.428975,-2.8795698,18.464792,-10.81816,18.62532,-4.458559,42.031162,15.891326,0.27266243,12.614128,14.307676,-7.0219474,12.033208,70.57553,-13.149684,-0.66022116,-3.6572685
73,1.5279810428619385,80.72577667236328,75.71810913085938,1.4272749918401673,-8.422395788784828,-86.92120839388011,5.4840856,-6.4104824,-8.182586,31.410105,-25.655165,3.4215672,-24.362911,-9.26792,-8.854931,39.782993,-6.4605083,4.15839,-5.0104127,-2.7523754,18.75519,-10.378424,18.556335,-4.6678987,42.222057,15.683384,0.20733215,12.632639,13.8016405,-7.2697754,13.079389,70.58964,-13.035451,-0.756292,-3.7818978
74,1.615622878074646,81.75247192382812,75.81340026855469,1.4142109632579953,-8.595442395231709,-87.3194234617298,4.727485,-6.4083576,-7.6694202,31.507763,-25.16476,3.4831269,-24.843283,-8.975274,-8.127669,44.075428,-7.381554,3.710611,-4.5906057,-2.6070712,18.90252,-9.827006,18.439352,-4.8787847,42.433247,15.5026655,0.13299473,12.653444,13.246255,-7.571841,14.291274,70.607475,-12.986893,-0.85621536,-3.9316475
75,1.7085853815078735,82.76732635498047,75.90707397460938,1.3942716176582055,-8.70755632307587,-87.69414812131649,3.9177473,-6.3947935,-7.188276,31.587193,-24.619228,3.5485864,-25.26435,-8.6513405,-7.406292,48.28435,-8.296219,3.2542076,-4.2012763,-2.4428225,18.951056,-9.198119,18.280897,-5.0764103,42.665386,15.34843,0.06281091,12.662595,12.681538,-7.910783,15.511677,70.5694,-13.030609,-0.9635009,-4.080335
76,1.7865047454833984,83.78360748291016,75.99711608886719,1.3533053873377272,-8.77906672794426,-88.00001772308147,3.0745287,-6.357838,-6.7963333,31.646389,-24.043983,3.5794747,-25.540283,-8.285943,-6.7357306,52.19747,-9.14663,2.8676581,-3.8628576,-2.2607665,18.945675,-8.537172,18.090797,-5.257905,42.92712,15.219059,0.010791086,12.647959,12.146948,-8.261153,16.571102,70.418495,-13.197517,-1.080848,-4.2064395
77,1.8642338514328003,84.78621673583984,76.08812713623047,1.2772695817834805,-8.793969804203945,-88.2222395571952,2.1730955,-6.2836347,-6.5154138,31.697653,-23.4464,3.5603633,-25.68439,-7.8523836,-6.1193404,55.820633,-9.928424,2.5631785,-3.5688543,-2.0541117,18.86606,-7.8571196,17.870495,-5.4317727,43.23228,15.137839,-0.015562668,12.603988,11.64472,-8.60945,17.444143,70.15384,-13.568639,-1.207006,-4.318121
78,1.9311182498931885,85.77346801757812,76.1766128540039,1.1741150797636448,-8.748269837047888,-88.38650080176714,1.2152318,-6.1832514,-6.3143888,31.73024,-22.80797,3.5127804,-25.733536,-7.35783,-5.5398073,59.26396,-10.677482,2.3076005,-3.298984,-1.8292102,18.697397,-7.1485877,17.620125,-5.614006,43.58524,15.09519,-0.023815436,12.540131,11.148649,-8.955586,18.201319,69.81098,-14.108411,-1.3396758,-4.4291143
79,1.9729058742523193,86.76008605957031,76.263427734375,1.06849348129895,-8.680686820652657,-88.50857725582871,0.24657463,-6.080342,-6.170636,31.732695,-22.128185,3.4490404,-25.646671,-6.844995,-5.0143456,62.480682,-11.3925295,2.109694,-3.0519288,-1.6112832,18.493923,-6.4185286,17.350975,-5.8103833,43.976547,15.042922,-0.0229255,12.466097,10.653126,-9.297527,18.816132,69.391396,-14.672606,-1.4801826,-4.527419
80,2.0175299644470215,87.72907257080078,76.34934997558594,0.9790840766114585,-8.630287205655238,-88.60383767379699,-0.68040097,-5.997549,-6.062099,31.681393,-21.39996,3.3809533,-25.38029,-6.363365,-4.554795,65.41299,-12.0706005,1.9751195,-2.8246787,-1.427387,18.310131,-5.675167,17.079643,-6.0301404,44.397575,14.929505,-0.021651171,12.391835,10.156495,-9.630493,19.26011,68.89333,-15.118621,-1.6295054,-4.5998216
81,2.0431649684906006,88.70366668701172,76.43221282958984,0.9140676742729241,-8.607072300938574,-88.6707445129135,-1.5461702,-5.9345036,-5.9967384,31.561337,-20.613646,3.3088646,-24.908522,-5.929024,-4.1643543,68.04888,-12.729266,1.9242213,-2.619733,-1.2924932,18.155334,-4.9014196,16.816545,-6.2608185,44.827484,14.754784,-0.0034377128,12.324663,9.662927,-9.9505415,19.489002,68.29773,-15.416359,-1.7940701,-4.614462
82,2.0585107803344727,89.66607666015625,76.50923156738281,0.8615802259334988,-8.590621451904926,-88.70259697137101,-2.3810434,-5.8812356,-5.9835305,31.389164,-19.77647,3.2245312,-24.261715,-5.5239472,-3.8321474,70.42513,-13.367436,1.9421593,-2.4357338,-1.1961197,18.002352,-4.0999255,16.563196,-6.5067406,45.277523,14.536134,0.030252974,12.256343,9.173041,-10.257358,19.528639,67.61311,-15.640704,-1.9704243,-4.587904
83,2.0720772743225098,90.63080596923828,76.5751953125,0.8213865740019074,-8.57384612012696,-88.70711873828373,-3.205186,-5.8430295,-6.001347,31.185324,-18.90479,3.1262698,-23.479593,-5.1495314,-3.5466335,72.55058,-13.952502,1.9787982,-2.265771,-1.1272485,17.852467,-3.3014297,16.32145,-6.795619,45.780975,14.253188,0.043550164,12.172669,8.673969,-10.549489,19.459679,66.89472,-15.803303,-2.1544104,-4.58058
84,2.0757229328155518,91.59938049316406,76.62954711914062,0.7921968888506499,-8.549865927031671,-88.69177760863393,-4.0402603,-5.8250375,-6.028184,30.973366,-18.017412,3.0128636,-22.602055,-4.8043613,-3.296254,74.42917,-14.448921,1.9874289,-2.1038964,-1.0752671,17.707014,-2.537262,16.095093,-7.154264,46.37139,13.883168,0.0009036219,12.058885,8.149703,-10.825329,19.36305,66.19926,-15.917081,-2.3415895,-4.6532326
85,2.0702836513519287,92.57333374023438,76.66280364990234,0.7738431685794948,-8.511356692581938,-88.6452806619121,-4.900488,-5.829492,-6.074958,30.760115,-17.11526,2.8740623,-21.627369,-4.509167,-3.1070576,76.06224,-14.896811,1.9357278,-1.9599701,-1.043306,17.560629,-1.8053629,15.891676,-7.5902524,47.053223,13.360837,-0.13077028,11.922624,7.593838,-11.081387,19.25011,65.53767,-15.964141,-2.5380113,-4.8380136
86,2.061026096343994,93.54887390136719,76.67992401123047,0.7696791909278893,-8.464652073582558,-88.56785828478257,-5.7707353,-5.852009,-6.149442,30.532303,-16.190096,2.71143,-20.540705,-4.260462,-2.9722905,77.447716,-15.295458,1.8531722,-1.8345114,-1.0393035,17.414404,-1.0883586,15.71477,-8.085776,47.807297,12.716215,-0.3236085,11.765288,7.012492,-11.317643,19.082792,64.88616,-15.945714,-2.7434237,-5.097263
87,2.048678159713745,94.53152465820312,76.6801986694336,0.7788873541963752,-8.422463698084075,-88.48540779752544,-6.62796,-5.887184,-6.2238536,30.281471,-15.245233,2.542128,-19.363216,-4.0190983,-2.8343246,78.58363,-15.548189,1.7854695,-1.7082967,-1.0568964,17.280111,-0.3922725,15.558565,-8.628025,48.629013,12.070403,-0.5214047,11.563528,6.408294,-11.537323,18.872017,64.24705,-15.899288,-2.9456646,-5.38564
88,2.0361735820770264,95.51542663574219,76.66682434082031,0.8031961559330911,-8.397604467774231,-88.42330799690069,-7.4513016,-5.9294033,-6.2699757,30.003233,-14.28561,2.384185,-18.115362,-3.7448683,-2.6379936,79.466606,-15.557219,1.7796631,-1.5639012,-1.0878333,17.168924,0.27833956,15.411898,-9.201487,49.513462,11.547838,-0.66813326,11.296667,5.7833652,-11.747068,18.630947,63.620804,-15.861532,-3.1302729,-5.657946
89,2.0270700454711914,96.50431060791016,76.63809204101562,0.8447002393012591,-8.396380282800111,-88.38755798214478,-8.234179,-5.9760756,-6.2795515,29.69966,-13.315769,2.2427368,-16.795881,-3.4319808,-2.3741236,80.10651,-15.251549,1.8184142,-1.4029613,-1.1302837,17.088537,0.9291888,15.26811,-9.796899,50.46538,11.183647,-0.7528021,10.944289,5.1374,-11.95029,18.34882,63.00197,-15.828657,-3.300523,-5.911646
90,2.0192365646362305,97.49532318115234,76.59648895263672,0.9019581964101626,-8.411160618714261,-88.36472329725278,-8.988434,-6.028105,-6.268371,29.372063,-12.332019,2.1069987,-15.396635,-3.099794,-2.0706835,80.50005,-14.696515,1.888728,-1.2349172,-1.1843411,17.030457,1.5623791,15.127412,-10.4208975,51.486588,10.913577,-0.8036788,10.524843,4.46806,-12.148793,18.02614,62.39305,-15.785065,-3.4612517,-6.1668925
91,2.0172464847564697,98.48597717285156,76.5433578491211,0.9711455355490123,-8.433655708438756,-88.35186972598446,-9.723709,-6.0856643,-6.242642,29.018898,-11.328235,1.9720986,-13.929381,-2.7445936,-1.7276666,80.629875,-13.999446,2.045812,-1.0546341,-1.2433056,16.982061,2.1677966,14.98805,-11.081095,52.567146,10.713342,-0.8244851,10.07708,3.7758307,-12.347279,17.695906,61.803177,-15.746536,-3.600415,-6.4115963
92,2.0083022117614746,99.48808288574219,76.46959686279297,1.0503668402106876,-8.45550908449932,-88.34636484973997,-10.447538,-6.1496563,-6.208465,28.634338,-10.295933,1.8337727,-12.404192,-2.3619177,-1.3440634,80.47662,-13.269337,2.344202,-0.8586362,-1.2996675,16.930885,2.7326336,14.847752,-11.785727,53.69949,10.556444,-0.8190555,9.639489,3.063229,-12.552719,17.390436,61.23892,-15.729774,-3.7058315,-6.6335926
93,2.0047385692596436,100.48754119873047,76.38662719726562,1.1350403681082182,-8.491034529615417,-88.3428030942854,-11.16214,-6.227161,-6.173829,28.255943,-9.241767,1.7059673,-10.782345,-1.9297396,-0.9051569,80.036354,-12.524795,2.870312,-0.65399617,-1.3474815,16.890856,3.257832,14.704695,-12.544967,54.88567,10.457644,-0.7770176,9.199086,2.3316984,-12.768167,17.11087,60.695244,-15.738987,-3.7600236,-6.8284636
94,1.9977400302886963,101.48822021484375,76.2896499633789,1.2280408481407545,-8.539022691314594,-88.34467277486746,-11.86326,-6.314829,-6.1329594,27.872133,-8.164875,1.5856284,-9.068691,-1.4566175,-0.41017553,79.31743,-11.718261,3.570954,-0.44082817,-1.3899717,16.8622,3.748333,14.558382,-13.351273,56.129604,10.423934,-0.70089704,8.743272,1.5799279,-12.99413,16.845364,60.169674,-15.763717,-3.774008,-7.002065
95,1.9913911819458008,102.49640655517578,76.1749496459961,1.3341896842226388,-8.56779243821653,-88.36150186836352,-12.552323,-6.3994665,-6.070879,27.411983,-7.054113,1.4449782,-7.3440094,-0.9882627,0.12045628,78.33039,-10.85769,4.287287,-0.20567623,-1.4324973,16.813368,4.199904,14.40662,-14.183877,57.42173,10.420301,-0.61415416,8.309491,0.8118797,-13.231012,16.606827,59.664726,-15.797837,-3.7786338,-7.156311
96,1.9929381608963013,103.49729919433594,76.05470275878906,1.459663308608211,-8.545878656975326,-88.40307863361565,-13.227397,-6.468364,-5.97339,26.798885,-5.891143,1.2577665,-5.688367,-0.5731905,0.6636118,77.082565,-9.947422,4.8586745,0.06377591,-1.4812124,16.71313,4.608988,14.245789,-15.019278,58.750908,10.413363,-0.5394325,7.9351826,0.030511064,-13.481663,16.40804,59.184544,-15.836075,-3.8047593,-7.2942677
97,1.9933332204818726,104.50301361083984,75.92160034179688,1.613714340295044,-8.481277514043683,-88.46455392643385,-13.875126,-6.554618,-5.855449,26.01507,-4.6270022,1.0577124,-4.0958514,-0.22940414,1.2204816,75.58013,-8.805131,5.423134,0.36413917,-1.5420452,16.560812,4.965602,14.072897,-15.889548,60.1505,10.387233,-0.4885365,7.629275,-0.75925666,-13.749739,16.255693,58.729843,-15.878329,-3.8661542,-7.40017
98,1.9911503791809082,105.51702880859375,75.7898178100586,1.7875648759822655,-8.385490478110105,-88.54310972811273,-14.498316,-6.6534214,-5.718483,25.097458,-3.2834558,0.8471139,-2.5316448,0.06727839,1.8062218,73.82228,-7.493507,6.003399,0.69078135,-1.6073035,16.37123,5.271304,13.886619,-16.793516,61.614998,10.362427,-0.4469528,7.3720756,-1.5576094,-14.036741,16.140816,58.295204,-15.927193,-3.9446704,-7.477761
99,1.9778141975402832,106.55754852294922,75.64688873291016,1.9622212165086037,-8.231578917109765,-88.65338719728524,-15.115435,-6.698323,-5.529567,24.046213,-1.9471833,0.5540837,-1.0380372,0.3173287,2.4049969,71.8108,-6.3763494,6.2531734,1.0522935,-1.6619421,16.138144,5.5421896,13.685049,-17.657818,63.072628,10.3584385,-0.39825833,7.157495,-2.368908,-14.338888,16.055552,57.873234,-15.977784,-4.0235386,-7.5591927
100,1.9680602550506592,107.59684753417969,75.50006866455078,2.1147355562937817,-7.993405207552441,-88.8094929428101,-15.742673,-6.6242585,-5.2574224,22.860504,-0.70267445,0.106591664,0.3399206,0.5148753,2.9874296,69.54914,-5.8131986,5.813638,1.4553399,-1.6924106,15.855385,5.7993474,13.465842,-18.404095,64.44973,10.398354,-0.3264642,6.9796004,-3.2009528,-14.6486635,15.994943,57.459843,-16.025438,-4.085798,-7.677251
101,1.9487069845199585,108.63545227050781,75.35420989990234,2.2428918360061716,-7.646683625099496,-89.01803236532561,-16.369438,-6.415384,-4.9061823,21.46735,0.52161074,-0.5927669,1.6216848,0.7334765,3.6114614,66.91285,-5.7303066,4.3396516,1.9128315,-1.700689,15.491651,6.04002,13.227886,-19.047031,65.77125,10.521101,-0.22871004,6.838172,-4.062235,-14.965942,15.989749,57.07333,-16.052841,-4.1329474,-7.8572373
102,1.9203954935073853,109.68008422851562,75.20291900634766,2.3405566947053518,-7.214057717612645,-89.27235334305472,-16.979212,-6.1079187,-4.4945717,19.877712,1.7551173,-1.4816928,2.8131642,0.98136646,4.264062,63.981213,-6.0202975,2.1003273,2.4167802,-1.6822484,15.062472,6.259364,12.969869,-19.612646,67.05902,10.705379,-0.11265218,6.735959,-4.9493127,-15.29152,16.033924,56.711376,-16.068586,-4.172013,-8.077316
103,1.8909248113632202,110.75132751464844,75.04180908203125,2.3916386313354274,-6.738595249263192,-89.56935927258198,-17.582972,-5.707807,-4.010091,18.21978,2.8440156,-2.3958716,3.8541965,1.190142,4.8293467,61.036816,-6.9848056,-0.30793893,2.943816,-1.6172802,14.630416,6.4714103,12.690742,-20.043703,68.24443,10.881068,0.017866481,6.672397,-5.859171,-15.618443,16.071362,56.347557,-16.104788,-4.1936994,-8.300865
104,1.8528133630752563,111.86162567138672,74.86894226074219,2.3867985217326515,-6.262238028203059,-89.90546423209557,-18.201038,-5.2155566,-3.4325373,16.636976,3.6180022,-3.1682742,4.700454,1.2959846,5.210545,58.300053,-8.894781,-2.259684,3.4693463,-1.4959301,14.255462,6.692614,12.390675,-20.280432,69.258545,10.980229,0.15911858,6.647524,-6.7924156,-15.934516,16.047266,55.9613,-16.194803,-4.1885805,-8.492444
105,1.8177920579910278,112.99127197265625,74.6811294555664,2.3397407809470194,-5.761844017596825,-90.2780333569513,-18.874779,-4.627922,-2.753387,15.148929,4.009972,-3.8401477,5.395828,1.2365303,5.333969,55.63213,-12.274389,-3.5740185,3.9920225,-1.3377401,13.923725,6.9191318,12.0712595,-20.31706,70.08972,10.988159,0.3308803,6.6956763,-7.768292,-16.229568,15.941691,55.55308,-16.383516,-4.1370163,-8.633996
106,1.7677985429763794,114.11553955078125,74.49967956542969,2.2464685354331975,-5.2290198372237,-90.69179983242402,-19.581703,-3.9298866,-1.9789054,13.694215,4.108987,-4.474193,5.983463,1.1284516,5.297921,52.877666,-16.7843,-4.4811583,4.5248537,-1.1451274,13.6121435,7.148326,11.73311,-20.183578,70.772606,10.939243,0.5278211,6.806294,-8.78765,-16.502752,15.785479,55.14283,-16.644714,-4.049363,-8.749461
107,1.717503309249878,115.23973083496094,74.33262634277344,2.0932382946477515,-4.723595056632565,-91.15319277169877,-20.252468,-3.117481,-1.1045978,12.295955,3.9771063,-4.93629,6.4125776,1.0985516,5.226789,50.216724,-21.37863,-5.022878,5.06256,-0.8957335,13.363034,7.3988147,11.374284,-19.87565,71.30814,10.838296,0.7080868,6.912072,-9.824818,-16.75626,15.604268,54.738636,-16.90069,-3.960816,-8.865875
108,1.6619682312011719,116.39688110351562,74.17023468017578,1.8713395467153722,-4.303507795647126,-91.66330854094927,-20.818405,-2.2048295,-0.12889951,10.965053,3.6856642,-5.0958858,6.5990744,1.2301039,5.227959,47.916042,-25.061941,-5.324622,5.594349,-0.5701711,13.216423,7.6876464,10.991011,-19.388914,71.69691,10.68998,0.8305536,6.945289,-10.8538685,-16.992937,15.425498,54.346687,-17.07205,-3.906551,-9.010367
109,1.6151996850967407,117.57666778564453,74.01686096191406,1.5483903112990482,-3.958426058009608,-92.2321211214797,-21.268803,-1.1631421,0.9111759,9.591817,3.150182,-4.8174486,6.4734526,1.5156534,5.2557955,46.02467,-27.632614,-5.4061627,6.118813,-0.12544587,13.150033,8.026642,10.577993,-18.693672,71.92597,10.465774,0.8761543,6.88388,-11.885166,-17.2128,15.253982,53.971897,-17.127243,-3.8917403,-9.200263
110,1.5829416513442993,118.76654815673828,73.87902069091797,1.1533048425859083,-3.6645416297248588,-92.85054133853015,-21.629295,-0.022070238,2.0242028,8.18655,2.3725605,-4.2154913,6.0885096,1.8711486,5.2263017,44.42012,-29.60474,-5.233894,6.6330514,0.40436152,13.147383,8.402408,10.130884,-17.802437,72.00185,10.173724,0.8693447,6.764522,-12.930317,-17.413235,15.079393,53.61147,-17.110075,-3.8991628,-9.417996
111,1.564746379852295,119.93943786621094,73.76148223876953,0.7741407118304452,-3.4560191275601633,-93.48710778534884,-21.903652,1.1105644,3.2817976,6.97128,1.5334783,-3.533774,5.5078583,2.2500503,5.214943,43.197216,-31.12476,-4.9310694,7.120611,0.92693955,13.256908,8.789619,9.6491165,-16.774431,71.956764,9.872354,0.83433336,6.6080003,-13.963575,-17.59483,14.903303,53.259777,-17.058556,-3.931008,-9.63804
112,1.5469868183135986,121.08503723144531,73.66031646728516,0.4901065789636973,-3.3654838746392386,-94.11073422024809,-22.339773,2.1597698,4.7525725,6.6856413,0.5522768,-3.0089219,4.782191,2.6067836,5.322191,42.46796,-32.348663,-4.640484,7.566684,1.3573947,13.530341,9.16247,9.135285,-15.66487,71.819336,9.622875,0.79511213,6.435496,-14.957895,-17.762089,14.72671,52.9084,-17.010118,-3.989191,-9.834276
113,1.524198055267334,122.25454711914062,73.57384490966797,0.30791773987942195,-3.4181182077374377,-94.77414087709538,-22.623594,3.182687,6.667325,6.7200913,-0.22721456,-2.7056072,3.827196,2.9687374,5.674466,42.42827,-33.28102,-4.4190235,8.019509,1.7046903,14.032053,9.524715,8.575065,-14.36701,71.544464,9.454051,0.7493771,6.2331085,-15.930195,-17.921371,14.523106,52.536263,-16.973036,-4.0756235,-9.975009
114,1.5238268375396729,123.46858978271484,73.51249694824219,0.19215764281106043,-3.5883201962429885,-95.469492255011,-22.655338,4.1880403,8.928618,6.7668276,-0.78626543,-2.4921792,2.6245055,3.3390124,6.195298,43.005886,-33.88049,-4.2202835,8.46066,2.015535,14.716988,9.867956,7.9615993,-12.886048,71.14349,9.330584,0.68650264,5.9971027,-16.891397,-18.073263,14.3051605,52.156956,-16.925745,-4.1887083,-10.081824
115,1.545420527458191,124.67996215820312,73.46698760986328,0.15183933574842717,-3.8310057785457245,-96.07763261539866,-22.517378,5.029601,11.117608,6.9718194,-1.1451546,-2.2861798,1.3241417,3.6405149,6.695311,43.90233,-34.229626,-4.0294323,8.784601,2.2642267,15.481849,10.157688,7.3260646,-11.451721,70.71539,9.21053,0.61819595,5.7640586,-17.793571,-18.210287,14.121466,51.79963,-16.863997,-4.325625,-10.207199
116,1.5679398775100708,125.89334106445312,73.45338439941406,0.19619741291729986,-4.102280634777833,-96.4829285014447,-22.902416,5.717621,12.745498,8.780444,-2.0138535,-2.000751,0.07796957,3.7938018,6.9907036,44.811504,-34.40509,-3.8322499,8.90149,2.4166691,16.231049,10.384274,6.7266393,-10.298791,70.33383,9.052539,0.5574893,5.565793,-18.574581,-18.321468,14.005776,51.478035,-16.784811,-4.4845986,-10.401885
117,1.5916414260864258,127.10662078857422,73.46483612060547,0.32986665401519766,-4.429427305115563,-96.66668125955036,-23.49654,6.157444,13.709262,11.58966,-2.9880235,-1.6170937,-1.1166451,3.7796936,7.0479083,45.794777,-34.35842,-3.635481,8.797647,2.4417942,17.013039,10.582738,6.2016287,-9.459069,69.94461,8.829801,0.5192984,5.3872313,-19.218803,-18.40002,13.93793,51.15192,-16.70032,-4.674674,-10.678972
118,1.6085928678512573,128.28790283203125,73.50088500976562,0.4993532213076761,-4.840999621841401,-96.71022703710435,-24.178452,6.4540496,14.244214,15.155357,-3.9877002,-1.1867833,-2.292788,3.6972008,6.977188,46.9318,-34.04985,-3.438123,8.556765,2.3953104,17.870544,10.769435,5.755479,-8.825083,69.50475,8.562746,0.49359053,5.2098923,-19.739769,-18.446379,13.8871565,50.80978,-16.609798,-4.8952417,-11.007901
119,1.6153044700622559,129.42721557617188,73.55178833007812,0.6252147020860974,-5.293658974879576,-96.64573042007079,-24.86412,6.70625,14.455447,19.153301,-4.9869113,-0.73154736,-3.3562422,3.632438,6.809324,47.957813,-33.575874,-3.2294257,8.233443,2.3638895,18.69902,10.919172,5.3974686,-8.427175,69.10062,8.278419,0.45671877,5.0606465,-20.117352,-18.463097,13.869933,50.505177,-16.49489,-5.1302767,-11.374204
120,1.611210584640503,130.53054809570312,73.60784912109375,0.6584211719738833,-5.730101065785135,-96.48924006751412,-25.475904,6.9812036,14.451481,23.255161,-5.9601398,-0.25438637,-4.2405524,3.6247935,6.5697675,48.635376,-33.049644,-3.0071468,7.872491,2.3989809,19.388357,11.003745,5.1399517,-8.305145,68.8205,8.000723,0.3839802,4.964404,-20.323309,-18.455198,13.89625,50.283836,-16.335587,-5.364447,-11.762795
121,1.6061427593231201,131.60284423828125,73.67720794677734,0.5954335014814174,-6.155821000425546,-96.18621784020173,-26.031826,7.2382755,14.161654,27.533354,-6.928267,0.25344393,-4.9122977,3.6544032,6.229175,48.923954,-32.47063,-2.761031,7.4358883,2.4988341,19.922205,11.008511,5.004618,-8.584247,68.7262,7.6807384,0.2482234,4.9485645,-20.33179,-18.425653,14.000893,50.163418,-16.058872,-5.631355,-12.227458
122,1.5913996696472168,132.6575164794922,73.75472259521484,0.4686582990752551,-6.590186489765646,-95.74385165939704,-26.546932,7.40071,13.575951,32.05565,-7.857693,0.7707105,-5.422334,3.6933632,5.7863946,48.95184,-31.794792,-2.499997,6.9262576,2.622648,20.355486,10.9563875,4.990528,-9.2173605,68.7603,7.3205476,0.06697922,4.984174,-20.142141,-18.37871,14.153908,50.096825,-15.695891,-5.930042,-12.752564
123,1.5693892240524292,133.7009735107422,73.83768463134766,0.3055345674908122,-6.986720186316975,-95.25816065825005,-26.973532,7.4989333,12.8839655,36.561363,-8.694838,1.2790233,-5.8488045,3.7389767,5.3056574,48.75789,-31.08214,-2.2593822,6.4411464,2.7509725,20.674393,10.865574,5.0650578,-10.000381,68.8412,7.0149274,-0.11540646,5.024752,-19.771976,-18.30824,14.260659,50.05045,-15.392474,-6.190288,-13.225613
124,1.5458451509475708,134.73770141601562,73.93061828613281,0.13585670053338791,-7.300101735030318,-94.82711448587908,-27.272808,7.5977426,12.266917,40.825363,-9.409311,1.7797391,-6.266013,3.787351,4.851629,48.37823,-30.389904,-2.0755694,6.048398,2.8662138,20.871958,10.760682,5.184453,-10.68327,68.87221,6.8771095,-0.2543362,5.020693,-19.261927,-18.218184,14.266526,49.99496,-15.278814,-6.3373814,-13.534675
125,1.522051215171814,135.74705505371094,74.03483581542969,-0.030928698077941047,-7.506598101259014,-94.44394538467509,-27.482418,7.734434,11.739576,44.92147,-10.022777,2.3048108,-6.6617913,3.8189375,4.3941345,47.75148,-29.758795,-1.9669468,5.736975,2.9714944,20.911257,10.613782,5.331671,-11.3063135,68.89287,6.9699254,-0.33837742,4.987915,-18.617744,-18.100536,14.1741495,49.950764,-15.441938,-6.3288374,-13.642897
126,1.503749966621399,136.7276611328125,74.1495361328125,-0.20165635711328647,-7.630916266306843,-94.06456098099714,-27.625278,7.884216,11.210715,48.972145,-10.5692425,2.859963,-7.0072117,3.8326101,3.9119484,46.882954,-29.149698,-1.9143153,5.4620805,3.0741415,20.802538,10.419307,5.510971,-11.949431,68.94133,7.231196,-0.39102748,4.950066,-17.840912,-17.95296,14.032565,49.945335,-15.792433,-6.2093477,-13.614951
127,1.4899345636367798,137.69284057617188,74.27354431152344,-0.36891292119694696,-7.701849189764844,-93.73186189179708,-27.644442,8.038758,10.696724,52.836704,-11.044711,3.4169044,-7.3517046,3.8571963,3.4810126,45.910706,-28.50044,-1.8966421,5.2491746,3.1755397,20.608242,10.225964,5.7052345,-12.441646,68.92501,7.5777707,-0.41911906,4.878299,-16.960203,-17.778435,13.843488,49.96089,-16.200138,-6.034608,-13.493919
128,1.483819603919983,138.6580047607422,74.39974212646484,-0.5297280677424162,-7.748961523183487,-93.48866164894737,-27.483557,8.181463,10.218615,56.372845,-11.441487,3.939896,-7.745088,3.9222214,3.1774542,44.971966,-27.748486,-1.8925264,5.1119494,3.2772658,20.38969,10.081025,5.884887,-12.599999,68.75704,7.9304833,-0.42965913,4.747573,-16.018126,-17.582674,13.620156,49.991898,-16.536907,-5.8588943,-13.326114
129,1.4805676937103271,139.61151123046875,74.53064727783203,-0.6846115237316504,-7.76845189575555,-93.35729989057613,-27.134796,8.331395,9.788007,59.585434,-11.774285,4.443304,-8.1976795,4.0566583,3.031868,44.075497,-26.874783,-1.9193343,5.0667477,3.3894515,20.137743,9.999952,6.0235014,-12.308876,68.41056,8.351131,-0.41167137,4.5189147,-15.007323,-17.36565,13.349121,50.025814,-16.814533,-5.664111,-13.096131
130,1.4935886859893799,140.54342651367188,74.67144012451172,-0.8339126112888924,-7.748944385283717,-93.31181538415704,-26.629713,8.493314,9.39381,62.55232,-12.04667,4.940559,-8.680806,4.2448797,2.994482,43.152576,-25.911278,-1.9804194,5.0874033,3.511294,19.82238,9.947552,6.1172404,-11.672234,67.95522,8.860826,-0.367863,4.2237115,-13.93072,-17.124533,13.053256,50.091904,-17.086716,-5.4317694,-12.790945
131,1.5144580602645874,141.48582458496094,74.80635833740234,-0.9712563410698933,-7.709118799496313,-93.31971128451538,-25.975182,8.622654,9.023138,65.24421,-12.244794,5.387858,-9.190051,4.450061,3.019832,42.23541,-24.878345,-2.035091,5.127015,3.6331866,19.475975,9.89581,6.174947,-10.842919,67.44301,9.319101,-0.32336906,3.9414475,-12.83643,-16.863262,12.789715,50.23502,-17.283672,-5.2143855,-12.461545
132,1.5367883443832397,142.41603088378906,74.94029235839844,-1.091328861429183,-7.666899001307904,-93.34829873778723,-25.179352,8.672623,8.663619,67.62891,-12.353609,5.7394013,-9.723905,4.631922,3.0660348,41.35872,-23.796701,-2.0431912,5.140069,3.744939,19.1335,9.8204775,6.2131004,-9.97447,66.916534,9.585369,-0.30031103,3.7500606,-11.769286,-16.592562,12.609126,50.493187,-17.334894,-5.063466,-12.158835
133,1.5629092454910278,143.3452911376953,75.06616973876953,-1.1895047722123993,-7.624479566066494,-93.4068601324077,-24.230429,8.6335335,8.314633,69.70477,-12.372257,6.004453,-10.291418,4.788184,3.148406,40.540592,-22.651525,-1.9924587,5.13995,3.8468883,18.79575,9.724471,6.2378573,-9.0555725,66.36774,9.565556,-0.30590704,3.650928,-10.711698,-16.322176,12.499672,50.865074,-17.163395,-5.0120153,-11.883973
134,1.6053733825683594,144.26588439941406,75.18762969970703,-1.2699648165923272,-7.573308152158767,-93.50641668564936,-23.132084,8.527345,7.9840517,71.4945,-12.3096285,6.1990094,-10.89075,4.941913,3.2805455,39.760323,-21.4374,-1.9076905,5.1491003,3.944188,18.448479,9.619448,6.247703,-8.0295725,65.775925,9.350852,-0.3261449,3.6055663,-9.636221,-16.05346,12.431622,51.318474,-16.823236,-5.0247445,-11.611
135,1.6571869850158691,145.2081298828125,75.2882080078125,-1.337943932919035,-7.515212032946363,-93.61697772016039,-21.918795,8.355614,7.671396,73.00381,-12.167207,6.288656,-11.506788,5.084962,3.421964,38.995552,-20.189161,-1.8028266,5.134853,4.033257,18.106503,9.495343,6.2536063,-6.983364,65.15757,9.076488,-0.35044253,3.632769,-8.575748,-15.788821,12.426198,51.845028,-16.44002,-5.050481,-11.351387
136,1.7122235298156738,146.13711547851562,75.38471221923828,-1.3999988297315922,-7.451670862956068,-93.70806943854717,-20.624712,8.120202,7.373007,74.235535,-11.945556,6.2373652,-12.123003,5.203489,3.5343328,38.220802,-18.940306,-1.6892874,5.0692787,4.110469,17.786707,9.341401,6.2736664,-6.0112114,64.52231,8.872774,-0.3675543,3.7493176,-7.5578265,-15.531982,12.499069,52.430126,-16.138618,-5.0401096,-11.116155
137,1.7767246961593628,147.0842742919922,75.46331024169922,-1.453666946284542,-7.37675826283673,-93.78133435004159,-19.24474,7.83889,7.1183424,75.18265,-11.604361,6.0044584,-12.751908,5.283653,3.6220274,37.44358,-17.696268,-1.5632931,4.956263,4.176467,17.489458,9.151204,6.315267,-5.1329746,63.865665,8.75155,-0.37381038,3.9658928,-6.5789566,-15.2839985,12.641322,53.083744,-15.941471,-4.9876785,-10.9302025
138,1.8495393991470337,148.03822326660156,75.53453063964844,-1.4973220204178297,-7.291766595417727,-93.84950478884122,-17.770329,7.505461,6.891827,75.851234,-11.159303,5.61936,-13.397336,5.330485,3.7054973,36.67163,-16.439594,-1.419034,4.8122606,4.231128,17.208477,8.932425,6.3788857,-4.3065434,63.17711,8.647281,-0.37421814,4.2684035,-5.619373,-15.046988,12.838308,53.800587,-15.786006,-4.9183164,-10.779487
139,1.9241458177566528,149.00253295898438,75.58265686035156,-1.5388072088006948,-7.208519597840383,-93.89858524385123,-16.22933,7.087993,6.626417,76.26545,-10.698345,5.1558466,-14.036748,5.355543,3.7706714,35.891666,-15.17696,-1.2632586,4.6293306,4.27173,16.952967,8.691282,6.4722643,-3.5305245,62.465744,8.5774355,-0.37900466,4.635704,-4.6747174,-14.822553,13.09395,54.53437,-15.669416,-4.8302255,-10.615493
140,1.9969325065612793,149.9574432373047,75.61634826660156,-1.583521278286704,-7.139001161186194,-93.91467884766622,-14.647241,6.5569806,6.2580905,76.44829,-10.309144,4.6880817,-14.646119,5.3707404,3.802854,35.089325,-13.914605,-1.1029168,4.4016438,4.293495,16.731873,8.435326,6.606791,-2.80462,61.738945,8.559306,-0.39816558,5.0450735,-3.7409713,-14.612383,13.411154,55.23914,-15.589725,-4.7216086,-10.389182
141,2.065869092941284,150.9232635498047,75.6319580078125,-1.6371609132131157,-7.097830217912064,-93.88983120138694,-13.012138,5.875623,5.743189,76.42786,-10.060139,4.249221,-15.214,5.376622,3.8031452,34.273064,-12.6502905,-0.9598456,4.121823,4.296727,16.563652,8.165368,6.7896695,-2.1320426,60.987972,8.59922,-0.4375218,5.5020013,-2.8199294,-14.420147,13.812034,55.911263,-15.562664,-4.573286,-10.062989
142,2.1343815326690674,151.90443420410156,75.62409973144531,-1.6950496795344825,-7.074919297236069,-93.83348862939273,-11.313054,5.078261,5.1225634,76.18704,-9.892955,3.8017573,-15.754849,5.362275,3.7812736,33.44531,-11.381579,-0.8216276,3.7972336,4.282504,16.43825,7.8761168,7.0192842,-1.5146708,60.21299,8.685566,-0.4905925,6.01197,-1.9091842,-14.24596,14.284994,56.569668,-15.584067,-4.3932195,-9.670451
143,2.2010157108306885,152.8944091796875,75.59405517578125,-1.7532599069713282,-7.044902527015507,-93.75734493077988,-9.578291,4.2445965,4.4596705,75.68513,-9.7063675,3.315981,-16.289387,5.326262,3.7332497,32.593548,-10.119739,-0.6456927,3.4449582,4.2479105,16.321386,7.5667024,7.2928452,-0.9520677,59.43238,8.808605,-0.54733324,6.5531116,-1.0017803,-14.083492,14.784195,57.20506,-15.620724,-4.2200212,-9.268887
144,2.257350206375122,153.88253784179688,75.54923248291016,-1.8084016579126614,-6.982987389602049,-93.67243581838332,-7.837809,3.451463,3.814915,74.88038,-9.398645,2.7583115,-16.834297,5.2689342,3.6554275,31.698042,-8.87265,-0.39021483,3.0821543,4.1893516,16.178038,7.2381015,7.6084146,-0.44516623,58.662895,8.957301,-0.59608674,7.103542,-0.092743956,-13.921934,15.264278,57.809864,-15.639888,-4.0917573,-8.916158
145,2.312502384185791,154.8759307861328,75.47941589355469,-1.8511647389387744,-6.895738443861376,-93.57690936085996,-6.0747414,2.6595821,3.15727,73.7853,-8.966373,1.9829775,-17.405672,5.191339,3.5622113,30.801905,-7.6184483,-0.08895155,2.7095735,4.091319,16.011528,6.8876333,7.9702225,-0.0032425812,57.904003,9.1366,-0.6329648,7.6847863,0.8203498,-13.753617,15.73925,58.38321,-15.645921,-4.029303,-8.618319
146,2.365511894226074,155.87510681152344,75.39905548095703,-1.883248645579184,-6.792097048120413,-93.46595268709464,-4.278951,1.8558539,2.460343,72.41527,-8.462727,1.0600004,-17.98877,5.0906916,3.4537163,29.895285,-6.3594046,0.25160167,2.31949,3.9577088,15.83344,6.5151167,8.380404,0.37456918,57.1503,9.348919,-0.6629409,8.299481,1.7282213,-13.577636,16.225655,58.936592,-15.654024,-4.008426,-8.349099
147,2.4104831218719482,156.88180541992188,75.30897521972656,-1.9257675500697946,-6.650621886814629,-93.34584077005657,-2.4967363,1.1506835,1.7929811,70.73515,-7.864064,0.27567306,-18.553146,4.9649754,3.3043025,28.880648,-5.1400657,0.7122575,1.9151669,3.813693,15.622078,6.1257057,8.831619,0.70350456,56.413692,9.580109,-0.69065124,8.898569,2.6192594,-13.392893,16.684029,59.480022,-15.645413,-3.9991877,-8.1173315
148,2.456676483154297,157.8976287841797,75.2069320678711,-1.9931153380150568,-6.450381673854984,-93.22253676232287,-0.7798784,0.6486031,1.2310121,68.71322,-7.1381426,-0.08724394,-19.065504,4.8136625,3.0884793,27.65422,-3.9996147,1.3726932,1.4998643,3.6843777,15.357636,5.7258463,9.312406,1.0001984,55.704292,9.818875,-0.7209988,9.434594,3.4829354,-13.198754,17.07375,60.022373,-15.601965,-3.9714158,-7.932116
149,2.5065009593963623,158.9341583251953,75.1005859375,-2.0880676142841255,-6.17648725864852,-93.10907489923157,0.86181265,0.38812804,0.8237089,66.30238,-5.7599344,0.13486385,-19.51072,4.6316442,2.7686152,26.154778,-2.9049206,2.3789458,1.0737458,3.5744717,15.017567,5.324969,9.82153,1.2539437,55.028664,10.057523,-0.7653101,9.916613,4.3181605,-12.996046,17.423588,60.57435,-15.51965,-3.9199004,-7.8072968
150,2.5592174530029297,159.96505737304688,74.99557495117188,-2.1872496639604178,-5.846628934102707,-92.99494826623979,2.4485254,0.29746687,0.5435434,63.553207,-3.9289687,0.7642258,-19.894108,4.4184732,2.3718593,24.43123,-1.8332733,3.6485326,0.6299061,3.4608488,14.622095,4.9187384,10.361074,1.4615228,54.379276,10.305225,-0.817715,10.3639345,5.1276298,-12.7852,17.744974,61.130203,-15.407124,-3.859423,-7.7344775
151,2.6272263526916504,161.00531005859375,74.88906860351562,-2.277216889622589,-5.489248958585701,-92.85226257600664,3.9715972,0.30081096,0.34654257,60.575523,-2.693771,1.5624024,-20.209164,4.180435,1.9669082,22.531178,-0.83661425,4.9188676,0.16308025,3.3294039,14.216839,4.4925737,10.921586,1.6506741,53.7458,10.575159,-0.8583623,10.745504,5.913998,-12.561373,17.969414,61.667957,-15.26738,-3.7902153,-7.6888266
152,2.6938774585723877,162.06312561035156,74.7702407836914,-2.343035334487223,-5.130772445281432,-92.65405299930713,5.4325147,0.30317882,0.15145183,57.44419,-3.0805006,2.2685506,-20.46169,3.9191415,1.6182623,20.522081,0.021225672,5.92791,-0.33076552,3.170152,13.844988,4.0306644,11.490213,1.8477166,53.119198,10.881118,-0.8668541,11.032949,6.676512,-12.320434,18.026648,62.170338,-15.105889,-3.7122886,-7.647383
153,2.75708270072937,163.1417694091797,74.65404510498047,-2.41695862828355,-4.741879218586939,-92.38594894602483,6.901495,0.30536962,-0.10345729,53.92991,-5.861713,2.8334095,-20.643856,3.6657193,1.3318974,18.310604,0.70439595,6.6276336,-0.8650616,3.0183656,13.4820795,3.5214255,12.0584955,2.0659392,52.4974,11.263408,-0.8271414,11.200651,7.4214697,-12.056911,17.884758,62.622204,-14.951242,-3.618865,-7.6147017
154,2.825913667678833,164.21578979492188,74.536865234375,-2.4765227751797476,-4.324377393604077,-92.05929316285449,8.3843975,0.2892819,-0.39900392,49.988594,-10.280384,3.3489697,-20.739353,3.3886986,1.0740621,15.87888,1.2598253,7.1586156,-1.4383703,2.8514526,13.119987,2.977114,12.629352,2.2888746,51.88467,11.705224,-0.75402397,11.272641,8.147831,-11.769414,17.586151,63.03918,-14.793642,-3.5121467,-7.601499
155,2.894169330596924,165.29502868652344,74.41333770751953,-2.4434842268483474,-3.9472311664996345,-91.68859255210391,9.781526,0.16463384,-0.70094454,45.97244,-15.049916,3.7692487,-20.758802,3.0105884,0.8421065,13.426081,1.7326883,7.5367265,-2.0301752,2.5922067,12.820059,2.4172978,13.205988,2.4994264,51.279697,12.13464,-0.6735821,11.292798,8.849938,-11.458226,17.174538,63.440823,-14.577044,-3.4051914,-7.59189
156,2.9647483825683594,166.36439514160156,74.30260467529297,-2.2639684119950423,-3.6747734749271865,-91.29377619844333,10.974444,-0.11666284,-0.9470801,42.29544,-18.932472,4.0613074,-20.72996,2.476612,0.6280227,11.165537,2.164135,7.7713494,-2.6137898,2.1841247,12.637199,1.8595556,13.790652,2.6803071,50.68178,12.479729,-0.6114728,11.305582,9.519076,-11.127008,16.690935,63.848495,-14.245624,-3.3110483,-7.5700274
157,3.0283868312835693,167.44554138183594,74.19737243652344,-1.8903222365465644,-3.5145766805629286,-90.88004708404681,11.954348,-0.5830322,-1.0508606,38.9563,-21.723251,4.180435,-20.606035,1.7381829,0.49123827,8.9150915,2.5672216,7.785744,-3.190805,1.5739783,12.563431,1.310817,14.384029,2.8406699,50.072277,12.742531,-0.55622756,11.291384,10.165794,-10.776672,16.105082,64.25355,-13.750169,-3.232338,-7.52744
158,3.0961713790893555,168.54196166992188,74.07902526855469,-1.3967875850384426,-3.430133397670535,-90.44202867185261,12.788877,-1.1665426,-1.0408715,35.74011,-24.035233,4.1343317,-20.39693,0.8662911,0.3976398,6.6256924,2.9289167,7.5962977,-3.7646055,0.83368605,12.565505,0.7578344,14.9840765,2.984027,49.458733,12.952788,-0.5011841,11.2367325,10.790786,-10.4048,15.407964,64.6481,-13.131404,-3.1639466,-7.4730043
159,3.1837410926818848,169.63038635253906,73.96002960205078,-0.9096976796421944,-3.414990259030724,-89.99176446687167,13.433724,-1.7495637,-1.009277,32.84022,-25.936321,4.0010266,-21.08828,0.0033077232,0.20906255,6.5521846,2.2675111,7.3459654,-4.30546,0.09860762,12.660619,0.1876848,15.586023,3.086706,48.87808,13.082,-0.47825152,11.195876,11.368809,-10.013421,14.672017,65.04824,-12.467338,-3.101436,-7.4164066
160,3.2783963680267334,170.72389221191406,73.8660659790039,-0.5414169608852301,-3.4638477255187037,-89.54144802289174,13.819247,-2.2225907,-1.0576302,30.501892,-27.515554,3.8899014,-21.569014,-0.7464396,-0.17809267,6.5158706,1.9491467,7.185773,-4.786781,-0.5092299,12.873265,-0.41224408,16.184044,3.1271436,48.366127,13.101349,-0.51929176,11.223113,11.871422,-9.608094,13.969464,65.47552,-11.835784,-3.0455146,-7.368359
161,3.3555004596710205,171.85321044921875,73.80870819091797,-0.2805208761038912,-3.581659603156129,-89.05136610579906,13.844278,-2.5968447,-1.263158,28.891737,-28.766546,3.8688273,-21.836315,-1.4325701,-0.88116604,6.5095515,2.0595226,7.196701,-5.2389464,-1.0010122,13.25031,-1.0705534,16.780676,3.1144824,47.908154,12.997454,-0.6408218,11.306582,12.29024,-9.188382,13.243396,65.9165,-11.2337265,-3.0054982,-7.325884
162,3.419556140899658,172.9836883544922,73.77638244628906,-0.07766501772339164,-3.767750100968633,-88.53712780735513,13.534035,-2.9154,-1.5466381,27.922329,-29.69804,3.89895,-21.923742,-2.0945292,-1.8062078,6.529624,2.4809377,7.274626,-5.6527963,-1.4362493,13.769094,-1.7775589,17.374954,3.0539567,47.493916,12.787183,-0.8237337,11.425712,12.635376,-8.752998,12.476762,66.367386,-10.627323,-2.9790776,-7.2846184
163,3.4689862728118896,174.12521362304688,73.76708221435547,0.031994829922814,-4.009924577813516,-88.0913060409053,12.99799,-3.1274083,-1.7864522,27.47969,-30.427534,3.944382,-21.80115,-2.616944,-2.771952,6.5885143,3.1136284,7.288767,-5.9511437,-1.7789499,14.357716,-2.4829283,17.953028,2.9230309,47.160927,12.490363,-1.0465808,11.621345,12.910072,-8.31758,11.801575,66.851585,-10.0487585,-2.9422798,-7.2540755
164,3.5171291828155518,175.28004455566406,73.78457641601562,0.021214584800551477,-4.297645007159493,-87.80019220005128,12.353759,-3.1853256,-1.868472,27.433928,-31.05983,3.9660711,-22.519432,-2.9600117,-3.5397017,8.992087,2.6433516,7.113726,-6.07418,-1.9913743,14.949411,-3.1261282,18.493977,2.7083251,46.939045,12.129074,-1.288414,11.933812,13.125013,-7.9086885,11.357324,67.38377,-9.527298,-2.8712416,-7.242564
165,3.559434413909912,176.41970825195312,73.82617950439453,-0.11835165860619694,-4.668882280689188,-87.66309386164012,11.5957,-3.0803316,-1.7830462,27.892307,-31.607979,3.9807577,-23.396849,-3.1049945,-4.1098666,12.459711,1.7581179,6.7048683,-6.0278707,-2.0571735,15.593336,-3.7007768,18.987888,2.4123805,46.826565,11.647923,-1.5731239,12.413137,13.285194,-7.548285,11.176475,67.963264,-9.052366,-2.744519,-7.2625346
166,3.595472812652588,177.53323364257812,73.88568878173828,-0.30508709638226383,-5.140713826468844,-87.60985867595456,10.720446,-2.9091713,-1.6234285,28.8251,-31.988873,4.0133786,-24.294048,-3.1816308,-4.5690513,16.668098,0.6618218,6.1418324,-5.881469,-2.0536168,16.324577,-4.219928,19.434134,2.0541596,46.79709,11.061258,-1.9059936,13.020298,13.397001,-7.2388816,11.195203,68.57095,-8.609032,-2.5817492,-7.3034716
167,3.6221237182617188,178.62576293945312,73.9648666381836,-0.45875810393304944,-5.666093889201718,-87.62777523087335,9.845182,-2.7655306,-1.4188653,29.897581,-32.16535,4.032172,-25.146278,-3.2688708,-4.89147,21.25797,-0.5197986,5.49852,-5.663568,-2.0645149,17.051,-4.6486816,19.82589,1.6469427,46.84071,10.497992,-2.2352016,13.665957,13.47288,-6.979314,11.407961,69.1919,-8.219451,-2.415505,-7.3406687
168,3.6458775997161865,179.68597412109375,74.06178283691406,-0.539018254382044,-6.178479362521583,-87.72878508567146,9.040002,-2.683383,-1.1720415,30.833563,-32.134678,4.000438,-25.89823,-3.3745198,-5.0629635,25.84892,-1.64495,4.8415003,-5.3813705,-2.1214862,17.66876,-4.952797,20.154802,1.2072889,46.947945,10.085106,-2.5049124,14.265242,13.516802,-6.7709103,11.808867,69.821396,-7.9057856,-2.281525,-7.3503947
169,3.6760811805725098,180.7234344482422,74.17025756835938,-0.563575353895763,-6.675425916061966,-87.9728044121597,8.280063,-2.6230032,-0.8380662,31.692167,-31.874138,3.879219,-26.58823,-3.4326634,-5.0725856,30.548565,-2.7313411,4.1317425,-4.981929,-2.194632,18.165392,-5.1255517,20.416956,0.7216597,47.141323,9.862529,-2.708843,14.867158,13.510348,-6.62103,12.477203,70.51009,-7.6340747,-2.1877193,-7.313848
170,3.7157058715820312,181.73439025878906,74.28726196289062,-0.5642768170421227,-7.179325216331153,-88.34332372461827,7.5284357,-2.5557897,-0.41988796,32.592464,-31.403208,3.688692,-27.221142,-3.4107416,-4.9379306,35.460392,-3.815124,3.3587213,-4.478321,-2.248803,18.585754,-5.17457,20.612951,0.19749255,47.411533,9.762464,-2.8709238,15.495872,13.460045,-6.5319767,13.394612,71.2462,-7.4032707,-2.116023,-7.2463965
171,3.7512242794036865,182.714111328125,74.41154479980469,-0.543934437681995,-7.651148085735991,-88.75183121534963,6.806975,-2.4977176,0.019468585,33.38912,-30.807518,3.4843192,-27.749622,-3.3374438,-4.6966767,40.301453,-4.826534,2.6260211,-3.9586375,-2.2831266,18.905975,-5.0964427,20.740103,-0.3208199,47.705986,9.74927,-2.9778013,16.032309,13.404598,-6.4945693,14.397664,71.92953,-7.290994,-2.0632815,-7.175045
172,3.7916150093078613,183.6632537841797,74.54265594482422,-0.505461290333045,-8.05148451845317,-89.11173322786965,6.140902,-2.4658637,0.41895884,33.93222,-30.17031,3.3261688,-28.143063,-3.2483974,-4.3821535,44.82992,-5.7174487,2.0369828,-3.4907546,-2.2894313,19.104406,-4.908066,20.777306,-0.80803293,47.98289,9.79575,-3.0157712,16.363293,13.379835,-6.494975,15.289694,72.461914,-7.3870354,-2.0266106,-7.1309285
173,3.830178737640381,184.59071350097656,74.68456268310547,-0.4571426697001318,-8.368869303027697,-89.42428530453324,5.5423164,-2.449371,0.7887181,34.17197,-29.49519,3.229146,-28.423994,-3.104792,-3.9557598,49.077785,-6.4806104,1.6448584,-3.0947762,-2.2887077,19.150845,-4.577115,20.757376,-1.2444772,48.23195,9.908648,-2.9602926,16.431538,13.385774,-6.5201697,16.127047,72.84105,-7.735094,-2.0068536,-7.128125
174,3.8786909580230713,185.5004425048828,74.83753204345703,-0.4063533903293626,-8.620308117335783,-89.73276841986787,4.987456,-2.4286573,1.1562397,34.202095,-28.74966,3.1630962,-28.622732,-2.8785653,-3.426646,53.199516,-7.166603,1.3952847,-2.7181864,-2.2538643,19.063839,-4.122844,20.653406,-1.6580945,48.483,10.1103735,-2.824887,16.3127,13.404065,-6.582005,16.947111,73.11485,-8.293455,-2.0057662,-7.151231
175,3.9354491233825684,186.38101196289062,75.00265502929688,-0.36063241915559013,-8.809812726398036,-90.00644743116275,4.4477115,-2.4115212,1.482222,34.078712,-27.951458,3.1232195,-28.711435,-2.6364417,-2.901127,57.11554,-7.801364,1.2225137,-2.3705237,-2.1886652,18.87712,-3.5882225,20.47376,-2.065169,48.74066,10.341145,-2.6563385,16.071892,13.438653,-6.678956,17.66305,73.26143,-8.963855,-2.0185018,-7.184098
176,3.997061014175415,187.248046875,75.18186950683594,-0.3229946852842067,-8.942479837252112,-90.21440692437189,3.896426,-2.4095953,1.7276419,33.856216,-27.117884,3.1052408,-28.659992,-2.4534376,-2.4809344,60.73328,-8.408933,1.0549049,-2.0691507,-2.1080365,18.624268,-3.0034683,20.241005,-2.4713356,49.000824,10.537089,-2.5013564,15.770484,13.4901,-6.8045115,18.205658,73.258095,-9.642323,-2.040047,-7.208561
177,4.056984901428223,188.10708618164062,75.36302185058594,-0.29202167390286843,-9.000874931774748,-90.34895220977799,3.334762,-2.4361556,1.891243,33.49418,-26.23651,3.1124134,-28.47929,-2.3475213,-2.176992,64.05694,-8.996361,0.881713,-1.8143365,-2.0155153,18.28176,-2.3627272,19.958847,-2.8777058,49.25632,10.703156,-2.3537633,15.373891,13.570976,-6.955408,18.536276,73.07066,-10.36059,-2.0752335,-7.2124934
178,4.127638816833496,188.9498291015625,75.54825592041016,-0.2690986631942416,-8.988468888407048,-90.42636325574759,2.7746778,-2.4859383,1.9941933,32.983192,-25.305061,3.1479158,-28.182507,-2.2796755,-1.941755,67.14139,-9.557748,0.73694664,-1.5930943,-1.9086813,17.840464,-1.6602383,19.625252,-3.2900932,49.517155,10.863491,-2.1956375,14.864856,13.673935,-7.130385,18.697157,72.722206,-11.1544695,-2.124357,-7.208704
179,4.187685966491699,189.76461791992188,75.73735809326172,-0.25835301186640586,-8.941935586593258,-90.45156499765538,2.2074742,-2.5463066,2.0306063,32.416317,-24.350855,3.2076023,-27.74566,-2.246164,-1.7854725,69.96584,-10.09112,0.6099415,-1.4073094,-1.7906191,17.358099,-0.92651373,19.254808,-3.7193153,49.805347,10.977439,-2.0541902,14.330634,13.766922,-7.325556,18.743599,72.275894,-11.925889,-2.175062,-7.216382
180,4.236289024353027,190.57672119140625,75.91940307617188,-0.2611470587214388,-8.898106620346617,-90.42929925801816,1.6214324,-2.603258,1.9932472,31.892797,-23.403677,3.2872167,-27.14608,-2.246943,-1.716529,72.50566,-10.593737,0.48749208,-1.2586237,-1.6696031,16.893173,-0.1885936,18.871124,-4.17318,50.139435,11.001329,-1.9554996,13.8565645,13.816886,-7.5351157,18.730776,71.79589,-12.5784855,-2.2148945,-7.2535906
181,4.27445125579834,191.3898468017578,76.0876693725586,-0.2856931749170281,-8.863221993537572,-90.3486416582777,1.0208267,-2.6596901,1.8550423,31.418196,-22.454556,3.4134614,-26.363098,-2.312557,-1.7709619,74.75898,-11.104943,0.32863677,-1.1585479,-1.550995,16.447563,0.5695797,18.489508,-4.6452193,50.515457,10.888543,-1.9187815,13.445642,13.823884,-7.753661,18.661238,71.276726,-13.102471,-2.23515,-7.320382
182,4.311785697937012,192.19863891601562,76.24153900146484,-0.3240676957173164,-8.818931951044203,-90.21125394062544,0.4098105,-2.7275908,1.6310816,30.94542,-21.493034,3.5803168,-25.416384,-2.4367864,-1.9315349,76.74283,-11.61304,0.14681071,-1.1023278,-1.4372833,15.994981,1.3584042,18.111267,-5.1341805,50.9236,10.666645,-1.9243703,13.054656,13.801215,-7.977081,18.51512,70.69466,-13.543491,-2.2440944,-7.4077153
183,4.3346710205078125,193.00672912597656,76.37333679199219,-0.3700282483308191,-8.765805673613547,-90.03909449458193,-0.22470206,-2.8014667,1.3738328,30.497425,-20.54795,3.733575,-24.344269,-2.5640483,-2.127462,78.45605,-12.038695,0.013643837,-1.0662739,-1.3346407,15.551739,2.146108,17.738396,-5.6515584,51.37085,10.407447,-1.9408525,12.700966,13.732681,-8.2034645,18.313303,70.0898,-13.887442,-2.254573,-7.520877
184,4.355169296264648,193.82461547851562,76.48995208740234,-0.4109035960578186,-8.704155870529265,-89.85513447597678,-0.8886651,-2.8720243,1.1320518,30.081951,-19.637743,3.8185656,-23.187979,-2.634894,-2.2874186,79.898186,-12.299678,0.0065180534,-1.0281621,-1.2492158,15.134782,2.9028878,17.372984,-6.2068872,51.861958,10.182271,-1.9378828,12.401623,13.602175,-8.431242,18.078205,69.49904,-14.119473,-2.2786057,-7.66422
185,4.368956565856934,194.6452178955078,76.59010314941406,-0.4495603713321706,-8.632202521095936,-89.65282959153346,-1.580788,-2.9268942,0.89679164,29.693335,-18.774267,3.8050396,-21.937944,-2.6551228,-2.4211845,81.06316,-12.401746,0.123895906,-0.9954235,-1.1838958,14.743307,3.630651,17.018879,-6.809614,52.41136,9.977737,-1.9247854,12.197967,13.40276,-8.658517,17.803795,68.93094,-14.19456,-2.3367524,-7.8550363
186,4.373149871826172,195.47119140625,76.67401123046875,-0.4921864947529265,-8.550566575516473,-89.42448062941338,-2.297852,-2.9730208,0.6457495,29.327991,-17.943115,3.726576,-20.5853,-2.647378,-2.5576124,81.959045,-12.377117,0.33234257,-0.9743375,-1.1368291,14.37028,4.345606,16.678164,-7.4512887,53.010338,9.765888,-1.9127365,12.068337,13.143827,-8.885372,17.481781,68.36628,-14.134918,-2.4161434,-8.085659
187,4.366630554199219,196.30877685546875,76.7369155883789,-0.5261667475489062,-8.463944759240352,-89.19147458425103,-3.043301,-3.024003,0.40582648,28.999523,-17.123507,3.62323,-19.164974,-2.5785003,-2.6555932,82.59283,-12.193327,0.66228336,-0.94359434,-1.1049963,14.024481,5.0408745,16.348875,-8.11219,53.626728,9.597112,-1.874058,11.936449,12.830259,-9.112386,17.13184,67.81085,-14.025885,-2.487277,-8.324214
188,4.357682704925537,197.14752197265625,76.77482604980469,-0.5451482892324271,-8.376847675144957,-88.9748160603213,-3.8266838,-3.091055,0.20547828,28.732689,-16.306908,3.5344315,-17.713081,-2.4159975,-2.6742384,82.97112,-11.819027,1.1435839,-0.88371694,-1.0850812,13.714545,5.7077737,16.026533,-8.772173,54.22965,9.521576,-1.7810951,11.726131,12.465427,-9.340665,16.775898,67.27073,-13.951788,-2.519867,-8.539042
189,4.355412006378174,197.9940948486328,76.79875946044922,-0.5458730070284299,-8.287243037351056,-88.77963614823864,-4.653417,-3.168921,0.05768786,28.531372,-15.488242,3.4571805,-16.238743,-2.139091,-2.5818424,83.110825,-11.224012,1.8114512,-0.7961551,-1.080244,13.443893,6.34711,15.70773,-9.431961,54.815186,9.583354,-1.6057315,11.404694,12.038629,-9.5721855,16.416803,66.74653,-13.932578,-2.4857366,-8.714903
190,4.3585429191589355,198.85716247558594,76.79625701904297,-0.5336050546468761,-8.194010706371898,-88.59530574514619,-5.5203857,-3.248066,-0.055832904,28.388422,-14.67741,3.3721507,-14.725039,-1.765579,-2.3992345,83.00469,-10.4384165,2.6457438,-0.6912028,-1.089345,13.20765,6.964706,15.392589,-10.09757,55.397957,9.747392,-1.3708729,11.017061,11.55066,-9.807635,16.047064,66.23565,-13.922651,-2.4075944,-8.870676
191,4.351320266723633,199.72860717773438,76.7745590209961,-0.5133755087584982,-8.102529822828114,-88.41905218437867,-6.413226,-3.3342953,-0.15316083,28.288908,-13.867018,3.2944682,-13.166452,-1.3198239,-2.1590266,82.624825,-9.522516,3.5976756,-0.56123906,-1.1050748,13.001694,7.55811,15.082285,-10.756605,55.975056,9.947696,-1.124886,10.603606,11.019648,-10.049642,15.669672,65.74205,-13.910596,-2.3307333,-9.027171
192,4.344287395477295,200.61056518554688,76.73123168945312,-0.4847985905330642,-8.018133477426097,-88.24841826982498,-7.3175015,-3.4353974,-0.2514064,28.21914,-13.050565,3.2398753,-11.55888,-0.83019245,-1.894543,81.9445,-8.534669,4.614079,-0.4001629,-1.1203424,12.822276,8.124706,14.777557,-11.396356,56.542866,10.1158285,-0.91520333,10.204741,10.464296,-10.300608,15.289779,65.2686,-13.883693,-2.3013148,-9.204867
193,4.331027507781982,201.50732421875,76.66496276855469,-0.4447231629193429,-7.958583564618666,-88.08084424027557,-8.219633,-3.559862,-0.3537474,28.198524,-12.246123,3.2198758,-9.873196,-0.30060968,-1.5889578,80.99111,-7.4035535,5.7192388,-0.20797828,-1.1398376,12.685865,8.665652,14.477787,-12.029846,57.09856,10.232034,-0.74442875,9.822958,9.889969,-10.5599,14.895829,64.81538,-13.833122,-2.3399398,-9.417784
194,4.318962097167969,202.39544677734375,76.58345794677734,-0.39283619545886345,-7.915740202411763,-87.91859825309099,-9.131372,-3.6985574,-0.4514351,28.227388,-11.45094,3.220382,-8.118897,0.28131783,-1.2180614,79.770134,-6.1362605,6.9292693,0.01284209,-1.1649792,12.588878,9.179984,14.182379,-12.659314,57.645473,10.332133,-0.59059376,9.439406,9.28455,-10.827448,14.490313,64.38534,-13.766999,-2.4220424,-9.652321
195,4.3090410232543945,203.2855682373047,76.48966979980469,-0.3415736022681198,-7.855171463411699,-87.76469376634672,-10.076417,-3.8351173,-0.54306155,28.258535,-10.622264,3.220246,-6.351063,0.89557064,-0.8065443,78.21922,-4.903612,8.165598,0.2624224,-1.1854705,12.496812,9.664753,13.890602,-13.252831,58.184944,10.432248,-0.46238622,9.062588,8.648935,-11.106617,14.099898,63.968727,-13.700292,-2.5171356,-9.884827
196,4.288301467895508,204.19705200195312,76.38578796386719,-0.3000155124834081,-7.742175808706384,-87.62292828353331,-11.076529,-3.9550905,-0.62723345,28.24134,-9.715478,3.2000988,-4.628863,1.5072594,-0.3853173,76.28133,-3.8691542,9.335406,0.53830576,-1.1917816,12.375807,10.11828,13.600773,-13.776789,58.71647,10.5475,-0.3693567,8.700086,7.9817443,-11.401765,13.755236,63.560493,-13.6449,-2.598797,-10.091783
197,4.269171714782715,205.11224365234375,76.27930450439453,-0.2720534445327662,-7.57888683766337,-87.4875783756402,-12.142877,-4.0551214,-0.70390654,28.207228,-8.749988,3.163785,-2.9221814,2.1092412,0.038998462,73.90615,-2.985784,10.6678295,0.83688796,-1.1775687,12.217692,10.549978,13.311641,-14.241241,59.242928,10.68206,-0.32836345,8.329996,7.2915483,-11.717022,13.46473,63.154522,-13.594694,-2.6719801,-10.258504
198,4.250736236572266,206.05087280273438,76.1684341430664,-0.24929335931813407,-7.3794845786497705,-87.35941144885957,-13.258516,-4.1437917,-0.773843,28.161087,-7.7356243,3.1184459,-1.2113591,2.6914518,0.48940033,71.13655,-2.1999197,12.103093,1.1582611,-1.1502277,12.040361,10.957426,13.021477,-14.656665,59.762054,10.826295,-0.3297585,7.9558244,6.5772486,-12.052834,13.21513,62.752422,-13.544643,-2.74722,-10.3993845
199,4.226245403289795,207.00628662109375,76.05943298339844,-0.2262635185241432,-7.128365251921813,-87.25069294960018,-14.4060545,-4.2229486,-0.83798975,28.019012,-6.6181226,3.0506532,0.42909494,3.201551,0.960716,68.05142,-1.6479216,13.104697,1.5054194,-1.1210896,11.849424,11.325347,12.726258,-14.9845085,60.26212,10.980424,-0.3433423,7.6233735,5.8235464,-12.405866,13.004046,62.359474,-13.509356,-2.8052459,-10.535211
200,4.189713001251221,207.97848510742188,75.95592498779297,-0.19619709762321474,-6.810006882065108,-87.17373257682969,-15.5655155,-4.2915587,-0.8994286,27.693789,-5.3422966,2.9466348,1.9203817,3.5929375,1.4329373,64.735695,-1.4559355,13.138756,1.8789833,-1.1016408,11.650379,11.640778,12.42109,-15.182903,60.731182,11.146617,-0.33848816,7.3790927,5.010721,-12.772174,12.831571,61.985153,-13.504316,-2.826225,-10.68781
201,4.153988361358643,208.9806365966797,75.85647583007812,-0.14705254721983407,-6.379326556642441,-87.1340956525649,-16.786448,-4.355073,-0.9444861,27.177944,-3.8859074,2.8445969,3.2513294,3.9332035,1.9999921,60.98449,-1.5277486,11.842224,2.2886064,-1.1069543,11.400633,11.898777,12.099288,-15.237986,61.195198,11.34859,-0.31526935,7.26241,4.118664,-13.152254,12.731205,61.65464,-13.536074,-2.7874908,-10.868606
202,4.11400032043457,209.99591064453125,75.76921844482422,-0.09538935054296323,-5.859047666160641,-87.12371719353997,-18.059914,-4.3979764,-0.98473716,26.514957,-2.2832375,2.7354326,4.4444094,4.2443137,2.6244645,56.885986,-1.8644693,9.569494,2.7259135,-1.119512,11.112363,12.107658,11.758447,-15.168035,61.65179,11.5800495,-0.28630435,7.2409496,3.156892,-13.54718,12.697728,61.360107,-13.5950985,-2.7048903,-11.064907
203,4.079039096832275,211.03460693359375,75.68401336669922,-0.07619796290608087,-5.335936926597914,-87.13579714627402,-19.278997,-4.3880606,-1.0659765,25.697042,-0.56685466,2.5334115,5.4763317,4.4679513,3.1013677,52.933117,-2.7338662,6.915109,3.1683114,-1.09944,10.872881,12.2724085,11.402996,-14.983634,62.050762,11.795282,-0.24254046,7.2536316,2.1516032,-13.951128,12.672757,61.06176,-13.671636,-2.6167517,-11.262185
204,4.033205986022949,212.12216186523438,75.58876037597656,-0.11579691208376448,-4.896366468300871,-87.16582950704654,-20.336412,-4.302384,-1.2343878,24.71631,1.2296706,2.1530666,6.3452945,4.5705953,3.249914,49.542873,-4.372879,4.517475,3.5974908,-1.0125505,10.767647,12.400564,11.043358,-14.6977415,62.33472,11.947046,-0.1715074,7.2380047,1.1289899,-14.355166,12.594223,60.72169,-13.759039,-2.5610805,-11.446561
205,3.9757986068725586,213.2267303466797,75.49748229980469,-0.20335525279280459,-4.551308441739584,-87.19228948091583,-21.236443,-4.167578,-1.4595298,23.559004,3.170067,1.6841058,7.0956554,4.5031834,2.9380412,46.731457,-7.2355947,2.4653897,4.0095506,-0.8747609,10.820228,12.478184,10.689277,-14.288482,62.494843,12.040335,-0.054286405,7.17507,0.08090209,-14.75172,12.426341,60.343872,-13.8784895,-2.541973,-11.601258
206,3.916084051132202,214.33778381347656,75.40823364257812,-0.328923231526858,-4.25958856290906,-87.22507466631993,-22.028912,-3.9808996,-1.744129,22.242582,5.2415266,1.1298536,7.750433,4.4028964,2.3530467,44.220425,-11.065467,0.5788196,4.4178157,-0.6969217,10.98267,12.51114,10.342705,-13.760224,62.548477,12.0921955,0.10043393,7.096251,-1.0035332,-15.138103,12.206261,59.948166,-14.0284815,-2.5409968,-11.738307
207,3.8428592681884766,215.45291137695312,75.32024383544922,-0.5252544074232772,-4.028814125371151,-87.3136090489031,-22.656073,-3.6923566,-2.1824756,20.776564,7.3010893,0.27755898,8.302446,4.4322376,1.7589303,41.90333,-14.964078,-0.96825576,4.8362026,-0.4452479,11.233018,12.528971,10.001821,-13.165413,62.49984,12.072032,0.25022966,7.0187826,-2.1064146,-15.51558,11.9844055,59.523403,-14.166116,-2.5627072,-11.887879
208,3.7522380352020264,216.59864807128906,75.23560333251953,-0.818823791833205,-3.869037640990388,-87.50776919915235,-23.05502,-3.265834,-2.8691335,19.152573,9.216043,-1.0825801,8.709388,4.6819606,1.3623074,39.74252,-18.038132,-2.1065452,5.2796354,-0.088597596,11.5504,12.561158,9.663266,-12.556785,62.352547,11.950858,0.35393918,6.9603977,-3.2079575,-15.889536,11.810423,59.055656,-14.247827,-2.6117382,-12.079361
209,3.6657278537750244,217.75782775878906,75.15262603759766,-1.2877210357362148,-3.7985225216767677,-87.84573725402612,-23.119978,-2.6189573,-3.9805765,17.062357,11.133931,-3.252895,8.938692,5.1851406,1.1087111,37.738,-19.995115,-2.8453093,5.7816153,0.45805728,11.946024,12.612058,9.322696,-11.918674,62.090042,11.663979,0.399798,6.922844,-4.32284,-16.267271,11.693231,58.542854,-14.25156,-2.6965864,-12.317952
210,3.60331130027771,218.91444396972656,75.088134765625,-1.9067372895762986,-3.8208561458373804,-88.30418651690285,-22.882896,-1.7688624,-5.4310718,14.556313,13.074036,-6.044541,9.040917,5.854715,0.8816857,35.878265,-21.296368,-3.26924,6.331052,1.1757603,12.426423,12.668636,8.977659,-11.231893,61.716076,11.246484,0.41037208,6.897758,-5.4566073,-16.649067,11.613676,57.992184,-14.201842,-2.8126383,-12.585919
211,3.5522327423095703,220.05677795410156,75.02821350097656,-2.5328419600950167,-3.9155979877571254,-88.83165627637412,-22.517792,-0.8616322,-6.8828115,12.208276,14.707611,-8.916093,9.049922,6.5529633,0.7745906,34.19103,-22.22113,-3.4796212,6.871225,1.9212279,12.964346,12.729198,8.630046,-10.546193,61.268105,10.817139,0.3948477,6.887612,-6.57073,-17.02498,11.573548,57.398605,-14.126219,-2.9446802,-12.879276
212,3.518317937850952,221.2115020751953,74.98567962646484,-2.9889887755341813,-4.040161936082003,-89.35998308137546,-22.246532,-0.11398729,-7.963784,10.660531,15.7049055,-11.31178,8.950204,7.1004887,0.87493795,32.759842,-23.076698,-3.571838,7.3336625,2.508819,13.52818,12.788627,8.287014,-9.912161,60.78379,10.494252,0.36305404,6.894597,-7.6245327,-17.379177,11.56728,56.7546,-14.054911,-3.0773191,-13.196857
213,3.497631072998047,222.3725128173828,74.96173095703125,-3.2109143107578872,-4.1787584055777245,-89.91177715894345,-22.089739,0.41055167,-8.554686,9.979307,15.953284,-13.247693,8.65132,7.4212146,1.2921975,31.713478,-23.92013,-3.518135,7.7310147,2.8703425,14.140123,12.856983,7.9456577,-9.305588,60.2354,10.315352,0.30136117,6.900236,-8.636146,-17.708841,11.584705,56.04341,-13.999579,-3.2007222,-13.553727
214,3.4834377765655518,223.52984619140625,74.95314025878906,-3.269480408762412,-4.336215614708582,-90.49310128220726,-22.008415,0.7819549,-8.813254,9.954485,15.628578,-14.944767,8.135415,7.5696926,1.926214,31.040865,-24.629372,-3.3062153,8.074982,3.078415,14.802035,12.929397,7.606801,-8.710076,59.61593,10.21589,0.2112883,6.910039,-9.618138,-18.013575,11.627635,55.274223,-13.945323,-3.3246129,-13.9481945
215,3.484354257583618,224.67637634277344,74.95487976074219,-3.1001983686942927,-4.514490210746637,-90.99174813014008,-22.044373,0.8590915,-8.428859,10.6893835,14.904589,-15.000033,7.468342,7.4327908,2.5495818,30.738298,-25.328573,-3.0118694,8.283253,3.066126,15.487583,12.97727,7.2924123,-8.190632,58.99824,10.158944,0.11977492,6.9623656,-10.518969,-18.277742,11.700137,54.47568,-13.88322,-3.4629667,-14.357214
216,3.479600429534912,225.811767578125,74.97486877441406,-2.8417012674635145,-4.664270319138553,-91.32880718361758,-22.44867,0.74242675,-8.041989,12.59177,13.758969,-15.000033,6.7466207,7.1816115,2.9479628,30.542566,-25.959066,-2.7888522,8.311199,2.9248788,16.096457,12.971404,7.0404506,-7.814927,58.45012,10.104966,0.05413436,7.092286,-11.280899,-18.474092,11.794291,53.66991,-13.807904,-3.63017,-14.759157
217,3.443582773208618,226.94020080566406,75.00731658935547,-2.564429736370232,-4.786868761572689,-91.49745226057402,-23.361843,0.48416802,-7.7603903,16.026533,12.029101,-15.000033,6.026526,6.906604,3.0813973,30.330822,-26.485378,-2.6989083,8.148938,2.697157,16.604237,12.934446,6.8820148,-7.6160975,57.954998,10.019224,0.021694735,7.336877,-11.895726,-18.580036,11.904362,52.84397,-13.703687,-3.8405356,-15.162848
218,3.38934588432312,228.04811096191406,75.04660034179688,-2.286206048918243,-4.936946104544002,-91.57442561203494,-24.520922,0.17307462,-7.484999,20.553066,9.821708,-14.898525,5.3179593,6.6295595,3.0972288,30.17253,-26.890427,-2.6826174,7.8714204,2.410408,17.075275,12.891462,6.822807,-7.564003,57.469036,9.920265,0.007715215,7.6618557,-12.380206,-18.595982,12.014677,51.98907,-13.587149,-4.083951,-15.575817
219,3.3647704124450684,229.13272094726562,75.08796691894531,-1.975474989649864,-5.141686342412841,-91.58346085246966,-25.565449,-0.13968173,-6.7911344,25.346323,7.530605,-13.310872,4.609946,6.2868176,3.0497081,30.181328,-27.200068,-2.661163,7.5312853,2.0779233,17.545872,12.810298,6.838998,-7.6195283,57.028923,9.859027,0.00632615,7.999227,-12.726202,-18.545408,12.116354,51.140156,-13.496042,-4.3373866,-15.97673
220,3.338956356048584,230.20558166503906,75.13655090332031,-1.7975233932212735,-5.350654882925251,-91.57170159024498,-26.443117,-0.26001748,-6.176417,30.070145,5.3010826,-11.78724,3.905283,6.0935864,2.9822867,30.188595,-27.247229,-2.637401,7.2085857,1.8580557,17.96119,12.650854,6.92716,-7.746058,56.672054,9.88097,0.012085224,8.278478,-12.927571,-18.433065,12.19221,50.333717,-13.47203,-4.5776863,-16.347708
221,3.301647186279297,231.26177978515625,75.20249938964844,-1.7635401630306926,-5.569056952487572,-91.5094630502793,-27.171951,-0.18919726,-5.6417756,34.827003,3.0563812,-10.302952,3.1857743,6.072423,2.8623188,30.242144,-26.98569,-2.6147082,6.883433,1.7756559,18.331,12.369031,7.088165,-8.002319,56.45258,9.999936,0.020397477,8.507396,-12.9644785,-18.278605,12.23841,49.534218,-13.52496,-4.809445,-16.694933
222,3.2643535137176514,232.29891967773438,75.28636932373047,-1.8250468086433866,-5.801749078449262,-91.38811566635661,-27.794058,-0.008830038,-5.141426,39.768642,0.73860127,-8.688189,2.458634,6.1659017,2.6737857,30.350348,-26.470884,-2.608055,6.5335846,1.7764001,18.662214,11.988067,7.321931,-8.39315,56.341408,10.188417,0.035426393,8.713837,-12.836583,-18.082628,12.258721,48.725693,-13.630071,-5.0414715,-17.022184
223,3.2222681045532227,233.32257080078125,75.38568115234375,-1.929590225133504,-6.008594082070888,-91.25497473865579,-28.25857,0.22425975,-4.695869,44.58444,-1.4385855,-7.119772,1.7069204,6.3056936,2.4680254,30.460842,-25.801008,-2.594222,6.2008004,1.8060983,18.92728,11.564012,7.6013126,-8.796381,56.25599,10.43928,0.06558246,8.861107,-12.562894,-17.849154,12.252184,47.9639,-13.772759,-5.2567716,-17.303604
224,3.1829752922058105,234.33790588378906,75.48985290527344,-2.023528292575747,-6.1488452508959694,-91.15696930573604,-28.540358,0.4658141,-4.3109417,49.00912,-3.2850513,-5.7653656,0.91297853,6.4199996,2.2972906,30.515545,-25.070864,-2.5422008,5.915206,1.8141893,19.095892,11.156092,7.884923,-9.07912,56.115406,10.752169,0.119217746,8.916137,-12.175474,-17.583916,12.2308855,47.315674,-13.936738,-5.437832,-17.514881
225,3.159071922302246,235.32069396972656,75.60088348388672,-2.1023988769404443,-6.195649060438318,-91.10538844883528,-28.682705,0.7381291,-3.9805777,53.094265,-4.764289,-4.6599927,0.04617387,6.499279,2.168023,30.503616,-24.259916,-2.415091,5.6755114,1.8081759,19.133673,10.769774,8.143407,-9.2002945,55.923058,11.2017975,0.2098049,8.843365,-11.673808,-17.287943,12.203089,46.80008,-14.141831,-5.585425,-17.656372
226,3.1475346088409424,236.29908752441406,75.70803833007812,-2.1833490244224767,-6.17269441428665,-91.07175767881499,-28.709715,1.0549703,-3.687715,56.999752,-6.0011477,-3.7033355,-0.8814562,6.5710373,2.0527396,30.459473,-23.335358,-2.238933,5.448063,1.8107051,19.060223,10.374055,8.376211,-9.216542,55.726284,11.775462,0.32759744,8.676625,-11.064797,-16.962713,12.184895,46.401146,-14.38703,-5.7061453,-17.741926
227,3.1395456790924072,237.2611541748047,75.82090759277344,-2.2451344204786627,-6.114352174596813,-91.04336959368457,-28.575205,1.3682194,-3.4166584,60.629723,-7.054268,-2.8577662,-1.8244976,6.61761,1.9547428,30.388578,-22.370255,-2.067881,5.217242,1.7970645,18.926807,9.973409,8.589106,-9.1457615,55.510014,12.338044,0.44675273,8.4857645,-10.384112,-16.614456,12.192546,46.12473,-14.624375,-5.7914424,-17.765911
228,3.158010244369507,238.18617248535156,75.93685913085938,-2.265198312416802,-6.055148466694243,-91.00728713559751,-28.23741,1.6240957,-3.1535323,63.891922,-7.9807205,-2.0916994,-2.7371564,6.619048,1.8769884,30.296583,-21.440748,-1.9518688,4.9673643,1.7418789,18.784365,9.574126,8.790312,-9.005329,55.256123,12.754043,0.5434309,8.340481,-9.667554,-16.252996,12.242263,45.97614,-14.8046255,-5.8328505,-17.722485
229,3.168682098388672,239.13116455078125,76.0346450805664,-2.220359147549312,-5.995557373442281,-90.96349716551543,-27.674944,1.7878608,-2.8854296,66.76234,-8.771126,-1.4300643,-3.6184428,6.545103,1.8391402,30.19164,-20.568083,-1.9145794,4.702405,1.6224415,18.629654,9.181312,8.980249,-8.787652,54.96112,12.970903,0.61654127,8.248144,-8.897533,-15.881017,12.331056,45.96484,-14.908023,-5.8153152,-17.590755
230,3.186821937561035,240.04486083984375,76.13279724121094,-2.1261592973859,-5.919322678885444,-90.91746320601803,-26.924526,1.896946,-2.6190512,69.31507,-9.41182,-0.876527,-4.4911866,6.407417,1.836616,30.071245,-19.713936,-1.9187808,4.4290104,1.4585655,18.439375,8.789531,9.157792,-8.48965,54.634846,13.064715,0.67796814,8.174781,-8.060403,-15.498077,12.452578,46.08171,-14.961054,-5.7478485,-17.37875
231,3.2185542583465576,240.9365692138672,76.23008728027344,-2.0217799738343443,-5.836403044821286,-90.8669323895903,-26.024427,1.9951586,-2.364995,71.57601,-9.936786,-0.37506273,-5.3430643,6.244882,1.8389206,29.913689,-18.854433,-1.9223579,4.1403656,1.2857215,18.236721,8.387966,9.330127,-8.137753,54.277252,13.092314,0.7245971,8.127456,-7.1940517,-15.110572,12.613818,46.298992,-14.982426,-5.6583323,-17.123135
232,3.254453182220459,241.8307342529297,76.31304931640625,-1.9424431953530372,-5.7566873778999605,-90.80970099482015,-25.011229,2.1209621,-2.1312926,73.56399,-10.377011,0.12719536,-6.162389,6.0990014,1.8136089,29.698761,-17.967842,-1.8854231,3.8322623,1.1393428,18.046408,7.966251,9.508493,-7.7620564,53.88585,13.108011,0.7531284,8.111718,-6.332608,-14.728849,12.818706,46.584587,-14.9898205,-5.5746927,-16.859629
233,3.2909650802612305,242.73275756835938,76.38607788085938,-1.8949334175679495,-5.681621130501327,-90.72441049952106,-23.885813,2.2767491,-1.9120262,75.301674,-10.74394,0.65562177,-6.9389896,5.964638,1.733512,29.410652,-17.047077,-1.7941273,3.4921303,1.0231701,17.876255,7.5205092,9.699917,-7.357997,53.448963,13.104802,0.75380915,8.1183605,-5.469698,-14.358201,13.076901,46.93637,-14.958658,-5.4962363,-16.593248
234,3.3157567977905273,243.63514709472656,76.45076751708984,-1.8598306077436781,-5.606446376285687,-90.61918868266879,-22.634825,2.439196,-1.7011564,76.77602,-11.017706,1.1744645,-7.681789,5.82264,1.6237061,29.065432,-16.10571,-1.6698402,3.1288874,0.9206867,17.713427,7.0569386,9.903366,-6.918051,52.969234,13.057504,0.73127407,8.145581,-4.5870667,-13.998257,13.38089,47.363533,-14.886783,-5.410444,-16.304585
235,3.3464784622192383,244.5333251953125,76.49557495117188,-1.8383882957522484,-5.532799702478386,-90.53550650332194,-21.271442,2.600032,-1.5006082,77.947914,-11.180137,1.6409045,-8.406557,5.696718,1.5274302,28.687103,-15.151329,-1.527865,2.772899,0.83728814,17.553308,6.580977,10.116379,-6.469509,52.465626,12.994484,0.70330894,8.209698,-3.6961632,-13.6496725,13.706211,47.846603,-14.823432,-5.328434,-15.99213
236,3.3865303993225098,245.4333038330078,76.52410888671875,-1.8287827087518664,-5.461944908037643,-90.51457403667762,-19.809391,2.7469049,-1.30913,78.77736,-11.210855,2.0104518,-9.129192,5.612781,1.4861559,28.299128,-14.19056,-1.3841516,2.4560199,0.7783819,17.39196,6.096244,10.336856,-6.0422854,51.95797,12.943084,0.6879192,8.327467,-2.8073778,-13.315557,14.025091,48.364624,-14.818342,-5.26182,-15.653524
237,3.4245543479919434,246.34506225585938,76.53480529785156,-1.8343573770656119,-5.4010543798642585,-90.57997731407606,-18.228718,2.8865426,-1.1049048,79.27406,-11.097354,2.2644837,-9.847713,5.587007,1.518304,27.906677,-13.224858,-1.2407758,2.1974857,0.75077945,17.235552,5.6038523,10.56328,-5.643579,51.436733,12.890899,0.6926377,8.515425,-1.9095334,-12.998692,14.321938,48.90538,-14.916305,-5.2134595,-15.268955
238,3.4591450691223145,247.25328063964844,76.52488708496094,-1.852362912058921,-5.347340177146186,-90.70503055301296,-16.532497,3.0088353,-0.8862552,79.45315,-10.847802,2.4244463,-10.55591,5.6047087,1.597329,27.497639,-12.250716,-1.0906295,1.9785595,0.7509323,17.084429,5.100108,10.796117,-5.261195,50.89823,12.829931,0.7071118,8.761067,-0.99692273,-12.699828,14.609992,49.478333,-15.080136,-5.178041,-14.8449955
239,3.492140054702759,248.15049743652344,76.50181579589844,-1.881874581292559,-5.28769213361809,-90.8554019280226,-14.769254,3.0764847,-0.6831288,79.2845,-10.473157,2.5063157,-11.2613,5.6469536,1.695931,27.063217,-11.263099,-0.9365415,1.7730433,0.76673853,16.925655,4.580803,11.037532,-4.895419,50.371227,12.793057,0.7220632,9.037446,-0.08952683,-12.420902,14.906831,50.09646,-15.235648,-5.1551676,-14.419432
