unveil-humanoid-operators/unveil-humanoid-operators.github.io/feature-analysis-animation/data/feature_matrix_instances/weight_ankle_rom_walking_A200_lift_crate_walk_ff_stop_180_R_003__A200.csv
Frame,root_translateX,root_translateY,root_translateZ,root_rotateX,root_rotateY,root_rotateZ,left_hip_pitch_joint_dof,left_hip_roll_joint_dof,left_hip_yaw_joint_dof,left_knee_joint_dof,left_ankle_pitch_joint_dof,left_ankle_roll_joint_dof,right_hip_pitch_joint_dof,right_hip_roll_joint_dof,right_hip_yaw_joint_dof,right_knee_joint_dof,right_ankle_pitch_joint_dof,right_ankle_roll_joint_dof,waist_yaw_joint_dof,waist_roll_joint_dof,waist_pitch_joint_dof,left_shoulder_pitch_joint_dof,left_shoulder_roll_joint_dof,left_shoulder_yaw_joint_dof,left_elbow_joint_dof,left_wrist_roll_joint_dof,left_wrist_pitch_joint_dof,left_wrist_yaw_joint_dof,right_shoulder_pitch_joint_dof,right_shoulder_roll_joint_dof,right_shoulder_yaw_joint_dof,right_elbow_joint_dof,right_wrist_roll_joint_dof,right_wrist_pitch_joint_dof,right_wrist_yaw_joint_dof
0,-0.40973547101020813,-3.189852476119995,73.03477478027344,3.145692020270994,-12.186956026065223,77.78102627532226,19.514538,4.8247266,8.204422,34.359077,-29.786186,-8.292588,-21.738287,-11.2857485,-5.656763,48.767094,-17.095999,2.007037,-0.72719604,-1.1979532,10.0375395,-5.1080446,27.363838,-2.4745784,35.109177,-17.82412,6.419583,3.8233988,-22.451225,-16.017832,9.059114,42.3538,-3.6273165,4.6203504,-9.075806
1,-0.12025701254606247,-2.6965417861938477,73.0088119506836,2.8009595874189643,-12.260831589543333,78.06537954132241,18.981775,5.527909,7.7028904,36.392063,-29.233416,-8.646135,-21.136782,-11.025848,-6.1994967,49.057526,-17.78408,1.7556446,-0.8550423,-0.8787773,9.972375,-5.0371184,27.388325,-2.4411554,35.40432,-18.017195,6.2661366,3.8346071,-22.491707,-15.932532,9.01912,42.146217,-3.9578054,4.736667,-9.024918
2,0.18454477190971375,-2.1983823776245117,73.00153350830078,2.453813181922678,-12.328424188933075,78.35044922115276,18.492277,6.211332,7.2149343,38.352882,-28.698507,-9.018295,-20.546062,-10.760395,-6.735083,49.363445,-18.480724,1.4998168,-1.0000614,-0.56641054,9.893548,-4.9499536,27.410027,-2.3919983,35.706444,-18.207708,6.108369,3.854701,-22.553316,-15.809139,8.985328,41.961113,-4.3220625,4.8543954,-8.983045
3,0.48831185698509216,-1.7170486450195312,73.00383758544922,2.1028272615180024,-12.398967877556503,78.64086487080104,17.977493,6.8716307,6.6827188,40.327343,-28.079048,-9.419538,-19.931927,-10.485936,-7.272919,49.6229,-19.156425,1.2559601,-1.153942,-0.25209683,9.821888,-4.8593035,27.42976,-2.3352752,35.99508,-18.382627,5.956446,3.8649669,-22.63256,-15.678263,8.966566,41.80882,-4.656614,4.966889,-8.944378
4,0.7913306355476379,-1.2442042827606201,73.01741790771484,1.7432111393863325,-12.482044919354474,78.94211119358714,17.36909,7.5016937,6.0450087,42.39849,-27.271812,-9.864319,-19.260008,-10.19843,-7.8231583,49.77394,-19.781912,1.0407417,-1.3131188,0.07145326,9.774257,-4.7771983,27.443483,-2.2763546,36.254776,-18.523901,5.819633,3.8491538,-22.737255,-15.56498,8.9781065,41.71525,-4.8994255,5.067539,-8.906807
5,1.0738922357559204,-0.775932788848877,73.04011535644531,1.3560149243581063,-12.585078070572688,79.2640926702402,16.64363,8.108464,5.2524014,44.611298,-26.213581,-10.37973,-18.498314,-9.88079,-8.407688,49.77761,-20.344227,0.86226445,-1.4726133,0.43168277,9.762838,-4.7232847,27.440907,-2.2218802,36.499344,-18.62456,5.7013216,3.7925558,-22.855204,-15.492861,9.00907,41.661064,-5.0305567,5.1602206,-8.869339
6,1.3450616598129272,-0.3073273003101349,73.07463073730469,0.9516600048680269,-12.701113390818097,79.60089580756404,15.840398,8.677189,4.3428817,46.91236,-24.973522,-10.961138,-17.67144,-9.540587,-9.012781,49.672062,-20.859682,0.7119216,-1.6293303,0.81794894,9.77778,-4.69381,27.424522,-2.17481,36.734688,-18.69571,5.59611,3.7071538,-22.977713,-15.454525,9.050593,41.63136,-5.081254,5.247013,-8.830638
7,1.6059162616729736,0.145790234208107,73.11296081542969,0.5683729719668333,-12.818319268139943,79.9347509556393,14.984985,9.170673,3.3858376,49.235382,-23.643066,-11.572672,-16.831804,-9.212294,-9.594608,49.51492,-21.343445,0.58159316,-1.7783852,1.1894705,9.805877,-4.671119,27.400084,-2.1385562,36.934593,-18.745726,5.4993386,3.6169155,-23.110239,-15.440519,9.119323,41.64758,-5.0620933,5.3191257,-8.785904
8,1.8621233701705933,0.5856088399887085,73.15484619140625,0.2440824358514581,-12.925399070428623,80.24746245269732,14.099616,9.561099,2.4539487,51.52102,-22.313637,-12.169232,-16.03114,-8.931133,-10.111999,49.36404,-21.810747,0.46198815,-1.9059125,1.5086527,9.836842,-4.644294,27.375381,-2.1247022,37.07229,-18.78618,5.4069624,3.5441008,-23.246336,-15.451812,9.221553,41.71747,-4.982124,5.367374,-8.725377
9,2.1032309532165527,1.0200562477111816,73.20101165771484,-0.017046231198893865,-13.026953870567882,80.54138485015413,13.171788,9.843043,1.5214852,53.798016,-20.989151,-12.729894,-15.267951,-8.702921,-10.566466,49.223434,-22.262157,0.34950894,-2.0288386,1.796831,9.877433,-4.592071,27.322592,-2.1157188,37.13,-18.808134,5.315199,3.4876008,-23.400959,-15.528132,9.40019,41.84626,-4.820216,5.4010224,-8.641803
10,2.321791172027588,1.452463984489441,73.24960327148438,-0.23435296339184444,-13.127673660269839,80.82464564457811,12.188925,10.031546,0.5640397,56.10175,-19.632654,-13.277603,-14.521665,-8.512102,-10.979322,49.072014,-22.692888,0.24910976,-2.1144001,2.0480459,9.932282,-4.569727,27.277037,-2.157682,37.148537,-18.82455,5.2286806,3.4391322,-23.537872,-15.653983,9.586554,41.999954,-4.591759,5.419511,-8.529069
11,2.539137601852417,1.8655630350112915,73.30393981933594,-0.401611689103961,-13.216500039103439,81.08445444602478,11.179588,10.142681,-0.33832923,58.36844,-18.267857,-13.822327,-13.8079405,-8.3608465,-11.340176,48.914566,-23.10401,0.16329288,-2.1662753,2.26351,9.988358,-4.5548687,27.233122,-2.2257438,37.112865,-18.83926,5.1508775,3.3994925,-23.65262,-15.823212,9.7928295,42.17377,-4.2834225,5.407479,-8.410637
12,2.7374510765075684,2.2732155323028564,73.36145782470703,-0.5158629827115377,-13.282802679730182,81.30891995926739,10.16396,10.201398,-1.1084056,60.547535,-16.920706,-14.368402,-13.14309,-8.25007,-11.640659,48.75782,-23.497122,0.09413835,-2.1803396,2.4442477,10.032661,-4.537321,27.186153,-2.30556,37.015503,-18.85529,5.0850635,3.371444,-23.732218,-16.027086,10.015362,42.357662,-3.8907542,5.3490686,-8.306704
13,2.928671360015869,2.6825263500213623,73.43186950683594,-0.5599012061226715,-13.319244763457176,81.49186357500669,9.120949,10.190382,-1.7469889,62.66265,-15.546946,-14.930221,-12.547458,-8.195609,-11.868464,48.618805,-23.876198,0.041095827,-2.154311,2.5753505,10.058074,-4.504638,27.136307,-2.3958156,36.84293,-18.890026,5.0262227,3.362195,-23.785242,-16.267239,10.268947,42.566845,-3.3832984,5.2268887,-8.2156725
14,3.100566864013672,3.0774502754211426,73.49806213378906,-0.5272222576692663,-13.333704141791799,81.6419944152347,8.039133,10.132579,-2.171009,64.73711,-14.142672,-15.000033,-12.010963,-8.215128,-12.025246,48.49684,-24.241852,0.0108513385,-2.093655,2.6543477,10.0718155,-4.4618125,27.08355,-2.4993525,36.600555,-18.934381,4.974524,3.368233,-23.817282,-16.543743,10.551645,42.80227,-2.775369,5.0539374,-8.128652
15,3.2541329860687256,3.4570798873901367,73.57170867919922,-0.38676400926339555,-13.335156716254543,81.77713519592626,6.954676,10.0240965,-2.4225323,66.698845,-12.783616,-15.000033,-11.529392,-8.358874,-12.11144,48.423088,-24.61941,0.01701747,-2.015352,2.6379855,10.077554,-4.4265523,27.025776,-2.6096284,36.313103,-18.951868,4.940355,3.3771048,-23.818466,-16.84483,10.840147,43.041588,-2.1230316,4.8594737,-8.057234
16,3.4066617488861084,3.833789348602295,73.64886474609375,-0.27030846450387824,-13.33676810211717,81.8907073943832,5.909666,10.033439,-2.5366607,68.52884,-11.59969,-15.000033,-11.030454,-8.461883,-12.200318,48.288708,-24.960861,0.029903073,-1.9165149,2.6579838,10.0871105,-4.4138117,26.959253,-2.7177918,36.00533,-18.906717,4.93453,3.3774838,-23.784231,-17.153273,11.113425,43.26906,-1.4849104,4.6722617,-8.013863
17,3.5519607067108154,4.208853721618652,73.73091888427734,-0.1755047966407609,-13.336592971180815,81.98197213561156,4.8989387,10.18431,-2.4877017,70.235634,-10.526194,-15.000033,-10.518039,-8.52558,-12.290829,48.094467,-25.269049,0.05472256,-1.7971706,2.709727,10.097269,-4.418861,26.885918,-2.823737,35.664333,-18.78004,4.9593196,3.3691533,-23.719265,-17.462797,11.387363,43.497597,-0.8586483,4.4962263,-8.014788
18,3.685175895690918,4.580622673034668,73.81425476074219,-0.08929331660118277,-13.33021500791029,82.0479347358551,3.9052575,10.444447,-2.3048794,71.84058,-9.53967,-15.000033,-10.005853,-8.563757,-12.371596,47.851765,-25.544926,0.0893617,-1.6574254,2.7793045,10.104228,-4.431928,26.807838,-2.9271567,35.282185,-18.593836,5.0092955,3.3576179,-23.628448,-17.773329,11.666913,43.736286,-0.22568779,4.3161645,-8.050639
19,3.81581711769104,4.949744701385498,73.8993148803711,-0.03389998621724382,-13.324438691483188,82.09105472196862,2.950436,10.788047,-2.073292,73.31158,-8.804712,-15.000033,-9.47528,-8.551409,-12.45402,47.54672,-25.779606,0.1201901,-1.506621,2.8878498,10.112717,-4.459567,26.72161,-3.0175183,34.89212,-18.37019,5.0829372,3.340701,-23.51663,-18.077911,11.922378,43.97322,0.39036864,4.1318254,-8.098375
20,3.953320264816284,5.320296287536621,73.99028015136719,-0.029900871694077978,-13.32659715255994,82.11393747831467,2.0562105,11.180206,-1.8740593,74.61513,-8.486777,-15.000033,-8.909322,-8.466419,-12.547009,47.17001,-25.96575,0.1343324,-1.3538367,3.054987,10.127293,-4.5100374,26.621387,-3.0850096,34.52942,-18.130411,5.1782155,3.3168004,-23.385015,-18.363976,12.119855,44.19507,0.96124417,3.9435513,-8.135794
21,4.08420991897583,5.69223165512085,74.0816650390625,-0.10030809273520049,-13.342086413567882,82.1075824281956,1.2433639,11.638391,-1.7254807,75.750656,-8.784099,-15.000033,-8.292601,-8.2731495,-12.652665,46.69865,-26.08866,0.11820515,-1.1950473,3.304844,10.148859,-4.581691,26.50104,-3.1141872,34.190018,-17.86867,5.304652,3.2858677,-23.233156,-18.6269,12.262449,44.412933,1.498366,3.739131,-8.158488
22,4.204835891723633,6.062990665435791,74.18438720703125,-0.2203628354377413,-13.366839815851742,82.07416936763101,0.49720222,12.160175,-1.58166,76.72971,-9.556032,-15.000033,-7.641681,-8.004839,-12.757164,46.1526,-26.16043,0.084288865,-1.0307324,3.611709,10.173259,-4.6694717,26.3615,-3.11109,33.86074,-17.574736,5.459232,3.249085,-23.06421,-18.866592,12.365391,44.63505,2.0066712,3.5222323,-8.179827
23,4.312350749969482,6.425674915313721,74.29171752929688,-0.2342064933908549,-13.387258140676344,82.05499219703084,-0.22513191,12.606317,-1.3334229,77.506424,-10.424236,-14.853837,-7.024961,-7.883464,-12.819451,45.665,-26.25572,0.089664996,-0.8990141,3.8124232,10.19089,-4.7759748,26.213083,-3.0984821,33.56398,-17.262993,5.621338,3.2069108,-22.892473,-19.079153,12.419552,44.85265,2.452958,3.317404,-8.206153
24,4.403594017028809,6.787481784820557,74.39991760253906,-0.2278674048903035,-13.402010705965727,82.0408549807286,-0.9453307,13.093964,-0.94259703,78.10212,-11.085767,-14.280071,-6.412572,-7.796721,-12.876396,45.16198,-26.339632,0.121510476,-0.79003745,3.9985876,10.206647,-4.9032526,26.069489,-3.1012943,33.322468,-16.95334,5.771505,3.1606715,-22.73261,-19.259552,12.41376,45.05837,2.8004742,3.1492996,-8.2420635
25,4.486612796783447,7.145178318023682,74.51044464111328,-0.2012122079154575,-13.408871269198809,82.02890340271641,-1.6672145,13.529437,-0.56219244,78.512344,-11.481396,-13.825545,-5.806959,-7.7395644,-12.93049,44.641815,-26.412622,0.17953576,-0.70073795,4.161716,10.220562,-5.0599623,25.937109,-3.1211543,33.144493,-16.637331,5.9093747,3.101145,-22.580301,-19.399506,12.33218,45.247944,3.0368903,3.0238926,-8.29647
26,4.5814971923828125,7.495580673217773,74.6245346069336,-0.1637934738765169,-13.411607583428914,82.01476013621266,-2.3751237,13.940154,-0.17077938,78.74113,-11.778535,-13.419031,-5.20155,-7.6991315,-12.980831,44.099247,-26.469757,0.25550988,-0.62760377,4.308064,10.232983,-5.241334,25.81679,-3.1478572,33.016438,-16.313358,6.044459,3.0305724,-22.431873,-19.496792,12.183425,45.429127,3.1800175,2.9279375,-8.365035
27,4.666135787963867,7.846855163574219,74.73892211914062,-0.12400578567832862,-13.412357433644216,82.00525902520458,-3.0623822,14.31289,0.19608302,78.79534,-11.989152,-13.091977,-4.591449,-7.6656113,-13.03431,43.536263,-26.514767,0.34043634,-0.57773596,4.4418483,10.245133,-5.432239,25.713491,-3.1902864,32.928574,-16.011387,6.1722875,2.966716,-22.293661,-19.554724,11.987368,45.603027,3.2393918,2.857025,-8.432298
28,4.743008136749268,8.198260307312012,74.84891510009766,-0.09014864385378749,-13.413312689707453,82.00739550895848,-3.7224388,14.634234,0.5023965,78.67955,-12.123303,-12.875481,-3.9715967,-7.6293774,-13.09773,42.955288,-26.550917,0.42556185,-0.5563748,4.5671325,10.25925,-5.6188784,25.633774,-3.2594528,32.8704,-15.762336,6.2886987,2.927096,-22.170607,-19.579985,11.763309,45.767765,3.228186,2.8069973,-8.481978
29,4.8173723220825195,8.550154685974121,74.95926666259766,-0.06439956909980292,-13.41775735577573,82.0258529246872,-4.3537035,14.885567,0.7295282,78.38328,-12.139043,-12.8033,-3.3334033,-7.591281,-13.174876,42.34877,-26.57656,0.5104841,-0.5842473,4.681077,10.285665,-5.775333,25.591837,-3.3347478,32.820145,-15.571614,6.397266,2.9114428,-22.070494,-19.569853,11.515224,45.91888,3.1267986,2.7875476,-8.505732
30,4.8882155418396,8.904541969299316,75.06900024414062,-0.04235045475856669,-13.42368693083444,82.0560152955828,-4.960247,15.080119,0.9011807,77.90714,-12.044113,-12.849191,-2.6811943,-7.5546274,-13.261607,41.716946,-26.589926,0.5988928,-0.6122035,4.7891617,10.309877,-5.9817805,25.557148,-3.475932,32.84625,-15.415255,6.4930916,2.9265122,-21.955477,-19.524925,11.181788,46.047604,2.9170873,2.797421,-8.510025
31,4.959691047668457,9.253528594970703,75.17448425292969,-0.02478943317226455,-13.425642446839065,82.0914105025409,-5.5442567,15.249138,1.0425246,77.27222,-11.925005,-12.956963,-2.0327232,-7.515477,-13.352338,41.08008,-26.599003,0.6892945,-0.6615492,4.88478,10.330295,-6.1838284,25.550121,-3.6407988,32.8974,-15.314137,6.578494,2.9549253,-21.857374,-19.45141,10.839597,46.16978,2.6739135,2.8159811,-8.5095215
32,5.023492336273193,9.601298332214355,75.27464294433594,-0.014976789928864136,-13.418547346446433,82.12575485278197,-6.1068134,15.426053,1.1807431,76.49817,-11.866302,-13.068015,-1.4039276,-7.4686193,-13.441204,40.453903,-26.608606,0.78022903,-0.73078364,4.9711337,10.345805,-6.356664,25.575218,-3.812333,32.941196,-15.283048,6.653345,2.9832735,-21.776329,-19.369461,10.5309105,46.27419,2.4615614,2.824347,-8.512484
33,5.091589450836182,9.94953441619873,75.36954498291016,-0.012758691687619598,-13.404064668923963,82.16232826924612,-6.6439786,15.603252,1.3030784,75.57438,-11.8971,-13.19099,-0.7910402,-7.412372,-13.532577,39.835567,-26.617752,0.87469786,-0.81308967,5.047107,10.355507,-6.5222483,25.638369,-4.0187507,32.998413,-15.353886,6.716497,3.0179865,-21.705854,-19.278898,10.235028,46.356823,2.2782414,2.8179169,-8.520772
34,5.1495680809021,10.2986421585083,75.46050262451172,-0.018776663070996964,-13.38409913582179,82.20306836186568,-7.1553154,15.770933,1.4016898,74.49466,-11.970358,-13.347056,-0.18735152,-7.349213,-13.627275,39.216732,-26.62327,0.97337276,-0.9113051,5.1156416,10.364544,-6.679808,25.73586,-4.2544513,33.067635,-15.5110035,6.7690315,3.0600107,-21.640633,-19.181112,9.939684,46.41027,2.1002936,2.8076658,-8.527072
35,5.199984550476074,10.639534950256348,75.53681182861328,-0.028444524668082012,-13.353015185023803,82.2382184894613,-7.646533,15.955898,1.5110021,73.28576,-12.058325,-13.499499,0.3919184,-7.28204,-13.7145,38.61329,-26.631058,1.071847,-1.0120685,5.173103,10.366269,-6.8218207,25.859627,-4.5005074,33.134815,-15.699557,6.810492,3.1014307,-21.577183,-19.083027,9.6700535,46.437992,1.9454064,2.7956216,-8.529185
36,5.245985984802246,10.985330581665039,75.61296081542969,-0.040413896639459546,-13.305488348508206,82.25882046647394,-8.123818,16.182959,1.6661223,71.9753,-12.13323,-13.613535,0.93347454,-7.2135653,-13.783536,38.036903,-26.645184,1.1652485,-1.1043382,5.220191,10.355397,-6.9351816,25.99648,-4.731788,33.180294,-15.861645,6.8407054,3.1331856,-21.50976,-18.994408,9.4532795,46.438362,1.8314359,2.784479,-8.524584
37,5.289305210113525,11.333784103393555,75.68099975585938,-0.05403433716807646,-13.239810497067431,82.26079243621565,-8.585738,16.467756,1.8868172,70.557,-12.1982975,-13.683619,1.4353335,-7.1415763,-13.829754,37.486324,-26.6654,1.2488569,-1.1866909,5.2641172,10.328723,-7.018699,26.140638,-4.9510403,33.207977,-15.981926,6.856927,3.1558728,-21.442184,-18.92328,9.301334,46.415363,1.7619487,2.7761395,-8.511742
38,5.324148178100586,11.67496109008789,75.74497985839844,-0.07009519737833678,-13.15875921396665,82.24957710257053,-9.028297,16.791916,2.1528058,69.020905,-12.266037,-13.729371,1.9041761,-7.0665097,-13.859217,36.956596,-26.689842,1.3266292,-1.2642763,5.307921,10.289991,-7.078967,26.290745,-5.1666656,33.225464,-16.087513,6.8596206,3.1733377,-21.373426,-18.871273,9.199562,46.365303,1.7286857,2.7693865,-8.491726
39,5.3498311042785645,12.014884948730469,75.79994201660156,-0.08697694239151031,-13.064052249705622,82.2295855698075,-9.452218,17.127285,2.4402857,67.385124,-12.320778,-13.754663,2.3382428,-6.995481,-13.877678,36.457718,-26.722548,1.4061955,-1.336459,5.3468056,10.244429,-7.1153746,26.43952,-5.3623357,33.220722,-16.183302,6.853252,3.181522,-21.297455,-18.838423,9.139804,46.28185,1.7381625,2.761897,-8.466527
40,5.381629467010498,12.359264373779297,75.8455581665039,-0.10414931379592302,-12.957424785199704,82.20544946604807,-9.859407,17.446922,2.7244444,65.668335,-12.347314,-13.7626705,2.7348347,-6.9358234,-13.890567,36.002354,-26.768467,1.494811,-1.4054655,5.3766346,10.1965685,-7.124807,26.577473,-5.5185614,33.18134,-16.27326,6.84221,3.176631,-21.211384,-18.825653,9.1176195,46.162205,1.794571,2.7514615,-8.439205
41,5.398777961730957,12.69701099395752,75.88300323486328,-0.12131186422135956,-12.836885386842928,82.17896349717711,-10.252258,17.74956,3.0032825,63.862232,-12.350817,-13.739291,3.0924957,-6.886734,-13.900933,35.588352,-26.824547,1.5915695,-1.4750352,5.398524,10.146302,-7.1045637,26.700348,-5.628603,33.10245,-16.36007,6.829243,3.1538196,-21.116085,-18.835629,9.145177,46.001415,1.9098601,2.738532,-8.41475
42,5.413968563079834,13.036687850952148,75.91512298583984,-0.13854288704671597,-12.702160097312127,82.14754501549196,-10.628963,18.045654,3.2891016,61.962463,-12.3386135,-13.689376,3.410202,-6.8465533,-13.905523,35.21701,-26.893366,1.6935444,-1.5442283,5.416472,10.091116,-7.056456,26.808235,-5.70129,32.992615,-16.437946,6.811026,3.116712,-21.015324,-18.8703,9.223904,45.80556,2.0789058,2.7240214,-8.390586
43,5.418332099914551,13.381031036376953,75.9371566772461,-0.15466472178761548,-12.557520096979804,82.10868220954134,-10.981691,18.328514,3.58001,59.98471,-12.293412,-13.641534,3.6956718,-6.8178926,-13.900747,34.884068,-26.975388,1.8037013,-1.6062797,5.432766,10.030633,-6.9871974,26.894453,-5.7423444,32.863308,-16.49692,6.7823935,3.0752382,-20.907166,-18.924934,9.327697,45.58539,2.27719,2.7067597,-8.358964
44,5.4152512550354,13.719148635864258,75.95339965820312,-0.16710400004643108,-12.406953946918472,82.05983741928604,-11.304332,18.591394,3.873045,57.945244,-12.19806,-13.624433,3.953481,-6.804455,-13.882943,34.59214,-27.075249,1.9255117,-1.6547813,5.4475274,9.956239,-6.9158654,26.937126,-5.7621617,32.74836,-16.51412,6.7353883,3.0456889,-20.80012,-18.97229,9.427062,45.374733,2.4640403,2.683934,-8.318813
45,5.404995918273926,14.062516212463379,75.96287536621094,-0.17216003703371063,-12.24906933346973,82.00014591074454,-11.593099,18.831621,4.1715965,55.828438,-12.036464,-13.655254,4.1841416,-6.809359,-13.85164,34.33923,-27.192945,2.0652144,-1.6894511,5.451781,9.876062,-6.816322,26.969795,-5.7496476,32.611313,-16.506826,6.665088,3.018123,-20.675066,-19.038122,9.530128,45.13714,2.6643395,2.6534631,-8.252953
46,5.38463020324707,14.40682601928711,75.96548461914062,-0.17388966024995134,-12.0826457379095,81.93133724906193,-11.851164,19.053474,4.4760838,53.62894,-11.822226,-13.715693,4.385099,-6.8297777,-13.809088,34.125607,-27.326988,2.2187889,-1.712219,5.462909,9.805065,-6.6698527,26.990494,-5.6910872,32.415493,-16.48453,6.5798316,2.980233,-20.517385,-19.1701,9.652163,44.83237,2.909966,2.6209066,-8.157015
47,5.357412815093994,14.751543045043945,75.96082305908203,-0.17465116237222317,-11.91111145692617,81.85338370210768,-12.082211,19.259163,4.779535,51.37875,-11.577309,-13.78026,4.5591164,-6.8601866,-13.755695,33.952095,-27.477251,2.3743582,-1.7136301,5.478788,9.724433,-6.5425158,26.973484,-5.6327944,32.24385,-16.43606,6.489121,2.953803,-20.353659,-19.301935,9.757257,44.530148,3.1448925,2.5883687,-8.0603
48,5.324300289154053,15.0953950881958,75.94436645507812,-0.17758068326103732,-11.737939792426726,81.76628214147102,-12.291665,19.45108,5.074019,49.111298,-11.32972,-13.824728,4.705169,-6.8963223,-13.692279,33.827003,-27.648031,2.5210207,-1.7007661,5.5074363,9.645583,-6.431063,26.932165,-5.5775146,32.08491,-16.379183,6.412619,2.938541,-20.195404,-19.435781,9.843028,44.240204,3.3655148,2.562838,-7.975101
49,5.289919376373291,15.429282188415527,75.92189025878906,-0.1859147967675299,-11.560826102237927,81.66930883058495,-12.476378,19.622232,5.3474426,46.796764,-11.0700865,-13.849634,4.8202205,-6.9352474,-13.618271,33.74644,-27.83586,2.651238,-1.6689495,5.5484304,9.569093,-6.336284,26.871656,-5.525682,31.93606,-16.31732,6.355121,2.9382236,-20.036047,-19.570723,9.900436,43.950977,3.5702715,2.5482998,-7.9034376
50,5.249374866485596,15.774971008300781,75.89124298095703,-0.19529926278832405,-11.378944165154438,81.56235209321775,-12.636179,19.772999,5.6068907,44.430073,-10.790252,-13.865966,4.9031844,-6.980961,-13.533651,33.713387,-28.04304,2.7728987,-1.6229291,5.585298,9.490443,-6.2468553,26.80518,-5.4702353,31.7918,-16.249477,6.308454,2.9504812,-19.881031,-19.690725,9.9383955,43.669834,3.7596254,2.5391755,-7.8409157
51,5.193432807922363,16.125450134277344,75.85725402832031,-0.2063633986759597,-11.198223747562343,81.44812137725214,-12.775048,19.91678,5.877466,42.06819,-10.510192,-13.864829,4.9679294,-7.0335283,-13.439811,33.71941,-28.266268,2.8966467,-1.5654887,5.640955,9.41917,-6.164926,26.711441,-5.4132957,31.646786,-16.17315,6.269467,2.9629774,-19.723475,-19.837471,9.966495,43.388004,3.9491532,2.532413,-7.7791514
52,5.133002281188965,16.474273681640625,75.81263732910156,-0.21806157093609488,-11.024961200848148,81.3291621573965,-12.898551,20.064342,6.184568,39.771973,-10.251507,-13.838702,5.0260296,-7.095308,-13.337467,33.76164,-28.504978,3.0331593,-1.5062596,5.6966205,9.353905,-6.092258,26.613386,-5.3656273,31.506704,-16.098812,6.23655,2.9699728,-19.58421,-19.981474,9.990146,43.14302,4.129232,2.519547,-7.7206903
53,5.065921306610107,16.818838119506836,75.76055908203125,-0.2285607636397078,-10.857529944128407,81.20188243037256,-13.002298,20.223501,6.5612717,37.523983,-10.018095,-13.767323,5.071118,-7.1698294,-13.2232485,33.848583,-28.763483,3.1849484,-1.4443697,5.751239,9.293324,-6.0185366,26.513945,-5.3217607,31.357424,-16.026533,6.2120605,2.9645166,-19.4571,-20.12186,10.008306,42.927998,4.3014727,2.49607,-7.66103
54,5.001622200012207,17.17156410217285,75.7033920288086,-0.23814120806859296,-10.693620668451246,81.06632329606737,-13.085136,20.382204,6.9874744,35.299755,-9.797921,-13.664294,5.0998044,-7.2552342,-13.098114,33.979755,-29.041277,3.3465338,-1.3780823,5.8042436,9.237151,-5.944086,26.413094,-5.27912,31.200449,-15.955382,6.1966352,2.9521132,-19.341461,-20.258846,10.019288,42.73779,4.4660544,2.46617,-7.6022944
55,4.926726818084717,17.52729606628418,75.63677215576172,-0.25260802872152616,-10.539067590529129,80.93068182164771,-13.157128,20.522364,7.40801,33.14826,-9.58712,-13.571515,5.130159,-7.344694,-12.970074,34.133644,-29.328093,3.516505,-1.3160549,5.8563614,9.192716,-5.8776617,26.313822,-5.2416077,31.050465,-15.889623,6.1861925,2.9404435,-19.24785,-20.39027,10.027445,42.582226,4.6169267,2.436957,-7.5519347
56,4.849681854248047,17.888954162597656,75.5638656616211,-0.2750850504538141,-10.399150241625492,80.80247028849223,-13.227468,20.62934,7.766275,31.116291,-9.379167,-13.528659,5.1796765,-7.430808,-12.847011,34.289516,-29.613974,3.6933656,-1.2675995,5.9073763,9.167258,-5.826669,26.220469,-5.212537,30.921164,-15.834015,6.1769643,2.9369738,-19.18322,-20.512062,10.03474,42.467903,4.7424374,2.4156094,-7.517213
57,4.767763137817383,18.252182006835938,75.4882583618164,-0.312617679248333,-10.273101740691677,80.68137327914813,-13.291376,20.71068,8.068556,29.170788,-9.189709,-13.535039,5.245832,-7.5062027,-12.727122,34.447414,-29.897297,3.8768945,-1.2349885,5.9606266,9.16269,-5.7863994,26.135769,-5.1875134,30.806408,-15.786399,6.1702056,2.941061,-19.15787,-20.620493,10.046071,42.4055,4.8431363,2.4041383,-7.50585
58,4.679256439208984,18.61053466796875,75.40361785888672,-0.36116429707792896,-10.158917286799378,80.56355250880452,-13.346549,20.772923,8.336812,27.298613,-9.012401,-13.572226,5.3210773,-7.5755196,-12.607318,34.618366,-30.183714,4.0676684,-1.2152778,6.0136013,9.174923,-5.7522197,26.060587,-5.1645107,30.700487,-15.746431,6.1674957,2.949325,-19.166025,-20.715115,10.059385,42.38962,4.920313,2.398267,-7.512503
59,4.591894149780273,18.97171401977539,75.31925964355469,-0.41337924001392656,-10.061510932379313,80.45213375922638,-13.400884,20.801472,8.538345,25.56766,-8.808037,-13.650233,5.419274,-7.649418,-12.494083,34.790554,-30.471447,4.2653947,-1.2091161,6.0505753,9.203832,-5.7307105,26.007082,-5.1523924,30.615263,-15.7262535,6.166455,2.9656537,-19.199312,-20.781609,10.067106,42.412476,4.970058,2.3949213,-7.5263534
60,4.497425556182861,19.341976165771484,75.23213958740234,-0.4616397744007941,-9.985522599015725,80.35033489196049,-13.469698,20.78422,8.637241,24.061768,-8.54064,-13.776992,5.554112,-7.7384205,-12.39415,34.952415,-30.758854,4.4697194,-1.2166559,6.063967,9.249615,-5.7289248,25.975557,-5.1581016,30.562923,-15.733299,6.1638417,2.9934726,-19.250803,-20.821737,10.066934,42.46501,4.9953465,2.391766,-7.5353794
61,4.398917198181152,19.71503257751465,75.14114379882812,-0.4990470869984357,-9.932175988637782,80.26310180647737,-13.538609,20.717014,8.650071,22.728327,-8.2001505,-13.978331,5.732499,-7.8529234,-12.314025,35.099854,-31.048655,4.68289,-1.228025,6.071429,9.313456,-5.771783,25.929976,-5.1962867,30.560587,-15.770045,6.1547318,3.043647,-19.290766,-20.880331,10.052832,42.519604,5.008532,2.389966,-7.529369
62,4.295326232910156,20.097999572753906,75.04583740234375,-0.5315242271932492,-9.899055686448873,80.18737325566403,-13.607759,20.608845,8.5852585,21.552473,-7.807072,-14.239425,5.945915,-7.985054,-12.248753,35.240017,-31.341278,4.9042716,-1.2526126,6.0556283,9.39427,-5.837117,25.901918,-5.254078,30.588884,-15.83846,6.143885,3.1109917,-19.347569,-20.91863,10.031361,42.60705,4.999078,2.3880186,-7.519638
63,4.187211990356445,20.476255416870117,74.95053100585938,-0.5690844314376883,-9.884458106104669,80.11498187622827,-13.725334,20.473131,8.387951,20.69398,-7.3835826,-14.505514,6.1854033,-8.116834,-12.189214,35.375767,-31.629627,5.1294727,-1.2947648,6.0353384,9.496242,-5.895239,25.888771,-5.3085775,30.624245,-15.910998,6.1354213,3.1734319,-19.432209,-20.938747,10.008129,42.719273,4.965881,2.3908317,-7.5118713
64,4.068023681640625,20.86060333251953,74.86181640625,-0.6248635989930472,-9.886174749927791,80.03761149356242,-13.9444895,20.323996,8.003914,20.323484,-6.9579115,-14.721535,6.4394174,-8.231341,-12.124655,35.512043,-31.907145,5.3541365,-1.3131968,6.032388,9.606377,-6.023787,25.87911,-5.411736,30.747488,-15.968693,6.124322,3.217416,-19.504898,-20.954664,9.946329,42.82301,4.908609,2.404161,-7.509236
65,3.948467254638672,21.24395179748535,74.76676940917969,-0.6870931784865857,-9.906964875796138,79.95733063538663,-14.288463,20.140417,7.3830466,20.532703,-6.474308,-14.905516,6.7078385,-8.338821,-12.056927,35.653553,-32.173492,5.5797925,-1.3612059,6.036633,9.751783,-6.1198726,25.87937,-5.478163,30.86088,-15.973667,6.1161275,3.2182648,-19.626257,-20.956438,9.890388,42.941235,4.8325143,2.4266856,-7.5143065
66,3.824850559234619,21.628376007080078,74.67066955566406,-0.7430792564998439,-9.944547077861653,79.8835708271409,-14.7256975,19.892056,6.576814,21.21062,-5.9364834,-15.000033,6.989036,-8.464179,-11.993208,35.808773,-32.437866,5.812968,-1.3477259,6.0199933,9.9011345,-6.3558693,25.89534,-5.668451,31.107979,-15.968674,6.1003637,3.2156901,-19.700174,-20.941866,9.723264,43.038265,4.71043,2.4562278,-7.5138187
67,3.6918866634368896,22.003442764282227,74.55801391601562,-0.813869123639407,-9.991883985995747,79.80964532130227,-15.227818,19.621008,5.6686788,22.23641,-5.4690995,-15.000033,7.282334,-8.581393,-11.928026,35.9648,-32.69584,6.0488915,-1.3658382,6.0132008,10.058243,-6.5488167,25.924166,-5.827495,31.339352,-15.97945,6.094077,3.2025158,-19.809273,-20.912941,9.586598,43.159958,4.5726295,2.4958007,-7.5243306
68,3.5626749992370605,22.394851684570312,74.43679809570312,-0.9395544162624193,-10.04599853262388,79.71888201443167,-15.773668,19.40873,4.720677,23.51277,-5.209471,-15.000033,7.5959177,-8.632422,-11.849729,36.091827,-32.934414,6.2745523,-1.3718467,6.0522304,10.197491,-6.731387,25.971478,-6.006451,31.585115,-16.061325,6.101763,3.2085402,-19.914278,-20.863453,9.457419,43.299816,4.4034643,2.5479126,-7.5476565
69,3.4158170223236084,22.808555603027344,74.30316925048828,-1.1481342030888606,-10.111761990807945,79.60484057787563,-16.385899,19.254421,3.6395757,25.119556,-5.1936593,-15.000033,7.9350443,-8.583165,-11.752191,36.184666,-33.153152,6.4793663,-1.3876315,6.1851053,10.325888,-6.868478,26.009516,-6.1627216,31.827652,-16.22034,6.137786,3.2347674,-20.050655,-20.821411,9.384336,43.476254,4.211287,2.6269948,-7.5883746
70,3.2541465759277344,23.226633071899414,74.16541290283203,-1.3834476030874605,-10.184691889130551,79.49004391724948,-17.041634,19.057358,2.4588056,27.014011,-5.312748,-14.845178,8.281972,-8.514795,-11.649366,36.28642,-33.37363,6.6834974,-1.3917778,6.329652,10.433657,-7.031225,26.06991,-6.3667326,32.121574,-16.449419,6.191987,3.2823403,-20.180384,-20.751205,9.296584,43.671597,3.9754379,2.7254243,-7.641351
71,3.0920026302337646,23.644580841064453,74.03495788574219,-1.6267101042563754,-10.25735650340569,79.37465994881198,-17.689068,18.865705,1.3711944,29.004755,-5.5408387,-14.56284,8.637507,-8.446205,-11.543927,36.37605,-33.579193,6.8971415,-1.4084288,6.483193,10.529169,-7.1587057,26.133165,-6.562748,32.397163,-16.705482,6.2411065,3.3309302,-20.318235,-20.681025,9.233885,43.884666,3.741066,2.8201718,-7.702688
72,2.923111915588379,24.065202713012695,73.9089584350586,-1.8535037524126785,-10.320256075282497,79.26195348236989,-18.290415,18.741722,0.5475775,30.916788,-5.857362,-14.279276,8.997907,-8.403881,-11.441001,36.44133,-33.75867,7.1314383,-1.426282,6.622052,10.607813,-7.25238,26.19644,-6.7595544,32.636097,-16.960758,6.2592177,3.3714986,-20.438908,-20.617981,9.1827965,44.096794,3.536313,2.886962,-7.766181
73,2.7476892471313477,24.503889083862305,73.7865219116211,-2.0618768716369895,-10.36712727821694,79.15880205793282,-18.870125,18.73975,0.05805479,32.763256,-6.272341,-13.981146,9.366689,-8.38996,-11.35041,36.46556,-33.90993,7.39099,-1.4382614,6.729057,10.657657,-7.324091,26.284697,-6.9961615,32.858166,-17.234411,6.222072,3.4106317,-20.532785,-20.548805,9.129642,44.320976,3.3669355,2.9048264,-7.837308
74,2.567357301712036,24.953588485717773,73.66592407226562,-2.2650142886753013,-10.403882575761765,79.06003966500103,-19.449814,18.841349,-0.21440735,34.6356,-6.803342,-13.637625,9.743794,-8.387203,-11.2660055,36.45994,-34.038315,7.667974,-1.4512352,6.8299565,10.687445,-7.3658743,26.384354,-7.2509027,33.059357,-17.529882,6.1494846,3.447927,-20.609362,-20.484404,9.085973,44.552185,3.2214146,2.8924172,-7.915356
75,2.389690399169922,25.403520584106445,73.54486083984375,-2.4568595005446245,-10.439467992232126,78.95446148341934,-19.9803,18.987774,-0.36597973,36.459248,-7.4387302,-13.2665,10.122516,-8.405193,-11.172092,36.44834,-34.141464,7.9577565,-1.4548637,6.911823,10.710547,-7.386845,26.495615,-7.49277,33.217773,-17.825953,6.081861,3.4740043,-20.670197,-20.418665,9.042489,44.765324,3.0851808,2.8803787,-7.9883513
76,2.189079523086548,25.857913970947266,73.42977905273438,-2.631103740880913,-10.48286040632859,78.83109317288776,-20.414436,19.110905,-0.48892722,38.1657,-8.167646,-12.892405,10.494988,-8.4536295,-11.052989,36.457294,-34.22055,8.255773,-1.4493732,6.9726367,10.743109,-7.3818135,26.600409,-7.671605,33.301575,-18.090555,6.059698,3.4778786,-20.726171,-20.353436,9.004371,44.93917,2.9476025,2.8999922,-8.045486
77,1.9970636367797852,26.325481414794922,73.31517028808594,-2.799263706387407,-10.533947503175611,78.69464365442093,-20.757372,19.205076,-0.61620575,39.762684,-9.025386,-12.509886,10.883343,-8.516289,-10.9203205,36.448082,-34.2802,8.559365,-1.4443066,7.0376616,10.784534,-7.339574,26.666441,-7.762028,33.298027,-18.318062,6.101474,3.4443088,-20.777126,-20.30853,8.984508,45.053932,2.807332,2.9711,-8.075199
78,1.7913371324539185,26.79457664489746,73.21054077148438,-2.9584405562092604,-10.588809088898032,78.54850896873347,-21.02856,19.300222,-0.69681686,41.281094,-10.006416,-12.111948,11.284368,-8.595561,-10.7775345,36.420822,-34.316746,8.8712635,-1.4330442,7.071408,10.826653,-7.2647014,26.755335,-7.8071065,33.218674,-18.544024,6.186217,3.3848403,-20.815992,-20.242645,8.961825,45.128185,2.6592946,3.0709772,-8.087499
79,1.5722672939300537,27.268016815185547,73.10676574707031,-3.0850566824314254,-10.64993628509435,78.3802578430048,-21.20472,19.380005,-0.69682026,42.691185,-11.04062,-11.730068,11.649728,-8.725867,-10.5973,36.4646,-34.325794,9.196031,-1.4069629,7.095165,10.873064,-7.1908474,26.803259,-7.8113837,33.11228,-18.7123,6.2809997,3.3274186,-20.8606,-20.201754,8.9550495,45.202408,2.5280907,3.175061,-8.10174
80,1.349724292755127,27.752368927001953,73.01256561279297,-3.15282133580417,-10.719665309304954,78.17726072207563,-21.25935,19.427023,-0.5780449,43.95845,-12.054959,-11.394271,11.932154,-8.943894,-10.352216,36.66702,-34.29875,9.53838,-1.3546035,7.0648103,10.92712,-7.1379447,26.851248,-7.7999773,33.002422,-18.813894,6.3604436,3.3002484,-20.927008,-20.15163,8.95371,45.323406,2.4125402,3.2540576,-8.140878
81,1.1126387119293213,28.231719970703125,72.91917419433594,-3.156125100322032,-10.806770927649538,77.91947106482249,-21.16233,19.453693,-0.30908462,45.06964,-13.061833,-11.131527,12.131636,-9.254816,-10.024691,37.03415,-34.241833,9.918264,-1.2543945,6.99278,11.001669,-7.1254835,26.87928,-7.783203,32.896786,-18.828318,6.4169164,3.315686,-21.027496,-20.115694,8.971723,45.50176,2.3206656,3.3127024,-8.208485
82,0.8687450289726257,28.71137237548828,72.83824920654297,-3.108407772422369,-10.906944127404483,77.61914919586458,-20.934677,19.461535,0.0850514,46.044827,-14.08893,-10.920898,12.2706175,-9.639359,-9.632572,37.521687,-34.155693,10.328062,-1.1170751,6.8833766,11.091425,-7.136953,26.894405,-7.751314,32.77849,-18.77575,6.4656105,3.3569798,-21.14815,-20.087355,9.001626,45.711803,2.2450864,3.3617485,-8.293457
83,0.6128675937652588,29.205337524414062,72.76721954345703,-3.0100251216077076,-11.002277673972424,77.31111252474449,-20.628294,19.418621,0.5568039,46.90281,-15.087552,-10.719614,12.335008,-10.094943,-9.200312,38.140057,-34.024956,10.731922,-0.9797687,6.726549,11.169262,-7.1545043,26.898523,-7.6898537,32.66084,-18.670494,6.508379,3.4099786,-21.271408,-20.048082,9.027231,45.949223,2.184592,3.3841708,-8.395689
84,0.34966811537742615,29.702510833740234,72.70645141601562,-2.863099363600937,-11.075319353967137,77.0303261398933,-20.296972,19.292953,1.0566235,47.665047,-16.011055,-10.484271,12.309731,-10.618735,-8.751828,38.902645,-33.83357,11.094679,-0.85284674,6.522194,11.207331,-7.1967735,26.883842,-7.618648,32.579666,-18.530842,6.545158,3.4633217,-21.34266,-20.003809,8.998668,46.177067,2.1359003,3.3646896,-8.506233
85,0.08127643913030624,30.21349334716797,72.65817260742188,-2.6590279063832916,-11.116208167648272,76.77868874341999,-19.95863,19.067038,1.5863669,48.343716,-16.85082,-10.193223,12.190525,-11.224694,-8.285394,39.805344,-33.59077,11.443466,-0.7528175,6.251539,11.181241,-7.2622886,26.828981,-7.5171514,32.571747,-18.338053,6.5568795,3.5282955,-21.389963,-19.910717,8.926666,46.455315,2.0988219,3.27615,-8.646565
86,-0.1851940006017685,30.719768524169922,72.62686920166016,-2.399302819840548,-11.135214727647886,76.5396152869336,-19.583899,18.758432,2.1660738,48.92383,-17.630222,-9.873212,11.987818,-11.905754,-7.787915,40.836563,-33.29742,11.788354,-0.6533643,5.9263554,11.114961,-7.3588285,26.750301,-7.403973,32.61058,-18.102037,6.5504036,3.6051183,-21.402779,-19.809189,8.815836,46.751366,2.085915,3.1359975,-8.805118
87,-0.46196064352989197,31.236618041992188,72.6089096069336,-2.1027643256188306,-11.145962900509868,76.32116394401281,-19.15596,18.387926,2.7742143,49.384624,-18.35004,-9.553295,11.710374,-12.627323,-7.265614,41.99345,-32.9214,12.067836,-0.56154424,5.563648,11.024486,-7.4858546,26.653145,-7.291065,32.674084,-17.822634,6.5585303,3.6796596,-21.383163,-19.689962,8.65938,47.03605,2.050129,2.987645,-8.966601
88,-0.7382034063339233,31.749109268188477,72.60383605957031,-1.785097322821153,-11.16170907568647,76.13031842749317,-18.657652,17.975117,3.3909628,49.7027,-19.007978,-9.262359,11.368472,-13.357083,-6.725179,43.269337,-32.426678,12.219617,-0.47558343,5.1796165,10.931532,-7.6432714,26.559422,-7.1995764,32.72871,-17.513512,6.6157384,3.7344792,-21.313477,-19.557602,8.4383,47.25503,1.9503344,2.8755474,-9.109123
89,-0.9978494644165039,32.260528564453125,72.62567138671875,-1.4301416371910887,-11.179950604840725,75.97827109705769,-18.077692,17.490742,4.0284414,49.84341,-19.59026,-9.009012,10.968719,-14.118696,-6.166874,44.66264,-31.82075,12.23181,-0.39299053,4.7472625,10.830322,-7.840858,26.476856,-7.1310287,32.765266,-17.16144,6.745764,3.7636487,-21.167406,-19.402683,8.11392,47.377617,1.7537122,2.814372,-9.230334
90,-1.2440142631530762,32.77117156982422,72.66759490966797,-1.0330172068581385,-11.19499155041213,75.85718331560906,-17.43074,16.930872,4.690927,49.825478,-20.09954,-8.777032,10.505398,-14.915906,-5.5863056,46.16863,-31.110386,12.139313,-0.3128689,4.262093,10.714623,-8.074265,26.406042,-7.0787525,32.79667,-16.771334,6.92642,3.7752702,-20.958881,-19.220545,7.701851,47.433334,1.4879138,2.7793963,-9.339297
91,-1.5017117261886597,33.28583526611328,72.72724914550781,-0.6393859708822133,-11.217957035948602,75.74829383808448,-16.738207,16.35432,5.348012,49.706074,-20.558493,-8.557659,9.9673815,-15.692482,-4.9846697,47.782516,-30.261145,11.949352,-0.2372489,3.7749946,10.603469,-8.32083,26.35482,-7.0492845,32.823753,-16.381056,7.1227374,3.7732997,-20.737019,-19.023067,7.2701955,47.46544,1.2069576,2.7558389,-9.432702
92,-1.7433764934539795,33.781890869140625,72.79499816894531,-0.2922879745403109,-11.259233285088085,75.632295642646,-16.020447,15.822209,5.9705534,49.5451,-20.991673,-8.342456,9.3414755,-16.392092,-4.364189,49.504154,-29.240746,11.667412,-0.16662514,3.3397439,10.518356,-8.5550995,26.332012,-7.048663,32.84113,-16.03057,7.300399,3.7608411,-20.538857,-18.827589,6.880248,47.503334,0.9615319,2.7294333,-9.504734
93,-1.9862867593765259,34.282745361328125,72.87940979003906,-0.0005793210310036416,-11.329407967436472,75.50512123357768,-15.260848,15.347369,6.5571218,49.34046,-21.400505,-8.134598,8.614875,-16.996061,-3.6996017,51.369858,-27.994453,11.276297,-0.09863396,2.970568,10.471844,-8.777018,26.343468,-7.087348,32.83559,-15.707886,7.4650474,3.732222,-20.359623,-18.640951,6.515862,47.540054,0.7427769,2.7103274,-9.545942
94,-2.2245960235595703,34.775657653808594,72.96852111816406,0.2577907768319812,-11.420080337663817,75.37629465908657,-14.455864,14.897864,7.1225567,49.0657,-21.77311,-7.9358454,7.794564,-17.537106,-3.0034978,53.367752,-26.552008,10.777948,-0.030753832,2.6406782,10.452494,-8.995524,26.38674,-7.1600666,32.806877,-15.402383,7.6307025,3.6861935,-20.17741,-18.459764,6.151182,47.555016,0.53394294,2.701674,-9.558843
95,-2.459289073944092,35.256072998046875,73.0621337890625,0.48652370622796226,-11.513750666897309,75.24714954090396,-13.643374,14.468855,7.6637716,48.747665,-22.115973,-7.735996,6.896872,-18.03966,-2.3344226,55.427837,-25.008728,10.20167,0.03288142,2.3418005,10.444791,-9.198825,26.457388,-7.246658,32.77268,-15.155777,7.775541,3.6341245,-20.01132,-18.291998,5.8422165,47.566586,0.37820235,2.6782734,-9.557863
96,-2.697936534881592,35.72779083251953,73.16411590576172,0.6894625863024948,-11.592729785694859,75.11935004602739,-12.86037,14.056398,8.177771,48.412415,-22.435308,-7.5256977,5.9362445,-18.533451,-1.7465056,57.486763,-23.463337,9.57294,0.084196955,2.0672996,10.433813,-9.368514,26.54881,-7.3204327,32.745487,-15.007515,7.877577,3.5866337,-19.88547,-18.153076,5.6532674,47.596424,0.32343918,2.6152937,-9.557253
97,-2.940901041030884,36.197547912597656,73.27239227294922,0.8660886455668388,-11.650016781915095,74.9861501517021,-12.113739,13.665712,8.671728,48.06163,-22.731123,-7.3004327,4.871232,-19.016619,-1.2121265,59.589817,-21.89051,8.856333,0.12163879,1.831025,10.4166765,-9.504241,26.657953,-7.3774176,32.732643,-14.991382,7.921606,3.541067,-19.808922,-18.056236,5.620864,47.663715,0.40644774,2.4954796,-9.558776
98,-3.178422451019287,36.65376281738281,73.38082122802734,1.0132878291971332,-11.696428881865764,74.84985738659351,-11.382164,13.297001,9.146669,47.681667,-23.000004,-7.0660267,3.7055094,-19.485662,-0.7201651,61.753227,-20.2544,8.038397,0.14679158,1.6366757,10.4019,-9.61,26.782267,-7.425265,32.72216,-15.076124,7.9224625,3.4927218,-19.769552,-18.00234,5.710968,47.752888,0.6001777,2.3361204,-9.5536585
99,-3.408276319503784,37.10805892944336,73.49099731445312,1.1396422100871397,-11.739197063800782,74.72449934006544,-10.664115,12.939987,9.588596,47.28326,-23.247704,-6.8290343,2.5242803,-19.9752,-0.34420273,63.869976,-18.648823,7.173373,0.15821533,1.464233,10.392849,-9.677493,26.913551,-7.458222,32.699608,-15.204647,7.9035144,3.449561,-19.748953,-17.981058,5.8716817,47.824368,0.84931207,2.163869,-9.539897
100,-3.6220266819000244,37.551265716552734,73.6016845703125,1.2526589170781024,-11.786116571599177,74.62467012708301,-9.95635,12.583339,9.983752,46.87384,-23.477865,-6.59557,1.4142947,-20.516682,-0.15492316,65.83438,-17.170856,6.3127675,0.1533851,1.2921183,10.392223,-9.699201,27.041958,-7.469328,32.6532,-15.3181925,7.887684,3.4202993,-19.731113,-17.976498,6.051425,47.841694,1.0961719,2.005316,-9.517693
101,-3.824976921081543,37.989444732666016,73.70890808105469,1.3480943314302034,-11.8408970535196,74.558617310278,-9.262684,12.228578,10.319378,46.4616,-23.691545,-6.366713,0.37940732,-21.148077,-0.19727017,67.65924,-15.76376,5.4295516,0.12722003,1.1216413,10.398957,-9.686132,27.154203,-7.4642277,32.596508,-15.396422,7.88094,3.4143658,-19.719131,-17.985453,6.2573724,47.81213,1.3431883,1.8469187,-9.490862
102,-4.02225399017334,38.422210693359375,73.81609344482422,1.4241586990219752,-11.900052619227317,74.51863289818078,-8.581729,11.878972,10.60664,46.040512,-23.886765,-6.1387386,-0.6181643,-21.864326,-0.424852,69.39698,-14.416483,4.486997,0.082751624,0.9583526,10.410471,-9.64368,27.256369,-7.4474106,32.53817,-15.470311,7.870324,3.426544,-19.720182,-18.007778,6.507465,47.753693,1.6110703,1.6811758,-9.459867
103,-4.2055344581604,38.861228942871094,73.92417907714844,1.4963473164667471,-11.959402789666344,74.49385396878094,-7.904271,11.527468,10.866516,45.599075,-24.063845,-5.9112806,-1.552338,-22.62349,-0.7645584,71.00446,-13.296248,3.5381267,0.023325944,0.78997475,10.426114,-9.547548,27.365158,-7.4019933,32.453983,-15.554793,7.850472,3.4429677,-19.728973,-18.039114,6.7768855,47.64884,1.8719454,1.5438236,-9.422184
104,-4.378170490264893,39.2900390625,74.0296630859375,1.575489396620751,-12.015217170403632,74.47317716662617,-7.220932,11.1693945,11.1194,45.12513,-24.22262,-5.6850686,-2.397054,-23.366343,-1.1379951,72.43648,-12.565094,2.657039,-0.036968093,0.6077467,10.440892,-9.396145,27.483162,-7.3259706,32.34399,-15.65747,7.8138256,3.4544857,-19.734627,-18.070553,7.0271745,47.482376,2.0883715,1.4704815,-9.377483
105,-4.535394191741943,39.71986389160156,74.13652801513672,1.6649578668687977,-12.068528421352944,74.46383828271468,-6.529757,10.79616,11.36166,44.614864,-24.361858,-5.456084,-3.1156352,-24.159817,-1.6266712,73.70129,-12.331813,1.8346459,-0.083784305,0.4094752,10.439947,-9.234666,27.57975,-7.254953,32.268406,-15.762201,7.7484956,3.476505,-19.725988,-18.0929,7.2431026,47.250275,2.254323,1.4845493,-9.336668
106,-4.6865553855896,40.15379333496094,74.24504089355469,1.7575281069216242,-12.120528887126824,74.4677805359517,-5.8359566,10.416709,11.584199,44.07747,-24.483597,-5.227399,-3.7231483,-24.989573,-2.2318456,74.82102,-12.492613,1.0641177,-0.12681846,0.20248958,10.428556,-9.053065,27.659494,-7.1802835,32.21321,-15.868583,7.6611643,3.5093865,-19.711493,-18.110983,7.4449544,46.962925,2.3844984,1.5622743,-9.298084
107,-4.82295560836792,40.56655502319336,74.34889221191406,1.8412692884891069,-12.168696234814515,74.46512649774104,-5.1392064,10.055102,11.800481,43.516586,-24.590715,-5.010805,-4.2797327,-25.65408,-2.756471,75.76507,-12.874064,0.43655005,-0.16817166,0.0011184843,10.419684,-8.818186,27.743195,-7.0666275,32.126595,-15.991233,7.56601,3.532638,-19.702085,-18.123426,7.6280456,46.63855,2.4603877,1.6678388,-9.249449
108,-4.9485764503479,40.979209899902344,74.45336151123047,1.9065445835923205,-12.209526255581041,74.43575122011926,-4.4420815,9.735118,12.025076,42.94113,-24.688265,-4.8170114,-4.855558,-25.949522,-3.007108,76.50032,-13.292575,0.041790057,-0.16599593,-0.16903281,10.406743,-8.5965,27.795292,-6.9529376,32.060696,-16.122744,7.4668837,3.545677,-19.676947,-18.123558,7.7342215,46.30003,2.4331236,1.7649617,-9.182906
109,-5.064558506011963,41.389381408691406,74.55944061279297,1.949997733791235,-12.244501645543698,74.3703989888001,-3.7379565,9.465263,12.267262,42.345848,-24.775717,-4.6484313,-5.4690948,-25.744234,-2.8681831,77.00511,-13.790958,-0.054474212,-0.13251995,-0.30648035,10.399679,-8.334985,27.835289,-6.7979,31.966236,-16.285295,7.3658867,3.536257,-19.648788,-18.11106,7.7723722,45.94151,2.2825036,1.8477844,-9.083129
110,-5.177554130554199,41.79600143432617,74.67124938964844,1.9774934648771259,-12.274513185655245,74.2808176683685,-3.0283363,9.231563,12.520119,41.73059,-24.851873,-4.4991055,-6.0853777,-25.163107,-2.4738324,77.30167,-14.428448,0.091897085,-0.09544758,-0.43241668,10.399892,-7.997743,27.87965,-6.5749984,31.817457,-16.47003,7.262512,3.5056221,-19.638775,-18.070175,7.7729683,45.567295,2.0285387,1.9328976,-8.961618
111,-5.282162666320801,42.19200134277344,74.7799301147461,1.9939138769515812,-12.295423284670145,74.17796095401637,-2.3267298,9.022656,12.773975,41.106724,-24.918232,-4.3661447,-6.6987953,-24.398512,-2.0042036,77.42261,-15.045164,0.3804869,-0.03757172,-0.5452566,10.391584,-7.6675196,27.906649,-6.350946,31.685345,-16.648294,7.1588626,3.4693992,-19.629915,-18.00934,7.7349105,45.195515,1.7210497,2.0195198,-8.844734
112,-5.38134765625,42.57918930053711,74.88420867919922,1.9983594835461174,-12.303501779910988,74.07354105947735,-1.6482272,8.82974,13.018283,40.487755,-24.977123,-4.246762,-7.3082523,-23.640217,-1.6327434,77.39806,-15.478902,0.7156533,0.047755636,-0.636375,10.372405,-7.390797,27.911036,-6.165032,31.59539,-16.800379,7.060859,3.4325912,-19.60679,-17.96717,7.676246,44.825165,1.4339463,2.109027,-8.750834
113,-5.476805210113525,42.95994186401367,74.9858169555664,1.9863305130167102,-12.291951031131171,73.96297836984887,-0.9992322,8.661047,13.254691,39.87254,-25.025705,-4.139776,-7.924676,-22.872358,-1.3539745,77.209335,-15.640372,1.1402637,0.098372705,-0.7183955,10.346254,-7.0427337,27.90792,-5.9005713,31.441706,-16.886557,6.9819236,3.3744261,-19.640083,-17.890648,7.648026,44.4964,1.1597751,2.1977665,-8.702041
114,-5.5617289543151855,43.34431838989258,75.08543395996094,1.9587967852574277,-12.26529509374616,73.84281620549213,-0.3721385,8.518302,13.48823,39.258797,-25.065105,-4.0456257,-8.544093,-22.019947,-1.0902458,76.84721,-15.634738,1.6822598,0.17535755,-0.7797377,10.30842,-6.7200613,27.89343,-5.655655,31.308134,-16.951925,6.909938,3.3078694,-19.66259,-17.82327,7.594682,44.159126,0.8893846,2.2884893,-8.673893
115,-5.640579700469971,43.72440719604492,75.1838607788086,1.9279175860468132,-12.234593527862726,73.7251640166311,0.24235007,8.3823595,13.713242,38.649265,-25.099705,-3.963974,-9.148896,-21.180088,-0.90107244,76.35222,-15.584198,2.2288175,0.23326445,-0.8399799,10.273422,-6.3791685,27.868328,-5.3798413,31.162067,-17.003775,6.8419075,3.2387278,-19.719458,-17.736963,7.5553484,43.861588,0.6082663,2.3831818,-8.658613
116,-5.715789794921875,44.09756851196289,75.27415466308594,1.906998759839439,-12.210332597338875,73.62196391615781,0.851618,8.234562,13.923469,38.05007,-25.135662,-3.8947892,-9.723867,-20.449265,-0.8467913,75.76566,-15.606828,2.665979,0.25896296,-0.9152344,10.245692,-6.0417385,27.837675,-5.08951,31.029602,-17.070995,6.7700067,3.183191,-19.8203,-17.621769,7.5467534,43.633972,0.31161335,2.4843218,-8.64669
117,-5.779965400695801,44.46481704711914,75.35533905029297,1.8951813977748497,-12.19598158316104,73.5368722369387,1.4588115,8.075639,14.115369,37.46132,-25.17262,-3.8438873,-10.262659,-19.83754,-0.94454104,75.08409,-15.734546,2.9632049,0.29377505,-0.99705344,10.234527,-5.760628,27.81417,-4.843257,30.932034,-17.193602,6.689987,3.1443222,-19.911398,-17.52033,7.5177593,43.426487,-0.004128716,2.6029413,-8.613851
118,-5.835685729980469,44.83319854736328,75.4280776977539,1.8859365452709447,-12.18566224470791,73.46347144230751,2.0596735,7.9144053,14.292731,36.879986,-25.207973,-3.808815,-10.775514,-19.298796,-1.1603783,74.28879,-15.901265,3.181756,0.30867895,-1.0877448,10.231416,-5.48053,27.791061,-4.5852103,30.835867,-17.336569,6.607403,3.112965,-20.031876,-17.395035,7.49638,43.267006,-0.34634572,2.7332702,-8.580442
119,-5.887788772583008,45.192813873291016,75.49319458007812,1.883347239800376,-12.176111855500977,73.39842946321293,2.649495,7.745809,14.459368,36.309475,-25.24484,-3.777988,-11.2718935,-18.842144,-1.4796336,73.39767,-16.07508,3.3469856,0.35248902,-1.176023,10.241223,-5.2745624,27.776941,-4.3914213,30.790417,-17.500305,6.525671,3.092382,-20.12271,-17.316704,7.464308,43.099613,-0.6465188,2.8596659,-8.537985
120,-5.940082550048828,45.551429748535156,75.55155944824219,1.8931874709096725,-12.163355705954954,73.33813767818559,3.223384,7.5635724,14.619029,35.752686,-25.28591,-3.74033,-11.761906,-18.48258,-1.8874193,72.43094,-16.225975,3.4823847,0.36391062,-1.2823997,10.2576685,-5.064366,27.763653,-4.176345,30.757347,-17.628952,6.452528,3.0791667,-20.259254,-17.220415,7.495641,42.993732,-0.89235115,2.9622152,-8.5174055
121,-5.987731456756592,45.9054069519043,75.60075378417969,1.9182629207158868,-12.147785858296512,73.28287821201722,3.7824485,7.3615904,14.772453,35.205254,-25.328129,-3.690882,-12.24504,-18.24401,-2.4050179,71.38873,-16.351828,3.5857491,0.3409866,-1.4157168,10.278378,-4.8604326,27.759096,-3.9466753,30.753864,-17.723295,6.388902,3.0789213,-20.450281,-17.107992,7.6095347,42.96099,-1.055848,3.036371,-8.52513
122,-6.034162521362305,46.253963470458984,75.64474487304688,1.9553109846049208,-12.130554332983108,73.23372350562849,4.3289204,7.14632,14.916962,34.666424,-25.370567,-3.63697,-12.713657,-18.10815,-3.0344992,70.26224,-16.46701,3.651824,0.3389535,-1.5537804,10.312294,-4.7279634,27.7631,-3.7716162,30.807621,-17.815098,6.330184,3.0918906,-20.624659,-17.036655,7.736724,42.9329,-1.1456882,3.0936115,-8.534365
123,-6.07399845123291,46.603004455566406,75.68115997314453,1.9951398043530675,-12.110698106653803,73.19031336441923,4.8572574,6.930283,15.052252,34.150143,-25.423038,-3.5867145,-13.165804,-18.021038,-3.7328985,69.05471,-16.565027,3.6999407,0.33959535,-1.6879833,10.353662,-4.6284485,27.77041,-3.6236012,30.886349,-17.89993,6.275848,3.109406,-20.795383,-16.986118,7.884059,42.920643,-1.1950558,3.1367128,-8.549154
124,-6.111818790435791,46.945674896240234,75.71014404296875,2.0320041322056954,-12.086697523236973,73.15137603151891,5.3672485,6.723766,15.178205,33.65897,-25.488686,-3.5472958,-13.601404,-17.931782,-4.4546347,67.76904,-16.638742,3.7482479,0.33474225,-1.808399,10.398388,-4.5370045,27.780598,-3.490698,30.965322,-17.980927,6.225283,3.1230357,-20.96074,-16.944231,8.047503,42.921974,-1.2333149,3.1688042,-8.56988
125,-6.147121429443359,47.29332733154297,75.73335266113281,2.061218137280246,-12.05996533955191,73.11782143578759,5.858019,6.531271,15.295771,33.197384,-25.572315,-3.5237246,-14.023051,-17.843256,-5.2080617,66.40686,-16.688917,3.7715538,0.31985807,-1.9125538,10.447192,-4.4506383,27.797028,-3.3734565,31.04678,-18.059237,6.1791177,3.1306374,-21.129055,-16.907408,8.241627,42.951164,-1.2618213,3.178561,-8.599744
126,-6.1748528480529785,47.63578796386719,75.75100708007812,2.0869015307685177,-12.030564257537673,73.08984941096129,6.329815,6.3475714,15.404704,32.763096,-25.670753,-3.5114567,-14.428688,-17.77644,-6.0109854,64.966644,-16.71939,3.772071,0.32060087,-2.0024061,10.501212,-4.413626,27.816216,-3.3074152,31.164724,-18.135294,6.1355243,3.140728,-21.27691,-16.891558,8.438828,42.9897,-1.270959,3.168622,-8.632748
127,-6.19265604019165,47.96893310546875,75.75985717773438,2.1137560225773395,-11.995864324628897,73.0660446281039,6.7835984,6.1681376,15.504294,32.35088,-25.777422,-3.503451,-14.811966,-17.708042,-6.831807,63.442394,-16.725674,3.8053286,0.33061907,-2.0831268,10.556677,-4.4048142,27.834967,-3.2698524,31.293125,-18.207607,6.0941825,3.1528893,-21.402645,-16.89011,8.624354,43.020588,-1.2649254,3.1620605,-8.666422
128,-6.2103095054626465,48.304935455322266,75.76235961914062,2.145685419683616,-11.95344264837212,73.04509877975781,7.2194104,5.987786,15.593759,31.957003,-25.8859,-3.4922135,-15.168823,-17.619,-7.636276,61.8291,-16.702509,3.925735,0.37165186,-2.1618152,10.615963,-4.432155,27.844551,-3.2638898,31.416843,-18.264942,6.0542755,3.1702185,-21.474106,-16.89366,8.7321415,42.99955,-1.2727518,3.1822238,-8.6872
129,-6.220074653625488,48.64668273925781,75.76197052001953,2.183344430885768,-11.903982248231967,73.02784071898185,7.6352015,5.8042707,15.669389,31.584005,-25.995338,-3.4741962,-15.496194,-17.507753,-8.420352,60.111263,-16.633327,4.1606956,0.36346373,-2.2398212,10.658802,-4.4214573,27.865547,-3.2252707,31.517855,-18.346006,6.0108,3.1882958,-21.57783,-16.904654,8.911106,43.00061,-1.2175877,3.2395935,-8.731397
130,-6.222687244415283,48.98308181762695,75.75724029541016,2.2263845192051486,-11.848226806182888,73.01347892448186,8.033033,5.620355,15.733895,31.23057,-26.107712,-3.453659,-15.797526,-17.38372,-9.198255,58.29332,-16.523947,4.4749165,0.37886864,-2.3200345,10.709536,-4.4394035,27.88174,-3.21077,31.612083,-18.412382,5.966776,3.2113562,-21.63921,-16.916027,9.027973,42.95966,-1.1735836,3.3205838,-8.765636
131,-6.2196784019470215,49.31462478637695,75.74595642089844,2.2708682466549504,-11.78490052924929,73.00396092270324,8.412759,5.4389668,15.791145,30.897705,-26.22641,-3.4345613,-16.076628,-17.248684,-9.966554,56.396816,-16.402687,4.8288774,0.390726,-2.3939936,10.754772,-4.4562035,27.899858,-3.1996336,31.687008,-18.473074,5.9322834,3.2312288,-21.683382,-16.931812,9.129273,42.91069,-1.1196055,3.410349,-8.80089
132,-6.2172675132751465,49.651981353759766,75.7298812866211,2.3170688943785906,-11.711637299150741,72.99910184860252,8.775058,5.263309,15.846169,30.584608,-26.35397,-3.4209526,-16.33638,-17.101538,-10.722382,54.440735,-16.297983,5.1835747,0.420993,-2.458871,10.794203,-4.4832726,27.90343,-3.2010007,31.73882,-18.498337,5.9162607,3.2470336,-21.69235,-16.93562,9.156445,42.85127,-1.1007307,3.4936047,-8.825055
133,-6.204296588897705,49.995277404785156,75.7120132446289,2.3597642528453204,-11.627699957743777,72.99921288956816,9.11862,5.0965214,15.901878,30.291977,-26.491865,-3.4116642,-16.56918,-16.939568,-11.4815235,52.403355,-16.218655,5.5501027,0.4388454,-2.5054286,10.812148,-4.5208707,27.909184,-3.2039669,31.79224,-18.518944,5.924078,3.2497036,-21.687956,-16.944319,9.183178,42.802902,-1.0705581,3.5713942,-8.854127
134,-6.190626621246338,50.336509704589844,75.69034576416016,2.4034609203756525,-11.533283027605993,73.00400355391776,9.441894,4.935587,15.955104,30.022146,-26.63947,-3.4048285,-16.774828,-16.764109,-12.240108,50.27688,-16.146816,5.941978,0.4633089,-2.540562,10.823883,-4.5558834,27.910748,-3.2115614,31.814323,-18.52444,5.951298,3.2445726,-21.65241,-16.954187,9.1617365,42.738052,-1.0509007,3.6501915,-8.874585
135,-6.167195796966553,50.678409576416016,75.65973663330078,2.452395883201078,-11.432826374499442,73.01451075257035,9.75257,4.7748404,16.002089,29.767958,-26.792023,-3.4037955,-16.966742,-16.577698,-12.9670515,48.10702,-16.06634,6.3237357,0.48553064,-2.5737512,10.82991,-4.5926538,27.90699,-3.2179031,31.82086,-18.500921,5.988076,3.2365093,-21.603909,-16.957458,9.118177,42.68041,-1.0382562,3.7238104,-8.897572
136,-6.140582084655762,51.02437210083008,75.62458801269531,2.508114280844029,-11.33124509371159,73.03255689302867,10.056738,4.609419,16.038198,29.525785,-26.94624,-3.4118838,-17.158014,-16.383648,-13.631389,45.939663,-15.961014,6.6596136,0.52063507,-2.6099672,10.836696,-4.6573787,27.894495,-3.242311,31.83246,-18.437403,6.0247126,3.2311423,-21.536112,-16.961067,9.040957,42.630314,-1.0344098,3.7858412,-8.92274
137,-6.100663185119629,51.370811462402344,75.5825424194336,2.5733381188464812,-11.225165000499453,73.05852449391594,10.344995,4.438471,16.06194,29.306879,-27.107786,-3.4301932,-17.351833,-16.18847,-14.251649,43.769405,-15.839866,6.935314,0.55024076,-2.6497054,10.836507,-4.7266974,27.875235,-3.2691586,31.834555,-18.323456,6.063182,3.224904,-21.46543,-16.96252,8.959929,42.60652,-1.0260586,3.8360138,-8.959788
138,-6.0630340576171875,51.722068786621094,75.53627014160156,2.645925848787733,-11.11431097638145,73.09184646720412,10.6203985,4.263262,16.075508,29.104362,-27.273466,-3.4563172,-17.53834,-15.988306,-14.835448,41.571312,-15.704288,7.171127,0.5738631,-2.6907299,10.830403,-4.7959557,27.850206,-3.2935622,31.820623,-18.167582,6.1076436,3.2155097,-21.389397,-16.961027,8.869132,42.60164,-1.0160371,3.8773017,-9.004595
139,-6.019832134246826,52.077232360839844,75.48431396484375,2.7259761986617903,-11.005510585724942,73.13222626950954,10.895686,4.0852137,16.080715,28.910795,-27.440298,-3.489813,-17.71798,-15.774946,-15.334327,39.377705,-15.535529,7.3816447,0.5949509,-2.7340147,10.826996,-4.8768873,27.817627,-3.3169243,31.8085,-17.993464,6.150716,3.2095962,-21.311916,-16.95765,8.771026,42.613247,-1.0074884,3.9077926,-9.053761
140,-5.968908309936523,52.430076599121094,75.42913818359375,2.8121561089912395,-10.906152253215659,73.17948505062012,11.185175,3.905467,16.079159,28.715677,-27.604036,-3.5301127,-17.891483,-15.54127,-15.69868,37.222324,-15.315764,7.5800676,0.6133036,-2.7791982,10.834798,-4.9751377,27.775381,-3.3352964,31.811243,-17.825262,6.185633,3.2132132,-21.240675,-16.954205,8.6746025,42.640594,-1.0003287,3.9256923,-9.104752
141,-5.912054538726807,52.78895950317383,75.37295532226562,2.907093685718516,-10.817328758506488,73.23216534635544,11.494052,3.7197156,16.0742,28.51034,-27.763668,-3.579337,-18.055292,-15.279615,-15.908179,35.07576,-15.030864,7.774519,0.62987554,-2.8273585,10.857392,-5.092398,27.71679,-3.34343,31.828424,-17.670189,6.206152,3.227609,-21.176434,-16.95329,8.583849,42.69021,-0.9929584,3.924597,-9.157212
142,-5.842958927154541,53.14976501464844,75.3113784790039,3.012478690572648,-10.735548176199217,73.29125337572124,11.815551,3.5271263,16.06351,28.300081,-27.92054,-3.6367962,-18.208414,-15.000873,-15.9896,32.932518,-14.69433,7.9529386,0.63638556,-2.8856974,10.894215,-5.206715,27.663456,-3.331687,31.83371,-17.524673,6.220491,3.24413,-21.116735,-16.952942,8.501823,42.75349,-0.9795052,3.9073594,-9.210923
143,-5.775992393493652,53.51433563232422,75.24857330322266,3.1209019081713696,-10.662582412520097,73.36047177839134,12.142918,3.3360164,16.040071,28.10229,-28.076237,-3.697697,-18.355984,-14.724715,-15.965626,30.86346,-14.328383,8.099403,0.6359437,-2.9432435,10.936887,-5.3344593,27.60319,-3.3196306,31.853773,-17.370277,6.2353992,3.2679484,-21.065353,-16.953608,8.421096,42.82792,-0.964825,3.8864994,-9.268028
144,-5.693954944610596,53.87971496582031,75.1830062866211,3.225873528319986,-10.599714388785983,73.44249960976748,12.470491,3.155615,15.998111,27.932217,-28.231373,-3.757566,-18.50527,-14.46699,-15.859987,28.942461,-13.956719,8.199959,0.6278318,-2.9850419,10.978108,-5.483365,27.521519,-3.318928,31.90765,-17.188025,6.258,3.3023274,-21.027182,-16.958637,8.341123,42.909103,-0.9493638,3.8746123,-9.331119
145,-5.60621452331543,54.25056076049805,75.11357116699219,3.328649588567888,-10.542893314210758,73.53768576615974,12.797998,2.9833477,15.936343,27.779089,-28.379686,-3.811488,-18.668455,-14.226431,-15.655968,27.167553,-13.574119,8.246453,0.60597235,-3.0292037,11.020882,-5.638595,27.453537,-3.3179872,31.972263,-16.979683,6.2990446,3.3425813,-21.001513,-16.964754,8.2700615,42.986504,-0.91491103,3.8708282,-9.406567
146,-5.511822700500488,54.62961959838867,75.0407485961914,3.4306743347001403,-10.492789426784073,73.64443151000667,13.124102,2.8190835,15.85816,27.648748,-28.52792,-3.863593,-18.842308,-13.99471,-15.349587,25.515993,-13.1760845,8.248997,0.58094597,-3.060963,11.062012,-5.823271,27.359947,-3.3283455,32.071873,-16.736118,6.3473015,3.3959072,-20.984238,-16.977991,8.198609,43.072502,-0.87444913,3.8703513,-9.493425
147,-5.411701679229736,55.012638092041016,74.96588897705078,3.5284062869818285,-10.456428888820735,73.76190892113414,13.453577,2.669279,15.765012,27.552828,-28.680332,-3.9223645,-19.014313,-13.775514,-14.983331,24.03522,-12.787615,8.222322,0.5457721,-3.080895,11.108856,-6.010066,27.270206,-3.344707,32.186123,-16.50209,6.3975334,3.4508097,-20.977589,-16.994118,8.127255,43.158188,-0.84000194,3.877693,-9.570963
148,-5.3018293380737305,55.40244674682617,74.88775634765625,3.6173302120789086,-10.44026352284853,73.88924322998854,13.784086,2.5436819,15.658553,27.517675,-28.849335,-3.9967222,-19.171644,-13.571796,-14.599796,22.769669,-12.437127,8.181125,0.5020987,-3.0801392,11.16345,-6.192933,27.1891,-3.3762355,32.31836,-16.309637,6.4406724,3.502872,-20.98075,-17.009943,8.047046,43.24153,-0.83377296,3.8978755,-9.620596
149,-5.186666965484619,55.792720794677734,74.80047607421875,3.6894913575117028,-10.445542219659849,74.0315942462006,14.108201,2.4509676,15.532876,27.558504,-29.042902,-4.0911374,-19.319662,-13.38531,-14.21022,21.736204,-12.136024,8.109792,0.44756904,-3.0533988,11.227499,-6.377244,27.121176,-3.4257832,32.472202,-16.167046,6.477359,3.5535219,-20.9947,-17.020939,7.943395,43.324787,-0.8697934,3.9367034,-9.631692
150,-5.0687761306762695,56.1941032409668,74.70796966552734,3.748093400688734,-10.46713211555756,74.18592976153455,14.425654,2.388273,15.391282,27.664284,-29.255833,-4.2009673,-19.470963,-13.210125,-13.791885,20.922235,-11.874927,8.007459,0.38708255,-3.0035598,11.297344,-6.570673,27.060856,-3.4945877,32.65146,-16.056627,6.5107775,3.6062982,-21.016455,-17.027237,7.8193727,43.407955,-0.937758,3.9899654,-9.616272
151,-4.944527626037598,56.59898376464844,74.60993957519531,3.799472361124088,-10.503762645009962,74.33958128831975,14.750344,2.3456018,15.25075,27.810616,-29.47516,-4.321424,-19.627644,-13.039392,-13.334131,20.337284,-11.648723,7.910063,0.3224007,-2.942242,11.370161,-6.7473106,27.016493,-3.5713634,32.83708,-15.978893,6.5379906,3.6533835,-21.049654,-17.030518,7.707834,43.48673,-1.012975,4.0469656,-9.58897
152,-4.812741756439209,57.01317596435547,74.50791931152344,3.853036482656199,-10.55342098829156,74.47934748327125,15.094792,2.313249,15.127585,27.976433,-29.689537,-4.4476695,-19.791218,-12.867866,-12.826068,19.990377,-11.45175,7.8532734,0.24810116,-2.8802707,11.444116,-6.869048,26.997335,-3.6334608,32.998966,-15.934112,6.5570765,3.684921,-21.102043,-17.031925,7.6479816,43.557007,-1.0707219,4.096973,-9.565072
153,-4.678793430328369,57.43511199951172,74.4012222290039,3.910232498362455,-10.625866545630341,74.6016467901621,15.474802,2.2872531,15.029778,28.154915,-29.902771,-4.5781126,-19.95066,-12.691613,-12.251908,19.878716,-11.272496,7.883841,0.19372492,-2.8093865,11.521599,-6.9868307,26.98306,-3.7318208,33.18876,-15.908983,6.563803,3.7077744,-21.155529,-17.03821,7.6139402,43.619225,-1.118357,4.1350574,-9.540738
154,-4.5429558753967285,57.865150451660156,74.2912368774414,3.96489508962111,-10.718011623709844,74.7125719611212,15.878644,2.2743998,14.948653,28.357998,-30.118681,-4.7158794,-20.111843,-12.511708,-11.621623,20.003944,-11.119898,7.9711137,0.13407108,-2.7262619,11.606171,-7.0657926,26.981625,-3.827841,33.370647,-15.907223,6.563122,3.7170327,-21.225502,-17.047386,7.617186,43.67638,-1.1589297,4.167822,-9.510984
155,-4.3921027183532715,58.30082702636719,74.17698669433594,4.015307681657691,-10.809306263115475,74.81471190163907,16.279408,2.2802496,14.875164,28.591051,-30.325693,-4.8630652,-20.299545,-12.330146,-10.963919,20.376669,-11.015604,8.034934,0.086368546,-2.6330028,11.676387,-7.136541,26.992048,-3.940852,33.563507,-15.948573,6.5497327,3.7253506,-21.292957,-17.06272,7.6419253,43.713055,-1.1877129,4.201862,-9.485038
156,-4.229979515075684,58.74797058105469,74.06381225585938,4.057593650343544,-10.880361759691338,74.91131090583326,16.649485,2.309727,14.799795,28.86099,-30.513363,-5.0216155,-20.53939,-12.149667,-10.307244,21.008675,-10.981096,7.9951715,0.041928947,-2.5340476,11.717064,-7.17944,27.013105,-4.0402813,33.74039,-16.04152,6.5220666,3.736646,-21.358662,-17.077942,7.6905713,43.719116,-1.206944,4.244214,-9.472797
157,-4.062234401702881,59.20675277709961,73.94659423828125,4.099220038269026,-10.930614411550575,74.99787593827944,16.996077,2.353908,14.727935,29.156658,-30.681208,-5.19401,-20.83811,-11.969927,-9.6344385,21.96975,-11.077371,7.8079524,0.0041245474,-2.4357595,11.722748,-7.194811,27.047869,-4.1357784,33.905693,-16.206358,6.4730043,3.7555652,-21.425095,-17.094177,7.776122,43.701103,-1.2014785,4.294097,-9.485271
158,-3.887147903442383,59.6735725402832,73.82801055908203,4.142372471005957,-10.970403503341297,75.07617739868205,17.33203,2.4080434,14.660544,29.4746,-30.831982,-5.3779073,-21.175404,-11.787946,-8.940757,23.21851,-11.266028,7.527036,-0.029055823,-2.344965,11.707425,-7.1788416,27.119059,-4.232328,34.052963,-16.445707,6.408604,3.7729657,-21.48903,-17.116373,7.8973937,43.65192,-1.1672156,4.3487086,-9.5114975
159,-3.6971521377563477,60.13624572753906,73.72039794921875,4.176934122477145,-10.995841929619706,75.15791958619373,17.63811,2.4855108,14.58164,29.83419,-30.960552,-5.5683994,-21.534025,-11.604284,-8.274632,24.593796,-11.417541,7.2170353,-0.065216474,-2.2514808,11.671762,-7.1409774,27.198368,-4.30895,34.18827,-16.706923,6.3388186,3.788176,-21.551699,-17.127647,8.024479,43.573242,-1.1456805,4.4113617,-9.538536
160,-3.4950833320617676,60.597389221191406,73.61847686767578,4.188176289828772,-11.00262436735648,75.25432220907663,17.893606,2.6024354,14.47635,30.255644,-31.061424,-5.7611117,-21.9044,-11.421835,-7.6830077,25.950724,-11.40789,6.9401546,-0.10484226,-2.1456645,11.614733,-7.102574,27.275,-4.362603,34.32622,-16.955633,6.273935,3.8004806,-21.60725,-17.125195,8.131542,43.459736,-1.1632675,4.485498,-9.552089
161,-3.2880420684814453,61.075294494628906,73.52298736572266,4.161560966175632,-10.978609575941725,75.37896441804043,18.070862,2.779672,14.329576,30.760363,-31.141935,-5.9605503,-22.307987,-11.232698,-7.1658635,27.278719,-11.128373,6.685009,-0.14926647,-2.0175812,11.531386,-7.079608,27.355326,-4.4036307,34.47046,-17.196373,6.218278,3.811327,-21.647564,-17.10743,8.20254,43.29427,-1.2155166,4.5758305,-9.541401
162,-3.069160223007202,61.55973815917969,73.43404388427734,4.108055621379871,-10.929568255351905,75.52260988194337,18.18854,3.002934,14.1523075,31.33137,-31.201723,-6.1675715,-22.741325,-11.040928,-6.7042623,28.643658,-10.668591,6.426839,-0.19562384,-1.8721455,11.421564,-7.065091,27.43559,-4.435479,34.622684,-17.440481,6.164511,3.822957,-21.67879,-17.078209,8.253482,43.08855,-1.2930396,4.6792064,-9.517508
163,-2.8360037803649902,62.040931701660156,73.34567260742188,4.050199614916547,-10.877224411040078,75.66065409428705,18.29599,3.239075,13.970222,31.929012,-31.222887,-6.3726034,-23.161196,-10.869181,-6.313306,30.021433,-10.2111635,6.2041335,-0.23974699,-1.7296399,11.297137,-7.028076,27.515366,-4.4354367,34.770737,-17.67533,6.109671,3.8294034,-21.710426,-17.034729,8.303493,42.867435,-1.4114444,4.7871294,-9.494736
164,-2.5975303649902344,62.53116226196289,73.2603759765625,4.012504801406381,-10.842556649854767,75.76771005539877,18.439566,3.45687,13.809429,32.520363,-31.191164,-6.566019,-23.528156,-10.740041,-6.0044694,31.39583,-9.94329,6.0535808,-0.27660307,-1.6004081,11.168849,-6.942038,27.576355,-4.381038,34.908978,-17.880585,6.0490165,3.8265176,-21.748663,-16.976177,8.369604,42.653393,-1.5913413,4.891655,-9.488416
165,-2.3511321544647217,63.04786682128906,73.17784881591797,3.9970917815698113,-10.825879344823859,75.83824365821467,18.633005,3.6504707,13.676483,33.086063,-31.107962,-6.7488074,-23.847198,-10.677284,-5.8063,32.80114,-9.953491,5.9896717,-0.3095956,-1.4885606,11.028764,-6.7888107,27.612755,-4.255882,35.035015,-18.044867,5.984079,3.8125315,-21.802553,-16.90145,8.478736,42.462196,-1.8474704,4.9902096,-9.5202265
166,-2.0916640758514404,63.56300735473633,73.09495544433594,3.992790804316614,-10.81690212892492,75.88446234702987,18.848995,3.838438,13.55772,33.65086,-30.980644,-6.9246206,-24.138702,-10.668816,-5.6987505,34.24319,-10.135356,5.9845567,-0.34489024,-1.3824167,10.873041,-6.5796304,27.623173,-4.0669503,35.150032,-18.174833,5.9157257,3.7901673,-21.871637,-16.806988,8.620372,42.28341,-2.1681647,5.0875793,-9.578312
167,-1.8336637020111084,64.07891082763672,73.01334381103516,3.996432019048069,-10.822166135448645,75.90943714023436,19.076763,4.0236816,13.44918,34.23804,-30.799105,-7.0880127,-24.386255,-10.680044,-5.62117,35.662437,-10.384279,6.015177,-0.37856704,-1.279076,10.71601,-6.337758,27.611134,-3.8338916,35.2595,-18.28233,5.8391657,3.7631361,-21.956732,-16.698063,8.76045,42.11242,-2.525469,5.186048,-9.627209
168,-1.572830080986023,64.6002197265625,72.93309783935547,4.006852730396343,-10.848011579012038,75.91594089489145,19.304644,4.208485,13.347101,34.873596,-30.55443,-7.2342935,-24.569983,-10.66946,-5.5165524,36.99179,-10.591849,6.0637445,-0.4092483,-1.1774517,10.573321,-6.0803957,27.584526,-3.5725505,35.362133,-18.380606,5.7500806,3.7336466,-22.056494,-16.573553,8.863902,41.94107,-2.8941197,5.2871647,-9.63129
169,-1.3044921159744263,65.12996673583984,72.856201171875,4.043748301055666,-10.89815545191717,75.88567310227191,19.56982,4.359041,13.272101,35.505394,-30.245275,-7.373646,-24.700844,-10.629176,-5.340534,38.226284,-10.68263,6.19276,-0.42389807,-1.0971203,10.446032,-5.7956657,27.543592,-3.2599092,35.444027,-18.458685,5.6447787,3.6961558,-22.170397,-16.427711,8.907705,41.7587,-3.275721,5.3906994,-9.561804
170,-1.0326447486877441,65.66517639160156,72.782958984375,4.102152994214986,-10.968171947621508,75.82292837701571,19.865013,4.485173,13.219346,36.13936,-29.875937,-7.5055137,-24.784334,-10.572098,-5.1365204,39.397675,-10.731049,6.395902,-0.4270373,-1.0339241,10.327016,-5.4800854,27.48748,-2.8977787,35.509586,-18.515938,5.526699,3.6512797,-22.296173,-16.258476,8.91184,41.57014,-3.683672,5.4949102,-9.443766
171,-0.7663025259971619,66.19745635986328,72.71571350097656,4.138717912211186,-11.052970032693965,75.76623880989922,20.116213,4.6524525,13.147315,36.8797,-29.442223,-7.6110406,-24.788555,-10.488024,-4.98081,40.485268,-10.847225,6.552166,-0.44318897,-0.9522025,10.219164,-5.166612,27.427479,-2.5419405,35.58701,-18.583971,5.4025183,3.6111388,-22.436808,-16.076618,8.909867,41.396973,-4.1036186,5.5995655,-9.322053
172,-0.4862173795700073,66.72991180419922,72.66124725341797,4.109135298603572,-11.147713881401085,75.75483588897768,20.25014,4.9247837,13.01492,37.82936,-28.93885,-7.673718,-24.686777,-10.371391,-4.94729,41.47533,-11.142365,6.5355473,-0.49177605,-0.8166584,10.12708,-4.8923936,27.379805,-2.2542562,35.704533,-18.697931,5.2792835,3.5870953,-22.588444,-15.899721,8.930765,41.252724,-4.516656,5.7050705,-9.2391205
173,-0.20650219917297363,67.25971221923828,72.6235580444336,3.9987191590315927,-11.258118377897121,75.79872779216352,20.274063,5.3157377,12.815705,38.997017,-28.381052,-7.6855206,-24.466175,-10.2250595,-5.0611873,42.383965,-11.6964655,6.2605443,-0.57259834,-0.6117522,10.06063,-4.6693335,27.355425,-2.0584729,35.87024,-18.882565,5.16104,3.5805624,-22.74104,-15.73424,8.968373,41.128216,-4.93764,5.815453,-9.206958
174,0.07979001849889755,67.78610229492188,72.59773254394531,3.831525237956471,-11.38360380186056,75.87835137204202,20.223564,5.7866497,12.571263,40.322437,-27.759544,-7.6651673,-24.145626,-10.048551,-5.277847,43.213173,-12.432213,5.809188,-0.6703773,-0.3593398,10.017097,-4.4836855,27.353197,-1.9279698,36.069996,-19.120132,5.044029,3.584404,-22.891695,-15.579563,9.006277,41.011097,-5.3627853,5.929525,-9.198989
175,0.3854597806930542,68.31442260742188,72.59259796142578,3.6191949144309055,-11.510424367250309,75.98905999780644,20.072618,6.3220363,12.280704,41.791462,-27.025328,-7.637924,-23.739786,-9.836119,-5.5661063,43.918743,-13.221462,5.3044763,-0.7815114,-0.07497975,9.982603,-4.335439,27.367352,-1.8497974,36.299126,-19.382656,4.923878,3.5966825,-23.03429,-15.43935,9.048442,40.896935,-5.758745,6.0411587,-9.1989765
176,0.7001667022705078,68.83210754394531,72.6083984375,3.3740479954859675,-11.624457713053445,76.1256007276104,19.793121,6.907489,11.941294,43.39399,-26.131544,-7.6279607,-23.265594,-9.586972,-5.895668,44.462055,-13.94024,4.870104,-0.9013064,0.22648706,9.943118,-4.2242827,27.388823,-1.8106214,36.552784,-19.639385,4.795942,3.6156378,-23.167757,-15.322027,9.104171,40.785946,-6.0831556,6.1436863,-9.191143
177,1.0136305093765259,69.33982849121094,72.64348602294922,3.0688852534043387,-11.717965468395889,76.29753334476338,19.357342,7.576006,11.535066,45.165928,-25.047237,-7.6283426,-22.697924,-9.278059,-6.2918406,44.792435,-14.567995,4.5345283,-1.0255901,0.5808974,9.895313,-4.172293,27.40461,-1.8337302,36.85677,-19.902323,4.6488233,3.651494,-23.27182,-15.262995,9.178633,40.64657,-6.3195415,6.232671,-9.1737585
178,1.3345842361450195,69.85016632080078,72.6988525390625,2.7083134106246654,-11.797932512935096,76.50440168283303,18.790798,8.313522,11.0629835,47.085846,-23.795563,-7.6432586,-22.038427,-8.919942,-6.7550135,44.946384,-15.169884,4.235355,-1.1706024,0.97861344,9.843107,-4.156956,27.420296,-1.9013388,37.198547,-20.174608,4.4879045,3.7029326,-23.3732,-15.226922,9.277094,40.510777,-6.498957,6.312342,-9.160301
179,1.644394874572754,70.35234069824219,72.76487731933594,2.349689966361597,-11.873875566649039,76.72539413811339,18.13994,9.039708,10.549724,49.067772,-22.416882,-7.7056108,-21.338213,-8.563695,-7.2227263,45.008343,-15.748399,3.9596512,-1.318883,1.3689371,9.795655,-4.1628566,27.435535,-1.9880575,37.535103,-20.421385,4.3326125,3.7478647,-23.474318,-15.205714,9.376588,40.39735,-6.625746,6.3909645,-9.1379
180,1.9395115375518799,70.84477233886719,72.83380126953125,2.0512204052459366,-11.956258565016144,76.9392362583869,17.445786,9.679313,10.020887,51.039253,-20.958927,-7.8392243,-20.650599,-8.261298,-7.6346707,45.0662,-16.306545,3.6922917,-1.4521143,1.7031308,9.765755,-4.170364,27.445856,-2.0630612,37.815136,-20.60403,4.2034936,3.7630627,-23.575733,-15.198037,9.45021,40.318996,-6.7055063,6.4767237,-9.090052
181,2.2340786457061768,71.32136535644531,72.90924835205078,1.8294523730888124,-12.049660339736679,77.13966746052884,16.699846,10.2122,9.4560795,53.017727,-19.393085,-8.06487,-19.983425,-8.024043,-7.976208,45.13383,-16.844988,3.426013,-1.5665025,1.9635389,9.753909,-4.182946,27.449224,-2.1146276,38.04367,-20.704378,4.109661,3.7387853,-23.685076,-15.198362,9.489443,40.276157,-6.74492,6.5903955,-9.006549
182,2.520254611968994,71.79335021972656,72.990478515625,1.656119106864286,-12.148416154031583,77.33719637121393,15.880727,10.673506,8.845219,55.040657,-17.712227,-8.3614435,-19.309814,-7.8268843,-8.279824,45.168064,-17.362005,3.1701388,-1.6703233,2.1787667,9.748679,-4.220462,27.4434,-2.1694276,38.259605,-20.748104,4.0367584,3.6921816,-23.802408,-15.210591,9.513071,40.272198,-6.7367373,6.721615,-8.902064
183,2.783137321472168,72.26002502441406,73.07369232177734,1.516699275292168,-12.249345779400732,77.53638237896868,15.010752,11.080571,8.232986,57.06527,-16.000408,-8.679483,-18.633083,-7.666219,-8.559255,45.172554,-17.857466,2.9321184,-1.7680167,2.3687,9.760051,-4.25442,27.425022,-2.226573,38.415524,-20.749979,3.9748259,3.6320775,-23.909288,-15.246447,9.527093,40.29894,-6.6727138,6.8317003,-8.787701
184,3.038067102432251,72.71114349365234,73.16239929199219,1.4002305748475328,-12.348089177066512,77.74129883996399,14.108607,11.458062,7.6661167,59.05802,-14.339126,-8.964332,-17.956774,-7.5372715,-8.828737,45.1508,-18.33032,2.7189143,-1.8702198,2.5478995,9.785971,-4.268467,27.404558,-2.297919,38.491146,-20.741947,3.9119735,3.5701358,-23.997967,-15.303904,9.555004,40.371693,-6.5372195,6.8818793,-8.685785
185,3.2926955223083496,73.14986419677734,73.2536849975586,1.3062886852690414,-12.449230301143082,77.95950426287531,13.157266,11.803394,7.125801,61.053253,-12.722231,-9.17532,-17.276299,-7.445068,-9.09298,45.105026,-18.780092,2.5265887,-1.9625145,2.7322147,9.835624,-4.2843533,27.370262,-2.4095235,38.49165,-20.727995,3.8431497,3.4986749,-24.042358,-15.429864,9.587695,40.468594,-6.3013287,6.861692,-8.584008
186,3.5278968811035156,73.58299255371094,73.34416198730469,1.2404442307687888,-12.553384832669092,78.1863399862052,12.149875,12.11563,6.5997887,63.064518,-11.116035,-9.336133,-16.591549,-7.3893433,-9.346618,45.032413,-19.20647,2.3524666,-2.0579658,2.895226,9.90389,-4.2864275,27.3377,-2.5340455,38.417816,-20.695757,3.7766638,3.414743,-24.071644,-15.578933,9.6237755,40.61062,-5.9924364,6.7913938,-8.4814625
187,3.7457869052886963,74.00979614257812,73.4355239868164,1.1908160847802267,-12.651100845808736,78.40974810554933,11.120378,12.435295,6.1438007,65.02675,-9.563463,-9.484249,-15.912711,-7.352495,-9.59324,44.930748,-19.609125,2.204774,-2.1382067,3.0558424,9.980544,-4.2930737,27.305248,-2.6873727,38.287327,-20.657269,3.7155,3.3365812,-24.068031,-15.762297,9.664621,40.76869,-5.6167912,6.6813707,-8.391551
188,3.969841718673706,74.42406463623047,73.52521514892578,1.1485644661949368,-12.733450597440264,78.6150630543562,10.106841,12.79838,5.815566,66.868164,-8.104903,-9.656492,-15.249253,-7.320083,-9.83073,44.795753,-19.987364,2.0917346,-2.1904683,3.2198434,10.05273,-4.311611,27.277586,-2.8748314,38.112823,-20.622334,3.6631737,3.282968,-24.024624,-15.968725,9.713645,40.927162,-5.1917596,6.5415707,-8.331106
189,4.178825378417969,74.83179473876953,73.61650848388672,1.1160172982265941,-12.796684490775856,78.80431993909092,9.105694,13.254454,5.661924,68.59869,-6.645721,-9.914341,-14.603852,-7.295055,-10.06707,44.625156,-20.34125,2.0232935,-2.2151272,3.38887,10.120101,-4.3410664,27.262936,-3.1190035,37.88889,-20.610174,3.6110137,3.2636557,-23.93712,-16.199406,9.771423,41.092056,-4.709356,6.3623343,-8.308993
190,4.377946853637695,75.23009490966797,73.71009826660156,1.0915915568179797,-12.846851594382777,78.98279481490981,8.099499,13.787727,5.640638,70.25446,-5.199997,-10.202284,-13.969686,-7.279189,-10.302681,44.417538,-20.668457,1.9905843,-2.2153494,3.5583627,10.188178,-4.379631,27.262129,-3.4122868,37.6117,-20.61266,3.56107,3.2666645,-23.808731,-16.454748,9.83214,41.266747,-4.1664486,6.141812,-8.313309
191,4.568933963775635,75.6291732788086,73.8053207397461,1.0772805120226177,-12.88744810463204,79.13715506311982,7.1093526,14.331165,5.680142,71.79628,-3.9717984,-10.393034,-13.34363,-7.2595387,-10.521188,44.174763,-20.967852,1.9741613,-2.1840234,3.7248123,10.253613,-4.43114,27.264534,-3.712032,37.295803,-20.596575,3.5322406,3.278136,-23.646084,-16.730211,9.895759,41.434612,-3.584055,5.9014626,-8.330332
192,4.759271144866943,76.01525115966797,73.90420532226562,1.0720564986203251,-12.922475866583904,79.25573521762449,6.1574917,14.8104925,5.713574,73.18132,-3.1671877,-10.372865,-12.724827,-7.2265096,-10.704838,43.90278,-21.240274,1.9554056,-2.1187654,3.8849213,10.312479,-4.495009,27.25405,-3.9701138,36.953842,-20.525482,3.5429068,3.285175,-23.463148,-17.019314,9.968875,41.586662,-2.9815779,5.662989,-8.348856
193,4.939488887786865,76.39734649658203,74.0042724609375,1.0828680927829895,-12.950429307145136,79.33199689316324,5.2428703,15.198125,5.7325416,74.41733,-2.9148614,-10.030649,-12.120923,-7.1828647,-10.84608,43.610035,-21.48629,1.9269487,-2.0185173,4.035503,10.360591,-4.563841,27.221226,-4.1693635,36.57395,-20.384415,3.5957124,3.2868052,-23.260859,-17.324076,10.069641,41.725258,-2.3455958,5.4193335,-8.375933
194,5.117020130157471,76.7789306640625,74.11067199707031,1.105499797919928,-12.970380189008937,79.37421262834698,4.3583684,15.533374,5.7737803,75.51906,-3.0810459,-9.465129,-11.530441,-7.1335726,-10.954825,43.292416,-21.70562,1.8991231,-1.8904672,4.1831474,10.39967,-4.635094,27.166365,-4.329315,36.153297,-20.188606,3.6805587,3.2899177,-23.042093,-17.646729,10.197662,41.862644,-1.6708882,5.1629815,-8.415828
195,5.2825846672058105,77.16938018798828,74.21932220458984,1.1338855810896165,-12.985851804186217,79.39105389691512,3.5141044,15.831135,5.8341985,76.45563,-3.481936,-8.8906975,-10.941733,-7.075239,-11.039845,42.943146,-21.902542,1.8805926,-1.7452207,4.3364005,10.433539,-4.7152696,27.089333,-4.4559712,35.719788,-19.94667,3.7967227,3.2939613,-22.819845,-17.97835,10.330103,42.00371,-0.9958187,4.915532,-8.454136
196,5.440748691558838,77.54945373535156,74.33173370361328,1.1600225160026596,-13.000860297248225,79.39139593838959,2.7215,16.111975,5.9145527,77.19504,-3.9319067,-8.516153,-10.342943,-7.0038137,-11.109678,42.554276,-22.080505,1.8802599,-1.5952173,4.502467,10.465712,-4.809078,26.990559,-4.5536366,35.301014,-19.666695,3.9433744,3.298376,-22.607872,-18.30239,10.443121,42.155365,-0.36212945,4.6990356,-8.478441
197,5.594075679779053,77.9281997680664,74.44786834716797,1.1829165511157078,-13.017942359108615,79.36758758055804,1.9992149,16.372175,6.0203395,77.71578,-4.4715357,-8.429879,-9.727902,-6.913077,-11.157043,42.11656,-22.237514,1.90652,-1.4352555,4.682254,10.495112,-4.918701,26.869781,-4.6134615,34.89097,-19.33863,4.1369333,3.304676,-22.40988,-18.611622,10.542747,42.32563,0.2390596,4.524736,-8.484966
198,5.740084648132324,78.30883026123047,74.56581115722656,1.2054696377141187,-13.034976759530513,79.31846495185084,1.335767,16.604633,6.1527123,78.03987,-5.16814,-8.510675,-9.10371,-6.8078666,-11.179868,41.63647,-22.372972,1.9524938,-1.2652042,4.868747,10.519032,-5.038445,26.728807,-4.6331396,34.479744,-18.96153,4.3723803,3.3122818,-22.226887,-18.9072,10.641946,42.519203,0.8226924,4.378846,-8.483606
199,5.88812780380249,78.68321228027344,74.68278503417969,1.2297711671449334,-13.047018356052606,79.26172250676217,0.69684505,16.828337,6.3062983,78.20153,-5.8772063,-8.649628,-8.479287,-6.700593,-11.194802,41.131466,-22.49271,2.004504,-1.1042788,5.057144,10.538049,-5.161631,26.573149,-4.627425,34.089508,-18.558475,4.6162624,3.317571,-22.059057,-19.180607,10.720848,42.729885,1.3471152,4.2464046,-8.482487
200,6.027491569519043,79.0549087524414,74.79708862304688,1.2546435388286385,-13.050009526590394,79.21599821979291,0.049296703,17.059399,6.4734945,78.233345,-6.454447,-8.739929,-7.8629127,-6.6036587,-11.218795,40.618073,-22.602615,2.049247,-0.97126424,5.2389336,10.552554,-5.2822328,26.411697,-4.6131577,33.74306,-18.153585,4.835331,3.3181138,-21.91339,-19.419722,10.762252,42.95933,1.7763908,4.111644,-8.490386
201,6.16605281829834,79.42100524902344,74.9156265258789,1.284091771892126,-13.041173803899328,79.18325569349508,-0.6165611,17.291508,6.649159,78.13303,-6.8434987,-8.77709,-7.255117,-6.5208077,-11.255261,40.091824,-22.702005,2.089141,-0.86969674,5.4045296,10.560736,-5.397247,26.24746,-4.57998,33.43606,-17.73131,5.0296345,3.306272,-21.795214,-19.61377,10.763489,43.22529,2.0940473,3.967805,-8.515677
202,6.2962212562561035,79.78291320800781,75.02665710449219,1.3154042743324037,-13.023715925181461,79.15505304283705,-1.281268,17.519007,6.8396525,77.88495,-7.126624,-8.810518,-6.651735,-6.4456754,-11.2955675,39.546844,-22.788515,2.1298635,-0.7928335,5.55509,10.562692,-5.5068455,26.08193,-4.521969,33.158356,-17.287592,5.2143917,3.285829,-21.705439,-19.760584,10.735173,43.529057,2.3194025,3.823366,-8.553803
203,6.42791223526001,80.15713500976562,75.14116668701172,1.3457384182924275,-13.001117981484311,79.13236143920757,-1.9361011,17.75452,7.051378,77.50528,-7.3694954,-8.817403,-6.0566006,-6.3753853,-11.337815,39.001137,-22.866718,2.162918,-0.7422942,5.6979012,10.561138,-5.611922,25.923998,-4.4645014,32.92492,-16.865953,5.3791413,3.2718523,-21.636736,-19.862585,10.674604,43.83938,2.464527,3.6858435,-8.592994
204,6.553850173950195,80.52238464355469,75.25088500976562,1.373585035066983,-12.977126944759014,79.11554173337639,-2.5705168,18.011324,7.2927856,77.007545,-7.6356993,-8.773224,-5.469885,-6.30644,-11.380556,38.465622,-22.936998,2.1794603,-0.7166763,5.838624,10.559308,-5.71643,25.786428,-4.437225,32.751644,-16.512455,5.514174,3.2799015,-21.578215,-19.92606,10.576183,44.122185,2.5430205,3.5629106,-8.620176
205,6.680624961853027,80.88162994384766,75.35749053955078,1.4014960642957222,-12.953746295471545,79.10969532759282,-3.1860473,18.291025,7.568751,76.39109,-7.913689,-8.6514,-4.8888006,-6.244674,-11.424638,37.943665,-23.000895,2.1791098,-0.71786016,5.9746947,10.560706,-5.826766,25.675972,-4.4543657,32.650494,-16.238714,5.611268,3.3185394,-21.521837,-19.947796,10.416549,44.36851,2.546987,3.4550335,-8.625289
206,6.795999526977539,81.24901580810547,75.4592514038086,1.430159339574534,-12.92883065107751,79.11281265255609,-3.7850506,18.582975,7.876099,75.64958,-8.18065,-8.474523,-4.3133473,-6.1901793,-11.47046,37.427807,-23.056864,2.1659083,-0.7433107,6.099445,10.564075,-5.9405613,25.595295,-4.502073,32.60856,-16.026875,5.678757,3.3777225,-21.470297,-19.925879,10.200959,44.590763,2.4723523,3.358718,-8.616014
207,6.9143900871276855,81.61183166503906,75.55571746826172,1.4527285223233135,-12.89945338451317,79.11586934480721,-4.358329,18.881115,8.209734,74.78768,-8.482766,-8.29402,-3.7537253,-6.132455,-11.514127,36.925575,-23.10794,2.137873,-0.7975954,6.2178926,10.575305,-6.018024,25.558008,-4.544295,32.57056,-15.88433,5.7343755,3.4363625,-21.436983,-19.888325,9.993249,44.77734,2.366704,3.2763147,-8.603668
208,7.032562255859375,81.97281646728516,75.64673614501953,1.4642056009445643,-12.86231538778223,79.10928504594003,-4.898096,19.180538,8.563451,73.810936,-8.865928,-8.160717,-3.2188141,-6.060669,-11.551973,36.44158,-23.155771,2.09294,-0.81630087,6.332873,10.56448,-6.158186,25.520794,-4.6526923,32.62408,-15.782589,5.7810297,3.5086985,-21.390028,-19.806812,9.746604,44.93641,2.1971204,3.2072701,-8.60503
209,7.137462615966797,82.33140563964844,75.72950744628906,1.4591738756211923,-12.817153457769404,79.08962338751351,-5.3936696,19.504164,8.959829,72.710655,-9.379949,-8.088169,-2.7129233,-5.9670367,-11.581031,35.978607,-23.195753,2.0158179,-0.85260314,6.4622707,10.559794,-6.259227,25.518211,-4.745789,32.66852,-15.757955,5.8342977,3.5705166,-21.3653,-19.731726,9.540159,45.04788,2.0046217,3.1546495,-8.616126
210,7.243468761444092,82.68283081054688,75.80387878417969,1.4424333086193937,-12.765225053928106,79.06214439929174,-5.850929,19.84396,9.395642,71.486435,-9.987125,-8.052732,-2.2302704,-5.859429,-11.603898,35.53305,-23.22849,1.9126371,-0.90407634,6.611774,10.562494,-6.334869,25.531445,-4.8336577,32.720165,-15.7985935,5.8842683,3.6278555,-21.352049,-19.673342,9.353553,45.107655,1.7860578,3.118582,-8.628335
211,7.351124286651611,83.0376968383789,75.86954498291016,1.421905131703762,-12.706368866200227,79.03114959657981,-6.286499,20.151093,9.825385,70.152695,-10.600514,-8.045655,-1.7685864,-5.75132,-11.623633,35.106667,-23.266373,1.8137362,-0.9255081,6.7356358,10.550788,-6.450703,25.573856,-4.9781485,32.827503,-15.882835,5.920898,3.6892807,-21.31498,-19.585419,9.142188,45.123913,1.5463233,3.0965986,-8.647537
212,7.444729804992676,83.38899230957031,75.9325180053711,1.4042820987281002,-12.639957270659565,79.0005580564716,-6.7190127,20.381878,10.2008,68.72744,-11.135833,-8.054791,-1.3259037,-5.654009,-11.644175,34.70117,-23.322271,1.7492212,-0.95497096,6.828614,10.536159,-6.5298133,25.643284,-5.1065726,32.909218,-15.984844,5.9429364,3.7306602,-21.28269,-19.498611,8.997868,45.106243,1.3701066,3.0908227,-8.679777
213,7.539574146270752,83.74282836914062,75.99063873291016,1.3908763182966937,-12.56765657677265,78.97060106155318,-7.1485467,20.533903,10.516114,67.200096,-11.599587,-8.059841,-0.89400005,-5.5671077,-11.669614,34.30496,-23.396215,1.7322341,-1.007876,6.925929,10.527653,-6.5510693,25.683313,-5.1845527,32.95327,-16.080862,5.944493,3.7398698,-21.26704,-19.470047,8.971511,45.041138,1.295221,3.1151078,-8.735326
214,7.6319732666015625,84.09457397460938,76.04139709472656,1.3794552996747356,-12.48914975484484,78.93929235935177,-7.566148,20.630247,10.793724,65.56532,-12.027653,-8.068575,-0.47697744,-5.4871,-11.696811,33.922318,-23.483202,1.7451673,-1.0342633,6.9770136,10.511426,-6.589711,25.788694,-5.3121405,33.018326,-16.235086,5.93116,3.735581,-21.218699,-19.429111,8.961045,44.90996,1.2612542,3.1614738,-8.804707
215,7.722672939300537,84.44534301757812,76.08650970458984,1.3641185800885915,-12.400829412318382,78.9072690902848,-7.9782915,20.675474,11.0239725,63.85122,-12.382039,-8.108409,-0.08418068,-5.4101768,-11.721718,33.56263,-23.579893,1.771303,-1.0731193,7.029194,10.4952965,-6.581288,25.886095,-5.403019,33.043823,-16.385265,5.9081926,3.7183728,-21.1772,-19.414034,9.001294,44.751747,1.2694417,3.211269,-8.865924
216,7.805953025817871,84.7953109741211,76.12291717529297,1.3440850290912811,-12.298647335161348,78.87418582520495,-8.391815,20.672558,11.197882,62.08488,-12.623967,-8.206529,0.27494162,-5.3345757,-11.739878,33.23611,-23.682938,1.7939705,-1.1123753,7.088277,10.46845,-6.5426593,25.963852,-5.4680195,33.03597,-16.510479,5.879186,3.704362,-21.132479,-19.416311,9.053171,44.58923,1.2939276,3.2430363,-8.895686
217,7.881372451782227,85.14418029785156,76.14830780029297,1.3162768618032765,-12.177601911162887,78.84235153639044,-8.815976,20.613071,11.295906,60.26117,-12.731065,-8.376921,0.58895934,-5.260814,-11.751769,32.95394,-23.792551,1.8076097,-1.1512464,7.1498017,10.426215,-6.4674473,26.034792,-5.510562,32.988285,-16.616186,5.841047,3.6932535,-21.084507,-19.433949,9.114967,44.424828,1.3352402,3.2437444,-8.881374
218,7.950777530670166,85.4947738647461,76.16860961914062,1.2833650417523508,-12.040979591359214,78.8104752177636,-9.243271,20.503363,11.32651,58.368526,-12.728931,-8.598162,0.86667323,-5.188604,-11.759387,32.706226,-23.909082,1.821288,-1.1904138,7.214544,10.371233,-6.3619885,26.093409,-5.5340266,32.91356,-16.707367,5.7917585,3.681304,-21.032598,-19.467203,9.197133,44.247963,1.3976334,3.2272966,-8.838771
219,8.023502349853516,85.83927154541016,76.18836975097656,1.246293925247895,-11.898203408508857,78.77495758366445,-9.654896,20.36749,11.323488,56.42314,-12.64871,-8.845599,1.125571,-5.1172156,-11.76039,32.478714,-24.033827,1.8405361,-1.2225174,7.2798586,10.305184,-6.254127,26.122486,-5.5447593,32.83764,-16.768263,5.7383456,3.6773818,-20.982454,-19.49764,9.282868,44.07821,1.4665782,3.2107804,-8.78724
220,8.076257705688477,86.1922836303711,76.20426177978516,1.2066530969645064,-11.75827623713461,78.73223724099522,-10.032641,20.228054,11.3210125,54.439827,-12.522833,-9.096051,1.3838315,-5.0453234,-11.752191,32.255184,-24.1671,1.8708519,-1.2565161,7.345584,10.257904,-6.106989,26.16075,-5.51598,32.69685,-16.82575,5.698793,3.6681948,-20.921402,-19.565321,9.38896,43.873993,1.5834886,3.214961,-8.731521
221,8.13156795501709,86.54688262939453,76.21019744873047,1.163505591047892,-11.622021861728179,78.6811270295372,-10.375389,20.08132,11.304347,52.40997,-12.355166,-9.357368,1.6465011,-4.9691105,-11.734733,32.027134,-24.308922,1.9142603,-1.2763225,7.4070253,10.213469,-5.962191,26.17591,-5.470153,32.54214,-16.853865,5.6693945,3.6705325,-20.848736,-19.634151,9.4905205,43.65492,1.7223356,3.2486567,-8.68104
222,8.185160636901855,86.89643859863281,76.2143783569336,1.1150766209474914,-11.48542911350092,78.62369762595993,-10.690217,19.921717,11.261559,50.327778,-12.131354,-9.6350975,1.9039828,-4.8897777,-11.709138,31.804039,-24.458982,1.9675376,-1.2924892,7.4719276,10.173119,-5.797589,26.170975,-5.3947845,32.35451,-16.858955,5.64658,3.677302,-20.770973,-19.721611,9.608019,43.417965,1.8960636,3.301151,-8.627229
223,8.225974082946777,87.25070190429688,76.21318054199219,1.068853983377869,-11.348889912434528,78.56036796503795,-10.976677,19.765627,11.231165,48.220062,-11.850049,-9.904553,2.1516528,-4.8164883,-11.675307,31.599104,-24.617874,2.0288033,-1.3000137,7.5353274,10.131357,-5.6403103,26.146269,-5.310367,32.16757,-16.839035,5.625838,3.6887126,-20.691711,-19.80789,9.712171,43.191875,2.061616,3.3557477,-8.573029
224,8.262487411499023,87.59857177734375,76.21134185791016,1.029130184194281,-11.213474058675152,78.49245371038889,-11.233022,19.625624,11.253785,46.110577,-11.508356,-10.143774,2.3841755,-4.7593055,-11.632814,31.42745,-24.787586,2.0963154,-1.2896076,7.578686,10.081577,-5.5205584,26.124088,-5.246133,32.0144,-16.802544,5.604067,3.7055058,-20.613663,-19.853989,9.765349,43.00771,2.175055,3.3942044,-8.521733
225,8.294090270996094,87.96026611328125,76.20780944824219,0.9959447905614454,-11.078953462452427,78.41553994329247,-11.457511,19.506893,11.34105,43.990852,-11.100441,-10.352059,2.6000824,-4.714877,-11.576099,31.28935,-24.96712,2.169163,-1.2843837,7.648326,10.045817,-5.377778,26.058607,-5.1347065,31.829725,-16.722004,5.5803328,3.7107034,-20.540352,-19.941105,9.80797,42.83292,2.2704108,3.4198043,-8.460815
226,8.330620765686035,88.31652069091797,76.19660186767578,0.9659577615270737,-10.945410822428045,78.33108220920248,-11.651431,19.398136,11.472436,41.850933,-10.628146,-10.542066,2.8021748,-4.6810036,-11.507422,31.17817,-25.156229,2.2486906,-1.2538668,7.7224445,10.004707,-5.270537,25.962996,-5.036021,31.671074,-16.60816,5.5525227,3.7222116,-20.448923,-20.026518,9.802525,42.66898,2.332104,3.4375565,-8.395609
227,8.343583106994629,88.67398834228516,76.17729187011719,0.9442594408980836,-10.811917868180476,78.24732842784195,-11.824382,19.28966,11.638147,39.718853,-10.102775,-10.714325,2.9919984,-4.664241,-11.439113,31.09628,-25.355907,2.336415,-1.2182384,7.788197,9.960971,-5.191714,25.857328,-4.947092,31.53736,-16.484236,5.529207,3.735082,-20.367548,-20.10381,9.778657,42.541252,2.369516,3.4451587,-8.335436
228,8.363075256347656,89.03250885009766,76.1583480834961,0.9299413361098819,-10.678825221997851,78.17341348048676,-11.985126,19.171139,11.829073,37.622143,-9.535231,-10.869191,3.1718822,-4.670816,-11.383894,31.044325,-25.566673,2.4338171,-1.1893448,7.842269,9.917781,-5.146231,25.751518,-4.8742385,31.434694,-16.37179,5.5176206,3.744596,-20.302713,-20.174833,9.751402,42.452976,2.3878744,3.441529,-8.286555
229,8.379011154174805,89.39231872558594,76.13465881347656,0.9277649788529223,-10.54253094937912,78.11159520315096,-12.137822,19.037718,12.055035,35.55122,-8.903724,-10.9963875,3.3351343,-4.7080245,-11.348076,31.029804,-25.791864,2.545442,-1.1687144,7.865489,9.872669,-5.1329865,25.674238,-4.8171973,31.359756,-16.294588,5.5238996,3.745042,-20.259188,-20.223114,9.717743,42.413826,2.3696249,3.4213712,-8.2446375
230,8.388072967529297,89.75341796875,76.11019897460938,0.9349747522342898,-10.404094658342066,78.05729421664927,-12.277109,18.891527,12.318573,33.49352,-8.20885,-11.100941,3.484316,-4.769567,-11.3246355,31.046637,-26.028355,2.6693625,-1.148848,7.893581,9.826023,-5.157072,25.5671,-4.7682066,31.318895,-16.215204,5.53967,3.7409303,-20.226376,-20.286377,9.676653,42.409348,2.3246346,3.3891935,-8.206406
231,8.397928237915039,90.11521911621094,76.0820541381836,0.9468281517162497,-10.27070802682159,78.00844923764197,-12.396994,18.730469,12.600737,31.471024,-7.4934216,-11.210865,3.6303308,-4.845676,-11.304654,31.087563,-26.273613,2.7973514,-1.1389927,7.889552,9.787944,-5.1899123,25.504475,-4.733388,31.280571,-16.152348,5.5655785,3.7356915,-20.212261,-20.320854,9.632702,42.437317,2.2838378,3.3495734,-8.184662
232,8.404391288757324,90.47864532470703,76.05067443847656,0.9558842007243743,-10.14945518787707,77.96288572934176,-12.489243,18.555557,12.880992,29.500278,-6.797126,-11.353108,3.7881896,-4.922201,-11.279456,31.13558,-26.519659,2.9208229,-1.1365454,7.8938575,9.765031,-5.2390676,25.424517,-4.71608,31.256279,-16.05993,5.591179,3.7397878,-20.210518,-20.366528,9.594242,42.480785,2.2843225,3.3130903,-8.1886835
233,8.407673835754395,90.8408203125,76.0145263671875,0.9635583886688788,-10.03997038634182,77.92118952081788,-12.548574,18.365309,13.175933,27.556902,-6.085378,-11.547064,3.954287,-4.9986043,-11.244319,31.195961,-26.767216,3.0342898,-1.1498822,7.8825665,9.7638855,-5.290903,25.366007,-4.7127457,31.225977,-15.934837,5.622409,3.7519243,-20.23151,-20.403116,9.568355,42.54787,2.3596513,3.2745757,-8.235024
234,8.408034324645996,91.2004165649414,75.97880554199219,0.9703876023417536,-9.939744404393556,77.88370566811274,-12.574987,18.157515,13.489856,25.627111,-5.3463335,-11.77569,4.1249022,-5.078384,-11.204709,31.271404,-27.018307,3.1429806,-1.1714696,7.8685484,9.778858,-5.359334,25.306158,-4.7251697,31.204718,-15.781442,5.658861,3.769966,-20.269442,-20.444822,9.548203,42.63827,2.4856608,3.232608,-8.312354
235,8.39859390258789,91.57331848144531,75.94202423095703,0.9720098483948721,-9.85249441969616,77.8476569650499,-12.575365,17.934011,13.782669,23.76258,-4.655701,-12.010042,4.3115587,-5.158315,-11.166678,31.349962,-27.271082,3.2545898,-1.202834,7.846429,9.805106,-5.427046,25.273571,-4.7525444,31.18486,-15.652021,5.696576,3.7909024,-20.319569,-20.470821,9.530819,42.74362,2.606425,3.195791,-8.394548
236,8.388205528259277,91.94660186767578,75.89628601074219,0.963505690862285,-9.78162497887089,77.81062506813458,-12.555489,17.6989,14.015074,22.013472,-4.089983,-12.220606,4.5242515,-5.2344055,-11.136998,31.421621,-27.525019,3.376621,-1.2360204,7.834837,9.834064,-5.4948034,25.252752,-4.8016415,31.177547,-15.578688,5.727699,3.8164697,-20.37761,-20.494223,9.516511,42.858006,2.6766675,3.1745906,-8.454404
237,8.373077392578125,92.32034301757812,75.84584045410156,0.9438945467878523,-9.730208753173047,77.77149641922146,-12.501591,17.450966,14.1859665,20.345028,-3.6704915,-12.412526,4.774104,-5.3044987,-11.12061,31.471748,-27.777332,3.5123024,-1.2547827,7.8465815,9.861091,-5.600969,25.242397,-4.9157076,31.218307,-15.593917,5.744903,3.8518,-20.426428,-20.524136,9.48763,42.972694,2.668203,3.1757574,-8.477753
238,8.352849960327148,92.70487213134766,75.79605865478516,0.9126679012342005,-9.696236060248111,77.73125886449287,-12.41511,17.193102,14.313135,18.745806,-3.3550627,-12.59738,5.053523,-5.367955,-11.112911,31.508812,-28.029062,3.6566744,-1.2813805,7.8699064,9.897186,-5.701732,25.251133,-5.052614,31.260754,-15.668181,5.7565017,3.8910403,-20.488317,-20.548233,9.462018,43.1003,2.6088786,3.1922877,-8.481549
239,8.332018852233887,93.09870147705078,75.73562622070312,0.8707557179513395,-9.674966401857157,77.68984940358564,-12.326885,16.936058,14.385451,17.307222,-3.1305354,-12.75464,5.34822,-5.4242496,-11.105801,31.551626,-28.28154,3.8053377,-1.2973508,7.895279,9.934802,-5.820146,25.272205,-5.208936,31.328266,-15.763649,5.7672606,3.9344099,-20.540472,-20.5712,9.429388,43.223015,2.54524,3.2157063,-8.480959
240,8.298951148986816,93.49246978759766,75.67086029052734,0.8195796763392045,-9.661438714742959,77.64835923865456,-12.277076,16.69033,14.389924,16.140568,-2.9907782,-12.862549,5.641095,-5.476831,-11.091364,31.623539,-28.53852,3.9546025,-1.2786963,7.908358,9.968764,-5.9773464,25.30741,-5.386224,31.43411,-15.847558,5.783431,3.98104,-20.544378,-20.601376,9.364679,43.305496,2.5188253,3.2381165,-8.486765
241,8.263484001159668,93.88539123535156,75.6034927368164,0.7660102454211112,-9.652902450943161,77.60909293379129,-12.275001,16.448217,14.314046,15.261723,-2.978141,-12.909244,5.9226217,-5.5357957,-11.067328,31.738626,-28.805607,4.1028156,-1.2912382,7.9072413,10.005119,-6.094259,25.321587,-5.486687,31.536535,-15.872782,5.8078446,4.026844,-20.580303,-20.611877,9.344617,43.40853,2.5445354,3.2604392,-8.521187
