unveil-humanoid-operators/unveil-humanoid-operators.github.io/feature-analysis-animation/data/feature_matrix_instances/weight_ankle_peak_vel_jogging_A058_jog_ff_start_225_002__A058.csv
Frame,root_translateX,root_translateY,root_translateZ,root_rotateX,root_rotateY,root_rotateZ,left_hip_pitch_joint_dof,left_hip_roll_joint_dof,left_hip_yaw_joint_dof,left_knee_joint_dof,left_ankle_pitch_joint_dof,left_ankle_roll_joint_dof,right_hip_pitch_joint_dof,right_hip_roll_joint_dof,right_hip_yaw_joint_dof,right_knee_joint_dof,right_ankle_pitch_joint_dof,right_ankle_roll_joint_dof,waist_yaw_joint_dof,waist_roll_joint_dof,waist_pitch_joint_dof,left_shoulder_pitch_joint_dof,left_shoulder_roll_joint_dof,left_shoulder_yaw_joint_dof,left_elbow_joint_dof,left_wrist_roll_joint_dof,left_wrist_pitch_joint_dof,left_wrist_yaw_joint_dof,right_shoulder_pitch_joint_dof,right_shoulder_roll_joint_dof,right_shoulder_yaw_joint_dof,right_elbow_joint_dof,right_wrist_roll_joint_dof,right_wrist_pitch_joint_dof,right_wrist_yaw_joint_dof
0,-0.01577029563486576,1.8655617237091064,78.51392364501953,1.3584934032628204,-2.2677601320018703,-82.93452033973166,3.4436097,-1.1719916,-5.340907,8.287007,-8.52067,-4.152758,5.8613157,-6.633749,-9.92705,8.829522,-12.207468,5.7723527,-0.8353197,-0.60354525,7.6550894,-4.3354096,11.897087,-46.015175,59.96506,13.598616,1.4546783,2.6771529,0.10004123,-10.484519,31.801447,59.466473,-24.84063,-6.224118,4.216085
1,-0.01882258430123329,1.866776466369629,78.51457977294922,1.3854178832893378,-2.2467443096093915,-82.87905928686693,3.4422345,-1.2059349,-5.3764267,8.226015,-8.499964,-4.18503,5.8793316,-6.6762033,-9.973147,8.786197,-12.242799,5.830362,-0.8690948,-0.6138915,7.7223277,-4.38138,11.892841,-45.98724,59.964825,13.499526,1.4211599,2.6754155,0.053792056,-10.490127,31.77828,59.42961,-24.84889,-6.232297,4.2381115
2,-0.021748926490545273,1.8687357902526855,78.5191650390625,1.4125967484084716,-2.2266770648771366,-82.82551802318493,3.4413044,-1.2412299,-5.409461,8.167667,-8.478789,-4.214568,5.89831,-6.72143,-10.01509,8.744229,-12.280355,5.889009,-0.9039123,-0.6213741,7.7961645,-4.428982,11.886404,-45.937916,59.95914,13.404883,1.3826375,2.6670594,0.00093626726,-10.498855,31.746052,59.39343,-24.86902,-6.2437873,4.2631793
3,-0.02093452215194702,1.8712033033370972,78.52769470214844,1.4382106602364249,-2.205251364219988,-82.76795589935043,3.4395127,-1.272673,-5.4479594,8.105139,-8.459589,-4.2487516,5.9164925,-6.7628613,-10.064663,8.700837,-12.3151245,5.944447,-0.9432531,-0.63188845,7.8673368,-4.4763694,11.883195,-45.906628,59.96017,13.318052,1.3521063,2.666089,-0.049809404,-10.503702,31.722713,59.357395,-24.87695,-6.251854,4.2870536
4,-0.022579198703169823,1.8768649101257324,78.54210662841797,1.4567260940163862,-2.1821029346529333,-82.7002270403506,3.433792,-1.295774,-5.50003,8.0407915,-8.449992,-4.2947373,5.935522,-6.7942514,-10.133646,8.650824,-12.341098,5.9929123,-0.99818355,-0.6445664,7.9529934,-4.5371256,11.881585,-45.88926,59.97814,13.276258,1.3369837,2.6750126,-0.10982857,-10.50607,31.696749,59.319317,-24.877497,-6.2580633,4.3170915
5,-0.030020298436284065,1.8845982551574707,78.55980682373047,1.4697382433973398,-2.1594281987345885,-82.61928996499799,3.4326367,-1.3092614,-5.5701714,7.9601974,-8.445968,-4.364453,5.9609523,-6.8144813,-10.230503,8.58782,-12.354559,6.042224,-1.0768721,-0.66284406,8.047337,-4.6061397,11.881872,-45.896626,60.019012,13.297017,1.345608,2.7058837,-0.17059992,-10.5059395,31.680912,59.27274,-24.857515,-6.2598777,4.3585362
6,-0.03941085934638977,1.890812635421753,78.57929992675781,1.4762939301177045,-2.138051874266759,-82.52857513823648,3.4334826,-1.3157837,-5.6538377,7.872141,-8.44776,-4.4505825,5.9937587,-6.826768,-10.347669,8.512635,-12.357669,6.0914903,-1.1457492,-0.68666756,8.169781,-4.715654,11.884197,-45.947273,60.085552,13.353846,1.3701692,2.7516334,-0.24369434,-10.500659,31.62795,59.221096,-24.833519,-6.2637563,4.4108944
7,-0.04715079441666603,1.8989927768707275,78.60184478759766,1.4795921944820192,-2.1096360305687636,-82.43322190350182,3.4235342,-1.317026,-5.7436094,7.78787,-8.457447,-4.5312285,6.014662,-6.832555,-10.470764,8.4435215,-12.3589325,6.124288,-1.2383842,-0.70873976,8.281879,-4.8058953,11.8864975,-45.98665,60.152542,13.428787,1.4015046,2.7945898,-0.3127129,-10.49603,31.603096,59.16939,-24.802904,-6.2611914,4.456784
8,-0.05886220186948776,1.9077976942062378,78.62498474121094,1.4777783122487635,-2.069892626664413,-82.33814443958961,3.3906488,-1.3123429,-5.832275,7.726416,-8.480762,-4.585735,6.0134583,-6.8294196,-10.587071,8.392444,-12.365103,6.1237774,-1.2870728,-0.7281444,8.39723,-4.9221396,11.892516,-46.073185,60.23033,13.463161,1.428612,2.8155687,-0.37456176,-10.4767,31.522299,59.1237,-24.803818,-6.2599926,4.4865093
9,-0.0719168558716774,1.917851209640503,78.6463394165039,1.468962062583898,-2.01524025382284,-82.23696081267052,3.324225,-1.3003186,-5.923795,7.6957717,-8.51688,-4.608978,5.9831543,-6.81726,-10.702181,8.367266,-12.384327,6.082117,-1.370106,-0.7306512,8.503771,-5.01544,11.89471,-46.11215,60.302937,13.475159,1.4468518,2.801767,-0.44046462,-10.4657345,31.476803,59.0855,-24.814943,-6.2488217,4.4879785
10,-0.08751299232244492,1.925776720046997,78.6649169921875,1.45285066780224,-1.9500802156680102,-82.12948421045998,3.2350614,-1.2804093,-6.0203133,7.6841965,-8.563089,-4.61252,5.936459,-6.794318,-10.821393,8.3521385,-12.407485,6.0096097,-1.4249299,-0.72934616,8.610759,-5.1294065,11.895685,-46.188747,60.396072,13.461687,1.4640063,2.7670984,-0.5043443,-10.431886,31.378874,59.06446,-24.858366,-6.235607,4.4715734
11,-0.10565949231386185,1.9345624446868896,78.68206024169922,1.433405589094212,-1.8755131212376845,-82.02973267727384,3.1324017,-1.257761,-6.111186,7.6855955,-8.623576,-4.59974,5.871657,-6.762014,-10.928699,8.346716,-12.424536,5.9180007,-1.4962198,-0.7238935,8.711415,-5.2255397,11.893725,-46.231243,60.477386,13.46112,1.4800258,2.7250612,-0.57461953,-10.403141,31.317171,59.042797,-24.898655,-6.222176,4.4523444
12,-0.12056757509708405,1.9410429000854492,78.696533203125,1.4184064056662469,-1.7931612197374707,-81.95159574662223,3.0285978,-1.2387401,-6.185713,7.688085,-8.699288,-4.5736995,5.7898793,-6.722713,-11.007504,8.345901,-12.423189,5.8180175,-1.5666965,-0.72158444,8.801112,-5.2901993,11.892762,-46.241257,60.52134,13.495977,1.4983419,2.691417,-0.6310833,-10.390972,31.295649,58.989746,-24.928236,-6.214484,4.449124
13,-0.142357736825943,1.946384072303772,78.71089935302734,1.402250533397174,-1.7057366478603813,-81.88771687377292,2.919923,-1.2258421,-6.261202,7.708949,-8.812636,-4.5086036,5.690747,-6.679729,-11.057231,8.368406,-12.421948,5.693663,-1.6058834,-0.7273474,8.889035,-5.3583255,11.888292,-46.243553,60.572014,13.548294,1.506941,2.661944,-0.69942033,-10.358083,31.256546,58.953632,-24.994324,-6.2245235,4.4648075
14,-0.16636693477630615,1.9444164037704468,78.72379302978516,1.3814947233483743,-1.6107048433887272,-81.83362014846723,2.7961705,-1.2118073,-6.3389277,7.7567716,-8.961282,-4.4096518,5.571702,-6.6337247,-11.083294,8.41537,-12.423645,5.540987,-1.6525513,-0.7325866,8.962031,-5.397117,11.881839,-46.21433,60.610466,13.615698,1.5106145,2.6344635,-0.7645675,-10.320143,31.2537,58.915855,-25.06918,-6.2391315,4.4875674
15,-0.19008395075798035,1.9403566122055054,78.73409271240234,1.3670670473468787,-1.5070206208174102,-81.80933360270662,2.6739967,-1.1867015,-6.382007,7.7898073,-9.099499,-4.327407,5.431046,-6.583938,-11.074612,8.467989,-12.399702,5.3870535,-1.6798564,-0.7442891,9.0345745,-5.4275837,11.878839,-46.17547,60.601814,13.729039,1.5288169,2.6138475,-0.8225237,-10.294911,31.263447,58.84532,-25.117937,-6.257212,4.5217066
16,-0.22115907073020935,1.9414993524551392,78.74168395996094,1.3698634097745512,-1.3930213334308816,-81.83577999421274,2.573253,-1.1492056,-6.350151,7.761294,-9.177942,-4.3143287,5.2636385,-6.535728,-11.019844,8.512311,-12.323184,5.259903,-1.6752715,-0.78353906,9.108085,-5.4592834,11.880847,-46.13093,60.522255,13.927199,1.5806718,2.6056037,-0.8948971,-10.2665415,31.278631,58.75829,-25.108173,-6.2762184,4.564313
17,-0.26482003927230835,1.9399052858352661,78.73517608642578,1.4423389026568647,-1.242425245670835,-81.93653807584879,2.5067692,-1.1516789,-6.205568,7.585619,-9.148678,-4.37189,4.5485606,-6.644184,-10.836535,9.588151,-12.74908,5.1673894,-1.598627,-0.8982928,9.154289,-5.488298,11.888644,-46.07706,60.369545,14.115007,1.6933947,2.5653567,-0.9629595,-10.241785,31.290585,58.64148,-25.036163,-6.2902646,4.627154
18,-0.31423696875572205,1.9335860013961792,78.70248413085938,1.551010132959613,-1.0660233748665706,-82.08947333100474,2.2244618,-1.1947507,-5.9786234,7.821941,-9.318207,-4.4771304,3.3472478,-6.872145,-10.542538,11.607686,-13.639691,5.0846033,-1.5067608,-1.0629227,9.179994,-5.485057,11.921603,-45.96853,60.13435,14.323871,1.8486725,2.4993875,-1.0769961,-10.187731,31.334536,58.55921,-24.921255,-6.3036385,4.700866
19,-0.37398388981819153,1.9394245147705078,78.65689086914062,1.6609582827936968,-0.9006076564173435,-82.2756116324707,1.8927107,-1.2245344,-5.700418,8.198839,-9.536079,-4.6398263,2.0770187,-7.107098,-10.19773,13.772389,-14.548172,5.0078473,-1.3828648,-1.241134,9.232988,-5.496637,11.97018,-45.90851,59.822453,14.7197075,2.003136,2.5054495,-1.1804826,-10.138697,31.361593,58.422287,-24.757286,-6.323978,4.772579
20,-0.4367029368877411,1.9393317699432373,78.59490966796875,1.783949877077623,-0.7681333337465309,-82.48845178131859,1.6008725,-1.240181,-5.382042,8.572455,-9.716383,-4.865139,0.81741625,-7.339994,-9.813059,15.966189,-15.379324,4.9488587,-1.2457802,-1.4417367,9.338718,-5.5458055,12.022047,-45.932922,59.43788,15.496433,2.1122007,2.6749399,-1.2769984,-10.102457,31.36901,58.211952,-24.536623,-6.3607864,4.824221
21,-0.5186792016029358,1.9440133571624756,78.52195739746094,1.9309043269196298,-0.6789604776490286,-82.75026697951199,1.3950506,-1.2378321,-4.9842467,8.872422,-9.804128,-5.207232,-0.43145406,-7.5593805,-9.36128,18.205797,-16.132029,4.894261,-1.0731697,-1.7061003,9.515421,-5.5805125,12.1710005,-46.043373,58.866096,16.768795,2.1865427,2.9863443,-1.3993163,-10.02402,31.33727,57.974075,-24.24702,-6.4181514,4.8620186
22,-0.614548921585083,1.94362473487854,78.44397735595703,2.1014548882594037,-0.6171572273398196,-83.05858056098523,1.2541937,-1.2259854,-4.5116677,9.107605,-9.814706,-5.64739,-1.7124178,-7.7716064,-8.847078,20.543335,-16.847124,4.851068,-0.86665493,-2.0112238,9.743956,-5.6176977,12.361295,-46.21153,58.167896,18.419271,2.2493072,3.4070134,-1.5268921,-9.94259,31.283466,57.68652,-23.889364,-6.490276,4.8954186
23,-0.7132322192192078,1.9437968730926514,78.36187744140625,2.2773100812224842,-0.5641888631571333,-83.36934643275404,1.1047256,-1.2178936,-4.0431523,9.384158,-9.842537,-6.0816193,-2.9950504,-7.980169,-8.336583,22.885368,-17.487452,4.86709,-0.66711575,-2.3328173,10.0022335,-5.6736135,12.593831,-46.46765,57.38459,20.259706,2.294369,3.9947393,-1.6548331,-9.859062,31.223276,57.3333,-23.512854,-6.575109,4.892443
24,-0.8228646516799927,1.9355995655059814,78.28450775146484,2.441775045266656,-0.5026001159709576,-83.63841224953991,0.8715389,-1.2232862,-3.657268,9.813263,-9.982217,-6.403146,-4.2519855,-8.194087,-7.8946056,25.148912,-18.019922,4.9884753,-0.51602274,-2.6477072,10.267103,-5.7651854,12.865648,-46.84131,56.55995,22.105831,2.3172014,4.8089237,-1.781091,-9.779395,31.174786,56.89982,-23.163212,-6.6710687,4.821392
25,-0.9390524625778198,1.9214868545532227,78.20844268798828,2.6039574352040193,-0.4383328271369263,-83.86131745290253,0.53833896,-1.2588416,-3.372952,10.439814,-10.26709,-6.5637903,-5.4780364,-8.415857,-7.515651,27.345568,-18.389162,5.2905655,-0.41916406,-2.9678326,10.544569,-5.9080415,13.176989,-47.394234,55.702236,24.119274,2.3210976,5.962364,-1.9014204,-9.706483,31.138506,56.371475,-22.813232,-6.7736387,4.688898
26,-1.055593490600586,1.9154930114746094,78.1309814453125,2.7689827327456666,-0.3767231912269657,-84.05952487801054,0.14556703,-1.3119786,-3.1493535,11.194665,-10.640412,-6.62502,-6.685598,-8.636262,-7.176575,29.508928,-18.631668,5.736074,-0.35336527,-3.2984326,10.842327,-6.0911007,13.52609,-48.097107,54.787643,26.32913,2.337738,7.392629,-2.0155723,-9.640856,31.103973,55.754807,-22.451395,-6.886025,4.507989
27,-1.1825751066207886,1.8961213827133179,78.06070709228516,2.9092427531128715,-0.2998401340285845,-84.22662446636312,-0.29546705,-1.3443047,-2.9778416,12.0144205,-11.056509,-6.6485667,-7.882685,-8.854141,-6.9117947,31.606787,-18.852152,6.1958838,-0.32152152,-3.6049147,11.138222,-6.2954035,13.903598,-48.842342,53.816093,28.349243,2.3819458,8.896071,-2.1230185,-9.58662,31.074575,55.06199,-22.14918,-7.01824,4.2562823
28,-1.3175370693206787,1.8794434070587158,77.9896011352539,2.998911355207087,-0.19004015910492617,-84.35651518836981,-0.7646076,-1.3184905,-2.8498125,12.817874,-11.464672,-6.695444,-9.070201,-9.07418,-6.754245,33.59007,-19.150082,6.5350566,-0.32911888,-3.8521676,11.40946,-6.5035186,14.296765,-49.51863,52.792225,29.79661,2.4343038,10.2698145,-2.219215,-9.548539,31.055809,54.300354,-21.977047,-7.1795,3.9117994
29,-1.457183599472046,1.854137897491455,77.92613220214844,3.0256008870068447,-0.02753984236679027,-84.43265396853012,-1.312829,-1.2252004,-2.782886,13.65301,-11.875242,-6.775452,-10.26797,-9.292375,-6.7240887,35.465565,-19.571127,6.719631,-0.40054587,-4.021903,11.635013,-6.7206893,14.69838,-50.119305,51.71948,30.502537,2.4503045,11.554053,-2.3066056,-9.532767,31.059597,53.466316,-22.009438,-7.3733006,3.421723
30,-1.6060163974761963,1.8143575191497803,77.86800384521484,3.004202244335755,0.17332593146664016,-84.46333661016092,-1.9304116,-1.0832722,-2.7770479,14.532712,-12.304024,-6.855979,-11.4662695,-9.513868,-6.798592,37.248055,-20.05236,6.8183846,-0.52863854,-4.133647,11.830156,-6.959135,15.1064205,-50.69554,50.60376,30.696907,2.4213462,12.828705,-2.3812308,-9.540895,31.082232,52.55045,-22.189825,-7.5916653,2.8133152
31,-1.7601277828216553,1.7718491554260254,77.81637573242188,2.95342002151053,0.37859629814921336,-84.48007803693454,-2.517836,-0.9013476,-2.7956336,15.349948,-12.715307,-6.935395,-12.625418,-9.761084,-6.9431705,38.905815,-20.530968,6.8465495,-0.6703913,-4.2129893,12.024876,-7.207316,15.5158615,-51.217773,49.457985,30.601643,2.3665016,13.951482,-2.4370553,-9.571213,31.106749,51.56342,-22.39123,-7.8273005,2.183808
32,-1.918184757232666,1.7193396091461182,77.76884460449219,2.8920968229190698,0.5542927814841578,-84.51454192209776,-2.9775333,-0.68930906,-2.8005567,16.004066,-13.075116,-7.0142097,-13.703401,-10.056128,-7.1226616,40.400906,-20.94149,6.819237,-0.7843693,-4.286061,12.248528,-7.452494,15.920294,-51.652733,48.298077,30.437643,2.3158352,14.779454,-2.467344,-9.618693,31.117538,50.51626,-22.486877,-8.075753,1.63117
33,-2.0851845741271973,1.6449775695800781,77.73383331298828,2.8210482631353857,0.6842588397325665,-84.5718807879992,-3.2615886,-0.44760954,-2.7846408,16.444035,-13.374356,-7.087227,-14.67435,-10.41354,-7.357662,41.719963,-21.279465,6.7188053,-0.8578045,-4.3572907,12.515444,-7.692808,16.31443,-51.978607,47.13195,30.139168,2.2680833,15.237044,-2.4683287,-9.682949,31.11273,49.405224,-22.506397,-8.341857,1.1534383
34,-2.2636678218841553,1.5596096515655518,77.70779418945312,2.7325313303512098,0.7888915722763319,-84.63665468265913,-3.4311252,-0.17392993,-2.7661679,16.736359,-13.629665,-7.1574707,-15.561977,-10.821592,-7.654882,42.87829,-21.57255,6.5429115,-0.91337705,-4.414502,12.806287,-7.9379797,16.696423,-52.217113,45.961002,29.629862,2.2071402,15.413284,-2.4429452,-9.764203,31.099476,48.227154,-22.497398,-8.626794,0.7081489
35,-2.446235418319702,1.465786099433899,77.69263458251953,2.6310830897071216,0.888883463827776,-84.7091528247457,-3.531466,0.1284249,-2.7448525,16.916676,-13.843047,-7.2395935,-16.405931,-11.258884,-7.959219,43.8908,-21.808084,6.3294277,-0.9620237,-4.4591947,13.09885,-8.191714,17.065372,-52.40001,44.79248,29.115067,2.1502514,15.413747,-2.4022913,-9.857203,31.077864,47.003494,-22.356607,-8.923742,0.33318332
36,-2.641437292098999,1.353739857673645,77.68692779541016,2.5214055292451047,1.0048805797645068,-84.78981568017744,-3.6072643,0.45632583,-2.7206805,17.01945,-14.013932,-7.3477592,-17.24698,-11.703204,-8.215982,44.773426,-21.973577,6.1170683,-1.0150195,-4.494651,13.369904,-8.459677,17.421234,-52.5614,43.635853,28.796667,2.1137981,15.344545,-2.3627906,-9.954493,31.048101,45.76359,-21.980871,-9.226996,0.06664471
37,-2.8490164279937744,1.2413572072982788,77.68693542480469,2.402962909719461,1.1437822237463078,-84.88775659156477,-3.6523225,0.81446886,-2.685326,17.017885,-14.130081,-7.4902883,-18.09758,-12.148254,-8.416323,45.512985,-22.059237,5.9041924,-1.0656456,-4.5230327,13.614611,-8.742436,17.762608,-52.69094,42.50435,28.787685,2.109056,15.178317,-2.3325534,-10.050787,31.016638,44.51251,-21.326248,-9.543574,-0.070382036
38,-3.0681674480438232,1.113455057144165,77.69640350341797,2.274213615764868,1.293893930577714,-85.00007824194364,-3.6479297,1.2023762,-2.6408377,16.905708,-14.195983,-7.658014,-18.936914,-12.604125,-8.58848,46.106853,-22.073809,5.674618,-1.111527,-4.544571,13.843197,-9.040024,18.0886,-52.778824,41.395668,28.958132,2.1248662,14.8775015,-2.306056,-10.1444645,30.981556,43.243847,-20.452755,-9.873298,-0.099241786
39,-3.2972018718719482,0.9735158681869507,77.70599365234375,2.1373956050270437,1.448189636861319,-85.10831465776691,-3.622435,1.6090381,-2.6033278,16.752207,-14.238664,-7.8389044,-19.754723,-13.070963,-8.734354,46.582207,-22.03027,5.4457407,-1.168903,-4.55769,14.055836,-9.349522,18.400436,-52.855896,40.287724,29.153395,2.1432638,14.533133,-2.2736504,-10.231819,30.927536,41.9635,-19.414112,-10.19892,-0.044720866
40,-3.540452241897583,0.8260468244552612,77.71812438964844,1.994600762520491,1.5997344138928515,-85.19393829585844,-3.60369,2.023469,-2.589242,16.624527,-14.284004,-8.021137,-20.54046,-13.54928,-8.855415,46.965836,-21.940945,5.235236,-1.2523824,-4.5607524,14.253219,-9.67038,18.700586,-52.956177,39.157127,29.2163,2.1484878,14.236903,-2.2234313,-10.306648,30.83654,40.675285,-18.26529,-10.503481,0.06689828
41,-3.7888944149017334,0.6677032709121704,77.72650146484375,1.840099685897975,1.752888551820538,-85.24791824376602,-3.6036289,2.4502237,-2.613244,16.529224,-14.327827,-8.20091,-21.293348,-14.030025,-8.952988,47.23707,-21.783638,5.0397673,-1.3685538,-4.551972,14.431673,-10.005342,18.991257,-53.092533,38.011482,29.155077,2.1352532,14.026289,-2.159324,-10.361577,30.701166,39.389683,-16.889076,-10.788359,0.27523348
42,-4.048480987548828,0.502826452255249,77.732666015625,1.674669334883445,1.9094023749410347,-85.2815435699329,-3.6079464,2.892452,-2.6634586,16.438084,-14.360916,-8.38462,-22.020105,-14.51494,-9.02636,47.392174,-21.560425,4.8536663,-1.5073798,-4.534905,14.591445,-10.35282,19.272861,-53.247173,36.85743,29.036211,2.1134653,13.848225,-2.0890932,-10.393737,30.529837,38.10839,-15.299752,-11.054505,0.5800534
43,-4.315330982208252,0.3285450041294098,77.732177734375,1.5114314725156186,2.058340088753557,-85.30702207838303,-3.6000004,3.3381262,-2.7165277,16.353394,-14.399377,-8.576509,-22.718199,-15.01988,-9.074378,47.478893,-21.316969,4.691038,-1.6594096,-4.5154243,14.738952,-10.708067,19.545391,-53.40973,35.67077,28.787115,2.092274,13.657577,-2.008033,-10.407287,30.328705,36.82336,-13.75193,-11.289547,0.8915161
44,-4.576451778411865,0.13178116083145142,77.72647094726562,1.3636137689053949,2.188669595279416,-85.3365468458495,-3.5684237,3.7739394,-2.7486987,16.28984,-14.460312,-8.780293,-23.385908,-15.562453,-9.094116,47.545795,-21.099306,4.5662794,-1.8141391,-4.4977307,14.8819685,-11.067056,19.80846,-53.57077,34.42667,28.334888,2.0815446,13.409382,-1.9056093,-10.410063,30.103374,35.5177,-12.5003195,-11.487916,1.117741
45,-4.852981090545654,-0.06708301603794098,77.71363067626953,1.2389231027309202,2.2942566930693213,-85.36454092216533,-3.505783,4.1896906,-2.7554402,16.247059,-14.546267,-8.991313,-24.008123,-16.147839,-9.07064,47.57654,-20.927998,4.5037217,-1.9795818,-4.483794,15.023859,-11.432437,20.06241,-53.751476,33.1133,27.621693,2.123385,13.0938635,-1.7693241,-10.407354,29.847204,34.178024,-11.654441,-11.646783,1.2306038
46,-5.128292083740234,-0.2941526770591736,77.69860076904297,1.1288629313152359,2.3820586558621426,-85.3873828132785,-3.4192626,4.5944405,-2.748074,16.217867,-14.647357,-9.209591,-24.591087,-16.766762,-9.0088,47.55363,-20.774252,4.4899025,-2.1562338,-4.4688177,15.161721,-11.805562,20.307257,-53.949768,31.742472,26.69978,2.2035835,12.735131,-1.6025243,-10.400404,29.558226,32.80607,-11.064541,-11.773806,1.2770963
47,-5.399771213531494,-0.5293722748756409,77.67318725585938,1.0230606574284902,2.4607538467281835,-85.41983931324849,-3.3218176,5.004828,-2.7267306,16.213026,-14.767895,-9.445791,-25.16624,-17.414076,-8.933975,47.528313,-20.612316,4.481961,-2.3241708,-4.448411,15.292848,-12.182417,20.542086,-54.121433,30.327291,25.65705,2.24793,12.338268,-1.4226904,-10.394055,29.251486,31.412376,-10.596699,-11.882905,1.2777865
48,-5.67927360534668,-0.7713368535041809,77.63607788085938,0.9109109718925373,2.5387316434781972,-85.47674379329356,-3.2185102,5.4379783,-2.6903903,16.227604,-14.904539,-9.711092,-25.763119,-18.084787,-8.874094,47.54852,-20.415512,4.43657,-2.4653914,-4.416803,15.414792,-12.563325,20.766483,-54.223034,28.882854,24.574863,2.1813035,11.905367,-1.2454642,-10.395063,28.94507,30.00493,-10.115587,-11.986838,1.2540828
49,-5.970436096191406,-1.0307623147964478,77.59420013427734,0.7928735269884976,2.6244882407382324,-85.56629054242703,-3.1277027,5.893665,-2.635692,16.285158,-15.072656,-10.006275,-26.403984,-18.77136,-8.808114,47.615063,-20.167469,4.3699045,-2.56428,-4.3733377,15.522808,-12.947214,20.98209,-54.24734,27.408579,23.373116,1.9396447,11.38962,-1.062476,-10.407355,28.629122,28.571108,-9.635636,-12.086911,1.1855354
50,-6.264010906219482,-1.2984857559204102,77.54452514648438,0.6731877736386898,2.711241975929483,-85.67906101751058,-3.0370924,6.3647523,-2.5631948,16.373785,-15.265704,-10.326308,-27.068394,-19.476707,-8.730676,47.704224,-19.884468,4.2951064,-2.6349707,-4.318661,15.620642,-13.33415,21.190248,-54.215202,25.894136,22.037071,1.5846444,10.798445,-0.8639087,-10.431723,28.300802,27.10281,-9.210514,-12.177601,1.0695328
51,-6.570528507232666,-1.5765081644058228,77.49100494384766,0.5478200896955767,2.78487317750944,-85.80356918636437,-2.9235392,6.8554378,-2.4800773,16.471737,-15.466203,-10.672135,-27.726866,-20.216024,-8.688279,47.8353,-19.592842,4.1639442,-2.7050865,-4.2526765,15.718199,-13.719814,21.38806,-54.119328,24.346375,20.756842,1.2181925,10.219623,-0.66935056,-10.473395,27.989967,25.62167,-8.76449,-12.261268,0.9552936
52,-6.888669967651367,-1.8373465538024902,77.42897033691406,0.41222803180539347,2.831389350643913,-85.9280470700416,-2.7625594,7.370556,-2.393339,16.553997,-15.654842,-11.044776,-28.349005,-21.007757,-8.728592,48.027985,-19.31965,3.9275525,-2.8036761,-4.174346,15.824924,-14.095599,21.570053,-53.948215,22.769142,19.729593,0.9366707,9.746271,-0.4976431,-10.540723,27.728607,24.147041,-8.220236,-12.33871,0.8925058
53,-7.211276054382324,-2.1307177543640137,77.3642807006836,0.2615972889787936,2.8414996318006103,-86.05668128300341,-2.542004,7.9167027,-2.3002512,16.622652,-15.835752,-11.452763,-28.918665,-21.872444,-8.898161,48.284973,-19.082323,3.5594847,-2.936946,-4.077849,15.950427,-14.449061,21.732393,-53.67143,21.169039,19.031174,0.7304898,9.385386,-0.35921782,-10.637884,27.532335,22.679949,-7.496059,-12.405743,0.9061051
54,-7.54781436920166,-2.4385693073272705,77.29973602294922,0.09967268258121377,2.8244209171548613,-86.19274442262983,-2.2754357,8.4892,-2.1971357,16.68618,-16.015186,-11.892699,-29.453867,-22.798103,-9.162344,48.5977,-18.867392,3.0876842,-3.0918846,-3.964443,16.087645,-14.787526,21.874208,-53.300186,19.545914,18.552387,0.5524873,9.0964575,-0.23965657,-10.766298,27.38481,21.206236,-6.651062,-12.461545,0.96588945
55,-7.896064281463623,-2.7474441528320312,77.23866271972656,-0.06439453751908883,2.793582234422816,-86.32419923989899,-1.9776987,9.075258,-2.0896301,16.731813,-16.178549,-12.347872,-29.975725,-23.752146,-9.447689,48.966633,-18.653702,2.5441372,-3.2663717,-3.8427608,16.222376,-15.143678,21.993526,-52.893127,17.899548,18.207867,0.4368758,8.906397,-0.11348009,-10.93002,27.267431,19.715416,-5.819955,-12.512831,1.0396613
56,-8.261880874633789,-3.0602481365203857,77.17286682128906,-0.22220192367280442,2.7627247015668677,-86.4386677889052,-1.6626564,9.662573,-1.9840165,16.74347,-16.309591,-12.8012085,-30.506165,-24.698671,-9.680413,49.390804,-18.417437,1.9613203,-3.4557712,-3.7204223,16.340624,-15.554834,22.086775,-52.512897,16.232973,17.909458,0.4190438,8.842613,0.04602735,-11.13531,27.158552,18.19528,-5.1368513,-12.5673485,1.0956777
57,-8.631694793701172,-3.3860280513763428,77.10843658447266,-0.3721388887023791,2.735555955214437,-86.54136926391797,-1.3359064,10.250029,-1.8702257,16.72785,-16.419773,-13.251261,-31.063826,-25.659155,-9.868972,49.88899,-18.192856,1.2973237,-3.653085,-3.5967484,16.440002,-16.020546,22.147863,-52.156296,14.543538,17.71868,0.54641056,8.961051,0.235257,-11.38788,27.0581,16.635736,-4.6567516,-12.624324,1.1316986
58,-9.025968551635742,-3.7109766006469727,77.04316711425781,-0.5185182001692948,2.7047293079465273,-86.63565706974921,-0.98835,10.842958,-1.7483876,16.688879,-16.511967,-13.706029,-31.63351,-26.642263,-10.0434475,50.45438,-17.981441,0.54913515,-3.8590734,-3.4669745,16.527992,-16.530447,22.172426,-51.80124,12.838384,17.65367,0.78597933,9.232767,0.45037308,-11.690006,26.971704,15.037111,-4.300504,-12.680547,1.1636035
59,-9.417169570922852,-4.046698093414307,76.97514343261719,-0.6604789914383303,2.667324397402016,-86.70702166076164,-0.61508757,11.438443,-1.6416391,16.61175,-16.560392,-14.162238,-32.189217,-27.603676,-10.158787,51.04798,-17.705008,-0.18988517,-4.079205,-3.3309996,16.60643,-17.106834,22.159967,-51.482674,11.131947,17.561209,1.0533247,9.558449,0.7227582,-12.039416,26.883978,13.3963375,-3.9997172,-12.741093,1.187047
60,-9.820333480834961,-4.403473377227783,76.91079711914062,-0.7975423535007164,2.6206725049462487,-86.74070440072107,-0.2099675,12.033598,-1.573119,16.48016,-16.5392,-14.616761,-32.704105,-28.495546,-10.171425,51.63009,-17.279911,-0.8255559,-4.3161483,-3.189936,16.677265,-17.771631,22.111963,-51.238693,9.437295,17.288906,1.2629054,9.840606,1.0837821,-12.43152,26.775484,11.712162,-3.688205,-12.811216,1.1981834
61,-10.244455337524414,-4.773698806762695,76.85316467285156,-0.9382564309954812,2.551737907029444,-86.72977230543074,0.247998,12.628075,-1.55439,16.286037,-16.460476,-15.000033,-33.15504,-29.32048,-10.08807,52.203606,-16.690712,-1.3516092,-4.5708456,-3.0344455,16.752108,-18.541088,22.028587,-51.086708,7.746047,16.748943,1.401334,10.08398,1.542439,-12.867392,26.63911,9.970577,-3.363553,-12.894598,1.1877861
62,-10.666279792785645,-5.158884048461914,76.79859161376953,-1.0083446939693719,2.4688061789768705,-86.66821044901442,0.7844571,13.084585,-1.6022851,15.956704,-16.28444,-15.000033,-33.606922,-30.177813,-9.853977,52.80657,-15.974797,-1.7868415,-4.8521037,-2.9349477,16.819033,-19.399847,21.908344,-51.006866,6.0547156,16.039276,1.5095156,10.332311,2.0861597,-13.348161,26.478987,8.172928,-3.0566893,-12.987861,1.1615075
63,-11.104187965393066,-5.561208724975586,76.74383544921875,-1.0520206866865034,2.3948084130903737,-86.57772719075675,1.3325597,13.516677,-1.6798968,15.569574,-16.020765,-15.000033,-34.0569,-30.97801,-9.506687,53.394688,-15.123898,-2.1273077,-5.142543,-2.853279,16.862736,-20.32343,21.751259,-50.97815,4.3816633,15.285027,1.5838993,10.546294,2.7106612,-13.863766,26.293789,6.3446364,-2.7493706,-13.08647,1.1370636
64,-11.571349143981934,-5.956177711486816,76.68656158447266,-1.0580637988594461,2.3545931249867027,-86.46899626901975,1.8419027,13.914632,-1.7875683,15.1589365,-15.647001,-15.000033,-34.537174,-31.695263,-9.02578,53.94592,-14.132098,-2.3471792,-5.4358983,-2.8030262,16.860323,-21.291677,21.559351,-50.980377,2.749077,14.607472,1.6227888,10.685393,3.405296,-14.397018,26.083565,4.522,-2.4263127,-13.1861725,1.1316103
65,-12.05302906036377,-6.354795455932617,76.63809967041016,-1.013451974576038,2.3523301137805226,-86.33706234458054,2.3114398,14.263341,-1.9254475,14.709025,-15.154001,-15.000033,-35.070236,-32.33552,-8.379594,54.469116,-12.932705,-2.4398468,-5.736883,-2.802325,16.80109,-22.328453,21.33478,-51.027096,1.1533604,14.007611,1.6222461,10.723227,4.1551213,-14.938286,25.853926,2.7176235,-2.063658,-13.288548,1.1499537
66,-12.556319236755371,-6.775249004364014,76.59764099121094,-0.9320233097823198,2.3755621119782857,-86.18058160835517,2.757907,14.579579,-2.0940654,14.221469,-14.560601,-15.000033,-35.62973,-32.89705,-7.5862694,54.96691,-11.547333,-2.4080534,-6.0462646,-2.836973,16.696234,-23.434809,21.078575,-51.119915,-0.41394854,13.4291315,1.5861945,10.685311,4.961607,-15.483821,25.603315,0.9254782,-1.6796682,-13.395693,1.1823388
67,-13.075052261352539,-7.213666915893555,76.57215118408203,-0.8340185366806357,2.424452391537182,-86.0140184513654,3.1705966,14.891707,-2.292201,13.727713,-13.874677,-15.000033,-36.174885,-33.334686,-6.6971407,55.41152,-10.104361,-2.2368953,-6.3560424,-2.8822093,16.554342,-24.542175,20.790915,-51.21589,-1.9419633,12.919166,1.525186,10.608629,5.829184,-16.022951,25.323345,-0.8356517,-1.3214836,-13.503937,1.2225982
68,-13.621801376342773,-7.656839370727539,76.55847930908203,-0.7399383226760459,2.4990270668139933,-85.85190509351287,3.5380685,15.227278,-2.5183697,13.259856,-13.102844,-15.000033,-36.660427,-33.614185,-5.770343,55.774975,-8.737163,-1.9159448,-6.6596084,-2.9152586,16.38312,-25.584423,20.472797,-51.2724,-3.4163651,12.523294,1.4490796,10.529865,6.7575994,-16.54065,25.007816,-2.539959,-1.0378551,-13.610238,1.2638476
69,-14.193574905395508,-8.120967864990234,76.5551986694336,-0.6458555024955361,2.607444749896563,-85.68259315962047,3.8481321,15.580605,-2.794661,12.810703,-12.232615,-15.000033,-37.08319,-33.734592,-4.7957983,56.05499,-7.4634385,-1.390086,-6.9687943,-2.9421194,16.176502,-26.561878,20.123806,-51.287827,-4.8426414,12.285233,1.3573506,10.449584,7.7432356,-17.026264,24.648384,-4.1833525,-0.8615659,-13.715924,1.3193201
70,-14.801663398742676,-8.58634090423584,76.56058502197266,-0.5451405337223971,2.746977571066774,-85.50451544313337,4.1090026,15.943884,-3.1130664,12.367826,-11.265536,-15.000033,-37.45075,-33.707188,-3.7577224,56.265823,-6.2318673,-0.6740994,-7.2822475,-2.9719834,15.930398,-27.510967,19.745638,-51.281246,-6.218372,12.163333,1.2454183,10.35065,8.778371,-17.474863,24.252895,-5.7639422,-0.7637863,-13.82283,1.3867328
71,-15.414304733276367,-9.051682472229004,76.56731414794922,-0.4499378330811893,2.9015979863290786,-85.34872673519415,4.3331704,16.33518,-3.4287102,11.97259,-10.2352705,-15.000033,-37.749947,-33.507282,-2.684953,56.41949,-5.0625873,0.14597002,-7.581298,-2.991908,15.658614,-28.38448,19.339687,-51.236736,-7.5344906,12.108057,1.117457,10.244513,9.843348,-17.880014,23.846664,-7.251041,-0.69973034,-13.929819,1.4357469
72,-16.06060791015625,-9.521418571472168,76.5840835571289,-0.37335739431197684,3.0550318242151575,-85.24573113082113,4.5335703,16.77255,-3.6981905,11.66485,-9.177014,-15.000033,-37.966805,-33.11778,-1.6145475,56.52597,-3.9746149,0.97655326,-7.8466,-2.9891486,15.3740015,-29.147022,18.911274,-51.13824,-8.776079,12.058363,0.9774447,10.14083,10.920508,-18.233984,23.455563,-8.614608,-0.6262758,-14.035476,1.4349749
73,-16.742691040039062,-10.008696556091309,76.613525390625,-0.3152363218547464,3.2037619327873808,-85.19647714969383,4.725478,17.25519,-3.924434,11.422582,-8.077805,-15.000033,-38.09587,-32.54799,-0.55602896,56.591133,-3.0166245,1.7835711,-8.084049,-2.9652882,15.078998,-29.78728,18.463175,-50.9756,-9.954138,12.031272,0.8231225,10.03536,12.011982,-18.52966,23.07913,-9.846738,-0.5524154,-14.137414,1.3716931
74,-17.42162322998047,-10.5235013961792,76.64717864990234,-0.2702779872917195,3.3551211001578323,-85.18715920274936,4.892659,17.773327,-4.1296535,11.246751,-6.9313436,-15.000033,-38.13924,-31.808052,0.503545,56.61065,-2.1714945,2.6174777,-8.296801,-2.92776,14.765471,-30.346634,18.002895,-50.760487,-11.064615,12.025606,0.6530604,9.922874,13.118764,-18.763828,22.706547,-10.952572,-0.4975434,-14.238399,1.2635832
75,-18.13689613342285,-11.042376518249512,76.68638610839844,-0.24249374011254443,3.509108079196557,-85.226078692086,5.0093985,18.330177,-4.298548,11.196197,-5.77309,-15.000033,-38.09833,-30.880257,1.5652751,56.580894,-1.3572941,3.5127318,-8.487984,-2.8807428,14.440303,-30.76997,17.52704,-50.50574,-12.111249,12.054143,0.47506806,9.818612,14.196817,-18.939503,22.369993,-11.918852,-0.43522596,-14.341431,1.1261948
76,-18.884586334228516,-11.563634872436523,76.7311782836914,-0.23979491872404352,3.6662689505423045,-85.32115293906665,5.051359,18.932627,-4.417073,11.326414,-4.636213,-15.000033,-37.97258,-29.744526,2.6316152,56.493694,-0.49136975,4.5084734,-8.6314125,-2.818293,14.099625,-31.104872,17.049618,-50.227245,-13.058336,12.022677,0.29579434,9.728685,15.228937,-19.062738,22.076534,-12.739174,-0.33590147,-14.450103,0.9743482
77,-19.65732765197754,-12.093361854553223,76.78095245361328,-0.27441088577329326,3.830057599924837,-85.48828658837444,5.0220933,19.597486,-4.4699473,11.636264,-3.5172048,-15.000033,-37.776466,-28.347004,3.747043,56.350258,0.46319667,5.617437,-8.726894,-2.7258804,13.748916,-31.311802,16.573362,-49.91678,-13.933124,11.94707,0.1107856,9.6644535,16.204525,-19.13833,21.841995,-13.401225,-0.14338684,-14.572524,0.8005922
78,-20.454910278320312,-12.63148307800293,76.83157348632812,-0.346904269345942,3.998574147339962,-85.71668289167494,4.9321957,20.324339,-4.478704,12.098856,-2.4000237,-15.000033,-37.498882,-26.708897,4.895643,56.149773,1.4468957,6.8238187,-8.78457,-2.60192,13.38856,-31.399775,16.101774,-49.569233,-14.744586,11.842123,-0.081086144,9.616828,17.139338,-19.168268,21.655924,-13.916954,0.11101226,-14.704604,0.60096467
79,-21.279916763305664,-13.183384895324707,76.88475036621094,-0.44749738755930113,4.165666764934516,-85.9733557126592,4.7694607,21.097137,-4.486132,12.721098,-1.2926275,-15.000033,-37.109127,-24.925142,5.9947977,55.88455,2.396066,8.1223345,-8.8272505,-2.46548,13.018809,-31.378536,15.639987,-49.202286,-15.479991,11.721622,-0.268912,9.571925,18.02704,-19.158531,21.51158,-14.308274,0.32380733,-14.831128,0.39744905
80,-22.125526428222656,-13.748526573181152,76.92679595947266,-0.5647907297854912,4.3264862729735825,-86.2245907514469,4.5301294,21.898424,-4.5311637,13.488248,-0.19276094,-15.000033,-36.58633,-23.091862,6.9629354,55.54689,3.2512093,9.499782,-8.879315,-2.3342807,12.639535,-31.255562,15.194199,-48.83183,-16.128334,11.599444,-0.44183215,9.516274,18.862547,-19.115723,21.403318,-14.59944,0.3938339,-14.936062,0.21092923
81,-23.00213050842285,-14.316166877746582,76.95458984375,-0.7192156684782837,4.494157444773831,-86.47381281622496,4.192231,22.753626,-4.634645,14.4032545,0.929814,-15.000033,-35.935486,-21.020727,7.9839606,55.071507,4.18328,11.087533,-8.946821,-2.1907923,12.241189,-31.006695,14.76769,-48.445625,-16.698528,11.480692,-0.599423,9.435901,19.641743,-19.045952,21.344679,-14.786722,0.27155307,-15.001109,0.04062586
82,-23.90227508544922,-14.891622543334961,76.96670532226562,-0.9138153697455087,4.667480732371721,-86.73008222622195,3.775207,23.666779,-4.784212,15.438413,2.0830379,-15.000033,-35.17239,-18.731955,9.051397,54.475426,5.142205,12.849469,-9.068987,-2.031482,11.84376,-30.49304,14.324123,-48.05996,-17.254364,11.515263,-0.74442667,9.355699,20.327589,-18.958265,21.371502,-14.850564,0.01739883,-15.037712,-0.12212211
83,-24.819499969482422,-15.477575302124023,76.96076965332031,-1.1134873237957181,4.823666642902779,-86.97100980841144,3.323317,24.58864,-4.964365,16.552658,3.2330313,-15.000033,-34.323044,-16.639557,9.77003,53.876698,5.7821565,14.481317,-9.126534,-1.8629519,11.421901,-30.14507,13.939863,-47.646214,-17.623993,11.276651,-0.8788595,9.260396,21.05519,-18.84344,21.353933,-14.863857,-0.292466,-15.075423,-0.27171078
84,-25.754100799560547,-16.063447952270508,76.92677307128906,-1.2798142734371005,4.943447314557394,-87.17969200670738,2.8656702,25.472342,-5.155739,17.727577,4.331299,-15.000033,-33.46072,-15.261097,9.4875765,53.408512,5.811173,15.000033,-9.218549,-1.7414403,11.026419,-29.695374,13.597835,-47.270683,-17.954613,11.074008,-0.99425364,9.207107,21.735409,-18.710218,21.341722,-14.820595,-0.6027098,-15.142997,-0.39361173
85,-26.711627960205078,-16.64971160888672,76.87338256835938,-1.407388156516423,5.035583012742785,-87.35742368182737,2.4160826,26.320383,-5.3491,18.91865,5.3837314,-15.000033,-32.55863,-14.702922,8.078162,53.095676,5.1544557,15.000033,-9.346646,-1.6617143,10.638163,-29.138811,13.289046,-46.935932,-18.236652,10.8783,-1.089925,9.216754,22.382673,-18.562294,21.336107,-14.717204,-0.9782435,-15.242572,-0.47397092
86,-27.68084716796875,-17.248422622680664,76.7957534790039,-1.531296330780038,5.106936254836495,-87.52571863707351,1.9673605,27.17715,-5.5430603,20.131294,6.4140205,-15.000033,-31.553095,-14.613891,5.941523,52.85767,4.0126696,15.000033,-9.478145,-1.5852319,10.252884,-28.512964,13.018306,-46.61947,-18.45152,10.644223,-1.1691102,9.265705,23.00605,-18.399057,21.336626,-14.550932,-1.4239379,-15.360891,-0.52364194
87,-28.6463565826416,-17.87090492248535,76.6968994140625,-1.5974821804419328,5.127332503920439,-87.67309893114287,1.5188619,27.95936,-5.7335033,21.423512,7.399913,-15.000033,-30.439552,-14.700649,3.6615477,52.701496,2.4871626,15.000033,-9.600933,-1.5676408,9.909748,-27.856005,12.789215,-46.33041,-18.59658,10.419745,-1.2336046,9.317266,23.588478,-18.22158,21.326488,-14.340456,-1.784721,-15.503772,-0.57065654
88,-29.63222885131836,-18.50176429748535,76.5610580444336,-1.6295605354244511,5.0706388877973945,-87.81617350144272,1.0707659,28.684324,-5.9109583,22.866714,8.306633,-15.000033,-29.243795,-14.617057,1.7521721,52.5879,0.70650774,15.000033,-9.670835,-1.5878077,9.655298,-27.215696,12.605666,-46.077877,-18.668411,10.243998,-1.2852107,9.334618,24.113838,-18.032347,21.284067,-14.108281,-1.9053956,-15.677299,-0.64171433
89,-30.62372589111328,-19.126026153564453,76.3931655883789,-1.5591003318992478,4.924183827641459,-87.93407565626437,0.6705669,29.294493,-6.0426493,24.417141,9.10478,-15.000033,-27.968674,-14.39982,0.34774813,52.5216,-1.4521924,15.000033,-9.699636,-1.7127495,9.481895,-26.587828,12.473584,-45.87859,-18.67611,10.095089,-1.3136193,9.309041,24.621353,-17.82449,21.200397,-13.859811,-1.6804256,-15.906562,-0.7202139
90,-31.642019271850586,-19.737672805786133,76.20171356201172,-1.5811192767216482,4.720727628921265,-88.10120245023396,0.2981886,30.054869,-6.1336126,26.079275,9.789245,-15.000033,-26.579527,-14.0762005,-1.1664732,52.416267,-3.9478927,14.325568,-9.631184,-1.7582285,9.382436,-25.95397,12.39631,-45.721436,-18.621338,9.955562,-1.3216952,9.261398,25.097103,-17.596094,21.086737,-13.575297,-1.2143368,-16.181866,-0.7957642
91,-32.64881134033203,-20.350261688232422,75.99628448486328,-1.560090106045874,4.462541719080577,-88.28697551614363,-0.17018399,30.80034,-6.0057163,27.982832,10.388797,-14.123266,-25.19559,-13.726184,-2.5697181,52.383213,-6.585111,13.185429,-9.5051985,-1.8494811,9.359828,-25.317596,12.371085,-45.57932,-18.49678,9.893606,-1.3307173,9.197281,25.45771,-17.359276,20.96318,-13.248921,-0.66587394,-16.45682,-0.9102154
92,-33.66045379638672,-20.947460174560547,75.77243041992188,-1.5013598723955144,4.158119290934231,-88.50545428960223,-0.82765466,31.513006,-5.7590556,30.237768,10.925747,-12.596911,-23.910097,-13.283189,-3.650505,52.47519,-9.124035,12.326884,-9.314742,-1.9778035,9.431578,-24.693888,12.391994,-45.421017,-18.287125,9.967633,-1.3625709,9.121769,25.62528,-17.13768,20.843182,-12.882436,-0.19284701,-16.685143,-1.1081893
93,-34.670372009277344,-21.519582748413086,75.51669311523438,-1.5047327128922852,3.7783741286124353,-88.77177639510828,-1.7692782,32.413376,-5.330059,33.048397,11.372277,-10.308969,-22.654331,-12.638251,-4.436859,52.622097,-11.564166,11.833735,-9.035388,-2.0433588,9.644537,-24.103338,12.457835,-45.24993,-17.990894,10.210045,-1.4277049,9.011354,25.632326,-16.940416,20.710155,-12.503589,0.19422564,-16.853254,-1.4219112
94,-35.672325134277344,-22.09331703186035,75.24101257324219,-1.5498592447753878,3.325329048977247,-89.08049205490703,-2.9197009,33.507442,-4.7550664,36.292786,11.668726,-7.384291,-21.408922,-11.845178,-4.9791045,52.82064,-14.005542,11.516025,-8.67403,-2.0619917,9.981737,-23.532059,12.5688925,-45.074215,-17.616266,10.58188,-1.5140901,8.871797,25.512075,-16.769289,20.5624,-12.116819,0.5725106,-16.987562,-1.8240854
95,-36.66777038574219,-22.62408447265625,74.93352508544922,-1.6589303288762982,2.8489234542776245,-89.44670054716636,-4.151114,34.60524,-4.4150434,39.68084,11.801966,-4.4634614,-20.263388,-10.927065,-5.386508,53.120544,-16.301758,11.205862,-8.2437935,-2.0050437,10.403185,-22.93293,12.713747,-44.868877,-17.16636,11.047462,-1.6088852,8.7538,25.190205,-16.649063,20.433533,-11.691155,0.9179491,-17.099392,-2.2715585
96,-37.62699508666992,-23.1299991607666,74.60066986083984,-1.8471115426238438,2.4017436418884137,-89.8799257153128,-5.356753,35.429325,-4.711408,42.96357,11.821855,-2.2689924,-19.305403,-9.908469,-5.761356,53.569504,-18.314192,10.743704,-7.7675962,-1.8451204,10.863226,-22.26298,12.874358,-44.60075,-16.641258,11.568234,-1.6987755,8.705499,24.60017,-16.618193,20.361494,-11.20859,1.211442,-17.199236,-2.725232
97,-38.54487228393555,-23.624187469482422,74.25053405761719,-2.146470823811719,2.00116822332826,-90.40215691734264,-6.552056,35.822197,-5.881105,46.21181,11.845322,-1.1656286,-18.60519,-8.75014,-6.1115584,54.236126,-19.995619,10.051485,-7.241133,-1.5329292,11.354963,-21.536123,13.036998,-44.25817,-15.998199,12.158704,-1.8235046,8.740292,23.710651,-16.708542,20.365023,-10.655225,1.4561042,-17.300978,-3.228796
98,-39.42802429199219,-24.080305099487305,73.89791870117188,-2.526822038896707,1.6181792999434066,-90.9947200973335,-7.801648,35.828392,-7.681503,49.620243,11.824377,-0.82691723,-18.094809,-7.480883,-6.3859844,55.08531,-21.438957,9.223187,-6.6761155,-1.0930763,11.891471,-20.763695,13.196979,-43.845413,-15.245347,12.833916,-1.9754916,8.831048,22.575233,-16.926046,20.43475,-10.073105,1.672267,-17.39477,-3.7939134
99,-40.279415130615234,-24.522560119628906,73.54995727539062,-2.9141132706711965,1.237706833701509,-91.60378562223435,-9.0669365,35.450123,-9.785659,53.148838,11.587143,-0.9639882,-17.660326,-6.217645,-6.6041,56.01362,-22.710758,8.357999,-6.1192183,-0.6113621,12.457946,-19.897219,13.348959,-43.35802,-14.463275,13.560043,-2.0694928,8.963803,21.250402,-17.26675,20.565638,-9.514602,1.8646157,-17.455095,-4.331727
100,-41.10118103027344,-24.964635848999023,73.21136474609375,-3.2413878442488104,0.8461263722539878,-92.17818657551435,-10.3038645,34.745316,-11.865203,56.71551,10.9792,-1.2384431,-17.19476,-5.0622926,-6.7914834,56.91152,-23.865137,7.555675,-5.611176,-0.16955282,13.044807,-18.892405,13.487442,-42.793324,-13.729166,14.299811,-2.0205336,9.122043,19.791805,-17.719372,20.752115,-9.029246,2.0378454,-17.45537,-4.7525764
101,-41.89495849609375,-25.396060943603516,72.8831787109375,-3.516043589739772,0.43439026752953636,-92.72911738791996,-11.418759,33.59654,-14.030469,60.331318,9.877921,-1.7771007,-16.715355,-4.000904,-6.9641294,57.800385,-24.856028,6.814857,-5.150807,0.22787695,13.677055,-17.738306,13.60049,-42.13468,-12.9877405,15.039228,-1.7566613,9.303816,18.139874,-18.28696,21.024334,-8.574282,2.2019546,-17.376202,-5.0280795
102,-42.65082931518555,-25.825172424316406,72.57144927978516,-3.766384700734893,0.009465216459870942,-93.2761172762453,-12.385513,31.98976,-16.305891,64.055305,8.358964,-2.7101119,-16.26605,-2.9897559,-7.120522,58.721832,-25.670479,6.0848584,-4.7213755,0.61987674,14.353561,-16.461355,13.681398,-41.388775,-12.214314,15.796902,-1.3389077,9.511162,16.28477,-18.96643,21.392235,-8.146128,2.3557792,-17.233335,-5.2096534
103,-43.38090133666992,-26.258485794067383,72.28257751464844,-3.9611923880757054,-0.4136418706708468,-93.78143309946435,-13.32256,30.216602,-18.303308,67.817795,6.6214647,-3.637807,-15.784343,-2.0704732,-7.263823,59.586193,-26.400595,5.394496,-4.3291664,0.98827493,15.028133,-15.071585,13.736148,-40.59952,-11.535305,16.59122,-0.88161504,9.73551,14.354979,-19.729116,21.805422,-7.839105,2.4784985,-17.056004,-5.3215656
104,-44.062225341796875,-26.72099494934082,72.01917266845703,-4.071343287968846,-0.8154087386750823,-94.20572675258856,-14.410791,28.595278,-19.712902,71.51568,4.9187455,-4.1403375,-15.211529,-1.2840059,-7.3964577,60.304768,-27.13856,4.7741995,-3.9740336,1.3084818,15.651328,-13.580935,13.779337,-39.82022,-11.077756,17.44134,-0.4990246,9.972709,12.474175,-20.534452,22.19928,-7.732297,2.542874,-16.873322,-5.382296
105,-44.753273010253906,-27.18988037109375,71.78195190429688,-4.073458478518043,-1.2040839407525692,-94.50584632265202,-15.751392,27.228376,-20.504803,75.149956,3.3269541,-4.076596,-14.516204,-0.66984993,-7.5332217,60.869255,-27.910053,4.2618256,-3.683361,1.5356814,16.232935,-11.958027,13.818325,-39.052048,-10.879308,18.511288,-0.19071853,10.258815,10.621764,-21.361076,22.571121,-7.812359,2.4855227,-16.672516,-5.3676066
106,-45.42693328857422,-27.66851234436035,71.56221008300781,-3.9955400186432577,-1.581723652389432,-94.71454081014157,-17.268465,26.005692,-20.88425,78.73468,1.7383478,-3.6349318,-13.738995,-0.18526892,-7.6812634,61.318886,-28.659739,3.8286889,-3.4383626,1.6874489,16.789604,-10.2098255,13.854142,-38.282555,-10.869366,19.735779,0.0975212,10.584843,8.735266,-22.204557,22.948586,-8.022183,2.3296278,-16.44546,-5.2702293
107,-46.07921600341797,-28.156021118164062,71.3647232055664,-3.8804182277139745,-1.9184017293600624,-94.90532573118243,-18.897646,24.926641,-20.927475,82.15941,0.1547368,-2.8911035,-12.930058,0.2484979,-7.825934,61.6363,-29.359695,3.4067504,-3.1691132,1.8308966,17.278854,-8.402594,13.895825,-37.54599,-11.017557,20.793678,0.33162662,10.883919,6.87717,-23.05007,23.304277,-8.367655,2.173692,-16.227598,-5.1325994
108,-46.717044830322266,-28.672386169433594,71.19956970214844,-3.7685388356685574,-2.1847639796450857,-95.15113705988115,-20.565882,23.965439,-20.692871,85.30669,-1.4148635,-1.938323,-12.139279,0.7016954,-7.9449177,61.807186,-29.983862,2.9298484,-2.8025494,2.0293536,17.657812,-6.600748,13.956517,-36.880283,-11.298722,21.36473,0.4726346,11.094361,5.1075687,-23.876392,23.60519,-8.846751,2.1153557,-16.0564,-4.9953136
109,-47.34370803833008,-29.18936538696289,71.05855560302734,-3.6658184523555577,-2.3725611641555435,-95.46235240528206,-22.319714,23.187275,-20.126799,88.196815,-3.007276,-0.65199673,-11.373316,1.1764498,-8.042928,61.833748,-30.559715,2.3760695,-2.3243935,2.2937818,17.901646,-4.782643,14.046037,-36.287933,-11.767286,21.255758,0.47396544,11.176715,3.4316082,-24.668142,23.82695,-9.466776,2.1468396,-15.950625,-4.847909
110,-47.95838928222656,-29.727357864379883,70.9559326171875,-3.554072431843981,-2.49888981316545,-95.80426269092062,-24.163465,22.597643,-19.231783,90.86676,-4.62406,0.9652691,-10.607391,1.6390535,-8.124911,61.725407,-31.090418,1.7827116,-1.7691153,2.5851629,18.035587,-2.9192348,14.1677885,-35.749508,-12.427173,20.671158,0.36615682,11.174997,1.8018683,-25.423,23.99578,-10.198068,2.2227604,-15.889056,-4.672384
111,-48.583927154541016,-30.276029586791992,70.88864135742188,-3.4297167395677257,-2.572875052076379,-96.1822654236296,-25.961395,22.056723,-18.125942,93.206436,-6.176412,2.615887,-9.84149,2.0995007,-8.166349,61.47896,-31.517492,1.1708876,-1.1393741,2.8883731,18.090147,-1.059882,14.323921,-35.268143,-13.180978,19.889906,0.22472887,11.153111,0.21098247,-26.139235,24.151892,-10.995234,2.381566,-15.846214,-4.500563
112,-49.19771194458008,-30.84414291381836,70.86253356933594,-3.2945425171446683,-2.602875843837146,-96.60026388408195,-27.600292,21.419178,-16.918354,95.11009,-7.557149,4.0059395,-9.076616,2.566608,-8.145087,61.093006,-31.783628,0.56466794,-0.43628946,3.1923375,18.09595,0.73669785,14.515239,-34.849575,-13.919015,19.19021,0.12190608,11.178602,-1.3488413,-26.816025,24.329866,-11.812887,2.6624477,-15.7963505,-4.364131
113,-49.808509826660156,-31.419593811035156,70.8742446899414,-3.168147624305183,-2.585559475324344,-97.09519358160271,-29.102331,20.743904,-15.561615,96.57045,-8.735488,5.155487,-8.32364,3.0703955,-8.041825,60.570107,-31.883244,-0.03883899,0.37833792,3.5271745,18.043291,2.4578671,14.744385,-34.513115,-14.640614,18.56909,0.07563034,11.286864,-2.8849077,-27.45437,24.52367,-12.664734,3.1514788,-15.7322,-4.2808414
114,-50.41878128051758,-32.01112365722656,70.93878173828125,-3.045380204915959,-2.518789643576351,-97.65300720245244,-30.51621,20.080599,-14.009803,97.6262,-9.753248,6.186451,-7.574744,3.59145,-7.8733525,59.911163,-31.847271,-0.64699566,1.2928706,3.885092,17.919733,4.1349015,15.011162,-34.24624,-15.393351,17.90291,0.04634641,11.437181,-4.3889146,-28.053806,24.71623,-13.569057,3.8004138,-15.667857,-4.232308
115,-51.026546478271484,-32.61883544921875,71.05020141601562,-2.888038565891987,-2.410392641318052,-98.20059679578307,-31.80141,19.261375,-12.373854,98.24522,-10.587076,6.960531,-6.805614,4.067038,-7.6763177,59.11296,-31.67362,-1.2424543,2.2317162,4.201733,17.75272,5.7722955,15.310099,-34.00882,-16.141024,17.290897,0.021912202,11.583103,-5.8504977,-28.61029,24.921043,-14.481315,4.4511733,-15.609718,-4.195827
116,-51.63529586791992,-33.244178771972656,71.20584106445312,-2.6609372346271742,-2.267893393684403,-98.66446655976421,-32.92886,18.116922,-10.767177,98.38552,-11.209856,7.3433723,-5.992769,4.4364963,-7.4897485,58.16989,-31.358025,-1.8090667,3.1168573,4.4133024,17.5714,7.373239,15.632738,-33.75804,-16.839622,16.834787,-0.0084710345,11.677021,-7.24187,-29.117573,25.151886,-15.371673,4.935733,-15.563632,-4.147222
117,-52.252559661865234,-33.89057922363281,71.41561889648438,-2.3542752338977135,-2.0958457262866634,-99.03659749922929,-33.910397,16.542828,-9.22197,98.01262,-11.591636,7.251178,-5.120308,4.682929,-7.3151226,57.068687,-30.919142,-2.3387878,3.9450023,4.506305,17.387787,8.929032,15.977171,-33.487995,-17.469854,16.577322,-0.055805773,11.700834,-8.600026,-29.575346,25.414835,-16.214897,5.226498,-15.5369005,-4.094948
118,-52.869606018066406,-34.55754852294922,71.66585540771484,-1.9919085538706185,-1.8898518019609787,-99.35273418636,-34.79529,14.656822,-7.6991134,97.138435,-11.746264,6.776257,-4.20355,4.844273,-7.1419625,55.816135,-30.353874,-2.8416681,4.750857,4.517236,17.188705,10.438705,16.343714,-33.215046,-18.047667,16.46191,-0.11054281,11.681119,-9.924207,-29.98383,25.698574,-17.031996,5.4042006,-15.524649,-4.046175
119,-53.49382019042969,-35.23893737792969,71.9527816772461,-1.5934323382168627,-1.644371059530944,-99.6045514420622,-35.605476,12.619465,-6.208824,95.795456,-11.716726,6.0467305,-3.2683,4.94355,-6.992953,54.43908,-29.626839,-3.331065,5.516111,4.4587846,16.967106,11.91182,16.725914,-32.931774,-18.58149,16.440985,-0.15203749,11.635931,-11.146451,-30.335577,25.986975,-17.831604,5.4709177,-15.51317,-3.9741056
120,-54.124046325683594,-35.94914245605469,72.2811050415039,-1.1772036747155794,-1.354194939776212,-99.78290281297191,-36.342834,10.583214,-4.752105,94.01939,-11.544508,5.187986,-2.3393354,5.000808,-6.889796,52.96158,-28.70224,-3.8209438,6.2210093,4.340317,16.712238,13.35531,17.112743,-32.62976,-19.075663,16.46818,-0.15984741,11.583477,-12.197346,-30.61794,26.26526,-18.621437,5.42565,-15.4893465,-3.851721
121,-54.75723648071289,-36.6876106262207,72.63951873779297,-0.7325764314201318,-1.0069146965884705,-99.87433779860422,-37.013954,8.4817705,-3.3643775,91.76481,-11.191206,4.0972424,-1.4199437,4.9998035,-6.8374896,51.37283,-27.599537,-4.328999,6.8505683,4.1507907,16.412521,14.773207,17.494488,-32.299313,-19.505333,16.543938,-0.12817557,11.533366,-13.0790615,-30.823494,26.531559,-19.382364,5.2144995,-15.455863,-3.6494668
122,-55.4030647277832,-37.45060729980469,73.03471374511719,-0.2609173749033887,-0.6110474503409511,-99.88713008011312,-37.607296,6.2709627,-2.0572479,89.01548,-10.660809,2.7561612,-0.49993104,4.939975,-6.8301387,49.6705,-26.331856,-4.844708,7.4158406,3.8909729,16.074781,16.155003,17.86943,-31.942833,-19.862202,16.692822,-0.06804558,11.473355,-13.843886,-30.952011,26.797316,-20.089079,4.8569517,-15.418549,-3.3867998
123,-56.063472747802734,-38.2346076965332,73.454345703125,0.21815034589325333,-0.19080981740375544,-99.84319567333408,-38.078663,4.122218,-0.7803392,85.85337,-10.047407,1.4114184,0.41104585,4.8603864,-6.872181,47.8999,-24.84886,-5.3411317,7.93253,3.5834484,15.712868,17.489332,18.240137,-31.568384,-20.176273,16.904955,0.015330989,11.387762,-14.461632,-31.002367,27.06609,-20.765354,4.4475174,-15.36834,-3.1096942
124,-56.74029541015625,-39.03936004638672,73.8960952758789,0.6804085402090256,0.23044194453411923,-99.76389260154556,-38.38072,2.1970916,0.52693105,82.36739,-9.437532,0.3042375,1.3018236,4.796394,-6.9661407,46.10718,-23.098595,-5.7915015,8.416858,3.249356,15.340828,18.766808,18.612492,-31.184778,-20.480299,17.170008,0.11681664,11.26164,-14.908308,-30.973322,27.339237,-21.432669,4.084624,-15.294723,-2.8640027
125,-57.4378776550293,-39.862518310546875,74.35496520996094,1.1314378964293639,0.6725775007025819,-99.62513118773605,-38.519463,0.5303522,1.910747,78.51455,-8.90462,-0.45986733,2.1644564,4.739525,-7.137441,44.259075,-21.04529,-6.2357526,8.860439,2.8741105,14.941911,19.980751,18.990608,-30.772688,-20.778028,17.52588,0.23946452,11.064467,-15.133078,-30.860249,27.60941,-22.12442,3.784673,-15.177317,-2.6781442
126,-58.13771057128906,-40.70337677001953,74.82347106933594,1.5798023981812515,1.1382743087242295,-99.42344860692985,-38.483536,-0.9898923,3.330811,74.25478,-8.3750105,-1.0353556,3.001015,4.673704,-7.3789244,42.35792,-18.729008,-6.6730924,9.253516,2.4533412,14.516031,21.14567,19.376392,-30.327627,-21.062847,17.964613,0.3833023,10.812979,-15.17142,-30.662832,27.882008,-22.813213,3.498399,-15.027004,-2.5208552
127,-58.86054229736328,-41.562522888183594,75.29918670654297,2.007730351031213,1.579888323779811,-99.21269019260355,-38.209526,-2.4237614,4.71989,69.68108,-7.7128534,-1.5662876,3.8179429,4.622166,-7.6356215,40.493885,-16.202961,-7.0145063,9.60906,2.0224195,14.100385,22.284487,19.774048,-29.878336,-21.356913,18.404469,0.5395458,10.56328,-15.093831,-30.390724,28.176548,-23.46463,3.2117407,-14.878462,-2.3488235
128,-59.58321762084961,-42.44671630859375,75.7764892578125,2.3950607496649305,1.9510101656144512,-99.04794297771022,-37.64542,-3.8151991,5.9982376,64.87894,-6.785431,-2.1819232,4.626959,4.613741,-7.843374,38.743385,-13.509946,-7.16968,9.94361,1.6205065,13.732695,23.417952,20.189707,-29.456553,-21.68264,18.763195,0.70069015,10.371585,-14.958306,-30.059727,28.505415,-24.056381,2.911338,-14.766893,-2.1202197
129,-60.31834411621094,-43.35063552856445,76.2365493774414,2.774036678423691,2.2492061703522164,-98.93899335551791,-36.72398,-5.1877685,7.1917577,59.67833,-5.574624,-2.8593733,5.4264264,4.625371,-7.976761,37.09727,-10.586028,-7.213826,10.277372,1.2238095,13.42779,24.541134,20.629126,-29.063808,-22.046564,19.0747,0.886917,10.246915,-14.717055,-29.678444,28.859985,-24.617048,2.6280107,-14.713207,-1.810431
130,-61.063446044921875,-44.26703643798828,76.67512512207031,3.1401095403090737,2.4949232276804376,-98.86008317793221,-35.47205,-6.5209765,8.306196,54.050186,-4.1267376,-3.5373092,6.2180433,4.6551123,-8.054712,35.511803,-7.425059,-7.1523533,10.599879,0.82797205,13.168002,25.649446,21.095776,-28.684912,-22.445982,19.363321,1.0956198,10.161561,-14.351811,-29.251274,29.231411,-25.15737,2.362002,-14.695011,-1.4480267
131,-61.8242073059082,-45.19765853881836,77.07855987548828,3.3958426370531702,2.6783107503457058,-98.8182832180786,-34.015347,-7.748393,9.214054,48.352703,-2.4359555,-4.2756443,7.0303626,4.8026004,-8.0583935,33.984005,-4.1429763,-6.7870274,10.887956,0.52575696,12.9370165,26.762638,21.591618,-28.328423,-22.885614,19.53192,1.2859675,10.117849,-13.931496,-28.78732,29.623995,-25.66598,2.0454519,-14.68304,-1.0722643
132,-62.58849334716797,-46.140281677246094,77.44219207763672,3.4486043626241836,2.791273716256309,-98.82067830593665,-32.49503,-8.791079,9.800673,42.97939,-0.5101902,-5.1323724,7.9007416,5.177752,-7.9494457,32.482716,-0.84512913,-5.9142933,11.119692,0.40497687,12.716863,27.90039,22.117048,-28.004416,-23.374584,19.484232,1.4173411,10.1185255,-13.535602,-28.29855,30.042088,-26.122774,1.615618,-14.648493,-0.72239256
133,-63.36375427246094,-47.07940673828125,77.76252746582031,3.2578888064187956,2.828423353373264,-98.88338139079593,-30.887411,-9.613268,10.028583,37.873684,1.799921,-6.123742,8.83547,5.895088,-7.6068616,30.945107,2.5668962,-4.572513,11.307164,0.5106626,12.506605,29.071827,22.675669,-27.71656,-23.91019,19.144968,1.4763728,10.212021,-13.158388,-27.791319,30.499565,-26.549417,1.0370101,-14.57085,-0.40035614
134,-64.1600341796875,-48.0266227722168,78.03196716308594,2.8765574000525387,2.796677370255247,-99.0029588003826,-29.14084,-10.226393,9.955193,32.894745,4.429721,-7.2157793,9.846727,6.9011793,-7.013937,29.331673,6.117277,-2.7952707,11.463666,0.7924767,12.313332,30.269833,23.269869,-27.457624,-24.498259,18.581802,1.4843932,10.381339,-12.757891,-27.26761,30.985954,-26.958323,0.3512825,-14.470866,-0.088681825
135,-64.97029113769531,-48.97504425048828,78.23848724365234,2.3668304352617158,2.7104076304642715,-99.15351345740036,-27.380844,-10.63524,9.640126,28.364346,7.025175,-8.397334,10.969973,8.054288,-6.277046,27.658863,9.579127,-0.3767539,11.568131,1.1803216,12.129053,31.482943,23.895594,-27.222784,-25.141624,17.912106,1.4536837,10.531339,-12.367479,-26.734413,31.467482,-27.315483,-0.38521022,-14.380247,0.20285511
136,-65.79744720458984,-49.929447174072266,78.38500213623047,1.8035959853300836,2.588333424623098,-99.30590698806598,-25.746578,-10.873047,9.168785,24.624409,9.231304,-9.658031,12.201528,9.2020645,-5.5232806,26.015678,12.702973,2.8697553,11.598245,1.5932906,11.944957,32.69268,24.544031,-27.010544,-25.83681,17.253742,1.3989341,10.566644,-12.017334,-26.201494,31.908346,-27.592173,-1.1155975,-14.3301935,0.46251017
137,-66.62073516845703,-50.872982025146484,78.46327209472656,1.1623916457236467,2.431575452623002,-99.46111601930879,-24.202888,-10.976062,8.435589,21.623062,11.2396965,-11.628615,13.676773,10.356165,-4.810941,24.200851,15.619979,7.623542,11.545154,2.053134,11.746474,33.915577,25.210112,-26.829296,-26.59386,16.579918,1.3262467,10.45528,-11.731383,-25.677603,32.320194,-27.782963,-1.8671354,-14.334066,0.6779482
138,-67.4314193725586,-51.809364318847656,78.46808624267578,0.4433642544199525,2.2449390353299967,-99.62873634835967,-22.73028,-10.961093,7.4598265,19.264502,13.093173,-14.127914,15.237508,11.579535,-4.048358,22.452438,18.263826,13.587244,11.424641,2.5658755,11.53569,35.143997,25.893244,-26.679377,-27.398634,15.84823,1.2293752,10.248567,-11.481766,-25.165045,32.713074,-27.914412,-2.654664,-14.3730345,0.85470504
139,-68.28355407714844,-52.730072021484375,78.40086364746094,-0.4685343420902211,2.1389233112909984,-99.83625883992868,-21.95194,-10.469002,6.839449,18.595394,13.903678,-15.000033,16.518248,12.617293,-5.057706,21.139704,20.45348,15.000033,11.294129,3.197728,11.211483,36.316147,26.59213,-26.545954,-28.209307,15.15485,1.105031,9.974817,-11.231981,-24.660543,33.047512,-27.992683,-3.3996391,-14.430008,1.0062171
140,-69.16273498535156,-53.63351058959961,78.29476928710938,-1.354632367819928,2.0687295311100105,-100.05277782802234,-21.845316,-9.752981,6.29972,19.629599,13.334747,-15.000033,17.111559,13.51382,-6.2361064,21.066404,21.698166,15.000033,11.151402,3.7733629,10.871949,37.356937,27.301092,-26.429052,-28.968777,14.594372,0.94805944,9.666743,-10.936679,-24.160265,33.28102,-28.022366,-4.0289383,-14.489142,1.1491437
141,-70.0111083984375,-54.5369873046875,78.14341735839844,-1.9606018177532183,1.9232680428925952,-100.09846630380478,-22.199,-9.1622715,6.105279,22.279692,11.445443,-12.582453,16.881811,14.263394,-6.644771,22.80649,21.31098,15.000033,10.812051,4.0890102,10.655362,38.277428,28.020454,-26.347313,-29.677069,14.247904,0.7380422,9.294464,-10.576168,-23.66565,33.401672,-28.011494,-4.5448904,-14.5460615,1.3056992
142,-70.79512023925781,-55.44672775268555,77.97798156738281,-2.352386520470867,1.6931050920588113,-100.00681416317545,-22.790554,-8.696778,6.5231643,26.073793,8.708833,-6.957627,16.098827,14.877458,-6.611754,25.885332,19.64439,15.000033,10.296374,4.216961,10.551971,39.12001,28.751621,-26.302544,-30.36887,14.0469885,0.48445424,8.854065,-10.17112,-23.182945,33.433353,-27.959711,-4.9785576,-14.606794,1.4650605
143,-71.6047134399414,-56.36823272705078,77.73760223388672,-2.6739088281514607,1.404768192936391,-99.96609232169065,-23.287569,-8.278815,6.97852,30.035595,5.574443,-1.0345765,15.047873,15.302483,-6.577629,29.614466,17.464361,15.000033,9.798282,4.2875276,10.53725,39.853302,29.483404,-26.280329,-31.038284,13.865997,0.22655581,8.417574,-9.742821,-22.719746,33.389404,-27.85148,-5.296873,-14.670174,1.5972313
144,-72.41813659667969,-57.28528594970703,77.43318939208984,-2.952960557399428,1.0921440382867031,-100.09630816740192,-23.32965,-7.865069,7.27352,33.13851,2.4219172,3.2124279,13.86922,15.250688,-7.0772815,33.634228,15.364954,15.000033,9.444636,4.328633,10.601198,40.417286,30.193686,-26.277079,-31.652475,13.579971,0.004242048,8.05634,-9.312384,-22.285448,33.282993,-27.667774,-5.4677844,-14.736412,1.6713171
145,-73.19426727294922,-58.16881561279297,77.10250854492188,-3.1436608996593263,0.7767914471840652,-100.42910927273873,-22.788391,-7.3677855,7.4107924,35.136616,-1.0422246,5.166845,12.560843,14.43466,-8.366213,38.07409,13.403799,15.000033,9.254435,4.2886167,10.733811,40.809635,30.864927,-26.293402,-32.220814,13.1812725,-0.17578356,7.7385826,-8.882201,-21.887115,33.114407,-27.421501,-5.4337835,-14.793267,1.6907469
146,-73.93321990966797,-59.02045440673828,76.74508666992188,-3.1881171812064184,0.451171428110481,-100.88838373789268,-21.882921,-6.823337,7.529517,36.571415,-4.9600296,5.8876386,11.113918,12.927217,-10.036212,43.02997,11.312003,15.000033,9.147093,4.1152453,10.940051,41.029438,31.49208,-26.342451,-32.728897,12.733823,-0.33405662,7.4383636,-8.444494,-21.527006,32.883636,-27.118559,-5.226206,-14.844594,1.6654075
147,-74.63336944580078,-59.86205291748047,76.35940551757812,-3.0875592789769755,0.10689918467544315,-101.41317695018607,-20.82858,-6.3284297,7.7074704,37.73146,-8.822901,5.9769545,9.606171,10.940409,-11.65183,48.197815,9.1327095,15.000033,9.083609,3.8305628,11.233732,41.010445,32.069523,-26.445494,-33.100014,12.222646,-0.47144502,7.2362847,-7.995833,-21.203403,32.602165,-26.741728,-4.9501467,-14.914627,1.5730677
148,-75.30604553222656,-60.6987190246582,75.95700073242188,-2.85640951641216,-0.26923595247967896,-101.94268800068389,-19.847542,-6.011063,7.966423,38.943054,-12.146938,6.070693,8.067428,8.780576,-12.794722,53.29089,6.872733,15.000033,9.023817,3.4683292,11.629941,40.686417,32.590477,-26.62249,-33.2598,11.631196,-0.5905364,7.212712,-7.537909,-20.912327,32.2835,-26.265266,-4.7116547,-15.027858,1.3920574
149,-75.94478607177734,-61.520240783691406,75.53580474853516,-2.457968502899102,-0.6949174825728117,-102.49301467774791,-18.975897,-5.953676,8.326578,40.292515,-14.851768,6.282138,6.440542,6.456255,-13.341838,58.42204,4.4433155,15.000033,8.972485,3.003403,12.150953,40.06347,33.041782,-26.875248,-33.201977,10.857545,-0.72143555,7.416884,-7.0929427,-20.65288,31.941679,-25.645826,-4.4667006,-15.242343,1.0920681
150,-76.5596694946289,-62.32648468017578,75.1108627319336,-1.8729736138342976,-1.1585864615853245,-103.0775357795498,-18.114397,-6.0788984,8.791595,41.64271,-17.18962,6.319295,4.723758,3.8653169,-13.424137,63.663494,1.8363401,15.000033,8.932076,2.4067435,12.789088,39.165356,33.415775,-27.192719,-32.957134,9.945293,-0.8595046,7.7933626,-6.6593447,-20.424147,31.572613,-24.902433,-4.184927,-15.529411,0.6932912
151,-77.15259552001953,-63.112640380859375,74.69181060791016,-1.1636511127346911,-1.6310813330668592,-103.63788996326805,-17.27165,-6.3135767,9.311791,42.963627,-19.178993,6.2405195,2.9708483,1.1707841,-13.131295,68.69942,-0.7626233,15.000033,8.869568,1.7250087,13.508653,37.966007,33.71745,-27.575163,-32.519974,9.099783,-0.95379543,8.269578,-6.20326,-20.22017,31.159096,-24.103273,-3.9906385,-15.781913,0.2491029
152,-77.73567199707031,-63.870323181152344,74.28852844238281,-0.4155890180057311,-2.083969995447159,-104.11840723900127,-16.455816,-6.5739036,9.833159,44.224617,-20.839891,6.0952926,1.2255247,-1.4596851,-12.619808,73.23732,-3.1544917,15.000033,8.759084,1.0230117,14.26869,36.443172,33.95954,-28.02524,-31.890705,8.523905,-0.947423,8.778199,-5.691306,-20.032814,30.678251,-23.313583,-4.0049825,-15.890348,-0.18703742
153,-78.30094146728516,-64.60552978515625,73.91948699951172,0.3974206133789419,-2.5149459464654114,-104.5217726436605,-15.681634,-6.888554,10.433888,45.42517,-22.07164,5.8882074,-0.5565253,-4.059809,-11.915432,77.28974,-5.3027782,15.000033,8.621175,0.2737627,15.095248,34.532703,34.146862,-28.552734,-31.012209,8.238621,-0.7866236,9.351028,-5.1275086,-19.854427,30.108122,-22.494013,-4.2130823,-15.818536,-0.6336776
154,-78.89402770996094,-65.3065185546875,73.58991241455078,1.0745774464409914,-2.8892652805202976,-104.96217270795434,-15.098419,-6.9732323,11.082515,46.850468,-23.045004,5.53584,-2.413672,-6.8162093,-11.553102,80.95443,-7.230601,13.535043,8.553005,-0.33806157,15.921069,32.290726,34.271587,-29.14153,-29.935492,8.141945,-0.5110837,10.015954,-4.5228124,-19.68404,29.458416,-21.625816,-4.5638366,-15.625156,-1.1045986
155,-79.51565551757812,-65.98841857910156,73.29612731933594,1.607334324597679,-3.227830370996154,-105.37303188484381,-14.581457,-6.9065814,11.635719,48.32765,-23.884007,5.082919,-4.3251452,-9.432617,-11.249651,84.20573,-8.9804,11.647195,8.472874,-0.8076329,16.712646,29.845104,34.332336,-29.75168,-28.79989,8.232887,-0.19846724,10.69636,-3.8449976,-19.522388,28.759869,-20.812067,-5.127375,-15.340198,-1.5415509
156,-80.13018798828125,-66.67670440673828,73.03345489501953,1.9864667440707928,-3.552423509384645,-105.68880496742885,-14.023764,-6.749225,11.945143,49.70906,-24.72207,4.571882,-6.2372227,-11.710344,-10.890874,87.01289,-10.565081,9.922588,8.299336,-1.1361799,17.43306,27.331758,34.33503,-30.35101,-27.751926,8.524581,0.073996946,11.313727,-3.0641758,-19.370615,28.041544,-20.157248,-5.973427,-14.993399,-1.8866482
157,-80.73236083984375,-67.36160278320312,72.79817199707031,2.1522763677847236,-3.8817562360397107,-105.89008963002648,-13.432273,-6.4505796,11.935426,51.049587,-25.58979,3.9653988,-8.142959,-13.539027,-10.50183,89.35083,-11.956116,8.354094,8.00991,-1.2620223,18.086025,24.710163,34.290882,-30.961178,-26.743298,9.152997,0.32168046,11.891182,-2.1823628,-19.226536,27.298414,-19.660986,-7.3540506,-14.531403,-2.1482928
158,-81.34516906738281,-68.03605651855469,72.58228302001953,2.1680910960996083,-4.213761201388884,-105.99164335909506,-12.821544,-6.0609317,11.711457,52.339558,-26.386955,3.2684064,-10.072374,-15.021137,-10.076369,91.27859,-13.155694,6.933836,7.6326523,-1.2494861,18.70681,21.946726,34.198605,-31.577892,-25.744286,10.064513,0.58166814,12.45536,-1.2080101,-19.087418,26.512905,-19.285892,-9.150937,-13.956384,-2.3367162
159,-81.9563980102539,-68.72097778320312,72.39287567138672,2.1112966040531074,-4.515680068047932,-106.0204679650158,-12.16782,-5.640256,11.374668,53.457203,-27.121117,2.553187,-12.012235,-16.329777,-9.688311,92.85442,-14.19184,5.6807165,7.1932774,-1.1897895,19.267498,19.154413,34.047455,-32.139034,-24.893759,10.98206,0.8020269,12.930542,-0.12765585,-18.953987,25.703995,-19.075487,-10.88269,-13.388879,-2.4079802
160,-82.58634948730469,-69.40635681152344,72.23438262939453,2.0620429934139666,-4.75447741504889,-106.00365698834088,-11.448396,-5.25147,11.025328,54.286503,-27.797222,1.8921157,-13.950297,-17.643078,-9.399672,94.13094,-15.096845,4.612812,6.7096195,-1.1715657,19.736416,16.442263,33.825733,-32.58343,-24.31624,11.6348915,0.92225915,13.24005,1.0643232,-18.828655,24.900572,-19.06734,-12.071436,-12.952271,-2.3367906
161,-83.20933532714844,-70.10296630859375,72.11248016357422,2.022668329648034,-4.91986686545897,-105.93977660303824,-10.653072,-4.9091296,10.6725855,54.797592,-28.455662,1.3002961,-15.907163,-19.018023,-9.238351,95.11839,-15.858832,3.7636082,6.1739206,-1.1991754,20.090376,13.780384,33.52756,-32.91356,-24.014868,11.961886,0.90874416,13.321452,2.3821714,-18.711756,24.11315,-19.3062,-12.559031,-12.689151,-2.086221
162,-83.8287353515625,-70.80776977539062,72.0317153930664,1.95536834523564,-5.030931203960737,-105.81557057181142,-9.793711,-4.582521,10.27034,55.051723,-29.081636,0.7408697,-17.873724,-20.37165,-9.190325,95.79343,-16.464169,3.1073875,5.5730476,-1.2247574,20.349634,11.1116905,33.15435,-33.16332,-23.905115,12.108997,0.7927188,13.227923,3.8186967,-18.599865,23.330862,-19.763105,-12.612786,-12.53171,-1.6931814
163,-84.44187927246094,-71.51628875732422,71.99526977539062,1.8781266543661481,-5.0982972326005385,-105.64221479445504,-8.882825,-4.2686906,9.83254,55.07485,-29.600079,0.20878357,-19.79332,-21.668367,-9.245169,96.15469,-16.946005,2.5798402,4.916367,-1.2574198,20.544222,8.476903,32.711483,-33.32426,-23.950365,12.101998,0.60879886,13.058155,5.3490915,-18.487614,22.553139,-20.360619,-12.395131,-12.436442,-1.2507885
164,-85.05029296875,-72.22805786132812,72.00315856933594,1.8042557915970034,-5.132532132329456,-105.43120330224309,-7.9337244,-3.9630198,9.3708,54.89083,-29.93403,-0.30270857,-21.608765,-22.873028,-9.390736,96.20293,-17.339523,2.1186666,4.2119603,-1.3101149,20.703253,5.924187,32.2087,-33.37957,-24.12169,11.963753,0.39261764,12.90923,6.9431863,-18.369291,21.783966,-21.012657,-12.06918,-12.361616,-0.8501367
165,-85.68206787109375,-72.95223999023438,72.06240844726562,1.7486814595217377,-5.128605160928337,-105.16233327054196,-6.9591966,-3.68135,8.875831,54.500957,-30.082405,-0.77252144,-23.316822,-24.034958,-9.663752,95.93438,-17.697222,1.6750308,3.4441803,-1.4038801,20.832088,3.4559293,31.648075,-33.307602,-24.49425,11.690306,0.1334539,12.775895,8.617017,-18.237421,21.023582,-21.745878,-11.528187,-12.326853,-0.49004054
166,-86.32589721679688,-73.69384002685547,72.1749267578125,1.6984127357095244,-5.0834660246391765,-104.83750140809323,-5.950147,-3.417133,8.340967,53.896294,-30.080694,-1.2041714,-24.932924,-25.161257,-10.070611,95.353134,-17.987104,1.2972798,2.614649,-1.5258195,20.910954,1.0338354,31.033365,-33.129375,-25.041956,11.263775,-0.18037523,12.61616,10.375885,-18.086527,20.275217,-22.581882,-10.734411,-12.3403845,-0.13027343
167,-86.98380279541016,-74.44197845458984,72.33514404296875,1.634208777950722,-5.009612340722263,-104.50206060876702,-4.8902044,-3.130413,7.780968,53.08857,-29.906204,-1.6439265,-26.428272,-26.150438,-10.555128,94.47095,-18.117262,1.0670438,1.7626275,-1.6380012,20.93329,-1.2991514,30.37904,-32.893612,-25.630352,10.719173,-0.5146576,12.473965,12.1817045,-17.912735,19.54337,-23.438856,-9.954599,-12.349869,0.19579464
168,-87.65912628173828,-75.21363067626953,72.54563903808594,1.5355429096065847,-4.920045156184623,-104.20104448938865,-3.7617457,-2.7832522,7.212026,52.084515,-29.53403,-2.1386456,-27.77494,-26.89999,-11.061161,93.29741,-17.994062,1.0631292,0.9302508,-1.7061356,20.895739,-3.5166922,29.708982,-32.647297,-26.116941,10.076372,-0.83555263,12.3935175,13.992817,-17.716377,18.828257,-24.230345,-9.457715,-12.307138,0.45573384
169,-88.3478775024414,-76.0103530883789,72.8123779296875,1.387132601211662,-4.818715121805017,-103.91485406562923,-2.565122,-2.3629637,6.5987663,50.88841,-28.988428,-2.7208729,-28.935938,-27.414433,-11.638855,91.80017,-17.61682,1.3308663,0.10741852,-1.7234057,20.813889,-5.6261735,29.037973,-32.3969,-26.517452,9.248595,-1.1528536,12.399005,15.832424,-17.49534,18.119898,-24.978462,-9.337637,-12.197563,0.62273437
170,-89.05831146240234,-76.83541107177734,73.12222290039062,1.2023560502123882,-4.698186138195829,-103.63066164300885,-1.3113898,-1.8894739,5.945154,49.497345,-28.270058,-3.3608067,-29.929409,-27.740597,-12.299965,89.98462,-17.02965,1.8211004,-0.717437,-1.7112523,20.687803,-7.6347737,28.371555,-32.122635,-26.90391,8.248542,-1.479287,12.463937,17.70928,-17.246689,17.422974,-25.710876,-9.442856,-12.051326,0.7222892
171,-89.78076171875,-77.6669692993164,73.47490692138672,1.0091404383662246,-4.553440309043442,-103.40434670162661,0.0011841509,-1.3789115,5.3264065,47.90536,-27.327791,-4.007771,-30.81805,-27.839878,-12.920771,87.9161,-16.205223,2.4705381,-1.5030537,-1.6782969,20.494154,-9.491732,27.723087,-31.832668,-27.244774,7.260991,-1.7857982,12.556594,19.567026,-16.972218,16.757479,-26.363209,-9.675601,-11.888591,0.7989128
172,-90.51703643798828,-78.5234603881836,73.87353515625,0.8313768991743544,-4.381001554495876,-103.29112534195207,1.3753452,-0.850813,4.8176546,46.107376,-26.109241,-4.6137786,-31.661852,-27.678993,-13.377913,85.65736,-15.123549,3.2086809,-2.2066474,-1.633324,20.210962,-11.151569,27.113441,-31.535006,-27.510122,6.4650216,-2.0415187,12.646935,21.351494,-16.677246,16.138695,-26.87669,-9.938746,-11.729023,0.8966584
173,-91.26715087890625,-79.40863037109375,74.30899810791016,0.6732056225337886,-4.183195464109078,-103.31909208236024,2.8510776,-0.30821174,4.434484,44.038475,-24.62069,-5.1985574,-32.47852,-27.20888,-13.607412,83.18765,-13.776601,4.062916,-2.8117425,-1.5814961,19.836447,-12.594235,26.564583,-31.22431,-27.710638,5.9265356,-2.2288723,12.748939,23.063513,-16.366793,15.5587225,-27.239431,-10.246877,-11.573821,1.0485282
174,-92.03289794921875,-80.30805206298828,74.7815933227539,0.5250851614749082,-3.961891720922276,-103.45532837667915,4.4117,0.24874568,4.1377134,41.72947,-22.886707,-5.7774878,-33.2284,-26.46564,-13.664564,80.47874,-12.191004,5.054418,-3.344561,-1.5226508,19.386992,-13.832644,26.089249,-30.896694,-27.887072,5.539414,-2.3666093,12.875413,24.724468,-16.043896,15.015087,-27.486708,-10.63872,-11.414363,1.2244699
175,-92.81202697753906,-81.24220275878906,75.28760528564453,0.38739114465127994,-3.714077532522433,-103.66433130542642,5.9766884,0.8004513,3.9196548,39.317753,-20.880281,-6.295011,-33.89678,-25.531559,-13.589659,77.58709,-10.383922,6.1184316,-3.8258488,-1.4572067,18.869816,-14.865665,25.69294,-30.564098,-28.05947,5.228828,-2.4772563,12.994841,26.313448,-15.712262,14.527687,-27.633297,-11.054118,-11.2548485,1.3727319
176,-93.60527038574219,-82.1912841796875,75.81665802001953,0.2618749135941441,-3.436990688478727,-103.91096164727426,7.461346,1.3294915,3.7722018,36.94807,-18.576468,-6.695825,-34.47417,-24.488575,-13.424152,74.57122,-8.367722,7.192602,-4.275857,-1.3845881,18.291834,-15.692666,25.375093,-30.238728,-28.241728,4.9222717,-2.5832257,13.074837,27.80925,-15.376167,14.114489,-27.693293,-11.432993,-11.09851,1.4414304
177,-94.40328216552734,-83.169921875,76.36009979248047,0.15629423821545954,-3.128483005309468,-104.2137331170201,8.887708,1.8241258,3.7152538,34.572353,-15.891845,-6.963401,-34.95253,-23.334482,-13.158077,71.39115,-6.0341873,8.314321,-4.68763,-1.3091081,17.639454,-16.289345,25.139584,-29.904066,-28.425547,4.635239,-2.6912076,13.08612,29.21381,-15.040885,13.775944,-27.656113,-11.791498,-10.934328,1.4045128
178,-95.21343994140625,-84.16110229492188,76.91158294677734,0.07112500556661065,-2.793190666723594,-104.58558964529227,10.272813,2.2865138,3.7489526,32.177525,-12.883041,-7.1270227,-35.332,-22.035233,-12.742368,68.02888,-3.4216232,9.511546,-5.0538635,-1.235363,16.918728,-16.653683,24.99139,-29.557375,-28.621729,4.3957667,-2.788087,13.053088,30.535137,-14.711838,13.5010195,-27.523104,-12.151504,-10.763164,1.2934595
179,-96.04493713378906,-85.16093444824219,77.46163940429688,0.003382603278326148,-2.4378256172234805,-104.98331289041525,11.527152,2.724958,3.8351045,29.953869,-9.727614,-7.2004304,-35.617138,-20.634138,-12.175834,64.57537,-0.7574426,10.697565,-5.3934093,-1.1614932,16.16519,-16.830215,24.925219,-29.23116,-28.862902,4.144776,-2.8668628,13.022705,31.766525,-14.392637,13.288221,-27.329376,-12.462264,-10.605452,1.1422161
180,-96.89866638183594,-86.17572784423828,78.01122283935547,-0.057478198739222316,-2.0684781773288345,-105.36129510958642,12.562897,3.1535883,3.9324086,28.08554,-6.5938945,-7.198032,-35.811996,-19.185553,-11.476541,61.120586,1.7380245,11.775075,-5.724957,-1.0824475,15.412036,-16.874641,24.927176,-28.961496,-29.165833,3.8222427,-2.9210184,13.041631,32.90286,-14.084329,13.133265,-27.107834,-12.673169,-10.482476,0.9847163
181,-97.75432586669922,-87.19314575195312,78.54322052001953,-0.13152803928867648,-1.6611828095424006,-105.71007553402288,13.3144045,3.6068623,4.053347,26.631868,-3.4300435,-7.0638733,-35.912746,-17.673084,-10.665306,57.60612,4.0946283,12.696234,-6.0624323,-0.96970284,14.639585,-16.774849,24.986036,-28.749033,-29.522522,3.4236314,-2.9434524,13.125848,33.949623,-13.783587,13.032662,-26.855606,-12.775987,-10.388216,0.8032134
182,-98.60955810546875,-88.2153549194336,79.04833221435547,-0.20608753186057024,-1.2230342104294925,-106.05170886896646,13.829377,4.0738335,4.2166357,25.518742,-0.18346706,-6.808652,-35.90694,-16.11425,-9.730115,54.00578,6.405215,13.503447,-6.390133,-0.83670306,13.838994,-16.520721,25.097012,-28.58074,-29.911825,2.9794552,-2.9400346,13.248454,34.912376,-13.491337,12.980508,-26.55893,-12.798084,-10.315897,0.58917546
183,-99.47610473632812,-89.25798797607422,79.53108215332031,-0.2421251611738358,-0.8039162951120811,-106.3837259304612,14.210276,4.502714,4.379127,24.680874,2.9995766,-6.551053,-35.788937,-14.60929,-8.669193,50.4598,8.5501995,14.223542,-6.6866717,-0.7341902,13.056791,-16.171597,25.252274,-28.473423,-30.334194,2.4838302,-2.9241586,13.390898,35.78687,-13.215651,12.970244,-26.23997,-12.740629,-10.285646,0.388808
184,-100.35362243652344,-90.28563690185547,79.9738540649414,-0.20288924159661179,-0.4527925385056231,-106.70354408667777,14.577435,4.836182,4.4878297,24.018072,5.9894075,-6.41525,-35.56073,-13.242565,-7.4887547,47.11986,10.411435,14.886109,-6.9304714,-0.7103249,12.338825,-15.783699,25.439747,-28.448776,-30.787907,1.9371666,-2.9091208,13.534608,36.56989,-12.968818,12.99413,-25.920273,-12.6037,-10.317472,0.24818668
185,-101.2398681640625,-91.32369232177734,80.3806381225586,-0.08732471867864308,-0.15888399240523451,-107.0014739917682,14.958605,5.0748887,4.546429,23.441666,8.85242,-6.485163,-35.225204,-12.038198,-6.307811,43.952095,11.912023,15.000033,-7.1251855,-0.7624554,11.670698,-15.361317,25.650978,-28.520466,-31.263645,1.2980742,-2.8899956,13.687233,37.281425,-12.76106,13.044644,-25.614594,-12.329337,-10.432923,0.1742245
186,-102.13993835449219,-92.37045288085938,80.74388122558594,0.06897848025490255,0.10088699938889059,-107.28649802220751,15.310362,5.2587547,4.564173,22.983364,11.645307,-6.6959553,-34.784016,-10.888427,-5.011131,40.88633,13.150621,15.000033,-7.273229,-0.844273,11.032905,-14.88172,25.88119,-28.67485,-31.755367,0.58538026,-2.8633685,13.8531275,37.923218,-12.594899,13.123087,-25.313507,-11.933996,-10.615212,0.14305532
187,-103.03643035888672,-93.42599487304688,81.06270599365234,0.2621044024901767,0.29515354722480297,-107.57039264841464,15.64283,5.375418,4.4833555,22.715332,14.241938,-6.9498787,-34.230743,-9.876088,-3.7433794,38.04157,14.26018,15.000033,-7.369223,-0.9640901,10.463432,-14.374061,26.123856,-28.894068,-32.257954,-0.11835766,-2.8439844,14.006643,38.464928,-12.470787,13.232583,-25.007446,-11.529085,-10.8261795,0.15494043
188,-103.9367904663086,-94.488037109375,81.33150482177734,0.47702224419932576,0.395609249733125,-107.87203468506337,15.970272,5.427958,4.2681856,22.698349,16.516188,-7.141405,-33.566467,-9.065689,-2.7095401,35.530525,15.376162,15.000033,-7.401663,-1.1194754,9.99823,-13.867952,26.370438,-29.162884,-32.767265,-0.7287264,-2.8453572,14.121556,38.875916,-12.387642,13.37703,-24.682991,-11.226715,-11.027802,0.20917907
189,-104.8450927734375,-95.53687286376953,81.54097747802734,0.7160520553436547,0.3874231789956148,-108.21813163896988,16.319103,5.4696484,4.061795,22.946297,18.42449,-7.176127,-32.777645,-8.438853,-1.9739617,33.328014,16.555882,15.000033,-7.335637,-1.3163373,9.646995,-13.387441,26.616714,-29.50159,-33.269096,-1.2340076,-2.8571439,14.187208,39.15426,-12.346624,13.567601,-24.333971,-11.061414,-11.224089,0.29537156
190,-105.77082824707031,-96.5863265991211,81.7021713256836,0.9814584585516412,0.29170414226973723,-108.58790539135555,16.693672,5.4857087,3.8454363,23.378353,20.06786,-7.122498,-31.888512,-7.933667,-1.4422166,31.394892,17.72394,15.000033,-7.1910872,-1.5480763,9.387906,-12.922159,26.860369,-29.91479,-33.75923,-1.6752012,-2.875509,14.216863,39.316235,-12.348354,13.79725,-23.966806,-10.971361,-11.430152,0.41677493
191,-106.67472076416016,-97.6270523071289,81.79902648925781,1.2402576255928905,0.13861943495148984,-108.9395036546023,17.059534,5.3967366,3.3487737,23.941872,21.517187,-7.1258116,-30.960703,-7.5241156,-1.1029595,29.812603,18.825352,15.000033,-7.0261574,-1.7772502,9.206893,-12.447932,27.094015,-30.368017,-34.241894,-2.042535,-2.9234283,14.220111,39.35636,-12.391289,14.039644,-23.589619,-10.924561,-11.624773,0.59359866
192,-107.57679748535156,-98.67134857177734,81.84532165527344,1.462179490107301,-0.04161298385576037,-109.23422795799083,17.379604,5.114938,2.2938535,24.598408,22.831036,-7.344472,-30.063261,-7.1903353,-0.9402324,28.67987,19.794046,15.000033,-6.894595,-1.9682649,9.08678,-11.951022,27.30834,-30.825628,-34.712708,-2.3322604,-3.0241601,14.205139,39.269398,-12.47318,14.268521,-23.212849,-10.889134,-11.786606,0.84597343
193,-108.47283935546875,-99.71761322021484,81.83512115478516,1.6370865575603935,-0.2566168824314744,-109.48297369381385,17.643417,4.605579,0.5207379,25.405441,24.02365,-7.829763,-29.195293,-6.9799957,-1.1210799,28.00754,20.834356,15.000033,-6.786931,-2.116123,9.036184,-11.428523,27.497375,-31.281357,-35.19534,-2.5241654,-3.1789834,14.152841,39.03713,-12.595207,14.477329,-22.83202,-10.869427,-11.909293,1.2405405
194,-109.36819458007812,-100.74305725097656,81.75973510742188,1.7904335680087573,-0.5179946027118171,-109.70753672414308,17.882517,3.9084945,-1.7968959,26.40191,25.03532,-8.515009,-28.343924,-6.883282,-1.5921873,27.775545,21.896973,15.000033,-6.6740394,-2.2449617,9.05671,-10.893993,27.658964,-31.75779,-35.67484,-2.6233926,-3.3770664,14.06378,38.667404,-12.75783,14.681584,-22.44062,-10.877255,-12.00455,1.7450739
195,-110.24392700195312,-101.75209045410156,81.6119384765625,1.9457496553313625,-0.8045398279117901,-109.88471982438266,18.117645,3.0443184,-4.4407463,27.546677,25.797277,-9.391042,-27.549385,-6.799445,-1.9985777,28.02573,22.532501,15.000033,-6.5779004,-2.365868,9.121972,-10.364986,27.789278,-32.264328,-36.07804,-2.6678576,-3.623763,13.976515,38.19381,-12.955776,14.886345,-22.046558,-10.893493,-12.078409,2.2323713
196,-111.11038970947266,-102.77218627929688,81.4082260131836,2.1253752632478973,-1.096506526410739,-109.99051195113327,18.360981,2.0310464,-7.187546,28.797077,26.23899,-10.444302,-26.844978,-6.6218243,-1.9875768,28.783754,22.298826,15.000033,-6.518048,-2.4909453,9.20704,-9.855122,27.882832,-32.815037,-36.337223,-2.6899803,-3.9244335,13.9290905,37.65097,-13.181971,15.092837,-21.655985,-10.900923,-12.136796,2.576817
197,-111.94692993164062,-103.80143737792969,81.13919830322266,2.361127533022909,-1.3873598535823728,-110.00046951789484,18.622078,0.7154381,-10.230874,30.179777,26.258812,-11.779245,-26.317408,-6.2728033,-1.259673,30.224968,21.122992,15.000033,-6.5192537,-2.6477616,9.301979,-9.361915,27.933477,-33.425568,-36.45623,-2.7059984,-4.338797,13.959287,37.036053,-13.429439,15.310647,-21.270483,-10.929748,-12.162351,2.7308676
198,-112.78864288330078,-104.8099365234375,80.83170318603516,2.4605911867452015,-1.6835439758513109,-110.0246448365529,18.858799,-0.68887866,-13.522464,31.947628,25.726118,-13.439752,-25.802145,-5.6705446,-0.44180703,32.00053,19.4307,14.604834,-6.467729,-2.6542752,9.437084,-8.892206,27.938448,-34.093903,-36.45007,-2.694805,-4.8444076,14.0363865,36.333656,-13.694128,15.535814,-20.878405,-10.979905,-12.158759,2.7670875
199,-113.66358947753906,-105.77906036376953,80.48619842529297,2.35661799999031,-2.0001325353020882,-110.1157395699684,19.023092,-1.834435,-16.4556,34.153893,24.725674,-15.000033,-25.13149,-5.185096,-0.942124,33.7517,17.248104,11.480166,-6.307722,-2.4698234,9.628519,-8.46411,27.897543,-34.806667,-36.27159,-2.6280715,-5.3230352,14.097516,35.561012,-13.973604,15.750885,-20.479872,-10.988434,-12.162885,2.7397864
200,-114.5136947631836,-106.7851333618164,80.06430053710938,2.317526276439033,-2.365504143695744,-110.2051316383745,19.006897,-2.5773852,-18.051888,36.613724,23.60843,-15.000033,-24.28582,-4.8361917,-1.5607419,35.491085,14.3058815,8.863014,-6.0915885,-2.335931,9.863937,-8.098315,27.812141,-35.547283,-35.872513,-2.484255,-5.6564775,14.080008,34.736496,-14.267271,15.937699,-20.071627,-10.892178,-12.2115135,2.7032433
201,-115.36072540283203,-107.80228424072266,79.57479858398438,2.437062321369682,-2.8124790595794824,-110.29306994064319,18.91691,-3.208057,-18.885546,39.23137,22.4626,-15.000033,-23.192564,-4.779913,-2.3296344,37.317726,10.114696,6.9222264,-5.808388,-2.3566995,10.152176,-7.8050137,27.684904,-36.350994,-35.251137,-2.239881,-5.815056,14.011392,33.90205,-14.572086,16.080904,-19.670689,-10.6856365,-12.322671,2.6569903
202,-116.21138000488281,-108.79132843017578,79.04850006103516,2.5655239190893964,-3.3057500751602467,-110.36278928007884,18.68828,-3.7039256,-19.240334,42.147305,21.121304,-15.000033,-21.88341,-4.8084507,-3.2399416,39.200787,4.901037,5.3242307,-5.480076,-2.3792553,10.482287,-7.570524,27.514791,-37.21636,-34.428146,-1.9133084,-5.8618054,13.911407,33.03234,-14.885651,16.192114,-19.26913,-10.399393,-12.47474,2.5788674
203,-117.06150817871094,-109.74735260009766,78.49251556396484,2.6287706235850576,-3.791737948985794,-110.4276551507264,18.209059,-3.9752493,-19.223732,45.366756,19.621914,-15.000033,-20.50155,-4.751158,-4.1548147,40.981106,-0.4824303,3.9890103,-5.1113977,-2.3326263,10.839268,-7.3687553,27.297844,-38.064556,-33.402153,-1.543499,-5.8180923,13.704371,32.047913,-15.211406,16.300777,-18.83177,-10.023297,-12.6445675,2.488586
204,-117.90312194824219,-110.64486694335938,77.91182708740234,2.558606720339705,-4.218001339182825,-110.49855224796087,17.383055,-3.9399505,-18.956732,48.877876,18.012196,-15.000033,-19.201653,-4.4566903,-4.9559083,42.517525,-5.191381,2.799146,-4.7149963,-2.1548557,11.207007,-7.169807,27.029802,-38.809826,-32.169956,-1.1693473,-5.706193,13.3135395,30.8681,-15.558011,16.441154,-18.3296,-9.545003,-12.808563,2.4036908
205,-118.73160552978516,-111.50981140136719,77.32010650634766,2.3227466761696993,-4.5706877083917155,-110.59777229745293,16.187574,-3.4848857,-18.357819,52.729,16.29517,-15.000033,-18.016209,-3.8809063,-5.632445,43.76678,-9.08442,1.7337278,-4.2809105,-1.8038622,11.582128,-6.9874787,26.707443,-39.43581,-30.697727,-0.76441604,-5.5286,12.617112,29.467026,-15.93169,16.620472,-17.747585,-8.866171,-12.977506,2.3194842
206,-119.55443572998047,-112.35881042480469,76.73443603515625,1.951325364617959,-4.872423681019252,-110.70841372156167,14.694721,-2.6484568,-17.462532,56.874336,14.464793,-15.000033,-16.872816,-3.1230073,-6.2760434,44.8084,-12.5905,0.82381827,-3.821136,-1.3072122,11.96502,-6.825153,26.330109,-39.975414,-29.001333,-0.3180706,-5.279105,11.688198,27.888689,-16.332901,16.828348,-17.11511,-8.021245,-13.158741,2.2274034
207,-120.36495208740234,-113.18352508544922,76.1507568359375,1.474197144596288,-5.1282030865652635,-110.7851798925751,12.959505,-1.5888326,-16.57005,61.15901,12.552094,-15.000033,-15.773749,-2.239511,-6.9285483,45.697914,-15.735052,0.006715268,-3.377383,-0.70657593,12.34851,-6.633996,25.898928,-40.418453,-27.164831,0.10918773,-4.9643054,10.7440815,26.158514,-16.763659,17.070017,-16.47202,-7.1982837,-13.322273,2.1381807
208,-121.17283630371094,-113.99031066894531,75.58380889892578,0.9223072780715577,-5.342619940217419,-110.78352006046217,11.032863,-0.49543944,-15.968609,65.42434,10.5812845,-15.000033,-14.721345,-1.2805518,-7.6255965,46.490696,-18.537989,-0.778284,-2.9920232,-0.046958722,12.72777,-6.3597608,25.418627,-40.75232,-25.278425,0.45379907,-4.586174,10.001392,24.300886,-17.229559,17.35387,-15.854996,-6.5855556,-13.436885,2.0602012
209,-121.98870086669922,-114.7781982421875,75.04381561279297,0.24846640164099246,-5.4993327169006445,-110.68523853109271,8.867005,0.67274237,-15.737465,69.734886,8.537862,-15.000033,-13.747122,-0.19790137,-8.409663,47.191265,-20.944551,-1.5596411,-2.6892016,0.7042748,13.099079,-5.9992914,24.887686,-40.965153,-23.247875,0.5591768,-4.1125135,9.392513,22.273903,-17.736813,17.71194,-15.241783,-6.2006373,-13.4927635,1.9677191
210,-122.78982543945312,-115.52970123291016,74.52980041503906,-0.5597169827549664,-5.597298199938024,-110.52044954016064,6.4716544,1.9672365,-15.783728,74.120995,6.4155087,-15.000033,-12.838283,1.0258718,-9.260833,47.762634,-22.961897,-2.3150563,-2.443165,1.5725702,13.467081,-5.5697865,24.30587,-41.061806,-21.075474,0.5054699,-3.5487683,8.845077,20.08763,-18.284035,18.134706,-14.642277,-5.951473,-13.505876,1.8606305
211,-123.54476165771484,-116.26709747314453,74.04098510742188,-1.1132321924920427,-5.715378461470413,-110.32246857089353,3.875876,3.3537607,-15.414548,78.26121,4.4015307,-13.901466,-11.990742,1.9293674,-9.957647,48.48173,-24.852482,-2.9454322,-2.2116742,2.195476,13.875583,-5.0496044,23.687134,-41.05848,-18.984596,0.5767692,-2.95564,8.565896,17.83765,-18.861364,18.57422,-14.134624,-5.861874,-13.482704,1.7850862
212,-124.2705078125,-116.99192810058594,73.58955383300781,-1.5728730379519273,-5.843166246822944,-110.09825752010693,1.1532991,4.8354807,-14.791947,82.07202,2.426269,-11.715777,-11.090126,2.7038078,-10.602095,49.095367,-26.571808,-3.4981256,-1.9759355,2.751146,14.302617,-4.408445,23.05413,-40.976353,-17.21217,1.0547653,-2.3944685,8.760499,15.61256,-19.460281,18.979471,-13.779834,-5.9578595,-13.430145,1.7941406
213,-124.9808349609375,-117.71315002441406,73.18714141845703,-1.9442218120743338,-5.9932275203569345,-109.82168640291634,-1.647189,6.0564766,-14.346839,85.609436,0.42032558,-9.386539,-10.126024,3.3573742,-11.253939,49.588604,-28.104744,-3.9828658,-1.7652459,3.2235138,14.78066,-3.6217947,22.422781,-40.80688,-15.807579,2.3065708,-1.8166068,9.714313,13.364627,-20.081251,19.356571,-13.557281,-6.3631654,-13.332089,1.9342977
214,-125.6837387084961,-118.4265365600586,72.8332748413086,-2.2569608568793895,-6.148676117855255,-109.49173653541972,-4.569592,7.089909,-14.041591,88.95044,-1.6295369,-6.8727527,-9.133466,3.928944,-11.931585,49.975395,-29.413795,-4.412949,-1.5846872,3.6356122,15.299151,-2.6958652,21.80148,-40.546402,-14.670472,4.067515,-1.1740865,11.230496,11.059721,-20.725302,19.736425,-13.433456,-7.025569,-13.192706,2.170623
215,-126.38009643554688,-119.14297485351562,72.52558135986328,-2.4872801576015346,-6.293037427679559,-109.16562139224165,-7.503827,7.8973846,-13.7673645,91.949234,-3.5985093,-4.412271,-8.1246805,4.4216976,-12.555686,50.260338,-30.53606,-4.7987714,-1.3658117,3.9875998,15.795114,-1.6519988,21.205786,-40.22036,-13.815187,5.675072,-0.5570426,12.799179,8.799733,-21.385769,20.111057,-13.4424715,-7.7088447,-13.048432,2.4358113
216,-127.066162109375,-119.86418914794922,72.26078796386719,-2.6132865172187363,-6.410404271896539,-108.90105243224191,-10.33715,8.471198,-13.394288,94.45746,-5.344335,-2.2311087,-7.1100674,4.8377323,-13.045621,50.446438,-31.506998,-5.150425,-1.0381801,4.2793694,16.207209,-0.51340824,20.655151,-39.852535,-13.258456,6.483223,-0.11749301,13.931449,6.6829486,-22.051168,20.469133,-13.611532,-8.176488,-12.933596,2.662789
217,-127.74291229248047,-120.59048461914062,72.039306640625,-2.622579497264906,-6.513668331278308,-108.69944113722683,-13.098714,8.871656,-12.819079,96.481575,-6.8181953,-0.23677869,-6.0840297,5.158877,-13.403392,50.56166,-32.357143,-5.4692903,-0.60020953,4.495735,16.54845,0.7866208,20.1642,-39.402,-13.123199,6.1348696,0.04066154,14.498898,4.710547,-22.714382,20.803368,-13.97097,-8.44185,-12.844271,2.8443394
218,-128.42861938476562,-121.31803131103516,71.87055969238281,-2.525724155396853,-6.608526148385796,-108.53606720466418,-15.816708,9.1026535,-12.072118,98.08206,-8.079264,1.6436745,-5.0422077,5.3915033,-13.676898,50.596077,-33.058548,-5.755452,-0.08945894,4.635881,16.848255,2.2571468,19.740633,-38.85583,-13.397435,5.044119,-0.0072227963,14.772218,2.815253,-23.374708,21.142275,-14.4749565,-8.605632,-12.766802,3.013974
219,-129.13143920898438,-122.06473541259766,71.76297760009766,-2.3454010439027315,-6.669780925758428,-108.42881993238012,-18.38424,9.102022,-11.208297,99.18801,-9.129965,3.174697,-3.9961197,5.5673194,-13.851865,50.49962,-33.56293,-6.014046,0.5086934,4.7218847,17.06837,3.7801623,19.390484,-38.28401,-13.88772,3.726767,-0.16463225,14.869425,1.0003748,-24.029448,21.516184,-15.046935,-8.564367,-12.718503,3.1648905
220,-129.83473205566406,-122.8274917602539,71.71451568603516,-2.0983407141946837,-6.670137515782436,-108.39419121484748,-20.706423,8.799306,-10.296324,99.726036,-9.953799,4.1088104,-2.9578855,5.7138557,-13.911344,50.222786,-33.822662,-6.248375,1.2164999,4.776105,17.16714,5.22936,19.116686,-37.770924,-14.384587,2.6980784,-0.3340133,14.913304,-0.7167811,-24.675306,21.936886,-15.621659,-8.21689,-12.716496,3.2918034
221,-130.54763793945312,-123.60763549804688,71.73827362060547,-1.7860354772276814,-6.605600844886746,-108.47775834213185,-22.795916,8.205918,-9.307966,99.66892,-10.526173,4.334256,-1.9470446,5.837225,-13.811571,49.78622,-33.83905,-6.4690876,2.0867574,4.8074856,17.134497,6.5892935,18.920183,-37.336647,-14.894888,1.9705633,-0.5336617,14.876991,-2.3410425,-25.317167,22.393162,-16.20287,-7.4000196,-12.7687845,3.3827145
222,-131.25900268554688,-124.4049301147461,71.822998046875,-1.4017056181954768,-6.488206317217185,-108.65638541633162,-24.710213,7.379434,-8.214718,99.04817,-10.843618,4.004536,-0.9494427,5.9177938,-13.578562,49.2061,-33.634464,-6.6711917,3.0969584,4.803122,16.995928,7.925517,18.797935,-36.94462,-15.510302,1.3081417,-0.7963437,14.71399,-3.869429,-25.957512,22.871223,-16.828188,-6.213259,-12.864639,3.445274
223,-131.98483276367188,-125.2226333618164,71.97840881347656,-0.961645658337582,-6.314483604054857,-108.8427907605109,-26.431648,6.314519,-7.1005616,97.87672,-10.924139,3.2749,0.06900807,5.944659,-13.299062,48.4307,-33.195766,-6.833058,4.161034,4.75029,16.758966,9.2200575,18.744839,-36.600395,-16.132069,0.85322696,-1.0489448,14.52359,-5.2683616,-26.58636,23.365242,-17.476654,-4.9524117,-12.993468,3.5059206
224,-132.71546936035156,-126.07010650634766,72.19627380371094,-0.4822817292667949,-6.083073106434303,-108.94933356545376,-27.93785,5.001677,-6.0513864,96.168526,-10.794272,2.3059025,1.1420941,5.909631,-13.059354,47.406628,-32.50968,-6.9329815,5.1959276,4.6324615,16.42945,10.44616,18.754265,-36.311123,-16.64782,0.75192374,-1.2222437,14.4086075,-6.5044613,-27.18569,23.863348,-18.12372,-3.9164858,-13.144555,3.592528
225,-133.47015380859375,-126.93647003173828,72.48236846923828,0.04500866326463902,-5.779853855392511,-108.97361667723412,-29.246496,3.3522005,-5.1294336,93.885796,-10.479458,1.0703511,2.2792673,5.802015,-12.85117,46.09384,-31.600336,-6.966146,6.2121444,4.4305434,15.983031,11.568319,18.82489,-36.102768,-16.987352,1.1413212,-1.2927808,14.424458,-7.582311,-27.74914,24.357382,-18.750984,-3.207075,-13.307166,3.7144442
226,-134.24017333984375,-127.84757995605469,72.82759857177734,0.617490109754026,-5.411778745201127,-108.95472027272557,-30.374197,1.4334067,-4.323823,91.015656,-9.990415,-0.4711347,3.4602258,5.637804,-12.640933,44.53042,-30.467054,-6.944482,7.2456083,4.152468,15.426139,12.602323,18.955475,-35.965717,-17.205116,1.9135274,-1.2993166,14.510625,-8.514809,-28.278557,24.843004,-19.36842,-2.6635387,-13.48982,3.860307
227,-135.03323364257812,-128.7909698486328,73.22350311279297,1.2063484276309273,-5.0088472997813005,-108.86742842653045,-31.28485,-0.56213963,-3.612584,87.617325,-9.311977,-2.2002776,4.6750293,5.449586,-12.475957,42.778553,-29.057058,-6.8717756,8.248975,3.8194697,14.80706,13.596073,19.139212,-35.84924,-17.369293,2.849822,-1.2670095,14.595679,-9.293629,-28.76703,25.317236,-19.968872,-2.1914735,-13.710466,4.026615
228,-135.84056091308594,-129.76336669921875,73.65754699707031,1.7820206635358173,-4.602051002531581,-108.68544017133871,-31.928219,-2.4713829,-2.9575675,83.74155,-8.411863,-4.013685,5.9129853,5.264987,-12.400817,40.903698,-27.318623,-6.7510953,9.171825,3.4519885,14.170327,14.600727,19.36599,-35.69901,-17.550798,3.7336767,-1.2232751,14.606862,-9.916481,-29.200586,25.782793,-20.53917,-1.696759,-13.986833,4.2104316
229,-136.66323852539062,-130.7648468017578,74.12521362304688,2.369181362336936,-4.192577136255019,-108.37788692198733,-32.25129,-4.315558,-2.3476603,79.26669,-7.2497196,-6.0238233,7.203932,5.065406,-12.429701,38.859238,-25.245565,-6.623815,9.993055,3.0284972,13.509801,15.612234,19.630281,-35.506947,-17.718674,4.5400176,-1.1528195,14.5144205,-10.35049,-29.56523,26.238232,-21.052198,-1.1727328,-14.348837,4.4234014
230,-137.50990295410156,-131.7903594970703,74.61495208740234,2.9680630520223668,-3.770685757641387,-107.96472252286868,-32.2625,-6.175382,-1.8430842,74.17331,-5.846147,-8.237874,8.538824,4.852472,-12.534924,36.64357,-22.870111,-6.4758086,10.732472,2.5488825,12.803913,16.610672,19.93153,-35.289745,-17.843231,5.3767843,-1.0505228,14.358415,-10.632651,-29.857897,26.689945,-21.489014,-0.66273093,-14.778281,4.666356
231,-138.37869262695312,-132.8364715576172,75.12236785888672,3.5261322709410923,-3.3484584702756113,-107.49653904575861,-32.000698,-7.9920483,-1.4969301,68.66114,-4.2425456,-10.407318,9.854909,4.6844997,-12.69041,34.37643,-20.188074,-6.227742,11.398984,2.0642645,12.068161,17.625898,20.266151,-35.026382,-17.994852,6.226901,-0.96022403,14.171081,-10.836565,-30.08494,27.155201,-21.874994,-0.1610509,-15.220601,4.9206753
232,-139.24073791503906,-133.91546630859375,75.64122772216797,3.9906698995780725,-2.9347268493728715,-107.02599655446504,-31.513988,-9.691302,-1.3509982,62.933598,-2.4803963,-12.278741,11.093214,4.621339,-12.85946,32.163914,-17.183203,-5.798793,12.002796,1.6266254,11.31683,18.686977,20.628529,-34.69491,-18.241142,7.0715065,-0.92509466,13.98498,-11.023713,-30.258017,27.652254,-22.25015,0.33505026,-15.620935,5.1647086
233,-140.10862731933594,-135.00704956054688,76.1539306640625,4.373382479617777,-2.5140248798165925,-106.55473898147567,-30.758358,-11.329809,-1.4942161,56.807312,-0.47943646,-13.739363,12.229636,4.65226,-13.0536995,30.002295,-13.742992,-5.2397785,12.54661,1.2238169,10.533319,19.80599,21.014431,-34.274326,-18.594862,7.991344,-0.9728184,13.785322,-11.18741,-30.38457,28.201448,-22.611032,0.84271824,-15.96439,5.392395
234,-140.99069213867188,-136.1158447265625,76.64775848388672,4.674105079134312,-2.0898349335365785,-106.06295090559676,-29.688936,-12.854088,-1.9209536,50.208607,1.7739016,-14.914242,13.31085,4.788535,-13.253144,27.822094,-9.899901,-4.5658636,13.023769,0.86362445,9.710709,20.970514,21.421242,-33.77451,-19.023829,8.968349,-1.0764999,13.563149,-11.2946615,-30.467062,28.79039,-22.951197,1.3546715,-16.279629,5.612942
235,-141.88088989257812,-137.2418212890625,77.11541748046875,4.880229024548937,-1.7112269908676094,-105.56569322545417,-28.325407,-14.016084,-2.1486204,43.42983,4.1946096,-15.000033,14.393436,5.0377746,-13.354317,25.655043,-5.874751,-3.6112216,13.431815,0.57680225,8.902858,22.167288,21.845076,-33.225548,-19.530918,9.835172,-1.1946971,13.359234,-11.385176,-30.509737,29.38197,-23.283463,1.8498038,-16.578568,5.825775
236,-142.77273559570312,-138.38194274902344,77.54106903076172,4.924172754720825,-1.4101669910596135,-105.09221634039575,-26.738295,-14.793099,-2.2673762,36.84311,6.6617665,-15.000033,15.55345,5.502414,-13.234812,23.429749,-1.8184652,-2.2356112,13.78536,0.43270567,8.142537,23.380424,22.282038,-32.659966,-20.120558,10.42595,-1.2830062,13.212551,-11.495315,-30.518745,29.938416,-23.630283,2.304361,-16.87291,6.031004
237,-143.6664276123047,-139.52145385742188,77.91806030273438,4.708062192639253,-1.1588429813133982,-104.68067392821258,-24.896257,-15.138677,-2.2615528,30.323309,9.2628765,-15.000033,16.8758,6.3324633,-12.821378,20.876698,2.5110898,-0.32949027,14.129094,0.52748674,7.376545,24.617191,22.73385,-32.084366,-20.796108,10.686326,-1.3271693,13.147823,-11.636021,-30.499928,30.470371,-23.992239,2.6909163,-17.166199,6.2336082
