unveil-humanoid-operators/unveil-humanoid-operators.github.io/feature-analysis-animation/data/feature_matrix_instances/weight_climbing_box_A364.csv
Frame,root_translateX,root_translateY,root_translateZ,root_rotateX,root_rotateY,root_rotateZ,left_hip_pitch_joint_dof,left_hip_roll_joint_dof,left_hip_yaw_joint_dof,left_knee_joint_dof,left_ankle_pitch_joint_dof,left_ankle_roll_joint_dof,right_hip_pitch_joint_dof,right_hip_roll_joint_dof,right_hip_yaw_joint_dof,right_knee_joint_dof,right_ankle_pitch_joint_dof,right_ankle_roll_joint_dof,waist_yaw_joint_dof,waist_roll_joint_dof,waist_pitch_joint_dof,left_shoulder_pitch_joint_dof,left_shoulder_roll_joint_dof,left_shoulder_yaw_joint_dof,left_elbow_joint_dof,left_wrist_roll_joint_dof,left_wrist_pitch_joint_dof,left_wrist_yaw_joint_dof,right_shoulder_pitch_joint_dof,right_shoulder_roll_joint_dof,right_shoulder_yaw_joint_dof,right_elbow_joint_dof,right_wrist_roll_joint_dof,right_wrist_pitch_joint_dof,right_wrist_yaw_joint_dof
0,0.033242493867874146,1.9885368347167969,127.54594421386719,0.475617339612739,0.5108534776673507,-91.17422277895474,-8.162179,3.921776,-2.8082871,25.512918,-17.500301,-5.8396688,-7.6178803,-4.6271825,-7.942153,27.03791,-19.416039,3.3171632,-1.6470581,-0.2032527,5.9332967,-5.472751,19.563255,-40.68436,55.995693,-10.103742,2.7291777,8.914948,-6.5798125,-18.73953,36.592606,56.007755,-2.8086793,-0.74393713,0.5396378
1,0.02746972255408764,1.9842641353607178,127.5443115234375,0.47062825822858423,0.5070655751710292,-91.15756284261217,-8.168625,3.9257188,-2.8252544,25.535194,-17.510557,-5.8401113,-7.612291,-4.6232557,-7.957749,27.05307,-19.422966,3.3114958,-1.6518784,-0.18550438,5.9510083,-5.4603386,19.579372,-40.696857,55.962532,-10.112893,2.7451873,8.9041395,-6.54599,-18.744009,36.515522,55.978954,-2.8731713,-0.7448979,0.54217184
2,0.022373070940375328,1.9797348976135254,127.54190063476562,0.46561977390388926,0.5027848287921043,-91.14021878750614,-8.174277,3.929926,-2.8430297,25.557135,-17.521168,-5.840553,-7.605653,-4.619074,-7.974208,27.06804,-19.429785,3.3059058,-1.6517355,-0.16739659,5.9675665,-5.455107,19.590492,-40.71761,55.93801,-10.12243,2.7620091,8.893317,-6.51,-18.743814,36.42453,55.95524,-2.9470563,-0.745557,0.54532874
3,0.014112791046500206,1.9733859300613403,127.54035949707031,0.4607156887741278,0.499365084366709,-91.1244355062079,-8.180246,3.933706,-2.8588703,25.577726,-17.530113,-5.841145,-7.6005983,-4.615457,-7.9887905,27.082426,-19.43608,3.3001013,-1.6431634,-0.15345177,5.9827247,-5.4570074,19.599873,-40.74648,55.92145,-10.135368,2.7762375,8.884517,-6.4730954,-18.741142,36.337234,55.93167,-3.0114098,-0.7481652,0.54744244
4,0.01231296919286251,1.9691036939620972,127.5387191772461,0.4576620335323986,0.4984962104315677,-91.11193761122374,-8.190422,3.936283,-2.8712482,25.60178,-17.539284,-5.841806,-7.6006136,-4.612944,-7.999523,27.098328,-19.442825,3.2939112,-1.6518506,-0.14105566,5.991532,-5.4480567,19.601536,-40.752304,55.912952,-10.148712,2.782506,8.880043,-6.461957,-18.740128,36.318928,55.92342,-3.029376,-0.7547642,0.5432801
5,0.011758900247514248,1.9652793407440186,127.53816986083984,0.45586742683574005,0.5004357598697381,-91.10461069609728,-8.200674,3.9368987,-2.8768935,25.619892,-17.542786,-5.845212,-7.605395,-4.6124883,-8.003353,27.111294,-19.446945,3.2857046,-1.6416916,-0.1410346,6.002839,-5.4479666,19.60201,-40.756596,55.91417,-10.1592245,2.7790651,8.878311,-6.4592934,-18.739985,36.321964,55.914772,-3.0211575,-0.7681241,0.5384442
6,0.014617979526519775,1.9636988639831543,127.53819274902344,0.45414311479877434,0.5057269223381887,-91.10048709075117,-8.214622,3.9370813,-2.8789277,25.638023,-17.544613,-5.850536,-7.6155453,-4.6124387,-8.003192,27.123932,-19.450243,3.2759497,-1.6383822,-0.14821,6.0020742,-5.443209,19.605106,-40.771397,55.925987,-10.196735,2.7654989,8.886196,-6.4723363,-18.74183,36.408237,55.916748,-2.9489527,-0.7886272,0.51664495
7,0.015032659284770489,1.9616600275039673,127.53681945800781,0.45199528135594885,0.5114597987610798,-91.09788523288964,-8.229298,3.9369285,-2.8794875,25.65743,-17.545961,-5.85293,-7.625281,-4.612772,-8.002233,27.134031,-19.452158,3.2678745,-1.644341,-0.15311182,6.00357,-5.4292536,19.605953,-40.76239,55.930492,-10.2181835,2.7525616,8.892532,-6.4946623,-18.745144,36.498604,55.920998,-2.8716304,-0.808109,0.50238836
8,0.014806048013269901,1.9565397500991821,127.53621673583984,0.4503533976570486,0.5164464353793226,-91.09473845448544,-8.244726,3.9381382,-2.8818817,25.681068,-17.548824,-5.847804,-7.630465,-4.611538,-8.004819,27.139133,-19.45237,3.2643073,-1.6529841,-0.15123798,6.0068026,-5.415253,19.605745,-40.751312,55.92794,-10.226982,2.7470877,8.89661,-6.5055084,-18.747208,36.550797,55.91738,-2.807689,-0.82296735,0.5014897
9,0.014785023406147957,1.948106288909912,127.53406524658203,0.4458838463220806,0.5206885144053611,-91.08979139910073,-8.263759,3.9411538,-2.8879802,25.714388,-17.554556,-5.8310976,-7.629489,-4.608312,-8.01389,27.137403,-19.450064,3.2672565,-1.6641923,-0.14130978,6.010173,-5.4029965,19.605352,-40.745407,55.917988,-10.223282,2.7530947,8.899836,-6.4991627,-18.74706,36.550327,55.903576,-2.7473106,-0.8305129,0.5203441
10,0.013222281821072102,1.9420098066329956,127.53349304199219,0.4405325579269125,0.5251812892279979,-91.08408459044546,-8.286257,3.945993,-2.8963563,25.754475,-17.561707,-5.8064003,-7.62515,-4.603156,-8.027193,27.130716,-19.445848,3.2745507,-1.6776565,-0.12572592,6.014887,-5.3882127,19.603632,-40.731785,55.899483,-10.201229,2.766857,8.901604,-6.483485,-18.744633,36.510937,55.883457,-2.692147,-0.83396155,0.555877
11,0.012932199984788895,1.9368479251861572,127.53287506103516,0.43550663580688337,0.5287587831494855,-91.0798725507562,-8.305229,3.950574,-2.9033356,25.791412,-17.568819,-5.7800174,-7.6189375,-4.598086,-8.039202,27.122425,-19.441303,3.283565,-1.6805071,-0.110299736,6.021085,-5.3823543,19.601213,-40.731323,55.883667,-10.179092,2.7813358,8.90205,-6.458795,-18.739605,36.446995,55.86005,-2.6583145,-0.8373751,0.59269255
12,0.008098709397017956,1.9369734525680542,127.53225708007812,0.43129256164699425,0.5305304465803868,-91.07971137312062,-8.316024,3.9538946,-2.9054854,25.81848,-17.57584,-5.7583776,-7.6119475,-4.593896,-8.04473,27.114628,-19.437277,3.291302,-1.6663758,-0.10003598,6.027709,-5.390212,19.596844,-40.74975,55.879673,-10.165097,2.7900465,8.899465,-6.427717,-18.730925,36.37646,55.837948,-2.6660345,-0.8445928,0.6166738
13,0.010575946420431137,1.9343700408935547,127.53147888183594,0.4295216914100577,0.5291436760604468,-91.08370937113281,-8.316306,3.9548645,-2.90229,25.83546,-17.584124,-5.7409387,-7.604478,-4.5915337,-8.042246,27.110893,-19.43539,3.2983499,-1.669815,-0.08804687,6.032433,-5.379024,19.595512,-40.754047,55.866413,-10.159793,2.789329,8.892719,-6.415164,-18.728495,36.361366,55.829464,-2.7064579,-0.85888195,0.6178751
14,0.012087305076420307,1.9300713539123535,127.5314712524414,0.42955826209037107,0.5252033903566199,-91.09088181007107,-8.308131,3.9542055,-2.895329,25.8437,-17.592018,-5.725017,-7.5946455,-4.590006,-8.034746,27.107046,-19.433817,3.3056862,-1.6612184,-0.07812891,6.038503,-5.3738365,19.591534,-40.76911,55.856968,-10.154905,2.7840981,8.88219,-6.3973136,-18.720566,36.332508,55.823685,-2.7942026,-0.8779786,0.60968256
15,0.010795586742460728,1.9212080240249634,127.53134155273438,0.4304929940037654,0.5229789488903477,-91.10027045711296,-8.297943,3.9538264,-2.8858602,25.8455,-17.599628,-5.713876,-7.5874004,-4.588435,-8.024102,27.103237,-19.43262,3.3115418,-1.66114,-0.06969732,6.044348,-5.366709,19.590618,-40.772385,55.84723,-10.150965,2.7781243,8.8705015,-6.3916707,-18.718927,36.3303,55.820267,-2.873714,-0.8924905,0.59762967
16,0.014285748824477196,1.908537745475769,127.53299713134766,0.42865310791689787,0.5236702475948474,-91.11139487671927,-8.286355,3.95687,-2.8747897,25.83775,-17.604454,-5.7110653,-7.581296,-4.5840726,-8.012358,27.093801,-19.42994,3.3138785,-1.6562525,-0.057799626,6.0454054,-5.3517737,19.588106,-40.77724,55.829906,-10.1462345,2.7763512,8.86626,-6.377751,-18.714104,36.3199,55.81712,-2.9564598,-0.89762694,0.5832303
17,0.012851690873503685,1.902653694152832,127.5354232788086,0.42635584546122907,0.5302746509224686,-91.12366853427517,-8.276066,3.9634304,-2.8624332,25.818254,-17.606556,-5.722215,-7.580621,-4.577171,-7.9994226,27.080456,-19.428495,3.3104043,-1.6471409,-0.049174104,6.045338,-5.3438067,19.585732,-40.778458,55.81602,-10.139504,2.7808933,8.8699255,-6.3719373,-18.709972,36.316628,55.815998,-3.0084965,-0.88363093,0.5715884
18,0.013686489313840866,1.895483374595642,127.53800964355469,0.42244434056316627,0.5402074811246783,-91.1378698506155,-8.263664,3.9726837,-2.8481207,25.787466,-17.606606,-5.743937,-7.582458,-4.568162,-7.984407,27.06302,-19.427317,3.3026993,-1.6373755,-0.041484404,6.0420575,-5.33613,19.580101,-40.775654,55.80421,-10.131501,2.7888498,8.879717,-6.373004,-18.700962,36.321987,55.82281,-3.051832,-0.8569961,0.5569745
19,0.016088081523776054,1.8908536434173584,127.5406494140625,0.41756876002611754,0.5530142894723454,-91.15296927404891,-8.253585,3.982503,-2.8330305,25.75466,-17.604975,-5.7657733,-7.586884,-4.558772,-7.969216,27.043367,-19.42331,3.2950394,-1.6288283,-0.033590224,6.03693,-5.326423,19.577019,-40.768703,55.7901,-10.122114,2.798255,8.888952,-6.374427,-18.69645,36.326805,55.826584,-3.086273,-0.8286289,0.54626054
20,0.02114730328321457,1.8874738216400146,127.54100799560547,0.4141845480723985,0.567981456145111,-91.16822400205103,-8.24852,3.9910834,-2.8182595,25.72684,-17.60143,-5.7772856,-7.59476,-4.5504503,-7.955566,27.025234,-19.414156,3.291596,-1.6340206,-0.025529794,6.0268598,-5.3104305,19.566608,-40.73961,55.782955,-10.100359,2.8074732,8.8914795,-6.385831,-18.68059,36.33089,55.841305,-3.1178021,-0.8078375,0.54319715
21,0.023195182904601097,1.8812222480773926,127.54312896728516,0.41262445744681414,0.5867651841668343,-91.1840750856042,-8.251928,3.9975657,-2.80373,25.707375,-17.594849,-5.7721987,-7.6077504,-4.544011,-7.944449,27.007885,-19.396341,3.2946234,-1.6415938,-0.01869499,6.0128317,-5.293343,19.555378,-40.70091,55.77964,-10.069656,2.8172615,8.884553,-6.390901,-18.662119,36.31027,55.84872,-3.1494737,-0.7965452,0.5534363
22,0.025029756128787994,1.8752517700195312,127.54534149169922,0.4105515350907468,0.6090331349102938,-91.20083972152644,-8.261334,4.003081,-2.7889764,25.692226,-17.585804,-5.757341,-7.624607,-4.5383825,-7.9347534,26.989292,-19.371538,3.3015208,-1.6505361,-0.012965503,5.9957004,-5.274983,19.543255,-40.653442,55.778343,-10.031293,2.8283093,8.871736,-6.3924217,-18.640686,36.27265,55.851532,-3.1793237,-0.7897217,0.57316196
23,0.02679877169430256,1.8687493801116943,127.54830169677734,0.407550797119425,0.6315399817418801,-91.2171795794802,-8.270932,4.008485,-2.774528,25.676094,-17.576008,-5.7414737,-7.6421933,-4.5329404,-7.9251246,26.971497,-19.346266,3.3092148,-1.6588446,-0.0074170516,5.9780264,-5.257603,19.533491,-40.61065,55.776306,-9.995484,2.8393366,8.857947,-6.39013,-18.622425,36.232063,55.848408,-3.2040389,-0.7869279,0.59624493
24,0.030048998072743416,1.865431308746338,127.55123138427734,0.40616619725780295,0.6507807999850118,-91.23211268018964,-8.274825,4.0143895,-2.7608452,25.65479,-17.567808,-5.7334733,-7.654935,-4.5265546,-7.914459,26.951204,-19.324038,3.314658,-1.6650263,-0.0020682553,5.960944,-5.2488937,19.52148,-40.583023,55.782536,-9.968846,2.8483427,8.847339,-6.3933015,-18.598291,36.19989,55.85592,-3.2251408,-0.7890865,0.6164213
25,0.03179929777979851,1.859641432762146,127.55393981933594,0.40309226387157704,0.6660341062153374,-91.24415730773612,-8.270497,4.021689,-2.748717,25.62413,-17.56184,-5.738287,-7.661608,-4.5184636,-7.902262,26.928492,-19.307331,3.3159697,-1.6684152,0.0049281535,5.9450054,-5.2453256,19.514387,-40.5805,55.78728,-9.960834,2.8550227,8.84222,-6.3917546,-18.582718,36.183487,55.85777,-3.239712,-0.795934,0.63257384
26,0.03338257223367691,1.855004072189331,127.55662536621094,0.3977361726986665,0.6788948176906088,-91.25465946208975,-8.261184,4.029624,-2.7374666,25.587376,-17.556768,-5.7503223,-7.664153,-4.5095205,-7.8891087,26.90272,-19.292717,3.315113,-1.6674315,0.01152634,5.927658,-5.251721,19.50611,-40.597446,55.80179,-9.964409,2.8591833,8.8390045,-6.3925743,-18.562897,36.170185,55.868996,-3.252328,-0.80949026,0.648305
27,0.036084990948438644,1.849413514137268,127.55690002441406,0.39430558137747135,0.6902030702981554,-91.26513722876668,-8.250825,4.037195,-2.7263193,25.55176,-17.552307,-5.7626524,-7.6658435,-4.5007873,-7.875838,26.878473,-19.279459,3.314956,-1.668671,0.019104019,5.915168,-5.255217,19.501728,-40.61384,55.807007,-9.968346,2.8644755,8.837405,-6.390114,-18.55107,36.163677,55.867027,-3.254343,-0.8233586,0.6632165
28,0.036490343511104584,1.846537709236145,127.55940246582031,0.3923635312720171,0.7004801839371991,-91.2773296143962,-8.243585,4.0431547,-2.7144797,25.525642,-17.54821,-5.7683806,-7.6689277,-4.494173,-7.863388,26.858795,-19.26617,3.3184435,-1.6741905,0.027466483,5.9108286,-5.2564583,19.500383,-40.618023,55.80417,-9.964968,2.870516,8.834523,-6.3890347,-18.546938,36.160934,55.853733,-3.241665,-0.8364654,0.67744434
29,0.04087947681546211,1.839792013168335,127.56214141845703,0.38922154656692903,0.7097933419709646,-91.29371595643117,-8.2403145,4.04754,-2.7005155,25.511316,-17.543379,-5.764221,-7.6732025,-4.489387,-7.8509903,26.841282,-19.249214,3.3283415,-1.6695626,0.030466337,5.911517,-5.268104,19.497292,-40.62371,55.807884,-9.952112,2.8817637,8.833722,-6.387741,-18.538479,36.145775,55.837246,-3.210515,-0.85089415,0.6934865
30,0.04376043751835823,1.8358709812164307,127.5654067993164,0.38851444296577703,0.7173199133942918,-91.31086631772833,-8.24123,4.049939,-2.6875134,25.50989,-17.540987,-5.754017,-7.679831,-4.48676,-7.840092,26.83228,-19.234823,3.3427572,-1.6689341,0.032734405,5.920217,-5.277874,19.493773,-40.619354,55.80551,-9.930232,2.895178,8.834494,-6.389467,-18.529736,36.13265,55.81279,-3.1640635,-0.8644018,0.70834506
31,0.048114702105522156,1.8327089548110962,127.56796264648438,0.38775558152788986,0.7246543146845499,-91.329553757754,-8.241517,4.0522346,-2.6724036,25.508224,-17.538015,-5.742747,-7.6868377,-4.4846406,-7.8281503,26.823921,-19.220686,3.3563378,-1.6693476,0.036130592,5.929446,-5.287909,19.491724,-40.614655,55.80158,-9.911048,2.9074585,8.833961,-6.393251,-18.524754,36.12592,55.789593,-3.113805,-0.8776925,0.7207847
32,0.05024326965212822,1.8326958417892456,127.570556640625,0.38847596590262107,0.7330134467876664,-91.34886144232395,-8.239923,4.0548067,-2.6541998,25.501183,-17.53505,-5.7349396,-7.694404,-4.482502,-7.813754,26.815037,-19.209282,3.3640924,-1.669134,0.03951374,5.9353156,-5.300015,19.490017,-40.614147,55.799618,-9.900358,2.9163697,8.8299675,-6.400458,-18.520327,36.123615,55.777878,-3.0776803,-0.88779277,0.72777987
33,0.05743499472737312,1.8295886516571045,127.57394409179688,0.388122399230347,0.7423781910238655,-91.36912404541309,-8.236253,4.0582457,-2.6314554,25.488304,-17.533255,-5.731986,-7.7050276,-4.480596,-7.7961817,26.811329,-19.204845,3.3627746,-1.6676269,0.045025516,5.9334135,-5.309776,19.488802,-40.624584,55.794506,-9.905916,2.9221613,8.822157,-6.4072866,-18.515713,36.129272,55.77996,-3.06178,-0.8933121,0.72339606
34,0.06197703257203102,1.8264065980911255,127.57426452636719,0.39054744701002847,0.7523503649990775,-91.39073368754366,-8.23001,4.061716,-2.6045587,25.469847,-17.530731,-5.731305,-7.717356,-4.4793305,-7.7759275,26.809887,-19.204124,3.3557858,-1.6605159,0.050635867,5.9236712,-5.325329,19.487434,-40.657127,55.79511,-9.933069,2.9251444,8.812944,-6.418307,-18.507284,36.145683,55.801403,-3.0486755,-0.8976974,0.70881796
35,0.06727493554353714,1.8236124515533447,127.57462310791016,0.39169527977533475,0.763530931712075,-91.41291252542906,-8.2240925,4.065361,-2.577156,25.449505,-17.528147,-5.731824,-7.7303505,-4.4775896,-7.75451,26.8069,-19.203129,3.347795,-1.6565051,0.056087136,5.9160013,-5.339035,19.487427,-40.676575,55.79401,-9.95409,2.9251173,8.80186,-6.4291024,-18.5047,36.15824,55.81904,-3.0442402,-0.90008247,0.6980469
36,0.06913718581199646,1.817823886871338,127.57495880126953,0.3921110891685894,0.7764706859192251,-91.4346651087086,-8.21925,4.0692806,-2.5524993,25.426659,-17.52404,-5.732447,-7.742983,-4.4744883,-7.733216,26.79804,-19.197603,3.3436134,-1.6532439,0.057579532,5.9046044,-5.3534937,19.487762,-40.702473,55.801624,-9.977613,2.9215486,8.800015,-6.4387193,-18.49973,36.178913,55.832844,-3.0243268,-0.8985844,0.69265974
37,0.06900732219219208,1.8150111436843872,127.5761489868164,0.39171643158698854,0.7926089647807257,-91.45628231320705,-8.216537,4.0732956,-2.531445,25.399782,-17.517923,-5.7350802,-7.7548485,-4.469124,-7.711238,26.777971,-19.183891,3.3436704,-1.65828,0.05255493,5.893885,-5.3644457,19.488737,-40.709763,55.817234,-9.989094,2.9105895,8.806464,-6.4504232,-18.491922,36.20007,55.83765,-2.99605,-0.891186,0.70444065
38,0.07370561361312866,1.8114731311798096,127.57977294921875,0.38935821436196294,0.8111486648744204,-91.47792970341025,-8.215264,4.0775986,-2.5123494,25.369844,-17.510838,-5.7395654,-7.767854,-4.4623246,-7.688233,26.753304,-19.16654,3.3456326,-1.6768236,0.044442464,5.883838,-5.3670015,19.490948,-40.69286,55.83427,-9.990013,2.8939471,8.817088,-6.4755116,-18.480457,36.230915,55.848446,-2.962227,-0.8801329,0.7274658
39,0.0799669697880745,1.8072092533111572,127.5817642211914,0.38753168597112747,0.8294049630492701,-91.49942046978613,-8.2134905,4.0819306,-2.494118,25.339685,-17.5032,-5.741631,-7.778496,-4.4552546,-7.6662006,26.724682,-19.14702,3.3503106,-1.693275,0.036573365,5.8758345,-5.372091,19.493534,-40.674126,55.851807,-9.984583,2.8794222,8.827476,-6.495298,-18.471514,36.25816,55.85139,-2.9296086,-0.8688193,0.7481027
40,0.08658745884895325,1.8021444082260132,127.58524322509766,0.3860026177298878,0.8446992707225847,-91.520364066039,-8.208605,4.086022,-2.4756598,25.31088,-17.494978,-5.7369347,-7.784431,-4.4491763,-7.6471553,26.695408,-19.128208,3.3583488,-1.7169569,0.032894913,5.866523,-5.368102,19.499308,-40.64885,55.858524,-9.9728985,2.8748744,8.832757,-6.5268025,-18.455858,36.302876,55.873966,-2.8961246,-0.8630674,0.7491229
41,0.09191589057445526,1.7958866357803345,127.58793640136719,0.3849498502310906,0.8559732619702313,-91.54039993543516,-8.201627,4.09007,-2.457831,25.28806,-17.48647,-5.7201037,-7.7839966,-4.44426,-7.6337724,26.665003,-19.108423,3.3722372,-1.7255273,0.03563372,5.85782,-5.3734803,19.506279,-40.648087,55.86032,-9.957837,2.886833,8.831372,-6.548109,-18.441183,36.34234,55.898617,-2.8650308,-0.8662092,0.7210439
42,0.0964883491396904,1.7922401428222656,127.58978271484375,0.3839213253690871,0.8647405848346439,-91.55962775829848,-8.1937895,4.0943193,-2.4408705,25.26979,-17.478182,-5.694837,-7.7793307,-4.4399495,-7.624219,26.633698,-19.087921,3.3907998,-1.7193632,0.04365655,5.852734,-5.3916492,19.509045,-40.661858,55.864353,-9.934165,2.9093425,8.825045,-6.5535007,-18.436974,36.366405,55.91093,-2.8406072,-0.87432325,0.67667663
43,0.09667076915502548,1.7843717336654663,127.59229278564453,0.3834579155711693,0.8723505829057794,-91.5792175943284,-8.182173,4.0982227,-2.4227443,25.247519,-17.46947,-5.6704836,-7.7716336,-4.435814,-7.6139846,26.599588,-19.06851,3.4093344,-1.713859,0.05135593,5.8436294,-5.4073353,19.514105,-40.682457,55.867943,-9.920642,2.931746,8.820646,-6.558593,-18.430096,36.39882,55.92804,-2.8128195,-0.88228554,0.62902635
44,0.10050254315137863,1.7797199487686157,127.5964126586914,0.38352562721973,0.8799131508279417,-91.59989516442498,-8.16294,4.1015286,-2.401384,25.211102,-17.45897,-5.656404,-7.7612863,-4.431786,-7.5984955,26.559776,-19.05184,3.4232063,-1.7097657,0.056305762,5.837154,-5.419547,19.518415,-40.68965,55.870426,-9.913179,2.9442883,8.818706,-6.5614133,-18.424864,36.415985,55.939106,-2.7988935,-0.8852984,0.6025543
45,0.10510492324829102,1.7748630046844482,127.60188293457031,0.3835341685757909,0.8872388686435566,-91.62240969831367,-8.1359625,4.105063,-2.3756485,25.161373,-17.449085,-5.6588535,-7.748046,-4.426623,-7.575429,26.513664,-19.040234,3.4295094,-1.7060955,0.05886246,5.8316393,-5.4278164,19.51946,-40.685783,55.87544,-9.919852,2.9421656,8.823506,-6.55855,-18.423727,36.41712,55.939533,-2.7988582,-0.8800051,0.6042325
46,0.11311918497085571,1.76926589012146,127.60755157470703,0.3846581296410605,0.8916183467855142,-91.64812777942957,-8.096645,4.108347,-2.3439815,25.095835,-17.436964,-5.6714373,-7.7286687,-4.4212303,-7.5450997,26.460499,-19.031181,3.4313545,-1.7042398,0.054929256,5.831335,-5.4381,19.521458,-40.66726,55.887424,-9.934006,2.9301648,8.828458,-6.5525255,-18.421383,36.412674,55.930214,-2.8082156,-0.8682322,0.621167
47,0.12192262709140778,1.7619279623031616,127.61457061767578,0.38617648303299734,0.8978057087367702,-91.67241665078726,-8.056928,4.1102734,-2.3134913,25.025146,-17.423836,-5.6851745,-7.709759,-4.416611,-7.515401,26.405628,-19.022982,3.4326723,-1.7067908,0.05167267,5.8287225,-5.442123,19.52351,-40.64289,55.89296,-9.948663,2.9162822,8.834031,-6.547527,-18.418982,36.40249,55.923485,-2.8254406,-0.856087,0.6453475
48,0.1273612678050995,1.7551296949386597,127.61874389648438,0.388955486321668,0.9072697318333014,-91.69383025235798,-8.019619,4.109319,-2.2868812,24.950537,-17.407307,-5.690729,-7.69262,-4.4145207,-7.490415,26.349068,-19.01107,3.4376204,-1.7162621,0.048117407,5.825813,-5.4410796,19.529715,-40.609245,55.886932,-9.952486,2.906715,8.834331,-6.545393,-18.412449,36.38534,55.920483,-2.851434,-0.8471346,0.66833115
49,0.13166379928588867,1.7463085651397705,127.62452697753906,0.39311410024238674,0.9219054667502489,-91.71069887602408,-7.987555,4.105092,-2.26628,24.872202,-17.385849,-5.6858654,-7.679185,-4.415099,-7.4729967,26.291142,-18.993715,3.447148,-1.7288039,0.048586745,5.809405,-5.4410706,19.531609,-40.600544,55.88129,-9.96689,2.9011247,8.836702,-6.536142,-18.410208,36.370777,55.920662,-2.8733096,-0.842423,0.685622
50,0.1374664604663849,1.7433100938796997,127.6312026977539,0.3983852306634258,0.9398163641854472,-91.72468689571205,-7.9577584,4.0982413,-2.2492368,24.789215,-17.360867,-5.6755567,-7.6682334,-4.417948,-7.459778,26.233116,-18.97406,3.459077,-1.7357409,0.045676287,5.793851,-5.445437,19.538082,-40.594692,55.868286,-9.974006,2.8982694,8.834548,-6.518471,-18.402485,36.321144,55.91714,-2.9187884,-0.8405724,0.7085578
51,0.14354920387268066,1.7332500219345093,127.63711547851562,0.4047740157190109,0.9586902027296897,-91.73791699595621,-7.925987,4.089121,-2.2328875,24.700603,-17.3344,-5.661082,-7.656535,-4.422379,-7.4471693,26.17265,-18.953857,3.4729052,-1.7384145,0.04101997,5.774431,-5.4518995,19.545507,-40.601646,55.85652,-9.986254,2.8966448,8.832199,-6.499397,-18.393692,36.275265,55.918552,-2.9588594,-0.8396835,0.7270811
52,0.14884871244430542,1.723828673362732,127.64227294921875,0.41242531636191404,0.9759947092539636,-91.75212048325028,-7.888536,4.078294,-2.2147522,24.606842,-17.309088,-5.643917,-7.640446,-4.428416,-7.4317536,26.107279,-18.934309,3.4882083,-1.7378749,0.033939864,5.7563663,-5.457126,19.55298,-40.60788,55.847225,-9.994975,2.8954449,8.827469,-6.4853096,-18.38511,36.247875,55.926117,-2.9832828,-0.83776444,0.73746717
53,0.15630723536014557,1.7131898403167725,127.64803314208984,0.4212057492380814,0.9904750575881636,-91.76698368882427,-7.844921,4.065084,-2.195591,24.509468,-17.285837,-5.621185,-7.6204166,-4.4359827,-7.4125724,26.040922,-18.917307,3.503949,-1.7352947,0.026725618,5.7414346,-5.4636426,19.554926,-40.608807,55.84472,-9.996687,2.895056,8.817371,-6.4792104,-18.383347,36.24956,55.94088,-2.987353,-0.8335496,0.73850995
54,0.17030136287212372,1.7072194814682007,127.65380096435547,0.43190987531835096,1.0034929747249934,-91.78157747751956,-7.7977157,4.0488577,-2.1762426,24.41005,-17.264273,-5.59315,-7.597553,-4.4458513,-7.391426,25.973095,-18.901657,3.520755,-1.7270309,0.015480907,5.728784,-5.4725814,19.556435,-40.61042,55.84541,-9.992752,2.895635,8.802019,-6.4752364,-18.382587,36.26096,55.960197,-2.9828176,-0.82821274,0.73346376
55,0.17646117508411407,1.6952108144760132,127.65888977050781,0.4436761503399578,1.0167849773483162,-91.79821628061511,-7.7447906,4.031704,-2.1538143,24.301113,-17.24138,-5.566108,-7.573138,-4.457201,-7.3683515,25.90218,-18.88604,3.5403345,-1.7282058,0.004325999,5.71192,-5.471328,19.559534,-40.606182,55.843708,-9.991903,2.8965383,8.789198,-6.4786463,-18.381956,36.302235,55.98622,-2.9593427,-0.8237219,0.71929145
56,0.18278560042381287,1.6799228191375732,127.66465759277344,0.45482052036676446,1.0324631457177929,-91.81869402146046,-7.688317,4.0164948,-2.1264317,24.18313,-17.218128,-5.546505,-7.5465384,-4.468003,-7.3444066,25.82191,-18.871958,3.564175,-1.7265757,-0.002808357,5.6960692,-5.4648714,19.560934,-40.59662,55.83545,-9.985093,2.8986762,8.783331,-6.4797792,-18.382235,36.325726,56.007965,-2.944807,-0.8235111,0.7058979
57,0.18787060678005219,1.6662495136260986,127.6727523803711,0.46638816170961733,1.0489781994531342,-91.84697746739621,-7.624037,4.0034924,-2.0887191,24.051952,-17.191118,-5.538942,-7.5190926,-4.4784474,-7.316196,25.735731,-18.85867,3.5886927,-1.7250148,-0.0061874217,5.681472,-5.450465,19.561584,-40.57863,55.819965,-9.974825,2.9025123,8.788032,-6.481126,-18.383726,36.344402,56.02635,-2.9288867,-0.8323937,0.6866541
58,0.20116937160491943,1.6529029607772827,127.68389892578125,0.47829921938727654,1.0659627899037416,-91.88072115815788,-7.5524745,3.991618,-2.0435548,23.908375,-17.16085,-5.5390863,-7.4904256,-4.489397,-7.2845817,25.644997,-18.846525,3.6143796,-1.7114234,-0.009023676,5.668537,-5.439035,19.560673,-40.5692,55.804302,-9.964337,2.9080272,8.800235,-6.475665,-18.385145,36.34528,56.039715,-2.9147387,-0.8479683,0.6629629
59,0.21028248965740204,1.6378264427185059,127.6943588256836,0.48959641930979464,1.0867632364253825,-91.9133695054401,-7.481356,3.9798493,-1.9999973,23.760052,-17.13387,-5.53959,-7.4592457,-4.5005593,-7.25566,25.544384,-18.835155,3.6489336,-1.7012386,-0.009622583,5.6530533,-5.4241586,19.556835,-40.552505,55.788284,-9.948468,2.9131775,8.813034,-6.466537,-18.38858,36.335945,56.0479,-2.9115539,-0.8601132,0.6436623
60,0.22594404220581055,1.6220781803131104,127.70340728759766,0.4992020601807387,1.1146629677524174,-91.93813155606975,-7.4180317,3.967324,-1.9672197,23.612871,-17.11629,-5.5331454,-7.423758,-4.5115266,-7.2356825,25.4282,-18.824146,3.7000866,-1.6980038,-0.009696706,5.6294646,-5.4090004,19.550283,-40.53422,55.777973,-9.931909,2.9158556,8.821048,-6.448378,-18.392035,36.310093,56.048256,-2.931478,-0.85875154,0.6369594
61,0.2413562685251236,1.6037235260009766,127.71110534667969,0.507188147783666,1.1519709263560622,-91.95140217373297,-7.3632894,3.9529338,-1.950372,23.463148,-17.108229,-5.5179877,-7.3827996,-4.5230947,-7.2284145,25.292236,-18.814045,3.77296,-1.7101296,-0.0109023815,5.591002,-5.3861256,19.544165,-40.51119,55.771503,-9.913483,2.9151995,8.822414,-6.4233756,-18.39249,36.267693,56.046543,-2.9856186,-0.8362773,0.6488425
62,0.24993006885051727,1.5874637365341187,127.7197265625,0.5137013246225726,1.1963066732601337,-91.9573923227107,-7.3139873,3.9375846,-1.9436412,23.310453,-17.10796,-5.4979405,-7.3368096,-4.5350375,-7.2298145,25.138922,-18.804003,3.8623335,-1.7314008,-0.013136778,5.5436835,-5.359763,19.538239,-40.48265,55.768917,-9.890207,2.912191,8.819093,-6.390287,-18.389818,36.20649,56.038975,-3.069508,-0.7994992,0.6744642
63,0.2594418227672577,1.5667494535446167,127.7268295288086,0.5190513723794313,1.2444088112671223,-91.96119508524518,-7.269516,3.9224994,-1.939557,23.161064,-17.114176,-5.474075,-7.2893114,-4.546728,-7.2342567,24.97822,-18.794876,3.9606843,-1.7480875,-0.014758107,5.4964848,-5.3385487,19.528627,-40.45512,55.769016,-9.86712,2.909129,8.814316,-6.3568115,-18.38203,36.128918,56.034,-3.160251,-0.762407,0.7031362
64,0.26461589336395264,1.542895793914795,127.73554229736328,0.5226657760929011,1.293278127825901,-91.9681113860015,-7.2303643,3.9090638,-1.9305264,23.02366,-17.127594,-5.4474907,-7.2442026,-4.5573335,-7.235935,24.819578,-18.787292,4.0605216,-1.7657259,-0.012317907,5.451278,-5.3080926,19.524014,-40.429768,55.754066,-9.860553,2.9075832,8.814706,-6.3361497,-18.378178,36.08645,56.03772,-3.208563,-0.73690385,0.7171951
65,0.2785091996192932,1.5209165811538696,127.7441635131836,0.5242434272527098,1.3412544616662418,-91.97873848090066,-7.1939673,3.8985434,-1.9136738,22.896692,-17.148664,-5.4189425,-7.1996245,-4.5666747,-7.234453,24.662329,-18.780935,4.163957,-1.7692872,-0.0060873446,5.422966,-5.2872324,19.512653,-40.39214,55.732193,-9.848361,2.9095585,8.814777,-6.3272285,-18.371626,36.034523,56.04726,-3.2347903,-0.72826236,0.7217609
66,0.2928995192050934,1.4949884414672852,127.75048065185547,0.5239190372819208,1.3905866021227826,-91.99059414261578,-7.162013,3.8899338,-1.8932729,22.778118,-17.177794,-5.3877463,-7.1548758,-4.57514,-7.232475,24.502323,-18.775536,4.273684,-1.7713839,0.0039605475,5.395826,-5.261817,19.50295,-40.35879,55.70037,-9.850646,2.91274,8.819016,-6.3263526,-18.369019,36.006245,56.061947,-3.2258778,-0.7282642,0.71531373
67,0.30909463763237,1.470436930656433,127.75605773925781,0.5222393291938447,1.4422930907134348,-92.00414330038751,-7.136703,3.881166,-1.8726559,22.67053,-17.212091,-5.3528833,-7.1118493,-4.5826144,-7.229186,24.340866,-18.770256,4.3828044,-1.7755162,0.018100189,5.3728404,-5.2396646,19.484419,-40.31274,55.673607,-9.847916,2.9152534,8.821673,-6.3341208,-18.367975,35.982304,56.081924,-3.2131844,-0.7335555,0.7069478
68,0.3260776996612549,1.4468486309051514,127.76182556152344,0.520291170816128,1.4981026588204882,-92.01999422727008,-7.122101,3.8703206,-1.8550777,22.578808,-17.250278,-5.313353,-7.074933,-4.5889897,-7.2234745,24.182676,-18.765652,4.484498,-1.7770295,0.03228209,5.3461423,-5.2189674,19.46584,-40.27728,55.650673,-9.854521,2.9158647,8.82534,-6.3391232,-18.36881,35.963577,56.101875,-3.202316,-0.74006,0.69728374
69,0.3391740918159485,1.4201080799102783,127.76618194580078,0.5197687803158334,1.5583918519316255,-92.0368384024632,-7.1194253,3.8545277,-1.8447531,22.503824,-17.290087,-5.268265,-7.0448847,-4.595917,-7.216536,24.028912,-18.762959,4.5759506,-1.7780147,0.041355126,5.3133693,-5.197288,19.46044,-40.26485,55.62502,-9.885028,2.912701,8.831504,-6.341223,-18.369205,35.950848,56.12305,-3.1910949,-0.74983907,0.68531084
70,0.3556252121925354,1.390967845916748,127.77216339111328,0.5192422585380839,1.6221803508487886,-92.05499765161424,-7.1272836,3.835657,-1.8389909,22.445086,-17.3338,-5.2183657,-7.0195146,-4.602494,-7.2085614,23.877228,-18.761599,4.661223,-1.7788429,0.052445117,5.28288,-5.1799536,19.447985,-40.248165,55.604637,-9.914421,2.9067779,8.836497,-6.346398,-18.370293,35.928707,56.146404,-3.189449,-0.7643504,0.6759494
71,0.37851643562316895,1.3655705451965332,127.7744140625,0.5161701406856166,1.6891687923016303,-92.07686804530698,-7.1425195,3.8187551,-1.8301314,22.398346,-17.383566,-5.165055,-6.9973984,-4.605978,-7.196702,23.724306,-18.757746,4.743742,-1.7696704,0.067045994,5.2517514,-5.1753902,19.419333,-40.231987,55.604897,-9.935458,2.9014552,8.840076,-6.351148,-18.373442,35.906475,56.17453,-3.193233,-0.77831155,0.6652353
72,0.4037742018699646,1.332210898399353,127.77904510498047,0.5079861200681665,1.7590792835429787,-92.10478530582294,-7.1632986,3.8084483,-1.8105667,22.361906,-17.442507,-5.109696,-6.9779844,-4.6036944,-7.178016,23.5678,-18.74858,4.8268785,-1.7528528,0.08711548,5.2243342,-5.165123,19.382814,-40.195175,55.602337,-9.930422,2.902561,8.838884,-6.3615074,-18.377901,35.894463,56.209694,-3.2058105,-0.7867159,0.6529665
73,0.4377307891845703,1.2957459688186646,127.78375244140625,0.4931068317646141,1.8329282448109714,-92.14125417402092,-7.1899724,3.808216,-1.7751062,22.33448,-17.5112,-5.0529184,-6.963307,-4.593147,-7.149496,23.407522,-18.731781,4.913366,-1.7285632,0.11267292,5.205167,-5.1394935,19.342653,-40.110077,55.586887,-9.875404,2.914116,8.825378,-6.3808684,-18.382511,35.889977,56.250362,-3.2435172,-0.7878245,0.63729686
74,0.46642181277275085,1.2623708248138428,127.789306640625,0.4729190171173625,1.9105222846270993,-92.18437850239977,-7.2231774,3.8149717,-1.7289988,22.31696,-17.587955,-4.993927,-6.953129,-4.5759563,-7.1135254,23.244762,-18.70935,5.000785,-1.7043905,0.14588556,5.189236,-5.107795,19.285053,-39.983932,55.578053,-9.781738,2.931342,8.803446,-6.4133673,-18.388445,35.90158,56.30278,-3.2959862,-0.78417766,0.6182725
75,0.48890942335128784,1.232150673866272,127.79264831542969,0.4502829612074203,1.9894787851290454,-92.23012572521107,-7.261855,3.823118,-1.6799626,22.312462,-17.673,-4.9319005,-6.942421,-4.5570426,-7.0750184,23.079208,-18.685219,5.084912,-1.6759833,0.1824283,5.175752,-5.075523,19.224358,-39.862396,55.566036,-9.688117,2.9504158,8.78414,-6.4522705,-18.394545,35.92293,56.365383,-3.3403614,-0.77828896,0.6024838
76,0.5159643292427063,1.1963552236557007,127.7944564819336,0.4281009803034953,2.0675459300537526,-92.27477584601198,-7.303999,3.8272066,-1.6358348,22.321798,-17.765148,-4.8660707,-6.926976,-4.540982,-7.0388865,22.912212,-18.663866,5.161386,-1.6458671,0.220684,5.163169,-5.046533,19.169981,-39.78181,55.54417,-9.629955,2.9669726,8.777953,-6.4966555,-18.401215,35.95741,56.44057,-3.3505583,-0.7725735,0.5960794
77,0.5471624732017517,1.155746340751648,127.79473876953125,0.40901469751017105,2.1422037301470787,-92.31668201574806,-7.346214,3.82334,-1.5992707,22.344227,-17.866226,-4.794922,-6.904279,-4.5314574,-7.0056233,22.746563,-18.64916,5.2290096,-1.6149875,0.26163176,5.150568,-5.0270653,19.117163,-39.75955,55.51834,-9.6209545,2.9815435,8.789307,-6.549003,-18.411001,36.014507,56.53744,-3.3047566,-0.7669445,0.6055935
78,0.5789431929588318,1.1132625341415405,127.79659271240234,0.3911922870575667,2.215376213514326,-92.35812665269304,-7.3907204,3.8151855,-1.565944,22.379688,-17.975832,-4.7192283,-6.877337,-4.525329,-6.972807,22.581497,-18.638172,5.2900457,-1.579829,0.30439153,5.1403794,-5.010466,19.070631,-39.776176,55.481026,-9.642623,2.9965491,8.811736,-6.60655,-18.423817,36.08633,56.648167,-3.2223988,-0.760515,0.6265304
79,0.6184931397438049,1.06571364402771,127.80005645751953,0.3694450824946409,2.2911139998834393,-92.40077877171356,-7.442505,3.809294,-1.5332621,22.427904,-18.089748,-4.641698,-6.8489466,-4.516253,-6.9413466,22.40952,-18.623657,5.3456035,-1.5420928,0.34653997,5.1339445,-4.984757,19.041641,-39.803883,55.420395,-9.676777,3.0094063,8.839638,-6.6673236,-18.43464,36.1583,56.75781,-3.1379554,-0.753997,0.6478648
80,0.6618220806121826,1.0189909934997559,127.8029556274414,0.33808854004176814,2.3736453283151393,-92.44654701845565,-7.506935,3.8126843,-1.4987725,22.48957,-18.204319,-4.5650415,-6.820808,-4.4976087,-6.912327,22.221523,-18.597828,5.396746,-1.5106763,0.39847443,5.125612,-4.957501,18.99665,-39.80793,55.371666,-9.698891,3.0130465,8.87018,-6.72861,-18.451607,36.235332,56.850548,-3.074663,-0.7465226,0.6575684
81,0.6998329162597656,0.9726542830467224,127.80610656738281,0.29566792846473466,2.466275414097205,-92.49940135141834,-7.5894904,3.8289676,-1.4583994,22.56725,-18.318325,-4.491906,-6.801473,-4.466251,-6.884323,22.021685,-18.559,5.442278,-1.4793572,0.45183107,5.11765,-4.9213276,18.953918,-39.78295,55.316086,-9.708957,3.0048575,8.90496,-6.7945037,-18.466629,36.310093,56.926872,-3.0412605,-0.7403559,0.65028805
82,0.7510772943496704,0.9199932217597961,127.80477905273438,0.2451475473914307,2.5659864871576716,-92.55731992636957,-7.6849794,3.8540447,-1.414484,22.65779,-18.43258,-4.4202833,-6.7864904,-4.426379,-6.8572664,21.811302,-18.510557,5.4820642,-1.4480438,0.5050817,5.1111774,-4.874728,18.921652,-39.74558,55.245377,-9.719067,2.9885926,8.944946,-6.866731,-18.476671,36.385952,56.99628,-3.0235934,-0.7350674,0.63254696
83,0.8017937541007996,0.8674138188362122,127.8064956665039,0.18840880661851717,2.6674136719157624,-92.6127389471866,-7.7868633,3.882022,-1.3745695,22.761166,-18.551062,-4.3454127,-6.762478,-4.382403,-6.8340015,21.585077,-18.456272,5.518887,-1.4211257,0.56475776,5.1055613,-4.821151,18.890678,-39.703606,55.1695,-9.723581,2.9713771,8.983339,-6.939019,-18.485083,36.4546,57.05916,-3.0253303,-0.7282332,0.6125308
84,0.8572679162025452,0.8115320205688477,127.80973052978516,0.12771097296931758,2.76507603276918,-92.65814599856988,-7.8829265,3.907362,-1.3454742,22.865974,-18.671146,-4.262773,-6.711743,-4.338425,-6.8175287,21.328873,-18.394907,5.5553923,-1.392421,0.6333807,5.1028833,-4.7638125,18.865183,-39.677887,55.0865,-9.721935,2.9616168,9.013098,-6.995464,-18.49134,36.491077,57.107357,-3.0553637,-0.71774703,0.599202
85,0.9133382439613342,0.7413713335990906,127.81431579589844,0.06285177747532997,2.856878127571676,-92.69041301589026,-7.971918,3.9298158,-1.3295505,22.97324,-18.79365,-4.171393,-6.628195,-4.2943177,-6.808642,21.038475,-18.327888,5.5910773,-1.3665856,0.7219142,5.0998845,-4.7180624,18.815435,-39.66934,55.027573,-9.703921,2.9594107,9.033463,-7.031811,-18.50342,36.486942,57.140457,-3.1364565,-0.6997716,0.59545463
86,0.9755873084068298,0.6759674549102783,127.82120513916016,-0.007139652957523606,2.9459101063003765,-92.7138907203365,-8.0596285,3.9520023,-1.3229539,23.087715,-18.919289,-4.073666,-6.520716,-4.2482147,-6.8057756,20.719341,-18.253895,5.62504,-1.3271681,0.8216418,5.098787,-4.684947,18.7587,-39.690983,54.97825,-9.680536,2.9621103,9.048485,-7.040221,-18.51812,36.4302,57.149185,-3.2646499,-0.6767941,0.5978398
87,1.040156364440918,0.5995306372642517,127.82652282714844,-0.08064209617483556,3.0346611729562203,-92.73240259512929,-8.144645,3.9722013,-1.3234304,23.203045,-19.04585,-3.969883,-6.398314,-4.201891,-6.808126,20.381573,-18.173622,5.659638,-1.286294,0.9244045,5.098848,-4.6464214,18.707418,-39.718212,54.924625,-9.657684,2.9672627,9.058505,-7.0435452,-18.53373,36.368595,57.150097,-3.384446,-0.6547002,0.60199094
88,1.1115663051605225,0.5203765034675598,127.82732391357422,-0.15683566558622491,3.1255526517457324,-92.74972251247631,-8.22782,3.9894207,-1.3290749,23.317621,-19.173613,-3.8604116,-6.269357,-4.1569276,-6.8150487,20.033459,-18.086445,5.6972165,-1.2403258,1.0276499,5.095796,-4.616537,18.641708,-39.74759,54.89615,-9.643204,2.9695554,9.066544,-7.045597,-18.558517,36.330894,57.14696,-3.4439645,-0.6385539,0.605003
89,1.1866599321365356,0.43347784876823425,127.83110046386719,-0.23654827506371284,3.218199068592396,-92.77012235501324,-8.30901,4.005205,-1.3385146,23.434427,-19.305857,-3.7448246,-6.1344194,-4.111329,-6.824169,19.674263,-17.990692,5.7386813,-1.1928276,1.1296836,5.093391,-4.5825863,18.572542,-39.76692,54.878803,-9.640648,2.9698288,9.06996,-7.0594535,-18.590843,36.346397,57.143364,-3.4038951,-0.63220835,0.6074632
90,1.2677075862884521,0.34345173835754395,127.835693359375,-0.3198718656646441,3.3115160875086365,-92.7903998902695,-8.386996,4.019472,-1.3528156,23.551144,-19.440065,-3.6231792,-5.988713,-4.064777,-6.8364697,19.298962,-17.886238,5.782729,-1.1445372,1.2337712,5.0919456,-4.5460787,18.499601,-39.78167,54.87026,-9.644983,2.9695854,9.068535,-7.077071,-18.630938,36.392704,57.133766,-3.3003864,-0.6317732,0.6106474
91,1.356622576713562,0.24935127794742584,127.84178161621094,-0.40418600456340936,3.4074400074483973,-92.80362275405784,-8.465534,4.028295,-1.3747064,23.66852,-19.574734,-3.4963849,-5.836726,-4.0222864,-6.8568044,18.917566,-17.779749,5.8290315,-1.1014186,1.3389856,5.0867987,-4.505385,18.423555,-39.79323,54.86536,-9.647889,2.968243,9.065715,-7.0874577,-18.67603,36.43924,57.117416,-3.1893075,-0.6315071,0.6114783
92,1.4364482164382935,0.14546868205070496,127.84422302246094,-0.4866314197622793,3.507850072012257,-92.80270215467941,-8.5471735,4.0276303,-1.4067116,23.784365,-19.70601,-3.365356,-5.681658,-3.9882655,-6.8902106,18.53756,-17.676607,5.8770366,-1.0699989,1.4437048,5.0728865,-4.459078,18.346066,-39.803383,54.85941,-9.642349,2.9652262,9.065101,-7.0817757,-18.721952,36.455807,57.097343,-3.1270375,-0.62563294,0.6064481
93,1.5286242961883545,0.03786088898777962,127.84748077392578,-0.5710810873244719,3.618614383054079,-92.78401867099167,-8.642101,4.021017,-1.4523838,23.904696,-19.834932,-3.2283068,-5.519535,-3.957869,-6.943417,18.13913,-17.568264,5.927064,-1.0535696,1.551644,5.044546,-4.402637,18.268057,-39.808365,54.848297,-9.622987,2.9605422,9.067459,-7.0544534,-18.763441,36.42466,57.072845,-3.1412911,-0.60807556,0.59170574
94,1.6227405071258545,-0.0800105556845665,127.84937286376953,-0.6573066132488355,3.7370261256916715,-92.75194925748609,-8.745744,4.0086565,-1.5093296,24.027988,-19.96242,-3.0848503,-5.3498793,-3.9306438,-7.0120015,17.724749,-17.454914,5.979393,-1.0477177,1.6606692,5.0049167,-4.33879,18.190008,-39.81039,54.836243,-9.59613,2.9545643,9.07105,-7.014086,-18.799276,36.364098,57.04906,-3.199573,-0.5837872,0.5694197
95,1.717429757118225,-0.19964538514614105,127.84886169433594,-0.7362390397973454,3.8519092514502957,-92.71132909286239,-8.839713,3.9821677,-1.571243,24.145163,-20.087963,-2.9400177,-5.184164,-3.9179168,-7.0841827,17.341427,-17.357716,6.033371,-1.0471593,1.7616618,4.964367,-4.27315,18.112915,-39.817448,54.826435,-9.568933,2.947362,9.075406,-6.9702663,-18.831356,36.298595,57.03133,-3.2649102,-0.56341755,0.54623413
96,1.8204096555709839,-0.31850847601890564,127.84737396240234,-0.7993612486710697,3.9520299254490654,-92.66682940902554,-8.906935,3.9334896,-1.6321718,24.249607,-20.211643,-2.7974443,-5.0328274,-3.9309533,-7.148282,17.034464,-17.297464,6.088083,-1.0463753,1.8465577,4.933427,-4.21089,18.037842,-39.83723,54.82065,-9.547598,2.9393044,9.080231,-6.9301124,-18.863405,36.25178,57.021133,-3.30047,-0.55738884,0.5286893
97,1.9215086698532104,-0.44456711411476135,127.84114074707031,-0.8506263984946845,4.035355539818531,-92.61881082358848,-8.943694,3.8669746,-1.6935811,24.3405,-20.333809,-2.6581805,-4.8781223,-3.964473,-7.206142,16.7723,-17.267088,6.1488104,-1.0482161,1.9200674,4.9135976,-4.149816,17.965643,-39.86914,54.81835,-9.535516,2.9321125,9.08018,-6.897291,-18.899488,36.23843,57.02077,-3.2882857,-0.5748417,0.51855445
98,2.0328755378723145,-0.5817529559135437,127.83470153808594,-0.8929014388724288,4.1074225992341304,-92.56488552111288,-8.959812,3.785578,-1.7579775,24.423296,-20.455383,-2.5202057,-4.7237253,-4.0154634,-7.2622733,16.550566,-17.262636,6.2140946,-1.054637,1.9855237,4.9005723,-4.086656,17.896645,-39.90828,54.815617,-9.527912,2.925219,9.077128,-6.865715,-18.940338,36.24473,57.023964,-3.2485611,-0.607815,0.5126862
99,2.144427537918091,-0.7149039506912231,127.82228088378906,-0.9162382656747387,4.1688501731752385,-92.505869295837,-8.954485,3.6782799,-1.820616,24.493874,-20.574234,-2.3838694,-4.6056333,-4.097771,-7.3098817,16.439856,-17.300856,6.2724905,-1.0588689,2.0317922,4.896583,-4.0276065,17.8312,-39.958797,54.81259,-9.521988,2.9150293,9.080874,-6.8260894,-18.984577,36.246113,57.019756,-3.2080731,-0.6414507,0.51048344
100,2.2681996822357178,-0.8658309578895569,127.80642700195312,-0.9107589967214963,4.2198751157337755,-92.4423472476245,-8.927913,3.5343778,-1.8764855,24.549883,-20.689173,-2.2468925,-4.560659,-4.226135,-7.3416233,16.512436,-17.399385,6.312461,-1.0543425,2.0464196,4.9035244,-3.976784,17.771795,-40.024044,54.807373,-9.514434,2.8982291,9.101318,-6.7727194,-19.028376,36.21929,57.00173,-3.1927786,-0.66104895,0.5111856
101,2.386091709136963,-1.0124982595443726,127.78392791748047,-0.8803472052930054,4.259641195642249,-92.37113909609772,-8.875389,3.3585083,-1.930046,24.587029,-20.79892,-2.1171315,-4.57013,-4.392246,-7.360154,16.737944,-17.552885,6.325015,-1.0336907,2.0334928,4.9231067,-3.9404414,17.712542,-40.109467,54.805244,-9.501196,2.869746,9.146805,-6.6924715,-19.073317,36.13795,56.95992,-3.2305171,-0.65428215,0.5163476
102,2.5133938789367676,-1.164337396621704,127.75698852539062,-0.8275947292504926,4.288214913344634,-92.29302259438947,-8.798192,3.1533866,-1.9819515,24.608372,-20.905043,-1.9923868,-4.6239924,-4.5937243,-7.3669724,17.094238,-17.755314,6.318072,-1.001512,1.9956486,4.953726,-3.9147146,17.655952,-40.213326,54.804676,-9.4857645,2.8328476,9.21026,-6.5928063,-19.116655,36.019497,56.902428,-3.3015757,-0.63192594,0.5256224
103,2.6381583213806152,-1.3150792121887207,127.72341918945312,-0.7390512551547824,4.30717875162966,-92.21433793525314,-8.70236,2.9040647,-2.0216608,24.618109,-21.007444,-1.858546,-4.770482,-4.854024,-7.3524685,17.663223,-18.022238,6.305252,-0.9664653,1.9198015,4.991159,-3.895198,17.605455,-40.329247,54.805187,-9.474729,2.7959833,9.278884,-6.4944186,-19.157967,35.905815,56.845566,-3.3582811,-0.61382806,0.53577024
104,2.7640535831451416,-1.4716894626617432,127.68086242675781,-0.6006060135024076,4.318224835017355,-92.14165086613764,-8.594898,2.5940568,-2.038424,24.622654,-21.108242,-1.7010989,-5.0569715,-5.196893,-7.306217,18.524927,-18.367435,6.3006983,-0.93357795,1.7933595,5.0312037,-3.8836107,17.559904,-40.456036,54.812782,-9.475883,2.7668204,9.340355,-6.4114857,-19.202953,35.834057,56.79847,-3.3535097,-0.6196216,0.54434747
105,2.895369291305542,-1.6266640424728394,127.6275634765625,-0.3963065575378197,4.326604537752491,-92.0713332509574,-8.478014,2.2035398,-2.0286627,24.615602,-21.205761,-1.5088998,-5.4726543,-5.637668,-7.225208,19.649546,-18.816057,6.323632,-0.912937,1.600984,5.065229,-3.8754294,17.525938,-40.60146,54.823563,-9.49665,2.7489564,9.39243,-6.354349,-19.25093,35.836338,56.77643,-3.241076,-0.6666586,0.55201185
106,3.031055212020874,-1.7807295322418213,127.56379699707031,-0.13358764554232652,4.329627475797875,-92.00182132539713,-8.344521,1.7418271,-1.9976456,24.591522,-21.297596,-1.2913274,-5.994103,-6.1623297,-7.1114097,20.999401,-19.347412,6.363434,-0.90929127,1.3449198,5.097585,-3.857773,17.513773,-40.74909,54.822628,-9.52758,2.7388597,9.439604,-6.332284,-19.282658,35.89745,56.792385,-3.0575829,-0.7415441,0.5581254
107,3.1794891357421875,-1.9345464706420898,127.48601531982422,0.16873946270892395,4.317574763258481,-91.94301279820718,-8.1877985,1.2338808,-1.9470674,24.557125,-21.3835,-1.0641633,-6.6473074,-6.751716,-6.9599085,22.636784,-19.903908,6.390242,-0.8971998,1.0463339,5.1459565,-3.8441646,17.508213,-40.893524,54.819065,-9.561916,2.7315888,9.483204,-6.309887,-19.317802,35.959705,56.79265,-2.8766432,-0.81423306,0.56148326
108,3.32598876953125,-2.0840466022491455,127.40255737304688,0.4931986281430428,4.280572212715445,-91.90466217848733,-8.001548,0.7035301,-1.8775843,24.519604,-21.463554,-0.8432643,-7.458421,-7.3878593,-6.765225,24.623724,-20.427216,6.3753595,-0.8688307,0.7219984,5.229784,-3.8279226,17.50792,-41.002026,54.80123,-9.583378,2.7239258,9.521417,-6.2759414,-19.36116,35.98335,56.746136,-2.7726662,-0.8559996,0.5597159
109,3.4759297370910645,-2.235886573791504,127.30850219726562,0.8535760879898894,4.2181891465595465,-91.88381518575032,-7.781626,0.13081227,-1.7923197,24.46368,-21.519217,-0.6262004,-8.413195,-8.0884285,-6.5346856,26.957293,-20.969267,6.3095694,-0.8209154,0.3584959,5.3507833,-3.8095279,17.512938,-41.066242,54.767334,-9.58157,2.7181425,9.542084,-6.2330065,-19.413553,35.978798,56.65512,-2.7847252,-0.8484926,0.5425091
110,3.632552146911621,-2.3856148719787598,127.20829010009766,1.2563057657105239,4.1351222715322695,-91.87727720420615,-7.5329957,-0.49177995,-1.6902634,24.393936,-21.55839,-0.40623647,-9.495369,-8.851343,-6.263557,29.590786,-21.525879,6.214812,-0.762425,-0.050844546,5.4988713,-3.7894127,17.522715,-41.096634,54.725163,-9.564738,2.7148147,9.549719,-6.194333,-19.463747,35.967094,56.544765,-2.866519,-0.81113034,0.5132103
111,3.7683870792388916,-2.5336952209472656,127.10942077636719,1.6728028396584742,4.028825724922597,-91.89449361312745,-7.248268,-1.1224808,-1.567513,24.315825,-21.602392,-0.19130626,-10.707714,-9.626458,-5.9292626,32.47901,-21.94125,6.107521,-0.70091474,-0.48031196,5.6768875,-3.764772,17.53588,-41.09157,54.67897,-9.54532,2.7082553,9.56683,-6.165207,-19.49916,35.918007,56.41908,-2.9672556,-0.7713397,0.49050888
112,3.9051332473754883,-2.6816956996917725,127.0051498413086,2.0743382765427874,3.897197624994195,-91.94507766477095,-6.925622,-1.7195038,-1.4191087,24.243158,-21.676792,0.010145473,-12.06285,-10.366325,-5.50941,35.595722,-22.067017,6.0022264,-0.63685536,-0.90140945,5.8952985,-3.7301316,17.561817,-41.05364,54.61435,-9.536443,2.6937976,9.614624,-6.1282,-19.531435,35.78811,56.24371,-3.036651,-0.755261,0.49681234
113,4.040372371673584,-2.828366994857788,126.8957290649414,2.464551134153518,3.7334542210183765,-92.03914662131086,-6.552771,-2.289094,-1.235528,24.163893,-21.782698,0.21062797,-13.625507,-11.080858,-4.9582663,39.089977,-21.80369,5.9233894,-0.56051964,-1.3203248,6.168426,-3.6808553,17.614683,-40.978592,54.50284,-9.534505,2.6754432,9.692906,-6.0931916,-19.559717,35.5772,56.024086,-3.0643306,-0.7720577,0.5507403
114,4.171808242797852,-2.9775471687316895,126.78228759765625,2.8536670682823457,3.5413254482303995,-92.16925543513564,-6.133623,-2.8471575,-1.0245595,24.071287,-21.905561,0.40966067,-15.365868,-11.775982,-4.298471,42.912678,-21.244267,5.8586664,-0.47941613,-1.7458154,6.485564,-3.6165867,17.686235,-40.861233,54.35921,-9.533744,2.6538749,9.792109,-6.0750527,-19.570557,35.313553,55.786335,-3.0738099,-0.8075433,0.63486284
115,4.2996931076049805,-3.1294188499450684,126.66462707519531,3.2220828769971637,3.3351844610838786,-92.31924262455226,-5.6961007,-3.3650665,-0.8033,23.994373,-22.051155,0.577831,-17.16941,-12.40843,-3.612732,46.77334,-20.544722,5.759964,-0.405464,-2.159155,6.8253255,-3.5347285,17.778032,-40.719795,54.208454,-9.55235,2.6218069,9.918989,-6.0497565,-19.560938,34.970505,55.5112,-3.0756183,-0.8531153,0.71951795
116,4.422375202178955,-3.2908294200897217,126.54571533203125,3.550148887117101,3.1289653812004454,-92.47254677364712,-5.268029,-3.815151,-0.58709586,23.959303,-22.22264,0.6863399,-18.92656,-12.947369,-2.9872181,50.396374,-19.866776,5.5730586,-0.35165328,-2.5425344,7.165589,-3.4335692,17.890583,-40.573845,54.07694,-9.609592,2.5718217,10.0805435,-5.995469,-19.526876,34.52335,55.181797,-3.078723,-0.9001606,0.7748204
117,4.529385089874268,-3.454444169998169,126.4337387084961,3.8447813038326464,2.9156348582510248,-92.65563355968024,-4.832022,-4.201651,-0.34443495,23.949774,-22.421364,0.7186153,-20.6714,-13.420741,-2.4213037,53.87226,-19.171638,5.2264533,-0.3013189,-2.9062726,7.5172024,-3.3120286,18.02575,-40.423664,53.954376,-9.716311,2.495916,10.300066,-5.918594,-19.46478,33.958485,54.78581,-3.0852587,-0.9416649,0.8053374
118,4.614650726318359,-3.6224777698516846,126.31871795654297,4.112855286445923,2.6914036789987303,-92.86673988000031,-4.38318,-4.5389743,-0.07647078,23.9563,-22.642988,0.6937736,-22.451233,-13.849598,-1.8799013,57.315884,-18.40829,4.75019,-0.25327906,-3.2557561,7.885822,-3.1704097,18.184504,-40.26223,53.831135,-9.860772,2.3996594,10.566531,-5.829791,-19.373611,33.28957,54.3397,-3.0917654,-0.98408824,0.8228294
119,4.686434745788574,-3.8058643341064453,126.2065200805664,4.334266476463989,2.4746505931972274,-93.04760754394052,-3.975723,-4.814974,0.15655467,24.033987,-22.893223,0.6357806,-24.176653,-14.190508,-1.4026334,60.500202,-17.730858,4.2504478,-0.24451025,-3.5673597,8.24019,-3.0113275,18.3639,-40.09743,53.73768,-10.028109,2.2958302,10.8355875,-5.713561,-19.253225,32.535206,53.86815,-3.0960653,-1.0392225,0.8078845
120,4.739657878875732,-4.0005106925964355,126.10166931152344,4.486400896584055,2.283070200977291,-93.13978371979486,-3.6570804,-5.0126195,0.29271233,24.228378,-23.172827,0.56888694,-25.754587,-14.393616,-1.0311145,63.196205,-17.285913,3.8514407,-0.31206158,-3.8157349,8.547716,-2.8404443,18.557772,-39.938175,53.709545,-10.20391,2.1973372,11.0632515,-5.555313,-19.105726,31.713505,53.39779,-3.096827,-1.1189082,0.7411717
121,4.775591850280762,-4.208963394165039,126.00413513183594,4.564690285234648,2.1200289454823875,-93.12631407172593,-3.4392562,-5.128633,0.31940523,24.562378,-23.491863,0.49264386,-27.172964,-14.407745,-0.743658,65.388565,-17.209032,3.6228008,-0.4731746,-3.9960754,8.80028,-2.670318,18.763489,-39.820633,53.760235,-10.395051,2.103621,11.253425,-5.336801,-18.926619,30.805405,52.910492,-3.1210108,-1.2318946,0.59194905
122,4.802623271942139,-4.434452056884766,125.91822052001953,4.57872106294211,1.975805674212309,-93.03866084983852,-3.2961898,-5.171189,0.27177426,25.012375,-23.847515,0.39508766,-28.47825,-14.269558,-0.53664017,67.19876,-17.39348,3.4991758,-0.7042869,-4.120815,9.014078,-2.4992898,18.979181,-39.73136,53.876793,-10.605452,2.0088327,11.424739,-5.070792,-18.713268,29.807173,52.401955,-3.161145,-1.3702126,0.3793644
123,4.815286636352539,-4.66567850112915,125.84403991699219,4.5267509659681044,1.8484440231217465,-92.89108900204909,-3.2116826,-5.1388397,0.15907955,25.544086,-24.223562,0.28191596,-29.667158,-14.057515,-0.47644424,68.60111,-17.624475,3.4044704,-0.98418206,-4.190297,9.192324,-2.3112726,19.19788,-39.602154,54.056175,-10.816855,1.9180582,11.555807,-4.7870536,-18.475863,28.762966,51.914257,-3.1631057,-1.5199697,0.15900667
124,4.813573360443115,-4.908558368682861,125.78404235839844,4.407191722811431,1.7361375742431415,-92.69765278453423,-3.172026,-5.0295115,-0.010388176,26.128248,-24.605026,0.15925334,-30.735628,-13.857391,-0.62500733,69.56429,-17.685123,3.2575197,-1.2943524,-4.2025957,9.339385,-2.0887706,19.409224,-39.360203,54.2955,-11.008252,1.8365602,11.624885,-4.5097227,-18.233154,27.71898,51.480328,-3.07111,-1.6671165,-0.013257162
125,4.802140235900879,-5.1609344482421875,125.73466491699219,4.19290264525739,1.6423382250793133,-92.43090869243278,-3.1929083,-4.8168426,-0.2686636,26.785,-24.993465,0.017683893,-31.665308,-13.679,-1.0482543,70.05198,-17.575987,3.0553317,-1.6642412,-4.1263094,9.456054,-1.8390228,19.602966,-39.00434,54.627853,-11.155307,1.766764,11.611522,-4.216058,-17.993458,26.674818,51.0741,-2.8403177,-1.8084575,-0.13694012
126,4.7840189933776855,-5.420165061950684,125.69637298583984,3.8923957473339836,1.56799716048697,-92.0929871705588,-3.2687812,-4.5107307,-0.6100407,27.515757,-25.394114,-0.14421505,-32.462833,-13.491491,-1.6966305,70.08676,-17.392187,2.8310661,-2.0942283,-3.967644,9.542267,-1.5725756,19.774496,-38.565845,55.053688,-11.273122,1.7053437,11.532391,-3.8940487,-17.759672,25.611696,50.676796,-2.5078716,-1.9506756,-0.23559742
127,4.759751796722412,-5.700613021850586,125.66523742675781,3.558116376686946,1.5069425013790423,-91.74255890124556,-3.356235,-4.1622686,-0.9701499,28.264538,-25.796377,-0.30718616,-33.16098,-13.31196,-2.4595497,69.72545,-17.059147,2.5562756,-2.5208678,-3.7786603,9.60323,-1.2770494,19.92353,-38.019814,55.51641,-11.401031,1.6481833,11.420751,-3.5739405,-17.545282,24.545843,50.317413,-2.1380763,-2.0936875,-0.28832307
128,4.731189727783203,-5.998353958129883,125.63589477539062,3.243310094637817,1.4516240664267197,-91.43811266151698,-3.4148836,-3.8219204,-1.28369,28.977869,-26.190311,-0.45100287,-33.79025,-13.158591,-3.2276907,69.02408,-16.502274,2.2026432,-2.8836465,-3.6111212,9.64453,-0.9337227,20.053608,-37.334785,55.949852,-11.576623,1.5919992,11.309313,-3.282872,-17.370228,23.495502,50.016655,-1.7939653,-2.23631,-0.27391386
129,4.6891865730285645,-6.294139385223389,125.60237884521484,2.946541848278736,1.4046234833783717,-91.19374957409431,-3.4148228,-3.4870856,-1.5417124,29.591507,-26.579412,-0.57089186,-34.356907,-13.038953,-4.028028,67.95643,-15.706598,1.7250406,-3.1675467,-3.4597206,9.668307,-0.5250965,20.162249,-36.46668,56.325474,-11.790493,1.5622563,11.189461,-3.0073774,-17.248215,22.467302,49.767277,-1.4503057,-2.3712358,-0.13026461
130,4.645769119262695,-6.599850177764893,125.56489562988281,2.64447648444089,1.3681737364280797,-90.97879776575932,-3.3849943,-3.1345973,-1.7763386,30.153194,-26.967625,-0.6746488,-34.837566,-12.937401,-4.911227,66.5054,-14.71606,1.1525391,-3.4056914,-3.2984536,9.67539,-0.063676536,20.246162,-35.439674,56.672676,-12.027977,1.5527186,11.048446,-2.7261224,-17.182085,21.450968,49.539524,-1.0822732,-2.4984953,0.11489705
131,4.595942497253418,-6.918847560882568,125.52469635009766,2.3574257216498764,1.3334179259509085,-90.78576149542488,-3.373038,-2.784777,-1.9824488,30.774881,-27.344309,-0.7679986,-35.22263,-12.834764,-5.8020716,64.741745,-13.543924,0.5669186,-3.607375,-3.1497276,9.667412,0.42341405,20.31261,-34.33,57.010265,-12.321968,1.5124283,10.912956,-2.4550512,-17.177633,20.438263,49.32221,-0.754668,-2.6294398,0.34752327
132,4.541677951812744,-7.246495723724365,125.48052978515625,2.1052792920912506,1.2913737098630047,-90.60665923442052,-3.4262412,-2.460604,-2.1545002,31.567501,-27.698854,-0.85464996,-35.506325,-12.713021,-6.620624,62.734116,-12.1992,0.048325118,-3.7806818,-3.0359435,9.646929,0.91475546,20.37745,-33.21477,57.34947,-12.707201,1.3904393,10.80898,-2.2054067,-17.242298,19.419104,49.099796,-0.5331456,-2.7773025,0.45390415
133,4.471035480499268,-7.574156761169434,125.42791748046875,1.8931821060821943,1.250475159152622,-90.45930978937253,-3.5404887,-2.1688457,-2.2610433,32.510597,-28.028214,-0.94180185,-35.690716,-12.586242,-7.3977766,60.42563,-10.642806,-0.43173867,-3.914047,-2.9637132,9.607474,1.4338028,20.450262,-32.083668,57.6554,-13.232922,1.1545534,10.764926,-1.9771347,-17.383177,18.415352,48.870857,-0.50889885,-2.9556253,0.38864517
134,4.396806716918945,-7.917343616485596,125.36862182617188,1.709671386891353,1.2117878695335424,-90.34153867361304,-3.6963546,-1.8995613,-2.3139465,33.56027,-28.337729,-1.029523,-35.776325,-12.446042,-8.166685,57.804756,-8.887617,-0.89817077,-4.0065665,-2.9191651,9.552704,1.9945966,20.53228,-30.905136,57.913574,-13.870304,0.8392439,10.755754,-1.7521313,-17.60036,17.422178,48.629044,-0.6210378,-3.1541393,0.21855101
135,4.31329870223999,-8.269139289855957,125.2860336303711,1.5497686087973608,1.1554751799962404,-90.21609375003483,-3.9074614,-1.6515812,-2.367626,34.770206,-28.618542,-1.1209055,-35.762535,-12.245445,-8.831963,55.005978,-7.0105934,-1.2642213,-4.080625,-2.8974192,9.498891,2.5643227,20.630867,-29.725063,58.16578,-14.534734,0.49438864,10.728837,-1.5195364,-17.89299,16.38766,48.35945,-0.7099298,-3.3516128,-0.001636228
136,4.223966121673584,-8.629426002502441,125.18990325927734,1.4088415193603232,1.0617723266751726,-90.04536686788693,-4.1869144,-1.4259877,-2.4768665,36.195347,-28.86255,-1.220415,-35.650955,-11.946475,-9.286205,52.159893,-5.08078,-1.4459143,-4.153822,-2.8928528,9.463916,3.1058912,20.757765,-28.595636,58.45406,-15.144769,0.17061509,10.633762,-1.2625861,-18.2585,15.252532,48.04137,-0.61625063,-3.5278597,-0.21494545
137,4.107716083526611,-8.991090774536133,125.07337188720703,1.290286339307312,0.9146665718051042,-89.8157575017741,-4.5350065,-1.2387707,-2.6452363,37.86666,-29.058516,-1.3350306,-35.41443,-11.5215435,-9.453383,49.21039,-3.0539696,-1.3980356,-4.228914,-2.9121416,9.465188,3.623495,20.920538,-27.51337,58.77569,-15.703021,-0.13759087,10.429352,-0.95746535,-18.691381,13.975419,47.650364,-0.27226362,-3.688258,-0.4183814
138,3.99123477935791,-9.366588592529297,124.93608093261719,1.1957139802364412,0.7284049317884975,-89.54862410015616,-4.939463,-1.0915886,-2.8417258,39.73596,-29.209726,-1.4728345,-35.062077,-11.005784,-9.380096,46.112392,-0.90839225,-1.1740105,-4.2927303,-2.9575753,9.490195,4.137304,21.122208,-26.459932,59.103992,-16.248695,-0.44833553,10.151136,-0.6119912,-19.189148,12.58847,47.201466,0.22803639,-3.8416345,-0.6357923
139,3.88446044921875,-9.754984855651855,124.7728500366211,1.1136938472576419,0.5279046439798574,-89.25713721363623,-5.3975134,-0.9693548,-3.0748951,41.74902,-29.332758,-1.6346246,-34.65081,-10.462888,-9.1481695,43.013966,1.2480801,-0.84412783,-4.3415337,-3.0189662,9.511737,4.634516,21.37066,-25.464,59.445225,-16.754961,-0.73048514,9.86656,-0.26163054,-19.759802,11.143922,46.736526,0.79919237,-3.9731896,-0.850907
140,3.7523858547210693,-10.14608097076416,124.58769226074219,1.034440794771035,0.33824787396280886,-88.95462716302849,-5.9061103,-0.8555557,-3.3530884,43.853577,-29.445135,-1.8203697,-34.23962,-9.949845,-8.848985,40.062874,3.3104775,-0.47598925,-4.370082,-3.0852022,9.504492,5.103477,21.675858,-24.55575,59.8016,-17.194592,-0.95432734,9.643321,0.06388553,-20.417551,9.692101,46.289288,1.357828,-4.066972,-1.0469718
141,3.6104273796081543,-10.53787899017334,124.37015533447266,0.9597648170730789,0.16802053624144034,-88.6337952708425,-6.4801893,-0.75068706,-3.6792388,46.0705,-29.553513,-2.037519,-33.834488,-9.428419,-8.393291,37.228046,5.3016787,-0.03358645,-4.3850613,-3.1555567,9.454152,5.540307,22.04763,-23.786076,60.18361,-17.574465,-1.1063405,9.497371,0.37339038,-21.166517,8.234435,45.86576,1.9491773,-4.10009,-1.2264451
142,3.4731500148773193,-10.93375301361084,124.12113952636719,0.893190896854375,0.002593534910519394,-88.29067703921868,-7.110946,-0.6729643,-4.045474,48.4115,-29.649473,-2.2929413,-33.401543,-8.892538,-7.7630587,34.446064,7.2636557,0.5024299,-4.386291,-3.2363744,9.379178,5.9599214,22.487623,-23.124195,60.574978,-17.905916,-1.204354,9.3927965,0.6852848,-22.003143,6.743919,45.443806,2.5989203,-4.0869865,-1.3943393
143,3.322927236557007,-11.337859153747559,123.83755493164062,0.8351053186584892,-0.1675362619244077,-87.94356944049575,-7.763557,-0.62580854,-4.444046,50.818626,-29.731867,-2.583246,-32.948856,-8.43323,-7.1702433,31.818192,9.126786,1.0431104,-4.3605165,-3.3271966,9.303154,6.381097,22.990572,-22.473148,60.93704,-18.166744,-1.2663591,9.319932,0.9870787,-22.934381,5.231987,45.011513,3.1937997,-4.065999,-1.538517
144,3.169266939163208,-11.752974510192871,123.51797485351562,0.778637937744381,-0.35068090121566026,-87.61190902133654,-8.407009,-0.6080512,-4.869788,53.24098,-29.800663,-2.8991976,-32.498455,-8.131685,-6.836605,29.46218,10.815998,1.4989604,-4.2985315,-3.4225736,9.249412,6.828725,23.544977,-21.727808,61.22752,-18.331688,-1.3100337,9.26809,1.2693142,-23.970348,3.7152932,44.553497,3.6242676,-4.0743365,-1.6453502
145,3.0250957012176514,-12.16466999053955,123.16334533691406,0.7114831071383831,-0.5545086069665898,-87.29742812389266,-9.081362,-0.6017868,-5.3342147,55.74888,-29.800104,-3.250992,-32.045223,-8.012258,-6.876584,27.393406,12.336693,1.8383156,-4.199704,-3.512435,9.229598,7.3135867,24.141111,-20.855564,61.437714,-18.355583,-1.3320189,9.258374,1.5343277,-25.119972,2.203419,44.064957,3.8518074,-4.1216207,-1.6814425
146,2.876713991165161,-12.574487686157227,122.77075958251953,0.6390525953567365,-0.7715246147520217,-86.99196982898128,-9.784933,-0.61620426,-5.836134,58.34307,-29.754791,-3.6427217,-31.591805,-8.014007,-7.166292,25.560661,13.720149,2.1138687,-4.074621,-3.597367,9.226087,7.8284817,24.775402,-19.902637,61.59284,-18.260866,-1.326231,9.288231,1.7885963,-26.383017,0.69190305,43.56029,3.9428854,-4.186757,-1.6634939
147,2.7298734188079834,-12.988759994506836,122.34009552001953,0.5835102852773911,-0.9879005506553413,-86.70048581602386,-10.432571,-0.6784309,-6.348523,60.882267,-29.780241,-4.047478,-31.178274,-8.09266,-7.56885,23.991287,14.934407,2.3623457,-3.9277828,-3.6892192,9.217745,8.365565,25.445553,-18.888954,61.709232,-18.127092,-1.3071237,9.312061,2.0347638,-27.755047,-0.826958,43.050358,3.9427564,-4.261296,-1.6533818
148,2.578523874282837,-13.409289360046387,121.8632583618164,0.5684941019823442,-1.1907191559673744,-86.42734913768676,-10.940903,-0.8093162,-6.8453336,63.227085,-29.99181,-4.425449,-30.845375,-8.217313,-7.9450235,22.71858,15.939203,2.6153915,-3.7645712,-3.803184,9.183677,8.918282,26.152763,-17.833326,61.801476,-18.033375,-1.2885065,9.285546,2.2715967,-29.234373,-2.3580782,42.549393,3.8950253,-4.3369045,-1.7143619
149,2.4385149478912354,-13.842230796813965,121.34906005859375,0.5953856294555142,-1.3870797083560955,-86.17003030936817,-11.273213,-1.0050175,-7.346663,65.32635,-30.434221,-4.759526,-30.581459,-8.416369,-8.339551,21.767414,16.636087,2.8749983,-3.580223,-3.9394753,9.129289,9.486917,26.895737,-16.7565,61.873596,-18.023685,-1.2719637,9.187556,2.5207212,-30.829706,-3.9072266,42.035313,3.7702274,-4.417167,-1.8784972
150,2.317603588104248,-14.276719093322754,120.79438018798828,0.6535800443966309,-1.5809465967116534,-85.92766017654826,-11.482959,-1.2439499,-7.857725,67.269714,-31.041115,-5.055966,-30.372744,-8.703335,-8.802961,21.119825,17.071018,3.1220675,-3.3712025,-4.090382,9.060895,10.074404,27.671759,-15.646306,61.922565,-18.04858,-1.2499669,9.045639,2.7939725,-32.542164,-5.4784155,41.5067,3.5584452,-4.5040126,-2.106949
151,2.190979480743408,-14.72633171081543,120.20630645751953,0.7480438635727712,-1.7551115019152927,-85.70725384394913,-11.627769,-1.5109463,-8.3272505,69.13231,-31.758408,-5.3106875,-30.24065,-9.026622,-9.197622,20.708017,17.443565,3.361275,-3.14943,-4.263412,8.959546,10.681753,28.483204,-14.466245,61.957325,-18.047014,-1.2287889,8.886508,3.0631585,-34.353855,-7.0664444,41.017475,3.3299966,-4.587871,-2.3583705
152,2.0537378787994385,-15.194408416748047,119.58806610107422,0.8838475736497191,-1.8918904671062495,-85.51621312781882,-11.766324,-1.7926418,-8.705407,70.9869,-32.530834,-5.5224495,-30.205307,-9.332945,-9.383155,20.457949,17.954369,3.5986032,-2.929266,-4.471316,8.805584,11.3180895,29.336945,-13.173872,61.98087,-17.958439,-1.2143236,8.736434,3.2909365,-36.23722,-8.660187,40.62452,3.1514654,-4.6605024,-2.593803
153,1.9190641641616821,-15.664217948913574,118.93331909179688,1.0785819075531964,-1.9700561590213446,-85.3783598535564,-11.898673,-2.0838013,-8.949625,72.806145,-33.39163,-5.6598797,-30.318068,-9.617838,-9.304129,20.404612,18.691828,3.8444722,-2.6988432,-4.7421465,8.574727,12.02008,30.231754,-11.714678,61.978767,-17.707066,-1.2066625,8.575673,3.464074,-38.183098,-10.253206,40.345264,3.014111,-4.7212453,-2.8087769
154,1.7712721824645996,-16.146963119506836,118.24760437011719,1.3260738963709298,-2.0051656620786447,-85.28184980663279,-12.003057,-2.38322,-9.10312,74.57162,-34.35049,-5.725845,-30.548628,-9.904999,-9.036597,20.559904,19.540106,4.0983477,-2.4661703,-5.0732965,8.27867,12.797753,31.16619,-10.104858,61.947697,-17.343645,-1.2026696,8.397889,3.6766133,-40.193577,-11.86212,40.085648,2.8984075,-4.7757516,-3.0263739
155,1.609794020652771,-16.637046813964844,117.52751159667969,1.5958482196301853,-2.0342903927509144,-85.18071654427975,-12.102619,-2.6888602,-9.243473,76.36475,-35.3185,-5.77518,-30.804647,-10.185012,-8.635249,20.832424,20.3893,4.3498354,-2.2510636,-5.4313984,7.9803224,13.5973835,32.157223,-8.422578,61.893246,-16.99865,-1.2036263,8.252804,3.7028077,-42.26555,-13.440689,40.034508,2.787652,-4.822741,-3.2546577
156,1.4397250413894653,-17.126052856445312,116.77738189697266,1.8586801177452241,-2.095518524736305,-85.02920003837247,-12.2182865,-3.0016623,-9.44312,78.26846,-36.20936,-5.866796,-30.99297,-10.45037,-8.158562,21.130407,21.131908,4.584106,-2.1015537,-5.7885237,7.705802,14.407612,33.230225,-6.725129,61.820892,-16.80264,-1.2063456,8.18628,3.7416296,-44.385143,-15.0212345,40.009453,2.7491715,-4.8659406,-3.495468
157,1.247293472290039,-17.62452507019043,115.9976806640625,2.1075306523131463,-2.198129286675705,-84.81988745170057,-12.361177,-3.3068533,-9.678907,80.322,-37.000217,-5.9758954,-31.110014,-10.672107,-7.5382447,21.469772,21.722288,4.7862277,-2.0187812,-6.1398945,7.465072,15.251462,34.40071,-5.020663,61.702534,-16.809856,-1.2159283,8.234369,3.695511,-46.535175,-16.641314,40.077198,2.7705789,-4.912556,-3.7431552
158,1.048224925994873,-18.12371253967285,115.18363952636719,2.3584055479392525,-2.3230226317629765,-84.57556693307276,-12.515659,-3.6087797,-9.924698,82.4774,-37.737545,-6.0876565,-31.185955,-10.859088,-6.7733383,21.862476,22.237516,4.970084,-1.9771792,-6.509687,7.239885,16.144484,35.670624,-3.2746902,61.53675,-16.949564,-1.2290393,8.36116,3.594828,-48.712753,-18.29982,40.222607,2.8325956,-4.9600906,-3.999719
159,0.8308409452438354,-18.62939453125,114.34159088134766,2.6192915686806177,-2.465544508231952,-84.29547555929625,-12.64897,-3.9501996,-10.249151,84.67352,-38.44937,-6.269882,-31.225946,-11.07512,-6.023087,22.308317,22.695173,5.151912,-1.957526,-6.9070187,7.046779,17.041618,37.05087,-1.4935693,61.351257,-17.163641,-1.2314254,8.508664,3.5237594,-50.93054,-19.932411,40.40207,2.9281058,-4.9937096,-4.279993
160,0.602192223072052,-19.14180564880371,113.46862030029297,2.893246926803669,-2.6205519459430096,-83.97952720263937,-12.7278595,-4.3738294,-10.715834,86.85188,-39.164814,-6.59482,-31.23171,-11.385346,-5.4459267,22.796421,23.120335,5.3468685,-1.9419924,-7.3387,6.899015,17.903044,38.55363,0.31653515,61.174183,-17.397308,-1.2073178,8.616292,3.5523305,-53.20684,-21.468826,40.587612,3.0566075,-4.9991856,-4.5964613
161,0.3639674186706543,-19.66408348083496,112.5650863647461,3.1792373488310917,-2.800815318667771,-83.61859344438102,-12.719592,-4.9004664,-11.35797,88.99719,-39.90773,-7.1092544,-31.197334,-11.821364,-5.117548,23.376902,23.4964,5.554719,-1.9282387,-7.805547,6.813269,18.739113,40.192364,2.166148,61.009083,-17.669996,-1.1600394,8.64354,3.6965306,-55.559437,-22.884031,40.77195,3.2595873,-4.9502993,-5.006556
162,0.11640402674674988,-20.18160629272461,111.6247787475586,3.476871182157065,-3.005557779780706,-83.21592999393738,-12.637758,-5.5059896,-12.12629,91.142395,-40.667423,-7.7702227,-31.123955,-12.347922,-4.9424725,24.03676,23.820639,5.7656407,-1.9291625,-8.305045,6.7713213,19.589567,41.963146,4.069787,60.846203,-18.008295,-1.0927783,8.624859,3.8862007,-57.991486,-24.195957,41.002094,3.532108,-4.86528,-5.4851017
163,-0.13132493197917938,-20.70396614074707,110.65608215332031,3.7930603854459832,-3.20994192314092,-82.78934596112292,-12.518683,-6.166805,-12.959077,93.30395,-41.42756,-8.511704,-31.022114,-12.931547,-4.820846,24.668741,24.134876,5.980767,-1.9004356,-8.838385,6.708775,20.677248,43.81596,6.1768093,60.493965,-18.25933,-0.988281,8.598713,4.138121,-60.49464,-25.443628,41.334606,3.8073757,-4.7954454,-5.9200306
164,-0.3833920359611511,-21.235790252685547,109.65741729736328,4.136736060433406,-3.387244994506332,-82.3565733028604,-12.403217,-6.858235,-13.7988405,95.4968,-42.17131,-9.269185,-30.905483,-13.534657,-4.654331,25.165714,24.481033,6.202605,-2.0075774,-9.396618,6.674782,21.429665,45.78909,8.126948,60.485706,-18.647385,-0.84256953,8.679525,4.2092233,-63.058422,-26.51857,41.740623,4.0005436,-4.786195,-6.202825
165,-0.6402626633644104,-21.766590118408203,108.62455749511719,4.51580243221482,-3.5282561862439024,-81.9246353931016,-12.319778,-7.5930285,-14.620796,97.742035,-42.86855,-10.039721,-30.785263,-14.143574,-4.3841496,25.497416,24.881727,6.439472,-2.0683887,-9.984971,6.562408,22.350378,47.84711,10.260209,60.355537,-18.874643,-0.6232563,8.823517,4.313913,-65.69562,-27.532242,42.31096,4.0940366,-4.879211,-6.274977
166,-0.9020333886146545,-22.29859161376953,107.55319213867188,4.922646822084022,-3.647758299754701,-81.48349316488496,-12.236614,-8.38418,-15.447932,100.02762,-43.54188,-10.851109,-30.654573,-14.779748,-4.072406,25.725212,25.30899,6.6878066,-2.1579046,-10.601357,6.4315143,23.351938,49.984314,12.538079,60.211357,-19.051868,-0.3480928,9.024529,4.3824983,-68.40471,-28.439228,42.982098,4.121463,-5.036939,-6.2055635
167,-1.1646966934204102,-22.84441566467285,106.44731140136719,5.3501310959052955,-3.758722794367811,-81.02618830848714,-12.095367,-9.203133,-16.306173,102.31376,-44.25318,-11.69403,-30.50476,-15.461781,-3.7966747,25.894876,25.72055,6.93175,-2.2905192,-11.235324,6.2798953,24.45506,52.182648,14.890445,60.087738,-19.229116,-0.06810848,9.281339,4.3579774,-71.17671,-29.202133,43.739937,4.112464,-5.1955776,-6.0782814
168,-1.4376499652862549,-23.405977249145508,105.30094909667969,5.789951851256186,-3.874377404663873,-80.54577266789607,-11.84116,-10.019104,-17.217455,104.559715,-45.057224,-12.551717,-30.325666,-16.209072,-3.6365314,26.0488,26.077513,7.1542964,-2.481219,-11.87518,6.1105227,25.671873,54.422215,17.246004,60.013203,-19.453539,0.16405335,9.595672,4.1802573,-73.99981,-29.781351,44.555172,4.0945234,-5.2909193,-5.9755507
169,-1.705420732498169,-23.96995735168457,104.11557006835938,6.22619467519402,-3.998329445803275,-80.02594246478007,-11.455687,-10.825691,-18.212738,106.75415,-45.990463,-13.432702,-30.09721,-17.036995,-3.6590295,26.15998,26.35676,7.350429,-2.7582066,-12.506261,5.933444,27.058128,56.711647,19.606323,59.9711,-19.775599,0.32728383,10.002083,3.8007545,-76.87664,-30.14024,45.39173,4.0635657,-5.281672,-5.8765345
170,-1.9775245189666748,-24.536775588989258,102.90071868896484,6.668519693481904,-4.124201537628528,-79.47525125372009,-10.961399,-11.628464,-19.266987,108.920006,-47.023197,-14.338933,-29.831741,-17.93423,-3.8082187,26.220423,26.583261,7.5282197,-3.1036806,-13.1351595,5.7417784,28.59761,59.058655,22.0184,59.969482,-20.15842,0.44697627,10.490465,3.1878915,-79.81162,-30.232985,46.26463,4.005921,-5.2101564,-5.7517943
171,-2.263118267059326,-25.114341735839844,101.65480041503906,7.144084758234655,-4.2507026157241965,-78.92357473620967,-10.369556,-12.415307,-20.264656,111.06886,-48.09944,-15.000033,-29.568594,-18.88231,-3.9737442,26.30367,26.790752,7.693634,-3.4659822,-13.781311,5.51943,30.186003,61.438923,24.469618,60.058125,-20.511368,0.54317355,11.002918,2.297156,-82.77473,-29.996553,47.197365,3.9287958,-5.1364655,-5.672938
172,-2.536961555480957,-25.70405387878418,100.37794494628906,7.7475932194928845,-4.393116362433404,-78.41119245019976,-9.694453,-13.243362,-20.997068,113.18626,-49.125904,-15.000033,-29.37516,-19.926851,-3.9599369,26.530272,26.990107,7.8761563,-3.791249,-14.545761,5.269476,31.73939,63.82315,26.963474,60.269974,-20.738125,0.631319,11.491702,1.1118327,-85.6754,-29.397026,48.161613,3.8231893,-5.1194,-5.727837
173,-2.798739433288574,-26.30307960510254,99.08145904541016,8.549986357638373,-4.558620149884668,-77.94455072134075,-8.9665,-14.17662,-21.554224,115.23494,-50.000305,-15.000033,-29.28733,-21.1406,-3.7334328,26.925806,27.17998,8.083418,-4.084832,-15.561518,5.005447,33.33805,66.22267,29.658985,60.56532,-20.794127,0.72651154,11.929215,-0.280035,-88.34252,-28.490746,49.022964,3.6942072,-5.182234,-5.989649
174,-3.074219226837158,-26.903968811035156,97.7667007446289,9.54268301607291,-4.7009368284112405,-77.46866854400834,-8.386389,-15.273932,-21.96391,117.08737,-50.000305,-15.000033,-29.281696,-22.54583,-3.375665,27.337088,27.408972,8.307229,-4.454473,-16.89899,4.67497,35.2497,68.666725,32.76462,60.87869,-20.730505,0.810861,12.3652525,-1.7809714,-90.527916,-27.41785,49.6003,3.4412975,-5.288265,-6.4931507
175,-3.362435817718506,-27.509998321533203,96.427734375,10.683810016530913,-4.8348113926420275,-77.00479903599259,-7.8090034,-16.452736,-22.278593,118.94098,-50.000305,-15.000033,-29.3586,-24.048906,-2.7976959,27.807062,27.65965,8.5462055,-4.9107046,-18.566776,4.281572,37.673016,71.14335,36.359295,61.199757,-20.592375,0.8592947,12.852616,-3.321585,-92.095535,-26.353577,49.823875,2.9154851,-5.401383,-7.2408895
176,-3.6501386165618896,-28.1249942779541,95.05233001708984,11.813482005489726,-4.993301945665908,-76.60207670962552,-7.1297293,-17.509996,-22.557116,120.82082,-50.000305,-15.000033,-29.404892,-25.432055,-2.02897,28.288908,27.948082,8.767859,-5.391938,-20.339926,3.8795066,40.636898,73.597404,40.348705,61.554577,-20.41998,0.8473424,13.440185,-4.8800187,-93.16323,-25.417648,49.75142,2.044853,-5.477285,-8.153762
177,-3.942422866821289,-28.74365997314453,93.64590454101562,12.927233526356583,-5.170867353502472,-76.24363798385055,-6.395747,-18.408745,-22.783688,122.775375,-50.000305,-15.000033,-29.426544,-26.685856,-1.0377756,28.77034,28.348576,8.9886675,-5.9058933,-22.135054,3.474296,44.062126,75.991585,44.692898,61.96057,-20.23469,0.7675587,14.136061,-6.511173,-93.94684,-24.634895,49.47471,0.8077958,-5.489905,-9.149386
178,-4.2465314865112305,-29.362255096435547,92.20635223388672,14.04338230141728,-5.36233062362493,-75.92761626686917,-5.611573,-19.17547,-22.952053,124.78159,-50.000305,-15.000033,-29.427181,-27.850029,0.12884653,29.245005,28.837952,9.206754,-6.438392,-23.909637,3.0541854,47.87637,78.29014,49.342003,62.44554,-19.998245,0.6284236,14.929646,-8.212344,-94.57806,-23.948235,49.04946,-0.6831454,-5.444052,-10.199748
179,-4.550588130950928,-29.984525680541992,90.7336196899414,15.152750781362888,-5.578246602339827,-75.70232031223135,-4.667411,-19.839825,-23.084864,126.74615,-50.000305,-15.000033,-29.37396,-28.90145,1.422242,29.73986,29.261536,9.391134,-6.9105415,-25.604816,2.632358,52.004704,80.41997,54.075592,63.035034,-19.657677,0.42289048,15.862286,-9.941493,-95.09649,-23.27269,48.50468,-2.2805402,-5.344443,-11.296086
180,-4.849928855895996,-30.619903564453125,89.2398681640625,16.247845101805837,-5.8298106319578755,-75.62143632834412,-3.447886,-20.42354,-23.211884,128.57011,-50.000305,-15.000033,-29.231129,-29.81031,2.7867773,30.286509,29.46236,9.506822,-7.237122,-27.17263,2.2424998,56.347507,82.294174,58.66123,63.71045,-19.16194,0.1486349,16.974823,-11.641699,-95.519226,-22.539675,47.864185,-3.8440316,-5.206062,-12.440403
181,-5.142989158630371,-31.275495529174805,87.71261596679688,17.358319995149305,-6.208638577138076,-75.65363147445704,-1.8101926,-20.943094,-23.428371,130.2146,-50.000305,-15.000033,-29.039532,-30.570736,4.4171476,31.100967,30.000067,9.541449,-7.44603,-28.661968,1.9818358,61.078514,83.84997,63.096306,64.33115,-18.416368,-0.24047257,18.388014,-13.38975,-95.87575,-21.697515,47.104855,-5.397085,-5.0247817,-13.669528
182,-5.422928333282471,-31.966096878051758,86.1531753540039,18.366828689458462,-6.695182686919685,-75.79501616427457,0.23389915,-21.22261,-23.764376,131.72487,-50.000305,-15.000033,-29.003277,-31.053242,6.2905517,32.730682,30.000067,9.489311,-7.6073728,-29.793802,1.8353859,65.98696,85.00347,67.28536,64.8715,-17.479445,-0.6787258,19.963675,-15.351676,-96.20698,-20.68137,46.107765,-7.06723,-4.769535,-14.97531
183,-5.670844554901123,-32.6673469543457,84.61514282226562,18.97476140912982,-6.977664841135927,-76.19164049407142,2.359824,-20.93806,-24.010937,133.13873,-50.000305,-15.000033,-28.29871,-31.086128,7.4267135,33.15209,30.000067,9.275877,-7.678804,-29.793802,1.5513355,69.314766,85.59582,69.69316,65.48057,-16.543318,-1.0671004,21.521606,-17.690956,-96.61877,-19.347673,44.654854,-8.942276,-4.4004407,-16.286335
184,-5.891860485076904,-33.3363037109375,83.18022918701172,19.591373387656905,-7.063269796198119,-76.84833868277963,4.392849,-20.64478,-23.887772,134.48979,-50.000305,-15.000033,-27.194725,-31.2161,8.015503,32.726288,28.311144,9.049882,-7.4910445,-29.793802,1.2290508,71.73288,85.8385,71.46666,66.06158,-15.78033,-1.3467954,22.982464,-20.315058,-96.91752,-17.560701,43.41294,-10.523026,-4.078236,-17.424492
185,-6.101867198944092,-34.018218994140625,81.72611236572266,20.312938944217475,-7.376239504232837,-77.60005962615193,6.9771433,-20.357975,-23.72671,135.7717,-50.000305,-15.000033,-25.743032,-31.826075,7.98005,33.274414,21.044962,8.928947,-7.1969786,-29.793802,1.1715225,73.42383,85.80924,72.75949,66.71812,-15.2277355,-1.503794,24.059158,-23.32687,-97.17298,-15.220777,42.212284,-11.958819,-3.7972746,-18.406424
186,-6.286953449249268,-34.746273040771484,80.12200927734375,21.073711654152,-7.692594900287383,-78.53191436768648,9.824803,-19.98749,-23.404196,136.97316,-50.000305,-15.000033,-23.996002,-32.647457,7.469532,33.937916,10.345679,8.917043,-6.7004523,-29.793802,1.217021,74.62047,85.575645,73.69521,67.38087,-14.795801,-1.5825952,24.906143,-26.809143,-97.366585,-12.230905,41.165707,-13.219249,-3.5697634,-19.297388
187,-6.42464542388916,-35.38665008544922,78.5838394165039,21.750348003353505,-7.905486549530493,-79.62904019476144,12.61763,-19.638308,-22.900671,138.10315,-50.000305,-15.000033,-22.841984,-33.23117,7.2072325,35.180805,-0.54825735,9.013778,-5.893454,-29.793802,1.3970635,74.94417,85.18328,74.09384,67.949356,-14.505287,-1.5183506,25.725416,-30.724197,-97.440865,-8.560064,40.62719,-14.052646,-3.4074264,-20.122545
188,-6.497454643249512,-35.88344192504883,77.25960540771484,22.216379507108325,-7.863933663264526,-80.81533891463457,14.965195,-19.431196,-22.234911,139.21165,-50.000305,-15.000033,-23.109367,-33.175564,7.8776727,37.380104,-8.420653,9.120221,-4.5329595,-29.793802,1.773567,74.2335,85.12992,74.07867,68.582054,-14.410268,-1.2054235,26.534582,-30.939611,-97.41101,-8.231232,40.4862,-14.184897,-3.3010423,-20.879217
189,-6.5107574462890625,-36.2017822265625,76.22784423828125,22.46459940864397,-7.4916712153721345,-82.19625172148402,16.778969,-19.496595,-21.375143,140.34196,-50.000305,-15.000033,-25.346529,-32.15826,9.962484,41.0121,-12.282211,9.110545,-2.658477,-29.793802,2.2730925,72.33814,85.05057,73.96352,69.05391,-14.424294,-0.51138204,27.864538,-31.053133,-97.29831,-7.9241624,41.205055,-13.483318,-3.259331,-21.674288
190,-6.494544982910156,-36.52175521850586,75.31884002685547,22.56235022497295,-6.799383330276406,-83.67830734736985,18.101982,-19.799282,-20.378008,141.5323,-50.000305,-15.000033,-28.921011,-30.4287,12.845604,45.708046,-13.947405,8.947825,-0.5998771,-29.793802,2.6575282,69.42609,84.93861,73.66123,69.629166,-14.511544,0.4608738,29.5212,-31.067053,-97.08118,-7.6619096,42.514267,-12.127214,-3.278259,-22.463528
191,-6.4618916511535645,-36.910545349121094,74.63330078125,22.54458139936575,-6.1563933269151425,-85.18380800144261,19.403166,-20.220915,-19.344767,142.61954,-50.000305,-15.000033,-32.31801,-28.447372,15.598159,50.336403,-14.612603,8.641431,1.5149424,-29.793802,3.206929,66.113754,84.783875,72.99917,70.42659,-14.713984,1.4632082,30.544867,-30.83194,-96.754745,-7.442424,44.368607,-10.391904,-3.3540118,-22.91242
192,-6.4409003257751465,-37.36040115356445,74.28316497802734,23.411301808340173,-5.94143835671086,-86.57709697547331,19.281084,-21.541246,-17.655647,143.18028,-46.993805,-15.000033,-34.514046,-27.708166,18.384035,53.561256,-15.333412,8.607474,3.1779296,-29.793802,3.713772,55.339684,82.92681,62.75137,71.54802,-15.489534,1.4277781,32.65654,-31.390469,-95.46613,-5.9656143,45.776073,-9.778764,-3.1699228,-23.353802
193,-6.376893043518066,-37.82468795776367,74.1995620727539,24.445524853873106,-6.495407146670856,-87.97613605065604,17.650133,-22.30064,-14.875108,142.69409,-38.49194,-15.000033,-34.522186,-27.785765,20.318102,54.90475,-16.24853,8.773115,5.3908763,-29.793802,5.382585,47.5919,80.94656,54.420624,72.815895,-16.875502,1.4088306,31.523384,-30.311552,-94.73909,-5.139503,48.106495,-8.314852,-3.119726,-22.69662
194,-6.26613187789917,-38.27067565917969,74.30889892578125,25.72038341745444,-7.526796265536641,-89.20799715577293,14.691121,-21.94992,-11.471951,141.71005,-26.632816,-15.000033,-33.283703,-28.637962,21.71728,54.99467,-16.774382,9.0625105,7.5911574,-29.793802,7.5811467,40.31025,78.33815,45.61108,74.46045,-18.692232,1.2739114,28.873304,-27.687885,-93.75707,-5.20399,50.76432,-6.6414294,-3.0675318,-21.398823
195,-6.1752543449401855,-38.69671630859375,74.54933166503906,26.925453275178864,-8.578387922316047,-90.06689780811064,10.628634,-20.376928,-8.390027,140.4641,-13.205209,-15.000033,-31.543802,-29.867344,22.446909,54.25749,-16.98361,9.35368,9.327875,-29.68887,9.590775,34.326878,75.07111,37.53573,76.003265,-20.461332,1.1635313,25.93336,-23.869282,-92.42548,-6.228589,53.32693,-5.1573987,-3.0676684,-19.68465
196,-6.147645473480225,-39.13292694091797,74.8542709350586,27.486212074124573,-9.25678403338878,-90.63696817042917,6.7467403,-18.567526,-6.6038027,139.10475,-1.3299822,-15.000033,-29.888916,-30.585783,22.423542,53.2921,-17.053051,9.483846,10.498125,-28.995285,10.881811,30.104809,71.30066,31.15871,76.88944,-21.63764,1.1758378,23.724852,-19.504744,-90.77258,-8.001782,55.381527,-4.2631025,-3.193355,-17.874517
197,-6.184441089630127,-39.5854606628418,75.16531372070312,27.193456913977034,-9.474341359966411,-91.04999582658745,3.6749845,-18.092499,-6.40864,137.43275,7.84697,-15.000033,-28.414238,-30.426306,21.730417,52.27519,-17.108175,9.456331,11.288022,-27.671087,11.42496,27.455767,67.09484,26.14158,76.774605,-21.978722,1.2370181,22.526728,-14.905889,-88.79992,-10.109398,57.06219,-3.962295,-3.6403172,-15.76727
198,-6.28184175491333,-39.71455001831055,75.68798828125,27.914895939784678,-9.073958869035192,-89.52192044996285,-9.451322,10.455525,-1.026386,135.89186,30.000067,15.000033,-27.964296,-32.48409,20.847078,50.118176,-16.39683,9.83298,10.854965,-28.260313,11.091593,25.755402,64.94306,22.460539,76.52636,-21.358961,2.0031347,20.02896,-11.810094,-87.37473,-10.5687685,59.900085,-3.1813793,-4.5496116,-12.384125
199,-6.226867198944092,-40.157814025878906,75.81732940673828,24.540733591104914,-8.542311778240963,-88.52222270326519,-11.588296,9.8899145,-4.0603404,135.73218,30.000067,15.000033,-26.127464,-30.150028,16.836308,49.049114,-16.47351,9.307095,9.323645,-24.481659,9.209954,24.123747,59.2459,17.320501,75.74435,-21.43518,1.4827983,20.853796,-7.1008883,-83.61754,-12.533772,60.11651,-4.271869,-5.1415057,-11.143049
200,-6.209850311279297,-40.536712646484375,76.07669830322266,22.775476187681296,-8.327889697247853,-89.33585314455664,-11.646474,9.276834,-4.9372673,135.05933,30.000067,15.000033,-24.59871,-28.055744,15.445969,47.71289,-16.195248,8.928702,9.825495,-22.19815,9.309867,24.894701,54.07702,15.664153,73.54731,-21.1359,1.3023247,21.1362,-3.4840522,-80.063095,-14.190443,59.93044,-4.9388494,-5.547413,-9.951909
201,-6.192765712738037,-40.85608673095703,76.45747375488281,21.916369998079336,-7.942109160652942,-90.03605026467996,-12.232854,9.464546,-5.163689,134.9251,30.000067,15.000033,-23.604649,-26.894161,14.851638,46.035805,-15.525463,8.754022,10.259877,-20.986843,9.403829,25.496393,49.305626,14.640376,71.46336,-21.038685,1.1052138,21.706696,-0.92401993,-76.499084,-15.145283,59.508293,-5.565699,-5.5827284,-9.563998
202,-6.166075706481934,-41.144649505615234,76.91943359375,21.695797416083007,-7.359796915213231,-90.60175519320089,-13.294023,9.918819,-4.9402046,135.06607,30.000067,15.000033,-23.004572,-26.44105,14.749137,44.07165,-14.5638,8.746559,10.641029,-20.558527,9.373971,25.748405,44.795845,13.772217,69.53411,-21.01966,0.8678583,22.62322,0.8885057,-72.918655,-15.505713,59.037624,-6.2423663,-5.3923125,-9.739429
203,-6.152523517608643,-41.40332794189453,77.4206771850586,21.79258752899643,-6.696972734840088,-91.00398858831751,-14.698813,10.582988,-4.552337,135.41174,30.000067,15.000033,-22.625145,-26.398975,14.780938,42.0718,-13.483094,8.768595,10.885161,-20.57798,9.287961,25.855642,40.559265,13.037468,67.72374,-20.930103,0.65385216,23.55319,2.1626406,-69.42249,-15.48941,58.571613,-6.905347,-5.1141777,-10.10871
204,-6.148836612701416,-41.63839340209961,77.90038299560547,21.885953528226167,-6.078090206304627,-91.227996861466,-16.298658,11.398202,-4.2801743,135.88484,30.000067,15.000033,-22.298407,-26.459354,14.630627,40.26289,-12.438997,8.681487,10.935093,-20.705544,9.220233,25.954342,36.676647,12.341101,66.0547,-20.614586,0.53793144,24.144697,3.0527842,-66.11565,-15.255724,58.152275,-7.484805,-4.8983593,-10.289109
205,-6.179681301116943,-41.83046340942383,78.357421875,21.942643925428097,-5.466755172025475,-91.23062929973516,-18.197617,12.66823,-4.1783266,136.59436,30.000067,15.000033,-22.075304,-26.591343,14.229614,38.66054,-11.3817835,8.423092,10.786786,-20.898338,9.085218,25.91683,33.178722,11.763689,64.72598,-20.03649,0.6494296,24.21394,3.5511162,-63.042976,-14.954154,57.93558,-7.879415,-4.76685,-10.221497
206,-6.247037887573242,-41.98482894897461,78.79051971435547,22.00624312455336,-4.7652807003558095,-90.96522308458977,-20.542221,14.364474,-4.1298766,137.5474,30.000067,15.000033,-22.047634,-26.838346,13.609509,37.16642,-10.252714,8.042457,10.421946,-21.199583,8.782221,25.65542,30.026596,11.301826,63.695137,-19.300713,0.9185556,23.95856,3.7360113,-60.191208,-14.645733,57.8793,-8.129008,-4.65291,-10.057373
207,-6.330288410186768,-42.12314987182617,79.19268798828125,22.158088028416717,-4.10868168126821,-90.56737647165932,-22.977575,15.601319,-4.124408,138.46362,30.000067,15.000033,-22.069248,-27.241581,12.9269085,35.823868,-9.204612,7.6451216,9.942878,-21.639818,8.553047,25.363022,27.246655,10.672228,62.675774,-18.456795,1.1202228,23.603863,3.812721,-57.581482,-14.24532,57.73896,-8.387246,-4.5774045,-9.744907
208,-6.388305187225342,-42.25269317626953,79.54364776611328,22.294894744372602,-3.6030926010966473,-90.072387532005,-25.338737,16.029112,-4.142498,139.14577,30.000067,15.000033,-21.96193,-27.713955,12.1359005,34.653408,-8.376343,7.3063297,9.356798,-22.068846,8.516303,25.199562,24.909187,9.5168915,61.469246,-17.555616,1.035868,23.373,3.9654548,-55.27994,-13.62352,57.32479,-8.812732,-4.5636086,-9.226996
209,-6.392602443695068,-42.38014602661133,79.8239517211914,22.463608410652082,-3.3677953308166835,-89.48502764278486,-27.39014,15.330408,-3.9902203,139.51721,30.000067,15.000033,-21.58002,-28.35782,11.238409,33.656204,-7.797597,7.074568,8.651521,-22.507935,8.803691,25.169447,23.111849,7.4755816,60.111393,-16.5523,0.5246059,23.2312,4.2132745,-53.355663,-12.639156,56.57882,-9.513836,-4.652878,-8.343154
210,-6.371104717254639,-42.50636291503906,80.04960632324219,22.68628446167567,-3.3487001130340204,-88.82041132247586,-29.206324,13.87736,-3.666943,139.68398,30.000067,15.000033,-20.993927,-29.167177,10.261463,32.802944,-7.390769,6.9055977,7.9058375,-22.984848,9.305498,25.058714,21.89332,4.7492275,58.921455,-15.451436,-0.26626194,23.079021,4.424806,-51.84159,-11.365436,55.745277,-10.367731,-4.8370123,-7.153003
211,-6.357730865478516,-42.63035202026367,80.23551940917969,22.957034608511748,-3.415334714045481,-88.19667109535682,-30.887524,12.00935,-3.2865813,139.65228,30.000067,15.000033,-20.37489,-30.00271,9.355813,32.080055,-7.1344514,6.763375,7.3355484,-23.498627,9.880745,24.749763,21.19411,1.8496877,58.032345,-14.376564,-1.1145964,23.043442,4.5595956,-50.730976,-10.005624,55.053646,-11.183706,-5.0596485,-5.9289093
212,-6.372283935546875,-42.72649002075195,80.37786865234375,23.059739984884985,-3.3833293846600756,-87.59527188193226,-32.89072,10.614418,-3.2209616,139.54712,30.000067,15.000033,-19.8846,-30.56775,8.429255,31.460926,-6.997182,6.5691004,6.9682927,-23.836617,10.29842,24.277641,20.856323,-0.66733694,57.343853,-13.445975,-1.7947414,23.261778,4.6164174,-49.98153,-8.810631,54.63075,-11.780686,-5.249896,-4.9424615
213,-6.429548740386963,-42.801273345947266,80.46781921386719,22.920090423651295,-3.178604449104608,-86.96172305201246,-35.423454,9.960924,-3.6340365,139.40526,30.000067,15.000033,-19.591782,-30.781319,7.395639,30.943188,-6.9981985,6.2442136,6.709344,-23.927422,10.509843,23.709759,20.807436,-2.6235385,56.648888,-12.635714,-2.2858243,23.915764,4.6392217,-49.575478,-7.831106,54.356636,-12.17251,-5.390118,-4.1930017
214,-6.521561622619629,-42.858245849609375,80.50940704345703,22.614300084912177,-2.8874255453256743,-86.28835952202726,-38.304478,9.645997,-4.3869843,139.18884,30.000067,15.000033,-19.402267,-30.769846,6.275729,30.513882,-7.1320825,5.8404045,6.494875,-23.84194,10.630208,23.084354,21.030891,-4.259959,55.89948,-11.873962,-2.6916056,24.905935,4.598424,-49.504467,-6.965853,54.14107,-12.446651,-5.5075436,-3.564177
215,-6.61707878112793,-42.90467071533203,80.50455474853516,22.2437220317916,-2.5672843775688663,-85.64345598538046,-41.30484,9.308694,-5.2802505,138.88371,30.000067,15.000033,-19.273285,-30.637697,5.2280765,30.140429,-7.3368206,5.492998,6.372989,-23.679577,10.717218,22.517267,21.420095,-5.586622,55.090244,-11.189624,-2.9805613,25.960136,4.431454,-49.719463,-6.249771,54.048992,-12.531259,-5.5874114,-3.15781
216,-6.688848972320557,-42.93052291870117,80.47222137451172,21.923448251102183,-2.28005186985987,-85.09365317107661,-44.172348,8.59067,-6.0842547,138.46573,30.000067,15.000033,-19.166948,-30.508598,4.4176064,29.800821,-7.551388,5.3393865,6.368421,-23.55177,10.840484,22.148567,21.83676,-6.575702,54.19772,-10.59101,-3.1340914,26.825813,4.0352035,-50.157166,-5.7048507,54.148476,-12.376509,-5.6108217,-3.085284
217,-6.710424423217773,-43.49330520629883,80.10942077636719,19.702245626028798,-4.43603692722281,-90.3505581391831,-24.952326,-18.38804,-13.187061,139.31131,5.939709,-15.000033,-16.208748,-25.68355,6.7444415,30.335949,-8.704668,4.7481494,12.222279,-20.630333,14.93661,22.30551,22.179516,-6.9902816,52.830692,-10.145178,-3.1335704,27.44532,3.514361,-50.89475,-5.461794,54.336933,-11.886182,-5.5684505,-3.4493186
218,-6.743649482727051,-43.55599594116211,79.99687194824219,19.187473116450345,-4.459740729858973,-90.52598917627962,-25.713522,-19.016924,-14.715741,138.96582,3.9441724,-15.000033,-15.82877,-25.009336,6.6864767,30.032484,-8.971866,4.987814,12.8801155,-20.108696,15.463622,22.459404,22.473797,-6.850879,51.47626,-9.7711935,-3.0344224,27.94704,2.7030845,-51.91727,-5.348751,54.680553,-11.073037,-5.4804926,-4.197782
219,-6.774905204772949,-43.62501525878906,79.8615951538086,18.516697116951843,-4.4770865901268255,-90.70039220524667,-26.390535,-19.527508,-16.633373,138.68608,1.8052968,-15.000033,-15.444204,-24.148012,6.575861,29.74297,-9.234989,5.209633,13.459174,-19.437326,15.864758,22.763153,22.754137,-6.5690722,50.22393,-9.329265,-2.8453948,28.453575,1.5585591,-53.10941,-5.188239,55.198147,-10.212719,-5.3566437,-5.131513
220,-6.843931198120117,-43.68598937988281,79.71805572509766,17.541600155545147,-4.42214485876775,-90.66935459235482,-27.29858,-19.61449,-19.198181,138.65477,-0.24197145,-15.000033,-15.052111,-23.028202,6.067213,29.415543,-9.445066,5.2194085,13.752256,-18.512783,15.962889,23.082651,23.029524,-6.5988755,49.398785,-8.664021,-2.587502,29.073662,0.08067398,-54.40676,-4.880541,55.87424,-9.543327,-5.199285,-6.029107
221,-6.934469223022461,-43.7210693359375,79.5636978149414,16.047418678158156,-4.260056678424101,-90.32420947006678,-28.459757,-19.160587,-22.882214,139.14037,-2.4420192,-15.000033,-14.599815,-21.44962,4.9182343,28.959686,-9.564435,4.9108534,13.650015,-17.173506,15.655962,23.39371,23.349127,-7.0836864,49.136333,-7.5261884,-2.246062,29.970139,-1.7581798,-55.811886,-4.3952208,56.780518,-9.228474,-4.9894657,-6.9115396
222,-7.037261009216309,-43.74090576171875,79.41300964355469,14.409979279532577,-4.020891828275257,-89.65342897572177,-30.28383,-18.378212,-27.123837,139.89482,-4.447674,-15.000033,-14.1747,-19.863304,3.4141376,28.452135,-9.653043,4.500736,13.201211,-15.774041,15.1101265,23.736853,23.724325,-7.8031664,49.25892,-6.0901637,-1.7971526,31.028503,-3.9303813,-57.33231,-3.7924101,57.875748,-9.103453,-4.7267904,-7.866989
223,-7.100249767303467,-43.763431549072266,79.26779174804688,12.97778999129691,-3.7813314329470162,-88.87641548729071,-32.758263,-17.474478,-31.045444,140.43561,-5.9398956,-15.000033,-13.835998,-18.580502,1.9655678,28.042686,-9.77751,4.139896,12.677176,-14.570669,14.562407,24.087229,24.095308,-8.65156,49.604454,-4.814934,-1.266462,31.956661,-6.342834,-58.882656,-3.1220675,58.962402,-8.935704,-4.4313397,-8.78781
224,-7.109951972961426,-43.81775665283203,79.1399154663086,11.613030771460917,-3.5615449544034,-88.30436165657952,-37.184937,-13.86788,-32.44441,140.24802,-6.404383,-9.892919,-13.458812,-17.314081,0.7446688,27.513351,-9.797722,3.8439527,12.379485,-13.330337,14.044226,24.442486,24.384869,-9.50347,49.993122,-4.131867,-0.7077354,32.484306,-8.868542,-60.353535,-2.468272,59.820694,-8.516205,-4.1254325,-9.583697
225,-7.100402355194092,-43.88313674926758,79.0224609375,10.38242212299282,-3.336519873559009,-87.88829700453987,-41.219822,-10.994956,-33.677483,139.56378,-6.656057,-6.083729,-13.184866,-16.127357,-0.24055874,27.044327,-9.767131,3.5898647,12.2562275,-12.190985,13.536284,24.828772,24.55999,-10.347758,50.446186,-4.2245455,-0.05968392,32.561905,-11.61535,-61.682316,-1.93201,60.454205,-7.7265673,-3.7419658,-10.222286
226,-7.077936172485352,-43.94203567504883,78.92407989501953,9.209883464013744,-3.1081812397828377,-87.55836182712,-45.151848,-8.387571,-34.69709,138.52876,-6.713013,-2.8573482,-12.971711,-14.968202,-1.1099693,26.61066,-9.6961975,3.3375185,12.222178,-11.112424,13.01079,25.247553,24.649467,-11.211929,51.033897,-4.804067,0.666834,32.35775,-14.572654,-62.885124,-1.4764868,60.919582,-6.734851,-3.2898335,-10.787316
227,-7.03652286529541,-43.998905181884766,78.84424591064453,8.171465411939423,-2.9048850798252186,-87.34956973422936,-48.610085,-6.2299824,-35.31355,136.9507,-6.686391,-0.43509227,-12.778051,-13.910782,-1.7992593,26.183979,-9.60834,3.1255026,12.326659,-10.154714,12.550176,25.647316,24.678905,-12.027399,51.662506,-5.5946636,1.3038111,31.923227,-17.449581,-63.975285,-0.97552586,61.104427,-5.751668,-2.90827,-11.358197
228,-6.978095531463623,-44.06106185913086,78.7899169921875,7.361873698859351,-2.7450525578395686,-87.28023822018042,-51.209553,-4.7006474,-35.331463,134.6343,-6.6342134,0.9423137,-12.575495,-13.056285,-2.2463577,25.743761,-9.534557,2.9969807,12.59157,-9.402737,12.225127,25.982162,24.668587,-12.712664,52.23466,-6.3209476,1.6819452,31.299507,-19.969479,-64.95952,-0.29580083,60.902374,-4.985557,-2.7352605,-12.0068865
229,-6.894122123718262,-44.14447021484375,78.7671127319336,6.849225518085795,-2.585723871468269,-87.35381600836247,-52.90261,-3.8718777,-34.647793,131.44691,-6.325296,1.1424543,-12.429809,-12.47532,-2.4012573,25.304426,-9.46961,2.9847393,13.037898,-8.945048,12.026222,26.273773,24.62205,-13.190503,52.724224,-6.8746185,1.6820617,30.343756,-22.03835,-65.84775,0.6394742,60.201515,-4.495984,-2.8613658,-12.842557
230,-6.8162312507629395,-44.23461151123047,78.76945495605469,6.5734208538552945,-2.40553180919254,-87.52052619770222,-53.854458,-3.5862935,-33.496166,127.52294,-5.7004147,0.29165033,-12.362795,-12.122574,-2.3443675,24.891163,-9.410151,3.0575783,13.591015,-8.733278,11.885407,26.553381,24.530664,-13.50884,53.17529,-7.4239535,1.427565,29.074276,-23.8503,-66.634254,1.7764552,59.11749,-4.1645064,-3.193644,-13.793669
231,-6.747099876403809,-44.330657958984375,78.78636169433594,6.418275101237323,-2.2501781540174104,-87.71619817594105,-54.041363,-3.716815,-32.244354,123.05493,-5.071246,-1.4662728,-12.290008,-11.910949,-2.2127848,24.510088,-9.385179,3.1601138,14.130278,-8.635122,11.784107,26.77951,24.395966,-13.778393,53.600838,-8.1107645,1.1084796,27.771183,-25.51622,-67.29222,3.0111804,57.863106,-3.9312932,-3.5905983,-14.660959
232,-6.672727108001709,-44.43172836303711,78.8080062866211,6.2704270807233815,-2.1731243206567967,-87.88594504018877,-53.47907,-4.1137533,-31.195896,118.22262,-4.7394395,-3.9264574,-12.112353,-11.747554,-2.1360996,24.14819,-9.418664,3.2375762,14.551869,-8.517966,11.710934,26.908861,24.229214,-14.112637,54.011414,-9.067869,0.9149546,26.716434,-27.117807,-67.785614,4.20921,56.641975,-3.738847,-3.9105358,-15.247354
233,-6.573185443878174,-44.547237396240234,78.83037567138672,6.109041102143597,-2.1915110573200827,-88.02374488165883,-52.043537,-4.917892,-30.517632,112.856964,-4.884042,-7.388877,-11.792325,-11.608995,-2.1487997,23.780996,-9.518744,3.2525191,14.844867,-8.367129,11.685611,26.92348,24.048439,-14.544716,54.40467,-10.473823,0.88341707,26.007652,-28.607847,-68.09418,5.313259,55.427494,-3.605082,-4.1381993,-15.484103
234,-6.465216159820557,-44.68709945678711,78.85136413574219,5.932009954084618,-2.266510042722129,-88.15359931425981,-49.94118,-6.007323,-30.223516,106.9124,-5.370103,-11.65001,-11.368811,-11.473118,-2.216911,23.3732,-9.645084,3.2259216,15.059663,-8.20528,11.686328,26.858448,23.860289,-15.008872,54.763523,-12.21109,0.91969025,25.488617,-29.892368,-68.22484,6.324762,54.11755,-3.5591402,-4.3381033,-15.490722
235,-6.339062690734863,-44.83458709716797,78.87049102783203,5.708912017863801,-2.3790639277855754,-88.26893241248429,-47.767536,-6.628908,-29.840097,100.71867,-5.9102945,-15.000033,-10.862218,-11.313823,-2.3338406,22.925718,-9.764659,3.2127297,15.1905,-7.989754,11.656885,26.745564,23.657999,-15.473229,55.081875,-13.961515,1.0119694,25.063604,-30.98535,-68.18808,7.2019024,52.80366,-3.5556664,-4.4900985,-15.34865
236,-6.155232906341553,-45.00704574584961,78.89356994628906,5.737240723992787,-2.5771620866959966,-88.37137165788612,-46.0496,-6.116509,-27.999823,94.47481,-5.9721017,-15.000033,-10.392101,-11.501212,-2.311427,22.761778,-10.015003,3.3581967,15.257749,-7.9663916,11.694449,26.595598,23.430016,-15.907718,55.370396,-15.404212,1.1475286,24.637367,-31.890808,-67.99517,7.8914437,51.5701,-3.549352,-4.5735025,-15.1401825
237,-5.945034027099609,-45.200965881347656,78.90142059326172,5.902400192959661,-2.8488701623128,-88.42596395573491,-43.979538,-5.7354507,-26.113268,88.21454,-5.573246,-15.000033,-9.943072,-11.898121,-2.2547636,22.840115,-10.361595,3.6157236,15.240899,-8.048461,11.760308,26.403202,23.162796,-16.297312,55.62105,-16.444103,1.3526466,24.20628,-32.595135,-67.646835,8.331076,50.45089,-3.5270026,-4.5725527,-14.790832
238,-5.725973129272461,-45.402549743652344,78.8902587890625,5.991927694464778,-3.156133372270525,-88.445801226859,-41.498142,-5.4855413,-24.46809,81.84998,-4.9330525,-15.000033,-9.41766,-12.238735,-2.2793274,22.89526,-10.6797285,3.9017463,15.134106,-8.038949,11.772807,26.164762,22.855629,-16.659782,55.833286,-17.25115,1.6163979,23.817883,-33.080112,-67.14849,8.540637,49.386097,-3.517,-4.5016866,-14.284742
