unveil-humanoid-operators/unveil-humanoid-operators.github.io/feature-analysis-animation/data/feature_matrix_instances/weight_root_translate_peak_vel_walking_turning_A039.csv
Frame,root_translateX,root_translateY,root_translateZ,root_rotateX,root_rotateY,root_rotateZ,left_hip_pitch_joint_dof,left_hip_roll_joint_dof,left_hip_yaw_joint_dof,left_knee_joint_dof,left_ankle_pitch_joint_dof,left_ankle_roll_joint_dof,right_hip_pitch_joint_dof,right_hip_roll_joint_dof,right_hip_yaw_joint_dof,right_knee_joint_dof,right_ankle_pitch_joint_dof,right_ankle_roll_joint_dof,waist_yaw_joint_dof,waist_roll_joint_dof,waist_pitch_joint_dof,left_shoulder_pitch_joint_dof,left_shoulder_roll_joint_dof,left_shoulder_yaw_joint_dof,left_elbow_joint_dof,left_wrist_roll_joint_dof,left_wrist_pitch_joint_dof,left_wrist_yaw_joint_dof,right_shoulder_pitch_joint_dof,right_shoulder_roll_joint_dof,right_shoulder_yaw_joint_dof,right_elbow_joint_dof,right_wrist_roll_joint_dof,right_wrist_pitch_joint_dof,right_wrist_yaw_joint_dof
0,-0.03512686863541603,-1.9017448425292969,78.76303100585938,0.18284430140375707,0.5216650562525488,86.9646350825859,1.014758,2.1841471,15.239789,7.2141557,-9.856735,-1.010085,-0.7925652,-4.561534,-18.083689,7.8236246,-6.7593894,2.7896497,-0.10367503,0.5391904,5.978564,4.2166758,9.346681,-19.795918,64.0529,5.5876884,-0.9577168,10.416951,-4.9132314,-12.031973,39.692593,67.63177,1.4043884,-2.6557374,-6.4270525
1,-0.033801618963479996,-1.8982818126678467,78.76372528076172,0.18505615249409235,0.5127590952961355,86.96537582155094,1.0260351,2.1811264,15.238364,7.2184067,-9.868574,-1.0008596,-0.7812099,-4.5656376,-18.086376,7.8303146,-6.773795,2.7865524,-0.10226537,0.54067177,5.9779944,4.244946,9.354793,-19.777897,64.06325,5.5596294,-0.9490674,10.422593,-4.8949833,-12.021977,39.680523,67.6532,1.3961345,-2.6612632,-6.4186516
2,-0.032791510224342346,-1.8963323831558228,78.76254272460938,0.18783067220017688,0.502974523346671,86.96601077757934,1.0353497,2.1784968,15.236836,7.2294655,-9.884704,-0.9901844,-0.76935554,-4.570436,-18.08906,7.8383126,-6.7895956,2.7832656,-0.10311139,0.5380388,5.979793,4.27359,9.367091,-19.752497,64.072296,5.5326405,-0.94003963,10.426151,-4.8780665,-12.007583,39.665005,67.67463,1.3828379,-2.6669898,-6.4093966
3,-0.03251250460743904,-1.8944730758666992,78.76094055175781,0.1895691196442755,0.4948420330077898,86.96701071950834,1.0459687,2.175898,15.235218,7.233683,-9.896068,-0.98242307,-0.7589333,-4.574102,-18.09171,7.845084,-6.8032017,2.7803473,-0.10081554,0.5398485,5.979738,4.2983413,9.373495,-19.733904,64.08556,5.5091,-0.9327922,10.43177,-4.859278,-12.000396,39.654774,67.69259,1.3767807,-2.6714063,-6.4014473
4,-0.03614981472492218,-1.891200065612793,78.76002502441406,0.18911648486401358,0.4908776115322098,86.96904639711943,1.051949,2.176289,15.233179,7.2361274,-9.902976,-0.9821091,-0.75080234,-4.5741477,-18.094759,7.8461027,-6.809636,2.7782512,-0.09517931,0.5456851,5.9800057,4.3135557,9.376318,-19.723606,64.10406,5.4940996,-0.9302475,10.439569,-4.843353,-11.997387,39.648846,67.708664,1.3763107,-2.6727808,-6.3976746
5,-0.036266081035137177,-1.886478066444397,78.75981903076172,0.18458572769912546,0.4921385188315966,86.97254168291786,1.0557177,2.180845,15.23101,7.2299027,-9.901074,-0.9947679,-0.7468483,-4.568746,-18.097872,7.8430734,-6.807446,2.7773995,-0.09155965,0.5526994,5.974881,4.337331,9.379582,-19.704977,64.114586,5.5121984,-0.9346758,10.446283,-4.820914,-11.993995,39.637726,67.71879,1.3608922,-2.67103,-6.395288
6,-0.036208268254995346,-1.882954716682434,78.76060485839844,0.177103850110401,0.49734679161375966,86.9770491068016,1.0569214,2.1885917,15.2286625,7.218843,-9.893357,-1.0165733,-0.7452955,-4.559377,-18.101059,7.8354106,-6.7981687,2.777403,-0.08145034,0.56225765,5.973077,4.353344,9.382216,-19.691708,64.125114,5.5472736,-0.94377553,10.455168,-4.8091607,-11.991617,39.633163,67.7324,1.3571265,-2.6663225,-6.396415
7,-0.036026209592819214,-1.8806288242340088,78.7613525390625,0.1702062910212774,0.5047040754572417,86.98217019490555,1.0548203,2.1959047,15.225684,7.208789,-9.884819,-1.0379766,-0.74598855,-4.550374,-18.10482,7.826516,-6.7876015,2.7777123,-0.07556246,0.56913227,5.969872,4.3708706,9.386309,-19.671713,64.13281,5.585366,-0.95394474,10.459695,-4.7968583,-11.988027,39.628056,67.74486,1.3482107,-2.661406,-6.3977337
8,-0.03477322310209274,-1.87860107421875,78.7610092163086,0.16698781916693714,0.5122465534455409,86.98815240017633,1.0504805,2.198354,15.220556,7.2012253,-9.878074,-1.0493227,-0.7475196,-4.54625,-18.110151,7.818311,-6.7807064,2.7778263,-0.0727947,0.57178146,5.9688663,4.3871517,9.3913145,-19.65121,64.1362,5.61054,-0.95997185,10.455926,-4.789032,-11.983673,39.626328,67.75855,1.341402,-2.6584694,-6.3962226
9,-0.032536040991544724,-1.8762966394424438,78.76176452636719,0.17020398208529766,0.5193950142628722,86.99447152998017,1.0431333,2.1931255,15.212991,7.19975,-9.875477,-1.0453669,-0.7531585,-4.551397,-18.117212,7.8178,-6.782653,2.7778697,-0.06744357,0.5702881,5.969432,4.395426,9.3922615,-19.645746,64.142006,5.605179,-0.9598089,10.445672,-4.7835026,-11.982909,39.62597,67.77433,1.3403323,-2.6588926,-6.394296
10,-0.030762219801545143,-1.874110460281372,78.761474609375,0.17766537052989934,0.5297986081810687,87.00182976841994,1.0279039,2.1832025,15.202908,7.205202,-9.875757,-1.0319774,-0.76502836,-4.562575,-18.126204,7.821962,-6.7893734,2.7779162,-0.07213284,0.56173295,5.9665494,4.410653,9.3991165,-19.620043,64.137344,5.596624,-0.9563715,10.41891,-4.7847657,-11.97711,39.630146,67.796715,1.3365303,-2.6630833,-6.387641
11,-0.030857626348733902,-1.8723382949829102,78.76158905029297,0.1852511857183142,0.5392528947136938,87.0098022187841,1.0161296,2.172227,15.192471,7.204969,-9.873776,-1.016732,-0.77495855,-4.573602,-18.135412,7.8244805,-6.7962613,2.7779045,-0.07642328,0.5521466,5.9656568,4.4234457,9.406449,-19.605028,64.13258,5.5780425,-0.95167035,10.394112,-4.7867627,-11.970061,39.63547,67.819466,1.3348943,-2.6662302,-6.3818216
12,-0.03153397887945175,-1.8723011016845703,78.76185607910156,0.1892497056014527,0.5470386918547337,87.01824921533603,1.0055692,2.166633,15.182864,7.2072067,-9.874837,-1.0071055,-0.7803666,-4.579417,-18.144081,7.822721,-6.799669,2.7776542,-0.07356384,0.5471056,5.9659534,4.427182,9.408844,-19.603224,64.13812,5.5620546,-0.9485289,10.378113,-4.784646,-11.96755,39.637527,67.83713,1.3375958,-2.6654086,-6.37587
13,-0.03212638944387436,-1.8708646297454834,78.762451171875,0.18788426214149404,0.5539655398126284,87.02808489421169,0.9967636,2.1683342,15.174098,7.208431,-9.878124,-1.0047429,-0.78247094,-4.577848,-18.15212,7.8194027,-6.801148,2.776914,-0.07333137,0.5471821,5.96548,4.430774,9.410562,-19.603834,64.1466,5.5533066,-0.9460217,10.368092,-4.7832828,-11.965379,39.64079,67.85714,1.3420099,-2.660749,-6.36644
14,-0.030985230579972267,-1.869443655014038,78.762451171875,0.18332330026638907,0.5598536742145866,87.03869096944669,0.9897538,2.174363,15.165695,7.209489,-9.883753,-1.0058868,-0.78205025,-4.5719743,-18.159561,7.815086,-6.8017955,2.775785,-0.07228322,0.54809296,5.966474,4.4322925,9.413079,-19.60859,64.15719,5.5487423,-0.9439112,10.362406,-4.784267,-11.96155,39.647686,67.8789,1.3518459,-2.6530893,-6.3554115
15,-0.028955945745110512,-1.8675551414489746,78.76155090332031,0.17773041473489204,0.5657341457117104,87.05022417455635,0.98080105,2.1819358,15.156616,7.213295,-9.889771,-1.0093598,-0.7796984,-4.5644345,-18.168148,7.8071003,-6.7998633,2.7747152,-0.071305685,0.55122733,5.965902,4.430334,9.414088,-19.618076,64.17146,5.5395584,-0.9427811,10.357559,-4.793754,-11.959106,39.659367,67.90941,1.3713828,-2.6455798,-6.3431215
16,-0.027221370488405228,-1.865978717803955,78.76073455810547,0.1744571889017031,0.5712362485264609,87.0617578993075,0.97410756,2.185857,15.147154,7.211606,-9.88947,-1.0139805,-0.77893263,-4.560039,-18.177393,7.8009644,-6.7976346,2.7742019,-0.072218105,0.5513715,5.963897,4.4293094,9.415596,-19.632072,64.18328,5.524166,-0.94263,10.354025,-4.803081,-11.9519825,39.67249,67.939865,1.3843302,-2.6385553,-6.3373947
17,-0.02686076983809471,-1.8675059080123901,78.75969696044922,0.1741456194325263,0.5771702254223043,87.07365425743764,0.96765375,2.1851304,15.136388,7.20656,-9.882257,-1.0210737,-0.7809385,-4.5602913,-18.188437,7.7980895,-6.7953267,2.7746096,-0.069850326,0.5476968,5.9661098,4.4206166,9.416424,-19.641953,64.1948,5.512086,-0.94435173,10.346868,-4.81969,-11.945117,39.676846,67.97071,1.3890692,-2.6330886,-6.332988
18,-0.025556480512022972,-1.8660333156585693,78.76136779785156,0.17548292338257834,0.583288890459246,87.08625055395876,0.9615779,2.182054,15.124541,7.1984477,-9.869641,-1.0306909,-0.7841631,-4.562671,-18.200876,7.7954936,-6.791245,2.7756464,-0.06827084,0.5426705,5.9701004,4.4091988,9.416507,-19.64987,64.2049,5.5001082,-0.94743055,10.338369,-4.8378105,-11.940397,39.67536,67.99927,1.3849022,-2.6280887,-6.3297434
19,-0.024364100769162178,-1.8661160469055176,78.76393127441406,0.17702339407343337,0.5884851540564668,87.09844526625739,0.95456487,2.1789908,15.112955,7.193975,-9.858649,-1.0399402,-0.78620446,-4.5652375,-18.213247,7.7918997,-6.7871065,2.776576,-0.06618195,0.537238,5.974961,4.395608,9.416173,-19.65759,64.214554,5.4881625,-0.95153695,10.329776,-4.8572187,-11.936741,39.671665,68.02538,1.3792224,-2.6235025,-6.329305
20,-0.02006731741130352,-1.8646680116653442,78.76410675048828,0.17811171503685272,0.5917899045952604,87.10913266131014,0.9500165,2.176858,15.10293,7.1900845,-9.851597,-1.045764,-0.7869868,-4.567143,-18.224182,7.7896714,-6.7859106,2.7768965,-0.06481663,0.53257334,5.9798245,4.383896,9.415298,-19.6639,64.22069,5.4772058,-0.9559079,10.322406,-4.8722672,-11.932825,39.66343,68.04335,1.3706741,-2.6188917,-6.3333445
21,-0.01931324601173401,-1.8643336296081543,78.764404296875,0.17771190600694428,0.5925257487365896,87.11805986730658,0.9481427,2.177041,15.094974,7.18844,-9.851408,-1.0467939,-0.7850934,-4.566994,-18.233503,7.788583,-6.789557,2.775948,-0.062001485,0.52854306,5.985108,4.3742924,9.414228,-19.668207,64.22453,5.468627,-0.961148,10.315522,-4.8886743,-11.929976,39.658333,68.05799,1.3707867,-2.6140232,-6.3434005
22,-0.020255565643310547,-1.8662055730819702,78.76209259033203,0.17649893873691302,0.5909680262997391,87.12583467348155,0.94637364,2.1791549,15.088167,7.19365,-9.858379,-1.0448272,-0.7806658,-4.5658107,-18.24179,7.787399,-6.7956915,2.7742054,-0.059190415,0.52627814,5.9920154,4.361492,9.410786,-19.671421,64.230446,5.459647,-0.96815556,10.308965,-4.906514,-11.923613,39.644886,68.0733,1.3653276,-2.6103582,-6.358037
23,-0.019407857209444046,-1.8674771785736084,78.76113891601562,0.17568865139021247,0.5888489942179219,87.13273620769255,0.94573003,2.180893,15.082167,7.1973925,-9.864355,-1.041713,-0.7759379,-4.5648365,-18.249254,7.7858844,-6.8014793,2.7725942,-0.056334283,0.52342707,5.99828,4.348194,9.406705,-19.67312,64.23389,5.453744,-0.97478867,10.303886,-4.925472,-11.917798,39.634586,68.08456,1.3642037,-2.607458,-6.374702
24,-0.016962191089987755,-1.867398977279663,78.76057434082031,0.17611369349052255,0.5878138464487959,87.13934122097216,0.9443203,2.1806903,15.076442,7.198938,-9.865755,-1.039268,-0.7737478,-4.56554,-18.25582,7.7865868,-6.8061004,2.7720482,-0.0533667,0.5180982,6.000973,4.3390512,9.404266,-19.674715,64.22779,5.452709,-0.97831005,10.3018265,-4.943998,-11.915087,39.632034,68.08844,1.369589,-2.604802,-6.3907485
25,-0.015318476594984531,-1.8676778078079224,78.76097869873047,0.1786770293261637,0.5875361222394199,87.14647015045081,0.9405589,2.1779232,15.0699215,7.201337,-9.861646,-1.0374379,-0.77323306,-4.568921,-18.261791,7.7874765,-6.806893,2.7736971,-0.04872257,0.5140129,6.0068927,4.3193636,9.396954,-19.679617,64.22156,5.4576244,-0.97920275,10.306274,-4.9772506,-11.907804,39.626434,68.103226,1.3740016,-2.6060064,-6.407471
26,-0.013132667168974876,-1.8690532445907593,78.76221466064453,0.18294618206066507,0.5883860877012445,87.15337290666326,0.93567544,2.1729023,15.063579,7.2018065,-9.852969,-1.0354385,-0.77488446,-4.5743413,-18.266958,7.7893634,-6.8059387,2.7767296,-0.04601996,0.5072388,6.008966,4.304493,9.392087,-19.683907,64.20623,5.4678216,-0.9773345,10.314227,-5.0054717,-11.903625,39.624268,68.10684,1.3775254,-2.6075456,-6.4254813
27,-0.011737504042685032,-1.871568202972412,78.76290893554688,0.18681061329208024,0.5885319767306023,87.15925313682322,0.932214,2.1682637,15.058306,7.201854,-9.844219,-1.0339935,-0.7756644,-4.5789413,-18.27122,7.7908916,-6.8044357,2.7792244,-0.042300805,0.500391,6.0106688,4.2910547,9.387134,-19.688063,64.18444,5.476672,-0.974697,10.321986,-5.033129,-11.899939,39.622818,68.10411,1.3848976,-2.6095054,-6.44163
28,-0.010829092003405094,-1.8735581636428833,78.76350402832031,0.1888012342575648,0.5867193177221002,87.16277279278252,0.9310066,2.1664538,15.054754,7.203907,-9.840034,-1.0339534,-0.77581364,-4.581551,-18.274555,7.7949204,-6.8048973,2.7794285,-0.04001955,0.49473372,6.0103097,4.281881,9.382754,-19.689949,64.157646,5.4761934,-0.9729534,10.326464,-5.0551367,-11.897161,39.618465,68.093704,1.390211,-2.610738,-6.454212
29,-0.007992710918188095,-1.8734815120697021,78.76158142089844,0.18789855650277573,0.582453807237202,87.16316746804397,0.9342679,2.1685238,15.053785,7.2051344,-9.840053,-1.0360876,-0.77194566,-4.579861,-18.277191,7.7963514,-6.80547,2.7762551,-0.033238646,0.49124137,6.0085945,4.2706113,9.377591,-19.69342,64.13052,5.461742,-0.97250414,10.324998,-5.080419,-11.894474,39.615154,68.08257,1.4101822,-2.611318,-6.459273
30,-0.005560117308050394,-1.8757072687149048,78.7586898803711,0.18514269818296877,0.5758951403135456,87.16102784652212,0.94053096,2.173,15.054854,7.2074723,-9.843589,-1.0398123,-0.7672478,-4.576212,-18.278788,7.8011394,-6.8083453,2.770864,-0.024295107,0.4921524,6.006968,4.258167,9.368754,-19.69981,64.100525,5.4356747,-0.97188103,10.321353,-5.1138387,-11.890432,39.611515,68.07848,1.4390142,-2.6137605,-6.4591885
31,-0.008098808117210865,-1.8768267631530762,78.75904083251953,0.18187277485684475,0.5683368078555973,87.1578940105746,0.9476936,2.1785614,15.056842,7.211374,-9.8493805,-1.0437498,-0.7607469,-4.571381,-18.279358,7.8033056,-6.809835,2.7647235,-0.014249789,0.49046648,6.004731,4.2484245,9.364499,-19.703201,64.06516,5.411157,-0.97229743,10.316538,-5.141296,-11.888805,39.611103,68.06239,1.4691693,-2.6156578,-6.4587555
32,-0.007320716977119446,-1.8787294626235962,78.75948333740234,0.17926127560067293,0.5596824982723556,87.15481039846222,0.9562973,2.183368,15.058866,7.213364,-9.853715,-1.0465062,-0.7546052,-4.5672426,-18.278427,7.808085,-6.8127728,2.7592702,-0.0063228547,0.4890919,6.0035405,4.242803,9.35684,-19.702322,64.02494,5.39761,-0.9736121,10.317565,-5.1643906,-11.88628,39.604115,68.04295,1.47719,-2.6181822,-6.4635897
33,-0.006175415124744177,-1.8804577589035034,78.76217651367188,0.17707634518713075,0.5492964329615618,87.15219078978139,0.96448284,2.1882775,15.060865,7.2200084,-9.861025,-1.0483251,-0.7478592,-4.563574,-18.275425,7.814657,-6.8168406,2.754256,0.0044072866,0.48522094,6.0055656,4.238699,9.349373,-19.696724,63.979656,5.4057894,-0.97748935,10.326033,-5.184195,-11.884238,39.59687,68.016624,1.4706486,-2.6211689,-6.475041
34,-0.004546051844954491,-1.881438136100769,78.76451873779297,0.17493728346065202,0.5370041236198048,87.14919675072373,0.975717,2.1933014,15.063274,7.223953,-9.867542,-1.0497469,-0.73851925,-4.5590267,-18.270876,7.8188815,-6.8196673,2.7490866,0.015137248,0.4821104,6.0100894,4.23439,9.339179,-19.683182,63.932705,5.4307566,-0.98357475,10.33979,-5.20512,-11.881913,39.586277,67.990036,1.4489925,-2.6250246,-6.489702
35,-0.0026285776402801275,-1.884972095489502,78.76392364501953,0.17356159854102737,0.52477419543907,87.14579624351782,0.98591053,2.1974556,15.065909,7.2295237,-9.874222,-1.0497978,-0.7312055,-4.55588,-18.2655,7.826477,-6.82409,2.744816,0.02636463,0.47767976,6.015759,4.229676,9.327035,-19.666773,63.8835,5.4553847,-0.98848796,10.353001,-5.2274914,-11.879686,39.57907,67.96125,1.42869,-2.6298585,-6.5058384
36,-0.001320376992225647,-1.8883936405181885,78.76163482666016,0.17366433016862237,0.5143738908361998,87.14207191021573,0.99274296,2.2001376,15.068112,7.2368684,-9.879238,-1.0475814,-0.726105,-4.55453,-18.260612,7.83281,-6.82655,2.7425308,0.035814267,0.47182134,6.020602,4.2264667,9.314754,-19.649141,63.831104,5.4646277,-0.9892564,10.360175,-5.2491145,-11.877871,39.5717,67.92887,1.4115117,-2.6360602,-6.521327
37,-0.0009974809363484383,-1.8921819925308228,78.75908660888672,0.17628580438598063,0.5061377490301934,87.13724061559542,0.9970256,2.199441,15.070191,7.2434425,-9.880157,-1.0412805,-0.7237416,-4.556252,-18.256035,7.837968,-6.826743,2.7439227,0.04624983,0.4616632,6.023234,4.2277336,9.308102,-19.635921,63.76858,5.4451394,-0.9793276,10.358725,-5.264274,-11.877076,39.56319,67.88607,1.3978922,-2.644008,-6.53585
38,-0.0006887407507747412,-1.894687533378601,78.7568588256836,0.18073159960189375,0.4987363011525084,87.13169794051637,0.9994312,2.196411,15.072083,7.252221,-9.880287,-1.031838,-0.72306836,-4.5604763,-18.251228,7.8432913,-6.8261533,2.747952,0.05384352,0.4543394,6.0305843,4.222059,9.286718,-19.605196,63.710285,5.4250855,-0.96503985,10.3529215,-5.2938085,-11.875704,39.55175,67.85166,1.3819684,-2.654247,-6.547647
39,0.0021433387883007526,-1.898543357849121,78.75544738769531,0.1852687197790834,0.49282895109076397,87.12635557766374,1.0012157,2.1930442,15.074013,7.256676,-9.8768425,-1.0226651,-0.7240586,-4.5645843,-18.246843,7.8474154,-6.8242335,2.751536,0.061466184,0.44661862,6.034239,4.217939,9.265653,-19.582052,63.653336,5.3970914,-0.9522935,10.346867,-5.3168807,-11.875075,39.544186,67.812325,1.3732492,-2.6638193,-6.5626388
40,0.005674012005329132,-1.9025795459747314,78.75741577148438,0.18817768811936633,0.4886787938398429,87.12237099611518,1.0007125,2.1919804,15.075799,7.260803,-9.874078,-1.0171858,-0.72688466,-4.5664463,-18.243423,7.8526306,-6.823688,2.7516396,0.070225395,0.43614057,6.0368843,4.2183647,9.254023,-19.56829,63.59507,5.373723,-0.949816,10.340516,-5.3290443,-11.874603,39.53548,67.76328,1.3729948,-2.6715453,-6.5807467
41,0.008466126397252083,-1.9081497192382812,78.75881958007812,0.18868459161974796,0.48638806006396107,87.12021008900362,0.99709976,2.194564,15.078093,7.2652197,-9.872915,-1.0170369,-0.73023176,-4.564437,-18.241182,7.855333,-6.823044,2.7466972,0.07681603,0.42963386,6.0406384,4.214951,9.238319,-19.549774,63.547047,5.3759947,-0.96304554,10.336897,-5.3416824,-11.873475,39.524517,67.715996,1.3844323,-2.6765432,-6.6057405
42,0.009225706569850445,-1.913375735282898,78.76005554199219,0.18774042400626056,0.4858062013544938,87.11909415727526,0.9941088,2.198324,15.080916,7.2626014,-9.868549,-1.0200999,-0.7346071,-4.5601377,-18.239866,7.856785,-6.8227563,2.7386153,0.083047636,0.42814896,6.0422306,4.203477,9.211318,-19.531591,63.515293,5.391641,-0.98655427,10.337007,-5.3605647,-11.870649,39.524944,67.67799,1.4197016,-2.680133,-6.6374035
43,0.013251610100269318,-1.9191241264343262,78.76130676269531,0.1860773230233269,0.4863724067628689,87.11871589060055,0.98718226,2.2036767,15.082808,7.2648373,-9.866376,-1.0243434,-0.74120224,-4.5552397,-18.239124,7.860224,-6.822594,2.7293315,0.08615957,0.42414153,6.043195,4.2036486,9.191167,-19.519037,63.472458,5.402018,-1.0105548,10.336491,-5.364115,-11.867475,39.516544,67.62651,1.4394352,-2.681448,-6.6667786
44,0.018303418532013893,-1.9263741970062256,78.7603759765625,0.18450668843943283,0.4870592094306273,87.11881184356048,0.97902185,2.2093036,15.082355,7.2683764,-9.863133,-1.0275918,-0.74796,-4.550219,-18.239178,7.862794,-6.8194647,2.7208216,0.09434861,0.41597626,6.0469484,4.1969924,9.181837,-19.516762,63.43479,5.3999166,-1.0306667,10.332147,-5.377199,-11.865487,39.51775,67.58455,1.4608481,-2.6843908,-6.682818
45,0.02237945795059204,-1.93366539478302,78.75972747802734,0.1815818706159808,0.4881872284489776,87.11956948963011,0.9699233,2.216409,15.078147,7.2722883,-9.857746,-1.0297953,-0.7550635,-4.5439715,-18.240692,7.8646617,-6.811625,2.7126188,0.0945477,0.4157965,6.0470376,4.1851015,9.153161,-19.514069,63.411263,5.381488,-1.0434672,10.332309,-5.39572,-11.858157,39.521564,67.56079,1.4540662,-2.6863935,-6.6850343
46,0.025359058752655983,-1.941593885421753,78.76080322265625,0.17817870126358562,0.49007262186397216,87.12100711028725,0.958051,2.2249064,15.0713,7.278997,-9.85192,-1.0319495,-0.7635846,-4.536899,-18.243166,7.866989,-6.8008084,2.704023,0.09608775,0.4076015,6.052884,4.1824036,9.144221,-19.51798,63.36883,5.3470674,-1.052474,10.325501,-5.4048347,-11.855426,39.524376,67.51889,1.435461,-2.6870177,-6.674492
47,0.02786882594227791,-1.9481264352798462,78.7637939453125,0.17532594704585688,0.4916020138745146,87.12241746828408,0.9473112,2.2322347,15.064463,7.2840786,-9.8453455,-1.0333842,-0.7723196,-4.5310607,-18.245644,7.870132,-6.790833,2.6965866,0.094911374,0.40308404,6.0577965,4.181706,9.125525,-19.5269,63.33065,5.3165207,-1.0558976,10.324461,-5.4150214,-11.849212,39.527817,67.485504,1.4079981,-2.685551,-6.66259
48,0.031073318794369698,-1.9531060457229614,78.76530456542969,0.17492314509801413,0.4920324524658253,87.12292372216707,0.9376371,2.2365751,15.060313,7.290549,-9.841363,-1.0335685,-0.7796856,-4.528092,-18.24681,7.8725567,-6.784308,2.691719,0.094728954,0.39553732,6.062044,4.1775317,9.112974,-19.538404,63.30459,5.3047147,-1.0578132,10.323026,-5.424972,-11.844263,39.530693,67.45841,1.383627,-2.6863978,-6.6523504
49,0.0335349515080452,-1.9587395191192627,78.76460266113281,0.1787423957580874,0.4902457439838979,87.12085033920779,0.933911,2.2342818,15.060898,7.29078,-9.836902,-1.0312319,-0.78558093,-4.5305915,-18.244787,7.875476,-6.7835865,2.6909053,0.09836859,0.38834587,6.0640116,4.1693954,9.089929,-19.560886,63.295784,5.326107,-1.0530058,10.33129,-5.4367127,-11.834467,39.534515,67.44465,1.3625089,-2.6860788,-6.648368
50,0.035785213112831116,-1.965410590171814,78.76217651367188,0.18538507005533317,0.4868462799396672,87.11710013011533,0.9342959,2.227837,15.064363,7.286716,-9.831673,-1.0270972,-0.7897071,-4.5363846,-18.240936,7.8769007,-6.785476,2.6929533,0.10128045,0.38142008,6.0650973,4.1587577,9.057477,-19.586529,63.30008,5.3725204,-1.0426782,10.346108,-5.4487586,-11.820105,39.536175,67.43981,1.3341067,-2.6842237,-6.6466813
51,0.036658793687820435,-1.9723531007766724,78.75985717773438,0.192115699490796,0.48337201093665094,87.1146494075201,0.9329993,2.2215824,15.067566,7.286652,-9.829322,-1.023323,-0.7927383,-4.5424705,-18.238071,7.8768897,-6.787487,2.6956265,0.097760186,0.3647029,6.0779285,4.1605687,9.050718,-19.595755,63.28017,5.420245,-1.033116,10.344245,-5.4535017,-11.817031,39.540516,67.408485,1.3116337,-2.6832397,-6.640244
52,0.03821348771452904,-1.9789668321609497,78.75981140136719,0.19676511010693043,0.4805104486303692,87.11624872587956,0.9320678,2.217609,15.068013,7.2827487,-9.824341,-1.0217061,-0.79521066,-4.5461555,-18.23859,7.8778477,-6.789044,2.6969755,0.09678435,0.35538575,6.0867767,4.165333,9.029484,-19.619854,63.259747,5.441518,-1.0186033,10.351271,-5.453335,-11.807169,39.545696,67.38323,1.2995746,-2.6793375,-6.645352
53,0.0411367267370224,-1.9858880043029785,78.76078033447266,0.19804986448710502,0.47926774726896676,87.12357636726516,0.9269532,2.2185087,15.065327,7.2823505,-9.8205185,-1.0232723,-0.7957536,-4.5456038,-18.243694,7.8755507,-6.787454,2.6973205,0.10093552,0.3582394,6.0799165,4.139501,8.988918,-19.646662,63.29204,5.4247074,-1.0112424,10.351277,-5.4576635,-11.786495,39.540913,67.397705,1.2959286,-2.6839514,-6.657778
54,0.04542556777596474,-1.9923627376556396,78.76261138916016,0.1979149962733697,0.4781239595299047,87.13494668512581,0.9210119,2.221514,15.060533,7.282909,-9.817516,-1.0267762,-0.79418725,-4.543264,-18.251993,7.872071,-6.785137,2.6975055,0.098556645,0.35624105,6.0842505,4.1255946,8.959943,-19.659178,63.298878,5.3911653,-1.0022118,10.338425,-5.4586134,-11.770496,39.544846,67.391655,1.3097711,-2.687524,-6.673634
55,0.04900490120053291,-2.0008039474487305,78.76283264160156,0.19632197169822116,0.4778430208617196,87.14759744260876,0.9065498,2.228194,15.053482,7.2989087,-9.821915,-1.031387,-0.79336077,-4.5392213,-18.26209,7.8689675,-6.7822847,2.695719,0.092712276,0.35134423,6.0931582,4.1233544,8.942787,-19.66657,63.287766,5.3521466,-0.9946821,10.319468,-5.4513044,-11.760526,39.54739,67.36917,1.3247615,-2.6903002,-6.685776
56,0.051330260932445526,-2.0079100131988525,78.7634506225586,0.19315173368752178,0.47910954812813933,87.15841797129109,0.8874137,2.2366016,15.043926,7.320233,-9.827781,-1.0360748,-0.7969369,-4.5343614,-18.27243,7.868531,-6.779043,2.6901789,0.08410128,0.34623477,6.0991626,4.124902,8.934352,-19.671715,63.27726,5.322726,-0.9937783,10.300447,-5.4404287,-11.755363,39.547016,67.345436,1.3331642,-2.693986,-6.686245
57,0.053625959903001785,-2.017786979675293,78.76225280761719,0.1865599378571641,0.4826113288927011,87.16696643453166,0.8614139,2.2493243,15.029609,7.3507004,-9.837161,-1.0427185,-0.8044216,-4.5254593,-18.284353,7.867018,-6.7723646,2.6775212,0.08181295,0.35484922,6.0843787,4.108957,8.895183,-19.69643,63.31145,5.305384,-0.9981366,10.299553,-5.436204,-11.729694,39.536507,67.36411,1.3300616,-2.6960764,-6.679023
58,0.057207752019166946,-2.024264335632324,78.7617416381836,0.17785331305838856,0.4872476142421164,87.17416926383522,0.8319082,2.264564,15.012071,7.3839855,-9.846363,-1.0510366,-0.8151841,-4.5147257,-18.297268,7.867194,-6.764205,2.6597672,0.07324687,0.36035043,6.075459,4.109561,8.870537,-19.71333,63.321507,5.295199,-1.0064803,10.294585,-5.429184,-11.711843,39.53137,67.36555,1.3303806,-2.6960418,-6.6596475
59,0.05824336037039757,-2.025557279586792,78.76055145263672,0.17015852994925335,0.49261436650878904,87.18114458483471,0.8017848,2.278166,14.994907,7.417441,-9.855679,-1.0570582,-0.82768387,-4.505542,-18.309645,7.86956,-6.757645,2.642819,0.06769413,0.36377102,6.0660644,4.110598,8.849314,-19.73034,63.332474,5.290049,-1.0168275,10.2906065,-5.424081,-11.69569,39.530743,67.37148,1.3387024,-2.6970594,-6.6382318
60,0.05963440611958504,-2.0317468643188477,78.7614517211914,0.16667200665479343,0.4978558801004319,87.18868795220173,0.77391523,2.286055,14.981942,7.447838,-9.864391,-1.0567502,-0.83946586,-4.5017943,-18.319881,7.871955,-6.7538757,2.632613,0.062851764,0.36242774,6.058687,4.119509,8.831818,-19.738058,63.333595,5.2935987,-1.0244942,10.287857,-5.408993,-11.682524,39.527157,67.36882,1.3416126,-2.697998,-6.623378
61,0.06232454255223274,-2.0405831336975098,78.761474609375,0.17081650794419143,0.5012866353298968,87.19631479953074,0.7544292,2.2830744,14.976717,7.466351,-9.867943,-1.0455327,-0.8473776,-4.5071816,-18.325651,7.872356,-6.75326,2.6326478,0.06290661,0.35181963,6.064226,4.1302776,8.82799,-19.737162,63.321896,5.304375,-1.0312518,10.285233,-5.3905916,-11.679876,39.52571,67.35421,1.352037,-2.7027464,-6.615905
62,0.06517249345779419,-2.0475146770477295,78.76250457763672,0.17783906377187056,0.5086686479178745,87.20631785398149,0.7238208,2.2775187,14.973268,7.4994345,-9.878749,-1.0267861,-0.8580192,-4.516487,-18.331419,7.8712435,-6.754536,2.6387165,0.06445379,0.34291226,6.0480523,4.142966,8.796873,-19.721972,63.334164,5.347676,-1.0353833,10.29811,-5.364825,-11.660868,39.52207,67.36432,1.3558651,-2.7073736,-6.618564
63,0.06612271815538406,-2.0525481700897217,78.76561737060547,0.18622667136438414,0.5139570001379639,87.21526658021712,0.70077133,2.2693126,14.971562,7.5220914,-9.884933,-1.00815,-0.86622375,-4.527135,-18.335516,7.8696127,-6.755934,2.6465232,0.063859046,0.33464646,6.039271,4.153148,8.7685795,-19.70424,63.3438,5.38213,-1.0398128,10.305458,-5.345296,-11.644892,39.524334,67.37708,1.3621241,-2.7120898,-6.6213923
64,0.06599438190460205,-2.0580008029937744,78.76577758789062,0.19089205862073083,0.5186053390896199,87.22360886575285,0.67871404,2.2657626,14.966923,7.5432944,-9.8903055,-0.9973824,-0.87446207,-4.533173,-18.340393,7.8688383,-6.75581,2.6509938,0.063528545,0.32936096,6.0309215,4.165434,8.748189,-19.694315,63.34705,5.3958693,-1.0438404,10.299504,-5.325752,-11.633995,39.531727,67.386955,1.3718344,-2.7141235,-6.61861
65,0.06723702698945999,-2.0644240379333496,78.7640609741211,0.1905461845594684,0.5219502437256827,87.23080136900774,0.6593441,2.2684858,14.957861,7.560789,-9.894252,-0.9977779,-0.8800594,-4.531773,-18.346008,7.863389,-6.750653,2.651503,0.061480705,0.33009258,6.0224624,4.176856,8.728739,-19.69213,63.348335,5.3815866,-1.046647,10.274438,-5.3097606,-11.623662,39.5467,67.39937,1.3825451,-2.7111745,-6.60933
66,0.06677941232919693,-2.072956085205078,78.76177215576172,0.18778456503332325,0.524172718798909,87.23724185663096,0.6429534,2.2741091,14.946497,7.5738587,-9.896389,-1.0047537,-0.88527954,-4.527075,-18.351477,7.8588476,-6.7447214,2.6504867,0.05904631,0.3313197,6.0190363,4.188909,8.71994,-19.693224,63.340973,5.3472223,-1.0501509,10.231921,-5.2885733,-11.618876,39.552902,67.40185,1.3810989,-2.7064376,-6.592963
67,0.06640387326478958,-2.079927444458008,78.76094055175781,0.18301716291344686,0.5273678931685701,87.24415269846301,0.6244529,2.2822263,14.934049,7.5889263,-9.89874,-1.0144287,-0.8902883,-4.5198298,-18.358519,7.8523316,-6.7370563,2.6474764,0.05387751,0.34055942,6.0001254,4.2045684,8.699387,-19.6995,63.346844,5.3090887,-1.0520425,10.195916,-5.2709265,-11.607465,39.576096,67.42717,1.3904958,-2.700399,-6.580864
68,0.06861522793769836,-2.0847771167755127,78.76058197021484,0.17873818780282164,0.5310109614406677,87.25189717407024,0.6072237,2.288896,14.922854,7.600682,-9.898055,-1.022699,-0.89642036,-4.51429,-18.367207,7.847734,-6.7292104,2.6423938,0.046436083,0.351254,5.979846,4.2156405,8.673004,-19.698574,63.363335,5.284513,-1.0556895,10.17334,-5.255488,-11.592429,39.591614,67.46226,1.3925619,-2.6977549,-6.57072
69,0.07122451812028885,-2.0907552242279053,78.76075744628906,0.17460745732999844,0.5360283064159341,87.2610163404092,0.58978117,2.2943833,14.913069,7.6102962,-9.893565,-1.0296453,-0.90651643,-4.51091,-18.379107,7.849937,-6.7233367,2.632963,0.045199204,0.35595635,5.9652944,4.2371225,8.663046,-19.697762,63.359947,5.272765,-1.0602372,10.164477,-5.227503,-11.586948,39.596443,67.47395,1.3957009,-2.6967869,-6.5609756
70,0.0711408406496048,-2.0960381031036377,78.76264190673828,0.1695148324996936,0.5421160173842631,87.27113177351691,0.5720255,2.3000255,14.903785,7.618331,-9.886206,-1.037048,-0.9174706,-4.507455,-18.393661,7.8526125,-6.7163186,2.6200454,0.042459954,0.36198145,5.9474854,4.2634435,8.654282,-19.695068,63.355534,5.2668166,-1.0662225,10.166171,-5.1938787,-11.582412,39.596996,67.48507,1.3943697,-2.697633,-6.5523047
71,0.07106610387563705,-2.101959466934204,78.76326751708984,0.1649147622671475,0.5480702001229111,87.28126343371189,0.55526334,2.3050692,14.895,7.6255736,-9.879387,-1.0434799,-0.9281695,-4.5047207,-18.407959,7.8561993,-6.710312,2.6079252,0.039228227,0.37204844,5.923453,4.2862673,8.634518,-19.691114,63.36497,5.2700434,-1.0698607,10.1757555,-5.1641045,-11.572801,39.599968,67.511604,1.3939635,-2.698657,-6.5473456
72,0.07131290435791016,-2.1054627895355225,78.7650375366211,0.16194620859722617,0.5527101872617923,87.2905890247065,0.54504114,2.3071632,14.887436,7.623948,-9.871853,-1.0474185,-0.93571794,-4.503121,-18.418827,7.857427,-6.7056246,2.6010365,0.037063725,0.37995797,5.9011292,4.3096714,8.618545,-19.687944,63.37299,5.278409,-1.0668722,10.182434,-5.133164,-11.565477,39.602787,67.53605,1.3923664,-2.6975603,-6.5456595
73,0.07058743387460709,-2.1065545082092285,78.7657470703125,0.16056696774526902,0.5557412899030757,87.29857193549829,0.5417549,2.3064263,14.88137,7.614435,-9.866887,-1.0477327,-0.93800175,-4.5023074,-18.424831,7.85414,-6.7026067,2.601693,0.032742124,0.3924956,5.8718624,4.324208,8.591443,-19.68389,63.403168,5.2970877,-1.0541455,10.191156,-5.111852,-11.553654,39.615707,67.58449,1.3938504,-2.695857,-6.5516076
74,0.06962239742279053,-2.108337163925171,78.76576232910156,0.16056569129616574,0.5577512039031888,87.30581626367955,0.5442062,2.3031917,14.876805,7.5967817,-9.861767,-1.0454142,-0.93802965,-4.502755,-18.427414,7.850316,-6.701613,2.607163,0.02976537,0.3993668,5.846513,4.3494587,8.57924,-19.681635,63.41568,5.3199763,-1.0327578,10.196296,-5.0750566,-11.548453,39.619095,67.61083,1.3843644,-2.6918612,-6.5604
75,0.0700867623090744,-2.1125094890594482,78.76571655273438,0.1617818279553695,0.5592073000509435,87.31308529838024,0.5487871,2.2982776,14.872137,7.576793,-9.855623,-1.042408,-0.9360645,-4.5039783,-18.429752,7.8442106,-6.70069,2.6141253,0.02604417,0.40826258,5.817865,4.369389,8.562633,-19.679016,63.441193,5.346382,-1.0122405,10.202439,-5.0458555,-11.541863,39.626793,67.65171,1.378984,-2.686947,-6.570054
76,0.07124487310647964,-2.1165452003479004,78.7645492553711,0.16416089101978154,0.5606255730500723,87.32080421399824,0.5512228,2.2921755,14.866041,7.559604,-9.8463955,-1.0406538,-0.9368007,-4.507765,-18.434376,7.8421726,-6.7009993,2.6193368,0.023062848,0.41305256,5.7926774,4.390521,8.555502,-19.67698,63.46291,5.368339,-1.0001621,10.202735,-5.0161414,-11.539011,39.62902,67.68596,1.3734823,-2.6798105,-6.5737877
77,0.07438482344150543,-2.119117021560669,78.76356506347656,0.16853090379521316,0.562175311956605,87.32915635298795,0.5498668,2.2840734,14.857812,7.5478425,-9.832372,-1.040378,-0.9390833,-4.514371,-18.442427,7.840267,-6.7003107,2.6222425,0.016918952,0.4156311,5.7764077,4.4041834,8.552845,-19.675388,63.486954,5.384516,-1.0011008,10.197207,-4.9966464,-11.53787,39.62733,67.721405,1.3651565,-2.6686344,-6.572191
78,0.07543075084686279,-2.1221554279327393,78.7628173828125,0.1756972063749757,0.5658345430973377,87.33818204488716,0.54726005,2.27181,14.848286,7.5317645,-9.811062,-1.040288,-0.9468378,-4.525522,-18.452255,7.8436522,-6.7017574,2.6247423,0.010759091,0.41673756,5.743701,4.4230375,8.550002,-19.673748,63.52469,5.4074783,-1.0120385,10.18436,-4.9704757,-11.536444,39.623547,67.7657,1.3516418,-2.6545427,-6.5650444
79,0.07552089542150497,-2.124985456466675,78.76377868652344,0.1815444770932081,0.5664609492010624,87.34692195390923,0.54450226,2.262795,14.838893,7.5239496,-9.794638,-1.0414608,-0.94955355,-4.534164,-18.462444,7.84366,-6.701893,2.626028,0.00488373,0.41818216,5.729618,4.432967,8.549537,-19.67236,63.555283,5.419136,-1.0203887,10.178318,-4.957555,-11.536147,39.620995,67.80763,1.348432,-2.6412785,-6.560049
80,0.07475148141384125,-2.12847638130188,78.76536560058594,0.18545700076122287,0.5653475975690393,87.3578915005246,0.5464789,2.2556593,14.828594,7.5109086,-9.78071,-1.0434856,-0.95065683,-4.540969,-18.473776,7.847909,-6.705405,2.6264029,-0.0036792047,0.42268082,5.69431,4.454495,8.547794,-19.664766,63.597656,5.4232955,-1.0282886,10.173757,-4.9266467,-11.53444,39.60754,67.85431,1.340208,-2.6326168,-6.5487432
81,0.07568441331386566,-2.1312448978424072,78.76583099365234,0.18402101730063772,0.5598194096883173,87.36921470931797,0.55103964,2.25718,14.819498,7.5052857,-9.77881,-1.0484341,-0.9436974,-4.5399404,-18.484447,7.8495536,-6.709395,2.6243234,-0.0067068366,0.42894438,5.6679697,4.4743357,8.546206,-19.649607,63.63411,5.4141765,-1.0250975,10.182688,-4.894918,-11.532148,39.58422,67.896736,1.3415763,-2.6314843,-6.5371428
82,0.07966184616088867,-2.133720874786377,78.76525115966797,0.17930709929071176,0.550951566884521,87.38150263907745,0.5594209,2.263369,14.81033,7.50078,-9.782689,-1.0554419,-0.9303207,-4.5340395,-18.495752,7.847562,-6.7123613,2.6205046,-0.0140841715,0.4377671,5.644553,4.495798,8.54524,-19.626501,63.669266,5.389643,-1.0178338,10.198992,-4.8575444,-11.529828,39.55064,67.93447,1.3401587,-2.6347256,-6.5237317
83,0.08083952963352203,-2.134394645690918,78.76332092285156,0.1742561618958554,0.5402375025160372,87.39408197434764,0.56793153,2.2704823,14.801224,7.5013933,-9.790374,-1.0619066,-0.91606843,-4.528337,-18.506962,7.8492846,-6.717774,2.6165864,-0.01865469,0.44711527,5.6235485,4.5122766,8.545055,-19.606186,63.707806,5.3621683,-1.0083241,10.218635,-4.8298316,-11.527649,39.52393,67.97957,1.3536187,-2.6395683,-6.5115175
84,0.08101048320531845,-2.13692045211792,78.76203918457031,0.17152334522540752,0.5288129144554005,87.40605834280478,0.57621604,2.2747169,14.792732,7.5050936,-9.796712,-1.0653863,-0.90030235,-4.525179,-18.517733,7.849056,-6.7216597,2.6140993,-0.027084671,0.45621082,5.6029105,4.5279956,8.545613,-19.589172,63.746693,5.3464203,-0.9981609,10.236852,-4.802413,-11.5263605,39.50108,68.02172,1.3558302,-2.6409805,-6.5043855
85,0.08178537338972092,-2.1383137702941895,78.76128387451172,0.1726220524373734,0.5170326419261355,87.41831746595318,0.5822044,2.2740312,14.784416,7.51598,-9.803015,-1.0639033,-0.88677657,-4.528252,-18.528196,7.8543468,-6.7279515,2.6146996,-0.035797663,0.46226984,5.58604,4.537845,8.548632,-19.572517,63.78716,5.3499637,-0.98732865,10.2518015,-4.7764115,-11.523951,39.469254,68.06007,1.3396335,-2.6380863,-6.5029726
86,0.08474001288414001,-2.1398539543151855,78.7626953125,0.1755136566758505,0.5042332581451299,87.43093528598347,0.58753914,2.2705975,14.776302,7.5313272,-9.809466,-1.059217,-0.87191236,-4.534096,-18.538649,7.859487,-6.734127,2.6171355,-0.04582181,0.46834946,5.5690637,4.5445347,8.5536175,-19.567415,63.8303,5.353544,-0.97469985,10.269493,-4.758538,-11.522194,39.45184,68.104706,1.3316711,-2.6332643,-6.508081
87,0.08650007098913193,-2.1394143104553223,78.76471710205078,0.17958912010484865,0.4914593135027974,87.44084758052612,0.5937078,2.2667148,14.769952,7.5463552,-9.815234,-1.054307,-0.8588873,-4.540665,-18.546804,7.8671107,-6.7407084,2.6186616,-0.057111137,0.47676378,5.5586424,4.548968,8.555251,-19.56499,63.868664,5.35868,-0.96098834,10.288828,-4.750087,-11.522022,39.44645,68.1472,1.3311452,-2.6261945,-6.5172887
88,0.09027166664600372,-2.139894962310791,78.76428985595703,0.18095037030580333,0.47525993727872995,87.4498823016432,0.6009978,2.2663302,14.761771,7.5660963,-9.823391,-1.0522695,-0.843283,-4.5448165,-18.555544,7.87619,-6.7477703,2.61708,-0.063756734,0.4868629,5.5351486,4.556832,8.559552,-19.559536,63.919086,5.3735185,-0.949455,10.30204,-4.7325115,-11.521656,39.43605,68.19392,1.3320608,-2.6219697,-6.519285
89,0.09110874682664871,-2.1407535076141357,78.76419067382812,0.17947422287987103,0.4597664905101813,87.45361666357545,0.60574764,2.2709548,14.754362,7.588367,-9.831683,-1.0546545,-0.8304097,-4.5446534,-18.561512,7.8859115,-6.7535043,2.608923,-0.063293524,0.49326092,5.5161004,4.5669017,8.573302,-19.54405,63.96014,5.404622,-0.9386676,10.303823,-4.7070518,-11.521163,39.410526,68.22246,1.3227829,-2.6170382,-6.5166497
90,0.09116151183843613,-2.1426072120666504,78.7626724243164,0.1771103077104459,0.443124671923343,87.45393554956026,0.6128095,2.2772563,14.747381,7.608389,-9.838185,-1.0594323,-0.81896716,-4.542994,-18.565811,7.8985286,-6.759268,2.5967057,-0.059289273,0.5037604,5.4980116,4.5727105,8.5859,-19.530313,64.00516,5.4413376,-0.92760354,10.303038,-4.696288,-11.521639,39.40148,68.26124,1.3350464,-2.6122406,-6.5130553
91,0.09067872911691666,-2.142270565032959,78.76244354248047,0.17395157414054604,0.42499801737003073,87.45301831523409,0.62033165,2.2847848,14.741473,7.63176,-9.847324,-1.0647684,-0.80606604,-4.540717,-18.568684,7.911745,-6.765821,2.5851808,-0.057817567,0.5115377,5.483261,4.5843143,8.60444,-19.510525,64.0408,5.477093,-0.91911876,10.301236,-4.686277,-11.5232315,39.39774,68.29139,1.3511953,-2.607817,-6.5081983
92,0.0911925882101059,-2.143556833267212,78.76016235351562,0.17119442221960413,0.4047043878497003,87.45320653669839,0.63271135,2.291038,14.737597,7.652628,-9.858113,-1.0685745,-0.78820616,-4.538643,-18.570723,7.9223127,-6.772985,2.5793586,-0.0636531,0.51627564,5.472404,4.608786,8.629547,-19.486565,64.05931,5.498688,-0.91506195,10.30674,-4.670714,-11.525915,39.3929,68.30759,1.3608224,-2.604343,-6.5040946
93,0.09269379079341888,-2.144169330596924,78.7585678100586,0.16992732485459053,0.3804147751848093,87.45592151457676,0.65128565,2.2961516,14.736243,7.6727214,-9.872757,-1.0698888,-0.7605642,-4.536443,-18.572342,7.9266887,-6.7805905,2.5824394,-0.06740839,0.52781266,5.457717,4.61727,8.637962,-19.477535,64.107,5.4917593,-0.9232555,10.334549,-4.65906,-11.526845,39.38821,68.33785,1.375915,-2.6050398,-6.5030456
94,0.09376070648431778,-2.1460282802581787,78.75867462158203,0.1693046089897022,0.35308369178298976,87.45974594946831,0.67382723,2.3009343,14.736653,7.6946387,-9.891654,-1.0699608,-0.7275424,-4.534409,-18.57304,7.9300027,-6.7897654,2.5911453,-0.07377357,0.53582263,5.44707,4.6299915,8.650656,-19.46551,64.14781,5.472223,-0.9381784,10.368952,-4.642391,-11.528065,39.38111,68.356705,1.3893776,-2.608057,-6.501214
95,0.0931822657585144,-2.1461286544799805,78.75951385498047,0.16827236901069725,0.32633105939997664,87.46219777907523,0.6954516,2.3062518,14.738219,7.7176533,-9.911263,-1.0701092,-0.69389695,-4.531473,-18.572466,7.929632,-6.796902,2.6006427,-0.07960446,0.5441039,5.4337187,4.6436243,8.663292,-19.454048,64.18791,5.450914,-0.95264846,10.404785,-4.625188,-11.529426,39.373363,68.37273,1.3993988,-2.6106272,-6.500653
96,0.09733623266220093,-2.144739866256714,78.75952911376953,0.16865150957642194,0.3040640139429233,87.46056838458178,0.7144156,2.310748,14.741268,7.7360253,-9.926231,-1.0715595,-0.6683288,-4.5292497,-18.569174,7.9319153,-6.8031363,2.6062384,-0.08273341,0.539454,5.426231,4.678326,8.708972,-19.437197,64.18487,5.4385133,-0.95777035,10.420117,-4.603656,-11.534759,39.362003,68.36242,1.4029758,-2.6116397,-6.497638
97,0.09625515341758728,-2.1459338665008545,78.75939178466797,0.16832512037661693,0.2885881464355458,87.45214490757083,0.7282379,2.313609,14.746307,7.749192,-9.934411,-1.0750235,-0.6552943,-4.5284657,-18.561356,7.9384527,-6.807939,2.6069422,-0.07760891,0.5514665,5.398644,4.685908,8.718666,-19.428894,64.225494,5.4400477,-0.95333564,10.430975,-4.5979357,-11.536146,39.359146,68.38589,1.409465,-2.6120353,-6.498663
98,0.0954691469669342,-2.1469767093658447,78.75775146484375,0.16947611205577348,0.27736619584093697,87.43932023275507,0.7385856,2.3158882,14.753078,7.7605824,-9.939494,-1.079861,-0.6484008,-4.528174,-18.550524,7.944043,-6.810043,2.6051638,-0.06974949,0.5654299,5.366623,4.6926174,8.724336,-19.42076,64.26383,5.449146,-0.94094646,10.434499,-4.597,-11.537285,39.356804,68.410614,1.410447,-2.6104565,-6.5019035
99,0.09656606614589691,-2.1477792263031006,78.75738525390625,0.1690848734657577,0.26725904726609323,87.42564809308743,0.74650764,2.3192713,14.760328,7.7736955,-9.945322,-1.0845695,-0.64579093,-4.5277896,-18.539028,7.954426,-6.8138733,2.601458,-0.07180085,0.5683276,5.33909,4.7221265,8.756894,-19.390163,64.26835,5.469175,-0.9278502,10.424578,-4.5838823,-11.544402,39.35257,68.40519,1.3992176,-2.609281,-6.5008063
100,0.1000165343284607,-2.1439199447631836,78.75718688964844,0.16771915041173543,0.25348100955023445,87.41572697381264,0.7538605,2.326561,14.765987,7.7952943,-9.957748,-1.0876575,-0.63658524,-4.5240717,-18.530586,7.961233,-6.817355,2.5965638,-0.06733326,0.57699317,5.3161483,4.733752,8.7759285,-19.372967,64.290634,5.484449,-0.917263,10.430607,-4.5828485,-11.548783,39.352406,68.41219,1.4046626,-2.6093826,-6.503808
101,0.1055765300989151,-2.1432647705078125,78.75776672363281,0.16296479309106635,0.23511162205788888,87.41066721048132,0.76003134,2.3399117,14.77028,7.8283963,-9.980065,-1.0891813,-0.62129706,-4.5161576,-18.525892,7.9685216,-6.823553,2.588586,-0.06945676,0.58845055,5.2972484,4.742196,8.790824,-19.351456,64.31858,5.4984612,-0.9112826,10.451866,-4.5729055,-11.551703,39.3396,68.41029,1.3947076,-2.6109557,-6.508808
102,0.10959973931312561,-2.145728588104248,78.7576675415039,0.1559268661369017,0.2139358409205789,87.40829170439451,0.76659834,2.3566506,14.773972,7.865709,-10.0068245,-1.0897166,-0.60234076,-4.5055056,-18.523232,7.9757915,-6.8311357,2.577966,-0.071629584,0.602591,5.282834,4.7468677,8.800719,-19.334333,64.34754,5.5106783,-0.9052227,10.484841,-4.566625,-11.553397,39.327435,68.40866,1.3872782,-2.6125512,-6.517485
103,0.11090830713510513,-2.1498115062713623,78.75596618652344,0.14949649512414964,0.19174921042397935,87.40741597897917,0.76989645,2.374988,14.776116,7.9115877,-10.037577,-1.0888823,-0.58297265,-4.494639,-18.521917,7.9839,-6.838219,2.5683568,-0.077438146,0.6005111,5.287746,4.7630267,8.837632,-19.290897,64.340935,5.5411367,-0.90122676,10.503585,-4.5576625,-11.559309,39.304073,68.37378,1.3731518,-2.6142983,-6.519237
104,0.11255346238613129,-2.154294729232788,78.7535629272461,0.14482078069834586,0.16974779496723258,87.40604319783911,0.7737582,2.3889153,14.77746,7.9545436,-10.063257,-1.0856609,-0.5632396,-4.486973,-18.520145,7.9902453,-6.842416,2.563866,-0.08069753,0.60244906,5.286162,4.773612,8.866056,-19.266788,64.34554,5.5583434,-0.8981632,10.524257,-4.55221,-11.562801,39.28655,68.35237,1.3717725,-2.6165981,-6.5255537
105,0.11264561861753464,-2.1583592891693115,78.7521743774414,0.14401613594761242,0.14690253306197507,87.40475318009803,0.7776949,2.3973424,14.776217,7.998266,-10.084619,-1.0777243,-0.54293704,-4.4841976,-18.518309,7.9962444,-6.842973,2.5682497,-0.084966235,0.6046334,5.284941,4.7776756,8.886599,-19.246962,64.35711,5.5741715,-0.89810985,10.541552,-4.549202,-11.564595,39.266026,68.334526,1.3779925,-2.6194835,-6.5340443
106,0.11377818882465363,-2.163494825363159,78.75390625,0.14631988783597127,0.12302803117392047,87.40433959193425,0.78136927,2.4023325,14.772913,8.043789,-10.103614,-1.0661544,-0.5203844,-4.484326,-18.516943,7.999829,-6.840129,2.5785317,-0.09192677,0.60807025,5.2837076,4.7787294,8.900285,-19.229723,64.37294,5.58903,-0.9000683,10.559107,-4.547206,-11.5653105,39.244274,68.3191,1.3884592,-2.6225538,-6.5454683
107,0.117344930768013,-2.1697278022766113,78.75383758544922,0.14786693313945248,0.10044262185408571,87.40281979291075,0.78384525,2.4066603,14.770394,8.087811,-10.120704,-1.0556259,-0.5012365,-4.4850593,-18.51476,8.005493,-6.83731,2.588295,-0.09361265,0.6072474,5.2879815,4.775292,8.919159,-19.213173,64.383415,5.6056857,-0.90239716,10.569189,-4.551596,-11.565811,39.22267,68.301216,1.4040018,-2.6261902,-6.5538974
108,0.12122654914855957,-2.1728131771087646,78.75631713867188,0.14843059664156713,0.08163384557193892,87.39861768358429,0.78434193,2.4136596,14.771069,8.126112,-10.135498,-1.0508962,-0.4877839,-4.4829,-18.510645,8.011214,-6.8347325,2.5910819,-0.094048195,0.60653305,5.2917466,4.779302,8.942313,-19.196714,64.37946,5.622169,-0.899648,10.574043,-4.551302,-11.566161,39.19845,68.27506,1.4020908,-2.6268837,-6.5609355
109,0.121676966547966,-2.1776866912841797,78.75567626953125,0.14521084795152078,0.06840316769603456,87.39010135390002,0.78122985,2.424631,14.777313,8.1577835,-10.147636,-1.0555216,-0.48292974,-4.4766836,-18.503523,8.017694,-6.832889,2.5831563,-0.09064977,0.6149937,5.2846146,4.7744856,8.952321,-19.18691,64.391335,5.63539,-0.89397806,10.57589,-4.5558,-11.56621,39.18745,68.26217,1.3947831,-2.6262977,-6.566068
110,0.12316717952489853,-2.1850337982177734,78.75397491455078,0.14056245219438201,0.05900234506702256,87.378575082525,0.774067,2.4387434,14.786961,8.1882105,-10.158878,-1.0663441,-0.48501572,-4.4678974,-18.494526,8.025746,-6.8313394,2.568538,-0.085098706,0.6213352,5.2799716,4.7718,8.967641,-19.170794,64.39189,5.6538815,-0.88556933,10.567564,-4.5570045,-11.56627,39.169044,68.23833,1.3676764,-2.623553,-6.567298
111,0.12341505289077759,-2.193716049194336,78.75323486328125,0.13504438089499757,0.05096819526230004,87.36675616600228,0.76760983,2.4521186,14.796767,8.212621,-10.167488,-1.0773708,-0.48823363,-4.4586945,-18.484858,8.031717,-6.8288856,2.5527978,-0.07718515,0.6315354,5.272847,4.7659454,8.975222,-19.163094,64.395966,5.6681323,-0.87512255,10.5620575,-4.5643125,-11.566386,39.162434,68.222824,1.3512007,-2.6205301,-6.5697236
112,0.1254536211490631,-2.201815605163574,78.75172424316406,0.131769917572242,0.04222231760103547,87.35765765739654,0.76292545,2.4623094,14.803176,8.234168,-10.17567,-1.0826983,-0.49073118,-4.4521995,-18.476147,8.039789,-6.8279667,2.5414321,-0.07126724,0.6394319,5.267755,4.759311,8.979865,-19.158213,64.398575,5.678083,-0.86535233,10.559478,-4.5736327,-11.566451,39.15929,68.20901,1.3426312,-2.6191437,-6.573066
113,0.12822696566581726,-2.2095417976379395,78.75251007080078,0.131281990218068,0.03231169730793931,87.35218736761651,0.75963145,2.4687324,14.804841,8.254992,-10.185509,-1.0788121,-0.4898742,-4.448419,-18.468039,8.044997,-6.826308,2.536438,-0.07158329,0.64412445,5.2650113,4.7543497,8.986315,-19.153738,64.39658,5.680895,-0.8537799,10.561249,-4.5798645,-11.566235,39.155727,68.1922,1.3368704,-2.6201224,-6.5783954
114,0.12857088446617126,-2.217154026031494,78.75345611572266,0.1318768320111705,0.022356431102599193,87.3488716762719,0.7553967,2.4732876,14.803748,8.276453,-10.196966,-1.0695845,-0.48839405,-4.446094,-18.460073,8.049594,-6.8248806,2.5346715,-0.07419934,0.646551,5.265239,4.750644,8.99153,-19.15199,64.38791,5.6794252,-0.83914226,10.565595,-4.5854383,-11.565866,39.15354,68.17202,1.3326772,-2.621948,-6.585421
115,0.1316967010498047,-2.225585699081421,78.7544937133789,0.13092661852724177,0.012911380041268763,87.3469670792591,0.7485502,2.4784772,14.800744,8.301649,-10.209888,-1.060304,-0.48706567,-4.4435983,-18.453796,8.053476,-6.8224435,2.5336623,-0.07521066,0.643252,5.2701964,4.752616,9.008039,-19.154974,64.3642,5.6737065,-0.826703,10.567416,-4.592044,-11.564056,39.153725,68.14661,1.3354656,-2.623467,-6.591745
116,0.13642463088035583,-2.232424259185791,78.7545166015625,0.13063545826428916,0.004158198762890792,87.34498596987858,0.7437809,2.4832788,14.798603,8.319257,-10.216114,-1.0558839,-0.48607486,-4.4406023,-18.449762,8.05644,-6.818158,2.5312657,-0.07949547,0.6429263,5.271223,4.755761,9.017303,-19.156403,64.346275,5.6706862,-0.8249073,10.567635,-4.5912347,-11.562156,39.148182,68.11898,1.3257114,-2.6222699,-6.5958414
117,0.13848258554935455,-2.2387359142303467,78.75364685058594,0.12842937730704043,-0.003898851461770763,87.34281756711297,0.7389393,2.4901085,14.7970495,8.334412,-10.217511,-1.0593151,-0.48691466,-4.4361377,-18.449238,8.060988,-6.8112745,2.5265913,-0.07791251,0.6441972,5.2730646,4.7510834,9.022163,-19.15976,64.33748,5.675861,-0.83857673,10.562189,-4.599255,-11.560854,39.14859,68.097595,1.326979,-2.6175013,-6.5952363
118,0.14120253920555115,-2.2485270500183105,78.7521743774414,0.12524822924966741,-0.011182658680296213,87.3412493643892,0.7333349,2.4976482,14.795299,8.347563,-10.214976,-1.0672978,-0.48753476,-4.430507,-18.451685,8.063301,-6.801256,2.5208309,-0.077089116,0.64237714,5.2756443,4.7502265,9.033048,-19.166407,64.32333,5.679078,-0.8627658,10.552009,-4.601623,-11.55685,39.143982,68.06947,1.3211831,-2.6097639,-6.592346
119,0.14328287541866302,-2.2590889930725098,78.75399780273438,0.12227506590848425,-0.017799030385630698,87.34010736597236,0.7273767,2.5051181,14.793303,8.359139,-10.210873,-1.0760227,-0.4892546,-4.425116,-18.455,8.066457,-6.792117,2.5150242,-0.075735144,0.6410516,5.2786813,4.7477703,9.039247,-19.172031,64.31011,5.6835604,-0.8893546,10.542689,-4.6066847,-11.553665,39.14204,68.04401,1.3192484,-2.6028776,-6.5886183
120,0.14419525861740112,-2.2679169178009033,78.75494384765625,0.11995987600659712,-0.023423529499071016,87.33976362716308,0.7190966,2.5117533,14.790697,8.37369,-10.209646,-1.0816996,-0.4916771,-4.4206414,-18.457455,8.069092,-6.7859306,2.509879,-0.07485288,0.6360071,5.281212,4.7493,9.047766,-19.177137,64.290184,5.6831775,-0.9098766,10.537702,-4.6048174,-11.547086,39.13247,68.01557,1.3095878,-2.6001632,-6.586521
121,0.1471625566482544,-2.276898145675659,78.75528717041016,0.12059261870625286,-0.02884632050842891,87.34073851158965,0.7108234,2.5165875,14.787094,8.38752,-10.21005,-1.0827554,-0.4927209,-4.4173284,-18.45923,8.069939,-6.784558,2.5061626,-0.07448368,0.6307501,5.285974,4.7499056,9.049875,-19.178272,64.268036,5.683659,-0.9227554,10.544509,-4.6038136,-11.544065,39.130127,67.98612,1.3122542,-2.6038344,-6.586122
122,0.15107451379299164,-2.2857253551483154,78.75540161132812,0.12097652603640108,-0.033726728942102255,87.34285392809431,0.69940597,2.5214858,14.782284,8.406323,-10.213849,-1.0815439,-0.49296007,-4.4141154,-18.461163,8.068086,-6.7851305,2.5031466,-0.07441416,0.62230456,5.291062,4.7538133,9.051903,-19.177814,64.24006,5.683829,-0.93169284,10.558328,-4.601146,-11.537792,39.123894,67.958244,1.3129117,-2.6118762,-6.587075
123,0.15703965723514557,-2.296323776245117,78.75377655029297,0.12246477441530468,-0.037213844737227546,87.34452599433355,0.6892329,2.5248802,14.7783375,8.418855,-10.214158,-1.0795648,-0.4955378,-4.4116735,-18.462128,8.06729,-6.786287,2.4999456,-0.07425863,0.6139956,5.295866,4.7550826,9.051932,-19.177723,64.212975,5.6760817,-0.9391151,10.567198,-4.5976872,-11.532963,39.121292,67.92919,1.3163607,-2.620628,-6.587515
124,0.1588127315044403,-2.3060004711151123,78.75286102294922,0.12331453452229449,-0.0382278796157391,87.34440874604059,0.6776545,2.528479,14.7762575,8.428419,-10.211475,-1.0786086,-0.5022068,-4.4091244,-18.461685,8.067325,-6.784598,2.4954863,-0.07670761,0.6083792,5.298387,4.7568693,9.051525,-19.178242,64.184044,5.654835,-0.9455625,10.560816,-4.59285,-11.531469,39.119804,67.90096,1.3116261,-2.6269045,-6.5868797
125,0.16074544191360474,-2.314962148666382,78.75239562988281,0.12341738340398303,-0.03295502934006038,87.34213921702741,0.6585559,2.5336952,14.775719,8.438235,-10.20555,-1.0796958,-0.5179206,-4.4053235,-18.459429,8.068353,-6.7778134,2.4886544,-0.07473591,0.60356563,5.298106,4.757872,9.049794,-19.187658,64.1485,5.608773,-0.94822884,10.531793,-4.5911036,-11.525421,39.12163,67.87418,1.3065227,-2.6278203,-6.5885506
126,0.16242322325706482,-2.3230838775634766,78.7530746459961,0.12339471264011677,-0.0236543887694089,87.33831349152955,0.6369225,2.5386071,14.776687,8.443544,-10.195504,-1.0816789,-0.5388342,-4.401146,-18.455769,8.068544,-6.76739,2.4803379,-0.07282958,0.6029034,5.2886567,4.7593417,9.04739,-19.209743,64.11398,5.535822,-0.94739306,10.486938,-4.588957,-11.517565,39.12582,67.85795,1.2974429,-2.6272626,-6.5911126
127,0.1669904887676239,-2.3339462280273438,78.75373077392578,0.12428904672160929,-0.014670286809321923,87.33344841856454,0.6168473,2.543027,14.7794,8.446687,-10.184921,-1.0831491,-0.56077224,-4.397686,-18.451092,8.070332,-6.7570205,2.4721086,-0.061648175,0.60172844,5.2748632,4.754511,9.041106,-19.24572,64.09061,5.458133,-0.94721997,10.445105,-4.5894656,-11.498927,39.128254,67.85807,1.2906947,-2.6275768,-6.5956435
128,0.17212021350860596,-2.345252513885498,78.7559814453125,0.12393378998698308,-0.009716784928933167,87.32872448923617,0.59998006,2.546909,14.783614,8.451013,-10.176778,-1.0826792,-0.57798606,-4.3945637,-18.446802,8.07081,-6.748067,2.4652805,-0.05474442,0.59777176,5.2758126,4.7538834,9.037302,-19.258396,64.056244,5.410928,-0.9511801,10.413237,-4.591146,-11.4914,39.134014,67.84421,1.2839167,-2.6283028,-6.5964646
129,0.17493627965450287,-2.3561294078826904,78.75687408447266,0.12558919033802968,-0.010384339045415315,87.32342386281216,0.58702606,2.5500877,14.790745,8.460435,-10.175306,-1.079184,-0.5906951,-4.393311,-18.442352,8.073619,-6.7437654,2.4610164,-0.04466456,0.59191805,5.2852244,4.7588873,9.03215,-19.262228,64.01761,5.3920975,-0.9617252,10.403858,-4.5884023,-11.484985,39.137554,67.82624,1.2744393,-2.6309998,-6.5965257
130,0.17439629137516022,-2.3747503757476807,78.75688934326172,0.12727442408710982,-0.014919431502262817,87.31832665023694,0.5781147,2.5519884,14.799517,8.469519,-10.175704,-1.0735614,-0.59900606,-4.3930078,-18.438393,8.075567,-6.7412405,2.4583795,-0.026752753,0.5829906,5.300105,4.7592177,9.028984,-19.262602,63.983707,5.390944,-0.97725105,10.403236,-4.587903,-11.482373,39.14135,67.81001,1.272126,-2.6355686,-6.592404
131,0.17629528045654297,-2.3883144855499268,78.7554931640625,0.12802783155157715,-0.019087311552507907,87.31241376807712,0.56542605,2.5559855,14.809188,8.48567,-10.179851,-1.0678241,-0.60809654,-4.3915167,-18.433634,8.077183,-6.7375107,2.4553103,-0.027806053,0.58405954,5.313023,4.7640815,8.996625,-19.243267,63.95722,5.4077163,-0.9910937,10.419358,-4.6138215,-11.459948,39.171547,67.83315,1.274215,-2.6402333,-6.598323
132,0.1779024302959442,-2.4002175331115723,78.75454711914062,0.12870376067159423,-0.02144294258531872,87.30885036541041,0.5519229,2.5601707,14.814956,8.498012,-10.17991,-1.063387,-0.61894155,-4.389503,-18.430405,8.079243,-6.730965,2.4505897,-0.027639652,0.5834031,5.322413,4.7633986,8.968912,-19.23088,63.935566,5.424427,-0.9981373,10.424878,-4.62874,-11.443145,39.190792,67.84482,1.2702081,-2.6432712,-6.601194
133,0.17907848954200745,-2.4129276275634766,78.7545166015625,0.1286074236782023,-0.021092362711591848,87.30851256596529,0.5348493,2.565742,14.815583,8.510143,-10.177606,-1.058909,-0.6325801,-4.3863482,-18.428455,8.084396,-6.72181,2.4440036,-0.023535196,0.5769874,5.3358603,4.7679877,8.960179,-19.230913,63.89393,5.4396286,-0.993405,10.417762,-4.625815,-11.438181,39.198734,67.82468,1.2630502,-2.6431782,-6.6020594
134,0.18094190955162048,-2.428373098373413,78.75727081298828,0.12695533388305952,-0.019341539966331617,87.31042796824293,0.5156148,2.5724063,14.812892,8.522595,-10.174294,-1.0541165,-0.6464079,-4.38185,-18.427847,8.08773,-6.708572,2.4363747,-0.031555682,0.57989675,5.3369036,4.76617,8.927272,-19.227396,63.875896,5.463777,-0.9817313,10.416368,-4.6386824,-11.420104,39.224545,67.8402,1.2610035,-2.6426785,-6.6082764
135,0.18582357466220856,-2.4413769245147705,78.75941467285156,0.12585958533442226,-0.01610643332120822,87.31187617523412,0.4950187,2.5793757,14.81005,8.533658,-10.168014,-1.0524745,-0.662941,-4.37735,-18.427208,8.092574,-6.6951547,2.427163,-0.03513264,0.57703567,5.3445964,4.771318,8.908691,-19.230076,63.838825,5.4852624,-0.96761996,10.406329,-4.636962,-11.410081,39.23589,67.82738,1.2530813,-2.6400905,-6.6122227
136,0.19175265729427338,-2.450438976287842,78.76041412353516,0.12524512153512693,-0.010671186666620603,87.31077594423687,0.47175235,2.58686,14.809425,8.544208,-10.157509,-1.0574399,-0.68215644,-4.3719015,-18.426668,8.094556,-6.6811094,2.4158716,-0.039777074,0.5804229,5.344517,4.7681985,8.880242,-19.237272,63.82164,5.499513,-0.95914793,10.394699,-4.6540556,-11.395074,39.258217,67.84433,1.2621536,-2.640871,-6.616421
137,0.19448913633823395,-2.4656286239624023,78.76092529296875,0.12372634936473947,-0.0024993391695635673,87.30421967360945,0.44873577,2.5943465,14.813568,8.547592,-10.138183,-1.0748303,-0.7068641,-4.366092,-18.424978,8.0955715,-6.6673083,2.4008079,-0.04497663,0.5832319,5.3464785,4.773047,8.857461,-19.248014,63.79406,5.502674,-0.9567516,10.371064,-4.6642284,-11.383656,39.268433,67.84639,1.264439,-2.6409676,-6.6184297
138,0.19580861926078796,-2.481649160385132,78.76087951660156,0.12182734626210584,0.00815877446994348,87.2943178406773,0.42536235,2.6018696,14.820369,8.544923,-10.111182,-1.1011187,-0.7364404,-4.3600063,-18.422792,8.097306,-6.6540723,2.3827708,-0.04761673,0.58719665,5.3471637,4.7774925,8.836769,-19.265919,63.767284,5.498717,-0.95734894,10.339418,-4.6810026,-11.374043,39.28087,67.85296,1.2783628,-2.642139,-6.6190343
139,0.1974770724773407,-2.4958388805389404,78.76097106933594,0.11989995205654562,0.019350748043076182,87.2852132248807,0.39768386,2.610336,14.826637,8.548855,-10.086505,-1.126047,-0.7663918,-4.3536363,-18.421377,8.098203,-6.64052,2.364982,-0.053471867,0.5870999,5.351361,4.7881327,8.823602,-19.279724,63.731823,5.4928203,-0.96093553,10.305935,-4.6889653,-11.368441,39.28527,67.84402,1.2849171,-2.64242,-6.618829
140,0.2013818770647049,-2.51128888130188,78.76126861572266,0.11852874454109512,0.02970183269701271,87.28126713189583,0.36312062,2.6194773,14.829424,8.568064,-10.071988,-1.1390845,-0.792915,-4.3473654,-18.421507,8.097223,-6.626079,2.3506434,-0.055640575,0.5936232,5.3465962,4.783911,8.790319,-19.300814,63.729282,5.486409,-0.9687636,10.291213,-4.702427,-11.354264,39.28904,67.86153,1.2961901,-2.6450055,-6.622791
141,0.20746596157550812,-2.525625228881836,78.7629623413086,0.12053300615214141,0.03604514919276704,87.28412463436496,0.32953972,2.6254263,14.828871,8.593443,-10.065428,-1.1333154,-0.81289333,-4.3445535,-18.422565,8.097953,-6.6142325,2.343888,-0.06565016,0.5825813,5.356667,4.7949047,8.783005,-19.301918,63.701427,5.481146,-0.98279727,10.281149,-4.694234,-11.351109,39.28556,67.83757,1.3007706,-2.6471012,-6.625064
142,0.2149263173341751,-2.541151523590088,78.76545715332031,0.12121036947518367,0.045988392949463046,87.29296634026235,0.27408186,2.6371472,14.823479,8.654882,-10.078776,-1.1160784,-0.83203006,-4.3387837,-18.426853,8.091954,-6.5993934,2.3410308,-0.073849,0.58084524,5.3561482,4.8030214,8.754104,-19.30277,63.690453,5.4840417,-1.0001329,10.291929,-4.687595,-11.338401,39.26811,67.83277,1.2957649,-2.6476908,-6.6335087
143,0.22149652242660522,-2.558522939682007,78.76726531982422,0.12274440232488446,0.0536881612043399,87.30278690067313,0.22210841,2.6481552,14.817055,8.713236,-10.089991,-1.097121,-0.85029167,-4.333513,-18.431625,8.089458,-6.585239,2.3365567,-0.08368647,0.57724196,5.358489,4.8022146,8.724132,-19.302502,63.69192,5.4865317,-1.019336,10.302687,-4.6815104,-11.324386,39.252956,67.8288,1.2908748,-2.6495354,-6.6406603
144,0.2300308346748352,-2.5763301849365234,78.7695083618164,0.12210663804342793,0.0619559592840481,87.31068923624062,0.16936277,2.6625412,14.809444,8.76934,-10.095374,-1.0868802,-0.8727471,-4.3256426,-18.437555,8.089782,-6.5682516,2.323809,-0.095712304,0.5751596,5.362173,4.801943,8.7010975,-19.308292,63.69002,5.4886947,-1.0343711,10.305218,-4.6749697,-11.312768,39.240353,67.82032,1.2775794,-2.6504605,-6.644898
145,0.2361665517091751,-2.593290328979492,78.77182006835938,0.11637978888793292,0.07171774186695307,87.31607777848943,0.11319298,2.6824944,14.79925,8.825987,-10.094405,-1.0894679,-0.9027561,-4.3138666,-18.445778,8.096597,-6.5481715,2.2990205,-0.11030308,0.57592416,5.3692603,4.80586,8.686429,-19.322111,63.67673,5.493106,-1.0432373,10.297192,-4.670272,-11.304908,39.233345,67.804184,1.254765,-2.6484392,-6.6460066
146,0.24568600952625275,-2.611614465713501,78.77305603027344,0.10873068089490509,0.08270101490280786,87.32065352178776,0.05436143,2.706503,14.786699,8.8832245,-10.089548,-1.0989438,-0.93687654,-4.298614,-18.455927,8.105028,-6.524112,2.2662401,-0.11914528,0.58250004,5.371813,4.7957006,8.667531,-19.351435,63.68313,5.4965315,-1.0509876,10.28667,-4.669947,-11.293762,39.223343,67.80074,1.2252378,-2.647616,-6.6450725
147,0.2546985447406769,-2.6312835216522217,78.77379608154297,0.10132112292347133,0.09258245639461044,87.32461348048294,-0.0048114923,2.7315247,14.774421,8.942907,-10.084468,-1.1105022,-0.970442,-4.282761,-18.466036,8.113184,-6.4993253,2.2307982,-0.13190581,0.58604306,5.3814654,4.790809,8.656729,-19.376593,63.67733,5.5011787,-1.0554897,10.270237,-4.6710978,-11.286499,39.223248,67.7867,1.2024182,-2.645975,-6.6419816
148,0.2641354501247406,-2.6519360542297363,78.77496337890625,0.09841655333830107,0.09895896848303093,87.32765511464214,-0.059277754,2.7525787,14.766323,9.0021715,-10.081237,-1.1191739,-1.001283,-4.2713275,-18.473,8.124702,-6.4801803,2.1981366,-0.14735882,0.58435005,5.395027,4.787547,8.653646,-19.39141,63.67022,5.5057893,-1.0578792,10.251,-4.668377,-11.283922,39.224594,67.76716,1.1829734,-2.6463473,-6.637523
149,0.279927521944046,-2.6741926670074463,78.7759780883789,0.09718250642952113,0.10289812537080159,87.33241591785225,-0.123634584,2.7760317,14.760039,9.089896,-10.09356,-1.1231157,-1.0277472,-4.260638,-18.479353,8.134259,-6.4656096,2.1692665,-0.15382485,0.58373034,5.4061522,4.773318,8.647476,-19.430298,63.677845,5.4888387,-1.0559603,10.231442,-4.6651154,-11.277094,39.227303,67.75777,1.1829011,-2.6490335,-6.636847
150,0.2944817841053009,-2.695148468017578,78.77727508544922,0.09962239126672934,0.10288156667071176,87.33700257666789,-0.17697187,2.795289,14.7568655,9.163473,-10.101125,-1.1246741,-1.0501733,-4.25281,-18.484013,8.1451235,-6.455179,2.1419463,-0.16167964,0.5801506,5.422896,4.75801,8.643018,-19.466661,63.685425,5.4688644,-1.0505869,10.206255,-4.6610622,-11.2693205,39.231045,67.74603,1.1879829,-2.6526127,-6.635525
151,0.3093043863773346,-2.7165937423706055,78.7784194946289,0.10094707547785553,0.10243318158478353,87.339563979552,-0.23221807,2.817293,14.755537,9.242931,-10.112094,-1.1273099,-1.0730901,-4.2428503,-18.486525,8.156702,-6.445243,2.1142654,-0.16798292,0.57689744,5.437429,4.7409463,8.640962,-19.49827,63.698257,5.453196,-1.0447679,10.186035,-4.654532,-11.262566,39.23522,67.73384,1.1922369,-2.6585147,-6.63265
152,0.32438924908638,-2.738144874572754,78.77983856201172,0.10038933630866397,0.10321836713704564,87.33837571590158,-0.28975287,2.8446252,14.75531,9.325007,-10.12387,-1.134124,-1.0960767,-4.226879,-18.48683,8.163217,-6.430133,2.0847251,-0.1599569,0.5748458,5.444555,4.721564,8.63957,-19.541464,63.717705,5.4463525,-1.0382661,10.186019,-4.647565,-11.247652,39.24022,67.72748,1.1999267,-2.6653192,-6.630658
153,0.3371056318283081,-2.760434150695801,78.78040313720703,0.0954027868720713,0.10489994577536453,87.33104877122946,-0.3416966,2.8763795,14.757929,9.394799,-10.13078,-1.146775,-1.1210691,-4.20452,-18.482077,8.168915,-6.4110794,2.0537333,-0.15233311,0.5759336,5.456085,4.7092533,8.640236,-19.554756,63.725716,5.4798355,-1.0341424,10.204316,-4.6418557,-11.241298,39.249466,67.70626,1.2016782,-2.6735122,-6.6197114
154,0.350197434425354,-2.7827811241149902,78.77969360351562,0.08649002543383563,0.10860340858887935,87.3200964799409,-0.40153497,2.9163,14.761482,9.478246,-10.145775,-1.1636763,-1.1471119,-4.174714,-18.47496,8.170149,-6.3878145,2.0213902,-0.13855182,0.58008677,5.4599676,4.695224,8.641515,-19.56773,63.741856,5.526283,-1.0306917,10.241371,-4.6319656,-11.23621,39.264553,67.68368,1.208262,-2.68311,-6.6079965
155,0.371660977602005,-2.804511308670044,78.77754974365234,0.07733120996686298,0.11248895312152506,87.30755394907797,-0.46484664,2.9586902,14.765247,9.5676365,-10.160802,-1.1818471,-1.1758877,-4.143713,-18.467173,8.174892,-6.365314,1.9872693,-0.123726085,0.5841575,5.4605575,4.682332,8.6442,-19.577751,63.75947,5.5712614,-1.0259334,10.2837925,-4.621029,-11.229448,39.285564,67.659706,1.2137341,-2.6931262,-6.5976815
156,0.39391830563545227,-2.8270580768585205,78.77536010742188,0.0716404309273535,0.11576932331221818,87.2952652419425,-0.535454,2.999736,14.76841,9.670702,-10.175903,-1.1983647,-1.2225143,-4.121566,-18.459686,8.217159,-6.361581,1.950915,-0.110568434,0.58675385,5.4637556,4.6702046,8.647137,-19.579826,63.77359,5.601338,-1.0177592,10.318936,-4.6116204,-11.224206,39.301273,67.63321,1.2068197,-2.703023,-6.589992
157,0.41840699315071106,-2.8530967235565186,78.77298736572266,0.07376611345356111,0.11958698930935492,87.28283959792529,-0.6160046,3.0355499,14.771874,9.790428,-10.189916,-1.2123164,-1.3119415,-4.120784,-18.451172,8.349514,-6.4043045,1.9122062,-0.10360099,0.5777408,5.4641137,4.659199,8.65707,-19.570898,63.78878,5.610325,-1.002464,10.3430395,-4.600351,-11.209661,39.320583,67.60582,1.1848277,-2.710639,-6.586771
158,0.4445037245750427,-2.881774663925171,78.77168273925781,0.07780089877204305,0.12288511958783897,87.2703093459513,-0.7023648,3.070533,14.774453,9.9211645,-10.202506,-1.2254134,-1.4006301,-4.121829,-18.444784,8.478292,-6.4441633,1.8710028,-0.099391416,0.56474835,5.4673443,4.6539702,8.671252,-19.550688,63.794655,5.611093,-0.9816138,10.36118,-4.6058493,-11.191708,39.34572,67.59302,1.1615404,-2.7199807,-6.583465
159,0.46730586886405945,-2.909572124481201,78.77122497558594,0.08104769047964985,0.12631869536252016,87.25843543223868,-0.80064225,3.1115549,14.775097,10.074043,-10.223318,-1.2385244,-1.4880677,-4.118564,-18.439297,8.601124,-6.48018,1.8276495,-0.09586237,0.55210394,5.471404,4.6480637,8.690336,-19.524136,63.799522,5.6010895,-0.96380633,10.376959,-4.6109524,-11.170095,39.365932,67.576485,1.1318974,-2.731082,-6.585052
160,0.48964932560920715,-2.938847541809082,78.77323913574219,0.07814220291207533,0.13065745531375011,87.24846875443635,-0.9115764,3.1623976,14.772715,10.247814,-10.255428,-1.2519884,-1.5735852,-4.1061893,-18.43375,8.715521,-6.5114207,1.7827032,-0.09371729,0.54301476,5.4757504,4.6434765,8.71475,-19.493586,63.800766,5.578931,-0.9567754,10.392813,-4.616053,-11.145221,39.376747,67.556694,1.1000243,-2.747589,-6.594488
161,0.5163764357566833,-2.9708406925201416,78.77310943603516,0.06968459531751657,0.13556880963155313,87.24037491074716,-1.0340525,3.2254105,14.767876,10.4421625,-10.302264,-1.2661248,-1.6530074,-4.0813956,-18.426819,8.814257,-6.5345106,1.737001,-0.08101631,0.55339,5.4755535,4.6269665,8.7214,-19.47707,63.818558,5.5275216,-0.969067,10.416167,-4.608546,-11.139519,39.375675,67.52387,1.0775962,-2.7666328,-6.6116543
162,0.5476211309432983,-3.0063905715942383,78.77173614501953,0.056599820979089326,0.14298528579937717,87.23400041545277,-1.1732777,3.2989557,14.760408,10.663294,-10.363696,-1.2806625,-1.7345034,-4.048691,-18.419552,8.910336,-6.5558944,1.6897118,-0.082687475,0.5533834,5.480935,4.618001,8.752774,-19.425043,63.820007,5.466208,-0.99582255,10.427869,-4.6165495,-11.11567,39.379555,67.49567,1.056712,-2.7897365,-6.6337156
163,0.5770094990730286,-3.043396472930908,78.76912689208984,0.04047096348916208,0.14995176255359552,87.22882783852607,-1.3256884,3.3795674,14.748985,10.908504,-10.433244,-1.2952818,-1.815192,-4.0106854,-18.413706,9.001637,-6.5738435,1.6399014,-0.08288511,0.5557201,5.486924,4.6145477,8.7914295,-19.380869,63.813225,5.4047174,-1.0205034,10.44206,-4.629934,-11.087989,39.383934,67.46857,1.0406337,-2.8198025,-6.665045
164,0.6123607158660889,-3.0819289684295654,78.76296997070312,0.02412521010403184,0.15682207974153764,87.22514102290107,-1.4981292,3.4659111,14.731493,11.189206,-10.51103,-1.3094594,-1.9016547,-3.9715755,-18.411291,9.099793,-6.593726,1.5862819,-0.08055419,0.56077415,5.497597,4.6068296,8.833385,-19.344938,63.805542,5.3729467,-1.0300511,10.4596615,-4.652452,-11.060303,39.388813,67.43737,1.0271934,-2.860075,-6.706417
165,0.648382842540741,-3.124312400817871,78.7575912475586,0.008379777405578732,0.16399243231409508,87.22102800566537,-1.6926289,3.555651,14.708578,11.508029,-10.594083,-1.3225498,-1.9957337,-3.9341884,-18.410511,9.205827,-6.6142225,1.5283606,-0.07706503,0.56946135,5.5128026,4.592961,8.874954,-19.315727,63.800056,5.3871665,-1.0161499,10.485427,-4.6782646,-11.035738,39.386173,67.39533,1.0015765,-2.912767,-6.760604
166,0.6842207908630371,-3.16934871673584,78.75323486328125,-0.007380229518216948,0.1703472600970346,87.21674370779593,-1.9009289,3.6485639,14.6818285,11.851722,-10.679961,-1.3346153,-2.0941684,-3.8972561,-18.410324,9.31731,-6.6353707,1.4671776,-0.06680131,0.58830917,5.5276284,4.5610714,8.901562,-19.299044,63.81785,5.4299507,-0.98938894,10.521795,-4.702925,-11.022594,39.381386,67.34454,0.9769791,-2.974817,-6.826497
167,0.7229942679405212,-3.2188148498535156,78.74872589111328,-0.02932244834379452,0.17826123415002665,87.21699357939696,-2.1381252,3.7557073,14.645562,12.245885,-10.787223,-1.3470398,-2.1942363,-3.8511512,-18.417553,9.424974,-6.6548786,1.4022247,-0.06317852,0.61052936,5.5531206,4.537721,8.941412,-19.275196,63.81008,5.483802,-0.9581359,10.550132,-4.741772,-11.007067,39.377254,67.28576,0.9555769,-3.0431888,-6.8961253
168,0.7631518244743347,-3.2722153663635254,78.74293518066406,-0.059279131260125635,0.18295917029338296,87.22387201914678,-2.3873963,3.876376,14.599926,12.666559,-10.91063,-1.3603257,-2.286921,-3.79343,-18.43432,9.523307,-6.6721187,1.3346367,-0.0594597,0.645224,5.5779505,4.507612,8.974398,-19.259317,63.81263,5.521639,-0.9380021,10.571442,-4.774317,-10.997015,39.37022,67.214676,0.94086653,-3.111527,-6.966563
169,0.802920401096344,-3.3256120681762695,78.73440551757812,-0.0998651673608898,0.18275912791298596,87.23987014383536,-2.6504462,4.013991,14.541676,13.121386,-11.058759,-1.374082,-2.3581295,-3.7181017,-18.465387,9.588722,-6.6823254,1.2647302,-0.06133202,0.6855842,5.6081257,4.478002,9.017843,-19.251047,63.80899,5.5355887,-0.93045974,10.572075,-4.796513,-10.986038,39.351284,67.12177,0.9302024,-3.181398,-7.038421
170,0.8467801809310913,-3.382657766342163,78.72318267822266,-0.1486819894652604,0.1792269583953153,87.26292678189822,-2.9289422,4.165807,14.472533,13.610529,-11.227492,-1.3878249,-2.4182503,-3.6304238,-18.506954,9.637582,-6.6891947,1.1921333,-0.06323538,0.7317122,5.6429276,4.448434,9.068724,-19.253784,63.79895,5.537811,-0.9284709,10.559888,-4.8178606,-10.97542,39.32786,67.016205,0.9307177,-3.2548964,-7.1142097
171,0.895523726940155,-3.4451956748962402,78.70983123779297,-0.20481811671559297,0.17739369598078006,87.28972034884278,-3.2287009,4.330817,14.395588,14.132219,-11.407841,-1.4029117,-2.4789574,-3.5319495,-18.55451,9.679351,-6.6904645,1.1156782,-0.060273223,0.7804765,5.683614,4.4278746,9.13787,-19.258112,63.767338,5.532904,-0.93102056,10.544604,-4.841776,-10.963818,39.29895,66.89652,0.9286803,-3.3274925,-7.1869397
172,0.9441927075386047,-3.5103909969329834,78.6953125,-0.26968379829735756,0.18214908902395477,87.3170938844382,-3.5572686,4.5085936,14.3134775,14.689095,-11.593276,-1.4207274,-2.551568,-3.4244134,-18.603748,9.721584,-6.681876,1.034161,-0.053361952,0.8495101,5.7245674,4.406206,9.190615,-19.24643,63.734383,5.535745,-0.937857,10.546401,-4.878864,-10.958279,39.275494,66.77982,0.91556215,-3.3968108,-7.252269
173,0.9900419116020203,-3.5788767337799072,78.68192291259766,-0.34187480659913466,0.19440317407376148,87.34426654425282,-3.9169226,4.698156,14.227851,15.284482,-11.782919,-1.4412117,-2.639789,-3.3098974,-18.652348,9.770228,-6.663072,0.9484801,-0.04156441,0.93628454,5.7672114,4.387827,9.234436,-19.219967,63.691013,5.55384,-0.94957477,10.571601,-4.930129,-10.959019,39.256252,66.661224,0.887504,-3.4609194,-7.310101
174,1.0339645147323608,-3.6517210006713867,78.6688003540039,-0.4214126177387903,0.21153600729229122,87.37283516031832,-4.305317,4.900249,14.136465,15.919868,-11.980893,-1.4635447,-2.7363076,-3.1866455,-18.70337,9.818414,-6.635513,0.8587984,-0.026447872,1.0422482,5.809571,4.3664684,9.262457,-19.184637,63.649048,5.581423,-0.96653146,10.614114,-4.992583,-10.964739,39.24018,66.543,0.85030085,-3.5216062,-7.3637204
175,1.08138108253479,-3.7307918071746826,78.65362548828125,-0.5106342993869805,0.2333732913918883,87.40327443213104,-4.714146,5.114741,14.037,16.576303,-12.1829195,-1.488007,-2.8381343,-3.0515184,-18.759134,9.858202,-6.5989394,0.7627643,-0.0076775206,1.1595172,5.8581405,4.3519707,9.293231,-19.131422,63.590088,5.603458,-0.9862946,10.655794,-5.062521,-10.978851,39.230366,66.413284,0.8115894,-3.5781999,-7.408146
176,1.130278468132019,-3.81467866897583,78.63639831542969,-0.6097561642033958,0.2598814184595586,87.43588116269807,-5.142988,5.3432994,13.926629,17.251715,-12.388767,-1.5149614,-2.94133,-2.9010375,-18.822289,9.879601,-6.552604,0.65809894,0.017508263,1.2918645,5.9076414,4.338795,9.316021,-19.061968,63.528465,5.6034102,-1.0064977,10.689164,-5.139406,-10.9977255,39.226044,66.284546,0.77297574,-3.6302354,-7.4427586
177,1.1805016994476318,-3.9019618034362793,78.61649322509766,-0.718319650260582,0.28913086725803006,87.46827689276722,-5.5863132,5.5864387,13.805875,17.94131,-12.598683,-1.5454228,-3.0387812,-2.7320974,-18.891151,9.872159,-6.493529,0.5425369,0.062955216,1.4405569,5.946655,4.3205066,9.32469,-18.999855,63.48075,5.5597086,-1.0260422,10.715283,-5.217953,-11.00924,39.218086,66.17247,0.73177886,-3.677269,-7.4660835
178,1.2284915447235107,-3.9927854537963867,78.5937728881836,-0.8374939261742883,0.32122479891983907,87.50094447229954,-6.047762,5.843133,13.675338,18.651852,-12.814424,-1.5789151,-3.1393044,-2.5491643,-18.964642,9.855499,-6.429757,0.41791865,0.086442806,1.5979598,6.0095544,4.3204126,9.339862,-18.86219,63.3942,5.5181217,-1.0494851,10.718495,-5.31396,-11.0436945,39.23938,66.0291,0.6941399,-3.7179556,-7.46802
179,1.2860703468322754,-4.087824821472168,78.56887817382812,-0.9651591032155666,0.3609288154892416,87.53916061744951,-6.5350018,6.1112924,13.532498,19.382442,-13.030653,-1.6137425,-3.244849,-2.3531303,-19.04841,9.82248,-6.3532333,0.28776744,0.11297426,1.7730671,6.072863,4.3264747,9.348691,-18.716335,63.298134,5.465539,-1.0730386,10.723209,-5.4062867,-11.097434,39.271214,65.869286,0.66005135,-3.7539246,-7.4688373
180,1.3383238315582275,-4.1902174949646,78.5427474975586,-1.1030765281762323,0.4118440649197532,87.58773813693558,-7.055916,6.389543,13.374713,20.133892,-13.2433605,-1.6482196,-3.3621418,-2.1462402,-19.147665,9.778035,-6.2629843,0.15563673,0.15277442,1.9649724,6.1369176,4.3206,9.34442,-18.571793,63.209717,5.425011,-1.0957144,10.739984,-5.5120983,-11.148898,39.29083,65.72556,0.6219036,-3.790245,-7.4801044
181,1.3884711265563965,-4.29937744140625,78.5171127319336,-1.2546773924563388,0.47443279130285965,87.64716729258919,-7.6134977,6.682619,13.20271,20.913439,-13.458645,-1.6822164,-3.4929109,-1.9251604,-19.263945,9.725546,-6.159428,0.021100542,0.19289178,2.1767428,6.2045383,4.3105183,9.328166,-18.409298,63.121033,5.416933,-1.1149873,10.77074,-5.632546,-11.205236,39.317802,65.58681,0.58502823,-3.8246815,-7.5056014
182,1.443250298500061,-4.418107986450195,78.49051666259766,-1.4186842257148382,0.5467205210445097,87.71495077232096,-8.203094,6.9887795,13.016843,21.717125,-13.675893,-1.7164283,-3.63336,-1.6899645,-19.394625,9.661573,-6.042923,-0.11719869,0.22792187,2.4130008,6.277895,4.297107,9.291416,-18.218828,63.031776,5.4324894,-1.13311,10.810127,-5.7620397,-11.284891,39.363758,65.437256,0.556082,-3.8557076,-7.5371695
183,1.4950474500656128,-4.547266960144043,78.46316528320312,-1.5867526355440311,0.6293843619798376,87.79216769797283,-8.822592,7.2966375,12.813921,22.534014,-13.882788,-1.7502543,-3.7890332,-1.4513186,-19.537874,9.594521,-5.9189973,-0.25712338,0.27096048,2.6595924,6.3542542,4.276765,9.246409,-18.024931,62.942436,5.4381857,-1.1544894,10.852387,-5.9052043,-11.360774,39.395683,65.29987,0.5199358,-3.8841631,-7.571352
184,1.5529940128326416,-4.681007385253906,78.43206787109375,-1.7549483683101945,0.7228907834390976,87.87996663160557,-9.468686,7.594573,12.590972,23.349901,-14.0656595,-1.7830306,-3.966651,-1.2199544,-19.69253,9.536274,-5.795916,-0.3964187,0.3099316,2.917018,6.439294,4.251514,9.18423,-17.814524,62.848213,5.416301,-1.185645,10.889925,-6.0627127,-11.451659,39.423904,65.16162,0.48520246,-3.9072266,-7.6009407
185,1.603559970855713,-4.8256354331970215,78.396240234375,-1.927019809305339,0.8267124663233227,87.97831964369755,-10.142913,7.8869386,12.34317,24.169077,-14.2359,-1.8134063,-4.16528,-0.9901316,-19.859781,9.485009,-5.6738296,-0.5360297,0.350084,3.1865077,6.532801,4.222919,9.112605,-17.593807,62.745476,5.354932,-1.2265617,10.9179,-6.2343984,-11.54658,39.43207,65.02763,0.43852916,-3.9244728,-7.62233
186,1.6524795293807983,-4.973921775817871,78.3583984375,-2.1040656758924823,0.9408128559565216,88.08666915858335,-10.846797,8.176723,12.0731,24.996782,-14.396061,-1.842133,-4.382764,-0.7595047,-20.040255,9.437111,-5.549804,-0.6765583,0.3901638,3.4686186,6.6342177,4.1917934,9.031169,-17.359032,62.63458,5.269028,-1.2746277,10.940493,-6.42264,-11.646697,39.432,64.89883,0.38809517,-3.9369912,-7.6393843
187,1.7101049423217773,-5.131223201751709,78.32010650634766,-2.2742902342130726,1.0665338741054469,88.20551886986959,-11.577614,8.4501,11.7894535,25.823637,-14.520498,-1.871717,-4.625982,-0.543935,-20.229994,9.406091,-5.428742,-0.81606203,0.43153444,3.749776,6.7416472,4.155436,8.941545,-17.118065,62.518234,5.164849,-1.3305022,10.964035,-6.6231484,-11.752444,39.425095,64.77391,0.34077016,-3.946378,-7.6583543
188,1.7629010677337646,-5.2993903160095215,78.28143310546875,-2.425945447780623,1.205167152943104,88.33508566761616,-12.334266,8.694472,11.500924,26.643297,-14.585135,-1.9049181,-4.900089,-0.3584631,-20.426752,9.400815,-5.3126755,-0.95127934,0.4765627,4.016156,6.853672,4.1132464,8.845946,-16.877813,62.396385,5.050297,-1.3947567,10.994437,-6.827375,-11.863212,39.406776,64.64726,0.2975724,-3.9541402,-7.685335
189,1.8151953220367432,-5.475359916687012,78.24659729003906,-2.558698706122837,1.358266952665697,88.47454956345561,-13.118806,8.910402,11.209645,27.456589,-14.585907,-1.9447422,-5.2116013,-0.20488392,-20.62954,9.429532,-5.203367,-1.0844371,0.5271972,4.2655225,6.9715147,4.0642495,8.746074,-16.637756,62.267124,4.9198356,-1.470936,11.040724,-7.03939,-11.979169,39.3773,64.51928,0.25914338,-3.9593754,-7.7255464
190,1.8704841136932373,-5.660638809204102,78.21376037597656,-2.6773515354052826,1.5246253855793055,88.62429677270835,-13.930004,9.103073,10.911921,28.26429,-14.535774,-1.9882252,-5.5587516,-0.07712878,-20.840029,9.491043,-5.1021333,-1.2158936,0.5823181,4.5043044,7.096034,4.010675,8.641869,-16.394775,62.12851,4.772333,-1.5576006,11.096556,-7.259906,-12.100073,39.337753,64.38995,0.22466238,-3.9617038,-7.7742386
191,1.9215993881225586,-5.8509135246276855,78.18379211425781,-2.7801106578388906,1.7015763050685446,88.7857413276613,-14.765195,9.266789,10.606662,29.069492,-14.43485,-2.032257,-5.928361,0.023188816,-21.058496,9.568391,-5.004095,-1.3411583,0.63916194,4.7311482,7.2238307,3.9537854,8.534008,-16.155256,61.98479,4.6180215,-1.6478281,11.145705,-7.4822044,-12.225908,39.28707,64.2612,0.19374518,-3.9636571,-7.823441
192,1.9747121334075928,-6.045650959014893,78.1563720703125,-2.862403827342389,1.8864118811173114,88.96055320930985,-15.618071,9.395158,10.294548,29.866165,-14.2831955,-2.0712361,-6.309269,0.09374548,-21.285078,9.648176,-4.9061456,-1.4556483,0.6962077,4.94389,7.3515882,3.8948183,8.4238825,-15.926472,61.839867,4.4674363,-1.7344408,11.171995,-7.7079782,-12.358189,39.235874,64.14155,0.18001421,-3.9681594,-7.8651075
193,2.0260536670684814,-6.247802257537842,78.12934875488281,-2.917387717735198,2.083124843264149,89.15095578673912,-16.498297,9.478825,9.978357,30.663076,-14.071899,-2.0996351,-6.714732,0.12054294,-21.51893,9.749627,-4.8182425,-1.5522865,0.75303704,5.136553,7.478494,3.8346677,8.311203,-15.705886,61.689064,4.3144627,-1.8184707,11.1670685,-7.93233,-12.497482,39.172905,64.02586,0.17678355,-3.9767866,-7.898705
194,2.079359292984009,-6.4573469161987305,78.10481262207031,-2.948953935203539,2.2915510330993945,89.35553557962504,-17.40373,9.523213,9.658615,31.457165,-13.802942,-2.120883,-7.141419,0.11056761,-21.759912,9.864044,-4.7340083,-1.6353352,0.8117228,5.3123465,7.6064353,3.7725677,8.195679,-15.491606,61.531574,4.156861,-1.9025698,11.140692,-8.157579,-12.643685,39.10081,63.91196,0.18583204,-3.9877682,-7.927836
195,2.125131607055664,-6.672362327575684,78.08364868164062,-2.970058114234316,2.5025170467230105,89.57081382901058,-18.31435,9.545066,9.331332,32.234615,-13.496292,-2.146626,-7.5706873,0.08504521,-22.008667,9.973992,-4.6453934,-1.7169254,0.8710902,5.482104,7.737023,3.708254,8.079533,-15.290973,61.376938,4.0081897,-1.9821857,11.103989,-8.382687,-12.797382,39.029427,63.803,0.2042321,-3.9984894,-7.9505043
196,2.169144868850708,-6.891366958618164,78.06393432617188,-2.997008045970687,2.7069414607737636,89.79312920396494,-19.207987,9.560379,8.992366,32.977207,-13.169521,-2.1880329,-7.98055,0.06690881,-22.26625,10.055315,-4.5410824,-1.8094058,0.9308457,5.6565447,7.8723493,3.642082,7.9659767,-15.111509,61.23293,3.8825252,-2.052925,11.067599,-8.605146,-12.95832,38.96999,63.698627,0.23326991,-4.0060735,-7.964616
197,2.2167840003967285,-7.114472389221191,78.0444107055664,-3.032437341885305,2.9055095571911584,90.02607135100796,-20.098055,9.571354,8.63107,33.70189,-12.815222,-2.2383604,-8.370165,0.06114777,-22.538666,10.10256,-4.4171925,-1.9197788,0.98879105,5.8398433,8.015725,3.573289,7.856559,-14.951595,61.09707,3.784162,-2.11083,11.02395,-8.823636,-13.126761,38.91577,63.594803,0.272139,-4.0102067,-7.9652877
198,2.2721989154815674,-7.3376851081848145,78.02275848388672,-3.069379691560822,3.1022083112718675,90.27000732560316,-20.989418,9.569425,8.253092,34.410576,-12.4277,-2.2958074,-8.749077,0.05558486,-22.82356,10.127792,-4.2800317,-2.04012,1.0467166,6.025048,8.165704,3.502915,7.751201,-14.809212,60.964695,3.7053437,-2.1592066,10.9703865,-9.041854,-13.30278,38.868385,63.493088,0.32710582,-4.0123215,-7.9549584
199,2.3211915493011475,-7.559235572814941,78.0016098022461,-3.1037530183471094,3.292724622496184,90.51648392197521,-21.848324,9.554741,7.877983,35.062447,-12.027146,-2.379052,-9.112819,0.048514303,-23.109419,10.1334,-4.132583,-2.160666,1.1072071,6.205558,8.316312,3.43453,7.651024,-14.689414,60.843002,3.6402576,-2.2055933,10.92517,-9.253131,-13.485155,38.831184,63.39578,0.38170138,-4.012101,-7.942546
200,2.3705244064331055,-7.7818498611450195,77.98125457763672,-3.1321227218275682,3.4730646036338255,90.75715352443817,-22.640688,9.528112,7.5250907,35.616745,-11.634299,-2.5068722,-9.457235,0.038053144,-23.384832,10.123088,-3.9788783,-2.2717164,1.1734742,6.374682,8.461429,3.3745413,7.557847,-14.597802,60.732746,3.5839243,-2.25376,10.906045,-9.450091,-13.671263,38.806965,63.304928,0.41949666,-4.009246,-7.93709
201,2.4136528968811035,-8.009092330932617,77.96810150146484,-3.154785016386507,3.6446632111993957,90.99314787896807,-23.371761,9.491189,7.2008476,36.063057,-11.2270565,-2.676386,-9.781382,0.025013214,-23.65027,10.090562,-3.8172522,-2.37008,1.2468446,6.5322504,8.602465,3.319488,7.4733167,-14.542083,60.63534,3.5403943,-2.302701,10.919609,-9.637972,-13.8603735,38.7997,63.22349,0.43525657,-4.004355,-7.9428153
202,2.465322494506836,-8.228812217712402,77.95084381103516,-3.1715306241814583,3.808935376693998,91.22793596578128,-24.055048,9.443927,6.893925,36.423965,-10.804546,-2.8809924,-10.087067,0.010770129,-23.910822,10.035612,-3.6461353,-2.4613893,1.325633,6.6801167,8.741547,3.269763,7.3974247,-14.5171995,60.54745,3.5108411,-2.3502998,10.955378,-9.818823,-14.052456,38.806206,63.15093,0.4371722,-3.9975848,-7.9544277
203,2.5179831981658936,-8.447261810302734,77.93229675292969,-3.1839512108183396,3.96114864155754,91.45634590733634,-24.668962,9.386343,6.5965095,36.70722,-10.418728,-3.1335955,-10.374959,-0.0062303487,-24.161526,9.972717,-3.4712703,-2.5489879,1.408223,6.8149843,8.873983,3.2323613,7.3302236,-14.51043,60.471233,3.4830189,-2.403262,11.006388,-9.985138,-14.24491,38.82339,63.087566,0.4352282,-3.9879978,-7.967006
204,2.569326639175415,-8.660656929016113,77.91558837890625,-3.191422254901622,4.09657043137531,91.67320912241748,-25.192545,9.318534,6.3011503,36.922318,-10.122309,-3.4465983,-10.644317,-0.026768442,-24.39751,9.914405,-3.297515,-2.6362717,1.4926568,6.9327254,8.994866,3.2146785,7.271943,-14.5087385,60.408527,3.4452136,-2.468159,11.065686,-10.135565,-14.434083,38.854797,63.040028,0.44622275,-3.9750812,-7.9759316
205,2.619069814682007,-8.869428634643555,77.90342712402344,-3.1941691112100803,4.212725835601933,91.87791322462961,-25.607878,9.229407,5.98099,37.012783,-9.907901,-3.8820517,-10.8910675,-0.04786961,-24.61886,9.8583355,-3.1220422,-2.7254205,1.579753,7.032247,9.103225,3.2202342,7.224265,-14.513372,60.36068,3.3850756,-2.5556452,11.142906,-10.268146,-14.616433,38.902683,63.011803,0.47378865,-3.9593225,-7.980945
206,2.6690993309020996,-9.075730323791504,77.89351654052734,-3.193821502367479,4.312490840144,92.07281943874892,-25.928688,9.124943,5.648681,36.991222,-9.75504,-4.4128814,-11.11654,-0.06927868,-24.827835,9.799578,-2.9439237,-2.8142555,1.6693844,7.114701,9.2012005,3.2459185,7.1876826,-14.528385,60.32558,3.312477,-2.6591723,11.237754,-10.389089,-14.79075,38.967697,63.005207,0.51149774,-3.941136,-7.9848704
207,2.7177164554595947,-9.28152084350586,77.88427734375,-3.186133302301278,4.399405791341897,92.2575840239198,-26.188133,9.029061,5.3571324,36.981434,-9.701277,-4.9170084,-11.329872,-0.097922124,-25.022694,9.746405,-2.7689972,-2.8996618,1.7571093,7.1796484,9.288343,3.2883685,7.1597657,-14.545213,60.301758,3.247409,-2.7600288,11.3285885,-10.501555,-14.956498,39.04206,63.01943,0.54952574,-3.9197805,-7.987146
208,2.7680881023406982,-9.474117279052734,77.8772201538086,-3.1683131253996235,4.476778387959947,92.4317707122112,-26.41848,8.965174,5.159384,37.104767,-9.780802,-5.2728176,-11.541284,-0.14143191,-25.201674,9.710889,-2.6049144,-2.9784412,1.8378619,7.2276044,9.363835,3.3448884,7.135624,-14.5527725,60.288162,3.2123606,-2.8393216,11.393976,-10.602516,-15.113152,39.11028,63.049034,0.56841236,-3.8942044,-7.987111
209,2.815690279006958,-9.674237251281738,77.87085723876953,-3.1390205525479313,4.543886976026644,92.59410793750321,-26.620258,8.942592,5.082946,37.37487,-10.043753,-5.423957,-11.748827,-0.200363,-25.363373,9.688567,-2.4510453,-3.0491784,1.9128815,7.258049,9.426698,3.4150057,7.1121716,-14.548079,60.288765,3.2189581,-2.8924353,11.431605,-10.697638,-15.261341,39.18354,63.104286,0.5650771,-3.8644116,-7.9833665
210,2.8546977043151855,-9.874224662780762,77.8674545288086,-3.10083267708681,4.599492273961106,92.74516336304247,-26.778801,8.948345,5.0946937,37.73148,-10.455715,-5.442902,-11.946816,-0.27006105,-25.508648,9.672216,-2.3023624,-3.1137285,1.9832875,7.2725825,9.477126,3.4992776,7.088922,-14.535142,60.304707,3.2553911,-2.929438,11.452488,-10.785255,-15.400998,39.2635,63.184048,0.5465423,-3.8307762,-7.976838
211,2.888352155685425,-10.069765090942383,77.85818481445312,-3.0559430446041196,4.646685487807218,92.88758705065982,-26.906975,8.972117,5.156357,38.19023,-10.925191,-5.4013653,-12.147898,-0.35420927,-25.640469,9.682606,-2.166851,-3.1737726,2.0449972,7.2744737,9.515292,3.5931733,7.066552,-14.518414,60.33417,3.3039653,-2.9530914,11.456181,-10.862861,-15.531982,39.33508,63.277054,0.52632207,-3.7932043,-7.970575
212,2.920212745666504,-10.26268482208252,77.85111999511719,-3.004309691204416,4.688332960164888,93.02385377865288,-27.016289,9.003273,5.230007,38.764095,-11.359443,-5.3714256,-12.352588,-0.44999382,-25.759693,9.712537,-2.0373123,-3.2312675,2.0943031,7.266912,9.541542,3.6927454,7.0461383,-14.502545,60.374588,3.3474455,-2.966221,11.441732,-10.92012,-15.6531105,39.37316,63.364616,0.5078062,-3.7510867,-7.967412
213,2.9486372470855713,-10.455933570861816,77.84913635253906,-2.9442070153626214,4.7249869738495285,93.15478241111606,-27.106754,9.043487,5.3260612,39.46431,-11.740044,-5.3534427,-12.565481,-0.5636624,-25.863773,9.771285,-1.9166349,-3.284709,2.1307034,7.246044,9.554981,3.799719,7.0286946,-14.486701,60.425316,3.3826587,-2.9651475,11.397361,-10.960219,-15.763664,39.376785,63.453213,0.4970247,-3.7003858,-7.966017
214,2.9703588485717773,-10.64955997467041,77.847412109375,-2.875785679005817,4.755038587036066,93.27890924913869,-27.172005,9.097376,5.4574404,40.2802,-12.1139965,-5.3149285,-12.781713,-0.69286036,-25.952883,9.853162,-1.8041087,-3.3333764,2.1563828,7.2110143,9.555722,3.915921,7.0144134,-14.469423,60.486874,3.4183373,-2.9498458,11.327145,-10.982865,-15.863368,39.35168,63.546185,0.48426038,-3.6424701,-7.9654694
215,2.9979517459869385,-10.843965530395508,77.8427505493164,-2.806655524026003,4.778205775719841,93.39496924458791,-27.212587,9.159745,5.591368,41.188805,-12.485245,-5.278745,-13.00003,-0.827667,-26.032291,9.953157,-1.6997166,-3.38161,2.1738799,7.1703014,9.545856,4.0353427,7.0038977,-14.457393,60.559986,3.4528124,-2.9284852,11.2545595,-10.990391,-15.953602,39.3055,63.63555,0.47698218,-3.5863895,-7.9696903
216,3.0168139934539795,-11.040294647216797,77.83598327636719,-2.744388324196863,4.794661334658806,93.50216393599153,-27.229136,9.224526,5.695707,42.167763,-12.858038,-5.2680497,-13.2166195,-0.95745236,-26.108795,10.061591,-1.6011099,-3.4324903,2.185455,7.1323113,9.527244,4.153083,6.9976068,-14.457201,60.64304,3.4847202,-2.9079673,11.202922,-10.97768,-16.036455,39.23612,63.70688,0.47175676,-3.5407455,-7.982196
217,3.034994602203369,-11.238311767578125,77.8255615234375,-2.6887432789672676,4.803279599044684,93.60034396734241,-27.222525,9.287088,5.7606134,43.22722,-13.229147,-5.2989106,-13.432689,-1.0827289,-26.184431,10.18447,-1.5121633,-3.488467,2.1907396,7.0966086,9.499019,4.2678604,6.996266,-14.472233,60.74294,3.5150306,-2.8922677,11.180041,-10.952728,-16.105484,39.149307,63.768364,0.47982547,-3.5073304,-8.009802
218,3.047866106033325,-11.434453964233398,77.81389617919922,-2.63823102692782,4.804554102275633,93.69000580225641,-27.190666,9.350789,5.8044925,44.37215,-13.597349,-5.356144,-13.647764,-1.2071607,-26.255884,10.320595,-1.431066,-3.5471017,2.1945615,7.0627403,9.463069,4.37968,6.999491,-14.505173,60.855473,3.5422044,-2.8758943,11.172252,-10.893563,-16.179943,39.0271,63.794743,0.48832783,-3.4802501,-8.0462055
219,3.0583598613739014,-11.63197135925293,77.80128479003906,-2.591315321427868,4.79996967289508,93.77047809363299,-27.130812,9.420852,5.8379235,45.572807,-13.9697275,-5.416251,-13.861544,-1.3278886,-26.320301,10.462687,-1.3527182,-3.604525,2.1811497,7.02665,9.416788,4.4961185,7.004776,-14.530156,60.97592,3.5696843,-2.8590305,11.173249,-10.840231,-16.228912,38.90764,63.838455,0.50575054,-3.462482,-8.085314
220,3.0621538162231445,-11.82794189453125,77.78471374511719,-2.5511408930568216,4.791207366608616,93.84125545498712,-27.04183,9.503611,5.8701253,46.803722,-14.354933,-5.455272,-14.073051,-1.4420255,-26.37519,10.603137,-1.2721833,-3.6566133,2.176417,6.9949293,9.367873,4.6033983,7.016616,-14.568254,61.097458,3.5891821,-2.8413324,11.174756,-10.751813,-16.298737,38.763252,63.837063,0.5231265,-3.451908,-8.110134
221,3.061532974243164,-12.030613899230957,77.7647705078125,-2.515777853393388,4.778883530908956,93.90408496873854,-26.926298,9.598123,5.895224,48.075214,-14.757395,-5.469425,-14.280499,-1.5487033,-26.421638,10.737487,-1.1903951,-3.7020376,2.1536222,6.9651904,9.312489,4.7133026,7.030207,-14.59373,61.218353,3.6039343,-2.8239803,11.177991,-10.662727,-16.360544,38.62519,63.83226,0.5580433,-3.4544744,-8.121097
222,3.0572052001953125,-12.230989456176758,77.74397277832031,-2.4862536212944786,4.762132663945641,93.95873621944465,-26.783133,9.702058,5.9107485,49.394928,-15.171772,-5.4705443,-14.486993,-1.6506361,-26.46028,10.876211,-1.1122165,-3.7428443,2.113891,6.9373083,9.248672,4.824836,7.043448,-14.610242,61.344658,3.6157951,-2.806793,11.186655,-10.5714445,-16.407614,38.485737,63.82933,0.60289174,-3.4688175,-8.124772
223,3.0563247203826904,-12.43301773071289,77.72298431396484,-2.4614316602429462,4.7397906316606475,94.00099173511082,-26.602999,9.82088,5.9309897,50.727516,-15.589696,-5.4573073,-14.689791,-1.7443472,-26.488504,11.010305,-1.0260469,-3.7804468,2.088421,6.911584,9.183979,4.9283895,7.065817,-14.640343,61.470284,3.624086,-2.787516,11.194571,-10.446771,-16.47768,38.330894,63.784634,0.6440701,-3.4846048,-8.120539
224,3.0510354042053223,-12.637351036071777,77.69624328613281,-2.4433795021311675,4.710939284041787,94.02674061513078,-26.377216,9.960318,5.9701724,52.039234,-16.003206,-5.428023,-14.8911705,-1.8292955,-26.503162,11.143255,-0.9270389,-3.8158963,2.0577557,6.886604,9.116136,5.03399,7.085021,-14.650016,61.59696,3.644486,-2.7654912,11.199061,-10.326566,-16.541376,38.21025,63.75351,0.67401963,-3.49504,-8.118083
225,3.0443477630615234,-12.846159934997559,77.66851043701172,-2.431580970266082,4.674994940142426,94.03410148147864,-26.104345,10.130461,6.03883,53.3356,-16.409664,-5.374606,-15.092343,-1.9054109,-26.503353,11.276954,-0.81167763,-3.8477767,2.0233943,6.861734,9.041835,5.139201,7.0971394,-14.637067,61.73327,3.6825867,-2.7403705,11.201187,-10.2216,-16.586102,38.128902,63.75544,0.6914336,-3.4995513,-8.119454
226,3.0284411907196045,-13.055642127990723,77.64036560058594,-2.426599385887496,4.632466295857179,94.0255378517984,-25.788734,10.327194,6.1259227,54.631508,-16.813225,-5.2994876,-15.291073,-1.9726354,-26.490423,11.407781,-0.68253356,-3.8757203,1.9959897,6.839123,8.966724,5.2404222,7.1106067,-14.618515,61.871128,3.7298405,-2.7124772,11.199994,-10.104618,-16.643394,38.065426,63.742226,0.7078099,-3.5003707,-8.11782
227,3.006990909576416,-13.265789031982422,77.61035919189453,-2.427261541372948,4.584060879537417,94.00307824967655,-25.427635,10.533944,6.214346,55.89933,-17.21721,-5.2174225,-15.486435,-2.030008,-26.466185,11.533502,-0.5453359,-3.9036148,1.9659168,6.820033,8.889143,5.340289,7.1214514,-14.590471,62.008286,3.7794542,-2.682047,11.19757,-9.974691,-16.703732,38.013287,63.723175,0.70386595,-3.4982123,-8.115532
228,2.9858052730560303,-13.47806453704834,77.5796890258789,-2.4321585362264155,4.530597783756755,93.96882998303299,-25.020761,10.733022,6.287456,57.11524,-17.621592,-5.1436467,-15.676241,-2.076638,-26.433004,11.649112,-0.40487698,-3.9340372,1.9290318,6.8023,8.803864,5.4377036,7.1267056,-14.554868,62.14946,3.824182,-2.6491668,11.198256,-9.854294,-16.740898,37.98022,63.740463,0.67931026,-3.496086,-8.117152
229,2.9613966941833496,-13.693906784057617,77.54739379882812,-2.4445263256393446,4.472456057179127,93.92339564510718,-24.569155,10.9191065,6.3333364,58.28508,-18.032883,-5.0857835,-15.858259,-2.110243,-26.391556,11.750211,-0.2615367,-3.9691598,1.8907999,6.786885,8.715583,5.531012,7.1308203,-14.510946,62.29252,3.8614128,-2.6160476,11.201459,-9.722372,-16.778313,37.96198,63.75854,0.6204931,-3.4916961,-8.118548
230,2.9312384128570557,-13.912144660949707,77.51163482666016,-2.4634175203727136,4.409168121726251,93.86574134680339,-24.073427,11.101349,6.3639154,59.41952,-18.449142,-5.0349956,-16.034676,-2.1323366,-26.340595,11.841333,-0.11364743,-4.0066886,1.8502525,6.774423,8.62384,5.6233225,7.1330338,-14.457998,62.43316,3.8953757,-2.5793998,11.205872,-9.580335,-16.81679,37.959904,63.77741,0.5337677,-3.4848745,-8.119625
231,2.898493528366089,-14.133831977844238,77.47330474853516,-2.4855616826058395,4.340117831565463,93.79511191696626,-23.53167,11.283463,6.3984575,60.498184,-18.856903,-4.982323,-16.205217,-2.1446018,-26.279562,11.920347,0.043928754,-4.0442066,1.8083895,6.764496,8.528621,5.710389,7.133407,-14.408341,62.573177,3.9249573,-2.540826,11.208263,-9.440964,-16.845995,37.966793,63.81561,0.44902584,-3.4781818,-8.123163
232,2.861926794052124,-14.356945037841797,77.43425750732422,-2.5115675625650526,4.2645757087515745,93.71097437316105,-22.94371,11.469587,6.4554896,61.50462,-19.245241,-4.918342,-16.373087,-2.1508026,-26.207745,11.993833,0.21174966,-4.0792,1.7568048,6.7579226,8.437999,5.79678,7.133149,-14.360681,62.69743,3.9541008,-2.5003393,11.201608,-9.290916,-16.879915,37.96881,63.844814,0.38352364,-3.4693217,-8.129292
233,2.8218417167663574,-14.580657005310059,77.39250946044922,-2.5409220031794306,4.181578089857132,93.61113295264025,-22.303967,11.667257,6.543268,62.4446,-19.615803,-4.836823,-16.533663,-2.1461535,-26.122343,12.052888,0.39573765,-4.1116376,1.7083198,6.754492,8.34334,5.8759427,7.1330104,-14.334162,62.820675,3.9739668,-2.4558668,11.19091,-9.150566,-16.894182,37.95949,63.91188,0.3450939,-3.4631903,-8.141443
234,2.776970624923706,-14.811210632324219,77.35030364990234,-2.5752288027711527,4.091546365961421,93.49671429413402,-21.614462,11.872645,6.650259,63.32367,-19.973066,-4.7439976,-16.688135,-2.1309474,-26.025047,12.100793,0.5919379,-4.142725,1.6543779,6.7549024,8.254742,5.956107,7.1333776,-14.304427,62.92685,3.9967964,-2.4082112,11.170883,-8.991452,-16.918571,37.945847,63.956543,0.32009378,-3.4540226,-8.153337
235,2.730687141418457,-15.04534912109375,77.30947875976562,-2.609713248914472,3.9965311134602364,93.37172174737641,-20.886524,12.071491,6.76704,64.12542,-20.309345,-4.648926,-16.84054,-2.1122992,-25.920307,12.142076,0.79662657,-4.172264,1.597466,6.755355,8.163393,6.0242224,7.1340337,-14.290078,63.032978,4.011699,-2.3619013,11.145616,-8.846004,-16.927855,37.93627,64.034035,0.3141926,-3.4470415,-8.169621
236,2.6801741123199463,-15.286069869995117,77.26895141601562,-2.6412155693717314,3.89877334164224,93.24026137215297,-20.131975,12.249175,6.884052,64.831245,-20.615421,-4.5607123,-16.995998,-2.097829,-25.81323,12.182707,1.0056249,-4.199976,1.5285801,6.751544,8.072966,6.089616,7.137197,-14.280131,63.121517,4.0296335,-2.320505,11.109842,-8.681547,-16.943054,37.91875,64.09223,0.30606538,-3.4377978,-8.188698
237,2.6257357597351074,-15.53286361694336,77.2249755859375,-2.6684812317090936,3.7957808920167233,93.09980994196977,-19.342373,12.415798,7.016045,65.4457,-20.899824,-4.4677215,-17.150734,-2.0881593,-25.704622,12.221487,1.216976,-4.22541,1.4536191,6.7427053,7.983694,6.144237,7.1418014,-14.280192,63.2018,4.045391,-2.2849917,11.056419,-8.518248,-16.953861,37.906536,64.15711,0.3146699,-3.4310637,-8.208952
238,2.5708279609680176,-15.785236358642578,77.17720794677734,-2.6924944774439656,3.6875310124334577,92.94952374227772,-18.515999,12.573615,7.1624713,65.97543,-21.163074,-4.369872,-17.304071,-2.079883,-25.592083,12.256127,1.4330506,-4.248881,1.3692247,6.730691,7.8944235,6.194276,7.148062,-14.285896,63.27118,4.059398,-2.2530537,10.989025,-8.350566,-16.962029,37.893833,64.22631,0.3303633,-3.425787,-8.231529
239,2.5073931217193604,-16.04108238220215,77.12762451171875,-2.7151928518966724,3.5793519005311945,92.79555206256606,-17.675564,12.698,7.2906127,66.40935,-21.386883,-4.294312,-17.464518,-2.0734062,-25.475143,12.291889,1.6559283,-4.271449,1.282835,6.714663,7.806935,6.233963,7.165763,-14.313714,63.3234,4.0683813,-2.225458,10.920279,-8.163504,-16.97532,37.862923,64.27355,0.34768036,-3.41611,-8.256806
