unveil-humanoid-operators/unveil-humanoid-operators.github.io/feature-analysis-animation/data/feature_matrix_instances/weight_ankle_peak_vel_gesture_A045_triumph_two_handed_002__A045.csv
Frame,root_translateX,root_translateY,root_translateZ,root_rotateX,root_rotateY,root_rotateZ,left_hip_pitch_joint_dof,left_hip_roll_joint_dof,left_hip_yaw_joint_dof,left_knee_joint_dof,left_ankle_pitch_joint_dof,left_ankle_roll_joint_dof,right_hip_pitch_joint_dof,right_hip_roll_joint_dof,right_hip_yaw_joint_dof,right_knee_joint_dof,right_ankle_pitch_joint_dof,right_ankle_roll_joint_dof,waist_yaw_joint_dof,waist_roll_joint_dof,waist_pitch_joint_dof,left_shoulder_pitch_joint_dof,left_shoulder_roll_joint_dof,left_shoulder_yaw_joint_dof,left_elbow_joint_dof,left_wrist_roll_joint_dof,left_wrist_pitch_joint_dof,left_wrist_yaw_joint_dof,right_shoulder_pitch_joint_dof,right_shoulder_roll_joint_dof,right_shoulder_yaw_joint_dof,right_elbow_joint_dof,right_wrist_roll_joint_dof,right_wrist_pitch_joint_dof,right_wrist_yaw_joint_dof
0,0.9829739928245544,2.3273050785064697,78.0767822265625,-0.19917548607008995,-3.381597482412512,-90.5202747243479,4.4094524,5.253072,-2.273752,8.913311,-11.746691,-7.075827,3.2004542,-6.5537095,-2.6426396,9.515765,-9.889624,6.9948425,0.79577893,1.8041931,9.072152,2.1338317,14.746659,-24.442709,54.599396,30.829092,-2.9487379,-6.9169316,-3.5697875,-16.670004,35.58279,58.368595,-13.659482,0.86058414,6.7452664
1,0.9766407012939453,2.30981183052063,78.07544708251953,-0.2009868320164445,-3.354756435231425,-90.52272418201038,4.3970613,5.268303,-2.271729,8.902499,-11.752822,-7.084538,3.1895258,-6.538184,-2.6423438,9.496999,-9.894947,6.994046,0.7562143,1.8053148,9.041073,2.134427,14.77465,-24.320938,54.499084,30.51062,-3.2408683,-6.81457,-3.5347445,-16.703289,35.35546,58.17239,-13.589433,0.49894908,6.660909
2,0.9604424238204956,2.2951111793518066,78.07524871826172,-0.202146867687237,-3.3274882156409586,-90.52487029599385,4.3840733,5.2826796,-2.2700148,8.891808,-11.759477,-7.0933204,3.1798992,-6.523304,-2.6421545,9.474608,-9.899093,6.994009,0.7345309,1.8050497,9.0186825,2.1371186,14.818284,-24.22206,54.395554,30.200804,-3.5376618,-6.718198,-3.4728446,-16.756775,35.116375,57.95759,-13.538102,0.1423892,6.582076
3,0.9414433240890503,2.2835116386413574,78.0752182006836,-0.20472234839988845,-3.3010330563859793,-90.52758856677919,4.3719506,5.2987995,-2.267864,8.881553,-11.765683,-7.101969,3.1699014,-6.5069036,-2.642135,9.454815,-9.903244,6.992485,0.7203276,1.8046836,9.008074,2.1408405,14.888824,-24.115887,54.23571,29.856747,-3.8335185,-6.6291785,-3.3863347,-16.845104,34.82879,57.653152,-13.4633465,-0.22836395,6.513178
4,0.9259433746337891,2.2691967487335205,78.07536315917969,-0.20961937106650533,-3.277333922858412,-90.53158498840067,4.360306,5.320073,-2.265028,8.875835,-11.772441,-7.110378,3.1631553,-6.485849,-2.6431398,9.434292,-9.904124,6.9872413,0.6985375,1.8065873,9.002283,2.124501,14.975589,-23.96621,54.007496,29.443468,-4.1232176,-6.54433,-3.3042998,-16.948841,34.45523,57.242683,-13.335631,-0.63479793,6.454508
5,0.904815673828125,2.2570629119873047,78.07292938232422,-0.2177257769940622,-3.260564975280063,-90.54021996276455,4.3534236,5.3496895,-2.257699,8.878189,-11.782535,-7.1181126,3.164315,-6.4573855,-2.6446896,9.412117,-9.898962,6.977478,0.6793067,1.8094733,9.014559,2.096983,15.084301,-23.766891,53.6972,28.966185,-4.4138417,-6.471723,-3.2006226,-17.069792,33.94187,56.694637,-13.15785,-1.0919424,6.407532
6,0.8864026665687561,2.2400362491607666,78.07117462158203,-0.22820363581282768,-3.2486271239072653,-90.55217782756509,4.3509645,5.384815,-2.2470071,8.883848,-11.793623,-7.1253242,3.1671247,-6.4243293,-2.6460378,9.396277,-9.893543,6.964579,0.66471446,1.8117028,9.041318,2.0643578,15.215866,-23.534414,53.318935,28.439924,-4.705176,-6.410187,-3.0732794,-17.208233,33.322174,56.035038,-12.945975,-1.5852176,6.371981
7,0.866773247718811,2.2351701259613037,78.07228088378906,-0.23896464379578417,-3.2332379423043256,-90.56095251696648,4.3438854,5.419943,-2.2407272,8.888264,-11.801613,-7.132749,3.1673524,-6.3909097,-2.649035,9.379393,-9.887475,6.9492087,0.64794946,1.8127694,9.063604,2.0067627,15.379732,-23.28775,52.867943,27.83462,-4.9824295,-6.3499913,-2.959324,-17.375233,32.669994,55.279205,-12.680418,-2.0922348,6.3531494
8,0.8436357378959656,2.2266993522644043,78.07365417480469,-0.24659184924069144,-3.2062868482465294,-90.56033259321308,4.3233933,5.4493055,-2.2464044,8.8868885,-11.802285,-7.141133,3.1588788,-6.3621607,-2.6550975,9.357208,-9.881498,6.932089,0.6211327,1.8112667,9.064142,1.9098083,15.590279,-23.04323,52.331207,27.12068,-5.231641,-6.282226,-2.8884244,-17.58899,32.05656,54.430355,-12.345502,-2.5904233,6.3579435
9,0.8250988125801086,2.2147490978240967,78.0766830444336,-0.24881484817751975,-3.1635965355432116,-90.54462081575825,4.283168,5.467084,-2.271271,8.878166,-11.7910595,-7.1497107,3.1347585,-6.3433046,-2.6655054,9.3363905,-9.88136,6.914208,0.5784949,1.803648,9.044026,1.7848647,15.8528595,-22.812517,51.69524,26.229467,-5.43712,-6.2302365,-2.8501067,-17.859074,31.501995,53.468407,-11.876906,-3.0696802,6.4041348
10,0.8062307834625244,2.201946496963501,78.07978057861328,-0.24776028135970524,-3.1103284734294414,-90.5184312501419,4.230508,5.477863,-2.3094783,8.861866,-11.769508,-7.158405,3.099412,-6.330372,-2.6782992,9.317536,-9.884816,6.894096,0.52438706,1.791897,9.013895,1.6431402,16.167553,-22.58293,50.956074,25.195309,-5.611195,-6.193526,-2.8219638,-18.187347,30.966724,52.377388,-11.30263,-3.5420637,6.4881
11,0.7865528464317322,2.1893115043640137,78.08122253417969,-0.2425765345259718,-3.0503613697713545,-90.49261626182478,4.175539,5.484996,-2.3467565,8.835867,-11.744287,-7.168237,3.0185256,-6.323055,-2.68568,9.379947,-9.931349,6.8725147,0.46941662,1.7761021,8.97035,1.4711828,16.543755,-22.33785,50.11148,24.142494,-5.7833214,-6.1284976,-2.8207617,-18.583813,30.440311,51.167706,-10.734434,-4.0184236,6.5841784
12,0.7616289854049683,2.171849012374878,78.079345703125,-0.24628994404426266,-2.990410936695068,-90.47505811491759,4.126419,5.504235,-2.3734834,8.80902,-11.728902,-7.181911,2.9525726,-6.3035955,-2.694013,9.410974,-9.959167,6.847641,0.42028722,1.7682213,8.915076,1.2605962,16.9959,-22.059893,49.150196,23.19448,-5.984833,-5.993159,-2.8623564,-19.06337,29.914568,49.842686,-10.28225,-4.5105486,6.6661057
13,0.7456790804862976,2.147207260131836,78.07962799072266,-0.2628174411237395,-2.926939725764734,-90.46935940386153,4.081248,5.5424657,-2.3859048,8.781705,-11.728338,-7.2014728,2.8959413,-6.2655044,-2.7032814,9.414499,-9.968368,6.816724,0.38130528,1.7719159,8.842873,1.0352838,17.530378,-21.744858,48.04284,22.395124,-6.244733,-5.7924914,-2.9224925,-19.635284,29.389029,48.368942,-9.992406,-5.0515714,6.754079
14,0.7224509716033936,2.122312307357788,78.08274841308594,-0.2886069143480714,-2.8587656066300466,-90.47033414883902,4.0367126,5.592817,-2.3904731,8.751634,-11.735849,-7.2253313,2.8403242,-6.215523,-2.7134125,9.405537,-9.96842,6.78118,0.3484221,1.7831601,8.758497,0.80009687,18.148127,-21.404758,46.789375,21.672302,-6.5413494,-5.5474277,-2.9921668,-20.302315,28.86932,46.73786,-9.794919,-5.6246367,6.8554015
15,0.6951884627342224,2.1034305095672607,78.08539581298828,-0.3135959591406939,-2.7938536537124548,-90.47414789829595,4.000102,5.6439486,-2.3901842,8.716156,-11.742837,-7.2498636,2.7889676,-6.1654816,-2.7223034,9.3950815,-9.968626,6.746546,0.3166897,1.7944814,8.675297,0.5242531,18.857117,-21.04395,45.418125,20.97859,-6.831031,-5.239733,-3.0968523,-21.070463,28.346617,44.978985,-9.641333,-6.166863,6.9234767
16,0.6758910417556763,2.0897603034973145,78.0876693725586,-0.33117684176817674,-2.7400861792831646,-90.47704342075083,3.9753983,5.683932,-2.3882427,8.678447,-11.743123,-7.2714405,2.7430637,-6.127443,-2.727631,9.398987,-9.980957,6.718227,0.28138697,1.7968835,8.606738,0.17855321,19.669628,-20.669224,43.953213,20.264517,-7.0711517,-4.8516326,-3.2579122,-21.947731,27.810762,43.115543,-9.485239,-6.615288,6.913206
17,0.657390296459198,2.071438789367676,78.08686828613281,-0.33353562018514266,-2.702324419027483,-90.47726232371566,3.9687047,5.7059393,-2.3849275,8.632732,-11.729914,-7.286957,2.7054071,-6.1085367,-2.7288249,9.420729,-10.009304,6.7000523,0.24173482,1.78466,8.564479,-0.23303983,20.591003,-20.291452,42.36686,19.452982,-7.246908,-4.363349,-3.466595,-22.936235,27.26078,41.11383,-9.296027,-6.945764,6.7965217
18,0.6379114389419556,2.0581846237182617,78.08550262451172,-0.3263711807512407,-2.6753424685799794,-90.47701751180472,3.9738512,5.717609,-2.3790028,8.584365,-11.7106905,-7.2990704,2.6747944,-6.1008453,-2.7271569,9.451754,-10.047105,6.688196,0.20201513,1.7623665,8.537471,-0.6927709,21.622318,-19.911465,40.649193,18.588194,-7.3858347,-3.7913404,-3.7124803,-24.037186,26.704596,38.96817,-9.099549,-7.1940937,6.605165
19,0.6144612431526184,2.037620782852173,78.08196258544922,-0.3180867185788844,-2.652295940628581,-90.47871222259924,3.9872427,5.7279553,-2.3700624,8.531167,-11.689373,-7.312741,2.6449711,-6.094932,-2.7227104,9.49165,-10.090585,6.6771955,0.16560116,1.7360963,8.506567,-1.2071949,22.771185,-19.521648,38.847588,17.801968,-7.507538,-3.1729395,-4.019539,-25.258705,26.148588,36.745018,-8.930395,-7.3873444,6.3839507
20,0.6002784371376038,2.021543025970459,78.07535552978516,-0.3150606071705617,-2.6265469895293845,-90.48490380936587,4.004303,5.7461643,-2.3578513,8.472856,-11.670887,-7.3329453,2.609963,-6.0812917,-2.7156236,9.538844,-10.135306,6.661643,0.1281455,1.7103919,8.446172,-1.7751906,24.048498,-19.110455,37.009506,17.224169,-7.627943,-2.5466719,-4.3003483,-26.611557,25.554632,34.412617,-8.882466,-7.551263,6.1803627
21,0.5785706639289856,2.012132406234741,78.0737075805664,-0.3196612209690502,-2.597057266843075,-90.49685382385834,4.024242,5.7760973,-2.3424034,8.408978,-11.656048,-7.362174,2.5673516,-6.0554276,-2.7048707,9.594306,-10.17898,6.6380224,0.10903882,1.6905221,8.36891,-2.4166064,25.461838,-18.703138,35.111774,16.954216,-7.7439647,-1.90002,-4.7340035,-28.105333,25.00073,32.09663,-8.873079,-7.6698904,6.017192
22,0.5534638166427612,1.976491928100586,78.07697296142578,-0.32790221648688866,-2.5672790396957748,-90.5131456555359,4.0489173,5.8121095,-2.3237405,8.340985,-11.642908,-7.397314,2.5207946,-6.0232854,-2.6906877,9.658662,-10.224494,6.6099534,0.09000113,1.6704847,8.269716,-3.1054265,27.010239,-18.292461,33.1353,16.8979,-7.844676,-1.2233984,-5.141047,-29.737757,24.42562,29.628,-8.961402,-7.734864,5.8703275
23,0.5309329628944397,1.9446029663085938,78.07745361328125,-0.33756462581598,-2.537060581288451,-90.53164337763056,4.0796556,5.850549,-2.3018079,8.267386,-11.6304455,-7.4352717,2.4732409,-5.9899354,-2.6753876,9.728753,-10.27487,6.582407,0.07395512,1.6491785,8.149901,-3.8454113,28.695522,-17.876345,31.128668,16.886679,-7.9328895,-0.55299485,-5.5792446,-31.513676,23.837608,27.1212,-9.093364,-7.789037,5.707713
24,0.5104854106903076,1.9160187244415283,78.07701110839844,-0.34359012405980743,-2.506085138543702,-90.55041126521141,4.116867,5.8879557,-2.2767355,8.188341,-11.618248,-7.473192,2.429032,-5.9602194,-2.661489,9.800375,-10.3333,6.5601954,0.054032985,1.6254909,8.007249,-4.62512,30.519339,-17.439274,29.133255,16.75537,-8.015611,0.073542155,-6.0530396,-33.437656,23.22924,24.643211,-9.243289,-7.875368,5.4966846
25,0.49019595980644226,1.8788565397262573,78.07522583007812,-0.34811968407646393,-2.474110717365003,-90.56417889062564,4.157251,5.920412,-2.253687,8.106471,-11.605135,-7.5081806,2.3888013,-5.9376054,-2.6547768,9.873411,-10.399637,6.544917,0.027461791,1.5996641,7.8381786,-5.4561934,32.487007,-16.987053,27.129093,16.486149,-8.10349,0.636399,-6.5648265,-35.513836,22.611086,22.182615,-9.477325,-8.025217,5.2093196
26,0.46270835399627686,1.838619589805603,78.06861114501953,-0.35466845111883416,-2.4406527638114115,-90.57429690081786,4.1352687,5.954564,-2.23942,8.15881,-11.664398,-7.542199,2.3576777,-5.9124904,-2.6552086,9.933695,-10.466898,6.5333085,-0.00394158,1.5786146,7.6429257,-6.364412,34.59999,-16.545977,25.122715,16.146404,-8.191517,1.1580757,-7.1173363,-37.742035,21.992216,19.717112,-9.778823,-8.2093115,4.8691826
27,0.44239377975463867,1.7943270206451416,78.05933380126953,-0.3630757604726082,-2.4068664716364667,-90.59153509414234,4.101346,5.9933457,-2.2176356,8.250003,-11.750699,-7.580761,2.3222544,-5.8842826,-2.6489766,10.008289,-10.546051,6.5244064,-0.032589976,1.5572355,7.421796,-7.2895403,36.84944,-16.10015,23.137703,15.727652,-8.26647,1.6656134,-7.707478,-40.12056,21.35871,17.297947,-10.002072,-8.381539,4.521391
28,0.41960635781288147,1.7367124557495117,78.05097961425781,-0.3762997084634904,-2.3737098819208446,-90.62614461960274,4.0666,6.0411687,-2.176125,8.365711,-11.861099,-7.627885,2.273735,-5.849777,-2.6238015,10.112503,-10.64299,6.5169473,-0.060283452,1.5351177,7.1804266,-8.286428,39.224667,-15.675608,21.304504,15.187813,-8.316724,2.1886601,-8.344038,-42.647255,20.7061,14.9811735,-10.000466,-8.497086,4.2097363
29,0.3913232982158661,1.6763719320297241,78.04104614257812,-0.3936459593240357,-2.3442073643838355,-90.68072762049613,4.0426245,6.100309,-2.1097755,8.493177,-11.994752,-7.68856,2.2209313,-5.805874,-2.5772507,10.234242,-10.75396,6.511953,-0.07893366,1.515852,6.905459,-9.3544655,41.72648,-15.282447,19.603733,14.515693,-8.316987,2.7363083,-9.037245,-45.328033,20.031038,12.775418,-9.7301655,-8.527521,3.9883854
30,0.3750152289867401,1.6157366037368774,78.03350067138672,-0.41432564466434074,-2.3173130029852373,-90.75001538113955,4.0234637,6.167339,-2.0248818,8.637217,-12.149829,-7.759219,2.1649673,-5.7551613,-2.5154934,10.371027,-10.877775,6.5098004,-0.089653745,1.4996228,6.598251,-10.523052,44.35484,-14.945983,18.023197,13.726318,-8.285398,3.2954123,-9.78123,-48.16464,19.348454,10.6551695,-9.269817,-8.504846,3.818059
31,0.35546454787254333,1.5446523427963257,78.01494598388672,-0.43683427344868964,-2.2874971939877407,-90.83189530726062,3.983893,6.2381105,-1.9282246,8.834712,-12.335699,-7.831023,2.0855768,-5.7020416,-2.4397101,10.552497,-11.024309,6.5083613,-0.09329609,1.4812095,6.271345,-11.742609,47.090443,-14.657408,16.575956,12.86836,-8.272246,3.8642962,-10.550446,-51.14709,18.669851,8.645243,-8.665826,-8.47667,3.6029294
32,0.3309323787689209,1.4780889749526978,77.99785614013672,-0.4565680377538088,-2.2492462228430403,-90.92438058475018,3.912144,6.3091536,-1.8250469,9.094146,-12.551619,-7.89559,1.9642661,-5.650603,-2.3511817,10.805229,-11.201737,6.50567,-0.0948854,1.4567859,5.9364166,-12.964197,49.90395,-14.395098,15.286603,11.997379,-8.326765,4.4415374,-11.329659,-54.25924,18.0105,6.7806683,-7.968248,-8.49209,3.2461748
33,0.3050630986690521,1.3980633020401,77.98236083984375,-0.4715975809205271,-2.196906738892579,-91.02501981822356,3.7997532,6.374401,-1.7181737,9.418367,-12.793986,-7.952121,1.7939297,-5.6056867,-2.2511876,11.13245,-11.409962,6.505404,-0.09916308,1.4177803,5.566703,-14.244184,52.794735,-14.206666,14.223548,11.097,-8.463809,5.0399017,-12.192435,-57.52358,17.466606,5.1175127,-7.141161,-8.547474,2.6796463
34,0.2813366949558258,1.316075325012207,77.96259307861328,-0.48489786447001854,-2.135098240444769,-91.1355299840622,3.6567972,6.436857,-1.6038895,9.799245,-13.063288,-8.005201,1.5859513,-5.5632024,-2.1389287,11.520698,-11.645261,6.50754,-0.10834511,1.373156,5.1627903,-15.614654,55.761887,-14.109772,13.367309,10.15739,-8.659737,5.6563253,-13.157109,-60.9446,17.047876,3.6315863,-6.176933,-8.629174,1.9655749
35,0.2575356066226959,1.225313425064087,77.93498229980469,-0.49983840390890844,-2.073542038522544,-91.25984894197396,3.4801612,6.5073977,-1.4803722,10.268774,-13.379694,-8.054294,1.3470064,-5.5127354,-2.0129094,11.975475,-11.91213,6.504428,-0.12241244,1.3436266,4.770161,-16.991648,58.76699,-14.025963,12.633855,9.250665,-8.902463,6.268052,-14.132406,-64.46035,16.62353,2.269557,-5.17699,-8.769856,1.2027714
36,0.22991977632045746,1.1338274478912354,77.90294647216797,-0.525878609294666,-2.021850965853163,-91.40184900181549,3.2682984,6.5959754,-1.3454515,10.855958,-13.761707,-8.098784,1.0841374,-5.4451313,-1.8712817,12.502574,-12.215761,6.488331,-0.13959622,1.3460224,4.426264,-18.288559,61.76011,-13.86461,11.960496,8.4595175,-9.177147,6.8540387,-15.03113,-67.978004,16.041506,1.0201432,-4.258576,-8.997642,0.49195176
37,0.20561891794204712,1.0382452011108398,77.86624908447266,-0.5643960233403481,-1.9764676063322588,-91.563707227625,3.0117805,6.7080884,-1.1949896,11.576203,-14.220503,-8.138268,0.79287153,-5.355518,-1.712694,13.103136,-12.559043,6.450987,-0.15430102,1.3751909,4.1161113,-19.532427,64.734215,-13.644825,11.400726,7.844522,-9.474471,7.414324,-15.895554,-71.46519,15.30232,-0.010813716,-3.4583857,-9.3483515,-0.113457225
38,0.1792963296175003,0.9378584027290344,77.82537078857422,-0.6123756774452234,-1.9344510389044929,-91.74289556244184,2.7158413,6.8375063,-1.0312483,12.409344,-14.742907,-8.173911,0.47162193,-5.2488146,-1.5385717,13.774798,-12.938892,6.398408,-0.16748719,1.416367,3.8166232,-20.786074,67.70099,-13.423053,10.9937105,7.3661203,-9.800401,7.960446,-16.776356,-74.92754,14.477236,-0.8062828,-2.7423537,-9.7966585,-0.6707235
39,0.1479535698890686,0.835724949836731,77.77445220947266,-0.6665844402646184,-1.9062207938907207,-91.93611359942773,2.4001815,6.9777045,-0.86230606,13.332099,-15.311531,-8.207122,0.12887865,-5.12976,-1.3512504,14.523321,-13.353183,6.343906,-0.18809214,1.472573,3.5399337,-22.020504,70.631645,-13.167446,10.688681,6.957326,-10.162183,8.491637,-17.644535,-78.315735,13.5533,-1.4555037,-2.1223,-10.276227,-1.2489103
40,0.10969249904155731,0.7333939671516418,77.7151870727539,-0.7248697415338211,-1.9019737624499842,-92.14011056817998,2.0830982,7.123325,-0.69671017,14.323809,-15.90897,-8.238928,-0.21700585,-5.0026417,-1.1542557,15.333774,-13.793111,6.301152,-0.2235638,1.5425341,3.295181,-23.20054,73.48499,-12.837047,10.442234,6.566876,-10.567297,9.00384,-18.475029,-81.54763,12.516739,-2.0337803,-1.6314011,-10.721457,-1.9132473
41,0.07622621953487396,0.630896806716919,77.64891052246094,-0.7830856327071065,-1.9236242381266015,-92.35684866324681,1.7700818,7.2711015,-0.5365082,15.373927,-16.528376,-8.2691965,-0.5745742,-4.870668,-0.94256085,16.225634,-14.264711,6.2770886,-0.2761816,1.6101527,3.0748098,-24.336708,76.25286,-12.450379,10.3162155,6.233564,-11.054204,9.4752445,-19.338459,-84.52839,11.414198,-2.4667137,-1.4070673,-11.123603,-2.6991708
42,0.044213633984327316,0.5269984006881714,77.57637786865234,-0.8427800064883622,-1.965848715452035,-92.58705352670918,1.4501579,7.4260297,-0.37820062,16.496847,-17.178606,-8.29681,-0.949207,-4.730877,-0.7167149,17.19984,-14.7697935,6.2630568,-0.35726708,1.6296043,2.852058,-25.494942,78.96449,-12.081301,10.343938,6.0067205,-11.599978,9.91,-20.356562,-87.1476,10.363695,-2.6806781,-1.502274,-11.513423,-3.5512674
43,0.00912430603057146,0.41728484630584717,77.49230194091797,-0.9098355059036428,-2.0281034579781636,-92.82515275145478,1.1288865,7.595359,-0.22036858,17.68247,-17.86024,-8.321191,-1.3274015,-4.579494,-0.4874709,18.233133,-15.302507,6.249598,-0.5000224,1.5445838,2.6011808,-26.737316,81.641174,-11.792559,10.450922,5.8536468,-12.120349,10.341833,-21.609703,-89.26711,9.492129,-2.752874,-1.8407084,-11.887799,-4.3975477
44,-0.03090512380003929,0.3078368604183197,77.39662170410156,-0.9878780617572329,-2.1099362154764068,-93.06580057116258,0.8126485,7.78648,-0.06133338,18.919716,-18.574617,-8.342351,-1.7062798,-4.411182,-0.2648972,19.324059,-15.859193,6.227221,-0.7369132,1.3361789,2.302285,-28.112394,84.27554,-11.631298,10.557205,5.7390146,-12.535187,10.807462,-23.153751,-90.83536,8.906744,-2.7905319,-2.2954063,-12.245301,-5.172542
45,-0.07363852858543396,0.19744299352169037,77.28975677490234,-1.0748092252342478,-2.2116165971671236,-93.31410057354597,0.4983624,7.999565,0.10784339,20.221563,-19.329815,-8.355098,-2.0898383,-4.223702,-0.046280667,20.477568,-16.440706,6.1954856,-1.0603648,1.0581723,1.9493241,-29.63192,86.792625,-11.623003,10.685258,5.7060223,-12.828385,11.353636,-25.043552,-91.947075,8.672977,-2.8208354,-2.7563624,-12.592497,-5.8778195
46,-0.1188831552863121,0.07893548160791397,77.1732406616211,-1.1727755199007166,-2.333342851071998,-93.57076043549881,0.18364544,8.234783,0.28208172,21.590261,-20.124483,-8.360669,-2.4775639,-4.0167866,0.17078882,21.691418,-17.046064,6.1592765,-1.4247891,0.8112211,1.5396938,-31.337555,89.03027,-11.803284,10.880832,5.84067,-13.048274,11.962619,-27.330149,-92.7677,8.837652,-2.8279877,-3.2492454,-12.920055,-6.5461726
47,-0.16022533178329468,-0.03913729637861252,77.04375457763672,-1.2899723563143095,-2.4739695561838575,-93.82309082538332,-0.1304849,8.498407,0.44155005,23.012459,-20.94748,-8.369034,-2.8488061,-3.787289,0.37453637,22.93032,-17.663149,6.118091,-1.7843349,0.67663825,1.0598488,-33.338444,90.81489,-12.249235,11.09706,6.169771,-13.211533,12.578517,-30.032623,-93.43674,9.457983,-2.8560872,-3.7994401,-13.20478,-7.160349
48,-0.2048201560974121,-0.16416104137897491,76.89913940429688,-1.4341643149552945,-2.632560176143848,-94.05864604459515,-0.44137406,8.794201,0.56735134,24.4718,-21.786543,-8.39048,-3.1849728,-3.5330143,0.5534614,24.162607,-18.281925,6.071671,-2.1192768,0.6750617,0.5051872,-35.771606,92.11086,-13.074278,11.2825165,6.639594,-13.335176,13.139186,-33.18561,-94.02296,10.600441,-2.9374764,-4.4389462,-13.427648,-7.707834
49,-0.2514621615409851,-0.2918258607387543,76.74501037597656,-1.6099358247863307,-2.8107208552361294,-94.27852094317414,-0.74699986,9.125969,0.6596721,25.970806,-22.641998,-8.42913,-3.4801805,-3.245282,0.710631,25.379053,-18.899525,6.0170665,-2.4353466,0.77957934,-0.11810433,-38.742245,93.0258,-14.383394,11.457034,7.1662936,-13.416377,13.622676,-36.850086,-94.535934,12.330446,-3.0686114,-5.1059155,-13.579385,-8.182542
50,-0.293901652097702,-0.4290364682674408,76.57703399658203,-1.8113560909578537,-3.0090284701354864,-94.48774477377472,-1.0482584,9.489308,0.7270136,27.515413,-23.51726,-8.479245,-3.744587,-2.9263203,0.84898144,26.595385,-19.523003,5.956877,-2.7458727,0.95017636,-0.7909862,-42.31765,93.687355,-16.26102,11.636667,7.676811,-13.4494705,14.062205,-41.113235,-94.96424,14.7168455,-3.2167845,-5.735046,-13.676901,-8.607803
51,-0.33118781447410583,-0.5657641291618347,76.39885711669922,-2.0293758343645445,-3.2244086336391904,-94.67910334517644,-1.3417838,9.873886,0.7646265,29.085249,-24.407309,-8.537557,-3.989976,-2.5914485,0.95762426,27.831757,-20.156918,5.8986597,-3.069066,1.1543593,-1.4914153,-46.56469,94.17259,-18.781073,11.762232,8.081641,-13.446322,14.467899,-46.070282,-95.30003,17.842684,-3.3594341,-6.353561,-13.742961,-9.021059
52,-0.3753718137741089,-0.7063797116279602,76.20247650146484,-2.2571262748435137,-3.454086835433309,-94.84568653689568,-1.622796,10.268744,0.76867425,30.656944,-25.304283,-8.601245,-4.2225547,-2.2575579,1.0258507,29.097483,-20.805319,5.8496203,-3.4162827,1.3716592,-2.20057,-51.545124,94.51547,-22.010517,11.785604,8.311614,-13.420347,14.849063,-51.82237,-95.53644,21.799793,-3.4661462,-6.9926124,-13.7984495,-9.460988
53,-0.42147451639175415,-0.8470336198806763,75.99044799804688,-2.4922095553871784,-3.700299121621305,-94.9937008630316,-1.905234,10.668259,0.74085766,32.26939,-26.21597,-8.669084,-4.484214,-1.9283911,1.0573014,30.47815,-21.475117,5.809104,-3.7891784,1.5929642,-2.9090812,-57.319485,94.72823,-26.000275,11.732125,8.265045,-13.371742,15.189232,-58.464046,-95.665,26.68293,-3.4974453,-7.660591,-13.844273,-9.952998
54,-0.4667567014694214,-0.9941827654838562,75.76634979248047,-2.7369313841620286,-3.9635796510225467,-95.1238598838345,-2.1821146,11.0769825,0.68433875,33.912495,-27.139528,-8.74415,-4.755965,-1.5961426,1.0546747,31.936872,-22.160769,5.77441,-4.188108,1.8248624,-3.606031,-63.906773,94.80951,-30.76329,11.650616,7.943514,-13.300369,15.491681,-66.07041,-95.66845,32.56261,-3.4250088,-8.292804,-13.868419,-10.497711
55,-0.5145788788795471,-1.14227294921875,75.52566528320312,-2.9976584845508514,-4.2374966086113774,-95.22116095697871,-2.4309454,11.497621,0.59571767,35.517025,-28.066687,-8.829756,-4.9622407,-1.2608526,1.0091058,33.316628,-22.856146,5.7472215,-4.616393,2.0761824,-4.2674346,-71.24821,94.75054,-36.24543,11.5287285,7.440822,-13.22007,15.796106,-74.672226,-95.521935,39.450985,-3.2322392,-8.8105135,-13.873259,-11.098434
56,-0.5542572140693665,-1.2968355417251587,75.27826690673828,-3.278379333488584,-4.515525099837104,-95.27014365679135,-2.625222,11.933768,0.47259971,37.00516,-28.984066,-8.928994,-5.025096,-0.921314,0.9116698,34.45368,-23.55082,5.728705,-5.0718956,2.3601801,-4.862782,-79.190285,94.544495,-42.288433,11.341657,6.853016,-13.14316,16.142836,-84.2049,-95.20015,47.26081,-2.9133203,-9.133137,-13.858117,-11.757786
57,-0.5973355174064636,-1.4560952186584473,75.0282974243164,-3.59133499562699,-4.805053468163858,-95.2665383002965,-2.7403443,12.407423,0.32149816,38.35404,-29.920237,-9.042633,-4.8861423,-0.56489116,0.7552288,35.254745,-24.256554,5.7267704,-5.5493736,2.692998,-5.352108,-87.51582,94.19631,-48.613243,11.058007,6.2265096,-13.065589,16.510445,-94.4686,-94.68915,55.781246,-2.4732049,-9.239812,-13.806711,-12.508386
58,-0.6465333700180054,-1.6237117052078247,74.78224182128906,-3.934104932888154,-5.105432590108822,-95.2179535934172,-2.794999,12.908097,0.14438543,39.604713,-30.87102,-9.169054,-4.6010294,-0.19350278,0.5478327,35.81975,-24.971416,5.7350135,-6.0262976,3.0738387,-5.7097306,-95.874855,93.729095,-54.828953,10.638329,5.492844,-12.978534,16.89426,-105.1234,-93.99025,64.648834,-1.9507525,-9.140152,-13.717189,-13.343539
59,-0.698192298412323,-1.7989914417266846,74.54696655273438,-4.27745743876913,-5.39761178734756,-95.12810177688387,-2.8295088,13.392197,-0.06906899,40.77635,-31.775179,-9.307252,-4.263379,0.16876625,0.30468646,36.278923,-25.667439,5.7335067,-6.4688635,3.485101,-5.9351745,-103.792946,93.187584,-60.47849,10.007959,4.6122527,-12.885539,17.351452,-115.703606,-93.129715,73.34965,-1.4459437,-8.835181,-13.613595,-14.182153
60,-0.7577471733093262,-1.9760966300964355,74.32781219482422,-4.592669906151022,-5.662674519178459,-95.00089296986073,-2.8857129,13.816917,-0.33120212,41.887497,-32.571007,-9.456849,-3.9634163,0.49394688,0.041162048,36.761246,-26.315819,5.705482,-6.8509846,3.9009378,-6.055018,-110.82445,92.63458,-65.14787,9.085866,3.5798116,-12.7909565,17.930128,-125.69602,-92.16821,81.32804,-1.0719981,-8.374368,-13.523456,-14.925555
61,-0.8142395615577698,-2.160750150680542,74.12385559082031,-4.890512056265497,-5.8975411169340335,-94.83827692968451,-2.9747488,14.201442,-0.6472866,42.959816,-33.263153,-9.625327,-3.7022936,0.7929698,-0.24531421,37.278316,-26.923067,5.626578,-7.181976,4.314936,-6.1162186,-116.69313,92.13004,-68.55481,7.7953186,2.4463599,-12.698929,18.61126,-134.6048,-91.1915,88.107056,-0.9257703,-7.815801,-13.471674,-15.498918
62,-0.8675358295440674,-2.338595390319824,73.93053436279297,-5.178540176394579,-6.109271945973722,-94.63826308900515,-3.0752194,14.557302,-1.0099581,43.972847,-33.874413,-9.810459,-3.437695,1.0679903,-0.5571672,37.76682,-27.49865,5.513444,-7.5158825,4.695732,-6.2241454,-121.311104,91.717766,-70.6859,6.1067677,1.3472246,-12.597598,19.34896,-141.83939,-90.29235,93.213,-1.0398461,-7.356174,-13.442363,-15.94454
63,-0.9223479628562927,-2.511336088180542,73.75420379638672,-5.422615529254149,-6.29317409101793,-94.40026167555578,-3.1877778,14.829692,-1.4159073,44.894257,-34.376175,-9.996154,-3.1961427,1.2759203,-0.8801595,38.247482,-28.019796,5.4107733,-7.9923267,4.94865,-6.5234547,-124.54662,91.46772,-71.6191,3.98863,0.46274322,-12.464348,20.114794,-146.19162,-89.700615,95.45746,-1.5439582,-7.3788433,-13.4102335,-16.23362
64,-0.9718261957168579,-2.668576240539551,73.59674835205078,-5.591738407832518,-6.448526355401876,-94.12297338709928,-3.3114011,14.967848,-1.8634605,45.696987,-34.7422,-10.16655,-3.00188,1.3776314,-1.2034572,38.742428,-28.464901,5.3634796,-8.61419,5.065768,-6.9561048,-126.602806,91.41864,-71.57589,1.4712638,-0.17469956,-12.293921,20.920767,-148.47145,-89.59337,95.47591,-2.5216522,-7.9174185,-13.345427,-16.31981
65,-1.0247491598129272,-2.820066452026367,73.4622802734375,-5.667103746488288,-6.57287809780561,-93.7980118937358,-3.4821186,14.94333,-2.3741827,46.435036,-34.963787,-10.315117,-2.8997676,1.3493999,-1.5281265,39.336845,-28.841972,5.391653,-9.279162,5.097093,-7.4735727,-128.44002,91.38693,-71.49668,-1.2437929,-0.89468867,-12.038035,21.910751,-150.51971,-89.526215,95.25743,-3.5000892,-8.777678,-13.239704,-16.361872
66,-1.0641756057739258,-2.960486650466919,73.35860443115234,-5.6715483482844125,-6.672925670517229,-93.42825499722456,-3.6862226,14.791101,-2.9445884,47.11116,-35.059258,-10.450736,-2.8589635,1.2163149,-1.8605127,39.996204,-29.160524,5.4682555,-10.036685,5.0644627,-7.9768624,-130.41927,91.35267,-71.53825,-4.0942845,-1.7213402,-11.705397,22.944483,-152.1479,-89.44506,94.42705,-4.4528265,-9.885284,-13.09682,-16.230629
67,-1.0920257568359375,-3.0853207111358643,73.28511047363281,-5.628683209743932,-6.7579325116903375,-93.03191459391394,-3.8562675,14.556086,-3.5354538,47.62994,-35.04849,-10.580397,-2.7952225,1.0167763,-2.1981325,40.56136,-29.398983,5.5682907,-11.071293,4.9755173,-8.372513,-133.1898,91.34278,-72.481125,-6.8620305,-2.3975122,-11.447406,24.031784,-152.41518,-89.54477,91.62618,-5.656244,-11.040531,-12.959983,-15.764276
68,-1.1211882829666138,-3.194087028503418,73.24955749511719,-5.568775894197288,-6.83367295712171,-92.62667467204007,-3.9292715,14.285739,-4.1088905,47.895706,-34.952106,-10.711834,-2.6274345,0.79305154,-2.5406668,40.871372,-29.535055,5.6675677,-11.999883,4.8648524,-8.751792,-135.9213,91.35792,-73.458084,-9.6316595,-2.8458147,-11.397092,25.109617,-153.00117,-89.95986,89.16365,-7.18638,-11.873,-12.757258,-15.605035
69,-1.1418778896331787,-3.295475721359253,73.25897979736328,-5.494658166591422,-6.919809326445234,-92.20335723140602,-3.872073,13.982294,-4.67668,47.87227,-34.777744,-10.849422,-2.3090072,0.54862696,-2.9008908,40.875954,-29.564869,5.762965,-12.945017,4.771479,-9.1071205,-138.63477,91.38191,-74.51147,-12.509359,-3.1468933,-11.625812,26.101215,-153.55756,-90.566,86.418335,-8.939259,-12.797288,-12.412991,-15.458593
70,-1.1555931568145752,-3.393475294113159,73.31140899658203,-5.396404530377823,-7.007270143020858,-91.75697707095442,-3.724419,13.62833,-5.254413,47.61576,-34.514668,-10.987451,-1.8908247,0.26802552,-3.277055,40.66328,-29.499718,5.866125,-13.8954935,4.7115226,-9.431066,-141.26593,91.4167,-75.56123,-15.481077,-3.3388453,-12.0482855,27.063028,-153.98502,-91.315125,83.273254,-10.890798,-13.745529,-11.971918,-15.274135
71,-1.1714037656784058,-3.4933247566223145,73.40067291259766,-5.271550894071891,-7.064565652567728,-91.31130782865515,-3.5269504,13.242011,-5.8114057,47.169186,-34.15654,-11.118044,-1.4317632,-0.03468807,-3.645687,40.279922,-29.339714,5.9743466,-14.671764,4.687595,-9.682918,-143.56587,91.44961,-76.28577,-18.15279,-3.1021154,-12.5559025,28.082508,-154.14496,-92.12386,79.76999,-13.058733,-13.758595,-11.594553,-15.419851
72,-1.1779690980911255,-3.5997231006622314,73.53201293945312,-5.118774686350335,-7.060417924558559,-90.88989118457133,-3.3180351,12.84,-6.3150115,46.57063,-33.693798,-11.23435,-0.99201983,-0.3492232,-3.9829977,39.77517,-29.086367,6.0871577,-15.085208,4.667074,-9.840411,-145.22626,91.46823,-76.2958,-20.136463,-2.1113794,-13.030899,29.256428,-153.99762,-92.858345,76.10957,-15.388379,-11.885677,-11.433908,-16.329992
73,-1.1833655834197998,-3.7167139053344727,73.69775390625,-4.935305640123265,-6.9704330644339345,-90.49554006131173,-3.1146727,12.427811,-6.7484756,45.802204,-33.12235,-11.337654,-0.590447,-0.6743988,-4.287691,39.129597,-28.734941,6.2058287,-15.068942,4.597468,-9.940837,-146.15431,91.46593,-75.44399,-21.419195,0.29513747,-13.565538,30.799042,-153.61888,-93.40358,72.5391,-17.949373,-6.890161,-11.635373,-18.85103
74,-1.1861426830291748,-3.835691213607788,73.89430236816406,-4.719045614250604,-6.818578576538749,-90.11646994960088,-2.891906,11.99774,-7.1337895,44.848415,-32.44537,-11.429728,-0.19445749,-1.0184094,-4.570772,38.331844,-28.288614,6.330888,-14.715587,4.46016,-10.012638,-146.48,91.44068,-73.91661,-22.184868,3.7572634,-14.094628,32.64216,-153.15768,-93.740906,69.1639,-20.581064,0.4054923,-12.363559,-22.616182
75,-1.1918952465057373,-3.9606473445892334,74.11502838134766,-4.4714883831662515,-6.645969914839974,-89.75380537896649,-2.6289246,11.543229,-7.4965386,43.75876,-31.668228,-11.504345,0.213274,-1.38314,-4.8248897,37.439804,-27.758059,6.4594874,-14.099804,4.250491,-10.017878,-146.3545,91.37331,-71.960075,-22.33364,7.029178,-14.315792,34.411346,-152.67795,-93.899994,65.985054,-22.87961,7.7671037,-13.572916,-26.195843
76,-1.198177695274353,-4.083417892456055,74.35420989990234,-4.196838036091869,-6.4934158067265715,-89.4092171626859,-2.3021677,11.058501,-7.8592625,42.577343,-30.792868,-11.5578575,0.6503978,-1.7708136,-5.04491,36.507854,-27.152891,6.5909142,-13.29652,3.978883,-9.920845,-145.8879,91.23884,-69.78929,-21.760897,8.842357,-14.048806,35.663548,-152.21843,-93.92157,62.95685,-24.49247,13.024816,-14.738144,-28.215464
77,-1.189137578010559,-4.202486991882324,74.61575317382812,-3.884128344091336,-6.355290607804128,-89.09829658172346,-1.8973085,10.532114,-8.204964,41.273014,-29.803904,-11.582578,1.1023088,-2.1852214,-5.2091956,35.540287,-26.465675,6.719559,-12.318757,3.6180983,-9.722347,-145.277,91.00804,-67.66791,-20.42974,8.437928,-13.16261,36.304527,-151.90172,-93.79979,60.180862,-25.457409,15.516458,-15.452778,-28.252174
78,-1.1759713888168335,-4.3238606452941895,74.90061950683594,-3.53158022658153,-6.210305284409162,-88.8151365272557,-1.4313587,9.967209,-8.5276985,39.829384,-28.701782,-11.584021,1.5573103,-2.6269176,-5.328213,34.515526,-25.696997,6.8482094,-11.185497,3.1075423,-9.521984,-145.73204,90.91367,-67.07921,-18.530046,6.3843403,-11.82868,36.889076,-152.89052,-93.696,59.388237,-25.827957,16.419842,-16.120373,-27.644749
79,-1.1493048667907715,-4.446481704711914,75.19953155517578,-3.170238528633664,-6.09046469709748,-88.52904711417092,-0.91966665,9.389676,-8.870314,38.331303,-27.522812,-11.578505,2.0573325,-3.0777338,-5.445793,33.439278,-24.862404,6.986602,-9.953808,2.589723,-9.15986,-145.05154,90.51335,-65.262886,-15.814416,4.1284795,-10.462572,36.65146,-152.38268,-93.29298,56.85818,-25.684729,16.581985,-16.432026,-25.863264
80,-1.114439606666565,-4.56219482421875,75.510986328125,-2.819053416569433,-6.010784392616706,-88.2097554731823,-0.3923914,8.813423,-9.273473,36.856705,-26.29823,-11.581465,2.6201394,-3.5316453,-5.604687,32.33349,-23.986038,7.1450152,-8.6649685,2.0251586,-8.773203,-144.2682,90.07571,-63.653637,-12.458565,2.5783048,-9.327612,36.02752,-151.86723,-92.86955,54.859303,-24.690397,16.722713,-16.860268,-24.186533
81,-1.0768998861312866,-4.673393249511719,75.82134246826172,-2.482132234520127,-5.980914101539244,-87.86147231639838,0.17559814,8.24369,-9.751248,35.379208,-25.001995,-11.584742,3.2784894,-3.978944,-5.807561,31.148619,-23.02216,7.3384256,-7.292449,1.4517453,-8.344472,-143.37021,89.54419,-62.101955,-8.183512,1.9580286,-8.471867,34.945347,-151.09915,-92.34538,53.198105,-22.908642,16.612211,-17.339052,-22.495886
82,-1.028723955154419,-4.776208400726318,76.13589477539062,-2.153211533432879,-5.9843155759111,-87.49681334201397,0.7808756,7.671732,-10.280563,33.880615,-23.633394,-11.584888,4.002822,-4.421236,-6.0356326,29.896955,-21.977669,7.5574493,-5.782163,0.8774629,-8.004012,-141.5111,88.420334,-59.776493,-2.7666092,2.0889254,-7.7224283,33.20287,-149.66035,-91.2937,51.41351,-20.254307,15.787851,-17.684914,-20.217054
83,-0.9679829478263855,-4.866308212280273,76.43955993652344,-1.8276625694209183,-6.00488083991278,-87.09838955040193,1.3617585,7.09619,-10.847616,32.444515,-22.25737,-11.604182,4.733564,-4.8656373,-6.3001695,28.677023,-20.947178,7.7763305,-4.1472025,0.28516603,-7.8348703,-139.84142,86.664276,-58.11139,3.597137,2.7436893,-7.0688596,31.018137,-148.97281,-89.75745,51.090733,-16.350142,14.938439,-18.042965,-17.839138
84,-0.9042606949806213,-4.947234153747559,76.72427368164062,-1.5023000204840062,-6.034807322643781,-86.64841577604042,1.864529,6.5172396,-11.440117,31.15074,-20.935862,-11.663953,5.421616,-5.3211284,-6.612756,27.581758,-20.021692,7.9695797,-2.601068,-0.32951915,-7.613224,-139.57544,84.936516,-58.379524,10.302507,3.4498684,-6.484967,28.486975,-149.1408,-88.17419,51.84369,-11.285419,15.093435,-18.369177,-15.572948
85,-0.8332574963569641,-5.003904819488525,76.98486328125,-1.174550155150802,-6.0813116165889936,-86.15374069951415,2.2865493,5.935354,-12.054131,30.012259,-19.652235,-11.780317,6.057952,-5.7954235,-6.961655,26.635084,-19.207703,8.129347,-1.1185768,-0.92125577,-7.34835,-140.34006,83.0372,-60.07306,18.005259,4.222905,-5.919514,25.264332,-149.65726,-86.28851,52.77529,-4.5836754,16.63425,-18.535942,-13.083086
86,-0.7705712914466858,-5.046811103820801,77.21558380126953,-0.846078932924948,-6.148195423804165,-85.61992198634407,2.652841,5.3515415,-12.699029,28.992027,-18.3862,-11.939022,6.6677938,-6.281412,-7.3465333,25.787756,-18.462431,8.270016,0.304188,-1.4938612,-7.0422564,-141.83904,80.90157,-62.8587,26.806376,5.1433783,-5.4169083,21.462954,-150.2917,-84.01936,53.813683,3.577943,19.066954,-18.460663,-10.302423
87,-0.7054589986801147,-5.074895858764648,77.41847229003906,-0.5272868330638831,-6.217837505221701,-85.02707661198852,2.9428158,4.7697806,-13.383475,28.101778,-17.197802,-12.116738,7.2471733,-6.766691,-7.794837,25.032106,-17.806597,8.399844,1.586661,-2.0609632,-6.754472,-143.65028,78.5787,-66.549805,35.821865,6.354785,-5.133109,17.648277,-150.96893,-81.41662,55.388783,12.596888,21.697102,-18.113188,-7.600094
88,-0.644108235836029,-5.08632230758667,77.58667755126953,-0.22633467110066363,-6.273258065441044,-84.35521219553578,3.1392012,4.195024,-14.114897,27.345003,-16.14282,-12.290633,7.802507,-7.238056,-8.334366,24.343428,-17.256065,8.527797,2.5989826,-2.6469586,-6.5681314,-145.44844,76.165146,-71.116234,44.14468,7.973722,-5.24006,14.378319,-151.76337,-78.62033,58.08217,22.00761,23.942719,-17.578617,-5.4443455
89,-0.5899627804756165,-5.095895290374756,77.72923278808594,0.05703316417412698,-6.318065903366569,-83.6018200652611,3.2324824,3.6302748,-14.883126,26.745806,-15.232404,-12.4591055,8.344799,-7.6956735,-8.966132,23.71742,-16.816292,8.653701,3.4243708,-3.2412405,-6.488607,-147.08328,73.73658,-77.24478,51.848686,10.600096,-6.0029306,11.521608,-152.74417,-75.75223,62.306335,32.607273,26.476357,-17.167591,-4.276218
90,-0.5415634512901306,-5.09039306640625,77.84329223632812,0.326304344931412,-6.362569444606588,-82.7767578404194,3.2357597,3.0718503,-15.687026,26.293928,-14.439241,-12.636488,8.876496,-8.146427,-9.6773205,23.16092,-16.475853,8.77489,4.054349,-3.811206,-6.5198236,-148.58383,71.252815,-84.68391,59.432873,13.824965,-7.334966,8.901843,-153.82784,-72.86086,67.67093,44.441223,29.499165,-16.840176,-3.9294572
91,-0.4917026162147522,-5.071689605712891,77.92549896240234,0.5809384751924667,-6.399354659748742,-81.87852706066327,3.165374,2.513657,-16.546352,25.944643,-13.761038,-12.821829,9.384931,-8.58963,-10.473223,22.68422,-16.230024,8.895838,4.3938212,-4.331931,-6.6325173,-149.70187,68.684586,-91.56333,66.48803,16.412657,-8.786363,6.907803,-154.79222,-69.98781,73.39149,55.79558,31.58029,-16.203733,-3.7985063
92,-0.4498925507068634,-5.043627738952637,77.98493194580078,0.817473130569837,-6.416851305549374,-80.90508140330128,3.0417295,1.9514767,-17.480894,25.637917,-13.190816,-13.012167,9.856499,-9.024531,-11.359598,22.292578,-16.070898,9.020337,4.4749336,-4.8066196,-6.716652,-150.21205,66.14751,-95.798546,72.29932,17.34746,-9.793898,5.8506136,-155.50919,-67.19555,78.77038,64.87818,31.187246,-14.777903,-3.125215
93,-0.4083828628063202,-5.0090532302856445,78.01969909667969,1.0408358357687797,-6.395213897437178,-79.83867044782002,2.831249,1.3694837,-18.511694,25.389221,-12.716847,-13.231941,10.268264,-9.463037,-12.357086,22.004908,-16.002998,9.14919,4.3776374,-5.230944,-6.7109523,-150.25296,63.793247,-96.67884,76.34863,16.00773,-9.996549,6.036716,-156.00847,-64.52549,84.26096,71.098175,26.184593,-11.671057,-1.2256343
94,-0.37722477316856384,-4.970203876495361,78.03437805175781,1.2536111821545926,-6.344369851943668,-78.68620528368591,2.5420685,0.77446526,-19.621168,25.209671,-12.343446,-13.47424,10.640175,-9.901877,-13.456342,21.802801,-16.022852,9.279908,4.292278,-5.588565,-6.6140165,-150.04657,61.68268,-95.17716,78.956825,13.256457,-9.682045,7.293905,-156.35443,-61.953712,90.18933,75.48379,17.772505,-7.6170874,1.9023421
95,-0.35206860303878784,-4.9245805740356445,78.03010559082031,1.445952683681237,-6.294463877779027,-77.48300466723975,2.2442143,0.19402611,-20.771694,25.053665,-12.088456,-13.683372,11.012666,-10.319203,-14.616984,21.650696,-16.118748,9.41128,4.346452,-5.8477397,-6.403192,-149.70851,59.841984,-92.00953,80.666336,10.320906,-9.2808695,9.221738,-156.46654,-59.509045,95.56986,78.63423,9.464629,-4.4968705,5.480723
96,-0.3307453989982605,-4.874490737915039,78.00629425048828,1.60885356117658,-6.273844659446819,-76.26428732775025,2.0053325,-0.34362215,-21.926004,24.875721,-11.966097,-13.799844,11.426867,-10.688763,-15.799719,21.50409,-16.274252,9.542281,4.474599,-6.024871,-6.1132126,-149.29384,58.29312,-88.08294,81.96307,8.409597,-9.150577,11.32976,-156.35449,-57.32244,99.28202,81.08498,4.9348445,-3.5799751,7.962901
97,-0.31489598751068115,-4.820168972015381,77.95980834960938,1.7258360273557523,-6.294017132187653,-74.98611760580954,1.832313,-0.8333327,-23.141127,24.67448,-11.989723,-13.812765,11.915415,-10.9901495,-17.044577,21.34387,-16.484058,9.671916,4.4351068,-6.180849,-5.739231,-148.84212,57.063232,-83.06867,82.65208,7.6247582,-9.309779,14.002649,-156.06248,-55.58879,100.34236,82.46253,5.892135,-5.4686475,8.423723
98,-0.30568617582321167,-4.760807514190674,77.8919448852539,1.8073937925667327,-6.3336107698187964,-73.64735255459831,1.6882815,-1.292331,-24.414946,24.47572,-12.145888,-13.744215,12.446192,-11.237932,-18.356165,21.192762,-16.7555,9.801717,4.190464,-6.3569736,-5.311124,-148.54805,56.136623,-76.97881,82.51256,7.3923264,-9.557696,17.347929,-155.66853,-54.38292,99.45555,82.48758,10.127571,-9.184432,7.7238326
99,-0.29595881700515747,-4.708505630493164,77.8119888305664,1.8822743032222398,-6.371153138919837,-72.3459315222211,1.5705215,-1.725725,-25.621565,24.274294,-12.40564,-13.584344,12.959061,-11.469552,-19.640112,21.077545,-17.094877,9.93528,3.9267058,-6.564371,-4.901682,-148.45097,55.47253,-71.2659,81.96966,7.787503,-9.831795,20.3711,-155.29388,-53.61972,98.03896,81.911156,15.381036,-13.161203,6.772911
100,-0.28691327571868896,-4.664874076843262,77.71024322509766,1.9793871228072568,-6.388002442739023,-71.1801097997429,1.4773035,-2.1386647,-26.634575,24.059982,-12.738797,-13.326749,13.394958,-11.722916,-20.802631,21.025251,-17.509176,10.07524,3.803345,-6.7879367,-4.566581,-148.47487,55.01369,-67.45774,81.61515,8.74672,-10.166895,22.041367,-154.98172,-53.127243,97.44682,81.643776,19.359676,-15.8060255,6.0553865
101,-0.2621896266937256,-4.6227312088012695,77.59329986572266,2.107139932005139,-6.378505970673384,-70.16412488250175,1.4145596,-2.536394,-27.418299,23.815086,-13.170865,-12.937327,13.75187,-12.013986,-21.839098,21.029526,-18.022373,10.227916,3.8360312,-7.0122833,-4.3193083,-148.50179,54.696453,-66.01182,81.71915,10.794321,-10.700316,21.705381,-154.70703,-52.74945,97.98277,82.08829,21.911219,-16.630474,5.263038
102,-0.23352007567882538,-4.598672866821289,77.46871185302734,2.25121809697816,-6.353390581312276,-69.24890784780182,1.3785497,-2.920612,-28.042532,23.551392,-13.70903,-12.433307,14.049959,-12.326434,-22.792412,21.094448,-18.631577,10.389982,3.9328423,-7.2272654,-4.124477,-148.51154,54.472244,-66.08034,82.08819,13.718005,-11.469098,20.031124,-154.43741,-52.418583,98.936485,82.90557,24.09808,-16.548311,4.159552
103,-0.19329917430877686,-4.571822166442871,77.33857727050781,2.4011393414448254,-6.321903773512687,-68.43944967628744,1.3573018,-3.2854383,-28.537333,23.293863,-14.293175,-11.889291,14.286414,-12.65041,-23.64217,21.221006,-19.278982,10.548532,4.0940356,-7.4088836,-3.9682121,-148.53879,54.312695,-67.1916,82.640366,16.34409,-12.334756,17.945835,-154.17331,-52.10936,100.12279,83.872116,25.423674,-15.96197,3.0223713
104,-0.13113091886043549,-4.542832374572754,77.19605255126953,2.547265952373424,-6.293011043972225,-67.74098019676755,1.3332413,-3.6261911,-28.93119,23.078627,-14.867965,-11.378002,14.446199,-12.979431,-24.36509,21.434149,-19.920977,10.690024,4.3123,-7.5364637,-3.8337119,-148.6208,54.196766,-68.88099,83.27061,17.529598,-13.0071335,16.335464,-153.92998,-51.82274,101.36711,84.73563,25.400993,-15.245475,2.1792626
105,-0.06862305849790573,-4.5075459480285645,77.04801177978516,2.6917542011971753,-6.2560382740965,-67.18703434135519,1.3002673,-3.9355454,-29.17465,22.90983,-15.4508705,-10.882321,14.4920025,-13.325125,-24.917404,21.76756,-20.571892,10.812798,4.6514697,-7.589203,-3.7409515,-148.75275,54.109802,-71.63461,84.106346,16.603758,-13.324255,15.165639,-153.7315,-51.544956,102.9792,85.536865,23.216137,-14.174373,1.7163819
106,-0.006444696802645922,-4.471662998199463,76.91386413574219,2.836265530646177,-6.209788949278143,-66.76402063810743,1.2688065,-4.2183795,-29.271233,22.768908,-16.064425,-10.380535,14.440563,-13.691292,-25.321684,22.201063,-21.24885,10.922185,5.0829124,-7.581071,-3.6909943,-148.9369,54.024517,-75.50484,85.17245,14.322921,-13.38832,14.037954,-153.55972,-51.258747,104.92381,86.38654,19.373634,-12.630171,1.5540204
107,0.05484351888298988,-4.427013397216797,76.79338073730469,2.97655872948773,-6.176832059759012,-66.40618913892226,1.2520156,-4.482468,-29.326704,22.641802,-16.648298,-9.933637,14.363645,-14.051298,-25.6546,22.662369,-21.901833,11.014276,5.4787197,-7.54606,-3.6354294,-149.16803,53.914818,-79.311905,86.17808,11.726646,-13.265228,13.270942,-153.39093,-50.98136,106.534836,87.13222,15.341148,-11.17765,1.7141093
108,0.10154661536216736,-4.373699188232422,76.67564392089844,3.1010137084540608,-6.178520331135586,-66.04790390564266,1.258509,-4.7359266,-29.446037,22.521576,-17.141861,-9.599003,14.335354,-14.377834,-25.994413,23.076477,-22.479599,11.085609,5.770993,-7.512796,-3.5225725,-149.38841,53.786087,-81.81569,86.83459,9.827113,-13.107671,13.178393,-153.23622,-50.75477,107.25497,87.62557,12.599074,-10.38345,2.0796916
109,0.14773514866828918,-4.309287071228027,76.56706237792969,3.203576757355904,-6.23148582726048,-65.68422311605468,1.3070364,-4.9666057,-29.650799,22.389816,-17.52977,-9.411443,14.368159,-14.66429,-26.345001,23.45258,-22.973928,11.126972,6.016186,-7.4655414,-3.3166757,-149.54614,53.667103,-82.47882,86.95708,8.762774,-12.939958,14.162822,-153.15555,-50.623264,106.72712,87.73455,11.568002,-10.554922,2.7109478
110,0.17834770679473877,-4.241158962249756,76.48018646240234,3.2907297823470074,-6.31972095927673,-65.34604784618864,1.3831984,-5.1746325,-29.885212,22.261415,-17.844421,-9.331235,14.42454,-14.924234,-26.6697,23.818974,-23.409807,11.142403,6.2650805,-7.3975487,-3.051358,-149.65811,53.57821,-81.98754,86.71325,8.031278,-12.731507,15.958477,-153.14566,-50.595146,105.377625,87.536804,11.459172,-11.3308525,3.5759637
111,0.20407748222351074,-4.17652702331543,76.4065170288086,3.372674844107802,-6.417927082627495,-65.02168198912112,1.4520525,-5.382203,-30.138412,22.164112,-18.087744,-9.302581,14.504809,-15.163168,-26.986628,24.133438,-23.787617,11.149116,6.4954624,-7.3368964,-2.7572618,-149.78357,53.5486,-81.00136,86.29971,7.570465,-12.534464,17.838034,-153.19551,-50.624165,103.99328,87.24834,12.006468,-12.254646,4.4026637
112,0.22906088829040527,-4.117055892944336,76.34991455078125,3.4601611121851623,-6.501033177895373,-64.69929836278492,1.4792143,-5.613024,-30.399742,22.125937,-18.261839,-9.270413,14.607749,-15.386431,-27.314278,24.357506,-24.10926,11.1646185,6.6028504,-7.343787,-2.5133605,-149.91014,53.530228,-80.12422,85.99485,7.443813,-12.403671,19.119766,-153.14032,-50.677036,102.97574,87.088486,12.687156,-12.902078,4.858821
113,0.2538404166698456,-4.063093662261963,76.3094253540039,3.5637728727901945,-6.571018934762582,-64.35949374267592,1.4495809,-5.891797,-30.690184,22.180038,-18.345116,-9.230445,14.756918,-15.5972395,-27.676117,24.458836,-24.360615,11.201633,6.5434837,-7.44121,-2.302413,-150.1136,53.51909,-79.46054,85.83789,7.6991315,-12.352973,19.565144,-153.01195,-50.728344,102.58623,87.15803,13.884439,-13.2015915,4.8637314
114,0.2629808485507965,-4.010794639587402,76.27774047851562,3.675039916329879,-6.639094143505799,-64.0177990419697,1.3858228,-6.198481,-31.003433,22.301483,-18.343655,-9.20799,14.943185,-15.789773,-28.052937,24.46671,-24.545876,11.2478695,6.4560127,-7.5871196,-2.1249375,-150.21512,53.506546,-78.4516,85.674904,8.449687,-12.329562,19.62017,-152.83066,-50.80287,102.5444,87.3426,15.61023,-13.375939,4.577253
115,0.279061883687973,-3.9627506732940674,76.25450134277344,3.779614768368604,-6.691604091501311,-63.70233675590333,1.3023497,-6.4954424,-31.300056,22.439579,-18.30355,-9.193816,15.122532,-15.958697,-28.41157,24.425135,-24.689562,11.284936,6.468482,-7.721035,-1.9547505,-150.22641,53.494133,-77.32314,85.53722,9.321262,-12.335149,19.434034,-152.73279,-50.91802,103.009415,87.546646,17.288754,-13.444812,4.135635
116,0.2942264676094055,-3.9180729389190674,76.23851013183594,3.8666407896861603,-6.714722627560152,-63.445604298578,1.2161994,-6.7435193,-31.536798,22.53663,-18.268057,-9.178334,15.247792,-16.102722,-28.71359,24.382984,-24.818731,11.294189,6.4456806,-7.835981,-1.8299484,-150.27324,53.48865,-76.669716,85.51466,9.942308,-12.361123,19.166504,-152.62747,-51.012848,103.59422,87.68879,18.11612,-13.421413,3.5989156
117,0.31507793068885803,-3.8790180683135986,76.22908782958984,3.9328540238402074,-6.6926792284756536,-63.25205100560508,1.1127682,-6.936459,-31.707235,22.58711,-18.238628,-9.161395,15.298164,-16.215908,-28.958065,24.341116,-24.934336,11.264937,6.4307323,-7.9171014,-1.7740136,-150.29204,53.487408,-76.52094,85.65001,10.286845,-12.400923,18.751667,-152.52834,-51.090855,104.55737,87.753586,17.655869,-13.217642,2.817783
118,0.3397255539894104,-3.8407835960388184,76.22427368164062,3.985676755402781,-6.6363247285377795,-63.10619401506904,0.9889278,-7.0939045,-31.832064,22.616964,-18.19474,-9.147132,15.301065,-16.30257,-29.161448,24.27783,-25.02463,11.209244,6.378261,-7.988806,-1.774457,-150.31107,53.48653,-76.750404,85.919586,10.5027075,-12.463976,18.131235,-152.40923,-51.139446,105.81405,87.79836,16.357277,-12.8376,1.8031887
119,0.3665652275085449,-3.8028504848480225,76.22023010253906,4.0265831257290605,-6.572751831286741,-63.010035290911084,0.87827367,-7.2139864,-31.910048,22.618168,-18.148342,-9.132458,15.280252,-16.367786,-29.312199,24.204655,-25.095669,11.141409,6.3600407,-8.039937,-1.785465,-150.30739,53.483974,-77.08525,86.20102,10.64587,-12.545387,17.535255,-152.30098,-51.17398,107.01971,87.8276,14.900165,-12.432731,0.90251714
120,0.387386292219162,-3.7618300914764404,76.21550750732422,4.060307471104447,-6.529215195686974,-62.96582396564935,0.8133623,-7.295201,-31.9394,22.584158,-18.112259,-9.114343,15.258463,-16.418394,-29.398266,24.135164,-25.154642,11.075942,6.370314,-8.07247,-1.7717336,-150.30981,53.485386,-77.380394,86.39291,10.74292,-12.644735,17.185127,-152.18994,-51.193165,107.67974,87.84678,13.894432,-12.189129,0.43455404
121,0.40931612253189087,-3.7207419872283936,76.21411895751953,4.084085291493507,-6.513755302752767,-62.99202654878925,0.8154745,-7.324924,-31.90126,22.493855,-18.090038,-9.092023,15.232832,-16.455307,-29.39802,24.080103,-25.203266,11.01017,6.4901876,-8.06619,-1.7083968,-150.2853,53.494514,-77.52611,86.43371,10.785866,-12.779766,17.197926,-152.12961,-51.223705,107.6954,87.83089,13.579498,-12.203548,0.61753815
122,0.4297085106372833,-3.6816444396972656,76.21383666992188,4.097270915612713,-6.513372711163226,-63.08321346146004,0.863489,-7.3061914,-31.80192,22.359701,-18.076647,-9.067218,15.196127,-16.474255,-29.32277,24.027681,-25.236685,10.938182,6.778826,-7.998822,-1.5941454,-150.2065,53.50075,-77.53388,86.38854,10.752646,-12.947544,17.433426,-152.19283,-51.238155,107.50572,87.81401,13.687756,-12.365852,1.2696408
123,0.4503093659877777,-3.6471664905548096,76.21299743652344,4.1048656945539275,-6.515292910414413,-63.19831909783937,0.9243653,-7.2684503,-31.682152,22.212233,-18.062502,-9.040579,15.155492,-16.47979,-29.215374,23.96643,-25.25622,10.870538,6.8341107,-7.9984865,-1.5365254,-150.22398,53.54428,-77.845825,86.3134,10.695354,-13.101518,17.73586,-152.05031,-51.321404,106.63009,87.69132,13.690615,-12.589601,1.9318302
124,0.47162771224975586,-3.6151821613311768,76.2171401977539,4.103367992423438,-6.514720649730735,-63.3055210131118,0.966719,-7.2319064,-31.575813,22.103493,-18.052637,-9.012966,15.129642,-16.466753,-29.110807,23.872873,-25.256416,10.815952,6.9446826,-7.9768605,-1.4635245,-150.21896,53.58339,-78.08594,86.26192,10.62337,-13.216207,17.952648,-152.0015,-51.397133,106.18104,87.60408,13.813262,-12.752771,2.4207652
125,0.48687881231307983,-3.5872817039489746,76.22582244873047,4.091495199082433,-6.514056046573902,-63.39861143940379,0.98939556,-7.201466,-31.49104,22.04211,-18.047432,-8.982252,15.129557,-16.430563,-29.012466,23.734947,-25.232403,10.776968,7.011641,-7.9609146,-1.4028472,-150.22008,53.61991,-78.38262,86.25801,10.535697,-13.270966,18.073645,-151.94888,-51.469658,105.9649,87.54146,13.958252,-12.841214,2.6571553
126,0.5013182163238525,-3.5599167346954346,76.23294830322266,4.070848268212184,-6.516288450193056,-63.4952546625295,1.0062696,-7.165201,-31.408894,22.007057,-18.047703,-8.948867,15.145652,-16.374144,-28.902252,23.565306,-25.187063,10.748284,7.061837,-7.9429846,-1.34675,-150.2211,53.65121,-78.712944,86.27506,10.423377,-13.287752,18.172195,-151.90022,-51.537067,105.8408,87.49416,14.198582,-12.906935,2.7979143
127,0.514205813407898,-3.5331666469573975,76.23992156982422,4.044320907087941,-6.510837417781751,-63.593004982187914,1.0099179,-7.1239896,-31.328297,21.985025,-18.046062,-8.917066,15.157558,-16.308378,-28.789324,23.384466,-25.130085,10.728388,7.0898795,-7.929674,-1.3040218,-150.21948,53.674778,-79.01745,86.30823,10.334059,-13.290219,18.227507,-151.85226,-51.593266,105.81641,87.46722,14.414604,-12.959411,2.8169677
128,0.5243735313415527,-3.5061678886413574,76.24600982666016,4.01680997750884,-6.48719535248578,-63.68946786479784,0.99219483,-7.0791526,-31.24798,21.964174,-18.036028,-8.890817,15.146002,-16.241817,-28.683365,23.209688,-25.069271,10.715216,7.088882,-7.9290338,-1.2825407,-150.21472,53.69326,-79.242386,86.34645,10.311853,-13.301075,18.217632,-151.80347,-51.63998,105.89164,87.45594,14.478853,-13.007647,2.6864603
129,0.5305241942405701,-3.4781911373138428,76.25482940673828,3.991554396593604,-6.435020272011363,-63.77672517327616,0.9364764,-7.0352225,-31.17515,21.950224,-18.01375,-8.869082,15.100588,-16.179049,-28.593798,23.042038,-25.005669,10.714881,7.0374413,-7.9498873,-1.2953522,-150.20944,53.71055,-79.37342,86.38953,10.382373,-13.317252,18.107058,-151.74965,-51.68253,106.14283,87.46409,14.31604,-13.064521,2.2935822
130,0.5371274352073669,-3.4550600051879883,76.26905822753906,3.963500085831828,-6.361745111091982,-63.85842554837575,0.851118,-6.990604,-31.107887,21.94852,-17.984383,-8.850291,15.033821,-16.113745,-28.513397,22.872063,-24.93468,10.725808,6.9521284,-7.9840226,-1.3341494,-150.1963,53.726707,-79.42628,86.43787,10.52098,-13.329368,17.918945,-151.69557,-51.71752,106.5551,87.493195,14.009876,-13.119365,1.6880543
131,0.5403690934181213,-3.433913469314575,76.28678894042969,3.9327169627179797,-6.286664475208563,-63.9497260804118,0.7682333,-6.9352183,-31.031754,21.938944,-17.95058,-8.838072,14.95977,-16.0442,-28.425692,22.705906,-24.85849,10.735596,6.884951,-8.014275,-1.3732189,-150.16179,53.746853,-79.391174,86.47105,10.695982,-13.350728,17.71698,-151.66107,-51.75343,107.00434,87.51964,13.681008,-13.146901,1.0871733
132,0.5433945059776306,-3.415491819381714,76.3023910522461,3.8975650616578723,-6.229027961923067,-64.06549550792778,0.71822757,-6.8606043,-30.93221,21.90581,-17.917744,-8.835952,14.893995,-15.9689,-28.314651,22.547623,-24.777819,10.731633,6.837202,-8.034412,-1.394654,-150.13043,53.76265,-79.34386,86.50046,10.857987,-13.396581,17.559368,-151.62663,-51.77582,107.25828,87.53526,13.409706,-13.128044,0.7006811
133,0.5457519888877869,-3.395071506500244,76.31922912597656,3.8549105548649605,-6.195183967739315,-64.21426184919424,0.71981996,-6.7539287,-30.801992,21.82533,-17.880064,-8.852978,14.840356,-15.883105,-28.173275,22.398592,-24.689888,10.707582,6.8083344,-8.0407295,-1.385858,-150.12961,53.769783,-79.289856,86.532875,11.000618,-13.498068,17.451307,-151.60457,-51.7854,107.27443,87.532616,13.260198,-13.035874,0.6187727
134,0.5440714359283447,-3.3757448196411133,76.33589172363281,3.8061744097759194,-6.174995776608203,-64.38803200539104,0.7506741,-6.623828,-30.647234,21.72199,-17.843601,-8.885427,14.794717,-15.784158,-28.009588,22.24658,-24.589716,10.669784,6.820435,-8.031037,-1.3500879,-150.13654,53.775826,-79.18476,86.54942,11.136701,-13.635539,17.364462,-151.63162,-51.79366,107.22196,87.50936,13.198999,-12.885313,0.7294273
135,0.5434098839759827,-3.3566572666168213,76.35135650634766,3.7586516270521995,-6.161748093555331,-64.57227065651861,0.7922654,-6.490264,-30.48382,21.614212,-17.805178,-8.91439,14.743689,-15.690914,-27.835203,22.117146,-24.498007,10.630296,6.8601556,-8.016391,-1.3110367,-150.1147,53.782757,-79.05275,86.55686,11.2631645,-13.757873,17.30351,-151.66145,-51.80271,107.12585,87.47973,13.153273,-12.73518,0.91666824
136,0.542739987373352,-3.3360228538513184,76.36360168457031,3.71855914166749,-6.147253706943023,-64.75048493585908,0.81360304,-6.3789577,-30.322264,21.547081,-17.778963,-8.925862,14.684623,-15.611464,-27.661985,22.006935,-24.420225,10.5970955,6.910419,-8.009342,-1.2807608,-150.05565,53.790802,-78.96317,86.56162,11.33929,-13.810511,17.263735,-151.67259,-51.811657,107.0495,87.46063,13.094812,-12.644702,1.0749196
137,0.541887640953064,-3.3133885860443115,76.37531280517578,3.690580347605203,-6.135619197786665,-64.92198498660154,0.81140655,-6.297629,-30.162647,21.536999,-17.768688,-8.909567,14.621304,-15.550607,-27.490555,21.918154,-24.359142,10.574423,6.980665,-8.008203,-1.2525847,-149.95514,53.79344,-78.95382,86.581825,11.312823,-13.7662115,17.258059,-151.67363,-51.81414,107.03126,87.44276,13.042002,-12.623288,1.2253662
138,0.5396746397018433,-3.289585828781128,76.3870849609375,3.6657360807345682,-6.124714619559294,-65.11687286803866,0.80338186,-6.218055,-29.978989,21.550684,-17.767448,-8.874198,14.538846,-15.496874,-27.289614,21.85459,-24.310408,10.553758,7.097366,-7.9894195,-1.2414942,-149.81303,53.807304,-79.00674,86.60806,11.17249,-13.650556,17.26987,-151.67839,-51.823822,107.02627,87.41075,13.006852,-12.646729,1.4447073
139,0.5332238674163818,-3.2625203132629395,76.39488983154297,3.644161892496294,-6.108288911322629,-65.3021804003343,0.7784441,-6.149779,-29.803202,21.583887,-17.773306,-8.836613,14.444678,-15.451519,-27.095009,21.810707,-24.27369,10.533745,7.0988927,-8.002058,-1.2166926,-149.82724,53.867485,-79.4008,86.61326,10.867935,-13.529098,17.22199,-151.70848,-51.860283,107.003334,87.31615,13.0353155,-12.684477,1.6186829
140,0.5248119831085205,-3.236494302749634,76.39888000488281,3.623190995304465,-6.086716866208668,-65.46397163827051,0.74520904,-6.0868483,-29.652405,21.61385,-17.77854,-8.81019,14.3481455,-15.408742,-26.9242,21.77826,-24.246765,10.512086,7.106944,-8.0147085,-1.1968026,-149.8056,53.909702,-79.64231,86.62154,10.767604,-13.468718,17.164526,-151.73767,-51.880863,107.046295,87.260475,13.032823,-12.716006,1.6448953
141,0.5176591873168945,-3.2150321006774902,76.40290832519531,3.6003864980015368,-6.050789793931187,-65.60256821021373,0.692726,-6.027418,-29.527674,21.642435,-17.784796,-8.800107,14.235258,-15.370245,-26.774763,21.765789,-24.235779,10.485071,7.078316,-8.037207,-1.1920302,-149.79364,53.950512,-79.83685,86.617256,10.878819,-13.490564,17.058935,-151.76387,-51.895554,107.145,87.220406,12.97897,-12.745241,1.4474567
142,0.5074446797370911,-3.189190149307251,76.40655517578125,3.5776887411120692,-6.005642987097132,-65.72477333528879,0.62386835,-5.9738307,-29.420809,21.677208,-17.793962,-8.798165,14.108959,-15.336033,-26.639675,21.771618,-24.238316,10.455017,7.0294905,-8.0662775,-1.197694,-149.7839,53.989113,-80.008606,86.605896,11.123614,-13.558908,16.923237,-151.7914,-51.903946,107.300964,87.19266,12.902942,-12.781281,1.0961996
143,0.4967116713523865,-3.1664741039276123,76.40862274169922,3.5538248019189465,-5.960341435383266,-65.83649239050756,0.55521333,-5.921302,-29.323936,21.708803,-17.803259,-8.799653,13.984944,-15.303916,-26.515076,21.783716,-24.243519,10.426356,6.974454,-8.097399,-1.2046379,-149.76857,54.015118,-80.13359,86.599495,11.3977585,-13.641702,16.790667,-151.81444,-51.906254,107.44782,87.17542,12.826246,-12.803859,0.7208211
144,0.4851507842540741,-3.144176959991455,76.412841796875,3.530471181357946,-5.9247015651366945,-65.94328086880283,0.5030701,-5.8658304,-29.229202,21.72897,-17.810465,-8.799914,13.87992,-15.267695,-26.397846,21.785704,-24.237732,10.403116,6.923523,-8.123236,-1.2001107,-149.74693,54.042645,-80.20062,86.58966,11.587491,-13.706456,16.688705,-151.83727,-51.90667,107.54855,87.159645,12.799401,-12.792651,0.45366022
145,0.47823846340179443,-3.1222128868103027,76.4171371459961,3.506257533456079,-5.902534202317459,-66.04329773204402,0.47162732,-5.8056517,-29.137306,21.737476,-17.817038,-8.796652,13.801015,-15.226179,-26.29185,21.774675,-24.216202,10.389083,6.8696904,-8.14764,-1.1824895,-149.7235,54.046482,-80.194534,86.60023,11.655822,-13.750374,16.625639,-151.85342,-51.906513,107.55081,87.14576,12.826301,-12.727037,0.31735137
146,0.4689429998397827,-3.103578567504883,76.42121887207031,3.4812920282973256,-5.8893871338161095,-66.13204320354038,0.454275,-5.745223,-29.053867,21.735903,-17.821898,-8.792573,13.74108,-15.183562,-26.20017,21.758284,-24.186485,10.381822,6.8091707,-8.17645,-1.1414549,-149.7216,54.050934,-80.16099,86.60352,11.633838,-13.787437,16.580986,-151.8945,-51.90632,107.53061,87.14448,12.917776,-12.629588,0.25927803
147,0.4570404887199402,-3.0866453647613525,76.42786407470703,3.456658347197045,-5.878294767818685,-66.21975522444052,0.44345656,-5.6833167,-28.97069,21.726894,-17.82454,-8.79098,13.685528,-15.140079,-26.108686,21.739693,-24.154999,10.374227,6.750609,-8.197746,-1.1022623,-149.71672,54.05454,-80.109985,86.61347,11.590818,-13.817419,16.547607,-151.92474,-51.90627,107.4958,87.12962,13.021441,-12.52302,0.25103658
148,0.44580739736557007,-3.0716822147369385,76.43196868896484,3.4348106839477848,-5.86847584090552,-66.3082654095736,0.44106743,-5.6222916,-28.887724,21.704523,-17.81901,-8.794757,13.635102,-15.098489,-26.014236,21.7129,-24.125189,10.361014,6.703094,-8.216817,-1.0678324,-149.69249,54.056404,-80.06941,86.62373,11.579803,-13.8305855,16.533161,-151.93265,-51.906303,107.46737,87.11001,13.08823,-12.44862,0.28905785
149,0.4358702003955841,-3.0592753887176514,76.43548583984375,3.419196702144861,-5.859825491138251,-66.40225430055382,0.44982803,-5.561318,-28.799883,21.664713,-17.80371,-8.807773,13.586785,-15.060322,-25.908867,21.679544,-24.10145,10.337468,6.6807475,-8.22212,-1.0430659,-149.64113,54.0603,-80.00592,86.640144,11.609493,-13.816013,16.549026,-151.91847,-51.906628,107.41961,87.08345,13.115108,-12.420535,0.41688287
150,0.42545926570892334,-3.0468246936798096,76.44369506835938,3.4073827064549036,-5.854277253638303,-66.49118537424144,0.46885777,-5.504221,-28.716993,21.61178,-17.780594,-8.827367,13.547977,-15.025412,-25.80646,21.639193,-24.080624,10.308907,6.664515,-8.228542,-1.0102808,-149.58575,54.068264,-79.95641,86.65453,11.638461,-13.778488,16.59829,-151.89622,-51.90796,107.37528,87.060776,13.1369505,-12.425019,0.6134301
151,0.4169260263442993,-3.03609299659729,76.4502182006836,3.397742438045756,-5.849953435544329,-66.58178065823388,0.49347213,-5.447019,-28.633406,21.549883,-17.75213,-8.846512,13.51184,-14.992669,-25.70268,21.595785,-24.0576,10.281032,6.6487207,-8.235497,-0.9838888,-149.52104,54.071877,-79.92926,86.66086,11.680288,-13.737093,16.642916,-151.86012,-51.908794,107.34732,87.032715,13.128254,-12.442641,0.823944
152,0.4114333391189575,-3.023852586746216,76.45768737792969,3.3883279446484225,-5.84439473320097,-66.67463742224002,0.5160521,-5.3908544,-28.549095,21.487917,-17.722256,-8.858232,13.475865,-14.958913,-25.60069,21.546978,-24.024698,10.260128,6.62378,-8.246237,-0.96381646,-149.45332,54.0743,-79.919044,86.65588,11.736156,-13.714564,16.64698,-151.8094,-51.90932,107.337616,86.99887,13.0706,-12.457015,0.9810105
153,0.40470361709594727,-3.0112061500549316,76.46976470947266,3.3805543195723913,-5.835363329644599,-66.77775137740782,0.54237884,-5.329855,-28.458128,21.408052,-17.682856,-8.859919,13.432634,-14.926008,-25.493383,21.498148,-23.981052,10.25022,6.6042356,-8.255261,-0.96622807,-149.36713,54.089012,-79.9237,86.616745,11.805405,-13.721667,16.575064,-151.74454,-51.911404,107.388596,86.94495,12.929912,-12.462825,1.0718436
154,0.399515300989151,-2.998558521270752,76.48110961914062,3.373532899555495,-5.825952878742723,-66.87559733651162,0.56721216,-5.2733145,-28.374151,21.327091,-17.640533,-8.856158,13.394666,-14.894948,-25.396233,21.442842,-23.92854,10.248684,6.5832787,-8.261464,-0.9487827,-149.32019,54.119343,-79.99185,86.55953,11.840921,-13.756727,16.442104,-151.71443,-51.91357,107.570045,86.875114,12.796579,-12.463971,1.1167022
155,0.3944930136203766,-2.9845778942108154,76.48948669433594,3.365197987031035,-5.816222822008052,-66.97433271862316,0.5899509,-5.2188683,-28.288918,21.252472,-17.599865,-8.84823,13.355703,-14.864558,-25.298216,21.38959,-23.87502,10.247667,6.562307,-8.264942,-0.93149275,-149.27547,54.149204,-80.07109,86.500626,11.881923,-13.795772,16.300722,-151.68024,-51.9134,107.75127,86.80726,12.6561775,-12.4632845,1.1392826
156,0.3889148235321045,-2.9709224700927734,76.49922943115234,3.356877847218879,-5.808418109014999,-67.07327837833414,0.60788804,-5.166986,-28.201542,21.19534,-17.566175,-8.837827,13.313438,-14.835445,-25.195955,21.34747,-23.829483,10.240439,6.54559,-8.263247,-0.9107344,-149.23143,54.17363,-80.142334,86.452805,11.930797,-13.822884,16.191685,-151.64738,-51.911476,107.90043,86.75247,12.567671,-12.460135,1.158173
157,0.3837139308452606,-2.9580442905426025,76.50737762451172,3.3441422692373313,-5.802954276554506,-67.17254278853989,0.6186373,-5.1185884,-28.111153,21.165287,-17.543541,-8.822107,13.267971,-14.805261,-25.087078,21.317118,-23.793997,10.222278,6.5370445,-8.252634,-0.8842114,-149.18593,54.19545,-80.1956,86.41545,11.998223,-13.834752,16.12884,-151.6206,-51.90865,108.01364,86.71533,12.546569,-12.462697,1.166856
158,0.38033151626586914,-2.946194887161255,76.51464080810547,3.33083989720517,-5.798896958809817,-67.27230686258244,0.624434,-5.072732,-28.018917,21.153141,-17.527761,-8.801265,13.220486,-14.774675,-24.973848,21.294281,-23.76413,10.197767,6.531261,-8.2383795,-0.8569602,-149.1384,54.20719,-80.23819,86.3895,12.087581,-13.839239,16.091326,-151.58879,-51.906395,108.09435,86.688446,12.554468,-12.469174,1.1562388
159,0.3795865476131439,-2.930150270462036,76.52082824707031,3.3165324286318083,-5.795013314199704,-67.37217464602901,0.62751514,-5.0295634,-27.924904,21.148767,-17.515383,-8.78121,13.1696825,-14.748005,-24.860106,21.280209,-23.737553,10.174022,6.537908,-8.216309,-0.8221716,-149.09438,54.22755,-80.28544,86.358925,12.155082,-13.838195,16.059706,-151.57394,-51.902363,108.183846,86.66607,12.596743,-12.4600725,1.1570437
160,0.378268301486969,-2.9171102046966553,76.52770233154297,3.3056142458656255,-5.790355383789786,-67.47187256175165,0.63141173,-4.988085,-27.829403,21.138271,-17.500935,-8.767941,13.114729,-14.7266245,-24.75006,21.273779,-23.71083,10.157925,6.548647,-8.19379,-0.7865921,-149.04692,54.25127,-80.335304,86.32565,12.193185,-13.829948,16.024714,-151.55339,-51.89829,108.22991,86.64286,12.621894,-12.417737,1.1840241
161,0.37862205505371094,-2.9028923511505127,76.5316390991211,3.2966665578433654,-5.787719753933513,-67.56801296475378,0.63639563,-4.9505134,-27.734045,21.126911,-17.487133,-8.7644615,13.062614,-14.712534,-24.650614,21.270376,-23.680054,10.156015,6.5792513,-8.170018,-0.7445338,-148.98918,54.25613,-80.35803,86.31292,12.196448,-13.817999,15.991878,-151.53288,-51.89759,108.23403,86.62554,12.62675,-12.338942,1.2366879
162,0.3776886761188507,-2.888798713684082,76.53612518310547,3.290570104826955,-5.783558636951182,-67.66702192659515,0.64152443,-4.9142356,-27.633068,21.11107,-17.47142,-8.766901,13.000808,-14.707254,-24.550604,21.284302,-23.653805,10.162647,6.628497,-8.14214,-0.7001957,-148.9319,54.261166,-80.39006,86.30181,12.146117,-13.799762,15.954462,-151.52536,-51.897415,108.226494,86.605034,12.647958,-12.22368,1.3174903
163,0.37756553292274475,-2.8696837425231934,76.54084014892578,3.2880689570852817,-5.774600731182174,-67.76996027671821,0.6444135,-4.8799086,-27.528238,21.088926,-17.453651,-8.771274,12.926793,-14.708419,-24.444502,21.310509,-23.632095,10.167884,6.6261373,-8.127804,-0.6636602,-148.9219,54.289886,-80.547356,86.27628,12.043433,-13.772812,15.896761,-151.49368,-51.90006,108.14538,86.56201,12.66784,-12.078701,1.4187409
164,0.37580904364585876,-2.8497159481048584,76.54813385009766,3.2814490236817653,-5.768391243739438,-67.85954947957292,0.6475858,-4.845207,-27.44183,21.067474,-17.436377,-8.7747555,12.866693,-14.701155,-24.350061,21.320972,-23.607042,10.162973,6.655802,-8.094333,-0.6066046,-148.85912,54.291756,-80.565186,86.2538,12.057177,-13.738098,15.868798,-151.46268,-51.90054,108.14086,86.55897,12.686468,-11.958389,1.5200424
165,0.3743356764316559,-2.8327531814575195,76.55513000488281,3.2787097364736155,-5.750692411515634,-67.96500297300261,0.6489191,-4.8057165,-27.345816,21.026688,-17.41446,-8.776361,12.777356,-14.69699,-24.228048,21.353342,-23.596832,10.13867,6.6318955,-8.0869255,-0.59211326,-148.81888,54.3214,-80.71537,86.1776,12.078079,-13.673152,15.826368,-151.39616,-51.911922,108.100296,86.5168,12.719065,-11.808948,1.678801
166,0.3747977018356323,-2.8175978660583496,76.5617446899414,3.271146050726701,-5.736165481643571,-68.05263532342913,0.6493746,-4.7679353,-27.273314,20.989864,-17.394978,-8.779168,12.704177,-14.685716,-24.1228,21.371323,-23.585407,10.104623,6.631787,-8.054326,-0.54406744,-148.7463,54.323093,-80.73009,86.119354,12.196989,-13.608021,15.818131,-151.33131,-51.912968,108.1058,86.51958,12.733455,-11.687378,1.8230846
167,0.3759857714176178,-2.801908254623413,76.56757354736328,3.268570432035824,-5.713467386724109,-68.15650453937846,0.6496698,-4.727352,-27.183321,20.936678,-17.368042,-8.779526,12.60709,-14.681504,-23.996399,21.407717,-23.578152,10.068067,6.6275926,-8.0410185,-0.5327316,-148.6528,54.347813,-80.81775,86.00853,12.301573,-13.516098,15.782062,-151.25682,-51.931072,108.16555,86.49042,12.812722,-11.522245,2.0274706
168,0.37587860226631165,-2.786123752593994,76.5709457397461,3.2641273661631414,-5.699301734423318,-68.25088895087087,0.65705496,-4.6875505,-27.098251,20.885,-17.33681,-8.7763815,12.533371,-14.67201,-23.886635,21.42069,-23.551998,10.041595,6.624913,-8.012554,-0.49276105,-148.5385,54.369225,-80.88613,85.92524,12.400059,-13.449641,15.719249,-151.15948,-51.951077,108.23336,86.48053,12.876633,-11.354579,2.198057
169,0.37484705448150635,-2.7708685398101807,76.5774917602539,3.258336677821136,-5.690443925142416,-68.34637847132225,0.6716876,-4.6487164,-27.002487,20.830145,-17.297127,-8.768655,12.468262,-14.66483,-23.781464,21.42836,-23.50889,10.02862,6.625047,-7.9817533,-0.43907207,-148.41205,54.39663,-81.00407,85.85348,12.440541,-13.410082,15.598939,-151.05171,-51.980717,108.36859,86.47082,12.996086,-11.155763,2.362746
170,0.3782939612865448,-2.753439426422119,76.58736419677734,3.2551678019526205,-5.685217807244481,-68.44245314823807,0.6913866,-4.610327,-26.900312,20.771055,-17.250662,-8.757625,12.409293,-14.659538,-23.679068,21.430775,-23.45362,10.023276,6.623897,-7.9511065,-0.3764681,-148.27106,54.44253,-81.15294,85.76929,12.453192,-13.384934,15.438521,-150.93295,-52.03714,108.5408,86.44305,13.142024,-10.932611,2.5236635
171,0.38141801953315735,-2.731407403945923,76.59906005859375,3.249040372030712,-5.681551416890318,-68.53479581928359,0.71502423,-4.5699754,-26.803148,20.707172,-17.202013,-8.743744,12.36086,-14.648275,-23.58292,21.415756,-23.389626,10.020409,6.616255,-7.915936,-0.31008804,-148.10504,54.48753,-81.295166,85.690025,12.486521,-13.354632,15.273573,-150.78603,-52.09896,108.70805,86.41931,13.2721195,-10.708609,2.6768532
172,0.38638338446617126,-2.7127206325531006,76.61646270751953,3.2374035583084497,-5.678071197249652,-68.61945184386018,0.73990756,-4.526165,-26.722033,20.641083,-17.15692,-8.727542,12.329111,-14.625179,-23.496359,21.368166,-23.318829,10.015161,6.5966153,-7.8710036,-0.24234329,-147.90843,54.524933,-81.399475,85.62079,12.583946,-13.300177,15.136571,-150.60135,-52.157665,108.832016,86.40956,13.345953,-10.506872,2.8193524
173,0.387392520904541,-2.694594383239746,76.63168334960938,3.217007784062682,-5.673597231327635,-68.69151991545246,0.76478434,-4.4782977,-26.666124,20.573,-17.118988,-8.707987,12.317466,-14.585892,-23.4243,21.280968,-23.241997,10.003132,6.5589967,-7.8116884,-0.16300286,-147.70354,54.54222,-81.4463,85.60113,12.811166,-13.227661,15.056965,-150.38023,-52.190716,108.87802,86.45602,13.296924,-10.3514185,2.939603
174,0.39520999789237976,-2.675830602645874,76.64531707763672,3.1899823478573333,-5.666551221657605,-68.75580591780587,0.789486,-4.425142,-26.626213,20.498896,-17.083275,-8.68544,12.319982,-14.532593,-23.362066,21.158918,-23.155212,9.987191,6.5095816,-7.744469,-0.095108315,-147.46355,54.564716,-81.490234,85.56311,13.074263,-13.120989,14.999242,-150.1343,-52.23826,108.92248,86.47953,13.227353,-10.197319,3.0625517
175,0.40101510286331177,-2.6599979400634766,76.65685272216797,3.161131443370074,-5.66311199767768,-68.81843177653847,0.8193895,-4.3706555,-26.589632,20.42207,-17.0458,-8.661871,12.334856,-14.475733,-23.303484,21.019997,-23.063549,9.975778,6.4526243,-7.6720924,-0.016388958,-147.1974,54.590355,-81.520096,85.52154,13.333683,-13.005941,14.927633,-149.85796,-52.29559,108.95614,86.5001,13.165934,-10.052614,3.1809778
176,0.40539786219596863,-2.642714500427246,76.6695327758789,3.1367409913498108,-5.66742555619791,-68.88771435862651,0.859066,-4.3181887,-26.541323,20.342741,-17.001291,-8.639161,12.35781,-14.421879,-23.24065,20.87789,-22.968967,9.976399,6.394812,-7.602146,0.07927662,-146.89885,54.61931,-81.53806,85.46887,13.5287285,-12.903465,14.801091,-149.54036,-52.36332,108.9836,86.514854,13.167504,-9.916607,3.2991745
177,0.4104883074760437,-2.624194860458374,76.68696594238281,3.116519792934042,-5.681514260089195,-68.96598459404974,0.912322,-4.2680116,-26.476614,20.260212,-16.944414,-8.615897,12.395674,-14.371456,-23.172726,20.722515,-22.866604,9.998361,6.3410482,-7.542751,0.16978979,-146.52141,54.663036,-81.53168,85.35713,13.604491,-12.798234,14.6182,-149.15219,-52.4658,109.01079,86.4824,13.296866,-9.777406,3.393943
178,0.41776251792907715,-2.6042656898498535,76.70264434814453,3.1004701280635447,-5.7025270500881575,-69.04961049227722,0.97504747,-4.2204614,-26.402735,20.174389,-16.878868,-8.591402,12.443818,-14.3232765,-23.102394,20.558,-22.760574,10.035453,6.2949824,-7.485293,0.27605152,-146.09825,54.720585,-81.489944,85.215,13.614862,-12.686529,14.401181,-148.72284,-52.60079,109.02632,86.426,13.484653,-9.639818,3.4610472
179,0.42652758955955505,-2.5811522006988525,76.71525573730469,3.0868352586968806,-5.725783360858004,-69.13744273305073,1.0422608,-4.172771,-26.323355,20.082987,-16.812494,-8.569258,12.489756,-14.279775,-23.026888,20.400465,-22.656399,10.071507,6.268728,-7.429228,0.38300657,-145.59544,54.816692,-81.38906,85.00057,13.640264,-12.571955,14.148258,-148.25943,-52.8168,109.06013,86.29878,13.668598,-9.511833,3.5402544
180,0.43648430705070496,-2.558398723602295,76.72947692871094,3.0725034751340936,-5.748656684382395,-69.22769486371568,1.1121686,-4.1228743,-26.24322,19.980701,-16.751507,-8.552764,12.522529,-14.240138,-22.945314,20.266415,-22.560572,10.090416,6.2443166,-7.3701878,0.5082082,-145.08789,54.937466,-81.31273,84.77751,13.714182,-12.501553,13.826956,-147.79347,-53.079918,109.138596,86.15424,13.812891,-9.4234705,3.6999304
181,0.4461710751056671,-2.5325326919555664,76.73967742919922,3.0571731131480346,-5.768557841884788,-69.31973689939235,1.1849946,-4.067575,-26.164251,19.859934,-16.698338,-8.545826,12.539216,-14.204095,-22.85654,20.157953,-22.472567,10.083045,6.2169576,-7.305944,0.6331785,-144.55486,55.07428,-81.27161,84.5422,13.8800335,-12.467358,13.40781,-147.29504,-53.369038,109.26622,86.00584,13.9146805,-9.393626,3.9546802
182,0.45433518290519714,-2.506742000579834,76.75288391113281,3.0403058082052468,-5.787824298180365,-69.41450005442195,1.262016,-4.009071,-26.083693,19.72521,-16.649073,-8.54563,12.545019,-14.169968,-22.761883,20.068108,-22.390408,10.059355,6.1920424,-7.2384443,0.7597613,-143.98209,55.23637,-81.23808,84.27579,14.101697,-12.4596615,12.910605,-146.76314,-53.698196,109.43652,85.83591,14.00322,-9.406826,4.273764
183,0.46246349811553955,-2.4790592193603516,76.76476287841797,3.0249260901962396,-5.808753077075005,-69.51237975378092,1.3385562,-3.9510913,-25.999277,19.59341,-16.603521,-8.546529,12.546869,-14.139137,-22.66325,19.985996,-22.30995,10.031924,6.170817,-7.167958,0.8894347,-143.35826,55.413933,-81.194145,83.989944,14.305043,-12.465219,12.408652,-146.19618,-54.04653,109.60164,85.656494,14.048779,-9.409262,4.63156
184,0.4682033360004425,-2.4484357833862305,76.77570343017578,3.01074573966503,-5.8334242980858555,-69.61415709421057,1.4136497,-3.8981147,-25.910458,19.47363,-16.555462,-8.540376,12.53889,-14.117381,-22.561096,19.928211,-22.241875,10.014575,6.1559653,-7.09495,1.0239198,-142.6704,55.596188,-81.118164,83.695915,14.417563,-12.468715,11.975846,-145.59322,-54.39634,109.71392,85.476524,14.020928,-9.347054,5.0022388
185,0.47820425033569336,-2.4140899181365967,76.7859115600586,2.999061222210375,-5.861870274853835,-69.72031020271257,1.4816767,-3.8509595,-25.81408,19.377642,-16.509405,-8.525102,12.528423,-14.100051,-22.456644,19.876135,-22.175756,10.009557,6.15392,-7.0237556,1.1677324,-141.9095,55.80489,-80.99959,83.37168,14.390306,-12.470837,11.6422615,-144.97473,-54.791237,109.78689,85.254196,13.866857,-9.183553,5.4041214
186,0.48773670196533203,-2.379173755645752,76.79444122314453,2.9883382570197248,-5.893153392931795,-69.83048905467237,1.5460713,-3.8076766,-25.712202,19.295382,-16.464827,-8.504227,12.511547,-14.08741,-22.348904,19.837421,-22.11515,10.010431,6.1564016,-6.9483786,1.3122231,-141.08142,56.00326,-80.85498,83.06357,14.270518,-12.479233,11.367919,-144.30829,-55.16345,109.814964,85.05799,13.613351,-8.957808,5.849433
187,0.4993184804916382,-2.3438994884490967,76.80477142333984,2.9785438362740893,-5.92744482792465,-69.94358903819625,1.6087102,-3.7683923,-25.606272,19.224829,-16.42406,-8.48337,12.495644,-14.078241,-22.238482,19.800817,-22.055048,10.0141535,6.166741,-6.8690042,1.4583349,-140.18462,56.210865,-80.67047,82.72583,14.136372,-12.477001,11.11679,-143.59521,-55.547554,109.800934,84.85038,13.365576,-8.724704,6.2783375
188,0.510775089263916,-2.3039169311523438,76.81233215332031,2.9717969133247832,-5.965954068915563,-70.05903987798041,1.6767911,-3.7317846,-25.499544,19.151464,-16.381939,-8.466357,12.475164,-14.076441,-22.124195,19.783335,-22.006397,10.018769,6.1814275,-6.7831216,1.6022542,-139.22299,56.42179,-80.44403,82.34615,14.06356,-12.450532,10.852736,-142.81973,-55.928715,109.72663,84.63955,13.223425,-8.538227,6.6351137
189,0.522703230381012,-2.2664153575897217,76.82084655761719,2.9656338831139863,-6.009449306940884,-70.17713464801503,1.7473501,-3.700201,-25.390244,19.085419,-16.344112,-8.457647,12.460892,-14.07723,-22.006731,19.763681,-21.956839,10.022481,6.2007403,-6.6890383,1.7428819,-138.1878,56.639587,-80.16366,81.912476,14.056947,-12.388329,10.584314,-141.97318,-56.30892,109.57773,84.41464,13.244202,-8.402228,6.881918
190,0.5369349718093872,-2.226799488067627,76.82905578613281,2.960639434127046,-6.056987038445526,-70.29796718710209,1.8199087,-3.6729493,-25.278126,19.02557,-16.30829,-8.453483,12.447439,-14.08299,-21.885647,19.751394,-21.911428,10.027169,6.224727,-6.5877943,1.8814987,-137.07631,56.86575,-79.831055,81.43049,14.082107,-12.299728,10.324729,-141.06096,-56.688293,109.35856,84.1774,13.361669,-8.289792,7.054835
191,0.5488186478614807,-2.185612916946411,76.83601379394531,2.957329263175123,-6.107017195930629,-70.42074541698076,1.8937603,-3.6473265,-25.16465,18.967396,-16.274456,-8.449236,12.434184,-14.0907755,-21.763159,19.741968,-21.86887,10.033367,6.250995,-6.482059,2.0193856,-135.90218,57.10098,-79.464424,80.90439,14.155677,-12.203915,10.044739,-140.09068,-57.066875,109.08991,83.941986,13.50186,-8.208566,7.2069616
192,0.5637069940567017,-2.1393675804138184,76.8409194946289,2.9544256924044747,-6.156822426400315,-70.54404325950911,1.9687215,-3.6206553,-25.051249,18.905764,-16.242226,-8.440403,12.4221325,-14.095691,-21.641817,19.726446,-21.825367,10.041408,6.2775583,-6.3746657,2.1583095,-134.68124,57.345444,-79.083755,80.340324,14.293919,-12.120217,9.714594,-139.07199,-57.445366,108.79,83.72247,13.585029,-8.166474,7.3924994
193,0.5770362019538879,-2.09597110748291,76.8450698852539,2.9503349648786004,-6.205495376630808,-70.66796033464504,2.0437858,-3.592932,-24.937775,18.83929,-16.212418,-8.424085,12.406026,-14.102399,-21.52168,19.71507,-21.789019,10.053419,6.303778,-6.268309,2.301751,-133.43047,57.60015,-78.70251,79.739624,14.559963,-12.056904,9.288607,-138.01341,-57.825367,108.46658,83.524734,13.594283,-8.18753,7.6537848
194,0.5908538103103638,-2.0522990226745605,76.84720611572266,2.948329230852206,-6.254828921523175,-70.79299885806861,2.1196728,-3.5652728,-24.823893,18.770702,-16.185125,-8.403251,12.390784,-14.109323,-21.40263,19.700384,-21.754353,10.068393,6.3301077,-6.161959,2.4490342,-132.141,57.865723,-78.31159,79.09516,14.924859,-12.002647,8.7930765,-136.90883,-58.2079,108.10556,83.33696,13.567755,-8.260717,7.952864
195,0.6028881669044495,-2.004995822906494,76.85089111328125,2.9453838706104802,-6.305587859013211,-70.91878378252292,2.1969395,-3.5371873,-24.709555,18.702574,-16.158997,-8.382241,12.376329,-14.114384,-21.282112,19.685057,-21.71867,10.082757,6.3547373,-6.0529184,2.5965421,-130.79126,58.14037,-77.89824,78.4133,15.267707,-11.955166,8.30878,-135.74556,-58.592022,107.70185,83.14647,13.519993,-8.341538,8.2232275
196,0.6172651648521423,-1.9587708711624146,76.85665893554688,2.941040358142268,-6.358797507351536,-71.04519240598137,2.2761261,-3.507721,-24.595594,18.637226,-16.132523,-8.365492,12.363824,-14.117121,-21.158018,19.670858,-21.678076,10.093227,6.377628,-5.9381485,2.7402272,-129.35542,58.420906,-77.44592,77.69047,15.4670925,-11.90014,7.9152694,-134.50761,-58.975742,107.24378,82.94333,13.459481,-8.385076,8.398233
197,0.6306434273719788,-1.9115345478057861,76.86206817626953,2.9355494630725953,-6.4169175530989095,-71.16978819125244,2.3599656,-3.4765937,-24.485271,18.574497,-16.104877,-8.3558035,12.354458,-14.117678,-21.03109,19.663588,-21.633663,10.098024,6.399122,-5.8153195,2.879328,-127.817924,58.703484,-76.95986,76.927055,15.464285,-11.826884,7.671923,-133.18303,-59.356533,106.7208,82.72788,13.384217,-8.358063,8.429571
198,0.646349310874939,-1.8636537790298462,76.86698150634766,2.927389400186101,-6.478447360354118,-71.29332626370736,2.4472744,-3.4443827,-24.377256,18.513792,-16.077133,-8.350285,12.349652,-14.114554,-20.902895,19.655117,-21.583427,10.099229,6.41863,-5.6879687,3.0165398,-126.1962,58.985676,-76.446915,76.12581,15.332408,-11.741819,7.5235305,-131.78006,-59.73267,106.13637,82.50398,13.289922,-8.291202,8.362647
199,0.661150336265564,-1.8208950757980347,76.87554931640625,2.9188497855574913,-6.539543356047219,-71.42072326031668,2.5330725,-3.4111586,-24.264803,18.455416,-16.050362,-8.344684,12.341329,-14.110951,-20.769068,19.648247,-21.532707,10.099213,6.434622,-5.560091,3.152338,-124.509766,59.266346,-75.88719,75.28884,15.1494,-11.659036,7.378581,-130.31065,-60.103565,105.499214,82.26841,13.184162,-8.235668,8.271813
200,0.6701802611351013,-1.7781723737716675,76.88097381591797,2.9103201995858012,-6.595366026634213,-71.55618877910871,2.6127698,-3.3768535,-24.14097,18.398495,-16.02502,-8.334769,12.32391,-14.10798,-20.625864,19.640074,-21.483852,10.100327,6.4467025,-5.435355,3.2872345,-122.77645,59.545517,-75.25777,74.41506,14.993857,-11.592283,7.1452637,-128.7935,-60.46913,104.829216,82.01558,13.077254,-8.24296,8.231752
201,0.6860672235488892,-1.7300727367401123,76.88414764404297,2.902769991787747,-6.642576868607539,-71.70310055345298,2.6837285,-3.3401284,-24.001175,18.339867,-16.000748,-8.318815,12.288999,-14.106196,-20.469625,19.635714,-21.441055,10.103357,6.4559855,-5.3133216,3.4185534,-120.994606,59.823635,-74.53555,73.50528,14.881808,-11.568614,6.8071384,-127.228905,-60.829967,104.13496,81.7399,12.985145,-8.363018,8.26553
202,0.702629029750824,-1.6816757917404175,76.88861846923828,2.894236007526597,-6.683828214560894,-71.85817273202548,2.7486973,-3.301463,-23.850134,18.280897,-15.977152,-8.299468,12.244556,-14.103955,-20.303717,19.628708,-21.39857,10.106923,6.4642887,-5.1907687,3.5478673,-119.14963,60.10023,-73.729095,72.55292,14.773719,-11.572075,6.41051,-125.61444,-61.185658,103.41563,81.44187,12.902231,-8.556019,8.33287
203,0.7204878330230713,-1.6301347017288208,76.89327239990234,2.8863483668585843,-6.725669743525546,-72.01692884752686,2.8126023,-3.2632883,-23.69437,18.226513,-15.955209,-8.278333,12.197803,-14.101779,-20.132965,19.623981,-21.357687,10.110355,6.472406,-5.065898,3.6828027,-117.23956,60.37408,-72.8619,71.54693,14.666374,-11.552156,5.9579606,-123.95764,-61.534946,102.66103,81.12883,12.796791,-8.738725,8.41371
204,0.7379226088523865,-1.579547643661499,76.89836883544922,2.8785850049616797,-6.774145555231506,-72.17496732569823,2.880713,-3.2273557,-23.54116,18.1804,-15.935347,-8.257476,12.159448,-14.098676,-19.962893,19.618309,-21.315233,10.112951,6.4805455,-4.937853,3.8303297,-115.26532,60.64317,-71.96222,70.47849,14.556471,-11.458144,5.4519763,-122.26456,-61.875813,101.85697,80.80788,12.634473,-8.827729,8.487693
205,0.7539129853248596,-1.5310600996017456,76.90574645996094,2.870382501665451,-6.833992775133443,-72.33141349197834,2.9544094,-3.1952982,-23.391354,18.151737,-15.919109,-8.236819,12.135654,-14.09479,-19.79366,19.611784,-21.27224,10.112345,6.4901304,-4.807465,3.9963145,-113.232574,60.90504,-71.045685,69.3349,14.455369,-11.260633,4.8864636,-120.54301,-62.205383,101.00109,80.48033,12.385933,-8.777513,8.548044
206,0.7713029384613037,-1.4819942712783813,76.91071319580078,2.862352939412422,-6.900958243517464,-72.48840467499211,3.0340152,-3.1636817,-23.241386,18.128399,-15.905274,-8.216309,12.12492,-14.088146,-19.623741,19.594507,-21.223377,10.109303,6.4995427,-4.676407,4.175895,-111.142334,61.15712,-70.10048,68.125854,14.361655,-10.991701,4.262331,-118.78535,-62.52167,100.098015,80.141945,12.075997,-8.640154,8.606342
207,0.7889207601547241,-1.4338891506195068,76.91561889648438,2.8558907497550323,-6.96769970612353,-72.64648550837175,3.1139514,-3.1336613,-23.092365,18.10394,-15.889753,-8.1945505,12.102683,-14.086369,-19.451593,19.599562,-21.185112,10.109404,6.5055723,-4.545501,4.360164,-108.987144,61.39719,-69.11208,66.87536,14.25264,-10.691445,3.5925744,-116.97208,-62.824383,99.13945,79.79218,11.750516,-8.479031,8.669875
208,0.8069519996643066,-1.3820812702178955,76.91973876953125,2.848833675923267,-7.025755505516233,-72.80549350844791,3.1873198,-3.104373,-22.942448,18.073706,-15.8730135,-8.173304,12.07339,-14.085951,-19.281086,19.598917,-21.139921,10.116288,6.5033584,-4.416179,4.5410285,-106.76197,61.62263,-68.06862,65.61248,14.105132,-10.404117,2.8909063,-115.08498,-63.11405,98.12352,79.42782,11.461178,-8.357488,8.744317
209,0.8252751231193542,-1.3299791812896729,76.9232177734375,2.845821144292832,-7.072302681736959,-72.96460552116328,3.2515123,-3.0761313,-22.793161,18.03285,-15.851749,-8.151717,12.02758,-14.090994,-19.113695,19.603745,-21.0919,10.13547,6.4900618,-4.28956,4.7125506,-104.45279,61.82923,-66.949295,64.333984,13.864914,-10.0992565,2.1328266,-113.10385,-63.390217,97.03725,79.040764,11.240013,-8.283117,8.785877
210,0.8468691110610962,-1.2800077199935913,76.92791748046875,2.8421498420426095,-7.111296348607559,-73.12410707500182,3.3104656,-3.0486557,-22.644327,17.985039,-15.827024,-8.129853,11.9724455,-14.100131,-18.94841,19.610716,-21.040997,10.163226,6.469702,-4.1645575,4.880842,-102.066,62.013374,-65.76706,63.027233,13.562309,-9.765601,1.3217546,-111.043655,-63.651176,95.88822,78.630936,11.055012,-8.224823,8.805872
211,0.8707212209701538,-1.2281880378723145,76.93063354492188,2.83890764507045,-7.147615829131202,-73.28600237446155,3.3688242,-3.0216982,-22.493784,17.934206,-15.802943,-8.108238,11.91097,-14.109183,-18.779804,19.62271,-20.991814,10.190784,6.449065,-4.040197,5.0550094,-99.62916,62.17438,-64.56327,61.701267,13.296987,-9.471745,0.51002795,-108.93648,-63.89671,94.69649,78.20815,10.85232,-8.18821,8.892904
212,0.8922576904296875,-1.1797305345535278,76.93643188476562,2.8379981659166935,-7.186621068686708,-73.45260928641702,3.4333928,-2.9934886,-22.339104,17.878948,-15.781118,-8.087371,11.847051,-14.11945,-18.601837,19.643826,-20.949463,10.20994,6.4343386,-3.9162018,5.244293,-97.172455,62.31427,-63.383797,60.366943,13.165573,-9.289623,-0.25228286,-106.81564,-64.12846,93.48415,77.78256,10.577787,-8.179836,9.135998
213,0.9136156439781189,-1.1338448524475098,76.94318389892578,2.836028778326349,-7.229385488322093,-73.62326734389889,3.5054982,-2.9636755,-22.18093,17.820654,-15.76412,-8.068792,11.781686,-14.127395,-18.413145,19.67411,-20.915403,10.216026,6.4260817,-3.7939627,5.451486,-94.70769,62.435917,-62.25428,59.025288,13.2235565,-9.269683,-0.98863214,-104.69985,-64.350296,92.28712,77.34854,10.195281,-8.252325,9.6281185
214,0.931501030921936,-1.088080644607544,76.94629669189453,2.8356430186068553,-7.273381039890087,-73.79727726523522,3.58176,-2.9330006,-22.020037,17.758774,-15.750049,-8.051733,11.713673,-14.13505,-18.217031,19.711227,-20.886528,10.214431,6.42112,-3.6741493,5.672429,-92.225174,62.53905,-61.156143,57.677406,13.405113,-9.370735,-1.7146069,-102.570335,-64.56426,91.0867,76.89898,9.73962,-8.388719,10.298776
215,0.9504746794700623,-1.0390712022781372,76.94857788085938,2.8355074135727314,-7.317239398127015,-73.97660660308891,3.661618,-2.9023194,-21.854773,17.692324,-15.735121,-8.033493,11.641129,-14.143714,-18.01436,19.754427,-20.860567,10.211113,6.421107,-3.5570326,5.9042892,-89.724075,62.621773,-60.072342,56.322464,13.624256,-9.517189,-2.3712523,-100.39654,-64.76846,89.82787,76.44431,9.272683,-8.490873,10.991111
216,0.9716903567314148,-0.9896078109741211,76.9486083984375,2.838341679157969,-7.360003099884861,-74.16360136436437,3.7449281,-2.872085,-21.683603,17.618769,-15.7147255,-8.011362,11.563625,-14.155672,-17.806711,19.800924,-20.834501,10.212268,6.4261546,-3.4436376,6.1449866,-87.2077,62.67969,-58.989582,54.966793,13.796004,-9.635597,-2.899227,-98.14589,-64.95645,88.44679,75.99399,8.849295,-8.457195,11.549561
217,0.9927471876144409,-0.941337525844574,76.9516372680664,2.8447050034610086,-7.405089708597043,-74.35974942148607,3.8353097,-2.8426156,-21.505957,17.537882,-15.687715,-7.9843497,11.484441,-14.171432,-17.594484,19.849913,-20.808167,10.219078,6.4422,-3.3338366,6.397514,-84.68567,62.709972,-57.92492,53.603836,13.912719,-9.735788,-3.2456217,-95.79436,-65.119194,86.8843,75.56866,8.475877,-8.215938,11.917348
218,1.0158178806304932,-0.893441379070282,76.9546127319336,2.8526973394714057,-7.451188670701043,-74.56353551034006,3.9323967,-2.813521,-21.322556,17.44911,-15.655288,-7.9540076,11.40263,-14.191382,-17.376698,19.90392,-20.783768,10.2286005,6.4664106,-3.2313387,6.661299,-82.17216,62.710464,-56.901577,52.243477,14.013338,-9.847206,-3.4549422,-93.35466,-65.250565,85.179276,75.157585,8.122667,-7.834729,12.183565
219,1.041069746017456,-0.8465298414230347,76.95868682861328,2.8629584575071596,-7.492658331535047,-74.77284715278955,4.029299,-2.7840397,-21.134398,17.351627,-15.620579,-7.9216924,11.311709,-14.2115345,-17.153181,19.961107,-20.75867,10.240141,6.4875054,-3.138877,6.9283733,-79.668884,62.67541,-55.906696,50.912228,14.085952,-9.923191,-3.6134481,-90.85706,-65.348145,83.42688,74.72559,7.792437,-7.418518,12.411821
220,1.068295955657959,-0.7996461391448975,76.9632797241211,2.873482414141204,-7.522746377964583,-74.98543982606559,4.112102,-2.7567325,-20.94203,17.260937,-15.588681,-7.888295,11.2055435,-14.231595,-16.923433,20.020782,-20.731018,10.253407,6.495841,-3.0561378,7.18963,-77.16836,62.5972,-54.916172,49.634975,14.120507,-9.917222,-3.8066294,-88.33862,-65.413826,81.73662,74.240654,7.4961004,-7.0723166,12.664784
221,1.0998512506484985,-0.7511861324310303,76.9649887084961,2.8844341927550863,-7.537821386939068,-75.20174697675351,4.17656,-2.7318509,-20.745157,17.175852,-15.560731,-7.8528523,11.078419,-14.254024,-16.685606,20.085493,-20.700249,10.270432,6.4895015,-2.977205,7.4392138,-74.65452,62.46932,-53.919903,48.409645,14.05112,-9.801743,-4.0274835,-85.82431,-65.449684,80.14921,73.69335,7.2608066,-6.8190045,12.989315
222,1.1280999183654785,-0.7062645554542542,76.96810150146484,2.896443568032096,-7.541516370402403,-75.4224957445429,4.2282166,-2.7092602,-20.543438,17.094688,-15.535469,-7.8150654,10.934134,-14.275955,-16.44063,20.15498,-20.667566,10.290504,6.4770236,-2.8983219,7.680493,-72.13325,62.288406,-52.928608,47.23047,13.9086075,-9.606642,-4.238034,-83.303314,-65.45456,78.62866,73.106606,7.081915,-6.6029797,13.342437
223,1.1523891687393188,-0.6656693816184998,76.97216796875,2.909208666726919,-7.54020312641064,-75.64608889073313,4.2775707,-2.685236,-20.338263,17.009382,-15.508278,-7.777797,10.784676,-14.297393,-16.191648,20.222595,-20.632812,10.310012,6.463312,-2.8218544,7.9193683,-69.62834,62.051575,-51.948036,46.115067,13.827798,-9.371699,-4.4779296,-80.75768,-65.42695,77.14737,72.49853,6.897813,-6.4131374,13.652615
224,1.1785832643508911,-0.6212131381034851,76.97930908203125,2.9210152585807836,-7.539669771457218,-75.87108439765866,4.3338366,-2.6571832,-20.130478,16.914879,-15.476301,-7.7435293,10.638733,-14.314277,-15.94203,20.285397,-20.59793,10.32491,6.4533577,-2.7507737,8.161622,-67.16453,61.756264,-50.984432,45.080627,13.943436,-9.137909,-4.7885876,-78.173004,-65.364914,75.688324,71.88534,6.6551995,-6.2383695,13.848379
225,1.2070461511611938,-0.5787321329116821,76.98588562011719,2.930011490042157,-7.542864139280819,-76.09611735013158,4.40214,-2.6250226,-19.919945,16.807472,-15.436547,-7.7145658,10.499223,-14.328186,-15.692089,20.346119,-20.565346,10.334044,6.446825,-2.6848457,8.409575,-64.755684,61.400284,-50.061924,44.12765,14.372032,-8.911436,-5.212489,-75.541435,-65.26616,74.24213,71.27934,6.315019,-6.0852895,13.893607
226,1.234932780265808,-0.5382466912269592,76.99199676513672,2.9400330504430614,-7.5465060161276405,-76.32252728198465,4.4769464,-2.5901723,-19.7061,16.690912,-15.3914,-7.688975,10.361184,-14.340654,-15.440238,20.405653,-20.533787,10.339657,6.442965,-2.6249738,8.65756,-62.402134,60.980713,-49.189655,43.257988,15.013514,-8.6767,-5.719448,-72.87453,-65.1297,72.82548,70.672035,5.9129076,-5.9556546,13.83141
227,1.2601475715637207,-0.5008682608604431,76.99921417236328,2.9488400110322126,-7.5461279801902545,-76.55178537096124,4.551079,-2.5516622,-19.490103,16.569395,-15.345075,-7.6633496,10.222398,-14.348012,-15.186631,20.45631,-20.497902,10.3426895,6.445158,-2.5699959,8.901538,-60.097282,60.493423,-48.33705,42.48269,15.680753,-8.440756,-6.2417355,-70.182915,-64.95451,71.44854,70.04711,5.502475,-5.8313212,13.710692
228,1.293541669845581,-0.4624471068382263,77.00379943847656,2.951498720603849,-7.536702403019446,-76.78480045961011,4.617181,-2.508786,-19.27305,16.449091,-15.302841,-7.6342316,10.080986,-14.345573,-14.931841,20.489334,-20.452213,10.344008,6.455668,-2.5171914,9.138562,-57.830517,59.934628,-47.46951,41.807896,16.18544,-8.206044,-6.709925,-67.481834,-64.7395,70.126755,69.38825,5.1397047,-5.694522,13.580312
229,1.3235924243927002,-0.4262240529060364,77.007080078125,2.949997944744738,-7.515967143815291,-77.0215920385823,4.671534,-2.461949,-19.05741,16.330574,-15.264104,-7.601763,9.9345255,-14.334738,-14.676184,20.504482,-20.395672,10.34324,6.4741383,-2.4684582,9.369169,-55.589317,59.29651,-46.535534,41.229443,16.474833,-7.9657197,-7.142422,-64.76299,-64.48234,68.86814,68.68462,4.8615055,-5.532088,13.404634
230,1.3501912355422974,-0.3971025347709656,77.0161361694336,2.9438889745339005,-7.486598815525518,-77.26133473511918,4.71837,-2.4116483,-18.841604,16.211819,-15.22757,-7.567432,9.785151,-14.316502,-14.419647,20.504358,-20.330395,10.340011,6.496903,-2.4192152,9.593581,-53.38106,58.57721,-45.56799,40.74263,16.651539,-7.7188964,-7.5628853,-62.044205,-64.181046,67.69189,67.95357,4.636548,-5.355629,13.174507
231,1.3808664083480835,-0.3641514480113983,77.02706909179688,2.934648103287645,-7.453144282487919,-77.50569197424397,4.764164,-2.355788,-18.621353,16.090075,-15.193723,-7.530339,9.635987,-14.291429,-14.160617,20.491905,-20.259157,10.335755,6.5208254,-2.3584375,9.808461,-51.221954,57.78414,-44.652977,40.353783,16.76396,-7.4740176,-7.9091897,-59.36714,-63.833614,66.59266,67.220024,4.3908873,-5.18541,12.981168
232,1.4173407554626465,-0.3320879340171814,77.03968811035156,2.9211556632144298,-7.419557397452864,-77.75592602704029,4.8144164,-2.292913,-18.392435,15.963731,-15.164165,-7.4894147,9.491702,-14.257922,-13.89802,20.46477,-20.181753,10.331741,6.5442586,-2.2777014,10.009891,-49.132137,56.931473,-43.880524,40.072483,16.855928,-7.2395897,-8.11963,-56.76004,-63.437557,65.53974,66.50646,4.037068,-5.0420337,12.916193
233,1.4508305788040161,-0.29936763644218445,77.04978942871094,2.9040071396706324,-7.3899010950885105,-78.00791334638357,4.873652,-2.221921,-18.156641,15.832055,-15.141636,-7.4436626,9.359357,-14.216046,-13.637111,20.421904,-20.099878,10.328925,6.562958,-2.1809106,10.200168,-47.109478,56.027008,-43.27699,39.924446,16.834513,-7.0081935,-8.113167,-54.24689,-62.995235,64.56993,65.80496,3.5171444,-4.947893,13.065021
234,1.4879391193389893,-0.27072733640670776,77.06060028076172,2.8824261381473213,-7.361260048619366,-78.26262813473002,4.937738,-2.1439528,-17.91533,15.696624,-15.125278,-7.393974,9.235473,-14.166525,-13.376833,20.362694,-20.011887,10.326393,6.579137,-2.0728364,10.378928,-45.14592,55.072163,-42.796734,39.899055,16.705397,-6.7780294,-7.943939,-51.804325,-62.505653,63.670746,65.11136,2.876458,-4.889561,13.359679
235,1.5219632387161255,-0.24167250096797943,77.07051086425781,2.8571486740747765,-7.326698356390744,-78.52816883177346,5.0012126,-2.060463,-17.662975,15.555096,-15.107537,-7.3425946,9.1055355,-14.11129,-13.10578,20.295048,-19.918093,10.32273,6.602603,-1.9514902,10.540296,-43.261032,54.07778,-42.428257,39.95408,16.656975,-6.565125,-7.754725,-49.388103,-61.962032,62.76561,64.44817,2.2203248,-4.832335,13.658072
236,1.5499513149261475,-0.2135227620601654,77.08468627929688,2.8340105017937134,-7.279664293358181,-78.81295313949569,5.057857,-1.9727826,-17.393833,15.4067545,-15.081732,-7.2916517,8.956821,-14.050865,-12.813167,20.223059,-19.816675,10.316457,6.645097,-1.8248211,10.679883,-41.455204,53.056824,-42.13645,40.03263,16.900925,-6.383742,-7.6912074,-46.955486,-61.356583,61.79388,63.833065,1.6732289,-4.7387123,13.814516
237,1.5828334093093872,-0.1900276243686676,77.09837341308594,2.8126580108849186,-7.217336512329088,-79.12379183441284,5.1095595,-1.8824692,-17.101852,15.243648,-15.040824,-7.2401223,8.780671,-13.987648,-12.489849,20.153824,-19.708977,10.306376,6.719722,-1.7032665,10.800482,-39.788128,52.03127,-41.990715,40.132023,17.534666,-6.2397137,-7.807039,-44.55606,-60.69383,60.911823,63.28386,1.4898883,-4.5879273,13.73456
238,1.6184475421905518,-0.16146999597549438,77.111572265625,2.7928315601788345,-7.143729192411574,-79.4547916433849,5.1568537,-1.7885704,-16.791462,15.072424,-14.991801,-7.1873393,8.585996,-13.920982,-12.143676,20.082596,-19.595087,10.293752,6.7903943,-1.5599809,10.908889,-38.107567,51.001987,-41.83337,40.208958,18.492693,-6.1282887,-8.024094,-42.056885,-59.936,59.678856,62.749874,1.1715277,-4.397517,13.545033
239,1.6563787460327148,-0.13633398711681366,77.12667083740234,2.769836991145524,-7.061521278656591,-79.79491475988932,5.198348,-1.6889216,-16.473148,14.8993225,-14.942151,-7.1359935,8.385034,-13.845991,-11.789387,19.998777,-19.47262,10.280266,6.8714156,-1.4348661,10.99707,-36.517704,49.98159,-41.782295,40.34086,19.503534,-6.038062,-8.286661,-39.657295,-59.11727,58.638996,62.2638,0.9867882,-4.1995354,13.32115
