unveil-humanoid-operators/unveil-humanoid-operators.github.io/feature-analysis-animation/data/feature_matrix_instances/weight_ankle_peak_vel_jogging_A072_jog_ff_stop_270_001__A072.csv
Frame,root_translateX,root_translateY,root_translateZ,root_rotateX,root_rotateY,root_rotateZ,left_hip_pitch_joint_dof,left_hip_roll_joint_dof,left_hip_yaw_joint_dof,left_knee_joint_dof,left_ankle_pitch_joint_dof,left_ankle_roll_joint_dof,right_hip_pitch_joint_dof,right_hip_roll_joint_dof,right_hip_yaw_joint_dof,right_knee_joint_dof,right_ankle_pitch_joint_dof,right_ankle_roll_joint_dof,waist_yaw_joint_dof,waist_roll_joint_dof,waist_pitch_joint_dof,left_shoulder_pitch_joint_dof,left_shoulder_roll_joint_dof,left_shoulder_yaw_joint_dof,left_elbow_joint_dof,left_wrist_roll_joint_dof,left_wrist_pitch_joint_dof,left_wrist_yaw_joint_dof,right_shoulder_pitch_joint_dof,right_shoulder_roll_joint_dof,right_shoulder_yaw_joint_dof,right_elbow_joint_dof,right_wrist_roll_joint_dof,right_wrist_pitch_joint_dof,right_wrist_yaw_joint_dof
0,2.301241874694824,1.092978596687317,76.90541076660156,0.3545354207250168,-6.123480555718303,-157.69705737483142,9.361603,-10.513985,14.605809,40.646126,-1.497627,-4.0811343,-20.210142,17.068766,3.3365936,23.146284,12.654264,15.000033,-17.509155,-10.267063,14.127274,14.261564,35.381462,-31.341366,41.000206,1.1673474,-0.051377326,-0.24341683,34.442158,-17.029562,1.6027689,53.17503,28.275908,3.1288006,-3.1593256
1,2.5618834495544434,2.35308837890625,76.6004409790039,-0.2752717243120162,-6.056370488680143,-157.48681817640508,9.262075,-8.90019,14.91202,41.03269,-5.7420053,-2.0623302,-22.046976,16.86305,3.0014236,26.591047,10.310274,15.000033,-17.100765,-9.759514,14.629625,13.998403,35.504215,-31.17635,41.193123,1.2183938,0.046291716,-0.60044295,33.1406,-17.066826,2.0707772,53.159977,27.934782,2.9430776,-3.1958208
2,2.829523801803589,3.5901803970336914,76.25633239746094,-0.8734972982898678,-6.005099469515879,-157.25964527532864,9.211892,-7.427995,15.060215,41.31757,-10.08375,-0.03064341,-23.831282,16.643175,2.7553177,29.94712,7.995323,15.000033,-16.770489,-9.298732,15.124765,13.832637,35.656986,-30.934406,41.29556,1.2729607,0.13448972,-0.9789113,31.833874,-17.135788,2.5841477,53.150204,27.61469,2.7703323,-3.2198663
3,3.0990405082702637,4.817457675933838,75.88896942138672,-1.371133898427698,-5.924537556766798,-157.03721860923108,9.084448,-6.105211,15.18944,41.570583,-14.255953,1.7434508,-25.56948,16.238453,2.5201337,33.268013,5.704314,15.000033,-16.442654,-8.921131,15.565119,13.692907,35.828754,-30.672192,41.394016,1.3226502,0.24158786,-1.3314549,30.477545,-17.226206,3.099152,53.13412,27.303532,2.5931895,-3.2447956
4,3.375493049621582,6.031461238861084,75.51510620117188,-1.6897998314941185,-5.77286181653402,-156.83775384659324,8.775375,-4.9257746,15.470571,41.848152,-17.970205,2.9958708,-27.261738,15.4570675,2.2387884,36.60516,3.4239268,15.000033,-16.058609,-8.6763,15.89868,13.521751,36.00594,-30.427105,41.574005,1.3624429,0.39371276,-1.6116436,29.018488,-17.345379,3.5839136,53.103374,26.994987,2.3958437,-3.2829502
5,3.647824764251709,7.231742858886719,75.1493911743164,-1.7552879156459384,-5.51183421641433,-156.67535097142127,8.279926,-3.8848505,16.12889,42.082523,-21.108234,3.624219,-28.971594,14.148106,1.877255,40.05139,1.0937763,15.000033,-15.595454,-8.622777,16.07503,13.279939,36.177986,-30.226778,41.88524,1.3417614,0.6009907,-1.8088421,27.43281,-17.497944,4.0474734,53.044918,26.691055,2.1507785,-3.3534338
6,3.8924026489257812,8.435602188110352,74.79246520996094,-1.675605537937898,-5.191614285432853,-156.54007311532743,7.6717963,-2.8757703,17.076622,42.329266,-23.859852,3.7875233,-30.62742,12.466256,1.4737974,43.475273,-1.2402428,15.000033,-15.07007,-8.67525,16.169912,12.987138,36.33958,-30.055693,42.294525,1.2818466,0.8474287,-1.943765,25.768183,-17.679152,4.4837394,52.948807,26.391596,1.8737307,-3.4468162
7,4.107149124145508,9.659236907958984,74.42977142333984,-1.6553947239635989,-4.896648333703979,-156.42308980272313,6.9469023,-1.6989915,18.015463,42.85275,-26.397024,3.6009362,-32.046696,10.614137,0.6796082,46.60796,-3.4341674,13.459885,-14.489752,-8.666102,16.305428,12.686979,36.485554,-29.87481,42.75602,1.2860814,1.1203115,-2.0186377,24.068623,-17.885782,4.854269,52.82062,26.09098,1.6146249,-3.529847
8,4.309612274169922,10.87525749206543,74.07416534423828,-1.6902773688324744,-4.6631370862353485,-156.27564863217447,6.112023,-0.4866859,18.633055,43.66021,-28.737238,3.2821028,-33.20278,8.7908325,0.06683255,49.455975,-5.4921837,11.870588,-13.913972,-8.596578,16.5098,12.415659,36.60848,-29.651148,43.22989,1.4547292,1.4066812,-2.0371475,22.366108,-18.119623,5.1286116,52.681583,25.783657,1.4235986,-3.567494
9,4.50013542175293,12.07349681854248,73.72338104248047,-1.825675268529421,-4.502435809066431,-156.05720507486814,5.116564,0.7950937,18.81653,44.834362,-30.929283,2.8445563,-34.07734,7.025228,-0.39130482,52.010838,-7.4210763,10.335398,-13.376326,-8.42216,16.803982,12.167832,36.698452,-29.37158,43.74864,1.8335202,1.7093478,-2.000719,20.639574,-18.378979,5.300424,52.567154,25.466272,1.3294346,-3.5453348
10,4.68874454498291,13.246442794799805,73.37808227539062,-2.000645756152839,-4.380380049167338,-155.795169755179,3.9634423,2.1285899,18.741617,46.291397,-32.91175,2.2301388,-34.749344,5.224797,-0.7465588,54.364727,-9.267561,8.831165,-12.851772,-8.193917,17.13984,11.919098,36.752247,-29.05926,44.333576,2.3636906,2.03342,-1.9088615,18.873783,-18.667286,5.3964496,52.46855,25.141487,1.2994342,-3.4835808
11,4.86137580871582,14.417594909667969,73.0382308959961,-2.176012001675146,-4.294863251144122,-155.56614959596018,2.725616,3.474141,18.506426,47.92025,-34.626118,1.5031153,-35.25055,3.4600282,-0.91680586,56.507626,-10.982305,7.456331,-12.287741,-7.9488993,17.493738,11.691971,36.775417,-28.72805,44.919422,2.988207,2.3698936,-1.7647793,17.105135,-18.995779,5.451194,52.34547,24.816319,1.2927437,-3.3965657
12,5.022125720977783,15.576606750488281,72.70849609375,-2.3131072905652643,-4.244138931044463,-155.44602932207334,1.4795797,4.791055,18.209581,49.615215,-36.018513,0.7262341,-35.616535,1.8022531,-0.82668483,58.42829,-12.506412,6.3064194,-11.634415,-7.7243304,17.842392,11.522863,36.77894,-28.384129,45.42719,3.6506557,2.7101448,-1.5716844,15.369348,-19.37808,5.502008,52.155693,24.500217,1.2699727,-3.2974756
13,5.169995307922363,16.720142364501953,72.39745330810547,-2.416197742406158,-4.23001245912485,-155.45542431398337,0.17514487,6.075523,17.796618,51.47568,-37.042076,-0.11282134,-35.84256,0.29928064,-0.44488347,60.114307,-13.784054,5.4490585,-10.868587,-7.5154405,18.189026,11.427775,36.76982,-28.016129,45.826286,4.4275346,3.0684984,-1.2934539,13.662138,-19.821842,5.535265,51.895927,24.17554,1.2314513,-3.1686783
14,5.305752754211426,17.854888916015625,72.10641479492188,-2.504742697793298,-4.252663227814174,-155.55455017332488,-1.207026,7.3356576,17.229294,53.51625,-37.743843,-1.0321777,-35.930126,-1.0930486,0.15012778,61.584602,-14.846806,4.814339,-10.02583,-7.302962,18.539377,11.403767,36.746967,-27.615797,46.145355,5.3155556,3.4478457,-0.94499314,11.959947,-20.322935,5.5574813,51.59186,23.848806,1.1966741,-3.0063512
15,5.428769111633301,18.974573135375977,71.83851623535156,-2.562135946976341,-4.30708694791485,-155.72912372740294,-2.5361595,8.553739,16.639603,55.503067,-38.220543,-1.9811492,-35.92327,-2.439432,0.87585884,62.87504,-15.768265,4.2940154,-9.140962,-7.107573,18.876173,11.450909,36.71218,-27.197956,46.401695,6.1369014,3.8193178,-0.601863,10.269994,-20.88313,5.6318097,51.24596,23.563395,1.1535157,-2.8470685
16,5.529496192932129,20.080352783203125,71.59912872314453,-2.570357232734486,-4.3880807368091395,-155.96542380777092,-3.6836584,9.724524,16.168497,57.21731,-38.563183,-2.908788,-35.86561,-3.8037775,1.6584102,64.02132,-16.626675,3.782016,-8.2517395,-6.949915,19.18388,11.575712,36.667587,-26.77189,46.606236,6.7154493,4.149813,-0.33746582,8.600258,-21.502714,5.823412,50.857098,23.36461,1.0914319,-2.7260592
17,5.618277549743652,21.17849349975586,71.38294982910156,-2.5132482514093644,-4.505086059577701,-156.30455083143212,-4.6012897,10.861047,15.901637,58.631714,-38.755257,-3.8031485,-35.76104,-5.179684,2.52364,65.036896,-17.44443,3.252336,-7.319935,-6.846129,19.46968,11.79301,36.61374,-26.316021,46.737053,6.993362,4.443192,-0.16275294,6.932309,-22.186712,6.1667204,50.43861,23.326307,1.0010501,-2.6800303
18,5.689845085144043,22.26833152770996,71.19123840332031,-2.4043434211776646,-4.655985712062549,-156.73895357632085,-5.3565655,11.964382,15.754898,59.857143,-38.76797,-4.696713,-35.594,-6.541349,3.4878118,65.90386,-18.177973,2.761992,-6.34815,-6.780791,19.738327,12.107685,36.54943,-25.82432,46.788166,7.070372,4.709484,-0.03937891,5.2564087,-22.932043,6.640578,49.99272,23.408392,0.8917065,-2.6790686
19,5.7459306716918945,23.361831665039062,71.02263641357422,-2.2731100605284804,-4.81924926818432,-157.17997355997747,-6.000976,13.023081,15.616279,60.88472,-38.665417,-5.598849,-35.37469,-7.9223166,4.4635153,66.605225,-18.803682,2.3305182,-5.4300284,-6.7265677,19.973516,12.496182,36.47534,-25.341967,46.803963,7.0039024,4.9238133,0.03551255,3.600797,-23.72255,7.212787,49.4957,23.48056,0.7802911,-2.6605341
20,5.78300666809082,24.443098068237305,70.87218475341797,-2.1486585899014257,-4.974373511630537,-157.53897801139195,-6.5894275,14.023528,15.371655,61.702595,-38.510563,-6.51367,-35.108906,-9.356594,5.363008,67.125885,-19.297827,1.9767267,-4.6512465,-6.6595197,20.15868,12.924735,36.39394,-24.92208,46.835068,6.8517804,5.061822,0.06522149,2.0006359,-24.5391,7.837267,48.921047,23.408207,0.68204194,-2.5647306
21,5.803084373474121,25.524520874023438,70.74137115478516,-2.029192413537793,-5.1263317137379785,-157.7976170640058,-7.133285,14.950612,14.984806,62.31992,-38.296333,-7.4412975,-34.782253,-10.864033,6.1872516,67.46929,-19.64929,1.7255577,-4.025934,-6.5873036,20.291012,13.379618,36.31184,-24.585638,46.91251,6.5210743,5.0812273,0.019919688,0.45625558,-25.384888,8.522795,48.24561,23.149967,0.6150337,-2.392201
22,5.801961898803711,26.607994079589844,70.635986328125,-1.902094696233248,-5.28294310311297,-158.0016406710106,-7.60798,15.814543,14.52011,62.739548,-37.995087,-8.376492,-34.390965,-12.423488,6.9658647,67.644714,-19.869944,1.5598643,-3.5030818,-6.519867,20.380466,13.8725395,36.23028,-24.310595,47.00511,6.016252,5.0078454,-0.09223941,-1.0417361,-26.261442,9.277299,47.481266,22.77611,0.564817,-2.170079
23,5.7919535636901855,27.696216583251953,70.55854034423828,-1.7799097110413697,-5.429280576208175,-158.15863544661238,-8.015658,16.639803,14.01541,62.93597,-37.633583,-9.31339,-33.952053,-14.013576,7.656761,67.64495,-19.970451,1.4359907,-3.066474,-6.440558,20.429295,14.392826,36.14408,-24.095045,47.083595,5.5383177,4.919816,-0.20915228,-2.467752,-27.145462,10.041216,46.65597,22.314062,0.49430418,-1.8829392
24,5.764979839324951,28.775537490844727,70.50701141357422,-1.675278327808578,-5.5500379986331465,-158.27630491187398,-8.35779,17.45231,13.508786,62.884953,-37.23718,-10.246966,-33.48119,-15.606998,8.217774,67.46459,-19.96287,1.3098711,-2.6923158,-6.3350706,20.439089,14.912834,36.047085,-23.949734,47.134026,5.286657,4.893682,-0.26495352,-3.7918062,-28.003477,10.743806,45.801243,21.785715,0.36349005,-1.5194415
25,5.721049785614014,29.872194290161133,70.48150634765625,-1.5890250215917832,-5.635088900823627,-158.34983223050384,-8.629741,18.249159,13.002908,62.551517,-36.838787,-11.174265,-32.97889,-17.2183,8.632966,67.094666,-19.850883,1.1851562,-2.3804705,-6.2110677,20.393826,15.421964,35.941326,-23.882555,47.17101,5.3613567,4.9425406,-0.24987261,-5.01004,-28.827757,11.362463,44.91401,21.128897,0.12890632,-1.0295845
26,5.657697677612305,30.987525939941406,70.48181915283203,-1.51530796992417,-5.694951372385918,-158.37764096537745,-8.832278,19.022593,12.483289,61.958508,-36.414604,-12.097845,-32.428345,-18.853434,8.919287,66.548065,-19.629925,1.0799105,-2.1365433,-6.0778813,20.296982,15.925074,35.831814,-23.893702,47.20762,5.6382675,5.028099,-0.19442908,-6.1327085,-29.62536,11.922051,43.986145,20.345484,-0.18517576,-0.44201174
27,5.578802108764648,32.10809326171875,70.50807189941406,-1.4573589140081453,-5.744773904576256,-158.37167182656512,-8.972362,19.788424,11.961001,61.164124,-35.908234,-13.020405,-31.819586,-20.471298,9.083815,65.85279,-19.301193,0.97062796,-1.9418977,-5.926725,20.178528,16.423698,35.71659,-23.97557,47.22489,5.990571,5.1496363,-0.09179122,-7.1619344,-30.387695,12.425345,43.0592,19.556797,-0.51596624,0.13538736
28,5.486935615539551,33.23760223388672,70.55695343017578,-1.4178185830265486,-5.799694096159523,-158.3446611190945,-9.055378,20.56215,11.4471655,60.223537,-35.261513,-13.945588,-31.14338,-22.032278,9.135404,65.034546,-18.864712,0.8347096,-1.7783766,-5.750278,20.06672,16.912123,35.59139,-24.1251,47.213303,6.2897735,5.3062816,0.066615656,-8.100881,-31.097662,12.875009,42.177845,18.875937,-0.79695374,0.595949
29,5.3858208656311035,34.377567291259766,70.63275909423828,-1.4013443119485343,-5.861056542149508,-158.2844443827703,-9.096834,21.347849,10.931153,59.15993,-34.48538,-14.875028,-30.392698,-23.557158,9.035047,64.09254,-18.288773,0.6475079,-1.6611038,-5.548504,19.965488,17.393785,35.453217,-24.3448,47.171368,6.544888,5.5296774,0.32030606,-8.966479,-31.745392,13.268578,41.36833,18.313059,-1.0298785,0.90640104
30,5.288116455078125,35.52449035644531,70.73808288574219,-1.219041508592105,-5.875547510501078,-158.10752932712077,-9.148107,21.752213,10.43168,57.860928,-33.543446,-15.000033,-29.659088,-25.295097,8.917823,63.039803,-17.590506,0.4982891,-1.6774704,-5.51493,19.811434,17.86822,35.305305,-24.630575,47.113903,6.8118052,5.8098936,0.65295345,-9.754794,-32.330513,13.604328,40.612495,17.804901,-1.2422869,1.1226944
31,5.173290252685547,36.68378829956055,70.87290954589844,-1.0377349183482527,-5.89135432684614,-157.92160176301286,-9.119942,22.126286,9.953225,56.379494,-32.455536,-15.000033,-28.855328,-26.95948,8.725393,61.875423,-16.832808,0.36032736,-1.7138238,-5.476214,19.649643,18.332384,35.151325,-24.973219,47.0422,7.028655,6.0844164,0.99086607,-10.4579,-32.853786,13.895716,39.90679,17.36443,-1.4035821,1.2776829
32,5.0476226806640625,37.85649108886719,71.03858947753906,-0.8603373595054304,-5.913571571497865,-157.76033720846755,-8.977859,22.500832,9.513797,54.6978,-31.188301,-15.000033,-27.983927,-28.473818,8.523872,60.62328,-16.089972,0.26984486,-1.7329389,-5.425001,19.480314,18.78328,34.994583,-25.359037,46.95845,7.138929,6.2888265,1.2602237,-11.04621,-33.31171,14.145269,39.226402,16.995966,-1.4833565,1.4036745
33,4.904923915863037,39.048988342285156,71.23036193847656,-0.6948215248570669,-5.952196868492216,-157.62391609618157,-8.718745,22.885738,9.090935,52.83011,-29.760246,-15.000033,-27.020582,-29.836153,8.287416,59.257954,-15.363007,0.22242972,-1.7435594,-5.355026,19.31597,19.223467,34.84047,-25.804508,46.852444,7.086333,6.413093,1.4523332,-11.550615,-33.7002,14.3607025,38.595646,16.70726,-1.4577204,1.5027473
34,4.748532772064209,40.26188659667969,71.4450912475586,-0.5421327032098131,-6.002743735837956,-157.50029928794035,-8.3515625,23.283009,8.683137,50.781235,-28.185106,-15.000033,-25.967329,-31.069693,7.988465,57.78158,-14.624605,0.20240138,-1.7583878,-5.2691526,19.151937,19.660309,34.68956,-26.305857,46.720943,6.9161835,6.488252,1.6024498,-11.952473,-34.016197,14.524147,38.000774,16.48093,-1.3472091,1.5611949
35,4.576686859130859,41.49524688720703,71.68364715576172,-0.384617776192527,-6.0450166530083,-157.39970952892972,-7.8677783,23.680664,8.33896,48.517582,-26.41553,-15.000033,-24.883606,-32.152237,7.709447,56.2628,-13.9034195,0.23368587,-1.7436557,-5.184912,18.965996,20.08419,34.53996,-26.828112,46.58175,6.720011,6.511354,1.7042043,-12.2529,-34.26814,14.655004,37.451473,16.333897,-1.1900747,1.5857493
36,4.389331817626953,42.74565124511719,71.94480895996094,-0.20416170430827835,-6.058752369706435,-157.33208713884792,-7.257762,24.065287,8.108721,45.99993,-24.40475,-15.000033,-23.827593,-33.066452,7.5360394,54.758934,-13.226687,0.3384877,-1.6713258,-5.117287,18.734861,20.490334,34.385414,-27.332396,46.450127,6.590838,6.4798813,1.7501839,-12.4216,-34.465004,14.758807,36.926342,16.271955,-1.0238423,1.5834085
37,4.19395112991333,44.013404846191406,72.22529602050781,0.014351473254186134,-6.053537033362628,-157.30683387702138,-6.4620013,24.41604,8.033702,43.150063,-22.158731,-15.000033,-22.796766,-33.824177,7.4869866,53.259205,-12.64196,0.50710493,-1.533718,-5.07741,18.462696,20.871767,34.223946,-27.842596,46.328407,6.5424256,6.374315,1.7316073,-12.4642315,-34.607952,14.826099,36.430603,16.30645,-0.8279894,1.5514561
38,3.991044282913208,45.29033279418945,72.51631927490234,0.2580803584722777,-6.034431389396069,-157.31673839760697,-5.5009093,24.747536,8.077317,40.014023,-19.698822,-15.000033,-21.771605,-34.432907,7.527912,51.740738,-12.123413,0.7321492,-1.3484315,-5.053378,18.157106,21.229864,34.05391,-28.369963,46.212658,6.5283694,6.202349,1.6540813,-12.365294,-34.694386,14.8422785,35.94726,16.421162,-0.59168667,1.487425
39,3.7786412239074707,46.59055709838867,72.81853485107422,0.50288529127347,-5.97461280688226,-157.34561664293432,-4.4903893,25.095678,8.174093,36.738445,-16.999668,-15.000033,-20.782972,-34.86877,7.6672106,50.237442,-11.584172,1.0353326,-1.1205298,-5.0300875,17.803934,21.57547,33.870075,-28.851133,46.102474,6.558398,6.002718,1.5342202,-12.168976,-34.742188,14.863134,35.516273,16.627691,-0.36805388,1.3980637
40,3.550902843475342,47.90892791748047,73.12294006347656,0.725102857888052,-5.846674126417452,-157.3765792484205,-3.5584817,25.498362,8.263718,33.47918,-14.03377,-15.000033,-19.864908,-35.111237,7.9193897,48.787716,-10.940831,1.4368713,-0.8622883,-4.9896774,17.388803,21.924883,33.662548,-29.217257,45.994164,6.642632,5.813445,1.3879327,-11.908823,-34.775795,14.945825,35.161934,16.938377,-0.20951106,1.290446
41,3.310464382171631,49.23668670654297,73.42925262451172,0.9428871612873231,-5.625265305681671,-157.40501235481608,-2.6786814,25.909603,8.396023,30.11573,-10.694451,-15.000033,-19.038704,-35.18857,8.3053665,47.367115,-10.204544,1.963853,-0.57862586,-4.936822,16.87746,22.282162,33.41681,-29.453485,45.889076,6.831033,5.6340775,1.1955667,-11.5445,-34.80488,15.085854,34.877033,17.378973,-0.14803533,1.1430086
42,3.074507236480713,50.5811767578125,73.72309112548828,1.162297514030513,-5.330381975559646,-157.43907820308507,-1.8272939,26.326206,8.581757,26.654234,-7.0446086,-15.000033,-18.28326,-35.10903,8.8257,45.965984,-9.414445,2.594819,-0.2682526,-4.8770394,16.286602,22.63585,33.126835,-29.593357,45.795853,7.106851,5.4458685,0.9583722,-11.06783,-34.82938,15.260492,34.64488,17.940613,-0.1493469,0.95999587
43,2.835252046585083,51.94041061401367,73.99745178222656,1.3438306755374203,-5.002077633519065,-157.47922000895454,-1.1657816,26.849894,8.700924,23.48049,-3.3233724,-15.000033,-17.565788,-34.822308,9.467051,44.64019,-8.526275,3.2783473,0.06350592,-4.794971,15.677805,22.980413,32.798462,-29.639666,45.718872,7.3779955,5.260244,0.72244656,-10.548272,-34.861095,15.494904,34.463314,18.578808,-0.16594423,0.7880698
44,2.5946784019470215,53.328853607177734,74.24931335449219,1.4486582377379236,-4.680944091099145,-157.52532498906896,-0.8874785,27.581036,8.617361,21.032122,0.20064399,-15.000033,-16.857271,-34.278896,10.221772,43.44938,-7.4955883,3.9665868,0.40991035,-4.673116,15.114977,23.320879,32.443977,-29.588064,45.648388,7.5547624,5.0898905,0.53098184,-10.059211,-34.91527,15.819455,34.329517,19.255037,-0.14880131,0.673955
45,2.3410253524780273,54.748226165771484,74.47415161132812,1.4481577381728892,-4.364363440051631,-157.58316917726935,-1.2035344,28.567413,8.0798,19.571016,3.8081868,-15.000033,-16.186905,-33.375443,11.194578,42.449905,-6.204537,4.4811516,0.7955069,-4.477953,14.603714,23.65076,32.067265,-29.419357,45.566597,7.621526,4.957426,0.4063915,-9.574429,-34.999012,16.24664,34.22904,20.014229,-0.08463026,0.56987154
46,2.094021797180176,56.21590042114258,74.6821517944336,1.3558350172973053,-4.027433185079346,-157.64496550295365,-2.1401362,29.740677,7.103046,19.052162,7.399779,-15.000033,-15.555834,-32.155357,12.349738,41.595303,-4.709345,4.9100947,1.2088274,-4.2148666,14.106648,23.973284,31.667402,-29.139313,45.474808,7.623323,4.850139,0.3197171,-9.0634985,-35.111736,16.756666,34.160004,20.863262,0.00065861683,0.4707261
47,1.829961895942688,57.70357894897461,74.87469482421875,1.1881914701783192,-3.6783158793132373,-157.6908773011424,-3.5005171,31.031292,6.0098643,19.261314,10.229462,-15.000033,-14.891077,-30.777483,13.474507,40.776024,-3.2256002,5.6049113,1.592397,-3.9122055,13.62535,24.310543,31.252317,-28.78413,45.38347,7.559414,4.728918,0.23595779,-8.589372,-35.25595,17.329367,34.130802,21.703848,0.10104144,0.48844463
48,1.5721628665924072,59.21925354003906,75.02139282226562,0.9878210479836791,-3.340422962737145,-157.71315199402355,-4.84981,32.37929,5.3029046,19.674366,11.708533,-15.000033,-14.120619,-29.418686,14.395173,39.877686,-1.9825068,6.9137583,1.9031811,-3.6201572,13.18198,24.682457,30.835775,-28.394423,45.29932,7.423607,4.5548906,0.11888347,-8.208859,-35.432186,17.939842,34.14,22.43702,0.21450488,0.736117
49,1.3498859405517578,60.71225357055664,75.05989074707031,0.6822375866564652,-3.0040752114880425,-157.71931442910702,-6.2916346,33.99523,5.1916995,20.522438,11.130942,-15.000033,-13.177174,-28.013525,15.147048,38.864044,-0.8179491,9.198304,2.1437187,-3.2712498,12.748775,25.175055,30.41961,-27.921886,45.1626,7.1598477,4.3114233,0.00033355848,-7.947495,-35.662796,18.645117,34.184937,23.0578,0.36286753,1.2843741
50,1.1299744844436646,62.21373748779297,75.03890228271484,0.3634881001303916,-2.688896357211846,-157.73676075036482,-7.475632,35.762733,5.7330923,21.197062,9.3701725,-15.000033,-12.113723,-26.570154,15.886792,37.77146,0.30547905,12.188002,2.361291,-2.947801,12.3616,25.745277,30.002974,-27.363539,44.983707,6.7863755,4.021206,-0.1186923,-7.770199,-35.94598,19.438452,34.2518,23.616705,0.54702353,2.058303
51,0.9280633926391602,63.732547760009766,74.9840087890625,0.22155590334578693,-2.412580713430005,-157.7019487378682,-8.356528,37.30211,6.753608,21.678381,7.3061256,-14.409869,-11.084438,-25.375702,16.425411,36.673286,0.9325546,15.000033,2.4986818,-2.8171585,12.077585,26.261745,29.599384,-26.827707,44.838436,6.4138374,3.7095618,-0.3157264,-7.656511,-36.24732,20.19829,34.3493,24.093039,0.73307544,2.962622
52,0.7214370369911194,65.32704162597656,74.89981842041016,-0.2102562190478738,-2.2159310680707978,-157.64678446740868,-9.110618,39.015133,7.5860705,22.137342,5.7663484,-12.916944,-10.1444435,-24.017157,15.776215,35.5337,0.75384665,15.000033,2.6000555,-2.3975916,11.944422,26.592987,29.225132,-26.443583,44.80127,6.144731,3.4055357,-0.6633382,-7.57314,-36.528435,20.782059,34.49727,24.450695,0.88004804,3.9079592
53,0.5379074811935425,66.94464111328125,74.79265594482422,-0.4394273286051233,-2.130754884796559,-157.54805857038315,-9.639402,40.339176,8.173739,22.75038,4.8126116,-11.549791,-9.299988,-22.883638,14.943086,34.296215,-0.6624688,15.000033,2.655326,-2.1812692,12.015687,26.734428,28.920078,-26.232042,44.873455,5.9429607,3.0882702,-1.213827,-7.520819,-36.763947,21.15399,34.68672,24.605814,0.97996527,4.982111
54,0.38771599531173706,68.5568618774414,74.65950775146484,-0.5340477613489688,-2.1305638819486226,-157.42654222251576,-9.918561,41.426975,8.734602,23.435806,4.0462565,-10.2577095,-8.515459,-21.86337,13.951126,32.966957,-2.9984703,15.000033,2.6913097,-2.1226602,12.249382,26.761343,28.702717,-26.133781,44.99722,5.762346,2.7558272,-1.9194337,-7.5008006,-36.950325,21.363811,34.919613,24.586077,1.044817,6.1979337
55,0.28445056080818176,70.14592742919922,74.48100280761719,-0.5622858698153262,-2.210767719069491,-157.32244577004445,-10.463619,42.295746,8.73683,24.93873,3.0081155,-9.047352,-7.9333854,-20.888674,12.941091,31.946815,-5.766306,15.000033,2.7358477,-2.1289706,12.633341,26.71206,28.561258,-26.12242,45.131554,5.705757,2.4601607,-2.7003112,-7.498142,-37.09241,21.42736,35.22597,24.54646,1.0770336,7.3554797
56,0.20980355143547058,71.7271957397461,74.29067993164062,-0.49262436501448953,-2.3484741834787854,-157.24906832690115,-11.0111885,42.74046,8.193678,26.687998,1.9559718,-7.917599,-7.67488,-20.01494,11.983532,31.566278,-8.432405,15.000033,2.7959933,-2.220499,13.150476,26.569387,28.472637,-26.175879,45.29403,5.8810225,2.2450716,-3.4761868,-7.492969,-37.182903,21.357632,35.628025,24.643314,1.0829244,8.245853
57,0.17603814601898193,73.30915069580078,74.08502960205078,-0.28433821718922536,-2.5820770998000286,-157.19493506326285,-11.657179,42.612408,6.794155,28.877768,0.81043583,-6.7940707,-7.817662,-19.34492,10.934379,32.087654,-11.055195,15.000033,2.8491087,-2.4331648,13.8736315,26.315977,28.432726,-26.2509,45.48904,6.3963013,2.1091797,-4.324095,-7.542768,-37.203403,21.14869,36.16136,24.941587,1.063077,8.859179
58,0.17902353405952454,74.88378143310547,73.85694122314453,0.03921251287259603,-2.9060838653041414,-157.14843033430498,-12.415398,41.995304,4.694638,31.602518,-0.43566817,-5.7287087,-8.289043,-18.852455,9.733536,33.290497,-13.8490095,15.000033,2.925228,-2.734009,14.790233,25.851116,28.398546,-26.432198,45.822754,7.1763315,2.0189898,-5.238063,-7.5674872,-37.184914,20.724327,36.758278,25.334637,1.0220277,9.296883
59,0.2163562923669815,76.42841339111328,73.61315155029297,0.36361890638673416,-3.242851373191137,-157.13609126893888,-13.225344,41.138172,2.3880873,34.711964,-1.721984,-4.9237065,-8.978256,-18.354023,8.579004,34.814182,-16.537289,15.000033,2.983035,-3.0311182,15.733888,25.35878,28.382814,-26.692024,46.177876,8.051145,1.9827496,-6.0509872,-7.609375,-37.128727,20.273123,37.478394,25.777578,0.9529155,9.4981785
60,0.2679997980594635,77.94747161865234,73.34696960449219,0.5759599544120863,-3.5097979170707907,-157.1910226440678,-14.025789,40.325127,0.37125984,38.02335,-2.9944124,-4.5604186,-9.777079,-17.651236,7.699578,36.303036,-18.862558,15.000033,3.03315,-3.2185128,16.54146,24.918293,28.369427,-27.071516,46.52946,8.851241,2.0163572,-6.583343,-7.622773,-37.045414,19.887318,38.321472,26.198132,0.85270846,9.408954
61,0.31385377049446106,79.4242935180664,73.0815658569336,0.6166455986524656,-3.6900603441192565,-157.35574603436297,-14.822246,39.582947,-1.4249425,41.55717,-4.225617,-4.8895783,-10.660434,-16.636606,7.1862245,37.663517,-20.766235,15.000033,3.0782804,-3.224748,17.186863,24.570024,28.339714,-27.577253,46.86127,9.597847,2.1671684,-6.744419,-7.7018847,-36.963562,19.688183,39.387463,26.706621,0.6943397,8.927195
62,0.35171547532081604,80.86544799804688,72.8266830444336,0.554610390760252,-3.8242943731193537,-157.60126363956496,-15.651192,38.76566,-3.159738,45.451954,-5.511386,-5.7645693,-11.660626,-15.434827,6.9011483,39.071255,-22.383165,15.000033,3.0830345,-3.1128821,17.757515,24.298233,28.29685,-28.150265,47.156784,10.373444,2.4190154,-6.654539,-7.835849,-36.90272,19.618753,40.607185,27.314472,0.48548746,8.113812
63,0.3879850208759308,82.2766342163086,72.59598541259766,0.4693191383181254,-3.9133372517716145,-157.85928191443023,-16.486809,37.956963,-4.4954777,49.605648,-6.915967,-6.723186,-12.758591,-14.187168,6.714098,40.56067,-23.718876,15.000033,3.0397787,-2.9702716,18.225779,24.006392,28.218464,-28.827673,47.514244,11.073935,2.6985288,-6.425028,-7.8812714,-36.824795,19.526863,41.843616,27.796698,0.26862937,7.1470795
64,0.4306256175041199,83.65711212158203,72.38972473144531,0.43613140825146196,-3.958837637764089,-158.06253417176552,-17.284342,37.281803,-5.127657,53.83751,-8.430403,-7.272324,-13.944725,-13.036316,6.5032897,42.165195,-24.776121,15.000033,2.8822882,-2.8981264,18.584564,23.710926,28.094378,-29.524023,47.918816,11.629371,2.9267306,-6.1849227,-7.7629194,-36.710693,19.338415,42.95584,27.96503,0.09911919,6.205567
65,0.4677671790122986,85.02479553222656,72.21556091308594,0.4633439607985319,-3.9313562501448143,-158.24075981778162,-18.051807,36.943214,-4.8625145,58.144318,-10.064578,-7.216138,-15.355921,-11.958382,6.325166,44.049526,-25.481575,15.000033,2.5907946,-2.9223623,18.82364,23.49914,27.954374,-30.187426,48.28327,11.996524,3.0808642,-5.9077506,-7.548687,-36.577053,19.121902,43.957653,27.735615,-0.00475471,5.2752647
66,0.5103710889816284,86.35171508789062,72.08216857910156,0.5103444328988783,-3.8406794967915254,-158.4159552517193,-18.763687,36.8982,-3.9336898,62.538235,-11.777953,-6.786719,-16.939611,-10.881931,6.223317,46.13073,-25.852499,15.000033,2.20505,-2.988664,18.949295,23.339216,27.79814,-30.869179,48.636444,12.219867,3.2043178,-5.544028,-7.2596636,-36.42151,18.892836,44.91726,27.22454,-0.06267858,4.27983
67,0.5363733768463135,87.6340103149414,72.00492095947266,0.5794146885090994,-3.7478131103691017,-158.50881627685808,-19.317266,36.90035,-2.688858,66.82683,-13.454766,-6.1352453,-18.421766,-9.88245,6.066253,48.079105,-26.029306,15.000033,1.7086433,-3.0913968,18.99628,23.197151,27.632082,-31.545504,48.984985,12.375435,3.3135104,-5.212622,-6.7523375,-36.228718,18.533142,45.72471,26.567736,-0.067975335,3.309561
68,0.5366694927215576,88.8924789428711,71.9721908569336,0.6744708062827103,-3.7135914341685368,-158.4384660792591,-19.634523,36.662685,-1.4575491,70.813774,-14.963316,-5.4351983,-19.540825,-9.049049,5.7157135,49.5678,-26.148258,15.000033,1.0922982,-3.2304487,19.003265,23.03766,27.4731,-32.198345,49.33128,12.536728,3.4253092,-5.033071,-5.903919,-35.98202,17.935755,46.289692,25.913397,-0.021369321,2.4567008
69,0.5137313008308411,90.1595687866211,71.97859954833984,0.6890383410440548,-3.762841679073902,-158.17198279543297,-19.775158,36.272617,-0.36414528,74.518,-16.275902,-4.626376,-20.179195,-8.234548,5.0156455,50.45788,-26.208708,14.302291,0.33916554,-3.305207,18.980474,22.857162,27.332815,-32.83773,49.68561,12.706368,3.550128,-5.0753837,-4.6282096,-35.651733,16.970268,46.54059,25.115652,0.10363771,1.7524021
70,0.4658253788948059,91.41285705566406,72.02967071533203,0.652754623479462,-3.8602285201658635,-157.75988225205137,-19.749615,35.826584,0.76711017,78.01423,-17.4548,-3.6534662,-20.508595,-7.4565334,4.0769444,50.934464,-26.13866,13.189909,-0.52257276,-3.3501241,18.91159,22.674381,27.220053,-33.478138,50.032192,12.845943,3.676744,-5.264097,-3.0183759,-35.227375,15.72818,46.550232,24.160465,0.29883975,1.1501226
71,0.4055447280406952,92.65043640136719,72.12979125976562,0.6156963145321299,-3.975939325195717,-157.2820777322742,-19.489058,35.20123,1.9543717,81.168625,-18.46295,-2.7882898,-20.65128,-6.743793,3.0552437,51.08112,-25.918125,12.071373,-1.4185971,-3.4185607,18.787548,22.508608,27.143763,-34.0927,50.320175,12.9706,3.7895646,-5.5035048,-1.1714163,-34.72248,14.410011,46.39429,23.364363,0.5021308,0.62338746
72,0.3626896142959595,93.86965942382812,72.27568817138672,0.5402823173730993,-4.078495224224084,-156.84008481729313,-18.970346,34.360344,3.1547613,83.84268,-19.243399,-2.3512914,-20.698524,-5.9769363,2.0474226,50.930626,-25.497334,10.958549,-2.2546704,-3.475637,18.60234,22.374794,27.111847,-34.652733,50.49839,13.095976,3.873435,-5.697583,0.79164666,-34.173195,13.234962,46.16908,23.063725,0.64623374,0.140321
73,0.3139265775680542,95.0709228515625,72.47286987304688,0.4067243766538655,-4.15667060850172,-156.4245367755193,-18.216959,33.254253,4.3723106,86.006836,-19.775167,-2.4265244,-20.64668,-5.1468053,1.0239686,50.462864,-24.884605,9.84347,-3.0356648,-3.4920437,18.338749,22.275887,27.127539,-35.15726,50.539577,13.2677765,3.9222727,-5.8745623,2.9265094,-33.601814,12.221165,45.84474,23.487803,0.6931774,-0.31424728
74,0.25827556848526,96.25621032714844,72.71476745605469,0.23958963229353392,-4.227265411817816,-155.9935725319959,-17.27965,31.879261,5.622192,87.726875,-20.072624,-2.8566248,-20.455297,-4.309907,-0.047936957,49.67511,-24.107506,8.721102,-3.8093705,-3.486877,18.011478,22.213715,27.189276,-35.611954,50.459846,13.464355,3.9442189,-6.0697103,5.264922,-33.002453,11.280748,45.374615,24.4261,0.67815936,-0.71994156
75,0.2001442015171051,97.44153594970703,72.9986572265625,0.06870895580088017,-4.300792763758543,-155.59906170766064,-16.190474,30.256931,6.8795347,89.00019,-20.128057,-3.6062021,-20.15888,-3.4504082,-1.0809926,48.6245,-23.145573,7.607853,-4.549298,-3.5002167,17.657713,22.206944,27.293713,-35.990227,50.27539,13.605808,3.946428,-6.197618,7.68806,-32.37154,10.446881,44.805973,25.530458,0.6449582,-1.058876
76,0.13010002672672272,98.61771392822266,73.32892608642578,-0.07816162242821621,-4.388600530909681,-155.2931865641431,-14.977844,28.412695,8.117275,89.82037,-19.9381,-4.6398826,-19.791609,-2.5534582,-1.9892509,47.363277,-21.972054,6.519713,-5.2379503,-3.5743415,17.309233,22.281092,27.434467,-36.255512,50.002155,13.613938,3.936751,-6.1728187,10.059124,-31.708761,9.769258,44.204975,26.45399,0.6411047,-1.3170848
77,0.08023840934038162,99.77996826171875,73.68766784667969,-0.2115486968650914,-4.5040908098582415,-155.09398468279284,-13.603851,26.333559,9.360962,90.13543,-19.484377,-6.057725,-19.30762,-1.6001974,-2.7712805,45.820923,-20.577085,5.4267774,-5.865263,-3.7075298,16.969952,22.453278,27.60661,-36.362495,49.61957,13.478524,3.9212062,-5.956415,12.381294,-31.020508,9.290546,43.569065,27.189438,0.6872369,-1.471441
78,0.03219683840870857,100.95176696777344,74.08033752441406,-0.3423131155981022,-4.637765888290014,-154.9719553968143,-12.121593,23.984158,10.574407,89.94931,-18.792124,-7.850489,-18.705236,-0.606176,-3.4709315,43.99823,-18.97499,4.329255,-6.4495044,-3.8816369,16.620993,22.70846,27.809603,-36.332508,49.13046,13.241402,3.8936675,-5.598311,14.704608,-30.313515,8.986759,42.881195,27.893614,0.7575651,-1.5389493
79,-0.01973692700266838,102.11758422851562,74.50286865234375,-0.44772150884359146,-4.767202027030912,-154.90748310203776,-10.6782465,21.377552,11.639738,89.34609,-17.923931,-9.822117,-18.087814,0.3913193,-4.0754776,42.058903,-17.174053,3.287721,-7.011354,-4.1096687,16.258657,23.018057,28.043491,-36.234688,48.589508,12.900922,3.8432436,-5.14629,16.973383,-29.591124,8.793883,42.1814,28.460968,0.83183527,-1.566849
80,-0.059148576110601425,103.28103637695312,74.94062042236328,-0.5054303836682142,-4.8702931953159965,-154.8813932501224,-9.394565,18.544926,12.454388,88.413605,-16.931479,-11.778106,-17.554996,1.3552381,-4.5723147,40.161137,-15.179691,2.3644905,-7.5686765,-4.4030027,15.879716,23.350084,28.308393,-36.14305,48.053837,12.454737,3.7587588,-4.6481605,19.134626,-28.852665,8.640712,41.506615,28.785786,0.8888842,-1.6016824
81,-0.08553916960954666,104.44047546386719,75.3843765258789,-0.5109095228589541,-4.940797201568003,-154.89349409815458,-8.27154,15.417582,12.956804,87.12441,-15.738908,-13.749887,-17.129803,2.2856166,-4.961136,38.33587,-12.935399,1.4444841,-8.127387,-4.770658,15.467851,23.70078,28.605206,-36.067837,47.54313,11.816487,3.6151736,-4.0644894,21.219028,-28.091234,8.519202,40.831345,28.767908,0.9207945,-1.6524359
82,-0.09657290577888489,105.59868621826172,75.83744812011719,-0.4711721375641419,-4.988912672244664,-154.9483432256502,-7.2077165,12.176765,13.444185,85.444756,-14.371315,-15.000033,-16.764631,3.1778376,-5.2568936,36.514847,-10.460823,0.54636675,-8.671303,-5.196562,15.030974,24.076582,28.934965,-35.98095,47.029858,11.015211,3.4197662,-3.3884387,23.253689,-27.308365,8.446197,40.14023,28.482761,0.93940836,-1.695867
83,-0.07258443534374237,106.75118255615234,76.28794860839844,-0.10747623032737356,-4.928973947909766,-154.8951250579746,-6.2812696,8.827145,14.22489,83.36841,-12.868153,-15.000033,-16.71431,3.6076767,-5.4202356,35.091103,-8.081088,0.0050933072,-9.34354,-5.9366593,14.463208,24.461191,29.296469,-35.89601,46.50199,10.2239065,3.2133574,-2.7164829,25.175861,-26.51527,8.3901205,39.489586,28.09273,0.95343715,-1.7298521
84,-0.032383665442466736,107.88423919677734,76.71940612792969,0.23088962494553766,-4.8725778647381395,-154.896111537166,-5.400789,5.643736,14.822533,81.07497,-11.508579,-15.000033,-16.66032,4.081173,-5.488337,33.614002,-5.6734853,-0.030063389,-9.95094,-6.634439,13.950926,24.837626,29.684816,-35.836872,45.93975,9.612322,3.044561,-2.1413217,26.941519,-25.734632,8.299575,38.916264,27.758364,0.97336584,-1.748768
85,0.02593487687408924,109.02555084228516,77.1243896484375,0.560033936673462,-4.815461856524314,-154.96905363820719,-4.5464983,2.5199592,15.205957,78.49901,-10.285667,-15.000033,-16.631517,4.613919,-5.435358,32.11757,-3.1937037,0.29832342,-10.498371,-7.3009596,13.494071,25.207487,30.0965,-35.823906,45.33632,9.204886,2.9331646,-1.6522751,28.555225,-24.977276,8.152788,38.414417,27.502712,1.0122002,-1.7249161
86,0.09653585404157639,110.16424560546875,77.49510192871094,0.8839366727349343,-4.7579341409647995,-155.10931099264317,-3.6855452,-0.5906774,15.348255,75.614494,-9.1257515,-15.000033,-16.610033,5.2059216,-5.2412457,30.5717,-0.60274374,0.93551314,-10.995149,-7.947252,13.080432,25.577164,30.528055,-35.84316,44.70185,8.916543,2.8549614,-1.2103543,30.048166,-24.24288,7.966736,37.95574,27.250422,1.06305,-1.6678481
87,0.1837739646434784,111.30258178710938,77.82373046875,1.1705686898670151,-4.721079589021848,-155.28873182661604,-2.775769,-3.442378,15.327422,72.59081,-8.066179,-15.000033,-16.447254,5.880709,-4.8397994,28.764805,2.0335703,2.271369,-11.419617,-8.540114,12.739164,25.932121,30.971827,-35.866013,44.05193,8.749259,2.7957237,-0.8652731,31.40419,-23.536081,7.762518,37.553978,27.01875,1.1075187,-1.6285762
88,0.27627748250961304,112.44367218017578,78.10631561279297,1.4097179977083145,-4.723236013216536,-155.47135395321453,-1.7877012,-5.8205676,15.26114,69.597145,-7.125771,-15.000033,-15.991378,6.6429043,-4.133787,26.479631,4.652242,4.7061005,-11.760943,-9.067802,12.490568,26.259226,31.417284,-35.861164,43.404762,8.706149,2.7407033,-0.6670581,32.606037,-22.86417,7.5671916,37.223927,26.825665,1.1281008,-1.6580468
89,0.37151867151260376,113.6015625,78.3360366821289,1.6905225047610883,-4.780025490326783,-155.63981227510607,-0.656032,-7.739086,15.301238,66.59527,-6.333225,-15.000033,-14.9911375,7.4417133,-2.9763813,23.271124,7.4945235,9.161222,-12.042169,-9.619273,12.330417,26.56281,31.860266,-35.819237,42.755318,8.867321,2.692676,-0.6790801,33.665806,-22.238728,7.3829613,36.975853,26.673237,1.1185584,-1.7714974
90,0.4585435092449188,114.75192260742188,78.51768493652344,2.088714700375686,-4.879073815616825,-155.8026855206087,0.62015474,-9.429852,15.41869,63.454926,-5.6131806,-15.000033,-13.569668,8.180447,-1.3718143,19.375187,10.468612,15.000033,-12.284932,-10.274094,12.226532,26.85675,32.301575,-35.74875,42.098682,9.206195,2.6563942,-0.8572596,34.59477,-21.663128,7.2054234,36.79254,26.556328,1.0903308,-1.942108
91,0.5056776404380798,115.98281860351562,78.60728454589844,2.1040531358248673,-5.014071911107594,-156.12096352192017,1.8514255,-10.339322,15.466881,60.729763,-5.1916146,-15.000033,-11.576049,9.302412,-1.146927,14.383217,13.832492,15.000033,-12.334033,-10.567453,12.264231,27.151218,32.692474,-35.63158,41.483105,9.577492,2.616009,-1.0838612,35.413,-21.178825,7.070644,36.60176,26.495678,1.0590134,-2.1571121
92,0.5693730711936951,117.17878723144531,78.65414428710938,2.1729305928758755,-5.146346136391016,-156.3817983206585,3.0400262,-11.227433,15.323826,57.9792,-4.5710735,-15.000033,-10.144364,10.18011,-0.39984104,10.634411,16.211905,15.000033,-12.322993,-10.916138,12.343022,27.441744,33.14227,-35.481945,40.85689,9.811816,2.5709996,-1.2615016,36.013733,-20.657917,6.966848,36.490585,26.457108,1.014073,-2.4089952
93,0.6590592861175537,118.35249328613281,78.69954681396484,2.162597551644075,-5.258308269423965,-156.54425452563206,4.1635585,-11.91646,14.944991,55.22289,-3.7261357,-15.000033,-9.592351,10.919035,1.1407654,8.720174,17.082996,15.000033,-12.304473,-11.143787,12.459214,27.648134,33.555622,-35.35432,40.323322,9.870333,2.505472,-1.3690683,36.368214,-20.16564,6.8821745,36.492893,26.484562,0.9656635,-2.7122464
94,0.7706502676010132,119.51325225830078,78.72472381591797,2.0341102815840406,-5.351810897119332,-156.6484209257023,5.218205,-12.293696,14.447975,52.520367,-2.7968137,-15.000033,-9.646492,11.635799,3.2074049,8.078007,16.841276,15.000033,-12.250432,-11.218591,12.623699,27.762556,33.919086,-35.245792,39.894302,9.838296,2.427351,-1.4576463,36.492138,-19.701674,6.809864,36.612465,26.56323,0.90791553,-3.067049
95,0.9042407274246216,120.675048828125,78.71084594726562,1.795855864083032,-5.414681134701597,-156.7474884098573,6.1152797,-12.436042,13.83623,49.991657,-1.8717428,-15.000033,-10.047502,12.332855,5.253703,8.184435,16.009317,15.000033,-12.129725,-11.166954,12.824637,27.816227,34.225246,-35.110718,39.56841,9.738139,2.3600485,-1.5162609,36.390766,-19.267231,6.77609,36.81533,26.654411,0.84028554,-3.4198954
96,1.0452553033828735,121.86457824707031,78.65131378173828,1.4728671845920003,-5.453506861505498,-156.87913996234582,6.7965264,-12.428813,13.084627,47.75159,-1.0185118,-15.000033,-10.481543,12.957557,6.7537737,8.436302,15.135992,15.000033,-11.925417,-11.038859,13.063233,27.849665,34.473515,-34.89679,39.334663,9.591545,2.3269522,-1.5350186,36.07153,-18.866877,6.8089786,37.06326,26.72063,0.76291084,-3.7178066
97,1.1910101175308228,123.07572174072266,78.54806518554688,1.0689503170047712,-5.474769399924999,-157.05369686506103,7.1639547,-12.357433,11.980067,45.822144,0.09665582,-15.000033,-10.927922,13.493064,7.6384697,8.798187,14.238559,15.000033,-11.628028,-10.847099,13.352445,27.8856,34.65594,-34.5411,39.197952,9.371819,2.3303182,-1.5065508,35.50018,-18.49746,6.927236,37.374443,26.782417,0.67617977,-3.9529915
98,1.3639944791793823,124.27971649169922,78.4155044555664,0.6928753220511883,-5.3834271674909076,-157.13763905556218,7.1941023,-12.143438,10.987839,44.107018,1.5006773,-13.714204,-11.943635,13.806126,8.043208,10.156174,12.739094,15.000033,-11.382252,-10.66214,13.573356,27.888721,34.76236,-34.08992,39.169716,9.079272,2.3595424,-1.4378328,34.67059,-18.162775,7.10178,37.771397,26.852146,0.5796298,-4.1496677
99,1.554060697555542,125.4891357421875,78.24430847167969,0.2555070369556578,-5.258653812041253,-157.22480972548752,7.104458,-11.546003,10.519072,42.737698,2.3908517,-11.143916,-13.090871,14.009366,8.053896,11.777177,11.091833,15.000033,-11.09861,-10.401018,13.801908,27.849026,34.806606,-33.63092,39.228893,8.7794285,2.4155715,-1.3400779,33.666576,-17.872414,7.316318,38.18761,26.88254,0.47458014,-4.30736
100,1.7667611837387085,126.6941909790039,78.04985809326172,-0.24766003485360616,-5.103799402710088,-157.29828524887316,7.033029,-10.497503,10.676147,41.785095,2.0119207,-8.25329,-14.290032,14.090618,7.6387057,13.493896,9.446386,15.000033,-10.8121,-10.060394,14.017341,27.75738,34.814106,-33.258377,39.33927,8.532255,2.5015364,-1.2263004,32.558018,-17.63952,7.549341,38.57104,26.828135,0.36323968,-4.4222927
101,1.9854339361190796,127.90921020507812,77.78857421875,-0.8527174543899099,-4.916238716933318,-157.34566761212102,7.0745873,-8.8559675,11.654205,41.333664,-0.14516906,-4.6788855,-15.532961,14.0497875,6.70009,15.271139,7.80176,15.000033,-10.529147,-9.592428,14.215708,27.631605,34.804066,-33.00692,39.47059,8.315727,2.6384647,-1.0501581,31.384274,-17.508474,7.7934804,38.86572,26.671576,0.25973722,-4.4551044
102,2.1997134685516357,129.13113403320312,77.45249938964844,-1.5325569147868363,-4.702083322726423,-157.37338839266027,7.16278,-6.8568974,13.049443,41.299927,-3.674958,-0.6785878,-16.848757,13.8461685,5.294605,17.209003,6.0771103,15.000033,-10.25302,-9.076977,14.411616,27.520504,34.77884,-32.747585,39.618767,8.142654,2.8197258,-0.8235219,30.027905,-17.38842,8.107762,39.18557,26.41471,0.13942876,-4.4428954
103,2.4209344387054443,130.34841918945312,77.07264709472656,-2.1921914326005654,-4.474704630943834,-157.38611225538182,7.226828,-4.9052577,14.35586,41.43796,-7.842663,2.8535962,-18.248096,13.398213,3.6208858,19.417526,4.260362,15.000033,-9.945429,-8.53802,14.610448,27.329609,34.75768,-32.605934,39.788895,7.9835415,3.0042846,-0.64707875,28.622595,-17.341885,8.379606,39.43013,26.135103,0.022372823,-4.406588
104,2.638791799545288,131.5657958984375,76.66603088378906,-2.72972955974688,-4.248179397310352,-157.38875553124757,7.179606,-3.3071973,15.2286,41.497875,-11.795125,5.1654444,-19.729742,12.621873,1.893489,21.99069,2.3453376,15.000033,-9.6476555,-8.107779,14.810506,27.087019,34.731785,-32.49935,39.968006,7.9023194,3.1525118,-0.6220473,27.102715,-17.318314,8.65474,39.68857,25.873842,-0.11458557,-4.4223886
105,2.868875026702881,132.77639770507812,76.23493194580078,-3.099170375302792,-4.038134993503254,-157.3907207940063,7.0594764,-2.0780652,15.721923,41.34357,-15.401974,5.9940143,-21.302742,11.391529,0.034755547,25.026674,0.27967224,15.000033,-9.340757,-7.829562,15.030432,26.762192,34.70433,-32.460506,40.151627,7.909017,3.2579079,-0.818589,25.46204,-17.321417,8.923269,39.933582,25.62523,-0.28311172,-4.5177503
106,3.1288695335388184,133.9666290283203,75.79181671142578,-3.329386546752526,-3.8456653159693537,-157.36865889152136,6.929736,-1.0291764,16.079138,41.076897,-18.97742,5.858283,-22.884909,9.705539,-1.9537354,28.400352,-1.9148543,15.000033,-9.02755,-7.6737323,15.276185,26.363672,34.68158,-32.49965,40.340633,7.980321,3.340454,-1.1682614,23.72578,-17.35835,9.174709,40.139187,25.367407,-0.47218487,-4.654879
107,3.3937315940856934,135.15408325195312,75.34921264648438,-3.5769865371794873,-3.669362185880658,-157.334232061342,6.6688223,0.10691435,16.326109,41.008118,-22.435081,5.177177,-24.267063,7.905455,-3.9840424,31.65008,-4.003969,13.972939,-8.683835,-7.4824247,15.557409,25.910273,34.66676,-32.597645,40.556946,8.089459,3.3996003,-1.562351,21.959993,-17.420174,9.38254,40.32093,25.123983,-0.6556428,-4.7914777
108,3.636751413345337,136.35594177246094,74.91010284423828,-3.7983538461003485,-3.4631463469707793,-157.25012120244372,6.1791396,1.2656217,16.433554,41.204815,-25.544865,4.428441,-25.50627,6.0996504,-5.6460147,34.737404,-5.9651384,12.441626,-8.334349,-7.2853365,15.81653,25.404827,34.662735,-32.738976,40.8334,8.213952,3.436287,-1.8922118,20.211657,-17.475025,9.510035,40.519123,24.906454,-0.81183136,-4.886664
109,3.8694241046905518,137.55874633789062,74.47085571289062,-3.945115333489268,-3.167832075555205,-157.0630063360158,5.3786397,2.3582397,16.321398,41.621418,-28.26129,3.62832,-26.745508,4.210314,-6.8288546,37.78683,-7.8573585,10.9982195,-8.041452,-7.1040173,15.9923115,24.810043,34.6524,-32.966503,41.215115,8.31837,3.4196959,-2.147516,18.47172,-17.550926,9.569784,40.744473,24.778101,-0.94174397,-4.949401
110,4.073606014251709,138.75453186035156,74.04358673095703,-4.011830391322804,-2.8121189067233745,-156.8000771549209,4.331037,3.3897228,16.041481,42.203014,-30.676126,2.573982,-27.99059,2.190301,-7.6680584,40.85332,-9.709881,9.579762,-7.761433,-6.967625,16.124619,24.123365,34.651066,-33.26859,41.67606,8.434882,3.3609476,-2.3805428,16.710745,-17.610565,9.54742,40.994263,24.68439,-1.0607423,-4.9972277
111,4.255324363708496,139.93942260742188,73.63742065429688,-4.029459077280089,-2.4903966730965115,-156.53313065897865,3.1683052,4.407845,15.695066,42.99862,-32.772766,1.4204667,-29.107506,0.20466572,-8.088634,43.792263,-11.42818,8.285356,-7.4283767,-6.858102,16.282291,23.401834,34.645634,-33.592354,42.17732,8.5981655,3.3204513,-2.5663702,14.97544,-17.679672,9.453945,41.246014,24.55672,-1.1542639,-5.0001802
112,4.425513744354248,141.10728454589844,73.25260925292969,-4.0344839956766965,-2.295667768859351,-156.33481082090253,2.0235264,5.46543,15.368646,44.062344,-34.54159,0.33050543,-29.972925,-1.5748557,-8.039541,46.477047,-12.917186,7.21831,-6.9986777,-6.7614107,16.532892,22.735075,34.617947,-33.842136,42.66586,8.860516,3.3580883,-2.683669,13.283238,-17.778723,9.328382,41.49829,24.324738,-1.2087415,-4.9291644
113,4.580923557281494,142.26242065429688,72.89432525634766,-4.038705410418926,-2.2701193608713686,-156.20536002651494,0.8947535,6.5748577,15.034074,45.507675,-35.980072,-0.6571323,-30.562584,-3.0693235,-7.438558,48.92359,-14.130353,6.4262795,-6.4712214,-6.666788,16.918863,22.142122,34.549408,-33.97339,43.14157,9.300419,3.4991302,-2.7309783,11.6128435,-17.90949,9.15939,41.782288,23.928038,-1.202706,-4.7436495
114,4.729694366455078,143.4004669189453,72.55701446533203,-4.032967922790467,-2.3572173542367905,-156.11357924224689,-0.2777889,7.70983,14.636468,47.28003,-37.11031,-1.6178929,-30.96794,-4.3481474,-6.381258,51.19731,-15.114685,5.853029,-5.881399,-6.567545,17.389906,21.580513,34.432384,-34.03438,43.64237,9.873498,3.7079678,-2.7195184,9.947047,-18.07345,8.960783,42.1016,23.424212,-1.1497716,-4.468745
115,4.849313735961914,144.5303955078125,72.2552490234375,-4.02704436803087,-2.5012066586976913,-156.0853540782247,-1.4412955,8.869702,14.219316,49.170918,-37.955494,-2.560071,-31.23183,-5.467582,-5.092196,53.25383,-15.918583,5.4469695,-5.2490816,-6.4554977,17.870544,21.0648,34.271164,-34.055458,44.158787,10.449665,3.9529731,-2.6480005,8.299625,-18.285908,8.82427,42.42164,22.92013,-1.0884748,-4.175561
116,4.93528938293457,145.64163208007812,71.98291015625,-4.029107337159874,-2.6458569797595786,-156.14732788509212,-2.5446177,10.057091,13.832112,50.97592,-38.539074,-3.493413,-31.397568,-6.495303,-3.7864685,55.051407,-16.599709,5.1528215,-4.599193,-6.3252144,18.286058,20.623568,34.077435,-34.057514,44.665165,10.897647,4.2026625,-2.515327,6.6840863,-18.566666,8.8469715,42.703163,22.529198,-1.0539036,-3.9344292
117,5.016377925872803,146.74794006347656,71.7420425415039,-4.04234411301868,-2.787638617939629,-156.33815429775305,-3.6038022,11.290223,13.495954,52.754772,-38.806828,-4.4097695,-31.469532,-7.401682,-2.4464028,56.58311,-17.16072,5.0291443,-3.9042447,-6.171652,18.62887,20.267776,33.857273,-34.038116,45.149593,11.189391,4.4713283,-2.2929485,5.0763955,-18.933027,9.085156,42.975163,22.321087,-1.0604196,-3.7759051
118,5.061929225921631,147.84796142578125,71.53546142578125,-4.066970851976282,-2.951567614605687,-156.633859003986,-4.629471,12.556682,13.172468,54.56619,-38.769707,-5.315668,-31.42882,-8.168999,-0.9975128,57.884956,-17.582027,5.0816445,-3.1707642,-5.988637,18.932085,19.997793,33.60725,-33.979027,45.609318,11.390974,4.7682357,-1.9930619,3.470913,-19.379175,9.496616,43.243286,22.2346,-1.0834353,-3.654288
119,5.095322132110596,148.94747924804688,71.36116027832031,-4.094251050675691,-3.1243544931971767,-156.96765044770086,-5.5698495,13.809028,12.832726,56.2225,-38.541092,-6.2378187,-31.295399,-8.900145,0.4494461,58.991745,-17.890635,5.171776,-2.4668992,-5.7864037,19.183418,19.815514,33.32829,-33.88596,46.0377,11.509674,5.0540648,-1.6732777,1.9156932,-19.88149,10.019878,43.430443,22.181408,-1.099543,-3.527874
120,5.098425388336182,150.0363006591797,71.22063446044922,-4.114360846089464,-3.293282396089626,-157.27263711181075,-6.377064,15.005085,12.452568,57.540596,-38.238277,-7.195296,-31.092615,-9.697793,1.7880121,59.936718,-18.112968,5.1601377,-1.8549643,-5.581449,19.372503,19.71832,33.026497,-33.769325,46.430992,11.552537,5.289506,-1.3905802,0.46084505,-20.412546,10.583285,43.462963,22.067263,-1.0878866,-3.357349
121,5.074815273284912,151.12078857421875,71.10771942138672,-4.134815943390676,-3.46392066221299,-157.551944959483,-7.0574393,16.159763,12.010683,58.538734,-37.849934,-8.19918,-30.82249,-10.556451,3.0323536,60.734825,-18.25872,5.014382,-1.3269353,-5.3746214,19.498648,19.721172,32.706173,-33.611603,46.786903,11.493652,5.4700403,-1.1461416,-0.9043392,-20.97245,11.214942,43.35497,21.887949,-1.0483452,-3.1514132
122,5.044074535369873,152.20066833496094,71.02479553222656,-4.156831217377195,-3.6401453716159997,-157.8341156484567,-7.6312814,17.287338,11.526641,59.29448,-37.32922,-9.23641,-30.476791,-11.437411,4.2230334,61.36982,-18.314384,4.8062143,-0.85421455,-5.164899,19.567097,19.81899,32.369953,-33.41642,47.1065,11.33795,5.613994,-0.91364235,-2.202753,-21.56457,11.935638,43.14035,21.682465,-0.99229825,-2.9259763
123,4.998587131500244,153.2863006591797,70.97029113769531,-4.162015157420319,-3.8071856719324613,-158.09078014078582,-8.075227,18.352823,11.043866,59.72362,-36.741245,-10.280668,-30.066904,-12.395477,5.296172,61.82678,-18.271002,4.5528927,-0.45754084,-4.9679947,19.57963,19.974314,32.025818,-33.2325,47.39243,11.1410885,5.7170377,-0.7081274,-3.387735,-22.161798,12.642175,42.7666,21.411854,-0.91828525,-2.65397
124,4.923407077789307,154.37127685546875,70.9529037475586,-4.131900662766991,-3.9503617188669704,-158.29379817245797,-8.363716,19.32516,10.610195,59.740063,-36.14743,-11.302677,-29.602827,-13.482966,6.1866665,62.089252,-18.11803,4.271243,-0.14761302,-4.8051405,19.538858,20.139328,31.689577,-33.11854,47.655807,10.954609,5.7763853,-0.5434941,-4.4072986,-22.725475,13.214665,42.184658,21.026463,-0.8281003,-2.311034
125,4.8284912109375,155.468505859375,70.96776580810547,-4.045231843589116,-4.067998380944091,-158.44503106679096,-8.448787,20.181894,10.264247,59.261894,-35.599087,-12.294172,-29.09098,-14.727885,6.909393,62.16178,-17.865826,3.9553163,0.07942612,-4.7094173,19.436295,20.328608,31.378462,-33.087498,47.884277,10.753686,5.7800083,-0.40742704,-5.252549,-23.238726,13.61289,41.373222,20.474995,-0.72414607,-1.8560157
126,4.7079877853393555,156.57705688476562,71.01842498779297,-3.9164809776300413,-4.167303325606135,-158.55651465431126,-8.353808,20.952827,9.981716,58.358055,-35.051014,-13.263634,-28.524843,-16.097935,7.482622,62.05525,-17.517982,3.5998096,0.23807432,-4.6719675,19.275707,20.561232,31.10232,-33.113785,48.067596,10.518253,5.7347803,-0.29880857,-5.9456654,-23.70631,13.883899,40.369026,19.784431,-0.612508,-1.3160627
127,4.571359157562256,157.70303344726562,71.08941650390625,-3.7822173620868704,-4.246576777548715,-158.615006650473,-8.164752,21.685001,9.711662,57.17342,-34.420296,-14.208099,-27.891481,-17.55634,7.844309,61.76268,-17.05278,3.2227106,0.3332515,-4.652776,19.076788,20.802847,30.86546,-33.19074,48.21984,10.312562,5.6668525,-0.24801579,-6.482996,-24.12524,14.038357,39.21482,19.019695,-0.500612,-0.77039266
128,4.416572093963623,158.8416748046875,71.19120025634766,-3.627300912858939,-4.291752133867403,-158.58665349431863,-7.982385,22.328207,9.401814,55.82878,-33.607075,-15.000033,-27.197767,-19.128159,7.963778,61.292297,-16.456219,2.8604193,0.35108817,-4.663079,18.848307,21.008488,30.669184,-33.318356,48.36465,10.1979065,5.602591,-0.2841485,-6.8621364,-24.486765,14.085193,37.95515,18.246487,-0.39307135,-0.29900968
129,4.2649455070495605,159.9735565185547,71.31935119628906,-3.3783058946567084,-4.276266426319649,-158.4100784087074,-7.871177,22.675707,9.024118,54.309784,-32.595497,-15.000033,-26.455101,-20.95709,7.8156004,60.641434,-15.667413,2.530586,0.22757237,-4.775596,18.567493,21.169418,30.516556,-33.510685,48.51258,10.195346,5.54072,-0.4482599,-7.0702734,-24.779476,13.987911,36.55407,17.410915,-0.28034812,0.10296723
130,4.086786270141602,161.12225341796875,71.48480987548828,-3.159735947225686,-4.240540790079491,-158.1592560271653,-7.730844,23.028273,8.608813,52.602974,-31.464655,-15.000033,-25.59659,-22.858612,7.340648,59.8006,-14.708033,2.1754866,0.02896039,-4.873125,18.256289,21.31286,30.409817,-33.761963,48.645992,10.268818,5.4707766,-0.7132158,-7.1180034,-25.00521,13.753528,35.01408,16.499384,-0.16446978,0.46902764
131,3.8900070190429688,162.29124450683594,71.68107604980469,-2.9485053232422778,-4.195626255727958,-157.88198811607973,-7.5299077,23.369207,8.188452,50.716618,-30.160187,-15.000033,-24.64494,-24.749313,6.6612897,58.809,-13.704277,1.8399078,-0.18352824,-4.972435,17.932983,21.44283,30.346392,-34.03737,48.754208,10.398159,5.4034395,-1.0065213,-7.0295963,-25.170269,13.454243,33.42249,15.636393,-0.06259033,0.75964904
132,3.686681032180786,163.47793579101562,71.89979553222656,-2.722322591332395,-4.152043114593702,-157.62585494236708,-7.2338095,23.68535,7.794731,48.657017,-28.633726,-15.000033,-23.62717,-26.545677,5.9043617,57.696804,-12.779914,1.5694597,-0.35254523,-5.0909233,17.61518,21.566853,30.319363,-34.295547,48.826435,10.567557,5.349369,-1.2555988,-6.841657,-25.284044,13.170862,31.87529,14.95115,0.010562535,0.9339027
133,3.4676241874694824,164.67926025390625,72.14445495605469,-2.477043659966443,-4.1192510464420025,-157.37894354860737,-6.823657,23.961273,7.4167323,46.390663,-26.878502,-15.000033,-22.5122,-28.276266,5.017118,56.44713,-11.940618,1.3589282,-0.49367106,-5.2336783,17.31437,21.678926,30.324556,-34.532463,48.862595,10.81262,5.314772,-1.4827806,-6.543827,-25.343042,12.901463,30.34839,14.47421,0.0569457,0.95550597
134,3.242185354232788,165.8937530517578,72.40296936035156,-2.224679710602572,-4.089719004668414,-157.12529635398693,-6.317508,24.21362,7.0434756,43.92518,-24.920067,-15.000033,-21.285418,-29.953398,3.9474154,55.061604,-11.133555,1.1956916,-0.6334639,-5.3883705,17.018747,21.779333,30.356426,-34.76067,48.870823,11.132474,5.2916284,-1.7122842,-6.1345716,-25.348658,12.620777,28.811611,14.143953,0.08699052,0.85238814
135,3.005871534347534,167.13539123535156,72.66929626464844,-1.9680645427401897,-4.04817432892992,-156.9066691098851,-5.740352,24.478107,6.7077603,41.335255,-22.75961,-15.000033,-20.018658,-31.482594,2.8449957,53.59663,-10.38465,1.1141562,-0.7409815,-5.5479455,16.708193,21.889324,30.400282,-34.95892,48.856018,11.456326,5.270141,-1.8743958,-5.6669974,-25.319126,12.383771,27.352697,13.947844,0.09839785,0.6782031
136,2.7602145671844482,168.38180541992188,72.94307708740234,-1.7088788280455915,-3.9780235377556044,-156.7636176097034,-5.12138,24.78756,6.445491,38.6954,-20.396479,-15.000033,-18.797096,-32.780094,1.875337,52.104515,-9.719651,1.1449889,-0.74484426,-5.707955,16.369425,21.99674,30.468536,-35.149998,48.830097,11.699451,5.243201,-1.8979396,-5.151199,-25.262482,12.185811,26.035215,13.856761,0.08861063,0.4962052
137,2.498694896697998,169.6516876220703,73.2193832397461,-1.4328667773505372,-3.876402497535922,-156.71136361019367,-4.4139867,25.115347,6.2899733,35.917282,-17.785994,-15.000033,-17.630188,-33.84333,1.083785,50.547752,-9.197026,1.3115655,-0.67211366,-5.8799286,15.98846,22.139498,30.541115,-35.3076,48.78804,11.866685,5.213707,-1.7174126,-4.6162324,-25.1867,12.0911455,24.900515,13.908584,0.03337067,0.28139204
138,2.233175754547119,170.93551635742188,73.49053955078125,-1.1445412641820976,-3.7502680440487355,-156.72644419366236,-3.6285682,25.45701,6.216921,33.0099,-14.948196,-15.000033,-16.489838,-34.71538,0.39748234,48.91457,-8.786961,1.5882657,-0.54973465,-6.052146,15.576059,22.29348,30.594202,-35.437046,48.748863,11.996509,5.183385,-1.3842014,-4.0399466,-25.109718,12.080125,23.896114,14.111147,-0.058512427,0.014767375
139,1.9590016603469849,172.22653198242188,73.75634002685547,-0.8719832045684052,-3.5961498668695233,-156.79068348467393,-2.8944623,25.873737,6.1796966,30.20652,-11.978093,-15.000033,-15.411567,-35.395546,-0.18222886,47.28428,-8.378863,1.9272752,-0.374778,-6.20643,15.141692,22.452845,30.634674,-35.510098,48.697357,12.079778,5.1434164,-1.0092765,-3.449449,-25.038042,12.129944,23.012266,14.410491,-0.14102116,-0.24849969
140,1.6897727251052856,173.5291748046875,74.001953125,-0.6428785714833671,-3.4105231760921972,-156.88501437944186,-2.3562465,26.422405,6.129661,27.759203,-8.976927,-15.000033,-14.433049,-35.882637,-0.64952946,45.740643,-7.8655667,2.2793653,-0.16426572,-6.3377237,14.689326,22.650625,30.685,-35.465706,48.58793,12.111054,5.0851007,-0.7064313,-2.9080088,-24.954449,12.249797,22.27457,14.749571,-0.17250025,-0.45765364
141,1.4160358905792236,174.85060119628906,74.22978973388672,-0.4378686285835841,-3.1713493457669895,-157.0023264801901,-2.0583117,27.069324,6.062784,25.681957,-5.7903852,-15.000033,-13.5814085,-36.20592,-0.9944304,44.26892,-7.268288,2.658152,0.05705477,-6.4439645,14.201148,22.901667,30.723463,-35.25909,48.39883,12.106107,5.003008,-0.4985062,-2.4072115,-24.89971,12.468879,21.687145,15.179017,-0.14170384,-0.6286292
142,1.1321053504943848,176.1800079345703,74.44055938720703,-0.25314405259145023,-2.8862400402952777,-157.1527075791314,-1.9605097,27.793129,5.9981318,23.900894,-2.4412022,-15.000033,-12.839695,-36.36462,-1.2053214,42.834724,-6.6331816,3.0723546,0.312395,-6.521486,13.681786,23.170319,30.741491,-34.949326,48.169456,12.058031,4.901844,-0.3260808,-1.8997056,-24.880035,12.759789,21.22161,15.709955,-0.07037718,-0.7776921
143,0.8481388688087463,177.51951599121094,74.61883544921875,-0.14251955222370744,-2.595948186005847,-157.34107278621462,-2.124788,28.662952,5.861441,22.619926,0.6430667,-15.000033,-12.178811,-36.308823,-1.2729111,41.49472,-5.892061,3.4693737,0.576731,-6.5453734,13.168409,23.498852,30.74618,-34.526554,47.88717,11.964513,4.783753,-0.19106872,-1.4534919,-24.897867,13.150558,20.860817,16.280273,0.03765554,-0.86396486
144,0.5634852647781372,178.8817138671875,74.76795959472656,-0.16235561089865566,-2.3403361001444964,-157.57352193632687,-2.5498545,29.768028,5.6282597,21.929514,3.115625,-15.000033,-11.576444,-35.97669,-1.1811385,40.31484,-4.976584,3.8013308,0.8769782,-6.4643345,12.70439,23.849497,30.734674,-34.06512,47.592934,11.803773,4.651072,-0.08943098,-1.0645735,-24.974482,13.59531,20.531227,16.822838,0.18484019,-0.83438164
145,0.2636047899723053,180.28021240234375,74.88623046875,-0.39929841826082635,-2.1291534957612175,-157.87470310190596,-3.3675687,31.220707,5.0559697,22.011454,4.95929,-15.000033,-11.080505,-35.28071,-0.9692181,39.39833,-3.7457054,3.7702134,1.2597094,-6.1878023,12.292661,24.210588,30.702917,-33.57126,47.28826,11.559646,4.5092387,-0.02112669,-0.7066064,-25.127504,14.087615,20.210138,17.337538,0.40353882,-0.66589385
146,-0.04660176485776901,181.7091064453125,74.9679183959961,-0.8303453088701174,-1.9377801851339502,-158.23749223156292,-4.5706234,32.971912,4.159329,22.764091,6.349155,-15.000033,-10.690403,-34.244884,-0.6398525,38.678703,-2.2656279,3.4986343,1.7130527,-5.7269597,11.904744,24.582094,30.648243,-33.035038,46.96549,11.241344,4.35555,0.0129231615,-0.3715818,-25.357975,14.631478,19.919512,17.855759,0.68676275,-0.38628587
147,-0.3512856364250183,183.14370727539062,74.98881530761719,-1.333338143816018,-1.7630994575555958,-158.62466350415946,-5.8842874,34.854694,3.3398232,23.801735,7.2083483,-15.000033,-10.291762,-32.98873,-0.09874906,37.946632,-0.7806399,3.5787904,2.1681535,-5.200595,11.546983,24.9684,30.573992,-32.482155,46.63286,10.870536,4.180316,0.012267138,-0.103883035,-25.658909,15.22008,19.661411,18.361135,0.9774158,-0.020541193
148,-0.6096338629722595,184.5352325439453,74.94164276123047,-1.3183756307604229,-1.529555853667304,-158.8436191444737,-7.054091,36.162685,3.6235335,24.669115,7.4683394,-13.350373,-9.851066,-32.22273,0.90461934,36.98722,0.45386893,4.753076,2.411051,-5.195285,11.189553,25.351826,30.494385,-31.94235,46.3199,10.462987,3.9715338,-0.02515919,0.05343867,-26.005766,15.84472,19.437275,18.83671,1.2163111,0.40358445
149,-0.8414446115493774,185.93423461914062,74.85467529296875,-1.196524503787366,-1.307581919886536,-159.04075256503913,-7.776308,37.53394,5.0254602,25.226889,6.8142066,-11.632728,-9.13457,-31.390533,2.3404324,35.660923,1.5452604,7.311304,2.5809467,-5.311878,10.867687,25.788795,30.417713,-31.397507,45.984104,9.96709,3.7097416,-0.09794854,0.07567482,-26.398855,16.524357,19.25014,19.252617,1.4095573,0.9491993
150,-1.0616493225097656,187.34408569335938,74.72949981689453,-1.0863915016554808,-1.1172349404364699,-159.26068515326858,-8.120665,39.055164,7.07875,25.606743,5.406228,-10.425658,-8.198448,-30.38154,4.117613,34.102856,2.5172267,10.81853,2.7349617,-5.434918,10.596434,26.278078,30.344793,-30.835093,45.613644,9.391406,3.4082413,-0.20895618,-0.022044456,-26.839386,17.2609,19.104008,19.624367,1.5826993,1.6080742
151,-1.2791801691055298,188.79432678222656,74.53811645507812,-0.981205856048668,-0.9829138684459846,-159.49815654754707,-8.250807,40.500324,9.13122,25.992647,3.7007725,-9.517312,-7.196568,-29.270706,6.034059,32.49727,2.9547606,14.561266,2.8803372,-5.556479,10.438622,26.740074,30.276236,-30.302645,45.254482,8.840496,3.1099834,-0.36093107,-0.22567238,-27.307821,18.005735,19.018032,19.990446,1.7046171,2.2573032
152,-1.4911900758743286,190.31927490234375,74.31046295166016,-1.5435254461639745,-0.9104550705927796,-159.88833253976227,-8.449072,42.516632,10.294699,26.462616,2.2751095,-8.830179,-6.275123,-27.376055,6.945287,30.90953,2.6000454,15.000033,3.1603725,-5.021634,10.399524,27.081617,30.201754,-29.868355,44.96348,8.418379,2.8595755,-0.5513571,-0.51238656,-27.780882,18.692879,19.02261,20.379557,1.7392268,2.7794895
153,-1.6842265129089355,191.84664916992188,74.04601287841797,-2.0773782637120775,-0.9611959778631997,-160.2520275479306,-8.730132,44.225307,10.590695,27.21153,1.1112193,-8.052064,-5.3596907,-25.318293,8.071775,29.243624,1.0740129,15.000033,3.4146385,-4.511465,10.571525,27.296595,30.137648,-29.52133,44.759823,8.134873,2.6412666,-0.7970213,-0.86929196,-28.233461,19.30906,19.083952,20.790524,1.6622304,3.180936
154,-1.8436474800109863,193.35165405273438,73.75963592529297,-2.5279479230270767,-1.120498706284167,-160.58198154479945,-9.011037,45.65107,10.363333,28.171597,-0.033074945,-7.2932568,-4.398228,-23.175398,9.545149,27.505259,-1.39462,15.000033,3.6332207,-4.089879,10.9275255,27.434307,30.097218,-29.231483,44.606762,7.940936,2.4411666,-1.0918688,-1.3167754,-28.659,19.882034,19.21512,21.201702,1.49494,3.5138297
155,-1.9696533679962158,194.8246307373047,73.4728775024414,-2.840969854077278,-1.3507909266876832,-160.88751735708652,-9.34706,46.671177,9.6630125,29.36777,-1.2530481,-6.5436077,-3.6020896,-21.21009,10.986535,26.148182,-4.3254824,15.000033,3.827011,-3.7931867,11.448887,27.479795,30.073954,-29.013792,44.49943,7.853295,2.2989576,-1.3988117,-1.8737475,-29.055996,20.430943,19.481455,21.624952,1.2772144,3.718187
156,-2.056455373764038,196.2730712890625,73.17662048339844,-3.010960686899034,-1.602922107105908,-161.19911632492227,-9.80118,47.22323,8.537369,30.827084,-2.637531,-5.8123136,-3.2290587,-19.607622,11.912273,25.63666,-7.19561,15.000033,4.023018,-3.6049066,12.100175,27.404127,30.045006,-28.89036,44.45126,7.8928857,2.2536275,-1.6781046,-2.5603628,-29.429592,20.975243,19.951351,22.072123,1.0479721,3.7346127
157,-2.089111089706421,197.69020080566406,72.87201690673828,-3.045820795945284,-1.9016683990280407,-161.52602479236904,-10.450416,47.23913,6.7365074,32.682407,-4.2870502,-5.046098,-3.4343584,-18.431253,11.903939,26.281355,-10.018278,15.000033,4.2216754,-3.4993005,12.951509,27.1503,29.991594,-28.87502,44.504704,8.094016,2.3146052,-1.933725,-3.429475,-29.787888,21.530523,20.635534,22.652885,0.777,3.4873633
158,-2.0582456588745117,199.0734100341797,72.57711029052734,-2.9884639385018508,-2.249606834067,-161.86996686577606,-11.277996,46.783886,4.314113,34.97471,-6.150811,-4.2864065,-4.1109905,-17.51681,11.218647,27.795424,-12.990416,15.000033,4.4178295,-3.4398835,13.981844,26.73382,29.90645,-28.956432,44.66247,8.441354,2.4588664,-2.1789715,-4.4510655,-30.130342,22.087656,21.493555,23.3251,0.45186177,3.029762
159,-1.9723422527313232,200.40830993652344,72.29359436035156,-2.9045331227036706,-2.5651415788021916,-162.25143802606817,-12.17052,46.035236,1.7991247,37.532593,-8.076654,-3.685105,-5.0706725,-16.682623,10.3443775,29.653952,-15.81757,15.000033,4.6323423,-3.3769417,15.016416,26.229292,29.780685,-29.123642,44.88646,8.877879,2.676744,-2.3878927,-5.5271378,-30.449818,22.63259,22.5238,23.873154,0.1417677,2.4930122
160,-1.8729530572891235,201.708984375,72.04277801513672,-2.8578770392160764,-2.762599717304292,-162.69565253651115,-13.027906,45.212696,-0.28959206,40.151333,-9.910045,-3.37979,-6.122105,-15.735068,9.78734,31.343077,-18.21281,15.000033,4.8912005,-3.2646713,15.874171,25.711428,29.604866,-29.366732,45.140697,9.346735,2.9594772,-2.5341995,-6.5668364,-30.737898,23.152414,23.736782,24.082474,-0.07813143,2.0051339
161,-1.795319676399231,202.95033264160156,71.83785247802734,-2.89770604096296,-2.7915408995377566,-163.2761796104142,-13.8386545,44.40398,-1.9109756,42.808777,-11.634066,-3.5269625,-7.287812,-14.558354,9.694402,32.7647,-20.112411,15.000033,5.2634053,-3.0574236,16.483467,25.172039,29.368486,-29.726873,45.46115,9.853666,3.3510022,-2.5662115,-7.613785,-30.994492,23.700893,25.252623,23.898111,-0.1951417,1.5690548
162,-1.732352614402771,204.15603637695312,71.67530822753906,-2.9842680732303366,-2.7079846552228535,-163.9582371896535,-14.650148,43.503365,-3.2807972,45.609985,-13.344131,-4.0134544,-8.605455,-13.27267,9.77585,34.150864,-21.65699,15.000033,5.7103486,-2.7869372,16.944435,24.57839,29.066301,-30.192436,45.861748,10.424831,3.8416944,-2.5139494,-8.704972,-31.220148,24.275354,27.03816,23.43633,-0.24109742,1.1244766
163,-1.6904007196426392,205.32395935058594,71.57103729248047,-3.0478335825239915,-2.5790174657725373,-164.6110359942458,-15.453633,42.479015,-4.288883,48.482235,-15.028557,-4.5534854,-9.931085,-12.027112,9.898791,35.50479,-22.86976,15.000033,6.1054454,-2.5289667,17.327599,23.968618,28.703636,-30.67893,46.27407,11.029006,4.3423486,-2.472496,-9.720028,-31.408077,24.767092,28.863,22.72597,-0.20264407,0.7040431
164,-1.6436285972595215,206.46524047851562,71.5296401977539,-3.015821670783873,-2.4697676144647875,-165.10302868924495,-16.224882,41.301773,-4.836696,51.313824,-16.64202,-4.8564425,-11.141044,-10.97214,9.945293,36.828373,-23.768862,15.000033,6.327342,-2.362618,17.706907,23.388027,28.296675,-31.099472,46.618862,11.63734,4.762181,-2.5364223,-10.542406,-31.550333,25.06332,30.50821,21.797516,-0.06994006,0.34370974
165,-1.5848941802978516,207.57022094726562,71.55178833007812,-2.84223463592806,-2.392364877115445,-165.39749973847324,-16.983973,39.953644,-4.8704233,54.124886,-18.162598,-4.7962565,-12.304769,-10.162992,9.949505,38.277447,-24.294094,15.000033,6.338209,-2.3367975,18.122292,22.864944,27.853539,-31.41084,46.844025,12.306067,5.092242,-2.762788,-11.17238,-31.637888,25.113674,31.970013,20.426092,0.22154617,0.088637635
166,-1.50998854637146,208.6106719970703,71.64456939697266,-2.573842294397275,-2.312380134422154,-165.56535445882056,-17.714314,38.48197,-4.4599514,56.902172,-19.584532,-4.529296,-13.457848,-9.502583,9.972381,39.787266,-24.453133,15.000033,6.210455,-2.408793,18.527557,22.382593,27.380138,-31.662922,46.987247,13.027824,5.3732567,-3.0922241,-11.666312,-31.670998,24.983349,33.36208,18.671453,0.6450568,-0.08022191
167,-1.448608160018921,209.59286499023438,71.82244873046875,-2.2764794755942517,-2.2257754286610507,-165.6368243550991,-18.339954,36.95113,-3.7029305,59.471252,-20.872337,-4.1886272,-14.442907,-8.939052,9.926129,41.02371,-24.33867,15.000033,5.989356,-2.5192819,18.86924,21.917122,26.894865,-31.911667,47.099846,13.673612,5.590155,-3.4426804,-11.981313,-31.660059,24.726006,34.63218,16.986546,1.0711284,-0.2316117
168,-1.4126428365707397,210.52516174316406,72.07035064697266,-2.015486965130517,-2.128860050080063,-165.6419615380826,-18.793686,35.41386,-2.6960912,61.658703,-21.994337,-3.9125798,-15.113116,-8.424867,9.728882,41.675007,-24.0647,15.000033,5.7252655,-2.6071048,19.098038,21.445333,26.424572,-32.216415,47.22324,14.111949,5.731555,-3.7323077,-12.068379,-31.624208,24.388561,35.716396,15.831061,1.3730292,-0.44786963
169,-1.3910030126571655,211.43093872070312,72.36817169189453,-1.7992739446173394,-2.021600076377667,-165.54132316482972,-19.104883,33.86749,-1.4185716,63.451996,-22.943592,-3.6696854,-15.382495,-8.008346,9.305192,41.597355,-23.662683,15.000033,5.400864,-2.6514392,19.19782,20.95155,25.987461,-32.638958,47.362896,14.262207,5.7822695,-3.9398181,-11.854236,-31.573828,23.911364,36.578373,15.324992,1.5008284,-0.780032
170,-1.3931617736816406,212.3290252685547,72.72328186035156,-1.5951888283151205,-1.9075169457593542,-165.33457794923336,-19.299603,32.290775,0.15227486,64.9118,-23.726469,-3.405427,-15.359684,-7.70527,8.722859,40.991463,-23.073887,15.000033,5.015563,-2.6843705,19.203728,20.455809,25.58839,-33.143124,47.475197,14.2033,5.755609,-4.11036,-11.365288,-31.513496,23.272932,37.233334,15.232434,1.5254936,-1.1802839
171,-1.4043909311294556,213.22080993652344,73.13343048095703,-1.4068459612704094,-1.7866011054172695,-165.11083458979442,-19.327639,30.690737,1.9171966,65.98746,-24.326422,-3.2308066,-15.186954,-7.4340143,8.111807,40.06259,-22.28219,15.000033,4.6339383,-2.7240324,19.142279,19.991304,25.232063,-33.635582,47.5281,14.041196,5.6843324,-4.2629924,-10.675976,-31.451517,22.567814,37.669586,15.46055,1.5020173,-1.5895857
172,-1.4209473133087158,214.08877563476562,73.589111328125,-1.2392315746647435,-1.6574114321490157,-164.96003079156952,-19.154394,29.067389,3.772633,66.63106,-24.725418,-3.260448,-14.999899,-7.0995207,7.5979934,39.00976,-21.273623,15.000033,4.3146505,-2.7888625,19.038292,19.597017,24.92193,-34.01312,47.48517,13.886504,5.600237,-4.417067,-9.880421,-31.396107,21.909904,37.891693,15.926943,1.4859178,-1.9490292
173,-1.4321519136428833,214.94285583496094,74.08279418945312,-1.093720116589769,-1.5032291641390154,-164.90985141459709,-18.775007,27.414963,5.7884874,66.78883,-24.913933,-3.544195,-14.79195,-6.679156,7.189507,37.785137,-20.041836,15.000033,4.0881815,-2.881857,18.864939,19.28135,24.661856,-34.245415,47.315765,13.78077,5.5028152,-4.6109505,-8.963553,-31.354551,21.325123,37.861675,16.800032,1.4841719,-2.276442
174,-1.450014352798462,215.7900848388672,74.60426330566406,-0.9698941808201609,-1.3290164436149463,-164.9129963129479,-18.241247,25.712818,7.9623156,66.48478,-24.895151,-4.0186467,-14.498208,-6.211732,6.819178,36.31981,-18.606386,15.000033,3.9138677,-2.99059,18.621237,19.03188,24.453276,-34.380436,47.034256,13.663483,5.3780966,-4.825198,-7.885769,-31.322975,20.763079,37.581882,18.065346,1.4646217,-2.59205
175,-1.4699337482452393,216.6392059326172,75.15164947509766,-0.9352998621559645,-1.166296304531153,-164.96052155887784,-17.62551,24.022758,10.037619,65.81316,-24.680199,-4.6538363,-14.131623,-5.573196,6.465241,34.715065,-16.952051,14.596918,3.7540553,-3.0513396,18.364239,18.852728,24.293533,-34.433018,46.67887,13.490023,5.237904,-4.99025,-6.721847,-31.288948,20.232063,37.13858,19.366062,1.4294467,-2.8409743
176,-1.4978424310684204,217.49728393554688,75.72608947753906,-1.0002052950493943,-1.0454168632874383,-165.03112385053487,-16.978273,22.346891,11.807193,64.8728,-24.285109,-5.394952,-13.733296,-4.768421,6.13857,33.106937,-15.081315,13.8477,3.5518322,-3.0572207,18.149757,18.75431,24.176006,-34.408665,46.289127,13.218635,5.093307,-5.0365233,-5.563955,-31.232794,19.751114,36.63472,20.341743,1.385636,-2.9709384
177,-1.5231637954711914,218.35330200195312,76.30899810791016,-1.082777894851945,-0.9802886522625655,-165.10877129809305,-16.238329,20.535614,13.298564,63.574886,-23.662054,-6.2801337,-13.347456,-3.9349267,5.8867097,31.603848,-12.970034,13.073557,3.2787163,-3.1015944,17.998377,18.768398,24.091387,-34.237144,45.85592,12.838693,4.9336624,-4.9154916,-4.425847,-31.139858,19.331818,36.067234,20.888556,1.3286135,-2.9196866
178,-1.535094976425171,219.19432067871094,76.8896713256836,-1.1861238001581864,-0.9517079532274523,-165.20376220259774,-15.408684,18.614187,14.590086,61.897522,-22.830645,-7.307093,-12.954094,-3.0694706,5.686141,30.129667,-10.636226,12.27981,2.9563525,-3.1806152,17.872757,18.880703,24.037964,-33.92944,45.37348,12.375913,4.7558746,-4.6732807,-3.2953925,-31.005943,18.984652,35.425816,21.199787,1.2590941,-2.7339437
179,-1.5458781719207764,220.02212524414062,77.46915435791016,-1.2893878923198976,-0.9362398528854764,-165.3026450928731,-14.56418,16.656813,15.676234,59.984905,-21.879175,-8.301642,-12.569749,-2.2123969,5.5440936,28.675005,-8.223033,11.678103,2.5743551,-3.2953954,17.747465,19.033195,24.0232,-33.616283,44.887077,11.840784,4.5825477,-4.382867,-2.2033446,-30.827002,18.708832,34.782597,21.348085,1.1931181,-2.5258276
180,-1.5536633729934692,220.84024047851562,78.02967071533203,-1.3674596311947602,-0.9111703994653806,-165.39231535662674,-13.763397,14.7366705,16.569317,57.98567,-20.885427,-9.094058,-12.20202,-1.4027051,5.491682,27.215153,-5.8645506,11.484819,2.1293561,-3.4507573,17.599089,19.166418,24.060877,-33.43566,44.440353,11.240803,4.4372826,-4.1164184,-1.1784513,-30.602186,18.495607,34.209743,21.407326,1.1464996,-2.4070182
181,-1.555439829826355,221.6513214111328,78.56305694580078,-1.4182910920619047,-0.8650105490828419,-165.46458122678368,-12.997412,12.829323,17.238829,55.876534,-19.846636,-9.642018,-11.846222,-0.615623,5.5688305,25.708391,-3.47875,11.785438,1.5966527,-3.6552277,17.4183,19.28487,24.16209,-33.429203,44.048576,10.452819,4.327744,-3.816042,-0.2129741,-30.328558,18.350037,33.701694,21.30251,1.1138098,-2.4156504
182,-1.558557391166687,222.4500732421875,79.0610580444336,-1.4478186809417037,-0.8124622562837557,-165.5272883082314,-12.21278,10.916491,17.699417,53.601624,-18.723621,-10.031185,-11.49193,0.15901883,5.787724,24.16885,-1.0298533,12.466559,0.9922673,-3.9111671,17.218884,19.4178,24.330204,-33.52612,43.67752,9.511507,4.2381525,-3.4694257,0.70981705,-30.007656,18.262754,33.225094,21.022943,1.0892746,-2.4896896
183,-1.5670616626739502,223.2465057373047,79.51988983154297,-1.4399547522264442,-0.7701852536209763,-165.59065609881065,-11.391596,9.067036,18.047115,51.254173,-17.526276,-10.291665,-11.121492,0.8600373,6.14537,22.629934,1.2863235,13.444815,0.37403554,-4.214088,17.01442,19.543194,24.56717,-33.698555,43.294155,8.659675,4.1629395,-3.217255,1.5912218,-29.6458,18.195261,32.792797,20.738117,1.0888247,-2.589325
184,-1.5814833641052246,224.04112243652344,79.93661499023438,-1.3809120914607391,-0.7540651058130177,-165.6649829343213,-10.526787,7.3445697,18.379807,48.942024,-16.268316,-10.459868,-10.73201,1.4310999,6.6209483,21.158424,3.267644,14.625413,-0.196397,-4.555378,16.820341,19.632393,24.872982,-33.92498,42.8683,8.139641,4.102474,-3.199827,2.4374595,-29.252647,18.104485,32.412132,20.619022,1.1284927,-2.6735716
185,-1.6030969619750977,224.84820556640625,80.29619598388672,-1.3351350252655176,-0.7827327837024425,-165.75564683251716,-9.614966,5.867875,18.674696,46.749718,-14.948541,-10.55207,-10.134922,2.0410206,7.137017,19.40504,5.091135,15.000033,-0.7171125,-4.8839135,16.643398,19.672482,25.25749,-34.25258,42.394535,8.092054,4.082265,-3.505871,3.279632,-28.83149,17.983904,32.063095,20.733475,1.2253361,-2.7619784
186,-1.6325757503509521,225.67523193359375,80.59676361083984,-1.3430926166889101,-0.8598393576757111,-165.86073892398832,-8.661381,4.642257,18.887793,44.69813,-13.611097,-10.572323,-9.298355,2.695494,7.678424,17.298088,6.88226,15.000033,-1.204353,-5.164572,16.495485,19.682272,25.726551,-34.680634,41.87734,8.360238,4.0945935,-4.04429,4.1197343,-28.381989,17.84616,31.731321,20.984478,1.3678255,-2.8661118
187,-1.6495816707611084,226.4912872314453,80.84882354736328,-1.3110477188953167,-0.9555890769926463,-165.9810272553382,-7.669736,3.4975338,19.092028,42.70195,-12.284386,-10.540156,-8.585609,3.1344564,8.059723,15.541657,8.267482,15.000033,-1.6315238,-5.470594,16.374098,19.672827,26.263609,-35.11593,41.310307,8.742006,4.0921106,-4.684403,4.9054055,-27.91217,17.684282,31.44743,21.298428,1.5279231,-2.9323642
188,-1.647417426109314,227.29505920410156,81.06336975097656,-1.2976269747774525,-1.0436539254844708,-166.1443218773172,-6.70029,2.4711678,19.291187,40.80729,-11.062438,-10.520459,-8.276396,3.2903428,7.957444,14.641109,8.987147,15.000033,-1.951751,-5.7211485,16.280535,19.648804,26.836012,-35.462475,40.701717,9.036843,4.030843,-5.2938495,5.5798154,-27.434376,17.497513,31.245102,21.602835,1.6786155,-2.9057474
189,-1.6215351819992065,228.0646514892578,81.2442398071289,-1.3323657699142704,-1.117710718999484,-166.36346736295087,-5.734011,1.6351721,19.57135,38.992447,-9.974739,-10.521219,-8.54026,3.0887296,7.1174374,14.957548,8.802241,15.000033,-2.1498013,-5.8637447,16.207968,19.568356,27.420874,-35.73061,40.067795,9.281961,3.8823454,-5.931038,6.142166,-26.95587,17.258795,31.127827,21.92348,1.8358103,-2.739187
190,-1.577992558479309,228.8191375732422,81.38221740722656,-1.392319702384815,-1.1934388704854344,-166.61991360773033,-4.7501845,0.95670176,19.8986,37.246887,-8.970464,-10.518385,-9.177381,2.5778794,5.770728,16.131647,7.8592873,15.000033,-2.2583792,-5.9313016,16.158283,19.422726,28.010098,-35.964615,39.43207,9.5562935,3.6728046,-6.6316557,6.615113,-26.478842,16.983511,31.081518,22.2868,2.0089579,-2.4723418
191,-1.5269213914871216,229.55584716796875,81.46154022216797,-1.471785055663989,-1.2744451025777392,-166.8977265767048,-3.8181417,0.3499151,20.089874,35.648766,-8.026354,-10.527989,-9.936171,1.906092,4.3102465,17.615717,6.48051,15.000033,-2.3027995,-5.9576454,16.141947,19.270384,28.58853,-36.112507,38.820442,9.725006,3.4471755,-7.228989,6.9668255,-26.012016,16.741743,31.125648,22.621552,2.160024,-2.179812
192,-1.4641920328140259,230.2954864501953,81.4774169921875,-1.591834020153524,-1.3540361304009196,-167.19240569314377,-3.0322232,-0.22013615,19.963097,34.314426,-7.136371,-10.565495,-10.597338,1.2983234,3.1078947,18.859524,5.0736103,15.000033,-2.3073564,-5.9481916,16.159708,19.17521,29.134974,-36.112625,38.26018,9.656371,3.253048,-7.558211,7.157455,-25.566586,16.6134,31.284882,22.86053,2.2487583,-1.9370018
193,-1.4025975465774536,231.03701782226562,81.43914031982422,-1.7874971749820239,-1.426650120496139,-167.5171323088705,-2.4276836,-0.75257087,19.4045,33.264927,-6.212832,-10.891395,-11.134639,0.86175877,2.2359352,19.74717,3.6906438,15.000033,-2.2675924,-5.8644586,16.212713,19.147568,29.627193,-35.919117,37.780323,9.267084,3.0837448,-7.5505576,7.164652,-25.15301,16.620367,31.5822,22.999222,2.2508729,-1.7600765
194,-1.3427366018295288,231.7879638671875,81.34526824951172,-2.105144942646505,-1.5010419596333353,-167.8876238242649,-1.9946764,-1.113669,18.524345,32.570038,-5.3562694,-11.434631,-11.610894,0.5647007,1.3882751,20.453247,2.2238789,14.512653,-2.1691535,-5.650052,16.299774,19.153852,30.055195,-35.563896,37.382896,8.651616,2.9177969,-7.302557,7.0081115,-24.774008,16.73205,32.00249,23.075174,2.1919951,-1.6115016
195,-1.2804863452911377,232.5463104248047,81.19923400878906,-2.484376510293599,-1.5726658747690168,-168.2883437569423,-1.7214887,-1.2901205,17.515202,32.26403,-4.75615,-11.671994,-12.091845,0.3258904,0.5683528,21.11452,0.7521253,13.629021,-2.0337183,-5.3736663,16.398497,19.184656,30.41917,-35.109417,37.057053,7.941919,2.78147,-6.897,6.7105417,-24.428684,16.94146,32.51774,23.082972,2.104822,-1.484529
196,-1.2168821096420288,233.31175231933594,81.01068878173828,-2.844791261166733,-1.6376718027040031,-168.695821070511,-1.5809387,-1.3035264,16.576979,32.333897,-4.5659003,-11.06605,-12.636537,0.016679747,-0.1792168,21.865427,-0.65530044,12.735894,-1.888397,-5.1222534,16.489107,19.236275,30.726194,-34.616116,36.780876,7.2705584,2.703577,-6.4157853,6.294185,-24.113169,17.241161,33.098946,23.016165,2.0219283,-1.3725814
197,-1.1558057069778442,234.0717315673828,80.77739715576172,-3.176792468040089,-1.6886059375020304,-169.11278403103842,-1.6864749,-1.1636215,15.665081,33.024754,-4.7464743,-9.054771,-13.2532625,-0.35968673,-0.8011349,22.693783,-2.0091314,11.812541,-1.7267067,-4.9115486,16.565239,19.327171,30.977003,-34.067165,36.553436,6.6179466,2.696046,-5.7994556,5.7469625,-23.823576,17.65236,33.772717,22.859304,1.9401296,-1.2803475
198,-1.1036591529846191,234.8412322998047,80.4958267211914,-3.5024197779375905,-1.727805605849744,-169.54431524184457,-2.01634,-0.9060831,14.719144,34.238148,-5.20147,-6.0438175,-13.926463,-0.7713336,-1.2932458,23.563692,-3.3493817,10.883809,-1.5414261,-4.7140594,16.635729,19.451952,31.169249,-33.44171,36.38234,5.9309406,2.7377472,-5.03037,5.064126,-23.558361,18.1671,34.542,22.620134,1.8457882,-1.2098291
199,-1.0468567609786987,235.6238555908203,80.15692901611328,-3.829358352648704,-1.7707146905835998,-169.98088532006457,-2.3632593,-0.5205464,13.878685,35.516136,-6.064861,-2.9708853,-14.6341095,-1.2500182,-1.779946,24.492844,-4.6087418,9.973352,-1.3452984,-4.514776,16.71165,19.566225,31.312311,-32.80261,36.256474,5.2842903,2.814146,-4.2527127,4.285161,-23.31446,18.730618,35.337357,22.32581,1.7562287,-1.1496463
200,-0.9959487915039062,236.41714477539062,79.7643051147461,-4.155928393995665,-1.8331356396403393,-170.41357649647156,-2.5042944,0.00875226,13.255686,36.382412,-7.5045733,-0.7856082,-15.356217,-1.8416573,-2.3820071,25.508987,-5.7314563,9.1059885,-1.1438378,-4.307182,16.806461,19.621399,31.424828,-32.220547,36.16297,4.7498255,2.9157207,-3.6105125,3.4555345,-23.089487,19.279795,36.085766,22.0013,1.6891872,-1.087105
201,-0.9313713908195496,237.20440673828125,79.31903839111328,-4.496738502484272,-1.9282610650010608,-170.85689413475063,-2.287677,0.7609036,12.920183,36.5717,-9.8148985,0.17556752,-16.07617,-2.572088,-3.178704,26.62256,-6.658089,8.270551,-0.9183305,-4.076974,16.92697,19.628902,31.520065,-31.70465,36.07434,4.3115816,3.0773833,-3.1160939,2.5625377,-22.88941,19.831223,36.79326,21.633028,1.6556005,-1.0244113
202,-0.8537092208862305,237.984130859375,78.84368896484375,-4.840376620536716,-2.0442427074065224,-171.30856574855582,-1.8542644,1.7072676,12.801731,36.34744,-12.822757,0.40953737,-16.804565,-3.4312086,-4.090026,27.81809,-7.4393034,7.4535766,-0.6679598,-3.838398,17.068394,19.612059,31.602163,-31.22399,35.98778,3.938023,3.2958028,-2.7015104,1.599795,-22.714468,20.398006,37.477932,21.214693,1.6447672,-0.964868
203,-0.7703580260276794,238.76100158691406,78.3407211303711,-5.1446489998581955,-2.1586435600780933,-171.73632604316532,-1.424778,2.7207735,12.806466,36.056774,-16.020617,0.23217957,-17.567043,-4.4128394,-4.9932284,29.095453,-8.185588,6.6782074,-0.41986477,-3.6311443,17.227482,19.539837,31.679861,-30.789501,35.92775,3.6796536,3.5087268,-2.3908749,0.6222808,-22.550995,20.907415,38.089863,20.777208,1.6402543,-0.8970933
204,-0.679583728313446,239.53692626953125,77.81433868408203,-5.368973660518838,-2.248768591287775,-172.1099008471418,-1.2228153,3.667554,12.807382,36.08386,-18.932512,0.0057536494,-18.39122,-5.5031085,-5.761183,30.448944,-9.000005,5.971994,-0.19174016,-3.4955885,17.401846,19.373983,31.766924,-30.42175,35.924,3.585236,3.6541266,-2.2081637,-0.3145815,-22.379917,21.278704,38.584877,20.346836,1.6248155,-0.8098893
205,-0.5806761980056763,240.3249053955078,77.27533721923828,-5.498119944820491,-2.320093688378843,-172.44873705624846,-1.2726555,4.52252,12.802201,36.50946,-21.540855,-0.21572727,-19.305073,-6.7317924,-6.4148436,31.916025,-9.934197,5.321542,0.0351849,-3.4523752,17.605686,19.114109,31.879322,-30.126307,35.95157,3.7132454,3.7105286,-2.2027347,-1.2268097,-22.191109,21.488956,38.952232,19.904299,1.5977142,-0.68279195
206,-0.47447770833969116,241.12916564941406,76.72504425048828,-5.553516470810368,-2.3797134610534503,-172.76060447610917,-1.4648758,5.361459,12.862418,37.154705,-24.073479,-0.5901083,-20.288027,-8.097446,-6.9937115,33.47923,-10.918764,4.7172604,0.27102944,-3.48576,17.837242,18.784996,32.025864,-29.893702,35.992226,4.019852,3.714804,-2.3480515,-2.1373198,-21.986006,21.572123,39.225468,19.437922,1.5640295,-0.5282622
207,-0.3709147572517395,241.9400177001953,76.17859649658203,-5.552703728782401,-2.409178815118899,-172.99876872183472,-1.8231087,6.19105,12.9259,38.02686,-26.446157,-1.0476446,-21.301416,-9.524807,-7.4008636,35.052284,-11.869319,4.1954875,0.4858155,-3.5769684,18.071533,18.384323,32.206585,-29.722206,36.087364,4.400084,3.6917243,-2.5543656,-2.9931796,-21.76058,21.53117,39.419724,18.983784,1.5167359,-0.38444248
208,-0.27871161699295044,242.77793884277344,75.63970947265625,-5.514342114459455,-2.389963427888441,-173.1164014768567,-2.372671,7.015558,12.921346,39.129593,-28.570847,-1.5227628,-22.311977,-10.932783,-7.5454617,36.555027,-12.701089,3.7942476,0.6499667,-3.7060592,18.281376,17.900038,32.41566,-29.616064,36.28956,4.748014,3.6669278,-2.7315474,-3.7437813,-21.508633,21.370182,39.555065,18.57572,1.4492412,-0.2891816
209,-0.179471954703331,243.62542724609375,75.111572265625,-5.418492107039899,-2.2846669552280483,-173.07036493109453,-3.1937575,7.820686,12.847723,40.527187,-30.443104,-1.9865214,-23.37625,-12.332053,-7.370975,38.009388,-13.390148,3.5296674,0.7271801,-3.8956726,18.444063,17.303152,32.65215,-29.591291,36.63081,5.0764694,3.6188223,-2.8676085,-4.3783174,-21.218872,21.05816,39.61273,18.199099,1.3544488,-0.26572448
210,-0.10023360699415207,244.48175048828125,74.60980224609375,-5.262659067347275,-2.115001574348088,-172.89562790768932,-4.249767,8.604063,12.724841,42.2005,-32.11033,-2.475488,-24.500502,-13.742081,-6.934224,39.444744,-13.976139,3.382989,0.74373585,-4.150547,18.5773,16.601965,32.91707,-29.64637,37.08335,5.4255896,3.543292,-3.0054069,-4.931439,-20.890219,20.604918,39.60349,17.840305,1.2372165,-0.28984517
211,-0.031496498733758926,245.3402099609375,74.13285064697266,-5.094970999163172,-1.951014956589028,-172.66197212711666,-5.389071,9.387415,12.508995,44.016037,-33.552513,-3.0246065,-25.570791,-15.092596,-6.327768,40.78827,-14.467418,3.3404562,0.7592566,-4.417796,18.714388,15.849489,33.2004,-29.747948,37.60371,5.740407,3.493143,-3.1384015,-5.4193416,-20.536142,20.082195,39.586838,17.538172,1.1100582,-0.32786736
212,0.026341894641518593,246.2056121826172,73.67931365966797,-4.967470182358838,-1.861595983412783,-172.44006489974728,-6.460573,10.195595,12.159838,45.83828,-34.74658,-3.6687894,-26.469244,-16.317488,-5.6537714,41.969395,-14.874481,3.387429,0.8289449,-4.6382937,18.889235,15.099516,33.484173,-29.857935,38.153015,5.9688683,3.5206532,-3.261002,-5.857109,-20.178234,19.568598,39.615646,17.335497,0.9865374,-0.34593
213,0.07280184328556061,247.06394958496094,73.25696563720703,-4.887827333210044,-1.8643603004761222,-172.2104231076118,-7.487017,11.013649,11.6069145,47.73019,-35.63847,-4.437779,-27.156416,-17.415724,-4.9160004,42.983356,-15.221388,3.5575545,0.9495494,-4.7921357,19.125406,14.321523,33.751366,-29.994726,38.769745,6.033649,3.6509507,-3.3872113,-6.2100554,-19.822933,19.027716,39.669003,17.249317,0.86464894,-0.33993667
214,0.09570915997028351,247.92337036132812,72.86961364746094,-4.833932145408833,-1.9222811560508561,-171.94864320954576,-8.530591,11.828715,10.883312,49.72572,-36.255817,-5.303496,-27.694431,-18.412928,-4.0829005,43.868515,-15.499706,3.8486168,1.0940008,-4.901265,19.399052,13.488067,33.994926,-30.173155,39.47575,5.9856067,3.8517702,-3.5139022,-6.4810963,-19.470697,18.444017,39.723248,17.259056,0.74081844,-0.32500672
215,0.09761473536491394,248.7854461669922,72.51421356201172,-4.813428989377128,-2.0218158251695977,-171.71794132215243,-9.499697,12.674221,10.109633,51.64823,-36.69558,-6.218674,-28.118355,-19.294617,-3.2058153,44.623222,-15.673884,4.189521,1.2765114,-4.96941,19.672754,12.674563,34.212067,-30.335112,40.19631,5.9741797,4.0889363,-3.611767,-6.7398944,-19.138048,17.933418,39.82336,17.35516,0.6256783,-0.29678944
216,0.07301804423332214,249.6521453857422,72.19454193115234,-4.83399891900784,-2.149087458573185,-171.5816200579178,-10.298531,13.589305,9.413116,53.316948,-37.05098,-7.139443,-28.465384,-20.046873,-2.3326404,45.24684,-15.707013,4.508013,1.5010738,-5.0008197,19.91033,11.96564,34.4043,-30.41192,40.85069,6.1456537,4.327463,-3.65422,-7.0570736,-18.849337,17.622448,40.00981,17.531475,0.5303524,-0.25180593
217,0.03616628795862198,250.5114288330078,71.90763092041016,-4.911997291246657,-2.3191406152022545,-171.58192467424857,-10.88348,14.613778,8.836147,54.712788,-37.32214,-8.067347,-28.722338,-20.622967,-1.4534103,45.721592,-15.57952,4.8085146,1.8004673,-4.9745283,20.119534,11.3870325,34.566856,-30.366438,41.43057,6.632644,4.569343,-3.6561658,-7.4519854,-18.621708,17.575062,40.313717,17.888731,0.46131352,-0.20712507
218,-0.013178043998777866,251.37936401367188,71.65721893310547,-5.039786698470225,-2.532979144690716,-171.67645811990946,-11.306257,15.718458,8.311769,55.918125,-37.467453,-9.02614,-28.873692,-21.04496,-0.5560722,46.058727,-15.316927,5.1215525,2.1498623,-4.8888865,20.314358,10.90499,34.69627,-30.225897,41.967766,7.3289785,4.8286986,-3.6286826,-7.8851833,-18.454262,17.728518,40.696194,18.405367,0.413364,-0.15828092
219,-0.07347644120454788,252.2498779296875,71.4302749633789,-5.188514933616176,-2.755796985551099,-171.80131017878594,-11.610999,16.844683,7.8081694,56.898838,-37.524017,-10.005888,-28.95873,-21.405252,0.3189209,46.302643,-14.949936,5.412727,2.4758077,-4.777528,20.469463,10.519904,34.801277,-30.020493,42.433933,8.028974,5.0907984,-3.5383995,-8.332091,-18.340311,18.008867,41.08837,18.891293,0.38023177,-0.06907681
220,-0.1550682634115219,253.13941955566406,71.2299575805664,-5.329377631799979,-2.9523936885634012,-171.89292796293893,-11.845566,17.935863,7.292893,57.62336,-37.529903,-10.994315,-29.01804,-21.791588,1.1328508,46.496605,-14.506944,5.64708,2.706216,-4.678645,20.56218,10.233809,34.900032,-29.782911,42.794445,8.521169,5.3414655,-3.3499072,-8.768534,-18.269747,18.340164,41.421448,19.15489,0.35533357,0.096409746
221,-0.24309991300106049,254.04400634765625,71.05398559570312,-5.460066222730247,-3.118701993596988,-171.96096107966295,-12.011727,18.99421,6.7626715,58.09403,-37.501217,-11.990737,-29.076332,-22.212746,1.894229,46.657063,-13.98929,5.789735,2.8402438,-4.604007,20.5814,10.076463,35.00818,-29.501467,43.009365,8.767934,5.6050267,-3.0147114,-9.223405,-18.243387,18.769487,41.720684,19.145432,0.3394918,0.3693245
222,-0.35690778493881226,254.95352172851562,70.90591430664062,-5.594071168130544,-3.271664653030179,-172.03051216757257,-12.085799,20.04723,6.2365527,58.32498,-37.415226,-12.998492,-29.107542,-22.62691,2.6170423,46.75988,-13.382671,5.86729,2.9131663,-4.5379167,20.544287,10.046126,35.130657,-29.1651,43.090115,8.867798,5.880445,-2.56479,-9.697008,-18.26036,19.310999,42.00549,18.963108,0.33398837,0.72386307
223,-0.48326897621154785,255.88011169433594,70.78545379638672,-5.7256774850968695,-3.4078241285661757,-172.06155325684276,-12.08286,21.078115,5.7109556,58.30559,-37.25254,-14.009426,-29.081093,-23.053278,3.2747211,46.790543,-12.69411,5.938066,2.915235,-4.4793577,20.469849,10.103624,35.269466,-28.802883,43.073246,8.826801,6.114739,-2.0837817,-10.121826,-18.30562,19.832117,42.20259,18.642355,0.33185616,1.1107988
224,-0.6199593544006348,256.81842041015625,70.69952392578125,-5.806841461708131,-3.5133956510910687,-171.99803963030985,-12.024284,22.004477,5.1881332,58.00634,-36.98144,-14.996711,-28.988562,-23.56424,3.8691568,46.74566,-11.9355955,6.073911,2.8280158,-4.4716043,20.369999,10.193975,35.42646,-28.459213,43.00848,8.648952,6.2549653,-1.6541936,-10.423258,-18.357477,20.187788,42.238094,18.211376,0.32586962,1.4807816
225,-0.7566186785697937,257.755615234375,70.65309143066406,-5.703754149215136,-3.559497701919224,-171.77420946435083,-11.929823,22.475668,4.6651363,57.35326,-36.587418,-15.000033,-28.876122,-24.352667,4.474838,46.625244,-11.087921,6.3413186,2.5956352,-4.6457243,20.225815,10.294248,35.60889,-28.157589,42.91168,8.2585,6.266533,-1.2857825,-10.591317,-18.403868,20.345604,42.093483,17.566236,0.30776975,1.8580647
226,-0.9079959988594055,258.7181701660156,70.63616943359375,-5.594684516498652,-3.589567567438281,-171.4809419183836,-11.753041,22.917631,4.1399493,56.42558,-36.12391,-15.000033,-28.67161,-25.176172,4.990418,46.40551,-10.14471,6.6462417,2.2964246,-4.8335505,20.050064,10.43579,35.82005,-27.878424,42.755013,7.6780167,6.182915,-0.9386079,-10.66324,-18.447357,20.372177,41.81929,16.721958,0.2785332,2.2563286
227,-1.0759910345077515,259.69976806640625,70.65599060058594,-5.478036112869957,-3.60051438914705,-171.1385592779534,-11.525173,23.33137,3.6016355,55.290344,-35.540165,-15.000033,-28.396643,-26.000998,5.441203,46.11325,-9.149592,6.973133,1.9568809,-5.0328274,19.851412,10.6163025,36.05611,-27.613052,42.54874,7.0502677,6.0523376,-0.621205,-10.63288,-18.484102,20.27135,41.439423,15.884243,0.24863163,2.6074612
228,-1.2573091983795166,260.6974182128906,70.71078491210938,-5.3516213084543995,-3.589128797630106,-170.7670912577348,-11.27551,23.718012,3.0433824,54.00992,-34.782124,-15.000033,-28.069687,-26.792397,5.850788,45.769985,-8.144167,7.306361,1.6060598,-5.241659,19.637108,10.826182,36.30939,-27.358677,42.312225,6.518013,5.925151,-0.33918992,-10.501724,-18.509644,20.047903,40.987476,15.261479,0.23204222,2.8442006
229,-1.4435840845108032,261.7154541015625,70.79414367675781,-5.220053236386762,-3.550004040174068,-170.3472681851164,-11.033457,24.070793,2.429185,52.603123,-33.84912,-15.000033,-27.683502,-27.556026,6.214329,45.37922,-7.1169257,7.6433363,1.2238563,-5.454469,19.406569,11.067947,36.57383,-27.100039,42.045372,6.1020455,5.788815,-0.09570258,-10.25797,-18.516033,19.666487,40.444008,14.893825,0.23243271,2.9358828
230,-1.640842080116272,262.7575988769531,70.9057388305664,-5.08285917400799,-3.4871043091226115,-169.87753481419597,-10.774558,24.393717,1.7733538,51.03249,-32.764862,-15.000033,-27.22968,-28.301908,6.5201025,44.93448,-6.05574,7.9918017,0.8031643,-5.672303,19.154642,11.341172,36.8488,-26.843987,41.748016,5.732688,5.6263285,0.11381725,-9.910823,-18.500568,19.140564,39.808933,14.675602,0.2449398,2.9225032
231,-1.8495168685913086,263.8157043457031,71.0429458618164,-4.929817480903252,-3.411172519523997,-169.40424664175623,-10.448207,24.704298,1.1449757,49.281967,-31.50962,-15.000033,-26.726852,-29.014885,6.7852507,44.43897,-4.999318,8.3536005,0.39051032,-5.903606,18.881615,11.630663,37.133358,-26.620615,41.440514,5.416807,5.4820104,0.2967504,-9.48602,-18.469196,18.543472,39.137966,14.589403,0.27340123,2.8429055
232,-2.066417932510376,264.88153076171875,71.20111083984375,-4.751040827562466,-3.332815796640816,-168.97326349423665,-9.999317,25.021872,0.6155196,47.327656,-30.065807,-15.000033,-26.19471,-29.677553,7.026339,43.896824,-3.9868588,8.729899,0.03259619,-6.155721,18.588327,11.924537,37.42433,-26.4571,41.13975,5.165495,5.3998055,0.46080247,-9.005796,-18.43296,17.947472,38.481205,14.618829,0.32151058,2.736156
233,-2.299139976501465,265.9698181152344,71.38500213623047,-4.541139854590308,-3.2544413704209645,-168.59645435717775,-9.392915,25.351679,0.20789255,45.13021,-28.444044,-15.000033,-25.633867,-30.297068,7.236309,43.302685,-3.0238855,9.136299,-0.26860553,-6.4291925,18.276474,12.214012,37.720833,-26.382421,40.84429,5.0021696,5.4346533,0.6098684,-8.458893,-18.396317,17.344374,37.819126,14.806116,0.39513886,2.58541
234,-2.546262741088867,267.0821838378906,71.59400939941406,-4.3068761440964165,-3.1707336901444423,-168.24936961139588,-8.659549,25.688637,-0.11712076,42.711414,-26.650177,-15.000033,-25.035809,-30.87772,7.408687,42.658546,-2.0921366,9.56611,-0.5324443,-6.716853,17.94588,12.504229,38.020504,-26.377544,40.548195,4.916979,5.549126,0.74034053,-7.8335195,-18.358807,16.70102,37.12729,15.146845,0.4907793,2.3791897
235,-2.806316375732422,268.19775390625,71.81819915771484,-4.055573128669228,-3.079196163661167,-167.92292486514782,-7.8479085,26.03691,-0.38379148,40.148582,-24.660313,-15.000033,-24.410141,-31.402811,7.563722,41.984222,-1.1981497,9.9874935,-0.75095004,-7.0156264,17.595175,12.794523,38.317257,-26.403048,40.271946,4.8627896,5.6481204,0.8489423,-7.1558094,-18.326818,16.057112,36.452084,15.554754,0.5978276,2.1638086
236,-3.070838451385498,269.3323974609375,72.05136108398438,-3.794800594150862,-2.9773433944195893,-167.6074409123887,-7.009172,26.40015,-0.6148465,37.51823,-22.448645,-15.000033,-23.765903,-31.856567,7.7205987,41.297478,-0.347154,10.36802,-0.92070144,-7.3220077,17.223394,13.08659,38.601418,-26.414764,40.03627,4.79364,5.636125,0.932103,-6.4533935,-18.309353,15.455899,35.83816,15.9439335,0.70727557,1.9853805
237,-3.3376264572143555,270.4853515625,72.28986358642578,-3.5197855578481847,-2.8702071471893063,-167.3074775392141,-6.091344,26.761467,-0.79105014,34.72604,-19.95528,-15.000033,-23.10366,-32.25392,7.864845,40.601944,0.40704468,10.669566,-1.0409412,-7.636345,16.832962,13.374005,38.868225,-26.425896,39.86508,4.733464,5.450963,0.98677015,-5.7154922,-18.304707,14.883256,35.2943,16.292727,0.8147189,1.8581516
238,-3.610865831375122,271.6557312011719,72.52251434326172,-3.228259055826484,-2.756777787927905,-167.0253033348659,-5.089662,27.131094,-0.9065416,31.774384,-17.21323,-15.000033,-22.42133,-32.59741,7.9906483,39.891357,1.0837454,10.916995,-1.1163344,-7.9597673,16.423231,13.656366,39.116116,-26.450405,39.746166,4.698684,5.155617,1.0160245,-4.936721,-18.311817,14.323867,34.798508,16.647688,0.92628086,1.7557546
239,-3.8912415504455566,272.8406066894531,72.74601745605469,-2.9309457547276034,-2.6247432840950737,-166.74714905937606,-4.143196,27.543083,-0.99969226,28.897915,-14.3358965,-15.000033,-21.727507,-32.86341,8.137878,39.170227,1.7836325,11.17532,-1.1556367,-8.289877,15.988413,13.952448,39.338123,-26.437244,39.640766,4.636315,4.8416605,1.0250441,-4.149324,-18.347614,13.82029,34.34682,17.024462,1.0494257,1.6638596
240,-4.1843695640563965,274.0265197753906,72.9580307006836,-2.6387417555147707,-2.4618925532958316,-166.45796286709253,-3.4043472,28.020485,-1.1061436,26.335405,-11.432056,-15.000033,-21.029358,-33.02449,8.347887,38.44304,2.6060185,11.511138,-1.178351,-8.621068,15.524232,14.264205,39.52578,-26.34488,39.52468,4.476652,4.600275,1.0181048,-3.3872123,-18.439344,13.426193,33.930225,17.443928,1.192039,1.5678002
