unveil-humanoid-operators/unveil-humanoid-operators.github.io/feature-analysis-animation/data/feature_matrix_instances/weight_ankle_rom_walking_A460_painful_stand_on_stop_walk_ff_360_R_001__A460.csv
Frame,root_translateX,root_translateY,root_translateZ,root_rotateX,root_rotateY,root_rotateZ,left_hip_pitch_joint_dof,left_hip_roll_joint_dof,left_hip_yaw_joint_dof,left_knee_joint_dof,left_ankle_pitch_joint_dof,left_ankle_roll_joint_dof,right_hip_pitch_joint_dof,right_hip_roll_joint_dof,right_hip_yaw_joint_dof,right_knee_joint_dof,right_ankle_pitch_joint_dof,right_ankle_roll_joint_dof,waist_yaw_joint_dof,waist_roll_joint_dof,waist_pitch_joint_dof,left_shoulder_pitch_joint_dof,left_shoulder_roll_joint_dof,left_shoulder_yaw_joint_dof,left_elbow_joint_dof,left_wrist_roll_joint_dof,left_wrist_pitch_joint_dof,left_wrist_yaw_joint_dof,right_shoulder_pitch_joint_dof,right_shoulder_roll_joint_dof,right_shoulder_yaw_joint_dof,right_elbow_joint_dof,right_wrist_roll_joint_dof,right_wrist_pitch_joint_dof,right_wrist_yaw_joint_dof
0,0.05764741078019142,-2.1503963470458984,78.79330444335938,1.081026967524608,-1.347976934934867,88.5713683960516,1.3972132,-0.03833494,-0.9360394,8.769918,-11.357784,-1.2297342,1.9299847,-5.5683084,-11.825743,11.415338,-10.43725,5.2487245,-2.1798751,-1.3600656,6.9006495,4.7524214,10.073346,-10.461527,61.740475,8.841667,5.565558,5.9101987,-1.0731605,-11.522482,21.580399,64.55134,-26.039705,-0.7860136,-6.751296
1,0.0549623928964138,-2.143965482711792,78.79122161865234,1.0814200364572804,-1.3833558754941373,88.56659493688818,1.4388428,-0.040191647,-0.93182665,8.781518,-11.3706255,-1.2268227,1.9635929,-5.57216,-11.817726,11.438892,-10.456302,5.246109,-2.2054162,-1.4025326,6.9244304,4.8275433,10.060855,-10.598802,61.76637,9.001061,5.727753,6.029058,-1.0962824,-11.506684,21.506845,64.49135,-26.107435,-0.76697636,-6.7726674
2,0.05143165588378906,-2.1418356895446777,78.78871154785156,1.0818430635699947,-1.4191120445090266,88.5618460058204,1.4799315,-0.04184615,-0.9277227,8.795065,-11.38373,-1.2238959,1.9982902,-5.575477,-11.809676,11.460989,-10.474401,5.2426853,-2.2049341,-1.4329563,6.9403048,4.868486,10.022398,-10.780555,61.832222,9.160294,5.898463,6.1698933,-1.1183991,-11.481764,21.39689,64.45305,-26.198,-0.74329525,-6.7990365
3,0.050702884793281555,-2.1307010650634766,78.78580474853516,1.0828510610696689,-1.454360172678382,88.55706015780919,1.5209038,-0.04355821,-0.9234953,8.808167,-11.398386,-1.2209173,2.033059,-5.5788302,-11.802022,11.482029,-10.492263,5.240941,-2.1974468,-1.4547651,6.9494796,4.8924527,9.959131,-10.95121,61.928986,9.316822,6.0576944,6.3092823,-1.1475272,-11.451204,21.279224,64.43234,-26.277683,-0.7243281,-6.832571
4,0.04671495780348778,-2.123441219329834,78.78364562988281,1.0825633578577856,-1.48807464131187,88.55236331034473,1.5626199,-0.045416415,-0.91883403,8.817309,-11.415072,-1.2179272,2.068904,-5.58204,-11.795384,11.498608,-10.5086975,5.243295,-2.1996934,-1.4769596,6.9571195,4.926418,9.890895,-11.058475,62.03043,9.463241,6.184675,6.4161587,-1.179286,-11.426212,21.181593,64.40571,-26.309284,-0.72138107,-6.870784
5,0.043240565806627274,-2.1174068450927734,78.78083801269531,1.0820800306438323,-1.5188305247501872,88.54817095703474,1.6025932,-0.047275055,-0.91409045,8.823604,-11.436633,-1.2149837,2.105684,-5.584703,-11.791144,11.508102,-10.522192,5.252169,-2.200823,-1.4955608,6.959953,4.95835,9.804802,-11.090369,62.157948,9.60645,6.2663627,6.4884715,-1.2111138,-11.402681,21.085548,64.37755,-26.267458,-0.74818856,-6.91981
6,0.03989240527153015,-2.1102242469787598,78.77909088134766,1.0809275292990659,-1.547468647061605,88.54439462562918,1.6411146,-0.048886325,-0.9094103,8.828404,-11.462116,-1.2121582,2.1432617,-5.5868745,-11.788666,11.512112,-10.533528,5.265683,-2.20668,-1.5148724,6.961928,4.9979696,9.71538,-11.062439,62.29171,9.745902,6.314984,6.531055,-1.2408936,-11.384524,20.99834,64.34014,-26.170671,-0.7965849,-6.974198
7,0.03676041588187218,-2.1030712127685547,78.77706909179688,1.0795110434809272,-1.5767691009775362,88.5399059276949,1.6822132,-0.05113185,-0.9039074,8.831315,-11.487447,-1.2093176,2.1819541,-5.5896215,-11.785271,11.516266,-10.545859,5.2797837,-2.2122502,-1.5320714,6.9622955,5.03609,9.621859,-11.020968,62.431232,9.863674,6.351798,6.5576,-1.2705108,-11.36992,20.923033,64.29908,-26.07424,-0.8414114,-7.0278854
8,0.031257692724466324,-2.0967001914978027,78.7761001586914,1.0794373459661235,-1.609540566979585,88.53347182402457,1.7271647,-0.05428913,-0.8970089,8.836538,-11.510907,-1.2063115,2.2215421,-5.5934424,-11.778602,11.526934,-10.562948,5.290353,-2.215367,-1.545772,6.961582,5.0695257,9.528472,-11.009124,62.56832,9.941256,6.397944,6.579741,-1.3013133,-11.360259,20.866066,64.25754,-26.033096,-0.85714734,-7.074878
9,0.028683871030807495,-2.090437889099121,78.77410888671875,1.0823285330738872,-1.6495249840196886,88.52320563570922,1.7817441,-0.059364773,-0.8871357,8.844,-11.532394,-1.2031718,2.2644367,-5.599411,-11.765514,11.547844,-10.588249,5.2946057,-2.2142916,-1.5699178,6.9677505,5.1159606,9.471671,-11.049375,62.670944,9.946931,6.4588485,6.584394,-1.3222569,-11.355523,20.833395,64.191345,-26.081072,-0.82963467,-7.111962
10,0.02468697540462017,-2.079911470413208,78.77130126953125,1.0853852409314109,-1.694348423874546,88.51028410619148,1.8417053,-0.06508885,-0.87499756,8.855535,-11.554631,-1.1991847,2.310268,-5.6061935,-11.748328,11.574296,-10.618738,5.2953806,-2.2008622,-1.5818372,6.9683094,5.141119,9.393613,-11.1279955,62.79807,9.90532,6.5251765,6.589885,-1.3452573,-11.352696,20.804052,64.13513,-26.19325,-0.771879,-7.1502905
11,0.020306486636400223,-2.063459634780884,78.76709747314453,1.0896936223560139,-1.7374151427676965,88.49799530679171,1.9004213,-0.07139947,-0.863645,8.864144,-11.573104,-1.1953288,2.3541126,-5.6136637,-11.731964,11.600644,-10.648242,5.2967076,-2.1887155,-1.6021669,6.971459,5.1770144,9.338494,-11.198901,62.902016,9.853543,6.58987,6.579304,-1.3624871,-11.353632,20.790316,64.06278,-26.299435,-0.7103451,-7.174993
12,0.014302377589046955,-2.0525622367858887,78.76439666748047,1.0923190518349424,-1.772357352943658,88.48974080634338,1.9467814,-0.07722908,-0.85555375,8.873695,-11.589532,-1.1904749,2.3935187,-5.620364,-11.721831,11.616303,-10.668059,5.302827,-2.1713872,-1.6126019,6.968961,5.193942,9.264349,-11.244169,63.026688,9.837985,6.645452,6.572428,-1.3796173,-11.358723,20.772758,63.998337,-26.347488,-0.67044014,-7.185152
13,0.009748590178787708,-2.0446481704711914,78.76317596435547,1.0932479686046446,-1.7951570850449028,88.486769748587,1.9772575,-0.082169406,-0.8512842,8.879956,-11.600561,-1.1838512,2.4263117,-5.6259346,-11.7203665,11.616539,-10.673336,5.317439,-2.156146,-1.6317989,6.9656634,5.2164927,9.206775,-11.233831,63.138004,9.879377,6.69155,6.551091,-1.3921043,-11.364058,20.761444,63.921387,-26.290026,-0.66231406,-7.166746
14,0.004997867159545422,-2.0355467796325684,78.7641830444336,1.0939603559501732,-1.8101418058493914,88.48708581475063,1.9966879,-0.08674738,-0.8494719,8.885932,-11.608514,-1.1759012,2.45439,-5.631132,-11.724408,11.607507,-10.669467,5.3374996,-2.1385727,-1.6526593,6.9592023,5.2351694,9.15198,-11.193071,63.24953,9.952009,6.7317243,6.5214863,-1.4027903,-11.3693695,20.754763,63.840538,-26.169775,-0.67049414,-7.128364
15,0.001988031202927232,-2.0326743125915527,78.76402282714844,1.0949243775047746,-1.822803796654895,88.48944438974932,2.0117147,-0.09099514,-0.84988695,8.893173,-11.616189,-1.1681849,2.4810603,-5.6359596,-11.730782,11.59583,-10.663726,5.3567944,-2.1320267,-1.6562877,6.946543,5.238312,9.063867,-11.134699,63.381306,10.032647,6.7654243,6.5023675,-1.426245,-11.382463,20.764204,63.782333,-26.051296,-0.68126863,-7.0902276
16,-0.0024192347191274166,-2.0268359184265137,78.76495361328125,1.095724297450463,-1.8385182345477964,88.49255816808366,2.0321078,-0.096262895,-0.8520919,8.896937,-11.623623,-1.162242,2.5080588,-5.6414776,-11.736069,11.591033,-10.66528,5.36893,-2.1212785,-1.6694622,6.9406323,5.2504125,9.009551,-11.107401,63.481613,10.06795,6.7911553,6.48065,-1.4421276,-11.393126,20.772495,63.721188,-25.997446,-0.68743414,-7.0617366
17,-0.006540208589285612,-2.021697998046875,78.76416778564453,1.097108177733954,-1.8600865260041106,88.49652282421798,2.0584617,-0.10268053,-0.8570336,8.903505,-11.635451,-1.1589528,2.5380967,-5.6478043,-11.739609,11.593928,-10.676244,5.3718367,-2.11732,-1.6724515,6.9354076,5.2536054,8.945731,-11.111696,63.583252,10.047681,6.808218,6.472759,-1.4655335,-11.411738,20.793865,63.682987,-26.05349,-0.6815259,-7.053022
18,-0.010200132615864277,-2.0181331634521484,78.76301574707031,1.0994617928775707,-1.8842431276334268,88.50174496327755,2.0888057,-0.11002593,-0.8645011,8.907966,-11.64788,-1.1573462,2.5689993,-5.6549735,-11.743069,11.60172,-10.693251,5.368933,-2.1106787,-1.6850585,6.9359813,5.2631106,8.911701,-11.140248,63.659557,9.985082,6.817003,6.461773,-1.4861231,-11.425213,20.81784,63.647087,-26.176188,-0.67260164,-7.051501
19,-0.013166258111596107,-2.0098462104797363,78.76150512695312,1.101062971640686,-1.9071234323794057,88.50792360568396,2.1164947,-0.116893545,-0.8728382,8.913493,-11.659998,-1.1562943,2.597935,-5.661404,-11.747015,11.610239,-10.7107115,5.362506,-2.1038969,-1.691381,6.935204,5.2670383,8.875192,-11.174342,63.732204,9.917856,6.819838,6.4564533,-1.505976,-11.443384,20.841854,63.618202,-26.297472,-0.6648617,-7.054111
20,-0.015575824305415154,-2.0043981075286865,78.76000213623047,1.1013129399055464,-1.9253174596576952,88.51448949533504,2.137732,-0.121792816,-0.8803532,8.919587,-11.669521,-1.1546868,2.6229177,-5.665709,-11.752116,11.614231,-10.723055,5.354863,-2.0975873,-1.6952832,6.935209,5.2770147,8.845893,-11.193584,63.78302,9.878523,6.819228,6.4496617,-1.5216247,-11.459155,20.855516,63.585644,-26.354532,-0.66501737,-7.0544925
21,-0.01987626403570175,-2.0004701614379883,78.76179504394531,1.1001436194311225,-1.9367978963597219,88.52163817142102,2.1497824,-0.12426726,-0.8865027,8.925431,-11.674244,-1.1518978,2.6410887,-5.6673617,-11.758777,11.61482,-10.729539,5.3434196,-2.0919685,-1.698741,6.935683,5.295895,8.8257065,-11.194408,63.808056,9.886768,6.81599,6.4432306,-1.5344298,-11.469174,20.85562,63.549553,-26.307734,-0.67706174,-7.0513473
22,-0.022921178489923477,-1.9969062805175781,78.76316833496094,1.095866962740274,-1.9437730921467777,88.52979259114285,2.153453,-0.12415042,-0.8925872,8.935742,-11.678199,-1.1487383,2.6559377,-5.6659837,-11.767114,11.609837,-10.730478,5.3280225,-2.0900912,-1.6887316,6.932242,5.306896,8.7943125,-11.18246,63.8355,9.926737,6.8072,6.445659,-1.547334,-11.483144,20.850586,63.519493,-26.198906,-0.6953665,-7.048762
23,-0.026410099118947983,-1.9943362474441528,78.76404571533203,1.0925037364417702,-1.9490256501181173,88.53784728864431,2.1555822,-0.123984456,-0.8982551,8.944781,-11.68116,-1.1459479,2.6694498,-5.664521,-11.77537,11.603094,-10.730028,5.3144727,-2.0872242,-1.6830355,6.929745,5.3274236,8.774582,-11.165908,63.83644,9.960562,6.7960615,6.4433565,-1.5599009,-11.4917555,20.843403,63.49371,-26.082602,-0.7152929,-7.0484037
24,-0.029707999899983406,-1.9941281080245972,78.76388549804688,1.0890164693174944,-1.955184828659511,88.54561051369627,2.1609511,-0.12450998,-0.90417933,8.950393,-11.68415,-1.1444997,2.6862667,-5.663694,-11.783141,11.59197,-10.728953,5.308493,-2.0805554,-1.6815554,6.926121,5.3456607,8.763653,-11.149443,63.82934,9.958331,6.7791615,6.432988,-1.5728059,-11.496761,20.839596,63.47757,-26.012577,-0.73072404,-7.052185
25,-0.032623931765556335,-1.9898908138275146,78.76277923583984,1.0873441138500184,-1.9638408606334268,88.55231859430621,2.1717217,-0.12660232,-0.90992546,8.953151,-11.688922,-1.1452699,2.7095768,-5.6641088,-11.789543,11.573957,-10.726662,5.3157578,-2.085103,-1.6723175,6.9243436,5.3676653,8.737575,-11.103281,63.807236,9.92169,6.758693,6.412615,-1.594124,-11.512002,20.855236,63.473827,-26.007063,-0.74098635,-7.060695
26,-0.03505712375044823,-1.9852522611618042,78.76201629638672,1.0869153681648955,-1.972709687284653,88.55797437384055,2.1863837,-0.13019364,-0.9149498,8.950072,-11.692472,-1.14753,2.7335708,-5.666299,-11.794401,11.555014,-10.725106,5.3318305,-2.0647418,-1.6738992,6.917899,5.3816867,8.731974,-11.084832,63.778786,9.83602,6.7355,6.385179,-1.601672,-11.516699,20.857635,63.474884,-26.035172,-0.7483301,-7.076961
27,-0.036210957914590836,-1.9825643301010132,78.76068115234375,1.0860935290839022,-1.981060302526585,88.5646275543783,2.199046,-0.13244002,-0.92109394,8.949121,-11.697209,-1.1498667,2.7596257,-5.6667495,-11.800703,11.53048,-10.720923,5.3473206,-2.0691857,-1.6691796,6.917328,5.4154105,8.722865,-11.032991,63.719193,9.756805,6.705897,6.35333,-1.623846,-11.527791,20.876,63.482903,-26.082872,-0.7536687,-7.089854
28,-0.03977596014738083,-1.9767426252365112,78.76240539550781,1.0838996395435818,-1.9854462463917433,88.57225625465821,2.2050161,-0.13328837,-0.92749417,8.951449,-11.702267,-1.1505318,2.777833,-5.666021,-11.807945,11.512671,-10.719019,5.352987,-2.083172,-1.660435,6.9140887,5.442399,8.714944,-10.984984,63.66531,9.683285,6.6672544,6.3296547,-1.6458106,-11.542564,20.90297,63.489555,-26.122122,-0.7533383,-7.09986
29,-0.04229970648884773,-1.9753717184066772,78.76490783691406,1.0796451449344595,-1.984202625873714,88.58238121274111,2.2021596,-0.13141604,-0.93520045,8.956011,-11.706861,-1.1486192,2.7857075,-5.662944,-11.817732,11.502498,-10.719522,5.341693,-2.0891993,-1.6490113,6.9054527,5.4536247,8.713511,-10.969484,63.622963,9.606422,6.618978,6.322704,-1.6602383,-11.549189,20.90942,63.496227,-26.163057,-0.7440339,-7.1085954
30,-0.043617554008960724,-1.9768218994140625,78.76449584960938,1.0746084285060042,-1.979723274416289,88.59372470635049,2.1958194,-0.12848692,-0.9432319,8.958768,-11.709809,-1.1450071,2.7861414,-5.659236,-11.828518,11.500049,-10.723473,5.3200774,-2.092587,-1.6371793,6.8925056,5.453002,8.713895,-10.964944,63.585587,9.535818,6.5679417,6.3244543,-1.6689925,-11.551153,20.910635,63.502842,-26.203995,-0.7283993,-7.115439
31,-0.04585558548569679,-1.9710898399353027,78.76646423339844,1.0671256825312048,-1.9735710069708117,88.60580723867747,2.182452,-0.123505905,-0.95262074,8.971492,-11.716818,-1.1415892,2.7883184,-5.6526194,-11.840987,11.48948,-10.722305,5.2988477,-2.1157045,-1.6164035,6.8870354,5.4700007,8.719158,-10.953244,63.52702,9.45752,6.49963,6.324872,-1.6952901,-11.559699,20.917505,63.518932,-26.25985,-0.71298087,-7.1188188
32,-0.04709799960255623,-1.9677784442901611,78.766357421875,1.0630800427575395,-1.9712613671342802,88.61402969820769,2.1765206,-0.1208768,-0.9595377,8.979103,-11.720628,-1.1393703,2.795531,-5.6481123,-11.849972,11.475993,-10.718973,5.2895985,-2.1304753,-1.6017456,6.8837023,5.486174,8.731168,-10.947088,63.46778,9.401474,6.436057,6.3160114,-1.7105802,-11.5710535,20.928667,63.526596,-26.304386,-0.7049242,-7.116373
33,-0.048374127596616745,-1.9636956453323364,78.76602935791016,1.0613498193274957,-1.9738937019250513,88.6183633312904,2.178345,-0.121355124,-0.96466917,8.983381,-11.721032,-1.1389455,2.8132756,-5.645526,-11.855861,11.451045,-10.709221,5.2997866,-2.1373713,-1.5924412,6.884057,5.495371,8.751318,-10.95382,63.418667,9.370557,6.3709464,6.297768,-1.7145513,-11.583915,20.939735,63.52645,-26.348673,-0.7054905,-7.109986
34,-0.04862861707806587,-1.9600259065628052,78.76798248291016,1.062204675967266,-1.9793650592684273,88.62005027704691,2.1857514,-0.12387709,-0.9685399,8.983149,-11.71762,-1.1394714,2.8360472,-5.6445265,-11.859561,11.420559,-10.695769,5.321988,-2.1372373,-1.5875283,6.8883553,5.50049,8.783856,-10.9748,63.371708,9.354722,6.3022923,6.2716937,-1.7099949,-11.598268,20.947498,63.51964,-26.393198,-0.7129169,-7.098481
35,-0.048698361963033676,-1.957572102546692,78.76887512207031,1.062440055285205,-1.9852431241488022,88.61967151897225,2.1938748,-0.12549724,-0.97091967,8.983529,-11.71552,-1.1406257,2.8593667,-5.6425724,-11.861849,11.390014,-10.681781,5.344637,-2.133516,-1.5821215,6.8908753,5.4996424,8.813014,-10.99378,63.33415,9.339247,6.2310734,6.2462707,-1.7076994,-11.607759,20.953415,63.52176,-26.437672,-0.7198928,-7.086228
36,-0.04928397387266159,-1.9550108909606934,78.76847076416016,1.0598376479515519,-1.9893275951493372,88.61765896875544,2.2003486,-0.12292903,-0.9716548,8.985849,-11.718767,-1.142102,2.8762395,-5.6378675,-11.863034,11.3686,-10.671918,5.356298,-2.1232939,-1.5815102,6.8959923,5.5055323,8.857784,-11.00337,63.282326,9.297969,6.1569505,6.2152867,-1.6948873,-11.61833,20.956182,63.507927,-26.474215,-0.7222159,-7.0690207
37,-0.049277663230895996,-1.9497036933898926,78.76678466796875,1.0533353850697218,-1.9907161813368672,88.61294304129852,2.2048395,-0.11330663,-0.9701472,8.989414,-11.729498,-1.1440686,2.886303,-5.6271906,-11.863276,11.354969,-10.664843,5.3502345,-2.1109772,-1.5720626,6.8953,5.504324,8.886064,-10.991832,63.244183,9.234066,6.0760117,6.19192,-1.6887695,-11.622956,20.95997,63.505783,-26.512602,-0.7103655,-7.052903
38,-0.050524644553661346,-1.9466463327407837,78.7677993774414,1.0425123221455042,-1.9905698509099272,88.60581965074633,2.2075012,-0.098970816,-0.96671355,8.996019,-11.746378,-1.146622,2.8914623,-5.6125956,-11.862287,11.348211,-10.660386,5.3337936,-2.0970018,-1.5614989,6.8949895,5.5062575,8.915295,-10.9655905,63.20118,9.154834,5.9896994,6.167285,-1.6804289,-11.626399,20.966808,63.498756,-26.54862,-0.690228,-7.0338287
39,-0.05031595379114151,-1.9458448886871338,78.76806640625,1.0320674431366634,-1.9903131462861974,88.5982219614207,2.210324,-0.08498975,-0.9622081,9.002309,-11.763117,-1.1491662,2.8946688,-5.598858,-11.860244,11.345386,-10.658348,5.3165517,-2.0824814,-1.5519077,6.8929024,5.5038896,8.942272,-10.932221,63.164375,9.06464,5.9063754,6.143038,-1.673177,-11.628582,20.974215,63.498196,-26.572147,-0.6741431,-7.0142145
40,-0.04874484986066818,-1.9424666166305542,78.76759338378906,1.0266802092312202,-1.9912530246874616,88.59207552633012,2.2156816,-0.07631369,-0.9575895,9.004595,-11.773059,-1.1510321,2.8994825,-5.5905247,-11.85749,11.342114,-10.657533,5.308165,-2.0610948,-1.538102,6.88515,5.4927745,8.950985,-10.915881,63.140423,8.9631815,5.838459,6.127716,-1.6649885,-11.629096,20.975113,63.51297,-26.570465,-0.67237806,-6.9987803
41,-0.047573599964380264,-1.9411518573760986,78.76667022705078,1.027529385006074,-1.9946713768030355,88.5886042324665,2.2241652,-0.07561059,-0.95301217,9.0035925,-11.774215,-1.1522511,2.9078877,-5.589893,-11.854069,11.338247,-10.659278,5.313231,-2.0639887,-1.5506266,6.894255,5.4988856,8.99441,-10.855078,63.082817,8.8549595,5.7788963,6.0827065,-1.6570951,-11.630149,20.993856,63.509212,-26.523148,-0.6998679,-6.9726357
42,-0.045115143060684204,-1.9322987794876099,78.76519012451172,1.0314833772259207,-1.9990087946372865,88.5862002674533,2.2331595,-0.07977671,-0.9476933,9.002658,-11.771237,-1.1530145,2.9172971,-5.5940766,-11.8495,11.33465,-10.66278,5.325949,-2.0545757,-1.5602432,6.8961396,5.492454,9.025414,-10.814492,63.04251,8.723085,5.731973,6.0440445,-1.6457505,-11.628657,21.001774,63.52169,-26.445038,-0.742859,-6.949603
43,-0.04450654610991478,-1.9267582893371582,78.76721954345703,1.0379511844716447,-2.0033626662200277,88.58409466439804,2.2433553,-0.08506866,-0.9424509,8.998701,-11.765771,-1.1533676,2.9261901,-5.5995493,-11.844739,11.332727,-10.667402,5.3400917,-2.0430837,-1.5709089,6.8971114,5.48136,9.0520935,-10.77869,63.008507,8.595948,5.6920195,6.011464,-1.6335825,-11.626085,21.00775,63.537846,-26.36625,-0.7882162,-6.9284377
44,-0.044164352118968964,-1.926660180091858,78.76871490478516,1.041638546385434,-2.00713135488201,88.58127966637777,2.2523007,-0.0884647,-0.93756366,8.996543,-11.763975,-1.1533784,2.9315305,-5.6034255,-11.840124,11.336021,-10.673186,5.3493576,-2.040176,-1.5856853,6.900182,5.4797096,9.083839,-10.734719,62.96236,8.500098,5.6586394,5.986106,-1.6239548,-11.621401,21.02506,63.549606,-26.313337,-0.8219512,-6.9098186
45,-0.04203777387738228,-1.9201891422271729,78.76806640625,1.0430081003808476,-2.008882357222265,88.57815219444674,2.2578747,-0.08851349,-0.9336861,8.996624,-11.76654,-1.1530825,2.9334853,-5.6040106,-11.836874,11.341252,-10.6775465,5.351411,-2.0295565,-1.5907177,6.8963685,5.4651365,9.097616,-10.711932,62.936523,8.439987,5.6320877,5.985639,-1.6133311,-11.6188965,21.03873,63.567863,-26.30609,-0.83873165,-6.8999753
46,-0.039471402764320374,-1.9192492961883545,78.76531219482422,1.0437065169698225,-2.009575985730866,88.57496904326449,2.2617044,-0.08737163,-0.93043625,8.997995,-11.771566,-1.1524972,2.9319463,-5.603675,-11.834233,11.350849,-10.6826105,5.349742,-2.0387049,-1.610776,6.8953643,5.4693065,9.133851,-10.666172,62.889027,8.408021,5.6104593,5.9844117,-1.611414,-11.610075,21.082195,63.584244,-26.314274,-0.84794426,-6.8929133
47,-0.038685429841279984,-1.9154773950576782,78.76390838623047,1.0435068053021272,-2.0109885084521,88.570505236897,2.2663121,-0.08530477,-0.9267198,9.000002,-11.778239,-1.1515203,2.9306986,-5.6022563,-11.830464,11.360786,-10.687794,5.3469872,-2.0283122,-1.6172304,6.8905153,5.4513006,9.146934,-10.6487465,62.86891,8.383441,5.5949464,5.9996,-1.599106,-11.605789,21.097904,63.601723,-26.336647,-0.85320055,-6.8870163
48,-0.037838663905858994,-1.9128779172897339,78.7631607055664,1.0432280010945645,-2.01486495542818,88.56411642967856,2.2744968,-0.0834653,-0.92200506,9.001337,-11.785424,-1.1500229,2.9314854,-5.6011834,-11.82411,11.371683,-10.69458,5.3456674,-2.0373826,-1.6371895,6.8917055,5.4544477,9.174115,-10.604081,62.825634,8.358797,5.580555,6.0013776,-1.5929826,-11.593693,21.12685,63.61575,-26.341007,-0.85914516,-6.8760195
49,-0.034154053777456284,-1.9093384742736816,78.7614974975586,1.0452496030769038,-2.0227622258261193,88.55469273629197,2.287286,-0.08242956,-0.9162853,9.004013,-11.79471,-1.1461358,2.936097,-5.600538,-11.813766,11.382589,-10.703212,5.346826,-2.0383334,-1.6542239,6.894982,5.452937,9.194696,-10.569018,62.788586,8.320876,5.5704627,6.0024652,-1.5815432,-11.5802555,21.130053,63.630497,-26.332191,-0.86825883,-6.857445
50,-0.03307751566171646,-1.9087090492248535,78.76178741455078,1.04699508898954,-2.0333186833730794,88.54323420345126,2.3027925,-0.08144145,-0.910028,9.008444,-11.806111,-1.1405826,2.9436204,-5.599827,-11.800721,11.392884,-10.712489,5.348942,-2.0372357,-1.6709609,6.900734,5.4500666,9.211557,-10.5362425,62.75365,8.280609,5.5645323,6.003357,-1.5657924,-11.564256,21.118069,63.6428,-26.319038,-0.8777086,-6.833844
51,-0.031656477600336075,-1.9063429832458496,78.76001739501953,1.0475879070656773,-2.0443455319344683,88.53044374522301,2.3186412,-0.07914486,-0.90224725,9.013411,-11.818293,-1.1370399,2.9509459,-5.5977135,-11.786703,11.403847,-10.72215,5.350784,-2.0341504,-1.6878344,6.9076266,5.447432,9.225994,-10.503012,62.718872,8.249691,5.5606823,6.0056424,-1.5503999,-11.544196,21.098682,63.655796,-26.307514,-0.8852556,-6.811381
52,-0.03140731900930405,-1.9028123617172241,78.76001739501953,1.0449441675895073,-2.053357883505552,88.51701041607119,2.3347495,-0.07306883,-0.89194435,9.013923,-11.828239,-1.1394395,2.9579,-5.5918856,-11.77356,11.408884,-10.726887,5.3510427,-2.0266812,-1.701298,6.913055,5.441885,9.234406,-10.472699,62.6892,8.236304,5.556391,6.0138,-1.5271626,-11.526706,21.081291,63.65822,-26.299433,-0.8863451,-6.7957153
53,-0.030189327895641327,-1.8980181217193604,78.75872039794922,1.038934283243287,-2.059358816807247,88.50334293239193,2.350084,-0.06158389,-0.8784138,9.008658,-11.835812,-1.1516685,2.9623425,-5.5809145,-11.762431,11.411452,-10.728815,5.348871,-2.0175016,-1.711448,6.9186296,5.4370747,9.238691,-10.433942,62.6586,8.260515,5.552837,6.0300474,-1.5067881,-11.510216,21.06697,63.65984,-26.293522,-0.88224447,-6.7881165
54,-0.0306459441781044,-1.898665189743042,78.75940704345703,1.03075326832768,-2.0636326753308616,88.48907421139566,2.3655496,-0.045862097,-0.86243457,9.000109,-11.842546,-1.1708035,2.967462,-5.5654926,-11.752384,11.407298,-10.725988,5.3449974,-2.014223,-1.7244056,6.92344,5.4354844,9.240928,-10.377836,62.627922,8.315693,5.5504475,6.052164,-1.4953585,-11.481465,21.05727,63.669853,-26.29169,-0.87211627,-6.7884216
55,-0.028801459819078445,-1.8989771604537964,78.75665283203125,1.0216234170669551,-2.0679542874651347,88.47366341590437,2.381045,-0.030352766,-0.8449156,8.991008,-11.847542,-1.1896285,2.9717953,-5.5501933,-11.741256,11.403449,-10.722387,5.3409295,-2.0111172,-1.7375469,6.9275494,5.4345393,9.238868,-10.325921,62.599525,8.367999,5.546292,6.071842,-1.4856707,-11.450499,21.051678,63.680603,-26.296871,-0.85888857,-6.7932215
56,-0.026665369048714638,-1.8956118822097778,78.75379180908203,1.0161421387748646,-2.073687367110025,88.45658468774465,2.3954856,-0.01853232,-0.8273558,8.986171,-11.850308,-1.2028533,2.97614,-5.5388193,-11.727047,11.401646,-10.719157,5.3381133,-2.0010042,-1.749643,6.9353337,5.432851,9.235569,-10.298535,62.569126,8.383507,5.53744,6.077167,-1.4567947,-11.432171,21.04237,63.66408,-26.31677,-0.8447744,-6.7958336
57,-0.025665728375315666,-1.891710638999939,78.75433349609375,1.0161985797873314,-2.081208684863805,88.43751920064494,2.4086504,-0.014071857,-0.80936235,8.98596,-11.848184,-1.2059988,2.9792407,-5.535033,-11.708325,11.404203,-10.716519,5.3378296,-1.997461,-1.7681451,6.9465322,5.4274673,9.2294035,-10.265627,62.54522,8.366154,5.516507,6.0564933,-1.441436,-11.410251,21.028753,63.65697,-26.375978,-0.8322053,-6.80104
58,-0.02545016258955002,-1.8944183588027954,78.75498962402344,1.0181765081515743,-2.0892787858543818,88.41653896785111,2.4190888,-0.013209324,-0.79052776,8.991034,-11.843242,-1.2040445,2.982142,-5.5345864,-11.686371,11.406958,-10.71279,5.3388324,-1.9919978,-1.7896409,6.959146,5.4238715,9.22177,-10.2449045,62.51973,8.31615,5.4891148,6.020962,-1.4201223,-11.38823,21.01448,63.63918,-26.454445,-0.8168842,-6.8094196
59,-0.023087454959750175,-1.8920453786849976,78.7548599243164,1.0220340395131906,-2.099321695717924,88.39524951747038,2.4323683,-0.013367382,-0.7716193,8.99425,-11.837714,-1.1997396,2.9859095,-5.5354285,-11.664002,11.412136,-10.710485,5.339479,-1.9864688,-1.8128722,6.9733315,5.417993,9.211544,-10.234928,62.49831,8.2650175,5.4638467,5.9849253,-1.4011103,-11.362345,21.000053,63.624405,-26.541458,-0.8007066,-6.818071
60,-0.023809518665075302,-1.8969172239303589,78.75532531738281,1.023483743159107,-2.1124337104430038,88.3751882644241,2.448542,-0.010423398,-0.7533339,8.999613,-11.839721,-1.1952512,2.9944234,-5.5333447,-11.644336,11.416386,-10.709921,5.3379087,-1.9797016,-1.8332267,6.985601,5.4015083,9.197621,-10.241466,62.494774,8.236214,5.447293,5.9614325,-1.3957491,-11.331172,20.989595,63.63508,-26.616024,-0.79026896,-6.822981
61,-0.022203641012310982,-1.895957589149475,78.75643157958984,1.0227291059792585,-2.131465055299972,88.3568476566564,2.4701405,-0.0037699975,-0.7363915,9.007384,-11.852617,-1.1916137,3.009094,-5.5277123,-11.628544,11.423832,-10.71423,5.332282,-1.9727432,-1.8528917,7.0083294,5.3907566,9.185824,-10.259311,62.47935,8.243179,5.44767,5.9540377,-1.374534,-11.308841,20.99056,63.62174,-26.67124,-0.7786177,-6.818034
62,-0.02203541062772274,-1.89834463596344,78.75830078125,1.0196057380307393,-2.1547846256880083,88.33926616446216,2.4968593,0.0047642286,-0.7198815,9.015226,-11.8718,-1.1869273,3.0285716,-5.52019,-11.614807,11.432332,-10.721205,5.3239985,-1.9642658,-1.8699025,7.032445,5.372795,9.173301,-10.289664,62.475903,8.269096,5.4561667,5.9548697,-1.3571917,-11.28938,20.996157,63.61842,-26.718718,-0.77192336,-6.807572
63,-0.019665950909256935,-1.8949406147003174,78.75788116455078,1.0163077381241203,-2.177725623347056,88.32239798902415,2.5221713,0.014310801,-0.7042035,9.024421,-11.892111,-1.1830902,3.0484865,-5.511478,-11.602087,11.439466,-10.727655,5.3161287,-1.9631147,-1.8871946,7.063646,5.3625717,9.162682,-10.326921,62.457016,8.302499,5.467752,5.953067,-1.3359444,-11.274787,21.007162,63.598297,-26.759504,-0.76672256,-6.790457
64,-0.01884193904697895,-1.8929773569107056,78.7568359375,1.011243521092027,-2.1947541375922306,88.30541120434557,2.542401,0.024182517,-0.6889668,9.030885,-11.906885,-1.1820141,3.0645096,-5.501793,-11.588862,11.439106,-10.728117,5.3117104,-1.9532471,-1.8990862,7.0690074,5.3334723,9.137522,-10.421344,62.47867,8.303834,5.476697,5.964897,-1.3326182,-11.2399,21.011854,63.62831,-26.79506,-0.76046747,-6.787274
65,-0.017154360190033913,-1.8963359594345093,78.75615692138672,1.0070113455462566,-2.204181758375118,88.28867166622271,2.5558324,0.03354246,-0.6750907,9.033263,-11.912073,-1.1855719,3.0742702,-5.491955,-11.575169,11.432098,-10.722433,5.31296,-1.9577512,-1.9125305,7.0747004,5.3141255,9.119372,-10.532765,62.483974,8.27178,5.4732018,5.960824,-1.33222,-11.211683,21.01837,63.646847,-26.832998,-0.7600325,-6.7771645
66,-0.016040727496147156,-1.896575689315796,78.75550842285156,1.0025408106590334,-2.2086323159435803,88.27253332063226,2.5647774,0.04318337,-0.66247207,9.033406,-11.9120035,-1.1923493,3.081672,-5.4809046,-11.561875,11.417839,-10.711673,5.317781,-1.969664,-1.9255683,7.078602,5.299634,9.10687,-10.667975,62.481937,8.215423,5.463241,5.9488273,-1.3311576,-11.188805,21.02821,63.657436,-26.867086,-0.7639721,-6.7617893
67,-0.013597526587545872,-1.899422287940979,78.75437927246094,0.9968822066696577,-2.2112662317714555,88.256014206241,2.570813,0.05360573,-0.64946115,9.034765,-11.912687,-1.1989926,3.0865297,-5.469249,-11.54812,11.403297,-10.699858,5.3228083,-1.9736563,-1.9370503,7.0763893,5.2788625,9.095658,-10.833425,62.487732,8.165921,5.459761,5.9399543,-1.3296574,-11.163203,21.030136,63.67518,-26.885818,-0.769302,-6.749662
68,-0.012884837575256824,-1.8968476057052612,78.75414276123047,0.9908092304296294,-2.215361560583072,88.23913774487615,2.5780406,0.06520354,-0.6353235,9.03623,-11.9178505,-1.2021358,3.0914483,-5.456939,-11.53416,11.391564,-10.689814,5.324815,-1.9723454,-1.947454,7.0750246,5.256162,9.086403,-11.007644,62.490627,8.165505,5.4751825,5.935743,-1.3278768,-11.134591,21.027735,63.694107,-26.874834,-0.7731726,-6.743019
69,-0.013402887620031834,-1.8969967365264893,78.75473022460938,0.9823663094226482,-2.220699382914044,88.22191515902016,2.5840845,0.07973423,-0.619633,9.041795,-11.93326,-1.1999555,3.0963624,-5.441788,-11.520739,11.381356,-10.680192,5.3224683,-1.982102,-1.9548118,7.0777025,5.243184,9.080424,-11.173205,62.475914,8.245628,5.5192847,5.9348364,-1.3315525,-11.110731,21.042665,63.70892,-26.809128,-0.7733682,-6.7400246
70,-0.012441031634807587,-1.8996555805206299,78.75301361083984,0.9726570870683846,-2.2259275366363944,88.20448228241712,2.5881703,0.09654788,-0.60302526,9.050124,-11.955066,-1.1945643,3.1003194,-5.4248214,-11.507553,11.371859,-10.670579,5.317738,-2.0007248,-1.9593287,7.0825233,5.2363935,9.07622,-11.338391,62.44904,8.380252,5.583115,5.9354095,-1.340255,-11.091278,21.06992,63.721767,-26.702574,-0.7720166,-6.7391863
71,-0.010973312892019749,-1.9039807319641113,78.75321197509766,0.9644641355574248,-2.232358805597822,88.18645923243209,2.5934112,0.11205319,-0.58571965,9.058749,-11.976302,-1.1884946,3.1037943,-5.4093924,-11.493116,11.366549,-10.663683,5.31189,-2.0081003,-1.9639515,7.083299,5.224745,9.072223,-11.518306,62.428825,8.521242,5.650373,5.9382167,-1.3441414,-11.067919,21.08754,63.738495,-26.591022,-0.7725038,-6.7441773
72,-0.009604123421013355,-1.90281081199646,78.75498962402344,0.9593425735471968,-2.2415162490563394,88.16792780489422,2.603072,0.123606384,-0.5683858,9.065693,-11.9906435,-1.1843343,3.1098154,-5.39777,-11.476586,11.363542,-10.659291,5.306181,-2.0086591,-1.9736642,7.0844607,5.214605,9.069409,-11.683215,62.40902,8.640328,5.7034407,5.9337864,-1.3454853,-11.038771,21.091913,63.758507,-26.510443,-0.77972907,-6.7530565
73,-0.009855188429355621,-1.9006513357162476,78.75733184814453,0.9593317745974763,-2.255072463161957,88.14815616573672,2.6189063,0.1284519,-0.5508167,9.071615,-11.995072,-1.1824348,3.1175597,-5.393105,-11.455946,11.369097,-10.66173,5.3002687,-2.0302107,-1.9886769,7.0956516,5.2245345,9.067884,-11.787053,62.36549,8.747362,5.735872,5.904497,-1.3465449,-11.025585,21.113043,63.764053,-26.463324,-0.7967191,-6.7627816
74,-0.008013172075152397,-1.9003255367279053,78.75811767578125,0.962510440812219,-2.2716642498999353,88.12754545854935,2.6393037,0.1288473,-0.53283024,9.07664,-11.993451,-1.1815474,3.1272097,-5.392824,-11.43247,11.379591,-10.668588,5.2936373,-2.0485678,-2.0065954,7.1078672,5.238013,9.066268,-11.879806,62.318493,8.844111,5.759065,5.8660336,-1.3428298,-11.014311,21.12873,63.76814,-26.437105,-0.8190951,-6.778691
75,-0.006587040610611439,-1.9013407230377197,78.75779724121094,0.9665887030146206,-2.28866413405666,88.10741906537031,2.660259,0.12852514,-0.5151125,9.0809555,-11.989936,-1.1817209,3.1373205,-5.393221,-11.409428,11.390286,-10.675474,5.287643,-2.0611637,-2.0242827,7.1185617,5.2525005,9.064369,-11.968314,62.27332,8.926596,5.774779,5.8303328,-1.3339075,-11.000734,21.13972,63.767925,-26.41454,-0.84602237,-6.7917924
76,-0.004194996319711208,-1.9038945436477661,78.75682830810547,0.9677272482209872,-2.3027705714602167,88.08770989281368,2.6785603,0.1317006,-0.49698016,9.083388,-11.988817,-1.1831185,3.145638,-5.390394,-11.388643,11.396841,-10.677985,5.2836823,-2.0486205,-2.0378878,7.1156645,5.2537704,9.062141,-12.082773,62.253914,8.974505,5.787,5.819019,-1.3175027,-10.977177,21.131487,63.776848,-26.381594,-0.875741,-6.800155
77,-0.002995258430019021,-1.9069916009902954,78.756103515625,0.9646321228964473,-2.314505951375911,88.07015552683008,2.6929739,0.14026274,-0.4795346,9.085772,-11.991772,-1.1866024,3.1544614,-5.382207,-11.372737,11.394887,-10.672484,5.2827196,-2.065243,-2.047618,7.130947,5.263582,9.060853,-12.117493,62.21707,9.035133,5.784927,5.807276,-1.3069578,-10.969064,21.137041,63.749798,-26.324972,-0.91964436,-6.7751102
78,-0.0011260573519393802,-1.91092848777771,78.75615692138672,0.9597845438692486,-2.3238701975877287,88.05288050486487,2.7044828,0.15168548,-0.4614484,9.087833,-11.996396,-1.1918348,3.1619005,-5.3712974,-11.358597,11.389087,-10.662624,5.2837906,-2.0560963,-2.0528245,7.125497,5.2718945,9.056986,-12.18961,62.19988,9.049997,5.779296,5.8250384,-1.2859255,-10.947247,21.131409,63.736446,-26.245779,-0.9666489,-6.749003
79,-0.00026992333005182445,-1.9112563133239746,78.75633239746094,0.9541502289963577,-2.332456774322117,88.03661964838463,2.7148232,0.16364856,-0.4442501,9.090407,-12.002702,-1.1970488,3.168461,-5.36,-11.346044,11.383891,-10.653585,5.2855096,-2.063418,-2.0566912,7.133182,5.2804317,9.055181,-12.215107,62.174908,9.076759,5.767209,5.8333716,-1.2690194,-10.93864,21.134787,63.703926,-26.181976,-1.015825,-6.7122664
80,0.0008754076552577317,-1.909531593322754,78.75596618652344,0.9503246034756853,-2.340380637366895,88.02061778564351,2.726028,0.17347737,-0.42811915,9.090464,-12.009013,-1.2005773,3.1749072,-5.350368,-11.333699,11.37849,-10.6473055,5.286438,-2.067083,-2.0600433,7.137034,5.2846746,9.053858,-12.248296,62.158398,9.099812,5.759543,5.8400707,-1.2544451,-10.931038,21.14617,63.681683,-26.154818,-1.0526513,-6.689733
81,0.002719670068472624,-1.9086638689041138,78.75537872314453,0.9490568584332666,-2.3469870786864533,88.00432864834247,2.7364287,0.1803399,-0.41268736,9.091361,-12.018465,-1.2016724,3.1790357,-5.3435655,-11.321093,11.376575,-10.647789,5.287067,-2.0620065,-2.0635223,7.129161,5.280607,9.053823,-12.308104,62.16045,9.106924,5.7575126,5.847095,-1.2424448,-10.918471,21.172825,63.679768,-26.171194,-1.0706068,-6.6931863
82,0.006125056650489569,-1.9111546277999878,78.75413513183594,0.9479506976010735,-2.3528893741981918,87.98844328349627,2.7478337,0.18563081,-0.39812583,9.090031,-12.029356,-1.2013716,3.1832542,-5.337989,-11.309271,11.373819,-10.6508,5.2878895,-2.057266,-2.0676014,7.124027,5.2721176,9.056593,-12.35987,62.165714,9.11526,5.7560863,5.848596,-1.2335467,-10.907981,21.204433,63.677975,-26.226479,-1.0789056,-6.705995
83,0.0063086384907364845,-1.9111871719360352,78.75634002685547,0.9487466652634313,-2.357922232283435,87.97318785224833,2.7580423,0.19046494,-0.38473874,9.088693,-12.039347,-1.2004747,3.1850433,-5.3331866,-11.297665,11.374813,-10.655737,5.2873945,-2.050921,-2.0716593,7.1142597,5.262849,9.062385,-12.415653,62.177128,9.115639,5.75733,5.851896,-1.2265146,-10.897785,21.243242,63.685806,-26.29306,-1.083381,-6.721309
84,0.009177729487419128,-1.91343092918396,78.75552368164062,0.9474715622118787,-2.3631975280784485,87.95964035744662,2.7656074,0.1959575,-0.3734121,9.090677,-12.047044,-1.1999521,3.186236,-5.327846,-11.286674,11.377197,-10.657896,5.28412,-2.0465384,-2.074924,7.1091976,5.253254,9.070343,-12.460371,62.18729,9.124864,5.7613916,5.854966,-1.2210065,-10.888555,21.27863,63.69434,-26.36009,-1.0925694,-6.7233143
85,0.010785124264657497,-1.9138786792755127,78.75562286376953,0.9455084044322567,-2.36805288190466,87.94804337859694,2.7698302,0.20290893,-0.36513275,9.096472,-12.051737,-1.1998886,3.1852589,-5.32137,-11.276157,11.38285,-10.656002,5.277003,-2.0433848,-2.0776691,7.1052456,5.242797,9.078508,-12.498067,62.20026,9.143365,5.7719254,5.8622174,-1.2190098,-10.881645,21.313177,63.710144,-26.419865,-1.1086466,-6.711045
86,0.012507573701441288,-1.9163827896118164,78.75518035888672,0.9426732727512295,-2.3723101604488614,87.93797721300193,2.77203,0.2105816,-0.35923672,9.102806,-12.053116,-1.1998459,3.1821005,-5.3145123,-11.266092,11.391429,-10.651997,5.2670956,-2.0413897,-2.0817628,7.099663,5.235295,9.093287,-12.535796,62.213116,9.162088,5.787847,5.8721733,-1.2180015,-10.871603,21.352957,63.732204,-26.480452,-1.1268276,-6.6918287
87,0.014643345028162003,-1.9185148477554321,78.75460052490234,0.9395086494190894,-2.3772558343240355,87.92886913971387,2.7740963,0.21776067,-0.35382578,9.110153,-12.053533,-1.1998259,3.179324,-5.3081217,-11.25651,11.400985,-10.648413,5.255887,-2.0393097,-2.0833511,7.098512,5.222709,9.105054,-12.560014,62.23063,9.186138,5.801659,5.8792353,-1.2203045,-10.865523,21.384945,63.757122,-26.551031,-1.1459553,-6.6640234
88,0.018981508910655975,-1.9227614402770996,78.7532958984375,0.937954630187974,-2.3833248887794984,87.92031687734509,2.7780359,0.22348031,-0.3471857,9.117277,-12.054429,-1.1998864,3.179242,-5.3031025,-11.247517,11.409003,-10.647193,5.2448373,-2.0373156,-2.0840676,7.097531,5.2149053,9.116633,-12.578189,62.245594,9.198477,5.8082113,5.8810654,-1.2221459,-10.860976,21.4141,63.785015,-26.627657,-1.1613345,-6.632541
89,0.020875465124845505,-1.9232203960418701,78.7544937133789,0.9382958626647596,-2.3923423000385697,87.91226015313453,2.7867641,0.2262494,-0.33795193,9.121811,-12.0540085,-1.1996827,3.182066,-5.301281,-11.238558,11.419405,-10.651796,5.2338696,-2.0345864,-2.0866427,7.097673,5.2114472,9.130382,-12.588432,62.2601,9.196673,5.8034296,5.873607,-1.2248455,-10.857429,21.440496,63.819077,-26.718985,-1.1722627,-6.594921
90,0.023303143680095673,-1.9217556715011597,78.75442504882812,0.9399955576008632,-2.4032951278197285,87.905037544534,2.797414,0.22757682,-0.32761937,9.127364,-12.053673,-1.1993402,3.1886272,-5.300669,-11.230221,11.427735,-10.6579685,5.222263,-2.0268183,-2.0842125,7.101196,5.2045617,9.136623,-12.590809,62.279423,9.192893,5.7922854,5.8624625,-1.2272229,-10.856768,21.452051,63.857014,-26.829016,-1.1808274,-6.5501146
91,0.025272052735090256,-1.920979619026184,78.75457763671875,0.9417350811326503,-2.4133445543987144,87.89825623039908,2.8080666,0.2287113,-0.3175645,9.130858,-12.052771,-1.1994791,3.194556,-5.30038,-11.222469,11.435688,-10.664861,5.2109375,-2.0289438,-2.0908785,7.102411,5.2116055,9.162839,-12.585406,62.2857,9.172481,5.776951,5.8437705,-1.2331218,-10.85511,21.483969,63.896416,-26.92051,-1.1877508,-6.503998
92,0.02583250217139721,-1.9236068725585938,78.75550079345703,0.9411941133309302,-2.4198118065981,87.89165553995475,2.814607,0.23188916,-0.3094918,9.134017,-12.052959,-1.2007266,3.1977558,-5.2976193,-11.215996,11.440244,-10.669175,5.200667,-2.0292025,-2.0950801,7.1041126,5.2216425,9.189961,-12.578686,62.282013,9.153203,5.7661524,5.8304057,-1.2364703,-10.853657,21.50663,63.92741,-26.995995,-1.1918527,-6.4618435
93,0.02728567272424698,-1.9237362146377563,78.7572021484375,0.9393906278701104,-2.4212597990210774,87.88468019581188,2.815634,0.23850115,-0.3039418,9.13649,-12.054317,-1.2036661,3.1977239,-5.291055,-11.211076,11.43901,-10.66908,5.190144,-2.024676,-2.0909839,7.098576,5.215509,9.203995,-12.577309,62.29767,9.130415,5.7585106,5.83126,-1.241819,-10.853246,21.52145,63.963715,-27.042027,-1.1922117,-6.4243116
94,0.029483355581760406,-1.926384687423706,78.75859832763672,0.9347033520252186,-2.419446788563624,87.87775562090025,2.8129804,0.24727522,-0.30002773,9.138767,-12.056924,-1.2079,3.1961133,-5.2816954,-11.207513,11.43274,-10.666014,5.1793876,-2.021188,-2.0879824,7.0900474,5.2108107,9.225699,-12.574486,62.310364,9.09955,5.7515545,5.8353887,-1.247966,-10.852548,21.538094,63.99906,-27.064259,-1.1893113,-6.3881803
95,0.032671939581632614,-1.9285063743591309,78.7605972290039,0.9307646154255997,-2.4159367277955406,87.8717331060496,2.8086028,0.25609514,-0.29726523,9.14022,-12.05967,-1.2122921,3.1935096,-5.272288,-11.204812,11.424917,-10.662029,5.171407,-2.0219655,-2.0871406,7.0820465,5.2165174,9.252381,-12.568271,62.30833,9.065188,5.7464437,5.836989,-1.2532911,-10.851664,21.559551,64.02796,-27.07705,-1.1853055,-6.3574734
96,0.035659871995449066,-1.928562879562378,78.7605972290039,0.9273437841373183,-2.4124141120052873,87.86701351770176,2.8046384,0.2633109,-0.29450363,9.139985,-12.061145,-1.2157934,3.1932278,-5.263669,-11.202368,11.412489,-10.655654,5.1690674,-2.0168436,-2.0772815,7.0714893,5.2137003,9.260911,-12.565917,62.318104,9.042906,5.7457824,5.8438683,-1.2585797,-10.851886,21.566694,64.06306,-27.11197,-1.17991,-6.341518
97,0.0371452234685421,-1.9312503337860107,78.76094818115234,0.9246588032039678,-2.408424544293646,87.86461593162137,2.8002467,0.26907107,-0.29203522,9.138881,-12.062528,-1.2182816,3.1966856,-5.2557654,-11.200621,11.3917265,-10.644834,5.176913,-2.022677,-2.0760956,7.061664,5.22384,9.287726,-12.554204,62.311123,9.021771,5.745887,5.835775,-1.268499,-10.852575,21.58941,64.09864,-27.158213,-1.1800586,-6.3401065
98,0.03967346251010895,-1.9301224946975708,78.75950622558594,0.9235171173341045,-2.403437767095382,87.86371099107366,2.795435,0.2734347,-0.28986263,9.135372,-12.062893,-1.2201208,3.20206,-5.248482,-11.199379,11.364995,-10.630838,5.192216,-2.0271308,-2.0778496,7.0528545,5.239374,9.323935,-12.542327,62.29365,9.004947,5.749407,5.8230133,-1.2734555,-10.852833,21.60769,64.12542,-27.217083,-1.1792443,-6.350313
99,0.04304136335849762,-1.9301609992980957,78.759521484375,0.922183946903213,-2.3984098692804507,87.8630182531701,2.7895021,0.2773487,-0.28779843,9.134143,-12.063875,-1.2216853,3.2060344,-5.2419157,-11.197978,11.341558,-10.618621,5.2066126,-2.0223303,-2.0686948,7.037376,5.234132,9.335298,-12.538647,62.308567,8.994131,5.7532654,5.8204303,-1.2791872,-10.853462,21.611618,64.16419,-27.281782,-1.1760942,-6.3693423
100,0.046429697424173355,-1.930057406425476,78.75892639160156,0.9206390325062815,-2.3946345890665572,87.86179739426818,2.7852192,0.2818081,-0.28635913,9.133267,-12.063747,-1.2235976,3.2082794,-5.2354436,-11.196606,11.325484,-10.610824,5.211443,-2.023921,-2.067467,7.0297117,5.2435946,9.362503,-12.522061,62.30428,8.978711,5.750619,5.802529,-1.2869915,-10.854738,21.621504,64.19321,-27.327562,-1.1785324,-6.379975
101,0.0482322983443737,-1.9309390783309937,78.75772857666016,0.9181143546691084,-2.390712786415587,87.85844331672226,2.779755,0.28675163,-0.28427583,9.136482,-12.06354,-1.2251941,3.2028143,-5.22981,-11.193087,11.325305,-10.611911,5.20052,-2.021977,-2.0730226,7.0270705,5.26409,9.4072485,-12.501037,62.286663,8.963125,5.7416644,5.774607,-1.2870885,-10.854288,21.626976,64.20753,-27.363293,-1.1805874,-6.386136
102,0.05079668387770653,-1.931013584136963,78.75890350341797,0.9165708031521667,-2.3867019008071675,87.85385637706652,2.7752588,0.29206538,-0.2819681,9.138825,-12.061396,-1.226441,3.191829,-5.224966,-11.188248,11.337187,-10.619988,5.1797857,-2.0142155,-2.0709062,7.020761,5.2703667,9.433243,-12.482453,62.29405,8.95123,5.728455,5.749724,-1.2908679,-10.853157,21.623127,64.2332,-27.397165,-1.1819011,-6.3956013
103,0.0518542118370533,-1.930354356765747,78.7599105834961,0.9142104299034838,-2.384801674579777,87.85033664638439,2.7719884,0.29676867,-0.28066957,9.143285,-12.060283,-1.2285032,3.1835554,-5.2208285,-11.185002,11.349476,-10.62819,5.158934,-2.006528,-2.0687032,7.015004,5.2746534,9.456386,-12.461243,62.307735,8.936535,5.713937,5.7264667,-1.2953008,-10.852005,21.61883,64.25702,-27.413258,-1.1851362,-6.4015136
104,0.0543556772172451,-1.9313322305679321,78.76052856445312,0.9139064484622369,-2.3871646873012375,87.84989325804368,2.7749643,0.29966056,-0.28160867,9.143925,-12.058786,-1.2325565,3.1817153,-5.2188625,-11.18563,11.360563,-10.635027,5.147932,-2.0021267,-2.069801,7.012227,5.2825003,9.481102,-12.437552,62.318573,8.912688,5.702637,5.7091556,-1.2993577,-10.8508835,21.617966,64.272125,-27.399778,-1.1914009,-6.3991637
105,0.0597783587872982,-1.930148720741272,78.7598876953125,0.9154667333453128,-2.3963194064443454,87.85413228496441,2.7860503,0.30036893,-0.28553507,9.142238,-12.057964,-1.2406265,3.1915448,-5.2195163,-11.192916,11.366781,-10.637821,5.1529202,-1.9961209,-2.06625,7.0085135,5.285541,9.488615,-12.423867,62.342663,8.872878,5.6961527,5.7103295,-1.3021836,-10.85109,21.61739,64.28476,-27.334572,-1.2030616,-6.3840804
106,0.06437323242425919,-1.9297927618026733,78.75886535644531,0.9178024606835546,-2.4107435137926574,87.86146562307451,2.8046658,0.2989896,-0.29172164,9.136125,-12.055768,-1.2519526,3.2088988,-5.2224607,-11.204616,11.371973,-10.639136,5.1674023,-2.0054128,-2.0754943,7.015377,5.3011622,9.516226,-12.383939,62.349945,8.828163,5.6878963,5.7054405,-1.3101424,-10.853228,21.63172,64.283104,-27.226307,-1.2233899,-6.352676
107,0.06745613366365433,-1.929036021232605,78.75750732421875,0.9215658222391959,-2.4253186686752994,87.86984399940586,2.8226347,0.2973576,-0.29881093,9.132377,-12.056202,-1.2616531,3.225636,-5.2262473,-11.21666,11.379692,-10.642257,5.182454,-2.0078747,-2.080286,7.017251,5.310472,9.533033,-12.356741,62.369076,8.778494,5.6832733,5.708343,-1.3145975,-10.855189,21.639727,64.28099,-27.121674,-1.2391155,-6.3267145
108,0.06932307034730911,-1.9279146194458008,78.75630950927734,0.9234715358084139,-2.4356089885898666,87.87705592307199,2.834786,0.29637805,-0.3058154,9.131725,-12.059446,-1.2669154,3.2363255,-5.228699,-11.224885,11.389472,-10.649001,5.1888638,-2.0090983,-2.0836434,7.015039,5.3204575,9.551914,-12.327591,62.386787,8.737285,5.682582,5.7077284,-1.3178362,-10.857674,21.644268,64.27599,-27.063648,-1.2431664,-6.3182936
109,0.07324372231960297,-1.9255625009536743,78.75296783447266,0.9245344634302533,-2.440107648710924,87.88345021960635,2.8394647,0.29635543,-0.31417596,9.134327,-12.066078,-1.264519,3.235471,-5.2297683,-11.227878,11.409273,-10.664356,5.18007,-2.0099556,-2.083713,7.0105762,5.3376236,9.566237,-12.296982,62.392506,8.708723,5.6904163,5.703291,-1.3185965,-10.859727,21.641705,64.26137,-27.074678,-1.2252449,-6.333745
110,0.07573580741882324,-1.9254058599472046,78.75123596191406,0.924295708968276,-2.4411804881485404,87.88954402286667,2.8380582,0.29720536,-0.32354847,9.1433525,-12.07802,-1.2573857,3.228196,-5.2297482,-11.227678,11.434509,-10.684915,5.162199,-2.0116255,-2.0857577,7.005069,5.355762,9.586254,-12.258345,62.395214,8.688347,5.702143,5.6929336,-1.318407,-10.862038,21.633963,64.23927,-27.129185,-1.1951137,-6.3628435
111,0.07701817154884338,-1.9225484132766724,78.74999237060547,0.9240272894146633,-2.440581411957562,87.89492760953169,2.8360953,0.29757968,-0.33182937,9.149868,-12.088891,-1.249981,3.2206779,-5.229827,-11.226365,11.455995,-10.704271,5.145693,-2.0040872,-2.0806277,6.9890547,5.3628154,9.592518,-12.239511,62.418068,8.662981,5.7149467,5.691218,-1.3189157,-10.862602,21.62419,64.23085,-27.192436,-1.1641066,-6.4039397
112,0.07953521609306335,-1.9195159673690796,78.74796295166016,0.9266438666413387,-2.4395280895732157,87.8993207710096,2.8361125,0.29510003,-0.33645022,9.151059,-12.0955,-1.2454782,3.2155166,-5.2331004,-11.225366,11.471401,-10.719655,5.141196,-1.9984208,-2.0824993,6.9813204,5.3758783,9.603726,-12.2036085,62.42423,8.653456,5.7225556,5.6806064,-1.3187151,-10.863774,21.609362,64.21392,-27.251247,-1.1502223,-6.4388947
113,0.07972826808691025,-1.9132561683654785,78.74868774414062,0.9322977065936164,-2.4376565821509506,87.90202270902644,2.840455,0.2897567,-0.33649784,9.141392,-12.09541,-1.2498839,3.2174652,-5.2387114,-11.22529,11.469706,-10.725824,5.156433,-1.984217,-2.081651,6.9641137,5.3857465,9.606221,-12.18899,62.439476,8.634397,5.724949,5.6756005,-1.3182298,-10.864168,21.6034,64.21329,-27.275867,-1.1592698,-6.480677
114,0.08266603946685791,-1.9117811918258667,78.74671173095703,0.9411343785630827,-2.4342753595493125,87.90322017736463,2.846618,0.28142565,-0.33219284,9.125312,-12.091871,-1.2570708,3.221224,-5.2475815,-11.224556,11.4607315,-10.7284975,5.1843266,-1.9763778,-2.0877423,6.952862,5.4053607,9.613438,-12.143995,62.436935,8.637953,5.7218895,5.65883,-1.3192601,-10.865572,21.593353,64.20729,-27.303238,-1.1872796,-6.5219474
115,0.08453837037086487,-1.910416841506958,78.74654388427734,0.9499635283840208,-2.431474580101066,87.90447129927978,2.8532403,0.27311903,-0.3279779,9.109241,-12.0868435,-1.2643179,3.2258596,-5.256405,-11.224409,11.450751,-10.72933,5.2122035,-1.9705161,-2.0930307,6.94163,5.427269,9.619218,-12.105696,62.4322,8.637279,5.71764,5.6441784,-1.3238546,-10.866881,21.592619,64.20428,-27.325201,-1.2154412,-6.5591
116,0.08573673665523529,-1.908731460571289,78.74604034423828,0.9550726096311292,-2.4309756448839894,87.90677752823643,2.8576713,0.26732278,-0.32722318,9.10124,-12.0833,-1.2676723,3.2288609,-5.262528,-11.225211,11.448942,-10.731735,5.2274833,-1.9593863,-2.0940378,6.930326,5.438243,9.620705,-12.090622,62.441845,8.622425,5.714089,5.6386747,-1.328105,-10.867371,21.592112,64.20146,-27.352697,-1.2290831,-6.583363
117,0.08679424226284027,-1.9102622270584106,78.74584197998047,0.958158195941612,-2.4338191049602136,87.9108853988516,2.8593798,0.26437435,-0.33203045,9.104926,-12.081252,-1.2640681,3.2279854,-5.266144,-11.226911,11.46257,-10.738099,5.22345,-1.959061,-2.0935533,6.928056,5.453392,9.622572,-12.0690975,62.444557,8.60763,5.711147,5.636449,-1.3403184,-10.868112,21.595942,64.193436,-27.399485,-1.2240791,-6.5854087
118,0.08936506509780884,-1.9091417789459229,78.74571228027344,0.9589509940193204,-2.4389889890072123,87.91632655048717,2.8579063,0.263249,-0.34041774,9.11897,-12.080982,-1.256513,3.2256224,-5.267931,-11.229678,11.484334,-10.745671,5.207947,-1.9610337,-2.0911956,6.9297853,5.4677267,9.6233225,-12.056365,62.447018,8.586582,5.708666,5.6394215,-1.356382,-10.868688,21.603207,64.18406,-27.45438,-1.2070657,-6.5735245
119,0.09371836483478546,-1.908305048942566,78.74354553222656,0.9586959818644648,-2.4448721114835847,87.92159064545608,2.858101,0.26365328,-0.3490827,9.13123,-12.080305,-1.2491091,3.224794,-5.267941,-11.233195,11.503912,-10.751535,5.190159,-1.9567953,-2.0878074,6.93293,5.475665,9.623207,-12.053393,62.454372,8.565842,5.705928,5.6421385,-1.3687694,-10.868798,21.607828,64.17144,-27.50623,-1.18957,-6.55596
120,0.0939134806394577,-1.9062244892120361,78.743408203125,0.9586693223785625,-2.4500468228165735,87.9257204723704,2.8585982,0.26434195,-0.35512617,9.141184,-12.082134,-1.2446866,3.2242956,-5.2681904,-11.237213,11.520902,-10.758114,5.1796336,-1.9594461,-2.0838652,6.9373,5.4933853,9.62253,-12.048524,62.45077,8.541809,5.700439,5.6421027,-1.3906496,-10.8688345,21.617502,64.164444,-27.556612,-1.1760304,-6.5350986
121,0.09404970705509186,-1.9055631160736084,78.74383544921875,0.9560534931649785,-2.4543373092788414,87.92724200430094,2.8634143,0.2677681,-0.35783464,9.141346,-12.08576,-1.2488972,3.2301736,-5.2650337,-11.242391,11.520881,-10.758672,5.1792397,-1.9609649,-2.0787191,6.940685,5.508381,9.6199465,-12.042466,62.450752,8.528403,5.692428,5.636163,-1.4113145,-10.868357,21.6361,64.15774,-27.590225,-1.1713953,-6.5145426
122,0.09655730426311493,-1.907367467880249,78.7428207397461,0.9537781366042134,-2.458081726282175,87.92752901985963,2.869811,0.27294326,-0.35859329,9.137008,-12.091144,-1.2559618,3.2379713,-5.2602587,-11.248804,11.514803,-10.757542,5.184033,-1.9543544,-2.0742157,6.9460573,5.5160174,9.618704,-12.043853,62.454685,8.521154,5.682656,5.6262136,-1.4272658,-10.86811,21.644693,64.146675,-27.622852,-1.1714876,-6.488943
123,0.09615180641412735,-1.9074556827545166,78.74435424804688,0.9503507002831005,-2.4625164425695014,87.9278399566365,2.8767564,0.27795213,-0.35855636,9.133329,-12.096983,-1.2636329,3.2485623,-5.2553387,-11.255159,11.50438,-10.754627,5.1905055,-1.956737,-2.0671196,6.9492908,5.534843,9.613433,-12.04436,62.450245,8.503629,5.672085,5.6161075,-1.457144,-10.866771,21.671213,64.1512,-27.642395,-1.1749946,-6.46648
124,0.09746695309877396,-1.9069511890411377,78.74404907226562,0.950444165965915,-2.4674897710183425,87.92903656494053,2.8834534,0.27952355,-0.35854402,9.130445,-12.099236,-1.2685367,3.2569602,-5.2540426,-11.259574,11.49956,-10.753796,5.1954393,-1.9541657,-2.0635617,6.954211,5.5463266,9.607089,-12.040672,62.449337,8.477814,5.660967,5.6010203,-1.4744947,-10.865113,21.687366,64.14236,-27.664967,-1.1833608,-6.450473
125,0.09813991189002991,-1.9056998491287231,78.74503326416016,0.9541689585249126,-2.473704495638394,87.93203737482187,2.8899286,0.27592507,-0.35841617,9.1294,-12.0955105,-1.268746,3.263676,-5.25805,-11.261351,11.500751,-10.754379,5.1984086,-1.946482,-2.065409,6.96106,5.554153,9.602555,-12.036266,62.44651,8.433737,5.6487985,5.5771585,-1.4834241,-10.864238,21.693441,64.1258,-27.688387,-1.2005297,-6.4423056
126,0.09989713877439499,-1.9039114713668823,78.74421691894531,0.9596662686958103,-2.4808854375134115,87.93620836477128,2.8962915,0.26925382,-0.35794678,9.129859,-12.088618,-1.2663925,3.27012,-5.2651935,-11.261589,11.50494,-10.7560005,5.2010355,-1.9459535,-2.0663967,6.967175,5.5652866,9.589905,-12.020124,62.441284,8.381801,5.635733,5.548874,-1.4984363,-10.862345,21.705397,64.11697,-27.708517,-1.2243221,-6.441008
127,0.10084757953882217,-1.9076392650604248,78.74418640136719,0.9656074700547544,-2.487692955316716,87.94044947170318,2.9014006,0.26221776,-0.35793123,9.132461,-12.082639,-1.2637573,3.2761874,-5.272585,-11.261489,11.509308,-10.757984,5.202932,-1.9344189,-2.0714173,6.9754434,5.5720344,9.586983,-12.015276,62.434578,8.3198595,5.6229653,5.519524,-1.500921,-10.861915,21.707148,64.09345,-27.72506,-1.2494086,-6.4421325
128,0.10176893323659897,-1.9081522226333618,78.74443817138672,0.9690952466665124,-2.4936659326389967,87.94370738231935,2.9075038,0.2572848,-0.359204,9.131632,-12.07854,-1.2628845,3.2819798,-5.2777076,-11.262176,11.512023,-10.760386,5.2039595,-1.9308124,-2.0711348,6.982982,5.5819263,9.572887,-11.998355,62.428623,8.267604,5.6124654,5.501948,-1.5100422,-10.860168,21.716948,64.07444,-27.739767,-1.2675767,-6.4478316
129,0.10356013476848602,-1.9084792137145996,78.7452163696289,0.9709565358841507,-2.498215759395864,87.94543343219964,2.9128041,0.2561168,-0.36250716,9.130445,-12.079504,-1.2652695,3.288158,-5.2784667,-11.264425,11.511193,-10.763313,5.2030654,-1.9286433,-2.0661275,6.988111,5.5894465,9.554759,-11.980728,62.430267,8.212214,5.602766,5.4982553,-1.5249076,-10.85758,21.732437,64.0611,-27.744015,-1.2782017,-6.4595923
130,0.10329290479421616,-1.9097661972045898,78.7451400756836,0.9702880466951452,-2.5021354828655693,87.94585306876792,2.918215,0.25676882,-0.3667815,9.127887,-12.08264,-1.2694231,3.2929635,-5.2775526,-11.266834,11.511148,-10.767933,5.2008257,-1.9167492,-2.0626442,6.996417,5.596613,9.543234,-11.973281,62.4266,8.146524,5.594493,5.500023,-1.5288631,-10.855665,21.73972,64.032104,-27.742506,-1.2856661,-6.4740715
131,0.10462763905525208,-1.9089689254760742,78.74226379394531,0.9687778340736869,-2.50457184917102,87.94717892665572,2.9212542,0.25777858,-0.37228552,9.127061,-12.087438,-1.2734009,3.2972615,-5.275911,-11.270149,11.509505,-10.772018,5.1987643,-1.9028605,-2.0597835,7.0011835,5.601721,9.538118,-11.967738,62.427067,8.09427,5.587892,5.5046954,-1.5327659,-10.854538,21.744284,64.00617,-27.743221,-1.2909293,-6.4886527
132,0.10370970517396927,-1.907164216041565,78.74305725097656,0.968663015531262,-2.506002403498553,87.95058966274509,2.9228415,0.2576949,-0.3785258,9.126436,-12.09085,-1.2752075,3.3008115,-5.275513,-11.27405,11.508273,-10.775304,5.198568,-1.8892972,-2.0578694,7.0048623,5.607183,9.534336,-11.963579,62.426014,8.069895,5.5849648,5.509996,-1.5348339,-10.853605,21.747728,63.978714,-27.754076,-1.2935066,-6.498808
133,0.10368463397026062,-1.908353328704834,78.74237060546875,0.9685559476212956,-2.5061680692791826,87.95719551414507,2.9220603,0.25660893,-0.3864132,9.126738,-12.093349,-1.2741792,3.304382,-5.276096,-11.27901,11.505011,-10.776051,5.201835,-1.9031749,-2.0495007,7.0024266,5.6201477,9.502838,-11.923404,62.429905,8.10763,5.588031,5.5281935,-1.5538297,-10.847291,21.777575,63.97299,-27.791245,-1.2875417,-6.515725
134,0.10250163078308105,-1.9111186265945435,78.74286651611328,0.9687080013051623,-2.5044319026947237,87.96584201791906,2.9189646,0.2546908,-0.39539358,9.126891,-12.095158,-1.2714137,3.305992,-5.2776103,-11.284443,11.502401,-10.776306,5.207296,-1.8909546,-2.0481572,6.9999833,5.623525,9.500056,-11.919457,62.43328,8.156568,5.594539,5.540116,-1.5559621,-10.846823,21.780048,63.95287,-27.838875,-1.2838001,-6.523373
135,0.10245589911937714,-1.9066694974899292,78.74396514892578,0.9696637920562424,-2.501969491489254,87.9751486004147,2.9137125,0.25219777,-0.40438342,9.1296835,-12.097019,-1.2675838,3.3061345,-5.2798896,-11.290357,11.501699,-10.777201,5.2123656,-1.902412,-2.039922,6.994155,5.6334934,9.46538,-11.875165,62.43944,8.246509,5.6037073,5.5607343,-1.5668907,-10.842182,21.80097,63.94273,-27.892069,-1.2745858,-6.5342236
136,0.10449671000242233,-1.9045320749282837,78.742919921875,0.9709343864893073,-2.5008221668833763,87.98248951116139,2.9106991,0.24860889,-0.41043255,9.131849,-12.096419,-1.263269,3.3059103,-5.2836714,-11.294867,11.504192,-10.779438,5.214375,-1.9088584,-2.0301013,6.9868846,5.634398,9.431559,-11.84833,62.455765,8.301879,5.6090393,5.578213,-1.5836183,-10.838927,21.82098,63.945614,-27.906635,-1.2718402,-6.5384917
137,0.1033368781208992,-1.9028018712997437,78.74459838867188,0.9749370433803124,-2.501575277838528,87.98678702764828,2.9101048,0.24333225,-0.41199648,9.134696,-12.092759,-1.2576779,3.303045,-5.2899275,-11.297247,11.515776,-10.786159,5.211327,-1.9071172,-2.0246677,6.984921,5.6367955,9.407556,-11.838512,62.462296,8.324428,5.6129546,5.5918274,-1.5879095,-10.836807,21.834843,63.93377,-27.871828,-1.2761657,-6.5308833
138,0.10279965400695801,-1.9025192260742188,78.74408721923828,0.9790238603806005,-2.503610379871873,87.98966008469556,2.9099064,0.23691969,-0.4108264,9.140459,-12.087853,-1.2509121,3.2997541,-5.2976165,-11.298658,11.530512,-10.793929,5.204998,-1.8999369,-2.0244663,6.9878497,5.640091,9.393588,-11.837962,62.460526,8.331198,5.6157327,5.6000795,-1.5872631,-10.835363,21.843472,63.915405,-27.804451,-1.2869296,-6.513209
139,0.10176443308591843,-1.9042251110076904,78.74234771728516,0.9835387881981187,-2.5051288090520516,87.9924316363577,2.9094646,0.23069054,-0.4095524,9.145848,-12.082842,-1.2448008,3.297024,-5.3048744,-11.300279,11.543323,-10.800879,5.1984286,-1.8932246,-2.0243566,6.9902325,5.6435695,9.387606,-11.838473,62.456886,8.324884,5.6150384,5.600423,-1.5850761,-10.83436,21.847692,63.898724,-27.738358,-1.2985387,-6.4959917
140,0.10190240293741226,-1.9017655849456787,78.74104309082031,0.9884483929470262,-2.504616722528953,87.99550261326648,2.909863,0.22381157,-0.40953815,9.144989,-12.0776615,-1.240817,3.2909184,-5.313295,-11.301531,11.559618,-10.810312,5.1950836,-1.8921194,-2.018587,6.9818907,5.6489863,9.361413,-11.835908,62.460552,8.310297,5.6131396,5.6032877,-1.5883365,-10.830362,21.865305,63.899086,-27.685654,-1.3000935,-6.492755
141,0.10108563303947449,-1.8960192203521729,78.74032592773438,0.9914941944419507,-2.5018599083070368,88.00003134375905,2.9078982,0.21869546,-0.4126775,9.142747,-12.075277,-1.240435,3.2883458,-5.318934,-11.304347,11.564808,-10.81488,5.1959653,-1.892768,-2.008709,6.973448,5.655288,9.3364525,-11.825745,62.45834,8.279634,5.604014,5.586264,-1.5914847,-10.826681,21.8713,63.902473,-27.682335,-1.2961265,-6.502811
142,0.10160371661186218,-1.8952343463897705,78.73965454101562,0.9931582423092881,-2.4972716688912673,88.00535601590309,2.9054158,0.21391788,-0.41741657,9.137587,-12.073643,-1.2423762,3.2860546,-5.3239903,-11.307757,11.566268,-10.818128,5.1993814,-1.8893034,-2.0035822,6.9654355,5.663036,9.330267,-11.820676,62.448013,8.225789,5.588175,5.550307,-1.5886724,-10.825562,21.87023,63.901184,-27.698687,-1.291016,-6.51845
143,0.09940999746322632,-1.8941452503204346,78.74059295654297,0.9944994088744314,-2.492783254590308,88.01101068370528,2.9037452,0.20978999,-0.4229322,9.131079,-12.073059,-1.2451385,3.2851584,-5.328084,-11.311708,11.56609,-10.821243,5.203363,-1.8950069,-1.9871988,6.9517922,5.6687064,9.294449,-11.799924,62.44897,8.18652,5.573945,5.5245423,-1.5986137,-10.819127,21.869837,63.923588,-27.730148,-1.2811849,-6.540547
144,0.09780938178300858,-1.8930948972702026,78.74121856689453,0.995761960560161,-2.490744038942623,88.01676570973184,2.9044094,0.20681015,-0.42886627,9.127043,-12.075984,-1.2474177,3.285795,-5.331247,-11.31627,11.568018,-10.826017,5.2058663,-1.8954726,-1.9747391,6.943123,5.673032,9.269924,-11.786013,62.445904,8.160201,5.5652227,5.5104847,-1.6009654,-10.814783,21.870182,63.93567,-27.745102,-1.2726332,-6.556136
145,0.09669790416955948,-1.889373540878296,78.73973083496094,0.9945930707491889,-2.491964874462941,88.022563783057,2.909155,0.20588566,-0.43519267,9.123695,-12.082741,-1.2497438,3.2894115,-5.332145,-11.321774,11.571396,-10.832784,5.205259,-1.8968604,-1.9577637,6.9360485,5.6725054,9.235831,-11.768971,62.450745,8.164389,5.5649037,5.5220037,-1.6059847,-10.808737,21.872982,63.95405,-27.743525,-1.2625495,-6.566632
146,0.09549332410097122,-1.887590765953064,78.73684692382812,0.9915446599920233,-2.495168078972664,88.02845275474749,2.9156146,0.20682338,-0.44212177,9.122607,-12.093591,-1.2526242,3.2943268,-5.331398,-11.327924,11.576942,-10.841862,5.2029657,-1.8908609,-1.9484252,6.9365363,5.680048,9.226093,-11.761618,62.435917,8.175148,5.5696187,5.5390196,-1.5954759,-10.806705,21.870535,63.95073,-27.731205,-1.2532526,-6.5699534
147,0.09331896156072617,-1.8854637145996094,78.7356185913086,0.9893989649347075,-2.499106578162463,88.03500176735507,2.92278,0.20708269,-0.4496117,9.121912,-12.104358,-1.2543362,3.3010886,-5.3311253,-11.3347025,11.580669,-10.849977,5.2015505,-1.8881171,-1.9363387,6.9354186,5.684846,9.204631,-11.746285,62.42776,8.199657,5.576351,5.563015,-1.5902554,-10.801982,21.870113,63.957493,-27.720894,-1.2441319,-6.5736785
148,0.09302135556936264,-1.8807612657546997,78.73493194580078,0.990112098346478,-2.502780477000467,88.04241785486724,2.929476,0.20390956,-0.4572336,9.1200075,-12.110267,-1.2533083,3.3073628,-5.334525,-11.341382,11.585412,-10.858054,5.2037497,-1.8872743,-1.9269077,6.933537,5.685841,9.1817465,-11.730148,62.423985,8.216484,5.5812955,5.580843,-1.5880706,-10.797093,21.876308,63.968235,-27.711727,-1.2386668,-6.5784326
149,0.09130153059959412,-1.8779581785202026,78.73542785644531,0.9941755418668421,-2.505387028899118,88.05109862094253,2.93172,0.19561225,-0.46530986,9.122484,-12.11266,-1.247369,3.313669,-5.3431525,-11.3478365,11.587808,-10.864223,5.2125587,-1.8856491,-1.9247472,6.931736,5.685978,9.166222,-11.716338,62.417866,8.22228,5.5845747,5.5864387,-1.5838072,-10.793975,21.88818,63.97542,-27.706116,-1.2395695,-6.5837636
150,0.09002500772476196,-1.8775839805603027,78.73544311523438,1.001129665488982,-2.5077091587012146,88.06062636208937,2.932797,0.18346845,-0.4738744,9.124881,-12.111129,-1.238156,3.3196557,-5.3555617,-11.354211,11.5902195,-10.869988,5.2258396,-1.8894571,-1.92548,6.928586,5.6861973,9.147162,-11.695708,62.413113,8.227976,5.587868,5.5884786,-1.5846032,-10.790597,21.911745,63.988434,-27.699812,-1.2438998,-6.5903764
151,0.08917593210935593,-1.8765313625335693,78.7355728149414,1.0073869955870498,-2.5103689279145653,88.07042222586615,2.933653,0.17189218,-0.48177308,9.12865,-12.109191,-1.2286261,3.3263366,-5.3676176,-11.360799,11.592414,-10.8751335,5.238073,-1.8792889,-1.9298965,6.9315934,5.6848035,9.144121,-11.692411,62.400204,8.221971,5.5880637,5.582961,-1.5763555,-10.790002,21.916208,63.988365,-27.697054,-1.2517338,-6.5901833
152,0.08799479901790619,-1.8739113807678223,78.73369598388672,1.0127214315021544,-2.5155738275859867,88.08208466871449,2.938982,0.16181625,-0.49113503,9.128483,-12.105592,-1.2239871,3.3345013,-5.378665,-11.369969,11.599057,-10.882151,5.2444763,-1.876304,-1.9332207,6.9347353,5.68759,9.137271,-11.683024,62.386303,8.21445,5.586514,5.577851,-1.5603075,-10.788677,21.926756,63.983418,-27.689432,-1.257061,-6.5901475
153,0.08562128990888596,-1.869177222251892,78.73419189453125,1.0133821112338655,-2.5223624191899163,88.09465205651898,2.9464486,0.15698048,-0.49967602,9.128389,-12.103157,-1.2260655,3.3427415,-5.384793,-11.381272,11.610415,-10.890058,5.241222,-1.8930666,-1.9271234,6.932745,5.6965594,9.115441,-11.653683,62.381447,8.212898,5.575908,5.5759645,-1.5548977,-10.78468,21.951097,63.993507,-27.679995,-1.2552351,-6.5895057
154,0.08193974196910858,-1.8647253513336182,78.73373413085938,1.0117303836573186,-2.530674479485578,88.10820850087755,2.9553838,0.15490213,-0.50807333,9.129075,-12.100853,-1.232994,3.3530102,-5.388026,-11.394343,11.6221695,-10.896931,5.2317905,-1.901396,-1.9169996,6.9350667,5.6998043,9.093346,-11.636194,62.379436,8.204577,5.560395,5.573206,-1.5451399,-10.780755,21.959251,64.00021,-27.673689,-1.2529328,-6.585123
155,0.08001765608787537,-1.8605437278747559,78.7339859008789,1.0107431521010137,-2.540122674064985,88.12229573578279,2.9653935,0.1525765,-0.5174512,9.129735,-12.098921,-1.2393093,3.364177,-5.391705,-11.408034,11.635456,-10.905287,5.221432,-1.905853,-1.9071712,6.9376955,5.6999335,9.072861,-11.622805,62.38035,8.190614,5.5442934,5.568715,-1.5328478,-10.77712,21.957748,64.007645,-27.667711,-1.2526754,-6.5765486
156,0.07683971524238586,-1.8578205108642578,78.73326873779297,1.0112569790976838,-2.549930740933021,88.13663120602672,2.9754374,0.14677778,-0.52939266,9.1319475,-12.099061,-1.2417918,3.376417,-5.3984675,-11.42104,11.6477,-10.91536,5.2151527,-1.904998,-1.9056325,6.942075,5.704673,9.068479,-11.616252,62.369827,8.163464,5.5333176,5.5592313,-1.5156814,-10.776199,21.953964,64.008804,-27.651491,-1.2568982,-6.561867
157,0.07499957829713821,-1.8556201457977295,78.73165130615234,1.0163777289925728,-2.562616319786676,88.15139205953129,2.9882007,0.13426812,-0.54596627,9.135171,-12.100078,-1.2382591,3.3913379,-5.4116273,-11.432756,11.66253,-10.930833,5.2130194,-1.9082057,-1.9071419,6.946944,5.7108903,9.051711,-11.595175,62.35862,8.138589,5.5312166,5.5515604,-1.495872,-10.773048,21.944254,64.01023,-27.640186,-1.2634207,-6.539792
158,0.07364071905612946,-1.8557350635528564,78.72999572753906,1.0232269880431684,-2.5775073310938796,88.16707796058897,3.003663,0.117720835,-0.56615573,9.138337,-12.101725,-1.2312471,3.4098763,-5.428194,-11.444402,11.676092,-10.948128,5.2126403,-1.9134872,-1.9129229,6.951969,5.7142124,9.03887,-11.572346,62.351257,8.105576,5.532342,5.5417614,-1.483129,-10.770797,21.936214,64.02239,-27.623232,-1.2739807,-6.5117145
159,0.07158679515123367,-1.8526448011398315,78.72871398925781,1.0304717785426996,-2.590118485539941,88.18215605114621,3.0163639,0.10189101,-0.58543146,9.141962,-12.105107,-1.2227029,3.4267905,-5.444049,-11.455902,11.68703,-10.96408,5.2159677,-1.9220288,-1.9157218,6.9544253,5.717224,9.016784,-11.5368595,62.344788,8.079419,5.5348415,5.532851,-1.4737405,-10.767427,21.927956,64.03864,-27.603687,-1.2851279,-6.484676
160,0.06630902737379074,-1.8484280109405518,78.72854614257812,1.0335537995272726,-2.5956300817477755,88.19589636637515,3.0226426,0.091093004,-0.6005886,9.143123,-12.109994,-1.216714,3.4400299,-5.4543505,-11.468027,11.686776,-10.971464,5.224726,-1.9190606,-1.9177821,6.9496946,5.725733,9.009651,-11.5161085,62.328266,8.047689,5.535201,5.521287,-1.4515672,-10.766198,21.917223,64.04215,-27.56939,-1.2966655,-6.4640193
161,0.06204201653599739,-1.8434306383132935,78.72798919677734,1.0301548031248629,-2.5888753345214885,88.207574964859,3.0176816,0.0896096,-0.6091261,9.139433,-12.117742,-1.2145461,3.445338,-5.454947,-11.481322,11.669804,-10.965139,5.2416573,-1.9151288,-1.9100443,6.9387965,5.73288,8.99362,-11.466441,62.307228,8.0432415,5.530848,5.5067616,-1.4245479,-10.763232,21.890255,64.03511,-27.53916,-1.3103652,-6.4507065
162,0.057006899267435074,-1.8441815376281738,78.72802734375,1.0225200126835015,-2.5740256898993117,88.21829378632958,3.0043437,0.09399403,-0.6138201,9.134832,-12.128924,-1.2142706,3.4471636,-5.4486713,-11.495956,11.638634,-10.948665,5.2650347,-1.9142978,-1.8914652,6.91952,5.7279587,8.9601145,-11.396047,62.301758,8.057912,5.52258,5.494135,-1.4109346,-10.757421,21.860497,64.044876,-27.506039,-1.3261403,-6.444852
163,0.05323461443185806,-1.8342008590698242,78.72709655761719,1.0154699338970705,-2.5594860076389128,88.22807145269147,2.9927392,0.09752483,-0.61717725,9.128485,-12.1389475,-1.2134104,3.449081,-5.44366,-11.509573,11.608589,-10.93301,5.290129,-1.9017481,-1.8793589,6.897776,5.7382,8.948588,-11.35516,62.277893,8.055216,5.517231,5.480646,-1.376777,-10.755221,21.834538,64.034874,-27.459618,-1.3381963,-6.4416494
164,0.048317261040210724,-1.8319193124771118,78.72723388671875,1.0141672943981863,-2.555406389609217,88.23738594504242,2.992319,0.093662225,-0.6220463,9.124832,-12.145842,-1.2093824,3.458255,-5.4470935,-11.520645,11.591108,-10.927118,5.312354,-1.8967409,-1.8700812,6.886856,5.743081,8.925432,-11.30105,62.26514,8.071584,5.515118,5.470038,-1.3524499,-10.7509985,21.808365,64.03377,-27.429665,-1.343868,-6.436485
165,0.040687400847673416,-1.8238333463668823,78.72773742675781,1.0198631814700834,-2.566626406097787,88.24653260145315,3.0078707,0.07853702,-0.6293429,9.12647,-12.149118,-1.2011441,3.4774988,-5.4629936,-11.527702,11.594883,-10.939018,5.329579,-1.8875513,-1.8727582,6.884009,5.753802,8.916714,-11.283992,62.253757,8.070696,5.51998,5.4636946,-1.32742,-10.749216,21.801174,64.036896,-27.377304,-1.341849,-6.4275217
166,0.03472534567117691,-1.8141210079193115,78.7246322631836,1.0314660359123373,-2.587533186530685,88.25513025164871,3.0353281,0.05635927,-0.6375556,9.1283,-12.148738,-1.190152,3.5044138,-5.4867387,-11.532099,11.608875,-10.960044,5.344688,-1.8834639,-1.880254,6.8883696,5.7701063,8.904755,-11.260233,62.242424,8.08949,5.5300455,5.460285,-1.2980673,-10.746655,21.796936,64.03478,-27.329405,-1.3325601,-6.415528
167,0.02823086455464363,-1.8083182573318481,78.7222671508789,1.0440186116016417,-2.610244826988466,88.26348668436518,3.0640113,0.032658696,-0.64616215,9.1320095,-12.147753,-1.1777375,3.5322952,-5.512432,-11.536401,11.626161,-10.982065,5.3600693,-1.8898815,-1.8853054,6.8910236,5.786124,8.881366,-11.225071,62.240807,8.114976,5.5394974,5.460619,-1.2835685,-10.742197,21.80598,64.05213,-27.299261,-1.317148,-6.4118247
168,0.022901667281985283,-1.8045985698699951,78.7209701538086,1.0527454983079851,-2.627011510886712,88.2712585115308,3.084984,0.012839211,-0.6541379,9.136788,-12.148641,-1.1653721,3.5558555,-5.5339055,-11.54269,11.635446,-10.993845,5.3782215,-1.8928165,-1.8859417,6.888029,5.8017106,8.856342,-11.192084,62.24072,8.129849,5.545072,5.4603467,-1.2690632,-10.738283,21.814774,64.07404,-27.307178,-1.2983947,-6.4226894
169,0.017438199371099472,-1.8010321855545044,78.72096252441406,1.0577473881986081,-2.6346067851259236,88.27785903484396,3.0965228,-0.0019037459,-0.66096294,9.139331,-12.1503,-1.1525965,3.5712523,-5.550224,-11.551445,11.637024,-10.992246,5.4012947,-1.879995,-1.8871229,6.8802633,5.81879,8.848243,-11.1730585,62.23196,8.121366,5.5454373,5.4527555,-1.2393378,-10.737005,21.81077,64.08007,-27.38219,-1.2698358,-6.451306
170,0.009628457017242908,-1.7939081192016602,78.72138214111328,1.060824691538767,-2.637601835149469,88.2835957798951,3.1012924,-0.014275124,-0.6672372,9.144296,-12.153568,-1.1389318,3.5818086,-5.5643706,-11.561445,11.636072,-10.983365,5.427494,-1.8718237,-1.8850324,6.868632,5.838176,8.831798,-11.1317835,62.224613,8.122232,5.5422425,5.4430246,-1.2121077,-10.734817,21.80483,64.09034,-27.51545,-1.2322106,-6.4942183
171,-0.0011902680853381753,-1.7860379219055176,78.72123718261719,1.0622737855784923,-2.639710877508459,88.28975533762011,3.1053715,-0.025301553,-0.6738449,9.148062,-12.156419,-1.1257132,3.5937197,-5.5766425,-11.572704,11.629218,-10.970552,5.4532804,-1.8691074,-1.8790897,6.856786,5.8543143,8.809911,-11.085759,62.223804,8.126239,5.5368223,5.435196,-1.1941795,-10.732608,21.803959,64.1107,-27.649675,-1.1978263,-6.5402765
172,-0.009575694799423218,-1.7795642614364624,78.71996307373047,1.0620370169166313,-2.6444040248188583,88.29775084667837,3.1101,-0.036307488,-0.6818511,9.154133,-12.159997,-1.1142194,3.6101556,-5.5880895,-11.585018,11.617738,-10.959271,5.4752307,-1.8713136,-1.8707058,6.8465114,5.868951,8.785068,-11.045208,62.22832,8.137357,5.5304646,5.431087,-1.1831139,-10.731339,21.807137,64.13897,-27.735106,-1.1797788,-6.5762677
173,-0.020166832953691483,-1.7760955095291138,78.71949768066406,1.0621719649282317,-2.653629463581925,88.30719689897816,3.1211016,-0.04742788,-0.6906717,9.156707,-12.16132,-1.1059772,3.63314,-5.598569,-11.596923,11.602917,-10.953461,5.4898815,-1.8735839,-1.8633665,6.8410773,5.8844957,8.765213,-11.016794,62.23394,8.158867,5.5227594,5.432042,-1.173988,-10.731826,21.811258,64.16946,-27.74898,-1.1856843,-6.59567
174,-0.030261868610978127,-1.774053692817688,78.71896362304688,1.0611756979275737,-2.66504721432012,88.31753708998484,3.1329875,-0.05812042,-0.7000072,9.161223,-12.163406,-1.0999485,3.6593254,-5.608211,-11.608761,11.58628,-10.950835,5.4999304,-1.8730397,-1.8581145,6.838835,5.900129,8.753072,-10.999513,62.239803,8.184277,5.512944,5.4344587,-1.1635793,-10.733133,21.812805,64.19881,-27.721273,-1.2083077,-6.6052957
175,-0.040057726204395294,-1.7722371816635132,78.71932220458984,1.0580341055912195,-2.6759765196348035,88.33012640847504,3.1432383,-0.068396665,-0.7113597,9.165145,-12.164921,-1.093476,3.6880493,-5.6165457,-11.623776,11.561266,-10.942972,5.511029,-1.8797047,-1.850056,6.8383503,5.915376,8.740488,-10.980254,62.245197,8.212201,5.503275,5.434896,-1.1599056,-10.735744,21.816622,64.231735,-27.682632,-1.2360224,-6.612927
176,-0.053193897008895874,-1.7705053091049194,78.72119903564453,1.05438517017345,-2.682202665553856,88.34443526507853,3.1471944,-0.07949351,-0.72422457,9.167728,-12.16546,-1.0837542,3.7122653,-5.6260543,-11.642586,11.531994,-10.92717,5.528993,-1.8848833,-1.8424048,6.838658,5.9240484,8.7347975,-10.9723425,62.248127,8.221363,5.4969797,5.4282007,-1.1508566,-10.737504,21.815752,64.25086,-27.659252,-1.2562915,-6.6249166
177,-0.06940881907939911,-1.768101692199707,78.72368621826172,1.0454896042019053,-2.6850144796158424,88.36267401496093,3.142438,-0.08641031,-0.74173564,9.176932,-12.172014,-1.0714126,3.7478523,-5.6292443,-11.671515,11.468852,-10.886484,5.5585146,-1.9018059,-1.821872,6.8396425,5.9343085,8.720631,-10.955329,62.243885,8.222552,5.4930353,5.4088616,-1.1442897,-10.743391,21.812445,64.26495,-27.665398,-1.2725104,-6.6450777
178,-0.08782416582107544,-1.768949031829834,78.72640991210938,1.0383024652128083,-2.6821760743483813,88.37854406959946,3.13475,-0.09670455,-0.7561974,9.177528,-12.175834,-1.0565141,3.7675517,-5.638546,-11.699088,11.422031,-10.848593,5.596386,-1.9130251,-1.8098989,6.838608,5.9372706,8.719114,-10.95323,62.240696,8.201956,5.4904885,5.384124,-1.1375865,-10.744171,21.809885,64.27017,-27.673395,-1.2832409,-6.667357
179,-0.1076144427061081,-1.7699761390686035,78.73200988769531,1.0238907310572236,-2.6806124444304205,88.40510455277229,3.1179686,-0.10148275,-0.7819296,9.192915,-12.1827,-1.0398203,3.811942,-5.6372724,-11.740035,11.326997,-10.78482,5.632488,-1.9330839,-1.780282,6.844283,5.9349027,8.707965,-10.950954,62.236645,8.186438,5.4912825,5.3538065,-1.1253208,-10.752842,21.792452,64.270164,-27.697212,-1.295735,-6.6922984
180,-0.12489169836044312,-1.7761991024017334,78.73663330078125,1.0129316898364715,-2.678686783920568,88.43372711150786,3.097643,-0.11275841,-0.80822676,9.20777,-12.179659,-1.0191313,3.8429673,-5.6431623,-11.776679,11.255926,-10.73352,5.6593513,-1.9546361,-1.761211,6.8525624,5.927616,8.704527,-10.957086,62.236694,8.178387,5.495767,5.3347,-1.1220342,-10.757548,21.789513,64.27838,-27.701181,-1.3014871,-6.7110105
181,-0.14534036815166473,-1.7824000120162964,78.74378967285156,1.0016232838804466,-2.677033535128653,88.46920616776276,3.069267,-0.12673567,-0.8401481,9.23082,-12.167083,-0.99373484,3.8729706,-5.649771,-11.813591,11.18565,-10.684004,5.670716,-1.9762744,-1.7382668,6.8648496,5.9079685,8.700092,-10.985254,62.246716,8.177743,5.5082946,5.329415,-1.11788,-10.771508,21.791376,64.28451,-27.692009,-1.3013536,-6.7204676
182,-0.16766692698001862,-1.792327880859375,78.75054168701172,0.9904180181295887,-2.674581334604895,88.51007642109764,3.0345457,-0.1434798,-0.8763382,9.257837,-12.146573,-0.9643075,3.9003844,-5.657936,-11.851346,11.116904,-10.635215,5.6724834,-2.007483,-1.720069,6.8805847,5.8865113,8.700476,-11.01404,62.25567,8.187,5.5269437,5.3298726,-1.1242126,-10.780559,21.802963,64.29855,-27.677448,-1.295744,-6.7257614
183,-0.19344136118888855,-1.8051451444625854,78.75801086425781,0.9789910284545477,-2.6740869907868,88.55499238225404,2.9981854,-0.162061,-0.91616964,9.287096,-12.123323,-0.9332318,3.9293227,-5.6674223,-11.89194,11.047575,-10.585161,5.673323,-2.041502,-1.7036014,6.902515,5.8617144,8.702311,-11.036709,62.26588,8.207294,5.5435567,5.331818,-1.1343617,-10.786672,21.814537,64.31884,-27.65473,-1.2889783,-6.730598
184,-0.2219080924987793,-1.8193596601486206,78.7658462524414,0.9644284753863318,-2.678630957799617,88.60338716970402,2.964189,-0.1800034,-0.95969594,9.318512,-12.10319,-0.9030848,3.9698465,-5.6747704,-11.93826,10.9626255,-10.524792,5.6815453,-2.0616405,-1.6805906,6.934503,5.8271313,8.711427,-11.080392,62.27958,8.212736,5.550094,5.331304,-1.1211932,-10.81051,21.826303,64.317535,-27.598495,-1.2853293,-6.7365713
185,-0.25062525272369385,-1.8366605043411255,78.77389526367188,0.9482051433247056,-2.6890131007780136,88.65275769266918,2.9368134,-0.19833124,-1.004666,9.345866,-12.085229,-0.8751786,4.018392,-5.6823974,-11.988481,10.869703,-10.457315,5.700127,-2.0760465,-1.6590897,6.9838176,5.787961,8.72008,-11.086847,62.29264,8.243458,5.5394516,5.319771,-1.1066175,-10.834269,21.828533,64.31745,-27.522764,-1.2873285,-6.7451878
186,-0.28225940465927124,-1.8579790592193604,78.7827377319336,0.9302049108186928,-2.7035805902087824,88.70458734306348,2.9120076,-0.21700317,-1.0522112,9.372826,-12.067621,-0.84802276,4.073956,-5.6894207,-12.042415,10.768353,-10.38324,5.7242103,-2.088502,-1.6365701,7.044417,5.743227,8.727566,-11.074656,62.308937,8.287857,5.5177803,5.3041143,-1.0917102,-10.85836,21.832516,64.320076,-27.424673,-1.2909803,-6.75627
187,-0.3163723647594452,-1.8753539323806763,78.79085540771484,0.9105776732697113,-2.721892220030375,88.76189397872356,2.8878376,-0.23745373,-1.104818,9.401196,-12.049414,-0.81929976,4.1361833,-5.697371,-12.101965,10.660457,-10.304912,5.7514243,-2.1080604,-1.614323,7.1099873,5.6906447,8.734948,-11.066178,62.330822,8.33196,5.4949536,5.2928348,-1.0792031,-10.878888,21.83572,64.32797,-27.323357,-1.2941346,-6.769684
188,-0.35334309935569763,-1.9000762701034546,78.79984283447266,0.8927553274632676,-2.7429369410967306,88.82766418126,2.861452,-0.26057795,-1.1650652,9.434887,-12.030988,-0.78667533,4.2027025,-5.707546,-12.169042,10.552086,-10.226631,5.779391,-2.1411889,-1.5932527,7.17954,5.6314225,8.750769,-11.085642,62.349476,8.359827,5.4803333,5.2884626,-1.0553308,-10.906857,21.833124,64.316734,-27.235874,-1.296259,-6.779292
189,-0.38908129930496216,-1.927191972732544,78.80574798583984,0.8755499406563986,-2.769878444532229,88.9032984511837,2.8366299,-0.28779477,-1.2344435,9.473305,-12.011406,-0.7492782,4.279618,-5.7211027,-12.2448225,10.439914,-10.148118,5.809974,-2.187901,-1.5762609,7.2503257,5.562225,8.776495,-11.1571045,62.371502,8.358153,5.4774833,5.301242,-1.0266911,-10.933475,21.826824,64.29439,-27.168753,-1.2922586,-6.7859225
190,-0.41734644770622253,-1.9540773630142212,78.81227111816406,0.8588753990824224,-2.801994813899618,88.98692270263543,2.8133447,-0.318388,-1.3112205,9.514809,-11.99063,-0.70844865,4.364504,-5.7374954,-12.327877,10.325421,-10.069207,5.84361,-2.2322357,-1.5649173,7.328234,5.484367,8.823294,-11.279395,62.388508,8.329329,5.481144,5.321354,-0.97614837,-10.966593,21.803505,64.24059,-27.11323,-1.2853281,-6.786228
191,-0.4553110897541046,-1.9754489660263062,78.82172393798828,0.8404726605057918,-2.832825263042052,89.07712191814527,2.7839122,-0.3500092,-1.3933706,9.559715,-11.9694395,-0.6653413,4.448635,-5.754115,-12.41722,10.208274,-9.987371,5.8756986,-2.262714,-1.5625283,7.4172454,5.4025273,8.90582,-11.428724,62.385155,8.289209,5.4883246,5.330009,-0.89075065,-11.0113125,21.74442,64.14685,-27.063581,-1.2872283,-6.78122
192,-0.4999001622200012,-2.009211540222168,78.83177185058594,0.8185283102688151,-2.856485643850747,89.17235239739249,2.7428932,-0.38036698,-1.4787931,9.603701,-11.945538,-0.62090194,4.52507,-5.7674775,-12.511892,10.085206,-9.898639,5.90161,-2.322637,-1.5522461,7.496203,5.309037,8.956322,-11.515653,62.4057,8.287681,5.496323,5.337577,-0.83665234,-11.033439,21.692308,64.110435,-27.013277,-1.294429,-6.794263
193,-0.5449894070625305,-2.0463945865631104,78.84339904785156,0.7898545701371773,-2.8719328982896237,89.27268467332783,2.6885085,-0.40863177,-1.566569,9.649628,-11.922665,-0.57542276,4.5921745,-5.7771096,-12.611929,9.957713,-9.8048525,5.9186473,-2.3706253,-1.5406069,7.57884,5.2041593,9.018336,-11.581411,62.42348,8.314145,5.5081654,5.323951,-0.7570481,-11.057844,21.58993,64.060036,-26.974562,-1.3134199,-6.808937
194,-0.5907787084579468,-2.0828464031219482,78.85518646240234,0.7572976405156827,-2.8824115343135848,89.37872650230952,2.625279,-0.435929,-1.6580114,9.694995,-11.898479,-0.52832425,4.654184,-5.784594,-12.717626,9.825607,-9.706508,5.929775,-2.412221,-1.5305827,7.667569,5.0913444,9.095979,-11.636831,62.433887,8.357508,5.523804,5.2940516,-0.6554151,-11.085199,21.448566,63.992058,-26.946135,-1.3417671,-6.822918
195,-0.642670214176178,-2.121504783630371,78.86749267578125,0.7231188705205394,-2.8868575341689557,89.4899699353601,2.5511208,-0.46378028,-1.7539842,9.740433,-11.869569,-0.479718,4.7091637,-5.791236,-12.828692,9.690079,-9.601772,5.9388537,-2.4572895,-1.5233619,7.7579255,4.9720645,9.181345,-11.680706,62.4389,8.402316,5.5372596,5.2594175,-0.54590416,-11.11229,21.30061,63.923954,-26.904469,-1.3797963,-6.8454084
196,-0.6912234425544739,-2.168830394744873,78.87762451171875,0.6861280919575675,-2.8846403173311796,89.60624993453361,2.4631603,-0.49262017,-1.8558562,9.788371,-11.833172,-0.42975456,4.762926,-5.7960267,-12.945593,9.535529,-9.481698,5.9496393,-2.5132449,-1.5180764,7.845948,4.8443356,9.263836,-11.714709,62.44399,8.433034,5.5428452,5.2326775,-0.4417978,-11.137298,21.175451,63.872395,-26.826183,-1.428037,-6.885339
197,-0.7446790933609009,-2.227541923522949,78.89269256591797,0.6487745829528728,-2.8741593104631606,89.72848296046915,2.35942,-0.52378064,-1.9645407,9.836812,-11.785558,-0.37859437,4.80338,-5.8027663,-13.068593,9.3842945,-9.353871,5.9635463,-2.5828032,-1.5108848,7.9277506,4.703059,9.330885,-11.731644,62.460644,8.443416,5.533944,5.216657,-0.35232756,-11.158973,21.088207,63.851814,-26.705774,-1.4879553,-6.9544387
198,-0.7990754842758179,-2.2861685752868652,78.90286254882812,0.6100017298474593,-2.8560372103249074,89.85659622194832,2.2424424,-0.5566526,-2.0793052,9.8839855,-11.728502,-0.3262041,4.8360605,-5.8096538,-13.197997,9.227271,-9.216895,5.978301,-2.6353908,-1.5204952,8.024656,4.567082,9.451737,-11.76348,62.433937,8.422243,5.5147367,5.1821566,-0.22328399,-11.198953,20.991482,63.780605,-26.553318,-1.5663102,-7.028574
199,-0.8603662252426147,-2.334685802459717,78.91840362548828,0.5689857336289407,-2.8333348384559596,89.98789968724566,2.1153543,-0.589956,-2.1977625,9.933847,-11.668145,-0.27215528,4.864284,-5.81506,-13.33026,9.06209,-9.069177,5.9928236,-2.7060802,-1.5294875,8.116281,4.4240856,9.560048,-11.779935,62.411465,8.40767,5.4973645,5.1599784,-0.10221325,-11.233747,20.907227,63.73095,-26.374609,-1.6501092,-7.109494
200,-0.9127987623214722,-2.3909077644348145,78.93220520019531,0.5256957023311208,-2.8088183522038612,90.1195728812585,1.9829254,-0.6227731,-2.3175287,9.98629,-11.60884,-0.21607691,4.888318,-5.8183208,-13.461866,8.894174,-8.914249,6.005983,-2.7869544,-1.5401182,8.2056,4.2746944,9.663555,-11.800473,62.38542,8.4104,5.493463,5.1536613,0.027938899,-11.263146,20.805983,63.681538,-26.1788,-1.7359201,-7.1779256
201,-0.9684343934059143,-2.446100950241089,78.94408416748047,0.48099828548154167,-2.787419597919958,90.25352267929202,1.8521543,-0.65530676,-2.4422967,10.040887,-11.554117,-0.15658471,4.9150186,-5.8184357,-13.594386,8.722007,-8.751597,6.016201,-2.8715534,-1.5604031,8.300393,4.12755,9.788972,-11.844606,62.33446,8.434436,5.5129194,5.1590743,0.18305382,-11.291225,20.67466,63.610203,-25.95265,-1.8255593,-7.2229223
202,-1.0291467905044556,-2.5115103721618652,78.96366882324219,0.43503824053548046,-2.766107395061271,90.3902625656873,1.7162974,-0.6887124,-2.571693,10.101282,-11.502305,-0.09425099,4.93863,-5.817174,-13.7285,8.551114,-8.584094,6.0245113,-2.9641428,-1.5869828,8.39542,3.9765782,9.921648,-11.899098,62.273643,8.473819,5.5473785,5.1774955,0.34831226,-11.313127,20.5287,63.538105,-25.698044,-1.9196562,-7.2577887
203,-1.087785005569458,-2.589632749557495,78.98115539550781,0.3848199440924092,-2.7357849263219496,90.5256324097871,1.5688453,-0.7184403,-2.698951,10.158513,-11.443795,-0.032078017,4.948021,-5.811962,-13.861062,8.3799715,-8.409846,6.0335717,-3.0585122,-1.618839,8.488451,3.8219666,10.061226,-11.950599,62.202606,8.508978,5.5806923,5.2007313,0.5241185,-11.329016,20.367912,63.461567,-25.441666,-2.018187,-7.2876525
204,-1.1497372388839722,-2.665188789367676,78.99382781982422,0.31668317178425864,-2.683137932463926,90.65730117788814,1.2685794,-0.7334099,-2.8194015,10.477013,-11.511741,0.024786985,4.905583,-5.791638,-13.989818,8.253809,-8.251421,6.0435843,-3.1523185,-1.6417044,8.571874,3.6634054,10.204102,-11.984234,62.123947,8.520658,5.596683,5.2216578,0.7078689,-11.339621,20.194824,63.381435,-25.20894,-2.1208503,-7.3186617
205,-1.2178035974502563,-2.749735116958618,79.00828552246094,0.24971680240128266,-2.610232928897067,90.78351352144786,0.9217784,-0.7513796,-2.9275331,10.837879,-11.592045,0.07936601,4.804482,-5.7821064,-14.110712,8.196288,-8.123189,6.0604186,-3.2403939,-1.6754069,8.644037,3.501423,10.347476,-11.990433,62.0396,8.490531,5.5847855,5.238989,0.90550375,-11.345966,20.004328,63.295147,-24.987616,-2.2411666,-7.3513937
206,-1.2875163555145264,-2.8299386501312256,79.02008056640625,0.18180578602789013,-2.5229724239917726,90.90647157401278,0.54508686,-0.7693776,-3.028225,11.220941,-11.676669,0.13262555,4.6883073,-5.7704477,-14.229571,8.12787,-7.983249,6.081257,-3.326851,-1.7156849,8.709544,3.3353913,10.49127,-11.977995,61.949158,8.434142,5.5556087,5.256692,1.116152,-11.348027,19.797995,63.203022,-24.770012,-2.37476,-7.38285
207,-1.3491419553756714,-2.914761543273926,79.0298843383789,0.10885879214488466,-2.4202101237751457,91.02085301614902,0.13242644,-0.7826174,-3.11916,11.633035,-11.763812,0.18249963,4.5473723,-5.7531085,-14.339602,8.057034,-7.8317275,6.100624,-3.4138172,-1.7597222,8.774559,3.160558,10.637816,-11.960482,61.85384,8.382196,5.524719,5.2766676,1.3250686,-11.345702,19.588549,63.113144,-24.589142,-2.494039,-7.4149885
208,-1.4140406847000122,-3.0123870372772217,79.0372543334961,0.02999536330064341,-2.3008431174175263,91.12106761643406,-0.3100941,-0.7858145,-3.1980326,12.055783,-11.843511,0.2269246,4.378014,-5.725331,-14.43439,7.979513,-7.662063,6.1130834,-3.5033019,-1.8049746,8.84614,2.9737785,10.789884,-11.95009,61.753014,8.366659,5.5074534,5.300011,1.5195239,-11.336334,19.387606,63.03047,-24.479208,-2.571655,-7.4495487
209,-1.4817668199539185,-3.119812250137329,79.04521942138672,-0.05379594425076089,-2.166261125679101,91.2126107022489,-0.788333,-0.7830618,-3.2705429,12.505048,-11.921486,0.26071006,4.183183,-5.690647,-14.519069,7.898374,-7.480572,6.1159835,-3.6003795,-1.8546929,8.922774,2.7762923,10.949553,-11.952285,61.64429,8.405298,5.5134816,5.3294835,1.7009441,-11.317994,19.188925,62.959507,-24.466295,-2.5901415,-7.4919386
210,-1.548719882965088,-3.225878953933716,79.04945373535156,-0.14221498632456556,-2.0167701693078373,91.29593968414923,-1.2997296,-0.77606606,-3.3355844,12.977835,-11.998164,0.28655183,3.9633725,-5.6509686,-14.5948,7.815837,-7.288858,6.1128116,-3.701791,-1.9109231,9.002247,2.5697293,11.117052,-11.960438,61.527695,8.477497,5.5327306,5.363092,1.8755553,-11.289232,18.987757,62.895615,-24.528143,-2.5675554,-7.5396814
211,-1.6171640157699585,-3.3510994911193848,79.0570297241211,-0.2369576339567794,-1.8496567807182267,91.35819904813837,-1.8451331,-0.756052,-3.3810887,13.466774,-12.069398,0.3138107,3.7112796,-5.597041,-14.649508,7.725811,-7.0730257,6.1063967,-3.7977693,-1.9703182,9.088809,2.3509407,11.292885,-11.969437,61.4075,8.557056,5.551454,5.3954554,2.0293574,-11.251863,18.804073,62.840286,-24.620481,-2.5291216,-7.58498
212,-1.6866894960403442,-3.4928810596466064,79.06812286376953,-0.343510204767243,-1.662129711454798,91.38639644493186,-2.4267728,-0.71543413,-3.3948274,13.967775,-12.133006,0.3518815,3.4185793,-5.5218477,-14.6705,7.6246805,-6.820536,6.099037,-3.8795426,-2.0303743,9.187018,2.1169772,11.477595,-11.973721,61.28809,8.617034,5.5558343,5.421169,2.150634,-11.209556,18.65658,62.792057,-24.701756,-2.5002482,-7.619535
213,-1.7576892375946045,-3.6438584327697754,79.0845947265625,-0.46099930709244263,-1.445998697618056,91.38333631580885,-3.0608828,-0.6554693,-3.3762443,14.491224,-12.188857,0.40881628,3.076491,-5.4261003,-14.657925,7.5118093,-6.5345473,6.087396,-3.947425,-2.090986,9.29118,1.8613687,11.671439,-11.975899,61.175255,8.655528,5.5392222,5.4386454,2.238869,-11.165124,18.560066,62.753944,-24.75359,-2.4883301,-7.6423297
214,-1.8219558000564575,-3.8142507076263428,79.09526062011719,-0.5710132040185,-1.2034390382194273,91.34969982187064,-3.7508237,-0.5967095,-3.32299,15.052406,-12.247175,0.47856525,2.5297642,-5.3753133,-14.594884,7.737056,-6.4023504,6.072691,-4.002286,-2.1707838,9.397915,1.5881897,11.874394,-11.977099,61.064613,8.684745,5.509913,5.4503074,2.3007152,-11.119284,18.502554,62.72346,-24.80023,-2.4796202,-7.65681
215,-1.8915470838546753,-3.973120927810669,79.10244750976562,-0.6714793595602931,-0.9505960679427112,91.2754409471483,-4.463398,-0.5349115,-3.2323127,15.626789,-12.305102,0.5481689,1.7335185,-5.383445,-14.470122,8.434053,-6.4841185,6.059641,-4.041351,-2.2691033,9.5214815,1.3114161,12.085218,-11.968787,60.943165,8.701236,5.47621,5.4564137,2.3366642,-11.06991,18.462496,62.68879,-24.86144,-2.468367,-7.6610665
216,-1.9599775075912476,-4.154484748840332,79.10440826416016,-0.7778386659186272,-0.706825290006942,91.15486878405859,-5.1616297,-0.45067662,-3.1097972,16.188707,-12.36028,0.60337967,0.9008312,-5.3799167,-14.303703,9.18159,-6.5472593,6.0490284,-4.0661187,-2.3713996,9.679873,1.04321,12.302447,-11.943707,60.79984,8.699744,5.4463544,5.457823,2.3439808,-11.015243,18.418425,62.641937,-24.957594,-2.448284,-7.654106
217,-2.0261318683624268,-4.355114936828613,79.104736328125,-0.8922116855441962,-0.4723299176840879,90.9864407119986,-5.853996,-0.3386075,-2.9565685,16.75391,-12.419969,0.639462,0.03498661,-5.358863,-14.101218,9.969636,-6.588912,6.0395865,-4.07488,-2.4754481,9.881468,0.7786815,12.524531,-11.892274,60.6328,8.677987,5.423893,5.4549365,2.322236,-10.952099,18.356007,62.57634,-25.108408,-2.412237,-7.625659
218,-2.0907275676727295,-4.554559230804443,79.10106658935547,-1.0150061199682059,-0.24000082084938165,90.77509978144327,-6.5475745,-0.20188424,-2.773907,17.317724,-12.480887,0.6644798,-0.89353573,-5.328654,-13.861217,10.849038,-6.638604,6.0270267,-4.068908,-2.5822527,10.116624,0.5121574,12.751422,-11.821797,60.450325,8.639144,5.404031,5.4480133,2.271149,-10.880021,18.288134,62.500885,-25.299952,-2.365216,-7.580304
219,-2.1509432792663574,-4.771173000335693,79.09744262695312,-1.1415928888726918,-0.014783941234669652,90.52101167798243,-7.2281017,-0.045723315,-2.560824,17.869286,-12.536835,0.68531764,-1.8651124,-5.2885118,-13.574631,11.796207,-6.681291,6.0120597,-4.050366,-2.692154,10.372286,0.2559607,12.98466,-11.750071,60.254524,8.58692,5.3829403,5.436993,2.1895635,-10.803434,18.236456,62.428936,-25.498438,-2.319597,-7.5387797
220,-2.2161428928375244,-4.990660667419434,79.0901870727539,-1.2655517244008005,0.1985281338884967,90.2240918258532,-7.8751717,0.12302552,-2.315533,18.384144,-12.578161,0.70907265,-2.8583832,-5.2376213,-13.232235,12.781042,-6.697565,5.9983544,-4.021163,-2.8060708,10.636034,0.024325185,13.225917,-11.692998,60.045086,8.525979,5.356788,5.4213977,2.0790474,-10.728575,18.222015,62.369915,-25.670443,-2.2879407,-7.5208116
221,-2.2815074920654297,-5.209308624267578,79.08348083496094,-1.3874500399102512,0.40139935381642716,89.87193457396822,-8.488921,0.30993876,-2.029661,18.85881,-12.60045,0.73633146,-3.8918374,-5.170072,-12.818664,13.818587,-6.6783175,5.9593573,-3.9748945,-2.92161,10.916109,-0.17750898,13.475061,-11.6431,59.802525,8.469979,5.332005,5.391543,1.9355854,-10.65889,18.25115,62.32112,-25.80159,-2.2753155,-7.5392904
222,-2.34173321723938,-5.43467378616333,79.08055877685547,-1.510838427616793,0.5955670058311439,89.46844030183013,-9.078067,0.5157588,-1.70648,19.303652,-12.608739,0.7650561,-4.9682097,-5.085055,-12.343989,14.912609,-6.6316185,5.9053955,-3.9136033,-3.038619,11.215684,-0.35648856,13.731544,-11.594504,59.531296,8.411969,5.308163,5.350276,1.7613355,-10.594887,18.314112,62.275852,-25.910055,-2.274469,-7.5801163
223,-2.418107748031616,-5.672885417938232,79.07553100585938,-1.6285990914796495,0.7778515741573097,89.03823426543805,-9.6366005,0.7272772,-1.3617707,19.717594,-12.608564,0.7976188,-6.0413485,-4.9888844,-11.837207,16.012018,-6.5639615,5.8975015,-3.851327,-3.1599023,11.515378,-0.51552665,13.995463,-11.565466,59.26423,8.3262,5.2707596,5.3151584,1.5713817,-10.535324,18.406124,62.23246,-26.01145,-2.2802503,-7.621749
224,-2.4890942573547363,-5.900976181030273,79.07088470458984,-1.7339223242150064,0.9449239602946775,88.60602099658256,-10.159645,0.93285716,-1.011609,20.10139,-12.605414,0.83559513,-7.07588,-4.890658,-11.325808,17.089792,-6.490401,5.9961557,-3.8011081,-3.2879412,11.795683,-0.6584238,14.267974,-11.575411,59.03535,8.186596,5.205356,5.304111,1.378839,-10.479867,18.52213,62.19171,-26.120943,-2.2872553,-7.6432085
225,-2.5546793937683105,-6.124725341796875,79.05931091308594,-1.8201353315448183,1.101266751382941,88.15753628577558,-10.6448555,1.1290816,-0.6395967,20.444254,-12.600712,0.88327014,-8.087199,-4.785958,-10.776046,18.110044,-6.368495,6.2445054,-3.757187,-3.4323065,12.054307,-0.78317195,14.552358,-11.633078,58.842117,7.9696693,5.0967216,5.3267145,1.1749554,-10.430458,18.673367,62.154255,-26.24984,-2.2947888,-7.636747
226,-2.61265230178833,-6.356100082397461,79.04375457763672,-1.894463040592762,1.2470694917595786,87.68662525685134,-11.096965,1.3245412,-0.24446054,20.752985,-12.592347,0.93786454,-9.093268,-4.669562,-10.186666,19.112818,-6.21179,6.6050477,-3.7151432,-3.5868506,12.301216,-0.8876611,14.848789,-11.726863,58.668262,7.6942058,4.956172,5.3708735,0.95972764,-10.386637,18.85756,62.11382,-26.38812,-2.3038943,-7.6128125
227,-2.682648181915283,-6.580206871032715,79.0322036743164,-1.9717941428630412,1.3728065254906388,87.2300321143491,-11.517919,1.525421,0.13514677,21.047773,-12.581913,0.9898395,-10.0435915,-4.5487375,-9.635553,20.142996,-6.111209,7.0145507,-3.6891608,-3.731096,12.535329,-0.9771584,15.152193,-11.847467,58.528774,7.3975887,4.8086886,5.4227157,0.75286317,-10.343895,19.04882,62.07486,-26.517382,-2.3181314,-7.5814576
228,-2.7430667877197266,-6.796993255615234,79.02518463134766,-2.0684458889811475,1.4692960481184847,86.82378380103617,-11.911564,1.7369552,0.46092322,21.350657,-12.572148,1.0293291,-10.892286,-4.4363728,-9.200074,21.253288,-6.15938,7.4067063,-3.692131,-3.845266,12.753833,-1.0595076,15.455389,-11.986464,58.442608,7.1181927,4.679688,5.470223,0.57435626,-10.296554,19.218729,62.042847,-26.621212,-2.3393352,-7.5531864
229,-2.790884256362915,-7.008709907531738,79.02178192138672,-2.183915897215037,1.5315917562985253,86.4753766260232,-12.273887,1.959465,0.7256147,21.66375,-12.560776,1.0563958,-11.6048,-4.330839,-8.889669,22.38601,-6.3918047,7.8250227,-3.7338572,-3.925421,12.9576645,-1.1439579,15.760368,-12.166626,58.42448,6.848771,4.5772867,5.504348,0.42042196,-10.241742,19.369186,62.02821,-26.692932,-2.3724606,-7.5307236
230,-2.837137460708618,-7.210842609405518,79.01595306396484,-2.3115771085804835,1.5660704049022554,86.16563323352486,-12.604928,2.1906002,0.9488352,21.975838,-12.547081,1.0742898,-12.217803,-4.232455,-8.667485,23.544634,-6.759044,8.282458,-3.803405,-3.9825802,13.146203,-1.2264973,16.068867,-12.385558,58.464066,6.575196,4.4875836,5.534752,0.2811323,-10.179994,19.510098,62.02946,-26.742989,-2.4146442,-7.5097475
231,-2.8812668323516846,-7.41261625289917,79.01457214355469,-2.449795120790219,1.5802588857692053,85.89175894062225,-12.910746,2.4279501,1.1335782,22.280334,-12.529343,1.0786698,-12.7846155,-4.161057,-8.539338,24.858784,-7.218269,8.664058,-3.8841906,-4.0194736,13.314212,-1.2968862,16.370272,-12.597386,58.54588,6.3248935,4.4028826,5.5784574,0.16792092,-10.110333,19.626097,62.03234,-26.782276,-2.4561582,-7.4901934
232,-2.9216387271881104,-7.606664180755615,79.01716613769531,-2.596738872453718,1.581407027974805,85.65110294023191,-13.194571,2.666333,1.2836002,22.56604,-12.503895,1.0659113,-13.3555,-4.1399856,-8.507225,26.45395,-7.7197824,8.853687,-3.9607427,-4.038935,13.454929,-1.3465146,16.647938,-12.7541685,58.659855,6.1284633,4.31546,5.654479,0.091101244,-10.032906,19.702387,62.024815,-26.82227,-2.485595,-7.472323
233,-2.956204414367676,-7.8010759353637695,79.02136993408203,-2.7583326695958807,1.5717982562232986,85.44512220820219,-13.459562,2.9127803,1.3952271,22.833485,-12.470991,1.0266911,-13.942094,-4.188284,-8.606434,28.382465,-8.269137,8.761143,-4.0352244,-4.030857,13.563377,-1.382157,16.892378,-12.848755,58.827213,6.01984,4.2169538,5.775718,0.05426223,-9.946194,19.72829,62.00522,-26.86156,-2.5002732,-7.4619017
234,-2.9882326126098633,-7.985486030578613,79.02833557128906,-2.9261430257926566,1.5466314719082153,85.2754145737917,-13.698494,3.1590862,1.4702448,23.07991,-12.428535,0.9667624,-14.504399,-4.307099,-8.814776,30.548517,-8.877288,8.46032,-4.1154656,-4.00039,13.642251,-1.4102249,17.104296,-12.90366,59.055405,5.9779906,4.1135225,5.9328136,0.049593464,-9.8523245,19.714622,61.98431,-26.896324,-2.5044298,-7.4580035
235,-3.019634246826172,-8.176703453063965,79.03228759765625,-3.0792179734476277,1.5025956816432886,85.14003723210473,-13.901801,3.3783858,1.5204507,23.292717,-12.370018,0.90523577,-15.014082,-4.488621,-9.048578,32.852028,-9.504251,8.083888,-4.1946864,-3.9699538,13.698247,-1.421868,17.281918,-12.916395,59.311363,5.949217,4.0188837,6.1101403,0.07064748,-9.75606,19.679783,61.971115,-26.931513,-2.5037448,-7.452113
236,-3.0482704639434814,-8.355836868286133,79.03678894042969,-3.1972674336614357,1.4368984102289335,85.03644387003222,-14.060145,3.5467138,1.5572225,23.460173,-12.290098,0.86074466,-15.44571,-4.7138257,-9.229426,35.195995,-10.106837,7.7702184,-4.2671685,-3.9582694,13.738251,-1.4076644,17.421677,-12.883197,59.561577,5.8794937,3.9464378,6.292046,0.111689486,-9.66288,19.64353,61.97255,-26.97165,-2.5039973,-7.435422
237,-3.076173782348633,-8.539270401000977,79.03953552246094,-3.2745401517268347,1.3440994581748351,84.9687600604213,-14.168294,3.6549983,1.5785241,23.58366,-12.187562,0.84216744,-15.804458,-4.9797416,-9.340708,37.623882,-10.674187,7.551506,-4.332744,-3.968836,13.764928,-1.3674326,17.517258,-12.7864,59.80808,5.7588983,3.908345,6.485591,0.17734489,-9.5775,19.604856,61.989162,-27.025133,-2.5045142,-7.407654
238,-3.097017765045166,-8.712635040283203,79.04227447509766,-3.3214073484007023,1.2271677631914553,84.93703656195908,-14.23166,3.7161415,1.5805017,23.668314,-12.065563,0.83827806,-16.093214,-5.291897,-9.423459,40.153408,-11.222661,7.358397,-4.395591,-3.9889264,13.774821,-1.3074025,17.56694,-12.632715,60.06759,5.6155663,3.8940609,6.696113,0.27157158,-9.500766,19.556597,62.013218,-27.085981,-2.5031328,-7.371886
