unveil-humanoid-operators/unveil-humanoid-operators.github.io/feature-analysis-animation/data/feature_matrix_instances/weight_ankle_peak_vel_gesture_A039_thinking_002__A039.csv
Frame,root_translateX,root_translateY,root_translateZ,root_rotateX,root_rotateY,root_rotateZ,left_hip_pitch_joint_dof,left_hip_roll_joint_dof,left_hip_yaw_joint_dof,left_knee_joint_dof,left_ankle_pitch_joint_dof,left_ankle_roll_joint_dof,right_hip_pitch_joint_dof,right_hip_roll_joint_dof,right_hip_yaw_joint_dof,right_knee_joint_dof,right_ankle_pitch_joint_dof,right_ankle_roll_joint_dof,waist_yaw_joint_dof,waist_roll_joint_dof,waist_pitch_joint_dof,left_shoulder_pitch_joint_dof,left_shoulder_roll_joint_dof,left_shoulder_yaw_joint_dof,left_elbow_joint_dof,left_wrist_roll_joint_dof,left_wrist_pitch_joint_dof,left_wrist_yaw_joint_dof,right_shoulder_pitch_joint_dof,right_shoulder_roll_joint_dof,right_shoulder_yaw_joint_dof,right_elbow_joint_dof,right_wrist_roll_joint_dof,right_wrist_pitch_joint_dof,right_wrist_yaw_joint_dof
0,-0.23641647398471832,2.0779340267181396,78.88893127441406,-0.16703314233452973,-0.4363953161643158,-88.4706949922019,1.8127054,9.813599,28.200132,11.418053,-9.759004,-5.298271,2.922319,-8.490296,-33.864136,8.139243,-6.371413,4.229547,-0.76034987,0.92049897,9.317887,-0.1543919,9.939957,-25.939257,63.48864,5.9645004,-0.64114714,8.549457,-8.508295,-11.301226,45.009075,69.05218,4.8749695,-3.34591,-6.013345
1,-0.238464817404747,2.0772552490234375,78.88955688476562,-0.1647753632394809,-0.44055838730098146,-88.44996168763902,1.7980858,9.81556,28.180592,11.441099,-9.764957,-5.2901444,2.9373243,-8.490191,-33.887146,8.12575,-6.3663054,4.239139,-0.7825923,0.93319815,9.328949,-0.23980896,9.9557,-25.873333,63.295174,5.6355033,-0.57890254,8.339613,-8.626196,-11.289972,44.87698,69.04594,5.2817135,-3.3604882,-5.9128327
2,-0.23935440182685852,2.0798332691192627,78.88935852050781,-0.16424242328827499,-0.4455044147574148,-88.42949579857806,1.7848328,9.817423,28.161705,11.463629,-9.770859,-5.2820454,2.9524727,-8.490576,-33.909676,8.113728,-6.3623023,4.2504773,-0.79274315,0.9421139,9.347554,-0.32499906,9.982262,-25.81578,63.103573,5.301358,-0.507953,8.125007,-8.719043,-11.288359,44.7052,69.01667,5.6821356,-3.3694644,-5.7994223
3,-0.24150212109088898,2.0835390090942383,78.88866424560547,-0.1633185422490265,-0.44845663418419357,-88.40844515866101,1.768495,9.8195505,28.141518,11.486811,-9.776527,-5.273922,2.9658804,-8.490278,-33.93277,8.100236,-6.3564777,4.258269,-0.8159556,0.9604248,9.344173,-0.40580305,9.995407,-25.768963,62.902664,4.9626365,-0.4489561,7.9225035,-8.829937,-11.292484,44.605408,68.99455,6.0955667,-3.3842146,-5.7125063
4,-0.24424882233142853,2.090806245803833,78.88810729980469,-0.16304779016350945,-0.4503538783478396,-88.38579467471911,1.7487985,9.8221445,28.118029,11.509808,-9.780485,-5.2660365,2.9729192,-8.491473,-33.95616,8.096458,-6.352528,4.2569747,-0.8025894,0.9655101,9.382713,-0.5384023,10.04519,-25.71224,62.627758,4.6769423,-0.42581898,7.7075863,-8.966808,-11.320018,44.415165,68.89163,6.35156,-3.4136999,-5.6576304
5,-0.24619174003601074,2.098485231399536,78.88821411132812,-0.16375720306192046,-0.4476848422484229,-88.36166897510273,1.7201905,9.826457,28.089445,11.536079,-9.784252,-5.2586584,2.971231,-8.492303,-33.9796,8.097933,-6.346246,4.2400856,-0.791683,0.9691038,9.413331,-0.6541314,10.1344,-25.666002,62.24137,4.3814974,-0.44422552,7.4881854,-9.108236,-11.387855,44.268295,68.706696,6.521759,-3.4599404,-5.66343
6,-0.24980458617210388,2.1046862602233887,78.88929748535156,-0.1653953640700216,-0.4422022202723451,-88.33646664452999,1.6855782,9.831765,28.057373,11.564879,-9.788131,-5.2515616,2.9613776,-8.494798,-34.002583,8.109226,-6.3414617,4.2123337,-0.7903867,0.97504735,9.445173,-0.7723808,10.235234,-25.60289,61.791317,4.0964727,-0.49509877,7.263967,-9.263333,-11.482087,44.143536,68.46918,6.6139245,-3.5184264,-5.71003
7,-0.25217655301094055,2.115900993347168,78.89070892333984,-0.16704590000086192,-0.4356755119052082,-88.30955613606116,1.6489713,9.83688,28.023993,11.59251,-9.790147,-5.244133,2.951353,-8.496307,-34.02754,8.116766,-6.334166,4.184795,-0.7907271,0.98361343,9.478072,-0.90608364,10.344035,-25.548449,61.2996,3.8531196,-0.56093127,7.0529866,-9.434158,-11.598586,44.034126,68.18615,6.6361084,-3.585452,-5.7852054
8,-0.2541433572769165,2.1253693103790283,78.89186096191406,-0.16833297703296113,-0.42961592314996905,-88.28042926438607,1.6133872,9.840189,27.991684,11.616492,-9.788812,-5.2356157,2.9455698,-8.497474,-34.056244,8.116264,-6.3251104,4.168827,-0.7902446,0.99448603,9.51229,-1.0656239,10.458139,-25.525759,60.786503,3.680008,-0.6250132,6.873561,-9.64069,-11.732371,43.96615,67.878426,6.627305,-3.6583436,-5.877416
9,-0.25520506501197815,2.135106086730957,78.89236450195312,-0.16893005550415385,-0.42252746810637065,-88.2482296311261,1.5759292,9.84255,27.961151,11.639531,-9.784722,-5.224357,2.9453542,-8.496491,-34.09064,8.100668,-6.3115172,4.1699595,-0.7900655,1.0080975,9.543764,-1.2458636,10.580163,-25.540426,60.244896,3.6026103,-0.6945676,6.7325344,-9.880211,-11.883887,43.949333,67.54499,6.540551,-3.736937,-5.9958553
10,-0.2561090886592865,2.1427407264709473,78.89359283447266,-0.17022281821820212,-0.4142437407619572,-88.21348846980236,1.535552,9.844756,27.931135,11.663496,-9.779175,-5.2112513,2.9459252,-8.495416,-34.12875,8.080187,-6.2970715,4.181374,-0.790036,1.0238879,9.573636,-1.4440647,10.711571,-25.582462,59.66802,3.598371,-0.77509856,6.6195693,-10.147328,-12.052849,43.97251,67.17998,6.3783894,-3.8222587,-6.142782
11,-0.256915420293808,2.1520915031433105,78.89492797851562,-0.16920573950285686,-0.40818627280395103,-88.17769920498552,1.4999255,9.843829,27.900845,11.68031,-9.770108,-5.1993804,2.9489386,-8.495999,-34.16804,8.059865,-6.2836366,4.1956763,-0.79126567,1.0386891,9.608014,-1.6642001,10.850684,-25.64223,59.06816,3.6296034,-0.8474122,6.525863,-10.429502,-12.237318,43.989796,66.77247,6.2021756,-3.9113588,-6.295894
12,-0.25852593779563904,2.1650631427764893,78.89552307128906,-0.1680568623389307,-0.4079090802047487,-88.14242781315595,1.476134,9.837551,27.8697,11.6845455,-9.757012,-5.19167,2.9581115,-8.498258,-34.206444,8.039496,-6.270511,4.205385,-0.79102033,1.0504042,9.654468,-1.9147573,10.99408,-25.71484,58.46091,3.657626,-0.892169,6.443317,-10.730651,-12.434426,43.976826,66.327286,6.1032767,-4.005263,-6.4323173
13,-0.26014018058776855,2.178013563156128,78.8954849243164,-0.1624861451556603,-0.4154404169386043,-88.10989938851442,1.4702817,9.823075,27.83915,11.668933,-9.737697,-5.1915793,2.969015,-8.507602,-34.24051,8.034968,-6.266604,4.209141,-0.7888419,1.057886,9.71368,-2.200259,11.139222,-25.800318,57.85303,3.6819704,-0.90147936,6.3862233,-11.044939,-12.64305,43.92022,65.84096,6.1064653,-4.106698,-6.5423217
14,-0.2631656229496002,2.1854236125946045,78.89598083496094,-0.15629988790797567,-0.4286760226520555,-88.07856361751249,1.4770802,9.802553,27.808878,11.639144,-9.713626,-5.1965876,2.9837897,-8.520609,-34.27297,8.034883,-6.2657647,4.2106714,-0.782824,1.0631579,9.781815,-2.519221,11.285779,-25.90484,57.23932,3.7200341,-0.8865518,6.354244,-11.386709,-12.863298,43.852333,65.326004,6.1862473,-4.216243,-6.638863
15,-0.2641272246837616,2.199056625366211,78.89764404296875,-0.14983440942131185,-0.4443721097262568,-88.04466184071876,1.4858451,9.78133,27.775652,11.608273,-9.688996,-5.201001,3.0035546,-8.532507,-34.307808,8.030424,-6.262443,4.2103667,-0.7802353,1.0682061,9.853036,-2.8622937,11.433356,-26.020906,56.618282,3.760751,-0.856766,6.316267,-11.726753,-13.093416,43.736996,64.76169,6.2493887,-4.322218,-6.7342067
16,-0.26356014609336853,2.215991258621216,78.89871978759766,-0.14527245475680664,-0.4590790968581379,-88.00491033266594,1.4873416,9.762412,27.737225,11.584682,-9.665336,-5.1988206,3.0177906,-8.547557,-34.347073,8.0397835,-6.264445,4.2090197,-0.7776595,1.0738382,9.926004,-3.2259927,11.581735,-26.148695,55.987007,3.7945921,-0.82135594,6.2418156,-12.087142,-13.331205,43.601368,64.16241,6.2889576,-4.415042,-6.8408895
17,-0.2646225094795227,2.2248222827911377,78.90008544921875,-0.1400884453317842,-0.47255709694641607,-87.95654152041278,1.4777498,9.7481165,27.690834,11.574128,-9.644706,-5.1863637,3.0234208,-8.567229,-34.392887,8.071935,-6.275521,4.2053547,-0.77853596,1.0792211,9.999217,-3.6121535,11.731114,-26.287369,55.352196,3.8280993,-0.77585495,6.1258593,-12.46467,-13.57521,43.433117,63.525085,6.2824373,-4.4865937,-6.961998
18,-0.2690860629081726,2.243830919265747,78.89926147460938,-0.1389618955038773,-0.4868397740127669,-87.9014986452524,1.4627581,9.736953,27.637962,11.571187,-9.626052,-5.16764,3.0388446,-8.579855,-34.445965,8.085041,-6.275088,4.1991735,-0.78738314,1.0847499,10.07066,-4.017446,11.880904,-26.43445,54.712856,3.864167,-0.7176041,5.9830003,-12.819624,-13.824134,43.19113,62.823933,6.197251,-4.5426435,-7.0909967
19,-0.2724687159061432,2.262183904647827,78.89958190917969,-0.1368044685110732,-0.5009803646284339,-87.84441689341772,1.4456342,9.725746,27.583164,11.569567,-9.606512,-5.1480284,3.0547993,-8.592432,-34.500633,8.096649,-6.273547,4.1934366,-0.790941,1.0904201,10.144885,-4.4436293,12.031258,-26.59784,54.058056,3.8848035,-0.65823597,5.814282,-13.225676,-14.078903,42.96864,62.118572,6.1494975,-4.597895,-7.226286
20,-0.2742733359336853,2.276730537414551,78.90103149414062,-0.13361631660586293,-0.5142366326750217,-87.78971745118487,1.4308617,9.7109375,27.531342,11.561709,-9.58337,-5.1330476,3.0673168,-8.607969,-34.552277,8.110806,-6.274351,4.191131,-0.79410577,1.096675,10.218685,-4.8772497,12.181523,-26.767767,53.37343,3.873897,-0.6096623,5.6184278,-13.66001,-14.33782,42.754597,61.39923,6.112777,-4.6634197,-7.366323
21,-0.2743840217590332,2.2917985916137695,78.90312957763672,-0.12833723697919194,-0.5262596593556732,-87.73824663744712,1.4195739,9.691247,27.48357,11.544723,-9.55477,-5.125964,3.07482,-8.627769,-34.599342,8.12911,-6.2792206,4.1948586,-0.80010086,1.1036355,10.288227,-5.3137813,12.331107,-26.938307,52.654808,3.8258014,-0.57826746,5.3795824,-14.09875,-14.599315,42.525978,60.64779,6.048634,-4.7420697,-7.5139565
22,-0.2737230062484741,2.306403875350952,78.90593719482422,-0.12210839391214345,-0.5374814932015978,-87.68776235549711,1.4090178,9.668955,27.437328,11.5237665,-9.522918,-5.123272,3.0804825,-8.649358,-34.64483,8.146969,-6.2847667,4.202399,-0.8091097,1.1110501,10.353906,-5.7575636,12.4798,-27.112555,51.910015,3.7501535,-0.5562811,5.103082,-14.542662,-14.862945,42.278385,59.8637,5.9568086,-4.82724,-7.668941
23,-0.2719894349575043,2.326843500137329,78.90782165527344,-0.11607073436155259,-0.5485055201601218,-87.63804601369334,1.398872,9.64536,27.391861,11.501097,-9.490218,-5.1202264,3.0836852,-8.672799,-34.68911,8.16865,-6.292022,4.209484,-0.8196465,1.1188623,10.417186,-6.210342,12.627538,-27.297527,51.143833,3.6522527,-0.5339083,4.8202615,-14.995985,-15.128351,42.01846,59.055466,5.8583207,-4.915799,-7.824909
24,-0.27273720502853394,2.347259283065796,78.90906524658203,-0.10938969757932289,-0.5600660346911467,-87.58866650216399,1.3863361,9.623099,27.346138,11.4847975,-9.461969,-5.1121597,3.082936,-8.699411,-34.732613,8.201485,-6.3031883,4.211922,-0.83757883,1.1270992,10.474004,-6.6664324,12.773855,-27.493504,50.360752,3.538227,-0.5017851,4.5614834,-15.407403,-15.394747,41.704597,58.191803,5.707111,-5.003157,-7.975368
25,-0.2708676755428314,2.3716161251068115,78.91056823730469,-0.102561347573674,-0.5713779259326991,-87.5395060371932,1.3700558,9.602485,27.299427,11.475886,-9.438798,-5.0966086,3.0765948,-8.729681,-34.77528,8.24776,-6.3192806,4.2066627,-0.8440632,1.1349276,10.536989,-7.1433225,12.919165,-27.71798,49.557693,3.3928003,-0.4562835,4.3332763,-15.918894,-15.663364,41.454716,57.374542,5.691809,-5.0945587,-8.117592
26,-0.2700362503528595,2.390076160430908,78.91166687011719,-0.09713697501619853,-0.5824494759858002,-87.4906534904748,1.3518051,9.581655,27.252443,11.470161,-9.418273,-5.076415,3.0645704,-8.7641535,-34.81681,8.307633,-6.3413067,4.1966596,-0.8445805,1.1423686,10.60421,-7.63659,13.063569,-27.962187,48.732307,3.2196035,-0.4025194,4.119755,-16.52674,-15.933048,41.261665,56.600475,5.78466,-5.1904163,-8.255599
27,-0.2679573893547058,2.4069931507110596,78.91119384765625,-0.09169439602391062,-0.594541733783397,-87.44276200547303,1.3340023,9.561552,27.206474,11.46635,-9.399196,-5.0549517,3.0534036,-8.7983265,-34.85794,8.3673525,-6.362171,4.1863403,-0.85659754,1.1511134,10.663002,-8.12894,13.206284,-28.212982,47.893017,3.0483196,-0.34410968,3.9204724,-17.073227,-16.201439,41.008137,55.758575,5.7783685,-5.283282,-8.392852
28,-0.2654404044151306,2.429077625274658,78.91217803955078,-0.08557002075360576,-0.6089361600756928,-87.39622056051032,1.319082,9.542383,27.162481,11.461438,-9.379615,-5.035522,3.0458152,-8.830439,-34.899067,8.421678,-6.378866,4.1802225,-0.86393803,1.1615266,10.721649,-8.6345625,13.347688,-28.488056,47.051098,2.9062035,-0.28428984,3.7393534,-17.636631,-16.47045,40.767124,54.910583,5.7377863,-5.3711696,-8.533195
29,-0.2639029026031494,2.4460198879241943,78.91368103027344,-0.08256145968854581,-0.6265544669201076,-87.34959755643541,1.3077968,9.525434,27.119478,11.456394,-9.360196,-5.0191636,3.0483234,-8.856135,-34.943474,8.460122,-6.386298,4.180241,-0.8693332,1.1756442,10.780967,-9.152655,13.487731,-28.789158,46.204056,2.8021169,-0.22211541,3.5776372,-18.21862,-16.740002,40.54723,54.056614,5.6410813,-5.4542966,-8.677937
30,-0.2617928981781006,2.470465660095215,78.91410827636719,-0.0810034843934888,-0.6465745550588008,-87.30309041217316,1.2985795,9.510091,27.077446,11.452033,-9.3415575,-5.004072,3.054959,-8.879678,-34.98948,8.494612,-6.390468,4.1837983,-0.87378585,1.1923391,10.839631,-9.681014,13.62596,-29.11269,45.347588,2.721001,-0.15651609,3.4337611,-18.820133,-17.009947,40.34311,53.19599,5.50866,-5.5341644,-8.825002
31,-0.26103949546813965,2.4918627738952637,78.91679382324219,-0.0784092671416594,-0.6671440126243606,-87.26001397180697,1.2907989,9.494489,27.038387,11.44732,-9.322709,-4.989257,3.0613863,-8.902834,-35.032024,8.527068,-6.3927474,4.188322,-0.8749444,1.2086524,10.897417,-10.22036,13.762107,-29.453413,44.48812,2.65394,-0.091474704,3.3048315,-19.437874,-17.279295,40.14554,52.327213,5.3765388,-5.6083937,-8.973588
32,-0.25412774085998535,2.5136752128601074,78.9181137084961,-0.07402862162321762,-0.6865160775733192,-87.22374226907979,1.2841338,9.476201,27.005001,11.440278,-9.302503,-4.9737,3.0583122,-8.931461,-35.064823,8.571942,-6.400989,4.191354,-0.8703698,1.2211863,10.953509,-10.769619,13.895647,-29.804573,43.63097,2.5941494,-0.030906368,3.1879482,-20.068964,-17.546616,39.945023,51.44961,5.280993,-5.6748986,-9.123006
33,-0.24925962090492249,2.528923273086548,78.9197006225586,-0.06474025695900852,-0.7041768198421462,-87.19670668105499,1.2790991,9.453542,26.979095,11.429905,-9.280378,-4.9568787,3.0424452,-8.967974,-35.084415,8.633185,-6.417031,4.1927342,-0.858909,1.2275897,11.007791,-11.331885,14.026972,-30.169067,42.77919,2.548335,0.01896859,3.0842555,-20.71778,-17.811447,39.741936,50.563877,5.238373,-5.732772,-9.268024
34,-0.24810582399368286,2.5668842792510986,78.91921997070312,-0.054484116245754145,-0.7211842495355631,-87.1765695233004,1.276489,9.427617,26.95906,11.415293,-9.255889,-4.939438,3.0196486,-9.008722,-35.094807,8.70155,-6.4360275,4.1936135,-0.8423678,1.229701,11.060026,-11.905683,14.155914,-30.548542,41.928802,2.517739,0.061817683,2.9944925,-21.385546,-18.073942,39.54115,49.672123,5.2272468,-5.7834544,-9.410701
35,-0.24650642275810242,2.592468500137329,78.91923522949219,-0.043246699287752474,-0.7376829158350713,-87.15963518429028,1.2740488,9.401485,26.941614,11.400842,-9.231623,-4.9219317,2.9927542,-9.051133,-35.100887,8.775057,-6.4571075,4.1935644,-0.8225544,1.2306871,11.1107025,-12.486884,14.281025,-30.936087,41.077744,2.4841342,0.1086115,2.9155276,-22.062737,-18.332495,39.338326,48.77359,5.226514,-5.828651,-9.560999
36,-0.24003241956233978,2.609661102294922,78.92048645019531,-0.03214710165771097,-0.7538122597579248,-87.14216224028658,1.2695316,9.378503,26.923424,11.391061,-9.210535,-4.9051127,2.9688714,-9.089818,-35.108448,8.841869,-6.474799,4.192092,-0.8018813,1.2335984,11.159629,-13.070664,14.4002,-31.32385,40.224556,2.4303505,0.17033304,2.8444698,-22.74298,-18.585308,39.130795,47.87242,5.2149234,-5.8701243,-9.729196
37,-0.2300632894039154,2.628862142562866,78.92223358154297,-0.025305245558727485,-0.7688059816277567,-87.1234656566559,1.2617834,9.358895,26.903452,11.38563,-9.192345,-4.8898163,2.9458451,-9.125016,-35.117786,8.905612,-6.490636,4.1881275,-0.78063565,1.2402078,11.206666,-13.660217,14.511666,-31.709135,39.366276,2.344225,0.25718132,2.7778964,-23.42917,-18.831003,38.915585,46.973724,5.193562,-5.906819,-9.923138
38,-0.23031939566135406,2.658681631088257,78.92105102539062,-0.018566781880257472,-0.7828929953694345,-87.10549499536084,1.2525452,9.341262,26.883572,11.381882,-9.175543,-4.875545,2.9218981,-9.158821,-35.12641,8.968214,-6.505246,4.182314,-0.7579009,1.2486534,11.251069,-14.2571945,14.614886,-32.095623,38.506847,2.2380784,0.36069474,2.7186258,-24.125225,-19.06906,38.695637,46.077724,5.1715612,-5.938425,-10.135917
39,-0.22627057135105133,2.680216073989868,78.92127990722656,-0.011835409241198119,-0.7975842294180682,-87.0883181697428,1.243998,9.324974,26.8648,11.380446,-9.160549,-4.860559,2.901286,-9.190365,-35.135258,9.025307,-6.5172577,4.1765223,-0.7343555,1.2570567,11.291975,-14.856311,14.709987,-32.486473,37.655567,2.130058,0.46407756,2.673046,-24.824074,-19.298616,38.4757,45.178394,5.1391845,-5.9678907,-10.35572
40,-0.21930858492851257,2.7027652263641357,78.9217300415039,-0.006587223301416215,-0.8143188153906621,-87.07215104134896,1.2398636,9.308309,26.848574,11.377582,-9.145284,-4.843092,2.8870595,-9.2196455,-35.145058,9.074577,-6.5263305,4.1726727,-0.7111246,1.262679,11.328236,-15.45011,14.7972555,-32.88367,36.819916,2.0392935,0.550657,2.6474144,-25.520578,-19.5191,38.261715,44.271633,5.0867105,-5.998318,-10.570529
41,-0.21601912379264832,2.720634937286377,78.92504119873047,-0.0005840036240640037,-0.8342927495203801,-87.05738659471432,1.2409147,9.291754,26.835526,11.376624,-9.131865,-4.820639,2.8825386,-9.246441,-35.15677,9.111437,-6.5298314,4.171751,-0.689084,1.2644565,11.359359,-16.03773,14.877371,-33.288723,36.003593,1.9706446,0.6097325,2.6503963,-26.21675,-19.730068,38.05786,43.359074,5.001373,-6.0314746,-10.780969
42,-0.21457667648792267,2.7413008213043213,78.92733764648438,0.00582994095381574,-0.856486740116813,-87.0437767400409,1.2465893,9.275119,26.824997,11.374315,-9.1181135,-4.7947536,2.8854766,-9.270331,-35.169804,9.138525,-6.529275,4.1724925,-0.6679197,1.2637677,11.386168,-16.621948,14.950465,-33.69968,35.201153,1.9138671,0.6521022,2.6762288,-26.914968,-19.930977,37.860218,42.44285,4.8917093,-6.0654855,-10.992385
43,-0.20521071553230286,2.7642970085144043,78.9299087524414,0.011283237828116199,-0.8790086708318608,-87.03074633439027,1.2530346,9.259351,26.815508,11.372734,-9.105271,-4.770138,2.8903253,-9.292595,-35.182686,9.162195,-6.5272317,4.173744,-0.6470178,1.2616867,11.410065,-17.203028,15.01605,-34.11415,34.408707,1.8645492,0.6931678,2.7092657,-27.610819,-20.121284,37.662697,41.518173,4.780178,-6.097167,-11.200004
44,-0.20012128353118896,2.778890609741211,78.9321060180664,0.016146811694985393,-0.9001453922128825,-87.01779540403402,1.2586809,9.24436,26.805737,11.36797,-9.090754,-4.7514863,2.8949347,-9.311868,-35.194664,9.180985,-6.52229,4.1742816,-0.62583596,1.2596027,11.432416,-17.782476,15.073532,-34.530262,33.623486,1.8176707,0.74813294,2.7340019,-28.300217,-20.30085,37.459118,40.581493,4.688595,-6.1237106,-11.399159
45,-0.19314263761043549,2.807931900024414,78.93146514892578,0.019204542205485634,-0.9224905881948671,-87.00564800309778,1.2691252,9.22867,26.796638,11.353673,-9.07132,-4.742515,2.9009454,-9.328757,-35.204365,9.197117,-6.5155306,4.174551,-0.6036891,1.2572281,11.458256,-18.361288,15.121798,-34.944214,32.843864,1.7830104,0.8218611,2.7464314,-28.983124,-20.468924,37.243614,39.62931,4.625027,-6.139235,-11.589487
46,-0.18667107820510864,2.8263368606567383,78.93209075927734,0.021712507165454326,-0.9460128678445844,-86.99426995467806,1.2822801,9.213448,26.788313,11.336182,-9.050551,-4.7399173,2.9094732,-9.342934,-35.212814,9.208523,-6.506172,4.1748977,-0.58112675,1.2541897,11.484704,-18.939377,15.160447,-35.358135,32.07302,1.7594793,0.9057612,2.7549121,-29.662294,-20.625452,37.020687,38.665863,4.577052,-6.147142,-11.773348
47,-0.1830492913722992,2.848461866378784,78.93183898925781,0.02423641230114833,-0.9647195766170445,-86.98212026854858,1.289112,9.199773,26.778673,11.319991,-9.03028,-4.737727,2.914062,-9.354965,-35.22181,9.217067,-6.4952602,4.174113,-0.56526417,1.2520819,11.501434,-19.511366,15.188506,-35.77083,31.314322,1.7279778,0.994931,2.7615216,-30.346085,-20.759924,36.8071,37.709118,4.5362544,-6.1592383,-11.951703
48,-0.1767541468143463,2.8602774143218994,78.93399810791016,0.024594373620816855,-0.9724747392584259,-86.9675222552989,1.2796309,9.188921,26.76566,11.313022,-9.014669,-4.729841,2.9073997,-9.366268,-35.232765,9.225064,-6.4834967,4.1710186,-0.54287004,1.2494702,11.503035,-20.082428,15.210449,-36.20529,30.567188,1.6631708,1.0851462,2.771519,-31.010607,-20.893791,36.591743,36.734783,4.493069,-6.185463,-12.120324
49,-0.1671970635652542,2.8750503063201904,78.93492889404297,0.022030938764966805,-0.9630406093191284,-86.9511267487376,1.243594,9.184421,26.748674,11.322792,-9.007107,-4.713849,2.882688,-9.374479,-35.245224,9.231519,-6.4702206,4.1632323,-0.5174034,1.2499384,11.483616,-20.6486,15.22531,-36.654007,29.826414,1.5465006,1.177853,2.7837923,-31.659967,-21.02618,36.38037,35.742302,4.4497437,-6.2321677,-12.278811
50,-0.16066645085811615,2.896324634552002,78.935791015625,0.019270148959395893,-0.9412842281267535,-86.93336799715023,1.1900532,9.183533,26.729013,11.340862,-9.003657,-4.6931806,2.8452735,-9.380273,-35.258533,9.235824,-6.455133,4.152141,-0.49306044,1.252695,11.448217,-21.209011,15.232545,-37.1099,29.09295,1.3943486,1.2743366,2.7966738,-32.302307,-21.151161,36.175575,34.74016,4.409886,-6.2928042,-12.429076
51,-0.15699946880340576,2.9180378913879395,78.9356460571289,0.015554915822961674,-0.9176690875638387,-86.91263617846201,1.13361,9.182062,26.706701,11.360202,-9.001117,-4.67087,2.8072636,-9.386814,-35.274746,9.239828,-6.440345,4.141864,-0.47114572,1.2547755,11.407519,-21.762234,15.232683,-37.576214,28.369936,1.2427303,1.3698722,2.811066,-32.934185,-21.269012,35.977947,33.73065,4.3693748,-6.358054,-12.573748
52,-0.15478020906448364,2.9293320178985596,78.93817901611328,0.014136847736004385,-0.9026666348618203,-86.88727956237095,1.0897012,9.175116,26.681787,11.371636,-8.995251,-4.649855,2.7832484,-9.396208,-35.29663,9.24079,-6.4259024,4.1365895,-0.4544598,1.2539089,11.371978,-22.309038,15.226902,-38.055767,27.662106,1.1247348,1.4595644,2.8273714,-33.554066,-21.379616,35.790905,32.718536,4.325158,-6.4184537,-12.715872
53,-0.14182816445827484,2.9451584815979004,78.93975067138672,0.014858430152486826,-0.9000280312433304,-86.85471560444114,1.0631251,9.159906,26.653551,11.372302,-8.985057,-4.629326,2.7765236,-9.411898,-35.326756,9.243571,-6.41517,4.138967,-0.44581702,1.2491477,11.345638,-22.850525,15.216496,-38.55434,26.968843,1.0582942,1.5406893,2.8625467,-34.159504,-21.481785,35.61031,31.69869,4.2774553,-6.468089,-12.855005
54,-0.131570965051651,2.960114002227783,78.94125366210938,0.018125061046627165,-0.9038245866505895,-86.8165852896169,1.0460048,9.139156,26.62209,11.36603,-8.971947,-4.6081676,2.7810156,-9.431172,-35.36319,9.244607,-6.4054227,4.146294,-0.4703021,1.2466588,11.320232,-23.363283,15.2080765,-39.035248,26.273678,1.027951,1.6158108,2.904517,-34.789738,-21.548246,35.473114,30.709085,4.2306185,-6.5144277,-12.996197
55,-0.12357013672590256,2.972048044204712,78.94261169433594,0.021137445441610152,-0.9100310625717162,-86.77738017743266,1.0324559,9.11745,26.589254,11.358088,-8.958286,-4.589157,2.789511,-9.450597,-35.40091,9.244972,-6.3959436,4.1546016,-0.45293826,1.2291414,11.297561,-23.898846,15.188513,-39.57842,25.609806,0.9925352,1.690574,2.9368372,-35.356064,-21.639368,35.28676,29.669674,4.1708083,-6.563878,-13.124767
56,-0.12145305424928665,2.9835681915283203,78.94427490234375,0.022899388655186908,-0.9145770828769736,-86.74204497436993,1.0177745,9.099058,26.556751,11.352162,-8.945453,-4.574903,2.7955508,-9.466475,-35.43453,9.244647,-6.3852963,4.159925,-0.45295405,1.2188348,11.273075,-24.39619,15.16346,-40.081642,24.939161,0.95207304,1.7672906,2.9068856,-35.937115,-21.717188,35.15258,28.652382,4.111536,-6.6260953,-13.259552
57,-0.11202217638492584,2.9973104000091553,78.9448471069336,0.02217416954292864,-0.9173022881968912,-86.71283559185623,1.0024114,9.085983,26.524967,11.348249,-8.933278,-4.569365,2.7979758,-9.476351,-35.4616,9.242994,-6.3724904,4.160123,-0.4556799,1.209568,11.2457905,-24.863321,15.134918,-40.556652,24.266867,0.8950153,1.8466389,2.7915952,-36.52559,-21.780249,35.05545,27.658705,4.041277,-6.707704,-13.400086
58,-0.10349717736244202,3.0094449520111084,78.9455795288086,0.01805274648712451,-0.9199897362553324,-86.68690390431998,0.9877916,9.07587,26.492794,11.3457155,-8.921415,-4.56998,2.8004706,-9.482488,-35.485176,9.239447,-6.3581705,4.1576695,-0.43399352,1.194823,11.21852,-25.331192,15.08751,-41.048485,23.618036,0.82934755,1.9278101,2.6226888,-37.078094,-21.856047,34.949512,26.642729,3.9594016,-6.800513,-13.537586
59,-0.09924523532390594,3.0215556621551514,78.94588470458984,0.01595825091709699,-0.921808405933665,-86.66085275763461,0.9718153,9.066117,26.460531,11.345445,-8.911235,-4.5698905,2.8020027,-9.489216,-35.508842,9.23722,-6.3445425,4.155506,-0.42302293,1.1837487,11.189177,-25.778708,15.033447,-41.52742,22.978165,0.76272476,2.0086262,2.435998,-37.632286,-21.92251,34.87449,25.637365,3.883117,-6.8990345,-13.674675
60,-0.09522367268800735,3.0308516025543213,78.94596099853516,0.014502544484373946,-0.9217302940998506,-86.63123136169965,0.9535839,9.05324,26.428669,11.3447485,-8.90182,-4.562237,2.8013437,-9.501292,-35.535896,9.240459,-6.334338,4.156451,-0.41957414,1.1717503,11.156672,-26.2178,14.977151,-42.017673,22.357155,0.69121766,2.087971,2.2787833,-38.17992,-21.977928,34.81259,24.639051,3.820385,-6.998232,-13.80346
61,-0.08171328902244568,3.042248249053955,78.94683837890625,0.01497084107612266,-0.9188185847085308,-86.59543548971943,0.9290015,9.0369425,26.396168,11.348979,-8.896366,-4.5421906,2.7973323,-9.520782,-35.56889,9.251319,-6.328871,4.1612473,-0.40809232,1.1547066,11.120096,-26.671154,14.904182,-42.547466,21.780231,0.6027863,2.1627018,2.1763873,-38.695545,-22.03788,34.739853,23.62055,3.7750018,-7.096903,-13.925052
62,-0.06989938020706177,3.049055576324463,78.9478988647461,0.017101034833013857,-0.9139054788081595,-86.55591280363046,0.9007557,9.018531,26.363443,11.355605,-8.893142,-4.514446,2.7912881,-9.544972,-35.60547,9.266756,-6.326248,4.1684146,-0.40708902,1.1386995,11.082119,-27.109211,14.82997,-43.08071,21.214365,0.5057182,2.2352657,2.0963159,-39.205124,-22.088936,34.68687,22.602304,3.7439342,-7.198411,-14.04563
63,-0.06375245004892349,3.0543670654296875,78.95053100585938,0.01933580817355318,-0.9085034939681219,-86.51652091023271,0.8730541,8.998997,26.331644,11.361652,-8.8903475,-4.486292,2.7846966,-9.57089,-35.64198,9.283878,-6.3247175,4.177427,-0.40570068,1.1208419,11.042565,-27.53898,14.751802,-43.62166,20.664444,0.41406697,2.309039,2.0139725,-39.70386,-22.134798,34.640568,21.590069,3.7165434,-7.3002567,-14.149597
64,-0.053346507251262665,3.063234806060791,78.95223236083984,0.023455933359619,-0.9045468722881064,-86.48099436536053,0.85179985,8.978457,26.30215,11.360498,-8.883937,-4.464845,2.7780023,-9.596539,-35.67435,9.303362,-6.3249793,4.1878023,-0.39000526,1.0997024,11.001487,-27.970901,14.654226,-44.17414,20.144585,0.3481199,2.3875623,1.9043629,-40.181133,-22.184834,34.585873,20.583395,3.683734,-7.3995395,-14.222073
65,-0.04440479353070259,3.0680723190307617,78.95320892333984,0.02627721191477036,-0.902073101323018,-86.45218823778737,0.83855045,8.957932,26.276793,11.351515,-8.874081,-4.454347,2.7726252,-9.619273,-35.700386,9.320095,-6.3247013,4.200407,-0.37282813,1.0801508,10.959481,-28.385399,14.550853,-44.715385,19.630598,0.31845114,2.4791133,1.7552916,-40.654984,-22.230162,34.538883,19.594913,3.6405559,-7.494025,-14.254233
66,-0.03580794483423233,3.0736379623413086,78.95367431640625,0.030588938570447703,-0.9002727664577277,-86.42765064977687,0.8316927,8.93581,26.254782,11.334,-8.860265,-4.4501047,2.7621973,-9.64542,-35.72125,9.348989,-6.329432,4.215289,-0.37484485,1.0644169,10.919555,-28.757404,14.473547,-45.227707,19.0862,0.31378907,2.5801256,1.577056,-41.1461,-22.256943,34.523643,18.634499,3.5950754,-7.586168,-14.259425
67,-0.02724516950547695,3.0797531604766846,78.95335388183594,0.035462851034360664,-0.8993751105243433,-86.40254707332817,0.8268307,8.912517,26.23221,11.315132,-8.845781,-4.446308,2.7565362,-9.670057,-35.742924,9.370588,-6.3322444,4.230428,-0.34984422,1.0370494,10.876904,-29.1534,14.365359,-45.781372,18.599955,0.31675148,2.674061,1.3917053,-41.598473,-22.289843,34.48081,17.671593,3.5501685,-7.6798654,-14.246696
68,-0.01685831882059574,3.0851125717163086,78.95384216308594,0.039875680888279384,-0.8994716238833089,-86.372587941971,0.8196704,8.887494,26.205572,11.300892,-8.833215,-4.43695,2.7486372,-9.701203,-35.767776,9.405099,-6.340917,4.2441893,-0.3306888,1.012536,10.8371725,-29.547762,14.242632,-46.332703,18.144953,0.3243383,2.7450056,1.1929289,-42.04329,-22.323969,34.464066,16.724478,3.527904,-7.7788506,-14.247063
69,-0.0030028047040104866,3.091531991958618,78.95445251464844,0.04670025033657532,-0.9012479664994525,-86.33430248525114,0.8092527,8.859756,26.172186,11.292137,-8.821949,-4.419434,2.7397895,-9.740392,-35.79814,9.45399,-6.3557167,4.2559304,-0.32430506,0.9891882,10.803649,-29.93207,14.122796,-46.881718,17.705776,0.3401016,2.7803338,0.9760418,-42.487793,-22.35482,34.482162,15.799228,3.525155,-7.8895483,-14.271756
70,0.00778556801378727,3.0961344242095947,78.95549774169922,0.05320567810998089,-0.9043052312216509,-86.29093106117732,0.79833895,8.829315,26.134584,11.284726,-8.810502,-4.397197,2.7298737,-9.785738,-35.831703,9.51436,-6.3755383,4.266646,-0.31907576,0.9639596,10.773644,-30.315857,13.995667,-47.43874,17.293453,0.36503637,2.7911298,0.7426188,-42.919865,-22.385637,34.516056,14.886265,3.5352626,-8.008058,-14.304981
71,0.021544409915804863,3.1015865802764893,78.95530700683594,0.06171884301411796,-0.9074104477915352,-86.24778299379078,0.7875911,8.797696,26.097649,11.278097,-8.80027,-4.3735023,2.7174006,-9.834461,-35.864788,9.582207,-6.399317,4.277129,-0.31569624,0.93795484,10.745662,-30.688734,13.866294,-47.994347,16.895218,0.38515997,2.799015,0.5043746,-43.343987,-22.414064,34.564823,13.986314,3.5677302,-8.123295,-14.332632
72,0.033784713596105576,3.1049978733062744,78.95451354980469,0.06954174351646136,-0.9092654944406611,-86.21007495590759,0.78031516,8.7652025,26.066608,11.265293,-8.789013,-4.3516636,2.7017167,-9.883341,-35.89395,9.651766,-6.4245644,4.2881093,-0.31201744,0.9110089,10.717274,-31.044933,13.738662,-48.5441,16.50245,0.3839751,2.8256228,0.2741381,-43.761024,-22.43715,34.62248,13.0991335,3.6308422,-8.224367,-14.33956
73,0.044935815036296844,3.1083736419677734,78.95392608642578,0.07788551143074092,-0.9100129969465478,-86.18053743551243,0.77737904,8.731985,26.044073,11.247335,-8.7786255,-4.33235,2.6816814,-9.93255,-35.917828,9.723966,-6.451909,4.299843,-0.30110288,0.8818111,10.686188,-31.39372,13.600309,-49.09403,16.131006,0.35623243,2.8817692,0.062003706,-44.16838,-22.456602,34.682606,12.225632,3.7317274,-8.305289,-14.311643
74,0.05903758481144905,3.1119158267974854,78.9545669555664,0.0886484462959528,-0.9102536105539223,-86.15595267945827,0.7778974,8.697471,26.027182,11.224696,-8.767946,-4.3138437,2.6569514,-9.9842205,-35.938046,9.803867,-6.483868,4.311905,-0.2890168,0.8516819,10.654821,-31.73008,13.456635,-49.640007,15.77449,0.31299868,2.9544122,-0.14169668,-44.56922,-22.4707,34.752857,11.367244,3.8646736,-8.372955,-14.261199
75,0.07189017534255981,3.114581823348999,78.95580291748047,0.09833838801056573,-0.9091466534646931,-86.13258599020502,0.7787503,8.66221,26.011578,11.200109,-8.757315,-4.295849,2.631919,-10.035338,-35.957027,9.880688,-6.5143204,4.324079,-0.27677256,0.82003576,10.622187,-32.05804,13.308026,-50.183804,15.435344,0.25652212,3.0287986,-0.3498486,-44.96065,-22.479301,34.832016,10.523251,4.0155015,-8.435477,-14.207943
76,0.0871739611029625,3.1168839931488037,78.95741271972656,0.1089353138377914,-0.9059299505852946,-86.1070787945809,0.7771069,8.626109,25.993572,11.174628,-8.745826,-4.277898,2.6054828,-10.087173,-35.975666,9.957584,-6.544797,4.336223,-0.2670896,0.7859955,10.588499,-32.37415,13.154269,-50.72374,15.111879,0.19579728,3.0903723,-0.57537055,-45.341053,-22.482534,34.920727,9.691336,4.1708302,-8.500927,-14.1716175
77,0.0997583419084549,3.118396043777466,78.9575424194336,0.12002647062213431,-0.8991163231081336,-86.07751282311271,0.7706551,8.588865,25.97146,11.148976,-8.7335205,-4.259705,2.5783794,-10.138529,-35.994255,10.029652,-6.5732937,4.347908,-0.2607663,0.74835193,10.552034,-32.68264,12.995972,-51.263943,14.808254,0.109608546,3.1356723,-0.82386273,-45.707684,-22.479982,35.01963,8.871692,4.317978,-8.564121,-14.168818
78,0.11390212178230286,3.119572162628174,78.95719146728516,0.1310108963864223,-0.889544975754622,-86.0462597993232,0.7619369,8.550154,25.947731,11.121516,-8.720454,-4.2415032,2.5491648,-10.190784,-36.01182,10.101328,-6.601902,4.359394,-0.25662017,0.707443,10.513018,-32.98312,12.833585,-51.803455,14.523705,0.0011773399,3.1725667,-1.0875615,-46.063354,-22.471743,35.12906,8.066112,4.4671354,-8.623196,-14.184981
79,0.12728780508041382,3.119688034057617,78.95626068115234,0.14087058021746124,-0.8799762416750612,-86.01514148309185,0.75370276,8.512064,25.923626,11.093865,-8.707552,-4.2239075,2.5214975,-10.241635,-36.029675,10.169937,-6.628607,4.371308,-0.25253332,0.6666909,10.475357,-33.27193,12.66713,-52.33646,14.251874,-0.09055903,3.203013,-1.360027,-46.41006,-22.45846,35.24512,7.272757,4.6383734,-8.691906,-14.194017
80,0.1457168459892273,3.120604991912842,78.95552825927734,0.15105615149576668,-0.8731495561422555,-85.98652465612727,0.74889505,8.475828,25.900932,11.067532,-8.696085,-4.2074337,2.497829,-10.290278,-36.048637,10.235212,-6.652259,4.3843966,-0.24526,0.629154,10.442217,-33.548267,12.496798,-52.85837,13.987148,-0.1289706,3.2284753,-1.6349187,-46.74767,-22.440928,35.362125,6.4881587,4.852439,-8.783644,-14.169709
81,0.1596226692199707,3.119935989379883,78.95529174804688,0.1585018616606819,-0.8702409067435115,-85.96104614437564,0.7498744,8.442943,25.879679,11.041194,-8.685246,-4.1934814,2.4816535,-10.33312,-36.070663,10.292247,-6.670209,4.3990808,-0.23239784,0.5966658,10.414723,-33.8138,12.323569,-53.37039,13.730592,-0.088586845,3.244357,-1.9086993,-47.07712,-22.42095,35.47968,5.711773,5.1472683,-8.907161,-14.089301
82,0.17387467622756958,3.119795083999634,78.95714569091797,0.16409040707960548,-0.8696438750763246,-85.93748893926578,0.7534769,8.412726,25.858908,11.016562,-8.675677,-4.181336,2.4702773,-10.372352,-36.094463,10.342785,-6.6832695,4.414976,-0.21584804,0.5672792,10.391533,-34.067142,12.147564,-53.87403,13.482784,0.0073591964,3.250908,-2.1853685,-47.396667,-22.3993,35.599823,4.9429255,5.501612,-9.052875,-13.9715
83,0.18887895345687866,3.120915174484253,78.95809936523438,0.1695753502820133,-0.8698862350086831,-85.91505762572189,0.7587857,8.382147,25.839346,10.991903,-8.66704,-4.168401,2.4592326,-10.412246,-36.11744,10.395053,-6.697064,4.4311433,-0.19808413,0.5388026,10.371141,-34.311615,11.969109,-54.367603,13.243537,0.11341843,3.2566824,-2.4703195,-47.70572,-22.375454,35.722317,4.183085,5.8468356,-9.207165,-13.852243
84,0.20327849686145782,3.1208698749542236,78.95878601074219,0.17799282284810858,-0.8697160545730829,-85.8927155326118,0.765278,8.347627,25.821354,10.963486,-8.65737,-4.1519227,2.445239,-10.456989,-36.136673,10.45284,-6.7139153,4.4467425,-0.18325168,0.50863075,10.351899,-34.54628,11.787773,-54.847504,13.011596,0.18861508,3.2706046,-2.7687292,-48.00581,-22.348042,35.84939,3.435716,6.113473,-9.357197,-13.767583
85,0.21930751204490662,3.119739294052124,78.95909881591797,0.1879588991896253,-0.86931907392113,-85.87073231165212,0.77336764,8.30807,25.80602,10.931089,-8.647289,-4.1298013,2.4270473,-10.508773,-36.150726,10.520212,-6.7357874,4.4607506,-0.17363521,0.47621748,10.334563,-34.767902,11.603163,-55.308292,12.785153,0.22203682,3.2965462,-3.07651,-48.300995,-22.315784,35.983578,2.7056673,6.2710814,-9.505383,-13.730512
86,0.2366790771484375,3.1191375255584717,78.95857238769531,0.2009199442430057,-0.8692873461729347,-85.84950671696336,0.783658,8.264807,25.79285,10.895676,-8.637233,-4.103839,2.405543,-10.566137,-36.161034,10.596088,-6.761758,4.4739623,-0.16724163,0.44237012,10.319604,-34.977737,11.415282,-55.75296,12.56586,0.23669466,3.3294148,-3.3927069,-48.602314,-22.278124,36.125412,2.0013816,6.366636,-9.657186,-13.720931
87,0.25436723232269287,3.118927240371704,78.9575424194336,0.2148316859064882,-0.8685432969808319,-85.82823371551268,0.79288125,8.220955,25.779789,10.861328,-8.62772,-4.077674,2.3835394,-10.623987,-36.170055,10.671402,-6.7881823,4.4879203,-0.16250762,0.4087604,10.30375,-35.180195,11.224193,-56.18868,12.358218,0.24210022,3.3651896,-3.7272682,-48.87047,-22.233812,36.267548,1.290205,6.4172096,-9.8045435,-13.7265005
88,0.27222320437431335,3.1183762550354004,78.95679473876953,0.2267822904270486,-0.8659948443122047,-85.80625172497565,0.79706097,8.179751,25.764694,10.833831,-8.620025,-4.05481,2.3626916,-10.678175,-36.180553,10.739123,-6.812301,4.5043263,-0.15328246,0.37540317,10.286477,-35.389877,11.031022,-56.62845,12.168562,0.24078916,3.39973,-4.089915,-49.168495,-22.183361,36.411144,0.62224543,6.4985003,-9.939938,-13.734727
89,0.2904600501060486,3.117602586746216,78.95516967773438,0.23700318918478508,-0.860944532844015,-85.78346838509643,0.7945358,8.141994,25.74657,10.81531,-8.614119,-4.0372505,2.3424368,-10.728113,-36.191868,10.798675,-6.8348665,4.5238266,-0.14163326,0.34293312,10.264335,-35.59835,10.8353,-57.071457,11.995694,0.23037432,3.4348867,-4.472578,-49.41062,-22.12541,36.54499,-0.068055905,6.5561028,-10.058554,-13.739273
90,0.3099405765533447,3.11655330657959,78.95440673828125,0.24628573778116647,-0.8541850718153411,-85.7602240681944,0.7873035,8.1062355,25.726547,10.803405,-8.609792,-4.0227356,2.3217783,-10.776028,-36.203194,10.854034,-6.8569574,4.5454407,-0.12864569,0.31086233,10.237316,-35.8074,10.637895,-57.51426,11.839448,0.20413895,3.4717748,-4.873798,-49.593555,-22.060669,36.672176,-0.7828499,6.5726624,-10.165431,-13.747251
91,0.33131715655326843,3.1143572330474854,78.9544448852539,0.2546799389260259,-0.8466496486742465,-85.73631361310203,0.77905625,8.070782,25.706541,10.791848,-8.605862,-4.0084896,2.302443,-10.822443,-36.215885,10.905517,-6.87752,4.5684547,-0.11538741,0.27899542,10.211995,-36.016006,10.438152,-57.95366,11.695611,0.1870279,3.5059414,-5.3125577,-49.80577,-21.990168,36.80692,-1.4615798,6.6220427,-10.266552,-13.767706
92,0.35128334164619446,3.113480806350708,78.9528579711914,0.26300618080377675,-0.8397810029529266,-85.71140669217117,0.7752351,8.033726,25.68828,10.771403,-8.599452,-3.9917078,2.28958,-10.865283,-36.23164,10.943533,-6.8890185,4.5920644,-0.10438361,0.2485565,10.188176,-36.231487,10.238069,-58.386803,11.565183,0.18934532,3.5316846,-5.80917,-50.030136,-21.914612,36.956936,-2.1242433,6.7173867,-10.3672905,-13.808878
93,0.37263327836990356,3.111006736755371,78.95291900634766,0.27098363774077583,-0.833811627463878,-85.68503361792101,0.77097005,7.997632,25.672298,10.754563,-8.599367,-3.9710197,2.2724338,-10.913243,-36.24922,10.997361,-6.907167,4.618321,-0.09680239,0.21982023,10.16688,-36.454845,10.039806,-58.80783,11.450262,0.21246754,3.5371275,-6.3973017,-50.2697,-21.834333,37.12548,-2.7713163,6.869653,-10.464167,-13.877791
94,0.39153754711151123,3.109419345855713,78.95397186279297,0.279179553111887,-0.8283825676169034,-85.65757467986253,0.7714612,7.9598813,25.658419,10.727848,-8.596497,-3.9480634,2.2617776,-10.957152,-36.27001,11.037832,-6.917064,4.6466904,-0.096165076,0.19378604,10.142069,-36.681156,9.846,-59.216255,11.348959,0.24517664,3.5279238,-7.0575356,-50.420185,-21.74982,37.30494,-3.4821231,7.007452,-10.555389,-13.967722
95,0.4106728434562683,3.108567714691162,78.95439147949219,0.2859661707037454,-0.8224501117212635,-85.62958162183563,0.7711992,7.9218793,25.64404,10.701412,-8.593651,-3.9247947,2.2506623,-11.00162,-36.29172,11.078637,-6.9262304,4.673467,-0.09108657,0.16698673,10.125753,-36.910576,9.654505,-59.630043,11.247049,0.30045205,3.5263658,-7.728093,-50.694305,-21.660194,37.495102,-4.0870824,7.2393427,-10.651203,-14.069386
96,0.4302646517753601,3.107642412185669,78.95460510253906,0.2929089744639268,-0.8156296444913481,-85.60159600075762,0.76669437,7.883936,25.626925,10.681297,-8.591307,-3.903029,2.2354562,-11.049599,-36.3124,11.127793,-6.939426,4.6949797,-0.09260831,0.14109202,10.106028,-37.1296,9.464216,-60.049244,11.139149,0.38089514,3.5529578,-8.349442,-50.852074,-21.565035,37.68609,-4.7768764,7.4228125,-10.7589655,-14.169679
97,0.45169028639793396,3.1047909259796143,78.95442199707031,0.3018455423956439,-0.8074236439882049,-85.57295823992294,0.75499856,7.847009,25.605305,10.672225,-8.590339,-3.8846395,2.214425,-11.101175,-36.33227,11.18704,-6.95706,4.7075467,-0.0934351,0.11489106,10.087244,-37.349026,9.274908,-60.485386,11.024085,0.49492136,3.6242313,-8.90163,-50.99265,-21.466122,37.877533,-5.4688787,7.6159816,-10.890768,-14.269773
98,0.4730849862098694,3.103590965270996,78.95405578613281,0.3106534217111756,-0.7980000215555287,-85.5438073380728,0.7377904,7.81069,25.58087,10.671199,-8.590547,-3.8681839,2.188893,-11.156004,-36.352,11.254581,-6.9782605,4.714139,-0.084595315,0.0867604,10.076151,-37.578552,9.08603,-60.940147,10.905925,0.6363504,3.7249818,-9.417979,-51.254517,-21.361761,38.067944,-6.052921,7.8992925,-11.039898,-14.375556
99,0.4972737729549408,3.1038033962249756,78.95323181152344,0.3195981279550506,-0.7884829784919654,-85.51520586912167,0.7208227,7.7734146,25.556238,10.670081,-8.591044,-3.8505254,2.1626444,-11.212338,-36.370857,11.323853,-7.0002155,4.7205973,-0.08193136,0.05934378,10.061521,-37.799614,8.896778,-61.393772,10.78946,0.78518754,3.8284686,-9.918522,-51.4086,-21.252796,38.264473,-6.7176094,8.136321,-11.184638,-14.479469
100,0.5182418823242188,3.103790283203125,78.95143127441406,0.32979388215018685,-0.7795640858847812,-85.48850801563023,0.7086064,7.73405,25.534037,10.662662,-8.591664,-3.8286047,2.1381075,-11.26864,-36.38806,11.390415,-7.02169,4.732899,-0.08021165,0.03193644,10.04272,-38.02358,8.709011,-61.84505,10.68124,0.9038232,3.908453,-10.422936,-51.47484,-21.141804,38.468876,-7.4488425,8.330989,-11.305237,-14.576031
101,0.5403187870979309,3.103409767150879,78.95060729980469,0.33885907451304553,-0.7718000663175633,-85.46435560311201,0.70167017,7.693244,25.514894,10.651213,-8.595319,-3.800174,2.1175628,-11.32387,-36.404156,11.450776,-7.0412593,4.7535567,-0.06589398,0.0022320978,10.028974,-38.261036,8.522969,-62.30404,10.576803,0.98484856,3.9597418,-10.939312,-51.599648,-21.027184,38.672134,-8.130794,8.5592785,-11.386229,-14.668966
102,0.562902569770813,3.100005865097046,78.95011901855469,0.34906359332703163,-0.7647407171276085,-85.44192705224671,0.69751304,7.651565,25.497196,10.638494,-8.601564,-3.7674694,2.0990036,-11.37902,-36.41947,11.508686,-7.060518,4.7791038,-0.051052853,-0.027892781,10.0176325,-38.491043,8.335031,-62.762714,10.4730425,1.0597667,3.996528,-11.455194,-51.71078,-20.908012,38.881565,-8.823237,8.784891,-11.440524,-14.759497
103,0.5878503322601318,3.0954556465148926,78.95059204101562,0.36041610866052776,-0.7570164162284011,-85.42038261525273,0.69591737,7.6075473,25.480986,10.619121,-8.605244,-3.7337627,2.0797653,-11.434906,-36.432663,11.565712,-7.079141,4.806341,-0.03389426,-0.058199096,10.00469,-38.732502,8.149161,-63.224155,10.378669,1.1090125,4.0217853,-11.961715,-51.813877,-20.784899,39.096916,-9.513779,9.021146,-11.495764,-14.842726
104,0.6158047914505005,3.091867208480835,78.95039367675781,0.3723577457865216,-0.7472259693424959,-85.39892066081255,0.6933792,7.5609865,25.465837,10.595099,-8.604917,-3.7024574,2.0537844,-11.494539,-36.44157,11.6305065,-7.1002965,4.8320603,-0.030558718,-0.086249545,9.993761,-38.946194,7.9584103,-63.673122,10.287578,1.1774896,4.0406733,-12.446277,-51.925323,-20.656425,39.33139,-10.1963,9.284009,-11.577461,-14.914683
105,0.6419004201889038,3.0909266471862793,78.94961547851562,0.38523020998513213,-0.7340891567439976,-85.3764082482115,0.68970203,7.510555,25.450788,10.562486,-8.597829,-3.674692,2.0214803,-11.556788,-36.44554,11.699202,-7.1216927,4.85466,-0.032989975,-0.112871364,9.9785,-39.16846,7.7690787,-64.11831,10.213497,1.1979175,4.0532913,-12.907337,-52.038063,-20.522003,39.578243,-10.867838,9.596441,-11.693176,-14.973418
106,0.6668570041656494,3.089293956756592,78.94803619384766,0.400568960407646,-0.7187436980139424,-85.35375051199014,0.68571186,7.457317,25.436472,10.523162,-8.5859375,-3.6486,1.9833109,-11.6220255,-36.445194,11.773099,-7.1442327,4.876142,-0.03818865,-0.13889538,9.960004,-39.40033,7.586346,-64.56258,10.148837,1.1746889,4.0580525,-13.350678,-52.148773,-20.38191,39.835575,-11.529964,9.943982,-11.828698,-15.0208435
107,0.6934940814971924,3.0875601768493652,78.94744110107422,0.4149716243415921,-0.7029675317872124,-85.33244421925154,0.6826574,7.402749,25.424181,10.482163,-8.573566,-3.6229746,1.943615,-11.6887245,-36.443012,11.848414,-7.167301,4.898591,-0.04968335,-0.16399762,9.943326,-39.61632,7.405534,-65.00155,10.081605,1.1906075,4.054007,-13.77931,-52.264008,-20.235989,40.105904,-12.186596,10.282813,-11.977709,-15.058794
108,0.7192997932434082,3.0854785442352295,78.94678497314453,0.43102066959239255,-0.6886188127174703,-85.31427602486194,0.6822838,7.348348,25.415728,10.442252,-8.563133,-3.5966458,1.9055576,-11.756018,-36.44138,11.923577,-7.1909876,4.9242744,-0.06020935,-0.18958674,9.929189,-39.82435,7.2231545,-65.441284,10.011919,1.2933143,4.0384235,-14.197819,-52.382526,-20.08511,40.383102,-12.838103,10.567557,-12.13359,-15.088761
109,0.7464068531990051,3.0823192596435547,78.9458236694336,0.44634873133992115,-0.6761088121525649,-85.29986710048514,0.68328357,7.2963686,25.41156,10.409449,-8.558209,-3.5694945,1.873313,-11.820627,-36.441963,11.989749,-7.212123,4.95514,-0.05787961,-0.21824451,9.913999,-40.055885,7.044978,-65.89491,9.947616,1.493946,3.993056,-14.599887,-52.496387,-19.932426,40.65942,-13.484663,10.791098,-12.298609,-15.108677
110,0.7741633057594299,3.080136775970459,78.94476318359375,0.46229312750001383,-0.6645890939691956,-85.28821662748462,0.6872381,7.2441564,25.41111,10.375849,-8.554098,-3.5420794,1.8432989,-11.8853035,-36.443058,12.052577,-7.232347,4.9895988,-0.05512374,-0.24775966,9.901622,-40.27854,6.866294,-66.35024,9.8827095,1.7890373,3.9246197,-14.983932,-52.611023,-19.778496,40.944035,-14.129924,10.977465,-12.47453,-15.118946
111,0.8026180863380432,3.076308012008667,78.94416809082031,0.4782624233565663,-0.6535723894514144,-85.2786777982897,0.6922262,7.191365,25.412794,10.3425665,-8.550669,-3.514183,1.8118689,-11.951697,-36.442665,12.119346,-7.253658,5.024323,-0.04979005,-0.27638203,9.890711,-40.500652,6.6870265,-66.80493,9.815341,2.0958657,3.863816,-15.368434,-52.72607,-19.623423,41.231503,-14.770716,11.12302,-12.654969,-15.123397
112,0.8306084871292114,3.0739150047302246,78.9423828125,0.49495291208235015,-0.6428911461671024,-85.27033935615668,0.6985859,7.1368055,25.4153,10.306381,-8.546138,-3.4857147,1.7753971,-12.022122,-36.43905,12.197407,-7.2777576,5.0560226,-0.044021934,-0.30223802,9.881268,-40.71792,6.507171,-67.25287,9.739552,2.3449283,3.8427393,-15.771893,-52.845272,-19.467121,41.520954,-15.402226,11.225059,-12.833364,-15.125547
113,0.8604313135147095,3.07218599319458,78.94050598144531,0.5120343900713005,-0.6323283621151635,-85.26365365975677,0.70559955,7.079719,25.4188,10.267621,-8.540771,-3.4556632,1.7320417,-12.097532,-36.431484,12.289845,-7.304798,5.0830383,-0.027763536,-0.32639495,9.869171,-40.95714,6.3360257,-67.7007,9.653044,2.4931648,3.8838549,-16.216644,-52.961914,-19.310831,41.802753,-16.022928,11.260702,-13.000918,-15.119204
114,0.890175461769104,3.0706911087036133,78.94023895263672,0.5304501103375736,-0.6221342849653615,-85.2587956302977,0.71616745,7.019221,25.42422,10.221396,-8.531881,-3.424517,1.6832834,-12.177795,-36.42079,12.393832,-7.334482,5.107359,-0.035040166,-0.3431483,9.867557,-41.122005,6.1476727,-68.12169,9.550194,2.6892364,3.9699528,-16.681324,-53.09702,-19.149834,42.10612,-16.641176,11.2433195,-13.163521,-15.106964
115,0.9190941452980042,3.069378137588501,78.9397201538086,0.5484526147517267,-0.6125037773764167,-85.25485328694592,0.7256663,6.9596853,25.429745,10.179704,-8.525635,-3.3939939,1.6334734,-12.2587185,-36.408276,12.501436,-7.3652787,5.131121,-0.022475207,-0.36202946,9.859992,-41.33974,5.964023,-68.555534,9.458179,2.790145,4.0593605,-17.140402,-53.22417,-18.98751,42.39793,-17.245703,11.208143,-13.336599,-15.099707
116,0.950539231300354,3.067554473876953,78.93875885009766,0.5644342539567296,-0.6039059667882286,-85.25071356945392,0.7338136,6.9030075,25.434008,10.144491,-8.521977,-3.3660975,1.5860301,-12.337685,-36.39488,12.606063,-7.3959026,5.1563354,-0.015680365,-0.37861347,9.857773,-41.54028,5.780478,-68.98447,9.361772,2.8708484,4.1190896,-17.55427,-53.358204,-18.823832,42.700478,-17.847155,11.201282,-13.535158,-15.111752
117,0.980721116065979,3.0660898685455322,78.93675994873047,0.578403209941625,-0.5966754642151699,-85.24572703287986,0.73766863,6.8527336,25.435467,10.123034,-8.524131,-3.3433232,1.5428479,-12.411714,-36.38106,12.704423,-7.425351,5.1829987,-0.012561023,-0.39164305,9.860468,-41.734604,5.5963497,-69.41773,9.265895,2.9017637,4.1426177,-17.90427,-53.50062,-18.658707,43.016727,-18.445887,11.232972,-13.7692795,-15.147503
118,1.0104403495788574,3.063037395477295,78.93572235107422,0.591395289155074,-0.5906013285929117,-85.24055549737766,0.738858,6.8064637,25.435072,10.110998,-8.530334,-3.3239408,1.5020243,-12.482927,-36.366383,12.799967,-7.4542665,5.210328,-0.0062818145,-0.4029421,9.865198,-41.9374,5.4163404,-69.85713,9.168358,2.8717003,4.1482987,-18.213198,-53.646473,-18.493013,43.338924,-19.038088,11.279877,-14.028996,-15.199267
119,1.0420156717300415,3.061558485031128,78.9334945678711,0.6043826665309758,-0.5849848502017583,-85.23620693391938,0.7416782,6.758216,25.435991,10.097272,-8.535959,-3.303505,1.4604106,-12.556522,-36.34999,12.898135,-7.484632,5.238767,-0.0048738443,-0.41367903,9.873878,-42.120872,5.236369,-70.280754,9.065122,2.8476045,4.138328,-18.50615,-53.794174,-18.325455,43.66411,-19.628065,11.335787,-14.299299,-15.26302
120,1.0775725841522217,3.062483310699463,78.93022155761719,0.6216961155348584,-0.579365539814781,-85.23362783718991,0.74986506,6.702012,25.441143,10.072174,-8.536772,-3.2772877,1.4141321,-12.638834,-36.33095,13.006654,-7.519548,5.26902,-0.0026786474,-0.4288203,9.882779,-42.295135,5.058482,-70.67763,8.95807,2.854185,4.1128154,-18.810991,-53.934235,-18.155025,43.978195,-20.21585,11.392278,-14.565668,-15.3340845
121,1.1109123229980469,3.0609381198883057,78.92646789550781,0.6453520102317076,-0.5728699276837943,-85.23314586322971,0.7650893,6.63418,25.45153,10.030315,-8.5303545,-3.2421508,1.3624705,-12.732005,-36.308746,13.124492,-7.5583816,5.302623,-0.0037689444,-0.44825137,9.893082,-42.451534,4.8811803,-71.04719,8.843202,2.9129975,4.0665045,-19.12774,-54.069374,-17.97966,44.28082,-20.799608,11.45832,-14.824775,-15.396412
122,1.146536946296692,3.058561325073242,78.92472839355469,0.6722927226396003,-0.5661291856745501,-85.2343523072385,0.78514373,6.55847,25.465706,9.977704,-8.519318,-3.201222,1.3067946,-12.83315,-36.28397,13.250438,-7.6010456,5.338758,-0.0073165614,-0.47070146,9.904511,-42.596546,4.7045918,-71.39604,8.723824,2.9973567,4.0004663,-19.444324,-54.203316,-17.798626,44.577793,-21.376106,11.534214,-15.084202,-15.45685
123,1.1831032037734985,3.0578792095184326,78.9228286743164,0.7010400799757575,-0.5603676971625781,-85.23648847229913,0.80704206,6.481188,25.481684,9.923811,-8.508378,-3.15938,1.250025,-12.936758,-36.257565,13.380359,-7.645096,5.374533,-0.008913232,-0.49628812,9.916018,-42.7364,4.531939,-71.71746,8.60578,3.0879917,3.9249847,-19.768982,-54.329666,-17.612728,44.86626,-21.948536,11.59857,-15.345892,-15.547064
124,1.2179572582244873,3.057671546936035,78.92094421386719,0.7275845241163486,-0.5566355962918094,-85.23918917892496,0.8294989,6.4078665,25.498201,9.874477,-8.50012,-3.121595,1.1944234,-13.038208,-36.2306,13.512385,-7.6894135,5.4069395,-0.014941883,-0.5227224,9.929816,-42.850746,4.3585787,-71.99679,8.495712,3.197388,3.8514824,-20.107752,-54.449936,-17.422327,45.15514,-22.519152,11.631364,-15.611802,-15.699412
125,1.2523037195205688,3.0573740005493164,78.91798400878906,0.7513666557395944,-0.5559050056379092,-85.24208754256166,0.8503614,6.3416514,25.514639,9.836598,-8.498289,-3.0901487,1.1409609,-13.135899,-36.20287,13.646092,-7.733557,5.4336734,-0.020876566,-0.5522816,9.9445715,-42.952374,4.1854706,-72.23559,8.397227,3.3153727,3.7830384,-20.485214,-54.563717,-17.228642,45.439262,-23.085367,11.6127615,-15.878726,-15.923512
126,1.284932017326355,3.0561187267303467,78.91478729248047,0.7737815916030155,-0.5573299803262775,-85.24564138633727,0.872113,6.2781725,25.532244,9.802406,-8.498907,-3.0619764,1.087018,-13.233285,-36.17356,13.785511,-7.7797847,5.456778,-0.0263575,-0.5852125,9.960482,-43.043472,4.0138016,-72.43895,8.306097,3.4433427,3.7133563,-20.890223,-54.67082,-17.032375,45.71779,-23.648527,11.557651,-16.146397,-16.20263
127,1.3180804252624512,3.0553174018859863,78.9108657836914,0.7963478192835046,-0.5595441079748639,-85.25004249066022,0.8945993,6.215454,25.55044,9.769337,-8.5006695,-3.034298,1.0343708,-13.329905,-36.144264,13.923603,-7.8248754,5.480006,-0.0318957,-0.6182772,9.977474,-43.11937,3.8420293,-72.60605,8.223041,3.577478,3.6387403,-21.277649,-54.765396,-16.83319,45.993744,-24.212193,11.49663,-16.421783,-16.528694
128,1.353858470916748,3.053341865539551,78.9077377319336,0.8184704413124766,-0.5610517558948737,-85.25563140969041,0.91903424,6.150728,25.569162,9.732466,-8.501312,-3.004173,0.9828903,-13.425945,-36.11591,14.057503,-7.8678813,5.507054,-0.034310758,-0.6493839,9.994144,-43.185257,3.6703706,-72.73856,8.149261,3.7017503,3.5555568,-21.603437,-54.84046,-16.630869,46.267715,-24.778408,11.4594755,-16.711626,-16.893307
129,1.3920565843582153,3.051924467086792,78.90560913085938,0.8404582234713218,-0.562029629526563,-85.2626085859598,0.94450253,6.0855813,25.5881,9.694767,-8.502083,-2.9699469,0.9361066,-13.518667,-36.090378,14.179915,-7.905046,5.5400124,-0.03165974,-0.6745246,10.010952,-43.24088,3.4991715,-72.82546,8.07983,3.7380846,3.4880025,-21.815693,-54.893444,-16.424732,46.543377,-25.348879,11.446109,-17.028112,-17.318295
130,1.43095862865448,3.0501344203948975,78.90328979492188,0.8619799794677088,-0.5631508155769182,-85.27081268011436,0.9720986,6.0202007,25.60759,9.655203,-8.502859,-2.9335303,0.8919394,-13.609662,-36.06633,14.297169,-7.9392014,5.5765185,-0.027961854,-0.69560224,10.02844,-43.280605,3.326643,-72.86832,8.016717,3.724359,3.4305012,-21.95134,-54.930412,-16.214046,46.82201,-25.922077,11.442507,-17.36434,-17.800314
131,1.466965913772583,3.0473785400390625,78.90016174316406,0.8842875235725695,-0.5633932809008745,-85.27966678182887,1.0000285,5.9528046,25.627605,9.613387,-8.502968,-2.8973365,0.84582126,-13.702207,-36.041058,14.416085,-7.9746466,5.613575,-0.020453598,-0.7206452,10.044208,-43.32133,3.1566617,-72.89296,7.9695563,3.7958996,3.3335063,-22.100084,-54.950356,-16.000082,47.09052,-26.491194,11.456571,-17.698736,-18.29276
132,1.5022079944610596,3.043271541595459,78.89750671386719,0.908904372359647,-0.5618258697302533,-85.28901486527707,1.0290507,5.8803654,25.648083,9.563002,-8.498859,-2.863848,0.7930388,-13.800703,-36.01166,14.544035,-8.015446,5.6483293,-0.014093108,-0.7562423,10.058136,-43.35978,2.9902313,-72.92061,7.9464526,4.1099024,3.1470704,-22.349407,-54.957664,-15.785333,47.344242,-27.054316,11.498695,-18.00985,-18.748928
133,1.540055274963379,3.040498733520508,78.89386749267578,0.9378037303509443,-0.5579900744911422,-85.2987410949539,1.059104,5.801512,25.668882,9.5028105,-8.490328,-2.835583,0.7315242,-13.906748,-35.976902,14.683571,-8.063714,5.679109,-0.0049202377,-0.80797887,10.071107,-43.40612,2.831504,-72.962585,7.9474564,4.8507595,2.7824028,-22.778034,-54.94619,-15.572827,47.570343,-27.621475,11.575853,-18.28209,-19.151642
134,1.5773183107376099,3.03884220123291,78.88969421386719,0.9685345123737353,-0.552452528515855,-85.30922277774751,1.0907353,5.7175283,25.690187,9.433421,-8.477625,-2.8105981,0.6638332,-14.017994,-35.938198,14.831456,-8.117495,5.7077317,0.007269053,-0.8710836,10.085119,-43.454098,2.681283,-73.005646,7.965184,5.8898315,2.284224,-23.313437,-54.92786,-15.363881,47.773956,-28.186937,11.689384,-18.53071,-19.527355
135,1.6153438091278076,3.035081386566162,78.8857421875,1.0004649437150932,-0.5458678091186178,-85.31971662897602,1.1216009,5.6322126,25.711811,9.363147,-8.46416,-2.7847722,0.5940443,-14.130754,-35.897957,14.980499,-8.171519,5.7365193,0.019489847,-0.93744224,10.097628,-43.49907,2.5395045,-73.03796,7.9974,6.887256,1.8067173,-23.82382,-54.89248,-15.159885,47.97411,-28.74619,11.821448,-18.780226,-19.893213
136,1.6526625156402588,3.0346057415008545,78.88128662109375,1.0315159857182616,-0.5388051152267502,-85.32980229601098,1.1483121,5.550054,25.733877,9.301398,-8.453768,-2.754127,0.5241796,-14.242176,-35.85816,15.12924,-8.223538,5.767755,0.034163326,-0.99945587,10.107834,-43.537086,2.404244,-73.05291,8.041544,7.510439,1.514247,-24.18782,-54.87086,-14.958858,48.17473,-29.261276,11.979266,-19.055773,-20.268284
137,1.6904833316802979,3.032512664794922,78.87786865234375,1.0616168186172397,-0.5310248509709244,-85.3400086388889,1.1690409,5.472663,25.757307,9.252881,-8.448307,-2.7152689,0.45439652,-14.351082,-35.818447,15.2761,-8.271535,5.8023376,0.042676356,-1.0509202,10.1069355,-43.565186,2.2757912,-73.03296,8.099291,7.5931535,1.5090008,-24.333847,-54.78817,-14.76507,48.405148,-29.782417,12.125413,-19.37825,-20.640036
138,1.7275893688201904,3.030154228210449,78.87327575683594,1.0908875760982122,-0.5223783506323444,-85.35033865522475,1.1860473,5.3975763,25.781643,9.211518,-8.445233,-2.6710799,0.3840102,-14.458562,-35.77804,15.4213915,-8.316565,5.838867,0.04912043,-1.0970854,10.099764,-43.58539,2.1537414,-72.9887,8.170468,7.3442373,1.6893985,-24.344103,-54.675243,-14.579284,48.6474,-30.295866,12.281998,-19.730286,-21.005302
139,1.761569857597351,3.0274271965026855,78.86784362792969,1.1210647010983095,-0.5136714538130738,-85.35975389841471,1.2043618,5.321622,25.805437,9.166627,-8.440323,-2.626924,0.31556264,-14.565256,-35.73897,15.563137,-8.360034,5.8764005,0.07118271,-1.148665,10.098119,-43.608917,2.0382535,-72.95302,8.25345,6.9789577,1.9165202,-24.332607,-54.647053,-14.392925,48.855595,-30.720444,12.497879,-20.078218,-21.392706
140,1.7966928482055664,3.0247347354888916,78.86307525634766,1.1531642644493465,-0.5060060666019752,-85.36706004747154,1.2207507,5.2456036,25.825882,9.127574,-8.440157,-2.5882955,0.24496974,-14.676462,-35.70142,15.71579,-8.411799,5.9138107,0.0825937,-1.2061783,10.090276,-43.61807,1.9324626,-72.923164,8.353581,6.7187867,2.0510924,-24.413984,-54.538998,-14.215751,49.11513,-31.186604,12.637866,-20.382082,-21.816767
141,1.8360379934310913,3.022775173187256,78.8573226928711,1.1844296574812325,-0.4998271871057444,-85.37084481734583,1.2443055,5.1644063,25.842266,9.073535,-8.433515,-2.5586743,0.17801966,-14.789617,-35.66806,15.868248,-8.467633,5.951162,0.09927197,-1.2752274,10.084796,-43.624187,1.8395247,-72.91095,8.473012,6.5976334,2.0554855,-24.650805,-54.43805,-14.048255,49.39359,-31.637308,12.764802,-20.635977,-22.32896
142,1.8715828657150269,3.021578788757324,78.85286712646484,1.2154564446544294,-0.4945328861931944,-85.37229409994886,1.2716136,5.080497,25.855644,9.012108,-8.423898,-2.5345104,0.11353149,-14.903793,-35.637753,16.020235,-8.525656,5.9889164,0.1165025,-1.3508388,10.077667,-43.62428,1.7617637,-72.90476,8.606739,6.5049124,2.0040803,-24.971111,-54.309242,-13.893357,49.699413,-32.093704,12.866837,-20.857998,-22.902248
143,1.9078830480575562,3.017258405685425,78.84705352783203,1.247345237390822,-0.4892755255013876,-85.37350252259618,1.2950428,4.998383,25.8681,8.959984,-8.420568,-2.5104303,0.047028147,-15.019938,-35.60715,16.178188,-8.587212,6.026544,0.13780338,-1.4309133,10.073368,-43.61382,1.6986542,-72.91572,8.734193,6.445249,1.9277847,-25.292356,-54.20272,-13.747346,49.99569,-32.515022,12.960605,-21.052813,-23.455585
144,1.9441766738891602,3.011770248413086,78.84062194824219,1.2790033591779648,-0.4832966800029984,-85.37675763735989,1.3162705,4.918186,25.882362,8.912802,-8.42132,-2.4809723,-0.019837068,-15.13429,-35.574387,16.332846,-8.6449995,6.063528,0.15543981,-1.5109428,10.068407,-43.583294,1.648801,-72.94571,8.839449,6.4217343,1.8568304,-25.531248,-54.08822,-13.608924,50.279922,-32.916473,13.01046,-21.222925,-23.903072
145,1.9803693294525146,3.0087084770202637,78.8345947265625,1.3084283735761597,-0.47628130817390213,-85.38305430994951,1.3314058,4.8428154,25.898739,8.880078,-8.43231,-2.4430935,-0.08807964,-15.24649,-35.5387,16.48634,-8.699899,6.099559,0.16590744,-1.5909469,10.061837,-43.532993,1.6126494,-73.0066,8.926953,6.451055,1.7895583,-25.649216,-53.95687,-13.47938,50.556366,-33.30713,13.001286,-21.355272,-24.206223
146,2.0185985565185547,3.00486421585083,78.8275146484375,1.3376978895447682,-0.4688174430599568,-85.3909847564199,1.3428795,4.770514,25.916067,8.85614,-8.450032,-2.4002974,-0.15689789,-15.357299,-35.501728,16.638687,-8.752912,6.134978,0.16872427,-1.6717563,10.052026,-43.46449,1.5911853,-73.089745,9.003485,6.5254254,1.7126224,-25.695848,-53.789436,-13.362355,50.84213,-33.70418,12.931646,-21.451546,-24.41368
147,2.057044506072998,2.998518228530884,78.82064819335938,1.3678246705281958,-0.4607976088299124,-85.39974877506815,1.353688,4.6974316,25.934423,8.833464,-8.468624,-2.356609,-0.22745934,-15.469471,-35.462784,16.79261,-8.805614,6.1702027,0.17841409,-1.7550062,10.044503,-43.38264,1.5828834,-73.17976,9.054014,6.6090045,1.6389437,-25.720537,-53.62906,-13.26159,51.105812,-34.07786,12.849084,-21.538061,-24.57612
148,2.0955941677093506,2.992558002471924,78.81397247314453,1.4012130420991658,-0.4520871913045555,-85.40860804444836,1.3697222,4.617852,25.95412,8.797377,-8.478004,-2.316018,-0.30356863,-15.58805,-35.42042,16.958357,-8.862269,6.2056856,0.18421723,-1.8363795,10.03297,-43.27721,1.5818856,-73.23929,9.073175,6.672032,1.5809969,-25.772173,-53.44276,-13.157279,51.37525,-34.440178,12.734869,-21.638922,-24.738274
149,2.134927272796631,2.9890286922454834,78.80757141113281,1.4346607758120529,-0.4418011733208999,-85.41577948464563,1.3901926,4.5314856,25.973787,8.746321,-8.475105,-2.2811491,-0.37990054,-15.709108,-35.37803,17.121742,-8.918715,6.2409534,0.19911195,-1.9181978,10.020372,-43.157887,1.5864142,-73.27453,9.056738,6.6974535,1.5357218,-25.852411,-53.258114,-13.06074,51.617805,-34.76674,12.590076,-21.768047,-24.896639
150,2.1729772090911865,2.982919216156006,78.80309295654297,1.4720429440443714,-0.4304062314314849,-85.42217951664294,1.4137598,4.44012,25.993774,8.684895,-8.464017,-2.2493308,-0.45899484,-15.833631,-35.3342,17.288939,-8.976167,6.2759843,0.2090772,-1.9980855,10.001821,-43.01933,1.5965556,-73.28679,9.014624,6.7061157,1.4982285,-25.93905,-53.04551,-12.959063,51.865337,-35.07325,12.387883,-21.90872,-25.029995
151,2.2128660678863525,2.976271152496338,78.7972183227539,1.5103579490464438,-0.4195020588189541,-85.43099787914785,1.4411775,4.3455,26.01663,8.618559,-8.451742,-2.2169046,-0.54091763,-15.961614,-35.285797,17.462175,-9.036224,6.3117557,0.21960558,-2.0791056,9.983268,-42.862312,1.6083542,-73.282776,8.9549465,6.712032,1.4790895,-26.045544,-52.824863,-12.855821,52.114212,-35.37199,12.199715,-22.043137,-25.165674
152,2.252462387084961,2.969717025756836,78.79121398925781,1.5511977650210496,-0.4109708515147968,-85.44559073553695,1.4740136,4.249075,26.044447,8.549524,-8.44272,-2.1802447,-0.6242762,-16.091482,-35.230396,17.639566,-9.098123,6.3491907,0.2352448,-2.163506,9.966792,-42.6999,1.621444,-73.265976,8.886814,6.712778,1.488002,-26.186602,-52.601425,-12.747994,52.373547,-35.674614,12.082336,-22.15289,-25.329311
153,2.2906856536865234,2.9619102478027344,78.78397369384766,1.593340795090285,-0.4054193556809624,-85.46903419432749,1.5142305,4.151841,26.080072,8.47886,-8.441358,-2.1364455,-0.7099134,-16.222229,-35.16433,17.822567,-9.163084,6.388762,0.26919457,-2.255836,9.95809,-42.52048,1.6260376,-73.241264,8.813581,6.7099867,1.5372664,-26.374142,-52.36553,-12.665536,52.632587,-36.017704,12.073181,-22.230886,-25.53549
154,2.3293542861938477,2.9548423290252686,78.77542114257812,1.6371217365738984,-0.40179928401118187,-85.49889528271122,1.559802,4.0533233,26.12121,8.405852,-8.444277,-2.0881495,-0.7978912,-16.354576,-35.09,18.010832,-9.230516,6.429852,0.30119908,-2.3467178,9.946668,-42.33406,1.6296216,-73.18489,8.732882,6.6866055,1.6168774,-26.602262,-52.128056,-12.555649,52.91742,-36.34517,12.117512,-22.288176,-25.76986
155,2.3700952529907227,2.9458377361297607,78.76725769042969,1.6815875217084137,-0.3993421606225983,-85.52974870549974,1.6085472,3.9508698,26.16362,8.328593,-8.444808,-2.039812,-0.8879531,-16.491516,-35.013153,18.205183,-9.300361,6.471959,0.33459696,-2.441797,9.938917,-42.14123,1.6261426,-73.12992,8.650673,6.683975,1.7087381,-26.842783,-51.899635,-12.445937,53.19479,-36.65947,12.200581,-22.3338,-26.008255
156,2.4132027626037598,2.9416301250457764,78.75860595703125,1.7302865775349205,-0.39741704022365143,-85.55620123749875,1.6588321,3.842046,26.20282,8.2443495,-8.436872,-1.9960749,-0.98063797,-16.636473,-34.939434,18.408875,-9.37362,6.514629,0.36222458,-2.53879,9.932926,-41.965797,1.6174829,-73.087524,8.5734825,6.713366,1.7922789,-27.074364,-51.68695,-12.336179,53.462635,-36.945446,12.284174,-22.37696,-26.231167
157,2.4572129249572754,2.936302423477173,78.75099182128906,1.778861131042088,-0.3963163312127623,-85.57519047475382,1.7086778,3.7272046,26.235388,8.155385,-8.417565,-1.9602005,-1.0737795,-16.789843,-34.87285,18.620535,-9.449685,6.5585475,0.37531364,-2.6345851,9.927868,-41.80106,1.6029192,-73.05662,8.497547,6.7965918,1.8711704,-27.302893,-51.471237,-12.227768,53.733383,-37.219055,12.370213,-22.41614,-26.428608
158,2.504413366317749,2.93188214302063,78.74244689941406,1.8318623420404285,-0.3964315941132233,-85.59013531307787,1.7598274,3.6072922,26.264576,8.062699,-8.391865,-1.9290451,-1.167317,-16.949453,-34.809837,18.83786,-9.527613,6.6036615,0.38743034,-2.732455,9.925513,-41.6544,1.5848615,-73.03647,8.420711,6.9061894,1.9523771,-27.537401,-51.27182,-12.119475,53.991234,-37.467224,12.486352,-22.44853,-26.614231
159,2.5514180660247803,2.9276669025421143,78.73188018798828,1.885882633636648,-0.3963176942931588,-85.60523320379674,1.8122566,3.4823256,26.294964,7.964683,-8.36249,-1.8975359,-1.267132,-17.116528,-34.743584,19.067614,-9.610546,6.6483507,0.41124517,-2.8395693,9.927751,-41.523304,1.5707924,-73.03875,8.342097,7.022922,2.0228198,-27.755648,-51.062695,-12.0505495,54.225376,-37.73056,12.590367,-22.478191,-26.796675
160,2.594510555267334,2.9242067337036133,78.7220687866211,1.9449278712366318,-0.3950291610352376,-85.62455883419386,1.8682365,3.350654,26.33152,7.8567986,-8.332139,-1.8604273,-1.3788345,-17.29206,-34.667084,19.315031,-9.700693,6.6910048,0.41565418,-2.9449117,9.9254875,-41.39372,1.5462718,-73.021324,8.286956,7.140418,2.0672216,-27.942686,-50.89672,-11.938801,54.477997,-37.91779,12.630282,-22.5118,-26.995117
161,2.638427257537842,2.921816110610962,78.71013641357422,2.009243807817136,-0.39163839559594316,-85.64949196927991,1.9236656,3.2142084,26.376026,7.74679,-8.3061075,-1.8162841,-1.5072738,-17.478065,-34.577053,19.58838,-9.803077,6.7293997,0.42642602,-3.0625734,9.922011,-41.277466,1.5213598,-73.01954,8.251355,7.25003,2.0751715,-28.082983,-50.741577,-11.829846,54.71374,-38.073803,12.58145,-22.546778,-27.205069
162,2.6827096939086914,2.919576644897461,78.69686126708984,2.078099931540937,-0.3870520703697707,-85.67762992248862,1.9811071,3.0721328,26.425774,7.6292763,-8.27917,-1.7679242,-1.6471976,-17.672247,-34.47799,19.879353,-9.913332,6.7648597,0.4351158,-3.1864195,9.918571,-41.16656,1.4947096,-73.02444,8.22845,7.3684964,2.0566833,-28.190313,-50.598305,-11.724313,54.944786,-38.204933,12.47048,-22.581512,-27.423603
163,2.725733995437622,2.9171640872955322,78.68460845947266,2.1492627311760315,-0.38224249814647576,-85.7078954285863,2.041068,2.9243295,26.478058,7.5052395,-8.249902,-1.7166904,-1.7938157,-17.872963,-34.373203,20.180603,-10.026291,6.8014383,0.44400778,-3.3152785,9.915236,-41.067886,1.4689332,-73.03086,8.210742,7.469801,2.0306616,-28.278368,-50.461617,-11.623268,55.16969,-38.317467,12.346265,-22.61648,-27.643726
164,2.7716572284698486,2.9187350273132324,78.67111206054688,2.2254672694226594,-0.37846776296804285,-85.73889674165868,2.1040769,2.770804,26.53009,7.3759193,-8.217203,-1.6639937,-1.9421804,-18.078516,-34.26628,20.484838,-10.136644,6.8431745,0.45981035,-3.4500103,9.915873,-40.97926,1.4518862,-73.04155,8.181194,7.5375853,2.0168524,-28.359118,-50.31524,-11.554446,55.380783,-38.446175,12.261571,-22.652166,-27.857536
165,2.817401647567749,2.920656681060791,78.6568374633789,2.304768727318254,-0.37551122741215304,-85.77193181176098,2.1705089,2.6099687,26.582785,7.240592,-8.180014,-1.6086171,-2.0934448,-18.290873,-34.156097,20.793522,-10.243378,6.892595,0.47255322,-3.5883417,9.920551,-40.888054,1.4376482,-73.04579,8.143147,7.5745916,2.0226965,-28.430769,-50.174652,-11.498487,55.587833,-38.567295,12.230527,-22.691961,-28.071749
166,2.8655285835266113,2.921816825866699,78.64201354980469,2.388036254483068,-0.3730601313371154,-85.80704080011357,2.217787,2.4540777,26.63595,7.1525497,-8.167823,-1.5508155,-2.2480965,-18.509024,-34.042007,21.106304,-10.348459,6.9471116,0.46692818,-3.7226844,9.922425,-40.802197,1.4181803,-73.02482,8.11179,7.583727,2.0357065,-28.491943,-50.06601,-11.40474,55.814484,-38.62748,12.21665,-22.735981,-28.2936
167,2.9127705097198486,2.9202656745910645,78.62574768066406,2.472402611517869,-0.3712526468387221,-85.84168773878706,2.2318842,2.3133044,26.68606,7.1434484,-8.196878,-1.4937967,-2.4054496,-18.730585,-33.926086,21.424717,-10.453564,7.002745,0.46472797,-3.8629136,9.92441,-40.724667,1.4045539,-73.00898,8.076685,7.577167,2.0494416,-28.546165,-49.953167,-11.318525,56.02522,-38.685184,12.217408,-22.776077,-28.497683
168,2.958247661590576,2.9230217933654785,78.61083984375,2.557807020640641,-0.37055591058347587,-85.87345691490236,2.245947,2.1730192,26.731987,7.1335254,-8.225127,-1.439684,-2.5615609,-18.951477,-33.811974,21.743181,-10.560728,7.0556464,0.46054363,-4.003169,9.931269,-40.631493,1.3895214,-72.99396,8.035866,7.6027794,2.0564632,-28.602333,-49.847282,-11.25369,56.21973,-38.75047,12.231758,-22.809637,-28.676228
169,3.002410650253296,2.92724347114563,78.5955810546875,2.6392267912691127,-0.3712778652461497,-85.89999194187209,2.2589047,2.0349483,26.770374,7.124686,-8.253746,-1.3893113,-2.7165506,-19.171768,-33.701515,22.06589,-10.670996,7.1052227,0.46145293,-4.1432934,9.934731,-40.57091,1.3773609,-72.97698,7.9988437,7.601631,2.050659,-28.671122,-49.732048,-11.19713,56.40176,-38.81759,12.263931,-22.83587,-28.828646
170,3.0474438667297363,2.9308581352233887,78.57997131347656,2.719670489210182,-0.3731884190733581,-85.92312982470621,2.2721462,1.8968979,26.803585,7.114319,-8.281361,-1.3412453,-2.8715844,-19.39314,-33.592907,22.392693,-10.783473,7.153364,0.45913446,-4.283215,9.940314,-40.50639,1.3644661,-72.95694,7.959598,7.6081014,2.0384927,-28.7432,-49.61998,-11.150597,56.572594,-38.883842,12.320455,-22.857866,-28.96125
171,3.096334934234619,2.932528257369995,78.56431579589844,2.802009690272019,-0.37546085561564707,-85.94693009330155,2.2853637,1.7578537,26.837446,7.1046824,-8.3088875,-1.2945529,-3.028646,-19.61555,-33.481853,22.721743,-10.896383,7.1998854,0.44744,-4.420858,9.943893,-40.44054,1.3441632,-72.92455,7.927351,7.6339545,2.024208,-28.811214,-49.52193,-11.092786,56.745075,-38.930187,12.354368,-22.873009,-29.07043
172,3.1454317569732666,2.93510365486145,78.54727935791016,2.8869712686133826,-0.3771064770285183,-85.9752282416627,2.2992752,1.6165357,26.877737,7.0944676,-8.3353405,-1.2484956,-3.190149,-19.83901,-33.364437,23.051697,-11.008329,7.244621,0.45202205,-4.5672846,9.949278,-40.390198,1.3314813,-72.90887,7.88987,7.6736965,2.0135255,-28.862547,-49.425987,-11.058368,56.885704,-38.986908,12.336288,-22.876972,-29.144972
173,3.1924149990081787,2.9381113052368164,78.52838134765625,2.9742721754719805,-0.37775514476436367,-86.0099418403617,2.3164291,1.4707985,26.927502,7.077536,-8.356222,-1.2044913,-3.3579447,-20.064648,-33.23862,23.384136,-11.119661,7.2859936,0.45776293,-4.7174706,9.956791,-40.336838,1.3221797,-72.90041,7.844647,7.7282767,2.0317106,-28.849184,-49.344936,-11.035956,57.00796,-39.046234,12.244727,-22.859962,-29.177853
174,3.2377920150756836,2.9422552585601807,78.51040649414062,3.066094203458436,-0.378156277027102,-86.04875835055014,2.3288927,1.325661,26.982973,7.0722904,-8.381874,-1.16265,-3.5314844,-20.292345,-33.106155,23.72087,-11.23202,7.3245373,0.45120767,-4.8667283,9.966622,-40.256218,1.3085896,-72.88738,7.7942877,7.824315,2.069311,-28.790775,-49.281742,-11.015842,57.128536,-39.101906,12.101977,-22.826948,-29.17605
175,3.2838425636291504,2.947626829147339,78.49374389648438,3.158053700348166,-0.37819777790847053,-86.08884147219038,2.3442166,1.1780494,27.040056,7.0603786,-8.40457,-1.1193296,-3.7056975,-20.519451,-32.971092,24.0548,-11.341774,7.3634286,0.44644463,-5.01592,9.975978,-40.17836,1.291722,-72.86584,7.7503457,7.9748893,2.0748434,-28.78427,-49.232147,-10.997419,57.244316,-39.14278,11.928653,-22.80114,-29.16257
176,3.32902193069458,2.9532811641693115,78.47700500488281,3.2492869920779763,-0.3785438225882734,-86.12838353827794,2.3593106,1.0309838,27.09606,7.0491843,-8.429746,-1.0713378,-3.8778152,-20.744545,-32.835114,24.383429,-11.448103,7.405732,0.44320247,-5.165767,9.982644,-40.098923,1.2665447,-72.82279,7.722838,8.228777,2.0008235,-28.925514,-49.182446,-10.9755745,57.363647,-39.176865,11.747805,-22.79953,-29.150604
177,3.3757693767547607,2.957645893096924,78.46038055419922,3.3402211694185344,-0.3797497981293476,-86.16662495705835,2.3751786,0.88349175,27.150066,7.037537,-8.458305,-1.0148361,-4.0467787,-20.968962,-32.697887,24.70714,-11.550893,7.453572,0.46808147,-5.330785,9.989361,-40.04043,1.2527225,-72.77585,7.7042437,8.6727,1.7699003,-29.34402,-49.12587,-10.964687,57.448463,-39.208046,11.554936,-22.833578,-29.132206
178,3.4239866733551025,2.962085247039795,78.44296264648438,3.43141002245483,-0.3814336301637127,-86.20479505909248,2.3924582,0.7347356,27.203745,7.0241446,-8.488652,-0.95262456,-4.214538,-21.193068,-32.558544,25.027397,-11.651045,7.5048485,0.49026605,-5.498044,9.998234,-39.95677,1.2402171,-72.70623,7.688484,9.298324,1.4246981,-29.951218,-49.078415,-10.957826,57.5326,-39.232845,11.337655,-22.89377,-29.109694
179,3.471407413482666,2.9661309719085693,78.42401885986328,3.5221278182496794,-0.38245728173489196,-86.24301781781206,2.4082017,0.5873775,27.257158,7.012092,-8.519582,-0.8910649,-4.3813934,-21.413765,-32.419083,25.341543,-11.747304,7.556756,0.4961876,-5.653679,10.004649,-39.861923,1.2208548,-72.610466,7.6758566,9.875793,1.0991954,-30.518202,-49.036743,-10.950762,57.645885,-39.257164,11.125076,-22.959948,-29.09481
180,3.518010377883911,2.9699525833129883,78.4044418334961,3.6097574440012075,-0.38168564360097507,-86.28202401680262,2.4212399,0.44353202,27.310408,6.9997344,-8.546787,-0.83674896,-4.548713,-21.629097,-32.280834,25.647936,-11.838905,7.606351,0.50160825,-5.801236,10.008892,-39.756775,1.2000076,-72.540184,7.6495647,10.186717,0.9405232,-30.802267,-48.99497,-10.945911,57.763706,-39.28566,10.966142,-23.010635,-29.081411
181,3.566155195236206,2.9739365577697754,78.38545227050781,3.6942593781974624,-0.37745708311756004,-86.32237971172438,2.4295173,0.304482,27.363604,6.9888244,-8.570258,-0.7934431,-4.7174163,-21.83617,-32.14465,25.942835,-11.924048,7.6540794,0.5018816,-5.9278426,10.001392,-39.68423,1.1751562,-72.48073,7.615584,10.043926,1.0350279,-30.67865,-48.94939,-10.940624,57.91266,-39.316925,10.865241,-23.038893,-29.077675
182,3.6156222820281982,2.981534481048584,78.36682891845703,3.776461116817513,-0.3709454384674631,-86.36352855162447,2.4355857,0.16809808,27.41679,6.97652,-8.589995,-0.75702935,-4.8869553,-22.037815,-32.009525,26.229862,-12.00448,7.70095,0.49539658,-6.0429296,9.989713,-39.597107,1.1480469,-72.43415,7.568429,9.639349,1.2924652,-30.287476,-48.90878,-10.935,58.075703,-39.349785,10.811193,-23.055,-29.074512
183,3.6608879566192627,2.9873604774475098,78.34964752197266,3.855229449066985,-0.36460589752637995,-86.40443388264507,2.4408097,0.034370158,27.46924,6.9662232,-8.610231,-0.7219937,-5.0547643,-22.235846,-31.875143,26.511486,-12.081436,7.7453365,0.49429697,-6.154257,9.97686,-39.536633,1.1170812,-72.391106,7.528801,9.149247,1.5843916,-29.830784,-48.864326,-10.927663,58.241608,-39.375957,10.773169,-23.069881,-29.083033
184,3.707278251647949,2.9920156002044678,78.33345794677734,3.9350094855609394,-0.36121124872176297,-86.44381828379692,2.4484947,-0.09829567,27.520746,6.9558587,-8.631512,-0.6827548,-5.218247,-22.431406,-31.741274,26.791092,-12.156986,7.7852764,0.5016147,-6.274867,9.973269,-39.46982,1.0847377,-72.35682,7.4955873,8.828427,1.7920793,-29.502897,-48.81443,-10.920533,58.388,-39.39644,10.736352,-23.092155,-29.101986
185,3.75553822517395,2.9952614307403564,78.31626892089844,4.014959141622748,-0.3628838703540593,-86.48190067829898,2.4618413,-0.23125447,27.57173,6.9442,-8.654493,-0.63797194,-5.376575,-22.627277,-31.607037,27.073608,-12.234713,7.8180704,0.5099525,-6.407367,9.985135,-39.36434,1.0448684,-72.330315,7.4677944,8.788638,1.8886181,-29.354597,-48.76311,-10.9141445,58.520428,-39.417107,10.7103815,-23.126076,-29.132244
186,3.8017868995666504,3.002448797225952,78.2994384765625,4.094707829470378,-0.36764032774723804,-86.51912281940521,2.478263,-0.36292398,27.622198,6.932356,-8.678717,-0.59048486,-5.5300803,-22.821642,-31.47317,27.35394,-12.311413,7.84562,0.5430123,-6.5489545,9.999879,-39.318325,0.9918402,-72.31573,7.4711533,8.805844,1.9342922,-29.289417,-48.697746,-10.908772,58.63371,-39.42914,10.69267,-23.165545,-29.174288
187,3.841677665710449,3.0106897354125977,78.28279876708984,4.171823401577454,-0.3721850039238157,-86.55477609189963,2.492496,-0.49174356,27.671017,6.9235296,-8.703915,-0.5412872,-5.6817966,-23.011244,-31.340738,27.628345,-12.383339,7.8728256,0.5774508,-6.6919184,10.020094,-39.25111,0.9437974,-72.307816,7.467521,8.884675,1.9542254,-29.262913,-48.630447,-10.906988,58.730656,-39.438854,10.671035,-23.206976,-29.226736
188,3.882230043411255,3.0175232887268066,78.26716613769531,4.245296192675417,-0.37316042429593443,-86.5880133480202,2.5012655,-0.6161993,27.716984,6.915366,-8.727072,-0.491325,-5.832859,-23.192762,-31.211382,27.890455,-12.445027,7.9047737,0.60236377,-6.8234086,10.0375,-39.17483,0.8620473,-72.283066,7.497477,8.94984,1.9674122,-29.243668,-48.560585,-10.90617,58.827946,-39.439358,10.612478,-23.248299,-29.299643
189,3.9277679920196533,3.0234715938568115,78.25275421142578,4.316367597197731,-0.3685608751885073,-86.61977500832992,2.5022056,-0.7370933,27.760992,6.90903,-8.748011,-0.43931535,-5.9862103,-23.367788,-31.082857,28.139204,-12.494397,7.9448195,0.6450923,-6.950714,10.047215,-39.151535,0.8231597,-72.260445,7.5039973,8.896433,1.9680817,-29.227898,-48.47215,-10.908371,58.893486,-39.42606,10.517701,-23.286205,-29.382414
190,3.972215175628662,3.030949592590332,78.23831176757812,4.384083932239292,-0.3606483720317919,-86.65003866367978,2.4984682,-0.8553897,27.80323,6.9029913,-8.766984,-0.38542733,-6.1401024,-23.53731,-30.955242,28.377872,-12.534481,7.98947,0.6655772,-7.0650406,10.058476,-39.0798,0.7715044,-72.2156,7.513934,8.887631,1.9507256,-29.23033,-48.38836,-10.910955,58.970573,-39.40358,10.398128,-23.325922,-29.48403
191,4.01625394821167,3.0386009216308594,78.22459411621094,4.448360492308047,-0.35228565808417306,-86.67684538535069,2.4921408,-0.9683957,27.84188,6.898814,-8.7860365,-0.3320732,-6.2897077,-23.699287,-30.833101,28.607426,-12.568444,8.034082,0.6744198,-7.171768,10.069804,-38.985985,0.6827035,-72.15971,7.5565915,8.908302,1.9318835,-29.24888,-48.304173,-10.913339,59.050453,-39.378662,10.246844,-23.365875,-29.60725
192,4.05863094329834,3.047360897064209,78.2116470336914,4.505334804077292,-0.34607676528615877,-86.69831702065993,2.4867902,-1.0737563,27.874971,6.8951173,-8.806224,-0.28160104,-6.4279795,-23.852364,-30.721909,28.826614,-12.597971,8.07413,0.7141522,-7.282199,10.07901,-38.970272,0.627257,-72.12484,7.585563,8.8394165,1.9272659,-29.285288,-48.213608,-10.918519,59.091316,-39.347424,10.062565,-23.403677,-29.75429
193,4.099993705749512,3.054959535598755,78.19832611083984,4.555898714849986,-0.3440004887137594,-86.71274433036272,2.4836485,-1.1698276,27.901312,6.8928914,-8.829598,-0.23601106,-6.551669,-23.99506,-30.624285,29.035395,-12.624429,8.10701,0.7285978,-7.3826947,10.093595,-38.889606,0.5583898,-72.08094,7.61079,8.84508,1.9472593,-29.33644,-48.134323,-10.926989,59.140686,-39.32376,9.833061,-23.43962,-29.92518
194,4.141539573669434,3.0623762607574463,78.18501281738281,4.599630198033649,-0.34418685547863126,-86.72159994691398,2.4818923,-1.2586308,27.92203,6.8902774,-8.854105,-0.19340324,-6.6644897,-24.128515,-30.53734,29.234465,-12.64649,8.135562,0.7401484,-7.4780946,10.110359,-38.800167,0.4770825,-72.03723,7.64587,8.863872,1.9800173,-29.40509,-48.059174,-10.938023,59.178238,-39.29647,9.56503,-23.473457,-30.117641
195,4.182567596435547,3.070054769515991,78.1739501953125,4.638697671145558,-0.34390857582844486,-86.72745399351736,2.4773564,-1.3420767,27.9392,6.8901973,-8.877961,-0.15129179,-6.772328,-24.256046,-30.456734,29.424587,-12.663183,8.163223,0.7640559,-7.572907,10.126023,-38.74342,0.4362836,-72.00286,7.648583,8.836356,2.018066,-29.483547,-47.982716,-10.946952,59.202164,-39.266357,9.279798,-23.508812,-30.340166
196,4.222064971923828,3.078760862350464,78.16448974609375,4.678394399282916,-0.3408476774635997,-86.7327795956294,2.4691365,-1.4240798,27.955112,6.889945,-8.896946,-0.10714026,-6.881142,-24.37977,-30.378023,29.607082,-12.673638,8.193137,0.78528804,-7.6626916,10.1430435,-38.684925,0.36749208,-71.961685,7.6728907,8.822382,2.0540833,-29.563522,-47.90707,-10.965609,59.24167,-39.25908,8.99767,-23.549507,-30.611916
197,4.262624263763428,3.0861477851867676,78.1570816040039,4.716234090503809,-0.33314576797433954,-86.73777326701153,2.4538999,-1.505141,27.969711,6.892542,-8.910133,-0.057975348,-6.9927053,-24.50196,-30.300749,29.781458,-12.676897,8.226302,0.8247754,-7.754869,10.15993,-38.66226,0.3276381,-71.93286,7.6710224,8.7579155,2.0920944,-29.646652,-47.831345,-10.982306,59.276054,-39.260048,8.732091,-23.595766,-30.946459
198,4.302196025848389,3.09452486038208,78.14823913574219,4.752514849156252,-0.32267090866436193,-86.74122245843266,2.434319,-1.5842404,27.982096,6.8960414,-8.918498,-0.0059386697,-7.1027155,-24.620905,-30.22739,29.945074,-12.673868,8.261013,0.8503083,-7.8403053,10.181134,-38.598396,0.26512876,-71.89517,7.674231,8.742317,2.135423,-29.734278,-47.76302,-11.008852,59.332523,-39.284927,8.468533,-23.646013,-31.338583
199,4.341606616973877,3.105677366256714,78.1383056640625,4.7871419501772445,-0.3117098950876856,-86.74366035161805,2.413511,-1.6594118,27.9928,6.9002643,-8.92622,0.043968197,-7.2107935,-24.733986,-30.156807,30.102926,-12.665621,8.296442,0.8955385,-7.926879,10.198731,-38.593468,0.23199636,-71.86913,7.6649837,8.664502,2.1717038,-29.820591,-47.68875,-11.030571,59.372044,-39.306717,8.193163,-23.698048,-31.743122
200,4.380761623382568,3.1184005737304688,78.12852478027344,4.816682970185812,-0.3026788020460698,-86.74575882569853,2.3956063,-1.7300152,28.00262,6.9025607,-8.934876,0.08650367,-7.313498,-24.840885,-30.088497,30.255178,-12.655037,8.331745,0.8946564,-7.998386,10.222708,-38.472366,0.18599093,-71.824425,7.642317,8.733517,2.1962998,-29.886038,-47.63679,-11.050714,59.44627,-39.341427,7.9001217,-23.752506,-32.128918
201,4.417876243591309,3.1279850006103516,78.11994934082031,4.839998835247834,-0.29707555882015557,-86.74749062316872,2.3818157,-1.7929534,28.010414,6.9052744,-8.948112,0.11768181,-7.406369,-24.936855,-30.024776,30.39648,-12.638613,8.368469,0.92681444,-8.068164,10.237724,-38.48595,0.15060309,-71.78877,7.653725,8.669476,2.198125,-29.926126,-47.564026,-11.074431,59.496803,-39.377026,7.5768123,-23.803957,-32.492764
202,4.4554877281188965,3.1366772651672363,78.11168670654297,4.860426156455952,-0.2935653443207885,-86.74857433545225,2.3704066,-1.8506055,28.016394,6.90826,-8.963225,0.1407384,-7.4925036,-25.026833,-29.964516,30.530664,-12.618363,8.406366,0.9129253,-8.122673,10.259823,-38.379864,0.10012069,-71.738144,7.6527367,8.743674,2.1914222,-29.932995,-47.511414,-11.097689,59.582672,-39.431168,7.2427025,-23.856005,-32.852062
203,4.4933013916015625,3.1475656032562256,78.10482025146484,4.876770597320526,-0.2893206801192058,-86.74925262243893,2.3579555,-1.9054078,28.022438,6.9104605,-8.977629,0.16315371,-7.57689,-25.112436,-29.905592,30.659542,-12.5960655,8.442809,0.9213303,-8.180412,10.276685,-38.342266,0.059937015,-71.69429,7.660874,8.776834,2.170732,-29.963034,-47.453842,-11.117598,59.646427,-39.47771,6.88301,-23.911396,-33.195496
204,4.531793117523193,3.1574244499206543,78.09895324707031,4.896024027918627,-0.2820301368407895,-86.74951820260523,2.341785,-1.961379,28.030699,6.913027,-8.991421,0.19169903,-7.6660666,-25.197994,-29.844923,30.78878,-12.576214,8.474926,0.91672945,-8.238475,10.294745,-38.254368,0.0123283835,-71.639725,7.658364,8.92419,2.1408083,-30.05168,-47.41312,-11.13697,59.714577,-39.522423,6.496409,-23.976662,-33.51702
205,4.568138122558594,3.168199300765991,78.09217834472656,4.915979635499338,-0.26909617320025675,-86.74912410252331,2.3171997,-2.0172074,28.042673,6.918027,-9.004349,0.22966392,-7.7623234,-25.284357,-29.78173,30.918673,-12.558582,8.500535,0.96689624,-8.312097,10.301199,-38.30152,-0.007393294,-71.59947,7.655937,8.984369,2.115447,-30.225943,-47.365185,-11.15284,59.727432,-39.545113,6.0736365,-24.053448,-33.812374
206,4.602492809295654,3.1774685382843018,78.08509826660156,4.937618688816716,-0.25284123618091386,-86.74788776039019,2.288921,-2.073275,28.057074,6.9216504,-9.015573,0.2725294,-7.863332,-25.36915,-29.717264,31.048481,-12.542585,8.521114,0.97635317,-8.379495,10.312284,-38.234184,-0.045240138,-71.531006,7.637669,9.223448,2.0934231,-30.449402,-47.33771,-11.179299,59.767868,-39.591072,5.6237116,-24.141376,-34.094334
207,4.6381707191467285,3.1878039836883545,78.07878112792969,4.958801997398095,-0.2366726695740292,-86.7469335727142,2.26052,-2.1287374,28.07115,6.925639,-9.026504,0.31698203,-7.9623003,-25.452532,-29.65347,31.174194,-12.526341,8.541327,1.0077742,-8.452258,10.32303,-38.214428,-0.0788171,-71.475136,7.6293173,9.46171,2.0317578,-30.70997,-47.309467,-11.207548,59.786877,-39.625328,5.1508574,-24.232756,-34.35322
208,4.672470569610596,3.1996634006500244,78.07211303710938,4.978072469540319,-0.22421931267858994,-86.7472649853089,2.237652,-2.1841702,28.082067,6.928258,-9.037144,0.35926917,-8.053458,-25.533014,-29.592466,31.292767,-12.508702,8.5650625,1.0384824,-8.525504,10.341012,-38.18458,-0.10849584,-71.430786,7.626106,9.759417,1.89191,-30.985514,-47.285744,-11.235581,59.80675,-39.650127,4.662326,-24.322172,-34.586945
209,4.707906723022461,3.2100300788879395,78.06613159179688,4.997335340558188,-0.2176504334214452,-86.74998155199322,2.221173,-2.2385392,28.088432,6.9327755,-9.049028,0.3993892,-8.13378,-25.610378,-29.534338,31.403316,-12.489957,8.594764,1.0680496,-8.5998,10.372611,-38.138126,-0.15549627,-71.399086,7.6532736,10.130676,1.6132965,-31.268919,-47.268734,-11.276799,59.829086,-39.673412,4.1328015,-24.420574,-34.79713
210,4.742715358734131,3.221952438354492,78.05989837646484,5.015997833864752,-0.21453134373123606,-86.75445663200657,2.2100065,-2.29314,28.091988,6.9354415,-9.060014,0.43901858,-8.20671,-25.686558,-29.478151,31.50771,-12.470502,8.627977,1.109471,-8.679845,10.40963,-38.112328,-0.18788558,-71.38501,7.6862974,10.52246,1.2324276,-31.568958,-47.25657,-11.308896,59.8377,-39.677193,3.5669138,-24.525633,-34.979492
211,4.778525352478027,3.232111692428589,78.05435943603516,5.034300398607873,-0.2120671713196541,-86.75826274497965,2.200004,-2.3467214,28.094439,6.937298,-9.070572,0.476989,-8.275817,-25.758991,-29.424849,31.605333,-12.449051,8.661204,1.1617514,-8.759152,10.447429,-38.116188,-0.22981016,-71.3764,7.7351503,10.938371,0.8541376,-31.89789,-47.23004,-11.364408,59.842377,-39.693874,3.0156188,-24.617552,-35.143333
212,4.811882019042969,3.2399613857269287,78.0478744506836,5.0499878246529235,-0.20751397121480125,-86.75908250946004,2.1860917,-2.3977656,28.097593,6.940848,-9.081256,0.51190203,-8.346059,-25.831327,-29.37393,31.702854,-12.428314,8.691232,1.1864545,-8.825243,10.4822235,-38.059002,-0.2814601,-71.3519,7.762723,11.475167,0.58762616,-32.259342,-47.210293,-11.416351,59.87338,-39.709526,2.5383382,-24.67606,-35.29116
213,4.847369194030762,3.2513554096221924,78.04139709472656,5.063399199157208,-0.199815916999645,-86.75532120431563,2.1681707,-2.4462013,28.101189,6.942711,-9.089807,0.54199255,-8.416912,-25.90086,-29.327267,31.795704,-12.405342,8.716501,1.2074966,-8.879133,10.5028925,-38.032433,-0.32340413,-71.31375,7.7658143,12.104491,0.49744186,-32.70605,-47.18076,-11.459025,59.919216,-39.710003,2.1208572,-24.685823,-35.424454
214,4.884776592254639,3.259648084640503,78.0356674194336,5.0757991231894035,-0.19048507917521185,-86.74859776886247,2.1484568,-2.4923658,28.10476,6.9441533,-9.097901,0.5683874,-8.486794,-25.969145,-29.283895,31.884886,-12.381386,8.739102,1.2397124,-8.92796,10.514396,-38.049786,-0.33782393,-71.280495,7.7394032,12.780688,0.5115192,-33.21785,-47.14836,-11.483305,59.956696,-39.68072,1.7478322,-24.661161,-35.535404
215,4.916129112243652,3.2690093517303467,78.03074645996094,5.087415910041039,-0.18082267152350684,-86.74151386346233,2.1283555,-2.5380523,28.108759,6.9448576,-9.105396,0.59459054,-8.556475,-26.035637,-29.241873,31.972616,-12.357631,8.760837,1.2425605,-8.968581,10.527009,-38.00649,-0.3535116,-71.22856,7.701055,13.47943,0.52853626,-33.70775,-47.123844,-11.505158,60.024387,-39.654964,1.4493561,-24.625845,-35.626007
216,4.94950008392334,3.2794408798217773,78.02592468261719,5.100342511669862,-0.1720417047447937,-86.73643114782158,2.1099055,-2.584642,28.113369,6.945131,-9.113855,0.6240853,-8.624477,-26.103552,-29.199644,32.05974,-12.33451,8.783978,1.2375683,-9.011527,10.546065,-37.931976,-0.38152477,-71.17547,7.685117,14.026029,0.44952583,-34.088306,-47.103916,-11.527297,60.095634,-39.637756,1.2592776,-24.603489,-35.68958
217,4.982048034667969,3.2904512882232666,78.021728515625,5.115671243913629,-0.16405182132888743,-86.73470911462087,2.092497,-2.6318748,28.119324,6.945595,-9.123513,0.6595769,-8.69201,-26.170176,-29.1576,32.146408,-12.311655,8.809089,1.2762799,-9.07155,10.566794,-37.944263,-0.40552297,-71.14821,7.718905,14.15168,0.24209158,-34.291206,-47.06351,-11.550037,60.12635,-39.62003,1.2288792,-24.600729,-35.696056
218,5.0135817527771,3.300093173980713,78.01622009277344,5.13126350989056,-0.15625278013822488,-86.73474459879425,2.0761468,-2.679632,28.126066,6.944792,-9.133568,0.6984712,-8.758303,-26.23649,-29.116592,32.23126,-12.288595,8.835045,1.332704,-9.140324,10.590311,-37.97584,-0.41720802,-71.138145,7.7647676,14.035745,-0.0334341,-34.375484,-47.01894,-11.566445,60.136192,-39.596554,1.3304627,-24.605913,-35.65658
219,5.0439605712890625,3.3099029064178467,78.01021575927734,5.146578656977757,-0.14923623125414653,-86.73529657874488,2.0612793,-2.7274005,28.133207,6.943597,-9.143752,0.73715746,-8.822912,-26.302353,-29.07511,32.31476,-12.266252,8.861214,1.3862442,-9.209016,10.615977,-37.995853,-0.42825577,-71.13312,7.8090196,13.939465,-0.34370857,-34.454784,-46.972187,-11.58674,60.14185,-39.582092,1.4691489,-24.607933,-35.613777
220,5.075634002685547,3.317864179611206,78.00394439697266,5.162331809153972,-0.14348524637290835,-86.73535226496554,2.0485494,-2.775316,28.140276,6.942157,-9.154076,0.7719272,-8.88505,-26.367746,-29.031816,32.39625,-12.245263,8.886989,1.4212887,-9.270147,10.643562,-37.96992,-0.43985587,-71.131256,7.824615,14.121588,-0.6539058,-34.63621,-46.941414,-11.601242,60.151432,-39.56433,1.5569942,-24.595953,-35.60716
221,5.1077752113342285,3.3261923789978027,77.99734497070312,5.177841706414447,-0.1397149496556073,-86.73624538589671,2.0398822,-2.8231034,28.148687,6.93933,-9.1642275,0.8007669,-8.943719,-26.430054,-28.984385,32.473648,-12.22436,8.913511,1.4686152,-9.333151,10.669576,-38.001266,-0.44820642,-71.14514,7.8322773,14.695998,-1.0419337,-35.03912,-46.905205,-11.61952,60.14339,-39.556557,1.5768458,-24.552385,-35.660603
222,5.138423919677734,3.333566665649414,77.99278259277344,5.192948456570314,-0.13749315144356342,-86.73766730854696,2.0341156,-2.8716624,28.158201,6.936464,-9.17536,0.8258483,-9.000812,-26.49171,-28.933695,32.550297,-12.20504,8.940709,1.4911363,-9.388709,10.701632,-37.96491,-0.45758855,-71.16202,7.8049746,15.618138,-1.4968479,-35.562366,-46.889328,-11.631159,60.14511,-39.548122,1.5822664,-24.490063,-35.747284
223,5.1693243980407715,3.3398568630218506,77.98844146728516,5.208400948968879,-0.13539247820081315,-86.73733327073279,2.028905,-2.9191103,28.16574,6.932615,-9.185357,0.85040045,-9.053932,-26.552034,-28.886148,32.62209,-12.185371,8.966185,1.5313731,-9.446209,10.727926,-37.986507,-0.46823463,-71.18579,7.7991877,16.388437,-1.8757713,-36.02677,-46.85865,-11.650312,60.123222,-39.546124,1.5515319,-24.434185,-35.836018
224,5.200638771057129,3.3470265865325928,77.98518371582031,5.221457506740173,-0.13201153520346734,-86.73145607706597,2.0193799,-2.9649687,28.167288,6.9305844,-9.193336,0.87770116,-9.104337,-26.611736,-28.84777,32.690956,-12.16711,8.987277,1.5522683,-9.490717,10.746967,-37.984737,-0.4714019,-71.18875,7.791447,16.722189,-2.0132067,-36.246567,-46.839203,-11.655798,60.10939,-39.522205,1.4703074,-24.413486,-35.900486
225,5.230175495147705,3.3571202754974365,77.98176574707031,5.235154992980632,-0.12626207036978013,-86.71809350651944,2.004646,-3.00901,28.161337,6.9293437,-9.198205,0.91009927,-9.15247,-26.671679,-28.821106,32.75762,-12.150485,8.999766,1.5831647,-9.532224,10.754292,-37.998943,-0.47935355,-71.18368,7.8179536,16.366322,-1.7880886,-36.120136,-46.80455,-11.673027,60.056908,-39.493835,1.3270998,-24.44536,-35.91397
226,5.25787353515625,3.3653736114501953,77.97659301757812,5.248017572102566,-0.11904489854939701,-86.6992982833747,1.9862611,-3.0518682,28.149946,6.928373,-9.200288,0.945472,-9.197705,-26.731182,-28.802828,32.82048,-12.134416,9.006147,1.5971844,-9.558751,10.751011,-37.999905,-0.48209015,-71.1618,7.84784,15.580236,-1.3100673,-35.751205,-46.778305,-11.679142,60.01894,-39.441452,1.1138465,-24.512154,-35.917572
227,5.285373210906982,3.372378349304199,77.97116088867188,5.258195800791741,-0.11230283599008252,-86.67826040525664,1.9673704,-3.0931916,28.135633,6.9291005,-9.202778,0.9798444,-9.238506,-26.788843,-28.789598,32.878704,-12.118581,9.014191,1.6127675,-9.5868225,10.749798,-38.008373,-0.48700115,-71.13405,7.883691,14.662361,-0.7734972,-35.312103,-46.749367,-11.689117,59.95743,-39.40043,0.9011791,-24.586628,-35.900806
228,5.311729907989502,3.3800694942474365,77.96711730957031,5.26883504525198,-0.10766353173622713,-86.65859943363,1.9521085,-3.1336644,28.121468,6.9285703,-9.206269,1.0094777,-9.273121,-26.843683,-28.777641,32.929955,-12.102018,9.031879,1.6287788,-9.613753,10.749475,-38.02044,-0.49064484,-71.10725,7.90419,13.92396,-0.36093307,-34.968662,-46.7168,-11.697626,59.901848,-39.378098,0.724198,-24.642557,-35.88813
229,5.338212490081787,3.3858048915863037,77.96333312988281,5.276376010625201,-0.1048671274331999,-86.64076445071895,1.9397798,-3.172475,28.107098,6.9279265,-9.211672,1.0311565,-9.299695,-26.894825,-28.767902,32.970592,-12.082705,9.065704,1.6417038,-9.639052,10.753779,-38.01783,-0.49539647,-71.07831,7.900016,13.489625,-0.1322991,-34.78268,-46.683075,-11.707492,59.84583,-39.38268,0.598437,-24.673656,-35.86536
230,5.367429733276367,3.391674518585205,77.95941162109375,5.283573759631265,-0.1034861366687011,-86.62347342908818,1.9298319,-3.2103016,28.091696,6.9264264,-9.217692,1.04772,-9.320503,-26.941847,-28.76122,33.00348,-12.062057,9.109965,1.650481,-9.662704,10.759466,-38.007374,-0.5020519,-71.04392,7.884431,13.180017,0.015700994,-34.662117,-46.64514,-11.718962,59.789246,-39.40921,0.49863517,-24.6932,-35.829205
231,5.396406173706055,3.399935245513916,77.95513916015625,5.289052001672775,-0.10372041971417194,-86.60555604254832,1.9212668,-3.2472699,28.075506,6.926106,-9.224795,1.0640675,-9.336674,-26.987906,-28.756395,33.03259,-12.042358,9.154205,1.6522281,-9.681558,10.767055,-37.975708,-0.5148355,-71.00711,7.857868,12.912813,0.15422228,-34.550648,-46.613304,-11.7325325,59.741257,-39.44383,0.41814992,-24.708157,-35.81324
232,5.4247965812683105,3.407831907272339,77.95185089111328,5.296163489117372,-0.105989470512747,-86.58628063950553,1.9149531,-3.284211,28.05946,6.926626,-9.233075,1.0851808,-9.349869,-27.034796,-28.751505,33.06315,-12.026676,9.1880665,1.6571999,-9.695712,10.769904,-37.959866,-0.51905644,-70.98249,7.822102,12.542839,0.34983468,-34.385277,-46.586937,-11.736461,59.714836,-39.464542,0.33504027,-24.722364,-35.856735
233,5.4531779289245605,3.4151463508605957,77.94620513916016,5.304974376966897,-0.11167210654372337,-86.5652327144504,1.9131348,-3.3225017,28.043722,6.92583,-9.241518,1.1136596,-9.359774,-27.082916,-28.74562,33.096684,-12.01571,9.205652,1.6525865,-9.716165,10.778385,-37.92919,-0.5494333,-70.9402,7.8058224,12.050996,0.6479903,-34.16375,-46.557037,-11.754157,59.673462,-39.516087,0.29562455,-24.733164,-35.93327
234,5.479454040527344,3.4206769466400146,77.94120025634766,5.314135758521532,-0.11971369696904631,-86.54272751809,1.9135126,-3.360351,28.027803,6.9268026,-9.252172,1.146506,-9.36598,-27.130106,-28.740147,33.129814,-12.007648,9.213592,1.6672944,-9.732168,10.781272,-37.949696,-0.57055825,-70.91604,7.78152,11.411467,1.0018307,-33.892235,-46.52652,-11.767089,59.638065,-39.55453,0.2592259,-24.73918,-36.06639
235,5.50286865234375,3.4255483150482178,77.93707275390625,5.322835208930104,-0.1286361911434033,-86.51970299030059,1.9154159,-3.3982992,28.011477,6.926442,-9.261487,1.1800076,-9.368724,-27.177164,-28.736408,33.160103,-12.001457,9.220088,1.6673067,-9.746152,10.786118,-37.932163,-0.5835017,-70.89271,7.740073,10.837235,1.3425057,-33.613514,-46.50732,-11.772886,59.621475,-39.59061,0.22972035,-24.74869,-36.224796
236,5.52767276763916,3.4304895401000977,77.9340591430664,5.32998026759101,-0.13661067179910988,-86.49692100098859,1.9157339,-3.4353201,27.99397,6.9270334,-9.269767,1.2108727,-9.367377,-27.222147,-28.73695,33.18127,-11.993529,9.233644,1.6778258,-9.761893,10.787945,-37.948807,-0.5898212,-70.87643,7.7097607,10.368237,1.5981436,-33.377254,-46.485058,-11.7760935,59.609016,-39.619267,0.19015323,-24.769821,-36.393276
237,5.554379940032959,3.435346841812134,77.93091583251953,5.338101833110303,-0.14351000315291193,-86.47427343046,1.9147867,-3.4720922,27.974537,6.9263525,-9.274286,1.237454,-9.362354,-27.264557,-28.742458,33.193367,-11.98411,9.257949,1.6713297,-9.778308,10.798843,-37.926453,-0.61487573,-70.858376,7.6983733,10.112999,1.7702607,-33.15776,-46.477123,-11.785009,59.61591,-39.655727,0.15401018,-24.809086,-36.577908
238,5.580214977264404,3.4392199516296387,77.92788696289062,5.344582062136283,-0.149808176289019,-86.4513086116007,1.9127462,-3.5077155,27.953602,6.925725,-9.276778,1.2619878,-9.35352,-27.304073,-28.752312,33.197323,-11.973343,9.2882595,1.6783532,-9.796145,10.805031,-37.943863,-0.6340306,-70.85353,7.697232,9.914005,1.888414,-32.946785,-46.462612,-11.792396,59.626755,-39.686886,0.112953246,-24.860067,-36.787197
239,5.605848789215088,3.4450247287750244,77.925048828125,5.351428145192432,-0.1564054152422006,-86.42873519775264,1.9113473,-3.5434957,27.93317,6.9249597,-9.279298,1.28598,-9.341973,-27.341724,-28.763924,33.19609,-11.963471,9.318863,1.6712115,-9.814809,10.815952,-37.91784,-0.65558606,-70.84732,7.6951375,9.87832,1.9378968,-32.80293,-46.459034,-11.798279,59.65257,-39.719746,0.06414601,-24.914038,-36.99621
