unveil-humanoid-operators/unveil-humanoid-operators.github.io/feature-analysis-animation/data/feature_matrix_instances/weight_root_translate_peak_vel_walking_A450_walk_ff_stop_180_R_fast_001__A450.csv
Frame,root_translateX,root_translateY,root_translateZ,root_rotateX,root_rotateY,root_rotateZ,left_hip_pitch_joint_dof,left_hip_roll_joint_dof,left_hip_yaw_joint_dof,left_knee_joint_dof,left_ankle_pitch_joint_dof,left_ankle_roll_joint_dof,right_hip_pitch_joint_dof,right_hip_roll_joint_dof,right_hip_yaw_joint_dof,right_knee_joint_dof,right_ankle_pitch_joint_dof,right_ankle_roll_joint_dof,waist_yaw_joint_dof,waist_roll_joint_dof,waist_pitch_joint_dof,left_shoulder_pitch_joint_dof,left_shoulder_roll_joint_dof,left_shoulder_yaw_joint_dof,left_elbow_joint_dof,left_wrist_roll_joint_dof,left_wrist_pitch_joint_dof,left_wrist_yaw_joint_dof,right_shoulder_pitch_joint_dof,right_shoulder_roll_joint_dof,right_shoulder_yaw_joint_dof,right_elbow_joint_dof,right_wrist_roll_joint_dof,right_wrist_pitch_joint_dof,right_wrist_yaw_joint_dof
0,-0.43661290407180786,-2.141749143600464,73.98442840576172,-3.9456377731513457,-3.549433757619504,84.07218732771439,-25.24203,5.06825,4.914033,6.46634,-2.7528243,-1.7082263,28.050966,7.940435,2.178365,7.078442,-17.22459,-2.4482706,10.808473,4.3138437,12.547039,14.232843,13.0743065,-31.220314,69.33636,17.894703,1.116826,2.0343175,-26.938515,-22.706356,13.882665,46.301865,-22.321566,-4.403085,-9.715523
1,-0.47157976031303406,-0.7664187550544739,73.74050903320312,-4.316370887382862,-3.5634994508655473,83.69402739967998,-25.699446,5.425176,4.6132903,6.4820023,-3.6804173,-2.7941635,29.160675,8.050941,2.6566434,7.025223,-16.141201,-2.4801967,11.13261,4.73157,12.3802805,14.932867,13.062427,-30.131218,69.71733,17.385166,1.1005106,2.2473817,-27.161701,-22.849764,13.93395,45.5527,-22.452085,-4.480313,-10.103344
2,-0.4990367293357849,0.6244011521339417,73.4947509765625,-4.731345348221476,-3.612259561756189,83.25576569036828,-26.192707,5.842665,4.3234696,6.5036254,-4.759812,-4.024841,30.316244,8.196099,3.2005112,6.9720893,-15.129622,-2.5179954,11.491428,5.2271447,12.225226,15.679036,12.997336,-29.005005,70.08488,16.889427,1.0706311,2.4562814,-27.432573,-23.034569,14.037815,44.79968,-22.558775,-4.558195,-10.487898
3,-0.5244398713111877,2.0285890102386475,73.27661895751953,-5.052574929175257,-3.613847436711251,82.92386213961166,-26.592367,6.087499,4.0645227,6.5133414,-5.4855804,-5.008227,31.404457,8.252475,3.6247513,6.91527,-13.970433,-2.5002525,11.765291,5.6240044,12.051378,16.329985,12.886834,-27.94091,70.53967,16.400784,1.0563556,2.6698434,-27.608318,-23.241192,14.125486,44.024837,-22.64941,-4.631013,-10.8666935
4,-0.5434865355491638,3.455486536026001,73.1144027709961,-5.15501699975249,-3.4757410311816024,82.86912713283255,-26.781357,5.954325,3.832009,6.5030556,-5.3852696,-5.3298073,32.30625,8.12014,3.7374046,6.8522224,-12.448491,-2.3627641,11.814346,5.751885,11.828078,16.763094,12.750501,-27.011387,71.1563,15.920933,1.0865487,2.8935542,-27.558313,-23.441528,14.141172,43.21472,-22.732681,-4.692554,-11.239324
5,-0.5493137240409851,4.878408432006836,72.99951934814453,-4.917258855621934,-3.134450451884389,83.14236884194007,-26.709024,5.284937,3.7034104,6.45897,-4.193802,-4.841872,32.539482,7.717625,3.3811984,7.6645637,-11.050255,-2.0899808,11.595641,5.465381,11.53848,16.941751,12.616177,-26.233046,71.96778,15.434324,1.165692,3.15065,-27.260283,-23.61498,14.060059,42.355,-22.822794,-4.737503,-11.622421
6,-0.5745998024940491,6.253085136413574,72.97704315185547,-4.3739358031279645,-2.644547113304478,83.60112070497675,-26.470865,4.164565,3.7374084,6.3879623,-2.17221,-3.8527434,31.69736,7.07587,2.6530516,10.331331,-10.372702,-1.7028942,11.23162,4.822857,11.19757,16.954159,12.498587,-25.559162,72.899956,14.9425745,1.2798744,3.4294486,-26.790712,-23.758795,13.911688,41.46983,-22.916973,-4.7703533,-12.011283
7,-0.6073558926582336,7.626452922821045,72.97879028320312,-3.578091762445853,-2.0750712013591475,84.13356523049445,-26.258823,2.7091544,3.9182706,6.44079,0.29628432,-2.5915642,30.378054,6.1770415,1.805468,13.763393,-9.739869,-1.1831758,10.824196,3.8792236,10.824122,16.863857,12.427592,-24.96395,73.85649,14.465217,1.4310175,3.6810594,-26.1737,-23.840818,13.716996,40.614067,-23.008842,-4.7991176,-12.386047
8,-0.6343488693237305,9.04267406463623,72.96070098876953,-2.7198940457114693,-1.5428003577698166,84.63027895923642,-26.08247,1.2392575,4.13981,6.521828,2.915512,-1.2192171,28.89537,5.2048774,1.0819527,17.499958,-8.771185,-0.5541591,10.46275,2.8614507,10.452933,16.740646,12.388097,-24.424253,74.754486,14.030015,1.6222497,3.8606796,-25.441685,-23.876524,13.528314,39.84614,-23.071112,-4.831869,-12.714166
9,-0.6472523212432861,10.478551864624023,72.93352508544922,-1.823684511167153,-1.0197384253432182,85.13611982503285,-27.635622,-0.04671601,4.3374686,10.066651,4.2561154,0.5028125,27.28242,4.2159724,0.48641804,21.425709,-7.2891397,0.14847846,10.087522,1.7705538,10.047012,16.584307,12.359135,-23.847696,75.62787,13.687534,1.8782885,3.9652977,-24.563091,-23.875023,13.355192,39.116783,-23.10748,-4.87476,-12.972266
10,-0.6489561200141907,11.919571876525879,72.91133117675781,-0.9201850785945086,-0.5150054701102055,85.66965388292803,-29.500685,-1.2369931,4.643695,14.26237,5.8428116,2.562539,25.592712,3.2425053,0.018164102,25.446587,-5.33007,0.9133143,9.70088,0.6473664,9.595444,16.391085,12.363269,-23.3274,76.486565,13.372513,2.197036,4.014761,-23.562553,-23.81325,13.199451,38.474483,-23.126451,-4.918206,-13.193352
11,-0.6379784345626831,13.373268127441406,72.91051483154297,-0.0977558302898398,-0.17930314609321327,86.15264731920368,-30.96102,-2.271073,5.0567594,18.06292,7.311466,4.555167,24.002235,2.3635259,-0.24173678,29.411757,-2.977593,1.7769151,9.344003,-0.37466165,9.290587,16.155071,12.396531,-22.870098,77.25111,13.093589,2.5185628,4.0080914,-22.516481,-23.667923,13.051858,37.957405,-23.128847,-4.965613,-13.381474
12,-0.6261054277420044,14.823168754577637,72.93878173828125,0.6344917118946386,-0.12767494729787518,86.53477203987177,-31.667908,-3.1968725,5.5034175,21.156565,7.878474,6.0970283,22.607704,1.5814192,-0.2712389,33.280724,-0.38017598,2.8062856,9.055172,-1.2335963,9.303504,15.842264,12.439525,-22.53398,77.869995,12.8364525,2.785811,3.9456089,-21.481846,-23.454403,12.899352,37.5971,-23.098078,-5.0177684,-13.545594
13,-0.6389344930648804,16.235563278198242,73.02690887451172,1.3376508562490221,-0.4577390845324012,86.84302490969958,-31.487703,-4.124981,5.8859615,23.64245,6.9819055,7.1084194,21.454641,0.8520779,-0.07940369,37.21493,2.7140343,4.2335753,8.82123,-1.9754827,9.766845,15.415231,12.484708,-22.352327,78.364845,12.577143,2.9950078,3.80498,-20.435387,-23.166939,12.707022,37.38322,-23.042917,-5.082235,-13.720367
14,-0.6397380828857422,17.631393432617188,73.14710998535156,2.030411428037469,-1.0628355817970483,87.11571351690294,-30.705034,-5.0575857,6.16239,25.814144,5.0247483,7.8282065,20.411793,0.21866336,0.32051083,41.300255,6.212683,6.019398,8.610753,-2.6600513,10.549669,14.882415,12.532653,-22.2957,78.76987,12.3271475,3.174533,3.5950806,-19.353245,-22.807903,12.491041,37.300114,-22.96919,-5.1562614,-13.892234
15,-0.6263139247894287,19.004756927490234,73.28607940673828,2.67380947438488,-1.739287656069717,87.32267707278457,-29.603117,-5.9273105,6.3516555,27.63077,2.68497,8.33514,19.285664,-0.26085505,0.88835573,45.423805,9.439103,7.7903647,8.420366,-3.280903,11.427668,14.286168,12.576701,-22.305775,79.04664,12.13555,3.3147278,3.3629847,-18.297438,-22.38954,12.316062,37.37196,-22.859146,-5.22482,-13.998434
16,-0.6138128638267517,20.34464454650879,73.43951416015625,3.237917121264573,-2.2849243792647878,87.43513523575261,-28.455761,-6.6779966,6.520098,29.015066,0.6719242,8.713501,17.883894,-0.62539953,1.5135701,49.464355,11.743662,9.075156,8.23938,-3.8302107,12.178499,13.6665745,12.606267,-22.324135,79.163925,12.048503,3.4041722,3.1577473,-17.333988,-21.930254,12.251925,37.62611,-22.693039,-5.2720513,-13.976052
17,-0.6150339841842651,21.663198471069336,73.60224151611328,3.7214932097345392,-2.646542716464194,87.45537784514569,-27.307148,-7.304958,6.699697,29.90116,-0.90328544,8.937403,16.09787,-0.94029456,2.1597862,53.51506,12.970959,9.66562,8.05072,-4.297958,12.758493,13.012716,12.609838,-22.38021,79.11308,12.133387,3.4389343,2.9513059,-16.47689,-21.437365,12.308808,38.078545,-22.435848,-5.28762,-13.795221
18,-0.6304430961608887,22.933143615722656,73.76683807373047,4.152954315325163,-2.927387393409062,87.40149720480271,-26.018959,-7.845353,6.870353,30.335276,-2.382376,8.979306,14.032398,-1.2641742,2.8191037,57.624733,13.473243,9.740768,7.855127,-4.6981483,13.279297,12.304976,12.583563,-22.491787,78.92458,12.346868,3.4234958,2.733672,-15.685732,-20.912891,12.455191,38.70935,-22.104729,-5.2794886,-13.494282
19,-0.6346749067306519,24.182849884033203,73.95075225830078,4.546575900041713,-3.1602900505495946,87.27059945763507,-24.587563,-8.317692,7.043497,30.391901,-3.7364535,8.932998,11.82226,-1.6645886,3.4174862,61.574932,13.377184,9.379647,7.6642547,-5.049743,13.752501,11.57109,12.531303,-22.576307,78.62314,12.574981,3.3579721,2.5803986,-14.938743,-20.367373,12.695256,39.48531,-21.760906,-5.259606,-13.111872
20,-0.6409559845924377,25.418399810791016,74.15780639648438,4.912974014887429,-3.3785612616401917,87.06178422101075,-23.015734,-8.742471,7.2248797,30.148867,-4.9346986,8.893889,9.595144,-2.188028,3.8954659,65.15207,12.80081,8.6910515,7.4851756,-5.370943,14.190754,10.842677,12.460374,-22.54145,78.22579,12.709191,3.2439668,2.565564,-14.220679,-19.814102,13.040814,40.37599,-21.461603,-5.2408795,-12.686125
21,-0.6498892307281494,26.663848876953125,74.39332580566406,5.278022124341539,-3.574398779916159,86.73996779329401,-21.274704,-9.132207,7.45385,29.540106,-5.953371,8.8748665,7.3305573,-2.847679,4.3168974,68.352394,11.5418415,7.641389,7.3411007,-5.684322,14.591715,10.124385,12.374889,-22.37778,77.72006,12.736497,3.060701,2.7317796,-13.541405,-19.257933,13.523999,41.400307,-21.187637,-5.227755,-12.218097
22,-0.6587427258491516,27.91208839416504,74.65618896484375,5.627442073318101,-3.7331219172138264,86.3160836569445,-19.373056,-9.479789,7.7214165,28.544498,-6.8087287,8.831404,4.9674916,-3.5847661,4.735692,71.273056,9.600175,6.2345595,7.218842,-5.971485,14.949675,9.405113,12.275342,-22.120972,77.095345,12.714822,2.8149686,3.0299146,-12.903256,-18.698627,14.134747,42.564854,-20.915546,-5.211879,-11.689898
23,-0.6560825705528259,29.154815673828125,74.92987823486328,5.913997125948901,-3.878517440155908,85.85807821425706,-17.370422,-9.773478,7.959368,27.315924,-7.5365233,8.772782,2.5762975,-4.343906,5.0645633,73.845245,7.4044957,4.639975,7.073583,-6.1893063,15.273288,8.689607,12.166005,-21.75393,76.37243,12.635715,2.5499463,3.3958645,-12.280007,-18.141966,14.818139,43.818302,-20.6971,-5.1886396,-11.109636
24,-0.6571389436721802,30.405792236328125,75.2175521850586,6.092399355401762,-4.036764050202479,85.4343249895381,-15.323749,-10.000867,8.10136,26.008251,-8.172151,8.705898,0.23265898,-5.110839,5.1840177,76.00018,5.3848476,2.9937294,6.861897,-6.298406,15.573806,7.9818296,12.053706,-21.264536,75.570015,12.486779,2.3079433,3.764279,-11.642651,-17.595758,15.516927,45.10527,-20.581367,-5.1552663,-10.48452
25,-0.6568419933319092,31.658658981323242,75.50817108154297,6.146958616115196,-4.223637065649418,85.0321708984824,-13.213556,-10.136156,8.151403,24.622917,-8.707931,8.618307,-2.0567977,-5.922869,5.0321693,77.71566,3.6215694,1.2607433,6.583033,-6.278134,15.863802,7.292428,11.941796,-20.621069,74.66224,12.2095785,2.09756,4.140631,-10.992733,-17.065239,16.242132,46.43706,-20.601633,-5.126218,-9.787077
26,-0.658726692199707,32.904693603515625,75.79219055175781,6.10351879786793,-4.425868497580073,84.62638786333622,-11.020921,-10.187183,8.144031,23.09605,-9.135397,8.507581,-4.311084,-6.7621994,4.669954,79.02765,1.8787136,-0.58689255,6.256071,-6.1520095,16.136972,6.6206574,11.832609,-19.838024,73.64167,11.830075,1.8967985,4.5487785,-10.339852,-16.55096,17.014387,47.830597,-20.721619,-5.1003838,-9.021225
27,-0.6397576332092285,34.1478157043457,76.07058715820312,5.9817763491481415,-4.626223507819669,84.2671985268742,-8.8116865,-10.180994,8.060207,21.502438,-9.491825,8.39308,-6.4875407,-7.5666537,4.1415095,79.95211,0.119649164,-2.420935,5.8716793,-5.9532886,16.379156,5.9468036,11.733481,-18.974785,72.564156,11.463842,1.697021,4.952077,-9.663033,-16.054443,17.784039,49.23497,-20.887896,-5.052099,-8.240849
28,-0.6234618425369263,35.3868293762207,76.33869171142578,5.801841401478254,-4.806148294348419,84.00391084109326,-6.651679,-10.147257,7.879768,19.917727,-9.817087,8.294432,-8.54685,-8.278348,3.48762,80.50646,-1.6810023,-4.117289,5.42772,-5.713981,16.57704,5.250439,11.654892,-18.103346,71.47327,11.220543,1.4995688,5.312447,-8.933935,-15.578124,18.49401,50.59313,-21.049223,-4.955232,-7.4988046
29,-0.5995995402336121,36.62688446044922,76.5821533203125,5.543036487226907,-4.962410737463748,83.85233176717709,-4.5477557,-10.066925,7.578476,18.346685,-10.121664,8.206182,-10.465161,-8.907916,2.6274836,80.66283,-3.6322086,-5.7050257,4.912443,-5.415123,16.723362,4.535198,11.602217,-17.218927,70.360664,11.125395,1.305008,5.6045003,-8.129477,-15.120689,19.109737,51.882717,-21.263515,-4.7813454,-6.7773976
30,-0.576714038848877,37.86796188354492,76.80553436279297,5.203549328861194,-5.10516170317264,83.78439069569528,-2.4772208,-9.923858,7.1811,16.774208,-10.395873,8.117929,-12.241174,-9.462462,1.553374,80.41781,-5.6857,-7.195835,4.339739,-5.0509133,16.832613,3.8056054,11.577082,-16.303102,69.206,11.115577,1.11594,5.8520823,-7.2626224,-14.68145,19.66028,53.129818,-21.536032,-4.553932,-6.05685
31,-0.5520310997962952,39.087406158447266,76.99333190917969,4.838172557389036,-5.234286605890101,83.78188826029793,-0.45449868,-9.755035,6.736582,15.230141,-10.640559,8.041046,-13.886734,-9.904274,0.4099137,79.82718,-7.6103168,-8.469601,3.7484982,-4.6756687,16.923761,3.0425534,11.582825,-15.399199,68.03347,11.180115,0.93529105,6.0913167,-6.3562236,-14.265409,20.180933,54.345413,-21.735947,-4.321077,-5.387491
32,-0.5046230554580688,40.336360931396484,77.1601333618164,4.499953252633416,-5.349398661935205,83.82764171261383,1.5164763,-9.605334,6.2891507,13.724579,-10.847181,7.9857655,-15.429231,-10.219469,-0.665485,78.94862,-9.165166,-9.438734,3.17901,-4.342062,17.01421,2.2244792,11.623465,-14.560592,66.86868,11.300999,0.765583,6.3579907,-5.428929,-13.880613,20.703165,55.535397,-21.729988,-4.12809,-4.8199425
33,-0.46543362736701965,41.556800842285156,77.2910385131836,4.196757687401064,-5.445543036215591,83.9146878802978,3.4671056,-9.486026,5.8487453,12.17745,-10.973938,7.9476233,-16.897562,-10.444763,-1.6898702,77.78569,-10.256869,-10.105234,2.651379,-4.055601,17.104376,1.3409426,11.698526,-13.803146,65.72058,11.498443,0.60644317,6.6835294,-4.475869,-13.534589,21.253761,56.704704,-21.374731,-3.9900742,-4.4028077
34,-0.41947323083877563,42.78379821777344,77.39602661132812,3.9043534362983174,-5.524677146860682,84.05167309235533,5.3914557,-9.375783,5.392676,10.609024,-11.037514,7.914161,-18.27555,-10.601241,-2.738501,76.31311,-11.009905,-10.534404,2.1446652,-3.790912,17.187277,0.3997111,11.805265,-13.108939,64.5777,11.768664,0.45872667,7.0410767,-3.4856977,-13.22809,21.8069,57.84261,-20.773678,-3.8788779,-4.0972543
35,-0.3802701234817505,44.006343841552734,77.46514892578125,3.6333641740527476,-5.595703112829492,84.24491965673683,7.2234607,-9.275069,4.9135275,9.193019,-11.1207695,7.89052,-19.535612,-10.66183,-3.7584407,74.54582,-11.503743,-10.751929,1.6390322,-3.5539546,17.266642,-0.58558637,11.943757,-12.468319,63.430794,12.073639,0.32390928,7.3780766,-2.465452,-12.957247,22.311655,58.93009,-20.165785,-3.7753007,-3.8222582
36,-0.33372029662132263,45.22824478149414,77.48877716064453,3.36620842081758,-5.668089903617472,84.50745282167743,8.838047,-9.149458,4.404243,8.228462,-11.379426,7.8906302,-20.65803,-10.585303,-4.7066255,72.51209,-11.82799,-10.788799,1.1089543,-3.330237,17.345026,-1.5984135,12.116999,-11.873656,62.264507,12.371905,0.20517562,7.6413703,-1.4222118,-12.715397,22.715961,59.947815,-19.792206,-3.6605027,-3.496295
37,-0.2885977029800415,46.441619873046875,77.47301483154297,3.082335000664515,-5.721025921518947,84.8779823890705,9.927779,-8.96347,3.852241,8.31408,-12.109157,7.9567404,-21.659283,-10.357044,-5.590092,70.19132,-11.977084,-10.6516695,0.52147806,-3.1018682,17.400108,-2.6368067,12.32864,-11.325023,61.061607,12.651431,0.10015148,7.8014493,-0.34191725,-12.496102,22.97987,60.87842,-19.769127,-3.5382414,-3.0694227
38,-0.2387518286705017,47.692935943603516,77.44230651855469,2.827083829123935,-5.755669462748834,85.33094036009287,10.855717,-8.799461,3.234828,8.685595,-12.919036,8.08252,-22.551971,-10.044897,-6.3887453,67.56184,-11.902158,-10.34106,-0.090578,-2.9148314,17.436287,-3.7083387,12.578707,-10.83286,59.83619,12.931956,0.0067844405,7.891466,0.7749114,-12.296537,23.136608,61.736103,-19.952965,-3.4186614,-2.5933402
39,-0.1730853170156479,48.926029205322266,77.37705993652344,2.6175236074590984,-5.805001064898059,85.8081510614683,11.813473,-8.67075,2.6138773,9.032559,-13.6776285,8.204143,-23.316809,-9.679065,-7.0806947,64.65997,-11.63577,-9.886796,-0.68335164,-2.7808006,17.48537,-4.8050237,12.862703,-10.398492,58.61168,13.222282,-0.0702035,7.9514327,1.900647,-12.114259,23.246374,62.547085,-20.194933,-3.2920768,-2.138067
40,-0.10923238843679428,50.17039108276367,77.28865051269531,2.465842665412784,-5.901618455013257,86.25440350092683,12.882644,-8.575237,2.0677085,9.27444,-14.373704,8.256685,-23.933104,-9.280026,-7.6537447,61.51845,-11.209139,-9.315767,-1.2185898,-2.7059207,17.577381,-5.920661,13.173217,-10.020527,57.41498,13.532533,-0.12744176,8.022388,3.0043,-11.947441,23.371746,63.339634,-20.34431,-3.145986,-1.7750742
41,-0.0463242381811142,51.403438568115234,77.15956115722656,2.37546293291049,-6.066534815519297,86.6476529339173,14.103503,-8.522335,1.6298072,9.376086,-15.009147,8.214339,-24.392,-8.837565,-8.082399,58.10859,-10.574504,-8.643976,-1.6741623,-2.6898932,17.740057,-7.0742073,13.506264,-9.701175,56.251663,13.875958,-0.1602662,8.103177,4.0677285,-11.798342,23.543062,64.12987,-20.39653,-2.958055,-1.5401052
42,0.015105309896171093,52.64570617675781,76.99911499023438,2.336272828381674,-6.2788637600580675,87.02198516115212,15.431153,-8.513461,1.252224,9.38083,-15.58743,8.123329,-24.706804,-8.354266,-8.366712,54.424683,-9.739449,-7.8665648,-2.0792086,-2.729294,17.948107,-8.261353,13.860497,-9.43729,55.107857,14.247664,-0.17240438,8.176126,5.1084366,-11.666955,23.724783,64.90031,-20.418446,-2.7402642,-1.3902631
43,0.07593393325805664,53.90704345703125,76.81340789794922,2.3434142434132963,-6.508120994079476,87.40559427585754,16.8139,-8.538278,0.8945088,9.333126,-16.100489,8.025107,-24.886368,-7.8675313,-8.536738,50.517838,-8.81594,-6.9762344,-2.471122,-2.8275564,18.15191,-9.447778,14.23484,-9.226489,53.987675,14.620685,-0.17143102,8.2593565,6.1463,-11.547749,23.876423,65.6348,-20.371853,-2.5307786,-1.2809234
44,0.1442968100309372,55.168006896972656,76.59874725341797,2.391778190114048,-6.724217901122891,87.82776002339573,18.182085,-8.581221,0.51702124,9.317894,-16.56198,7.9578557,-24.936699,-7.4127245,-8.630304,46.428593,-7.9096823,-5.965084,-2.8891547,-2.9859855,18.302452,-10.59417,14.62805,-9.061537,52.89149,14.972083,-0.16511479,8.371192,7.1992455,-11.431202,23.95897,66.31984,-20.21929,-2.3675048,-1.1681453
45,0.2261839061975479,56.47078323364258,76.36811828613281,2.4811965418820243,-6.934864531701886,88.30553390569048,19.560314,-8.648173,0.1100013,9.312322,-16.969168,7.933194,-24.819923,-6.9899306,-8.670575,42.052162,-6.9939156,-4.805495,-3.3517847,-3.20798,18.394289,-11.695812,15.04142,-8.941793,51.80935,15.306045,-0.1449684,8.513424,8.28296,-11.309726,23.969818,66.95377,-19.902777,-2.2689974,-1.0715481
46,0.30174368619918823,57.77041244506836,76.11640167236328,2.613386999271499,-7.152917091062125,88.82366139778487,20.971819,-8.748678,-0.31112567,9.289107,-17.317423,7.9300823,-24.529474,-6.603581,-8.627699,37.365555,-6.0202727,-3.5280297,-3.8387976,-3.4935226,18.449238,-12.770613,15.4753275,-8.871773,50.742798,15.63038,-0.11023161,8.677812,9.3796425,-11.181135,23.92835,67.54988,-19.459528,-2.2119222,-1.005818
47,0.389455646276474,59.08838653564453,75.84822845458984,2.7909189479115786,-7.358119935517507,89.36185378178605,22.381336,-8.87121,-0.75366163,9.254632,-17.57786,7.9354835,-24.112093,-6.292374,-8.46893,32.519394,-5.0507355,-2.2032769,-4.3310323,-3.8436422,18.4606,-13.810684,15.9255295,-8.847381,49.706917,15.930684,-0.079777606,8.867471,10.453959,-11.045492,23.828861,68.121635,-18.996246,-2.1725068,-0.92047095
48,0.4774109125137329,60.427127838134766,75.56269836425781,3.0163456048524804,-7.5315603528063235,89.89999234901005,23.759436,-9.008693,-1.2250667,9.207721,-17.719193,7.937394,-23.614378,-6.087422,-8.170111,27.66801,-4.142137,-0.89004827,-4.807888,-4.2601705,18.4228,-14.813674,16.38647,-8.868314,48.722755,16.18929,-0.07255266,9.08708,11.474741,-10.904914,23.664589,68.673515,-18.619186,-2.1216497,-0.76359385
49,0.5688593983650208,61.77482604980469,75.26363372802734,3.3183781689890615,-7.678872846909473,90.46165951369106,25.139387,-9.1907425,-1.7643013,9.106156,-17.740261,7.918013,-22.965708,-6.0108185,-7.6815095,22.574545,-3.269384,0.5162442,-5.2906404,-4.7734513,18.325909,-15.788818,16.859343,-8.943005,47.7894,16.402464,-0.08867162,9.339997,12.462219,-10.761491,23.42322,69.20126,-18.338404,-2.06291,-0.49212435
50,0.6635809540748596,63.1392707824707,74.94839477539062,3.7233307949320205,-7.8228652121742455,91.07650524460705,26.560957,-9.446188,-2.399499,8.917482,-17.626198,7.895217,-22.094383,-6.101841,-7.0545273,17.119425,-2.3461385,2.0160985,-5.809059,-5.41204,18.180527,-16.734854,17.344362,-9.068487,46.897175,16.580524,-0.11971996,9.62176,13.433848,-10.612481,23.113493,69.693565,-18.102354,-2.0064063,-0.14240678
51,0.7709702849388123,64.50997924804688,74.63191223144531,4.226410938466958,-7.969705994483018,91.73807911196981,28.000692,-9.766012,-3.1240344,8.660898,-17.32384,7.9073,-21.061209,-6.397479,-6.431467,11.662464,-1.358786,3.4133184,-6.3592143,-6.171944,18.011515,-17.638613,17.835411,-9.230679,46.060104,16.72221,-0.17167874,9.926673,14.351604,-10.453045,22.755592,70.154625,-17.928885,-1.9378693,0.21514316
52,0.8831189870834351,65.86979675292969,74.3295669555664,4.771905659841719,-8.104846768682302,92.39824472542163,29.379108,-10.090955,-3.8666635,8.429938,-16.824034,7.977202,-20.004278,-6.8367143,-5.944785,6.680166,-0.33426833,4.5102406,-6.8992743,-6.988431,17.838514,-18.47837,18.318247,-9.40162,45.283913,16.837736,-0.25053856,10.251534,15.165302,-10.277943,22.371126,70.598015,-17.835482,-1.843891,0.51001
53,1.0005227327346802,67.23088073730469,74.05949401855469,5.298179335869095,-8.18566074067802,93.00873541969251,30.608114,-10.356429,-4.5435534,8.320852,-16.219255,8.093947,-21.039091,-7.487843,-5.3041067,6.476288,-1.5252053,5.1969886,-7.3763623,-7.7852516,17.660025,-19.287678,18.792683,-9.582717,44.575905,16.95272,-0.35932386,10.611069,15.844636,-10.081452,21.948029,71.03759,-17.852385,-1.7146478,0.7293043
54,1.1323156356811523,68.61363220214844,73.81720733642578,5.775432444610235,-8.198678155983448,93.53715866750828,31.675205,-10.537053,-5.1052604,8.390535,-15.580335,8.217851,-22.055252,-8.027556,-4.690054,6.474364,-2.614772,5.595438,-7.7631936,-8.521086,17.463684,-20.058903,19.254528,-9.769698,43.91916,17.06326,-0.4951537,11.00888,16.390045,-9.86495,21.477518,71.48661,-17.963415,-1.5609081,0.9080908
55,1.2545875310897827,69.98981475830078,73.61508178710938,6.14594530389052,-8.177712110479899,93.96651936390693,32.59392,-10.5984,-5.517767,8.614664,-14.779666,8.33267,-22.835102,-8.398656,-4.250164,6.495809,-3.457729,5.846909,-8.056632,-9.129871,17.260721,-20.736225,19.689524,-9.951963,43.316113,17.112923,-0.65467054,11.424542,16.826624,-9.640134,20.984623,71.9382,-18.112133,-1.3984942,1.0458796
56,1.3554532527923584,71.37216186523438,73.44707489013672,6.41142236653683,-8.140442315707844,94.27301493459161,33.390606,-10.557157,-5.7624073,8.969752,-13.715369,8.415636,-23.238935,-8.617612,-4.090654,6.509666,-3.9955473,6.083253,-8.251237,-9.595944,17.043728,-21.259186,20.0759,-10.112287,42.76531,17.04974,-0.8356009,11.838845,17.176632,-9.42844,20.48997,72.382484,-18.242987,-1.2433482,1.1425015
57,1.4496238231658936,72.74903869628906,73.3148193359375,6.6296134286183594,-8.127967335142877,94.47569679560074,34.17098,-10.481483,-5.880319,9.398601,-12.3909445,8.470233,-23.100697,-8.792845,-4.397109,6.5213785,-4.380406,6.4624515,-8.361104,-9.973736,16.828133,-21.62134,20.394588,-10.247182,42.29505,16.815979,-1.0685604,12.26164,17.473072,-9.252259,19.972872,72.807335,-18.36942,-1.0885621,1.1886423
58,1.543052315711975,74.15514373779297,73.21898651123047,6.804116740784136,-8.108019139856314,94.57513077760846,34.89727,-10.374309,-5.8680263,9.898852,-10.833994,8.498097,-22.534637,-8.884718,-5.06306,6.5278134,-4.587434,6.881516,-8.379433,-10.259794,16.606274,-21.853964,20.64218,-10.35746,41.90114,16.463078,-1.3464781,12.69963,17.712297,-9.119202,19.420586,73.19692,-18.510265,-0.92930895,1.190553
59,1.638156771659851,75.59139251708984,73.1429672241211,6.749137159985835,-7.943096583818475,94.6411378578753,34.684322,-10.094725,-5.594346,11.888104,-9.688752,8.454856,-21.88574,-8.676326,-5.874514,6.5188227,-4.3040347,7.0729227,-8.392975,-10.25599,16.286665,-21.959133,20.815083,-10.432658,41.540245,16.100101,-1.6088247,13.130013,17.862326,-9.037351,18.866997,73.536835,-18.614786,-0.78440386,1.1700742
60,1.714328646659851,77.05541229248047,73.07430267333984,6.302742414740621,-7.532243569647742,94.68660067454071,33.394905,-9.450077,-5.036105,15.336804,-8.846804,8.28066,-21.477743,-7.9703794,-6.5473933,6.4782963,-3.2002833,6.775645,-8.424819,-9.804764,15.822192,-21.930475,20.947903,-10.47506,41.151764,15.818397,-1.7936684,13.526019,17.879133,-8.989267,18.345514,73.82666,-18.639326,-0.6737207,1.1480236
61,1.8221776485443115,78.4884262084961,73.07523345947266,5.411531674855587,-6.761283074947579,94.56404008040826,31.36234,-8.341546,-4.143553,19.392931,-7.8299484,7.9363585,-21.508202,-6.599929,-6.831055,6.5018787,-0.84837687,5.8020782,-8.364891,-8.81452,15.1387615,-21.733294,21.025776,-10.439906,40.68915,15.652523,-1.8677856,13.902308,17.70547,-8.98244,17.878662,74.101494,-18.544096,-0.5971873,1.1091558
62,1.9234586954116821,79.92359161376953,73.09949493408203,4.225885891714698,-5.750771689639004,94.28693344337434,28.956497,-6.904129,-3.0958061,23.62674,-6.4618115,7.415082,-21.750383,-4.7716966,-6.925816,6.5058646,2.5387876,4.418843,-8.196446,-7.475781,14.307383,-21.380026,21.07915,-10.362846,40.181812,15.527367,-1.8688476,14.257265,17.39111,-9.002896,17.434902,74.341866,-18.371971,-0.5483935,1.0512087
63,2.059473752975464,81.31362915039062,73.16522979736328,2.9790559079025423,-4.754317569819099,93.949539192771,26.608036,-5.38562,-2.1751788,27.688198,-4.651071,6.7001214,-23.16747,-3.009936,-6.948037,9.015652,4.8052754,2.9782019,-7.9822865,-6.0816483,13.50036,-20.918667,21.106289,-10.274829,39.709694,15.441093,-1.8429813,14.562499,17.006641,-9.046548,17.03103,74.50438,-18.16298,-0.5296579,1.001475
64,2.1904296875,82.70702362060547,73.20953369140625,1.8753885854049615,-4.001217714376839,93.65870170490048,24.626558,-4.0303283,-1.5912031,31.386053,-2.391067,5.8035274,-24.514406,-1.5324333,-7.154511,11.900592,6.203087,1.7241488,-7.7880177,-4.8687396,12.894147,-20.400335,21.100164,-10.213367,39.340557,15.386173,-1.8371618,14.789838,16.62896,-9.134219,16.652472,74.524315,-17.968925,-0.54602206,0.9981386
65,2.2957422733306885,84.13111877441406,73.22587585449219,0.9330749114219675,-3.5092707183701557,93.42138849348885,22.96073,-2.8928907,-1.3925322,34.85501,0.36786062,4.7812853,-25.53044,-0.3808144,-7.5526314,14.704401,6.876639,0.5520369,-7.620136,-3.8460045,12.475344,-19.82549,21.044415,-10.196097,39.11549,15.400858,-1.8640786,14.940355,16.27823,-9.257385,16.28955,74.40305,-17.780989,-0.6055,1.0755416
66,2.3894338607788086,85.56381225585938,73.24932861328125,0.06170242237035507,-3.1661623650681334,93.19382529511206,21.418793,-1.9150716,-1.4727604,38.243755,3.5444114,3.577629,-26.402306,0.5659915,-8.030507,17.635494,7.103668,-0.69789684,-7.445501,-2.9078403,12.167601,-19.182434,20.943731,-10.210844,38.997658,15.475975,-1.8980864,15.027734,15.904914,-9.403604,15.939095,74.17838,-17.584568,-0.7026043,1.203984
67,2.4773690700531006,86.99501037597656,73.2966537475586,-0.7357226565536945,-2.986403567473898,93.00626259500707,20.022068,-1.1063961,-1.7486751,41.48377,6.8957896,2.0919464,-26.967281,1.3654914,-8.521621,20.423498,6.858453,-1.8882136,-7.2872744,-2.0687277,12.027733,-18.50851,20.796179,-10.238488,38.976852,15.556539,-1.9264057,15.058864,15.466483,-9.569246,15.654836,73.87725,-17.388744,-0.81609505,1.3103822
68,2.5635011196136475,88.41648864746094,73.36839294433594,-1.4776135612228476,-2.980384974095121,92.8844461965536,18.762287,-0.4242937,-2.1202695,44.565624,10.161311,0.27517295,-27.072403,2.1304743,-8.963538,22.777702,6.145463,-2.8407798,-7.1655807,-1.3249558,12.111955,-17.841482,20.60071,-10.259632,39.045868,15.587426,-1.9362817,15.040885,14.915495,-9.748558,15.492048,73.53281,-17.202105,-0.9250574,1.319298
69,2.6363182067871094,89.80482482910156,73.45735931396484,-2.187914993525412,-3.228259020700896,92.81805890281181,17.693953,0.2366976,-2.496946,47.532833,13.768237,-2.1749172,-26.601141,2.9614534,-9.30409,24.66832,4.73955,-3.4591417,-7.082624,-0.666898,12.529363,-17.15777,20.351917,-10.222895,39.175884,15.570194,-1.9228504,14.96228,14.215065,-9.941782,15.500587,73.15329,-17.014517,-1.034417,1.2219092
70,2.7028255462646484,91.15557098388672,73.5582504272461,-2.865532322077449,-3.6903526785629364,92.79798595452262,16.73108,0.8318839,-2.9768913,50.502422,17.658329,-5.0996842,-25.67408,3.812561,-9.549892,26.256376,2.7037976,-3.8318794,-7.034454,-0.07976821,13.215669,-16.440697,20.053003,-10.147223,39.375843,15.531151,-1.8938816,14.823913,13.39227,-10.150982,15.647613,72.72643,-16.824383,-1.1525098,1.0551803
71,2.771845579147339,92.46876525878906,73.67210388183594,-3.4963470091782165,-4.197062971757179,92.84555305480183,15.675649,1.2799784,-3.6313624,53.526062,20.860949,-7.769027,-24.498451,4.6137366,-9.754461,27.513144,0.5084937,-4.0481668,-7.0202165,0.45066798,13.968833,-15.7414255,19.718946,-10.125477,39.69645,15.450389,-1.8544229,14.652792,12.499941,-10.36634,15.858512,72.252365,-16.655062,-1.2639391,0.811169
72,2.8472580909729004,93.7476577758789,73.78612518310547,-4.075923863056483,-4.580269849485447,92.97515759551152,14.35227,1.5943604,-4.4214206,56.61073,22.416967,-9.384128,-23.28243,5.3128376,-9.995152,28.388462,-1.3629572,-4.209147,-7.0244474,0.9410936,14.589403,-15.1164665,19.369562,-10.260002,40.19248,15.305459,-1.8089706,14.475786,11.589885,-10.570268,16.052748,71.73523,-16.529646,-1.3524173,0.47899997
73,2.9250824451446533,95.01811981201172,73.92017364501953,-4.627647851548722,-4.786718958253958,93.21981524580673,12.699653,1.8818495,-5.3092465,59.796425,21.730017,-9.413335,-22.027576,5.9169245,-10.346123,28.764725,-2.795819,-4.3112216,-7.0619445,1.4059713,15.032968,-14.5993395,19.016699,-10.586398,40.90219,15.063088,-1.7483256,14.319119,10.652827,-10.746108,16.228647,71.17717,-16.46807,-1.398431,0.024337707
74,3.0008914470672607,96.27278137207031,74.07950592041016,-5.156335295357741,-4.9049697297625645,93.56083077004881,10.817293,2.165198,-6.2905693,63.04046,19.442232,-8.343822,-20.641743,6.4778166,-10.7736025,28.67846,-4.0278745,-4.3221207,-7.123947,1.8323545,15.401469,-14.155523,18.66171,-11.060785,41.79188,14.740024,-1.6718509,14.162984,9.665582,-10.8881855,16.415142,70.58564,-16.45605,-1.4145839,-0.54086894
75,3.0857996940612793,97.52657318115234,74.25713348388672,-5.6304530524178285,-4.980092897735467,93.952378085366,8.819934,2.3458378,-7.356458,66.138626,16.501064,-6.8932095,-19.154367,6.999154,-11.205863,28.279379,-5.1106343,-4.2971826,-7.1753745,2.1952205,15.714055,-13.743639,18.309845,-11.669442,42.812107,14.38538,-1.5959135,13.965357,8.658979,-11.003021,16.57088,69.972786,-16.469128,-1.4327316,-1.1590434
76,3.167018413543701,98.78813934326172,74.45557403564453,-6.0241745330864385,-5.05898081944619,94.34945899050234,6.826031,2.394459,-8.423011,68.88406,13.875893,-5.7117324,-17.585657,7.4826503,-11.570409,27.711523,-6.092243,-4.2857304,-7.1815233,2.4800763,15.991941,-13.323023,17.964714,-12.399115,43.911774,14.047616,-1.5368832,13.6835785,7.6686063,-11.101765,16.653463,69.34425,-16.483213,-1.4856877,-1.7701784
77,3.2441463470458984,100.0435791015625,74.66694641113281,-6.347012434709471,-5.153791975741481,94.77989805129717,4.8465137,2.2621312,-9.557589,71.25431,11.727442,-4.939947,-15.894724,7.92515,-11.882658,26.941648,-6.9704413,-4.2915277,-7.1586084,2.6929467,16.243038,-12.901697,17.628143,-13.286886,45.122604,13.667857,-1.5048741,13.334647,6.705275,-11.191058,16.662586,68.69134,-16.502306,-1.5845622,-2.3941417
78,3.3224098682403564,101.2920150756836,74.88805389404297,-6.608246854508813,-5.239965395990349,95.25515419998746,2.832359,1.9627899,-10.758668,73.3468,9.58166,-4.246094,-14.07952,8.322141,-12.170244,25.912127,-7.7227116,-4.2864747,-7.1157513,2.8415875,16.454597,-12.49497,17.299757,-14.326627,46.456528,13.243111,-1.48733,12.931182,5.757504,-11.270676,16.61333,68.00436,-16.536283,-1.709838,-3.0481942
79,3.3881988525390625,102.54086303710938,75.11443328857422,-6.791742848379975,-5.311246340663147,95.70524450219955,0.8010982,1.6532595,-11.787739,75.131004,7.4621315,-3.5038946,-12.214287,8.675006,-12.381064,24.727089,-8.363723,-4.2671785,-7.009568,2.9234583,16.617987,-12.077015,16.979546,-15.440223,47.836517,12.903268,-1.4670277,12.4246025,4.818607,-11.346458,16.489468,67.30147,-16.570114,-1.8549805,-3.6710894
80,3.4525704383850098,103.79106140136719,75.34445190429688,-6.881961660969246,-5.3616058510074875,96.05990775061589,-1.2362719,1.4956495,-12.424084,76.5718,5.382375,-2.5988743,-10.381477,8.980631,-12.465509,23.507544,-8.91625,-4.2319617,-6.8004475,2.93674,16.724577,-11.615787,16.666538,-16.542921,49.180527,12.781656,-1.429204,11.764808,3.885834,-11.428257,16.2804,66.58814,-16.587809,-2.007528,-4.1978254
81,3.504617929458618,105.02332305908203,75.57352447509766,-6.859038093697417,-5.395805288259686,96.3107505668911,-3.2858603,1.5303966,-12.601221,77.64325,3.3072963,-1.4995466,-8.580692,9.220895,-12.411258,22.254337,-9.36968,-4.178164,-6.472654,2.864779,16.774958,-11.106689,16.356747,-17.621237,50.48184,12.935308,-1.38056,10.873749,2.9708538,-11.519753,15.951904,65.84788,-16.56048,-2.1818523,-4.6079197
82,3.551205635070801,106.24749755859375,75.79867553710938,-6.736143874783688,-5.417091681510446,96.49041809182317,-5.342109,1.6744452,-12.44372,78.35974,1.2320015,-0.28584522,-6.7802935,9.390606,-12.2481365,20.928852,-9.723493,-4.1027875,-6.050044,2.7143838,16.773104,-10.567268,16.049158,-18.714499,51.782402,13.288492,-1.3319552,9.798519,2.0729635,-11.623782,15.523223,65.08106,-16.503096,-2.3779545,-4.9350376
83,3.598109245300293,107.48684692382812,76.01982116699219,-6.543191766475369,-5.417725807000542,96.59004538917245,-7.376307,1.9087739,-12.022194,78.74633,-0.7924383,0.9862021,-5.0088215,9.506213,-11.988905,19.574612,-10.015785,-4.007735,-5.557207,2.520123,16.717367,-9.996911,15.750511,-19.815788,53.069233,13.769363,-1.2765179,8.67507,1.1684372,-11.748863,15.071641,64.31968,-16.462463,-2.5645764,-5.194112
84,3.6245107650756836,108.70951080322266,76.22493743896484,-6.314182493918246,-5.388426070907508,96.60126278593485,-9.362089,2.2186127,-11.40193,78.83005,-2.7120025,2.2694876,-3.2927406,9.586219,-11.645062,18.231798,-10.282984,-3.896892,-5.02479,2.3135123,16.606953,-9.385987,15.471884,-20.909689,54.32013,14.307675,-1.2037727,7.6373863,0.22922722,-11.907842,14.68372,63.595245,-16.482464,-2.7097075,-5.3993635
85,3.640160083770752,109.9291000366211,76.4134750366211,-6.038952189706369,-5.310200941643545,96.51990745483758,-11.319623,2.6538625,-10.507532,78.60848,-4.585465,3.6505256,-1.6453571,9.622309,-11.209198,16.887396,-10.527085,-3.7668235,-4.460752,2.0867317,16.416864,-8.711245,15.220197,-21.993196,55.51612,14.972671,-1.1022642,6.6661563,-0.7503559,-12.108683,14.4018,62.920322,-16.54033,-2.8003974,-5.533236
86,3.6550302505493164,111.14862060546875,76.58547973632812,-5.705948889533866,-5.193682865150108,96.35039132569709,-13.21941,3.1948142,-9.325401,78.0636,-6.4379344,5.092444,-0.056094564,9.600342,-10.681678,15.541931,-10.738894,-3.617072,-3.8568528,1.8229469,16.16102,-7.9748774,14.995697,-23.065722,56.661156,15.771355,-0.9858321,5.7032833,-1.7583244,-12.349074,14.188666,62.27338,-16.618547,-2.855316,-5.591622
87,3.656609296798706,112.37985229492188,76.73365783691406,-5.344516843227556,-5.0731859582541565,96.09759421201885,-14.979685,3.7411048,-8.007414,77.20344,-8.1480255,6.3887057,1.4858781,9.536602,-10.086123,14.251759,-10.936598,-3.4594405,-3.21889,1.5454979,15.89605,-7.204846,14.797229,-24.11415,57.763725,16.541172,-0.87291336,4.8250237,-2.7950697,-12.621179,14.008904,61.63367,-16.77135,-2.8911214,-5.6092663
88,3.6466262340545654,113.60321044921875,76.85655975341797,-4.985550972589304,-4.982282457705506,95.76697323689093,-16.54221,4.2121806,-6.701508,76.03783,-9.573308,7.360454,2.9945624,9.452587,-9.446121,13.064342,-11.133037,-3.3072436,-2.5527053,1.2818028,15.675898,-6.4312277,14.623717,-25.128117,58.835587,17.115414,-0.77548504,4.10986,-3.865763,-12.91653,13.82765,60.98774,-17.052473,-2.9252622,-5.623048
89,3.630446195602417,114.7933349609375,76.95909881591797,-4.626816369704118,-4.932777804212729,95.32612456929968,-17.894464,4.653891,-5.355683,74.542984,-10.656673,7.941493,4.465088,9.350446,-8.728075,12.002756,-11.332301,-3.1610608,-1.8332372,1.0354621,15.51629,-5.6623178,14.4741335,-26.12608,59.88456,17.422234,-0.69722074,3.6004603,-4.988638,-13.231359,13.637126,60.348763,-17.545313,-2.958271,-5.62721
90,3.630657196044922,115.98055267333984,77.03895568847656,-4.260942542991355,-4.903685393681608,94.78466475970237,-19.069271,5.1055617,-3.904985,72.722984,-11.462819,8.249027,5.894841,9.22293,-7.934965,11.032739,-11.526485,-3.017551,-1.0657474,0.7978558,15.385994,-4.8861966,14.347073,-27.110731,60.907696,17.556988,-0.62449193,3.2489712,-6.1607785,-13.56475,13.458794,59.726845,-18.199245,-2.9827461,-5.608774
91,3.6228291988372803,117.17160034179688,77.09320068359375,-3.9092367157186416,-4.880270721360616,94.21128200972919,-20.099834,5.489613,-2.485021,70.63212,-12.024896,8.402054,7.2986884,9.081852,-7.1454706,10.124847,-11.712842,-2.8850276,-0.3028533,0.58184004,15.268903,-4.0949974,14.239489,-28.038568,61.89252,17.61299,-0.5421661,2.9981046,-7.351654,-13.910949,13.298339,59.09635,-18.868773,-3.0037115,-5.593779
92,3.6109468936920166,118.3813705444336,77.13288879394531,-3.5974920109812456,-4.84804189510865,93.6748466884371,-21.030893,5.730126,-1.2407733,68.32608,-12.382066,8.52542,8.695322,8.941686,-6.437346,9.240592,-11.885467,-2.772222,0.40208593,0.39659148,15.14735,-3.2783828,14.148854,-28.864466,62.82528,17.68542,-0.4355184,2.7905025,-8.531299,-14.264328,13.159215,58.433563,-19.41024,-3.0246668,-5.6097674
93,3.6073241233825684,119.59490966796875,77.15260314941406,-3.3326825668262328,-4.809647497013586,93.1924986308495,-21.888123,5.802445,-0.240512,65.811554,-12.510557,8.690785,10.117291,8.811647,-5.843975,8.325295,-12.013439,-2.6837337,1.0305349,0.2467471,15.022029,-2.435827,14.076236,-29.62073,63.71028,17.788588,-0.29180112,2.6191995,-9.704789,-14.61999,13.037862,57.737595,-19.787712,-3.0385492,-5.6573815
94,3.6020379066467285,120.819091796875,77.1385726928711,-3.1017123126663226,-4.771271015520582,92.72888355700563,-22.662132,5.76451,0.59009224,63.067852,-12.403981,8.841859,11.547228,8.68848,-5.3197126,7.4131284,-12.109697,-2.6166186,1.6108038,0.12626727,14.8981495,-1.5703454,14.022519,-30.317347,64.55185,17.874876,-0.12114782,2.512328,-10.885553,-14.978663,12.933367,57.022602,-20.079664,-3.0452008,-5.726173
95,3.5922434329986572,122.03716278076172,77.09127044677734,-2.900289937642426,-4.724868871625271,92.27423427733409,-23.346298,5.6674256,1.3188976,60.10661,-12.133862,8.914147,12.678477,8.545853,-4.861319,7.1298304,-12.514581,-2.565497,2.1590002,0.031644225,14.768075,-0.6705351,13.983133,-30.868242,65.328224,17.952812,0.05500868,2.464376,-12.053048,-15.341482,12.854266,56.279327,-20.306063,-3.05859,-5.8256087
96,3.5779292583465576,123.25941467285156,77.02003479003906,-2.7229895031300133,-4.662145946260116,91.81832588425705,-23.925177,5.550315,2.0160742,56.92163,-11.759093,8.832036,13.690425,8.405375,-4.390596,7.0766606,-13.030154,-2.5310006,2.6877651,-0.043863326,14.62437,0.27820787,13.950077,-31.18127,66.018654,18.03362,0.21328327,2.470709,-13.190414,-15.710365,12.813633,55.501305,-20.487234,-3.092217,-5.965989
97,3.5630311965942383,124.48970031738281,76.91597747802734,-2.560190913844064,-4.572376971311618,91.3581684094965,-24.413422,5.4046874,2.6948926,53.47745,-11.221931,8.632329,14.669833,8.27366,-3.8689413,7.043341,-13.554398,-2.5244932,3.1939876,-0.113138005,14.460007,1.301736,13.9169,-31.204195,66.59442,18.177687,0.3504574,2.553236,-14.306696,-16.087872,12.826248,54.68337,-20.606733,-3.1558924,-6.15044
98,3.5529866218566895,125.72561645507812,76.78267669677734,-2.4046405447953902,-4.464319026661006,90.89559273600159,-24.818596,5.212892,3.3204906,49.79005,-10.51701,8.345894,15.622342,8.140174,-3.3233297,7.0400925,-14.085012,-2.5442863,3.6720874,-0.17997567,14.2826185,2.3919635,13.880772,-30.989304,67.07189,18.363056,0.47692093,2.7073715,-15.40961,-16.473408,12.888508,53.830673,-20.657507,-3.2400413,-6.3739476
99,3.5391130447387695,126.9775161743164,76.630859375,-2.2826921329439416,-4.35692015194785,90.43388168464149,-25.099962,5.012328,3.8778892,45.889202,-9.754931,7.8804746,16.57004,8.020774,-2.7856324,7.0694094,-14.601086,-2.5719738,4.128663,-0.21010542,14.101828,3.5110455,13.838784,-30.609905,67.49126,18.473112,0.5959336,2.8878438,-16.472948,-16.862144,12.975314,52.946835,-20.681078,-3.3289046,-6.6346483
100,3.521613836288452,128.24703979492188,76.45722961425781,-2.2038656081183334,-4.271270935939178,89.97100487569087,-25.214487,4.8249836,4.3701277,41.79732,-9.040217,7.142852,17.556318,7.917304,-2.2812436,7.0925426,-15.0588875,-2.5891442,4.576975,-0.18478796,13.92839,4.6160192,13.789071,-30.143433,67.898224,18.38817,0.70998204,3.0505974,-17.472834,-17.248365,13.060807,52.039433,-20.71746,-3.406557,-6.93123
101,3.5018603801727295,129.5279998779297,76.25981140136719,-2.1750437407799277,-4.223600822814665,89.49550178702737,-25.083065,4.6499104,4.8579345,37.344604,-8.362436,5.985477,18.603718,7.840945,-1.8127645,7.1124578,-15.48015,-2.597839,5.0339503,-0.09719433,13.769123,5.720225,13.730621,-29.564724,68.283325,18.016111,0.8188269,3.1967142,-18.404861,-17.630621,13.133122,51.10097,-20.77621,-3.4733622,-7.281513
102,3.4763739109039307,130.81039428710938,76.04000091552734,-2.195740441384399,-4.203902121408326,89.00314108279952,-24.708694,4.4885545,5.323528,32.474766,-7.624475,4.505731,19.699373,7.7999277,-1.3569304,7.1265826,-15.86566,-2.6097376,5.499379,0.050151005,13.617774,6.8390875,13.661082,-28.849747,68.62839,17.440857,0.9199566,3.3465984,-19.280144,-18.009666,13.202431,50.12964,-20.83747,-3.5359821,-7.6800447
103,3.4396252632141113,132.11737060546875,75.8047103881836,-2.269636375461233,-4.195490787436306,88.50028174448082,-24.168787,4.3647614,5.660348,27.387344,-6.800661,2.967,20.814714,7.7941427,-0.90031964,7.134708,-16.1674,-2.6208918,5.9636517,0.2639191,13.464595,7.928824,13.57683,-28.081799,68.97351,16.803717,1.0133494,3.4863334,-20.101734,-18.386147,13.275864,49.145996,-20.898897,-3.5873659,-8.091446
104,3.4088010787963867,133.43182373046875,75.55221557617188,-2.4042123731995986,-4.181960495121155,87.99376193456398,-23.55283,4.3005514,5.7633314,22.321148,-5.88866,1.6214942,21.921885,7.823766,-0.4291121,7.134434,-16.336182,-2.6249106,6.422024,0.5540329,13.2995,8.941757,13.472769,-27.346262,69.363235,16.249922,1.0999423,3.6019704,-20.863663,-18.761225,13.350687,48.16365,-20.962078,-3.6210613,-8.479039
105,3.35799503326416,134.7610626220703,75.285888671875,-2.6231140782131157,-4.165698795814113,87.4624149088629,-22.843798,4.3020177,5.5007477,17.150011,-4.8388534,0.50106,23.028893,7.9086366,0.07646518,7.1246614,-16.390852,-2.6069438,6.894972,0.9524474,13.114935,9.879569,13.34345,-26.6457,69.81482,15.797892,1.1727968,3.6940436,-21.566376,-19.142725,13.416854,47.16441,-21.046713,-3.6154888,-8.821024
106,3.3038578033447266,136.08901977539062,75.00096130371094,-2.9635545053488372,-4.1718368003556225,86.87235072512631,-21.95284,4.433938,4.9788876,11.740666,-3.6361616,-0.5393545,24.164965,8.0944195,0.6552538,7.10262,-16.339743,-2.5822132,7.417345,1.5038058,12.919284,10.765497,13.184864,-25.946697,70.30482,15.377499,1.234787,3.7693844,-22.209879,-19.536612,13.476267,46.147243,-21.143982,-3.5807462,-9.136838
107,3.2372937202453613,137.4182891845703,74.71330261230469,-3.416933501562164,-4.205579945217372,86.23784509837016,-21.091814,4.75397,4.443896,6.7841816,-2.5590029,-1.5162661,25.320965,8.374049,1.31543,7.0685773,-16.12373,-2.575302,7.979483,2.1919594,12.7228985,11.576274,12.99739,-25.282587,70.82423,14.997435,1.302571,3.8243082,-22.790174,-19.939219,13.54405,45.1534,-21.214405,-3.5581632,-9.454984
108,3.1649887561798096,138.73020935058594,74.43421173095703,-3.897560299285445,-4.244950401624997,85.63115578864075,-22.211208,5.301425,3.9762852,6.587095,-3.7797868,-2.4284647,26.46053,8.661659,1.9862347,7.027755,-15.695518,-2.5900102,8.518078,2.9138312,12.533388,12.27331,12.787396,-24.687292,71.3728,14.665467,1.3926891,3.8555481,-23.29655,-20.338345,13.625972,44.21631,-21.221718,-3.589425,-9.808886
109,3.0851759910583496,140.0620880126953,74.17462158203125,-4.3872649718215895,-4.263586440725552,85.0908657436038,-23.173466,5.885095,3.8279064,6.550822,-4.9488225,-3.3226585,27.568789,8.93189,2.617708,6.986164,-15.093859,-2.6309786,8.99096,3.6428726,12.349635,12.831074,12.561093,-24.154884,71.96683,14.397902,1.5173663,3.8403313,-23.754206,-20.72867,13.725357,43.34409,-21.14488,-3.703169,-10.224008
110,3.003227472305298,141.40528869628906,73.93341827392578,-4.853894477940743,-4.266281253255347,84.6145617689782,-23.977669,6.43934,3.8793616,6.574095,-6.0125713,-4.1924243,28.640348,9.152732,3.1921778,6.9430356,-14.325192,-2.6755123,9.397578,4.345631,12.175563,13.269195,12.321757,-23.66836,72.601616,14.185604,1.6662062,3.7874417,-24.160385,-21.109314,13.833427,42.518173,-21.010437,-3.8723755,-10.6807785
111,2.9437365531921387,142.7493896484375,73.71095275878906,-5.235083105646159,-4.239263398342009,84.25192111321782,-24.56148,6.8341436,4.011157,6.5904417,-6.7462196,-4.90442,29.655176,9.279778,3.6568468,6.893698,-13.335127,-2.6757278,9.700163,4.9430866,11.999558,13.601023,12.078463,-23.24069,73.25401,13.9983,1.8206803,3.741997,-24.458605,-21.468895,13.930278,41.725803,-20.858759,-4.055694,-11.1507
112,2.8999505043029785,144.0857391357422,73.52078247070312,-5.441129354883661,-4.164410520348113,84.06088067722868,-24.893517,6.9280114,4.1026106,6.591592,-6.976244,-5.287223,30.542585,9.244481,3.9318798,6.944261,-12.136198,-2.579438,9.855295,5.319919,11.817633,13.834858,11.845796,-22.88103,73.90604,13.807103,1.9579678,3.749672,-24.591494,-21.789055,13.992443,40.952732,-20.727139,-4.2109914,-11.608552
113,2.8745017051696777,145.433349609375,73.3445816040039,-5.443052282391348,-4.027428373570446,84.03294850031462,-24.908049,6.7005973,4.194943,6.5818753,-6.762307,-5.394784,30.825024,9.048797,3.95019,8.096184,-11.326568,-2.3806875,9.871648,5.43917,11.6233,13.977206,11.638546,-22.60189,74.55471,13.598177,2.085713,3.8388922,-24.559542,-22.056532,14.018817,40.209698,-20.612722,-4.3363104,-12.079502
114,2.8543953895568848,146.8074493408203,73.19705963134766,-5.2610769765867476,-3.828499170633168,84.12219745064404,-24.659216,6.201615,4.362175,6.559217,-6.164426,-5.2891994,30.417847,8.709262,3.7428215,10.513921,-10.987974,-2.1028302,9.784739,5.3261576,11.41602,14.033424,11.46379,-22.387247,75.19654,13.386424,2.2085629,3.9781654,-24.396717,-22.268517,14.017764,39.50878,-20.503967,-4.451024,-12.568167
115,2.7923238277435303,148.13037109375,73.13224029541016,-4.8805506301528165,-3.564988742795822,84.31478019355033,-24.303041,5.410218,4.5390835,6.520038,-5.018998,-4.8216057,29.665504,8.18714,3.3686056,13.410775,-10.545828,-1.7321876,9.606381,4.9654207,11.18856,14.021132,11.324987,-22.203999,75.788666,13.187728,2.31531,4.1197696,-24.098373,-22.422106,13.983693,38.842293,-20.424677,-4.5434666,-13.017976
116,2.7129104137420654,149.4295654296875,73.11531066894531,-4.262604036155776,-3.2200675625225075,84.60641250153567,-24.044268,4.310333,4.6682687,6.53875,-3.1914399,-3.8225698,28.507812,7.435184,2.8195758,16.865889,-9.904011,-1.240361,9.340642,4.3067064,10.925894,13.954601,11.235538,-22.016098,76.28682,13.01832,2.395023,4.2142463,-23.65953,-22.5031,13.907502,38.202713,-20.402437,-4.601824,-13.376727
117,2.6449549198150635,150.77622985839844,73.08619689941406,-3.3737880811899723,-2.7070733168312224,85.03888154407579,-23.997013,2.8546803,4.707026,6.577867,-0.04802935,-1.9572566,26.896109,6.4170594,2.0754862,20.851395,-8.967429,-0.6414482,8.952433,3.2969155,10.526857,13.856783,11.199507,-21.807266,76.674,12.880932,2.4473913,4.24707,-23.057959,-22.517048,13.795266,37.5693,-20.444847,-4.607251,-13.6203985
118,2.590580463409424,152.13400268554688,73.05326080322266,-2.3158724998849003,-2.1049917265554527,85.56406551847915,-25.41692,1.2923359,4.7420087,9.566713,2.674058,0.4715639,25.048042,5.216579,1.2909871,25.073483,-7.656478,0.038828865,8.483673,2.0772564,10.044863,13.702115,11.1787405,-21.579035,76.996315,12.788332,2.4757535,4.250921,-22.292927,-22.490234,13.64872,36.932167,-20.534784,-4.573099,-13.763786
119,2.5580785274505615,153.5102996826172,73.00740814208984,-1.3332294075271374,-1.639607263629191,86.05492990267217,-27.45076,-0.07260623,4.9268837,14.202671,4.5328946,2.7884614,23.31455,4.080337,0.6991309,29.191462,-5.8948784,0.80490696,8.038315,0.94267523,9.660402,13.507143,11.184187,-21.387867,77.23292,12.704596,2.4808614,4.2353644,-21.459639,-22.376314,13.49434,36.40574,-20.666481,-4.5292854,-13.845222
120,2.5443508625030518,154.89022827148438,72.95849609375,-0.5121401350990231,-1.472045147243466,86.44492291021558,-28.632725,-1.2155538,5.229052,17.828342,5.712041,4.4738894,21.872803,3.1100323,0.3889025,33.105186,-3.751126,1.7071924,7.6747184,0.026096541,9.550828,13.251315,11.219548,-21.29683,77.37485,12.599304,2.4602602,4.202729,-20.604927,-22.199728,13.352869,36.03018,-20.799606,-4.5047383,-13.901685
121,2.540409803390503,156.25843811035156,72.92664337158203,0.22666016460062335,-1.6545334615403502,86.78609788964607,-28.937048,-2.2350757,5.5133634,20.648762,5.646819,5.4814835,20.724155,2.2505484,0.3144503,36.99414,-1.1268104,2.8921883,7.3622108,-0.7609529,9.790787,12.895789,11.28693,-21.339441,77.45172,12.459899,2.4050772,4.1260686,-19.692566,-21.953537,13.1875105,35.78802,-20.964008,-4.505198,-13.940115
122,2.5224647521972656,157.591552734375,72.95523071289062,0.9510191276366524,-2.0685650618179974,87.1264461216415,-28.72477,-3.202819,5.730867,23.158588,4.7139516,6.1647873,19.70126,1.4859029,0.40862715,40.97602,1.8877331,4.360129,7.0587134,-1.5202451,10.266141,12.44768,11.38772,-21.483616,77.46248,12.30091,2.3186452,4.0103884,-18.702536,-21.63538,12.996349,35.650726,-21.163752,-4.5162277,-13.944775
123,2.4829282760620117,158.91195678710938,73.02430725097656,1.6327467101672892,-2.5846354344810836,87.41953678328171,-28.16969,-4.083676,5.9068513,25.344868,3.3243716,6.637976,18.654423,0.8631738,0.66134906,44.950638,4.904387,5.9308734,6.7809234,-2.235329,10.861727,11.924431,11.510309,-21.671371,77.38766,12.149846,2.2173965,3.916429,-17.702377,-21.255117,12.825855,35.638996,-21.342152,-4.5400567,-13.913718
124,2.4567928314208984,160.2229461669922,73.10541534423828,2.2521842953119102,-3.076943691614845,87.61303232295116,-27.4282,-4.861176,6.104557,27.13382,1.9301016,7.0012703,17.424625,0.36466497,1.0362693,48.842243,7.5440125,7.350469,6.5455365,-2.878562,11.468484,11.3407,11.634736,-21.84592,77.215324,12.032298,2.116976,3.9077713,-16.757772,-20.829418,12.726896,35.772495,-21.44151,-4.577693,-13.845095
125,2.4372518062591553,161.5067901611328,73.199951171875,2.806773343353464,-3.5542117307395293,87.70037740548743,-26.47722,-5.5454206,6.3504367,28.498302,0.50223005,7.2201347,15.9425335,-0.053233903,1.5328418,52.75092,10.0477295,8.64716,6.350949,-3.4324946,12.11641,10.671637,11.74714,-22.04419,76.9528,11.95933,2.014426,4.015155,-15.873248,-20.36454,12.698119,36.053253,-21.432266,-4.63217,-13.744788
126,2.4227609634399414,162.73483276367188,73.29987335205078,3.3174701558936723,-4.065033403139547,87.71667430347635,-25.266201,-6.1552024,6.6033435,29.491093,-1.1493651,7.259747,14.267878,-0.4170217,2.1293068,56.739376,12.498018,9.860452,6.178826,-3.9162898,12.842931,9.911245,11.843678,-22.278042,76.618065,11.920045,1.9034667,4.2035775,-15.012369,-19.863464,12.721173,36.469967,-21.348675,-4.700712,-13.612345
127,2.409952402114868,163.91436767578125,73.40753936767578,3.796874921399451,-4.545299170773036,87.65418953570877,-23.878382,-6.7069697,6.8641605,30.099413,-2.7887735,7.2190228,12.460607,-0.80979633,2.7279503,60.6143,14.320932,10.675015,6.0326624,-4.3559704,13.553337,9.10312,11.920231,-22.458565,76.216286,11.898315,1.7958617,4.4393444,-14.180912,-19.341986,12.826334,37.02489,-21.225647,-4.7754855,-13.434775
128,2.389679431915283,165.07467651367188,73.5414047241211,4.264324408990472,-4.930807423977159,87.5097459051659,-22.403328,-7.2278724,7.1355243,30.307215,-4.1735725,7.2006555,10.573907,-1.3347808,3.2260246,64.18599,14.92831,10.77984,5.906908,-4.777225,14.15345,8.293509,11.9715185,-22.485165,75.74936,11.885263,1.7033358,4.688461,-13.386634,-18.819122,13.049788,37.719204,-21.095005,-4.8484674,-13.199498
129,2.3616440296173096,166.24481201171875,73.7169189453125,4.7543176911967056,-5.171550619840687,87.24964853404563,-20.848682,-7.7434907,7.462777,30.00913,-5.2271743,7.2262473,8.552852,-2.0695279,3.6595275,67.48553,13.7597275,9.939854,5.816155,-5.2077894,14.6014,7.4769554,11.9919195,-22.331945,75.2216,11.888151,1.6328726,4.959159,-12.645785,-18.308754,13.425602,38.57473,-20.932323,-4.9227977,-12.901713
130,2.3335020542144775,167.41844177246094,73.92574310302734,5.249688507475214,-5.309197713449755,86.88702047474494,-19.172464,-8.245646,7.8351946,29.235947,-6.0760674,7.246227,6.379742,-2.9246347,4.117486,70.58566,11.240355,8.409278,5.750791,-5.6175547,14.951143,6.6346936,11.980234,-22.04252,74.63424,11.913659,1.5770894,5.264915,-11.946185,-17.813166,13.934371,39.58116,-20.724466,-4.9992027,-12.548215
131,2.3019189834594727,168.591064453125,74.15937805175781,5.684804345521037,-5.418547534417495,86.48992271290656,-17.389708,-8.704634,8.170559,28.180136,-6.7853146,7.255999,4.165419,-3.7548063,4.565096,73.35822,8.264563,6.620992,5.669211,-5.9509883,15.251186,5.7899547,11.943399,-21.631538,73.985664,11.939859,1.5278732,5.579942,-11.260023,-17.334417,14.533241,40.697865,-20.522943,-5.0659947,-12.142997
132,2.2712483406066895,169.7611846923828,74.41096496582031,6.006876753672337,-5.577085847692257,86.12522052927626,-15.510638,-9.09223,8.393398,27.032637,-7.419434,7.2487035,2.026589,-4.4976745,4.892517,75.67563,5.745968,4.929239,5.532111,-6.1646433,15.553409,4.9646997,11.892628,-21.117645,73.2779,11.941893,1.4704865,5.8777394,-10.557825,-16.87182,15.17712,41.87987,-20.377672,-5.112659,-11.689739
133,2.2501697540283203,170.9407958984375,74.67498779296875,6.204455938985016,-5.821130665117808,85.7840722186356,-13.480891,-9.394185,8.501697,25.778934,-7.9786243,7.2143297,-0.011161517,-5.1767497,5.0417895,77.49634,3.9130383,3.3335721,5.3409967,-6.243684,15.88336,4.16859,11.835892,-20.492672,72.49392,11.887774,1.4107412,6.1542134,-9.8383255,-16.42299,15.879113,43.151268,-20.308409,-5.142268,-11.189187
134,2.2350616455078125,172.1170654296875,74.94337463378906,6.307672244923411,-6.106733992528916,85.43961659143793,-11.313382,-9.618633,8.535169,24.345816,-8.436619,7.153235,-1.999704,-5.80955,5.0562954,78.89011,2.2781904,1.6819724,5.1129737,-6.2181826,16.210506,3.3949237,11.776913,-19.749088,71.63306,11.7994795,1.351707,6.4204183,-9.1147175,-15.988873,16.652632,44.52471,-20.287302,-5.158869,-10.638953
135,2.231703042984009,173.2939453125,75.21371459960938,6.330575300741276,-6.3918269175998,85.1327517304057,-9.107989,-9.77937,8.485268,22.814117,-8.81045,7.0745034,-3.934244,-6.39743,4.926464,79.89526,0.6927332,0.040530447,4.8367023,-6.1181684,16.505398,2.6416903,11.721237,-18.91764,70.707504,11.729343,1.284141,6.6695967,-8.37563,-15.571864,17.449646,45.933037,-20.28741,-5.154289,-10.037176
136,2.23811674118042,174.4590301513672,75.47579956054688,6.282814338882489,-6.634296789883729,84.90464096314624,-6.9716716,-9.891198,8.344332,21.279652,-9.121335,6.989948,-5.807694,-6.936824,4.6501637,80.54893,-0.9871751,-1.5146862,4.5064726,-5.9725165,16.739664,1.9022303,11.675152,-18.032816,69.72959,11.731923,1.199413,6.8945203,-7.604582,-15.1770315,18.21584,47.305286,-20.284086,-5.1207123,-9.380885
137,2.2473249435424805,175.62936401367188,75.73133850097656,6.145171211350773,-6.818648531114077,84.75749300911254,-4.9292707,-9.9286785,8.105778,19.755287,-9.368629,6.89076,-7.6177154,-7.416376,4.1857767,80.83316,-2.875341,-2.985474,4.1248584,-5.76583,16.898436,1.17432,11.639829,-17.079687,68.69479,11.824894,1.094953,7.0796742,-6.785704,-14.805859,18.947336,48.63498,-20.270916,-5.0444455,-8.634815
138,2.2579030990600586,176.77908325195312,75.97080993652344,5.9195473630040185,-6.970634091366458,84.67248028373612,-2.9341016,-9.884841,7.7840767,18.215277,-9.554434,6.7743464,-9.345035,-7.827864,3.53391,80.73202,-4.8699403,-4.375789,3.698228,-5.49069,17.003374,0.4545574,11.614973,-16.054611,67.6004,11.976381,0.9765393,7.231927,-5.9272857,-14.457874,19.665485,49.951897,-20.260456,-4.933995,-7.8106503
139,2.2775862216949463,177.94078063964844,76.19048309326172,5.64737233034685,-7.107749056190231,84.65944246483568,-0.9831505,-9.801406,7.399361,16.692528,-9.702931,6.662119,-10.963127,-8.183406,2.7567394,80.28666,-6.78382,-5.623568,3.2296796,-5.188311,17.081299,-0.26762006,11.604656,-15.015812,66.458626,12.16349,0.8487812,7.3771076,-5.04473,-14.13666,20.348516,51.234375,-20.257814,-4.8152986,-6.9751887
140,2.3111560344696045,179.0880584716797,76.38138580322266,5.374732333957719,-7.246408277851185,84.72778704809751,0.9294296,-9.719926,6.96817,15.2136345,-9.834153,6.5726686,-12.455099,-8.510629,1.9124174,79.543526,-8.427757,-6.686426,2.7269197,-4.899985,17.159277,-1.0007918,11.615137,-14.02539,65.27578,12.364548,0.7176313,7.539891,-4.1478014,-13.848038,20.968315,52.453354,-20.267109,-4.715069,-6.193589
141,2.345276355743408,180.2273712158203,76.54489135742188,5.089107155743411,-7.387959287208776,84.90429571523215,2.8240223,-9.633866,6.4670563,13.734724,-9.937372,6.488017,-13.812342,-8.866534,0.91756094,78.49381,-9.767304,-7.5853925,2.174013,-4.6191907,17.238504,-1.7482566,11.646565,-13.089393,64.05615,12.5609,0.57471603,7.7275014,-3.2206128,-13.595315,21.51409,53.596268,-20.292196,-4.646629,-5.4358387
142,2.3759336471557617,181.3450469970703,76.68266296386719,4.777141406124125,-7.523623641486433,85.17481382462731,4.686803,-9.524267,5.899657,12.267012,-10.010936,6.398479,-15.035495,-9.23399,-0.24466707,77.11963,-10.894717,-8.337965,1.5795879,-4.3310404,17.309023,-2.5095665,11.69611,-12.184749,62.791805,12.768637,0.42374983,7.9251986,-2.2573833,-13.37808,21.995813,54.67205,-20.328396,-4.594816,-4.6809735
143,2.402343511581421,182.48553466796875,76.80665588378906,4.481638472260841,-7.65571187043004,85.4873347054285,6.486616,-9.418349,5.3168116,10.89189,-10.076428,6.338019,-16.136793,-9.541751,-1.4133455,75.45729,-11.805545,-8.9159975,0.9863486,-4.065539,17.380821,-3.291706,11.768172,-11.338129,61.486713,13.006416,0.27684924,8.127128,-1.281046,-13.194637,22.414968,55.677765,-20.368084,-4.543372,-4.0072513
144,2.4336814880371094,183.6394805908203,76.90261840820312,4.243226132320405,-7.787277191776209,85.79017287538022,8.190862,-9.346464,4.767569,9.699585,-10.161396,6.3469987,-17.139616,-9.723482,-2.4195008,73.543,-12.491527,-9.300305,0.439266,-3.8554692,17.46408,-4.0968304,11.871134,-10.5736885,60.142334,13.296119,0.14328395,8.326816,-0.3135384,-13.04276,22.770111,56.60828,-20.405085,-4.4763274,-3.4928772
145,2.469835042953491,184.76922607421875,76.96630096435547,4.076762805264872,-7.908963022645995,86.08265554740365,9.758903,-9.328299,4.234851,8.749423,-10.281134,6.4878006,-18.08642,-9.77792,-3.2194974,71.39264,-12.9281025,-9.5122595,-0.052766044,-3.7157426,17.556377,-4.926021,12.011758,-9.899675,58.726334,13.663785,0.02743449,8.506119,0.6437963,-12.921176,23.06777,57.454475,-20.487967,-4.3917737,-3.1699593
146,2.5190634727478027,185.8979034423828,76.99029541015625,3.934655141266671,-8.024250993749522,86.393489818002,11.154519,-9.317699,3.7033792,8.127816,-10.497265,6.724464,-18.967592,-9.731629,-3.9186223,69.00411,-13.131311,-9.577099,-0.51726615,-3.6063716,17.654758,-5.772252,12.189083,-9.305099,57.243183,14.088578,-0.077193126,8.672531,1.6017069,-12.827622,23.305267,58.2188,-20.603392,-4.2981863,-2.9924085
147,2.556459665298462,187.02671813964844,76.9781265258789,3.794148779551601,-8.14872685332589,86.71296699574867,12.204652,-9.2653885,3.2502415,8.257723,-11.065637,6.9550395,-19.731268,-9.585569,-4.555004,66.351364,-13.133214,-9.489284,-0.96317095,-3.5016985,17.760487,-6.617207,12.398228,-8.785216,55.73535,14.522574,-0.17126298,8.856475,2.5600553,-12.756302,23.465563,58.911346,-20.653818,-4.1941752,-2.9212537
148,2.593555212020874,188.16334533691406,76.94354248046875,3.68012857115374,-8.304280273939249,87.01350869328822,13.249253,-9.209761,2.8891594,8.4979725,-11.678611,7.088006,-20.317486,-9.37353,-5.1201215,63.39291,-12.960621,-9.23077,-1.3800286,-3.4249902,17.882326,-7.4461346,12.634397,-8.336825,54.248627,14.917769,-0.25534302,9.089174,3.516836,-12.699732,23.530325,59.544384,-20.542068,-4.078238,-2.9192576
149,2.628389835357666,189.31434631347656,76.89096069335938,3.5957203084588083,-8.518854572260159,87.27863659602995,14.438215,-9.160137,2.6466904,8.608465,-12.218731,7.0956674,-20.694832,-9.085777,-5.5931263,60.08168,-12.584748,-8.789853,-1.7547442,-3.3744173,18.051218,-8.260276,12.893851,-7.9631267,52.751648,15.278511,-0.30604196,9.371328,4.472412,-12.652694,23.48759,60.11078,-20.203325,-3.9392414,-3.0192394
150,2.6672611236572266,190.45767211914062,76.80754089355469,3.5456422760202932,-8.773733055013944,87.52171371953955,15.724903,-9.130798,2.4880824,8.631656,-12.69159,7.038733,-20.899656,-8.731285,-5.958036,56.438934,-12.000894,-8.187118,-2.0908067,-3.3585248,18.25251,-9.065487,13.176118,-7.666127,51.234623,15.625679,-0.33040562,9.689691,5.4254723,-12.613744,23.34689,60.610863,-19.704006,-3.7831643,-3.2298377
151,2.7127013206481934,191.6118927001953,76.70036315917969,3.533056596860914,-9.023239621092364,87.76570648402564,17.03906,-9.131503,2.3484073,8.601303,-13.106236,6.9559164,-20.97957,-8.347855,-6.234216,52.54285,-11.278351,-7.452234,-2.4107466,-3.3886435,18.429235,-9.8524065,13.4822035,-7.438119,49.773003,15.936021,-0.3752117,10.054438,6.3726344,-12.578716,23.124388,61.064796,-19.143194,-3.6341274,-3.4765885
152,2.7615091800689697,192.78294372558594,76.57366180419922,3.5598996763910926,-9.222227017747203,88.03423594328542,18.308144,-9.164765,2.160746,8.558434,-13.474982,6.882585,-20.980639,-7.9719257,-6.4464245,48.46096,-10.486446,-6.6142454,-2.7383275,-3.47442,18.524973,-10.612125,13.814031,-7.2695236,48.44337,16.18792,-0.48772728,10.476405,7.306013,-12.542483,22.837994,61.497047,-18.620401,-3.5141282,-3.684503
153,2.8174703121185303,193.9633026123047,76.42855072021484,3.6181829591386774,-9.36861840710887,88.33601953899591,19.529943,-9.226462,1.9100932,8.505725,-13.809531,6.8134837,-20.881233,-7.5991673,-6.611704,44.07804,-9.546488,-5.665635,-3.0905893,-3.6092694,18.529045,-11.343039,14.17946,-7.172282,47.263027,16.35117,-0.72730476,10.995801,8.233705,-12.499991,22.469175,61.901497,-18.102392,-3.4345655,-3.8532267
154,2.8834545612335205,195.1508331298828,76.26166534423828,3.7071418117566655,-9.48360769571641,88.66018490262442,20.73685,-9.314776,1.627377,8.428109,-14.10311,6.7342405,-20.661644,-7.222763,-6.703243,39.37626,-8.448307,-4.6076007,-3.4546068,-3.7903054,18.470362,-12.047122,14.5783415,-7.145964,46.188023,16.446848,-1.0547732,11.593676,9.151878,-12.448152,22.017601,62.272476,-17.557066,-3.3821256,-4.0161633
155,2.94458270072937,196.35116577148438,76.07793426513672,3.8404248478497043,-9.55823505464554,89.0013112100463,21.904728,-9.438061,1.3142644,8.340462,-14.335079,6.6661673,-20.367262,-6.8828278,-6.688185,34.55871,-7.357167,-3.4810166,-3.8122354,-4.0311856,18.35178,-12.724483,14.997836,-7.159951,45.207897,16.527739,-1.3696884,12.193259,10.035253,-12.383732,21.531675,62.633923,-17.08485,-3.3383646,-4.148374
156,3.0056400299072266,197.56944274902344,75.88225555419922,4.034868573717909,-9.584594104741276,89.35545374479378,23.015463,-9.607449,0.9697549,8.249756,-14.4810095,6.6314473,-20.039713,-6.624919,-6.5456214,29.822912,-6.4322853,-2.3262181,-4.1480794,-4.34748,18.175247,-13.373375,15.419145,-7.178015,44.313705,16.651583,-1.5702894,12.719456,10.855253,-12.30729,21.06096,63.015484,-16.786636,-3.283118,-4.2266617
157,3.074312448501587,198.79617309570312,75.67028045654297,4.3368403588596145,-9.555393691203212,89.74379553310203,24.085094,-9.880893,0.562363,8.11619,-14.535692,6.638195,-19.644085,-6.5001574,-6.209338,24.992292,-5.72901,-1.0529279,-4.478793,-4.781788,17.915874,-14.003079,15.834039,-7.1887054,43.51042,16.860926,-1.6057101,13.154442,11.622662,-12.220829,20.602678,63.427326,-16.725008,-3.213396,-4.235442
158,3.147768497467041,200.02072143554688,75.44412231445312,4.744111123408753,-9.486014502338636,90.17823175549394,25.138765,-10.254745,0.07599797,7.9211254,-14.492749,6.678445,-19.112946,-6.5265803,-5.7313414,19.917534,-5.102092,0.31413046,-4.8241806,-5.33076,17.581423,-14.613191,16.24438,-7.207492,42.80445,17.12115,-1.5375544,13.538055,12.349922,-12.125515,20.135866,63.850044,-16.83472,-3.1365607,-4.1905775
159,3.230886459350586,201.25405883789062,75.21658325195312,5.20876405085238,-9.403288928226576,90.6387036617755,26.176645,-10.658525,-0.46772578,7.6984816,-14.326275,6.7504926,-18.457535,-6.6916933,-5.269889,14.882134,-4.4388604,1.5796989,-5.1709766,-5.9460015,17.224932,-15.195024,16.65028,-7.2437105,42.195835,17.364391,-1.4323419,13.882304,13.010648,-12.020778,19.684938,64.27623,-17.021973,-3.0530324,-4.1172175
160,3.315957546234131,202.4623565673828,74.99622344970703,5.670815623375169,-9.325557293291345,91.09078122143346,27.184069,-11.012409,-1.0263305,7.4986124,-14.020905,6.846128,-17.757586,-6.937857,-4.96932,10.301092,-3.682498,2.563379,-5.4940743,-6.5635505,16.89751,-15.735194,17.05119,-7.3031726,41.681335,17.52408,-1.3575976,14.200816,13.575945,-11.905751,19.276236,64.700676,-17.193865,-2.9626493,-4.0410557
161,3.4194560050964355,203.65744018554688,74.80012512207031,6.090124030493171,-9.227625242954197,91.52449488124454,28.113869,-11.274767,-1.5745256,7.3644385,-13.636364,6.953773,-17.316128,-7.205874,-4.750234,6.702894,-3.056165,3.1932023,-5.7725925,-7.145699,16.605164,-16.261656,17.45292,-7.3913403,41.267086,17.595226,-1.3248624,14.493891,14.028328,-11.777733,18.905424,65.12244,-17.353077,-2.8622134,-3.9597073
162,3.5386130809783936,204.87265014648438,74.61629486083984,6.492425156204425,-9.092917393149753,91.9262967243217,28.961535,-11.483159,-2.0938416,7.3093247,-13.1988,7.057258,-18.392263,-7.5756083,-4.3852196,6.6330185,-4.0435376,3.5795803,-5.9967446,-7.7098727,16.320265,-16.767384,17.854689,-7.4987073,40.945362,17.608953,-1.3020405,14.757931,14.372339,-11.63852,18.56205,65.55486,-17.541004,-2.7533607,-3.8630302
163,3.6488394737243652,206.1004638671875,74.45870208740234,6.81319905420207,-8.946110718711433,92.234581807449,29.7252,-11.596212,-2.4925828,7.373205,-12.640366,7.1368856,-19.24473,-7.838445,-4.2313485,6.644364,-4.8242817,3.8148768,-6.1330132,-8.178812,16.052082,-17.188135,18.241135,-7.6061068,40.695618,17.554771,-1.2915509,15.00129,14.6150875,-11.498674,18.26385,66.01078,-17.721483,-2.6422536,-3.765563
164,3.7399704456329346,207.32501220703125,74.32630920410156,7.062888163139486,-8.809414846641364,92.40338388965002,30.435417,-11.63876,-2.7232664,7.5337467,-11.860769,7.18385,-19.72774,-8.019943,-4.4342933,6.654438,-5.3567195,3.9947767,-6.163084,-8.545028,15.795852,-17.45985,18.59075,-7.693022,40.500305,17.427534,-1.29502,15.231644,14.774306,-11.376119,18.026615,66.49393,-17.857409,-2.5342667,-3.6818526
165,3.833763360977173,208.55018615722656,74.20867919921875,7.2756904010272585,-8.713460484705207,92.45793440736044,30.845379,-11.6733055,-2.7518723,8.428638,-11.22899,7.2167253,-19.700436,-8.218662,-5.291282,6.6651344,-5.7881784,4.284091,-6.1124735,-8.844218,15.553767,-17.567253,18.882263,-7.7494535,40.380108,17.19222,-1.3275557,15.460631,14.875415,-11.290198,17.858694,67.00675,-17.938026,-2.4319654,-3.612071
166,3.922184944152832,209.7665557861328,74.090576171875,7.37211735124979,-8.620596185388834,92.46280520735657,30.611506,-11.613075,-2.5565212,10.660131,-11.086193,7.2291446,-19.278135,-8.3291235,-6.725773,6.674126,-6.058957,4.5852695,-6.032463,-8.996187,15.311663,-17.54817,19.112284,-7.782637,40.341957,16.868671,-1.3837669,15.683092,14.915824,-11.249971,17.743526,67.52936,-17.980911,-2.331953,-3.5471318
167,4.007025718688965,210.99624633789062,73.98336029052734,7.265273458563142,-8.45442777648101,92.38926498319081,29.958109,-11.331823,-2.1670182,13.4922905,-10.953034,7.1753807,-18.7318,-8.134903,-8.227506,6.6710653,-5.872481,4.6094027,-5.9017577,-8.901206,15.0413475,-17.411718,19.28933,-7.7955856,40.340195,16.53655,-1.4345179,15.880144,14.867504,-11.251865,17.662743,68.037186,-17.991083,-2.2332692,-3.487932
168,4.085110187530518,212.2548828125,73.90222930908203,6.872489541252667,-8.132751059003287,92.23143676547885,28.84152,-10.720866,-1.5933826,16.770502,-10.658614,6.990608,-18.345514,-7.4854636,-9.290353,6.64155,-4.9258265,4.0788713,-5.721466,-8.472114,14.700876,-17.166843,19.424303,-7.792104,40.331367,16.276384,-1.4497136,16.03311,14.702608,-11.2830305,17.599648,68.502914,-17.975058,-2.1287959,-3.4355638
169,4.187750339508057,213.46896362304688,73.89620208740234,6.078961735223297,-7.561987759081327,91.94577032556013,27.193176,-9.648645,-0.7799019,20.495789,-10.200893,6.622866,-18.268915,-6.222879,-9.739389,6.6211696,-2.7929327,2.7086594,-5.453072,-7.5798693,14.225836,-16.814238,19.514414,-7.7743044,40.29711,16.10044,-1.4140317,16.144716,14.372884,-11.326541,17.547205,68.96424,-17.935436,-2.0106392,-3.4023197
170,4.290872573852539,214.69345092773438,73.90675354003906,5.0009915520924055,-6.822586152925082,91.55873325333451,25.240952,-8.241107,0.13811272,24.460625,-9.51604,6.0730143,-18.649405,-4.588513,-9.878449,7.2328863,-0.019415114,0.8042226,-5.1398993,-6.3802695,13.657147,-16.308846,19.616426,-7.722881,40.21317,15.939275,-1.3476242,16.204994,13.918888,-11.406508,17.540619,69.385284,-17.863956,-1.886537,-3.3692434
171,4.41229772567749,215.87860107421875,73.94670104980469,3.87810221700344,-6.092615133433314,91.1585130750013,23.299042,-6.771354,0.9183144,28.349352,-8.437469,5.3505907,-20.084723,-3.0972164,-9.906794,10.070841,1.8189405,-1.0752445,-4.8249264,-5.141821,13.092448,-15.728021,19.6843,-7.6819816,40.192623,15.822086,-1.2656511,16.220638,13.410219,-11.49672,17.55735,69.74923,-17.766338,-1.7691404,-3.3412514
172,4.538360595703125,217.07467651367188,73.96538543701172,2.891597585480153,-5.527064139792356,90.8214823850429,21.547924,-5.463097,1.405699,32.046825,-6.9133773,4.4761796,-21.106089,-1.808305,-10.078654,12.342631,3.3868692,-2.4977937,-4.5557647,-4.0733037,12.638605,-15.109846,19.713692,-7.6774774,40.29338,15.755253,-1.1859716,16.189882,12.909845,-11.595955,17.585186,70.018486,-17.647467,-1.6746948,-3.3082674
173,4.644763469696045,218.28778076171875,73.9571304321289,2.0458271673187216,-5.113612176075718,90.54848785028668,19.900387,-4.3371463,1.5916685,35.69339,-4.9030375,3.4244833,-21.792284,-0.7710451,-10.322846,14.251414,4.481467,-3.44407,-4.3226776,-3.169576,12.264343,-14.457263,19.707561,-7.7369995,40.536915,15.77566,-1.1108798,16.101017,12.424732,-11.690692,17.617231,70.21249,-17.48709,-1.6104894,-3.2652812
174,4.7500786781311035,219.4936981201172,73.95819854736328,1.2431246697017648,-4.778344986280032,90.2904237483537,18.24498,-3.318364,1.5582106,39.380993,-2.5036588,2.1549923,-22.32712,0.14916292,-10.532031,16.083714,5.3053703,-4.1923685,-4.095603,-2.3183267,11.932566,-13.746017,19.672195,-7.8374195,40.879208,15.865669,-1.0322992,15.958,11.91955,-11.789198,17.66323,70.34035,-17.289345,-1.5676901,-3.21522
175,4.851628303527832,220.68948364257812,73.97285461425781,0.46775072943242973,-4.566863965782282,90.04523844437232,16.647997,-2.4211535,1.3390702,43.03136,0.08473921,0.70365983,-22.609234,1.0191654,-10.720998,17.77152,5.726696,-4.796176,-3.880827,-1.4982624,11.732429,-12.992391,19.575106,-7.937446,41.304684,15.959706,-0.9519734,15.792897,11.387849,-11.927749,17.724142,70.36448,-17.097158,-1.5370914,-3.165238
176,4.954872131347656,221.8690185546875,74.01277160644531,-0.2935314552561559,-4.5264573248737845,89.8140572107848,15.168558,-1.6324162,0.9823912,46.584126,2.6691253,-0.85133654,-22.542809,1.9150473,-10.90493,19.23577,5.6306963,-5.281328,-3.6747398,-0.7216784,11.747842,-12.219611,19.413898,-8.012814,41.807068,15.992392,-0.8694762,15.637704,10.786803,-12.071017,17.797073,70.30621,-16.964682,-1.5070978,-3.141232
177,5.047222137451172,223.0499267578125,74.07066345214844,-1.0636325961061501,-4.739131977258323,89.57824170367321,13.844947,-0.9109475,0.4863646,50.131634,5.5971932,-2.6499987,-22.02914,2.905378,-11.050369,20.496721,4.7794523,-5.607422,-3.471913,0.034771662,12.079792,-11.400066,19.165205,-8.004499,42.380623,15.973156,-0.7800635,15.52078,10.093951,-12.231095,17.904371,70.1647,-16.915112,-1.4735628,-3.131807
178,5.120821475982666,224.20394897460938,74.1293716430664,-1.8410571505139302,-5.1521249563186595,89.3503130316658,12.591608,-0.27997625,-0.18527994,53.749332,8.81457,-4.6691203,-21.156563,3.932441,-11.129349,21.625248,3.2819884,-5.764432,-3.2844744,0.7896144,12.650865,-10.529629,18.825686,-7.9389353,43.032246,15.939062,-0.6854563,15.42107,9.3285,-12.413477,18.043653,69.94268,-16.917238,-1.442269,-3.1316023
179,5.185306072235107,225.3164825439453,74.19602966308594,-2.5889406905496526,-5.612334399377468,89.17155498477815,11.305685,0.25281098,-0.9592901,57.308666,11.562469,-6.494993,-20.087725,4.9076056,-11.17529,22.543661,1.5829335,-5.812236,-3.1314015,1.5221307,13.28626,-9.669081,18.425406,-7.9236894,43.775208,15.852892,-0.59451824,15.296464,8.528921,-12.609378,18.17165,69.63706,-16.939306,-1.4180049,-3.1681533
180,5.248675346374512,226.39820861816406,74.26459503173828,-3.285913401056555,-5.968502646694871,89.08265644507507,9.878854,0.77219146,-1.704636,60.68848,13.087797,-7.6398487,-18.986977,5.777526,-11.2554245,23.143732,0.14510125,-5.8251796,-3.0251558,2.2070785,13.816502,-8.874926,18.012535,-8.0718975,44.61736,15.671255,-0.5150457,15.103487,7.732757,-12.800161,18.239779,69.247856,-16.952494,-1.4054545,-3.2705224
181,5.32545280456543,227.4586944580078,74.33824157714844,-3.9497746576611337,-6.167242726382185,89.09850784313358,8.245438,1.4509035,-2.3257768,63.920532,12.957174,-7.752874,-17.876575,6.5769744,-11.422832,23.299664,-0.9081752,-5.804383,-2.9760928,2.8417046,14.200477,-8.149873,17.62018,-8.40519,45.566788,15.337104,-0.44411317,14.851791,6.9300466,-12.966601,18.241186,68.765175,-16.969957,-1.3932209,-3.4542124
182,5.414058208465576,228.50704956054688,74.43587493896484,-4.5923686489908215,-6.290806416518924,89.19836281195794,6.4577413,2.295017,-2.8918226,67.04504,11.668594,-7.0772986,-16.663593,7.3539147,-11.650728,23.04339,-1.7947868,-5.725691,-2.9729574,3.4223309,14.5294285,-7.4555984,17.25276,-8.873406,46.60753,14.875898,-0.37698966,14.554062,6.1019664,-13.101688,18.198217,68.20128,-17.004082,-1.3816872,-3.7027695
183,5.504240989685059,229.56259155273438,74.54350280761719,-5.185661784515855,-6.39185056045331,89.36562357103797,4.5877185,3.1437607,-3.5040717,69.95073,9.865865,-6.0208488,-15.347987,8.08536,-11.898387,22.51206,-2.5681303,-5.631947,-2.9904687,3.9284937,14.8349495,-6.789993,16.914368,-9.481514,47.714123,14.367714,-0.31791103,14.171057,5.2713695,-13.206554,18.106853,67.595375,-17.020706,-1.3985105,-3.9988189
184,5.588193416595459,230.60848999023438,74.66685485839844,-5.703275833742767,-6.524586596093546,89.58459204238234,2.7163577,3.8360505,-4.2257094,72.52599,8.208393,-4.981927,-13.920569,8.742223,-12.122219,21.844051,-3.282355,-5.5595574,-3.0012758,4.344239,15.149361,-6.1564207,16.606142,-10.238142,48.86312,13.892638,-0.27116752,13.66288,4.469542,-13.286324,17.958467,66.97251,-16.986427,-1.4677184,-4.322263
185,5.675150394439697,231.66041564941406,74.80360412597656,-6.154486920147467,-6.716063718340228,89.89715512059409,0.8417079,4.324173,-5.113797,74.781075,6.798587,-3.9705393,-12.317598,9.315188,-12.354173,21.005333,-3.9394581,-5.5177197,-3.029846,4.670909,15.500853,-5.5790863,16.334179,-11.187381,50.07593,13.382428,-0.22926463,12.988823,3.7115245,-13.341178,17.732452,66.315414,-16.868359,-1.6192259,-4.690138
186,5.761714935302734,232.68479919433594,74.94884490966797,-6.544901798471532,-6.932055120681018,90.29765193975206,-1.0711745,4.6543155,-6.11952,76.75947,5.3122296,-2.830603,-10.558155,9.816839,-12.602605,19.940712,-4.512524,-5.4853573,-3.0762677,4.9104834,15.865016,-5.0563555,16.10054,-12.316408,51.362072,12.819723,-0.188175,12.179605,2.9863665,-13.370647,17.430706,65.6126,-16.695063,-1.8331923,-5.104712
187,5.8476457595825195,233.71646118164062,75.11126708984375,-6.852215743852181,-7.137752088580362,90.6990075946066,-2.9842274,4.8464127,-7.1056566,78.40554,3.7826269,-1.6797915,-8.753668,10.247956,-12.791837,18.762106,-5.013213,-5.448068,-3.0796192,5.0581,16.19631,-4.5493994,15.893525,-13.540714,52.676537,12.367447,-0.1617242,11.300971,2.283157,-13.383006,17.084574,64.90063,-16.521673,-2.0603821,-5.5237784
188,5.925135135650635,234.7515411376953,75.28682708740234,-7.0511127698524865,-7.299414308344627,91.01240567108049,-4.856252,4.940605,-7.930304,79.662346,2.2432146,-0.6296954,-7.0177546,10.6053,-12.848984,17.587742,-5.456067,-5.391935,-2.9836767,5.1172614,16.44962,-4.0168705,15.695504,-14.772677,53.973953,12.188679,-0.1702538,10.418832,1.5912174,-13.3923025,16.730663,64.21123,-16.401928,-2.248911,-5.904393
189,5.999783515930176,235.7789306640625,75.4653549194336,-7.123697418107687,-7.405645924644092,91.23815502784976,-6.682373,4.893823,-8.591183,80.497185,0.65957946,0.26768288,-5.366228,10.866264,-12.767307,16.422634,-5.8341727,-5.31599,-2.781818,5.078944,16.608887,-3.4672413,15.498359,-16.033344,55.276245,12.387606,-0.2566466,9.490565,0.9106458,-13.409589,16.382893,63.55109,-16.323921,-2.3947427,-6.243417
190,6.060758113861084,236.81204223632812,75.64228057861328,-7.0882900039417045,-7.477952285138978,91.41427627558578,-8.469868,4.708813,-9.136009,80.94522,-0.9678959,1.071523,-3.7465484,11.03179,-12.589853,15.226228,-6.150424,-5.2245812,-2.5034852,4.956122,16.70025,-2.9236138,15.301603,-17.350744,56.60357,12.858429,-0.40771833,8.501815,0.25438917,-13.437675,16.022884,62.890686,-16.264812,-2.517831,-6.5579867
191,6.109152317047119,237.83204650878906,75.81172180175781,-6.979784188906148,-7.531954983433022,91.50830332078043,-10.197497,4.5132046,-9.500055,81.047905,-2.5562365,1.8420244,-2.1719337,11.131686,-12.318355,14.052864,-6.4383245,-5.1122384,-2.1478465,4.7891216,16.744497,-2.3599396,15.097806,-18.646515,57.90077,13.45235,-0.56046087,7.560386,-0.38695157,-13.478339,15.644107,62.239708,-16.258509,-2.618823,-6.8417196
192,6.143158435821533,238.85162353515625,75.97515869140625,-6.831495151201295,-7.582525307075007,91.48786658414961,-11.847894,4.4316816,-9.623979,80.8486,-4.0283737,2.6353173,-0.65686727,11.195389,-11.953251,12.955879,-6.726422,-4.973564,-1.7195495,4.6168513,16.762098,-1.7420537,14.875118,-19.832281,59.108925,14.030298,-0.64626825,6.7726264,-1.024556,-13.532868,15.24736,61.599586,-16.338133,-2.6902797,-7.0865254
193,6.166957855224609,239.8701171875,76.12873077392578,-6.6312471682688505,-7.637375194890954,91.32437413008033,-13.408392,4.4936376,-9.451359,80.33502,-5.426784,3.4824986,0.78795177,11.210644,-11.473583,11.966907,-7.0256343,-4.785814,-1.2032282,4.438831,16.760857,-1.0610206,14.621697,-20.918697,60.219124,14.622111,-0.6379759,6.1635194,-1.6675005,-13.599433,14.808833,60.97209,-16.539852,-2.712347,-7.2809854
194,6.185430526733398,240.8756561279297,76.26520538330078,-6.369260988717105,-7.686998784853347,91.04134245695657,-14.87678,4.63699,-9.023269,79.4882,-6.7810507,4.3317323,2.166797,11.1619835,-10.890721,11.061963,-7.3231544,-4.5566235,-0.6033241,4.2417607,16.728897,-0.33988687,14.335651,-21.942488,61.272285,15.285547,-0.57452434,5.6781964,-2.3159738,-13.680391,14.341894,60.363167,-16.835115,-2.692452,-7.4332457
195,6.200973033905029,241.88218688964844,76.38845825195312,-6.080079872578413,-7.72001380011712,90.68409211026088,-16.251713,4.85154,-8.422054,78.34046,-7.9951773,5.1230397,3.4919758,11.075376,-10.248475,10.207431,-7.619862,-4.3267007,0.04072705,4.046664,16.658922,0.4189925,14.021537,-22.852139,62.27168,15.920112,-0.48113626,5.300363,-2.9637675,-13.779716,13.90451,59.777832,-17.161512,-2.669489,-7.5640984
196,6.211163520812988,242.88600158691406,76.49486541748047,-5.800658680796682,-7.7252972849344,90.29856551618897,-17.537666,5.130693,-7.7282443,76.92459,-8.968593,5.8045735,4.765391,10.978402,-9.591833,9.392431,-7.9212227,-4.138164,0.6834106,3.872328,16.544386,1.2175517,13.689169,-23.593983,63.213303,16.419098,-0.38226044,5.013973,-3.609508,-13.903834,13.564926,59.223434,-17.451286,-2.6821938,-7.6951075
197,6.211093902587891,243.89602661132812,76.58219909667969,-5.539146149878665,-7.691087907461336,89.8773471302519,-18.752716,5.5300593,-6.8931646,75.24299,-9.65984,6.352685,5.9731417,10.88648,-8.903632,8.615359,-8.222694,-4.021875,1.3175974,3.7255816,16.371922,2.0843906,13.339032,-24.171686,64.074,16.761822,-0.26506633,4.843172,-4.2593737,-14.05494,13.349677,58.709427,-17.691286,-2.7441132,-7.823569
198,6.2262187004089355,244.90289306640625,76.66062927246094,-5.277708302148418,-7.626141717293186,89.40363422293852,-19.875277,6.030641,-5.882827,73.27938,-10.128706,6.790484,7.1136208,10.783004,-8.170611,7.8938313,-8.529209,-3.948565,1.9594393,3.59476,16.152147,3.0174112,12.96775,-24.605017,64.8548,17.001713,-0.12281137,4.785954,-4.9134436,-14.230766,13.2285,58.227406,-17.912905,-2.834032,-7.939938
199,6.219933986663818,245.92330932617188,76.7234878540039,-5.016734543348664,-7.550636395521399,88.90988179594716,-20.86205,6.516422,-4.8030033,71.03963,-10.422009,7.1475043,8.225671,10.65299,-7.4402323,7.2076077,-8.84643,-3.873322,2.598852,3.4702134,15.914712,3.983245,12.581452,-24.85831,65.56833,17.148024,0.016242033,4.7849092,-5.5544205,-14.429128,13.180511,57.751247,-18.117601,-2.9388864,-8.055077
200,6.218999862670898,246.94297790527344,76.7673110961914,-4.750703965947965,-7.48469971134263,88.4276066503157,-21.680868,6.877388,-3.7673256,68.52963,-10.587716,7.46099,9.116778,10.451711,-6.803135,7.023761,-9.437953,-3.7505667,3.2229478,3.3397703,15.690992,4.954197,12.191298,-24.889082,66.22243,17.21214,0.11942745,4.7819705,-6.165925,-14.648053,13.185035,57.2532,-18.308346,-3.0456398,-8.179635
201,6.228153228759766,247.9709930419922,76.80685424804688,-4.467029018221478,-7.431575863107801,87.9530911672966,-22.334713,7.097587,-2.7848964,65.73343,-10.614638,7.8279643,9.960094,10.190048,-6.237471,6.9878345,-10.127475,-3.5496526,3.838647,3.1849103,15.492552,5.9519014,11.80044,-24.639475,66.77627,17.193968,0.17569807,4.7722964,-6.747324,-14.88555,13.246746,56.710068,-18.48044,-3.1516316,-8.305372
202,6.226942539215088,248.9982147216797,76.81839752197266,-4.172165259409042,-7.380005123664222,87.47473675031245,-22.844534,7.232364,-1.8052119,62.659668,-10.490092,8.205369,10.813444,9.893267,-5.707006,6.9506664,-10.82959,-3.30747,4.44576,3.0136585,15.304048,6.9920197,11.40612,-24.146019,67.22471,17.08856,0.20247997,4.781714,-7.3057337,-15.139735,13.375452,56.139263,-18.634401,-3.2637703,-8.4308
203,6.232374668121338,250.03407287597656,76.81292724609375,-3.877985273642378,-7.330760431129166,87.0095888388004,-23.219122,7.277408,-0.8526395,59.356518,-10.256906,8.429785,11.6715765,9.581189,-5.212251,6.927789,-11.533842,-3.084865,5.0272403,2.8437638,15.118932,8.035596,11.013074,-23.512606,67.62813,16.89613,0.2109371,4.7982345,-7.834761,-15.407811,13.553607,55.571426,-18.778692,-3.3835154,-8.57576
204,6.22601318359375,251.08401489257812,76.77429962158203,-3.6201026339061566,-7.2841612255940795,86.57903134617693,-23.45596,7.247107,0.030819504,55.83183,-9.934895,8.3376045,12.527885,9.295385,-4.756828,6.9379287,-12.235804,-2.9403422,5.5647316,2.7126606,14.927939,9.043027,10.632557,-22.844559,68.045364,16.614687,0.2125489,4.8099637,-8.327817,-15.689102,13.760249,55.036633,-18.924604,-3.5124242,-8.76007
205,6.229644298553467,252.13037109375,76.73041534423828,-3.4017207441511785,-7.2355941998677,86.19238040049107,-23.548462,7.134708,0.8336172,51.98763,-9.454565,7.8728213,13.37819,9.039222,-4.344155,6.9741435,-12.933544,-2.9101818,6.0601234,2.6191275,14.731778,10.013526,10.272042,-22.115025,68.47867,16.19044,0.19588022,4.8107305,-8.783566,-15.985548,13.992504,54.533283,-19.071972,-3.6700191,-9.0056925
206,6.239149570465088,253.1928253173828,76.6647720336914,-3.2073954266888043,-7.186632397238495,85.83708980469218,-23.49711,6.944802,1.5656135,47.818573,-8.807321,7.140449,14.237839,8.798131,-3.9692085,7.010158,-13.618216,-2.9560559,6.5247555,2.5473402,14.535008,10.970535,9.931582,-21.28974,68.889595,15.639076,0.15966342,4.8057837,-9.199815,-16.296247,14.254451,54.040607,-19.217056,-3.8493195,-9.295571
207,6.232975959777832,254.2659454345703,76.57466125488281,-3.0542185993276374,-7.14707576584926,85.50235750070586,-23.309147,6.7169275,2.2130833,43.456635,-8.086816,6.218299,15.120342,8.5924015,-3.6231675,7.0444164,-14.276569,-3.021344,6.9551682,2.5193882,14.33172,11.907681,9.614316,-20.457829,69.27817,15.067673,0.13136713,4.801537,-9.570053,-16.615948,14.5332365,53.56167,-19.365673,-4.0122824,-9.590532
208,6.228568077087402,255.35275268554688,76.45853424072266,-2.9601739382373187,-7.126966215635669,85.17613382586761,-22.992323,6.494894,2.7653391,39.030804,-7.3858843,5.181804,16.036953,8.442847,-3.2970366,7.0738564,-14.8941145,-3.0479674,7.353068,2.5607035,14.115443,12.815521,9.327233,-19.71413,69.646324,14.579998,0.1384662,4.8051996,-9.883452,-16.93748,14.8081255,53.095676,-19.525648,-4.120982,-9.850422
209,6.231202125549316,256.4512634277344,76.322509765625,-2.936196945003358,-7.146933962957392,84.8533929792824,-22.476185,6.2796106,3.2209141,34.384037,-6.663428,3.931321,17.017563,8.362734,-2.9895346,7.0984435,-15.492148,-3.013395,7.72735,2.6811926,13.882829,13.7122555,9.084961,-19.067955,69.98277,14.205581,0.19745648,4.8141775,-10.125545,-17.25707,15.077403,52.63484,-19.723099,-4.145398,-10.05895
210,6.226602554321289,257.55584716796875,76.16582489013672,-2.9775673699810166,-7.198957646730333,84.53320014388618,-21.750887,6.07745,3.5817027,29.429012,-5.8530498,2.4804614,18.050184,8.343411,-2.6956167,7.1162677,-16.067478,-2.948356,8.086418,2.8705664,13.639029,14.601364,8.892994,-18.473299,70.2799,13.887038,0.29052114,4.82481,-10.302623,-17.574154,15.343044,52.177074,-19.947117,-4.112688,-10.238247
211,6.221724033355713,258.68341064453125,75.9928970336914,-3.0809214828905347,-7.249826044773959,84.20872414264129,-20.912012,5.9343114,3.8572724,24.407896,-5.01722,1.0626866,19.080067,8.373483,-2.3992074,7.1296477,-16.5728,-2.876193,8.431796,3.125447,13.386964,15.445904,8.740378,-17.946018,70.556015,13.594897,0.39407787,4.8450294,-10.441237,-17.890205,15.59347,51.738575,-20.15046,-4.070785,-10.407063
212,6.215478897094727,259.8074035644531,75.80081939697266,-3.241358087146005,-7.266232920454272,83.87439418187407,-20.082308,5.885852,4.0633583,19.633104,-4.241363,-0.10330096,20.056593,8.445347,-2.0850298,7.135274,-16.959902,-2.8230207,8.764409,3.4460514,13.127562,16.201847,8.606463,-17.504925,70.841255,13.300947,0.48461255,4.8849516,-10.567331,-18.210999,15.8157015,51.33751,-20.287607,-4.0678296,-10.584341
213,6.193212985992432,260.91827392578125,75.59910583496094,-3.4877156535939653,-7.238935008612072,83.51299636424491,-19.276783,5.9689493,4.152249,15.053558,-3.5938683,-0.9750775,20.96569,8.591293,-1.7436109,7.1363473,-17.246264,-2.8134418,9.095402,3.87374,12.848516,16.855158,8.477023,-17.177654,71.15859,13.002949,0.5579776,4.959517,-10.692108,-18.547493,16.011164,50.97404,-20.342697,-4.1244974,-10.776094
214,6.152838706970215,262.0213623046875,75.39105224609375,-3.839198883876298,-7.19479274648887,83.11377105515491,-18.416193,6.187134,4.1548753,10.520859,-3.0005953,-1.6880099,21.845232,8.837285,-1.3574023,7.1278567,-17.441643,-2.8337958,9.43858,4.4329143,12.54952,17.425129,8.350332,-16.94764,71.49975,12.7168455,0.6260987,5.063257,-10.799928,-18.906279,16.187014,50.640152,-20.339907,-4.2127757,-10.969483
215,6.107654571533203,263.09808349609375,75.18083190917969,-4.254400911921523,-7.143545349743676,82.7053615404867,-17.726343,6.497373,4.1720643,6.7040935,-2.5929487,-2.2809985,22.703777,9.138343,-0.93042976,7.111965,-17.49845,-2.8458192,9.775001,5.0686073,12.248837,17.90924,8.224718,-16.770329,71.85314,12.438833,0.68936104,5.175413,-10.87385,-19.279934,16.336489,50.33879,-20.29567,-4.3079805,-11.157167
216,6.056331634521484,264.1648254394531,74.98538970947266,-4.66412575354871,-7.078238682031909,82.35083445539675,-18.547747,6.8889227,4.143668,6.598231,-3.741326,-2.7643514,23.539673,9.413929,-0.5100228,7.089546,-17.377949,-2.7981884,10.051394,5.686252,11.962867,18.296272,8.100668,-16.59467,72.21419,12.167122,0.74778265,5.2752748,-10.903882,-19.650215,16.453163,50.080658,-20.227882,-4.3849187,-11.336596
217,5.999833106994629,265.23736572265625,74.79435729980469,-5.053041976945078,-6.994200130481812,82.05308593496147,-19.154114,7.25215,4.370308,6.6128902,-4.633486,-3.2279327,24.311705,9.650332,-0.099718764,7.144883,-17.16804,-2.666515,10.253606,6.266636,11.695084,18.587814,7.9754934,-16.395445,72.59162,11.893506,0.7958088,5.375104,-10.91587,-20.00465,16.550062,49.894253,-20.12957,-4.4430866,-11.521524
218,5.949272155761719,266.28826904296875,74.60816192626953,-5.385221765192754,-6.889287725263063,81.80816446502276,-19.546247,7.5523906,4.7850394,6.625272,-5.2634425,-3.619049,25.002926,9.819284,0.27157894,7.287162,-16.875195,-2.4682288,10.378595,6.7777653,11.449125,18.784275,7.849317,-16.19318,72.99042,11.623404,0.8353455,5.481561,-10.921526,-20.341171,16.632025,49.7836,-19.998945,-4.49355,-11.713959
219,5.923435688018799,267.351318359375,74.43790435791016,-5.580651213745953,-6.74813631251593,81.69219320847594,-19.767265,7.6347737,5.177886,6.628295,-5.390128,-3.7102807,25.231829,9.839599,0.42577818,8.277406,-16.81613,-2.2084584,10.369956,7.12329,11.237262,18.864603,7.732485,-16.005917,73.40154,11.374505,0.8783206,5.563635,-10.881243,-20.649282,16.671228,49.713264,-19.862265,-4.5283957,-11.895189
220,5.879476070404053,268.3775329589844,74.33025360107422,-5.547991352981922,-6.556911069559734,81.76695748112422,-19.860361,7.339404,5.3560066,6.6128836,-4.7702928,-3.2760005,24.606066,9.614603,0.20039913,10.91439,-17.324127,-1.8965881,10.186573,7.19276,11.072692,18.810894,7.6429396,-15.85168,73.81458,11.162988,0.93401116,5.589889,-10.75798,-20.91557,16.638624,49.65218,-19.746851,-4.5396075,-12.047278
221,5.830059051513672,269.3608703613281,74.30043029785156,-5.156859193021331,-6.258310853879866,82.05105869795777,-19.83822,6.4718595,5.2928057,6.5689735,-3.0259528,-2.0789976,23.607399,8.984832,-0.33844274,14.103452,-17.907866,-1.5054929,9.812711,6.835848,10.943298,18.61268,7.594666,-15.695091,74.20678,11.002678,1.0154089,5.528742,-10.55205,-21.130249,16.513958,49.578953,-19.671072,-4.514663,-12.167506
222,5.79822301864624,270.3669128417969,74.2966079711914,-4.473108835407859,-5.881110457180592,82.46167688614027,-19.733732,5.1512213,5.1645246,6.5751047,-0.36196074,-0.39762124,22.315176,8.000133,-1.0500468,17.753948,-18.528606,-1.0447373,9.32336,6.1347723,10.835702,18.298954,7.592051,-15.536313,74.57367,10.88208,1.1123487,5.402028,-10.281986,-21.289316,16.314857,49.52144,-19.618073,-4.4611278,-12.264543
223,5.7780680656433105,271.41448974609375,74.24613189697266,-3.7587966265718857,-5.548657776663355,82.90587683025778,-21.234943,3.9058177,4.9262733,10.213542,0.7267712,1.2516404,20.955515,6.9385858,-1.7660003,21.622541,-18.84651,-0.5993869,8.816736,5.3860474,10.760341,17.918398,7.637489,-15.456589,74.912415,10.773133,1.213076,5.255941,-9.933932,-21.390089,16.068758,49.518555,-19.563082,-4.400879,-12.335258
224,5.752647876739502,272.4677734375,74.18620300292969,-3.147013354110036,-5.363300074680701,83.34940254575106,-22.345715,2.8138528,4.812379,13.28974,1.7669392,2.5162263,19.676592,5.959857,-2.437696,25.529171,-18.540462,-0.23472619,8.333436,4.7440176,10.749136,17.498592,7.7344136,-15.536193,75.23382,10.649555,1.3049939,5.1356773,-9.489686,-21.42928,15.795621,49.602062,-19.48252,-4.3562655,-12.379004
225,5.736529350280762,273.522216796875,74.13595581054688,-2.6191657484494657,-5.328499521569372,83.84411389190896,-23.003597,1.9017843,4.768203,15.692174,2.7926362,3.403235,18.441322,5.050267,-3.16517,29.608236,-17.559267,-0.029691191,7.830977,4.1690755,10.787946,17.026905,7.8929276,-15.828735,75.57931,10.48613,1.3961804,5.0316424,-8.931203,-21.397205,15.497695,49.790627,-19.372963,-4.3388367,-12.40005
226,5.729764938354492,274.5810852050781,74.1080551147461,-2.0953385251771177,-5.393527383105188,84.40880367238586,-23.420658,1.0461941,4.740001,17.875443,3.8408136,4.1410766,17.19452,4.1144094,-3.961404,33.88265,-16.048998,0.072633475,7.2899423,3.566311,10.866645,16.48617,8.114247,-16.287476,75.9337,10.299609,1.4889985,4.9235196,-8.270733,-21.29052,15.160234,50.062817,-19.248219,-4.335428,-12.397938
227,5.717148303985596,275.6401062011719,74.10565948486328,-1.5631626395192328,-5.54499802049892,84.99070040029615,-23.588137,0.19454001,4.729756,19.817438,4.6463923,4.8159876,15.948397,3.1354606,-4.7080846,38.181053,-14.097398,0.23691566,6.7548027,2.9424894,11.013283,15.882686,8.383823,-16.834242,76.232765,10.133179,1.5628132,4.840125,-7.539933,-21.115816,14.779389,50.38825,-19.10748,-4.331061,-12.368262
228,5.70558500289917,276.69677734375,74.1310806274414,-1.015465166818936,-5.769780094185427,85.53732623632018,-23.503332,-0.7122755,4.735179,21.496552,4.9523935,5.492142,14.701759,2.115814,-5.2793074,42.36315,-11.804459,0.6336571,6.2651763,2.3158658,11.25926,15.222846,8.678932,-17.385883,76.417,10.033479,1.5966831,4.8137074,-6.7708373,-20.88724,14.355061,50.73471,-18.949621,-4.3101625,-12.30651
229,5.6836323738098145,277.742919921875,74.17497253417969,-0.4409061536347592,-6.115507811143586,86.08622535646255,-23.123219,-1.7372729,4.6908803,22.97175,4.5189395,6.219798,13.475976,1.044792,-5.6841,46.49765,-8.933703,1.3653477,5.7908244,1.6916999,11.66268,14.478113,8.989322,-18.008371,76.515144,10.01571,1.5754424,4.8579607,-5.9367585,-20.604479,13.850403,51.09822,-18.76562,-4.256352,-12.232372
230,5.674065113067627,278.7525634765625,74.21514892578125,0.1494013947114427,-6.568920994517926,86.65341970894593,-22.48859,-2.8346493,4.57613,24.295382,3.503986,6.9611387,12.245453,-0.026853494,-5.9489145,50.652096,-5.5315404,2.3614008,5.3202825,1.0616547,12.186424,13.646944,9.313086,-18.726576,76.55785,10.052536,1.5136881,4.956353,-5.0353446,-20.266865,13.278249,51.49303,-18.55856,-4.1815805,-12.141206
231,5.660828113555908,279.76324462890625,74.2669906616211,0.7344711659284626,-7.025525070592104,87.15300950624636,-21.712801,-3.9042666,4.4647007,25.40349,2.2593076,7.6336727,10.923633,-1.0054275,-5.983874,54.714653,-2.140758,3.5223901,4.9126825,0.43651682,12.725747,12.779943,9.636425,-19.379772,76.48643,10.135314,1.4348822,5.098846,-4.136074,-19.894419,12.722796,51.914074,-18.34241,-4.1120048,-11.992821
232,5.620171546936035,280.77630615234375,74.3298110961914,1.2972464265939285,-7.3807344334712335,87.50143405744895,-20.912716,-4.848978,4.454358,26.229982,1.1420773,8.1576395,9.408013,-1.8422707,-5.730083,58.612343,0.6790476,4.7100616,4.6124153,-0.16841918,13.180403,11.925919,9.939594,-19.793121,76.24613,10.255792,1.362028,5.2788987,-3.3126962,-19.51936,12.283714,52.36031,-18.125652,-4.072823,-11.746975
233,5.588923931121826,281.7432861328125,74.39139556884766,1.8573837469350685,-7.584907750910437,87.67183478558665,-20.11672,-5.6594887,4.596338,26.7143,0.19403325,8.493897,7.589784,-2.5718894,-5.138586,62.47194,3.0045278,6.105632,4.433978,-0.7514356,13.509272,11.076098,10.209215,-19.927881,75.834854,10.458631,1.3036405,5.5155764,-2.565731,-19.166182,11.980969,52.82678,-17.868343,-4.078343,-11.356607
234,5.5672502517700195,282.67767333984375,74.45513153076172,2.4102174173302124,-7.698646945119655,87.71390962736945,-19.256548,-6.371816,4.8253255,26.907398,-0.76201415,8.68557,5.537591,-3.1830227,-4.2611723,66.31814,5.044914,7.7025857,4.337254,-1.2963917,13.774522,10.207273,10.442515,-19.85825,75.28893,10.740466,1.2470078,5.809848,-1.8594306,-18.839302,11.777673,53.309986,-17.57059,-4.1103463,-10.852579
235,5.546285152435303,283.602783203125,74.52410125732422,2.9336789967155696,-7.781666963932816,87.65245325464888,-18.308495,-6.9812083,5.101571,26.891932,-1.681969,8.783814,3.4055393,-3.6633525,-3.239597,69.94491,6.4380984,9.013879,4.289459,-1.787659,14.034198,9.342372,10.639789,-19.58466,74.61114,11.010449,1.1848831,6.128843,-1.2111543,-18.539293,11.689697,53.813404,-17.30198,-4.1457067,-10.312319
236,5.533540725708008,284.5238342285156,74.61407470703125,3.415234153785156,-7.894836681079379,87.50980959607634,-17.249313,-7.4951954,5.393455,26.739973,-2.5160267,8.847863,1.3532716,-4.060293,-2.2377567,73.12335,6.838994,9.51773,4.2551026,-2.2211714,14.345355,8.511568,10.802502,-19.097118,73.79782,11.183025,1.1099472,6.439075,-0.6465804,-18.26481,11.74033,54.348595,-17.132267,-4.1627164,-9.814811
237,5.525393962860107,285.4320373535156,74.73314666748047,3.8757260040068524,-8.054873215985326,87.24040398909148,-16.025433,-7.921419,5.7493014,26.383053,-3.2371106,8.876034,-0.61977476,-4.350458,-1.1706145,75.83422,5.819233,8.8465805,4.2585015,-2.6119132,14.72959,7.734202,10.931808,-18.33063,72.82391,11.216788,1.0137761,6.738396,-0.1873725,-18.019354,11.962763,54.93072,-17.071022,-4.165361,-9.361992
238,5.51643705368042,286.33673095703125,74.8737564086914,4.318937250039466,-8.227421254430192,86.84751948661584,-14.664424,-8.270312,6.1805015,25.79597,-3.867177,8.850346,-2.5940945,-4.5138974,0.01590983,78.18574,3.6838949,7.357105,4.303605,-2.959049,15.154495,7.0009356,11.031262,-17.299839,71.69447,11.166747,0.90333945,7.041879,0.18008244,-17.805521,12.341559,55.556854,-17.08249,-4.162918,-8.918926
239,5.522927284240723,287.2214660644531,75.02635192871094,4.70460385314503,-8.398030210716616,86.42701175655255,-13.269747,-8.554293,6.6019697,25.123962,-4.4342403,8.809788,-4.535015,-4.644279,1.1088398,80.13243,1.189876,5.601204,4.329944,-3.2407115,15.596183,6.288451,11.106872,-16.122015,70.46858,11.088621,0.78145945,7.342955,0.4883593,-17.617458,12.819165,56.205135,-17.171915,-4.1441193,-8.5088
240,5.520107746124268,288.10247802734375,75.18899536132812,4.993672330119908,-8.554657107643184,86.07625169162682,-11.940608,-8.783441,6.9278502,24.50949,-4.9644294,8.789625,-6.404718,-4.921469,1.8521801,81.62123,-0.90601385,4.076533,4.2821207,-3.441762,16.031092,5.5660005,11.164664,-14.920634,69.20491,11.037881,0.6521838,7.6347876,0.77695197,-17.443575,13.329213,56.849125,-17.348783,-4.09769,-8.154729
241,5.524104118347168,288.9680480957031,75.35691833496094,5.1765987000987455,-8.708527743319898,85.79284448112745,-10.672832,-8.938047,7.1677613,23.969301,-5.445574,8.795381,-8.197544,-5.4722223,2.1291106,82.622375,-2.4209712,2.884981,4.1671677,-3.5575852,16.478472,4.8284082,11.203717,-13.660702,67.86928,10.99222,0.5099101,7.8997965,1.0437182,-17.279865,13.883247,57.492977,-17.676088,-4.0173035,-7.8746085
242,5.539194583892822,289.8241882324219,75.5311050415039,5.274956769930262,-8.86361940593729,85.53532327396937,-9.42342,-9.018042,7.3611693,23.441347,-5.8743806,8.810313,-9.927489,-6.1930904,2.0774856,83.16558,-3.766317,1.7738909,4.0106134,-3.6004863,16.941523,4.090074,11.225674,-12.300217,66.44761,10.935958,0.35502246,8.146152,1.2732513,-17.127098,14.500747,58.149292,-18.13165,-3.9109273,-7.6523685
