unveil-humanoid-operators/unveil-humanoid-operators.github.io/feature-analysis-animation/data/feature_matrix_instances/weight_root_translate_peak_vel_walking_A449_walk_arc_cw_stop_R_fast_002__A449.csv
Frame,root_translateX,root_translateY,root_translateZ,root_rotateX,root_rotateY,root_rotateZ,left_hip_pitch_joint_dof,left_hip_roll_joint_dof,left_hip_yaw_joint_dof,left_knee_joint_dof,left_ankle_pitch_joint_dof,left_ankle_roll_joint_dof,right_hip_pitch_joint_dof,right_hip_roll_joint_dof,right_hip_yaw_joint_dof,right_knee_joint_dof,right_ankle_pitch_joint_dof,right_ankle_roll_joint_dof,waist_yaw_joint_dof,waist_roll_joint_dof,waist_pitch_joint_dof,left_shoulder_pitch_joint_dof,left_shoulder_roll_joint_dof,left_shoulder_yaw_joint_dof,left_elbow_joint_dof,left_wrist_roll_joint_dof,left_wrist_pitch_joint_dof,left_wrist_yaw_joint_dof,right_shoulder_pitch_joint_dof,right_shoulder_roll_joint_dof,right_shoulder_yaw_joint_dof,right_elbow_joint_dof,right_wrist_roll_joint_dof,right_wrist_pitch_joint_dof,right_wrist_yaw_joint_dof
0,-0.7288863062858582,1.9804726839065552,76.88700103759766,2.35704273107073,-0.50312569160043,-68.95215803373016,-25.170057,12.778879,4.0984936,56.09952,-9.71746,1.0112582,4.9123282,9.099473,-15.414082,7.285585,-15.485209,-9.405441,1.72888,1.9227781,11.888627,0.24615946,16.382174,-27.9941,52.898193,2.3622725,4.617676,15.960596,-5.1671047,-13.148184,22.649603,54.072277,13.603062,5.9640336,-12.278285
1,-0.28854748606681824,0.9835165739059448,76.85604095458984,2.4406308287440597,-0.4464828575024449,-70.02418886583138,-25.520525,12.936123,4.984419,52.483673,-9.574632,0.62103987,5.864714,9.06445,-14.242391,7.236814,-15.984366,-9.303274,2.247184,1.8276838,11.981519,0.7303109,16.308596,-28.07404,53.021324,2.1357365,4.650287,15.934887,-6.1297526,-13.175783,22.85303,53.43524,13.27089,5.9293294,-12.287465
2,0.15884917974472046,-0.023638058453798294,76.80690002441406,2.5337373521290694,-0.39096492256433296,-71.09240262764462,-25.85128,13.054871,5.9062757,48.83172,-9.432314,0.22773512,6.8268867,9.020473,-13.065766,7.178758,-16.484966,-9.209432,2.7581065,1.7455572,12.065744,1.1574961,16.154022,-28.152536,53.241177,1.9190557,4.6761317,15.9287195,-7.0921535,-13.2219305,23.074734,52.800667,12.957522,5.8958898,-12.299627
3,0.6001259684562683,-1.025504469871521,76.73343658447266,2.5963133237228844,-0.3365328547097789,-72.16347673109458,-26.101595,13.125474,6.8047824,45.06348,-9.186896,-0.26483992,7.8005214,8.991741,-11.8949995,7.1194715,-16.983894,-9.133485,3.271984,1.715184,12.131086,1.5591776,15.949185,-28.243092,53.51686,1.7214606,4.7000203,15.909484,-8.029729,-13.278978,23.29681,52.17232,12.625908,5.867485,-12.308028
4,1.0421472787857056,-2.043613910675049,76.6334457397461,2.5824646991267914,-0.284970305938309,-73.24546409826183,-26.222355,13.165607,7.6047664,41.111053,-8.7437725,-0.93686575,8.746956,9.003152,-10.746365,7.1531067,-17.52804,-9.086944,3.7894819,1.7852627,12.164315,1.9625666,15.709402,-28.346458,53.820957,1.5577252,4.725139,15.844824,-8.922734,-13.343026,23.516655,51.55747,12.245066,5.8479652,-12.307464
5,1.491280198097229,-3.0853168964385986,76.50992584228516,2.490062093892469,-0.23340716375697404,-74.35344901665825,-26.173216,13.198196,8.26662,36.84776,-8.02669,-1.7706995,9.703007,9.063751,-9.586494,7.1855206,-18.071728,-9.08141,4.3228683,1.957657,12.154009,2.381959,15.444714,-28.466402,54.14043,1.4359051,4.7512507,15.718966,-9.773691,-13.411921,23.734282,50.961037,11.786446,5.835412,-12.292729
6,1.949384093284607,-4.131612777709961,76.36036682128906,2.3367430393682227,-0.186822147935796,-75.48388653938014,-25.978119,13.244154,8.82102,32.308666,-7.0960054,-2.7081988,10.671335,9.161152,-8.414909,7.218304,-18.614994,-9.106391,4.8710136,2.2078679,12.111574,2.814462,15.1618595,-28.598589,54.47007,1.3444209,4.778577,15.549036,-10.592387,-13.483525,23.951242,50.377148,11.272192,5.8280783,-12.267289
7,2.411529302597046,-5.205080986022949,76.17741394042969,2.11835333225411,-0.1581176706579939,-76.6197391374388,-25.658197,13.321069,9.312799,27.619057,-6.0443993,-3.7516916,11.674464,9.292434,-7.2751117,7.2455735,-19.141033,-9.131404,5.4183054,2.5347538,12.053264,3.2560544,14.867338,-28.733395,54.802002,1.2685362,4.810035,15.352024,-11.373532,-13.555419,24.169346,49.801773,10.750269,5.830472,-12.239418
8,2.8741729259490967,-6.29972505569458,75.96077728271484,1.8299459924684118,-0.16301100436013363,-77.74977145570925,-25.228888,13.4506035,9.797668,22.903126,-4.9630895,-4.9054437,12.7363205,9.458315,-6.2051296,7.266184,-19.636215,-9.128338,5.954473,2.9390123,11.998701,3.7056623,14.566766,-28.858192,55.126293,1.1969326,4.8489685,15.14461,-12.109916,-13.624776,24.387453,49.229256,10.265781,5.847519,-12.217086
9,3.339796543121338,-7.4104437828063965,75.71175384521484,1.4329741619007395,-0.22278694695964665,-78.90092786008779,-24.609066,13.694844,10.322036,18.015123,-3.809799,-6.249675,13.889723,9.706506,-5.202549,7.2760296,-20.110046,-9.0964775,6.5018735,3.4660995,11.952765,4.182007,14.263497,-28.974712,55.42729,1.1271946,4.8997164,14.910857,-12.795188,-13.689142,24.601448,48.655712,9.823295,5.8854594,-12.196221
10,3.8094754219055176,-8.538522720336914,75.42994689941406,0.8967814145729768,-0.35216667850594235,-80.11188354229228,-23.724842,14.125599,10.869066,12.827258,-2.5207396,-7.740127,15.145609,10.073219,-4.200449,7.274142,-20.562313,-9.058149,7.095183,4.1513333,11.91767,4.692887,13.95796,-29.086018,55.70146,1.0654643,4.960693,14.647837,-13.440141,-13.750387,24.815859,48.092384,9.401323,5.9405546,-12.17284
11,4.277734756469727,-9.674060821533203,75.12120819091797,0.25256459542439225,-0.5512084394371106,-81.38010172858627,-22.532703,14.719866,11.444869,7.3327174,-1.0589353,-9.205797,16.488781,10.5153055,-3.1492896,7.2617874,-20.962503,-9.016648,7.7344885,4.959067,11.909443,5.2143645,13.650672,-29.187252,55.961864,1.0069801,5.025808,14.393052,-14.056372,-13.811637,25.039276,47.546864,9.004318,6.0035706,-12.1554165
12,4.733226776123047,-10.8118314743042,74.8016586303711,-0.4036688305763412,-0.7854992105910679,-82.64528584262405,-23.483236,15.807217,11.393698,6.643126,-2.0742035,-10.467327,17.860947,10.914764,-2.0678222,7.249075,-21.28943,-8.958786,8.368719,5.781198,11.9297,5.7106433,13.343932,-29.272894,56.229614,0.9486478,5.087348,14.183218,-14.654727,-13.87394,25.278708,47.02108,8.641592,6.063881,-12.155278
13,5.179189682006836,-11.963370323181152,74.4855728149414,-1.0270033150004627,-1.00921344798341,-83.86252489662063,-24.643627,16.894283,11.18347,6.483456,-3.3225005,-11.509197,19.205723,11.218869,-1.0106913,7.2413907,-21.557898,-8.877827,8.952436,6.5572486,11.963285,6.1739864,13.040892,-29.307579,56.485416,0.90889335,5.1634126,14.014188,-15.2579,-13.93724,25.547878,46.50329,8.32298,6.1307716,-12.182158
14,5.635804176330566,-13.120445251464844,74.17552947998047,-1.6073181925895397,-1.2114081795276899,-85.00730093710563,-25.82594,17.91919,10.874702,6.4288487,-4.595948,-12.3961935,20.520166,11.422913,-0.030644076,7.2360106,-21.784815,-8.761942,9.463363,7.274059,11.996336,6.6078734,12.744735,-29.303303,56.733356,0.88392437,5.2496724,13.86955,-15.852779,-13.997209,25.834461,45.987095,8.042723,6.204208,-12.231655
15,6.0988688468933105,-14.28994083404541,73.88328552246094,-2.065832558010743,-1.404967362035897,-86.03465152592112,-26.893286,18.76775,10.51619,6.441292,-5.7874584,-13.099958,21.8171,11.450831,0.8263956,7.236272,-21.956512,-8.587367,9.889472,7.823359,12.057224,7.050423,12.565186,-29.345251,56.916943,0.8164996,5.3131514,13.755683,-16.38322,-14.030054,26.064701,45.46101,7.7678113,6.2570696,-12.288962
16,6.559630393981934,-15.455950736999512,73.617431640625,-2.387071889869901,-1.6210558245827567,-86.9460340773103,-27.68892,19.4061,10.16407,6.462437,-6.765946,-13.631211,23.125097,11.303087,1.571949,7.237549,-22.036709,-8.350406,10.198185,8.2418785,12.142786,7.4340167,12.372945,-29.460302,57.217964,0.6957191,5.3041344,13.706705,-16.83575,-14.058538,26.27437,44.985954,7.4969273,6.26786,-12.351649
17,7.0181121826171875,-16.628293991088867,73.37942504882812,-2.5721448683917973,-1.8953895004659613,-87.75016412071668,-28.138067,19.818777,9.8982115,6.4592924,-7.6160564,-14.049017,24.493454,10.972719,2.2186735,7.2413216,-22.058044,-8.028508,10.408936,8.530283,12.296095,7.774219,12.201702,-29.69098,57.62082,0.5047649,5.187655,13.769872,-17.202,-14.079357,26.442276,44.55796,7.206235,6.2122326,-12.411044
18,7.4829020500183105,-17.814990997314453,73.14802551269531,-2.672107014225499,-2.198053368868202,-88.46063899925527,-28.349594,20.045343,9.6747055,6.476846,-8.353391,-14.3722725,25.88907,10.512596,2.77168,7.2441535,-22.01617,-7.637774,10.547861,8.75317,12.46714,7.999736,11.975297,-30.031773,58.223145,0.25448155,4.9810605,13.931949,-17.497667,-14.103502,26.580015,44.196293,6.915201,6.1071935,-12.478161
19,7.940398216247559,-19.020288467407227,72.93029022216797,-2.670376067804684,-2.4541354469966707,-89.05301043469566,-28.390305,20.033607,9.39805,6.4999404,-8.722735,-14.522604,27.22023,9.927558,3.1832554,7.245693,-21.84737,-7.208758,10.601021,8.863606,12.609269,8.16833,11.757584,-30.425858,58.888195,-0.034451935,4.765917,14.092005,-17.696388,-14.124934,26.642828,43.855114,6.6267195,5.997802,-12.54895
20,8.387399673461914,-20.25572967529297,72.73158264160156,-2.5470286815523204,-2.588433160595917,-89.49621184155029,-28.320875,19.723652,8.967681,6.496378,-8.462266,-14.408165,28.395933,9.224129,3.3977897,7.244567,-21.486055,-6.770371,10.5249,8.802887,12.678227,8.337096,11.619626,-30.791964,59.490475,-0.3443427,4.61327,14.141381,-17.788904,-14.134581,26.628046,43.50172,6.367214,5.9245048,-12.627403
21,8.826339721679688,-21.511810302734375,72.56253051757812,-2.2553626386021564,-2.56492242200886,-89.76537669880567,-28.101585,19.033375,8.357232,6.4564342,-7.4229145,-13.92796,29.37841,8.363279,3.3819952,7.2451587,-20.980854,-6.3487034,10.373349,8.563031,12.603353,8.349454,11.426118,-31.248346,60.25163,-0.7020083,4.538616,14.092991,-17.734406,-14.144369,26.447847,43.164593,6.0997334,5.9040933,-12.722652
22,9.266801834106445,-22.767637252807617,72.4540023803711,-1.8069545925287873,-2.437825039926878,-89.88080316336263,-27.721455,17.99933,7.627253,6.415882,-5.764237,-13.190504,30.233961,7.353289,3.1603508,7.2495146,-20.34296,-5.919656,10.109075,8.138409,12.464912,8.279659,11.237173,-31.724295,61.078465,-1.0857726,4.50737,13.972004,-17.563913,-14.148926,26.161938,42.82788,5.8320675,5.913423,-12.825538
23,9.716435432434082,-23.946908950805664,72.45072937011719,-1.2425486512078951,-2.265214022470561,-89.87577199611836,-27.253283,16.714785,6.8234158,6.352968,-3.6648731,-12.408211,30.841352,6.259359,2.7380397,7.641999,-19.659801,-5.431492,9.82211,7.6143575,12.249266,8.044223,10.946974,-32.31888,62.120163,-1.5266285,4.4893947,13.830564,-17.256283,-14.163664,25.737904,42.536446,5.5847483,5.9329967,-12.919738
24,10.187225341796875,-25.177732467651367,72.41162872314453,-0.5776756436200168,-2.0348354747253268,-89.82441710754021,-26.90503,15.292127,6.0119686,6.412234,-1.4006567,-11.7499275,30.604246,5.094766,2.1264462,9.689327,-19.497475,-4.8190923,9.462444,6.9640436,11.979022,7.8590765,10.704371,-32.86635,63.088966,-1.9984198,4.4701147,13.651216,-16.888313,-14.180299,25.36614,42.28417,5.4593077,5.9415097,-13.013257
25,10.663116455078125,-26.455142974853516,72.36741638183594,0.19671624108729,-1.711820532930451,-89.71788802705956,-26.688189,13.700754,5.0733685,6.4869914,1.3337499,-11.172247,29.958813,3.8022313,1.4406446,12.395567,-19.330023,-4.0971756,9.067284,6.1841574,11.582922,7.713672,10.494597,-33.414757,64.01292,-2.5135992,4.4508824,13.440574,-16.4306,-14.20415,25.01255,42.074688,5.4577255,5.9290943,-13.091265
26,11.141838073730469,-27.746545791625977,72.34512329101562,1.0869706206949399,-1.3045772236627393,-89.55757215609917,-26.950851,11.974928,3.9449139,7.477375,4.0728164,-10.625583,29.042082,2.357738,0.722507,15.484531,-19.050354,-3.298212,8.64583,5.2800765,11.074159,7.578817,10.308962,-33.977432,64.91946,-3.069903,4.4421606,13.190762,-15.870715,-14.23469,24.647858,41.894276,5.55313,5.9090886,-13.157785
27,11.601482391357422,-29.052772521972656,72.33746337890625,1.9906344260980178,-0.9460975439360867,-89.41847802186916,-28.711716,10.368374,2.7080612,11.878973,4.896697,-10.221997,28.113873,0.8699962,0.028587775,18.636696,-18.416788,-2.4348352,8.267516,4.373378,10.58214,7.4214544,10.146903,-34.593708,65.83031,-3.6845312,4.4405046,12.916759,-15.215248,-14.263213,24.239231,41.75144,5.7165866,5.897432,-13.2193365
28,12.044820785522461,-30.379972457885742,72.33839416503906,2.850547262621963,-0.7432421516265576,-89.35410738299939,-29.726187,8.927467,2.0591645,15.317718,5.515942,-10.048615,27.29332,-0.5865104,-0.64233035,21.771267,-17.316322,-1.5256559,7.981553,3.5254753,10.228014,7.2043014,10.014433,-35.300186,66.7664,-4.3744435,4.441902,12.632474,-14.475549,-14.275416,23.751856,41.657074,5.918265,5.9082727,-13.28454
29,12.469167709350586,-31.71955680847168,72.36848449707031,3.703784240338207,-0.7356891276136187,-89.34778856647767,-30.023878,7.695478,2.08011,18.000477,5.6652193,-10.171537,26.605871,-2.068136,-1.3185117,24.990263,-15.72038,-0.5177203,7.78431,2.6890657,10.041734,6.9276657,9.9170475,-36.12896,67.75791,-5.1834,4.434134,12.344833,-13.608516,-14.257474,23.151295,41.593292,6.175069,5.95247,-13.34745
30,12.875214576721191,-33.061744689941406,72.42916107177734,4.568062027642389,-0.8559394156452628,-89.34872928997402,-29.883186,6.613543,2.5153604,20.306805,5.4619966,-10.476412,25.931675,-3.599442,-1.9997969,28.394941,-13.729207,0.5189908,7.6226425,1.8373675,9.95797,6.60656,9.854356,-37.05485,68.78104,-6.092653,4.4261694,12.044677,-12.628698,-14.204654,22.464304,41.57136,6.4914985,6.0180674,-13.407018
31,13.256263732910156,-34.40856170654297,72.51583099365234,5.393690529139493,-1.0295835736630652,-89.35616768455397,-29.488695,5.673953,3.1054578,22.329145,4.955159,-10.770381,25.092253,-5.1106763,-2.6717892,32.033516,-11.474013,1.3863977,7.4697447,1.0175375,9.9451275,6.2246776,9.82399,-38.019623,69.78389,-7.0214868,4.4388685,11.720868,-11.6370325,-14.116459,21.747755,41.64384,6.8204412,6.0846066,-13.480707
32,13.601882934570312,-35.74159622192383,72.62881469726562,6.122580763187835,-1.1853036301340427,-89.37470596231832,-29.002695,4.841407,3.6124625,24.101954,4.212954,-10.885204,23.930944,-6.534353,-3.3352962,35.9212,-9.074219,1.8941807,7.3035164,0.2829378,9.974406,5.7682447,9.822472,-38.963757,70.7156,-7.8869214,4.492897,11.363493,-10.735711,-13.995256,21.055841,41.860577,7.114931,6.131916,-13.586645
33,13.923822402954102,-37.04051208496094,72.75865936279297,6.733191625802178,-1.3419846354432114,-89.37710568257977,-28.4259,4.0710616,3.9776475,25.622313,3.1315608,-10.770457,22.37059,-7.8806148,-4.0288925,40.25989,-6.2796526,1.9032739,7.1095514,-0.34032503,10.070713,5.219183,9.845368,-39.90448,71.60044,-8.698877,4.599408,10.939327,-9.911914,-13.840333,20.347342,42.220936,7.33635,6.1383643,-13.747783
34,14.219056129455566,-38.29926681518555,72.8891372680664,7.271842341116925,-1.5240110917447431,-89.36883396968601,-27.679842,3.3429658,4.3310146,26.843216,1.7279752,-10.5335655,20.498737,-9.272832,-4.7788115,45.00029,-3.1413667,1.4310572,6.9015236,-0.89968944,10.237058,4.5941167,9.890301,-40.866035,72.45993,-9.488874,4.745973,10.465599,-9.128599,-13.651719,19.61056,42.70544,7.5172195,6.120013,-13.949425
35,14.473697662353516,-39.50297546386719,73.01919555664062,7.782667946563147,-1.668030359069415,-89.402663607153,-26.818449,2.655001,4.72581,27.743603,0.2535771,-10.245834,18.411339,-10.796757,-5.5733814,49.785732,-0.23519611,0.574144,6.697105,-1.4454973,10.41249,3.928974,9.958794,-41.79389,73.23893,-10.204824,4.915838,10.008008,-8.453197,-13.436592,18.945404,43.333294,7.719223,6.1132035,-14.154674
36,14.717978477478027,-40.663848876953125,73.15909576416016,8.302220808120943,-1.7093597787814774,-89.53189575525538,-25.90165,2.0239244,5.214852,28.31781,-1.0483521,-9.979197,16.194971,-12.463371,-6.366053,54.278244,1.855014,-0.47097263,6.507988,-2.0238008,10.536196,3.258256,10.055354,-42.6243,73.87769,-10.795757,5.0899925,9.631165,-7.9567695,-13.207158,18.46173,44.12671,8.006806,6.153915,-14.328256
37,14.94130802154541,-41.78525161743164,73.31202697753906,8.870048516117432,-1.5867792209711504,-89.79110989469699,-24.953176,1.4442528,5.862052,28.502806,-2.1387537,-9.742428,13.786361,-14.386702,-7.223198,58.536022,3.0178554,-1.5638626,6.3572845,-2.6820993,10.571749,2.5776389,10.183832,-43.318653,74.34488,-11.236575,5.292481,9.329969,-7.6828065,-12.973589,18.214415,45.13117,8.4396,6.256454,-14.490443
38,15.141526222229004,-42.892539978027344,73.48680877685547,9.4586168897814,-1.3491909170392382,-90.13608881511273,-23.944815,0.8953174,6.6178446,28.32275,-3.134062,-9.501934,11.169123,-16.528286,-8.125241,62.73211,3.5011523,-2.809981,6.218693,-3.3852468,10.561375,1.875211,10.345685,-43.910862,74.66951,-11.556418,5.521232,9.076059,-7.581963,-12.738942,18.142836,46.31384,8.972677,6.400046,-14.652632
39,15.315169334411621,-43.981624603271484,73.68505096435547,9.986677668542809,-1.0928269750310846,-90.5146108153346,-22.856855,0.40812364,7.3660502,27.918346,-4.040258,-9.271736,8.4962435,-18.527302,-8.866873,66.65943,3.306236,-4.2227063,6.0468616,-4.0375414,10.55889,1.167876,10.542391,-44.446964,74.881966,-11.784539,5.716595,8.89811,-7.583299,-12.504714,18.179209,47.57616,9.516533,6.568725,-14.764689
40,15.47060489654541,-45.04855728149414,73.91090393066406,10.371237074194532,-0.9105713648416695,-90.88214399832795,-21.67705,0.033094805,7.993757,27.44283,-4.869554,-9.06669,5.9001355,-19.946457,-9.258951,70.09655,2.4745464,-5.747537,5.803252,-4.536908,10.612819,0.47230297,10.775442,-44.974957,75.01231,-11.95333,5.8191047,8.824654,-7.618033,-12.27229,18.25524,48.822052,9.979379,6.747721,-14.77573
41,15.618270874023438,-46.099571228027344,74.15453338623047,10.568369843209998,-0.8276022127727173,-91.2432542235421,-20.393164,-0.18182574,8.482043,26.930395,-5.635748,-8.886002,3.3501024,-20.431782,-9.135152,73.00491,0.750251,-7.3973308,5.4806166,-4.835491,10.744919,-0.21218407,11.047943,-45.51287,75.03697,-12.055208,5.79765,8.870055,-7.6976943,-12.040355,18.364351,50.073803,10.327249,6.947894,-14.649087
42,15.743407249450684,-47.141143798828125,74.40721130371094,10.619503709105304,-0.7880519228211907,-91.62685907874898,-19.02803,-0.24731278,8.89775,26.32782,-6.3434114,-8.72759,0.7728362,-20.111826,-8.639554,75.4892,-1.7286847,-9.032596,5.112797,-4.98305,10.922156,-0.8962677,11.361109,-46.0397,74.94738,-12.080924,5.6886945,9.016282,-7.8456645,-11.810185,18.532436,51.36356,10.609591,7.1740284,-14.418865
43,15.847494125366211,-48.17892074584961,74.67088317871094,10.563006280147354,-0.7648202537570606,-92.0239348841341,-17.63072,-0.20201279,9.259722,25.67151,-6.9952464,-8.602191,-1.7645303,-19.324408,-8.089953,77.541016,-4.3226824,-10.407141,4.721109,-5.0268273,11.112917,-1.5761424,11.71152,-46.538197,74.79419,-12.053781,5.534575,9.243532,-8.010426,-11.586638,18.741877,52.607967,10.863959,7.401965,-14.138957
44,15.914787292480469,-49.198150634765625,74.94083404541016,10.43845539914931,-0.7318433558859299,-92.42309333737599,-16.246876,-0.08632613,9.581043,24.991623,-7.590635,-8.520711,-4.1883607,-18.492903,-7.8117294,79.14011,-6.422661,-11.316529,4.3266387,-5.011001,11.285096,-2.2498465,12.092415,-46.995213,74.63295,-11.99873,5.377281,9.531861,-8.1375675,-11.377731,18.972227,53.722496,11.126845,7.607554,-13.862355
45,15.966107368469238,-50.20244598388672,75.20771026611328,10.21652564806799,-0.6837226950971276,-92.8211815780123,-14.903467,0.13844304,9.841684,24.320162,-8.12804,-8.501832,-6.482038,-17.68824,-7.91659,80.22231,-7.8937473,-11.62589,3.923917,-4.905725,11.433273,-2.9275913,12.4992285,-47.44264,74.490166,-11.908098,5.2037764,9.916989,-8.2266865,-11.187405,19.233145,54.70558,11.424983,7.790755,-13.584154
46,16.02029037475586,-51.20729064941406,75.4697265625,9.894680518212898,-0.637262316022024,-93.22410467664395,-13.569817,0.47701874,10.051644,23.635183,-8.609791,-8.534976,-8.678684,-16.759338,-8.257707,80.809555,-9.050044,-11.49366,3.5060022,-4.7028875,11.577263,-3.6107128,12.930051,-47.879547,74.339264,-11.772983,4.9999347,10.396397,-8.299458,-11.017077,19.52926,55.594105,11.73441,7.9629183,-13.281513
47,16.073040008544922,-52.22101974487305,75.72315216064453,9.545756881438503,-0.5977842200620612,-93.63287323793288,-12.202684,0.83851326,10.260596,22.87523,-9.032799,-8.587571,-10.781364,-15.820851,-8.760937,81.00283,-9.979986,-11.170365,3.0913613,-4.4710193,11.720052,-4.2820754,13.381432,-48.24001,74.15571,-11.614396,4.8056817,10.892417,-8.331117,-10.869647,19.831074,56.35692,12.014909,8.116714,-12.980017
48,16.10641860961914,-53.22751998901367,75.96232604980469,9.242454001200297,-0.568863436651671,-94.04846326472959,-10.760201,1.1309205,10.514577,21.981842,-9.3963,-8.626739,-12.793743,-14.972896,-9.339246,80.90614,-10.77127,-10.900997,2.6983602,-4.2782283,11.861504,-4.923935,13.849804,-48.454998,73.91741,-11.45231,4.660395,11.327434,-8.301001,-10.751132,20.113756,56.966667,12.230408,8.244305,-12.705551
49,16.138158798217773,-54.234439849853516,76.18196868896484,8.990995133709664,-0.5520117107873491,-94.483149923509,-9.219634,1.3444753,10.826648,20.9281,-9.696483,-8.641424,-14.723639,-14.216762,-9.980911,80.51177,-11.396577,-10.727938,2.3403387,-4.1301765,12.001492,-5.5337315,14.333986,-48.496937,73.629524,-11.294905,4.5828295,11.689844,-8.198653,-10.664522,20.379799,57.407223,12.375195,8.353988,-12.462613
50,16.167573928833008,-55.24802780151367,76.38233184814453,8.757608142848962,-0.5446456814808109,-94.93164368096019,-7.605232,1.5200607,11.170545,19.744823,-9.935256,-8.650199,-16.56938,-13.51642,-10.717574,79.77038,-11.827402,-10.529286,2.0034368,-3.9926393,12.138635,-6.1192985,14.834409,-48.399548,73.30373,-11.124935,4.5492463,12.017678,-8.037964,-10.611009,20.642561,57.69722,12.470086,8.445764,-12.237354
51,16.198625564575195,-56.28123474121094,76.56224822998047,8.54879877869577,-0.5422189940737744,-95.36833106255361,-5.948645,1.6424854,11.529247,18.46523,-10.116011,-8.663734,-18.320623,-12.901806,-11.520446,78.7272,-12.149522,-10.299721,1.666497,-3.8690495,12.270556,-6.685198,15.350322,-48.20769,72.931305,-10.948496,4.5333557,12.307307,-7.8255105,-10.591248,20.885113,57.850533,12.511577,8.499914,-12.02721
52,16.221271514892578,-57.29802703857422,76.71180725097656,8.369421329785617,-0.5396712720970778,-95.7673935687032,-4.2720313,1.6959978,11.885176,17.10167,-10.231912,-8.692625,-19.962751,-12.400527,-12.366553,77.4288,-12.45201,-10.038346,1.3097241,-3.7623677,12.394859,-7.2351284,15.879528,-47.962135,72.503235,-10.765862,4.5091066,12.555726,-7.5671406,-10.605999,21.088444,57.880104,12.495028,8.4965925,-11.829336
53,16.243391036987305,-58.32191848754883,76.83600616455078,8.219473593845633,-0.52391574988167,-96.12045583489119,-2.5883036,1.6751801,12.235507,15.643033,-10.280156,-8.747889,-21.495121,-12.034994,-13.285675,75.86932,-12.763945,-9.731502,0.9282649,-3.6690443,12.496999,-7.765075,16.419512,-47.65364,72.01196,-10.569958,4.471992,12.754708,-7.2500544,-10.65751,21.225443,57.763386,12.38226,8.414423,-11.616676
54,16.275033950805664,-59.35408020019531,76.93279266357422,8.092006614754599,-0.49907731692940793,-96.44009589255832,-0.8797871,1.5926902,12.582914,14.074648,-10.257458,-8.822361,-22.91838,-11.780094,-14.278917,74.02539,-13.038074,-9.386978,0.5344438,-3.5819392,12.581486,-8.276422,16.96863,-47.265793,71.467384,-10.359257,4.434902,12.908628,-6.870658,-10.746446,21.30794,57.496323,12.1867485,8.269225,-11.398842
55,16.315845489501953,-60.39023971557617,77.01329040527344,7.97914513935476,-0.4860576356741334,-96.73112557335797,0.8559903,1.4658327,12.915776,12.447161,-10.180298,-8.898019,-24.224922,-11.580583,-15.27507,71.91988,-13.23988,-9.024967,0.13248794,-3.500549,12.673361,-8.785823,17.526627,-46.842304,70.89226,-10.159047,4.3965216,13.033248,-6.455501,-10.871312,21.383198,57.12762,11.986912,8.096501,-11.228729
56,16.35390281677246,-61.43152618408203,77.06233215332031,7.879708776523764,-0.5061985309822541,-96.99953874080553,2.6212277,1.3091074,13.224489,10.814632,-10.067729,-8.954371,-25.407118,-11.383171,-16.201538,69.57474,-13.336143,-8.668218,-0.2719943,-3.428794,12.798243,-9.307512,18.09334,-46.420372,70.306816,-9.986078,4.3558054,13.144456,-6.0322003,-11.028736,21.497,56.70704,11.860129,7.9326215,-11.158641
57,16.38297462463379,-62.46392822265625,77.08203887939453,7.785944737941366,-0.5667148073165936,-97.26406512727351,4.429501,1.1275799,13.523083,9.174579,-9.918616,-8.972845,-26.470995,-11.1550045,-17.024504,66.980804,-13.301817,-8.317031,-0.66955006,-3.3614929,12.969037,-9.839963,18.668577,-45.976536,69.701965,-9.848203,4.3163023,13.223161,-5.6239586,-11.220449,21.683985,56.24085,11.842405,7.7830386,-11.236825
58,16.403696060180664,-63.50545120239258,77.07777404785156,7.70338483762468,-0.6548755155626717,-97.51502116128256,6.2960052,0.90692484,13.808937,7.456945,-9.703707,-8.964555,-27.414778,-10.923165,-17.78619,64.12725,-13.160177,-7.9620337,-1.068682,-3.300819,13.168806,-10.375814,19.25243,-45.497704,69.07456,-9.733188,4.2749104,13.268462,-5.2133846,-11.44659,21.914907,55.70636,11.886976,7.6299567,-11.423744
59,16.420759201049805,-64.55452728271484,77.04292297363281,7.648481881217431,-0.7613802113977575,-97.716138576579,7.5158715,0.8116021,14.036523,7.166951,-10.209713,-8.957922,-28.223364,-10.726954,-18.520884,61.03362,-12.949781,-7.607232,-1.4864193,-3.2674296,13.376944,-10.9207945,19.845606,-45.04366,68.44733,-9.630706,4.227621,13.324407,-4.767193,-11.698343,22.136366,55.114056,11.945484,7.4743633,-11.6401615
60,16.425378799438477,-65.59955596923828,76.97915649414062,7.636731879118197,-0.877541892758385,-97.83130311727834,8.646528,0.6931723,14.186029,7.055985,-10.77475,-8.977163,-28.880518,-10.604488,-19.264744,57.714188,-12.707222,-7.2579737,-1.9377071,-3.2808273,13.571653,-11.486458,20.44796,-44.684902,67.8491,-9.538015,4.1686378,13.435047,-4.2514443,-11.960495,22.291063,54.47648,11.968341,7.3172307,-11.807603
61,16.417232513427734,-66.66486358642578,76.89973449707031,7.683773324024773,-1.0037391599591807,-97.84795918970089,9.764886,0.5113154,14.247464,6.9470024,-11.302501,-9.029245,-29.38923,-10.567024,-19.9661,54.140938,-12.433675,-6.9308877,-2.4292028,-3.3611324,13.748982,-12.087224,21.060017,-44.45649,67.29141,-9.475461,4.0885057,13.630707,-3.6623588,-12.225789,22.360418,53.781273,11.9323,7.150205,-11.899291
62,16.402170181274414,-67.73556518554688,76.79243469238281,7.771715884282908,-1.145558780652005,-97.78691879982408,10.879002,0.2838793,14.238662,6.846247,-11.80106,-9.10095,-29.758368,-10.588421,-20.626854,50.325153,-12.114378,-6.6203084,-2.947382,-3.4913063,13.918768,-12.717625,21.680042,-44.321373,66.76188,-9.436913,3.992746,13.882145,-3.017492,-12.492141,22.370745,53.033867,11.864236,6.974973,-11.959975
63,16.376436233520508,-68.81341552734375,76.6453628540039,7.8662370614534245,-1.3042985414619728,-97.66076353086862,11.991686,0.061938208,14.170391,6.772528,-12.282338,-9.189333,-29.986977,-10.651959,-21.365997,46.347385,-11.772252,-6.296338,-3.4815857,-3.6348464,14.0817375,-13.359201,22.303211,-44.238903,66.25575,-9.380978,3.8978496,14.144748,-2.3216214,-12.751395,22.335028,52.283615,11.787848,6.80636,-12.02012
64,16.320331573486328,-69.9115219116211,76.47826385498047,8.006197267356102,-1.4811400859413364,-97.50035513970371,13.0908165,-0.17551394,14.069096,6.783283,-12.784391,-9.287557,-30.05138,-10.775229,-22.246304,42.220535,-11.398854,-5.9183097,-4.0019684,-3.82788,14.235849,-13.992554,22.922743,-44.16287,65.77204,-9.259904,3.8206065,14.373641,-1.5789258,-12.989503,22.264399,51.580147,11.726974,6.659243,-12.110894
65,16.254079818725586,-71.01721954345703,76.29159545898438,8.161255212317128,-1.6854537218533796,-97.29627809577498,14.22652,-0.4109487,13.927636,6.79409,-13.2674675,-9.388791,-29.87443,-10.929245,-23.35164,37.760044,-10.948247,-5.4685693,-4.5216455,-4.0400944,14.379388,-14.618206,23.534336,-44.0915,65.3204,-9.030312,3.7670655,14.554244,-0.79171026,-13.202248,22.150211,50.93211,11.651243,6.545444,-12.248163
66,16.167938232421875,-72.13385772705078,76.0813980102539,8.342949107100436,-1.91583667144006,-97.03797545028314,15.392368,-0.6571481,13.733348,6.802956,-13.725163,-9.499467,-29.46969,-11.103357,-24.624756,32.954334,-10.4058075,-4.9620304,-5.051602,-4.285032,14.509914,-15.249389,24.137083,-44.04911,64.9071,-8.731137,3.72775,14.71183,0.039786484,-13.388265,21.991581,50.321877,11.558552,6.453967,-12.414091
67,16.07066535949707,-73.26348114013672,75.85774993896484,8.540330672738042,-2.1376761748199544,-96.71032779105205,16.53801,-0.88269925,13.464747,6.81209,-14.139587,-9.63852,-28.93803,-11.271885,-26.031591,28.03428,-9.793921,-4.4208255,-5.605172,-4.55722,14.600966,-15.87383,24.726068,-44.009655,64.52503,-8.423399,3.6958344,14.861123,0.8979707,-13.541653,21.81778,49.78073,11.516924,6.3637376,-12.589338
68,15.946403503417969,-74.40738677978516,75.60969543457031,8.741811718648195,-2.3198804293943898,-96.29469859814783,17.618387,-1.0609323,13.097652,6.8164496,-14.490501,-9.819635,-28.383776,-11.4240265,-27.536661,23.246595,-9.14174,-3.871061,-6.2023873,-4.8519907,14.62575,-16.480211,25.296461,-43.951267,64.168976,-8.175499,3.6670408,15.017597,1.7617924,-13.653618,21.662447,49.346157,11.592893,6.25309,-12.755205
69,15.788250923156738,-75.56824493408203,75.3510971069336,8.95861199512499,-2.4568699560794682,-95.7494006548413,18.6198,-1.202871,12.594538,6.818251,-14.799461,-10.043324,-27.781689,-11.573346,-29.259232,18.458181,-8.429612,-3.2868981,-6.8843045,-5.1835785,14.554014,-17.07236,25.848886,-43.90086,63.865257,-8.006947,3.636308,15.1955,2.644692,-13.717209,21.537039,49.027725,11.834797,6.0916023,-12.923762
70,15.614811897277832,-76.73373413085938,75.08050537109375,9.220942874962962,-2.592783798155748,-95.06066484790084,19.586412,-1.3475273,11.936069,6.8182344,-15.067599,-10.291831,-27.061457,-11.753201,-31.195227,13.555045,-7.6218104,-2.654367,-7.666579,-5.5836596,14.4164295,-17.655502,26.38492,-43.862877,63.615387,-7.882736,3.6074166,15.381935,3.5503397,-13.729784,21.427177,48.813404,12.19508,5.898009,-13.099826
71,15.412389755249023,-77.90367889404297,74.79928588867188,9.530352946296018,-2.7549276853530453,-94.27476759109027,20.548351,-1.493306,11.151831,6.812704,-15.250294,-10.554231,-26.259047,-11.958984,-33.1193,8.790531,-6.722668,-2.0327067,-8.51052,-6.05285,14.26954,-18.22039,26.899895,-43.780544,63.381336,-7.792834,3.586031,15.552048,4.4384155,-13.689055,21.331264,48.71144,12.5992775,5.7242208,-13.254592
72,15.19775104522705,-79.05987548828125,74.5238265991211,9.838219969888737,-2.9307108934367703,-93.48994194283422,21.503948,-1.5838394,10.336992,6.8026023,-15.305718,-10.833248,-26.592855,-12.916178,-34.530724,7.3303676,-7.263951,-1.4761604,-9.325631,-6.531484,14.152863,-18.76505,27.385742,-43.604496,63.132324,-7.740471,3.5770626,15.683985,5.2555504,-13.596712,21.251348,48.74055,12.974034,5.62172,-13.36059
73,14.958396911621094,-80.20584869384766,74.26557159423828,10.103501334201328,-3.073527935879947,-92.73825846508274,22.410995,-1.5753424,9.545586,6.787144,-15.256003,-11.160059,-27.284462,-14.022901,-35.54841,7.106335,-8.124556,-1.0251701,-10.0671,-6.9743595,14.061812,-19.318594,27.835901,-43.313423,62.88185,-7.728275,3.5852194,15.765114,5.9820237,-13.451777,21.178312,48.902504,13.31451,5.6151366,-13.41242
74,14.704174041748047,-81.356201171875,74.03350067138672,10.319373488718348,-3.1691720487651827,-92.00938121530338,23.262142,-1.470173,8.775801,6.7664804,-15.1193075,-11.534807,-27.853773,-14.943475,-36.389603,6.8376627,-8.710352,-0.6699419,-10.745079,-7.3712883,13.964489,-19.878046,28.247726,-42.937862,62.650978,-7.759511,3.6055803,15.812133,6.637996,-13.254798,21.11829,49.197346,13.655896,5.67344,-13.424819
75,14.426095962524414,-82.51988220214844,73.83110809326172,10.465394078595276,-3.2309229879342105,-91.36253076769694,24.096895,-1.2624359,8.072142,6.743101,-14.852567,-11.922359,-28.235424,-15.637046,-37.04669,6.5800467,-9.095827,-0.43144962,-11.324707,-7.689494,13.855262,-20.379341,28.613878,-42.473263,62.411457,-7.807586,3.6292174,15.84841,7.230279,-13.013471,21.090456,49.637436,13.9836,5.7649245,-13.399746
76,14.146677017211914,-83.70211791992188,73.65581512451172,10.500764284502386,-3.2729424895484116,-90.86282275593501,24.95515,-0.9276122,7.4919972,6.714767,-14.402918,-12.292301,-28.435167,-16.090858,-37.50054,6.5791063,-9.44529,-0.32366446,-11.765524,-7.8765116,13.736875,-20.763556,28.925821,-41.924038,62.138092,-7.8565664,3.6466317,15.897427,7.7685456,-12.740966,21.114052,50.22965,14.2855425,5.8585043,-13.338855
77,13.845155715942383,-84.88650512695312,73.49762725830078,10.478885012885595,-3.3930281606082344,-90.45634053332896,25.928148,-0.51713324,6.9701934,6.6833596,-13.793553,-12.63206,-28.18792,-16.308401,-37.717537,6.597306,-9.67335,-0.18137369,-12.11527,-8.004122,13.684611,-21.020166,29.171856,-41.248146,61.82574,-7.8883004,3.6595204,15.948602,8.275341,-12.446644,21.192236,50.975883,14.560795,5.938702,-13.230996
78,13.519533157348633,-86.0907211303711,73.36428833007812,10.386424455814844,-3.549543698047463,-90.14162505987143,26.97031,-0.013975396,6.525989,6.648814,-13.039324,-12.968465,-27.628603,-16.298859,-37.71289,6.7213664,-9.79971,-0.05220817,-12.364885,-8.052591,13.680289,-21.193583,29.348436,-40.473663,61.50389,-7.932087,3.6697764,15.996029,8.747278,-12.13506,21.312866,51.86038,14.818028,6.0266695,-13.078297
79,13.17636489868164,-87.32581329345703,73.25598907470703,10.170958163848418,-3.599132298288952,-89.98744113658651,27.947523,0.6097319,6.239864,6.607747,-12.068402,-13.312498,-27.072418,-16.030266,-37.600502,7.052022,-9.811961,-0.25277907,-12.462308,-7.9415307,13.598573,-21.2664,29.456394,-39.639027,61.170605,-7.963341,3.6719394,16.064175,9.173299,-11.807647,21.468822,52.84933,15.058487,6.147328,-12.901404
80,12.817070960998535,-88.60267639160156,73.17266845703125,9.864656243731158,-3.458652908652936,-89.98865856065946,28.752937,1.2967855,6.084292,6.558031,-10.794195,-13.648474,-26.623583,-15.4712515,-37.550915,7.272631,-9.474104,-1.0766234,-12.430333,-7.6855206,13.3293085,-21.215351,29.50408,-38.786434,60.821896,-7.953218,3.6613915,16.172148,9.560938,-11.463164,21.654034,53.900753,15.281577,6.326722,-12.72227
81,12.422406196594238,-89.87347412109375,73.15408325195312,9.416714878860859,-3.0614781253848493,-90.17073245982448,29.34215,2.087899,6.0982933,6.5022025,-9.246097,-13.991003,-26.36696,-14.548664,-37.647236,7.48089,-8.773097,-2.8021204,-12.247001,-7.2172737,12.80872,-21.02821,29.498201,-37.936028,60.44628,-7.949009,3.6319008,16.327631,9.909603,-11.096931,21.881489,55.044983,15.490981,6.5895057,-12.567401
82,12.015658378601074,-91.19509887695312,73.15606689453125,8.88776135428104,-2.517006100975527,-90.5080751960271,29.772953,2.9333222,6.231341,6.548562,-7.5083327,-14.339843,-26.855015,-13.9078245,-37.617733,9.5324,-8.732791,-5.184968,-11.92773,-6.629614,12.129619,-20.692776,29.435675,-37.02841,60.02824,-7.907318,3.5897338,16.515316,10.226528,-10.705819,22.150314,56.285477,15.683829,6.91653,-12.419037
83,11.584811210632324,-92.52159881591797,73.17108917236328,8.349654187152828,-1.9347438165683022,-90.88565359936236,29.9885,3.7890143,6.3305163,6.902712,-5.597239,-14.684245,-27.883928,-13.640922,-37.48564,12.9677515,-9.219147,-7.773121,-11.585676,-6.0274844,11.371505,-20.274591,29.331512,-36.160248,59.60944,-7.8476734,3.5427818,16.72686,10.523262,-10.296464,22.43534,57.544178,15.852269,7.267531,-12.232775
84,11.13463020324707,-93.84025573730469,73.18991088867188,7.847267995868002,-1.368829665870564,-91.22624922447731,28.70195,4.762922,6.1944523,10.279802,-4.854707,-15.000033,-28.738136,-13.3196745,-37.371166,15.844728,-9.324986,-10.136636,-11.293711,-5.468733,10.588125,-19.811256,29.199583,-35.37188,59.201195,-7.7380667,3.5020614,16.954962,10.801792,-9.878797,22.704971,58.74336,15.986382,7.6019917,-11.96124
85,10.663752555847168,-95.17550659179688,73.21124267578125,7.376826305136067,-0.6896928592200269,-91.51034596478762,26.927095,5.7135253,5.8705173,14.193394,-3.8937042,-15.000033,-29.599955,-12.943604,-37.221607,18.16041,-8.882572,-12.355732,-11.056578,-4.9276304,9.631854,-19.309217,29.054045,-34.723553,58.803173,-7.604542,3.4667332,17.214256,11.100735,-9.449617,22.930185,59.8592,16.050533,7.940356,-11.558087
86,10.188289642333984,-96.50216674804688,73.25,6.864723238295863,0.10566062195608902,-91.8007806149372,24.844103,6.7117724,5.4622655,18.34393,-2.6278858,-15.000033,-30.476316,-12.431019,-37.125484,20.10292,-7.99737,-14.611039,-10.817754,-4.3344674,8.525058,-18.739353,28.894516,-34.169838,58.387276,-7.4485,3.435129,17.502546,11.399996,-9.005741,23.133755,60.934715,16.05782,8.293016,-11.056958
87,9.725164413452148,-97.80010223388672,73.3241195678711,6.443729210069211,0.7077603413472343,-91.98727982883142,22.893066,7.558934,4.8627534,22.34151,-0.93999845,-15.000033,-31.132063,-12.313046,-37.016243,22.3005,-7.343061,-15.000033,-10.718391,-3.8513534,7.590935,-18.113068,28.711054,-33.63126,57.938633,-7.253706,3.4137297,17.79302,11.600731,-8.572753,23.357784,61.996933,16.07548,8.603704,-10.531177
88,9.281511306762695,-99.0824203491211,73.41070556640625,5.990254670889903,1.0797855261311962,-92.30545879191851,21.107523,8.351165,4.3224826,26.338236,0.9951455,-15.000033,-31.348995,-11.988771,-36.912987,24.129038,-6.9644785,-15.000033,-10.559556,-3.3602185,6.981504,-17.439247,28.492733,-33.022774,57.444286,-6.998145,3.408319,18.055437,11.627522,-8.190914,23.645409,63.04752,16.177866,8.820283,-10.054617
89,8.841520309448242,-100.3336181640625,73.50245666503906,5.4141027267070125,1.1839571675288993,-92.87023037615948,19.465313,9.247696,3.968276,30.58841,3.1542485,-15.000033,-31.031801,-11.244847,-36.89038,25.465815,-6.902718,-15.000033,-10.257833,-2.756859,6.7859716,-16.686783,28.226248,-32.252834,56.854843,-6.623448,3.4320793,18.285934,11.441543,-7.894189,24.038492,64.11054,16.457466,8.912304,-9.621505
90,8.405279159545898,-101.55487060546875,73.60511779785156,4.724247273216229,1.11284258164433,-93.64427812756729,17.852863,10.26692,3.6963987,35.083694,5.551258,-15.000033,-30.346455,-10.162908,-36.907696,26.438282,-7.030122,-15.000033,-9.84044,-2.0264475,6.8679185,-15.846931,27.907276,-31.358202,56.17618,-6.1445074,3.4772723,18.49792,11.106436,-7.6896415,24.513586,65.14373,16.861494,8.91972,-9.196011
91,7.9789018630981445,-102.74687957763672,73.71649169921875,3.9879002992312387,0.96441761044881,-94.5231376867861,16.225544,11.2467,3.2960544,39.514748,8.113951,-15.000033,-29.45979,-8.901737,-36.902847,27.146702,-7.319087,-15.000033,-9.377049,-1.2318573,7.0773015,-14.969995,27.541842,-30.45533,55.482998,-5.6561203,3.517565,18.688534,10.697053,-7.56739,25.01013,66.05479,17.244701,8.8927355,-8.807074
92,7.564467906951904,-103.91165161132812,73.83429718017578,3.290430213037656,0.8369059320074798,-95.3986439254367,14.533565,11.964108,2.6052768,43.59143,10.767591,-15.000033,-28.527544,-7.6066566,-36.81175,27.630955,-7.7110686,-15.000033,-8.930296,-0.4688685,7.2673635,-14.098665,27.140656,-29.650652,54.846695,-5.234911,3.5275252,18.855606,10.284886,-7.5060678,25.46021,66.7596,17.45768,8.878458,-8.485657
93,7.163205146789551,-105.05597686767578,73.95881652832031,2.757589633831187,0.7511886606335543,-96.27272762233329,12.711158,12.286114,1.8123665,47.33024,14.016207,-14.633066,-27.652163,-6.4212513,-36.52795,28.01677,-8.300487,-15.000033,-8.493498,0.13628763,7.408073,-13.2092495,26.70491,-28.918549,54.249187,-4.883155,3.5029125,19.012066,9.857128,-7.4923644,25.862234,67.26938,17.426384,8.895882,-8.229613
94,6.775733947753906,-106.17440795898438,74.07046508789062,2.260317028584802,0.647348617294935,-97.19072457846941,10.784307,12.474149,1.0697411,50.92718,17.703012,-13.781518,-26.685926,-5.145105,-36.158432,28.144709,-9.035806,-15.000033,-8.037133,0.7149571,7.589851,-12.30642,26.236898,-28.23519,53.679665,-4.5764284,3.4564192,19.156937,9.378621,-7.5229006,26.247335,67.63626,17.238214,8.91362,-8.0278015
95,6.37061882019043,-107.27204895019531,74.18329620361328,1.8052135040961668,0.5387451966408123,-98.08879790987608,8.847181,12.481383,0.2044777,54.233448,20.848173,-12.978038,-25.65465,-3.8405895,-35.748425,28.064798,-9.818883,-15.000033,-7.6001925,1.2451165,7.7713647,-11.44816,25.753588,-27.68554,53.20269,-4.31849,3.3871734,19.266756,8.892292,-7.583482,26.58914,67.83195,16.98412,8.902777,-7.900412
96,5.968581199645996,-108.34992980957031,74.3172378540039,1.4200288872338482,0.4407808014952922,-98.90802657908279,7.000835,12.216549,-0.8990367,57.129307,22.440506,-12.531829,-24.590578,-2.6083739,-35.323128,27.85889,-10.56404,-15.000033,-7.2113323,1.6815742,7.90991,-10.705297,25.282991,-27.384556,52.890873,-4.1380286,3.2939582,19.31808,8.43568,-7.6540775,26.849106,67.83382,16.752682,8.833677,-7.86931
97,5.544641017913818,-109.39769744873047,74.46219635009766,1.1190556662197313,0.3705366013217337,-99.62083012747615,5.2857394,11.402502,-2.522206,59.62517,21.82256,-12.760813,-23.49202,-1.4797401,-34.88981,27.51542,-11.275516,-15.000033,-6.8861594,1.9887004,7.980605,-10.08638,24.852736,-27.40306,52.768257,-4.095199,3.1513216,19.313602,8.018396,-7.7158775,27.00243,67.616905,16.54066,8.690356,-7.943876
98,5.109694004058838,-110.42473602294922,74.614501953125,0.8855211897906391,0.31439649869071695,-100.26698802584943,3.6714225,10.119783,-4.5068893,61.852394,19.600088,-13.467832,-22.329845,-0.40501344,-34.43094,26.99697,-11.988776,-15.000033,-6.5979223,2.1822999,8.019288,-9.541781,24.47005,-27.673393,52.778843,-4.1656103,2.9700418,19.260647,7.607687,-7.7622356,27.064865,67.21565,16.30513,8.489516,-8.11394
99,4.658417224884033,-111.46036529541016,74.78007507324219,0.6846280397793123,0.24557706509953128,-100.88594981081802,2.117113,8.828165,-6.369467,63.860134,16.67779,-14.213693,-21.076387,0.6592545,-33.945957,26.293243,-12.633729,-15.000033,-6.3178735,2.3125868,8.072536,-9.053062,24.127441,-28.099266,52.875618,-4.2490597,2.8028414,19.141869,7.177248,-7.797734,27.059156,66.69454,16.076017,8.250952,-8.3722
100,4.188188076019287,-112.46916198730469,74.95228576660156,0.49735909651519444,0.1411909819099906,-101.51219996556888,0.54266703,7.9436307,-7.7067084,65.65562,14.006844,-14.620641,-19.723307,1.7330247,-33.425346,25.422117,-13.151769,-15.000033,-6.0218005,2.4224856,8.180016,-8.604972,23.806246,-28.57965,53.01399,-4.237319,2.7014635,18.941044,6.7086253,-7.831869,27.010645,66.10815,15.884647,7.9951057,-8.709558
101,3.7216711044311523,-113.4522933959961,75.13146209716797,0.3225414971168058,-0.012513133618435125,-102.13301900974821,-1.0812906,7.5429454,-8.490891,67.195885,11.695854,-14.696972,-18.24082,2.824798,-32.872524,24.345457,-13.519137,-15.000033,-5.7206364,2.5155714,8.359704,-8.224919,23.49753,-29.137356,53.22319,-4.102852,2.6755192,18.647934,6.2003837,-7.8758726,26.925938,65.428276,15.752108,7.7101383,-9.170281
102,3.2694976329803467,-114.42444610595703,75.31936645507812,0.17483876353634567,-0.19740559595142737,-102.73404737996674,-2.7361896,7.425763,-8.949304,68.46644,9.308999,-14.613162,-16.639832,3.914575,-32.281555,23.060143,-13.764212,-15.000033,-5.424991,2.5734465,8.584821,-7.915598,23.200535,-29.808594,53.52446,-3.899406,2.6968188,18.273647,5.6709104,-7.933878,26.792355,64.62806,15.65685,7.393207,-9.7425165
103,2.8313350677490234,-115.3961181640625,75.51090240478516,0.06781353871647999,-0.3879011847673872,-103.34707663011241,-4.4313345,7.5344324,-9.118105,69.48698,6.9941964,-14.304061,-14.985537,4.9627786,-31.624153,21.664415,-13.919423,-15.000033,-5.111581,2.5978813,8.823974,-7.6316757,22.906696,-30.516218,53.865757,-3.642275,2.7599115,17.83575,5.1227474,-8.006017,26.60893,63.778507,15.569888,7.0725975,-10.332628
104,2.3939061164855957,-116.3643798828125,75.69851684570312,0.013053999379844245,-0.5584984631575182,-104.00465398160836,-6.169564,7.8061905,-9.0311985,70.282326,4.889509,-13.708072,-13.347682,5.9292817,-30.87818,20.26682,-14.02336,-15.000033,-4.76193,2.5930023,9.0451765,-7.323116,22.604292,-31.17486,54.194572,-3.3426049,2.8589435,17.351397,4.5579243,-8.090409,26.38144,62.944233,15.464522,6.784181,-10.850175
105,1.9656065702438354,-117.32304382324219,75.88197326660156,0.01968560442287283,-0.7107012918553868,-104.71520956149354,-7.952563,8.268278,-8.631482,70.851776,3.0041876,-12.789331,-11.725044,6.8043694,-30.039574,18.872171,-14.071666,-15.000033,-4.3699684,2.5538197,9.251772,-6.9902744,22.285652,-31.768404,54.511547,-2.9265673,3.0147665,16.777765,3.9798465,-8.1865835,26.071651,62.12418,15.312071,6.534726,-11.278234
106,1.5465002059936523,-118.28284454345703,76.05610656738281,0.08376028104036612,-0.85457431142562,-105.4635822232361,-9.755753,8.915606,-7.9338603,71.174126,1.2494359,-11.621002,-10.090894,7.5962877,-29.117973,17.447887,-14.05786,-15.000033,-3.9447658,2.4782104,9.4553995,-6.6613207,21.949263,-32.341137,54.85088,-2.4105453,3.2189274,16.120817,3.384471,-8.296904,25.69232,61.294006,15.135864,6.307447,-11.663905
107,1.131422758102417,-119.23725891113281,76.21790313720703,0.19223647737571795,-0.9772909714356199,-106.24604950673303,-11.541815,9.642725,-7.0712247,71.24445,-0.38302284,-10.296006,-8.469301,8.302862,-28.120277,16.02809,-14.009818,-15.000033,-3.493506,2.3789194,9.638068,-6.323645,21.593819,-32.893383,55.20514,-1.9391419,3.4253943,15.472447,2.7594357,-8.421949,25.327635,60.488342,14.988498,6.0977006,-12.011158
108,0.7160617709159851,-120.19676971435547,76.36626434326172,0.32957971808945385,-1.0656400481654384,-107.05815922776388,-13.283013,10.348772,-6.172128,71.05822,-1.8902599,-8.898212,-6.887751,8.925218,-27.057884,14.651915,-13.959067,-15.000033,-3.02907,2.2697303,9.781239,-5.9611826,21.220243,-33.42136,55.56529,-1.658811,3.5925705,14.925754,2.0861123,-8.563479,25.068808,59.74885,14.925019,5.8996243,-12.324475
109,0.3056960999965668,-121.17425537109375,76.50656127929688,0.4967576333584989,-1.1059029501460298,-107.8858943051791,-15.005491,11.044301,-5.201774,70.62826,-3.272838,-7.3463087,-5.361771,9.412042,-25.966127,13.36521,-13.929639,-14.684446,-2.5726936,2.153514,9.867195,-5.553975,20.827541,-33.90968,55.92095,-1.6323733,3.7212465,14.498739,1.3599072,-8.720246,24.934677,59.08868,15.021375,5.6987367,-12.610166
110,-0.0932064950466156,-122.14826202392578,76.63492584228516,0.7117363741538889,-1.1178107720850035,-108.71606334649928,-16.685759,11.730777,-4.1030083,69.9431,-4.5492206,-5.6388307,-3.9020646,9.763162,-24.852827,12.208494,-13.946047,-14.3494425,-2.1378179,2.007441,9.921785,-5.110464,20.414482,-34.357914,56.276245,-1.7702271,3.8336492,14.145245,0.5868389,-8.891484,24.886497,58.488483,15.230011,5.5010643,-12.863184
111,-0.4877685606479645,-123.12509155273438,76.7509994506836,0.945184901438012,-1.11357414700743,-109.58944187156428,-18.258392,12.362914,-2.9585338,68.98001,-5.737079,-3.9787774,-2.4784827,10.045788,-23.696957,11.117143,-13.973696,-14.055152,-1.6745148,1.8544827,9.966026,-4.6641083,19.986012,-34.793903,56.646538,-2.00227,3.9216068,13.862263,-0.22768205,-9.077572,24.927528,57.93033,15.41986,5.333456,-13.071023
112,-0.8892886638641357,-124.08277130126953,76.84974670410156,1.1871083121606836,-1.1195154160946004,-110.52029342632805,-19.657537,12.873482,-1.8587863,67.70491,-6.8223953,-2.546408,-1.0789396,10.2673,-22.509827,10.118722,-14.025198,-13.810325,-1.1611371,1.6984874,10.035661,-4.241164,19.549374,-35.238926,57.03845,-2.2542508,3.9765642,13.646301,-1.0783968,-9.280055,25.059546,57.39432,15.458447,5.22372,-13.221351
113,-1.2875282764434814,-125.04810333251953,76.93121337890625,1.4386137318698158,-1.1477395084133537,-111.51604114850949,-20.878887,13.274513,-0.7949735,66.10056,-7.80579,-1.325573,0.32098147,10.439675,-21.290825,9.1797,-14.082359,-13.637436,-0.5872194,1.5362395,10.151286,-3.8516934,19.110155,-35.707912,57.45515,-2.5521357,3.9831915,13.519937,-1.9783919,-9.50096,25.315844,56.879246,15.31174,5.1931505,-13.300954
114,-1.6967144012451172,-125.99630737304688,76.99373626708984,1.6962651391868597,-1.1820316174657546,-112.56458824940304,-21.958822,13.600826,0.2727828,64.18892,-8.67987,-0.23731562,1.7060069,10.565033,-20.041225,8.301266,-14.146573,-13.527298,0.030140359,1.3756304,10.293666,-3.4749546,18.66946,-36.185165,57.88277,-2.9223094,3.950462,13.476111,-2.9221785,-9.738786,25.687662,56.388466,15.050707,5.2232347,-13.318621
115,-2.111950159072876,-126.94303131103516,77.04331970214844,1.9455424578677085,-1.2067039595026423,-113.65115647338165,-22.903574,13.833815,1.2969095,61.991333,-9.399486,0.6472793,3.038795,10.641483,-18.772118,7.5389404,-14.25043,-13.439818,0.6730667,1.2368932,10.438807,-3.090927,18.226606,-36.64334,58.301926,-3.2862334,3.905573,13.465993,-3.8767884,-9.987308,26.111933,55.907703,14.702342,5.2820797,-13.29543
116,-2.527876615524292,-127.88351440429688,77.08103942871094,2.1743480778576023,-1.2063413644490473,-114.76189995244368,-23.722012,13.959278,2.231244,59.523724,-9.913073,1.2653779,4.1439276,10.619217,-17.518934,7.24774,-14.584308,-13.328577,1.3263476,1.1353341,10.560175,-2.6850748,17.780428,-37.061993,58.69905,-3.5706902,3.8762133,13.441829,-4.8115673,-10.238734,26.521982,55.42748,14.291754,5.337272,-13.253393
117,-2.956237554550171,-128.83380126953125,77.09888458251953,2.393469095144003,-1.174318426822287,-115.91748136967338,-24.42465,13.978927,3.0681648,56.758896,-10.164731,1.6423035,5.1306305,10.5385275,-16.23706,7.1628456,-15.002727,-13.187524,2.006598,1.0572413,10.652132,-2.2546787,17.329603,-37.428967,59.069878,-3.7419937,3.8667696,13.40244,-5.729092,-10.488627,26.901464,54.943726,13.736649,5.381306,-13.186931
118,-3.384025812149048,-129.79164123535156,77.09638977050781,2.6040520041534245,-1.1202759952589418,-117.1164168955082,-25.011627,13.914998,3.829189,53.69426,-10.179873,1.8195585,6.100573,10.434001,-14.917286,7.0791492,-15.396654,-13.037899,2.7152555,0.99825513,10.727195,-1.8116294,16.874474,-37.763107,59.42625,-3.8477464,3.8633409,13.369857,-6.645102,-10.735732,27.283657,54.467297,13.051701,5.429113,-13.088646
119,-3.810781955718994,-130.76705932617188,77.07344055175781,2.785496428507501,-1.0519676302822671,-118.31913129292167,-25.482502,13.788757,4.5152917,50.382275,-10.033839,1.7623901,7.0151677,10.313476,-13.614434,7.0991597,-15.839875,-12.884514,3.4219337,0.9777216,10.782271,-1.3544055,16.414892,-38.075638,59.771465,-3.9194818,3.867025,13.330936,-7.551688,-10.978749,27.673655,54.015083,12.407079,5.4824944,-12.978039
120,-4.251405239105225,-131.74374389648438,77.02709197998047,2.9109965963845275,-0.981445252599733,-119.48098121019915,-25.82171,13.622557,5.12222,46.83992,-9.784302,1.436985,7.9246345,10.21006,-12.372552,7.143534,-16.309593,-12.728562,4.091861,1.0225433,10.815084,-0.8841274,15.95133,-38.383057,60.1109,-3.9933074,3.8789966,13.272508,-8.438654,-11.215291,28.07557,53.60176,11.9725065,5.5449643,-12.875247
121,-4.692241668701172,-132.73712158203125,76.96406555175781,2.981293873698693,-0.9101417278541044,-120.60542013526616,-25.996265,13.419344,5.616316,42.952908,-9.418591,0.80032206,8.83861,10.125573,-11.173357,7.186144,-16.805412,-12.570441,4.728676,1.1326418,10.819895,-0.39883292,15.481967,-38.695343,60.44465,-4.05683,3.9053926,13.193102,-9.3165045,-11.444814,28.496237,53.244274,11.861791,5.6314344,-12.788505
122,-5.134490489959717,-133.73361206054688,76.87789154052734,3.0048875956639773,-0.836839526170248,-121.7143476360834,-26.006908,13.188006,6.0031266,38.700703,-8.889186,-0.099570855,9.704599,10.044,-10.00696,7.337544,-17.373419,-12.408187,5.349383,1.2987068,10.797854,0.09956006,15.0062065,-39.00499,60.772785,-4.100535,3.9436696,13.099113,-10.185331,-11.66667,28.931194,52.93117,11.960506,5.7365637,-12.706902
123,-5.5941267013549805,-134.74392700195312,76.7676773071289,2.9675786104577746,-0.7722548643535676,-122.79247518138773,-25.887402,12.965243,6.337187,34.23811,-8.204696,-1.1600561,10.563668,9.9918585,-8.912631,7.544874,-17.965216,-12.245619,5.9408383,1.531962,10.757493,0.6109829,14.527327,-39.2904,61.094666,-4.1537814,3.9819148,12.989377,-11.0266075,-11.879758,29.369053,52.642162,12.098197,5.83339,-12.621004
124,-6.06884765625,-135.7613983154297,76.62297058105469,2.8529811868480017,-0.7280644346237735,-123.82513788515762,-25.676073,12.791969,6.671024,29.72646,-7.379633,-2.2794938,11.502286,10.003556,-7.9208674,7.661439,-18.482841,-12.086847,6.4894977,1.8462539,10.708551,1.1370025,14.051842,-39.530537,61.405174,-4.2478967,4.009756,12.86246,-11.822128,-12.082706,29.798437,52.35656,12.104024,5.8941603,-12.520911
125,-6.546034812927246,-136.79986572265625,76.45303344726562,2.6314133585892368,-0.7087370631593403,-124.81310876766499,-25.344736,12.723302,6.9927936,25.06212,-6.349904,-3.4758952,12.539993,10.113207,-7.053428,7.658907,-18.917852,-11.942384,6.9932027,2.273622,10.641836,1.6960053,13.584678,-39.720974,61.686337,-4.365609,4.028016,12.700456,-12.569947,-12.274541,30.225927,52.08231,11.914712,5.8989625,-12.400888
126,-7.036925792694092,-137.84307861328125,76.2508773803711,2.3113945606321367,-0.7227424633805162,-125.784933788708,-24.833963,12.764883,7.2902303,20.119423,-5.099766,-4.7749653,13.685847,10.312366,-6.258052,7.530447,-19.272009,-11.811132,7.477884,2.8087025,10.565177,2.2887483,13.127399,-39.870197,61.933434,-4.49869,4.0433846,12.509792,-13.280328,-12.454824,30.655674,51.82716,11.627829,5.8662963,-12.266591
127,-7.545689582824707,-138.88357543945312,76.02237701416016,1.9023259310897793,-0.7897078354690334,-126.77085204752579,-24.134783,12.916174,7.607239,15.038438,-3.7205935,-6.0931683,14.94905,10.587364,-5.458005,7.29273,-19.53118,-11.679106,7.9740915,3.4406374,10.512301,2.8903322,12.680361,-39.974255,62.16969,-4.691427,4.0469456,12.324581,-13.957921,-12.625615,31.071308,51.57395,11.311506,5.8255663,-12.124064
128,-8.077783584594727,-139.9400634765625,75.76646423339844,1.424398834542816,-0.9267093079036799,-127.7996691997739,-23.255,13.16605,8.000875,9.991863,-2.3170052,-7.348659,16.192572,10.894914,-4.6041007,7.2706456,-19.84452,-11.526923,8.511911,4.149855,10.516508,3.4752326,12.242856,-40.03121,62.41882,-4.9880333,4.029724,12.178898,-14.604214,-12.790432,31.45237,51.301224,11.032089,5.806826,-11.979031
129,-8.612062454223633,-140.9971466064453,75.49242401123047,0.8695140894910725,-1.1338830335514716,-128.87617654486058,-23.045746,13.644091,8.401138,6.7276454,-1.8428731,-8.568395,17.525223,11.249922,-3.668111,7.2421937,-20.09631,-11.340436,9.09761,4.9468627,10.580093,4.0491095,11.813999,-40.008636,62.66894,-5.4580398,3.9813306,12.093817,-15.223914,-12.954653,31.784967,50.98808,10.7948475,5.82503,-11.810821
130,-9.14850902557373,-142.05819702148438,75.21235656738281,0.27009232250715404,-1.3903101091555115,-129.9616323325134,-24.18262,14.425642,8.57575,6.5405273,-2.9748683,-9.753886,18.917347,11.610614,-2.708828,7.2124863,-20.29944,-11.1203785,9.694971,5.798026,10.678001,4.6160808,11.394971,-39.920918,62.91487,-6.059067,3.9088984,12.046429,-15.8115425,-13.119146,32.076424,50.64268,10.566616,5.8616714,-11.624962
131,-9.691370964050293,-143.12078857421875,74.9351577758789,-0.27641348075782185,-1.6609256296561834,-130.99128029328807,-25.23197,15.170254,8.645396,6.4306045,-4.071802,-10.795804,20.316717,11.868864,-1.7864486,7.1909995,-20.454172,-10.869571,10.245223,6.592398,10.79232,5.1430783,10.989042,-39.833035,63.199642,-6.664529,3.8260994,12.004268,-16.361618,-13.2798605,32.34163,50.29305,10.364165,5.8958454,-11.468091
132,-10.233747482299805,-144.19940185546875,74.67777252197266,-0.68783969368479,-1.9089291018410786,-131.90601804686813,-26.215855,15.715902,8.406559,6.453655,-5.0977635,-11.593602,21.67915,11.937806,-0.96066755,7.181019,-20.562252,-10.590629,10.696213,7.232359,10.907826,5.597413,10.60113,-39.810425,63.56044,-7.148183,3.752865,11.936087,-16.868864,-13.429906,32.59174,49.970524,10.200082,5.906701,-11.387285
133,-10.795149803161621,-145.2711639404297,74.435546875,-0.9569142031410249,-2.1603748922344614,-132.72984678624735,-27.06447,16.00504,7.7688694,6.4770303,-5.991712,-12.101472,23.02417,11.821583,-0.20553015,7.1784687,-20.627586,-10.293701,11.070534,7.6741652,11.084142,6.081383,10.4026785,-39.85393,63.79845,-7.470952,3.698702,11.839228,-17.38964,-13.507933,32.80951,49.71357,10.066322,5.8839097,-11.403422
134,-11.36186408996582,-146.33758544921875,74.21125030517578,-1.1336487796240677,-2.384958561976281,-133.46974507501088,-27.80406,16.081045,6.8624067,6.465065,-6.7434416,-12.390645,24.325104,11.578968,0.4747441,7.1768336,-20.642035,-9.973713,11.343759,8.036466,11.25907,6.467489,10.128575,-39.90004,64.184975,-7.6790667,3.6286867,11.7406225,-17.88647,-13.613321,33.071198,49.469826,10.00067,5.8475614,-11.49962
135,-11.949166297912598,-147.41856384277344,74.00609588623047,-1.2329523061950838,-2.611854505564528,-134.13027392979072,-28.348549,16.002693,5.90784,6.476106,-7.3255987,-12.577014,25.619097,11.231389,1.0657159,7.1778183,-20.572544,-9.637141,11.55488,8.306502,11.442634,6.8146195,9.886796,-40.016777,64.6198,-7.854602,3.5829594,11.608298,-18.310457,-13.70212,33.277184,49.256073,9.939996,5.798998,-11.626227
136,-12.529556274414062,-148.4942626953125,73.8157958984375,-1.2731812706594203,-2.83295026702455,-134.70657298391762,-28.620699,15.825212,5.119867,6.4811296,-7.6617556,-12.775989,26.90179,10.807672,1.5449041,7.1756544,-20.375427,-9.290281,11.7013035,8.511192,11.58969,7.1172276,9.641408,-40.239418,65.156494,-8.0661125,3.5804822,11.416737,-18.600782,-13.782368,33.41518,49.075607,9.86646,5.74358,-11.750358
137,-13.124831199645996,-149.59092712402344,73.63053894042969,-1.2588942135169854,-3.0752700417918764,-135.20312220185602,-28.5514,15.565922,4.5844584,6.4926953,-7.7370887,-13.104511,28.214973,10.315357,1.9209423,7.1706233,-20.083237,-8.948134,11.780782,8.637476,11.7332735,7.4098763,9.462214,-40.571316,65.7409,-8.314108,3.6376336,11.14898,-18.761187,-13.829909,33.4782,48.947575,9.773028,5.658201,-11.878842
138,-13.748368263244629,-150.70999145507812,73.454833984375,-1.163096268060934,-3.3300872420483376,-135.61491704169873,-28.16444,15.159563,4.196237,6.4526052,-7.5570726,-13.484888,29.547592,9.730963,2.1813767,7.1636667,-19.705492,-8.595294,11.822768,8.694962,11.8539715,7.613345,9.230892,-41.062294,66.50389,-8.591835,3.7311747,10.842266,-18.793974,-13.878114,33.46109,48.87803,9.675508,5.549092,-12.0301075
139,-14.38913631439209,-151.8218231201172,73.29145812988281,-1.0080561185181653,-3.53924831013408,-135.9442388773864,-27.631622,14.624585,3.8294427,6.432566,-7.1779246,-13.757927,30.819466,9.090852,2.3125339,7.1532083,-19.161007,-8.204321,11.814695,8.674065,11.912171,7.7591653,8.988327,-41.6312,67.365654,-8.892117,3.8500838,10.490253,-18.70799,-13.915884,33.35572,48.825397,9.555863,5.4615445,-12.164895
140,-15.047329902648926,-152.947265625,73.14910125732422,-0.7875743799745341,-3.650406151562442,-136.18316283857666,-27.06622,13.94205,3.3827314,6.411233,-6.605429,-13.753768,31.958696,8.396992,2.2882369,7.1356277,-18.372131,-7.741837,11.730222,8.561061,11.869166,7.8964353,8.752168,-42.223152,68.23108,-9.219092,3.9922936,10.101788,-18.523369,-13.942495,33.173714,48.772797,9.406121,5.440229,-12.250074
141,-15.732248306274414,-154.09027099609375,73.03555297851562,-0.46067606189030985,-3.650317319834132,-136.274044490805,-26.444744,13.037961,2.8239126,6.419524,-5.920534,-13.328098,32.851357,7.622278,2.045927,7.346947,-17.501104,-7.1982627,11.555304,8.309131,11.713411,7.9630113,8.491802,-42.896427,69.18804,-9.592804,4.160235,9.656142,-18.195498,-13.958389,32.841652,48.696133,9.184128,5.528378,-12.268316
142,-16.43136978149414,-155.2608184814453,72.93397521972656,-0.029730142361817594,-3.5559196078659854,-136.2198836042159,-25.77694,11.917506,2.1784716,6.5356865,-5.124522,-12.606001,33.50918,6.7617793,1.596434,7.8511815,-16.61964,-6.5798903,11.31138,7.93248,11.445373,7.907967,8.142326,-43.680725,70.33855,-10.007675,4.350548,9.163978,-17.721703,-13.963724,32.34783,48.619884,8.893596,5.691597,-12.236507
143,-17.09549331665039,-156.43064880371094,72.89969635009766,0.4762450618530308,-3.3740608716145526,-136.1497866599883,-25.131096,10.699114,1.5118252,6.6728706,-4.035662,-11.823546,33.79362,5.8174434,1.030646,8.891379,-15.749867,-5.889506,11.000236,7.4545755,11.095366,7.910502,7.837914,-44.403973,71.40108,-10.422424,4.5585775,8.658112,-17.204302,-13.953249,31.896948,48.560646,8.646555,5.8570385,-12.187731
144,-17.773448944091797,-157.59588623046875,72.89146423339844,1.0818459639420954,-3.0630763861321375,-136.2429213001521,-24.627796,9.485583,0.9752404,6.782479,-2.497776,-11.198921,33.25421,4.7033377,0.453676,11.266672,-15.203059,-5.117524,10.807619,6.8679175,10.610157,7.9875884,7.5620656,-45.058655,72.34625,-10.84176,4.763602,8.194001,-16.668667,-13.943921,31.53492,48.538128,8.500492,5.9541306,-12.141189
145,-18.472063064575195,-158.79017639160156,72.89376831054688,1.7610107569008753,-2.534793878369337,-136.52432565672228,-24.383804,8.295004,0.47136265,6.831262,-0.17125505,-10.729361,32.08675,3.4036388,-0.023769196,14.37923,-14.640451,-4.289706,10.745951,6.202864,9.887042,8.174005,7.293793,-45.625877,73.1527,-11.276487,4.965995,7.787836,-16.108023,-13.955821,31.302208,48.54779,8.490802,5.951442,-12.081113
146,-19.1870174407959,-160.0104522705078,72.91419982910156,2.4986678291638307,-1.8365617303044777,-136.90402618594268,-25.59034,7.088092,-0.17564844,9.564895,1.3244832,-10.293086,30.585756,1.9587557,-0.4073074,17.739256,-13.854596,-3.4071295,10.74706,5.4716287,8.979376,8.419865,7.0214195,-46.1436,73.87893,-11.727052,5.172595,7.412542,-15.492517,-13.993447,31.148766,48.569057,8.577259,5.8934193,-12.000719
147,-19.926532745361328,-161.27377319335938,72.95816040039062,3.253482343192935,-1.1608897442529205,-137.31747292408812,-26.494438,5.9262037,-0.5751455,11.818128,3.0420516,-9.955799,29.069994,0.4615273,-0.7422597,21.073828,-12.720642,-2.4435933,10.762571,4.7188416,8.098016,8.6423645,6.7514834,-46.637436,74.58163,-12.165104,5.372108,7.0544505,-14.835617,-14.048718,31.032328,48.601124,8.719139,5.823297,-11.937232
148,-20.68293571472168,-162.4876708984375,73.00314331054688,4.001257328369003,-0.6943581754060903,-137.71745767876766,-27.001745,4.878575,-0.6061172,13.892791,4.193773,-9.76985,27.755241,-1.019723,-1.0912054,24.314833,-11.214292,-1.383643,10.75609,3.9740932,7.449144,8.773972,6.5050445,-47.12228,75.30031,-12.560511,5.554098,6.6997714,-14.158485,-14.105546,30.911993,48.65078,8.87738,5.7825265,-11.929154
149,-21.44516372680664,-163.666748046875,73.05567169189453,4.754744661567666,-0.5022886041016134,-138.12021620922513,-27.083548,3.9845502,-0.16672221,15.944333,4.5826044,-9.815958,26.683022,-2.5203073,-1.4412658,27.577602,-9.331002,-0.12136278,10.734758,3.2302463,7.0768948,8.850129,6.2989473,-47.584637,76.022446,-12.908097,5.716458,6.341591,-13.455959,-14.155856,30.816658,48.722195,9.075841,5.7754965,-12.002466
150,-22.227474212646484,-164.848388671875,73.12422180175781,5.515182852310471,-0.4839841584983735,-138.5312679434093,-26.874763,3.2229052,0.58999884,17.971197,4.525964,-10.026023,25.675217,-4.0493054,-1.7640661,31.00083,-7.1477304,1.2604569,10.698013,2.4805114,6.8783593,8.904323,6.1374135,-48.015656,76.71101,-13.221101,5.8660836,5.987384,-12.729352,-14.197651,30.756016,48.821293,9.322354,5.7800493,-12.132422
151,-23.031024932861328,-166.0055694580078,73.2043685913086,6.257319695486398,-0.5714954964607933,-138.90188473122393,-26.448507,2.5451078,1.4318455,19.860344,4.1019144,-10.253925,24.58636,-5.5439744,-2.1134725,34.605473,-4.779254,2.4781632,10.605778,1.736295,6.834802,8.876468,6.0389404,-48.4357,77.35151,-13.506182,6.005992,5.644233,-12.011352,-14.216943,30.662548,48.957603,9.5517025,5.797363,-12.282688
152,-23.846654891967773,-167.12994384765625,73.3101577758789,6.961024059822458,-0.6956145889551347,-139.18477730188073,-25.869244,1.872248,2.1432855,21.462732,3.4027686,-10.369162,23.27918,-6.975259,-2.5646815,38.392967,-2.3207655,3.23088,10.442709,1.007163,6.9199114,8.683074,5.990083,-48.890335,77.97308,-13.77399,6.136145,5.3215723,-11.319517,-14.2081785,30.4418,49.135868,9.693264,5.829834,-12.414256
153,-24.646926879882812,-168.17660522460938,73.4191665649414,7.656115755944772,-0.8990014257273597,-139.31116524557524,-25.08308,1.098396,2.6674395,22.712101,2.3133206,-10.362807,21.723171,-8.448295,-3.2500849,42.504692,0.5614192,3.3362098,10.163633,0.24434525,7.1997805,8.274527,6.0031037,-49.40717,78.60634,-14.028332,6.258478,4.9948673,-10.628809,-14.155054,30.005428,49.32742,9.667079,5.883089,-12.513862
154,-25.422903060913086,-169.20191955566406,73.53507995605469,8.365066048059232,-1.1960381289576476,-139.32654736824105,-24.076876,0.23349643,3.1287463,23.662878,0.84941846,-10.305915,19.977608,-10.093534,-4.154049,46.918797,3.7838926,2.8227346,9.834274,-0.57784486,7.6521707,7.7018986,6.09445,-50.012135,79.23261,-14.278273,6.3715696,4.665916,-9.934679,-14.037375,29.368217,49.55755,9.510029,5.951788,-12.599492
155,-26.201074600219727,-170.09967041015625,73.62271118164062,9.04839855196908,-1.47602461776579,-139.35023842952052,-22.967096,-0.6266755,3.586565,24.3274,-0.6981701,-10.191888,18.063663,-11.900519,-5.139766,51.361073,6.6150627,1.7657497,9.476587,-1.394314,8.134374,7.076441,6.250377,-50.593758,79.744316,-14.498405,6.4771237,4.3838825,-9.330803,-13.878559,28.75241,49.895397,9.380803,6.0256104,-12.693425
156,-26.94972801208496,-170.98304748535156,73.71443176269531,9.655526881849754,-1.6269601971584273,-139.49783876529258,-21.876114,-1.3564444,4.0932484,24.743723,-2.0499947,-10.02139,15.992677,-13.733126,-6.013106,55.571526,8.317793,0.4020881,9.159641,-2.123876,8.50408,6.476032,6.4502826,-51.102333,80.07853,-14.685686,6.568774,4.199349,-8.874561,-13.704656,28.308641,50.396976,9.414922,6.0939817,-12.81248
157,-27.659563064575195,-171.85655212402344,73.81671905517578,10.176005230006846,-1.5882531868671326,-139.8039853392046,-20.855415,-1.9129418,4.675467,24.90001,-3.1692326,-9.786231,13.697123,-15.542813,-6.7276893,59.616764,8.571507,-1.1342561,8.899218,-2.742713,8.714425,5.89695,6.6759567,-51.524426,80.21991,-14.853882,6.6547203,4.1192884,-8.5856085,-13.536768,28.080475,51.0907,9.681849,6.14351,-12.995277
158,-28.37938117980957,-172.70875549316406,73.95206451416016,10.625747080327926,-1.4283940941752302,-140.20455570001047,-19.832539,-2.355997,5.296323,24.793964,-4.201068,-9.494673,11.200149,-17.334091,-7.3318653,63.598667,7.767391,-2.8825564,8.660166,-3.2751355,8.84514,5.2908235,6.9200797,-51.889496,80.22673,-15.000826,6.731275,4.120148,-8.416309,-13.380916,27.985521,51.923214,10.101887,6.1838055,-13.221284
159,-29.09499168395996,-173.53585815429688,74.11531066894531,10.977624470997235,-1.2267221501167003,-140.6632431880346,-18.77161,-2.6848862,5.908118,24.524673,-5.1548576,-9.181125,8.617388,-18.90302,-7.7410526,67.326584,6.2730803,-4.711185,8.419493,-3.6957562,8.945692,4.6686473,7.180784,-52.189518,80.138756,-15.092771,6.775596,4.2079496,-8.324879,-13.242269,27.998236,52.825626,10.590813,6.2396007,-13.420835
160,-29.818252563476562,-174.3653564453125,74.30328369140625,11.207551820068725,-1.0613440817731616,-141.1475980935817,-17.636793,-2.8985653,6.4694285,24.189816,-6.0387673,-8.87826,6.05912,-20.043093,-7.909409,70.60066,4.4970303,-6.4955564,8.153852,-3.9846954,9.06484,4.044918,7.460604,-52.412666,79.99049,-15.09517,6.765275,4.3886003,-8.275642,-13.125012,28.099049,53.732704,11.068183,6.337225,-13.524452
161,-30.533212661743164,-175.18218994140625,74.50408935546875,11.29490245126592,-0.9398575312287228,-141.68749907261588,-16.419733,-2.963874,7.002851,23.810404,-6.8604493,-8.560468,3.4794033,-20.535084,-7.7166166,73.38787,2.3589902,-8.233784,7.8771133,-4.1105614,9.210512,3.4258115,7.761158,-52.54811,79.75559,-14.965437,6.6877165,4.6744394,-8.289446,-13.0363455,28.318325,54.672024,11.557154,6.4981856,-13.51695
162,-31.24932098388672,-175.976318359375,74.71701049804688,11.248630487108453,-0.8217439257209954,-142.29500297760848,-15.150436,-2.876217,7.531667,23.358063,-7.6268306,-8.228265,0.8326018,-20.408724,-7.237515,75.78457,-0.23115331,-9.870568,7.601487,-4.083944,9.358896,2.801022,8.08231,-52.60316,79.43057,-14.732254,6.5536203,5.0580945,-8.370784,-12.978851,28.655756,55.65513,12.088896,6.705879,-13.434756
163,-31.9663143157959,-176.7337188720703,74.93730926513672,11.103098535620607,-0.7151254132047175,-142.91015779049658,-13.841588,-2.684745,8.01903,22.836275,-8.333069,-7.9477973,-1.7586132,-19.90141,-6.7741776,77.774925,-2.8706765,-11.269514,7.3025193,-3.9581747,9.511011,2.163196,8.428293,-52.595882,79.067085,-14.468792,6.389641,5.5197797,-8.462253,-12.946798,29.040068,56.59894,12.588167,6.9297323,-13.285427
164,-32.712791442871094,-177.4782257080078,75.1655044555664,10.890114889021293,-0.6282076507896117,-143.47073657445975,-12.505158,-2.4408925,8.42545,22.245111,-8.970287,-7.78033,-4.1706777,-19.315865,-6.6295347,79.3365,-5.1798806,-12.324407,6.9568267,-3.7878413,9.667756,1.5048509,8.806077,-52.549118,78.717064,-14.24855,6.2189965,6.0376034,-8.504899,-12.927969,29.395262,57.419594,12.978681,7.1386065,-13.075629
165,-33.46440124511719,-178.1858673095703,75.3895263671875,10.583022017779422,-0.5726634659291097,-143.95830883364698,-11.144212,-2.111879,8.723284,21.603962,-9.538918,-7.7623873,-6.354547,-18.728428,-6.95128,80.41624,-7.1090503,-12.988318,6.5464277,-3.5528665,9.834075,0.816474,9.223686,-52.48891,78.392365,-14.101553,6.0422077,6.6372685,-8.499437,-12.911818,29.705137,58.115967,13.23024,7.3375573,-12.764353
166,-34.232566833496094,-178.8912353515625,75.60975646972656,10.17873050350858,-0.5433724208474633,-144.4065630994754,-9.751897,-1.6874709,8.951183,20.90819,-10.041175,-7.8488703,-8.376617,-18.033846,-7.588153,81.03278,-8.835263,-13.341896,6.0897517,-3.2447019,10.010105,0.10898781,9.685119,-52.400608,78.0598,-13.983212,5.849597,7.319015,-8.477939,-12.896617,30.003971,58.736374,13.38305,7.5379424,-12.362145
167,-35.009910583496094,-179.58128356933594,75.8189468383789,9.75298039004855,-0.521367725541268,-144.82936980613704,-8.320919,-1.2514255,9.161156,20.110865,-10.470045,-7.9774942,-10.291555,-17.284954,-8.387319,81.271355,-10.337483,-13.485555,5.614067,-2.9313028,10.185851,-0.5964135,10.190363,-52.255417,77.70615,-13.866534,5.6476827,8.021929,-8.42874,-12.884401,30.292929,59.273067,13.465732,7.7165527,-11.951989
168,-35.80255126953125,-180.27403259277344,76.01458740234375,9.375903038760248,-0.4865098787557916,-145.24058939107448,-6.849347,-0.88896704,9.400622,19.17335,-10.81713,-8.087959,-12.156864,-16.525171,-9.189121,81.220825,-11.595503,-13.519424,5.1478996,-2.6797667,10.348497,-1.2795943,10.736584,-52.01949,77.322235,-13.720405,5.4434457,8.685549,-8.34083,-12.8822975,30.572601,59.71969,13.506225,7.850117,-11.617061
169,-36.601078033447266,-180.9548797607422,76.186767578125,9.063721367257468,-0.4298818073454473,-145.6494457551548,-5.333359,-0.6158225,9.680529,18.07334,-11.068934,-8.175927,-13.997951,-15.764115,-9.973816,80.88324,-12.560164,-13.436241,4.704018,-2.509736,10.492756,-1.9403727,11.323705,-51.67277,76.91863,-13.527638,5.2298646,9.318631,-8.205021,-12.893088,30.861092,60.0668,13.498902,7.926184,-11.372133
170,-37.38750076293945,-181.62806701660156,76.33560943603516,8.779580421905967,-0.36240448195930286,-146.0451103749319,-3.7742846,-0.391248,9.973441,16.832296,-11.231259,-8.269151,-15.787313,-14.999311,-10.817717,80.21294,-13.258001,-13.202911,4.2626905,-2.382837,10.623642,-2.5867429,11.952756,-51.2325,76.49563,-13.303089,5.007082,9.944547,-8.028931,-12.917064,31.154554,60.31943,13.434724,7.9587827,-11.174898
171,-38.17923355102539,-182.29051208496094,76.46572875976562,8.513780262241875,-0.29249723528300375,-146.41033532868238,-2.176007,-0.21457842,10.264554,15.471798,-11.322776,-8.357117,-17.501326,-14.246025,-11.700444,79.23156,-13.78412,-12.880673,3.8066716,-2.2755952,10.744531,-3.2170615,12.6200695,-50.737236,76.032295,-13.080551,4.7923226,10.5251665,-7.8191166,-12.958342,31.416786,60.48149,13.337888,7.965536,-11.022198
172,-38.98467254638672,-182.95335388183594,76.57341003417969,8.256262133375337,-0.22857841942068632,-146.72807908262405,-0.54128426,-0.08430786,10.539245,14.011484,-11.36213,-8.429184,-19.114285,-13.514223,-12.600505,77.9613,-14.233007,-12.5293255,3.3214607,-2.1627002,10.860737,-3.8313518,13.318023,-50.22306,75.51019,-12.88958,4.6012034,11.022162,-7.575248,-13.022568,31.60648,60.54815,13.230706,7.9647064,-10.91017
173,-39.7888069152832,-183.62838745117188,76.66046905517578,7.998451658984194,-0.16945552927801014,-146.9932451879634,1.1436234,0.0021380764,10.80057,12.41821,-11.348817,-8.478375,-20.62191,-12.788231,-13.514834,76.38423,-14.612595,-12.141513,2.8066046,-2.0326436,10.968204,-4.4275465,14.039802,-49.680748,74.925995,-12.738281,4.436532,11.429715,-7.290775,-13.116367,31.724379,60.507515,13.102916,7.9586477,-10.847343
174,-40.58882522583008,-184.31427001953125,76.71685028076172,7.745360356103363,-0.10978155713377384,-147.21249177347107,2.8782845,0.045477066,11.04958,10.683688,-11.269228,-8.511399,-22.038094,-12.076964,-14.445972,74.49205,-14.883296,-11.700833,2.2700882,-1.8950385,11.065524,-5.0125017,14.782178,-49.103367,74.2987,-12.615672,4.288639,11.76665,-6.9587407,-13.242196,31.78344,60.354137,12.946649,7.939653,-10.831464
175,-41.39933776855469,-185.00486755371094,76.74725341796875,7.508609127868183,-0.05177749255760629,-147.38715437296662,4.644718,0.04209425,11.269018,8.852231,-11.114631,-8.537333,-23.359943,-11.420119,-15.382183,72.32238,-15.065431,-11.250188,1.711514,-1.7604828,11.162698,-5.59841,15.54215,-48.521183,73.64448,-12.512032,4.154118,12.0321665,-6.583425,-13.399188,31.76354,60.099106,12.791616,7.910555,-10.843036
176,-42.209598541259766,-185.6940155029297,76.75204467773438,7.3007204326897845,0.0021743537076499096,-147.51876915985,6.2698255,0.02133174,11.440851,7.305218,-11.058987,-8.565766,-24.58256,-10.851183,-16.314913,69.91228,-15.177451,-10.831318,1.1334511,-1.6410546,11.26888,-6.1979675,16.316513,-47.969234,72.98115,-12.420429,4.0295515,12.225807,-6.168606,-13.584828,31.642256,59.754944,12.666528,7.8741217,-10.862405
177,-43.007598876953125,-186.38136291503906,76.72867584228516,7.121138333730588,0.06198807299928404,-147.60400370753476,7.211975,0.09112672,11.54764,7.1813936,-11.6978655,-8.599903,-25.724403,-10.3590975,-17.22217,67.25621,-15.222821,-10.438613,0.5291801,-1.5325286,11.377348,-6.811279,17.102163,-47.435066,72.2968,-12.359185,3.9153168,12.310792,-5.7170362,-13.800967,31.406898,59.312035,12.56952,7.826705,-10.891379
178,-43.81736373901367,-187.0736541748047,76.67899322509766,6.968850721617305,0.12620117387285415,-147.64293356412006,8.132513,0.11894914,11.602787,7.05891,-12.296672,-8.63079,-26.775555,-9.933036,-18.107466,64.337746,-15.193734,-10.057896,-0.09725812,-1.4350023,11.486354,-7.434779,17.897034,-46.906055,71.592766,-12.322185,3.8118358,12.300108,-5.220054,-14.047942,31.068228,58.762894,12.488358,7.7687335,-10.93745
179,-44.628604888916016,-187.76649475097656,76.60319519042969,6.858506145735053,0.17423476087904669,-147.64532791438253,9.05979,0.10266938,11.630981,6.9487753,-12.856936,-8.65609,-27.689974,-9.597724,-18.998655,61.179462,-15.088999,-9.707302,-0.72580945,-1.371464,11.6118555,-8.080149,18.700571,-46.432182,70.9097,-12.282296,3.7166913,12.268062,-4.668366,-14.318126,30.640404,58.13057,12.433376,7.708163,-10.990135
180,-45.469482421875,-188.464599609375,76.49482727050781,6.772357233082363,0.18020445708596747,-147.61993422174388,10.020947,0.07588275,11.6540575,6.875332,-13.384441,-8.675992,-28.433178,-9.349645,-19.948223,57.835342,-14.920472,-9.403571,-1.336797,-1.3343723,11.774027,-8.759401,19.511913,-46.059143,70.2915,-12.2051115,3.6246395,12.288657,-4.0560493,-14.598031,30.136744,57.444675,12.414566,7.652157,-11.039242
181,-46.313961029052734,-189.1495819091797,76.36009216308594,6.761687015215281,0.12010441687174925,-147.5912969660796,11.03385,-0.017069293,11.700333,6.873382,-13.8975115,-8.682182,-28.967237,-9.221121,-20.918604,54.265316,-14.680696,-9.164442,-1.9081085,-1.3815223,11.996558,-9.489437,20.333311,-45.82938,69.75505,-12.08236,3.5340438,12.37992,-3.3888521,-14.878523,29.547512,56.7059,12.426534,7.6093965,-11.064369
182,-47.166534423828125,-189.82186889648438,76.20803833007812,6.805811897354062,0.017447240671217095,-147.54505437031557,12.090217,-0.16314869,11.745564,6.886461,-14.367047,-8.679564,-29.311394,-9.165397,-21.919466,50.435688,-14.35241,-8.968745,-2.4570367,-1.488403,12.253067,-10.25896,21.163273,-45.708496,69.27502,-11.928781,3.4476633,12.503686,-2.6705582,-15.156796,28.870611,55.913795,12.46533,7.5726304,-11.076866
183,-48.04247283935547,-190.50474548339844,76.04476165771484,6.879453212978953,-0.09040560634582258,-147.45764410094569,13.153792,-0.3277198,11.7607355,6.896566,-14.7894535,-8.680144,-29.507183,-9.130341,-22.98359,46.373627,-13.922603,-8.763225,-3.0026553,-1.6264325,12.497217,-11.043231,21.995245,-45.639496,68.83717,-11.761147,3.369558,12.64964,-1.897946,-15.426075,28.135124,55.101955,12.541601,7.5246224,-11.115301
184,-48.934444427490234,-191.17942810058594,75.8582534790039,6.968453484854126,-0.16966079861209687,-147.30849646514253,14.182452,-0.48451924,11.720138,6.9054675,-15.171226,-8.695928,-29.596416,-9.082699,-24.12815,42.103104,-13.377474,-8.499686,-3.5626538,-1.7769545,12.685561,-11.813245,22.819424,-45.552254,68.42994,-11.585961,3.303765,12.807891,-1.0708326,-15.674971,27.371593,54.307503,12.667093,7.447772,-11.21889
185,-49.84280014038086,-191.85604858398438,75.65502166748047,7.073408598593325,-0.21782762154372318,-147.0871438381824,15.175448,-0.6342953,11.619778,6.913407,-15.526414,-8.728913,-29.54065,-9.02625,-25.396755,37.47533,-12.634879,-8.163082,-4.15222,-1.9372704,12.80271,-12.57238,23.632463,-45.467323,68.078835,-11.397872,3.244807,12.982247,-0.18492694,-15.896482,26.579847,53.525738,12.877591,7.3157673,-11.42575
186,-50.788795471191406,-192.5187225341797,75.42949676513672,7.202727887589995,-0.25481882929646876,-146.80148293385878,16.153984,-0.7871521,11.466288,6.9200025,-15.846253,-8.77459,-29.318247,-8.963086,-26.76947,32.480976,-11.706136,-7.77854,-4.7669683,-2.1179595,12.871238,-13.337858,24.434011,-45.414562,67.79266,-11.203375,3.1916263,13.176422,0.7515191,-16.086767,25.752712,52.754536,13.155879,7.1434984,-11.706164
187,-51.762264251708984,-193.18040466308594,75.19670104980469,7.358241255290203,-0.2835993285531202,-146.45341234763902,17.116842,-0.93650556,11.245702,6.923583,-16.105328,-8.8328705,-28.98871,-8.875017,-28.16734,27.338602,-10.711081,-7.365442,-5.40127,-2.326947,12.904453,-14.085289,25.216007,-45.302868,67.532265,-10.993971,3.1564193,13.379788,1.7098,-16.239414,24.91244,52.04662,13.434438,6.9743133,-11.998893
188,-52.7484016418457,-193.826904296875,74.94918060302734,7.5472455624420745,-0.31084707404210093,-146.03971537365464,18.063028,-1.0820829,10.937862,6.923589,-16.27801,-8.900641,-28.60964,-8.760921,-29.51358,22.273144,-9.771396,-6.9446907,-6.060373,-2.577398,12.916212,-14.793545,25.96891,-45.049755,67.268005,-10.77633,3.150206,13.581502,2.653777,-16.345535,24.090048,51.460487,13.650162,6.852865,-12.244854
189,-53.7554931640625,-194.47616577148438,74.68443298339844,7.799464169362467,-0.3496815767097157,-145.51661842553364,18.999832,-1.2546865,10.497424,6.9194655,-16.377897,-8.9757805,-28.119106,-8.621497,-30.9138,17.069466,-8.886496,-6.4930396,-6.7857027,-2.904768,12.902367,-15.469942,26.688555,-44.642403,67.04075,-10.534022,3.1764922,13.776879,3.5825582,-16.396038,23.29482,51.01624,13.782841,6.7866325,-12.437425
190,-54.776771545410156,-195.12147521972656,74.40910339355469,8.15182843648765,-0.42976097665453294,-144.84969998170394,19.951834,-1.4922034,9.884637,6.9097753,-16.408117,-9.04736,-27.466167,-8.532697,-32.384796,11.643852,-7.972531,-6.004989,-7.6164904,-3.3470378,12.868514,-16.122282,27.376358,-44.121735,66.86654,-10.269159,3.2288263,13.969476,4.506792,-16.386362,22.518236,50.691364,13.86983,6.753721,-12.607694
191,-55.818241119384766,-195.74610900878906,74.12440490722656,8.577424955314731,-0.5542968373903354,-144.0925417444427,20.923405,-1.7621039,9.140245,6.8966804,-16.332968,-9.109958,-27.153307,-8.81788,-33.651855,7.4495454,-7.5697994,-5.524843,-8.51013,-3.8763404,12.82978,-16.729986,28.03013,-43.480762,66.67807,-10.014236,3.3030372,14.162398,5.4061728,-16.3183,21.757668,50.481068,13.92668,6.754725,-12.753579
192,-56.87896728515625,-196.35769653320312,73.85186767578125,8.978005671125485,-0.6769162500378583,-143.36986615373343,21.888054,-1.9623047,8.39606,6.876601,-16.118149,-9.17653,-28.183592,-10.035948,-34.327747,7.1556506,-8.852296,-5.0940647,-9.353218,-4.381744,12.785227,-17.271038,28.64361,-42.70553,66.40382,-9.803841,3.3945086,14.362817,6.2508526,-16.198944,21.013447,50.383877,13.97133,6.789248,-12.872069
193,-57.94867706298828,-196.95701599121094,73.60353088378906,9.319545353280379,-0.7558354595580892,-142.71145645627158,22.808817,-2.0588512,7.706667,6.8539762,-15.7945795,-9.270044,-29.080137,-11.015118,-34.527325,6.8207316,-9.723905,-4.7529936,-10.099562,-4.8263903,12.726451,-17.753946,29.207335,-41.730553,66.03835,-9.616548,3.5269036,14.565465,7.0401073,-16.029852,20.25995,50.389297,13.964264,6.8753037,-12.948492
194,-59.04231262207031,-197.55496215820312,73.38310241699219,9.587962524783364,-0.7715733337669772,-142.1244354002482,23.67793,-2.043166,7.0908766,6.8285313,-15.377224,-9.400997,-29.96229,-11.76912,-34.362816,6.617564,-10.394812,-4.4851885,-10.741843,-5.18908,12.6365385,-18.194778,29.716013,-40.592243,65.627205,-9.461275,3.6928508,14.772915,7.7752776,-15.812843,19.508757,50.507225,13.911779,7.0066075,-12.987825
195,-60.1555290222168,-198.1529998779297,73.19341278076172,9.763633306602372,-0.7515973222045357,-141.64248516168405,24.5301,-1.9155841,6.5600553,6.799113,-14.80287,-9.542248,-30.727995,-12.304404,-34.019062,6.621663,-10.9081335,-4.3071065,-11.274022,-5.4448757,12.528239,-18.550137,30.165007,-39.354416,65.15466,-9.333153,3.8447897,15.000735,8.447593,-15.559901,18.806845,50.753387,13.899965,7.1475415,-13.016659
196,-61.283390045166016,-198.75921630859375,73.0316390991211,9.86121072213237,-0.7305123652023512,-141.28094995450138,25.40313,-1.7077774,6.1002,6.761129,-14.002483,-9.66552,-31.160025,-12.607003,-33.69813,6.635594,-11.15611,-4.230563,-11.708481,-5.6019983,12.411185,-18.789846,30.55456,-38.11181,64.611084,-9.257228,3.9335446,15.264657,9.0541315,-15.291063,18.200459,51.13525,14.01829,7.2630777,-13.062364
197,-62.41105270385742,-199.3777313232422,72.89193725585938,9.889726214493942,-0.7613214919753969,-141.03668986280513,26.364065,-1.42975,5.709409,6.7205577,-13.009023,-9.758293,-31.098713,-12.681189,-33.352364,6.660075,-11.19726,-4.1068473,-12.052872,-5.671502,12.344424,-18.900158,30.879776,-36.83255,63.96986,-9.260216,3.9335852,15.583079,9.601134,-15.019959,17.680485,51.653313,14.315977,7.3282156,-13.155106
198,-63.582183837890625,-200.00331115722656,72.77459716796875,9.8472820838188,-0.815688789751165,-140.89707482155382,27.380571,-1.0825397,5.39364,6.672201,-11.835689,-9.844838,-30.640818,-12.545061,-32.91853,6.690882,-11.009917,-3.985763,-12.304241,-5.6511173,12.312287,-18.906921,31.13781,-35.496662,63.247746,-9.33425,3.8741333,15.943065,10.100253,-14.750525,17.224195,52.28519,14.739998,7.368279,-13.271487
199,-64.79045104980469,-200.63076782226562,72.67626190185547,9.681297222001595,-0.7793967879978476,-140.90685456664525,28.325687,-0.6330051,5.2084155,6.616761,-10.408869,-9.96807,-30.090117,-12.197306,-32.546936,6.818624,-10.539648,-4.1934896,-12.410854,-5.474406,12.209711,-18.81412,31.328676,-34.163765,62.475197,-9.40018,3.7886305,16.315037,10.547413,-14.489423,16.85222,53.010017,15.224282,7.4231544,-13.358302
200,-66.01587677001953,-201.2003631591797,72.65080261230469,9.362396594496303,-0.5412848998547365,-141.09974216149942,29.079832,-0.069186926,5.1876435,6.5507994,-8.657222,-10.168615,-29.734917,-11.60839,-32.39513,7.070998,-9.710983,-5.050854,-12.332135,-5.095865,11.924552,-18.624027,31.453691,-32.898006,61.677498,-9.383209,3.7135007,16.670183,10.943786,-14.241223,16.584148,53.80331,15.701021,7.534681,-13.362536
201,-67.294189453125,-201.80783081054688,72.65483093261719,8.883653824254472,-0.044108223417727105,-141.46449063520288,29.582428,0.61459494,5.316195,6.4809146,-6.590664,-10.4681425,-29.565344,-10.726025,-32.69069,7.2699847,-8.209491,-6.905023,-12.073338,-4.4977007,11.371938,-18.308855,31.509521,-31.685673,60.831116,-9.281933,3.6598396,16.985022,11.309588,-14.006917,16.424131,54.675217,16.174162,7.73759,-13.271833
202,-68.60952758789062,-202.4345703125,72.67948913574219,8.304706669193997,0.61126930767268,-141.95536317386853,29.882486,1.3713105,5.523203,6.5101557,-4.291673,-10.840766,-30.148542,-10.139414,-33.203407,9.256032,-7.133557,-9.496888,-11.684549,-3.7606306,10.632871,-17.87599,31.495321,-30.512068,59.930992,-9.132273,3.6085079,17.278889,11.650432,-13.786891,16.36138,55.6258,16.671892,8.00422,-13.115717
203,-69.93238067626953,-203.04763793945312,72.72370910644531,7.717039662107823,1.2644928438532919,-142.38281485339837,28.817785,2.2750456,5.5408773,9.276287,-3.0790143,-11.2302885,-31.485962,-10.185285,-33.732243,13.313308,-7.0463414,-12.205328,-11.360653,-3.0074644,9.841911,-17.388735,31.424448,-29.456005,59.03689,-8.92366,3.5513077,17.580214,11.963268,-13.58413,16.392866,56.604187,17.166676,8.284782,-12.903965
204,-71.26345825195312,-203.64694213867188,72.75770568847656,7.142792637750027,1.8113452135879,-142.65079979995656,27.205112,3.2502193,5.2551312,13.134381,-2.0170465,-11.603439,-32.44224,-10.196155,-34.189022,16.705381,-6.9134827,-14.431245,-11.200286,-2.2793818,9.124172,-16.895512,31.310488,-28.564995,58.18694,-8.622109,3.4821506,17.920168,12.230069,-13.4024515,16.510738,57.566982,17.629007,8.527828,-12.643032
205,-72.60032653808594,-204.26959228515625,72.79753875732422,6.626604305404279,2.227336744515094,-142.7136131347702,25.39006,4.2092156,4.6106224,17.386332,-0.6920483,-11.973728,-33.116825,-10.344693,-34.303856,19.7683,-6.865412,-15.000033,-11.241709,-1.6057321,8.492182,-16.41214,31.170454,-27.918465,57.375854,-8.239702,3.3994715,18.337864,12.450021,-13.248752,16.713877,58.52338,18.077751,8.728539,-12.304927
206,-73.93165588378906,-204.86436462402344,72.87212371826172,6.118724809241842,2.6042069712782783,-142.7574345303848,23.470747,5.1249948,3.80184,21.748749,0.98407805,-12.3766,-33.638897,-10.357879,-34.14241,22.492743,-6.7004104,-15.000033,-11.305078,-0.93885183,7.877852,-15.912342,30.998348,-27.46334,56.585236,-7.783911,3.3085482,18.808552,12.612143,-13.109958,17.01163,59.506886,18.519684,8.910003,-11.89912
207,-75.248046875,-205.43263244628906,72.96075439453125,5.601503709334108,2.9070007544532617,-142.9129804642362,21.531803,5.9465847,2.972698,26.110022,3.008861,-12.741827,-33.915848,-10.096947,-33.87572,24.731827,-6.5066195,-15.000033,-11.266862,-0.29071817,7.3781033,-15.378551,30.817461,-27.088957,55.77173,-7.2762127,3.2167113,19.266632,12.714145,-13.003371,17.374529,60.444344,18.901815,9.069687,-11.465538
208,-76.53837585449219,-205.99691772460938,73.0669174194336,5.085528387482311,3.065619299000185,-143.22128505916925,19.679409,6.6281853,2.1937106,30.335443,5.4079003,-12.96604,-33.848606,-9.645579,-33.688946,26.563251,-6.505959,-15.000033,-11.131562,0.31061837,7.073926,-14.824911,30.55923,-26.643692,55.009144,-6.6928673,3.1202357,19.662243,12.677115,-12.906817,17.83082,61.380405,19.181322,9.18788,-11.076471
209,-77.82891845703125,-206.55572509765625,73.17655944824219,4.5449913196464955,3.024101829700051,-143.7273719667284,17.866707,7.288797,1.6522262,34.644154,8.502954,-12.876723,-33.352596,-9.008609,-33.666172,28.031898,-6.8166895,-15.000033,-10.847506,0.8892909,7.059513,-14.2498665,30.249693,-26.11383,54.240875,-6.0183854,3.023532,19.985056,12.521624,-12.85275,18.373468,62.278816,19.34855,9.258769,-10.703133
210,-79.09650421142578,-207.09619140625,73.2920150756836,3.972452001225909,2.8380576454859168,-144.39984623584738,16.014818,7.990381,1.2966652,39.085785,12.17003,-12.496952,-32.53175,-8.1800995,-33.70789,29.192657,-7.3673344,-15.000033,-10.449017,1.475189,7.2507944,-13.62128,29.882196,-25.510464,53.451767,-5.223166,2.9247608,20.263735,12.258827,-12.839712,19.018358,63.154858,19.433453,9.289214,-10.327118
211,-80.31404876708984,-207.59422302246094,73.40554809570312,3.415216020770847,2.5979886037089077,-145.15486584782687,14.182305,8.5508995,0.8220263,43.303116,15.73009,-12.078239,-31.545366,-7.2441254,-33.713593,30.106382,-8.082623,-15.000033,-9.997984,2.0403492,7.5133777,-13.012289,29.476034,-24.960445,52.72335,-4.478388,2.8180642,20.492552,11.929022,-12.859444,19.708952,63.94589,19.431461,9.30184,-9.986935
212,-81.49563598632812,-208.07156372070312,73.50714874267578,2.9346579193696485,2.392840936582364,-145.90958611611342,12.42681,8.663128,-0.12384409,46.99699,18.460146,-12.009473,-30.552507,-6.2893195,-33.577442,30.823704,-8.879945,-15.000033,-9.546301,2.5254667,7.7176394,-12.451585,29.056442,-24.551746,52.098015,-3.91132,2.6989543,20.662207,11.574534,-12.894294,20.378283,64.58682,19.332394,9.31911,-9.720819
213,-82.6628189086914,-208.53831481933594,73.60099792480469,2.567518500885647,2.2375642198395953,-146.66709404902028,10.771837,7.989931,-1.8114316,50.18026,20.264925,-12.602814,-29.599379,-5.3436766,-33.235836,31.382113,-9.822582,-15.000033,-9.084468,2.8822198,7.847955,-11.934536,28.641102,-24.306026,51.56381,-3.5891442,2.5621736,20.770367,11.177914,-12.93128,21.04795,65.095215,19.101639,9.340723,-9.535944
214,-83.8255615234375,-208.9995880126953,73.72482299804688,2.29706164620569,2.082739983407522,-147.46903050339566,9.227511,6.6414313,-3.9830425,53.056442,21.424572,-13.711681,-28.597607,-4.381014,-32.736797,31.760525,-10.931575,-15.000033,-8.583634,3.1184783,7.9726853,-11.434106,28.233894,-24.174225,51.088383,-3.4322197,2.4114075,20.81973,10.723391,-12.963285,21.74147,65.50063,18.751625,9.355499,-9.414393
215,-85.00193786621094,-209.44760131835938,73.87090301513672,2.0745261086829063,1.9216294272666692,-148.2750803814323,7.7746987,5.021652,-6.2206817,55.707577,21.735773,-15.000033,-27.508265,-3.3959672,-32.179337,31.923294,-12.05237,-15.000033,-8.081486,3.2843175,8.094614,-10.959885,27.842466,-24.159513,50.698685,-3.36621,2.2550468,20.808903,10.245487,-12.985403,22.389025,65.768654,18.34219,9.364028,-9.356766
216,-86.1610107421875,-209.8849334716797,74.03348541259766,1.8542290936174681,1.7517786019456982,-149.0395108526836,6.2869887,3.9467025,-7.616297,58.190014,21.075417,-15.000033,-26.30498,-2.3994176,-31.656027,31.85181,-13.035454,-15.000033,-7.614421,3.4352086,8.211844,-10.516862,27.470398,-24.260038,50.41533,-3.304679,2.1026285,20.736282,9.780151,-12.992347,22.912987,65.85957,17.933502,9.368194,-9.363179
217,-87.30719757080078,-210.29959106445312,74.19869995117188,1.5912908198293565,1.5819625206465862,-149.7527135702078,4.7798543,3.0869362,-8.872848,60.525253,18.970762,-15.000033,-24.941742,-1.3169849,-31.211859,31.434643,-13.832228,-15.000033,-7.1870832,3.5943923,8.309181,-10.122845,27.125546,-24.52334,50.273563,-3.279959,1.9360754,20.595423,9.322976,-12.981719,23.305386,65.76282,17.515326,9.393157,-9.450128
218,-88.4566650390625,-210.7008056640625,74.37954711914062,1.3924542353288707,1.4142574693540366,-150.432497786008,3.2598317,2.2578647,-10.016745,62.663185,15.680304,-15.000033,-23.497803,-0.28239578,-30.738209,30.84115,-14.580577,-15.000033,-6.781822,3.6552105,8.381926,-9.767789,26.809837,-24.939339,50.25157,-3.3208387,1.7575957,20.388044,8.856968,-12.951449,23.595968,65.500175,17.06322,9.430917,-9.612662
219,-89.61842346191406,-211.08389282226562,74.57650756835938,1.1980272808821746,1.2400175578365216,-151.07886175980192,1.6732559,1.6073123,-10.994033,64.63754,12.0711355,-15.000033,-21.943247,0.7658807,-30.263634,30.012953,-15.208068,-15.000033,-6.4029536,3.6911528,8.466052,-9.425772,26.513874,-25.427275,50.295002,-3.342411,1.6062435,20.125854,8.392583,-12.903944,23.762642,65.08799,16.614613,9.4315,-9.819792
220,-90.77083587646484,-211.45252990722656,74.78630828857422,1.0084594042870119,1.0549190255427123,-151.68684251462835,-0.032084044,1.2544372,-11.70221,66.43082,9.042595,-15.000033,-20.306711,1.8014783,-29.781425,29.006853,-15.693582,-15.000033,-6.0594764,3.7218387,8.58499,-9.078285,26.22369,-25.911413,50.357563,-3.2641585,1.5190178,19.821838,7.943475,-12.844827,23.786934,64.53882,16.209354,9.345536,-10.041318
221,-91.90866088867188,-211.8046112060547,75.00666046142578,0.8293103634734136,0.8578282170870264,-152.2241181687275,-1.9037083,1.2904768,-12.073003,68.02092,6.805879,-15.000033,-18.576612,2.8148491,-29.310608,27.791527,-16.016266,-15.000033,-5.778047,3.7455487,8.74728,-8.731244,25.930782,-26.381983,50.443718,-3.013049,1.5109247,19.457045,7.526535,-12.777684,23.616627,63.81611,15.850917,9.137009,-10.29005
222,-93.03604125976562,-212.1551513671875,75.2322769165039,0.6548391257744466,0.6552272822346535,-152.70119908547636,-3.9111602,1.6440659,-12.207535,69.3955,4.902524,-15.000033,-16.741076,3.8335428,-28.844908,26.329792,-16.179453,-15.000033,-5.5467696,3.7621274,8.93543,-8.402738,25.634909,-26.883682,50.588398,-2.651655,1.5573775,19.03307,7.134538,-12.7070875,23.275309,62.923332,15.520143,8.841389,-10.576758
223,-94.16217803955078,-212.5019073486328,75.43900299072266,0.48550168319040155,0.452771876834538,-153.1779369089946,-5.980822,2.1780872,-12.237025,70.53844,3.2188952,-15.000033,-14.837487,4.862647,-28.332556,24.691513,-16.218065,-15.000033,-5.318508,3.7768826,9.134362,-8.068124,25.329992,-27.392485,50.76717,-2.274466,1.638315,18.592667,6.744732,-12.639817,22.861177,61.933044,15.223107,8.512263,-10.865385
224,-95.26213073730469,-212.8528289794922,75.63540649414062,0.33004950160412894,0.25649059689452963,-153.7146443723621,-8.038206,2.748113,-12.274993,71.43364,1.6440914,-15.000033,-12.907603,5.8910227,-27.719019,22.961935,-16.17285,-15.000033,-5.051561,3.789136,9.328329,-7.699823,25.009619,-27.880285,50.95621,-1.9785663,1.734946,18.179264,6.330015,-12.585358,22.479,60.918934,14.967701,8.203466,-11.119896
225,-96.36100006103516,-213.21151733398438,75.82379150390625,0.32871206116132967,0.05618336055544435,-154.3191786770005,-10.103384,3.3791528,-11.997879,72.02505,0.22633831,-14.517638,-11.080761,6.679391,-26.945528,21.491385,-16.204548,-15.000033,-4.744584,3.6671019,9.518811,-7.279489,24.667055,-28.31929,51.141212,-1.7537152,1.8633795,17.785166,5.890534,-12.550299,22.128857,59.86745,14.789085,7.9159727,-11.328269
226,-97.45792388916016,-213.58090209960938,76.0011978149414,0.38650828806442517,-0.14502179250170832,-154.96407406002683,-12.229728,4.358271,-11.168833,72.35302,-1.0582975,-12.784595,-9.255268,7.368951,-26.075174,20.034403,-16.196127,-15.000033,-4.419283,3.515074,9.716011,-6.822437,24.301401,-28.72506,51.33904,-1.5574373,2.0267203,17.39362,5.4402,-12.537077,21.770782,58.74448,14.674606,7.626236,-11.508855
227,-98.55264282226562,-213.95985412597656,76.16802215576172,0.48551589418961216,-0.34240877356976085,-155.65392746905982,-14.290545,5.3696594,-10.247019,72.39154,-2.2798045,-10.939132,-7.4278235,7.9826083,-25.125097,18.583313,-16.166979,-15.000033,-4.071694,3.3395915,9.912494,-6.3484488,23.916489,-29.130875,51.567898,-1.435393,2.1879764,17.035479,4.968524,-12.546651,21.451014,57.59373,14.563945,7.3517747,-11.671768
228,-99.62744903564453,-214.3310089111328,76.30896759033203,0.6166984771697989,-0.5320688626060482,-156.39135678850445,-16.221653,6.3268647,-9.334876,72.10661,-3.465923,-9.17497,-5.6037126,8.522769,-24.109316,17.155525,-16.148191,-15.000033,-3.702089,3.1461577,10.101361,-5.867386,23.518354,-29.559477,51.83707,-1.4266827,2.3113115,16.741533,4.4634676,-12.577169,21.219063,56.460114,14.397411,7.110028,-11.827697
229,-100.72208404541016,-214.70761108398438,76.43002319335938,0.7887688695058177,-0.7161905076801809,-157.1815013942992,-18.020395,7.246402,-8.385592,71.48717,-4.623433,-7.483237,-3.7762163,8.98542,-23.018927,15.750062,-16.154083,-15.000033,-3.3118622,2.9244447,10.285266,-5.372736,23.11228,-30.021593,52.150448,-1.5886501,2.383912,16.541164,3.922297,-12.626082,21.0974,55.34223,14.178286,6.8964734,-11.98536
230,-101.81935119628906,-215.08889770507812,76.53092956542969,1.0023225197556582,-0.8943717718671387,-158.02005860766315,-19.70173,8.143797,-7.3499813,70.55071,-5.7442856,-5.8007865,-1.9541779,9.36334,-21.859491,14.383005,-16.18025,-15.000033,-2.90383,2.6748219,10.468618,-4.8547096,22.699202,-30.498976,52.495163,-1.8840817,2.4274871,16.410564,3.3497546,-12.691524,21.060564,54.22163,13.932859,6.70508,-12.137218
231,-102.91130828857422,-215.4564666748047,76.61135864257812,1.2335128455703532,-1.0582599216405093,-158.8945794373662,-21.245527,8.941926,-6.329379,69.30571,-6.801107,-4.2250543,-0.15824729,9.66328,-20.667662,13.076847,-16.221687,-15.000033,-2.4821477,2.4211617,10.646297,-4.3249454,22.279602,-30.978611,52.860893,-2.2188408,2.4577434,16.301256,2.7440436,-12.771364,21.085915,53.119038,13.635028,6.550922,-12.270056
232,-103.99710083007812,-215.82586669921875,76.67638397216797,1.4575634082132198,-1.200026246025678,-159.79125454586625,-22.643885,9.5747795,-5.4292426,67.75788,-7.750164,-2.8386457,1.5906205,9.884427,-19.49181,11.8607855,-16.273024,-14.917281,-2.0520096,2.1887686,10.811273,-3.7990484,21.853785,-31.45138,53.24024,-2.502103,2.4903584,16.164404,2.1022537,-12.864761,21.149883,52.057262,13.257439,6.4486303,-12.370797
233,-105.0980453491211,-216.19558715820312,76.72016906738281,1.6741195546908612,-1.3216969449919374,-160.71385053800688,-23.920504,10.037343,-4.66867,65.91036,-8.573594,-1.5767814,3.3052769,10.026989,-18.346174,10.709415,-16.314562,-14.726693,-1.6111363,1.9755281,10.968953,-3.2813315,21.421383,-31.914751,53.634697,-2.7216854,2.5249321,15.990858,1.4088595,-12.972132,21.261354,51.041027,12.771759,6.417631,-12.430247
234,-106.18604278564453,-216.57362365722656,76.73831176757812,1.8902297129517116,-1.4281587902511568,-161.6611606502652,-25.07948,10.37023,-3.9940524,63.760456,-9.279969,-0.4104802,4.9904175,10.110823,-17.207243,9.614468,-16.356325,-14.566416,-1.1654078,1.7733018,11.12267,-2.7642546,20.982113,-32.375404,54.04782,-2.9237552,2.554524,15.805183,0.67010796,-13.093125,21.430237,50.060173,12.199768,6.4443917,-12.456339
235,-107.281005859375,-216.9536590576172,76.73477172851562,2.097969172112695,-1.5183638998775904,-162.61072280248482,-26.087236,10.580764,-3.3993263,61.295727,-9.848022,0.5410162,6.6101913,10.130052,-16.097633,8.653044,-16.450123,-14.395593,-0.73109,1.5931225,11.262039,-2.2446926,20.535524,-32.83436,54.473465,-3.0996172,2.5858462,15.608957,-0.08204813,-13.223835,21.631392,49.110836,11.588816,6.493993,-12.461363
236,-108.37272644042969,-217.33639526367188,76.70660400390625,2.2799818317709373,-1.5837241565846822,-163.5547490029696,-26.920439,10.6983385,-2.8787563,58.504875,-10.254292,1.1534097,8.155301,10.1079235,-15.015391,7.818489,-16.602825,-14.178269,-0.3079308,1.4536711,11.367667,-1.7209655,20.081821,-33.294777,54.90768,-3.2404342,2.6252637,15.403585,-0.8165919,-13.359291,21.837423,48.192223,10.98595,6.5314536,-12.458857
237,-109.48648071289062,-217.71397399902344,76.65866088867188,2.4563427175502994,-1.6166704865878845,-164.49835943822484,-27.579607,10.71338,-2.4434729,55.333652,-10.459837,1.4213893,9.537427,10.003395,-13.958981,7.274502,-16.909203,-13.871367,0.10886063,1.3325609,11.430318,-1.1955866,19.620838,-33.75868,55.349648,-3.342324,2.6736553,15.191156,-1.5377387,-13.497558,22.046812,47.309326,10.3736,6.5394564,-12.448263
238,-110.61669921875,-218.0909423828125,76.57842254638672,2.6338510498608945,-1.614498464203102,-165.4592844843283,-28.085764,10.641501,-2.0793862,51.79469,-10.466173,1.4210705,10.551703,9.771726,-12.956576,7.449103,-17.58609,-13.503473,0.5349942,1.2195208,11.450425,-0.67127544,19.152987,-34.227154,55.80426,-3.4112854,2.7277634,14.9702015,-2.2594914,-13.638278,22.271532,46.464256,9.736502,6.5382953,-12.424273
239,-111.7608642578125,-218.47682189941406,76.48509979248047,2.7671206582492553,-1.5955883953103773,-166.42225273334526,-28.423546,10.543342,-1.7666674,47.946285,-10.303878,1.1562132,11.56405,9.559259,-11.986266,7.608187,-18.231966,-13.143991,0.96035165,1.1596918,11.439827,-0.14680019,18.67949,-34.703213,56.274303,-3.4555066,2.7878232,14.736634,-2.9638982,-13.778012,22.500656,45.650127,9.120634,6.550225,-12.393961
240,-112.91271209716797,-218.8670196533203,76.36500549316406,2.8269485213857926,-1.573248270736127,-167.38264649407282,-28.587914,10.47558,-1.4702525,43.850723,-10.006643,0.6322499,12.590827,9.403876,-11.0732975,7.7590833,-18.83241,-12.86061,1.3862303,1.1813381,11.403603,0.37859637,18.202303,-35.19092,56.763264,-3.4831793,2.8543496,14.486716,-3.6349773,-13.912534,22.721766,44.862556,8.571627,6.5974264,-12.364096
