unveil-humanoid-operators/unveil-humanoid-operators.github.io/feature-analysis-animation/data/feature_matrix_instances/weight_ankle_rom_walking_A093_walk_ff_stop_225_002__A093.csv
Frame,root_translateX,root_translateY,root_translateZ,root_rotateX,root_rotateY,root_rotateZ,left_hip_pitch_joint_dof,left_hip_roll_joint_dof,left_hip_yaw_joint_dof,left_knee_joint_dof,left_ankle_pitch_joint_dof,left_ankle_roll_joint_dof,right_hip_pitch_joint_dof,right_hip_roll_joint_dof,right_hip_yaw_joint_dof,right_knee_joint_dof,right_ankle_pitch_joint_dof,right_ankle_roll_joint_dof,waist_yaw_joint_dof,waist_roll_joint_dof,waist_pitch_joint_dof,left_shoulder_pitch_joint_dof,left_shoulder_roll_joint_dof,left_shoulder_yaw_joint_dof,left_elbow_joint_dof,left_wrist_roll_joint_dof,left_wrist_pitch_joint_dof,left_wrist_yaw_joint_dof,right_shoulder_pitch_joint_dof,right_shoulder_roll_joint_dof,right_shoulder_yaw_joint_dof,right_elbow_joint_dof,right_wrist_roll_joint_dof,right_wrist_pitch_joint_dof,right_wrist_yaw_joint_dof
0,0.2860957086086273,-1.782541036605835,75.60749816894531,3.883544232108414,2.394232073780187,81.97689838815828,1.351551,-3.2497487,-21.111254,23.354881,-27.278887,-0.5885119,-32.567226,-16.705202,9.42423,23.091934,-10.190983,-3.050273,-10.364207,-1.0264109,0.7782081,-13.357329,15.1677,-30.759663,23.453392,-1.3593827,4.9423375,-8.7412195,12.855106,-16.904295,12.601747,70.73124,1.7943925,12.028427,0.9107112
1,0.8788161873817444,-1.329375147819519,75.49842834472656,3.628949662861527,2.522844090487539,82.09171444641552,1.6282514,-2.4553986,-21.20206,23.470968,-27.680717,-0.8971166,-32.607334,-16.430721,8.624049,24.03049,-9.751811,-2.3751383,-10.405751,-0.7121285,0.690813,-13.345055,15.1804495,-30.771318,23.058178,-1.2478807,4.9495907,-8.844523,13.233787,-16.865358,12.47697,70.87144,1.7000932,12.242036,1.1371678
2,1.4713623523712158,-0.869493305683136,75.39018249511719,3.3652975715632567,2.649254085640076,82.20976015672053,1.9337014,-1.6359173,-21.29324,23.521584,-28.090597,-1.2231504,-32.64231,-16.149395,7.7911134,24.965244,-9.305858,-1.6463187,-10.409825,-0.42229715,0.5999284,-13.386796,15.198724,-30.841686,22.692192,-1.1406263,4.9595284,-8.942901,13.626469,-16.754192,12.290207,71.05291,1.5762821,12.458808,1.3483288
3,2.062086343765259,-0.4401296377182007,75.29205322265625,3.110417455427943,2.788283913241046,82.31046218525354,2.176193,-0.8424819,-21.366285,23.67765,-28.4703,-1.5217928,-32.743713,-15.823514,7.0322285,25.97867,-8.923947,-1.0011882,-10.392985,-0.15780464,0.4969268,-13.429401,15.216568,-30.918182,22.380533,-1.0372076,4.9660926,-9.033854,13.9711075,-16.611973,12.14104,71.24054,1.4681535,12.654599,1.5439761
4,2.6413486003875732,-0.015594147145748138,75.2046890258789,2.8827679519942877,2.9536957772620314,82.37349348538709,2.268721,-0.12556502,-21.40693,24.104486,-28.779577,-1.7470483,-32.978752,-15.415961,6.44938,27.141165,-8.670106,-0.56810075,-10.338152,0.0684846,0.37865806,-13.445777,15.236232,-30.990192,22.15757,-0.94835347,4.9632745,-9.1100645,14.228146,-16.45799,12.079514,71.38601,1.4010156,12.803768,1.7223952
5,3.2379400730133057,0.4075007140636444,75.12671661376953,2.712632173684236,3.1762454163490275,82.4092226933568,2.1638143,0.4691806,-21.412888,24.828695,-29.01263,-1.8916364,-33.461807,-14.927641,6.1196933,28.572802,-8.581119,-0.43283495,-10.247779,0.23259261,0.21205175,-13.44324,15.260496,-31.06417,22.027037,-0.8753958,4.9489737,-9.181403,14.397601,-16.298557,12.11843,71.475174,1.4009019,12.891556,1.8892527
6,3.8322691917419434,0.8280882835388184,75.05952453613281,2.584424569681443,3.43768073718534,82.42514410056836,1.9196578,0.97935236,-21.398138,25.765848,-29.188549,-1.9761815,-34.110897,-14.367967,5.957421,30.170961,-8.594719,-0.48871496,-10.13479,0.35385126,0.013807159,-13.420765,15.29037,-31.13559,21.95739,-0.8133756,4.926674,-9.248821,14.502414,-16.136635,12.232235,71.52283,1.4485087,12.935733,2.0478015
7,4.434640884399414,1.2324291467666626,75.00090789794922,2.4360311657516815,3.678523356137572,82.39551775571269,1.6103218,1.4788481,-21.373526,26.91295,-29.304583,-1.9971308,-34.713104,-13.717724,5.8262477,31.694672,-8.634073,-0.58876604,-9.996874,0.4799626,-0.14831327,-13.345929,15.326558,-31.181509,21.940392,-0.765498,4.898477,-9.291343,14.529474,-15.977111,12.418897,71.53748,1.5057467,12.958295,2.1886504
8,5.035310745239258,1.6318527460098267,74.95587921142578,2.2079785171285393,3.839687403979577,82.2944088452443,1.3139633,2.0441232,-21.347961,28.25956,-29.353764,-1.9543382,-35.05867,-12.969074,5.5979447,32.90656,-8.637599,-0.6090559,-9.833453,0.6642756,-0.2065161,-13.182828,15.368311,-31.175112,21.964424,-0.7341051,4.866442,-9.288418,14.469212,-15.829873,12.676117,71.52269,1.5331631,12.981234,2.304636
9,5.642574310302734,2.0368313789367676,74.93025207519531,1.8670642921347027,3.8909614858664523,82.09725000878808,1.091818,2.720141,-21.313595,29.782143,-29.3608,-1.8595543,-35.08478,-12.098908,5.2617884,33.76871,-8.603672,-0.60053796,-9.640611,0.93011004,-0.12337737,-12.899203,15.419156,-31.08381,22.018719,-0.71214134,4.824176,-9.220817,14.302579,-15.686767,13.018572,71.487434,1.5032412,13.016825,2.3884478
10,6.253147125244141,2.4326539039611816,74.92208099365234,1.4503935681579792,3.8669508619912345,81.82475567009229,0.9066527,3.459352,-21.264818,31.467226,-29.30862,-1.7176296,-34.906345,-11.126042,4.887223,34.401516,-8.562168,-0.6215277,-9.422017,1.2571657,0.059426866,-12.518908,15.475263,-30.925598,22.10619,-0.7015587,4.7724137,-9.10409,14.049638,-15.559176,13.44007,71.414696,1.4421235,13.052046,2.4514592
11,6.8769001960754395,2.8445076942443848,74.9371109008789,1.0010292407032704,3.8062812569284197,81.51835806426607,0.68775433,4.198672,-21.213951,33.31853,-29.121655,-1.5191287,-34.58505,-10.121107,4.4767504,34.81897,-8.510119,-0.56976205,-9.199116,1.6065667,0.28407297,-12.082271,15.546174,-30.743292,22.236954,-0.7136674,4.726127,-8.972103,13.717757,-15.437591,13.935064,71.321594,1.398361,13.068355,2.49593
12,7.500754356384277,3.2523603439331055,74.96452331542969,0.5667265898899283,3.749288486058198,81.21868881540672,0.3566079,4.8762956,-21.176788,35.34586,-28.730442,-1.250956,-34.1847,-9.151564,4.0310946,35.042156,-8.448779,-0.3401749,-8.978986,1.9442813,0.49576488,-11.637504,15.633751,-30.59443,22.422304,-0.76347095,4.6998034,-8.855978,13.336644,-15.328185,14.475037,71.199745,1.4136982,13.048248,2.5309968
13,8.126141548156738,3.6556129455566406,75.00395202636719,0.14880008284986576,3.6930942949228047,80.91333244565293,-0.08646042,5.4996576,-21.126446,37.566887,-28.103588,-0.8952861,-33.67108,-8.224526,3.538634,35.014404,-8.355238,0.1836099,-8.753563,2.265486,0.6972237,-11.175334,15.742152,-30.476955,22.654171,-0.8751815,4.7054677,-8.755154,12.90066,-15.228412,15.074452,71.052376,1.496907,12.980204,2.5613987
14,8.734225273132324,4.055386543273926,75.05284881591797,-0.27204627726287056,3.620778811019334,80.58843160849574,-0.6079795,6.0920095,-21.062664,39.96719,-27.27869,-0.46671727,-33.0201,-7.3117323,3.0121968,34.750774,-8.233028,0.91260386,-8.520369,2.5847864,0.9117316,-10.674685,15.872587,-30.367434,22.924675,-1.0356958,4.732697,-8.655353,12.403449,-15.134959,15.738345,70.87672,1.6253031,12.876073,2.5831099
15,9.344372749328613,4.459954261779785,75.1132583618164,-0.6786067888372909,3.5525227614967534,80.28270371532714,-1.2406533,6.6166987,-21.042356,42.510475,-26.286808,0.0025444,-32.310944,-6.4299707,2.4845796,34.375813,-8.124517,1.6475427,-8.300094,2.8916893,1.1146253,-10.1654825,16.024307,-30.287563,23.2498,-1.2033318,4.7619925,-8.5687,11.861666,-15.046289,16.433582,70.667915,1.7969646,12.75294,2.5887501
16,9.952037811279297,4.853273391723633,75.17627716064453,-1.0561831352651296,3.5090740734508525,80.03404079383476,-2.0203183,7.0342355,-21.124357,45.1708,-25.16417,0.48024738,-31.626167,-5.595129,1.9835439,34.008278,-8.078309,2.1901557,-8.109611,3.1766107,1.2820623,-9.682757,16.19359,-30.264412,23.650934,-1.336876,4.774049,-8.506535,11.293125,-14.960274,17.124249,70.42005,2.0106928,12.627463,2.571089
17,10.555530548095703,5.249941825866699,75.25341033935547,-1.3995735573097992,3.5058974410974986,79.85404264195837,-2.990297,7.327546,-21.320337,47.993526,-23.837872,0.9549276,-30.988867,-4.8116317,1.5128669,33.659023,-8.119064,2.4840832,-7.950085,3.4342976,1.3930411,-9.243134,16.378632,-30.32571,24.142931,-1.439522,4.7688813,-8.469503,10.69905,-14.875073,17.813757,70.1334,2.2866259,12.501312,2.513655
18,11.143006324768066,5.64229679107666,75.34374237060547,-1.714596879975241,3.529050671408433,79.72109478588897,-4.122772,7.511529,-21.595776,50.97917,-22.315006,1.4411035,-30.352304,-4.07092,1.0580009,33.267113,-8.218801,2.6393526,-7.808745,3.666526,1.4654177,-8.832916,16.578238,-30.456806,24.719849,-1.5285687,4.755286,-8.451437,10.07201,-14.78949,18.512165,69.808365,2.6183553,12.36718,2.4251049
19,11.728240013122559,6.034431457519531,75.4436264038086,-2.006527917180005,3.5554377788350506,79.62361042028736,-5.349972,7.59371,-21.942228,54.047707,-20.758913,1.9484987,-29.700325,-3.3685994,0.6157843,32.845078,-8.353823,2.705866,-7.6813354,3.8748283,1.5335627,-8.442511,16.787422,-30.620092,25.374613,-1.5824598,4.7263913,-8.454434,9.41374,-14.704987,19.18877,69.44743,2.9607184,12.223015,2.3349304
20,12.300331115722656,6.4251275062561035,75.55191802978516,-2.2839166283353634,3.5620041065729375,79.55003874985903,-6.605675,7.584806,-22.351923,57.12514,-19.336683,2.4917376,-29.021605,-2.698915,0.18320197,32.4113,-8.501954,2.732114,-7.5625577,4.061878,1.6304072,-8.061872,16.9984,-30.778187,26.100523,-1.5774139,4.676918,-8.480122,8.729883,-14.626832,19.812603,69.045975,3.2688174,12.072868,2.2721546
21,12.863471984863281,6.8075270652771,75.66346740722656,-2.5432815334140484,3.549555956626377,79.51783594715769,-7.9412794,7.448637,-22.86323,60.326023,-18.024614,3.1900609,-28.315392,-2.0756638,-0.25236747,31.965242,-8.669342,2.7159598,-7.4661503,4.2285056,1.7582309,-7.698137,17.205053,-30.936022,26.914404,-1.5080456,4.591771,-8.547177,8.021724,-14.560391,20.380527,68.591125,3.5368414,11.9137,2.2510629
22,13.415692329406738,7.184657573699951,75.76969909667969,-2.782301412449128,3.528323632565846,79.52621155401647,-9.370143,7.1885066,-23.458002,63.654205,-16.756725,4.0041986,-27.590668,-1.4945556,-0.6868272,31.500772,-8.865596,2.6349366,-7.388053,4.375412,1.900998,-7.3575315,17.405361,-31.109219,27.820965,-1.3842903,4.4782066,-8.648345,7.28959,-14.507648,20.905918,68.085335,3.7870913,11.746191,2.2546186
23,13.947239875793457,7.574924945831299,75.87659454345703,-3.0091354441723612,3.4892721267925664,79.53693865505097,-10.770248,6.8803735,-24.05495,66.87441,-15.64695,4.715371,-26.846546,-0.92385644,-1.0972869,31.017735,-9.0677595,2.5066314,-7.297794,4.507328,2.0637152,-7.0290337,17.598257,-31.27559,28.796503,-1.2084329,4.3627253,-8.74667,6.5373507,-14.468006,21.384441,67.54989,4.018141,11.577995,2.2647066
24,14.472625732421875,7.953146934509277,75.97753143310547,-3.2326197049314946,3.4236101642351833,79.51166520088303,-12.024038,6.6011763,-24.586344,69.76427,-14.817321,5.1033015,-26.08237,-0.33244076,-1.4602863,30.518707,-9.253955,2.3492959,-7.1660624,4.630063,2.2508717,-6.6996427,17.783531,-31.411621,29.814894,-0.98234326,4.2720776,-8.805535,5.7687154,-14.438542,21.813227,67.00548,4.228406,11.416929,2.2632203
25,14.987442016601562,8.323629379272461,76.0712890625,-3.461915094088616,3.323397283499499,79.4480847631628,-13.091452,6.3796268,-25.065897,72.29355,-14.331124,5.059039,-25.292902,0.28901958,-1.781181,30.008823,-9.431471,2.1564121,-6.9907155,4.7493324,2.469618,-6.370459,17.961845,-31.525604,30.881374,-0.68101865,4.213981,-8.812733,4.9840555,-14.417591,22.177658,66.44401,4.4038587,11.268458,2.2570188
26,15.498921394348145,8.699247360229492,76.16087341308594,-3.690251922378897,3.195531932485103,79.36455869987466,-14.044786,6.175527,-25.530998,74.59618,-14.128984,4.7215314,-24.48177,0.924246,-2.069028,29.485584,-9.606967,1.9204506,-6.785417,4.8618503,2.713928,-6.045707,18.133423,-31.625751,32.00557,-0.3117803,4.1744213,-8.788456,4.1808677,-14.405925,22.482967,65.86174,4.548658,11.12673,2.251036
27,16.00703239440918,9.073504447937012,76.25019073486328,-3.9078392134119784,3.0532390864666072,79.25455064118995,-14.935714,5.965299,-25.953016,76.69252,-14.149791,4.238429,-23.659472,1.5655087,-2.3061123,28.93828,-9.756544,1.6594996,-6.5458074,4.960852,2.9695282,-5.7158804,18.297417,-31.68613,33.16687,0.075289086,4.147478,-8.745361,3.3565605,-14.402969,22.762457,65.283615,4.6938047,10.983185,2.2247427
28,16.503070831298828,9.43954849243164,76.33968353271484,-4.1017877622144505,2.90937409907778,79.11120275694832,-15.813267,5.7244697,-26.299181,78.59351,-14.327383,3.7554932,-22.834377,2.2034097,-2.4746625,28.356625,-9.85727,1.3928269,-6.2696366,5.0385523,3.2221901,-5.369492,18.452932,-31.67834,34.343647,0.43094742,4.127328,-8.696535,2.5062544,-14.408592,23.05122,64.73659,4.8700275,10.829571,2.1572423
29,16.99675178527832,9.812904357910156,76.43457794189453,-4.270114024188615,2.764695090907157,78.92308988810555,-16.671452,5.4783373,-26.531761,80.281136,-14.745555,3.2320514,-22.00638,2.8421373,-2.5615878,27.737568,-9.893866,1.1232634,-5.9487023,5.0936275,3.4694338,-5.0003996,18.598808,-31.599035,35.533737,0.7784195,4.11707,-8.648932,1.6187042,-14.424346,23.370268,64.22588,5.102528,10.663512,2.0399704
30,17.47818946838379,10.184430122375488,76.52749633789062,-4.420464331443626,2.6132817656710725,78.69691271189158,-17.495213,5.239986,-26.671732,81.7557,-15.401348,2.6209698,-21.169626,3.4829626,-2.5797253,27.0883,-9.882512,0.84204435,-5.5891504,5.1324177,3.7186947,-4.6125703,18.73482,-31.458525,36.744904,1.1324555,4.11858,-8.595411,0.6987942,-14.450031,23.699907,63.73676,5.3700323,10.48903,1.8854868
31,17.950687408447266,10.545780181884766,76.61949157714844,-4.553535014154899,2.4577399886573223,78.45316169394229,-18.312366,4.953258,-26.782421,83.050674,-16.10669,2.04262,-20.321257,4.1109843,-2.5520065,26.412766,-9.847726,0.5513454,-5.208761,5.1573443,3.9711273,-4.211312,18.861816,-31.250753,37.9722,1.4307382,4.12366,-8.526884,-0.23565683,-14.482079,24.012964,63.269207,5.633431,10.306987,1.704169
32,18.41469955444336,10.910429000854492,76.713134765625,-4.668188185860726,2.300581447703303,78.21209104423882,-19.145548,4.5562987,-26.929743,84.19458,-16.670341,1.6142203,-19.458836,4.712217,-2.501303,25.713556,-9.812759,0.25308913,-4.8258057,5.169532,4.2282376,-3.800296,18.98139,-30.968414,39.20916,1.6120886,4.1241317,-8.434191,-1.1693534,-14.515468,24.284197,62.827,5.8549047,10.118074,1.5057203
33,18.874216079711914,11.273386001586914,76.80689239501953,-4.756020914950684,2.144218955621845,77.97292909590927,-19.991531,3.9756868,-27.15833,85.19247,-17.03292,1.3776288,-18.589458,5.275094,-2.425021,25.001759,-9.786422,-0.056195606,-4.439987,5.157755,4.4895563,-3.3801138,19.093391,-30.605293,40.4654,1.6578599,4.1150665,-8.316506,-2.1086435,-14.547626,24.514523,62.423283,6.0334635,9.906217,1.271947
34,19.33085823059082,11.639242172241211,76.89991760253906,-4.82084653787007,1.986471532283236,77.72604218059638,-20.836903,3.2617054,-27.423927,86.024055,-17.292336,1.2626921,-17.711939,5.8099866,-2.3150864,24.276176,-9.757378,-0.3760795,-4.0424113,5.1252437,4.7550526,-2.9472523,19.19719,-30.167452,41.739292,1.6011975,4.1015935,-8.178362,-3.0608447,-14.578089,24.71561,62.05643,6.186602,9.675956,1.00387
35,19.78060531616211,12.008491516113281,76.99137115478516,-4.882781889918582,1.8226014576340401,77.47933648556062,-21.687466,2.533537,-27.664505,86.68167,-17.50409,1.2142867,-16.811361,6.3358684,-2.1860545,23.521206,-9.718151,-0.69900155,-3.638859,5.0941515,5.0260167,-2.499895,19.294548,-29.666594,43.0091,1.4575198,4.0902796,-8.018751,-4.011663,-14.605829,24.87591,61.709206,6.29949,9.460031,0.73927283
36,20.225635528564453,12.374246597290039,77.07777404785156,-4.960965326794432,1.6484049791411999,77.24120698242456,-22.553991,1.9129771,-27.814037,87.153946,-17.717264,1.1874518,-15.870544,6.8695006,-2.0498273,22.71403,-9.661318,-1.0171748,-3.2351081,5.0837574,5.3029613,-2.037713,19.389263,-29.11658,44.25275,1.2403483,4.0878716,-7.8363104,-4.9484286,-14.6301155,24.985231,61.365475,6.3602886,9.291274,0.5157829
37,20.66742515563965,12.743416786193848,77.15853118896484,-5.065022262544892,1.4541652572613075,77.01901618505774,-23.442812,1.4397212,-27.852043,87.43928,-17.954645,1.1903751,-14.866413,7.420043,-1.9129212,21.832375,-9.579153,-1.3304076,-2.835449,5.102328,5.595773,-1.5558885,19.482807,-28.515274,45.47467,0.91730356,4.0864663,-7.617135,-5.8653994,-14.649137,25.024233,61.02189,6.3467526,9.185055,0.3351361
38,21.099319458007812,13.115018844604492,77.22938537597656,-5.182396572864771,1.2450338916481516,76.80653650488675,-24.347565,1.047451,-27.813679,87.53982,-18.185095,1.2430944,-13.812801,7.9755106,-1.7654295,20.8917,-9.476944,-1.6424936,-2.4351192,5.136486,5.9002557,-1.0543898,19.574787,-27.858555,46.680046,0.49184382,4.084559,-7.366753,-6.771543,-14.662841,25.00389,60.688904,6.2720156,9.122045,0.17962952
39,21.53460121154785,13.485987663269043,77.2959976196289,-5.297969368835267,1.0392248167501925,76.59232232247511,-25.261347,0.69791734,-27.718994,87.45582,-18.375051,1.3142363,-12.753171,8.521692,-1.5962064,19.934725,-9.366474,-1.9518338,-2.0279167,5.1745315,6.195651,-0.5378449,19.667118,-27.153795,47.84693,0.0319347,4.0990157,-7.1127753,-7.6745677,-14.674413,24.958437,60.36952,6.175049,9.082933,0.05762995
40,21.96033477783203,13.856916427612305,77.35725402832031,-5.397938642713548,0.8548157965934602,76.36479352044483,-26.1777,0.35345402,-27.588375,87.18987,-18.492495,1.3723996,-11.733145,9.044807,-1.3961248,19.0091,-9.261895,-2.2564847,-1.6078513,5.2058954,6.463166,-0.008625365,19.762522,-26.406662,48.948963,-0.39435533,4.147665,-6.882945,-8.57625,-14.68671,24.919569,60.05791,6.0933456,9.048624,-0.021608392
41,22.384994506835938,14.22435188293457,77.40859985351562,-5.481186291655564,0.6962803649154508,76.12308663603874,-27.112299,0.02892647,-27.40126,86.73804,-18.51977,1.428938,-10.75542,9.542927,-1.1657143,18.11094,-9.16145,-2.5566669,-1.1739465,5.2280335,6.7001667,0.53731835,19.860893,-25.599712,49.980804,-0.7805794,4.2504954,-6.675937,-9.478706,-14.7018585,24.88516,59.756454,6.0341806,9.020666,-0.04725533
42,22.800140380859375,14.595584869384766,77.45440673828125,-5.5542869490422815,0.5539329300836687,75.87224295695773,-28.058424,-0.26371306,-27.152185,86.09803,-18.47679,1.491585,-9.79758,10.022393,-0.90955436,17.22016,-9.059549,-2.85301,-0.7300152,5.246437,6.9175014,1.1025687,19.960754,-24.734219,50.951405,-1.1600267,4.393335,-6.480123,-10.375912,-14.718556,24.841152,59.459698,5.9772573,9.007433,-0.026219882
43,23.209152221679688,14.963665962219238,77.49195098876953,-5.614919055524474,0.4251096511868647,75.60883926684129,-28.975563,-0.56363136,-26.885979,85.27109,-18.39133,1.5248567,-8.871534,10.480818,-0.62613684,16.367876,-8.969328,-3.1423693,-0.2781891,5.259444,7.115569,1.6850284,20.06427,-23.842861,51.857876,-1.5229242,4.5436864,-6.3073044,-11.273374,-14.739518,24.811312,59.16785,5.92655,8.998527,0.022846492
44,23.610328674316406,15.337574005126953,77.52348327636719,-5.6608991648594555,0.30723703720060414,75.33022762815216,-29.827572,-0.9106896,-26.650352,84.2648,-18.2874,1.4939443,-7.987123,10.916674,-0.31412128,15.580174,-8.900593,-3.4226344,0.17944157,5.2672434,7.296229,2.2838233,20.175827,-22.958801,52.693726,-1.8604933,4.669344,-6.1699834,-12.169713,-14.767487,24.8155,58.87209,5.8829236,8.984335,0.08201311
45,24.005767822265625,15.712698936462402,77.5464859008789,-5.688939313001394,0.20045169222191547,75.03228795136121,-30.598656,-1.343602,-26.4832,83.063995,-18.17048,1.3592865,-7.1599364,11.327095,0.030291367,14.885491,-8.858523,-3.7003734,0.6469591,5.26711,7.4612794,2.901907,20.297401,-22.071814,53.456844,-2.173145,4.7613053,-6.06977,-13.068067,-14.805241,24.864363,58.56998,5.859492,8.964251,0.15392137
46,24.398544311523438,16.085113525390625,77.56122589111328,-5.702115454423048,0.10604419113424987,74.71774038176814,-31.30907,-1.8282454,-26.354958,81.66788,-18.028406,1.150386,-6.3752117,11.714581,0.40411827,14.251653,-8.834463,-3.9754183,1.1239367,5.260151,7.6112423,3.5434783,20.427673,-21.169289,54.145382,-2.4646895,4.837906,-6.0017323,-13.964622,-14.853001,24.94482,58.25985,5.8519034,8.94301,0.24641675
47,24.78342628479004,16.461410522460938,77.5719985961914,-5.708355826737524,0.02309715109510545,74.39342693197932,-31.976492,-2.294432,-26.21355,80.10277,-17.856386,0.93594587,-5.617319,12.08635,0.79500484,13.653667,-8.827243,-4.235376,1.6027997,5.253547,7.74543,4.204914,20.56753,-20.285217,54.757042,-2.7341368,4.9073267,-5.968149,-14.847942,-14.908373,25.039982,57.935246,5.834437,8.918515,0.34903196
48,25.163532257080078,16.84027862548828,77.57719421386719,-5.713955525486153,-0.0493189571460981,74.06615236693536,-32.61712,-2.6756103,-26.003218,78.39484,-17.650206,0.7827359,-4.8611336,12.4475155,1.1936849,13.048873,-8.833412,-4.4671645,2.077784,5.2525396,7.862623,4.880531,20.719927,-19.455421,55.290565,-2.9802406,4.9779234,-5.9706984,-15.708562,-14.968377,25.132956,57.592793,5.7837834,8.88876,0.4510992
49,25.544034957885742,17.217557907104492,77.57351684570312,-5.719155875112483,-0.11249448567859507,73.73731879097858,-33.228413,-2.9615147,-25.716913,76.527374,-17.410408,0.68241704,-4.0954,12.797637,1.5999076,12.417558,-8.847336,-4.659365,2.549882,5.257782,7.961513,5.5672045,20.889729,-18.682127,55.74454,-3.1949632,5.054594,-6.0260983,-16.543211,-15.031531,25.217049,57.232357,5.674116,8.847758,0.5602003
50,25.92327880859375,17.60301971435547,77.56614685058594,-5.719689669318661,-0.16547107248334733,73.40290970077639,-33.79925,-3.186854,-25.380024,74.49119,-17.139313,0.6054461,-3.333726,13.132685,2.018614,11.783599,-8.872516,-4.820913,3.0228086,5.263517,8.043103,6.2683563,21.078987,-17.950758,56.12042,-3.382947,5.1325293,-6.128053,-17.359915,-15.098793,25.302143,56.85841,5.5263205,8.797942,0.6782864
51,26.298343658447266,17.98603057861328,77.55001068115234,-5.716119277773353,-0.20602877995431423,73.06200319045944,-34.332317,-3.355417,-24.984438,72.323296,-16.834946,0.58413297,-2.5864487,13.453217,2.4490023,11.163907,-8.916407,-4.9689436,3.4957955,5.2670217,8.109825,6.9871416,21.28486,-17.26967,56.42132,-3.5599403,5.2051964,-6.24362,-18.153366,-15.168085,25.384634,56.463158,5.373926,8.750037,0.78647685
52,26.672983169555664,18.37244415283203,77.52555847167969,-5.709654633175342,-0.23198149337402316,72.71367536459059,-34.83074,-3.4706788,-24.52232,70.06121,-16.496433,0.65054035,-1.8782092,13.760947,2.8862906,10.60435,-8.996492,-5.120745,3.9683013,5.2668104,8.162765,7.7211504,21.502453,-16.650908,56.65768,-3.743757,5.265585,-6.3387446,-18.924458,-15.2376795,25.46481,56.046524,5.254517,8.714237,0.86550444
53,27.04450798034668,18.764999389648438,77.49957275390625,-5.699816399359064,-0.24270039720346928,72.34903563482526,-35.302002,-3.511386,-23.971159,67.70009,-16.130762,0.837836,-1.2117668,14.057222,3.3414068,10.1056795,-9.115199,-5.284304,4.447563,5.2635627,8.20202,8.467497,21.729671,-16.094948,56.82651,-3.9442484,5.312943,-6.407531,-19.676508,-15.306893,25.544582,55.607494,5.1723833,8.698625,0.8986411
54,27.413406372070312,19.152494430541992,77.46687316894531,-5.68619609907658,-0.2394679833262154,71.97158467919593,-35.735874,-3.487269,-23.339104,65.22292,-15.738524,1.1153668,-0.57960474,14.341284,3.8111742,9.656918,-9.268171,-5.448726,4.930362,5.2582703,8.226325,9.22423,21.967548,-15.596072,56.93091,-4.1494374,5.350072,-6.4660063,-20.412455,-15.37682,25.62633,55.152336,5.1099143,8.69575,0.89955956
55,27.786251068115234,19.542810440063477,77.42829132080078,-5.6720453790320935,-0.2230299988302891,71.59900950545068,-36.113167,-3.4455595,-22.667162,62.652367,-15.310021,1.42229,0.030635858,14.61283,4.2742786,9.238975,-9.442251,-5.6048436,5.403277,5.252184,8.234777,9.987337,22.214445,-15.159138,56.989147,-4.3440886,5.375022,-6.513143,-21.119617,-15.444807,25.701303,54.679443,5.0673203,8.69436,0.8950858
56,28.1555118560791,19.940797805786133,77.38614654541016,-5.660964669450839,-0.1941200236911191,71.24894164183472,-36.419556,-3.4299257,-21.999638,60.009766,-14.832744,1.7024167,0.6302214,14.872779,4.7092814,8.833456,-9.623898,-5.7447796,5.8526006,5.2468524,8.225797,10.752051,22.467634,-14.7889,57.021454,-4.5118923,5.385565,-6.547358,-21.792934,-15.507973,25.766258,54.195984,5.0501847,8.682082,0.91163725
57,28.5275821685791,20.338743209838867,77.33636474609375,-5.6481938549656965,-0.1419156104246684,70.91804363952798,-36.66701,-3.4591663,-21.37107,57.271667,-14.272371,1.9749745,1.2006495,15.1143265,5.110356,8.449766,-9.817425,-5.8595667,6.278513,5.238953,8.189498,11.517975,22.72704,-14.497334,57.02789,-4.651545,5.3752465,-6.556854,-22.432877,-15.563977,25.820105,53.703617,5.0721,8.654338,0.9459009
58,28.90011978149414,20.748306274414062,77.2778091430664,-5.634889037078632,-0.06992380067089826,70.59938303752979,-36.85923,-3.502856,-20.753922,54.430477,-13.644695,2.2626824,1.7443508,15.342107,5.488761,8.087515,-10.024234,-5.9582877,6.6859202,5.229515,8.129261,12.28497,22.994396,-14.2777,57.00258,-4.7700562,5.346688,-6.545352,-23.04535,-15.613359,25.865973,53.20425,5.124107,8.61787,0.9868849
59,29.271339416503906,21.15685272216797,77.20909118652344,-5.631976657571088,-0.0007103483426138881,70.30487541713659,-36.97145,-3.5309339,-20.100903,51.531765,-13.004277,2.51607,2.2998252,15.572629,5.848461,7.7234044,-10.231532,-6.059997,7.0695043,5.2266383,8.06474,13.047612,23.268969,-14.107392,56.95681,-4.8648167,5.3119006,-6.5352263,-23.629684,-15.656344,25.906515,52.70058,5.1821933,8.578433,1.0489374
60,29.65007781982422,21.560773849487305,77.13236999511719,-5.650706885532468,0.042846210362183404,70.04605505437964,-36.975758,-3.515484,-19.365366,48.61569,-12.4059105,2.6834629,2.9083047,15.822129,6.1951404,7.330513,-10.424944,-6.1829686,7.4224577,5.2397895,8.015037,13.801494,23.548447,-13.962001,56.90288,-4.9328074,5.282565,-6.548612,-24.180933,-15.69282,25.93935,52.192917,5.2113066,8.542056,1.1465195
61,30.026573181152344,21.9748592376709,77.04597473144531,-5.691400290787483,0.05411698763048315,69.83049793327876,-36.85481,-3.458821,-18.557486,45.648476,-11.850103,2.7474287,3.4357812,16.10817,6.491411,7.20022,-10.764104,-6.3088818,7.7390203,5.269512,7.986876,14.54548,23.834648,-13.837178,56.83714,-4.959549,5.2617435,-6.5983067,-24.699682,-15.721957,25.955881,51.680428,5.2173424,8.5091,1.2978731
62,30.41178321838379,22.399959564208984,76.95148468017578,-5.749651438203376,0.04410622690660957,69.64884303924708,-36.61956,-3.3742027,-17.697123,42.606792,-11.302502,2.7360342,3.9400349,16.417824,6.756527,7.1843424,-11.168709,-6.436504,8.0245075,5.3134165,7.970757,15.28252,24.129232,-13.743739,56.754482,-4.9515743,5.243161,-6.67028,-25.185959,-15.742776,25.95787,51.161964,5.209526,8.476792,1.4904997
63,30.804306030273438,22.82805824279785,76.84368133544922,-5.829001098684559,0.01640577614771314,69.4876667364991,-36.288948,-3.254575,-16.751377,39.556942,-10.768889,2.6659882,4.4722567,16.747793,7.006529,7.169122,-11.566706,-6.60765,8.2883215,5.3756485,7.960246,16.01756,24.427698,-13.676354,56.663067,-4.9338317,5.2246294,-6.745519,-25.651506,-15.758361,25.97505,50.65156,5.177846,8.445862,1.6917702
64,31.20049476623535,23.266700744628906,76.72843933105469,-5.933210439941654,-0.025306744273102328,69.33439533616855,-35.885464,-3.0921164,-15.687866,36.572876,-10.258298,2.555527,5.026616,17.100712,7.241412,7.1575985,-11.947231,-6.8632445,8.537262,5.4625435,7.9488416,16.753294,24.721436,-13.630148,56.57449,-4.931414,5.203729,-6.8039436,-26.110075,-15.774097,26.04088,50.164524,5.113399,8.416762,1.8689879
65,31.590770721435547,23.72052764892578,76.60453033447266,-6.075002127752207,-0.1012983533601839,69.18918944491051,-35.36401,-2.8499455,-14.443847,33.606945,-9.792943,2.3591676,5.630713,17.488405,7.4577193,7.1462502,-12.302784,-7.2295403,8.769343,5.594855,7.949643,17.498135,25.006092,-13.6177,56.483624,-4.951579,5.1750026,-6.828871,-26.559958,-15.792739,26.167204,49.695232,5.003696,8.395453,2.0165803
66,31.982749938964844,24.174625396728516,76.4683837890625,-6.251865625561088,-0.20899187946143916,69.05611832318156,-34.724293,-2.5476778,-13.055242,30.635344,-9.356712,2.0860264,6.2814527,17.910822,7.660713,7.133199,-12.637606,-7.6800566,8.982935,5.7706385,7.9625196,18.245007,25.281488,-13.63707,56.39114,-4.9786963,5.1407514,-6.833323,-26.996239,-15.814617,26.338854,49.238377,4.858631,8.379863,2.1511145
67,32.37468719482422,24.630817413330078,76.32723236083984,-6.442396274327144,-0.3094003351170958,68.92905965819698,-34.06565,-2.2592864,-11.637613,27.779194,-8.907956,1.8383963,6.9261456,18.349276,7.8625307,7.1252646,-12.960069,-8.175142,9.184949,5.9597564,7.960744,18.971935,25.544025,-13.663518,56.3182,-5.0036397,5.110296,-6.841931,-27.427273,-15.841387,26.549307,48.807545,4.704303,8.359178,2.2733793
68,32.76479721069336,25.086889266967773,76.17700958251953,-6.623424595334206,-0.3614974785226386,68.80344560990741,-33.500164,-2.052832,-10.308273,25.177874,-8.4154215,1.7196391,7.512192,18.781681,8.073255,7.12593,-13.278487,-8.673806,9.3804035,6.1309195,7.916949,19.6559,25.786951,-13.672402,56.2873,-5.0160117,5.0930414,-6.879004,-27.852694,-15.872785,26.78462,48.408962,4.5595775,8.323209,2.3839326
69,33.15473556518555,25.54886245727539,76.02404022216797,-6.791965038993219,-0.3458013584593807,68.68029713982796,-33.092766,-1.9381636,-9.056223,22.91379,-7.8566465,1.7842878,8.015072,19.204876,8.2961035,7.1376905,-13.597131,-9.1843815,9.56211,6.279213,7.8150525,20.29714,26.004324,-13.660221,56.30106,-5.01235,5.093181,-6.958638,-28.288927,-15.91121,27.058926,48.052776,4.428527,8.263294,2.4860864
70,33.54267501831055,26.00497055053711,75.86611938476562,-6.95668926754705,-0.28395811885702005,68.56463619517606,-32.798157,-1.8782346,-7.834037,20.933187,-7.2705445,1.9720381,8.464822,19.625017,8.522891,7.155717,-13.910949,-9.7199955,9.721566,6.425366,7.6679893,20.891645,26.177849,-13.644002,56.37093,-4.9938393,5.1031084,-7.0589275,-28.734634,-15.952975,27.376244,47.7421,4.292747,8.187365,2.5775347
71,33.92460632324219,26.46241569519043,75.70343017578125,-7.111635691017239,-0.19510984152328092,68.45921651947677,-32.5643,-1.8690414,-6.7053623,19.171116,-6.7212315,2.2128146,8.883498,20.033525,8.743201,7.185194,-14.223096,-10.246624,9.868716,6.552617,7.5003157,21.448221,26.335934,-13.613971,56.476036,-4.966354,5.119065,-7.1662006,-29.167717,-15.999425,27.715937,47.45777,4.1735034,8.108204,2.6509748
72,34.31365203857422,26.92022705078125,75.53899383544922,-7.252429197090831,-0.09981587406122158,68.36536804266949,-32.33744,-1.9094025,-5.734091,17.563904,-6.2693353,2.435031,9.301205,20.423086,8.949955,7.218082,-14.529372,-10.73081,10.014029,6.6551633,7.331752,21.955841,26.484407,-13.570535,56.623764,-4.932242,5.135048,-7.2595115,-29.569387,-16.047503,28.053953,47.195152,4.0787144,8.038798,2.6990469
73,34.70783996582031,27.37843132019043,75.37234497070312,-7.381580345216941,0.0128334639968155,68.29129929970232,-32.121292,-2.007212,-4.9123487,16.097347,-5.942883,2.6499822,9.70289,20.799738,9.129348,7.256564,-14.838874,-11.165534,10.14712,6.738769,7.1505637,22.393625,26.607363,-13.532929,56.846233,-4.8963656,5.1381483,-7.319517,-29.950901,-16.087914,28.39754,46.971237,4.0048037,7.9803567,2.7059243
74,35.10521697998047,27.841388702392578,75.2029037475586,-7.498538845025823,0.15096834951895416,68.23682318365299,-31.946165,-2.1638665,-4.215043,14.813216,-5.7094674,2.8846262,10.0770645,21.162172,9.285383,7.3035645,-15.151772,-11.5672,10.266636,6.803121,6.946998,22.756018,26.697504,-13.503285,57.151,-4.8540626,5.1336308,-7.3567214,-30.330696,-16.118698,28.750134,46.803535,3.945826,7.9260697,2.6824503
75,35.50785446166992,28.31836700439453,75.03722381591797,-7.59451337875811,0.2895289748183552,68.1897430861718,-31.7882,-2.3692222,-3.680676,13.716164,-5.53101,3.0914,10.456155,21.495651,9.436512,7.3552613,-15.449702,-11.938479,10.3744545,6.8308253,6.7541995,23.124298,26.800035,-13.420553,57.433754,-4.8016734,5.148356,-7.4108205,-30.665192,-16.152122,29.108133,46.63424,3.9113233,7.878487,2.6478257
76,35.91701889038086,28.804710388183594,74.8729019165039,-7.661677830294668,0.4024887649584417,68.13798717743943,-31.627523,-2.611762,-3.3476052,12.821328,-5.375052,3.2238762,10.86981,21.786629,9.59951,7.415763,-15.718326,-12.281959,10.506778,6.8273354,6.584217,23.443369,26.886282,-13.300525,57.74594,-4.723128,5.1965895,-7.4853873,-30.927225,-16.178263,29.394175,46.473743,3.845803,7.839024,2.6410964
77,36.32359313964844,29.29071807861328,74.7114486694336,-7.707109435028678,0.47322440013419437,68.08787095863345,-31.407318,-2.8894887,-3.2597082,12.052988,-5.2519445,3.2195828,11.340131,22.045395,9.770117,7.4838967,-15.95806,-12.595135,10.655174,6.805681,6.4468307,23.715942,26.949362,-13.13422,58.100105,-4.6136856,5.288644,-7.5828295,-31.124928,-16.196476,29.61892,46.334595,3.7620103,7.8122497,2.6680045
78,36.739349365234375,29.782501220703125,74.55718231201172,-7.728519439400428,0.5214647859997722,68.04612495649712,-31.159874,-3.2099285,-3.3856466,11.439082,-5.176619,3.1213083,11.841847,22.275703,9.935706,7.5600514,-16.175276,-12.8762665,10.796902,6.753308,6.3360295,23.976002,27.000067,-12.901522,58.459476,-4.4731846,5.4149427,-7.701378,-31.27228,-16.208344,29.81463,46.20849,3.6784546,7.7957735,2.7111294
79,37.149715423583984,30.285505294799805,74.4097900390625,-7.700251640760562,0.5773988629049485,68.00290531688594,-31.00361,-3.5805435,-3.6489425,11.15591,-5.1257205,3.0415325,12.33304,22.44955,10.097921,7.6482387,-16.363316,-13.128696,10.963119,6.65402,6.2161264,24.142052,27.018599,-12.681898,58.888195,-4.325302,5.5535707,-7.825262,-31.367882,-16.211308,29.953365,46.123432,3.5664353,7.779498,2.7651672
80,37.566341400146484,30.79337501525879,74.26933288574219,-7.594349465363622,0.6714185071241955,67.94793088474765,-31.057552,-4.0137205,-3.9698184,11.377878,-5.0742717,3.0926795,12.390751,22.592625,10.110839,8.513682,-16.920668,-13.351373,11.123168,6.464112,6.0910397,24.29599,27.019907,-12.411608,59.272823,-4.1624618,5.6966786,-7.966524,-31.417479,-16.204357,30.07236,46.04622,3.4345026,7.754981,2.818334
81,37.98891067504883,31.304061889648438,74.14701843261719,-7.392333163309173,0.8105447540890846,67.88207994877516,-31.379827,-4.549318,-4.405897,12.247204,-5.021515,3.3353791,12.25883,22.644934,10.067309,9.650127,-17.580116,-13.554676,11.342229,6.1746044,5.928763,24.311726,27.011183,-12.214059,59.743267,-4.0359454,5.8367777,-8.104108,-31.409582,-16.198582,30.114382,46.020294,3.2585828,7.714198,2.8735435
82,38.4169921875,31.809738159179688,74.042724609375,-7.109156863513121,0.9750119403811636,67.80308750206649,-31.870367,-5.172565,-4.9584756,13.592195,-4.952851,3.69555,12.035583,22.613085,10.002616,10.91717,-18.275057,-13.734973,11.450565,5.772283,5.830555,24.467836,26.940151,-11.738704,60.04856,-3.8130913,5.9867125,-8.265908,-31.41527,-16.144472,30.205462,45.98459,3.0586014,7.6668034,2.9395273
83,38.825504302978516,32.306007385253906,73.9684066772461,-6.771558034994888,1.154899734416576,67.69707400884751,-32.4217,-5.807592,-5.4669175,15.1350565,-4.8352885,4.084054,11.78134,22.517263,9.954369,12.226162,-18.946856,-13.877107,11.631393,5.3263526,5.690777,24.492912,26.853193,-11.379061,60.435158,-3.6165495,6.140049,-8.438106,-31.371218,-16.073172,30.246914,46.030895,2.8489587,7.616988,2.9974189
84,39.25309753417969,32.81414031982422,73.89291381835938,-6.40314647997605,1.3448562720318835,67.55680285123213,-32.95046,-6.3777633,-5.7796335,16.63333,-4.6551433,4.417129,11.548681,22.376793,9.950777,13.491955,-19.542706,-13.965136,11.830425,4.8450317,5.53446,24.51243,26.75656,-11.031562,60.760685,-3.392778,6.3001933,-8.65225,-31.306625,-15.984751,30.317764,46.130035,2.6939893,7.5740614,3.0404723
85,39.69929504394531,33.33374786376953,73.8214111328125,-5.995725057147743,1.5560602022860492,67.37056237704851,-33.480587,-6.8787966,-5.8880477,18.096943,-4.367462,4.700939,11.325231,22.184288,10.002903,14.724521,-20.075977,-14.005866,12.063726,4.3157387,5.355972,24.528038,26.657717,-10.6813135,61.010006,-3.1149049,6.4828753,-8.936562,-31.198383,-15.881422,30.400682,46.254787,2.5947258,7.545838,3.0714529
86,40.149600982666016,33.86648178100586,73.76360321044922,-5.54138972048683,1.7871988364722862,67.14402360560148,-34.04547,-7.3390574,-5.860671,19.633402,-3.995746,4.9733768,11.092263,21.934788,10.096947,15.964457,-20.570272,-14.002805,12.32797,3.7282057,5.1657286,24.533394,26.555983,-10.322325,61.199074,-2.7970133,6.6821218,-9.275973,-31.043222,-15.761126,30.480516,46.403706,2.5264244,7.5266376,3.094604
87,40.596622467041016,34.41141128540039,73.71465301513672,-5.063416278794662,2.0184826337138455,66.90215753201629,-34.58542,-7.730412,-5.6732316,21.158112,-3.6364565,5.2062974,10.888807,21.648983,10.215143,17.166767,-20.985794,-13.934558,12.596519,3.106588,4.973913,24.535614,26.45773,-9.995053,61.334534,-2.4908197,6.867193,-9.625211,-30.853155,-15.623813,30.571327,46.59858,2.474012,7.5046425,3.1027424
88,41.056949615478516,34.970237731933594,73.67552185058594,-4.584211897461495,2.2310359542350504,66.67200365816959,-35.045837,-8.025151,-5.3062696,22.598629,-3.3947542,5.3750997,10.746455,21.347992,10.333471,18.296156,-21.288418,-13.778275,12.845213,2.4762192,4.788695,24.536104,26.372625,-9.746503,61.424892,-2.2521062,7.008565,-9.938626,-30.623835,-15.467854,30.673197,46.84677,2.4116397,7.468948,3.0888484
89,41.529109954833984,35.535484313964844,73.64469146728516,-4.101121373304201,2.4249061280649444,66.4479512701581,-35.44347,-8.162846,-4.6488028,24.002842,-3.3394706,5.4426236,10.707653,21.031866,10.477394,19.287527,-21.493202,-13.553541,13.082228,1.8280654,4.6022916,24.543514,26.31244,-9.591461,61.462677,-2.1012056,7.103396,-10.216568,-30.345955,-15.291619,30.7911,47.147484,2.3381782,7.4041758,3.0505567
90,42.00595474243164,36.11358642578125,73.6225814819336,-3.6052872970830507,2.6105650835629017,66.22349786724372,-35.802433,-8.164634,-3.7571194,25.404432,-3.4108465,5.444415,10.739156,20.692646,10.643064,20.184364,-21.616446,-13.262515,13.316655,1.1507522,4.4110494,24.553444,26.27876,-9.507625,61.444595,-2.0092933,7.1671734,-10.480791,-30.014936,-15.094885,30.912758,47.49086,2.2589815,7.3201814,2.991979
91,42.49130630493164,36.69766616821289,73.61105346679688,-3.1084407540450507,2.7843607280776985,66.02430960652502,-36.094257,-8.139205,-2.8569622,26.735188,-3.5257626,5.4577336,10.763018,20.338854,10.763299,21.10598,-21.623064,-12.853502,13.523085,0.46498096,4.2267213,24.546545,26.26309,-9.486152,61.3887,-1.9603938,7.1984386,-10.717141,-29.650358,-14.881772,31.028362,47.88314,2.174228,7.243652,2.9151719
92,42.97893142700195,37.284339904785156,73.61262512207031,-2.620877181960542,2.941938483308883,65.87504877217263,-36.287575,-8.207515,-2.1681957,27.909056,-3.5939693,5.549266,10.707827,19.980743,10.774514,22.163486,-21.4766,-12.270096,13.679751,-0.20459849,4.0611653,24.498735,26.25039,-9.520795,61.31657,-1.9365736,7.195255,-10.909601,-29.251076,-14.6547165,31.109877,48.314396,2.0587833,7.2020226,2.8233209
93,43.469703674316406,37.8713264465332,73.6299819946289,-2.139879968890807,3.0828269240007296,65.78398273147346,-36.373127,-8.421916,-1.7575276,28.899078,-3.595746,5.6984673,10.591702,19.6333,10.664938,23.336948,-21.194292,-11.508057,13.784231,-0.85951596,3.9124238,24.399559,26.238905,-9.627672,61.2392,-1.947508,7.139884,-11.044206,-28.811956,-14.412394,31.160025,48.793804,1.9046662,7.2013044,2.7006748
94,43.95762252807617,38.452728271484375,73.66415405273438,-1.6615750916913443,3.2085038174050853,65.73768903822918,-36.366592,-8.724881,-1.5028716,29.740719,-3.570335,5.8708363,10.452661,19.296764,10.4723425,24.564135,-20.788185,-10.58225,13.846265,-1.5068766,3.772401,24.259789,26.230185,-9.805199,61.147396,-1.9977376,7.0392823,-11.131054,-28.338247,-14.155438,31.19491,49.323982,1.7291923,7.227658,2.5512793
95,44.44004440307617,39.02793884277344,73.71460723876953,-1.1944530592280813,3.3176207169742753,65.72762153488785,-36.28503,-9.077079,-1.3357818,30.460476,-3.5282362,6.110425,10.237667,18.960804,10.201392,25.921362,-20.236313,-9.452049,13.861243,-2.1280055,3.6443446,24.087467,26.209274,-10.017609,61.0337,-2.059747,6.926855,-11.189486,-27.843525,-13.890358,31.206043,49.8847,1.5388294,7.279536,2.407998
96,44.90817642211914,39.604827880859375,73.78023529052734,-0.7472919603143325,3.4088523052550657,65.74458876894977,-36.14196,-9.433315,-1.1900263,31.081188,-3.4776773,6.4652348,9.9036255,18.61649,9.867782,27.468485,-19.510082,-8.076899,13.821477,-2.7000525,3.5318937,23.890429,26.15254,-10.226311,60.89284,-2.1030858,6.83603,-11.235681,-27.347464,-13.628629,31.19324,50.458965,1.3462147,7.3553596,2.3037796
97,45.374027252197266,40.16423034667969,73.85691833496094,-0.32581972879743254,3.4825430330403444,65.80404128882192,-35.932785,-9.796117,-1.0739399,31.592539,-3.3963995,7.0046673,9.419486,18.290148,9.47449,29.274538,-18.61253,-6.464996,13.710723,-3.20596,3.4304106,23.663012,26.04092,-10.427056,60.7324,-2.1142678,6.7733107,-11.258054,-26.846594,-13.378194,31.16918,51.050182,1.1381812,7.4706993,2.241831
98,45.815521240234375,40.72794723510742,73.94092559814453,0.07295804499736158,3.5383602469296016,65.90516500538845,-35.65351,-10.182197,-1.0161878,31.991808,-3.2897644,7.6850443,8.825793,18.004082,9.029818,31.273943,-17.578714,-4.600739,13.532274,-3.6491709,3.337553,23.398853,25.872068,-10.636356,60.56084,-2.1072674,6.72047,-11.247687,-26.334673,-13.1407385,31.139301,51.66185,0.9164075,7.621824,2.2071095
99,46.23964309692383,41.28907775878906,74.0274658203125,0.44964750333930564,3.5743688759505483,66.01541253945649,-35.32167,-10.5634165,-0.98513746,32.323116,-3.2161334,8.386362,8.160224,17.745499,8.557725,33.3834,-16.440817,-2.4208515,13.309542,-4.0356855,3.2617261,23.106419,25.650782,-10.845508,60.370193,-2.0910902,6.6737733,-11.2264385,-25.824696,-12.918403,31.08973,52.273243,0.71707946,7.7781405,2.204532
100,46.655696868896484,41.84077453613281,74.11760711669922,0.8029585087304455,3.5887421150369923,66.10234653979049,-34.95167,-10.910527,-0.95439434,32.62558,-3.2320335,8.987255,7.452938,17.494722,8.086748,35.54108,-15.223579,0.11453638,13.066292,-4.372043,3.211761,22.795424,25.386515,-11.046739,60.150425,-2.0765202,6.629794,-11.216979,-25.331186,-12.71427,31.007544,52.864525,0.5791428,7.908522,2.2387455
101,47.05516815185547,42.37566375732422,74.20364379882812,1.1223512565650564,3.5809040310071443,66.15556071043882,-34.55452,-11.214071,-0.93364626,32.9254,-3.3563173,9.488558,6.6800923,17.277153,7.668228,37.824085,-13.908184,3.1058884,12.811691,-4.647649,3.192316,22.471449,25.078394,-11.226966,59.887833,-2.0560474,6.5941973,-11.235295,-24.848658,-12.529486,30.864275,53.421505,0.49927613,8.0057125,2.3395402
102,47.44625473022461,42.90814971923828,74.29204559326172,1.4036461137767908,3.5515406185920755,66.19443554704567,-34.12072,-11.483361,-0.9425563,33.205185,-3.5639703,9.941163,5.817603,17.127356,7.299469,40.28999,-12.525922,6.4926996,12.532219,-4.856868,3.1972785,22.128866,24.725859,-11.394231,59.58971,-2.0277865,6.5669494,-11.266682,-24.371212,-12.365386,30.673803,53.95494,0.4635337,8.085757,2.4946868
103,47.83561325073242,43.423824310302734,74.38143157958984,1.6582782289032825,3.5024069474738004,66.23149206894813,-33.63388,-11.7205105,-0.9682434,33.435047,-3.8436909,10.299438,4.8796883,17.010723,6.9138517,42.870945,-11.147767,10.053706,12.222158,-5.0173726,3.2205634,21.757404,24.34256,-11.575597,59.277542,-2.0119298,6.5362267,-11.289242,-23.900032,-12.223785,30.473846,54.470234,0.48500243,8.153026,2.6462545
104,48.22571563720703,43.93159103393555,74.47711944580078,1.901909359622939,3.4355491487485352,66.27795771388823,-33.07694,-11.930881,-0.99272496,33.580154,-4.1795325,10.518286,3.8910322,16.870203,6.4451194,45.472164,-9.807962,13.5591135,11.881212,-5.1539965,3.256876,21.349718,23.949083,-11.798352,58.967083,-2.028809,6.4915447,-11.28343,-23.430452,-12.106525,30.295221,54.967815,0.57343715,8.211611,2.7367525
105,48.64646911621094,44.41547775268555,74.56061553955078,1.9956138269496528,3.346384358145314,66.31828828781002,-32.553192,-11.953723,-1.0906664,33.909878,-4.746075,10.488362,2.9183807,16.781183,5.368714,47.89967,-8.114211,15.000033,11.527385,-5.1568346,3.2878878,20.91126,23.55871,-12.05963,58.64152,-2.0845788,6.4350753,-11.259863,-22.962034,-12.015697,30.134567,55.439445,0.7570472,8.2621975,2.7539992
106,49.09408950805664,44.889617919921875,74.64263916015625,1.775922993762782,3.2508861573657857,66.30513902711418,-32.187874,-11.619697,-1.3401104,34.677162,-5.6643085,10.213977,1.9128159,16.740007,3.592549,50.142452,-5.964303,15.000033,11.202878,-4.86544,3.2758677,20.448523,23.173464,-12.349411,58.28765,-2.1717567,6.373209,-11.228645,-22.489712,-11.950107,29.969,55.877518,1.0210308,8.303023,2.7287014
107,49.52837371826172,45.36236572265625,74.7322769165039,1.5850378583172753,3.1680254797401064,66.26615114713981,-31.757854,-11.286305,-1.541733,35.27277,-6.549179,9.893066,0.72774535,16.381449,1.6585757,52.590878,-4.0313807,15.000033,10.887664,-4.596741,3.263583,19.950275,22.791851,-12.687982,57.94047,-2.2895825,6.295521,-11.169068,-22.006996,-11.911379,29.809772,56.29223,1.3206805,8.332646,2.6665683
108,49.939056396484375,45.829410552978516,74.83126831054688,1.4985556731592466,3.0888183193701,66.22929843719696,-31.218973,-11.061451,-1.6818315,35.59531,-7.2831483,9.649387,-0.61355746,15.702739,-0.10944176,55.273285,-2.8130972,15.000033,10.5571165,-4.41386,3.2654731,19.408577,22.413881,-13.090679,57.6309,-2.4359865,6.1919875,-11.061558,-21.5124,-11.900051,29.669245,56.694958,1.6126649,8.35079,2.5743625
109,50.31129837036133,46.31002426147461,74.94515991210938,1.5738456704890726,2.989057813095119,66.22873691749344,-30.513176,-11.028728,-1.7492036,35.567944,-7.8211527,9.518768,-2.067197,14.719496,-1.5148085,58.21958,-2.5542881,15.000033,10.175916,-4.366396,3.31069,18.82641,22.036985,-13.563315,57.368046,-2.6468902,6.042309,-10.879606,-21.01134,-11.918102,29.562706,57.085587,1.904456,8.353205,2.4443748
110,50.65842819213867,46.79603958129883,75.06678009033203,1.7771414637925451,2.860277541825633,66.26866331878036,-29.655512,-11.154869,-1.7646255,35.254116,-8.225072,9.442775,-3.5649958,13.50754,-2.5916011,61.308956,-2.9623873,15.000033,9.74161,-4.423729,3.4012802,18.208149,21.658613,-14.096543,57.134068,-2.9098577,5.856785,-10.641903,-20.50026,-11.965668,29.477715,57.456696,2.2113638,8.341149,2.276871
111,50.9979248046875,47.27460861206055,75.19542694091797,2.043125564960373,2.709918050966293,66.34023474295712,-28.704859,-11.372217,-1.7761185,34.77157,-8.543306,9.401886,-5.037179,12.207412,-3.3583136,64.31664,-3.7617576,15.000033,9.269821,-4.5239635,3.515257,17.5467,21.282274,-14.684969,56.92086,-3.1549444,5.6718946,-10.395913,-19.974638,-12.040573,29.394339,57.818176,2.5121577,8.323271,2.0905147
112,51.332550048828125,47.758121490478516,75.32447052001953,2.2970949402342975,2.5520916650899292,66.42571832590427,-27.72832,-11.597899,-1.8272315,34.245148,-8.828503,9.372256,-6.4407625,10.942667,-3.8852227,67.038536,-4.664031,15.000033,8.786334,-4.599218,3.6261683,16.835539,20.914429,-15.323187,56.718067,-3.312329,5.5253673,-10.189144,-19.425545,-12.138547,29.286808,58.176476,2.7812166,8.30799,1.9038658
113,51.655967712402344,48.24443435668945,75.45960998535156,2.53008449578432,2.3857936531121307,66.52204250397486,-26.72874,-11.821882,-1.9283254,33.686947,-9.086784,9.358226,-7.789696,9.8055525,-4.0972657,69.45476,-5.7506347,15.000033,8.2941475,-4.6402583,3.7314858,16.065434,20.559155,-16.025805,56.53538,-3.3665116,5.4298735,-10.042598,-18.852453,-12.257731,29.157673,58.531414,3.016649,8.293947,1.7101449
114,51.97364807128906,48.738792419433594,75.59593200683594,2.77794958735302,2.2056287631293823,66.63825915648454,-25.674719,-12.0828,-2.0631893,33.03509,-9.290132,9.367514,-9.116364,8.727183,-4.005853,71.66961,-7.1222057,15.000033,7.7820816,-4.683707,3.842966,15.244185,20.215828,-16.790546,56.370235,-3.3558135,5.3656073,-9.928923,-18.25856,-12.3982115,29.013552,58.88036,3.228691,8.277687,1.5034983
115,52.291542053222656,49.2203254699707,75.73072052001953,3.0283154529973833,2.0211451720729823,66.77086142882176,-24.587723,-12.360275,-2.229659,32.31315,-9.446087,9.378053,-10.411552,7.577151,-3.8257446,73.67452,-8.5222645,15.000033,7.258381,-4.7252817,3.9542763,14.3897705,19.884396,-17.586369,56.19431,-3.2911377,5.321672,-9.823643,-17.641212,-12.5565405,28.837719,59.22583,3.4163501,8.265034,1.3029644
116,52.60283279418945,49.699371337890625,75.8663558959961,3.2703108068174362,1.8386976586723032,66.91928655666682,-23.483887,-12.635253,-2.425777,31.54133,-9.561537,9.368254,-11.658718,6.2169013,-3.7607174,75.460266,-9.702811,15.000033,6.727973,-4.7622085,4.0622926,13.52087,19.565985,-18.381216,55.978104,-3.183299,5.287251,-9.701999,-17.001757,-12.726732,28.615953,59.573856,3.5806167,8.2618265,1.1272826
117,52.91275405883789,50.1786994934082,76.00287628173828,3.49929542029007,1.65916607443467,67.08649324470872,-22.36613,-12.907183,-2.654691,30.723251,-9.634434,9.338673,-12.855157,4.567141,-3.8855996,77.02553,-10.610033,15.000033,6.184642,-4.7879553,4.1644616,12.636216,19.26083,-19.181734,55.716076,-3.009858,5.272141,-9.569682,-16.340275,-12.901899,28.333992,59.936375,3.7140653,8.26217,0.9763036
118,53.22394561767578,50.65311050415039,76.13713836669922,3.6770162705246623,1.4829805233549287,67.25985085985306,-21.259346,-13.1299,-2.9293182,29.921623,-9.702468,9.286346,-14.014152,2.7429721,-4.116247,78.36034,-11.368588,15.000033,5.6389127,-4.764175,4.2550664,11.729435,18.96888,-19.997307,55.420734,-2.773622,5.278527,-9.436025,-15.660085,-13.078655,28.003391,60.311768,3.8197775,8.265319,0.8408527
119,53.55287170410156,51.12709426879883,76.27005767822266,3.6824430747221997,1.3290248942706842,67.39084987081834,-20.288172,-13.141881,-3.2568336,29.389145,-9.914939,9.16529,-15.1369095,0.851794,-4.6317267,79.40053,-11.974886,14.399935,5.140874,-4.586897,4.312018,10.81205,18.691591,-20.800705,55.09028,-2.523322,5.283527,-9.282332,-14.964119,-13.25647,27.6443,60.684643,3.9064105,8.284853,0.7262662
120,53.89609909057617,51.587242126464844,76.39387512207031,3.682798437063448,1.1650661403361589,67.53384891911213,-19.294567,-13.131199,-3.6079094,28.833761,-10.116078,9.002162,-16.185509,-1.2293118,-5.418997,80.222786,-12.571584,12.672938,4.6404877,-4.431463,4.384754,9.898396,18.430344,-21.564213,54.720554,-2.306092,5.2647243,-9.08982,-14.25462,-13.436899,27.278294,61.038406,3.9843996,8.334583,0.63829935
121,54.23839569091797,52.04762268066406,76.51640319824219,3.692049357276857,0.985204015900071,67.6929974236326,-18.251041,-13.123522,-3.9799917,28.213366,-10.28445,8.802537,-17.167074,-3.3590333,-6.186258,80.8316,-13.201765,10.878312,4.1330614,-4.302323,4.476257,8.988168,18.187792,-22.29118,54.314995,-2.1408823,5.209318,-8.840816,-13.530664,-13.620656,26.910534,61.37032,4.0563993,8.428936,0.58340615
122,54.587547302246094,52.50358581542969,76.6356201171875,3.7023548933719215,0.7932686428796759,67.86821984058494,-17.167963,-13.11391,-4.3745522,27.538244,-10.422304,8.572616,-18.087538,-5.553783,-6.9735084,81.2285,-13.846908,9.035248,3.6173298,-4.189596,4.5816813,8.076925,17.964334,-22.993113,53.8711,-1.9996673,5.1318374,-8.550017,-12.791032,-13.806917,26.53015,61.68745,4.117316,8.557171,0.55691713
123,54.942447662353516,52.96078872680664,76.75350952148438,3.7088247989768157,0.598532108421341,68.05687611564687,-16.081226,-13.090224,-4.7812653,26.855848,-10.555098,8.326578,-18.970345,-7.6449356,-7.6733656,81.41015,-14.47567,7.29794,3.102777,-4.088346,4.6958203,7.1711287,17.757965,-23.65626,53.379242,-1.8603206,5.0506706,-8.246474,-12.037979,-13.994548,26.13616,61.989147,4.1663966,8.695051,0.54829454
124,55.30574417114258,53.40777587890625,76.86096954345703,3.7057672562878654,0.41081360313286747,68.25580534719215,-15.026229,-13.042059,-5.188478,26.212526,-10.707118,8.078968,-19.845982,-9.468489,-8.176731,81.37016,-15.033372,5.813941,2.597455,-3.99215,4.812558,6.27725,17.56562,-24.265564,52.831345,-1.7008573,4.9840713,-7.9589357,-11.274603,-14.181626,25.727879,62.276,4.2007775,8.818293,0.5465647
125,55.676605224609375,53.85215759277344,76.95825958251953,3.6855456617115308,0.22722969946459154,68.46200237088355,-14.000927,-12.958485,-5.5909333,25.610716,-10.886202,7.827499,-20.722761,-11.014507,-8.495078,81.09713,-15.473106,4.593362,2.1034706,-3.893436,4.9343286,5.3853335,17.388432,-24.83318,52.24141,-1.5244005,4.9351106,-7.6766295,-10.50257,-14.365975,25.293648,62.554802,4.2102427,8.923156,0.55971813
126,56.04640197753906,54.30385971069336,77.05014038085938,3.6521069474956325,0.04535479769111386,68.67694727504859,-12.991264,-12.847189,-5.9934435,25.031023,-11.080374,7.568895,-21.594328,-12.354351,-8.685882,80.595856,-15.808603,3.5666869,1.617316,-3.796599,5.0612106,4.494612,17.227846,-25.364382,51.611088,-1.3398929,4.894839,-7.389887,-9.721101,-14.547014,24.837593,62.82618,4.1987443,9.021461,0.58990747
127,56.42380142211914,54.74050521850586,77.13068389892578,3.6175279465727375,-0.12407980579802136,68.9043506139503,-12.016302,-12.728993,-6.398801,24.485254,-11.28991,7.3156753,-22.475014,-13.455202,-8.704952,79.88818,-16.058973,2.7508864,1.1373672,-3.7121038,5.1821656,3.6262398,17.080063,-25.830076,50.913742,-1.1314285,4.863256,-7.1290436,-8.931644,-14.725836,24.38668,63.0835,4.1861873,9.112733,0.61671954
128,56.805904388427734,55.17695617675781,77.20084381103516,3.5940334706268975,-0.27064230204929124,69.14731262655974,-11.091786,-12.623916,-6.8116097,23.979395,-11.511529,7.0788913,-23.376705,-14.285473,-8.50125,78.993195,-16.244867,2.1629448,0.65955216,-3.6490417,5.2858124,2.8014655,16.938578,-26.196829,50.125023,-0.8811429,4.840011,-6.92388,-8.13996,-14.904846,23.974054,63.324066,4.1959014,9.196509,0.6194587
129,57.186370849609375,55.604148864746094,77.26112365722656,3.586085982312382,-0.3937883094051913,69.40600860824105,-10.217682,-12.537926,-7.2327557,23.50967,-11.741467,6.8579254,-24.318789,-14.779852,-7.99031,77.90377,-16.343609,1.842139,0.18373886,-3.6092563,5.3710194,2.0188107,16.799809,-26.442894,49.234516,-0.5381726,4.8350196,-6.800578,-7.348336,-15.087648,23.613684,63.548542,4.2467217,9.2718115,0.58373946
130,57.56634521484375,56.03835678100586,77.30915832519531,3.587384259701232,-0.4988364681476856,69.67908794538059,-9.38499,-12.460983,-7.6608524,23.072174,-11.980991,6.6475997,-25.27937,-14.985224,-7.219384,76.61379,-16.34229,1.7547315,-0.2909502,-3.5851436,5.4418163,1.2665201,16.66476,-26.587265,48.261642,-0.12490022,4.8444304,-6.7365975,-6.554934,-15.274669,23.291378,63.759377,4.324613,9.339187,0.5233689
131,57.950801849365234,56.47731018066406,77.34870910644531,3.594225334028367,-0.5839902188113257,69.9680711648738,-8.600573,-12.389238,-8.096646,22.680574,-12.237685,6.4507155,-26.210878,-15.039022,-6.333568,75.14841,-16.27459,1.8099968,-0.7692998,-3.5726855,5.4936986,0.5494347,16.534016,-26.658926,47.228294,0.26496217,4.846928,-6.6881022,-5.759184,-15.463399,22.992926,63.95887,4.397365,9.40115,0.45951658
132,58.33210372924805,56.921993255615234,77.37870025634766,3.6021623610906035,-0.6472114369363329,70.27366862436496,-7.870662,-12.318423,-8.540963,22.347265,-12.518288,6.269902,-27.073425,-15.073638,-5.4803286,73.53027,-16.17455,1.9234326,-1.2561216,-3.567276,5.5215306,-0.12796637,16.407804,-26.687332,46.156353,0.5370422,4.8217397,-6.6109686,-4.961081,-15.648872,22.704645,64.14998,4.4335504,9.459961,0.41318515
133,58.71284484863281,57.35700225830078,77.39765930175781,3.606315925646677,-0.6830961710986757,70.60229521147079,-7.214141,-12.248376,-8.999945,22.096527,-12.831554,6.112719,-27.867245,-15.072929,-4.654469,71.7411,-16.031237,2.1284013,-1.7580761,-3.562993,5.520055,-0.7608945,16.285513,-26.662117,45.034027,0.6751057,4.7639527,-6.4972367,-4.1639366,-15.8276615,22.433382,64.341736,4.428959,9.510855,0.3887854
134,59.106136322021484,57.79857635498047,77.41043853759766,3.6104926314330625,-0.6946607952990458,70.95150904629531,-6.6203876,-12.181352,-9.472189,21.912546,-13.170129,5.974166,-28.601696,-14.992336,-3.7925892,69.774254,-15.834406,2.4453073,-2.2712374,-3.564141,5.4917593,-1.3539995,16.168003,-26.573582,43.857468,0.7268676,4.684485,-6.36853,-3.369739,-15.99985,22.182817,64.535355,4.3971844,9.554228,0.37479997
135,59.503196716308594,58.240814208984375,77.41313934326172,3.6238899699924243,-0.6915209239451178,71.30949935644487,-6.0564613,-12.117692,-9.945591,21.754852,-13.520529,5.8393292,-29.262346,-14.911979,-2.9559193,67.66985,-15.617028,2.7835822,-2.782332,-3.5798059,5.444326,-1.9174088,16.057451,-26.454754,42.658585,0.6917584,4.5861754,-6.225283,-2.5734208,-16.163404,21.934898,64.71811,4.3369823,9.600002,0.36899653
136,59.90635681152344,58.681617736816406,77.4084701538086,3.6551625453872165,-0.6833472705032102,71.66387405812827,-5.490773,-12.057477,-10.407275,21.585802,-13.870936,5.6944237,-29.84048,-14.905217,-2.208578,65.46789,-15.41063,3.0550902,-3.2759302,-3.6200645,5.3848863,-2.4613965,15.956402,-26.341429,41.468864,0.56942415,4.471875,-6.067756,-1.768499,-16.31581,21.667347,64.8769,4.2437634,9.657703,0.3694265
137,60.31148910522461,59.12997055053711,77.39427947998047,3.7071022668246285,-0.6721721195798966,72.01176380606434,-4.9140286,-12.001207,-10.852101,21.394968,-14.219108,5.5357018,-30.333302,-14.992987,-1.5758225,63.15709,-15.23753,3.242199,-3.747174,-3.689952,5.3125234,-2.9825509,15.866261,-26.233805,40.283978,0.2988785,4.330052,-5.8891315,-0.949462,-16.455244,21.390322,65.00701,4.097903,9.735792,0.37344867
138,60.722015380859375,59.589683532714844,77.37435913085938,3.7744291425960546,-0.6530954362684892,72.35949691678607,-4.3439417,-11.949526,-11.287124,21.2045,-14.57257,5.3724613,-30.748148,-15.132983,-1.0243349,60.721104,-15.075147,3.3950193,-4.203899,-3.7833986,5.2239265,-3.476828,15.787367,-26.117468,39.089592,-0.099447064,4.1625857,-5.6922913,-0.12327996,-16.581186,21.10943,65.121284,3.9061778,9.82451,0.38308096
139,61.135108947753906,60.0445671081543,77.34928131103516,3.854094834756952,-0.6249507134145902,72.7084152218432,-3.7868073,-11.90159,-11.718178,21.019388,-14.93156,5.209992,-31.09451,-15.302761,-0.53055865,58.188503,-14.884511,3.5282948,-4.6483355,-3.893235,5.1218314,-3.9549417,15.720359,-26.008615,37.902782,-0.5065961,3.9927392,-5.4917,0.70494026,-16.691643,20.79682,65.21818,3.7076578,9.91468,0.40330884
140,61.550628662109375,60.491024017333984,77.31434631347656,3.9442400404219686,-0.5866836161670291,73.05975203744545,-3.2496629,-11.857034,-12.150537,20.84596,-15.296896,5.0522165,-31.383352,-15.484153,-0.06731696,55.59352,-14.630264,3.6538346,-5.079417,-4.01437,5.0098825,-4.430267,15.665613,-25.926565,36.74281,-0.803787,3.844664,-5.3004665,1.5296055,-16.784756,20.422096,65.29944,3.5409563,9.994695,0.43916282
141,61.97840118408203,60.94208908081055,77.27352142333984,4.045853910436835,-0.5365797547804483,73.42138195022848,-2.7370899,-11.818671,-12.59327,20.683966,-15.665287,4.8999996,-31.607338,-15.688458,0.3540696,52.910694,-14.305139,3.7841005,-5.5058775,-4.150353,4.887177,-4.9012976,15.625951,-25.872156,35.603477,-0.95310986,3.7182672,-5.108597,2.3516202,-16.852055,19.96267,65.36375,3.4053652,10.061148,0.5071919
142,62.40202713012695,61.39393615722656,77.2254638671875,4.1594071375425825,-0.4758831702810341,73.79047890630815,-2.244511,-11.7853985,-13.041499,20.530336,-16.036968,4.7505827,-31.765066,-15.922502,0.7252646,50.132614,-13.924586,3.9099438,-5.9129558,-4.299318,4.754572,-5.374949,15.594982,-25.851429,34.486233,-1.0226161,3.6029255,-4.9111924,3.189143,-16.903168,19.423658,65.39602,3.279672,10.120855,0.6024249
143,62.82933807373047,61.8461799621582,77.16852569580078,4.281291195354151,-0.4081849601515034,74.15160476649835,-1.7629606,-11.748874,-13.480343,20.382109,-16.414999,4.6010547,-31.87156,-16.162323,1.0778853,47.311115,-13.493373,4.0078764,-6.296504,-4.4567237,4.6115417,-5.8441987,15.57367,-25.854845,33.401226,-1.0458571,3.5086136,-4.7328644,4.01924,-16.93535,18.859911,65.42182,3.1809118,10.175977,0.6890715
144,63.257469177246094,62.297080993652344,77.1009521484375,4.408195439833124,-0.3367547051928193,74.48939004827963,-1.2828294,-11.701887,-13.894728,20.235315,-16.80213,4.449029,-31.943724,-16.38571,1.4450947,44.500217,-13.015687,4.053681,-6.679219,-4.6194897,4.4526153,-6.279867,15.567723,-25.84098,32.34691,-1.0501239,3.4447417,-4.602648,4.789524,-16.943434,18.362577,65.494194,3.1358106,10.226242,0.72706544
145,63.69368362426758,62.75367736816406,77.02555847167969,4.552189423811336,-0.2621664561448463,74.79635801978664,-0.79055035,-11.653117,-14.275557,20.062653,-17.186693,4.2935863,-31.98324,-16.58967,1.8526076,41.68118,-12.483459,4.058574,-6.999967,-4.7975483,4.2883306,-6.727351,15.57107,-25.872314,31.339996,-1.0379041,3.4221528,-4.5265465,5.5589285,-16.941393,17.866955,65.55514,3.1518426,10.274469,0.6949768
146,64.13592529296875,63.21112060546875,76.94493865966797,4.711091223934071,-0.18278267304511164,75.08204747715233,-0.29565322,-11.603863,-14.6331625,19.876175,-17.571705,4.1359735,-31.985237,-16.791912,2.2797773,38.839966,-11.90051,4.0260234,-7.272551,-4.9900527,4.1175113,-7.1796126,15.586293,-25.943956,30.370558,-0.9969094,3.4330707,-4.4895115,6.327576,-16.923294,17.359394,65.60408,3.216008,10.31879,0.6168488
147,64.57991027832031,63.671905517578125,76.8585433959961,4.858736614698092,-0.09847688488256075,75.35614140111494,0.17787525,-11.532677,-14.978765,19.726566,-17.979786,3.975555,-31.953655,-16.992653,2.6853127,36.030373,-11.28426,3.9239802,-7.5530586,-5.169005,3.935956,-7.599635,15.612202,-25.999498,29.437254,-0.9454399,3.4587486,-4.480822,7.0407925,-16.890854,16.89483,65.69048,3.2938669,10.361772,0.5349491
148,65.03392791748047,64.1297607421875,76.76673889160156,4.969044240687287,-0.008795333535398806,75.62776690587768,0.60353106,-11.419235,-15.323269,19.670134,-18.436909,3.8125103,-31.895561,-17.184296,3.0248466,33.31207,-10.655849,3.7268329,-7.8170238,-5.311278,3.7574298,-8.006348,15.652559,-26.07933,28.557297,-0.92538714,3.4811902,-4.476874,7.7205696,-16.838905,16.417889,65.798546,3.3188217,10.40601,0.5008875
149,65.48697662353516,64.57539367675781,76.67178344726562,5.0374806379333,0.0843336283905378,75.89454615667391,0.9808247,-11.25959,-15.665913,19.71481,-18.951694,3.6462924,-31.803907,-17.355127,3.2874477,30.659782,-9.988155,3.4263208,-8.080293,-5.410706,3.5836403,-8.391149,15.704069,-26.162476,27.728529,-0.944734,3.495278,-4.4739285,8.354717,-16.771627,15.932258,65.93915,3.2806156,10.44813,0.5258689
150,65.94525146484375,65.04358673095703,76.57209014892578,5.076214967198918,0.18257777034723946,76.1520792369247,1.3199239,-11.063913,-16.000153,19.834654,-19.511023,3.4766963,-31.684536,-17.498972,3.490175,28.063711,-9.286637,3.0454633,-8.324869,-5.481941,3.4138858,-8.762419,15.770337,-26.265385,26.94596,-0.98868006,3.51109,-4.479906,8.955599,-16.682661,15.431362,66.100464,3.2031898,10.487661,0.585028
151,66.4024658203125,65.5077133178711,76.4705810546875,5.0834003467553925,0.2918828467592319,76.40705013417326,1.6144124,-10.831816,-16.329813,20.026474,-20.10329,3.3042464,-31.555906,-17.610304,3.6263068,25.59016,-8.619017,2.608312,-8.5566,-5.519787,3.2398443,-9.118518,15.847625,-26.38493,26.219303,-1.0401806,3.5316,-4.5024643,9.514097,-16.579882,14.951571,66.286964,3.1031458,10.533047,0.6686385
152,66.87267303466797,65.97416687011719,76.36750030517578,5.057201203030458,0.41796016841952943,76.66593783775693,1.8582557,-10.562876,-16.658403,20.287128,-20.717688,3.1295717,-31.43962,-17.690792,3.694009,23.313784,-8.049159,2.1373506,-8.774052,-5.5187826,3.0559862,-9.460231,15.933172,-26.526253,25.555994,-1.084025,3.5599897,-4.5480785,10.030835,-16.4692,14.517701,66.49336,2.9932191,10.593147,0.76855844
153,67.33963775634766,66.43150329589844,76.26043701171875,4.9869298225677055,0.5689000962521892,76.92954812824672,2.0310137,-10.249231,-16.985418,20.642954,-21.36843,2.9527755,-31.336716,-17.738508,3.6827517,21.207754,-7.618385,1.5804021,-8.977183,-5.4641056,2.855569,-9.793648,16.025976,-26.697016,24.96395,-1.1336712,3.5964625,-4.624346,10.507919,-16.355307,14.134601,66.72247,2.874435,10.671142,0.8866936
154,67.80715942382812,66.8978042602539,76.15021514892578,4.874981775762538,0.741161915187501,77.19330518617059,2.141727,-9.89123,-17.308657,21.08499,-22.05518,2.7726316,-31.239239,-17.744308,3.5946977,19.2508,-7.2902045,0.9511584,-9.165181,-5.3589296,2.644487,-10.117788,16.12533,-26.892176,24.43884,-1.1906886,3.6383471,-4.7258787,10.947167,-16.240429,13.786785,66.97101,2.7395353,10.762318,1.0269121
155,68.28401947021484,67.37067413330078,76.04085540771484,4.740187239052264,0.9216382521900429,77.45728931783665,2.227976,-9.503821,-17.631428,21.560081,-22.746267,2.5878522,-31.14871,-17.702845,3.4500694,17.517683,-7.0046573,0.3629985,-9.337875,-5.224977,2.4371114,-10.42084,16.228348,-27.095839,23.96582,-1.2228264,3.6874986,-4.840051,11.3451,-16.124674,13.476074,67.22786,2.5953486,10.862961,1.1844469
156,68.75992584228516,67.8302230834961,75.93445587158203,4.603965234660718,1.0959655993194064,77.72246869652764,2.3283677,-9.103817,-17.957731,22.015556,-23.410336,2.3976164,-31.064772,-17.623642,3.2736657,16.077808,-6.694196,-0.07985448,-9.496499,-5.087965,2.2470462,-10.693545,16.331635,-27.292328,23.534885,-1.1968976,3.7446415,-4.9542847,11.697323,-16.009726,13.202349,67.48473,2.4460025,10.969128,1.3534296
157,69.23660278320312,68.29475402832031,75.81969451904297,4.477329432264943,1.2619253656302194,78.00440274811955,2.447316,-8.7051325,-18.300266,22.44214,-24.0518,2.208762,-30.974695,-17.54452,3.0612335,14.910937,-6.329087,-0.32155395,-9.65158,-4.9573965,2.0749474,-10.939378,16.431915,-27.481478,23.149582,-1.0827466,3.811732,-5.070006,12.006116,-15.8963375,12.959548,67.7463,2.2834187,11.088796,1.5486463
158,69.72261047363281,68.75894927978516,75.70730590820312,4.348813759258843,1.4258031309256964,78.2981802728353,2.567484,-8.297151,-18.654192,22.865255,-24.682543,2.0194504,-30.883656,-17.463203,2.8104973,13.991485,-5.943589,-0.43730995,-9.799327,-4.8197002,1.9145715,-11.164719,16.528294,-27.67059,22.818502,-0.90381837,3.8871274,-5.192515,12.274095,-15.785738,12.747498,68.014206,2.1070302,11.220762,1.7677554
159,70.21098327636719,69.22377014160156,75.59712219238281,4.205332807351493,1.5860374408551774,78.57528058245812,2.6943557,-7.8593864,-18.996319,23.283945,-25.282375,1.8153536,-30.829973,-17.334326,2.554617,13.404814,-5.572724,-0.52516437,-9.921966,-4.6629796,1.7695696,-11.36122,16.618448,-27.850428,22.536268,-0.70666593,3.9660094,-5.315574,12.49652,-15.682494,12.582468,68.27378,1.9388849,11.348451,1.9804472
160,70.70112609863281,69.69384002685547,75.48983764648438,4.032505975641342,1.741572899454351,78.80574297229545,2.833499,-7.3710866,-19.302698,23.696533,-25.830275,1.5820829,-30.854254,-17.109102,2.3252218,13.241124,-5.255722,-0.6830303,-9.996623,-4.4817595,1.6439369,-11.519705,16.712141,-28.019272,22.290638,-0.54180676,4.044795,-5.4314895,12.667829,-15.580149,12.474125,68.513275,1.7965084,11.455168,2.1536841
161,71.1989974975586,70.16450500488281,75.3841552734375,3.8249983143355317,1.8834388652078717,78.97750384512622,3.0119143,-6.819202,-19.570215,24.068073,-26.328644,1.3069587,-30.97255,-16.77897,2.1189954,13.614756,-5.030368,-0.9486204,-10.018981,-4.2650046,1.5492562,-11.634624,16.799898,-28.16059,22.074839,-0.40950632,4.132339,-5.5490613,12.7845335,-15.493897,12.431283,68.733604,1.6856889,11.533256,2.289662
162,71.70721435546875,70.64038848876953,75.28638458251953,3.5913123336809187,2.0132254584986677,79.1088484780794,3.2217126,-6.217868,-19.811266,24.407013,-26.783749,1.0004108,-31.158857,-16.376451,1.9213686,14.440196,-4.8617454,-1.2673707,-9.998593,-4.0270543,1.4827447,-11.709089,16.894033,-28.286873,21.887098,-0.29145333,4.2283936,-5.6676574,12.850012,-15.4129715,12.443052,68.93814,1.5952039,11.595149,2.4001355
163,72.21363067626953,71.1056137084961,75.20553588867188,3.3373023208524306,2.1466577204044457,79.21570445210905,3.4120107,-5.5859027,-20.025576,24.785955,-27.187166,0.6825752,-31.387033,-15.910709,1.743568,15.501996,-4.6775904,-1.5968014,-9.955829,-3.7710228,1.4211698,-11.742598,16.996145,-28.402315,21.741657,-0.19483033,4.3117013,-5.771478,12.86662,-15.336927,12.512882,69.12113,1.5273933,11.647635,2.475954
164,72.7320785522461,71.54937744140625,75.14798736572266,3.065843995246633,2.3019730159791445,79.3118190958381,3.5295212,-4.9390917,-20.213121,25.277061,-27.530058,0.37301147,-31.640366,-15.388517,1.5996945,16.599463,-4.41349,-1.8959708,-9.9023485,-3.4866056,1.3375186,-11.750669,17.081545,-28.515177,21.673706,-0.12111732,4.361592,-5.8441668,12.847831,-15.278719,12.6390915,69.26612,1.4882112,11.699715,2.511543
165,73.26815795898438,72.01251983642578,75.09583282470703,2.76925406447543,2.4980509948299705,79.39054713963607,3.558698,-4.263771,-20.36249,25.869808,-27.811522,0.0654824,-31.952307,-14.78977,1.5009378,17.764835,-4.034024,-2.1537051,-9.834624,-3.1918647,1.2225518,-11.711864,17.209866,-28.636133,21.63411,-0.0983902,4.3719788,-5.8726025,12.762985,-15.199106,12.858831,69.39781,1.4942532,11.752802,2.4804046
166,73.80192565917969,72.49385070800781,75.04449462890625,2.447492783313515,2.7209950990693414,79.44722041061951,3.5297287,-3.5557823,-20.480698,26.532307,-28.033861,-0.247161,-32.313946,-14.113514,1.4313445,19.06305,-3.573925,-2.3882945,-9.746133,-2.8729446,1.0900669,-11.636599,17.35097,-28.755167,21.638857,-0.11153748,4.353131,-5.8694043,12.625269,-15.122059,13.15551,69.50426,1.5383348,11.803476,2.3983965
167,74.34447479248047,72.96150970458984,75.00662994384766,2.115322142365002,2.9409388640158864,79.49775894364527,3.4613166,-2.8444936,-20.595388,27.294981,-28.187962,-0.54723257,-32.6699,-13.398821,1.3758512,20.392029,-3.0918202,-2.6053383,-9.658242,-2.548014,0.9563245,-11.512117,17.50375,-28.86363,21.699234,-0.13561283,4.317143,-5.8510747,12.447618,-15.0408325,13.4737015,69.583786,1.5820261,11.846306,2.2940052
168,74.8913803100586,73.4288330078125,74.9784164428711,1.7882675364156946,3.1279000238113372,79.55842443227873,3.3741078,-2.1592345,-20.734386,28.184841,-28.263382,-0.8174006,-32.956383,-12.68121,1.3188221,21.634708,-2.6421437,-2.8122504,-9.588821,-2.236687,0.8382255,-11.332227,17.664259,-28.957268,21.833979,-0.14559293,4.2760706,-5.833881,12.24475,-14.948314,13.753176,69.6361,1.5849416,11.875596,2.194563
169,75.45755004882812,73.89982604980469,74.95289611816406,1.471520145028818,3.284957744094439,79.64039390936858,3.2732332,-1.5012312,-20.907007,29.190561,-28.267342,-1.0720489,-33.197346,-11.953138,1.3154203,22.808567,-2.194765,-3.052015,-9.541715,-1.9441118,0.7233615,-11.102331,17.829813,-29.046392,22.05554,-0.13774717,4.228413,-5.820638,12.026832,-14.837313,13.960027,69.66328,1.5144565,11.886932,2.09949
170,76.03096771240234,74.38758850097656,74.93254852294922,1.1561988720431426,3.424158809226041,79.73335774577029,3.1510644,-0.8569232,-21.100233,30.297386,-28.19892,-1.3145479,-33.411102,-11.193683,1.3523593,23.953344,-1.7298787,-3.3018062,-9.502871,-1.662703,0.6077971,-10.831711,17.998919,-29.136284,22.36259,-0.12352574,4.168332,-5.8020854,11.785037,-14.705978,14.126954,69.66789,1.3978326,11.883986,1.9948535
171,76.6071548461914,74.88189697265625,74.91699981689453,0.8357173350152322,3.530459657206899,79.82073348615722,3.0088055,-0.2315065,-21.305056,31.527172,-28.037336,-1.5121704,-33.53427,-10.4341345,1.3227026,25.00148,-1.3336548,-3.4792132,-9.463422,-1.3896747,0.51817316,-10.518299,18.169733,-29.212513,22.748652,-0.10141982,4.1042423,-5.7768817,11.506076,-14.560431,14.293545,69.65123,1.2834936,11.873746,1.8880849
172,77.18982696533203,75.37964630126953,74.91670227050781,0.5035227647645217,3.589637909942288,79.88569973433276,2.8461587,0.3687959,-21.510715,32.90408,-27.756907,-1.6339663,-33.507187,-9.705682,1.1238043,25.895008,-1.0995611,-3.512182,-9.416857,-1.1175939,0.48061028,-10.154341,18.339727,-29.255209,23.202347,-0.0689243,4.043708,-5.744203,11.179209,-14.40854,14.502057,69.60911,1.2200638,11.863287,1.7888983
173,77.76448059082031,75.87944030761719,74.92990112304688,0.15022895920610946,3.5941255573696957,79.92448222490457,2.6869469,0.95436394,-21.71299,34.415607,-27.366545,-1.6749481,-33.314697,-9.028175,0.6985563,26.647356,-1.0857826,-3.3669047,-9.368758,-0.8387419,0.5026166,-9.7182665,18.507524,-29.245827,23.719696,-0.002527879,3.9856243,-5.6995454,10.803468,-14.255993,14.766936,69.5369,1.2201484,11.861912,1.7013339
174,78.35986328125,76.38090515136719,74.95851135253906,-0.21781815731858375,3.5541142466965594,79.94536318473638,2.5271068,1.5244815,-21.914238,36.047276,-26.86918,-1.656266,-32.996357,-8.385577,0.12110781,27.301495,-1.2425349,-3.098822,-9.323385,-0.5528125,0.5684259,-9.214407,18.673367,-29.19131,24.301819,0.08960068,3.9269094,-5.6457043,10.386288,-14.102216,15.069398,69.43377,1.2592446,11.863877,1.6220783
175,78.94850158691406,76.88114929199219,74.99927520751953,-0.5888788571114082,3.481408878131092,79.94937754388026,2.3306355,2.0565321,-22.113672,37.809437,-26.229342,-1.587188,-32.569572,-7.760295,-0.5113073,27.836807,-1.4998145,-2.7666636,-9.2689295,-0.26847655,0.6692092,-8.679012,18.837543,-29.115305,24.95024,0.1629953,3.8719695,-5.5922914,9.925591,-13.949312,15.400696,69.30789,1.3326946,11.853259,1.5479487
176,79.53797912597656,77.38185119628906,75.05203247070312,-0.9480412867963025,3.387254363667828,79.9381869263994,2.0592928,2.525045,-22.31163,39.71888,-25.414196,-1.4772499,-32.055916,-7.129764,-1.1041108,28.23366,-1.7895408,-2.4269857,-9.194676,0.004228018,0.7970071,-8.148237,18.999735,-29.042078,25.667984,0.17324135,3.8240826,-5.549011,9.420798,-13.799952,15.751257,69.165306,1.4351757,11.81441,1.476424
177,80.11640930175781,77.88643646240234,75.11436462402344,-1.2908745980604954,3.26216699320278,79.90048261626444,1.7113432,2.9193988,-22.482882,41.81336,-24.38072,-1.2726423,-31.418692,-6.4831367,-1.6415765,28.431833,-2.1067722,-2.0249898,-9.091892,0.26242882,0.95817125,-7.6138,19.159443,-28.971615,26.45055,0.09686192,3.7878032,-5.5144854,8.869149,-13.653724,16.115767,69.01468,1.5686364,11.738425,1.412565
178,80.69329071044922,78.38719177246094,75.185546875,-1.6222184687338,3.10331741872399,79.84004352797695,1.3090037,3.2492905,-22.629696,44.06459,-23.150152,-0.99637735,-30.660315,-5.831826,-2.1681294,28.4591,-2.4790456,-1.550197,-8.967686,0.50921386,1.1531386,-7.063807,19.316277,-28.894981,27.300453,-0.03942656,3.7595608,-5.484763,8.275566,-13.509566,16.498602,68.84662,1.7337892,11.636829,1.3563037
179,81.27227783203125,78.88182067871094,75.26708984375,-1.9432130914261396,2.9313128791490586,79.78155805406651,0.8471141,3.5163517,-22.798986,46.40038,-21.793362,-0.76935226,-29.844439,-5.18443,-2.6828973,28.390959,-2.88088,-1.1241214,-8.835105,0.7448988,1.366928,-6.5262156,19.469416,-28.823,28.224373,-0.20317338,3.7342129,-5.4660516,7.646964,-13.367955,16.90587,68.64706,1.9259363,11.519125,1.2986753
180,81.83416748046875,79.36251068115234,75.35498046875,-2.2503623383908344,2.7669371339159508,79.74888730410636,0.3184734,3.7196734,-23.04515,48.759354,-20.388962,-0.7086958,-29.038076,-4.5499134,-3.184257,28.311207,-3.2918441,-0.8683355,-8.706205,0.9687038,1.5836607,-6.0298567,19.617321,-28.767721,29.230896,-0.36113086,3.7066867,-5.4644303,6.9932284,-13.232256,17.340117,68.394745,2.1377494,11.399649,1.230003
181,82.3828125,79.8446044921875,75.44950103759766,-2.5442643241903675,2.6101166496685124,79.74427464181619,-0.2853436,3.841406,-23.396744,51.170635,-18.915594,-0.83576757,-28.238653,-3.9273603,-3.670047,28.217392,-3.7149768,-0.8338362,-8.580403,1.181575,1.8032813,-5.582673,19.758526,-28.740427,30.329355,-0.5288422,3.6793432,-5.4878454,6.3168755,-13.102947,17.81188,68.07807,2.3831012,11.277788,1.1328669
182,82.93632507324219,80.32376861572266,75.5482406616211,-2.821380482636446,2.4507823713501664,79.75584293854716,-0.95642227,3.872492,-23.82629,53.665806,-17.356474,-1.0973394,-27.415777,-3.3120515,-4.138685,28.070616,-4.1596894,-0.94754493,-8.451755,1.3815321,2.0328782,-5.1706166,19.892353,-28.73373,31.515154,-0.71563804,3.6539447,-5.53092,5.6143513,-12.97947,18.315464,67.70823,2.6607802,11.148008,1.0178137
183,83.48223114013672,80.79460906982422,75.65025329589844,-3.0855213288058683,2.2950095344775145,79.78735346359045,-1.6804872,3.8265293,-24.308956,56.196747,-15.802325,-1.4904168,-26.590721,-2.7091458,-4.590599,27.894464,-4.613323,-1.145337,-8.325148,1.5651519,2.2698386,-4.788033,20.018253,-28.730879,32.773724,-0.88008696,3.624424,-5.579725,4.886918,-12.8635025,18.829014,67.29619,2.9407003,11.015923,0.9181001
184,84.01062774658203,81.26004028320312,75.74861907958984,-3.3368744219500313,2.149420450692858,79.84220639014491,-2.4485154,3.7228656,-24.819904,58.72149,-14.346193,-2.0041468,-25.785368,-2.1248667,-5.027379,27.714828,-5.0640197,-1.362842,-8.205143,1.7306165,2.5111024,-4.4290905,20.135916,-28.714598,34.09087,-0.98066324,3.5845568,-5.620306,4.136337,-12.758426,19.330133,66.85215,3.192281,10.887949,0.8667704
185,84.53348541259766,81.71837615966797,75.83920288085938,-3.575999884389513,2.0219136887315936,79.93778940853085,-3.2991803,3.539824,-25.402117,61.322445,-12.93768,-2.665187,-25.011192,-1.5693347,-5.460008,27.547428,-5.522396,-1.6160821,-8.10417,1.8769331,2.754835,-4.097209,20.244625,-28.683271,35.47763,-0.9755751,3.519134,-5.653717,3.3662229,-12.663481,19.81234,66.35837,3.4059203,10.770577,0.8848767
186,85.05596160888672,82.17300415039062,75.9291763305664,-3.802639831353784,1.906713065926055,80.06612580250567,-4.2213693,3.2668924,-26.05523,64.00722,-11.564783,-3.4664955,-24.25192,-1.0381577,-5.883234,27.376879,-5.992743,-1.9261271,-8.015061,2.0042536,3.0034122,-3.793321,20.344326,-28.645819,36.936844,-0.8969415,3.4361136,-5.685565,2.5740917,-12.578998,20.28691,65.81607,3.5984597,10.659381,0.95043284
187,85.56416320800781,82.62327575683594,76.01136779785156,-4.016440201659538,1.7909983528809061,80.19365625546757,-5.1448607,2.9548435,-26.68892,66.62955,-10.372335,-4.3346267,-23.490534,-0.5157793,-6.2772098,27.183641,-6.452282,-2.237325,-7.9148426,2.1172664,3.2603586,-3.5053086,20.43595,-28.59876,38.437218,-0.81479657,3.3636928,-5.7093782,1.7558345,-12.509161,20.759972,65.25797,3.7801445,10.544709,1.0336007
188,86.06253051757812,83.06311798095703,76.08612060546875,-4.221519291261616,1.6625232627904682,80.28719611334954,-6.0087214,2.6725152,-27.209532,69.03545,-9.49639,-5.1831746,-22.708546,0.016293852,-6.624354,26.939985,-6.8715878,-2.4961529,-7.779311,2.2244427,3.5290203,-3.2237527,20.517923,-28.541046,39.949593,-0.799567,3.329788,-5.7183747,0.9112125,-12.462319,21.23395,64.71377,3.95873,10.415937,1.1060632
189,86.54745483398438,83.498779296875,76.1526870727539,-4.424560154822762,1.5245754371926403,80.34612102874145,-6.815224,2.4662514,-27.589556,71.19396,-8.917852,-6.035634,-21.913572,0.5663955,-6.9297676,26.643373,-7.2470727,-2.6948438,-7.6069775,2.3361108,3.8070273,-2.9555566,20.589867,-28.488855,41.48198,-0.8781418,3.3491764,-5.7061043,0.036381617,-12.442984,21.718613,64.180084,4.144749,10.264701,1.176461
190,87.02948760986328,83.93221282958984,76.21559143066406,-4.624427295450971,1.3827517507089964,80.38652966669581,-7.6080465,2.31353,-27.878023,73.19075,-8.576078,-6.899823,-21.112722,1.1258731,-7.203108,26.304642,-7.5889134,-2.8617368,-7.4292912,2.4476137,4.095587,-2.673637,20.667171,-28.411724,43.016094,-1.0079099,3.4052114,-5.6811705,-0.879015,-12.447146,22.233343,63.648384,4.336532,10.099022,1.2544665
191,87.49270629882812,84.36012268066406,76.27436828613281,-4.813898178462125,1.2283013713030035,80.40057334944872,-8.393457,2.1895928,-28.09337,75.040276,-8.543027,-7.6668143,-20.285065,1.6895876,-7.4350924,25.90748,-7.887509,-2.9993443,-7.2190204,2.5525355,4.398174,-2.3898535,20.737751,-28.306906,44.549534,-1.1636564,3.4766,-5.651279,-1.8064078,-12.473535,22.734682,63.112556,4.5125413,9.933782,1.3178815
192,87.95218658447266,84.79004669189453,76.33719635009766,-4.985737506840824,1.052086152685125,80.38015838707442,-9.172799,2.0664344,-28.252712,76.75163,-8.893078,-8.2353735,-19.41473,2.2507946,-7.6162605,25.448118,-8.135419,-3.1101317,-6.9746523,2.641248,4.718298,-2.0867,20.798254,-28.138048,46.059334,-1.3129935,3.542859,-5.6276026,-2.7408233,-12.513764,23.211138,62.58785,4.6583147,9.783151,1.3399141
193,88.40792083740234,85.21503448486328,76.40082550048828,-5.138611622939333,0.8435715103006194,80.32043335652226,-9.928122,1.9685055,-28.335728,78.31157,-9.8228245,-8.58579,-18.483723,2.8112216,-7.7433414,24.908913,-8.318607,-3.180874,-6.701475,2.7079873,5.067436,-1.746326,20.851282,-27.87599,47.54323,-1.452279,3.5926683,-5.615353,-3.699081,-12.568029,23.692677,62.084427,4.7705274,9.652359,1.3015871
194,88.85270690917969,85.6314926147461,76.46529388427734,-5.275989214140056,0.6102126150631437,80.22648966169082,-10.668084,1.9090847,-28.340492,79.7157,-11.230146,-8.773016,-17.50657,3.3732824,-7.8220773,24.298977,-8.444747,-3.2170224,-6.3961773,2.7585633,5.4381685,-1.3868551,20.89336,-27.549772,49.01943,-1.596593,3.6389048,-5.60731,-4.6809154,-12.634377,24.172174,61.59803,4.8549676,9.532626,1.219625
195,89.28770446777344,86.05146026611328,76.52959442138672,-5.398207208431842,0.36946212965798303,80.10549588404625,-11.427633,1.8334624,-28.311222,80.980515,-12.739876,-8.811432,-16.509895,3.931408,-7.8559036,23.642385,-8.534073,-3.2488375,-6.0679007,2.8015563,5.8120384,-1.0108922,20.927395,-27.178354,50.4597,-1.738843,3.6982753,-5.6005588,-5.667204,-12.707113,24.613264,61.121147,4.9227047,9.417502,1.1203233
196,89.72047424316406,86.47766876220703,76.59696960449219,-5.506387899552485,0.13898100644547823,79.96461705669866,-12.240442,1.6836246,-28.29246,82.12488,-13.978283,-8.713394,-15.520453,4.480879,-7.8497124,22.964485,-8.608086,-3.3063672,-5.7232895,2.8441465,6.1699023,-0.6235847,20.95913,-26.784832,51.837646,-1.8733568,3.7876492,-5.591751,-6.6393375,-12.778723,24.974829,60.650177,4.9820876,9.300418,1.0295377
197,90.14807891845703,86.89620208740234,76.66651916503906,-5.597671653473969,-0.08608504602609683,79.80346063037193,-13.096559,1.4017473,-28.321335,83.155624,-14.858893,-8.435473,-14.531035,5.0182076,-7.803432,22.263546,-8.66812,-3.3953147,-5.346604,2.8782618,6.5113397,-0.24677029,20.986927,-26.388006,53.182953,-2.0090902,3.9159102,-5.5702515,-7.5975723,-12.839155,25.221598,60.19983,5.0303607,9.172306,0.948295
198,90.56881713867188,87.30955505371094,76.73174285888672,-5.672470604233572,-0.3120324948931001,79.61913392544618,-13.980858,1.0247402,-28.365692,84.060326,-15.572828,-7.9903493,-13.531876,5.5453324,-7.7161317,21.529802,-8.704964,-3.5019672,-4.9760237,2.9067237,6.8546968,0.17832021,21.021717,-25.918903,54.449474,-2.1346123,4.073613,-5.5478525,-8.563813,-12.907033,25.425768,59.760914,5.076474,9.040826,0.8646465
199,90.98631286621094,87.7209701538086,76.79435729980469,-5.739000290634846,-0.5240320497413509,79.41351379735212,-14.913825,0.64485574,-28.364668,84.81844,-16.173285,-7.470987,-12.547561,6.0681853,-7.591729,20.779514,-8.723983,-3.6270957,-4.576085,2.9345262,7.1776066,0.6077228,21.060528,-25.44949,55.650074,-2.2565205,4.2476974,-5.531761,-9.518076,-12.969314,25.56169,59.334286,5.104955,8.916611,0.7825939
200,91.40580749511719,88.12985229492188,76.85049438476562,-5.805665814819075,-0.7069777018156109,79.18886107179384,-15.918327,0.3575632,-28.258232,85.41026,-16.714418,-6.9690933,-11.604008,6.592376,-7.4339867,20.031641,-8.732086,-3.770802,-4.1612234,2.9721546,7.4667478,1.0574602,21.10902,-24.979685,56.74493,-2.3635502,4.425868,-5.5370474,-10.460434,-13.0257225,25.660603,58.917835,5.1120415,8.812825,0.7052172
201,91.81311798095703,88.536865234375,76.9024658203125,-5.876772711570919,-0.8535573605576063,78.94399022524708,-17.015968,0.20200697,-28.016163,85.83144,-17.20319,-6.490523,-10.709914,7.122632,-7.242452,19.286736,-8.727268,-3.9393501,-3.7311196,3.0239296,7.714569,1.5339656,21.170763,-24.49661,57.72759,-2.454699,4.6129823,-5.5672297,-11.390971,-13.074589,25.722683,58.51619,5.0948286,8.734898,0.624499
202,92.22248077392578,88.9375,76.94679260253906,-5.94734812940947,-0.97319126771057,78.67782161321878,-18.187769,0.12552238,-27.672478,86.09226,-17.613852,-5.992254,-9.850766,7.653708,-7.0155063,18.538212,-8.707609,-4.131061,-3.286132,3.0810997,7.9307985,2.0387151,21.24635,-23.99363,58.608315,-2.5333033,4.8132787,-5.616033,-12.316769,-13.116415,25.743011,58.133835,5.058133,8.675261,0.54107803
203,92.62796020507812,89.34095764160156,76.98686981201172,-6.010906545477478,-1.0759490512931067,78.39200731466086,-19.39048,0.08860181,-27.263786,86.185326,-17.95793,-5.4948606,-9.016569,8.176189,-6.7548466,17.792736,-8.68045,-4.3327746,-2.830482,3.135508,8.128348,2.5684116,21.337172,-23.496126,59.37798,-2.6001332,5.013203,-5.682619,-13.23579,-13.151527,25.731955,57.75676,5.00901,8.626736,0.4724075
204,93.02448272705078,89.73555755615234,77.0211410522461,-6.060155595695909,-1.1716552429795772,78.08846009188795,-20.58238,0.049723964,-26.82655,86.10529,-18.24558,-5.019245,-8.19849,8.679848,-6.4623017,17.059462,-8.6545,-4.530347,-2.3671913,3.1798222,8.320365,3.1179225,21.445461,-23.031477,60.0283,-2.6570024,5.199592,-5.766073,-14.143929,-13.17918,25.69869,57.36858,4.9557014,8.582372,0.4361485
205,93.41535949707031,90.12928771972656,77.05009460449219,-6.092741059661482,-1.257829068897304,77.76270285304156,-21.774153,0.025925431,-26.335997,85.84403,-18.47259,-4.5672045,-7.397434,9.164106,-6.1355686,16.33297,-8.628253,-4.7222743,-1.8910156,3.2104545,8.506568,3.6823993,21.575026,-22.605398,60.558468,-2.7000647,5.3764634,-5.8711452,-15.044421,-13.198883,25.6341,56.96992,4.897757,8.543099,0.44408563
206,93.80048370361328,90.51866912841797,77.07268524169922,-6.112948389580493,-1.331191384809047,77.41473032053192,-22.975023,0.030939572,-25.779095,85.40457,-18.637896,-4.1319246,-6.6163845,9.632439,-5.774737,15.613621,-8.599801,-4.9146104,-1.4007242,3.2311084,8.682596,4.2666774,21.726786,-22.20408,60.969326,-2.730588,5.549594,-5.9972496,-15.934198,-13.209959,25.532257,56.563957,4.827788,8.511667,0.4848515
207,94.18731689453125,90.90453338623047,77.09356689453125,-6.123421520792291,-1.4000420474317927,77.05344039693541,-24.142452,0.017539443,-25.210619,84.79696,-18.751648,-3.7208614,-5.8520627,10.08133,-5.386106,14.919541,-8.577602,-5.105389,-0.9075803,3.244093,8.854137,4.8779235,21.896933,-21.824217,61.26523,-2.7566133,5.703053,-6.1349444,-16.81558,-13.215237,25.421827,56.153347,4.756915,8.483232,0.5400682
208,94.57331848144531,91.29378509521484,77.10761260986328,-6.12818257417097,-1.4728630452363118,76.68824558328298,-25.236502,-0.062052317,-24.68818,84.02887,-18.82472,-3.3411255,-5.0985713,10.508505,-4.9762483,14.263312,-8.567328,-5.2931485,-0.42327985,3.2538924,9.026552,5.5208464,22.078125,-21.463715,61.45319,-2.7861314,5.8211102,-6.274233,-17.688078,-13.218919,25.330622,55.737484,4.695009,8.453642,0.59161603
209,94.94548797607422,91.6791763305664,77.11746978759766,-6.125577024743518,-1.5536186229835007,76.31895576299412,-26.250635,-0.23807077,-24.240843,83.10178,-18.857105,-2.9850874,-4.357496,10.913609,-4.5397234,13.653432,-8.569183,-5.482679,0.04970215,3.2631698,9.2052145,6.1948256,22.266542,-21.126764,61.526817,-2.8152788,5.9005823,-6.422567,-18.55304,-13.223642,25.266327,55.311256,4.6456523,8.42479,0.63899636
210,95.31158447265625,92.07136535644531,77.12244415283203,-6.117041205894307,-1.6373964306781674,75.94191317161491,-27.204493,-0.47825697,-23.834236,82.00919,-18.842602,-2.6528003,-3.6306517,11.298835,-4.0771384,13.081314,-8.580515,-5.673812,0.5169866,3.2730994,9.385651,6.893808,22.461212,-20.813822,61.491615,-2.8407094,5.948956,-6.581082,-19.408852,-13.229937,25.215607,54.87454,4.6047664,8.398344,0.69055396
211,95.66304779052734,92.4605484008789,77.1225357055664,-6.105105357193552,-1.7176469942595987,75.56053708137878,-28.101362,-0.73664135,-23.432604,80.75175,-18.782103,-2.360474,-2.918432,11.665484,-3.6046433,12.542662,-8.606305,-5.8576503,0.9798131,3.2867644,9.5583515,7.6125774,22.656864,-20.517635,61.373585,-2.8709865,5.9664116,-6.730347,-20.244677,-13.237933,25.168774,54.43002,4.5630436,8.369345,0.74161094
212,96.01591491699219,92.8503189086914,77.12043762207031,-6.092287129556409,-1.78803969117935,75.17841319678053,-28.944096,-0.9682657,-22.99859,79.33187,-18.67413,-2.1245265,-2.2176805,12.0149,-3.1372452,12.026114,-8.650082,-6.024764,1.4397559,3.307744,9.713511,8.343965,22.845613,-20.232126,61.20119,-2.9142907,5.953043,-6.850673,-21.047215,-13.246112,25.114466,53.978485,4.5103765,8.332743,0.78715885
213,96.36111450195312,93.25572204589844,77.11040496826172,-6.078226593977631,-1.8524771907738018,74.80003142456349,-29.723093,-1.1801318,-22.537447,77.73374,-18.511469,-1.9787798,-1.5240897,12.343839,-2.681411,11.537785,-8.715472,-6.164837,1.894098,3.3372371,9.852062,9.08944,23.022503,-19.959522,60.97067,-2.962069,5.896215,-6.935676,-21.815016,-13.254009,25.045975,53.522057,4.4502773,8.285044,0.82522595
214,96.70108032226562,93.6559066772461,77.09259033203125,-6.061452854291875,-1.9122768049199068,74.42214564118314,-30.437868,-1.389274,-22.065262,75.9584,-18.295807,-1.905015,-0.83873725,12.653066,-2.2283325,11.076318,-8.798729,-6.2851844,2.342857,3.374943,9.976312,9.845825,23.187042,-19.704918,60.679573,-3.0133767,5.799464,-6.9948483,-22.557026,-13.262751,24.973072,53.06419,4.3873367,8.229452,0.8581223
215,97.03166198730469,94.04873657226562,77.0685806274414,-6.045452792629281,-1.9580853837127556,74.03694274930801,-31.103085,-1.5664556,-21.560682,74.03234,-18.04043,-1.844021,-0.17858945,12.950193,-1.7729834,10.64602,-8.898875,-6.4030375,2.7916229,3.4212856,10.078643,10.600755,23.337278,-19.463564,60.355934,-3.0854268,5.6872377,-7.032521,-23.275198,-13.272934,24.907541,52.607494,4.3109274,8.171653,0.88729537
216,97.36489868164062,94.45215606689453,77.04510498046875,-6.03463271181763,-1.9807177807530107,73.6367614502739,-31.732466,-1.6836522,-21.001785,71.982735,-17.760298,-1.7378819,0.43904486,13.242306,-1.3101346,10.251581,-9.014822,-6.5354934,3.244835,3.476173,10.151058,11.341746,23.470394,-19.229918,60.02904,-3.1957376,5.5838275,-7.052578,-23.970394,-13.28494,24.859442,52.154476,4.205142,8.117332,0.91402197
217,97.69396209716797,94.85714721679688,77.01593017578125,-6.02791787358122,-1.9784558650246693,73.212614331917,-32.32673,-1.7185384,-20.368782,69.79315,-17.463203,-1.5784892,1.0078846,13.531176,-0.83633864,9.898172,-9.148937,-6.693189,3.707331,3.5423498,10.192474,12.0685425,23.58455,-19.01144,59.695023,-3.360093,5.4940176,-7.0454445,-24.65027,-13.300375,24.839106,51.709854,4.053164,8.064165,0.93173337
218,98.02120971679688,95.26406860351562,76.97917938232422,-6.0259533417825555,-1.9567162389510246,72.77102152903822,-32.87352,-1.6943069,-19.67676,67.45377,-17.140516,-1.39826,1.5382677,13.813738,-0.35537875,9.581337,-9.300561,-6.8647184,4.1751328,3.619262,10.206891,12.78314,23.678816,-18.809313,59.347942,-3.565104,5.4030747,-7.012312,-25.309631,-13.319372,24.836805,51.26885,3.863854,8.010518,0.9420953
219,98.34920501708984,95.67180633544922,76.943603515625,-6.027860366982569,-1.914753496191108,72.32711272713948,-33.369053,-1.6505524,-18.957195,65.00308,-16.783634,-1.1995782,2.0352724,14.090631,0.12626562,9.296247,-9.465942,-7.0350738,4.63963,3.701975,10.193925,13.480529,23.752771,-18.60668,59.002758,-3.7826662,5.3130383,-6.9726996,-25.941536,-13.340319,24.845427,50.828613,3.6788583,7.9626837,0.9580515
220,98.6727066040039,96.07837677001953,76.90046691894531,-6.0335740218861575,-1.8518585270860053,71.89601911410499,-33.812984,-1.6243502,-18.24295,62.47912,-16.38347,-0.98187816,2.5061707,14.362955,0.6026086,9.032089,-9.638199,-7.1893535,5.0937924,3.7874806,10.149795,14.144708,23.798803,-18.393959,58.69269,-3.9866266,5.2224507,-6.9435096,-26.545263,-13.359981,24.858866,50.397915,3.5410385,7.926054,0.9918438
221,98.99940490722656,96.48956298828125,76.85295104980469,-6.043467337458328,-1.7587475765451388,71.47273344074542,-34.22132,-1.6147611,-17.543238,59.87005,-15.949066,-0.69731855,2.932371,14.631029,1.0786356,8.803574,-9.820641,-7.313592,5.5348425,3.8685894,10.07189,14.805375,23.829355,-18.14168,58.381367,-4.174538,5.128702,-6.934311,-27.115557,-13.378063,24.879864,49.961685,3.4665875,7.9046354,1.0446348
222,99.33233642578125,96.9058609008789,76.80138397216797,-6.057762621367683,-1.639099055438696,71.05209991949494,-34.588036,-1.60487,-16.841013,57.158646,-15.480688,-0.36063486,3.3168104,14.895512,1.5548863,8.609234,-10.014327,-7.4193354,5.968167,3.9479175,9.960741,15.452916,23.840118,-17.86888,58.077663,-4.359998,5.0310755,-6.933083,-27.659359,-13.392985,24.909939,49.530235,3.4304078,7.894083,1.1099092
223,99.66545867919922,97.31868743896484,76.7435531616211,-6.077835734510898,-1.5118219816337837,70.64823794255607,-34.88245,-1.6041744,-16.133472,54.371735,-14.954123,-0.062816605,3.6969955,15.157651,2.0185363,8.421105,-10.21385,-7.529828,6.3869677,4.028448,9.83279,16.067133,23.832653,-17.600672,57.804565,-4.534954,4.9403644,-6.9357514,-28.174824,-13.404257,24.942833,49.10694,3.4118695,7.8897166,1.1912647
224,99.99723815917969,97.73585510253906,76.67990112304688,-6.104783143891496,-1.3958959146548486,70.2755454703096,-35.07645,-1.6220169,-15.419479,51.537888,-14.340419,0.1067947,4.106493,15.4189825,2.456374,8.218013,-10.416651,-7.668311,6.765658,4.1107397,9.714013,16.659325,23.812107,-17.325365,57.55546,-4.6803584,4.8650002,-6.9444532,-28.663462,-13.411732,24.990713,48.683212,3.394891,7.8879833,1.292173
225,100.3372802734375,98.15769958496094,76.61112213134766,-6.1395270965770905,-1.288249194848572,69.93704962750459,-35.168674,-1.6551332,-14.706185,48.6185,-13.570421,0.11885404,4.553647,15.679541,2.8675766,7.9766583,-10.6139145,-7.8452983,7.1088934,4.195008,9.600281,17.217867,23.782614,-17.058659,57.33654,-4.795019,4.806968,-6.9585075,-29.120134,-13.413727,25.042212,48.256668,3.3787322,7.889383,1.4184796
226,100.67912292480469,98.58588409423828,76.5389404296875,-6.182376293786255,-1.182553798492574,69.62410297108111,-35.169437,-1.6985953,-13.995681,45.60078,-12.670412,0.025660384,5.017998,15.940052,3.2589886,7.721331,-10.813041,-8.046911,7.4382496,4.27867,9.481031,17.736553,23.752884,-16.813774,57.14869,-4.894948,4.76218,-6.9775496,-29.545816,-13.4145975,25.089666,47.8337,3.3777041,7.8949766,1.5673524
227,101.02445220947266,99.01903533935547,76.46197509765625,-6.23372462781991,-1.0932841774529332,69.33360985661567,-35.06921,-1.7549994,-13.284041,42.548412,-11.755728,-0.13777418,5.512076,16.202494,3.6354027,7.461993,-11.01569,-8.25922,7.731831,4.3663034,9.376962,18.247932,23.712418,-16.54648,56.97295,-4.9721036,4.7297363,-7.0038934,-29.941687,-13.4114895,25.152664,47.406677,3.3702796,7.9025064,1.728808
228,101.369384765625,99.45331573486328,76.37769317626953,-6.293292379325061,-1.034519977902915,69.06227151529103,-34.86153,-1.8237054,-12.567588,39.526405,-10.942188,-0.33331674,6.0445766,16.46834,4.000623,7.2146797,-11.226619,-8.468352,7.9863863,4.4648137,9.295255,18.747719,23.644909,-16.254322,56.832855,-5.0324016,4.707345,-7.0315056,-30.331106,-13.401307,25.251682,47.007786,3.3552096,7.9072223,1.8907659
229,101.71898651123047,99.88801574707031,76.28411865234375,-6.363361719371166,-1.0201223711764935,68.81972447409174,-34.526825,-1.8926835,-11.812323,36.522697,-10.265927,-0.56336254,6.521694,16.749031,4.316069,7.2067966,-11.571584,-8.675319,8.229744,4.576903,9.240518,19.201544,23.566233,-15.978754,56.758526,-5.0912943,4.696892,-7.0593863,-30.675652,-13.388388,25.333199,46.61657,3.2921631,7.9078074,2.065437
230,102.07057189941406,100.33154296875,76.1832275390625,-6.4455717381689945,-1.041106390800436,68.60144006807754,-34.074318,-1.9554955,-11.037677,33.49909,-9.657301,-0.83505684,7.0482388,17.03975,4.617226,7.2024307,-11.925789,-8.8866415,8.455708,4.699751,9.209486,19.627846,23.48273,-15.703771,56.72385,-5.1412325,4.6993146,-7.091301,-30.993143,-13.378854,25.421223,46.23582,3.2161067,7.9058104,2.2540302
231,102.42035675048828,100.78502655029297,76.07672882080078,-6.539574638948311,-1.0775263358749558,68.38374162614744,-33.548557,-2.0189762,-10.319465,30.497906,-9.079914,-1.1170762,7.597704,17.337801,4.923908,7.2015676,-12.276338,-9.093882,8.694153,4.8326797,9.184176,20.020065,23.408949,-15.457537,56.717,-5.1953363,4.7116,-7.1252937,-31.267286,-13.374241,25.49933,45.85249,3.133681,7.9043827,2.4378276
232,102.77472686767578,101.24401092529297,75.9620361328125,-6.6455802563780475,-1.109464778151124,68.14360145044557,-32.99602,-2.0898297,-9.732024,27.570877,-8.501934,-1.3808433,8.141353,17.641357,5.254248,7.2082806,-12.61246,-9.28884,8.912867,4.9892793,9.151264,20.402988,23.295177,-15.198705,56.728485,-5.23341,4.726804,-7.152865,-31.55772,-13.369748,25.647764,45.509888,3.0978284,7.9062524,2.5908575
233,103.1280746459961,101.70851135253906,75.84044647216797,-6.769718187465522,-1.1412626026806558,67.87558541474378,-32.400818,-2.1687007,-9.296484,24.69537,-7.922901,-1.6451517,8.682251,17.957388,5.613904,7.2250514,-12.93194,-9.464814,9.175828,5.162329,9.10257,20.74466,23.201887,-15.002655,56.76496,-5.298163,4.7511544,-7.174737,-31.824507,-13.374809,25.800606,45.186504,3.1079984,7.912159,2.7087204
234,103.47406768798828,102.16204071044922,75.71235656738281,-6.915665024316586,-1.183824960329247,67.58785917547566,-31.750143,-2.2371182,-8.973946,21.861942,-7.3617644,-1.9112842,9.236365,18.29267,5.997421,7.248521,-13.239019,-9.628451,9.411144,5.3821907,9.057663,21.07122,23.043867,-14.787185,56.836792,-5.3427505,4.7799935,-7.1855693,-32.106075,-13.388848,26.037445,44.898285,3.1671999,7.923246,2.7975829
235,103.81790161132812,102.61994934082031,75.5809555053711,-7.074038331309151,-1.224077253050988,67.2808271821836,-31.098124,-2.2835906,-8.743356,19.14936,-6.814693,-2.1311643,9.790066,18.639555,6.4030166,7.2755976,-13.533271,-9.791768,9.670761,5.616306,8.999347,21.353506,22.88475,-14.611343,56.942547,-5.3846765,4.810347,-7.195255,-32.360367,-13.4078045,26.2754,44.627304,3.2257736,7.9348354,2.8771539
236,104.14899444580078,103.0787582397461,75.44319915771484,-7.232253825511758,-1.2467229818544827,66.95740596699248,-30.496796,-2.3071792,-8.581523,16.633163,-6.2783637,-2.2622066,10.324947,18.984722,6.824961,7.3078785,-13.816937,-9.965825,9.930808,5.848431,8.922067,21.604013,22.71319,-14.447294,57.070503,-5.4001884,4.8352847,-7.209124,-32.608166,-13.4316435,26.538301,44.38662,3.2802813,7.943421,2.9587984
237,104.48689270019531,103.53768157958984,75.30540466308594,-7.386663188930473,-1.2307307807451575,66.6188506120201,-29.985249,-2.329204,-8.514132,14.336447,-5.7454805,-2.2724311,10.817516,19.320896,7.2591085,7.3386674,-14.089702,-10.149876,10.196474,6.0682936,8.8096895,21.818747,22.542027,-14.300751,57.219303,-5.389819,4.8505774,-7.236146,-32.83559,-13.454181,26.806871,44.164185,3.3006794,7.945685,3.043401
238,104.82646179199219,104.00700378417969,75.16622924804688,-7.537573479775145,-1.183998978440993,66.27098392571648,-29.536037,-2.3590083,-8.539706,12.228351,-5.223053,-2.1968973,11.272648,19.64754,7.699438,7.379586,-14.357462,-10.337016,10.45201,6.2806764,8.668441,22.001171,22.35595,-14.163399,57.395676,-5.3560843,4.8595333,-7.2689013,-33.066483,-13.479343,27.11092,43.978935,3.3227694,7.9434123,3.1227717
239,105.17560577392578,104.46915435791016,75.02497100830078,-7.675550024771933,-1.1311767842089993,65.9278653178871,-29.100067,-2.3876402,-8.595055,10.296127,-4.7189474,-2.0949388,11.726019,19.954954,8.137992,7.423658,-14.610653,-10.528366,10.704799,6.465005,8.522342,22.156496,22.18754,-14.04899,57.578247,-5.310978,4.8727474,-7.301588,-33.261414,-13.499801,27.40172,43.803097,3.3363109,7.941897,3.2032804
240,105.5336685180664,104.93516540527344,74.88502502441406,-7.789981680278332,-1.096369404365775,65.60294007013208,-28.622133,-2.4052424,-8.617442,8.511538,-4.232457,-2.0248566,12.212031,20.233227,8.567108,7.4668036,-14.841266,-10.725124,10.973328,6.5884285,8.392749,22.291565,22.09229,-13.978193,57.738873,-5.2733874,4.9022636,-7.330804,-33.39471,-13.5110235,27.62611,43.62251,3.3479998,7.9447303,3.2942727
241,105.90229034423828,105.4036865234375,74.74960327148438,-7.88347260570958,-1.0928244836317145,65.30070031047336,-28.172213,-2.4241028,-8.5827,7.0632253,-3.8800244,-2.0281575,12.7478075,20.486826,8.988293,7.510087,-15.0516815,-10.934494,11.147528,6.7267923,8.302686,22.407057,21.890718,-13.870701,57.93892,-5.1761665,4.942932,-7.322674,-33.517334,-13.515331,27.925608,43.462215,3.3756478,7.962805,3.3856874
242,106.2729263305664,105.88260650634766,74.62145233154297,-7.951821899331299,-1.0990074325108072,65.02039327375154,-28.276083,-2.5411592,-8.503023,7.0126743,-4.209649,-2.062265,13.304444,20.709623,9.395975,7.555126,-15.245665,-11.152286,11.321659,6.814593,8.222606,22.485365,21.729904,-13.806379,58.149975,-5.072418,4.9968443,-7.3030357,-33.589737,-13.502086,28.168108,43.309986,3.3842804,7.986538,3.490275
