unveil-humanoid-operators/unveil-humanoid-operators.github.io/feature-analysis-animation/data/feature_matrix_instances/weight_ankle_peak_vel_jogging_A460_baby_full_diaper_jog_ff_270_start_R_002__A460.csv
Frame,root_translateX,root_translateY,root_translateZ,root_rotateX,root_rotateY,root_rotateZ,left_hip_pitch_joint_dof,left_hip_roll_joint_dof,left_hip_yaw_joint_dof,left_knee_joint_dof,left_ankle_pitch_joint_dof,left_ankle_roll_joint_dof,right_hip_pitch_joint_dof,right_hip_roll_joint_dof,right_hip_yaw_joint_dof,right_knee_joint_dof,right_ankle_pitch_joint_dof,right_ankle_roll_joint_dof,waist_yaw_joint_dof,waist_roll_joint_dof,waist_pitch_joint_dof,left_shoulder_pitch_joint_dof,left_shoulder_roll_joint_dof,left_shoulder_yaw_joint_dof,left_elbow_joint_dof,left_wrist_roll_joint_dof,left_wrist_pitch_joint_dof,left_wrist_yaw_joint_dof,right_shoulder_pitch_joint_dof,right_shoulder_roll_joint_dof,right_shoulder_yaw_joint_dof,right_elbow_joint_dof,right_wrist_roll_joint_dof,right_wrist_pitch_joint_dof,right_wrist_yaw_joint_dof
0,-3.1063687801361084,0.2756181061267853,77.82744598388672,-1.4573519684247038,-11.988415073295625,-2.34090920059881,8.575681,6.3832955,2.0601008,20.926113,-19.391445,-6.5024595,9.773227,-4.382067,-11.626654,19.055964,-14.019616,6.717782,1.9209044,1.1010383,8.9830885,-63.530632,24.726524,-18.270176,40.560905,-56.617348,-4.0614004,4.387971,-68.722046,-23.485651,26.179235,40.151398,31.954575,-7.4601064,-12.528288
1,-3.168635129928589,0.26705026626586914,77.7733383178711,-1.3985821074872804,-11.805568129968606,-2.404500798301676,8.004785,6.361585,2.08933,21.59434,-19.67002,-6.515877,9.032782,-4.5301905,-11.544453,20.049927,-14.442711,6.727921,1.9676037,1.0523701,8.9218,-63.653957,24.757303,-18.24836,40.5555,-56.74652,-4.0638847,4.381536,-68.85002,-23.475521,26.18086,40.14468,32.083134,-7.511142,-12.568593
2,-3.2390291690826416,0.2532629668712616,77.71683502197266,-1.3394041201926485,-11.621923695569368,-2.4676439693824133,7.4306273,6.338589,2.1192355,22.266054,-19.950382,-6.5288396,8.290334,-4.6767673,-11.460833,21.044806,-14.864964,6.7417955,2.0017006,1.00123,8.867156,-63.756596,24.82437,-18.22612,40.518852,-56.90113,-4.0622025,4.373256,-68.98539,-23.458447,26.184114,40.13389,32.219868,-7.565229,-12.608929
3,-3.3121936321258545,0.24908660352230072,77.64786529541016,-1.280267482967301,-11.443740878253516,-2.5313558075257476,6.8635654,6.3161206,2.149247,22.939043,-20.23248,-6.5444236,7.561695,-4.8209944,-11.377177,22.0266,-15.283543,6.7538075,2.0502367,0.95024395,8.811526,-63.877304,24.857208,-18.20066,40.50812,-57.01809,-4.061795,4.3682675,-69.10713,-23.452518,26.183966,40.11752,32.342796,-7.6112833,-12.648216
4,-3.3832144737243652,0.24430552124977112,77.57967376708984,-1.2209019679904254,-11.27812671547162,-2.5968435183166667,6.3124113,6.295391,2.1787496,23.614662,-20.518185,-6.5655675,6.859601,-4.963546,-11.294496,22.987665,-15.698807,6.7582564,2.101541,0.89516544,8.760065,-63.989307,24.883566,-18.15751,40.493855,-57.0735,-4.0533476,4.3716755,-69.210976,-23.450027,26.18711,40.08491,32.434513,-7.6374874,-12.684839
5,-3.4556918144226074,0.22984851896762848,77.5088882446289,-1.1584569036723424,-11.124797207420135,-2.6682172144166634,5.776757,6.274245,2.2104425,24.293718,-20.807518,-6.5932617,6.182075,-5.1097264,-11.214808,23.930342,-16.11231,6.7578683,2.136235,0.84337705,8.725669,-64.0398,24.945581,-18.04358,40.406864,-57.040283,-4.0149183,4.3861246,-69.321365,-23.443089,26.215042,40.031334,32.494865,-7.633444,-12.7165985
6,-3.5151920318603516,0.22269867360591888,77.432861328125,-1.093787974962129,-10.980494340702212,-2.743632245385908,5.251309,6.2527165,2.2436433,24.978148,-21.10074,-6.6255956,5.522382,-5.2580843,-11.136814,24.86034,-16.524769,6.7542114,2.1864946,0.7808324,8.691341,-64.11569,24.976698,-17.927816,40.35149,-56.938248,-3.9733002,4.4130135,-69.41107,-23.439342,26.229166,39.964954,32.522114,-7.6092854,-12.743394
7,-3.5774497985839844,0.2084156721830368,77.35546112060547,-1.032203947027048,-10.847412838670154,-2.8154803397867822,4.743089,6.2355723,2.2732015,25.65854,-21.394775,-6.661056,4.892133,-5.397393,-11.056888,25.761793,-16.928612,6.7396555,2.2134688,0.73675966,8.665428,-64.11551,25.036257,-17.753414,40.22658,-56.807446,-3.9180827,4.4333835,-69.515785,-23.428516,26.286903,39.90535,32.53854,-7.5788417,-12.776313
8,-3.629868745803833,0.1970302015542984,77.27550506591797,-0.978841594137174,-10.726726097839192,-2.8760872893174496,4.2584796,6.2266397,2.2939734,26.32725,-21.687464,-6.6981544,4.3027935,-5.51702,-10.9715185,26.61997,-17.318619,6.7065034,2.2529044,0.67624646,8.630165,-64.15531,25.056608,-17.640053,40.169964,-56.69464,-3.8900747,4.4474025,-69.5687,-23.424768,26.314524,39.834488,32.533356,-7.5545287,-12.81385
9,-3.6756508350372314,0.180169016122818,77.19660949707031,-0.9334440474349586,-10.623422503553376,-2.9254240531638835,3.8063676,6.2263713,2.3061764,26.97526,-21.977596,-6.7361994,3.7571464,-5.612926,-10.870475,27.435406,-17.694096,6.641076,2.2820563,0.6257233,8.59282,-64.15064,25.072693,-17.51646,40.096603,-56.59645,-3.8741825,4.439434,-69.60488,-23.422031,26.36255,39.771545,32.5032,-7.5313735,-12.8658085
10,-3.7157557010650635,0.16332995891571045,77.11812591552734,-0.8939554785329926,-10.53317413084447,-2.9669197598178063,3.379595,6.2327933,2.311644,27.611406,-22.265383,-6.775827,3.2490203,-5.690881,-10.758991,28.213778,-18.057903,6.5510025,2.2967682,0.5922919,8.556188,-64.08759,25.091274,-17.358086,39.98735,-56.49135,-3.8605611,4.415102,-69.6393,-23.417152,26.445906,39.719765,32.454674,-7.50676,-12.93082
11,-3.7560696601867676,0.14362366497516632,77.03742218017578,-0.8622385554824349,-10.45169927665084,-2.998405478651442,2.9645224,6.2468653,2.3085234,28.245787,-22.553925,-6.818088,2.7726395,-5.756345,-10.656321,28.956173,-18.40663,6.4602747,2.3101761,0.55249906,8.518074,-64.03543,25.098454,-17.2317,39.9016,-56.39375,-3.8585968,4.3932,-69.6477,-23.414133,26.518305,39.660084,32.408447,-7.4933286,-12.99519
12,-3.797987937927246,0.12555618584156036,76.9527359008789,-0.8411458342740933,-10.373713575196625,-3.0175600882399705,2.5483637,6.270136,2.294661,28.88645,-22.844585,-6.8640842,2.3211849,-5.8143063,-10.582026,29.665651,-18.738234,6.392817,2.310793,0.53175735,8.480633,-63.96419,25.100666,-17.104115,39.805683,-56.297638,-3.8575459,4.3802495,-69.6571,-23.415012,26.617388,39.604626,32.40858,-7.5087366,-13.05758
13,-3.8399810791015625,0.10349889099597931,76.87049865722656,-0.8329941936739389,-10.295188179934513,-3.022676533359924,2.1209927,6.3055015,2.2689846,29.539078,-23.137606,-6.9146323,1.8907015,-5.864412,-10.543805,30.338255,-19.04745,6.3565197,2.3030455,0.51277626,8.440628,-63.904087,25.098299,-17.008045,39.724304,-56.203457,-3.8588386,4.384359,-69.64367,-23.4196,26.711636,39.532753,32.4705,-7.568189,-13.114205
14,-3.874302387237549,0.08491449058055878,76.78872680664062,-0.8367272972310743,-10.220160422186062,-3.015336786549981,1.6913507,6.3519855,2.2324595,30.198109,-23.432137,-6.969102,1.4859596,-5.9045577,-10.530989,30.973185,-19.3369,6.3376136,2.2795167,0.5294265,8.400536,-63.794174,25.091036,-16.876808,39.60422,-56.097816,-3.854188,4.390892,-69.64384,-23.432236,26.86102,39.473442,32.588795,-7.663099,-13.177961
15,-3.9098429679870605,0.06548956036567688,76.70286560058594,-0.84729464243664,-10.155704625825063,-2.9983777458588694,1.275838,6.4031906,2.1869302,30.854664,-23.728313,-7.0265274,1.109743,-5.940249,-10.534299,31.586136,-19.619879,6.32746,2.2513852,0.5504477,8.368411,-63.681824,25.080261,-16.766405,39.485626,-56.00961,-3.8579223,4.4028535,-69.6354,-23.450964,27.009552,39.41113,32.71091,-7.7587676,-13.234032
16,-3.945589065551758,0.04567327722907066,76.6178970336914,-0.860231895253809,-10.111844558423568,-2.9747718512024646,0.89139014,6.453499,2.1344187,31.49816,-24.02506,-7.0860643,0.76812416,-5.9756756,-10.544873,32.18565,-19.905766,6.317429,2.2209218,0.56956184,8.35145,-63.574516,25.068844,-16.688576,39.374855,-55.95849,-3.8775036,4.417604,-69.623055,-23.474154,27.147018,39.350597,32.796963,-7.8241153,-13.275771
17,-3.9782516956329346,0.02615312673151493,76.52973175048828,-0.8762864219046204,-10.09561405545224,-2.940825223173346,0.5444276,6.5019536,2.0711453,32.12966,-24.32488,-7.149229,0.46977848,-6.012152,-10.567314,32.772423,-20.199205,6.3076653,2.186906,0.6010556,8.35743,-63.45104,25.053066,-16.623737,39.246826,-55.948147,-3.9139407,4.4333735,-69.621254,-23.513908,27.298704,39.295677,32.84207,-7.841115,-13.298998
18,-4.00687837600708,0.006346739362925291,76.43916320800781,-0.8972080672674794,-10.09989542933655,-2.896432174148312,0.22565164,6.5512514,1.997657,32.752563,-24.626965,-7.216035,0.20887886,-6.0479894,-10.603958,33.343155,-20.49474,6.3016634,2.1471245,0.6313333,8.378955,-63.328655,25.03686,-16.589987,39.12096,-55.972683,-3.9663756,4.454372,-69.6134,-23.562735,27.445257,39.235863,32.860283,-7.828457,-13.304442
19,-4.029606819152832,-0.00823423732072115,76.35144805908203,-0.9205134378820904,-10.1154858674316,-2.849845291237692,-0.072980605,6.6016197,1.922254,33.363163,-24.92666,-7.2831583,-0.030058503,-6.0808682,-10.642823,33.899044,-20.786247,6.2961206,2.1176999,0.6707915,8.412003,-63.20682,25.012833,-16.573252,38.994827,-56.017017,-4.0234747,4.4741516,-69.586945,-23.639914,27.584526,39.158783,32.874805,-7.8117294,-13.30994
20,-4.056375503540039,-0.023595692589879036,76.26314544677734,-0.9430041583226063,-10.132218970734217,-2.8091273508154364,-0.35932204,6.6528416,1.853311,33.95695,-25.218908,-7.3473706,-0.26373634,-6.1091943,-10.67157,34.443832,-21.068687,6.287758,2.093896,0.7026265,8.44542,-63.10312,24.992073,-16.58614,38.895836,-56.07029,-4.0809,4.4925294,-69.55547,-23.69851,27.687937,39.100254,32.879974,-7.81943,-13.326547
21,-4.089935779571533,-0.043402690440416336,76.17138671875,-0.9623267004032866,-10.151996792503716,-2.779332105179799,-0.6318767,6.705212,1.797469,34.534733,-25.504793,-7.410503,-0.4967854,-6.1331472,-10.682049,34.983532,-21.342007,6.275617,2.0889776,0.74034816,8.482065,-63.010624,24.962673,-16.618547,38.81623,-56.129967,-4.13285,4.504782,-69.50537,-23.769867,27.772587,39.04171,32.898952,-7.865276,-13.366714
22,-4.113010883331299,-0.06110347434878349,76.08270263671875,-0.9804842221873878,-10.17692118167274,-2.755159925337837,-0.8872371,6.75852,1.7489723,35.097107,-25.785583,-7.473514,-0.72097135,-6.154037,-10.682155,35.516087,-21.609299,6.2614164,2.087848,0.77748936,8.521529,-62.925404,24.937155,-16.677074,38.755497,-56.20704,-4.18595,4.5147386,-69.456985,-23.823854,27.8387,39.00839,32.911804,-7.9349675,-13.419468
23,-4.1314167976379395,-0.07970695197582245,75.99608612060547,-1.001730951221701,-10.20507133009252,-2.7292879607660856,-1.1315246,6.812725,1.6969771,35.64309,-26.058464,-7.531539,-0.9303252,-6.169536,-10.684893,36.02581,-21.866528,6.2455716,2.0796256,0.8161062,8.561043,-62.838543,24.91662,-16.740528,38.702362,-56.286163,-4.24177,4.524073,-69.4128,-23.858847,27.885206,38.992935,32.90872,-8.008605,-13.473033
24,-4.1448845863342285,-0.09758446365594864,75.91163635253906,-1.0307502175315546,-10.230398099569028,-2.694528091885816,-1.3714833,6.868079,1.6305249,36.17275,-26.321192,-7.579789,-1.1201665,-6.177627,-10.703005,36.499226,-22.110758,6.2286425,2.0591626,0.85698026,8.596219,-62.750015,24.89758,-16.797882,38.65451,-56.356186,-4.303955,4.5351048,-69.363525,-23.883059,27.907085,38.977707,32.88212,-8.065965,-13.514969
25,-4.163561820983887,-0.11460818350315094,75.82935333251953,-1.0712318047678464,-10.25190302583906,-2.648718893682478,-1.616054,6.926284,1.5425403,36.69619,-26.577047,-7.6136174,-1.2937293,-6.175245,-10.741305,36.938023,-22.344168,6.208912,2.0336907,0.9014372,8.624251,-62.671154,24.871462,-16.858276,38.619827,-56.42042,-4.3783584,4.5518975,-69.301125,-23.904411,27.885147,38.952637,32.816765,-8.09181,-13.545161
26,-4.181952953338623,-0.12911714613437653,75.75103759765625,-1.119812057049855,-10.271600147368165,-2.595756126867853,-1.8589486,6.9866424,1.4400691,37.20934,-26.825401,-7.6368265,-1.451023,-6.164392,-10.792614,37.345707,-22.566494,6.1867185,2.0125012,0.9451866,8.644941,-62.618893,24.82529,-16.936323,38.620266,-56.4789,-4.4655547,4.573105,-69.21639,-23.928396,27.818134,38.917526,32.721203,-8.0993805,-13.567135
27,-4.196933269500732,-0.14599379897117615,75.67581176757812,-1.17084958921005,-10.293547485931278,-2.537568907269483,-2.0849314,7.045134,1.333508,37.692978,-27.059662,-7.6569524,-1.5866892,-6.1506534,-10.851492,37.720062,-22.774866,6.165545,1.9779283,0.9915654,8.667305,-62.55444,24.787714,-17.001059,38.615837,-56.527657,-4.5509,4.589662,-69.13684,-23.938951,27.750797,38.895596,32.62288,-8.111837,-13.579864
28,-4.207574367523193,-0.16809619963169098,75.60523986816406,-1.2182192392930435,-10.321787001249232,-2.4761053251259795,-2.2787411,7.098312,1.233088,38.128483,-27.273216,-7.681418,-1.6942245,-6.1397033,-10.912562,38.056255,-22.965254,6.1490293,1.9428859,1.030335,8.692027,-62.50751,24.739758,-17.07032,38.640163,-56.560112,-4.6337075,4.596252,-69.04858,-23.949106,27.69308,38.885017,32.544052,-8.149744,-13.577291
29,-4.215209484100342,-0.18467608094215393,75.54129028320312,-1.2644000129852848,-10.36139703054398,-2.4061429422601988,-2.435024,7.1486278,1.1362928,38.511875,-27.465136,-7.714998,-1.7646998,-6.129849,-10.981131,38.347942,-23.135193,6.1383195,1.8873891,1.0698706,8.730785,-62.440453,24.710262,-17.11848,38.64959,-56.578663,-4.704891,4.586891,-68.97001,-23.953497,27.665571,38.890533,32.492256,-8.216552,-13.553543
30,-4.222841739654541,-0.2004879117012024,75.48369598388672,-1.3113329294753298,-10.408337767832187,-2.328551354062772,-2.5621636,7.1971407,1.0395299,38.852737,-27.638386,-7.7526426,-1.8030081,-6.118761,-11.057777,38.597355,-23.286541,6.1314564,1.8285769,1.1045561,8.7732935,-62.391434,24.668581,-17.17226,38.688313,-56.581757,-4.77646,4.568261,-68.880684,-23.959421,27.638247,38.90278,32.451363,-8.301468,-13.510963
31,-4.227785110473633,-0.2166869044303894,75.4339370727539,-1.3519903343965065,-10.456457899466585,-2.25436193356311,-2.666438,7.2380776,0.95087916,39.15262,-27.792988,-7.7867823,-1.8267037,-6.1120963,-11.130666,38.819035,-23.423918,6.1276693,1.7683085,1.1343852,8.818117,-62.33377,24.634886,-17.212667,38.719654,-56.570976,-4.839417,4.544109,-68.79109,-23.96242,27.62305,38.92189,32.426403,-8.403547,-13.465393
32,-4.231643199920654,-0.22958078980445862,75.39034271240234,-1.3796619920156208,-10.499501253762993,-2.1947875682453435,-2.7509253,7.2663116,0.87946904,39.406067,-27.924505,-7.8103447,-1.8502548,-6.1137676,-11.18682,39.020645,-23.5484,6.1254787,1.7191782,1.1529773,8.856453,-62.27161,24.608082,-17.244436,38.745686,-56.548187,-4.8928294,4.5205,-68.695854,-23.962128,27.617777,38.94532,32.419037,-8.522689,-13.430821
33,-4.2320027351379395,-0.24113211035728455,75.35243225097656,-1.3901420016820543,-10.53546839784477,-2.152241321171319,-2.8133335,7.2771997,0.8283412,39.60916,-28.031342,-7.8179193,-1.8751197,-6.1283064,-11.222559,39.2042,-23.66094,6.1258235,1.687602,1.1534467,8.884152,-62.21919,24.576761,-17.27355,38.786667,-56.504333,-4.936709,4.4980264,-68.58924,-23.958193,27.623287,38.98321,32.43444,-8.674315,-13.408971
34,-4.232271194458008,-0.2552340626716614,75.32131958007812,-1.3878207046954234,-10.56850276043038,-2.120972265817151,-2.8529873,7.275249,0.79230505,39.765293,-28.115578,-7.8145037,-1.894545,-6.1521955,-11.24472,39.366314,-23.760937,6.128964,1.6695149,1.1422349,8.903795,-62.17642,24.531385,-17.296436,38.846294,-56.43489,-4.9741755,4.4745307,-68.478455,-23.947681,27.63974,39.04265,32.467476,-8.854247,-13.393688
35,-4.230197429656982,-0.26911845803260803,75.2953872680664,-1.3788412921298054,-10.596510853699813,-2.0998857070097605,-2.8761632,7.267139,0.76829994,39.882683,-28.180574,-7.807911,-1.9100158,-6.1781454,-11.257103,39.503574,-23.846272,6.133035,1.6632438,1.1293293,8.916896,-62.14021,24.478395,-17.3131,38.913647,-56.356476,-5.008912,4.4496613,-68.372215,-23.930386,27.661116,39.109055,32.506023,-9.0324745,-13.385632
36,-4.22570276260376,-0.27867189049720764,75.27535247802734,-1.3688714239199808,-10.619646326153797,-2.08787408493881,-2.889493,7.2599306,0.75308794,39.97113,-28.230375,-7.806061,-1.9235249,-6.1998467,-11.2633,39.61501,-23.915972,6.1362486,1.6587411,1.1191472,8.931019,-62.090828,24.450533,-17.322353,38.951622,-56.29405,-5.0401516,4.4244666,-68.26303,-23.919256,27.678984,39.13631,32.544662,-9.17626,-13.383979
37,-4.22048807144165,-0.2857758402824402,75.26232147216797,-1.357806579596961,-10.63578898322119,-2.0851707909636548,-2.89306,7.2526956,0.746581,40.026775,-28.262505,-7.811563,-1.9363492,-6.2177725,-11.263806,39.69817,-23.969336,6.1396275,1.6599511,1.1135653,8.939121,-62.041584,24.423746,-17.320288,38.986645,-56.239594,-5.0768313,4.395101,-68.15788,-23.90856,27.696487,39.13566,32.577736,-9.280878,-13.392614
38,-4.215644359588623,-0.2898254990577698,75.2543716430664,-1.3429828899218814,-10.645978123138265,-2.092219802887875,-2.883837,7.242833,0.75016844,40.04689,-28.276266,-7.82005,-1.9463753,-6.234624,-11.25697,39.75282,-24.00623,6.1436496,1.6741023,1.1128184,8.937962,-62.001026,24.384394,-17.310987,39.03223,-56.185406,-5.117803,4.362662,-68.05802,-23.89444,27.71769,39.12864,32.608498,-9.362994,-13.411876
39,-4.210605144500732,-0.29429003596305847,75.25299072265625,-1.3271219912430743,-10.652269699967189,-2.108117297025523,-2.8648803,7.2341466,0.76297915,40.043526,-28.278337,-7.8288813,-1.9539435,-6.2469916,-11.2427635,39.787434,-24.029839,6.1455646,1.6937308,1.1109623,8.941149,-61.957462,24.364239,-17.302572,39.055298,-56.13667,-5.149826,4.3345127,-67.95469,-23.88725,27.730247,39.092224,32.642986,-9.422702,-13.432263
40,-4.207633972167969,-0.30168992280960083,75.25196075439453,-1.3132612284341376,-10.659394550516899,-2.1323104995841797,-2.8399289,7.231424,0.7841788,40.03,-28.276024,-7.8355765,-1.9584965,-6.250732,-11.22125,39.8086,-24.042366,6.1424875,1.7291497,1.1223186,8.941145,-61.935818,24.33042,-17.302698,39.09187,-56.081078,-5.173088,4.313143,-67.87247,-23.874676,27.745289,39.07913,32.680485,-9.470662,-13.449639
41,-4.204477310180664,-0.30630841851234436,75.25337982177734,-1.3007036854278629,-10.668587477842129,-2.169131738333235,-2.8059552,7.23592,0.8186414,40.00618,-28.270016,-7.8391895,-1.9599386,-6.2442546,-11.188618,39.81757,-24.041409,6.1317515,1.7743897,1.1382022,8.950934,-61.914043,24.317965,-17.31035,39.099464,-56.02018,-5.1782556,4.3044796,-67.79374,-23.868101,27.751728,39.04542,32.730453,-9.494881,-13.460887
42,-4.202172756195068,-0.31114521622657776,75.25758361816406,-1.2885862357870759,-10.676543135533375,-2.217574942280057,-2.7620869,7.2454576,0.8653223,39.96497,-28.256159,-7.8413033,-1.958409,-6.229566,-11.14602,39.80994,-24.026182,6.115404,1.8339708,1.1597185,8.959602,-61.91148,24.305096,-17.329786,39.11477,-55.955154,-5.1758585,4.302705,-67.72539,-23.857084,27.753546,39.014416,32.785595,-9.50006,-13.470175
43,-4.198812961578369,-0.3162056505680084,75.26342010498047,-1.2785629244743435,-10.682677834118541,-2.268221738296451,-2.716296,7.257603,0.9136858,39.914497,-28.237646,-7.8426228,-1.9541903,-6.209716,-11.101332,39.78754,-24.00349,6.0981793,1.895183,1.1884664,8.971543,-61.906815,24.302942,-17.347412,39.109936,-55.896908,-5.160325,4.305876,-67.66803,-23.850445,27.754492,38.981113,32.841343,-9.496222,-13.477098
44,-4.1948981285095215,-0.324882447719574,75.27167510986328,-1.2719431049973133,-10.683660936228602,-2.3119890757762236,-2.6775029,7.2699513,0.9534837,39.862804,-28.217213,-7.8439646,-1.9486542,-6.188164,-11.061925,39.752853,-23.980383,6.0846424,1.9492633,1.2216861,8.980197,-61.912785,24.304157,-17.367167,39.109013,-55.85739,-5.1361313,4.309093,-67.620895,-23.846148,27.755333,38.957954,32.887753,-9.499465,-13.481035
45,-4.190816879272461,-0.3315664231777191,75.28112030029297,-1.2706384601467062,-10.679647393222638,-2.347369866913046,-2.6458735,7.283871,0.98156047,39.808613,-28.194483,-7.845376,-1.9386477,-6.1618485,-11.027731,39.697315,-23.957325,6.0761704,1.9960175,1.2495577,8.982161,-61.941307,24.311958,-17.416822,39.122257,-55.85429,-5.1063147,4.3181176,-67.57434,-23.835533,27.7424,38.945225,32.91624,-9.518866,-13.481641
46,-4.188628673553467,-0.33158448338508606,75.2928466796875,-1.2734464660196891,-10.670747740858904,-2.378949821772491,-2.617175,7.2999077,1.0036106,39.748104,-28.167921,-7.846523,-1.9244808,-6.130329,-10.995449,39.622517,-23.93099,6.0702143,2.0380032,1.2812396,8.981717,-61.98048,24.329216,-17.475807,39.13465,-55.87511,-5.0651984,4.3295884,-67.541214,-23.822035,27.725643,38.94541,32.93357,-9.543457,-13.477005
47,-4.187264442443848,-0.3313543200492859,75.30471801757812,-1.2769760271010626,-10.65880363968019,-2.406479568337296,-2.5942726,7.31474,1.0222515,39.687828,-28.140148,-7.847427,-1.9128022,-6.100787,-10.96794,39.5463,-23.902615,6.0656505,2.072843,1.3143187,8.981721,-62.02129,24.354847,-17.530462,39.14002,-55.89969,-5.017658,4.343585,-67.52112,-23.805965,27.706852,38.95208,32.94904,-9.563031,-13.471757
48,-4.18623685836792,-0.33580127358436584,75.31483459472656,-1.278208752481495,-10.64379444605015,-2.429614089155027,-2.5779924,7.325019,1.0402979,39.630516,-28.111784,-7.8482685,-1.9092047,-6.0798125,-10.94831,39.484627,-23.8725,6.0612006,2.1030602,1.3467284,8.981911,-62.067707,24.378792,-17.574408,39.148052,-55.90895,-4.9709096,4.359559,-67.51578,-23.79215,27.690514,38.964977,32.97165,-9.5669985,-13.468775
49,-4.185680866241455,-0.3336218297481537,75.3251953125,-1.2762891184414258,-10.624571425858342,-2.449059153412199,-2.5718055,7.330372,1.0593418,39.577957,-28.082472,-7.84872,-1.9186064,-6.069842,-10.939308,39.44385,-23.838268,6.055576,2.1259165,1.3759372,8.979804,-62.122063,24.403078,-17.607388,39.16358,-55.896156,-4.928486,4.380477,-67.52147,-23.779144,27.674646,38.97806,33.00592,-9.549397,-13.4695015
50,-4.186412811279297,-0.3344964385032654,75.33592224121094,-1.2731183888629867,-10.599252276861721,-2.464783308356809,-2.5732892,7.332508,1.0778563,39.526825,-28.051126,-7.848909,-1.9367753,-6.0669074,-10.938528,39.414665,-23.80062,6.0497327,2.1335099,1.3972821,8.978536,-62.175262,24.452475,-17.63766,39.16981,-55.881844,-4.8844123,4.4065137,-67.54782,-23.752132,27.65515,39.000652,33.041412,-9.516623,-13.470654
51,-4.186017990112305,-0.33461248874664307,75.34593963623047,-1.2685608620527282,-10.574921506075876,-2.4750856401337256,-2.578668,7.330647,1.0928065,39.479332,-28.021206,-7.8492208,-1.9567193,-6.0693426,-10.94176,39.391407,-23.76534,6.045953,2.146253,1.427991,8.975844,-62.239487,24.474459,-17.654352,39.18953,-55.853275,-4.839253,4.4301267,-67.57991,-23.740225,27.643578,39.029163,33.083874,-9.479028,-13.474153
52,-4.1855573654174805,-0.33371061086654663,75.35470581054688,-1.2618291997393465,-10.55368571097745,-2.4783207659366457,-2.5828528,7.3225517,1.1017522,39.435074,-27.994518,-7.850059,-1.9723036,-6.0770087,-10.944373,39.370567,-23.739426,6.0466805,2.141968,1.4434166,8.980386,-62.299503,24.52231,-17.679897,39.198135,-55.845432,-4.787781,4.45195,-67.61619,-23.712458,27.618326,39.06061,33.11955,-9.445067,-13.47194
53,-4.185179710388184,-0.3293430805206299,75.36087036132812,-1.251188713916332,-10.536487445842836,-2.472241776020339,-2.5858676,7.3047256,1.1032001,39.394222,-27.972185,-7.8511543,-1.9826915,-6.092393,-10.944178,39.35206,-23.726633,6.0550213,2.1385336,1.459555,8.988787,-62.37132,24.55269,-17.703848,39.21684,-55.848675,-4.7277813,4.466401,-67.65238,-23.694756,27.591892,39.096428,33.154556,-9.415911,-13.468101
54,-4.185810565948486,-0.3292960524559021,75.36524200439453,-1.2373369680613329,-10.521356779672193,-2.4582624643253546,-2.5890803,7.2790046,1.0989722,39.355328,-27.952017,-7.8524246,-1.9901987,-6.1150646,-10.943874,39.33618,-23.721565,6.0687714,2.1290114,1.4669532,9.00175,-62.453415,24.584396,-17.733185,39.240246,-55.862633,-4.6614366,4.478157,-67.691765,-23.67617,27.555588,39.13496,33.185856,-9.386088,-13.460929
55,-4.187215328216553,-0.32731330394744873,75.36775970458984,-1.2242800000378902,-10.509214191901837,-2.440462375599156,-2.594463,7.2528453,1.090284,39.324623,-27.93635,-7.854538,-1.9963304,-6.138809,-10.946511,39.32572,-23.722195,6.08274,2.1120572,1.4697719,9.018398,-62.530693,24.62255,-17.761621,39.257946,-55.876907,-4.596006,4.4897313,-67.73401,-23.650616,27.512405,39.177284,33.214893,-9.35864,-13.450487
56,-4.187258243560791,-0.32145068049430847,75.36923217773438,-1.217003299124143,-10.498082305690344,-2.423217588141172,-2.6017365,7.234733,1.0791147,39.30452,-27.924751,-7.858476,-2.0004346,-6.1553707,-10.954626,39.318077,-23.722351,6.0909686,2.101776,1.4881178,9.031356,-62.598892,24.63872,-17.777367,39.279434,-55.87182,-4.542251,4.5003285,-67.77256,-23.639774,27.48705,39.222034,33.255737,-9.338381,-13.440744
57,-4.185650825500488,-0.3204837441444397,75.36984252929688,-1.2165149250521843,-10.490132309630214,-2.40462737083029,-2.6119788,7.22548,1.0627187,39.297676,-27.917028,-7.864702,-2.0016932,-6.165095,-10.973526,39.31602,-23.722664,6.0927606,2.0860586,1.4993001,9.046849,-62.666817,24.660807,-17.803524,39.305088,-55.856216,-4.5028596,4.5174427,-67.804565,-23.621435,27.4455,39.266914,33.296543,-9.322636,-13.421222
58,-4.182317733764648,-0.32007095217704773,75.37120056152344,-1.2213114268659497,-10.484121233422455,-2.3840702500472646,-2.6250527,7.222441,1.0416328,39.302456,-27.913656,-7.87287,-2.0001192,-6.1698503,-11.000031,39.317467,-23.724243,6.09068,2.0683026,1.521679,9.061711,-62.72087,24.672268,-17.815111,39.326447,-55.822723,-4.471745,4.534792,-67.836,-23.61018,27.417322,39.315292,33.349945,-9.31312,-13.400268
59,-4.179058074951172,-0.3208268880844116,75.37079620361328,-1.2277891804512586,-10.479145573444862,-2.3647239421372146,-2.6387691,7.2225146,1.0204593,39.313736,-27.91458,-7.881669,-1.9990332,-6.1713047,-11.025248,39.32334,-23.728607,6.085113,2.0531538,1.5419242,9.075973,-62.772774,24.683401,-17.831963,39.348663,-55.79142,-4.4470534,4.5508738,-67.864746,-23.596815,27.38481,39.363865,33.39667,-9.307504,-13.379049
60,-4.174845218658447,-0.3213996887207031,75.36907196044922,-1.2331576663065191,-10.47419384144607,-2.3502280096960844,-2.6512692,7.224218,1.0039222,39.32719,-27.9201,-7.8900027,-2.00164,-6.1699996,-11.040032,39.334053,-23.737247,6.076355,2.0413604,1.5602758,9.087496,-62.81371,24.693556,-17.847582,39.364197,-55.765278,-4.4254594,4.5619645,-67.88448,-23.582293,27.353182,39.40058,33.433475,-9.306387,-13.364944
61,-4.170364856719971,-0.3240985572338104,75.36514282226562,-1.2388803663868047,-10.468155876306419,-2.3410879181654303,-2.6634333,7.229148,0.9923006,39.344387,-27.932493,-7.8971753,-2.0083644,-6.1626263,-11.040986,39.34756,-23.749676,6.0618877,2.0371225,1.5801798,9.096149,-62.844685,24.701107,-17.860641,39.37214,-55.747856,-4.4054694,4.5645556,-67.89561,-23.569607,27.32314,39.42443,33.46092,-9.311669,-13.360339
62,-4.1654815673828125,-0.32571566104888916,75.36176300048828,-1.245878067704614,-10.462121039570503,-2.3355055241964795,-2.6752348,7.237904,0.9832951,39.365437,-27.949968,-7.9039884,-2.0168953,-6.1496534,-11.033389,39.362934,-23.764439,6.042278,2.0405118,1.6072412,9.103621,-62.860325,24.703672,-17.866323,39.366375,-55.73452,-4.388362,4.5608797,-67.90356,-23.56405,27.303127,39.440872,33.485214,-9.323489,-13.364572
63,-4.159628391265869,-0.32656431198120117,75.35650634765625,-1.2498780549589015,-10.457230348501264,-2.333572363336541,-2.686249,7.2453165,0.9780569,39.38995,-27.9708,-7.9112277,-2.029551,-6.1389327,-11.021009,39.388172,-23.785465,6.0230885,2.045621,1.6208695,9.109485,-62.88153,24.7081,-17.885471,39.37033,-55.7261,-4.3766847,4.557004,-67.8983,-23.552626,27.26523,39.44676,33.491318,-9.334124,-13.3662405
64,-4.151538372039795,-0.3295656442642212,75.35070037841797,-1.2473092244828656,-10.453176251879702,-2.3353277872328047,-2.6945517,7.247492,0.9777854,39.4133,-27.990927,-7.9199114,-2.0470252,-6.1365657,-11.00755,39.426838,-23.813562,6.0091767,2.05305,1.6309189,9.113201,-62.89398,24.713005,-17.912079,39.370823,-55.72474,-4.37226,4.5567884,-67.89277,-23.54123,27.236456,39.454693,33.48412,-9.342523,-13.370964
65,-4.141623020172119,-0.3358805179595947,75.3438949584961,-1.2362679866314363,-10.449099118449759,-2.341574614486791,-2.6982038,7.242328,0.98385465,39.43288,-28.008987,-7.9310904,-2.0686643,-6.146025,-10.994668,39.479877,-23.84992,6.0035057,2.063432,1.6343333,9.11537,-62.89895,24.7186,-17.950874,39.368603,-55.7305,-4.37659,4.5632057,-67.88376,-23.531698,27.214085,39.463108,33.455833,-9.347366,-13.377962
66,-4.131628036499023,-0.34110894799232483,75.33502197265625,-1.21935247404525,-10.446119015865124,-2.3519994305690943,-2.6989691,7.232735,0.9950884,39.45256,-28.027706,-7.944004,-2.0947578,-6.162942,-10.980302,39.546295,-23.894054,6.002744,2.075675,1.6418241,9.117145,-62.885303,24.722443,-17.980694,39.35226,-55.73532,-4.3831787,4.5697646,-67.87653,-23.52749,27.207075,39.47184,33.413754,-9.350071,-13.388654
67,-4.122801780700684,-0.3451956808567047,75.3240966796875,-1.198153478393367,-10.442912399012174,-2.3650545368236107,-2.6998413,7.2200465,1.0096534,39.47437,-28.047424,-7.9567757,-2.1262383,-6.1841745,-10.961947,39.623947,-23.943556,6.003084,2.0914981,1.6216445,9.1163845,-62.892536,24.737137,-18.05739,39.35764,-55.764576,-4.4046288,4.5840335,-67.84761,-23.514687,27.17145,39.46428,33.359882,-9.351221,-13.396681
68,-4.113555908203125,-0.3502406179904938,75.31192016601562,-1.1767354736941895,-10.439755050544036,-2.3791697499324056,-2.7059555,7.2080946,1.0246052,39.506897,-28.071846,-7.967733,-2.1637495,-6.2037673,-10.938148,39.710854,-23.996326,6.0004272,2.1044154,1.6146773,9.120179,-62.88459,24.747847,-18.09255,39.352673,-55.780285,-4.416757,4.583739,-67.82829,-23.506197,27.151905,39.451107,33.319916,-9.348575,-13.404537
69,-4.105669975280762,-0.3562786281108856,75.29903411865234,-1.1547277066122728,-10.43658861945836,-2.393366266335252,-2.716665,7.196135,1.0394863,39.54953,-28.099764,-7.9762144,-2.206388,-6.221098,-10.906514,39.8063,-24.051453,5.9928956,2.117453,1.6087343,9.129111,-62.877804,24.755234,-18.10753,39.354546,-55.795074,-4.4265285,4.568156,-67.80554,-23.498842,27.127863,39.42068,33.29454,-9.340596,-13.40968
70,-4.095730781555176,-0.362649530172348,75.28581237792969,-1.1309730921835575,-10.434476196410742,-2.408765174794012,-2.7305248,7.1831603,1.0554341,39.60041,-28.130995,-7.983126,-2.2541325,-6.238919,-10.869058,39.911457,-24.110304,5.9830832,2.1302981,1.6007723,9.14053,-62.871075,24.761412,-18.111849,39.362633,-55.81019,-4.4365087,4.5425105,-67.77772,-23.490889,27.099983,39.376312,33.276226,-9.328566,-13.4127865
71,-4.08843994140625,-0.3706333637237549,75.26963806152344,-1.1057520668241865,-10.431190179731972,-2.4264081127116413,-2.7492497,7.1700344,1.0730182,39.659637,-28.16701,-7.989107,-2.3096137,-6.2579675,-10.828998,40.028645,-24.174498,5.9733777,2.1413498,1.5847448,9.151456,-62.868195,24.773157,-18.1164,39.374165,-55.823696,-4.444896,4.517745,-67.74993,-23.474054,27.064089,39.331264,33.25069,-9.31453,-13.413136
72,-4.08112907409668,-0.381177693605423,75.25283813476562,-1.0801578081626455,-10.424867108601601,-2.4476073375230563,-2.774229,7.158904,1.0929997,39.727505,-28.209698,-7.9951153,-2.3737462,-6.277762,-10.789248,40.156918,-24.243904,5.9657645,2.153754,1.5746851,9.159279,-62.86412,24.779963,-18.113451,39.38119,-55.826378,-4.451551,4.5028386,-67.73329,-23.46451,27.05473,39.296757,33.23067,-9.305745,-13.419992
73,-4.073843955993652,-0.3920350670814514,75.23410034179688,-1.0526564747947857,-10.413348606452413,-2.47256846285771,-2.8069048,7.147633,1.1172209,39.803513,-28.259844,-7.998087,-2.4493966,-6.3015895,-10.750549,40.29928,-24.3191,5.9634013,2.165517,1.5616353,9.16227,-62.861965,24.790617,-18.109896,39.38346,-55.81749,-4.4549294,4.503105,-67.725235,-23.452518,27.059906,39.274906,33.19267,-9.30037,-13.434217
74,-4.068752288818359,-0.4010715186595917,75.21133422851562,-1.0234080191542643,-10.39967591037097,-2.5004733481822545,-2.8461041,7.1361413,1.1445452,39.887802,-28.316391,-7.9986496,-2.5345156,-6.328147,-10.711459,40.45429,-24.399513,5.964252,2.1769247,1.5488496,9.163336,-62.85831,24.803013,-18.100407,39.379616,-55.800014,-4.455963,4.512431,-67.7288,-23.441545,27.08195,39.26356,33.147556,-9.297721,-13.454184
75,-4.059404373168945,-0.41091078519821167,75.18606567382812,-0.9953064950162941,-10.384984376982421,-2.5313738878214918,-2.8891664,7.1284375,1.1717002,39.97971,-28.377459,-8.002998,-2.624779,-6.3520885,-10.671896,40.616764,-24.484337,5.9631476,2.1885667,1.5402573,9.164139,-62.848713,24.81821,-18.087677,39.365654,-55.782852,-4.454616,4.525078,-67.740555,-23.432558,27.116735,39.258484,33.118477,-9.2978325,-13.471743
76,-4.051957130432129,-0.42252251505851746,75.15914916992188,-0.9710945044322918,-10.371238091109662,-2.565073401890634,-2.9334538,7.1279454,1.1952761,40.078907,-28.441195,-8.017258,-2.7163143,-6.3678513,-10.631803,40.782383,-24.573332,5.954807,2.208925,1.5318356,9.167249,-62.851303,24.825554,-18.085543,39.358734,-55.77024,-4.452229,4.5349035,-67.743965,-23.429852,27.137436,39.243557,33.119587,-9.29748,-13.475789
77,-4.044421195983887,-0.43419012427330017,75.13165283203125,-0.9517242456870402,-10.359382994729701,-2.6015700221318085,-2.98251,7.135249,1.2141666,40.19028,-28.507431,-8.040979,-2.8112047,-6.3758407,-10.593157,40.953712,-24.66992,5.9359155,2.2240112,1.5356189,9.176954,-62.829964,24.85226,-18.076899,39.31612,-55.77407,-4.4450536,4.538434,-67.77237,-23.422697,27.17696,39.24288,33.179756,-9.304442,-13.466055
78,-4.036456108093262,-0.45226263999938965,75.10331726074219,-0.9354341692460413,-10.34742897816434,-2.641328070860468,-3.036042,7.1483893,1.2307515,40.312447,-28.577038,-8.071617,-2.91036,-6.378382,-10.554708,41.131123,-24.772377,5.9097686,2.248352,1.5360581,9.18587,-62.828312,24.867245,-18.081547,39.29049,-55.77692,-4.437977,4.5391784,-67.792496,-23.420479,27.201012,39.236,33.269455,-9.312473,-13.439477
79,-4.0294108390808105,-0.470132976770401,75.07313537597656,-0.9217010023852614,-10.337582844164515,-2.6830367757915536,-3.086768,7.167701,1.2446188,40.435123,-28.64979,-8.11202,-3.008301,-6.373099,-10.514477,41.309956,-24.875578,5.881843,2.2739422,1.5404716,9.1976185,-62.81894,24.88497,-18.08848,39.252174,-55.78829,-4.4293337,4.5447474,-67.8146,-23.419718,27.228624,39.228794,33.371166,-9.319717,-13.413407
80,-4.023893356323242,-0.49497276544570923,75.0432357788086,-0.9100040099869826,-10.329831823728727,-2.7266637737575192,-3.1266446,7.1938033,1.2564352,40.547626,-28.724995,-8.165073,-3.0987804,-6.357475,-10.4693365,41.48276,-24.972334,5.8574476,2.2921872,1.5441242,9.219141,-62.786564,24.930296,-18.08923,39.181618,-55.812366,-4.412941,4.558885,-67.830536,-23.416517,27.253437,39.20434,33.454777,-9.318325,-13.398501
81,-4.01777458190918,-0.5209642052650452,75.0130386352539,-0.9078933037208702,-10.331286086000166,-2.7686112893349644,-3.153589,7.233693,1.2603796,40.655533,-28.81108,-8.230718,-3.172937,-6.321326,-10.422059,41.6422,-25.055182,5.8318257,2.3204706,1.5564076,9.242083,-62.777824,24.94188,-18.09533,39.145363,-55.83072,-4.399222,4.5866127,-67.826775,-23.414995,27.259003,39.17336,33.513092,-9.31041,-13.392161
82,-4.011404991149902,-0.5515477061271667,74.9820556640625,-0.9128614533499348,-10.338023371299709,-2.809770381379446,-3.1703274,7.2844286,1.2581382,40.758778,-28.904007,-8.307645,-3.235017,-6.2697597,-10.373423,41.791573,-25.12873,5.804356,2.3415182,1.5717276,9.272937,-62.753616,24.969135,-18.105331,39.08785,-55.86685,-4.3833437,4.627435,-67.81517,-23.41111,27.261566,39.128464,33.568146,-9.2983675,-13.392164
83,-3.9970927238464355,-0.5834640264511108,74.95458984375,-0.9097896883725851,-10.340617589100368,-2.8577221781228435,-3.1821659,7.333104,1.2612759,40.849358,-28.989962,-8.396997,-3.304443,-6.2211113,-10.31654,41.950077,-25.208742,5.7861085,2.3722959,1.5767874,9.301605,-62.732758,24.993725,-18.11801,39.032375,-55.897232,-4.364357,4.668388,-67.79797,-23.406029,27.255665,39.080994,33.600994,-9.27823,-13.401144
84,-3.9816911220550537,-0.6269020438194275,74.92643737792969,-0.8829447112768695,-10.332918633299814,-2.9193333865700044,-3.1921933,7.365644,1.2811707,40.9152,-29.05327,-8.499798,-3.3984706,-6.19458,-10.245031,42.133427,-25.309473,5.7883673,2.424707,1.5576538,9.317951,-62.720833,25.009893,-18.140535,38.98499,-55.915176,-4.343845,4.7008824,-67.7807,-23.402733,27.248808,39.041573,33.60062,-9.247466,-13.425065
85,-3.966215133666992,-0.6744949221611023,74.90026092529297,-0.8298420011197762,-10.309845291662532,-2.993012219074892,-3.2019968,7.3758645,1.3146524,40.948364,-29.083279,-8.610002,-3.5198362,-6.1942487,-10.162404,42.341503,-25.431665,5.8036423,2.49324,1.5042427,9.318901,-62.706364,25.027943,-18.1727,38.937122,-55.91166,-4.3189526,4.7160873,-67.756966,-23.39988,27.233332,39.00157,33.53421,-9.190345,-13.476889
86,-3.9487388134002686,-0.7314744591712952,74.87580871582031,-0.7576288349058928,-10.27562248717537,-3.0759138802849315,-3.2083032,7.3710527,1.3579962,40.954563,-29.089228,-8.72916,-3.6589408,-6.2102947,-10.069849,42.56572,-25.567703,5.8291755,2.5738752,1.4197031,9.310225,-62.694126,25.053526,-18.223957,38.888985,-55.903236,-4.291326,4.7239795,-67.7166,-23.397932,27.201889,38.947506,33.41569,-9.111431,-13.548728
87,-3.9345555305480957,-0.7883711457252502,74.84530639648438,-0.6672511076964153,-10.236031366997505,-3.1737335961268753,-3.211418,7.360179,1.4205441,40.949085,-29.08969,-8.869588,-3.8185241,-6.241037,-9.9601,42.81595,-25.723902,5.885006,2.673291,1.3184,9.300943,-62.692112,25.081638,-18.28233,38.8383,-55.896988,-4.2621636,4.7367573,-67.67931,-23.397497,27.170446,38.896523,33.31161,-9.042061,-13.615184
88,-3.9257121086120605,-0.849159836769104,74.81217193603516,-0.5589153040724789,-10.195069224890236,-3.29203107446116,-3.2095022,7.3515773,1.5124841,40.9435,-29.100382,-9.04379,-3.9997847,-6.284229,-9.824416,43.09976,-25.905075,5.990206,2.7966142,1.2061553,9.298972,-62.715,25.11112,-18.349674,38.788456,-55.908646,-4.2350874,4.770948,-67.65707,-23.397945,27.149612,38.857258,33.28365,-9.0119505,-13.650228
89,-3.922541379928589,-0.9224441051483154,74.77500915527344,-0.41981533764770185,-10.153501387942603,-3.437763344776756,-3.19265,7.3352523,1.6492637,40.921432,-29.117378,-9.263098,-4.2129683,-6.350494,-9.652463,43.43283,-26.128635,6.1126237,2.9449856,1.059704,9.31086,-62.761185,25.16994,-18.449038,38.71825,-55.975548,-4.2134256,4.837559,-67.63595,-23.397722,27.123579,38.81042,33.371204,-9.042769,-13.628945
90,-3.9129488468170166,-0.9969173073768616,74.72810363769531,-0.25450786899107175,-10.107378334016111,-3.6061432390424493,-3.165633,7.311001,1.8213466,40.884228,-29.135492,-9.518261,-4.453279,-6.4362535,-9.451765,43.80569,-26.3866,6.2545815,3.1146996,0.8938645,9.329258,-62.81618,25.24141,-18.556986,38.630135,-56.0716,-4.1935005,4.923601,-67.62801,-23.394201,27.107946,38.774113,33.53555,-9.115934,-13.573961
91,-3.898970365524292,-1.0853527784347534,74.68051147460938,-0.08787594565289558,-10.0591399687643,-3.7847420075347142,-3.1458716,7.3001375,2.001633,40.864426,-29.166607,-9.790426,-4.701656,-6.5203557,-9.241751,44.191742,-26.648115,6.487717,3.2887259,0.7267236,9.356656,-62.8779,25.334793,-18.65963,38.53243,-56.159904,-4.165825,5.0191703,-67.63688,-23.385315,27.099928,38.740913,33.714077,-9.192162,-13.518157
92,-3.8862719535827637,-1.1869486570358276,74.62615966796875,0.055128696638610336,-10.010197684186029,-3.9611126380203903,-3.1525176,7.3247576,2.162719,40.898834,-29.224895,-10.061038,-4.9380784,-6.581584,-9.042767,44.56279,-26.881842,6.883427,3.4534407,0.58686364,9.391247,-62.945053,25.433268,-18.726364,38.444885,-56.185505,-4.122006,5.112283,-67.67352,-23.371243,27.110064,38.71724,33.846333,-9.234706,-13.49783
93,-3.8804783821105957,-1.2922011613845825,74.56473541259766,0.17241859991186287,-9.9629180054344,-4.136679609430429,-3.1871264,7.387294,2.3054917,40.993404,-29.31474,-10.321041,-5.1433845,-6.603357,-8.846629,44.874092,-27.072603,7.562273,3.610507,0.47789705,9.432898,-63.023567,25.532211,-18.74933,38.381004,-56.11547,-4.0555954,5.206298,-67.740204,-23.351414,27.142193,38.70657,33.90305,-9.225717,-13.530622
94,-3.87827205657959,-1.4059622287750244,74.49771881103516,0.27527163637271274,-9.914013770193526,-4.3163625470728,-3.239942,7.4778514,2.442082,41.129097,-29.42776,-10.582032,-5.333108,-6.6003237,-8.64971,45.154453,-27.242628,8.451616,3.7685916,0.38812843,9.481515,-63.11634,25.63024,-18.742874,38.334026,-55.979397,-3.9731033,5.305017,-67.83563,-23.323938,27.18992,38.71295,33.917442,-9.187755,-13.595237
95,-3.874429225921631,-1.531106948852539,74.42604064941406,0.35916950343023973,-9.864908215664256,-4.493853708657115,-3.3147397,7.59932,2.561866,41.30855,-29.562252,-10.855635,-5.5439906,-6.601951,-8.478566,45.49647,-27.421127,9.335262,3.9229057,0.31865567,9.534312,-63.219975,25.73002,-18.72206,38.293144,-55.82971,-3.8862677,5.397783,-67.95056,-23.291582,27.24502,38.72497,33.930717,-9.145191,-13.668263
96,-3.869274616241455,-1.6663987636566162,74.34674072265625,0.4201552497119778,-9.81517650293939,-4.662560259786814,-3.4135492,7.7540045,2.6544616,41.530823,-29.713913,-11.153496,-5.810884,-6.636812,-8.356865,45.987293,-27.63046,9.997065,4.0684967,0.26932976,9.59189,-63.326916,25.832878,-18.695665,38.23994,-55.711563,-3.8052745,5.474556,-68.077705,-23.257215,27.295038,38.72925,33.9807,-9.121034,-13.726212
97,-3.871001720428467,-1.8126192092895508,74.2604751586914,0.44925670421847913,-9.76161253972871,-4.8248232625555,-3.5455327,7.953539,2.7137272,41.810493,-29.886288,-11.483164,-6.1465325,-6.681498,-8.273453,46.63801,-27.855665,10.408583,4.2108197,0.2472331,9.6548605,-63.444565,25.94162,-18.665747,38.17479,-55.629265,-3.725731,5.5304503,-68.220215,-23.224546,27.339487,38.721737,34.092457,-9.124426,-13.759185
98,-3.8750648498535156,-1.9724805355072021,74.16869354248047,0.4515824802613633,-9.706590501062468,-4.98286758021469,-3.705832,8.192714,2.7467265,42.1417,-30.079113,-11.837167,-6.530541,-6.7313666,-8.21834,47.40405,-28.088194,10.674401,4.350409,0.2487713,9.725113,-63.571266,26.054653,-18.624233,38.10041,-55.556896,-3.643473,5.57182,-68.37684,-23.193636,27.379715,38.702614,34.24034,-9.140955,-13.780541
99,-3.8734755516052246,-2.13344407081604,74.0700912475586,0.44439406440741686,-9.653073520501653,-5.129969213120835,-3.8787284,8.4482,2.7617738,42.49822,-30.286682,-12.203764,-6.94625,-6.8452644,-8.215776,48.285233,-28.357258,10.779185,4.478447,0.25908467,9.798588,-63.69695,26.172401,-18.584196,38.016197,-55.51696,-3.5724905,5.605215,-68.535934,-23.165834,27.416922,38.674416,34.390644,-9.160284,-13.801538
100,-3.8787174224853516,-2.3180530071258545,73.96807861328125,0.44496255989531336,-9.602130401304782,-5.259386450236967,-4.048301,8.696569,2.7674043,42.853737,-30.502731,-12.571145,-7.3771877,-7.083537,-8.287998,49.28192,-28.693016,10.706361,4.588498,0.2619934,9.874276,-63.811905,26.293674,-18.557098,37.918877,-55.52856,-3.526105,5.6372986,-68.68459,-23.139961,27.442984,38.63778,34.505306,-9.170793,-13.833554
101,-3.8777918815612793,-2.5076136589050293,73.85966491699219,0.46031686111908554,-9.556227566749369,-5.378284390521466,-4.2046685,8.933911,2.776699,43.19621,-30.726595,-12.938146,-7.8233104,-7.5111713,-8.510869,50.44021,-29.147335,10.340228,4.684582,0.2498694,9.953343,-63.913498,26.416769,-18.543282,37.80438,-55.631912,-3.5187995,5.6616793,-68.82148,-23.114277,27.456207,38.59104,34.578876,-9.166039,-13.881233
102,-3.87955641746521,-2.7021872997283936,73.74665832519531,0.48130559813637874,-9.512412741663548,-5.487322329296381,-4.359224,9.171042,2.7818367,43.543182,-30.962154,-13.310014,-8.288327,-8.085572,-8.839906,51.73996,-29.695028,9.721614,4.7689757,0.23151234,10.034579,-64.009575,26.543177,-18.54113,37.67942,-55.808388,-3.5407581,5.677452,-68.95102,-23.09028,27.460503,38.534424,34.631104,-9.153788,-13.938307
103,-3.87567138671875,-2.9120969772338867,73.6318588256836,0.5015564642588538,-9.471639546975702,-5.570200751638811,-4.5239077,9.406072,2.7608526,43.90348,-31.205019,-13.685057,-8.764409,-8.702394,-9.1199045,53.083363,-30.244705,9.070599,4.8286285,0.21370871,10.117281,-64.095764,26.669012,-18.5416,37.545544,-55.96865,-3.5661383,5.7003984,-69.07553,-23.068472,27.457535,38.471992,34.65856,-9.1424465,-13.998274
104,-3.8585867881774902,-3.1141464710235596,73.51194763183594,0.5134118712374686,-9.431113086420757,-5.610512625813524,-4.711393,9.637771,2.691253,44.287766,-31.45191,-14.061719,-9.247036,-9.251528,-9.20362,54.371178,-30.697945,8.611901,4.848441,0.20410071,10.199573,-64.166664,26.786535,-18.53161,37.407738,-56.01824,-3.5698225,5.746522,-69.19611,-23.05056,27.452421,38.407112,34.660725,-9.141014,-14.054953
105,-3.847242832183838,-3.3329474925994873,73.38768768310547,0.5163809223637779,-9.392478468996048,-5.599557943042522,-4.920003,9.861995,2.5640726,44.688206,-31.703377,-14.450368,-9.741068,-9.685614,-9.033329,55.586666,-31.011747,8.446396,4.824666,0.20132552,10.277362,-64.22448,26.890028,-18.51284,37.27706,-55.903236,-3.5404904,5.8274593,-69.29883,-23.03787,27.43679,38.34083,34.624096,-9.163961,-14.105817
106,-3.8349249362945557,-3.5595145225524902,73.26058959960938,0.5133090933110864,-9.354112677298156,-5.547574134482381,-5.144401,10.081045,2.392539,45.101585,-31.960352,-14.848689,-10.249173,-10.061833,-8.698379,56.778805,-31.239323,8.444882,4.7692947,0.2029213,10.352671,-64.27691,26.976892,-18.492245,37.15412,-55.680954,-3.4937007,5.93211,-69.38791,-23.030664,27.408857,38.27365,34.551105,-9.202024,-14.15434
107,-3.816967725753784,-3.790930986404419,73.12477111816406,0.5643926866587451,-9.31289901452219,-5.4478828378632596,-5.388507,10.1741705,2.1742306,45.51091,-32.196243,-15.000033,-10.786896,-10.515779,-8.256638,57.99114,-31.440073,8.512795,4.6726813,0.15412594,10.428367,-64.32922,27.049637,-18.473152,37.03368,-55.434017,-3.4465122,6.041592,-69.483,-23.034727,27.388653,38.200584,34.473816,-9.231215,-14.205078
108,-3.7983481884002686,-4.023288726806641,72.98101806640625,0.6129215422106393,-9.274224654848696,-5.32866937315359,-5.6665435,10.247471,1.9230092,45.976875,-32.437534,-15.000033,-11.329621,-11.020525,-7.801959,59.191036,-31.632223,8.5107565,4.5574584,0.121525586,10.508417,-64.38442,27.110247,-18.45484,36.90778,-55.243782,-3.4154387,6.1377707,-69.606575,-23.05768,27.400036,38.116768,34.424496,-9.226418,-14.261089
109,-3.783456325531006,-4.267116069793701,72.8255844116211,0.6394117782847087,-9.236216330172896,-5.189257354233434,-5.987443,10.350654,1.6400055,46.51744,-32.68737,-15.000033,-11.87874,-11.5338955,-7.314265,60.376514,-31.800413,8.421563,4.421962,0.12320743,10.590165,-64.429886,27.167091,-18.436407,36.762722,-55.134083,-3.4052463,6.2076826,-69.75266,-23.10839,27.450544,38.006676,34.41732,-9.171065,-14.319796
110,-3.763801336288452,-4.5135674476623535,72.66162109375,0.6488123425072267,-9.197922304585886,-5.025312612459259,-6.343646,10.472262,1.3234189,47.1168,-32.94495,-15.000033,-12.4359665,-12.042458,-6.7665486,61.54344,-31.931406,8.3032875,4.266315,0.15070598,10.674845,-64.467896,27.216305,-18.417826,36.6029,-55.060337,-3.4062066,6.263949,-69.9113,-23.186731,27.526186,37.87191,34.433342,-9.080377,-14.380054
111,-3.7510969638824463,-4.766305446624756,72.48137664794922,0.6564303295169179,-9.166596217006258,-4.8489614951422455,-6.720903,10.598848,0.99147606,47.76246,-33.21589,-15.000033,-12.996898,-12.615871,-6.2286468,62.687775,-32.06453,8.135753,4.100563,0.1918579,10.772118,-64.51685,27.26009,-18.404455,36.436604,-55.016827,-3.412407,6.3260303,-70.08355,-23.294394,27.620628,37.714306,34.466087,-8.977874,-14.448038
112,-3.7350189685821533,-5.032552719116211,72.2907943725586,0.6770761949106984,-9.145593361834564,-4.672148550980005,-7.102779,10.7170315,0.66384536,48.437317,-33.502678,-15.000033,-13.554758,-13.325241,-5.768324,63.798927,-32.236492,7.8973365,3.9380136,0.23345649,10.894225,-64.596794,27.300743,-18.403053,36.26907,-54.99786,-3.4170089,6.413486,-70.27712,-23.42929,27.721111,37.542297,34.50121,-8.885428,-14.53012
113,-3.718683958053589,-5.302038192749023,72.08997344970703,0.7124204856633356,-9.136853582451801,-4.491635191018294,-7.4858956,10.822974,0.34007937,49.136597,-33.812202,-15.000033,-14.106532,-14.209379,-5.418912,64.8852,-32.47356,7.543751,3.7763221,0.27284434,11.043925,-64.70356,27.340279,-18.419369,36.08967,-54.99711,-3.416047,6.5427485,-70.49023,-23.59016,27.822968,37.360275,34.534702,-8.824098,-14.618757
114,-3.7149577140808105,-5.5786662101745605,71.86983489990234,0.7558428909818593,-9.13956779551017,-4.3031865013278,-7.877447,10.92362,0.013114239,49.866695,-34.138477,-15.000033,-14.660521,-15.226401,-5.1323166,65.94563,-32.752182,7.0960493,3.611503,0.3153999,11.215444,-64.83121,27.38012,-18.452557,35.89853,-55.02413,-3.4139054,6.699699,-70.720436,-23.77644,27.930553,37.163742,34.572044,-8.776859,-14.71367
115,-3.7153828144073486,-5.850430011749268,71.63065338134766,0.8094635492323102,-9.1499443916462,-4.1170152365797525,-8.281835,11.020367,-0.31119284,50.63862,-34.473743,-15.000033,-15.2277775,-16.330551,-4.8575363,66.9593,-33.03621,6.6330166,3.44362,0.35941282,11.406423,-64.98477,27.41889,-18.48345,35.714905,-55.0808,-3.4159174,6.8582993,-70.97511,-23.988852,28.05929,36.94343,34.623016,-8.710219,-14.8311405
116,-3.7083990573883057,-6.139883518218994,71.37637329101562,0.8755541080323086,-9.167111393155377,-3.9434382629144054,-8.701539,11.11525,-0.6266205,51.458313,-34.812145,-15.000033,-15.819699,-17.473455,-4.5451293,67.90579,-33.286682,6.234556,3.277874,0.4039316,11.617066,-65.174065,27.4516,-18.494762,35.557915,-55.168358,-3.4268064,6.992478,-71.26274,-24.224358,28.214607,36.69277,34.691742,-8.589755,-14.988133
117,-3.7101638317108154,-6.435324192047119,71.1082992553711,0.9429437003431653,-9.19213855970313,-3.7719054006488486,-9.159714,11.216543,-0.9495599,52.362865,-35.15107,-15.000033,-16.427246,-18.669363,-4.2242975,68.78925,-33.493233,5.9064503,3.0994828,0.45763296,11.851111,-65.407,27.47374,-18.479677,35.441685,-55.298363,-3.4547493,7.088707,-71.59352,-24.483334,28.41177,36.40249,34.782085,-8.39698,-15.202933
118,-3.7177443504333496,-6.7318572998046875,70.82420349121094,1.0141714093539675,-9.225995250132078,-3.60119477007048,-9.646893,11.320981,-1.2763997,53.33492,-35.49267,-15.000033,-17.051695,-19.933474,-3.9051232,69.61579,-33.674244,5.6111865,2.912328,0.51894647,12.106441,-65.68001,27.48533,-18.450068,35.357265,-55.46703,-3.4956045,7.16282,-71.958984,-24.766304,28.643127,36.07836,34.891582,-8.15406,-15.462794
119,-3.722301483154297,-7.035808086395264,70.5215835571289,1.112649494998597,-9.265548101965683,-3.4556432692153756,-10.121758,11.413252,-1.5746075,54.312374,-35.84287,-15.000033,-17.721182,-21.220058,-3.5111942,70.37155,-33.832695,5.366695,2.7468374,0.5705024,12.37335,-65.98263,27.486929,-18.411352,35.28957,-55.645542,-3.5359526,7.233151,-72.35015,-25.068977,28.891132,35.743397,35.016,-7.8873696,-15.73703
120,-3.733452081680298,-7.348809242248535,70.20335388183594,1.2612080825297058,-9.305570032851614,-3.3600132515420036,-10.542098,11.481936,-1.8074716,55.22866,-36.19735,-15.000033,-18.465584,-22.47446,-2.9637334,71.04206,-33.969482,5.1901894,2.626413,0.5962636,12.639024,-66.29807,27.481554,-18.363573,35.22389,-55.8031,-3.5629797,7.317952,-72.750404,-25.387974,29.142824,35.41544,35.157776,-7.6269484,-15.9942465
121,-3.74916410446167,-7.661251544952393,69.8722915649414,1.4716046543147778,-9.351360070043205,-3.3148344982660745,-10.902341,11.511657,-1.970937,56.088722,-36.580498,-15.000033,-19.297478,-23.69052,-2.2144752,71.63684,-34.087765,5.098039,2.5541093,0.5894114,12.910181,-66.63171,27.47082,-18.304792,35.158413,-55.92956,-3.5725646,7.4251895,-73.17092,-25.7204,29.392921,35.100758,35.317318,-7.3725014,-16.231777
122,-3.7544593811035156,-7.995857238769531,69.54014587402344,1.729114308734746,-9.402898398544249,-3.3091293856022546,-11.224211,11.516857,-2.0807333,56.92103,-36.98149,-15.000033,-20.20548,-24.885015,-1.3084916,72.15724,-34.181835,5.079592,2.5147786,0.56017303,13.18948,-66.986885,27.455519,-18.233679,35.101295,-56.04151,-3.572328,7.5434937,-73.61507,-26.065355,29.650375,34.78821,35.49493,-7.111983,-16.464607
123,-3.7587621212005615,-8.336982727050781,69.20848846435547,2.0176901955192896,-9.450109811129044,-3.349384325997265,-11.505529,11.5228,-2.141824,57.70045,-37.36786,-15.000033,-21.177061,-26.046562,-0.31750122,72.5732,-34.240543,5.1110854,2.510228,0.5185239,13.460518,-67.34345,27.437548,-18.153904,35.042652,-56.15003,-3.5645967,7.664691,-74.06582,-26.420202,29.923586,34.477592,35.685177,-6.8534594,-16.689085
124,-3.7573206424713135,-8.683119773864746,68.88301086425781,2.3208846173415547,-9.48172069865408,-3.442087945901105,-11.745187,11.556442,-2.1573853,58.4022,-37.704872,-15.000033,-22.19943,-27.161928,0.6857699,72.858536,-34.254894,5.167889,2.5412664,0.47485507,13.705429,-67.681984,27.421679,-18.071169,34.975338,-56.269733,-3.55227,7.780061,-74.50206,-26.782465,30.21974,34.166183,35.88287,-6.6054187,-16.901825
125,-3.7468526363372803,-9.052787780761719,68.56826782226562,2.6389921365047218,-9.500636344309843,-3.60329105223246,-11.941017,11.624332,-2.1172698,59.04994,-38.002037,-15.000033,-23.276665,-28.223326,1.7278955,73.001335,-34.21874,5.2641077,2.6242979,0.43346685,13.928727,-67.9999,27.408377,-17.98417,34.893387,-56.407852,-3.5333164,7.8873115,-74.941826,-27.142578,30.537487,33.880947,36.078316,-6.367791,-17.100204
126,-3.73757004737854,-9.440890312194824,68.25922393798828,2.9789323322320884,-9.51172689450108,-3.8246577149163468,-12.095558,11.7165165,-2.0221882,59.64647,-38.2676,-15.000033,-24.415575,-29.233744,2.8342826,73.018906,-34.138317,5.4049187,2.7481694,0.39008605,14.134548,-68.30221,27.400003,-17.8879,34.801666,-56.55578,-3.5072901,7.991142,-75.38939,-27.497753,30.877876,33.617027,36.277218,-6.138468,-17.287096
127,-3.725897789001465,-9.857943534851074,67.96662139892578,3.3333985270100177,-9.500363226459225,-4.075162863463543,-12.211378,11.823032,-1.9032108,60.138077,-38.47969,-15.000033,-25.598978,-30.20568,3.9206808,72.92395,-34.02267,5.5545,2.884844,0.3388268,14.314855,-68.58716,27.401335,-17.787745,34.697983,-56.704613,-3.477079,8.093365,-75.82844,-27.85205,31.24038,33.34823,36.487984,-5.918123,-17.465912
128,-3.714911937713623,-10.29586410522461,67.69094848632812,3.6952180658607223,-9.455098410103064,-4.323547747832346,-12.292147,11.930463,-1.7940469,60.473118,-38.62676,-15.000033,-26.806475,-31.156416,4.900247,72.728004,-33.88043,5.6779838,3.0160742,0.2716174,14.46842,-68.86006,27.413738,-17.69388,34.575325,-56.84471,-3.443765,8.196323,-76.26109,-28.207481,31.616728,33.066097,36.715183,-5.705485,-17.638794
129,-3.7047412395477295,-10.763211250305176,67.43846893310547,4.065315565387457,-9.366624559224958,-4.571302128526573,-12.348149,12.037049,-1.6889529,60.655144,-38.71868,-15.000033,-28.054806,-32.100292,5.7797904,72.42273,-33.717033,5.7516236,3.138416,0.19167356,14.583223,-69.1162,27.442253,-17.606903,34.42677,-56.986015,-3.399275,8.297285,-76.68162,-28.573872,32.01858,32.74507,36.96087,-5.492884,-17.810282
130,-3.687457323074341,-11.26207447052002,67.21745300292969,4.445889885898626,-9.243876935028414,-4.831410702487499,-12.375662,12.147147,-1.5769174,60.708057,-38.761105,-15.000033,-29.344007,-33.02762,6.593446,72.00493,-33.52644,5.7988925,3.2718792,0.09921981,14.672132,-69.36126,27.484732,-17.52851,34.2493,-57.13204,-3.3434014,8.396771,-77.113594,-28.948256,32.440426,32.416107,37.221672,-5.2804,-17.976852
131,-3.672649621963501,-11.792336463928223,67.0279541015625,4.832425826606627,-9.099855917342126,-5.09013653312422,-12.353916,12.263084,-1.47361,60.600544,-38.71289,-15.000033,-30.630116,-33.918125,7.298451,71.50275,-33.303658,5.8548965,3.400755,-0.012822696,14.747713,-69.59201,27.537905,-17.452307,34.06005,-57.26135,-3.295237,8.500299,-77.51455,-29.325237,32.856647,32.072697,37.497917,-5.0849752,-18.13339
132,-3.6592862606048584,-12.346360206604004,66.87266540527344,5.2205513744361545,-8.948391361622084,-5.334497201088239,-12.262687,12.388098,-1.3941569,60.303123,-38.53366,-15.000033,-31.869162,-34.759464,7.8517795,70.946754,-33.045128,5.952847,3.5213706,-0.15310648,14.828056,-69.81793,27.596,-17.383467,33.877098,-57.358288,-3.2733874,8.613641,-77.87163,-29.691698,33.237736,31.741533,37.786644,-4.9213734,-18.27377
133,-3.6469295024871826,-12.960532188415527,66.75636291503906,5.622641594821301,-8.7923124920974,-5.580983447283375,-12.087424,12.515418,-1.3250799,59.81348,-38.226864,-15.000033,-33.070026,-35.568794,8.257553,70.32491,-32.75387,6.0886827,3.644876,-0.33284113,14.919448,-70.041435,27.659458,-17.335266,33.693874,-57.42271,-3.2962356,8.755824,-78.193245,-30.038702,33.589146,31.437809,38.10534,-4.7904162,-18.394125
134,-3.628708839416504,-13.619202613830566,66.6783447265625,6.036406961629778,-8.625409478649434,-5.830399223569595,-11.8401575,12.645921,-1.2646995,59.14335,-37.80802,-15.000033,-34.244915,-36.35495,8.531025,69.631325,-32.43239,6.2489457,3.7681592,-0.5444971,15.010892,-70.25813,27.729586,-17.300707,33.50787,-57.460835,-3.3501024,8.918081,-78.49164,-30.363546,33.922836,31.160803,38.446056,-4.686218,-18.498268
135,-3.6155812740325928,-14.305353164672852,66.63211822509766,6.435436843344888,-8.444173502125244,-6.045845419314514,-11.541379,12.790938,-1.2513304,58.287254,-37.264347,-15.000033,-35.34302,-37.08989,8.637232,68.90232,-32.07386,6.4556065,3.8636453,-0.76858026,15.0928545,-70.466934,27.798883,-17.251385,33.348423,-57.461792,-3.4066522,9.063347,-78.75811,-30.661217,34.221775,30.910015,38.76811,-4.6138797,-18.591759
136,-3.600325107574463,-15.032322883605957,66.62037658691406,6.793887305860678,-8.24659189437493,-6.190888898872501,-11.21011,12.962089,-1.3224144,57.23543,-36.58103,-15.000033,-36.311516,-37.745346,8.539284,68.17547,-31.672812,6.7304854,3.9046242,-0.98563117,15.154268,-70.66788,27.853176,-17.156984,33.246933,-57.409184,-3.4371586,9.156566,-78.98523,-30.9262,34.469814,30.689125,39.030155,-4.5786796,-18.679583
137,-3.5870704650878906,-15.802136421203613,66.64320373535156,7.111107847451305,-8.028140843688192,-6.266445586386718,-10.857531,13.152141,-1.4883802,56.001106,-35.7772,-15.000033,-37.162514,-38.33677,8.210387,67.44503,-31.229559,7.0820594,3.8887146,-1.1889455,15.18845,-70.874245,27.87906,-16.9885,33.245243,-57.278336,-3.4308836,9.172697,-79.17966,-31.15547,34.68049,30.505331,39.23097,-4.5880656,-18.770763
138,-3.5683717727661133,-16.61912727355957,66.70130920410156,7.399200849443703,-7.792563891123695,-6.289801849842488,-10.468329,13.35904,-1.7301154,54.580242,-34.85065,-15.000033,-37.911137,-38.87886,7.673728,66.69942,-30.749487,7.49792,3.8321953,-1.3866223,15.199702,-71.0876,27.872934,-16.766785,33.327297,-57.07695,-3.406067,9.135371,-79.34755,-31.34807,34.860134,30.367939,39.387646,-4.6380854,-18.859953
139,-3.552215814590454,-17.49251365661621,66.7912368774414,7.652477457739704,-7.550467991652285,-6.24998300096305,-10.026524,13.602286,-2.0418556,52.94522,-33.762123,-15.000033,-38.512432,-39.34196,6.966553,65.97048,-30.236326,7.9689026,3.7391424,-1.5820354,15.192355,-71.29744,27.839968,-16.546473,33.443184,-56.84945,-3.3798583,9.081278,-79.47835,-31.503542,34.97887,30.28332,39.485374,-4.7163854,-18.930302
140,-3.5319619178771973,-18.430179595947266,66.91896057128906,7.8650670153986635,-7.3123426661147,-6.136120334461379,-9.513602,13.901509,-2.416427,51.063507,-32.469105,-15.000033,-38.92091,-39.68965,6.1235266,65.291,-29.693892,8.486134,3.6116612,-1.7810743,15.172247,-71.490456,27.789684,-16.38146,33.538456,-56.639465,-3.368153,9.047584,-79.55946,-31.62191,35.004494,30.252241,39.50988,-4.8096747,-18.964067
141,-3.5160329341888428,-19.396347045898438,67.0709228515625,8.040495013343179,-7.0887977965846325,-5.944180227993319,-8.901029,14.240422,-2.8652112,48.89954,-31.00109,-15.000033,-39.117523,-39.94483,5.1043463,64.65523,-29.147022,9.094123,3.4466739,-1.9831502,15.148775,-71.65982,27.729845,-16.282766,33.59843,-56.467205,-3.373116,9.043543,-79.58615,-31.700058,34.917164,30.286764,39.444134,-4.9108133,-18.950249
142,-3.496721029281616,-20.42609977722168,67.2512435913086,8.180459323222474,-6.871999795317057,-5.682963732158503,-8.200692,14.618077,-3.389416,46.471207,-29.365824,-15.000033,-39.132854,-40.10684,3.9060411,64.053566,-28.589724,9.781861,3.2403562,-2.1878958,15.1181755,-71.806816,27.66353,-16.22013,33.64357,-56.30747,-3.3853548,9.050188,-79.567474,-31.73475,34.73653,30.380457,39.30021,-5.027334,-18.899593
143,-3.4711532592773438,-21.507070541381836,67.45680236816406,8.276869511889096,-6.644152741813974,-5.359612863461374,-7.4628386,15.078844,-3.962446,43.835262,-27.485058,-15.000033,-39.004875,-40.10708,2.624998,63.514675,-27.980028,10.459303,2.9996743,-2.3976498,15.064488,-71.93309,27.595984,-16.19446,33.672745,-56.149853,-3.4036512,9.061787,-79.5044,-31.733795,34.486897,30.503258,39.10821,-5.1687903,-18.828924
144,-3.4527273178100586,-22.664005279541016,67.678466796875,8.321827070619793,-6.386569591812163,-4.9799214115229224,-6.740989,15.665921,-4.5521197,41.044926,-25.28063,-15.000033,-38.77675,-39.88458,1.3622333,63.063972,-27.274437,11.038895,2.7310786,-2.6171553,14.971743,-72.044395,27.528034,-16.206923,33.688217,-55.97787,-3.4270697,9.072951,-79.39299,-31.71101,34.189365,30.616875,38.898815,-5.3437667,-18.753994
145,-3.4277093410491943,-23.875211715698242,67.92366027832031,8.328055033645734,-6.074511599776335,-4.554927808415262,-5.9673843,16.370434,-5.105574,37.9094,-22.638193,-15.000033,-38.49077,-39.322548,0.24185413,62.68127,-26.300587,11.564953,2.455902,-2.8776412,14.814523,-72.167435,27.43958,-16.29181,33.7226,-55.780533,-3.470415,9.085435,-79.19495,-31.663511,33.79295,30.709877,38.63895,-5.5659275,-18.660538
146,-3.405583620071411,-25.12994384765625,68.18604278564453,8.292354218683412,-5.722581551019511,-4.079615989677986,-5.140306,17.183418,-5.6478443,34.458378,-19.621847,-15.000033,-38.14265,-38.47661,-0.8046614,62.35505,-25.1366,12.072134,2.1528153,-3.1410742,14.617759,-72.22875,27.372128,-16.389688,33.687004,-55.574837,-3.5140643,9.095964,-78.94089,-31.611658,33.34682,30.781034,38.34985,-5.8280783,-18.554768
147,-3.409214973449707,-26.43337631225586,68.44428253173828,8.186661181087846,-5.370229388685943,-3.530078416713845,-4.4392567,18.13399,-6.2576566,31.107054,-16.437862,-15.000033,-37.690166,-37.551037,-1.9828113,62.122547,-24.107006,12.450567,1.8178364,-3.402905,14.397249,-72.359795,27.269197,-16.573742,33.728134,-55.365643,-3.5677004,9.114559,-78.6245,-31.535679,32.827103,30.84535,38.051147,-6.0991387,-18.448442
148,-3.406804084777832,-27.79199981689453,68.7031021118164,7.984640795182853,-5.057705559658709,-2.877904321282301,-4.070676,19.232601,-7.0180016,28.303255,-13.315181,-15.000033,-37.064514,-36.756695,-3.519233,62.020786,-23.52718,12.574642,1.4099851,-3.570879,14.201592,-72.46457,27.171078,-16.730612,33.72863,-55.169518,-3.5915315,9.128304,-78.335236,-31.481846,32.389565,30.905396,37.8428,-6.357672,-18.3866
149,-3.3918638229370117,-29.209440231323242,68.94859313964844,7.630297625433817,-4.777710756179839,-2.080445338772664,-4.1777864,20.6157,-8.003102,26.098303,-10.046599,-15.000033,-36.136337,-36.137386,-5.6298532,62.092583,-23.595592,12.374085,0.92610794,-3.6439493,14.007284,-72.62955,27.029888,-16.947392,33.779137,-54.97799,-3.5946293,9.1499815,-77.99257,-31.444782,31.92668,30.93591,37.69544,-6.603724,-18.364489
150,-3.384340524673462,-30.669307708740234,69.18840789794922,7.149928836038685,-4.511450189309625,-1.15936855159751,-4.7284408,22.162666,-9.21964,24.40798,-6.7151136,-15.000033,-34.939735,-35.556644,-8.1676,62.28688,-24.095562,11.918441,0.38059008,-3.6323183,13.810047,-72.808365,26.86295,-17.194784,33.826553,-54.78758,-3.5776272,9.174221,-77.59693,-31.442574,31.451128,30.924496,37.599766,-6.848771,-18.374012
151,-3.3815550804138184,-32.14081954956055,69.4236831665039,6.648206828812924,-4.282027242037527,-0.1802712517221688,-5.6133842,23.519672,-10.63235,23.404922,-3.9245257,-15.000033,-33.6482,-34.97303,-10.81435,62.508343,-24.72171,11.28936,-0.19226894,-3.5956855,13.646296,-73.01593,26.67236,-17.438023,33.89591,-54.60595,-3.55598,9.1905155,-77.221375,-31.489038,31.056171,30.893013,37.58245,-7.074395,-18.410095
152,-3.3909618854522705,-33.59187316894531,69.63374328613281,6.236282127573407,-4.115459235007414,0.792139086599065,-6.6108336,24.40309,-12.121857,23.112452,-2.1391542,-15.000033,-32.461376,-34.38263,-13.2418375,62.679283,-25.168892,10.569678,-0.76230836,-3.591248,13.553953,-73.24687,26.46503,-17.622513,33.99027,-54.439552,-3.5396464,9.187829,-76.95356,-31.599483,30.854193,30.872149,37.676918,-7.2634125,-18.469833
153,-3.4106760025024414,-35.031009674072266,69.82850646972656,5.915550840940828,-4.028952321519558,1.802813332411473,-7.6934257,24.759953,-13.877124,23.499243,-1.5301936,-15.000033,-31.386108,-33.817497,-15.445321,62.797775,-25.353935,9.794154,-1.3692819,-3.6139061,13.557546,-73.498535,26.246052,-17.734253,34.09167,-54.30903,-3.543726,9.157211,-76.84489,-31.795362,30.925575,30.876986,37.935055,-7.413958,-18.552465
154,-3.435648202896118,-36.446414947509766,69.9996566772461,5.6350568180524565,-4.003153524904068,2.872011534038002,-8.887241,24.75684,-15.848427,24.450588,-1.7255176,-15.000033,-30.332663,-33.283924,-17.578226,62.905964,-25.44249,8.9164715,-2.014047,-3.6392334,13.630699,-73.76855,26.014544,-17.794748,34.191544,-54.20818,-3.5554676,9.105506,-76.83728,-32.081257,31.19869,30.875702,38.332897,-7.533363,-18.659119
155,-3.4607760906219482,-37.8265380859375,70.13216400146484,5.435080196590917,-4.023301040723559,3.8840516984504068,-9.974249,24.50924,-17.4893,25.792212,-2.3064458,-15.000033,-29.373255,-32.76103,-19.532299,63.020855,-25.510595,7.8966784,-2.6023443,-3.7050266,13.745819,-74.050476,25.767365,-17.800055,34.31234,-54.098385,-3.543989,9.046228,-76.86593,-32.437046,31.565523,30.839746,38.78704,-7.617864,-18.78861
156,-3.496109962463379,-39.16611099243164,70.23857879638672,5.356978637615292,-4.082827746682992,4.712407897694493,-10.746981,24.157915,-18.2613,27.369017,-2.8939972,-15.000033,-28.577364,-32.2284,-21.189148,63.16275,-25.637856,6.6941547,-3.0339901,-3.8474371,13.881118,-74.33713,25.504543,-17.748924,34.48054,-53.94384,-3.4798956,8.992563,-76.872345,-32.8259,31.919159,30.757683,39.2085,-7.6654706,-18.94114
157,-3.5388100147247314,-40.4713134765625,70.33412170410156,5.4792653231802575,-4.206316096498747,5.322488860205689,-11.066315,23.580242,-18.010681,29.126322,-3.4042304,-15.000033,-28.009783,-31.763138,-22.435236,63.40043,-25.855242,5.205792,-3.2848186,-4.1363378,14.05252,-74.62868,25.225018,-17.617678,34.719784,-53.689083,-3.3405511,8.9515915,-76.8685,-33.21808,32.268494,30.664057,39.572353,-7.689464,-19.152718
158,-3.5732295513153076,-41.75720977783203,70.42223358154297,5.760477754360239,-4.390416965188717,5.779296613165402,-11.106077,22.762901,-17.002247,31.198906,-4.075446,-15.000033,-27.618576,-31.369896,-23.363363,63.722473,-26.133175,3.4812074,-3.415178,-4.53718,14.260418,-74.92321,24.932924,-17.41154,35.01572,-53.365223,-3.148796,8.914725,-76.90148,-33.603672,32.66865,30.589178,39.916813,-7.690622,-19.412249
159,-3.6013715267181396,-43.025848388671875,70.49674987792969,6.059906809594191,-4.586258709254885,6.102755388086371,-11.110373,22.044521,-15.340297,33.6766,-4.997404,-15.000033,-27.299881,-30.906086,-24.158438,64.02166,-26.457256,1.7097405,-3.451327,-4.923914,14.464284,-75.20535,24.641544,-17.172987,35.331615,-53.06852,-2.9427707,8.872787,-76.9558,-33.97479,33.071896,30.50811,40.248478,-7.6469836,-19.65072
160,-3.623012065887451,-44.286529541015625,70.5526123046875,6.231772221437806,-4.752373322583399,6.305199466864832,-11.2654505,21.805721,-13.15661,36.6209,-6.2300467,-15.000033,-26.9446,-30.210897,-24.997433,64.18282,-26.809084,0.08220436,-3.4144037,-5.168491,14.633073,-75.46051,24.3681,-16.947996,35.62959,-52.896526,-2.7599537,8.817986,-77.00999,-34.32722,33.42413,30.387537,40.574078,-7.534602,-19.797256
161,-3.641496181488037,-45.541412353515625,70.58902740478516,6.212545454172545,-4.890284427018694,6.319607429737356,-11.587065,22.465406,-10.054839,40.234867,-7.9336042,-15.000033,-26.520967,-29.161556,-25.8935,64.15064,-27.193783,-1.3559083,-3.2583487,-5.202162,14.774017,-75.668724,24.125057,-16.71249,35.898285,-52.897057,-2.6052525,8.728394,-77.06049,-34.65382,33.712322,30.217356,40.903843,-7.3375607,-19.79439
162,-3.6673295497894287,-46.79635238647461,70.60330200195312,6.071045401647305,-5.03372557317963,6.137913713748785,-11.844248,23.845171,-6.155082,44.417297,-10.056546,-15.000033,-26.066732,-27.824203,-26.751865,63.968674,-27.611446,-2.705077,-2.9761562,-5.085659,14.917774,-75.832375,23.918015,-16.451845,36.145515,-53.015656,-2.4578009,8.615931,-77.1231,-34.948784,33.966805,30.019192,41.230114,-7.070251,-19.692787
163,-3.6950182914733887,-48.04497528076172,70.60409545898438,5.87292090085158,-5.187206821088183,5.868089955634145,-11.871313,25.344482,-2.3395598,48.71924,-12.281461,-15.000033,-25.578018,-26.33779,-27.581495,63.653698,-28.017796,-3.987576,-2.6526992,-4.9004474,15.065042,-75.97251,23.751797,-16.227926,36.36421,-53.19803,-2.3162637,8.52417,-77.20508,-35.215115,34.198486,29.802668,41.53457,-6.753505,-19.583235
164,-3.7335143089294434,-49.29212188720703,70.59625244140625,5.701814673171252,-5.330362741143201,5.655578336707568,-11.705399,26.207056,0.5481799,52.68753,-14.228823,-15.000033,-25.082283,-24.892563,-28.40754,63.247486,-28.373838,-5.2224374,-2.4032214,-4.75255,15.191874,-76.116135,23.62979,-16.110773,36.551094,-53.39309,-2.1804783,8.49635,-77.30421,-35.46429,34.411175,29.567518,41.799763,-6.408378,-19.555775
165,-3.7692043781280518,-50.51802444458008,70.59121704101562,5.560097763144059,-5.440564549245022,5.513301038058822,-11.496972,26.205778,2.2878995,56.321674,-15.822862,-15.000033,-24.598015,-23.495634,-29.25097,62.74209,-28.695038,-6.407629,-2.2379522,-4.6496167,15.281704,-76.285545,23.55835,-16.12959,36.716507,-53.585815,-2.041574,8.557881,-77.42868,-35.709465,34.602764,29.2858,42.028534,-6.015731,-19.63833
166,-3.802529811859131,-51.72670364379883,70.59008026123047,5.4282799017292955,-5.521811224986228,5.392582329360775,-11.290927,25.610918,3.3963122,59.808563,-17.23306,-15.000033,-24.128265,-22.094936,-30.091373,62.13842,-28.995497,-7.5284057,-2.1202033,-4.564975,15.338973,-76.462814,23.537457,-16.249142,36.855682,-53.808056,-1.9017886,8.6810055,-77.56063,-35.95523,34.76369,28.94429,42.230324,-5.5716095,-19.781303
167,-3.84169340133667,-52.92832946777344,70.59107208251953,5.359298546583718,-5.579125586193565,5.364844519555633,-11.106816,24.38365,4.1360407,62.986492,-18.421907,-15.000033,-23.691788,-20.818344,-30.916813,61.511047,-29.240892,-8.587905,-2.1057858,-4.55796,15.359546,-76.61656,23.554049,-16.442204,36.94475,-54.076767,-1.7782514,8.829359,-77.66656,-36.198944,34.88527,28.575666,42.399635,-5.1200194,-19.958012
168,-3.889436721801758,-54.11943054199219,70.60224151611328,5.39638645302786,-5.620186826567045,5.495632285839862,-10.953112,22.544418,4.7309976,65.698715,-19.359703,-15.000033,-23.306988,-19.781672,-31.71839,60.936417,-29.395292,-9.596897,-2.2369668,-4.678354,15.345712,-76.727516,23.585005,-16.686014,36.968407,-54.406567,-1.6891034,8.966918,-77.748505,-36.43032,34.969353,28.25061,42.53882,-4.703814,-20.140467
169,-3.9351425170898438,-55.277191162109375,70.62361907958984,5.568746462023721,-5.643200203564023,5.8372323808793,-10.864971,19.971962,5.0859265,67.90326,-20.001835,-15.000033,-22.969067,-19.053362,-32.50344,60.417725,-29.498447,-10.572213,-2.5701373,-4.953205,15.268288,-76.77942,23.622166,-16.999945,36.91751,-54.831444,-1.646402,9.100099,-77.7274,-36.651333,34.98849,27.927786,42.60379,-4.3221393,-20.33726
170,-3.9869918823242188,-56.415199279785156,70.65213775634766,5.836382030881297,-5.652812169583172,6.334483860630212,-10.830884,16.736738,5.1522927,69.69218,-20.41039,-15.000033,-22.665653,-18.556837,-33.288326,59.93665,-29.556782,-11.509959,-3.0542293,-5.3386965,15.138376,-76.79943,23.663458,-17.39065,36.817646,-55.329285,-1.6413107,9.243058,-77.63024,-36.866776,34.950333,27.59749,42.60779,-3.9554243,-20.555983
171,-4.038578510284424,-57.52663040161133,70.68297576904297,6.12884771331602,-5.665715560394594,6.890049685437751,-10.78676,13.19975,5.177913,71.09221,-20.673798,-15.000033,-22.403612,-18.175259,-34.080235,59.525486,-29.474064,-12.397676,-3.5902722,-5.7592945,14.999272,-76.80786,23.697544,-17.796696,36.711655,-55.823654,-1.6633704,9.369945,-77.518456,-37.072674,34.887608,27.297194,42.605705,-3.6258762,-20.770897
172,-4.090184211730957,-58.63114547729492,70.71929931640625,6.376822360811688,-5.692897141995973,7.413688643355202,-10.693601,9.702054,5.3668823,72.13234,-20.8831,-15.000033,-22.192688,-17.797466,-34.893345,59.210087,-29.151966,-13.218989,-4.104066,-6.1361523,14.873602,-76.8016,23.716358,-18.140871,36.647156,-56.2327,-1.7042753,9.453745,-77.3571,-37.268543,34.810513,26.98411,42.618366,-3.362096,-20.960047
173,-4.152252197265625,-59.72007369995117,70.75959777832031,6.5986926579223795,-5.749496175348563,7.948989202059002,-10.533585,6.1351986,5.6785808,72.772,-21.058006,-15.000033,-22.020096,-17.446718,-35.703503,58.97054,-28.633514,-13.943753,-4.625933,-6.497372,14.771649,-76.78434,23.703669,-18.41489,36.640247,-56.542507,-1.7649618,9.481223,-77.21377,-37.448082,34.755547,26.72451,42.697018,-3.1731536,-21.117266
174,-4.230898857116699,-60.820674896240234,70.79263305664062,6.7912768223840505,-5.830749536882265,8.51372373142919,-10.327694,2.4224386,5.974695,73.020935,-21.181118,-15.000033,-21.87202,-17.134954,-36.532337,58.78593,-27.940466,-14.592158,-5.1842623,-6.8336143,14.669994,-76.74555,23.659681,-18.641222,36.681053,-56.785572,-1.8520738,9.467356,-77.00005,-37.615715,34.6865,26.452934,42.78626,-3.0487916,-21.257263
175,-4.317379474639893,-61.9100341796875,70.82601928710938,6.907716380664884,-5.945735622644562,9.038074568744088,-10.081167,-1.1441774,6.279148,72.94307,-21.213095,-15.000033,-21.732725,-16.855959,-37.44795,58.72917,-26.961315,-15.000033,-5.6935663,-7.092006,14.625564,-76.72259,23.590178,-18.835825,36.753227,-56.964836,-1.9565095,9.431243,-76.79135,-37.767517,34.603134,26.218256,42.858334,-2.971036,-21.379784
176,-4.427007675170898,-63.02058029174805,70.85417938232422,6.879159145218963,-6.039053315584522,9.403889894821003,-9.862659,-4.208885,6.664024,72.61932,-21.07878,-15.000033,-21.65866,-16.51795,-38.48662,58.81298,-25.544428,-15.000033,-6.0379686,-7.1818366,14.627271,-76.728775,23.512722,-19.00231,36.837406,-57.08163,-2.0702922,9.390304,-76.57801,-37.89926,34.481987,25.997585,42.85587,-2.9269707,-21.488071
177,-4.5661845207214355,-64.14493560791016,70.8835220336914,6.744568660234155,-6.068477429684871,9.592257154628735,-9.696057,-6.8396387,7.184696,71.9734,-20.644749,-15.000033,-21.76134,-16.143843,-39.65846,59.08226,-23.630045,-15.000033,-6.19897,-7.1327996,14.651208,-76.75904,23.4339,-19.127449,36.92111,-57.123592,-2.1912856,9.336166,-76.39883,-38.00142,34.32955,25.82627,42.76845,-2.9186583,-21.58707
178,-4.724273681640625,-65.28324890136719,70.91773986816406,6.525363828831353,-6.047553046282082,9.649193624033055,-9.560346,-9.153254,7.7846036,70.98687,-19.944326,-15.000033,-22.019772,-15.742152,-40.920708,59.47393,-21.271246,-15.000033,-6.2485394,-6.970068,14.678332,-76.76938,23.374323,-19.19396,36.991238,-57.096684,-2.320886,9.2623825,-76.21012,-38.057896,34.15506,25.67187,42.604435,-2.9561956,-21.677294
179,-4.899522304534912,-66.43907165527344,70.9527359008789,6.143096128083954,-5.975764524215349,9.5368533054518,-9.488129,-10.864606,8.423922,69.83477,-19.108278,-15.000033,-22.347998,-15.143483,-42.27202,59.791733,-18.464994,-15.000033,-6.118366,-6.6377387,14.7283,-76.81107,23.32285,-19.268484,37.056934,-57.037144,-2.4581766,9.194713,-76.058525,-38.08701,33.952003,25.56282,42.412575,-3.0210202,-21.745066
180,-5.099076271057129,-67.63358306884766,70.9791030883789,5.532386782099699,-5.855591089921699,9.211689254327169,-9.507902,-11.701535,9.097202,68.710785,-18.270868,-15.000033,-22.654964,-14.191763,-43.715538,59.844994,-15.2155075,-15.000033,-5.777435,-6.0640235,14.800709,-76.85485,23.30809,-19.355057,37.07045,-56.976383,-2.593462,9.152714,-75.96902,-38.08107,33.75766,25.501923,42.22432,-3.106792,-21.7883
181,-5.312664985656738,-68.88274383544922,71.00114440917969,4.661613417565294,-5.707765338037487,8.60215265574936,-9.648887,-11.612607,9.819204,67.60565,-17.09531,-15.000033,-22.827368,-12.872361,-45.446716,59.587578,-11.39958,-15.000033,-5.1665344,-5.244001,14.91637,-76.93155,23.329987,-19.498339,37.056885,-56.910465,-2.741244,9.153677,-75.826485,-38.044727,33.47113,25.396128,41.986443,-3.2061105,-21.784674
182,-5.5383758544921875,-70.17668151855469,71.01241302490234,3.5885384607652036,-5.549061012198331,7.72318192210371,-9.883079,-10.728066,10.673047,66.55437,-15.695414,-15.000033,-22.916277,-11.261795,-47.393078,59.088627,-7.0486603,-15.000033,-4.3196898,-4.236786,15.072164,-77.01355,23.42861,-19.679373,36.987114,-56.84209,-2.8939836,9.184553,-75.69263,-37.949577,33.120224,25.29462,41.704018,-3.3240345,-21.741451
183,-5.771188735961914,-71.50520324707031,71.00049591064453,2.3812987881695413,-5.386336345449482,6.649423822263577,-10.095055,-9.039197,11.780156,65.79803,-14.909996,-15.000033,-23.04893,-9.34619,-49.18581,58.334137,-2.4097292,-15.000033,-3.303023,-3.0859861,15.21403,-77.08106,23.592138,-19.857374,36.874897,-56.789055,-3.0335858,9.220801,-75.60709,-37.81033,32.792305,25.22551,41.434963,-3.4698513,-21.692732
184,-6.01894998550415,-72.85782623291016,70.95692443847656,1.126731857126731,-5.276436276463208,5.519059171947709,-10.023322,-6.5666566,13.2423935,65.45514,-15.57331,-15.000033,-23.295034,-7.1881633,-50.487434,57.373066,2.2334085,-15.000033,-2.2332096,-1.9115206,15.350471,-77.18071,23.809422,-20.067205,36.78398,-56.78493,-3.151571,9.250504,-75.6034,-37.62484,32.502743,25.227264,41.225384,-3.6404898,-21.65501
185,-6.259523391723633,-74.16497802734375,70.86127471923828,0.0979031010815891,-5.266144727350514,4.6423922878786925,-9.177952,-3.2452104,15.851548,65.20897,-18.316603,-13.116128,-24.20212,-5.0238366,-50.115337,56.626007,6.96254,-12.483108,-1.4248043,-0.9952203,15.484631,-77.312454,24.083443,-20.312557,36.745987,-56.84633,-3.258562,9.264425,-75.59976,-37.40371,32.24969,25.229635,41.082794,-3.868006,-21.629658
186,-6.508954048156738,-75.4000473022461,70.70085144042969,-0.532756621661555,-5.1358014834453405,3.9629047094268897,-7.76831,0.3627792,20.018358,64.86063,-22.91162,-6.8017044,-25.970453,-3.1972554,-48.4593,56.39375,11.5911,-8.409423,-0.80350834,-0.47839555,15.452759,-77.483154,24.41237,-20.598032,36.735973,-56.9586,-3.3534527,9.271961,-75.645256,-37.14573,32.024643,25.272705,40.9967,-4.137856,-21.604654
187,-6.747115612030029,-76.64768981933594,70.51338195800781,-1.1153892532854663,-5.029953059160656,3.318115613970105,-6.190127,3.5620763,23.703804,64.61191,-28.461678,-1.5078784,-27.978693,-1.079459,-46.127502,56.17924,15.495319,-3.5414438,-0.20343706,-0.025810374,15.417867,-77.671555,24.782701,-20.887579,36.72738,-57.08362,-3.4226184,9.2852545,-75.70599,-36.85155,31.787989,25.324097,40.909023,-4.3963046,-21.587894
188,-6.983260154724121,-77.91205596923828,70.28005981445312,-1.5653427567837577,-4.982323571553877,2.810696576889481,-4.997257,5.813162,26.090605,64.41579,-33.262814,1.9220283,-29.907545,0.9371556,-43.634666,56.220238,17.888107,1.4813962,0.30298746,0.2828201,15.427638,-77.87045,25.16947,-21.149246,36.704796,-57.182365,-3.452663,9.316983,-75.78146,-36.522636,31.513317,25.382458,40.771885,-4.5870056,-21.585642
189,-7.215303421020508,-79.17971801757812,70.0164566040039,-1.877064384932955,-5.010020646078906,2.5011020829077766,-4.4793935,7.278461,26.893724,64.342415,-36.68605,3.3724205,-31.62804,2.7425447,-41.134106,56.564854,18.451958,6.5083942,0.689942,0.435255,15.511163,-78.13147,25.554485,-21.422297,36.686855,-57.26261,-3.446433,9.403683,-75.88672,-36.15484,31.16289,25.461966,40.55629,-4.675375,-21.605331
190,-7.44460391998291,-80.43988800048828,69.73387145996094,-2.109406461279249,-5.101391730933556,2.3455184111300484,-4.4077673,8.471914,26.67719,64.40242,-39.360054,3.5003045,-33.14464,4.380097,-38.643852,57.178383,17.626839,11.530972,0.9549422,0.49612233,15.632792,-78.42789,25.941704,-21.695305,36.703995,-57.325714,-3.4172072,9.527278,-75.866066,-35.770267,30.726128,25.42622,40.26176,-4.7053275,-21.64505
191,-7.679137706756592,-81.70150756835938,69.46123504638672,-2.2900362414859425,-5.247561453144342,2.271625501764935,-4.5678086,9.601847,25.987604,64.59074,-41.45083,2.8917315,-34.19301,5.381838,-36.933674,58.146347,15.9919615,15.000033,1.1753259,0.5058054,15.81636,-78.72011,26.310678,-21.918135,36.724308,-57.348362,-3.3546488,9.62209,-75.90638,-35.371197,30.31064,25.452114,39.977425,-4.7145557,-21.685368
192,-7.917369842529297,-82.99642944335938,69.1820297241211,-2.522361718210375,-5.3192435112204866,1.9645437249002877,-4.8463354,11.039426,25.491022,65.01453,-43.230095,2.0424652,-34.56252,5.368047,-36.959827,59.3678,14.390933,15.000033,1.6176003,0.6007844,15.909223,-78.94015,26.645853,-22.014769,36.75813,-57.294067,-3.2509286,9.615313,-75.96875,-34.969204,29.974728,25.52683,39.742577,-4.7544174,-21.71578
193,-8.125014305114746,-84.29264831542969,68.93289184570312,-2.7297844487560248,-5.456246421789966,1.6434179214326974,-5.0457373,12.563401,25.033855,65.581924,-44.59272,1.0534075,-34.750732,4.931123,-37.125725,60.96923,12.759034,15.000033,2.0844111,0.7058792,16.05971,-79.07531,26.929592,-21.910961,36.821712,-57.130756,-3.0859225,9.440807,-76.058525,-34.58187,29.750916,25.643942,39.57659,-4.8485284,-21.729143
194,-8.331233978271484,-85.5715103149414,68.7121353149414,-2.88630099369122,-5.679590582378388,1.394028956121279,-5.266816,14.0797,24.34659,66.27896,-45.442223,-0.26035988,-34.76098,4.095483,-37.31446,62.914104,10.837233,15.000033,2.5097246,0.7882757,16.292948,-79.16557,27.155468,-21.659279,36.9221,-56.877937,-2.8737302,9.150746,-76.15409,-34.21926,29.599821,25.778736,39.45371,-4.9684696,-21.735111
195,-8.51833724975586,-86.85374450683594,68.5339126586914,-3.0036999064689,-5.931243039490076,1.1999138109371084,-5.496784,15.580857,23.583263,66.95851,-45.931717,-1.69735,-34.7286,3.0474055,-37.30129,65.0331,8.779651,15.000033,2.9002068,0.86750877,16.54367,-79.20286,27.328827,-21.359415,37.019238,-56.57003,-2.664735,8.859152,-76.21958,-33.88088,29.48581,25.916033,39.352623,-5.085745,-21.74438
196,-8.676124572753906,-88.11134338378906,68.39865112304688,-3.0923610201943554,-6.157180718283027,1.0492078520625663,-5.705511,17.0506,22.907143,67.46754,-46.222435,-3.0734165,-34.801678,1.9966398,-36.85916,67.16569,6.715316,15.000033,3.254451,0.95899725,16.748915,-79.170525,27.465223,-21.111488,37.063652,-56.247963,-2.506768,8.681184,-76.22598,-33.55775,29.375546,26.047512,39.250046,-5.1720276,-21.767202
197,-8.808072090148926,-89.36144256591797,68.2953872680664,-3.1519328134429427,-6.358207732214852,0.9109187053944683,-5.840162,18.504705,22.393772,67.80443,-46.33136,-4.3428135,-35.08003,1.1053553,-35.810966,69.273094,4.6246657,15.000033,3.594026,1.0630591,16.903982,-79.05188,27.578505,-20.930931,37.029697,-55.886395,-2.400181,8.667257,-76.15005,-33.234932,29.249239,26.169218,39.139473,-5.212014,-21.810562
198,-8.917253494262695,-90.60148620605469,68.22019958496094,-3.170691649018557,-6.5599387706322885,0.8036088787461524,-5.9025974,19.915693,21.945276,68.03647,-46.210945,-5.5957603,-35.46498,0.2577606,-34.30749,71.41694,2.4461174,15.000033,3.912783,1.1597322,17.04836,-78.85726,27.667578,-20.771788,36.932983,-55.480972,-2.3193789,8.750741,-76.05162,-32.89857,29.127401,26.326212,39.026066,-5.2206078,-21.865309
199,-9.005561828613281,-91.8328857421875,68.16284942626953,-3.1378768130278942,-6.745599664174639,0.7905989963400712,-5.9480343,21.200495,21.472006,68.112785,-45.914894,-6.854493,-35.8157,-0.763051,-32.612934,73.59171,0.2560679,15.000033,4.121818,1.2313133,17.155107,-78.57695,27.744352,-20.62398,36.80389,-55.10313,-2.2788153,8.871166,-75.897285,-32.57324,29.04813,26.454002,38.921314,-5.225919,-21.921675
200,-9.086949348449707,-93.06002044677734,68.1241226196289,-3.041179144895151,-6.899974152601998,0.9353642950705735,-6.040583,22.278494,20.883278,67.98212,-45.48876,-8.1407795,-36.003994,-2.1980636,-30.974035,75.791245,-1.8826604,15.000033,4.1868777,1.2564324,17.233913,-78.23841,27.807625,-20.504057,36.64377,-54.839157,-2.2858841,8.969096,-75.77433,-32.27457,29.032602,26.602983,38.825367,-5.2427354,-21.96555
201,-9.151320457458496,-94.26673889160156,68.11649322509766,-2.854996595631603,-7.014640424585359,1.270661022403051,-6.1982317,23.091951,20.142597,67.62211,-44.950253,-9.48425,-36.051044,-4.191336,-29.398632,78.09677,-4.019695,15.000033,4.0731435,1.2156898,17.272383,-77.8241,27.857939,-20.425987,36.454243,-54.717968,-2.3659334,9.035407,-75.6612,-32.0248,29.094921,26.740137,38.745544,-5.2791386,-21.99864
202,-9.207539558410645,-95.4634780883789,68.1244125366211,-2.5626108332273763,-7.107700550138958,1.766307171908371,-6.3718553,23.651913,19.302532,67.06111,-44.289654,-10.855718,-36.026802,-6.6365027,-27.730478,80.47745,-6.181848,15.000033,3.823961,1.0935198,17.293638,-77.3441,27.889282,-20.389072,36.220818,-54.697407,-2.5031867,9.099558,-75.554146,-31.823172,29.207912,26.875204,38.67898,-5.3194156,-22.025494
203,-9.238186836242676,-96.65853118896484,68.1552734375,-2.1681175667218695,-7.207693055620748,2.395778941707726,-6.5357137,23.983671,18.39291,66.32792,-43.498455,-12.182402,-35.875534,-9.438604,-25.989864,82.75861,-8.264666,15.000033,3.4534855,0.87731284,17.318739,-76.82772,27.902184,-20.359882,35.964794,-54.73849,-2.6552882,9.1589775,-75.41202,-31.675585,29.351954,26.97067,38.633163,-5.3587666,-22.040981
204,-9.259636878967285,-97.8542251586914,68.19420623779297,-1.7596033468027754,-7.297929209369117,3.045027205673539,-6.715588,24.270285,17.46978,65.502846,-42.578125,-13.435058,-35.52351,-12.515025,-24.46314,84.723404,-10.12185,14.498278,3.092814,0.6421709,17.339045,-76.32688,27.888863,-20.320625,35.689255,-54.81117,-2.7740164,9.211357,-75.276215,-31.565645,29.493698,27.075388,38.59818,-5.384794,-22.038467
205,-9.284141540527344,-99.10652160644531,68.24266052246094,-1.493611702995046,-7.303635873040531,3.5969086783402795,-7.034753,24.792166,16.525238,64.703224,-41.535946,-14.665027,-34.82053,-16.201,-24.006506,86.329025,-11.717205,11.697197,2.8322418,0.5443624,17.257563,-75.82205,27.851362,-20.268944,35.391098,-54.951107,-2.8596668,9.250807,-75.1098,-31.497372,29.638893,27.167747,38.57065,-5.394032,-22.004734
206,-9.306156158447266,-100.36641693115234,68.31605529785156,-1.057332179494937,-7.2754346704670505,4.321897080668753,-7.4642158,24.841537,15.459084,63.73256,-40.31263,-15.000033,-34.08576,-20.44447,-23.569529,87.81158,-13.282082,8.755112,2.4236033,0.2656574,17.150974,-75.29793,27.803474,-20.226114,35.05467,-55.16634,-2.9329345,9.282019,-74.90758,-31.479694,29.783216,27.228495,38.550945,-5.390284,-21.94584
207,-9.32204532623291,-101.6459732055664,68.40963745117188,-0.4796220403333858,-7.2239667047308735,5.120653112123274,-7.8778005,24.6038,14.402626,62.554638,-38.92205,-15.000033,-33.43339,-24.862352,-22.977207,89.02036,-14.813766,5.7878966,1.9526607,-0.15027227,17.022747,-74.7771,27.716984,-20.145657,34.725986,-55.346935,-2.98582,9.311254,-74.7022,-31.493414,29.95822,27.278343,38.559685,-5.3932824,-21.893932
208,-9.333846092224121,-102.93492126464844,68.52603149414062,0.12611330037895493,-7.175526055326924,5.85505207855176,-8.154197,24.346087,13.459276,61.156857,-37.396027,-15.000033,-32.92187,-28.953932,-22.117949,89.781586,-16.274464,2.875618,1.5455345,-0.60098535,16.907715,-74.30848,27.602396,-20.031176,34.447136,-55.409943,-3.0095828,9.353447,-74.483215,-31.535091,30.134092,27.278898,38.609344,-5.4105644,-21.868286
209,-9.344623565673828,-104.24162292480469,68.66392517089844,0.7676899081033413,-7.137588748967149,6.51903466263369,-8.2962055,24.05888,12.63782,59.538757,-35.733513,-15.000033,-32.6246,-32.62508,-20.825588,90.08332,-17.648952,-0.02666225,1.2002174,-1.0925848,16.818836,-73.897285,27.46069,-19.861986,34.216652,-55.29697,-2.9819725,9.42765,-74.26117,-31.596806,30.32142,27.23266,38.730762,-5.4595714,-21.872673
210,-9.358382225036621,-105.57842254638672,68.82313537597656,1.4334451514917232,-7.109061969143768,7.14777604081009,-8.336074,23.746052,11.888602,57.724823,-33.928696,-15.000033,-32.490757,-36.027557,-19.244598,89.98078,-18.947111,-2.9643936,0.8818855,-1.6105508,16.744278,-73.52069,27.292595,-19.645798,34.019005,-55.06652,-2.9143686,9.521923,-74.03541,-31.677969,30.529118,27.152998,38.906784,-5.53078,-21.89511
211,-9.36159896850586,-106.93452453613281,69.00799560546875,2.0931537601255794,-7.063335495709573,7.718826267653911,-8.266595,23.461052,11.209214,55.696476,-31.97374,-15.000033,-32.457706,-39.17158,-17.640013,89.480606,-20.17136,-5.824141,0.60401464,-2.120123,16.64325,-73.151634,27.105515,-19.396837,33.861294,-54.80157,-2.8481266,9.600428,-73.77775,-31.780155,30.75622,27.022795,39.085594,-5.5999837,-21.939486
212,-9.347616195678711,-108.31275939941406,69.21380615234375,2.717737064424717,-6.972430868861118,8.21018544941959,-8.08359,23.252243,10.599061,53.43363,-29.85803,-15.000033,-32.423935,-42.077618,-16.307745,88.59809,-21.326185,-8.483719,0.40122202,-2.5887365,16.491825,-72.77772,26.902512,-19.14074,33.738686,-54.5889,-2.8220894,9.628651,-73.51491,-31.888844,30.99319,26.88148,39.202827,-5.637882,-22.008549
213,-9.33154582977295,-109.71253967285156,69.43890380859375,3.3332197692061785,-6.833519732094381,8.603326487520812,-7.7665563,23.063873,10.094724,50.8872,-27.583921,-15.000033,-32.25605,-44.87988,-15.433376,87.2927,-22.660532,-10.995109,0.27676058,-3.0314257,16.28264,-72.38003,26.686895,-18.855467,33.664257,-54.446835,-2.8547506,9.584604,-73.23834,-31.99674,31.26272,26.717112,39.23552,-5.630528,-22.123043
214,-9.3030366897583,-111.14542388916016,69.68106842041016,3.938364843528447,-6.653066005862811,8.910522278408898,-7.3311653,22.891039,9.687044,48.07386,-25.145285,-15.000033,-31.980457,-47.48392,-14.89592,85.5887,-24.10946,-13.351293,0.21183588,-3.450938,16.025894,-71.96025,26.46274,-18.531599,33.62717,-54.3309,-2.9223409,9.491149,-72.94736,-32.102993,31.566404,26.52417,39.21801,-5.596464,-22.275396
215,-9.259079933166504,-112.60396575927734,69.93264770507812,4.476488646956405,-6.42347935451017,9.165818361755461,-6.8314757,22.83454,9.30967,45.083084,-22.518435,-15.000033,-31.693993,-49.61129,-14.4569025,83.62332,-25.166855,-15.000033,0.1850515,-3.807467,15.714106,-71.53073,26.238934,-18.210188,33.60188,-54.232918,-3.0037615,9.380976,-72.64565,-32.207153,31.871775,26.319408,39.178795,-5.5587773,-22.425623
216,-9.184099197387695,-114.07767486572266,70.18299102783203,5.057115818733456,-6.280851508793228,9.573942723990001,-6.210582,22.709139,8.813428,41.93829,-19.661985,-15.000033,-31.329952,-51.320084,-13.712029,81.562386,-25.307093,-15.000033,0.02262675,-4.249876,15.474276,-71.127785,26.019907,-17.946535,33.571335,-54.1472,-3.0736568,9.285768,-72.36944,-32.297047,32.13262,26.156527,39.144264,-5.536063,-22.53245
217,-9.09282398223877,-115.56909942626953,70.438720703125,5.633409998564701,-6.164640000329798,10.061257526484317,-5.454372,22.566782,8.272443,38.484367,-16.519253,-15.000033,-31.022568,-52.577106,-12.836248,79.405495,-24.05801,-15.000033,-0.23372492,-4.725548,15.232882,-70.691246,25.812796,-17.720455,33.53601,-54.059074,-3.134908,9.204578,-72.053154,-32.377388,32.359863,25.991499,39.11924,-5.544121,-22.57106
218,-8.997312545776367,-117.0914077758789,70.69383239746094,6.135526685713074,-5.99011070253701,10.513311304424477,-4.650183,22.506847,7.764486,34.779247,-13.126396,-15.000033,-30.753834,-53.322178,-11.976272,77.12787,-21.793127,-15.000033,-0.45419967,-5.1442585,14.936805,-70.23387,25.613937,-17.522764,33.485878,-53.98077,-3.1950188,9.12489,-71.753654,-32.43596,32.562943,25.866459,39.082882,-5.5651855,-22.567131
219,-8.903109550476074,-118.66961669921875,70.93878173828125,6.386508229638238,-5.6388154107180295,10.811646532981088,-4.106811,22.863344,7.2811656,31.27845,-9.598332,-15.000033,-30.417812,-53.40154,-11.568078,74.844604,-19.249838,-15.000033,-0.55444366,-5.3377633,14.49286,-69.8131,25.440826,-17.367453,33.42191,-53.9274,-3.2533886,9.06197,-71.460754,-32.486645,32.737503,25.727037,39.046936,-5.5907283,-22.558405
220,-8.838688850402832,-120.33506774902344,71.1662368774414,6.200657545220845,-5.001944907607126,10.849754420848281,-4.156487,23.987633,6.7921824,28.503004,-6.095839,-15.000033,-29.88174,-52.698433,-12.084007,72.6307,-17.146423,-15.000033,-0.4318616,-5.1391983,13.842131,-69.50374,25.313028,-17.285831,33.322933,-53.92395,-3.304185,9.031441,-71.21394,-32.54209,32.860584,25.56268,39.018547,-5.6046977,-22.581692
221,-8.797615051269531,-122.08561706542969,71.3705825805664,5.374456957839014,-3.950639617345909,10.53001869511746,-5.056793,26.327307,6.423058,26.651217,-2.284639,-15.000033,-29.199402,-50.94011,-13.716073,70.36496,-15.254718,-15.000033,-0.009270378,-4.3685064,12.879906,-69.29822,25.270952,-17.301369,33.148926,-54.012596,-3.3598933,9.026821,-71.024994,-32.58109,32.902966,25.377113,38.979683,-5.6017714,-22.639004
222,-8.745560646057129,-123.86900329589844,71.51936340332031,4.542266699387944,-3.001715464641398,10.423772379442257,-6.408989,28.7073,5.696098,25.395222,1.7220174,-15.000033,-28.032173,-48.86376,-15.394902,67.96168,-13.266053,-13.096736,0.18650348,-3.6795774,12.028889,-69.21116,25.269623,-17.3998,32.951984,-54.16868,-3.4052043,9.0331135,-70.92815,-32.606262,32.887676,25.234962,38.946335,-5.5843716,-22.714485
223,-8.704948425292969,-125.63158416748047,71.6162109375,3.839264346488657,-2.2483971309849715,10.555156155348628,-8.0852165,30.614922,4.231395,24.798012,5.008361,-15.000033,-26.478992,-46.469635,-16.368818,65.50448,-11.858817,-7.5089984,0.14627257,-3.1753461,11.346052,-69.26195,25.305008,-17.56939,32.790363,-54.34139,-3.4197762,9.079002,-70.851746,-32.644875,32.83009,25.054375,38.94335,-5.557432,-22.810019
224,-8.64869499206543,-127.42559814453125,71.6495590209961,3.176814393597952,-1.6210538278189124,10.756449355896489,-9.861852,31.981878,1.9370942,24.639078,6.9498425,-15.000033,-24.638283,-44.084713,-17.699648,63.155853,-11.727226,-2.3423316,0.031100608,-2.7479403,10.796295,-69.41895,25.360435,-17.74414,32.638157,-54.465332,-3.368324,9.186952,-70.86305,-32.694054,32.79807,24.889107,38.993877,-5.5248885,-22.92965
225,-8.594443321228027,-129.23826599121094,71.6327896118164,2.558994391545408,-1.1370498497029469,11.099395206310861,-11.622854,32.7189,-1.5320145,24.692284,7.2726502,-15.000033,-22.140453,-41.74867,-19.814075,60.673283,-13.412639,2.6655524,-0.20907433,-2.4471612,10.413315,-69.733215,25.493734,-18.01171,32.44941,-54.585476,-3.2256696,9.417934,-70.91086,-32.839737,32.757908,24.619932,39.14818,-5.48735,-23.093918
226,-8.532755851745605,-131.05062866210938,71.60661315917969,2.143416022659288,-0.7149357757304843,11.628681158026179,-13.441954,32.830215,-5.470573,24.996878,6.557145,-13.729375,-19.31118,-39.65032,-22.513754,58.061913,-16.446804,7.8379993,-0.6052706,-2.3824499,10.106137,-70.1853,25.637768,-18.329494,32.24724,-54.681087,-3.0139291,9.732836,-71.05162,-33.03196,32.73922,24.352991,39.37599,-5.4494376,-23.302052
227,-8.494515419006348,-132.82037353515625,71.54621887207031,2.168022179071031,-0.3685393682447116,12.269440673565539,-15.048878,32.222233,-8.911986,25.606445,5.472597,-11.283597,-16.921473,-38.245136,-25.144732,55.956585,-19.869514,12.260042,-1.1046258,-2.7552366,9.887531,-70.70315,25.779871,-18.612593,32.069534,-54.72724,-2.769798,10.032636,-71.20529,-33.26426,32.696495,24.056532,39.617863,-5.393801,-23.511744
228,-8.488371849060059,-134.55987548828125,71.44564819335938,2.202513997445531,-0.143087791122886,12.731315759624872,-16.214334,31.640232,-11.571378,26.54346,4.597438,-9.432243,-15.402499,-37.025253,-27.261976,54.849102,-22.712399,14.967932,-1.4451435,-3.0906804,9.822467,-71.21233,25.891592,-18.739603,31.953556,-54.689728,-2.524265,10.217611,-71.37481,-33.512154,32.63401,23.772558,39.821056,-5.2987547,-23.674887
229,-8.521346092224121,-136.30694580078125,71.35616302490234,2.2328162571298766,-0.05659698327884533,12.99937776865939,-16.87075,31.08186,-13.5302515,27.76705,4.04862,-8.444691,-15.050834,-35.959892,-28.532537,55.18827,-24.745415,15.000033,-1.5909932,-3.3729322,9.940043,-71.72705,25.943218,-18.656097,31.9441,-54.51798,-2.266956,10.241734,-71.5861,-33.75369,32.53949,23.546486,39.967342,-5.1403537,-23.785282
230,-8.550516128540039,-138.02003479003906,71.26942443847656,2.5116367054472573,-0.22615417162815737,13.316476537229395,-17.050423,30.090694,-15.107405,29.341913,3.4377854,-7.999011,-15.233994,-35.454487,-29.18816,56.71249,-26.490202,14.590386,-1.7586387,-3.875243,10.318624,-72.30321,25.92842,-18.437653,32.05164,-54.232483,-1.9904511,10.161351,-71.859024,-33.98181,32.425915,23.392378,40.082443,-4.9372945,-23.865734
231,-8.600446701049805,-139.73072814941406,71.16487884521484,2.662202998296658,-0.41204377852258695,13.38279613398152,-17.022467,29.42734,-15.891732,31.19529,2.6884077,-7.898577,-15.809772,-34.659866,-29.571886,58.492214,-27.937744,12.954516,-1.7163672,-4.2219787,10.735233,-72.88559,25.867401,-18.142351,32.22077,-53.90523,-1.7371275,10.034733,-72.16964,-34.196835,32.34327,23.282684,40.171955,-4.73766,-23.915798
232,-8.700583457946777,-141.38136291503906,71.08794403076172,2.7452869054150923,-0.6036791432914498,13.209329422782412,-16.882246,29.223715,-15.476277,33.28409,1.7205089,-7.7612367,-16.30381,-33.597317,-29.906351,59.837017,-29.198547,11.453068,-1.5256166,-4.466224,11.162605,-73.421234,25.79953,-17.83536,32.389935,-53.620296,-1.5409267,9.917851,-72.49482,-34.39855,32.333992,23.188568,40.247574,-4.5874043,-23.936203
233,-8.837984085083008,-142.9918212890625,71.04389953613281,2.7392872748781767,-0.8017992955504512,12.677515682739756,-16.570816,29.713339,-13.463122,35.639465,0.4806962,-7.5760155,-16.72171,-32.19958,-30.151943,60.653133,-30.260963,10.163966,-1.1188172,-4.57416,11.633041,-73.8883,25.763186,-17.469414,32.500977,-53.376995,-1.3899366,9.804892,-72.85538,-34.581264,32.42155,23.091795,40.31592,-4.5077763,-23.904957
234,-8.967403411865234,-144.5807647705078,71.01143646240234,2.6776819319702474,-1.0365477702895913,11.858872847188014,-16.029976,30.768147,-10.19321,38.33743,-1.0270977,-7.442359,-17.210703,-30.584133,-30.230047,61.299652,-31.089882,8.697161,-0.5421485,-4.576877,12.175058,-74.29165,25.773674,-17.025732,32.560947,-53.150623,-1.2666254,9.673534,-73.26553,-34.735104,32.58824,23.007711,40.37278,-4.470961,-23.829739
235,-9.06451416015625,-146.11317443847656,71.00674438476562,2.588499296282851,-1.28489509068306,10.96518639212717,-15.348957,32.141094,-6.348798,41.317215,-2.7516038,-7.193788,-17.60984,-28.856157,-30.31831,61.721268,-31.76421,7.164481,0.0445139,-4.5211306,12.707538,-74.61886,25.823622,-16.610485,32.61364,-52.982857,-1.1980548,9.558725,-73.68166,-34.846275,32.800396,22.953012,40.407867,-4.4484406,-23.752726
236,-9.14163589477539,-147.62594604492188,71.02796936035156,2.497965108772323,-1.522741281008233,10.209839278451799,-14.651552,33.52001,-2.604757,44.468697,-4.619874,-6.6988535,-17.777224,-27.119513,-30.57661,61.86107,-32.36184,5.6776404,0.48606542,-4.4562173,13.150216,-74.85486,25.890593,-16.321913,32.70428,-52.916565,-1.2098873,9.493466,-74.05728,-34.923187,33.029556,22.937227,40.415817,-4.411318,-23.716923
237,-9.201765060424805,-149.1387481689453,71.06523132324219,2.3971364542277875,-1.7549891639330273,9.586072242000247,-13.921042,35.104755,1.3619506,47.90291,-6.7591186,-5.7616034,-17.661287,-25.33839,-31.020128,61.65706,-32.928318,4.2159057,0.79447746,-4.3869033,13.484775,-75.01651,25.949884,-16.220581,32.909775,-52.98418,-1.3537077,9.511982,-74.367,-34.96908,33.28164,22.96054,40.379993,-4.348527,-23.745728
238,-9.25403118133545,-150.628173828125,71.12033081054688,2.2775589317838043,-1.993092731514934,9.001223468200884,-12.976421,36.93685,5.7818832,51.62777,-9.191091,-4.52088,-17.351522,-23.47683,-31.55454,61.157272,-33.421913,2.7356434,1.0256602,-4.2696304,13.764048,-75.04441,26.044846,-16.19414,33.11339,-53.16318,-1.5874194,9.58136,-74.660576,-35.014538,33.613487,23.00252,40.33436,-4.2801523,-23.822834
239,-9.299930572509766,-152.1028594970703,71.19099426269531,2.166439717759199,-2.217950092897985,8.542709699721483,-11.899341,38.38549,9.80792,55.321613,-11.607062,-3.3718247,-16.92713,-21.64216,-32.17333,60.458263,-33.77937,1.3154248,1.1322635,-4.175353,13.979059,-75.03644,26.121492,-16.250801,33.345142,-53.38612,-1.8447813,9.655503,-74.897385,-35.037407,33.88891,23.063087,40.264027,-4.2076783,-23.89266
