unveil-humanoid-operators/unveil-humanoid-operators.github.io/feature-analysis-animation/data/feature_matrix_instances/weight_root_translate_peak_vel_dancing_A066.csv
Frame,root_translateX,root_translateY,root_translateZ,root_rotateX,root_rotateY,root_rotateZ,left_hip_pitch_joint_dof,left_hip_roll_joint_dof,left_hip_yaw_joint_dof,left_knee_joint_dof,left_ankle_pitch_joint_dof,left_ankle_roll_joint_dof,right_hip_pitch_joint_dof,right_hip_roll_joint_dof,right_hip_yaw_joint_dof,right_knee_joint_dof,right_ankle_pitch_joint_dof,right_ankle_roll_joint_dof,waist_yaw_joint_dof,waist_roll_joint_dof,waist_pitch_joint_dof,left_shoulder_pitch_joint_dof,left_shoulder_roll_joint_dof,left_shoulder_yaw_joint_dof,left_elbow_joint_dof,left_wrist_roll_joint_dof,left_wrist_pitch_joint_dof,left_wrist_yaw_joint_dof,right_shoulder_pitch_joint_dof,right_shoulder_roll_joint_dof,right_shoulder_yaw_joint_dof,right_elbow_joint_dof,right_wrist_roll_joint_dof,right_wrist_pitch_joint_dof,right_wrist_yaw_joint_dof
0,-0.10682748258113861,2.641284942626953,76.97876739501953,5.332414881954445,-6.136077054545364,-100.96105133398409,10.484003,-6.787834,21.32149,6.814402,-13.282125,5.289364,3.1045983,-35.82834,-69.71929,53.56794,-18.766857,-0.7866482,2.0765595,-0.7535147,8.633394,-4.964862,31.827362,-46.38084,23.483456,-0.7826542,-7.9056063,6.0727243,-17.314163,-29.356052,54.34046,1.8708773,15.5626,4.2595706,-6.8977327
1,-0.08215116709470749,2.6228671073913574,76.98229217529297,5.297702000885522,-6.177884192243414,-101.08089335495463,10.556364,-6.755879,21.412895,6.815158,-13.314878,5.3182726,3.1421077,-35.69894,-69.68919,53.4173,-18.8011,-0.808889,2.1081593,-0.77343893,8.700386,-5.3043056,31.841011,-46.399952,22.800268,-0.89546615,-7.886186,6.1294093,-17.584745,-29.378185,54.52458,1.0002916,15.694597,4.257008,-6.8658476
2,-0.06551903486251831,2.610971689224243,76.9865493774414,5.261818014510349,-6.220462422188421,-101.2021749954993,10.631052,-6.722114,21.504263,6.814608,-13.347413,5.3454247,3.1837149,-35.562355,-69.66007,53.25679,-18.839058,-0.8275394,2.1444633,-0.78454244,8.750561,-5.4891543,31.816952,-46.331192,22.048115,-0.8639212,-7.8574305,6.189181,-17.921429,-29.379679,54.739998,0.19188909,15.860169,4.25977,-6.8525295
3,-0.048817768692970276,2.6046361923217773,76.98942565917969,5.2279720836163515,-6.262245236366689,-101.32072398900316,10.7024555,-6.6916037,21.595507,6.8140755,-13.37884,5.376005,3.218509,-35.438744,-69.62984,53.114685,-18.868965,-0.854939,2.1623318,-0.7943432,8.7963,-5.684953,31.762602,-46.26401,21.325468,-0.8593638,-7.848303,6.2423277,-18.237324,-29.359457,54.96276,-0.5979788,16.027351,4.245868,-6.817278
4,-0.030483875423669815,2.60807466506958,76.99210357666016,5.198893490432271,-6.302180017361474,-101.43262501694416,10.764336,-6.66665,21.686213,6.8137617,-13.406216,5.4152155,3.2351344,-35.348732,-69.59607,53.02029,-18.878342,-0.90308404,2.1480079,-0.8011252,8.844321,-5.978591,31.650877,-46.247528,20.698092,-0.97307616,-7.88794,6.2834926,-18.615072,-29.301388,55.218784,-1.29107,16.292746,4.189407,-6.73122
5,-0.014273341745138168,2.6104352474212646,76.99405670166016,5.178668769460955,-6.336446558916908,-101.53526454639815,10.811001,-6.648561,21.777096,6.813018,-13.428538,5.4660087,3.2253373,-35.300808,-69.560074,52.986298,-18.858786,-0.9802955,2.151991,-0.8214514,8.892778,-6.1665373,31.509615,-46.22253,19.994041,-1.0630826,-7.981104,6.3108244,-18.98478,-29.222795,55.425148,-1.9275798,16.692385,4.0796895,-6.5537796
6,-0.0011502623092383146,2.615905284881592,76.99430847167969,5.162627133038414,-6.366845838062371,-101.63117159758349,10.846848,-6.6357064,21.86795,6.811388,-13.447051,5.525168,3.197023,-35.282406,-69.522644,52.99525,-18.818483,-1.0781392,2.1398506,-0.846122,8.953485,-6.510988,31.357338,-46.28723,19.38423,-1.32444,-8.1159315,6.326562,-19.378794,-29.132084,55.629204,-2.5223637,17.191586,3.932496,-6.316204
7,0.020801067352294922,2.635967254638672,76.99067687988281,5.15141205581623,-6.3993673714362185,-101.72473677664978,10.8821125,-6.628266,21.95744,6.8094,-13.462678,5.5887876,3.1617637,-35.284897,-69.480225,53.031868,-18.771235,-1.1842053,2.1214817,-0.8763954,9.020607,-6.9247403,31.197588,-46.40824,18.816324,-1.672151,-8.279495,6.3433037,-19.783379,-29.033808,55.832317,-3.0815136,17.700333,3.7700422,-6.0587516
8,0.046941958367824554,2.666961908340454,76.98651885986328,5.146362985260571,-6.439884945519424,-101.82000149361494,10.929453,-6.62891,22.044167,6.804968,-13.476068,5.652835,3.1315246,-35.297943,-69.42909,53.07903,-18.72963,-1.2861023,2.1053991,-0.9128696,9.086842,-7.2780466,31.029722,-46.533043,18.213213,-1.9885595,-8.458495,6.3730445,-20.18568,-28.931463,56.03827,-3.6110406,18.129303,3.6127715,-5.8230786
9,0.06320134550333023,2.6796512603759766,76.98616027832031,5.15056882818467,-6.491726322578824,-101.92450322326613,10.991095,-6.636827,22.132206,6.803356,-13.488086,5.7216988,3.1045926,-35.324615,-69.360794,53.142094,-18.695944,-1.3864702,2.0847142,-0.95459884,9.160947,-7.6659446,30.859045,-46.708084,17.635315,-2.380455,-8.657476,6.4301534,-20.600378,-28.827267,56.26478,-4.1106443,18.475899,3.452895,-5.6120296
10,0.07339029014110565,2.683631420135498,76.98673248291016,5.161134418696388,-6.551071921489778,-102.03379903380653,11.062539,-6.652997,22.220774,6.801262,-13.497833,5.795533,3.0763884,-35.367805,-69.2801,53.22618,-18.663652,-1.4901342,2.0625806,-1.0025233,9.241986,-8.047018,30.686222,-46.912315,17.048964,-2.8147388,-8.879957,6.5034313,-21.021261,-28.723137,56.49853,-4.5842996,18.781075,3.2833455,-5.4058795
11,0.09321621805429459,2.703556537628174,76.98406219482422,5.17563807875928,-6.613010333522686,-102.13504923787694,11.136288,-6.6741333,22.30159,6.7968793,-13.505317,5.864702,3.0531492,-35.42081,-69.20174,53.319077,-18.634785,-1.5877699,2.03207,-1.0552229,9.322919,-8.450637,30.513264,-47.14322,16.47338,-3.2478452,-9.116423,6.5666127,-21.439716,-28.620327,56.731003,-5.0351844,19.0217,3.1242375,-5.2172856
12,0.10750558972358704,2.714661121368408,76.97867584228516,5.1918030353869975,-6.67232802650089,-102.21552896791961,11.203552,-6.6973553,22.366438,6.7949057,-13.516193,5.9191337,3.0411448,-35.478382,-69.140854,53.409374,-18.6113,-1.6700461,1.9905418,-1.1127839,9.394276,-8.8497505,30.340126,-47.37615,15.891806,-3.5919912,-9.355967,6.59396,-21.843086,-28.519981,56.94909,-5.466622,19.174276,2.9955857,-5.0584755
13,0.12227191030979156,2.7287325859069824,76.97052001953125,5.207736756451979,-6.731593012303571,-102.2733776653928,11.267984,-6.723325,22.414188,6.7917523,-13.531024,5.953243,3.0471966,-35.54221,-69.10752,53.49987,-18.59553,-1.7428173,1.9294844,-1.1742144,9.457096,-9.282248,30.167978,-47.623077,15.324683,-3.8633506,-9.601837,6.580987,-22.165598,-28.422733,57.15082,-5.9274178,19.144972,2.9118104,-4.95113
14,0.1389894187450409,2.747504234313965,76.96128845214844,5.226338249396762,-6.791833051558477,-102.31477331039183,11.331738,-6.75357,22.44878,6.789161,-13.549562,5.973142,3.0659893,-35.61434,-69.09146,53.595436,-18.585932,-1.8082078,1.867075,-1.2431644,9.522318,-9.707172,29.996065,-47.87943,14.738914,-4.0533934,-9.856379,6.5423007,-22.641775,-28.329428,57.35435,-6.288982,19.145102,2.857536,-4.882878
15,0.15424014627933502,2.761021852493286,76.95160675048828,5.247337819941217,-6.8467195427128,-102.33988601988128,11.386236,-6.78656,22.47028,6.7872972,-13.56482,5.9874263,3.086183,-35.68896,-69.07797,53.686146,-18.578575,-1.8515011,1.787844,-1.314201,9.571367,-10.131949,29.826406,-48.13872,14.160214,-4.198604,-10.111018,6.4762564,-22.953821,-28.240833,57.535053,-6.698028,18.987854,2.8114126,-4.8158946
16,0.16095349192619324,2.7641561031341553,76.9433822631836,5.269524253514569,-6.889693881289909,-102.34844020459886,11.425381,-6.8205886,22.478325,6.784845,-13.571106,6.00427,3.0964434,-35.758778,-69.052185,53.7595,-18.568043,-1.8578937,1.7039435,-1.3877829,9.604013,-10.569892,29.6627,-48.40775,13.600241,-4.3139353,-10.35618,6.384536,-23.250605,-28.160128,57.696796,-7.052811,18.867044,2.7502604,-4.71239
17,0.17083868384361267,2.7792248725891113,76.93598175048828,5.294890487660365,-6.917104596265343,-102.33547691781384,11.4429035,-6.8587027,22.469553,6.781141,-13.562467,6.0266843,3.097765,-35.82423,-69.021355,53.81096,-18.557493,-1.8220818,1.6138184,-1.4679801,9.621297,-11.014808,29.506123,-48.68727,13.028491,-4.3770223,-10.572211,6.2789173,-23.584463,-28.087587,57.83772,-7.3332195,18.88971,2.657533,-4.557228
18,0.18508371710777283,2.806602954864502,76.92814636230469,5.324858910496636,-6.932972560878132,-102.30247632571528,11.442623,-6.899334,22.44522,6.781668,-13.546844,6.049738,3.0948465,-35.887104,-68.98951,53.845966,-18.547571,-1.7522354,1.5171318,-1.5545471,9.626313,-11.453702,29.356886,-48.97253,12.439605,-4.3783264,-10.76964,6.155792,-23.955093,-28.023655,57.960423,-7.548529,19.002958,2.5489478,-4.37194
19,0.1883610486984253,2.8149020671844482,76.92481231689453,5.353738590295772,-6.942346884427453,-102.26009241298038,11.434786,-6.9402237,22.412455,6.7793183,-13.527054,6.0710015,3.0815158,-35.946888,-68.93748,53.874554,-18.532053,-1.6541849,1.4165266,-1.6392242,9.615959,-11.9068775,29.219818,-49.262413,11.897128,-4.3774815,-10.984711,5.991713,-24.249386,-27.971905,58.068474,-7.7398887,19.009024,2.4501162,-4.1749773
20,0.19051596522331238,2.8170950412750244,76.92141723632812,5.379161049150192,-6.949982987841411,-102.21875204441434,11.425346,-6.9776106,22.378416,6.7785707,-13.512915,6.087728,3.0514584,-36.002705,-68.84619,53.907284,-18.505144,-1.5339231,1.3219904,-1.7159796,9.590992,-12.346942,29.100668,-49.542023,11.430012,-4.392472,-11.252285,5.763767,-24.457514,-27.939331,58.167923,-7.896146,18.798498,2.3853512,-3.9846435
21,0.19278651475906372,2.821805715560913,76.91996002197266,5.40200388474832,-6.955131990332501,-102.17827697315795,11.414788,-7.013237,22.341515,6.7780304,-13.507179,6.0980673,3.0013602,-36.052044,-68.705925,53.941814,-18.468315,-1.3813715,1.2383279,-1.7861202,9.561729,-12.78794,29.007805,-49.8266,11.016733,-4.4432654,-11.596841,5.4581604,-24.728994,-27.93003,58.27487,-7.9600353,18.51055,2.339858,-3.8291473
22,0.19675171375274658,2.826425313949585,76.91682434082031,5.422715060432928,-6.956402011057513,-102.13397002708896,11.399101,-7.04855,22.298983,6.7784605,-13.505559,6.1039176,2.9351888,-36.09674,-68.527824,53.974377,-18.423624,-1.1967577,1.1413722,-1.8515689,9.5265255,-13.201786,28.966003,-50.087624,10.609517,-4.5146127,-11.992918,5.0834312,-24.913012,-27.938753,58.38796,-8.018841,18.052046,2.307144,-3.6919348
23,0.20569127798080444,2.8430919647216797,76.91284942626953,5.440179597349911,-6.955699487109675,-102.09001164627735,11.383381,-7.079372,22.256666,6.7779074,-13.504036,6.1078663,2.857229,-36.139347,-68.325645,54.01209,-18.366163,-1.0029349,1.0472105,-1.9113421,9.473243,-13.595229,28.945763,-50.3244,10.292872,-4.58073,-12.403414,4.663868,-25.023735,-27.96063,58.48328,-8.014626,17.37333,2.3213,-3.5214145
24,0.20935742557048798,2.8465445041656494,76.91104125976562,5.453191636858075,-6.955267533199319,-102.05037907877384,11.370365,-7.103173,22.220438,6.7775517,-13.499738,6.1128807,2.7722054,-36.18228,-68.11343,54.061195,-18.290747,-0.822504,0.9904369,-1.9682531,9.3984165,-13.997438,28.935207,-50.5664,10.1426325,-4.629774,-12.791535,4.234644,-25.18116,-28.03344,58.527435,-7.8688283,16.536448,2.41296,-3.2694933
25,0.21096450090408325,2.8496594429016113,76.90797424316406,5.461982751849257,-6.956583839107676,-102.0165242292641,11.362548,-7.1199145,22.193186,6.776914,-13.491943,6.1179056,2.676393,-36.225357,-67.87849,54.12121,-18.195932,-0.6499325,0.9374521,-2.0168865,9.310115,-14.338909,28.963152,-50.743935,10.090213,-4.6778893,-13.199422,3.756338,-25.224468,-28.176208,58.53381,-7.7095985,15.319499,2.5795796,-2.9228702
26,0.21420693397521973,2.852041721343994,76.90530395507812,5.4664479266301225,-6.95777595364756,-101.98617632083474,11.356942,-7.1317863,22.171358,6.776557,-13.482559,6.1220922,2.5688484,-36.266888,-67.61907,54.189575,-18.084997,-0.47687578,0.8903987,-2.060049,9.213806,-14.648305,29.039473,-50.882504,10.1215515,-4.739453,-13.628939,3.231198,-25.327784,-28.374079,58.52466,-7.4474773,13.914068,2.7997794,-2.506444
27,0.2177947461605072,2.853076934814453,76.90523529052734,5.465620653443229,-6.958064937551228,-101.95789085326707,11.352152,-7.135924,22.151365,6.7771273,-13.472954,6.128199,2.4582396,-36.309227,-67.363335,54.269413,-17.958296,-0.3215954,0.8426373,-2.0942135,9.100503,-14.907309,29.169561,-50.95697,10.256655,-4.7242146,-13.980276,2.7025764,-25.288652,-28.634333,58.47742,-7.150986,12.284867,3.0831976,-2.0170236
28,0.22516341507434845,2.8517966270446777,76.90662384033203,5.456511032866458,-6.955606635269518,-101.9301609521829,11.3457365,-7.1318793,22.129652,6.775686,-13.461072,6.139292,2.3529794,-36.353573,-67.14009,54.36502,-17.817251,-0.20233765,0.79779714,-2.117137,8.977081,-15.1246195,29.361202,-50.9512,10.519334,-4.543699,-14.154392,2.216026,-25.37864,-28.967876,58.407745,-6.651288,10.786379,3.439089,-1.4541681
29,0.22959817945957184,2.8488247394561768,76.91078186035156,5.439417624261286,-6.946837610750402,-101.90110965984823,11.331835,-7.117943,22.104279,6.777935,-13.448753,6.160105,2.248352,-36.398655,-66.948204,54.474,-17.660997,-0.12561437,0.7478792,-2.1274197,8.829378,-15.241571,29.619875,-50.83064,10.873296,-4.115374,-14.105602,1.7701101,-25.380558,-29.382977,58.28711,-6.0718465,9.227476,3.8896887,-0.77389294
30,0.23306822776794434,2.844696283340454,76.9187240600586,5.415652836973411,-6.933740546710919,-101.87192408549926,11.314989,-7.0969267,22.077417,6.779372,-13.4344425,6.1878076,2.1417003,-36.444885,-66.77507,54.596893,-17.489853,-0.080903724,0.6960527,-2.1264498,8.665754,-15.328026,29.95269,-50.634136,11.341584,-3.5450644,-13.896583,1.3449621,-25.35607,-29.886566,58.128227,-5.401989,7.602234,4.4149213,0.014634604
31,0.23328319191932678,2.8389978408813477,76.93245697021484,5.384743209432876,-6.923218870996633,-101.84648343442753,11.30178,-7.067319,22.052305,6.781522,-13.421603,6.2137156,2.0462608,-36.494274,-66.63313,54.734688,-17.303215,-0.060827855,0.64739525,-2.1158915,8.501248,-15.333866,30.362959,-50.358833,11.902607,-2.8561382,-13.588311,0.9550237,-25.329815,-30.483692,57.9523,-4.611367,6.003859,4.9699063,0.8297067
32,0.23778954148292542,2.8377084732055664,76.9443359375,5.347031698937642,-6.922508885744425,-101.82847136604158,11.302156,-7.0295725,22.031832,6.782814,-13.414225,6.2289085,1.9748911,-36.55073,-66.53414,54.889416,-17.100727,-0.058030497,0.60356575,-2.0963743,8.353028,-15.288992,30.85574,-50.027287,12.582397,-2.1359663,-13.241524,0.61524963,-25.35343,-31.17658,57.79164,-3.6520221,4.5440707,5.516999,1.583822
33,0.24192337691783905,2.8335893154144287,76.95730590820312,5.300431570337881,-6.934042862303212,-101.82096278975091,11.320049,-6.978702,22.017813,6.78338,-13.414259,6.2272673,1.9362638,-36.611458,-66.49248,55.062706,-16.87553,-0.07531802,0.55753505,-2.0637639,8.216667,-15.220251,31.437061,-49.63152,13.4028635,-1.3885212,-12.826972,0.326082,-25.375536,-31.97111,57.638195,-2.560078,3.151183,6.094469,2.303389
34,0.24623461067676544,2.824997901916504,76.96809387207031,5.24341913735011,-6.95421499677619,-101.82117419429109,11.349546,-6.9158745,22.008251,6.7846723,-13.419769,6.214695,1.9220992,-36.67608,-66.49865,55.252354,-16.629442,-0.114961386,0.5153092,-2.019658,8.087362,-15.048417,32.108883,-49.141846,14.303239,-0.5351879,-12.326018,0.07759417,-25.417217,-32.870377,57.483757,-1.3341346,1.8249161,6.7098355,3.0172615
35,0.2503424286842346,2.8196704387664795,76.97836303710938,5.186248272483298,-6.979490471714838,-101.8245574038451,11.384459,-6.851999,22.001066,6.7877355,-13.4287,6.200765,1.9192463,-36.75039,-66.52815,55.457096,-16.376776,-0.16906914,0.47415438,-1.9723895,7.97711,-14.839388,32.87295,-48.616383,15.319582,0.3000742,-11.816208,-0.12789233,-25.495726,-33.870953,57.354374,0.047816787,0.6667778,7.290261,3.6348903
36,0.25238901376724243,2.8136398792266846,76.98793029785156,5.1354224234192305,-7.006949808470798,-101.82687244670639,11.421027,-6.796983,21.993313,6.789586,-13.436967,6.1947207,1.9154246,-36.839962,-66.55688,55.673195,-16.130547,-0.22970358,0.43357995,-1.9323347,7.8914285,-14.591679,33.727226,-48.088535,16.452652,1.0429574,-11.373798,-0.28424898,-25.602577,-34.967274,57.26686,1.5983697,-0.2325715,7.7675896,4.0632005
37,0.25759223103523254,2.8082501888275146,76.99569702148438,5.0929440358988645,-7.035162666086493,-101.82598568873375,11.456793,-6.7540617,21.983389,6.7905297,-13.443892,6.2017064,1.90915,-36.947876,-66.5879,55.903797,-15.890823,-0.3027035,0.3855843,-1.9003438,7.8317122,-14.369036,34.67093,-47.582043,17.769718,1.5857117,-11.037372,-0.36680016,-25.772503,-36.15612,57.23547,3.3472476,-0.77735037,8.12524,4.275923
38,0.26108449697494507,2.8032026290893555,77.00261688232422,5.053472145953758,-7.0664659267390535,-101.82447286962322,11.494901,-6.7172565,21.972857,6.7907724,-13.450794,6.215891,1.9066269,-37.071354,-66.63108,56.14962,-15.651608,-0.38936827,0.33511302,-1.8729934,7.789576,-14.105847,35.70276,-47.055252,19.225729,2.0245202,-10.75768,-0.38313863,-25.988499,-37.436745,57.24924,5.280512,-1.0404524,8.408077,4.3163385
39,0.26604968309402466,2.800940752029419,77.00745391845703,5.0183340997558865,-7.101327599689332,-101.82492184662053,11.536398,-6.684425,21.964836,6.7926383,-13.460248,6.230035,1.9065343,-37.203243,-66.673065,56.401814,-15.416592,-0.47569117,0.29231426,-1.8495545,7.773022,-13.812773,36.819378,-46.52721,20.778194,2.4484131,-10.481223,-0.37475488,-26.22538,-38.80012,57.301434,7.369216,-1.149343,8.640384,4.191104
40,0.2797250747680664,2.8004770278930664,77.01107025146484,4.990510533446411,-7.140733175454852,-101.82985126640098,11.58449,-6.6574817,21.962297,6.793191,-13.47159,6.2373524,1.9070992,-37.337357,-66.70026,56.652145,-15.190261,-0.5473316,0.26864555,-1.8307457,7.7906117,-13.516719,38.012905,-46.027214,22.399239,2.9394832,-10.1551895,-0.38392583,-26.461262,-40.230907,57.38239,9.593141,-1.2323792,8.846121,3.9092593
41,0.2851767838001251,2.7942678928375244,77.0137939453125,4.966397547321381,-7.189559261499707,-101.84171178931443,11.644286,-6.6330676,21.968006,6.792609,-13.485415,6.2349963,1.9115908,-37.471996,-66.70765,56.900593,-14.97088,-0.6034235,0.26876986,-1.8156251,7.8387985,-13.217127,39.278336,-45.547707,24.092691,3.5269814,-9.752414,-0.45024878,-26.709488,-41.719738,57.492355,11.980562,-1.2574903,9.0338335,3.4655278
42,0.28415024280548096,2.7942233085632324,77.01396942138672,4.948714726030976,-7.245592226577824,-101.8585579429749,11.713678,-6.613866,21.979769,6.7911434,-13.501814,6.2270136,1.919104,-37.611053,-66.702324,57.151684,-14.757676,-0.65032667,0.28476954,-1.8047278,7.9113445,-12.905956,40.61306,-45.078594,25.882113,4.161331,-9.305702,-0.5430444,-26.984121,-43.262455,57.642204,14.5460415,-1.1768341,9.18939,2.8577101
43,0.28385233879089355,2.791741371154785,77.01360321044922,4.935494000791969,-7.300052482215657,-101.87597703712137,11.781529,-6.600062,21.99265,6.788935,-13.518874,6.216419,1.9233248,-37.75396,-66.690575,57.400738,-14.554203,-0.6852976,0.31148398,-1.798547,8.009195,-12.580425,42.009422,-44.6353,27.758911,4.821996,-8.851306,-0.59999573,-27.259562,-44.848938,57.829712,17.256804,-1.0970895,9.304701,2.101593
44,0.29207879304885864,2.7873146533966064,77.01188659667969,4.930305755707733,-7.344043483708306,-101.88947501233112,11.836547,-6.5965934,22.002113,6.7885637,-13.537119,6.2063994,1.9167783,-37.9013,-66.67741,57.644123,-14.364517,-0.7054072,0.34629416,-1.7980053,8.132415,-12.242073,43.455055,-44.23721,29.721054,5.4889092,-8.424068,-0.5578131,-27.507902,-46.465134,58.047363,20.087852,-1.1270742,9.374427,1.2136791
45,0.29606011509895325,2.7874491214752197,77.0062255859375,4.933690356568318,-7.375674104163807,-101.89729913118606,11.878689,-6.604727,22.00619,6.78599,-13.554873,6.1936407,1.897445,-38.056236,-66.662834,57.883945,-14.187277,-0.7027425,0.38650346,-1.803445,8.274278,-11.914968,44.942455,-43.902714,31.814732,6.244535,-8.037556,-0.3822839,-27.744081,-48.101803,58.2936,23.080366,-1.3269044,9.394929,0.16784056
46,0.2992749810218811,2.785413980484009,76.99774932861328,4.942742648913102,-7.399653556535545,-101.90178156220209,11.910714,-6.6216903,22.00774,6.785446,-13.5741625,6.17798,1.868777,-38.217697,-66.64402,58.12188,-14.021715,-0.6811847,0.43462682,-1.8141156,8.430359,-11.601593,46.466545,-43.623756,34.04434,7.0678267,-7.6672883,-0.11362517,-27.97959,-49.754745,58.57352,26.246172,-1.6302674,9.377867,-1.0335742
47,0.3045026659965515,2.7848541736602783,76.98949432373047,4.958952832392488,-7.416617516638365,-101.90531973693035,11.935938,-6.6457024,22.00818,6.783437,-13.593105,6.166569,1.8333887,-38.379345,-66.62315,58.35123,-13.871547,-0.6561048,0.49510854,-1.828411,8.602205,-11.266222,48.01645,-43.373302,36.346886,7.786683,-7.2921443,0.20115268,-28.178684,-51.416893,58.8851,29.52149,-1.9561343,9.343116,-2.3316517
48,0.3106612265110016,2.7780110836029053,76.98011779785156,4.977647037480169,-7.427114838046588,-101.90998206961056,11.953109,-6.674712,22.00924,6.7820597,-13.611041,6.167062,1.7928874,-38.53506,-66.60177,58.566784,-13.7415,-0.6430261,0.5718595,-1.8445415,8.79228,-10.877989,49.576992,-43.124706,38.66838,8.228915,-6.895133,0.5162792,-28.309238,-53.078785,59.225933,32.852943,-2.2247736,9.305872,-3.6674118
49,0.31576141715049744,2.773911952972412,76.9705581665039,5.003333608104542,-7.431949918651433,-101.91680942900079,11.963501,-6.7092395,22.010712,6.779787,-13.626445,6.186092,1.7453938,-38.6874,-66.576454,58.770134,-13.631401,-0.64646834,0.6742703,-1.8613285,9.005771,-10.4710455,51.140934,-42.942863,41.077904,8.29588,-6.4947624,0.86228335,-28.39101,-54.733704,59.7061,36.357178,-2.4843357,9.245269,-5.171725
50,0.3210994303226471,2.7670822143554688,76.96092224121094,5.034767392319085,-7.4304904365368545,-101.92474031923325,11.96362,-6.7508492,22.012543,6.7833304,-13.643546,6.218296,1.6905547,-38.839016,-66.54718,58.96413,-13.539898,-0.65816313,0.79312474,-1.8784341,9.230982,-10.057195,52.702427,-42.82093,43.59942,8.099222,-6.0959587,1.2531381,-28.451012,-56.37429,60.306087,40.040844,-2.7550738,9.168304,-6.827116
51,0.32344311475753784,2.7589752674102783,76.95430755615234,5.06752736848964,-7.422217973471465,-101.93207893595337,11.957507,-6.794137,22.014423,6.785669,-13.660454,6.2523317,1.634111,-38.981716,-66.52225,59.140633,-13.466444,-0.67483205,0.90719336,-1.896035,9.446217,-9.56264,54.248062,-42.61959,46.11212,7.7833714,-5.664054,1.6179893,-28.4467,-57.9931,60.810566,43.68805,-2.913353,9.115134,-8.34985
52,0.3267683982849121,2.7505552768707275,76.94576263427734,5.099426447384553,-7.406302603897521,-101.93774372553845,11.944077,-6.835473,22.01726,6.7890162,-13.679306,6.2774057,1.5813463,-39.109188,-66.50941,59.294476,-13.411863,-0.69295067,0.99924093,-1.9148521,9.6335945,-8.901025,55.764828,-42.18975,48.489876,7.493212,-5.1624956,1.8835027,-28.306488,-59.59004,60.979435,47.07826,-2.835246,9.11411,-9.454642
53,0.33055365085601807,2.740913152694702,76.93872833251953,5.126070095225304,-7.384643807443014,-101.9416522378074,11.926907,-6.872989,22.021364,6.7920218,-13.701315,6.289537,1.5339181,-39.2216,-66.50886,59.42749,-13.374454,-0.7148327,1.0801299,-1.9330456,9.806222,-8.043495,57.246674,-41.536823,50.7352,7.219852,-4.5280466,2.0630572,-27.923506,-61.17179,60.781986,50.223694,-2.42355,9.120413,-10.059728
54,0.3348681628704071,2.7314038276672363,76.93057250976562,5.15157323276279,-7.3570474543210445,-101.9443515928816,11.9054365,-6.9101214,22.026407,6.793062,-13.723959,6.2951117,1.4895465,-39.322075,-66.51749,59.54159,-13.354568,-0.74146247,1.1615038,-1.9510556,9.969124,-7.0295305,58.69269,-40.717464,52.91168,6.9031734,-3.7986116,2.1847908,-27.307018,-62.746403,60.2811,53.215748,-1.768753,9.127912,-10.317107
55,0.3377303183078766,2.7188210487365723,76.92261505126953,5.176292227797837,-7.31984685133414,-101.9454358739157,11.872039,-6.9461665,22.031517,6.798535,-13.748418,6.2979,1.4458839,-39.40855,-66.536766,59.632248,-13.356505,-0.7674628,1.2296999,-1.9703505,10.098634,-5.8593655,60.095074,-39.64858,54.975464,6.611803,-3.0876117,2.1930406,-26.532726,-64.31433,59.35501,55.944557,-1.0260117,9.222347,-10.292205
56,0.34168699383735657,2.7074339389801025,76.91368865966797,5.201433812595812,-7.269799022303652,-101.94440613425226,11.824172,-6.982234,22.035183,6.8035817,-13.769308,6.3017387,1.4013859,-39.477238,-66.56858,59.692654,-13.383782,-0.7874299,1.2716256,-1.9929513,10.175512,-4.5214353,61.44864,-38.235313,56.87087,6.416715,-2.5077438,2.0286033,-25.668606,-65.87633,57.873226,58.2925,-0.35412157,9.4894705,-10.050703
57,0.3464786410331726,2.6946003437042236,76.90589141845703,5.228934637568051,-7.2037015738795045,-101.94067679824427,11.756347,-7.0210156,22.03666,6.811781,-13.7880125,6.307778,1.357317,-39.530056,-66.62075,59.721107,-13.443628,-0.8005939,1.2750944,-2.017,10.193947,-2.937225,62.738262,-36.3712,58.58833,6.3766904,-2.0882802,1.6360765,-24.657553,-67.4232,55.649235,60.209187,0.21753114,9.992291,-9.423285
58,0.3485608994960785,2.675621747970581,76.89879608154297,5.258243157529409,-7.124485834001971,-101.93469942093107,11.67316,-7.0606227,22.036549,6.822409,-13.805811,6.3139133,1.3135127,-39.56937,-66.68939,59.72294,-13.532754,-0.8097436,1.2570499,-2.038026,10.172921,-1.1039336,63.95297,-34.101658,60.144203,6.4437385,-1.7708272,1.0510215,-23.392967,-68.94599,52.71304,61.758644,0.75700295,10.678403,-8.432304
59,0.3522050082683563,2.659839630126953,76.89225006103516,5.285629353862428,-7.036745200694259,-101.92769749989665,11.581784,-7.0983305,22.036568,6.8317456,-13.821246,6.319149,1.2674813,-39.590237,-66.759254,59.698357,-13.637632,-0.8143698,1.2444911,-2.0508265,10.127755,0.86965954,65.09305,-31.57009,61.525616,6.52574,-1.5367484,0.35216448,-21.892992,-70.441,49.286663,63.001736,1.2605582,11.454391,-7.4312887
60,0.3555293381214142,2.643946647644043,76.88856506347656,5.306265296075198,-6.945923408178138,-101.9205694057685,11.487875,-7.1296215,22.038406,6.838273,-13.833223,6.322587,1.2163305,-39.589756,-66.81472,59.64985,-13.745341,-0.81398106,1.2566278,-2.051605,10.069939,2.8637977,66.164825,-28.92919,62.727936,6.530713,-1.3661965,-0.37684608,-20.222944,-71.90612,45.635582,64.00933,1.7389209,12.220829,-6.7757974
61,0.35983383655548096,2.6254043579101562,76.88749694824219,5.322442180868634,-6.84817164539593,-101.90952958165988,11.387689,-7.1540065,22.039629,6.843005,-13.842383,6.32451,1.1564869,-39.567825,-66.85441,59.57557,-13.853927,-0.80620193,1.2836076,-2.0359194,9.974368,4.8372216,67.14742,-26.137245,63.80296,6.435887,-1.2628111,-1.1652642,-18.46663,-73.31397,41.753365,64.81067,2.1828797,13.0634365,-6.5684805
62,0.3607321083545685,2.604860544204712,76.88815307617188,5.334766519561962,-6.7429097704464995,-101.89534337905566,11.27781,-7.173171,22.040577,6.848951,-13.849711,6.3253956,1.0909125,-39.52516,-66.88602,59.47436,-13.969509,-0.791998,1.3089838,-2.000724,9.828495,6.819489,68.01555,-23.184013,64.78073,6.2889643,-1.2359971,-2.0388954,-16.657948,-74.627846,37.615143,65.44432,2.6003442,13.990347,-6.6133046
63,0.36157524585723877,2.58129620552063,76.88975524902344,5.340069120459728,-6.638754023107573,-101.88647207923776,11.172865,-7.186784,22.046017,6.8517833,-13.855437,6.3238497,1.0252631,-39.46162,-66.906525,59.351185,-14.091768,-0.776186,1.3402445,-1.9479239,9.665844,8.799259,68.78619,-20.265047,65.60849,6.102731,-1.2646695,-2.9004545,-14.797529,-75.84428,33.464584,65.977585,3.0377991,14.7831135,-6.827663
64,0.3633550703525543,2.5594029426574707,76.8912353515625,5.341576123464727,-6.543892567124115,-101.89181573297559,11.083782,-7.1908545,22.06078,6.851265,-13.860854,6.318575,0.96542346,-39.37652,-66.91307,59.210396,-14.219803,-0.76333815,1.38437,-1.8815657,9.516259,10.761129,69.49193,-17.588097,66.23355,5.878218,-1.3308345,-3.6542075,-12.890794,-76.97462,29.561954,66.463066,3.5504649,15.22531,-7.1256075
65,0.3619281053543091,2.5371599197387695,76.89231872558594,5.336082101950183,-6.459858886939914,-101.91388222844286,11.011849,-7.1863403,22.08648,6.8499756,-13.867628,6.308478,0.9114995,-39.26693,-66.90208,59.050274,-14.354685,-0.7542167,1.4399905,-1.8039331,9.37464,12.6717415,70.16131,-15.229605,66.63144,5.6470113,-1.3983859,-4.280621,-11.018307,-78.03367,26.03652,66.93365,4.150344,15.188489,-7.5719175
66,0.35978183150291443,2.5143465995788574,76.89319610595703,5.324723016126753,-6.382426310850822,-101.94780672653687,10.952609,-7.173131,22.119873,6.8454967,-13.873673,6.2943106,0.86111027,-39.133514,-66.87636,58.868515,-14.49583,-0.7464019,1.4999703,-1.7178277,9.215564,14.5015,70.79646,-13.13232,66.85736,5.38331,-1.4883982,-4.8271613,-9.2742605,-79.01828,22.86005,67.389885,4.816314,14.804515,-8.182571
67,0.35680365562438965,2.492816686630249,76.89573669433594,5.30927627127844,-6.311367981333685,-101.991784759571,10.903823,-7.1530004,22.160772,6.8383417,-13.879132,6.2782726,0.8151457,-38.981667,-66.84134,58.67014,-14.641348,-0.7393958,1.5615706,-1.6280918,9.047708,16.26803,71.393005,-11.269399,66.95896,5.0038486,-1.6665905,-5.296961,-7.640243,-79.91841,20.008877,67.80593,5.551152,14.24922,-8.799732
68,0.3537967801094055,2.469775676727295,76.90021514892578,5.290638727444583,-6.246592370813317,-102.04371173197619,10.863905,-7.1278496,22.208595,6.830823,-13.886722,6.262251,0.77483976,-38.816277,-66.80306,58.459003,-14.788716,-0.7329258,1.6250094,-1.5380415,8.878432,17.970158,71.940865,-9.632438,66.99184,4.424438,-1.9973556,-5.695203,-6.096124,-80.71753,17.458103,68.159386,6.3622594,13.701949,-9.2695465
69,0.34874388575553894,2.4451920986175537,76.90721130371094,5.270109901381723,-6.188104279284779,-102.1102249247484,10.833514,-7.0948305,22.268646,6.822965,-13.897548,6.247245,0.7347406,-38.632793,-66.75178,58.23182,-14.937751,-0.7244897,1.6948574,-1.4504998,8.713772,19.630224,72.45376,-8.229696,66.92068,3.5927587,-2.5494184,-6.036609,-4.6523104,-81.42564,15.222636,68.412605,7.2598095,13.167646,-9.550327
70,0.34427809715270996,2.420518636703491,76.9145278930664,5.243939615832217,-6.1361566989651255,-102.18958312358855,10.814561,-7.0564604,22.339407,6.811619,-13.909843,6.2320337,0.6964325,-38.430256,-66.68873,57.98822,-15.089767,-0.71493536,1.7703836,-1.3679564,8.556944,21.250462,72.95032,-7.0483994,66.71647,2.5609367,-3.2698348,-6.321686,-3.3175552,-82.06363,13.306416,68.56345,8.238926,12.566024,-9.726014
71,0.33952274918556213,2.3934967517852783,76.9218978881836,5.217404714996709,-6.089455376039777,-102.26882794817283,10.801092,-7.0130033,22.409824,6.800627,-13.920746,6.2152853,0.6699733,-38.21936,-66.633896,57.73489,-15.243742,-0.7087329,1.8459032,-1.2944757,8.410478,22.785637,73.42334,-6.06154,66.45109,1.4041966,-4.042004,-6.5307007,-2.0707922,-82.62991,11.671686,68.64681,9.288696,11.950871,-9.837932
72,0.33051663637161255,2.3697409629821777,76.92964935302734,5.188242603357009,-6.047348077218437,-102.33435775512571,10.788548,-6.9679556,22.468952,6.7921796,-13.927927,6.195757,0.6652678,-38.01101,-66.607445,57.48058,-15.400078,-0.7101376,1.9144042,-1.2330209,8.277976,24.182323,73.85618,-5.2462025,66.20165,0.2043015,-4.7514615,-6.631648,-0.8871322,-83.115,10.273677,68.69776,10.393357,11.374227,-9.933905
73,0.31982919573783875,2.3463587760925293,76.93791961669922,5.1578646406966335,-6.008354296900086,-102.38707482953902,10.775668,-6.918991,22.51762,6.786878,-13.930084,6.172258,0.68678373,-37.80064,-66.6204,57.21941,-15.561675,-0.7271863,1.9767804,-1.1842169,8.173315,25.458437,74.2512,-4.6064496,65.95387,-1.1000772,-5.413078,-6.588314,0.2921681,-83.528076,9.107076,68.67573,11.626976,10.83554,-10.0206
74,0.30904653668403625,2.328158140182495,76.94593811035156,5.124194674607568,-5.973198568958075,-102.43278218177939,10.764161,-6.865203,22.56042,6.784606,-13.929418,6.145779,0.72777253,-37.58545,-66.65921,56.950253,-15.727986,-0.7547888,2.0367303,-1.1448442,8.096498,26.634493,74.61776,-4.143235,65.66787,-2.5193012,-6.0797744,-6.426882,1.4649296,-83.88291,8.161841,68.55659,12.971947,10.3128605,-10.072464
75,0.2941300570964813,2.3092384338378906,76.95484161376953,5.092395269148288,-5.943954119449291,-102.46529636232701,10.756156,-6.8121142,22.592064,6.783543,-13.926743,6.1181636,0.7823159,-37.37619,-66.708694,56.685135,-15.891728,-0.77846575,2.0906231,-1.1120642,8.031783,27.658978,74.94563,-3.8301644,65.381905,-3.8931406,-6.6935444,-6.19599,2.562352,-84.17185,7.387487,68.39909,14.273283,9.825205,-10.0959015
76,0.2779576778411865,2.2920315265655518,76.96408081054688,5.063323096760807,-5.922446637542647,-102.47857135368491,10.752554,-6.764494,22.607115,6.7844763,-13.924738,6.091063,0.84410566,-37.18468,-66.75317,56.437412,-16.046225,-0.78389686,2.1323147,-1.0846779,7.9672437,28.486755,75.218445,-3.6295607,65.131836,-5.0568953,-7.192922,-5.9332557,3.5182235,-84.38069,6.7252884,68.25748,15.372632,9.390556,-10.105859
77,0.2592521607875824,2.273771286010742,76.97079467773438,5.038812330841586,-5.908989245374386,-102.470236461071,10.755334,-6.723153,22.605034,6.7850585,-13.922117,6.0645504,0.9136799,-37.008236,-66.78799,56.20333,-16.191511,-0.7644576,2.1570103,-1.0630605,7.914255,29.1339,75.43399,-3.5293677,64.9046,-5.991302,-7.5607605,-5.605162,4.360386,-84.50709,6.1546507,68.116394,16.223257,9.012578,-10.113163
78,0.24089796841144562,2.256192684173584,76.97872161865234,5.016636184088431,-5.902655539519759,-102.44366520652754,10.760929,-6.6848307,22.588621,6.7907777,-13.920936,6.0378585,0.99320734,-36.84323,-66.8213,55.9791,-16.330969,-0.7288394,2.168007,-1.0485784,7.8818483,29.62985,75.5988,-3.5301006,64.674675,-6.770531,-7.831718,-5.1943398,5.1351347,-84.55945,5.6763005,67.937744,16.909548,8.682092,-10.115087
79,0.22298528254032135,2.2387471199035645,76.984375,4.998405309791749,-5.90248320043073,-102.40207402484226,10.769681,-6.652235,22.5572,6.7966075,-13.918501,6.0115523,1.080716,-36.697083,-66.85907,55.775093,-16.46146,-0.6861338,2.169817,-1.0395126,7.856592,29.953049,75.70589,-3.608971,64.457146,-7.3710423,-8.017267,-4.7588897,5.799617,-84.5382,5.265615,67.74151,17.468472,8.397809,-10.108182
80,0.20417404174804688,2.2295188903808594,76.9875259399414,4.985766758571079,-5.908004839668761,-102.3488480404353,10.7806,-6.6275687,22.509914,6.801615,-13.914785,5.986195,1.1733586,-36.578526,-66.906296,55.60261,-16.58043,-0.6450563,2.1606424,-1.0340494,7.8263316,30.099598,75.7389,-3.7244854,64.26259,-7.7664824,-8.127247,-4.3548446,6.286499,-84.44785,4.920053,67.551094,17.937315,8.158456,-10.08808
81,0.18530985713005066,2.2190287113189697,76.99141693115234,4.979272168922922,-5.920202958403232,-102.28200382041838,10.792116,-6.612529,22.441685,6.8074603,-13.909552,5.957467,1.2755593,-36.484497,-66.96694,55.45731,-16.691484,-0.6049351,2.14522,-1.0359514,7.7977037,30.050932,75.696495,-3.8619616,64.09128,-7.861408,-8.139926,-3.9741642,6.644529,-84.27432,4.5545287,67.34563,18.306019,7.9707074,-10.05432
82,0.16567662358283997,2.213230609893799,76.99441528320312,4.978143759184675,-5.939068348686173,-102.2008371126937,10.804977,-6.6056433,22.354782,6.815071,-13.903573,5.9267044,1.3866112,-36.413532,-67.03699,55.336998,-16.794992,-0.5620812,2.114031,-1.0409205,7.777052,29.853865,75.57694,-4.0057516,63.92153,-7.6981854,-8.053405,-3.5927753,6.865971,-84.03444,4.2173944,67.118835,18.564865,7.835508,-10.004903
83,0.14655427634716034,2.203080892562866,76.99595642089844,4.981140734482102,-5.961678707519928,-102.11020665414479,10.820773,-6.6053357,22.259115,6.820278,-13.896453,5.902571,1.4977766,-36.371178,-67.11172,55.251904,-16.882524,-0.5214149,2.073119,-1.0528654,7.76758,29.52559,75.37638,-4.1642776,63.758633,-7.4493175,-7.9122615,-3.2288036,7.0048213,-83.71786,3.8836305,66.867645,18.7275,7.7303157,-9.967627
84,0.12756426632404327,2.1915905475616455,76.995361328125,4.989323801783901,-5.9847118003382525,-102.0147947729473,10.838457,-6.6137986,22.165642,6.822432,-13.889099,5.894229,1.5997264,-36.363415,-67.185814,55.21475,-16.947054,-0.48779094,2.0266263,-1.066943,7.763899,29.10743,75.103355,-4.33534,63.590424,-7.2966385,-7.757889,-2.9147756,7.0800633,-83.34088,3.5741115,66.600555,18.819473,7.6400504,-9.95033
85,0.11011312901973724,2.183391571044922,76.99134063720703,5.004485997707435,-6.009333997533844,-101.9126319446284,10.860888,-6.630768,22.077105,6.8205853,-13.882432,5.908876,1.6985545,-36.399376,-67.2716,55.233925,-16.990173,-0.46796623,1.9738046,-1.0862433,7.7642856,28.583376,74.75639,-4.5181456,63.433807,-7.2687297,-7.5930543,-2.6783571,7.0878606,-82.90258,3.284704,66.32426,18.790075,7.5675974,-9.933955
86,0.09437757730484009,2.177586317062378,76.98542785644531,5.025645341203525,-6.036588520097101,-101.80205363111948,10.886588,-6.6581306,21.988085,6.8164067,-13.875998,5.940235,1.796504,-36.47253,-67.36738,55.301006,-17.014952,-0.45774233,1.913398,-1.1098266,7.7698708,27.947302,74.3338,-4.7086406,63.28699,-7.2773466,-7.397108,-2.4981384,7.021023,-82.40023,3.009393,66.03493,18.646528,7.519439,-9.918797
87,0.07675200700759888,2.171496868133545,76.98041534423828,5.050430429068301,-6.063330556677872,-101.68934376070932,10.910999,-6.688196,21.895805,6.8111367,-13.868504,5.9764943,1.8793837,-36.56959,-67.447716,55.40443,-17.015572,-0.44620493,1.8491511,-1.1352174,7.784735,27.237442,73.83813,-4.9090385,63.12957,-7.323161,-7.1887927,-2.3256316,6.9024763,-81.835365,2.751274,65.72153,18.4958,7.4825664,-9.951377
88,0.06136322766542435,2.1676108837127686,76.97551727294922,5.072612653517661,-6.086705443326553,-101.58020821612507,10.928305,-6.716258,21.797983,6.806929,-13.858441,6.0061183,1.9322824,-36.675343,-67.486305,55.530674,-16.98576,-0.42213777,1.7852268,-1.1584308,7.812265,26.49039,73.27307,-5.1244807,62.94132,-7.4078784,-6.986488,-2.1138163,6.75223,-81.21045,2.5174675,65.373856,18.445349,7.44468,-10.076614
89,0.04554254561662674,2.163355827331543,76.97406768798828,5.094499983470838,-6.10462768071159,-101.47368909669558,10.931887,-6.744211,21.68886,6.8112783,-13.850408,6.029417,1.9734733,-36.800064,-67.52949,55.68616,-16.924364,-0.3731119,1.7237114,-1.1807007,7.8472986,25.686537,72.63374,-5.3480687,62.730183,-7.5478835,-6.7728233,-1.8679268,6.564332,-80.52193,2.3074608,64.99787,18.504221,7.4224687,-10.310864
90,0.026990799233317375,2.1618235111236572,76.97203826904297,5.11873995865023,-6.118443425695873,-101.36714614504822,10.929141,-6.7732916,21.570814,6.8154473,-13.84093,6.0511155,2.0036507,-36.94524,-67.574135,55.87357,-16.834307,-0.30862913,1.661345,-1.2026485,7.8897023,24.82295,71.91895,-5.5719233,62.50471,-7.737185,-6.5461164,-1.6063585,6.331331,-79.76974,2.1180625,64.59784,18.621407,7.4150553,-10.629271
91,0.009617342613637447,2.1648693084716797,76.97147369384766,5.138744589116759,-6.132538213743628,-101.2655155745824,10.925591,-6.798982,21.455706,6.8174677,-13.826553,6.0674486,1.9807383,-37.090034,-67.51705,56.07904,-16.716682,-0.24972737,1.5958481,-1.2216642,7.9495916,23.954718,71.13973,-5.80859,62.24378,-7.945814,-6.347736,-1.3042614,6.0699263,-78.960335,1.9558063,64.16072,18.81541,7.385198,-11.012167
92,-0.0077426498755812645,2.172175884246826,76.9718017578125,5.155527774100733,-6.150487647420025,-101.17385268854981,10.926516,-6.8143992,21.355146,6.8226485,-13.810767,6.073829,1.8621839,-37.213554,-67.25497,56.289555,-16.573072,-0.21728167,1.5276252,-1.2352575,8.035406,23.127811,70.312744,-6.082353,61.92721,-8.146305,-6.2183785,-0.9404896,5.7945485,-78.1023,1.8312428,63.679638,19.105207,7.2931833,-11.437026
93,-0.027172597125172615,2.183476686477661,76.97232055664062,5.165676030482848,-6.170356847359084,-101.08947849694228,10.930406,-6.816867,21.269161,6.824474,-13.786143,6.0667567,1.6768785,-37.324036,-66.85821,56.51537,-16.393959,-0.20450842,1.458308,-1.2418078,8.14179,22.332357,69.43882,-6.4063,61.55315,-8.336682,-6.1627684,-0.50186485,5.5049486,-77.19144,1.7405833,63.154106,19.593534,7.107551,-11.933805
94,-0.047292064875364304,2.1920504570007324,76.97372436523438,5.169151985578305,-6.191201011662496,-101.0109016667526,10.935195,-6.809632,21.192513,6.8250747,-13.755517,6.049167,1.4335059,-37.426,-66.3486,56.757313,-16.181152,-0.20422874,1.390518,-1.2436315,8.264167,21.542097,68.51559,-6.777587,61.135983,-8.532389,-6.161269,-0.0054963045,5.19928,-76.225426,1.6787324,62.59204,20.236225,6.85138,-12.499214
95,-0.06667353212833405,2.2022194862365723,76.97465515136719,5.174990122269499,-6.218505290907805,-100.94575971612,10.944586,-6.7988157,21.130156,6.836932,-13.731317,6.0275364,1.0573499,-37.496098,-65.54814,56.992752,-15.95465,-0.23471877,1.3270869,-1.2456244,8.4100685,20.773634,67.55732,-7.2048774,60.680634,-8.733235,-6.21736,0.521246,4.889541,-75.21609,1.6603397,61.99083,20.835712,6.5785313,-13.061554
96,-0.08830879628658295,2.210332155227661,76.97521209716797,5.183406999091062,-6.257046930091187,-100.90021349651974,10.972067,-6.789189,21.084877,6.844325,-13.7087145,6.0079513,0.47588637,-37.495686,-64.28284,57.19163,-15.732037,-0.31365752,1.2716032,-1.2482203,8.582816,20.040339,66.58478,-7.7044053,60.191864,-8.942393,-6.3334064,1.0469218,4.580344,-74.18089,1.7095808,61.354126,21.198141,6.3489676,-13.548883
97,-0.11224439740180969,2.222119092941284,76.97452545166016,5.19508636851204,-6.311218871806522,-100.88201759742526,11.022619,-6.780157,21.063282,6.848978,-13.690752,5.9926066,-0.33903825,-37.41043,-62.494267,57.369583,-15.514062,-0.4900837,1.2300483,-1.2504224,8.783757,19.350609,65.60106,-8.297195,59.661392,-9.1803665,-6.516735,1.5860434,4.2585926,-73.12005,1.83541,60.68135,21.256493,6.1863904,-13.959965
98,-0.13794103264808655,2.229421377182007,76.97376251220703,5.20750258121272,-6.377206294845898,-100.88598239737108,11.092089,-6.7706084,21.06177,6.848686,-13.673448,5.977948,-1.3358977,-37.234318,-60.288654,57.531357,-15.288843,-0.7377893,1.2015911,-1.2505482,9.005702,18.687925,64.60156,-8.984788,59.095707,-9.441381,-6.7633705,2.143313,3.921772,-72.02862,2.0349534,59.980663,21.123396,6.061649,-14.326711
99,-0.16739018261432648,2.2378029823303223,76.9715576171875,5.220332753076238,-6.449274110275999,-100.89893734798588,11.171723,-6.75607,21.068123,6.847625,-13.657725,5.9608455,-2.461671,-36.94238,-57.741028,57.635223,-15.055939,-0.9623951,1.1804274,-1.2514435,9.238715,18.029594,63.59769,-9.753807,58.522137,-9.691811,-7.058682,2.6705441,3.586191,-70.918755,2.3196042,59.27055,20.875807,5.9578915,-14.626378
100,-0.20089012384414673,2.248037099838257,76.97025299072266,5.229370309135051,-6.521623967740039,-100.90744070087892,11.252878,-6.7337136,21.070534,6.8468323,-13.641228,5.9386964,-3.6588163,-36.514782,-54.928238,57.642605,-14.820608,-1.070841,1.1610776,-1.2556695,9.472003,17.358412,62.605545,-10.587384,57.96108,-9.9016695,-7.3843117,3.116077,3.2638636,-69.80804,2.7066977,58.572132,20.59302,5.8584557,-14.831951
101,-0.24010924994945526,2.253150701522827,76.97197723388672,5.237269073207598,-6.598652632027699,-100.91487883708567,11.343681,-6.704289,21.071447,6.842762,-13.623729,5.911604,-4.917353,-35.933826,-51.82666,57.561817,-14.580903,-1.0511873,1.1447483,-1.2634536,9.712312,16.688639,61.631744,-11.497274,57.400707,-10.123201,-7.761059,3.4643683,2.9556968,-68.70245,3.216016,57.88343,20.279846,5.770241,-14.91746
102,-0.28030112385749817,2.25936222076416,76.97310638427734,5.243698615170663,-6.682550999825186,-100.92625674541233,11.443759,-6.6686354,21.075985,6.8396277,-13.6074295,5.8807406,-6.2248006,-35.187263,-48.440437,57.41465,-14.342693,-0.9514963,1.1334484,-1.2722286,9.958572,16.027658,60.6712,-12.490161,56.837532,-10.35702,-8.18981,3.7385533,2.6481764,-67.596596,3.8468652,57.20574,19.90308,5.6991315,-14.9004345
103,-0.3266080915927887,2.2649714946746826,76.97763061523438,5.244259498372214,-6.764234223410823,-100.93138506126469,11.540216,-6.6236053,21.075064,6.8432565,-13.594723,5.8440375,-7.5184183,-34.277134,-44.884132,57.179512,-14.124214,-0.7704337,1.1230583,-1.2845734,10.190909,15.355666,59.72199,-13.531241,56.293877,-10.49388,-8.616406,3.948127,2.3355181,-66.49437,4.5807533,56.56099,19.48556,5.6251473,-14.819118
104,-0.38065993785858154,2.2619004249572754,76.98202514648438,5.239426024637232,-6.833564757061518,-100.91926285703093,11.623728,-6.5673823,21.057953,6.8488436,-13.582028,5.7991776,-8.739902,-33.21128,-41.269386,56.834023,-13.9442835,-0.5092562,1.1065508,-1.2978808,10.39189,14.662262,58.781937,-14.572672,55.786835,-10.424855,-8.989704,4.102439,2.016086,-65.40241,5.391213,55.9647,19.050558,5.53,-14.709862
105,-0.4384746849536896,2.2548928260803223,76.98649597167969,5.223802259995379,-6.891149245106029,-100.89161613150956,11.694788,-6.4977527,21.024803,6.8558316,-13.569567,5.7449784,-9.890931,-31.972008,-37.547817,56.382664,-13.81586,-0.17031887,1.0840726,-1.3106047,10.565203,13.955716,57.84784,-15.600148,55.295994,-10.063783,-9.290666,4.1864123,1.6988876,-64.32369,6.279214,55.41471,18.613327,5.404393,-14.554147
106,-0.501990556716919,2.2497141361236572,76.9901351928711,5.20078216393063,-6.9420052130260235,-100.85189774115535,11.7603245,-6.4173884,20.979036,6.8633814,-13.557909,5.6825957,-10.950705,-30.560453,-33.712833,55.843994,-13.737436,0.23943737,1.0544256,-1.32199,10.720207,13.24962,56.918095,-16.626122,54.813206,-9.486457,-9.548005,4.2035575,1.3821304,-63.2583,7.2538195,54.902725,18.158741,5.259337,-14.341259
107,-0.5710722804069519,2.242682933807373,76.99864196777344,5.172467793775777,-6.984112016990242,-100.79147652579454,11.8151455,-6.3267965,20.9156,6.8725095,-13.543894,5.614364,-11.851655,-29.038803,-29.91427,55.218376,-13.706228,0.71215004,1.0097535,-1.3339522,10.851125,12.544097,55.992764,-17.640041,54.367844,-8.827378,-9.780651,4.1908126,1.0553777,-62.20595,8.292209,54.428898,17.665546,5.108316,-14.118031
108,-0.6450732946395874,2.231290578842163,77.01018524169922,5.137559550288925,-7.015373207134599,-100.70188699376303,11.854626,-6.228349,20.829298,6.881353,-13.52283,5.5427394,-12.550709,-27.477247,-26.284046,54.5017,-13.716052,1.2410823,0.9437507,-1.3497283,10.954902,11.8413515,55.073586,-18.626774,53.984528,-8.219719,-10.006746,4.1841755,0.7185106,-61.166744,9.358957,53.985123,17.110891,4.965887,-13.930939
109,-0.7268520593643188,2.2228381633758545,77.02526092529297,5.0954062880722875,-7.030202463041415,-100.5832892373608,11.872048,-6.119552,20.723106,6.890797,-13.493896,5.4673214,-13.071803,-25.867739,-22.766417,53.673756,-13.774785,1.8135632,0.8589154,-1.367408,11.029864,11.137,54.162796,-19.587765,53.654488,-7.645979,-10.2355795,4.178247,0.3817589,-60.13978,10.447822,53.56091,16.475662,4.8307743,-13.779113
110,-0.8139281272888184,2.207219123840332,77.04438781738281,5.0479191195099915,-7.031388008019756,-100.43846939193885,11.871808,-6.001676,20.597134,6.901585,-13.459663,5.387486,-13.428538,-24.208744,-19.305595,52.745537,-13.887113,2.4301896,0.7585724,-1.3881676,11.079594,10.431015,53.2609,-20.528158,53.366077,-7.053581,-10.456103,4.1579027,0.04984249,-59.124813,11.566137,53.158413,15.775108,4.697304,-13.641962
111,-0.9060559868812561,2.182379722595215,77.06656646728516,4.999082167849705,-7.027323521104911,-100.26338132638173,11.862493,-5.8803988,20.443113,6.9118505,-13.419904,5.305474,-13.591164,-22.581179,-16.01699,51.745785,-14.033972,3.1079464,0.6373623,-1.4157466,11.109727,9.731628,52.366806,-21.437708,53.136723,-6.521454,-10.655249,4.1439433,-0.2771805,-58.12059,12.69158,52.780087,15.0390835,4.5747395,-13.536107
112,-1.0034325122833252,2.1635966300964355,77.0868911743164,4.94936403131977,-7.0265142914920125,-100.05451090098133,11.854288,-5.761639,20.253069,6.9205966,-13.376355,5.2230673,-13.54697,-21.071423,-13.007087,50.69863,-14.19337,3.868714,0.49148405,-1.454617,11.12742,9.045134,51.48024,-22.30597,52.98297,-6.1283355,-10.819661,4.1568003,-0.5924325,-57.127308,13.793432,52.42308,14.29588,4.4728546,-13.4776125
113,-1.1081641912460327,2.137589693069458,77.10706329345703,4.904405923724261,-7.031412699993274,-99.80513009177596,11.84675,-5.648612,20.018944,6.931743,-13.32954,5.144149,-13.300522,-19.695095,-10.26014,49.56699,-14.34356,4.7941484,0.31570357,-1.5094234,11.137292,8.364628,50.60157,-23.133919,52.915592,-5.926096,-10.952825,4.195959,-0.88769877,-56.146534,14.856995,52.072258,13.516265,4.40296,-13.473029
114,-1.216607689857483,2.1135475635528564,77.1264877319336,4.863511264191031,-7.036274293807054,-99.52016369189403,11.836987,-5.5404377,19.747692,6.941703,-13.278384,5.066537,-12.892246,-18.431108,-7.7068315,48.343662,-14.498117,5.8509936,0.1164546,-1.5774692,11.135939,7.684414,49.731636,-23.929659,52.92186,-5.862997,-11.059623,4.2514014,-1.1593318,-55.17847,15.890145,51.72447,12.696868,4.3589106,-13.511432
115,-1.3283408880233765,2.0846593379974365,77.14599609375,4.819130065869574,-7.03624688573771,-99.21189239969381,11.818152,-5.429165,19.454227,6.9516006,-13.223562,4.9834776,-12.373761,-17.28671,-5.3780456,47.08549,-14.675164,6.8911066,-0.09252084,-1.6493413,11.11827,7.015101,48.872868,-24.691568,52.981358,-5.8601522,-11.128652,4.3295894,-1.4125855,-54.22482,16.898659,51.39873,11.902388,4.324133,-13.584066
116,-1.4405206441879272,2.0574254989624023,77.16649627685547,4.769276377133351,-7.026323952563874,-98.89369856016202,11.787261,-5.3092847,19.153837,6.9603186,-13.166883,4.888079,-11.800883,-16.266184,-3.3051724,45.857018,-14.893428,7.7677817,-0.29740417,-1.7171566,11.080203,6.371997,48.028236,-25.412977,53.06975,-5.837707,-11.147851,4.4368343,-1.6501945,-53.28749,17.887686,51.111492,11.198636,4.281705,-13.682282
117,-1.5575313568115234,2.0226612091064453,77.18939971923828,4.713586467426949,-7.0011596771108175,-98.55902481106214,11.736715,-5.181141,18.841976,6.9686065,-13.107624,4.7745314,-11.197625,-15.352681,-1.4494352,44.66351,-15.156807,8.467061,-0.50109136,-1.7840295,11.016829,5.7541113,47.19862,-26.076017,53.1895,-5.7795873,-11.104544,4.5765405,-1.8725951,-52.36574,18.856289,50.863903,10.592354,4.2341905,-13.819832
118,-1.6808234453201294,1.98369300365448,77.21250915527344,4.654160647987009,-6.964224363536023,-98.2045687269749,11.670354,-5.047054,18.51376,6.9765325,-13.045577,4.647633,-10.553905,-14.540775,0.19822888,43.46667,-15.4442625,9.065781,-0.7109896,-1.852769,10.933527,5.1527305,46.38602,-26.691788,53.348763,-5.7323318,-11.007967,4.744534,-2.0842655,-51.460266,19.806808,50.64739,10.052594,4.188723,-13.995563
119,-1.8044909238815308,1.953078031539917,77.23652648925781,4.588432899386245,-6.923754725671894,-97.84880828283748,11.601302,-4.9030013,18.184502,6.9836445,-12.983419,4.5159926,-9.877655,-13.851325,1.5623816,42.26988,-15.738406,9.554687,-0.9141894,-1.9141876,10.839031,4.5863585,45.59241,-27.27792,53.51959,-5.690324,-10.879491,4.9344106,-2.2840302,-50.572655,20.740429,50.461555,9.588851,4.1345263,-14.177973
120,-1.9281139373779297,1.9223159551620483,77.26205444335938,4.512649474010083,-6.8882890938030625,-97.51004973783905,11.541466,-4.744832,17.869324,6.991337,-12.924602,4.388327,-9.176677,-13.300757,2.56534,41.07485,-16.021843,9.924609,-1.1003447,-1.9590552,10.743913,4.0605817,44.82122,-27.868116,53.683846,-5.662193,-10.740256,5.1407027,-2.4741008,-49.70586,21.66056,50.30609,9.210904,4.0603375,-14.335639
121,-2.0550036430358887,1.883456826210022,77.29144287109375,4.4257531915030475,-6.859336097410392,-97.18833879023022,11.49272,-4.5713806,17.568377,6.9988737,-12.867885,4.270377,-8.459629,-12.900966,3.160579,39.88162,-16.292273,10.176495,-1.2671806,-1.9880556,10.652275,3.5621827,44.07382,-28.468485,53.850395,-5.6563077,-10.580296,5.374048,-2.6514459,-48.863567,22.566341,50.174248,8.941516,3.9568527,-14.4721575
122,-2.179551601409912,1.8433955907821655,77.32408905029297,4.3306200859313675,-6.832466406975533,-96.87574174743595,11.44965,-4.3841324,17.275112,7.00638,-12.812949,4.156025,-7.7288613,-12.623911,3.3970342,38.682697,-16.553541,10.324451,-1.4065263,-2.0062354,10.555638,3.1422698,43.3409,-28.996174,53.985023,-5.6016827,-10.392879,5.629561,-2.7937648,-48.043224,23.438185,50.059303,8.768125,3.8314269,-14.598815
123,-2.307799816131592,1.8000307083129883,77.35828399658203,4.225637007455103,-6.808077772692886,-96.57827995273837,11.412926,-4.1825757,16.994764,7.0144634,-12.761451,4.036623,-6.982469,-12.428231,3.3401499,37.473064,-16.801857,10.374201,-1.5493419,-2.0018983,10.462492,2.689171,42.642643,-29.632433,54.163063,-5.6570415,-10.207459,5.893044,-2.9511044,-47.249817,24.315533,49.97966,8.651534,3.6974714,-14.698601
124,-2.4349303245544434,1.7556520700454712,77.39068603515625,4.109061223076142,-6.786523711684595,-96.30168303131461,11.384903,-3.9674406,16.731995,7.0227056,-12.716224,3.9034302,-6.2200127,-12.276145,3.0571866,36.25224,-17.036762,10.325152,-1.6654794,-1.9771702,10.362918,2.2966175,41.972042,-30.29021,54.304626,-5.7129793,-10.049955,6.134346,-3.0808434,-46.475307,25.158657,49.933212,8.547242,3.5678833,-14.751992
125,-2.5591487884521484,1.7103798389434814,77.42344665527344,3.9791591829653856,-6.768485922604743,-96.04608263450922,11.366849,-3.733567,16.486204,7.0299993,-12.6762295,3.7496417,-5.4461036,-12.190164,2.463488,35.038834,-17.27395,10.131336,-1.7639691,-1.9258622,10.259007,1.939936,41.335114,-31.007961,54.427223,-5.835517,-9.931164,6.357188,-3.1983356,-45.72001,25.980549,49.92643,8.430277,3.446238,-14.746074
126,-2.681375503540039,1.6666810512542725,77.45441436767578,3.834130847897048,-6.754233501780891,-95.80894634158754,11.357204,-3.4814575,16.25559,7.038843,-12.642299,3.5812545,-4.660692,-12.168793,1.5564673,33.832825,-17.514654,9.807687,-1.8417442,-1.8529913,10.152368,1.6212534,40.730965,-31.765268,54.53057,-6.0032406,-9.835417,6.570155,-3.2970567,-44.983345,26.776567,49.95155,8.32729,3.3249614,-14.693415
127,-2.8051884174346924,1.6148136854171753,77.48757934570312,3.6847679272975755,-6.74183663770995,-95.59171217453391,11.355279,-3.219969,16.042519,7.0469785,-12.613469,3.409203,-3.8596115,-12.149174,0.529699,32.605003,-17.734118,9.43606,-1.9072685,-1.7648375,10.047176,1.3035625,40.163456,-32.612736,54.640957,-6.2078238,-9.752606,6.764613,-3.3895023,-44.264027,27.5559,50.010815,8.275309,3.2008839,-14.615815
128,-2.927772283554077,1.5604158639907837,77.52033233642578,3.5361352097176075,-6.729918427816634,-95.39562746871547,11.35806,-2.9580178,15.8496,7.055696,-12.589961,3.2445068,-3.043404,-12.080888,-0.41960496,31.32646,-17.90538,9.092581,-1.945666,-1.6746509,9.941364,1.0465075,39.620186,-33.464176,54.715157,-6.302044,-9.669229,6.9250817,-3.4557729,-43.555103,28.298141,50.0987,8.308026,3.070524,-14.533993
129,-3.046264410018921,1.5106444358825684,77.5516128540039,3.3965899355176576,-6.710128242781687,-95.22425480506087,11.355728,-2.7013743,15.68074,7.0644846,-12.572075,3.0921257,-2.22816,-11.970977,-1.2879494,29.997673,-18.039026,8.745373,-1.9707054,-1.580527,9.828105,0.79819226,39.10628,-34.398586,54.793804,-6.347561,-9.59019,7.0558496,-3.5228126,-42.856632,29.020105,50.231297,8.459099,2.9216716,-14.4560795
130,-3.1702089309692383,1.4578343629837036,77.58667755126953,3.2566829023607644,-6.686383915075595,-95.0753164485054,11.326247,-2.4355845,15.534231,7.132646,-12.590977,2.944958,-1.4217826,-11.848214,-2.1577575,28.64825,-18.1471,8.355744,-1.9736131,-1.4803393,9.708126,0.58151495,38.618107,-35.379726,54.859093,-6.3354144,-9.518072,7.1596003,-3.5778463,-42.16778,29.71267,50.404266,8.700323,2.7598817,-14.36973
131,-3.2983129024505615,1.400123119354248,77.62107849121094,3.1111223078074155,-6.67503626139285,-94.94265582502132,11.280588,-2.1488621,15.402854,7.2762294,-12.652656,2.7968352,-0.6021784,-11.69267,-2.9636893,27.269941,-18.19827,7.989884,-1.9613745,-1.3715702,9.5992155,0.3806333,38.15355,-36.414192,54.92514,-6.288558,-9.442767,7.2329965,-3.6192296,-41.48782,30.391447,50.606052,8.979218,2.608201,-14.267377
132,-3.423006057739258,1.3448070287704468,77.6509780883789,2.951768951009062,-6.692283223311984,-94.8199705161804,11.245901,-1.8343213,15.278198,7.4764733,-12.747246,2.6417139,0.25326937,-11.48125,-3.6420474,25.8558,-18.159874,7.72122,-1.9374217,-1.253407,9.517354,0.18971638,37.70835,-37.4934,55.000034,-6.2123,-9.35399,7.2721457,-3.6453695,-40.815437,31.070429,50.828983,9.24359,2.4899151,-14.141593
133,-3.551084280014038,1.2866041660308838,77.67939758300781,2.774313702576653,-6.75039464291023,-94.70702092045451,11.273027,-1.4994498,15.157895,7.654392,-12.833835,2.476907,1.1882696,-11.200221,-4.161267,24.34653,-18.011364,7.603133,-1.9002296,-1.1246345,9.472597,0.008247878,37.280537,-38.630245,55.08641,-6.126195,-9.246614,7.2814574,-3.6570923,-40.150223,31.768888,51.07171,9.518474,2.409101,-13.999346
134,-3.682335376739502,1.232184886932373,77.7097396850586,2.5859467446812423,-6.8387158318488,-94.60632520751541,11.340193,-1.1460077,15.045862,7.828776,-12.922377,2.3060083,2.1803875,-10.868006,-4.557037,22.760021,-17.77318,7.581651,-1.8507972,-0.9857973,9.453815,-0.16607018,36.86917,-39.829914,55.186607,-6.0255113,-9.1270895,7.26153,-3.660906,-39.492256,32.47945,51.343857,9.819083,2.3542175,-13.841767
135,-3.821946620941162,1.1702584028244019,77.74607849121094,2.386617506268276,-6.939420490520305,-94.51571150608775,11.411194,-0.7736289,14.943054,8.030722,-13.025123,2.133341,3.1653755,-10.505004,-4.873192,21.186749,-17.469418,7.5821056,-1.7925878,-0.83808804,9.446157,-0.32309574,36.4685,-41.045036,55.29362,-5.8525043,-9.002376,7.201746,-3.6539712,-38.83801,33.168873,51.644596,10.07878,2.3251674,-13.653867
136,-3.9614689350128174,1.1087440252304077,77.78550720214844,2.1798211119422772,-7.034975263491677,-94.43405336167706,11.4692135,-0.38770935,14.850716,8.248324,-13.131264,1.963306,4.0807753,-10.126957,-5.156051,19.716448,-17.12158,7.538085,-1.7305214,-0.6836161,9.434177,-0.45675078,36.0725,-42.233803,55.4056,-5.5553718,-8.879773,7.092085,-3.6386657,-38.184547,33.80762,51.97799,10.229346,2.321185,-13.421301
137,-4.108335018157959,1.0472521781921387,77.8270492553711,1.955638656258608,-7.134752759006463,-94.36220767464262,11.520624,0.025766764,14.768548,8.493383,-13.246561,1.7937105,4.9387097,-9.713399,-5.4109287,18.349045,-16.70413,7.443078,-1.6629422,-0.5150244,9.426188,-0.5756783,35.680702,-43.427303,55.525757,-5.0903044,-8.747001,6.9349995,-3.6200671,-37.528824,34.39579,52.351097,10.229779,2.3500872,-13.118672
138,-4.2467193603515625,0.9881942272186279,77.86847686767578,1.7167248399999162,-7.244085508502009,-94.29987978566011,11.573911,0.46524018,14.695506,8.761467,-13.370777,1.6230804,5.7786894,-9.25581,-5.6221685,17.020464,-16.206032,7.3413353,-1.5889016,-0.3329722,9.425228,-0.68752104,35.293373,-44.644123,55.66215,-4.502025,-8.60649,6.7340136,-3.5953307,-36.87064,34.94518,52.76124,10.120685,2.408421,-12.76138
139,-4.382919788360596,0.9347836375236511,77.90928649902344,1.4806876221061434,-7.3374358288532235,-94.2448105432315,11.60907,0.90000117,14.631565,9.029243,-13.491184,1.4575163,6.562241,-8.792498,-5.803315,15.756127,-15.68161,7.2436066,-1.5092912,-0.15326804,9.408924,-0.7574447,34.9028,-45.77858,55.800407,-3.8255208,-8.487567,6.480149,-3.5610518,-36.21253,35.44953,53.201214,9.966821,2.4785652,-12.396016
140,-4.518145561218262,0.884188711643219,77.94795989990234,1.2677073147623046,-7.3892588697696,-94.19616450152311,11.607216,1.2973999,14.577847,9.271017,-13.594255,1.3035,7.249506,-8.36691,-5.9671183,14.58083,-15.185618,7.1565704,-1.4316208,0.009890781,9.3550825,-0.7618346,34.501705,-46.740597,55.935112,-3.1166508,-8.421003,6.1661882,-3.5205362,-35.55961,35.912388,53.66432,9.835256,2.5446064,-12.069471
141,-4.647307395935059,0.8385514616966248,77.98500061035156,1.0792840538769195,-7.384601130482458,-94.15705619739214,11.555422,1.6531307,14.540345,9.481898,-13.675459,1.1650745,7.8218546,-7.9866934,-6.11302,13.494603,-14.714169,7.0765586,-1.3557695,0.1565288,9.247733,-0.6870973,34.085926,-47.497486,56.066116,-2.3020363,-8.43173,5.7661924,-3.4747477,-34.91534,36.340298,54.15926,9.737699,2.6035204,-11.7842865
142,-4.764529228210449,0.7880772352218628,78.01858520507812,0.9100259997338147,-7.338927534194446,-94.12807566349966,11.465648,1.9809121,14.516502,9.673628,-13.740918,1.036652,8.302103,-7.6332884,-6.236832,12.486677,-14.243636,7.00151,-1.2825092,0.29427704,9.100921,-0.54474145,33.65642,-48.090137,56.19702,-1.3731222,-8.502597,5.294123,-3.4237237,-34.280804,36.73541,54.68305,9.641983,2.6640627,-11.518909
143,-4.866134166717529,0.7353196144104004,78.04739379882812,0.7644532992092345,-7.2717856911744825,-94.10492781823548,11.363253,2.268423,14.498202,9.833611,-13.789354,0.91786337,8.70233,-7.320044,-6.3416605,11.583926,-13.808877,6.9382772,-1.2178028,0.4143286,8.937005,-0.3569604,33.21568,-48.551945,56.331154,-0.49345943,-8.598447,4.803362,-3.3703043,-33.66072,37.09371,55.214386,9.548466,2.7281466,-11.284543
144,-4.961273670196533,0.6797277927398682,78.06989288330078,0.6491565185172614,-7.2029875047202525,-94.08305575682769,11.268352,2.5070448,14.476687,9.958893,-13.823161,0.8060291,9.042675,-7.0577097,-6.4318542,10.794697,-13.437024,6.89317,-1.1636474,0.51021504,8.781119,-0.13058302,32.765373,-48.890873,56.45921,0.20109981,-8.679395,4.34488,-3.3215108,-33.06161,37.415207,55.733055,9.467744,2.797999,-11.09221
145,-5.044008255004883,0.6414951682090759,78.08488464355469,0.575279006835526,-7.1311142595533425,-94.06547000379787,11.187399,2.6797314,14.454211,10.032692,-13.835621,0.70290565,9.304726,-6.865222,-6.503834,10.154249,-13.148212,6.8728623,-1.121132,0.57464474,8.63302,0.14764611,32.30379,-49.08194,56.56991,0.66867876,-8.743926,3.9183338,-3.2610784,-32.48722,37.674995,56.224743,9.386184,2.8780315,-10.953118
146,-5.121608257293701,0.6071834564208984,78.09295654296875,0.560538513077749,-7.038149057028354,-94.06377876315466,11.112998,2.7653813,14.445877,10.031146,-13.811524,0.612779,9.329989,-6.777683,-6.529659,9.947991,-13.080667,6.875776,-1.0749601,0.5903238,8.473268,0.47823748,31.831026,-49.1237,56.66602,0.99468935,-8.807178,3.5003128,-3.1877267,-31.939188,37.879944,56.695087,9.307546,2.9667957,-10.858251
147,-5.191623210906982,0.5799708962440491,78.09745788574219,0.5656992790097891,-6.940278429484528,-94.06349866912728,11.039315,2.8194816,14.437559,10.006271,-13.776787,0.5286044,9.278032,-6.7274675,-6.538976,9.883583,-13.077988,6.885586,-1.036254,0.59208983,8.318593,0.82140285,31.353043,-49.08691,56.76863,1.1969846,-8.851882,3.1080537,-3.1182792,-31.422344,38.06339,57.1445,9.243615,3.0569456,-10.788523
148,-5.253452301025391,0.5576790571212769,78.10087585449219,0.564561252803193,-6.8487415824417,-94.05592773789219,10.965895,2.8761709,14.421583,9.986285,-13.744583,0.44577765,9.2258625,-6.6737514,-6.5456367,9.828172,-13.066253,6.889341,-1.008888,0.59784573,8.179542,1.1459733,30.878147,-49.031494,56.8925,1.3036871,-8.8604355,2.7579381,-3.0533242,-30.942045,38.242653,57.560658,9.194551,3.1416168,-10.724385
149,-5.308591365814209,0.5319343209266663,78.10608673095703,0.5567949869077131,-6.760485726272342,-94.04126780434838,10.888378,2.939902,14.39658,9.973312,-13.715533,0.3608323,9.1705,-6.6108336,-6.5431733,9.777971,-13.037975,6.88318,-0.98794496,0.6107279,8.058649,1.4597151,30.409569,-48.938084,57.02486,1.2873983,-8.817164,2.4531908,-2.9975512,-30.501373,38.41566,57.93914,9.178768,3.2260108,-10.669448
150,-5.360955238342285,0.5136205554008484,78.1139907836914,0.5451181182358863,-6.67337733481965,-94.02143597645323,10.807164,2.9991815,14.364763,9.960431,-13.68683,0.27625787,9.107108,-6.5509505,-6.532444,9.737756,-12.998975,6.8733506,-0.975129,0.62567115,7.953446,1.7768667,29.947926,-48.784245,57.155056,1.1457682,-8.732505,2.1851928,-2.942757,-30.101568,38.568825,58.27765,9.185476,3.3118863,-10.630741
151,-5.411826133728027,0.4978042542934418,78.12100982666016,0.536271272774775,-6.596130854659494,-93.99462834138441,10.732111,3.0531209,14.326931,9.948773,-13.6595955,0.19778278,9.052055,-6.4963565,-6.527982,9.702445,-12.95758,6.8631973,-0.97295326,0.6407228,7.8677545,2.0743504,29.49903,-48.624874,57.298824,0.9496751,-8.629707,1.95246,-2.8897762,-29.744158,38.723915,58.580563,9.201304,3.387044,-10.594087
152,-5.46248722076416,0.4851478040218353,78.12654876708984,0.529685598166302,-6.537276781150087,-93.95859532038554,10.670575,3.101304,14.28344,9.944212,-13.63752,0.13093795,9.019052,-6.449136,-6.544209,9.669512,-12.921785,6.856648,-0.98069334,0.6532939,7.805425,2.3308785,29.07093,-48.513058,57.46937,0.7731686,-8.532163,1.753012,-2.8431234,-29.43003,38.906593,58.85552,9.219628,3.4390888,-10.544979
153,-5.511816024780273,0.4796091318130493,78.12837982177734,0.5228744815341555,-6.505290839365369,-93.9121098059677,10.631911,3.1456218,14.233812,9.946006,-13.621686,0.07537236,9.019936,-6.407829,-6.586235,9.635152,-12.890249,6.8587294,-1.0010576,0.6619124,7.7769537,2.5512373,28.669212,-48.442974,57.661785,0.6043094,-8.442663,1.5940795,-2.7975445,-29.159378,39.11472,59.09226,9.233489,3.4611583,-10.475444
154,-5.556189060211182,0.47193142771720886,78.12886810302734,0.5181309808623427,-6.493595437047468,-93.85673064429838,10.609204,3.185049,14.178178,9.952118,-13.609886,0.028774345,9.043258,-6.3724947,-6.6456304,9.60416,-12.860968,6.8661656,-1.0279899,0.666482,7.781275,2.739808,28.296803,-48.398815,57.865784,0.4099256,-8.3495035,1.4741851,-2.7818172,-28.93358,39.36984,59.310608,9.285107,3.4605143,-10.394733
155,-5.595415115356445,0.46900036931037903,78.12744903564453,0.5287982857412403,-6.483469222291123,-93.7984544345569,10.591245,3.201466,14.123132,9.9457035,-13.590667,-0.0045019463,8.986252,-6.36858,-6.70355,9.747678,-12.925412,6.8729925,-1.062915,0.65632176,7.787579,2.9068356,27.955433,-48.385544,58.078285,0.2473707,-8.255088,1.3756315,-2.7281506,-28.748177,39.595154,59.47249,9.288785,3.4483068,-10.31256
156,-5.630702018737793,0.4641517996788025,78.12672424316406,0.5478835817647394,-6.465025760178969,-93.73499014628102,10.561615,3.202994,14.065894,9.939977,-13.567946,-0.023566984,8.905936,-6.380942,-6.767043,9.923243,-13.012407,6.8691397,-1.090097,0.64002043,7.787444,3.0318944,27.64723,-48.437805,58.303284,0.16734748,-8.161746,1.2829947,-2.6931257,-28.603376,39.850323,59.634125,9.316947,3.4326668,-10.240697
157,-5.662128925323486,0.4652773141860962,78.12544250488281,0.5739964295852203,-6.438786008757647,-93.66458224673335,10.521577,3.188073,14.007074,9.934012,-13.539933,-0.023021795,8.814898,-6.4088907,-6.8408036,10.106262,-13.111967,6.8497314,-1.122388,0.61581665,7.774329,3.1227145,27.373259,-48.564053,58.547253,0.19470376,-8.0726795,1.2042797,-2.6225295,-28.496593,40.073895,59.752308,9.283909,3.4118173,-10.176805
158,-5.690130233764648,0.4629170894622803,78.12444305419922,0.6071475121833115,-6.410633672208609,-93.58686244283497,10.473272,3.1604698,13.945507,9.935871,-13.512515,-0.005839342,8.716199,-6.4502945,-6.925748,10.3040285,-13.225873,6.8200717,-1.1490941,0.584021,7.7629323,3.1733181,27.134499,-48.758495,58.8065,0.2985731,-7.9858723,1.1441227,-2.5705557,-28.429699,40.32742,59.86242,9.267243,3.3811083,-10.117175
159,-5.7148756980896,0.45897331833839417,78.1239013671875,0.6430557801273854,-6.37698043879135,-93.5043518723832,10.418376,3.123879,13.879583,9.933813,-13.481637,0.017744586,8.609686,-6.5005875,-7.0151167,10.505829,-13.342703,6.787147,-1.1825399,0.5502006,7.740838,3.2057295,26.928246,-48.979137,59.06435,0.4444944,-7.8959227,1.0776336,-2.4544199,-28.39768,40.51324,59.91645,9.18109,3.3508873,-10.068467
160,-5.738163948059082,0.45275744795799255,78.12484741210938,0.6788744046735585,-6.333637096151099,-93.41952527402633,10.353326,3.0835717,13.807168,9.925336,-13.447516,0.037581332,8.492363,-6.5547075,-7.102294,10.7076845,-13.455381,6.757657,-1.1985878,0.5219508,7.714887,3.2052176,26.75262,-49.214817,59.3092,0.599471,-7.797692,0.9824113,-2.3711095,-28.399778,40.741272,59.99771,9.181814,3.327849,-10.038891
161,-5.755228042602539,0.45006927847862244,78.12649536132812,0.7164093775846623,-6.275251403984264,-93.33108796465434,10.270595,3.0370944,13.72537,9.912118,-13.4107275,0.055436715,8.3495655,-6.616411,-7.1855173,10.927496,-13.5704775,6.7276387,-1.211664,0.4963289,7.6733065,3.18191,26.611689,-49.461037,59.53754,0.77135485,-7.687534,0.8421108,-2.276982,-28.43153,40.963425,60.081005,9.203006,3.3075309,-10.037831
162,-5.767087936401367,0.4477997422218323,78.12802124023438,0.754965115418092,-6.205853985080859,-93.23809585163201,10.174211,2.9838605,13.635486,9.894874,-13.370721,0.07505357,8.195391,-6.6849856,-7.269447,11.14569,-13.68413,6.695311,-1.2207068,0.47252974,7.619214,3.127674,26.497524,-49.7325,59.765995,0.9726638,-7.569805,0.67301404,-2.1803215,-28.49256,41.188316,60.16768,9.243924,3.2875192,-10.059233
163,-5.774223804473877,0.4428551197052002,78.130126953125,0.7920184209557988,-6.1346304905801405,-93.14399769771704,10.076989,2.9299984,13.54382,9.873904,-13.330157,0.089596294,8.045056,-6.7542543,-7.3532557,11.350664,-13.788535,6.6707892,-1.2249228,0.45394677,7.5633197,3.055143,26.408163,-50.00095,59.985233,1.1771269,-7.449954,0.4978999,-2.0756876,-28.579647,41.400402,60.24869,9.304108,3.2808375,-10.08659
164,-5.773887634277344,0.4424201250076294,78.13046264648438,0.8222247266503068,-6.071093605939177,-93.05188262475407,9.993662,2.881036,13.456512,9.84613,-13.289722,0.092190795,7.918516,-6.81727,-7.436958,11.52161,-13.873452,6.6641793,-1.228097,0.4343343,7.5162196,2.9886382,26.364445,-50.23084,60.1671,1.3566073,-7.3315544,0.33796996,-1.9864688,-28.655436,41.596436,60.35502,9.382211,3.2973778,-10.1057625
165,-5.769598484039307,0.4445493817329407,78.12869262695312,0.8427209243623394,-6.015109255764743,-92.96219984169213,9.924889,2.8398483,13.376116,9.81104,-13.249294,0.07554347,7.817432,-6.8724017,-7.5214057,11.653265,-13.934222,6.686546,-1.2211658,0.43772116,7.4754453,2.8912783,26.311495,-50.44979,60.369328,1.4962074,-7.2254725,0.19437101,-1.8636689,-28.795557,41.761623,60.415043,9.520662,3.3450224,-10.117165
166,-5.762932300567627,0.443439245223999,78.12493133544922,0.859066849648028,-5.9627378756627385,-92.87351360779427,9.865125,2.8025827,13.298962,9.767369,-13.206777,0.044957448,7.733139,-6.9235315,-7.606631,11.755579,-13.97658,6.729612,-1.208282,0.4417054,7.438365,2.7799537,26.288277,-50.647125,60.562347,1.6218543,-7.1240873,0.054472495,-1.776397,-28.923862,41.9304,60.524284,9.715879,3.410176,-10.131085
167,-5.755782604217529,0.4424477517604828,78.12213897705078,0.8706573117492671,-5.916724001182338,-92.78582374309731,9.813366,2.7680912,13.222062,9.724898,-13.169158,0.013305172,7.6671233,-6.9698853,-7.690718,11.834801,-14.007877,6.774676,-1.1934537,0.45862857,7.4102817,2.6592515,26.277672,-50.820095,60.737247,1.7322496,-7.0163536,-0.0642597,-1.6652144,-29.100729,42.084984,60.59161,9.900033,3.5010445,-10.129559
168,-5.744284629821777,0.4377356767654419,78.12025451660156,0.8781164384911425,-5.87996910076867,-92.69914616899091,9.767189,2.735996,13.141382,9.69512,-13.143581,-0.007932348,7.621601,-7.0109267,-7.772111,11.895318,-14.034547,6.80268,-1.1801962,0.47885156,7.39245,2.5392144,26.285545,-50.960403,60.881256,1.828763,-6.889452,-0.1461995,-1.5687271,-29.28645,42.262383,60.66177,10.035136,3.6161785,-10.101058
169,-5.729806423187256,0.4336111843585968,78.12107849121094,0.8788608449098334,-5.855698823661952,-92.61360370160422,9.729207,2.707816,13.056108,9.681291,-13.133263,-0.016518164,7.6035523,-7.044295,-7.849755,11.931506,-14.055086,6.8050456,-1.1718421,0.50478476,7.3841763,2.425723,26.30963,-51.05363,60.992123,1.9132676,-6.726456,-0.20057794,-1.4913679,-29.480051,42.482803,60.760765,10.093374,3.7327926,-10.043614
170,-5.711624622344971,0.42429789900779724,78.12390899658203,0.8758597972662858,-5.841375722419763,-92.52934364445152,9.700164,2.6827714,12.968038,9.6764965,-13.13384,-0.0185237,7.608294,-7.071432,-7.924361,11.945564,-14.068272,6.7930217,-1.1687328,0.5362988,7.3824205,2.315036,26.349072,-51.10447,61.078552,1.9857178,-6.538295,-0.23135029,-1.429209,-29.680271,42.73077,60.882812,10.100096,3.8574913,-9.964084
171,-5.691413402557373,0.4138502776622772,78.12621307373047,0.8708067932038148,-5.831525467069842,-92.44573205887225,9.672529,2.6575022,12.878544,9.680152,-13.14175,-0.013041162,7.6239295,-7.096805,-7.9979067,11.948473,-14.078434,6.7773876,-1.171139,0.5673041,7.386124,2.2027068,26.403769,-51.13445,61.145023,2.043836,-6.3550286,-0.21393786,-1.3748605,-29.884167,42.971035,60.981236,10.08549,4.035855,-9.862517
172,-5.665963172912598,0.40722349286079407,78.1253662109375,0.8680418586080054,-5.820748438813254,-92.3625801905192,9.644428,2.6269686,12.789497,9.682465,-13.149357,0.0008255744,7.6400266,-7.1255946,-8.071969,11.94819,-14.088179,6.769056,-1.1760156,0.59061253,7.3948245,2.0829434,26.473948,-51.166904,61.196156,2.0861902,-6.2066336,-0.123812646,-1.3288141,-30.08869,43.17617,61.01603,10.089354,4.3131943,-9.739158
173,-5.638647079467773,0.39904117584228516,78.12370300292969,0.8656260303666681,-5.8082188181934145,-92.2824569502752,9.612336,2.592969,12.703467,9.689159,-13.159177,0.024753617,7.6577234,-7.1550117,-8.143548,11.939356,-14.095642,6.771009,-1.1776258,0.6073072,7.409075,1.9517264,26.559565,-51.20979,61.24129,2.1249318,-6.0977755,0.06088818,-1.2956073,-30.291857,43.34671,61.00027,10.132906,4.718929,-9.577307
174,-5.611355304718018,0.3898124694824219,78.12033081054688,0.8630251532765145,-5.79674561893019,-92.20476869412293,9.58026,2.5566597,12.618941,9.700175,-13.172855,0.057670865,7.682787,-7.183388,-8.21291,11.916685,-14.0982065,6.777483,-1.1777581,0.6197653,7.428395,1.8116015,26.660112,-51.252747,61.276764,2.1555026,-6.0134444,0.322069,-1.2702558,-30.492851,43.48908,60.94734,10.185546,5.2230825,-9.382871
175,-5.584637641906738,0.3866293132305145,78.11524963378906,0.8629037840631334,-5.785562046150439,-92.12370423086688,9.547249,2.5143027,12.530738,9.712291,-13.188009,0.09643374,7.704458,-7.2180686,-8.286959,11.904266,-14.106698,6.7859526,-1.183671,0.62345076,7.450724,1.6651305,26.77562,-51.291683,61.287407,2.1524801,-5.954237,0.6244263,-1.2475928,-30.691132,43.596367,60.824253,10.222088,5.7816978,-9.190012
176,-5.5563645362854,0.3817506730556488,78.109130859375,0.8693146650839579,-5.77416300645703,-92.0337320197155,9.514546,2.4613435,12.434007,9.716947,-13.198472,0.1380005,7.711562,-7.2667556,-8.372328,11.927405,-14.132608,6.7938,-1.1999269,0.6140035,7.47568,1.5119694,26.90668,-51.32687,61.25775,2.0881715,-5.9208565,0.93288183,-1.2307708,-30.886581,43.672646,60.603226,10.231982,6.35057,-9.032348
177,-5.527376174926758,0.37039950489997864,78.10395050048828,0.8833182104194218,-5.767800477564344,-91.93069774269323,9.486887,2.3981986,12.322986,9.720083,-13.209803,0.18255821,7.7212567,-7.328527,-8.474213,11.968628,-14.172819,6.8009696,-1.2335279,0.5898571,7.5055017,1.3612753,27.054037,-51.34927,61.18845,1.9653697,-5.9144483,1.2603693,-1.2057195,-31.077898,43.681824,60.264328,10.235645,6.9681997,-8.901335
178,-5.495786666870117,0.36383429169654846,78.0992202758789,0.9029230793367617,-5.765069064893738,-91.81864816665843,9.462706,2.3262312,12.201775,9.721029,-13.220991,0.23099883,7.731532,-7.4009295,-8.587524,12.024632,-14.224123,6.8087273,-1.2784146,0.5527093,7.5400767,1.2069057,27.218506,-51.367645,61.086838,1.7912377,-5.9352612,1.6180186,-1.1787301,-31.265606,43.637737,59.829205,10.235833,7.641337,-8.7847185
179,-5.465318202972412,0.36101871728897095,78.0939712524414,0.9283649465652413,-5.754965846047341,-91.70339009876443,9.430479,2.245647,12.079962,9.715784,-13.226532,0.28255355,7.708812,-7.4862046,-8.705202,12.131198,-14.293312,6.815525,-1.3243349,0.5057063,7.573031,1.0401782,27.399502,-51.385345,60.939976,1.5655891,-5.981812,1.9677444,-1.1643027,-31.451056,43.59828,59.317074,10.172779,8.278599,-8.709291
180,-5.434405326843262,0.3610594570636749,78.09112548828125,0.9588635328264297,-5.72651050150624,-91.59108565360478,9.378025,2.157561,11.9667225,9.700456,-13.220027,0.3354599,7.618903,-7.5865407,-8.81977,12.323887,-14.386095,6.819712,-1.3656292,0.45197392,7.596653,0.85283715,27.595476,-51.406597,60.7377,1.2831311,-6.053106,2.271282,-1.1690885,-31.635344,43.61252,58.741264,9.973901,8.788803,-8.701045
181,-5.402297019958496,0.3687810003757477,78.08863830566406,0.9939409014783049,-5.674875219213782,-91.48124428110103,9.299474,2.0625234,11.863038,9.674517,-13.2005825,0.38886768,7.4561434,-7.7013283,-8.929269,12.602657,-14.50416,6.8242626,-1.4020929,0.39210647,7.6052265,0.6418496,27.805937,-51.43592,60.488514,0.9211347,-6.1595707,2.5213165,-1.1947823,-31.818182,43.700512,58.107216,9.556517,9.1659355,-8.780815
182,-5.367722511291504,0.37863728404045105,78.08565521240234,1.0362066026915029,-5.606613703611529,-91.37133898537606,9.202875,1.9603502,11.764277,9.638121,-13.169813,0.44321594,7.238672,-7.8293114,-9.037588,12.950037,-14.643426,6.8290634,-1.4385616,0.32500657,7.6039286,0.4134695,28.030445,-51.467384,60.19476,0.4908073,-6.298724,2.7364578,-1.242232,-31.998045,43.83997,57.41016,8.984773,9.453933,-8.928871
183,-5.333467960357666,0.3898496925830841,78.08212280273438,1.08177752234469,-5.528170058700422,-91.26335961409505,9.093955,1.8513775,11.671003,9.596712,-13.131662,0.50060904,6.9696245,-7.9714546,-9.1467,13.373149,-14.800502,6.8278985,-1.4768635,0.2515279,7.600525,0.1700474,28.267,-51.493515,59.83847,0.034367636,-6.449031,2.918145,-1.3133509,-32.17474,44.012447,56.645157,8.401812,9.635695,-9.111181
184,-5.296985626220703,0.40424633026123047,78.0781021118164,1.1335445724265045,-5.445920747427148,-91.15972634208414,8.982009,1.7336038,11.583957,9.546576,-13.084653,0.5621676,6.6508317,-8.129747,-9.258127,13.881791,-14.973332,6.8145905,-1.5153269,0.1726518,7.603916,-0.07904202,28.511734,-51.492905,59.39716,-0.38972762,-6.588326,3.0681248,-1.4182346,-32.348297,44.20986,55.812107,7.96413,9.692958,-9.295084
185,-5.258017063140869,0.4260559678077698,78.07201385498047,1.19138430709745,-5.357878146963436,-91.05840542951258,8.862161,1.6077999,11.503224,9.4936905,-13.030927,0.62700206,6.2797737,-8.3023205,-9.360714,14.476541,-15.165359,6.7848263,-1.5575634,0.08886816,7.6117167,-0.3341662,28.76217,-51.461674,58.87324,-0.7838884,-6.706177,3.1732585,-1.5593938,-32.52038,44.449482,54.924168,7.6580095,9.590736,-9.493516
186,-5.217473030090332,0.4557105600833893,78.06548309326172,1.2538349396793464,-5.262342905575979,-90.95868338081326,8.734783,1.4737625,11.428256,9.43205,-12.967319,0.6941845,5.858352,-8.488456,-9.457075,15.149272,-15.374254,6.743321,-1.6034395,0.00038145614,7.620288,-0.59835505,29.017405,-51.406967,58.278225,-1.1697223,-6.8151913,3.2373374,-1.7328619,-32.69144,44.73212,53.97718,7.419716,9.348616,-9.718362
187,-5.1795830726623535,0.4879712462425232,78.0604248046875,1.3216901472859315,-5.165097981379051,-90.86531191682408,8.60417,1.3331618,11.35941,9.368535,-12.900914,0.7695659,5.3965955,-8.690788,-9.570636,15.894703,-15.58937,6.6967707,-1.648994,-0.09121535,7.636129,-0.87322795,29.27622,-51.338078,57.607918,-1.532568,-6.9282722,3.2881398,-1.9334055,-32.859425,45.01717,52.941296,7.321024,9.028904,-9.934443
188,-5.135876178741455,0.5210595726966858,78.05377197265625,1.3946663988342147,-5.071723649347383,-90.7830395422262,8.474787,1.1876819,11.297273,9.3099575,-12.839352,0.85877484,4.9030375,-8.912631,-9.724337,16.710543,-15.801216,6.651731,-1.689458,-0.18484731,7.6651735,-1.1717118,29.538176,-51.280758,56.86536,-1.873266,-7.0591645,3.3535244,-2.155769,-33.021877,45.26344,51.787632,7.43425,8.692963,-10.105218
189,-5.089357376098633,0.5577351450920105,78.0462646484375,1.4700889047590786,-4.98185948689499,-90.71213429559998,8.346656,1.0364987,11.240343,9.255298,-12.7834015,0.96788096,4.3795247,-9.156679,-9.9349575,17.595661,-16.012854,6.6136527,-1.7202216,-0.2825057,7.705437,-1.493536,29.803051,-51.230255,56.045986,-2.1476498,-7.197603,3.4406817,-2.3937337,-33.178043,45.45501,50.502407,7.767042,8.362462,-10.218353
190,-5.045201778411865,0.5980833172798157,78.04027557373047,1.5504655043966473,-4.8933682563635195,-90.65023226704758,8.217252,0.8798136,11.188895,9.204005,-12.730851,1.0922257,3.825074,-9.420177,-10.186684,18.545465,-16.226181,6.5775404,-1.7428424,-0.38382715,7.7539515,-1.8345133,30.070425,-51.180283,55.151745,-2.3698487,-7.3407726,3.534722,-2.6482773,-33.329292,45.612404,49.10223,8.283414,8.002433,-10.290788
191,-5.000168800354004,0.6375117301940918,78.0370101928711,1.6321617972774491,-4.809384435216366,-90.59788816044178,8.091753,0.71947664,11.145624,9.153879,-12.679414,1.2213783,3.2374423,-9.700954,-10.451973,19.567257,-16.432175,6.5338025,-1.7607343,-0.4847352,7.8152795,-2.1966016,30.33848,-51.146202,54.191784,-2.6202817,-7.513305,3.6301732,-2.9218264,-33.47564,45.745914,47.600815,8.990101,7.5891647,-10.328605
192,-4.953094005584717,0.6793034076690674,78.03097534179688,1.7182148058432853,-4.733145140367093,-90.55608013578517,7.9805207,0.5556645,11.113865,9.093614,-12.622471,1.345259,2.619027,-9.996581,-10.703928,20.658215,-16.618235,6.473575,-1.774044,-0.5816677,7.893324,-2.571491,30.602913,-51.128777,53.170033,-2.9615119,-7.7397027,3.7207103,-3.2129517,-33.615864,45.861687,46.010147,9.892865,7.0992994,-10.336793
193,-4.905599594116211,0.7305426001548767,78.02230072021484,1.8046985905613007,-4.664460429930059,-90.52649920013116,7.881956,0.38902035,11.096094,9.025973,-12.56071,1.4599984,1.9626992,-10.308785,-10.955455,21.834028,-16.7874,6.3875594,-1.7849274,-0.67284465,7.9881997,-2.9682975,30.861454,-51.14234,52.091118,-3.4074812,-8.036712,3.803077,-3.5193698,-33.74932,45.95109,44.326366,11.073224,6.5017815,-10.313336
194,-4.852570056915283,0.7890604734420776,78.01290893554688,1.8941538311957027,-4.601868221203419,-90.50834438959733,7.79423,0.21857247,11.0903225,8.951556,-12.495385,1.5714601,1.2710882,-10.638966,-11.213284,23.088425,-16.942892,6.282974,-1.7899252,-0.7608813,8.095898,-3.3760011,31.111832,-51.166973,50.948334,-3.9070747,-8.387482,3.8792458,-3.838701,-33.876396,46.011612,42.545235,12.50158,5.819512,-10.246752
195,-4.798918724060059,0.8366903066635132,78.00379943847656,1.9858885851135,-4.546731473102837,-90.49795168706399,7.7165785,0.04441303,11.09205,8.873949,-12.429064,1.6838282,0.56242305,-10.979598,-11.443135,24.380852,-17.070753,6.1759086,-1.7913026,-0.84562767,8.216344,-3.8125184,31.35198,-51.22017,49.762524,-4.5051894,-8.7694235,3.9507844,-4.1799426,-33.996414,46.06911,40.680626,14.019812,5.1094503,-10.13178
196,-4.739777565002441,0.8841950297355652,77.99375915527344,2.0789868570802295,-4.500046537338433,-90.49192879870701,7.6480784,-0.13363028,11.097212,8.798411,-12.3653145,1.8016232,-0.1473033,-11.322989,-11.609904,25.674923,-17.158836,6.083165,-1.787828,-0.9289236,8.348049,-4.274031,31.57781,-51.293785,48.542683,-5.2164307,-9.159112,4.0193744,-4.5510974,-34.10765,46.147545,38.747856,15.469914,4.4282684,-9.969346
197,-4.678560256958008,0.9381605386734009,77.98140716552734,2.1766428938289053,-4.465583253875429,-90.4907815367537,7.5938277,-0.31789207,11.105779,8.722403,-12.303148,1.9264024,-0.8486932,-11.665895,-11.701822,26.956692,-17.208315,6.0163665,-1.7822964,-1.0116732,8.492938,-4.779956,31.787241,-51.418415,47.306545,-6.1161704,-9.561693,4.087951,-4.95167,-34.207794,46.249928,36.743446,16.822222,3.78601,-9.756992
198,-4.616925239562988,0.9873037338256836,77.96782684326172,2.277669633574328,-4.441285388280012,-90.49611273002186,7.551829,-0.50758857,11.119905,8.645443,-12.241645,2.0557647,-1.5528152,-12.010703,-11.738161,28.247097,-17.224154,5.9660335,-1.770018,-1.093866,8.647681,-5.296374,31.976595,-51.55701,46.031,-7.1358156,-9.985269,4.151722,-5.3742213,-34.29557,46.36127,34.66282,18.158583,3.1572049,-9.496411
199,-4.5519490242004395,1.0476727485656738,77.95486450195312,2.37871167546024,-4.420410298729296,-90.50571340786645,7.5129437,-0.69810116,11.137704,8.57131,-12.183072,2.1877153,-2.2701118,-12.355789,-11.733177,29.551249,-17.19604,5.9189577,-1.7566143,-1.1718425,8.807717,-5.849612,32.14474,-51.713905,44.72936,-8.21204,-10.41463,4.2023797,-5.836904,-34.370747,46.499916,32.523228,19.492794,2.5432076,-9.2014475
200,-4.48597526550293,1.1046794652938843,77.94242858886719,2.4750198490917974,-4.396119308484356,-90.5176655919141,7.470231,-0.88578176,11.1577,8.4973345,-12.125964,2.3204026,-3.0140285,-12.700582,-11.700001,30.880869,-17.112598,5.8625536,-1.7436398,-1.243849,8.967146,-6.433402,32.289627,-51.858765,43.396255,-9.241521,-10.833134,4.23345,-6.35449,-34.43358,46.68034,30.342356,20.837477,1.9448775,-8.88494
201,-4.415961742401123,1.164076805114746,77.930419921875,2.5652139757125845,-4.36333140791746,-90.52830575714178,7.4159536,-1.0669194,11.17596,8.4274,-12.072333,2.453209,-3.7791746,-13.036424,-11.633134,32.215668,-16.974709,5.8071237,-1.7346913,-1.3071852,9.117116,-7.037486,32.40102,-51.97539,42.035458,-10.159263,-11.236354,4.244836,-6.9286084,-34.479446,46.90982,28.12086,22.160547,1.3742505,-8.536916
202,-4.345685958862305,1.2173488140106201,77.92057800292969,2.6522304423372405,-4.326707020259731,-90.53979183400581,7.3563557,-1.2445652,11.194644,8.359065,-12.02067,2.5872872,-4.5613165,-13.363418,-11.528823,33.55543,-16.785107,5.7597823,-1.7290262,-1.364491,9.262381,-7.6232667,32.49348,-52.043713,40.613277,-10.9964695,-11.63088,4.240093,-7.546573,-34.513233,47.17984,25.840082,23.469788,0.8287397,-8.157308
203,-4.276672840118408,1.2686656713485718,77.9122085571289,2.7395116732104925,-4.294076479881058,-90.55909789817363,7.3014264,-1.4241753,11.220844,8.291454,-11.970916,2.7233195,-5.3728566,-13.69424,-11.4039545,34.936222,-16.536255,5.7027082,-1.7205209,-1.4184588,9.412758,-8.24083,32.55908,-52.10578,39.16458,-11.864908,-12.020422,4.2200217,-8.220214,-34.532787,47.487907,23.523582,24.83517,0.28554618,-7.770238
204,-4.199222087860107,1.3330893516540527,77.8994369506836,2.831874510174292,-4.273122755062631,-90.59307794766343,7.2629547,-1.6118604,11.261701,8.218683,-11.91981,2.8620915,-6.2249327,-14.042618,-11.275057,36.392014,-16.218899,5.6155963,-1.6941947,-1.4724913,9.579037,-8.92266,32.592144,-52.187725,37.707905,-12.852508,-12.407599,4.184496,-8.944206,-34.539906,47.815254,21.177822,26.324577,-0.27562258,-7.3965507
205,-4.1168694496154785,1.388769268989563,77.8853988647461,2.9312994609064926,-4.266212295737425,-90.64245448412204,7.2434826,-1.809945,11.31893,8.14084,-11.86573,3.0036666,-7.1204367,-14.407759,-11.126277,37.932217,-15.832581,5.5103936,-1.633282,-1.5302123,9.765765,-9.624356,32.5997,-52.25618,36.202534,-13.912819,-12.782431,4.131797,-9.693127,-34.540554,48.134518,18.775276,27.997543,-0.86172634,-7.025
206,-4.033328056335449,1.4565175771713257,77.86663818359375,3.0363265015080083,-4.268573262240876,-90.70407541749009,7.2374363,-2.0150785,11.38881,8.05923,-11.81014,3.1476097,-8.052805,-14.782651,-10.954422,39.534798,-15.378935,5.3922343,-1.5994415,-1.579433,9.955552,-10.322509,32.589733,-52.28547,34.64863,-15.049949,-13.148782,4.065551,-10.536429,-34.535213,48.563198,16.346788,29.839436,-1.4709367,-6.6684895
207,-3.945345878601074,1.5238648653030396,77.84525299072266,3.142724354457155,-4.278672757993651,-90.77851661699943,7.24246,-2.2247565,11.470367,7.975638,-11.757743,3.2939696,-9.021488,-15.176174,-10.794403,41.193336,-14.854964,5.227463,-1.5407021,-1.6309787,10.159018,-11.0289545,32.55875,-52.28835,33.044827,-16.240091,-13.517067,3.9805129,-11.409921,-34.521835,48.984894,13.880585,31.703735,-2.076325,-6.3141685
208,-3.853287935256958,1.5899907350540161,77.82344055175781,3.253224312293704,-4.293865456868096,-90.86649175253557,7.255481,-2.4361215,11.562566,7.892103,-11.713101,3.4429252,-10.0241995,-15.597296,-10.682019,42.89594,-14.25415,4.9815416,-1.5097713,-1.6731534,10.361385,-11.756023,32.481293,-52.247845,31.442446,-17.535572,-13.905149,3.874118,-12.387847,-34.482956,49.492767,11.451232,33.50458,-2.6787288,-5.995721
209,-3.7703592777252197,1.660639762878418,77.80040740966797,3.367834267149798,-4.307612570824807,-90.97036905060351,7.271326,-2.652232,11.667169,7.802876,-11.67417,3.5995095,-11.077166,-16.052992,-10.616786,44.658756,-13.572244,4.6517663,-1.4429038,-1.7211018,10.566612,-12.51271,32.376923,-52.209488,29.816729,-18.92676,-14.327571,3.74925,-13.395733,-34.42664,49.984924,9.005913,35.213676,-3.2781377,-5.7043896
210,-3.6844828128814697,1.7187938690185547,77.77867889404297,3.4863377511789073,-4.322770066075499,-91.08888363059697,7.2912626,-2.8728602,11.783998,7.712682,-11.641496,3.7620442,-12.17531,-16.54172,-10.583014,46.477978,-12.810013,4.250471,-1.3608407,-1.7699106,10.773273,-13.256279,32.243744,-52.1342,28.145924,-20.381268,-14.77109,3.6031542,-14.454235,-34.352352,50.49965,6.546813,36.89265,-3.883738,-5.4382324
211,-3.590895175933838,1.7840253114700317,77.75357818603516,3.6076757979895446,-4.351954752120702,-91.21785598021316,7.3326406,-3.0962977,11.908889,7.616929,-11.612926,3.9202375,-13.28637,-17.06523,-10.5924635,48.31981,-11.972438,3.7649658,-1.2763999,-1.8180889,10.991636,-14.064645,32.084885,-52.06188,26.470682,-21.95431,-15.204446,3.4352453,-15.5683565,-34.25772,51.0351,4.1005144,38.514576,-4.477169,-5.187367
212,-3.4906280040740967,1.8508235216140747,77.72550964355469,3.7286891052732214,-4.407614821828281,-91.3527557562947,7.4110475,-3.3178241,12.037288,7.5161133,-11.589054,4.063767,-14.3746395,-17.626207,-10.659772,50.14461,-11.060864,3.183666,-1.1840609,-1.8664125,11.226082,-14.854338,31.899088,-51.937057,24.737156,-23.552292,-15.594247,3.2486815,-16.713482,-34.14005,51.563423,1.6829375,40.047222,-5.038124,-4.940055
213,-3.4062373638153076,1.8951624631881714,77.69751739501953,3.8460547360181163,-4.499844334918611,-91.49966872263663,7.539813,-3.5343335,12.174466,7.409923,-11.572624,4.1859336,-15.440089,-18.235533,-10.803117,51.974518,-10.064659,2.4681046,-1.081963,-1.9115043,11.486768,-15.643029,31.687834,-51.763157,22.94721,-25.207544,-15.921737,3.049269,-17.89767,-33.996986,52.089676,-0.7105016,41.489704,-5.5546207,-4.694305
214,-3.311995029449463,1.958687424659729,77.66278076171875,3.964942127070756,-4.61928652763838,-91.6585613502287,7.7101383,-3.7499082,12.32021,7.292731,-11.559602,4.2934413,-16.49642,-18.898129,-11.014914,53.816315,-8.982682,1.6309779,-0.9702598,-1.9551178,11.766104,-16.427816,31.451962,-51.543503,21.102114,-26.921442,-16.205614,2.836591,-19.11875,-33.826046,52.617798,-3.0894418,42.853325,-6.042746,-4.4585557
215,-3.219043731689453,2.0159292221069336,77.62481689453125,4.086975064157072,-4.749923217193894,-91.81565405924702,7.8945694,-3.9685464,12.462121,7.175033,-11.548596,4.3962145,-17.52848,-19.605299,-11.272436,55.60961,-7.8319736,0.73638415,-0.8593399,-2.0028765,12.048871,-17.237585,31.193684,-51.303864,19.233143,-28.68092,-16.472279,2.6032827,-20.381067,-33.625496,53.14439,-5.4206343,44.136658,-6.5249686,-4.239354
216,-3.1299142837524414,2.072964668273926,77.58519744873047,4.214490098073299,-4.875957520450035,-91.9566595238599,8.070662,-4.195171,12.586994,7.056595,-11.532077,4.504284,-18.525307,-20.342155,-11.550696,57.298706,-6.632986,-0.1518494,-0.7581823,-2.060693,12.319473,-18.085028,30.914541,-51.06173,17.36095,-30.46034,-16.74797,2.340656,-21.68291,-33.394863,53.66222,-7.6734977,45.335228,-7.0231824,-4.0414243
217,-3.0414879322052,2.1248257160186768,77.54365539550781,4.350091507116824,-4.997200582702812,-92.0826910978004,8.185009,-4.418644,12.699089,7.0520144,-11.570457,4.618602,-19.495749,-21.090809,-11.808212,58.88112,-5.373768,-1.0581778,-0.66517425,-2.1332428,12.577864,-18.944355,30.61389,-50.802,15.461211,-32.273354,-17.03939,2.0383294,-23.004173,-33.13393,54.166534,-9.872999,46.43703,-7.5501275,-3.8675952
218,-2.95638370513916,2.1796717643737793,77.50202941894531,4.490690781964686,-5.1210600035270115,-92.19935462549634,8.301202,-4.6490207,12.799782,7.046307,-11.606243,4.734836,-20.44187,-21.871807,-12.073533,60.385918,-4.049731,-2.009623,-0.57502866,-2.217036,12.831626,-19.813322,30.29152,-50.520164,13.527748,-34.123478,-17.33019,1.7032669,-24.35581,-32.84165,54.66047,-12.020472,47.45045,-8.09461,-3.7148504
219,-2.876126527786255,2.228496789932251,77.46271514892578,4.636558414852439,-5.242576257716287,-92.29945561430614,8.41279,-4.884708,12.884473,7.0403047,-11.638233,4.8539076,-21.340343,-22.72276,-12.424716,61.80532,-2.69781,-2.948121,-0.48923746,-2.306686,13.077219,-20.732887,29.94919,-50.244984,11.603835,-35.96167,-17.613365,1.3524654,-25.787748,-32.51463,55.139084,-14.051316,48.41099,-8.642281,-3.5797698
220,-2.7986409664154053,2.276991605758667,77.42435455322266,4.783755583864209,-5.357371880059642,-92.37548330431517,8.514159,-5.125364,12.948027,7.0344887,-11.664718,4.976951,-22.167007,-23.68741,-12.935508,63.140804,-1.359317,-3.8177502,-0.42241752,-2.4006262,13.298336,-21.668545,29.586224,-49.97081,9.70114,-37.689583,-17.883451,1.0045274,-27.195753,-32.156036,55.591656,-15.989633,49.239002,-9.176493,-3.4556153
221,-2.71867036819458,2.3212380409240723,77.38672637939453,4.9313330369365405,-5.464728738638556,-92.42124548242634,8.602675,-5.370711,12.984293,7.0276103,-11.683225,5.107197,-22.920774,-24.764074,-13.59652,64.393364,-0.024607819,-4.61711,-0.3749779,-2.4963088,13.49853,-22.639826,29.201765,-49.705975,7.8136086,-39.327,-18.145855,0.65576726,-28.62191,-31.76647,56.020237,-17.822096,49.96199,-9.716355,-3.3518035
222,-2.6387643814086914,2.36387038230896,77.3481674194336,5.081641902739064,-5.5678728938908275,-92.44079669910619,8.682235,-5.621694,12.996051,7.0208473,-11.695735,5.2435055,-23.604065,-25.944212,-14.381183,65.57142,1.3134993,-5.3823123,-0.3426345,-2.596804,13.682613,-23.648527,28.79514,-49.445328,5.936207,-40.906754,-18.403032,0.3001236,-30.068575,-31.345577,56.423965,-19.558136,50.58393,-10.263982,-3.2692316
223,-2.56451678276062,2.4027743339538574,77.31111145019531,5.236673568668678,-5.669216551450189,-92.44140665308701,8.761153,-5.8797174,12.990882,7.009763,-11.703466,5.3802643,-24.193941,-27.25592,-15.339839,66.68912,2.606981,-6.117368,-0.32058156,-2.7053533,13.850595,-24.681753,28.366613,-49.18738,4.097194,-42.375675,-18.647411,-0.046637364,-31.515331,-30.894737,56.793,-21.183813,51.0973,-10.777696,-3.193175
224,-2.4948346614837646,2.437049627304077,77.27049255371094,5.398873592980023,-5.771586913899192,-92.42952984510161,8.841879,-6.1459937,12.976374,7.0024266,-11.713641,5.511988,-24.659693,-28.72999,-16.52688,67.76201,3.8055217,-6.827532,-0.30386692,-2.823581,14.0037985,-25.753452,27.91868,-48.939224,2.3396628,-43.701122,-18.873075,-0.36932895,-32.940704,-30.416788,57.116695,-22.684002,51.494568,-11.215526,-3.1102517
225,-2.4241838455200195,2.4668374061584473,77.22632598876953,5.572163595966764,-5.877444758796302,-92.3993005418743,8.930162,-6.424232,12.947276,6.990649,-11.72127,5.640298,-24.960215,-30.41716,-18.022276,68.80537,4.896191,-7.477655,-0.2993547,-2.9566631,14.1453905,-26.863897,27.45164,-48.697575,0.6574132,-44.816135,-19.07867,-0.64838195,-34.34789,-29.913498,57.382965,-24.057495,51.73128,-11.541315,-3.0093448
226,-2.3570549488067627,2.488300323486328,77.18010711669922,5.751441715203466,-5.988275040677508,-92.3464375956055,9.024513,-6.7144694,12.89867,6.9768887,-11.726233,5.7673936,-25.081242,-32.2923,-19.801765,69.8215,5.892675,-8.087307,-0.3100355,-3.1021123,14.278246,-28.001741,26.963789,-48.459133,-0.9711856,-45.75082,-19.271875,-0.89526623,-35.74539,-29.386087,57.59795,-25.31591,51.82495,-11.785962,-2.9032407
227,-2.2882535457611084,2.5116844177246094,77.13452911376953,5.935102209390402,-6.104532409992603,-92.28117342254868,9.1278715,-7.0075517,12.837321,6.961656,-11.731456,5.8882484,-25.039137,-34.260704,-21.763712,70.803444,6.785072,-8.739935,-0.3232057,-3.252645,14.402527,-29.176405,26.457516,-48.231777,-2.5189342,-46.62909,-19.45847,-1.1408399,-37.122948,-28.839031,57.782593,-26.456099,51.860207,-12.007076,-2.8136742
228,-2.2249627113342285,2.530566692352295,77.08858489990234,6.114479309206856,-6.225865984265474,-92.2150277233909,9.2405405,-7.29255,12.771392,6.9462843,-11.739988,5.9975066,-24.864967,-36.229755,-23.797464,71.74035,7.564312,-9.512652,-0.32444116,-3.4007416,14.518682,-30.37989,25.937183,-48.018852,-3.9725978,-47.561977,-19.641663,-1.4158645,-38.46805,-28.27903,57.955765,-27.480526,51.922424,-12.261516,-2.761777
229,-2.164081573486328,2.542797327041626,77.04269409179688,6.292823283273248,-6.3515210253663446,-92.14780668906126,9.363409,-7.5729003,12.699814,6.929161,-11.752696,6.091002,-24.531855,-38.23347,-25.980413,72.637695,8.215467,-10.454251,-0.3102177,-3.550055,14.630815,-31.598642,25.403383,-47.823994,-5.34931,-48.58304,-19.819143,-1.7166748,-39.786385,-27.71129,58.114586,-28.392883,52.01841,-12.564399,-2.7593033
230,-2.1085925102233887,2.54925274848938,76.99945831298828,6.471373094752669,-6.4833565217108164,-92.07477107524109,9.495682,-7.849881,12.619179,6.9123225,-11.768262,6.172186,-23.995993,-40.290054,-28.372585,73.50473,8.73414,-11.508052,-0.2854409,-3.7011752,14.740282,-32.85462,24.858356,-47.64562,-6.6464524,-49.644855,-19.989265,-2.0315802,-41.081257,-27.139439,58.250595,-29.195713,52.107662,-12.884819,-2.7933872
231,-2.0550456047058105,2.5494887828826904,76.95796203613281,6.642907361130782,-6.621042042721535,-92.00303854640605,9.639647,-8.115616,12.537545,6.8962655,-11.787043,6.246982,-23.303167,-42.275715,-30.809202,74.324265,9.139222,-12.584493,-0.2512884,-3.8457868,14.849497,-34.104443,24.301533,-47.467346,-7.8740096,-50.656063,-20.154865,-2.3764832,-42.341576,-26.56442,58.37845,-29.89835,52.198807,-13.21211,-2.8477268
232,-2.0084195137023926,2.548858642578125,76.91863250732422,6.80220827871324,-6.762319317836642,-91.94102459001942,9.793079,-8.361065,12.463856,6.8808136,-11.806282,6.321786,-22.540136,-44.06978,-33.090744,75.07183,9.462898,-13.588644,-0.2157627,-3.9726398,14.944445,-35.355793,23.743023,-47.266735,-9.006056,-51.585365,-20.318026,-2.7705812,-43.553852,-25.997171,58.51183,-30.520449,52.321327,-13.532065,-2.9046483
233,-1.958581805229187,2.541459083557129,76.8812255859375,6.946625207441967,-6.906622322886417,-91.89098246233459,9.956805,-8.587342,12.401488,6.8666835,-11.826432,6.3985457,-21.716545,-45.686913,-35.23639,75.73677,9.703368,-14.526893,-0.17935108,-4.0816617,15.033881,-36.578354,23.184523,-47.038113,-10.065261,-52.39129,-20.488874,-3.2173355,-44.71838,-25.443996,58.652805,-31.056902,52.49376,-13.848009,-2.9486103
234,-1.9117090702056885,2.528292417526245,76.84463500976562,7.0841047827089465,-7.054407713240242,-91.84925313567095,10.135434,-8.80274,12.34513,6.84643,-11.846694,6.475555,-20.948103,-47.037014,-37.032402,76.30712,9.874769,-15.000033,-0.13368455,-4.1779723,15.122779,-37.780006,22.624638,-46.7948,-11.061086,-53.099323,-20.662598,-3.7067504,-45.842617,-24.904417,58.792973,-31.507996,52.698177,-14.165858,-2.9930532
235,-1.8684444427490234,2.5059661865234375,76.81153869628906,7.211075257702151,-7.198149783460762,-91.81854856237787,10.318573,-9.002778,12.298171,6.8222985,-11.868392,6.550245,-20.363768,-48.061356,-38.30037,76.77664,10.029938,-15.000033,-0.0748327,-4.2620025,15.197532,-38.96429,22.070498,-46.536957,-11.992057,-53.723545,-20.818632,-4.2338467,-46.911404,-24.381336,58.94199,-31.907776,52.887062,-14.4766655,-3.0638187
236,-1.8289469480514526,2.486996650695801,76.7813720703125,7.32369342699472,-7.327078052250572,-91.8039272762476,10.487274,-9.179589,12.267755,6.8011365,-11.891374,6.618534,-19.949768,-48.846462,-39.177315,77.16327,10.200225,-15.000033,-0.0057331175,-4.3368692,15.251987,-40.098072,21.528141,-46.263157,-12.880279,-54.24098,-20.938667,-4.792011,-47.916965,-23.876045,59.11321,-32.291897,53.01064,-14.773358,-3.1877983
237,-1.7938716411590576,2.468950033187866,76.75395202636719,7.422706831908265,-7.436373002369556,-91.80723655335365,10.632459,-9.331404,12.256579,6.7895746,-11.91869,6.678669,-19.768173,-49.370255,-39.57747,77.45366,10.392271,-15.000033,0.06741883,-4.4034567,15.285245,-41.165417,20.999878,-45.95996,-13.736354,-54.633472,-21.01342,-5.411032,-48.85856,-23.389685,59.325634,-32.67835,53.07357,-15.076001,-3.404249
238,-1.763434648513794,2.455169677734375,76.72880554199219,7.508717652605084,-7.528205822798546,-91.8278781858779,10.75996,-9.460896,12.263711,6.7814784,-11.946986,6.73232,-19.791346,-49.66762,-39.5678,77.64668,10.593626,-15.000033,0.15609314,-4.4595556,15.296477,-42.20312,20.495502,-45.634895,-14.548751,-54.939995,-21.054304,-6.0842195,-49.73526,-22.923264,59.56399,-33.044117,53.095203,-15.381023,-3.6894639
239,-1.7388559579849243,2.4320082664489746,76.70394897460938,7.585113267797787,-7.605568196542038,-91.86392539860961,10.871876,-9.570532,12.287872,6.7776566,-11.976797,6.7829947,-19.982176,-49.783596,-39.224922,77.75988,10.819152,-15.000033,0.2509923,-4.5109715,15.289521,-43.186638,20.018139,-45.308735,-15.334452,-55.14489,-21.077717,-6.74327,-50.55366,-22.478926,59.812878,-33.38394,53.048553,-15.644576,-3.9757624
240,-1.718997597694397,2.4074764251708984,76.681640625,7.652097527710659,-7.671806890323141,-91.91354532874908,10.973311,-9.66357,12.327231,6.775743,-12.007579,6.8337574,-20.30029,-49.754917,-38.63038,77.81214,11.081918,-15.000033,0.34558147,-4.560948,15.266376,-44.103447,19.567669,-45.004154,-16.098291,-55.242115,-21.10046,-7.3208194,-51.320553,-22.060738,60.056095,-33.685642,52.907673,-15.822206,-4.194724
