unveil-humanoid-operators/unveil-humanoid-operators.github.io/feature-analysis-animation/data/feature_matrix_instances/weight_ankle_rom_walking_A255_walk_hands_on_back_180_start_R_003__A255.csv
Frame,root_translateX,root_translateY,root_translateZ,root_rotateX,root_rotateY,root_rotateZ,left_hip_pitch_joint_dof,left_hip_roll_joint_dof,left_hip_yaw_joint_dof,left_knee_joint_dof,left_ankle_pitch_joint_dof,left_ankle_roll_joint_dof,right_hip_pitch_joint_dof,right_hip_roll_joint_dof,right_hip_yaw_joint_dof,right_knee_joint_dof,right_ankle_pitch_joint_dof,right_ankle_roll_joint_dof,waist_yaw_joint_dof,waist_roll_joint_dof,waist_pitch_joint_dof,left_shoulder_pitch_joint_dof,left_shoulder_roll_joint_dof,left_shoulder_yaw_joint_dof,left_elbow_joint_dof,left_wrist_roll_joint_dof,left_wrist_pitch_joint_dof,left_wrist_yaw_joint_dof,right_shoulder_pitch_joint_dof,right_shoulder_roll_joint_dof,right_shoulder_yaw_joint_dof,right_elbow_joint_dof,right_wrist_roll_joint_dof,right_wrist_pitch_joint_dof,right_wrist_yaw_joint_dof
0,0.009764309972524643,1.4971983432769775,78.88530731201172,-0.3363325047987318,4.872095127736869,-88.13112444474007,-0.9312082,6.065017,23.169388,6.893577,-8.620023,-4.8050303,-1.6524549,-3.7759554,-10.385706,6.9091597,-9.169597,3.7314153,-1.206484,-1.7553223,-0.7068713,21.299412,11.836506,-97.77842,29.200357,26.10852,-12.26836,-12.304635,22.441967,-13.207753,83.46065,11.9108305,-92.59433,9.456956,-22.91746
1,0.015512781217694283,1.4829171895980835,78.8845443725586,-0.3345649768768734,4.878315581673497,-88.14755923300224,-0.92432004,6.0556865,23.178656,6.8932495,-8.625935,-4.773707,-1.6510366,-3.7800148,-10.365846,6.909526,-9.176236,3.7371356,-1.1878339,-1.7480502,-0.6864209,21.287157,11.828088,-97.783005,29.203035,26.095509,-12.273271,-12.328042,22.443892,-13.210976,83.45099,11.907117,-92.729324,9.45911,-22.932228
2,0.020012186840176582,1.4709352254867554,78.88367462158203,-0.3327383608449695,4.884096523640787,-88.16505408900174,-0.9168207,6.046078,23.188717,6.8927155,-8.631954,-4.741628,-1.6500452,-3.7843707,-10.344513,6.910723,-9.183237,3.7428026,-1.1675177,-1.7411634,-0.66509145,21.27498,11.823971,-97.78729,29.201756,26.083485,-12.278735,-12.353933,22.446491,-13.212348,83.44183,11.907207,-92.86583,9.462582,-22.949034
3,0.028828613460063934,1.4547151327133179,78.88408660888672,-0.33104531632236694,4.89068133987192,-88.18055456638851,-0.9101013,6.036861,23.197403,6.8917537,-8.637096,-4.7110896,-1.64842,-3.7884953,-10.32596,6.9107494,-9.189684,3.7486722,-1.143206,-1.7326448,-0.64500237,21.260275,11.814963,-97.7997,29.20602,26.068695,-12.282723,-12.37403,22.450283,-13.214979,83.42178,11.90057,-93.00123,9.460221,-22.961863
4,0.03347653150558472,1.4380886554718018,78.8851089477539,-0.3290203312763445,4.899485053853266,-88.190761256577,-0.9066378,6.0286984,23.202318,6.8912654,-8.641165,-4.684284,-1.6475939,-3.7930472,-10.314377,6.9105153,-9.195472,3.755187,-1.1346523,-1.726282,-0.63432324,21.253359,11.811101,-97.80503,29.202772,26.054472,-12.281378,-12.380363,22.447939,-13.216064,83.417755,11.888464,-93.122536,9.46042,-22.965057
5,0.034155119210481644,1.4229423999786377,78.88481903076172,-0.3270043423621798,4.910462910380174,-88.19497291533621,-0.90671,6.022234,23.202953,6.892124,-8.643532,-4.661304,-1.6474981,-3.79805,-10.311561,6.9111767,-9.201026,3.763726,-1.136532,-1.7209567,-0.6368355,21.254477,11.809964,-97.80736,29.196558,26.038898,-12.274951,-12.368773,22.437708,-13.216368,83.41941,11.864364,-93.216606,9.456295,-22.957382
6,0.03802397847175598,1.4076111316680908,78.88390350341797,-0.32450341511266345,4.92401171358839,-88.1948804859961,-0.909838,6.016233,23.200602,6.892632,-8.643842,-4.6409006,-1.6484798,-3.8038316,-10.314873,6.911557,-9.20586,3.7737813,-1.1521913,-1.7151662,-0.6408139,21.253803,11.805364,-97.81374,29.186777,26.015423,-12.256294,-12.333099,22.42354,-13.218189,83.4317,11.821108,-93.32204,9.452132,-22.926996
7,0.041756611317396164,1.388484001159668,78.88372039794922,-0.3224412126259274,4.937744652543917,-88.19169791590406,-0.91286635,6.0113063,23.196321,6.893019,-8.644754,-4.6242895,-1.6484416,-3.8088024,-10.321648,6.910767,-9.210039,3.782346,-1.1646938,-1.7105898,-0.6521609,21.258448,11.80428,-97.81548,29.179905,25.999157,-12.245445,-12.305944,22.4103,-13.218616,83.43736,11.786125,-93.40294,9.445849,-22.909508
8,0.0441412627696991,1.3729286193847656,78.8819808959961,-0.32112009931403523,4.954658229833846,-88.18404273441172,-0.92087424,6.0078063,23.188488,6.8944206,-8.646727,-4.6121325,-1.651307,-3.8126993,-10.331455,6.9118304,-9.2164545,3.786579,-1.1935376,-1.7120603,-0.6621103,21.267696,11.7936125,-97.81479,29.185534,25.987791,-12.23281,-12.273811,22.40143,-13.224335,83.467606,11.746649,-93.50278,9.452353,-22.887318
9,0.04438752681016922,1.352289080619812,78.88080596923828,-0.3209327227810144,4.972230958070698,-88.17068411068372,-0.9293634,6.0053935,23.176517,6.895081,-8.65083,-4.606385,-1.6525892,-3.8146212,-10.344659,6.9120073,-9.224558,3.7839472,-1.2102474,-1.7177083,-0.6699117,21.275305,11.788199,-97.81325,29.20142,25.993631,-12.237715,-12.264298,22.407938,-13.227234,83.47236,11.724394,-93.60401,9.453764,-22.889917
10,0.04339446499943733,1.3311467170715332,78.88053894042969,-0.32157303664894404,4.991557770298151,-88.15179491594584,-0.9399785,6.0040517,23.160627,6.895292,-8.655712,-4.605953,-1.6542325,-3.8153558,-10.362019,6.91259,-9.233952,3.7765338,-1.225822,-1.7264212,-0.67802215,21.284712,11.780681,-97.81247,29.228796,26.010006,-12.25,-12.261903,22.424492,-13.231154,83.46946,11.708038,-93.709755,9.455195,-22.902573
11,0.04213513433933258,1.310774326324463,78.88027954101562,-0.3223767079817254,5.011030806668456,-88.13411228359105,-0.95094883,6.003672,23.146202,6.8961515,-8.661543,-4.60772,-1.6564454,-3.8153653,-10.378289,6.9126287,-9.243007,3.7685235,-1.2379408,-1.7351587,-0.6844985,21.2915,11.77868,-97.81313,29.249338,26.026413,-12.261946,-12.264968,22.437725,-13.232106,83.46693,11.6959915,-93.81208,9.458683,-22.91757
12,0.04260607063770294,1.2946540117263794,78.88068389892578,-0.32278327360663606,5.029974638436015,-88.12397760597487,-0.96048987,6.003541,23.138739,6.8962536,-8.667061,-4.6085443,-1.6608467,-3.8151731,-10.388546,6.9128814,-9.250905,3.7640235,-1.2407749,-1.7417738,-0.6915592,21.295984,11.7736225,-97.81736,29.267403,26.033575,-12.269719,-12.273418,22.44785,-13.234314,83.463425,11.672855,-93.91581,9.459899,-22.924404
13,0.04124440997838974,1.2786997556686401,78.88078308105469,-0.32215951625119804,5.047504492061828,-88.1248765526118,-0.96765226,6.00377,23.141464,6.895966,-8.672442,-4.6079073,-1.6682855,-3.8152342,-10.38985,6.91311,-9.256368,3.7652311,-1.2356061,-1.744205,-0.695405,21.29499,11.77092,-97.82186,29.2695,26.02864,-12.268571,-12.292141,22.439064,-13.2352295,83.472,11.638396,-94.009575,9.4655,-22.92156
14,0.041873712092638016,1.2642009258270264,78.8801040649414,-0.32126841626110547,5.064508555714012,-88.13258951331402,-0.9733124,6.004209,23.150919,6.894709,-8.677935,-4.6073055,-1.677174,-3.8149724,-10.385684,6.912656,-9.260527,3.7694817,-1.2233441,-1.7446208,-0.69793177,21.290884,11.769716,-97.826485,29.263418,26.01723,-12.263262,-12.32025,22.42098,-13.235466,83.48488,11.597035,-94.09954,9.472835,-22.913197
15,0.04333745315670967,1.2501989603042603,78.87822723388672,-0.32012884047672313,5.081134288791612,-88.14310444362552,-0.9782442,6.005093,23.162779,6.893771,-8.683484,-4.606849,-1.6868436,-3.8143404,-10.3791685,6.9124155,-9.264223,3.7740426,-1.2115949,-1.7449349,-0.7006252,21.286417,11.768668,-97.830894,29.254532,26.001554,-12.255837,-12.346283,22.402098,-13.235585,83.500275,11.558678,-94.187325,9.479356,-22.903955
16,0.04101194813847542,1.2391271591186523,78.87841796875,-0.31949404814809773,5.097249018399243,-88.15214648718965,-0.9824704,6.0060325,23.172653,6.892794,-8.688622,-4.606611,-1.6954916,-3.8136132,-10.373739,6.912375,-9.26787,3.776138,-1.2068233,-1.7471474,-0.70365536,21.285511,11.767756,-97.83334,29.248272,25.985802,-12.24806,-12.358,22.392035,-13.235689,83.51151,11.53065,-94.27557,9.482582,-22.897533
17,0.04018452763557434,1.2245452404022217,78.87857818603516,-0.3193429706933608,5.113260278366207,-88.15826033136955,-0.9866119,6.007103,23.178556,6.8922358,-8.693,-4.605189,-1.7025406,-3.8124,-10.370828,6.912562,-9.271989,3.7744882,-1.2130488,-1.7526923,-0.70879847,21.288973,11.766617,-97.833435,29.246704,25.966116,-12.239367,-12.348186,22.396002,-13.236117,83.51638,11.5208025,-94.366165,9.47854,-22.895971
18,0.03850773721933365,1.2103192806243896,78.87881469726562,-0.31936895476969857,5.129193642341924,-88.16364210126999,-0.9900473,6.0081487,23.183064,6.890996,-8.696219,-4.6030197,-1.708983,-3.8108308,-10.368551,6.9127197,-9.275947,3.7707915,-1.2240728,-1.7599105,-0.71649194,21.296484,11.765541,-97.831924,29.24768,25.943157,-12.230117,-12.325927,22.411882,-13.236861,83.51238,11.519961,-94.45986,9.46594,-22.896748
19,0.03872722387313843,1.19468092918396,78.87802124023438,-0.31974492318962583,5.144295203562557,-88.17022251534823,-0.9920297,6.0096574,23.188917,6.88938,-8.700013,-4.602909,-1.714829,-3.8086562,-10.365016,6.912549,-9.279608,3.7664466,-1.2329779,-1.7663337,-0.7221082,21.303215,11.764556,-97.830696,29.249386,25.924215,-12.22245,-12.303176,22.42888,-13.23783,83.501945,11.521295,-94.5537,9.450363,-22.89808
20,0.038906581699848175,1.180506706237793,78.8768081665039,-0.32011177913711447,5.15809451257064,-88.1796141252433,-0.9924147,6.012074,23.199272,6.888342,-8.705923,-4.6076074,-1.7207757,-3.8063233,-10.3583555,6.9123917,-9.283067,3.7629542,-1.2324376,-1.7697905,-0.7225933,21.303684,11.762902,-97.832825,29.251154,25.913683,-12.218733,-12.292419,22.441511,-13.23975,83.48455,11.514235,-94.64923,9.436527,-22.897318
21,0.03895997256040573,1.1659013032913208,78.8756103515625,-0.3213547320019597,5.170336678679177,-88.19365966583001,-0.9901408,6.016599,23.216894,6.887506,-8.715505,-4.622446,-1.7268223,-3.8025813,-10.346959,6.9129386,-9.287648,3.7595417,-1.2232517,-1.7687364,-0.7155034,21.297361,11.761163,-97.83691,29.251015,25.917831,-12.22003,-12.298421,22.441875,-13.241877,83.47106,11.5004,-94.742584,9.4341,-22.892738
22,0.03819889575242996,1.1534377336502075,78.87554931640625,-0.3227238660815243,5.181465211090272,-88.21102124276182,-0.985053,6.021611,23.239649,6.8855667,-8.727252,-4.644374,-1.732546,-3.798307,-10.332113,6.91207,-9.2913475,3.755832,-1.2121298,-1.7664632,-0.7055417,21.289227,11.760165,-97.839134,29.249357,25.931982,-12.224817,-12.3138275,22.436256,-13.243009,83.46457,11.484508,-94.83287,9.439837,-22.88659
23,0.037996985018253326,1.142608642578125,78.87512969970703,-0.32312262902520417,5.191565168615924,-88.22873347571323,-0.97954094,6.025962,23.262953,6.884344,-8.73871,-4.663745,-1.737794,-3.79492,-10.316256,6.9121876,-9.295431,3.753795,-1.1915628,-1.763511,-0.6895853,21.272875,11.756802,-97.84846,29.251326,25.945202,-12.230396,-12.330298,22.430813,-13.246816,83.4432,11.46002,-94.928474,9.44037,-22.878885
24,0.035249050706624985,1.1281623840332031,78.87437438964844,-0.32218309846341975,5.201851203316816,-88.24304908086349,-0.9765584,6.028358,23.280895,6.88513,-8.747656,-4.670956,-1.7421794,-3.792903,-10.30301,6.912278,-9.299624,3.755245,-1.1832559,-1.7672557,-0.6813855,21.26658,11.755362,-97.85176,29.252209,25.952019,-12.230962,-12.3357935,22.426676,-13.248361,83.43821,11.439117,-95.01701,9.443131,-22.873396
25,0.03221924602985382,1.1118541955947876,78.87274932861328,-0.3182385752939449,5.211767124930912,-88.25273526122406,-0.97492397,6.0261927,23.291956,6.885722,-8.751431,-4.659125,-1.7450236,-3.7940426,-10.292821,6.912481,-9.30327,3.7640402,-1.1815171,-1.777595,-0.6801654,21.26719,11.7549925,-97.85325,29.253464,25.946297,-12.226845,-12.327724,22.423368,-13.248713,83.437775,11.421607,-95.09265,9.440941,-22.873163
26,0.02853485941886902,1.097732663154602,78.87228393554688,-0.31231873388348236,5.2218540842428895,-88.26128199565883,-0.97516954,6.021266,23.300346,6.88719,-8.752397,-4.634928,-1.7477914,-3.796984,-10.282617,6.912287,-9.306108,3.7779849,-1.1813413,-1.7977262,-0.67650497,21.266394,11.754267,-97.856476,29.260279,25.93227,-12.216559,-12.305859,22.425398,-13.249416,83.43813,11.392146,-95.18618,9.434609,-22.868452
27,0.025499725714325905,1.0861221551895142,78.8716812133789,-0.30658757323116975,5.231451265122392,-88.26759171288342,-0.9751883,6.0165462,23.306019,6.8886805,-8.752544,-4.6085386,-1.7487379,-3.7994099,-10.27479,6.911703,-9.309583,3.7901464,-1.1835517,-1.815912,-0.67663807,21.26849,11.753122,-97.86026,29.26582,25.918043,-12.206368,-12.284794,22.42691,-13.250559,83.43979,11.3670025,-95.26817,9.428688,-22.86719
28,0.024707505479454994,1.0755690336227417,78.87117004394531,-0.30371768467206195,5.241067540866389,-88.27295313405058,-0.9758882,6.015976,23.311148,6.891487,-8.753707,-4.5903974,-1.7499243,-3.799176,-10.269168,6.912168,-9.31444,3.793667,-1.1875402,-1.8291429,-0.67714846,21.27083,11.7523365,-97.863144,29.269505,25.911352,-12.197841,-12.270675,22.429836,-13.251343,83.44098,11.34359,-95.350136,9.424889,-22.864744
29,0.0243239589035511,1.0635594129562378,78.87198638916016,-0.30434140172637353,5.251200932954297,-88.27662798971585,-0.97635865,6.020427,23.314825,6.893828,-8.755931,-4.5826273,-1.7509415,-3.794695,-10.266729,6.9130125,-9.321792,3.7841682,-1.192271,-1.8343868,-0.6784712,21.273447,11.750506,-97.86723,29.270931,25.917871,-12.191071,-12.267123,22.435583,-13.253519,83.43832,11.324419,-95.431885,9.422378,-22.861406
30,0.019535547122359276,1.0506393909454346,78.87155151367188,-0.30701729856035215,5.2607441043112715,-88.27899867189535,-0.975813,6.0274115,23.317284,6.8954153,-8.758018,-4.57989,-1.7501636,-3.7878478,-10.266444,6.9136667,-9.331065,3.7662215,-1.2000266,-1.8354008,-0.6802845,21.27605,11.750221,-97.86807,29.2688,25.93088,-12.186596,-12.270972,22.435987,-13.253892,83.43727,11.314064,-95.50035,9.421433,-22.860863
31,0.01557526271790266,1.0346198081970215,78.87208557128906,-0.3111349230429012,5.270688745274126,-88.28066334683278,-0.9765084,6.0368185,23.319334,6.8985558,-8.76086,-4.581339,-1.7500055,-3.7794678,-10.267969,6.914121,-9.339205,3.7459817,-1.2071074,-1.8342626,-0.68030095,21.278341,11.749188,-97.86936,29.266909,25.948233,-12.181887,-12.277321,22.445158,-13.255643,83.428734,11.296392,-95.59012,9.41715,-22.855558
32,0.011632903479039669,1.0220245122909546,78.87242126464844,-0.3145946221390112,5.2779721547788805,-88.28420764978073,-0.9737158,6.045862,23.32422,6.901032,-8.764274,-4.5860257,-1.7475374,-3.771519,-10.268822,6.9148726,-9.345389,3.7298362,-1.2113996,-1.832645,-0.6783687,21.279049,11.747816,-97.870735,29.26504,25.956184,-12.181038,-12.284482,22.448606,-13.258333,83.41868,11.279021,-95.66968,9.413877,-22.854914
33,0.007706767879426479,1.0090851783752441,78.87323760986328,-0.3178626417076751,5.2824228443186705,-88.2900489548238,-0.9669655,6.0547175,23.333347,6.9029193,-8.768802,-4.595872,-1.7434669,-3.7641397,-10.269612,6.9158025,-9.347465,3.7189593,-1.2136725,-1.8318012,-0.6725857,21.278387,11.746644,-97.87055,29.264057,25.953274,-12.183983,-12.291693,22.449205,-13.260692,83.408104,11.257137,-95.75017,9.412029,-22.85687
34,0.004489292856305838,0.9973456263542175,78.87318420410156,-0.32129359987614003,5.284862356963871,-88.29710257532784,-0.95737785,6.0640917,23.345142,6.9038315,-8.7736845,-4.6106997,-1.7373912,-3.7564702,-10.271087,6.915235,-9.346042,3.710129,-1.2174054,-1.830538,-0.66553944,21.277996,11.746131,-97.8693,29.26142,25.94305,-12.188824,-12.298742,22.446194,-13.2616415,83.40229,11.237122,-95.827774,9.415146,-22.86111
35,0.0002750568964984268,0.9836316108703613,78.87120819091797,-0.3241376312386661,5.2866194921366825,-88.30475174115787,-0.9472931,6.073251,23.35724,6.905985,-8.779188,-4.6261435,-1.7308136,-3.749107,-10.271669,6.9151816,-9.344419,3.7032037,-1.2191947,-1.8296125,-0.6574884,21.276648,11.745315,-97.866554,29.259525,25.932505,-12.195813,-12.308097,22.443386,-13.263132,83.392845,11.21599,-95.907074,9.416198,-22.864761
36,-0.00422313017770648,0.9703601598739624,78.87137603759766,-0.32606507964249387,5.288797806878177,-88.31261097243899,-0.9373441,6.0813994,23.367886,6.907038,-8.783098,-4.6382403,-1.7245626,-3.7420454,-10.26982,6.9154463,-9.344753,3.6979487,-1.2186507,-1.8301973,-0.65165997,21.274895,11.743994,-97.86371,29.259548,25.92633,-12.203952,-12.320128,22.443909,-13.265708,83.38103,11.192842,-95.988075,9.412674,-22.865114
37,-0.009541302919387817,0.9561528563499451,78.87017059326172,-0.3261190770127703,5.292450195123958,-88.3215087785758,-0.9292734,6.087792,23.376568,6.9085665,-8.785506,-4.6439624,-1.7197183,-3.7356744,-10.263553,6.915457,-9.346907,3.6953807,-1.2154378,-1.8337048,-0.65157217,21.275976,11.742558,-97.861824,29.261843,25.928202,-12.213395,-12.334349,22.449905,-13.269042,83.37184,11.167605,-96.0697,9.406259,-22.85995
38,-0.015388072468340397,0.9428671598434448,78.87025451660156,-0.32498773168889916,5.296845089103895,-88.33128180998621,-0.9211487,6.092806,23.3842,6.9086156,-8.786084,-4.6461754,-1.7153106,-3.729706,-10.254302,6.914995,-9.349729,3.6953242,-1.2125938,-1.8394096,-0.6557994,21.280054,11.741921,-97.85976,29.26365,25.93411,-12.223328,-12.348717,22.457523,-13.27109,83.36997,11.144688,-96.14941,9.40284,-22.851562
39,-0.02116224355995655,0.930495023727417,78.8707504272461,-0.3233964241881148,5.30076165440552,-88.34004131264783,-0.9134096,6.0979824,23.391071,6.9104543,-8.787557,-4.649224,-1.710599,-3.7240984,-10.245388,6.9156494,-9.35403,3.6955795,-1.2109259,-1.8457507,-0.6607862,21.283756,11.74174,-97.85788,29.265556,25.938776,-12.232131,-12.362671,22.46476,-13.272217,83.369896,11.123553,-96.22797,9.399131,-22.842642
40,-0.027191709727048874,0.9187431335449219,78.87144470214844,-0.32279271833373485,5.302915493320049,-88.34601866510349,-0.90412736,6.104348,23.397303,6.9114137,-8.789006,-4.6574664,-1.7037331,-3.7180564,-10.240148,6.915947,-9.358596,3.6939983,-1.2127639,-1.850413,-0.66439754,21.287617,11.74172,-97.85596,29.26683,25.938602,-12.237201,-12.373654,22.470278,-13.273656,83.36974,11.105026,-96.30461,9.396067,-22.836805
41,-0.03267695754766464,0.905229926109314,78.87153625488281,-0.32388247367619133,5.303179577861585,-88.34797489765317,-0.89256734,6.112571,23.403599,6.9115877,-8.791674,-4.675098,-1.694195,-3.711079,-10.239879,6.9154882,-9.363588,3.6897628,-1.2193882,-1.852313,-0.6656504,21.289484,11.741848,-97.85564,29.266973,25.928598,-12.236879,-12.380367,22.472845,-13.275429,83.36864,11.088061,-96.378494,9.39364,-22.835949
42,-0.03794179484248161,0.8937039375305176,78.873046875,-0.3255595090681914,5.302987177725355,-88.34742341033277,-0.88091445,6.121935,23.409773,6.912334,-8.795246,-4.698676,-1.6848806,-3.7040606,-10.242169,6.916346,-9.369533,3.684119,-1.2280874,-1.8523338,-0.6668987,21.29229,11.741914,-97.85628,29.267311,25.915625,-12.233768,-12.383779,22.469816,-13.275769,83.368355,11.077554,-96.44117,9.393103,-22.839754
43,-0.043638989329338074,0.8822065591812134,78.87312316894531,-0.3274340024202798,5.299967993036954,-88.3451970660967,-0.8667145,6.131177,23.414118,6.9127483,-8.798721,-4.7214484,-1.6714456,-3.6970344,-10.246957,6.916514,-9.376074,3.6780186,-1.238986,-1.8528291,-0.6649182,21.293442,11.742135,-97.8586,29.266949,25.898886,-12.226853,-12.385546,22.471949,-13.276847,83.36665,11.063051,-96.5195,9.390421,-22.840136
44,-0.05000969395041466,0.8691607713699341,78.87118530273438,-0.3279453209003878,5.296348971725204,-88.34377183240635,-0.8518861,6.138004,23.416382,6.9129004,-8.802219,-4.7361097,-1.6569296,-3.6913729,-10.2519,6.916597,-9.382206,3.6724615,-1.2456847,-1.8538853,-0.66455567,21.293724,11.742616,-97.86397,29.267195,25.886194,-12.221494,-12.387411,22.473595,-13.278649,83.36397,11.046863,-96.59139,9.387938,-22.838478
45,-0.05616135895252228,0.8563867807388306,78.87040710449219,-0.326083149423534,5.291971675944467,-88.34277209021823,-0.8374808,6.141113,23.414,6.913108,-8.804595,-4.7381124,-1.6403885,-3.6881688,-10.25829,6.917259,-9.388651,3.6682174,-1.251805,-1.8568252,-0.66431004,21.29573,11.743085,-97.86807,29.268024,25.880997,-12.217206,-12.392765,22.471786,-13.279815,83.36419,11.033232,-96.65847,9.385923,-22.833597
46,-0.062195710837841034,0.8446452021598816,78.86870574951172,-0.3229461564631706,5.285151471569572,-88.34115226416708,-0.8212942,6.1414557,23.407558,6.9131966,-8.8068,-4.732127,-1.6198851,-3.6863704,-10.266886,6.9175334,-9.395318,3.6646452,-1.2580723,-1.8623359,-0.661683,21.296423,11.743454,-97.87278,29.269472,25.877037,-12.210558,-12.398887,22.473934,-13.280499,83.36536,11.014815,-96.73459,9.383939,-22.820368
47,-0.06876002997159958,0.8323816657066345,78.86817169189453,-0.31979959916680223,5.277694670849876,-88.34029988946895,-0.8039613,6.1420856,23.402534,6.9128337,-8.809033,-4.725036,-1.5989798,-3.6845949,-10.2744255,6.9178276,-9.402196,3.6604626,-1.2611711,-1.8670099,-0.6617879,21.297644,11.744416,-97.88247,29.270706,25.874592,-12.204947,-12.399587,22.476454,-13.282019,83.36695,10.994999,-96.80559,9.383267,-22.809406
48,-0.07544508576393127,0.819678783416748,78.8677749633789,-0.318146131192979,5.269461426743364,-88.34128944803777,-0.784465,6.1451993,23.403608,6.913518,-8.813854,-4.723567,-1.5790448,-3.6812766,-10.278118,6.9186077,-9.409575,3.6543837,-1.2632917,-1.8701142,-0.6620413,21.299978,11.745371,-97.88785,29.272478,25.878277,-12.203789,-12.392221,22.47439,-13.283444,83.36717,10.976456,-96.87165,9.380793,-22.805038
49,-0.08139050751924515,0.8076934218406677,78.86644744873047,-0.3185627403946962,5.260289178735305,-88.3451913112226,-0.7618908,6.1517224,23.413427,6.9148183,-8.821135,-4.726918,-1.5605576,-3.6755393,-10.276422,6.9196415,-9.4171915,3.6450136,-1.262236,-1.8712256,-0.66435844,21.303444,11.746143,-97.89221,29.274466,25.887154,-12.208062,-12.37076,22.469776,-13.284816,83.365746,10.955108,-96.93025,9.3761835,-22.811869
50,-0.08539532870054245,0.7983522415161133,78.8669204711914,-0.32002513851915754,5.249984022201714,-88.35106302270535,-0.7375077,6.1603365,23.428762,6.9171133,-8.829937,-4.732382,-1.5423421,-3.6688757,-10.271133,6.919877,-9.424259,3.6335528,-1.2601944,-1.8711866,-0.6675673,21.30722,11.746483,-97.89416,29.27684,25.900469,-12.216763,-12.340153,22.461645,-13.285598,83.36435,10.933371,-96.982864,9.37013,-22.826454
51,-0.0900711864233017,0.7863637208938599,78.86603546142578,-0.32224207060373694,5.238879798121967,-88.35734909074203,-0.7113593,6.170451,23.446196,6.918812,-8.839858,-4.7439084,-1.5242609,-3.661193,-10.264442,6.9215226,-9.432767,3.6219702,-1.2552891,-1.8698214,-0.6711824,21.312023,11.747135,-97.896935,29.279905,25.91738,-12.226084,-12.306299,22.454735,-13.287881,83.35922,10.9092245,-97.03712,9.363424,-22.838789
52,-0.09369664639234543,0.7765385508537292,78.86441040039062,-0.3244767759329679,5.227673268939246,-88.36235391794186,-0.68505585,6.1810994,23.461906,6.9203033,-8.8510065,-4.765322,-1.5042192,-3.6528976,-10.258685,6.9218483,-9.44189,3.6124237,-1.2513418,-1.8672518,-0.6745237,21.314758,11.747678,-97.89677,29.28129,25.931562,-12.232722,-12.279988,22.45004,-13.290308,83.353584,10.885006,-97.09816,9.3592205,-22.839422
53,-0.09876260161399841,0.7672598361968994,78.86223602294922,-0.3276128531132385,5.216366023062114,-88.36611300013129,-0.657681,6.194252,23.477627,6.9211073,-8.865372,-4.8092623,-1.4828523,-3.6429212,-10.253109,6.922413,-9.452931,3.60523,-1.2484602,-1.862458,-0.67755306,21.316399,11.748343,-97.89262,29.281092,25.94476,-12.235365,-12.261606,22.447037,-13.293372,83.34795,10.860011,-97.16982,9.358963,-22.820482
54,-0.10531727224588394,0.756414532661438,78.86016082763672,-0.33150321488544976,5.20472974904371,-88.36940677143009,-0.62962556,6.2100115,23.494478,6.921911,-8.882186,-4.8698654,-1.4604532,-3.6312776,-10.246942,6.92271,-9.465202,3.5992913,-1.2457674,-1.8559536,-0.68107295,21.31845,11.74869,-97.886765,29.280323,25.958248,-12.235246,-12.245895,22.44453,-13.294733,83.3443,10.835181,-97.247284,9.362771,-22.788786
55,-0.1107296571135521,0.7453479170799255,78.85759735107422,-0.3342173765886982,5.192700348856058,-88.37147536697243,-0.60195524,6.2235665,23.507805,6.9225926,-8.897525,-4.923133,-1.437266,-3.6211445,-10.242264,6.9230676,-9.477711,3.5948977,-1.244888,-1.8500333,-0.68389666,21.319452,11.749358,-97.8754,29.278488,25.971664,-12.235815,-12.236237,22.444496,-13.297311,83.337746,10.811925,-97.32663,9.365383,-22.757122
56,-0.11623819917440414,0.7345579266548157,78.85659790039062,-0.3337638458693942,5.180606709132312,-88.3715337605614,-0.5781893,6.2306566,23.51219,6.9248457,-8.907536,-4.9450674,-1.4133085,-3.615327,-10.241354,6.923229,-9.489945,3.5922363,-1.2448254,-1.8463476,-0.6866165,21.319887,11.74959,-97.86866,29.276382,25.981987,-12.236187,-12.229029,22.445387,-13.298158,83.332565,10.798023,-97.39716,9.370904,-22.739223
57,-0.12329530715942383,0.723344087600708,78.85636901855469,-0.327781587771597,5.167874170841738,-88.36877417535608,-0.5593,6.2272463,23.50318,6.9293547,-8.909476,-4.917512,-1.3890679,-3.6170971,-10.245796,6.924364,-9.501026,3.5935757,-1.2469054,-1.8461119,-0.687029,21.318819,11.75016,-97.854576,29.272776,25.994755,-12.24115,-12.232221,22.451948,-13.3005905,83.31591,10.795822,-97.46327,9.371276,-22.74235
58,-0.13107572495937347,0.7121161222457886,78.85490417480469,-0.3180361292967108,5.154892109494262,-88.36381034707388,-0.5439206,6.2164326,23.48446,6.9345703,-8.905271,-4.8571415,-1.364112,-3.6238296,-10.254106,6.9256825,-9.511586,3.5979693,-1.2487332,-1.8480177,-0.6861345,21.31468,11.750556,-97.842896,29.268085,26.005615,-12.247379,-12.2412195,22.462145,-13.302653,83.29416,10.801854,-97.524864,9.370779,-22.758123
59,-0.13756771385669708,0.7027227878570557,78.85343933105469,-0.3082869363379678,5.142023024040828,-88.35811876488238,-0.5294794,6.2053456,23.46388,6.940265,-8.900456,-4.792471,-1.3391942,-3.6306653,-10.26352,6.9268904,-9.522357,3.6011662,-1.250946,-1.8498713,-0.68629134,21.311232,11.750761,-97.83552,29.26394,26.011112,-12.2511835,-12.248903,22.470652,-13.30391,83.277954,10.810257,-97.58057,9.374794,-22.77623
60,-0.1430918127298355,0.6932092905044556,78.85314178466797,-0.30277265927362546,5.129376495615086,-88.35312720813708,-0.51356107,6.2010007,23.449512,6.945158,-8.899444,-4.75203,-1.314876,-3.6322918,-10.271387,6.927723,-9.534128,3.5987587,-1.2475549,-1.8490931,-0.6865561,21.30586,11.751145,-97.829,29.262558,26.009718,-12.25519,-12.261144,22.476736,-13.306428,83.25446,10.809739,-97.63899,9.367611,-22.78748
61,-0.14804545044898987,0.6834237575531006,78.85386657714844,-0.30331181413871977,5.118524332312854,-88.34987076168625,-0.49597272,6.2064967,23.445024,6.94856,-8.904366,-4.747013,-1.2944919,-3.6265016,-10.275686,6.9295626,-9.547524,3.586639,-1.2453413,-1.8475456,-0.69246554,21.302526,11.751253,-97.82861,29.26515,25.994726,-12.25412,-12.267315,22.472265,-13.307123,83.25164,10.802424,-97.68537,9.36635,-22.788313
62,-0.15512879192829132,0.6745277643203735,78.85252380371094,-0.30792429183121306,5.107382287832761,-88.34656787386712,-0.4769609,6.2182727,23.444742,6.951649,-8.912318,-4.7611647,-1.2734361,-3.6158311,-10.27925,6.930509,-9.562056,3.5681036,-1.2419462,-1.8442869,-0.6986264,21.298668,11.751319,-97.82901,29.270224,25.971573,-12.251714,-12.27614,22.466446,-13.307537,83.250656,10.788756,-97.73462,9.36012,-22.783228
63,-0.16085699200630188,0.665118932723999,78.85248565673828,-0.3137716625068175,5.094406495490312,-88.34279310252775,-0.4563849,6.232203,23.444813,6.956187,-8.922307,-4.7814612,-1.2506391,-3.6036303,-10.283714,6.931449,-9.576745,3.5499067,-1.2374545,-1.8399421,-0.7032088,21.292213,11.751508,-97.83328,29.274538,25.938566,-12.2469635,-12.286264,22.462091,-13.309859,83.25085,10.766533,-97.790306,9.3519125,-22.772455
64,-0.1653672605752945,0.6589765548706055,78.85082244873047,-0.3155221152658295,5.0825361122769435,-88.33842663891,-0.43715507,6.239895,23.442358,6.9592857,-8.929955,-4.7941337,-1.2290568,-3.5973768,-10.289687,6.932498,-9.589432,3.5395513,-1.2349077,-1.8344914,-0.7082654,21.290297,11.751565,-97.83546,29.274456,25.913237,-12.242185,-12.294407,22.454294,-13.312362,83.2549,10.751968,-97.83885,9.348415,-22.767889
65,-0.17056256532669067,0.6522986888885498,78.84894561767578,-0.31204965693841447,5.069710189367746,-88.33321775786834,-0.41837898,6.240386,23.436037,6.9623737,-8.9348135,-4.79532,-1.2060577,-3.5984867,-10.298847,6.933144,-9.599408,3.5408418,-1.2344941,-1.8271058,-0.71097803,21.29179,11.751425,-97.83448,29.267202,25.892662,-12.236673,-12.303223,22.4458,-13.3140955,83.25978,10.743888,-97.88721,9.347487,-22.76893
66,-0.17405833303928375,0.6458015441894531,78.84827423095703,-0.30575670725783227,5.056458380811507,-88.32720251486772,-0.39905676,6.236632,23.427818,6.964896,-8.938679,-4.792285,-1.1823524,-3.6038463,-10.310303,6.9332643,-9.607408,3.5493479,-1.2365341,-1.8179862,-0.7124027,21.294903,11.751081,-97.83142,29.254696,25.872475,-12.229771,-12.312765,22.435553,-13.315844,83.268036,10.739737,-97.934906,9.348931,-22.77247
67,-0.17969566583633423,0.6377997994422913,78.84765625,-0.29899032676133497,5.043303433689227,-88.32054917673997,-0.38062483,6.2318344,23.417944,6.967155,-8.942161,-4.7886834,-1.158595,-3.6100574,-10.321957,6.933629,-9.615689,3.5593717,-1.2409813,-1.8089063,-0.71383786,21.300373,11.750349,-97.82496,29.242071,25.856218,-12.224073,-12.3223295,22.42436,-13.318336,83.28031,10.735488,-97.98272,9.351614,-22.777283
68,-0.1841338723897934,0.6297726631164551,78.84574890136719,-0.29390031956736623,5.031023954634612,-88.31289952113181,-0.3643091,6.229036,23.40627,6.970256,-8.947383,-4.788302,-1.136158,-3.6136203,-10.332046,6.9341335,-9.625165,3.5653522,-1.2468332,-1.8010367,-0.71613836,21.304832,11.748955,-97.81595,29.23408,25.843554,-12.221989,-12.331582,22.414095,-13.322145,83.29381,10.727999,-98.03287,9.35325,-22.780066
69,-0.18939609825611115,0.6214976906776428,78.84423065185547,-0.2915407498902701,5.0199207459321125,-88.30367566242607,-0.3497106,6.228288,23.391705,6.971788,-8.953559,-4.791189,-1.1141803,-3.6131058,-10.340027,6.9346743,-9.637268,3.5644956,-1.2488401,-1.7936071,-0.7197154,21.308361,11.748193,-97.810326,29.232504,25.838661,-12.225153,-12.339107,22.406933,-13.324091,83.30014,10.717409,-98.08949,9.350312,-22.781796
70,-0.1948130875825882,0.6135654449462891,78.84422302246094,-0.2900251037884819,5.0107164923424605,-88.29435251116476,-0.33836925,6.2283998,23.375885,6.9741006,-8.961093,-4.795643,-1.0951961,-3.6110234,-10.345592,6.935742,-9.649741,3.5602856,-1.246141,-1.7868347,-0.7252094,21.309465,11.747951,-97.80828,29.234707,25.83733,-12.23138,-12.345552,22.400232,-13.324719,83.30215,10.70658,-98.14441,9.345705,-22.78589
71,-0.19989925622940063,0.6071779131889343,78.84148406982422,-0.28974701609935016,4.999465022644166,-88.28271072906716,-0.32594407,6.229766,23.35757,6.977027,-8.96941,-4.802795,-1.0730687,-3.6077282,-10.353002,6.936363,-9.663777,3.5562832,-1.2488028,-1.7793132,-0.72829527,21.313007,11.7471,-97.80121,29.237682,25.838686,-12.239276,-12.352707,22.397463,-13.32694,83.30629,10.692617,-98.21082,9.339397,-22.784546
72,-0.20375876128673553,0.6001849174499512,78.83968353271484,-0.28853365522964675,4.990562043568806,-88.27239621864524,-0.3149008,6.2304635,23.342533,6.978542,-8.976989,-4.813111,-1.0540891,-3.605597,-10.359943,6.9366636,-9.67748,3.5559208,-1.2458591,-1.7738837,-0.7327247,21.31362,11.746881,-97.79918,29.240332,25.834122,-12.242582,-12.359443,22.391212,-13.327548,83.30774,10.681548,-98.25792,9.337393,-22.784662
73,-0.2069530338048935,0.5954735279083252,78.8376235961914,-0.2872456012686066,4.9804366703699525,-88.26131742358021,-0.3022604,6.2322283,23.329103,6.9812765,-8.986385,-4.8312025,-1.0343016,-3.6040025,-10.368975,6.937537,-9.6925745,3.5624096,-1.2434729,-1.7691929,-0.7341075,21.315052,11.746677,-97.79703,29.241316,25.823051,-12.24101,-12.3659315,22.385788,-13.328145,83.309364,10.669632,-98.300545,9.33839,-22.781164
74,-0.2114243060350418,0.5910840034484863,78.83783721923828,-0.28624017788212575,4.968775596284488,-88.24943114663188,-0.288162,6.234905,23.316269,6.984524,-8.997026,-4.8552856,-1.0128013,-3.6022327,-10.379376,6.9376245,-9.708402,3.573099,-1.2435153,-1.7656746,-0.7331326,21.315767,11.745996,-97.792496,29.241026,25.805399,-12.235158,-12.374025,22.38023,-13.330328,83.31388,10.656494,-98.3393,9.342067,-22.772259
75,-0.21676529943943024,0.584069550037384,78.83419036865234,-0.28569713751811643,4.958547500941449,-88.23680876994634,-0.27622405,6.2381444,23.303276,6.9880676,-9.006343,-4.8768954,-0.99237394,-3.6001332,-10.391096,6.937476,-9.724066,3.5827007,-1.2440082,-1.7619705,-0.7328739,21.316156,11.745351,-97.78815,29.240768,25.78914,-12.228808,-12.382599,22.373926,-13.332775,83.31945,10.6422205,-98.37283,9.347911,-22.762815
76,-0.2224799543619156,0.5779762268066406,78.83158874511719,-0.2843254561035615,4.950765159796749,-88.22441636953364,-0.26702607,6.2394214,23.290468,6.9908314,-9.012567,-4.8874035,-0.9752299,-3.5993907,-10.402823,6.937966,-9.737992,3.5861747,-1.241481,-1.758015,-0.7358486,21.31639,11.745218,-97.78695,29.242764,25.779741,-12.226644,-12.391476,22.367928,-13.333347,83.321396,10.631592,-98.40491,9.352575,-22.75798
77,-0.22613555192947388,0.5719396471977234,78.83031463623047,-0.28497750519974396,4.942758783742413,-88.20839776335141,-0.26099253,6.2419767,23.273043,6.997795,-9.016836,-4.880662,-0.95712847,-3.5971637,-10.419555,6.9388275,-9.750944,3.5791066,-1.2454075,-1.7505476,-0.7398753,21.31642,11.744798,-97.78277,29.243904,25.777046,-12.228099,-12.406375,22.365217,-13.334987,83.32749,10.616978,-98.449,9.358163,-22.749842
78,-0.22483277320861816,0.5615367293357849,78.82988739013672,-0.2849160596063682,4.936707939249392,-88.19297090842402,-0.2565599,6.2426577,23.256584,7.0026894,-9.017235,-4.862252,-0.9413627,-3.5958989,-10.436195,6.93965,-9.762258,3.5654585,-1.2472366,-1.7433279,-0.7464527,21.317278,11.744322,-97.77899,29.24751,25.782331,-12.232961,-12.422458,22.361795,-13.336578,83.33223,10.604937,-98.48935,9.363467,-22.745703
79,-0.2295932024717331,0.5579913258552551,78.82913970947266,-0.28559612646183546,4.931682757811028,-88.1755327127879,-0.2559057,6.244677,23.23755,7.0116377,-9.016792,-4.842649,-0.9266847,-3.5943305,-10.455094,6.941176,-9.773257,3.5514994,-1.2534775,-1.7349501,-0.75433564,21.319233,11.7435055,-97.772316,29.250498,25.788803,-12.239109,-12.439947,22.360777,-13.338928,83.339966,10.591844,-98.53397,9.369227,-22.74007
80,-0.23319192230701447,0.5575636625289917,78.82836151123047,-0.2852912690035487,4.9259714513231225,-88.15922093497204,-0.25170234,6.245092,23.21989,7.0169396,-9.017896,-4.832262,-0.91131973,-3.5939732,-10.4719,6.941338,-9.782124,3.5438848,-1.2605083,-1.7281926,-0.7595984,21.322172,11.741889,-97.764206,29.253525,25.79061,-12.243842,-12.454474,22.358154,-13.342908,83.35145,10.578385,-98.57469,9.374625,-22.739182
81,-0.2359728068113327,0.55322265625,78.82841491699219,-0.2838880558533964,4.919950084029687,-88.14394938834602,-0.24620216,6.2449865,23.20302,7.0206723,-9.019429,-4.836745,-0.8965581,-3.5952766,-10.48646,6.941651,-9.789066,3.5458148,-1.2603534,-1.7224773,-0.7611029,21.32274,11.741533,-97.76384,29.255953,25.784544,-12.24682,-12.465351,22.355843,-13.343679,83.35607,10.567493,-98.61243,9.376442,-22.746344
82,-0.23751284182071686,0.5462719798088074,78.82579040527344,-0.2822672237345441,4.914191193076278,-88.12861105081802,-0.24050157,6.245092,23.18576,7.024385,-9.021721,-4.8496313,-0.8824913,-3.597021,-10.500529,6.9424167,-9.794831,3.5531566,-1.2602651,-1.7167464,-0.76130015,21.322868,11.741194,-97.764694,29.257452,25.773193,-12.249066,-12.474386,22.355127,-13.344338,83.36294,10.558604,-98.650085,9.378154,-22.756912
83,-0.24085673689842224,0.54075688123703,78.82577514648438,-0.280608702280463,4.907560656488618,-88.11270407565809,-0.23428006,6.244755,23.167902,7.0284553,-9.024268,-4.863006,-0.86706585,-3.599323,-10.514859,6.9423566,-9.800126,3.5618706,-1.2624612,-1.7110138,-0.76118547,21.32456,11.740697,-97.76607,29.257704,25.760422,-12.249563,-12.480367,22.354856,-13.345205,83.37309,10.549561,-98.68867,9.3813095,-22.766369
84,-0.24250634014606476,0.5370970964431763,78.82383728027344,-0.27801935335558514,4.89984382030209,-88.09772746656579,-0.2261331,6.2417164,23.151623,7.0307665,-9.025974,-4.8689203,-0.85059977,-3.6031525,-10.527852,6.942172,-9.806148,3.568018,-1.2626756,-1.7061049,-0.7607271,21.32595,11.74052,-97.766495,29.25767,25.751207,-12.249877,-12.484773,22.352098,-13.345491,83.37623,10.539535,-98.72535,9.379902,-22.768757
85,-0.2388594150543213,0.5308056473731995,78.82298278808594,-0.27571362467607574,4.8863067681418295,-88.07811224941648,-0.21302018,6.236863,23.130527,7.033434,-9.027384,-4.8630967,-0.8263496,-3.6078095,-10.545243,6.943057,-9.8164,3.5702107,-1.2727375,-1.6989421,-0.7588836,21.332096,11.739677,-97.765175,29.253576,25.743065,-12.246593,-12.485098,22.352026,-13.346958,83.38102,10.522738,-98.77501,9.376097,-22.754505
86,-0.24201157689094543,0.5298250913619995,78.82376098632812,-0.27248306113763204,4.870944197591878,-88.0586583985818,-0.19754335,6.229117,23.109911,7.034942,-9.028229,-4.8503585,-0.79928976,-3.6141987,-10.56176,6.942906,-9.827227,3.5706317,-1.2818438,-1.6921359,-0.7559099,21.3388,11.738205,-97.761894,29.24981,25.7379,-12.243059,-12.483682,22.348713,-13.349855,83.378006,10.5034685,-98.82347,9.366274,-22.73397
87,-0.23996683955192566,0.5237329006195068,78.8240737915039,-0.26950952351378016,4.855962018450311,-88.04006776400715,-0.1825333,6.2214704,23.090677,7.0359893,-9.028951,-4.836978,-0.7739907,-3.6205904,-10.577771,6.944214,-9.838277,3.5707374,-1.2888336,-1.6854501,-0.75202,21.344646,11.736506,-97.758766,29.246046,25.735329,-12.239632,-12.482269,22.347506,-13.353473,83.37042,10.482691,-98.87396,9.354297,-22.713202
88,-0.2387637197971344,0.5191072821617126,78.8236312866211,-0.26715348553011103,4.8448670072507225,-88.02456132939834,-0.17113394,6.215766,23.075443,7.0369577,-9.030225,-4.8291187,-0.7540195,-3.6255367,-10.591947,6.9448595,-9.8469305,3.5719051,-1.2915372,-1.6801971,-0.74815315,21.34741,11.735897,-97.75693,29.242815,25.734503,-12.236872,-12.48132,22.347527,-13.354834,83.36578,10.468864,-98.922356,9.3476,-22.70315
89,-0.24378052353858948,0.5195308923721313,78.8230972290039,-0.26520555011637,4.838064705758234,-88.01300981651632,-0.16393976,6.2127357,23.065784,7.037447,-9.031504,-4.8293366,-0.74048406,-3.6291564,-10.604144,6.9451566,-9.852022,3.5756028,-1.2883393,-1.6754771,-0.7437452,21.348625,11.7353325,-97.753975,29.239822,25.739964,-12.23591,-12.483277,22.352074,-13.356233,83.359695,10.462556,-98.97123,9.343268,-22.707594
90,-0.24225667119026184,0.5130712985992432,78.82225799560547,-0.26378538918628475,4.83379574779629,-88.00411021754053,-0.1589332,6.2110243,23.059801,7.037562,-9.032991,-4.834022,-0.7305691,-3.631853,-10.615123,6.9450965,-9.855018,3.5807323,-1.2810189,-1.6710345,-0.7382973,21.347322,11.734452,-97.74893,29.236902,25.74942,-12.236639,-12.4882965,22.36085,-13.358772,83.349075,10.459914,-99.02317,9.338331,-22.721886
91,-0.2446921467781067,0.5132706761360168,78.82139587402344,-0.26306682416489746,4.832224967088687,-87.99662223199955,-0.15688396,6.210646,23.055368,7.0377836,-9.0348625,-4.8401675,-0.724881,-3.6335607,-10.624744,6.9456267,-9.857621,3.584822,-1.2708578,-1.6679856,-0.73307735,21.344337,11.733762,-97.7441,29.236292,25.760305,-12.238066,-12.494006,22.369522,-13.361222,83.33794,10.456455,-99.07316,9.333877,-22.737682
92,-0.24177174270153046,0.5083940625190735,78.82010650634766,-0.26350327159569303,4.833489294039466,-87.98926006135771,-0.15842034,6.211147,23.050135,7.0379624,-9.036686,-4.844783,-0.7220479,-3.6336403,-10.633077,6.944817,-9.860666,3.585424,-1.2621977,-1.6666895,-0.73184735,21.3421,11.733553,-97.742386,29.237787,25.76702,-12.237327,-12.495739,22.371874,-13.362071,83.33469,10.452193,-99.11091,9.335751,-22.746717
93,-0.24025507271289825,0.5032669305801392,78.82149505615234,-0.2666012450534279,4.837995503538104,-87.98144949683781,-0.16439201,6.2138386,23.041574,7.0376277,-9.037758,-4.8483987,-0.72376245,-3.630278,-10.640368,6.9448566,-9.866655,3.5789843,-1.2511604,-1.6670225,-0.73022,21.336754,11.73332,-97.739006,29.245762,25.774506,-12.236721,-12.498524,22.37473,-13.3631,83.32734,10.438904,-99.155075,9.337402,-22.749538
94,-0.24323156476020813,0.5054547786712646,78.82083129882812,-0.27137275054205334,4.8460202077867995,-87.97446492037429,-0.17512675,6.2183414,23.032122,7.0380607,-9.039071,-4.8521233,-0.73051125,-3.6245093,-10.645822,6.945933,-9.874511,3.5677803,-1.2384026,-1.6687303,-0.7310939,21.329145,11.733108,-97.73642,29.257328,25.779276,-12.235556,-12.500872,22.37305,-13.364029,83.32013,10.422379,-99.19018,9.340318,-22.7483
95,-0.2433076798915863,0.5043213367462158,78.82131958007812,-0.2759629105622483,4.85515676870682,-87.96727193401235,-0.1864016,6.2225795,23.024054,7.0375605,-9.040486,-4.85404,-0.738164,-3.6193879,-10.651161,6.9458838,-9.880833,3.5580943,-1.2236745,-1.6718081,-0.7308168,21.320412,11.732633,-97.73413,29.271109,25.784592,-12.235993,-12.503971,22.371315,-13.3661175,83.30702,10.402028,-99.225685,9.339794,-22.743864
96,-0.2409004122018814,0.502977192401886,78.8215560913086,-0.2772036262252359,4.862335590012765,-87.95936385048347,-0.19453917,6.2238755,23.02004,7.0379343,-9.044043,-4.852249,-0.7432874,-3.6187027,-10.657374,6.945935,-9.88454,3.5563545,-1.2159581,-1.6749513,-0.7334262,21.31849,11.732527,-97.73363,29.278372,25.78828,-12.235679,-12.504166,22.36994,-13.366699,83.30447,10.390477,-99.25454,9.34299,-22.740973
97,-0.2381700724363327,0.5021305680274963,78.82096099853516,-0.2742076946554851,4.868529905455128,-87.94961599994969,-0.19912732,6.2217126,23.02324,7.03858,-9.050065,-4.8435707,-0.7467383,-3.6243074,-10.665472,6.945945,-9.882865,3.5674863,-1.211444,-1.6829509,-0.7335873,21.318611,11.732465,-97.732185,29.285414,25.793823,-12.238446,-12.503078,22.37244,-13.36742,83.299324,10.374193,-99.290344,9.342046,-22.733084
98,-0.2374192178249359,0.49924302101135254,78.81936645507812,-0.267978201433494,4.873074864464325,-87.93914751053931,-0.19974937,6.2168922,23.03214,7.0390563,-9.058583,-4.82993,-0.7475329,-3.6340349,-10.674191,6.944922,-9.877526,3.5870495,-1.2103497,-1.6920215,-0.73444295,21.32208,11.732525,-97.73078,29.28884,25.798647,-12.24288,-12.501622,22.375793,-13.368048,83.294945,10.361283,-99.322235,9.339147,-22.723614
99,-0.23725877702236176,0.49628183245658875,78.81761169433594,-0.2615295472498317,4.878159788297271,-87.92814770004958,-0.20145307,6.210953,23.03908,7.039098,-9.066413,-4.816921,-0.7490172,-3.644588,-10.683677,6.94474,-9.873079,3.607176,-1.2095325,-1.7020407,-0.7358864,21.328693,11.732931,-97.72848,29.293041,25.805935,-12.248333,-12.501014,22.382814,-13.369467,83.287384,10.345849,-99.3585,9.332466,-22.714027
100,-0.2379688024520874,0.49387165904045105,78.81669616699219,-0.25795348068262997,4.8848696124965825,-87.91774585518854,-0.20722285,6.205629,23.037033,7.038576,-9.071666,-4.810167,-0.7517534,-3.6522787,-10.693388,6.9442368,-9.872953,3.619807,-1.2100369,-1.7079545,-0.73648745,21.331905,11.733157,-97.72817,29.29451,25.809393,-12.250773,-12.500557,22.38344,-13.369993,83.2856,10.338457,-99.38995,9.330923,-22.710966
101,-0.23581232130527496,0.48985755443573,78.81604766845703,-0.2582903590640424,4.893988372602611,-87.90674522848926,-0.21954413,6.2004085,23.020044,7.036956,-9.072465,-4.8126936,-0.7567485,-3.6561754,-10.705192,6.944051,-9.87986,3.6200926,-1.2100637,-1.7115477,-0.7360852,21.332481,11.733711,-97.72832,29.298265,25.813005,-12.250895,-12.502104,22.385857,-13.371431,83.281746,10.329755,-99.42945,9.327728,-22.709925
102,-0.23197954893112183,0.48925089836120605,78.81607818603516,-0.2612994944281721,4.904400769298973,-87.89591887417131,-0.23582748,6.1953197,22.993763,7.0349903,-9.0708065,-4.8210697,-0.76295424,-3.657518,-10.717919,6.9447865,-9.891872,3.6129868,-1.2098602,-1.7116838,-0.7346973,21.331593,11.734182,-97.73002,29.300745,25.81578,-12.248688,-12.50474,22.385132,-13.373084,83.278885,10.324846,-99.467224,9.326107,-22.714277
103,-0.22682033479213715,0.4861863851547241,78.81668090820312,-0.26493520041760893,4.9150971315332015,-87.88643518711824,-0.25224206,6.190399,22.967085,7.033144,-9.069934,-4.8310704,-0.7695404,-3.6582432,-10.729115,6.944843,-9.903863,3.606058,-1.2099277,-1.7111765,-0.7345455,21.332735,11.734266,-97.730804,29.302814,25.817808,-12.247302,-12.507231,22.383347,-13.373557,83.2787,10.323233,-99.50159,9.325682,-22.720358
104,-0.22267445921897888,0.4849371612071991,78.81664276123047,-0.2661964138309886,4.928152876258012,-87.87583355787599,-0.26909694,6.183989,22.945126,7.0298824,-9.070286,-4.837634,-0.7786043,-3.6616988,-10.7397995,6.944334,-9.912136,3.6071072,-1.2125481,-1.7131187,-0.7346592,21.332504,11.734332,-97.73211,29.303911,25.818003,-12.2478485,-12.505737,22.382948,-13.37413,83.27768,10.318514,-99.54462,9.324387,-22.726355
105,-0.21996067464351654,0.48147109150886536,78.8155746459961,-0.26519914311706083,4.941420037068057,-87.86786205908824,-0.28322244,6.1774383,22.932766,7.026411,-9.073782,-4.8382325,-0.7895734,-3.6669571,-10.745804,6.9444585,-9.915159,3.6186414,-1.2117485,-1.7168185,-0.7358931,21.334251,11.734602,-97.73453,29.304092,25.817566,-12.253629,-12.50012,22.383844,-13.375517,83.27349,10.31236,-99.586914,9.321602,-22.736649
106,-0.2169569730758667,0.4763109087944031,78.81475067138672,-0.26272211594421657,4.955830386864666,-87.86104157269935,-0.2972374,6.1704893,22.92485,7.0235047,-9.079253,-4.8356647,-0.8022167,-3.6736307,-10.749305,6.9435625,-9.9140005,3.636573,-1.2094911,-1.7216495,-0.7380488,21.335585,11.735133,-97.73856,29.303017,25.814846,-12.262476,-12.491689,22.386303,-13.377134,83.2668,10.304194,-99.63135,9.316879,-22.749144
107,-0.2134479582309723,0.4729466438293457,78.81365966796875,-0.26015360147553906,4.970543898739126,-87.85399915235284,-0.30979285,6.163705,22.919947,7.019455,-9.086557,-4.8348923,-0.81466144,-3.6806576,-10.752424,6.942475,-9.913116,3.6575282,-1.2108155,-1.726337,-0.7420166,21.339489,11.735379,-97.74,29.300684,25.811243,-12.271081,-12.483094,22.38691,-13.377648,83.26485,10.297377,-99.673546,9.314502,-22.75976
108,-0.20985710620880127,0.47057008743286133,78.81190490722656,-0.2583565841166823,4.984710614098107,-87.84539788327056,-0.31940758,6.1569037,22.916721,7.0139008,-9.096689,-4.840681,-0.82474846,-3.6882,-10.757065,6.9420457,-9.916857,3.6783981,-1.2140685,-1.7296331,-0.74901325,21.346407,11.7362995,-97.74168,29.297237,25.805162,-12.276556,-12.477096,22.388447,-13.379013,83.26369,10.288791,-99.71323,9.313138,-22.763311
109,-0.2062017321586609,0.4671311378479004,78.81002807617188,-0.2572273548057965,4.9977672510387325,-87.83333756539044,-0.32595146,6.150766,22.915728,7.0081687,-9.110659,-4.8546596,-0.83061624,-3.6961715,-10.765112,6.9407244,-9.925447,3.6988282,-1.2244368,-1.7296762,-0.7592014,21.354475,11.736616,-97.74179,29.29083,25.791649,-12.278297,-12.476112,22.387451,-13.379418,83.26815,10.281229,-99.74688,9.315083,-22.757343
110,-0.1963738650083542,0.45932134985923767,78.80872344970703,-0.2559014816187404,5.009973313738681,-87.81896547050619,-0.3286285,6.1440396,22.91739,6.9995484,-9.128287,-4.874111,-0.8342462,-3.7057304,-10.774957,6.940984,-9.938501,3.7205672,-1.2486181,-1.7299336,-0.7757546,21.370205,11.737675,-97.735115,29.279709,25.772589,-12.2762165,-12.476505,22.385523,-13.380781,83.29329,10.274263,-99.77566,9.326913,-22.742517
111,-0.18937867879867554,0.4510577917098999,78.80715942382812,-0.2560303048172855,5.022850275416153,-87.80573583443723,-0.33141038,6.1386037,22.919786,6.992093,-9.147574,-4.8975773,-0.83759,-3.7139528,-10.7839365,6.9396596,-9.952041,3.7426648,-1.2690804,-1.7297899,-0.791338,21.384047,11.738325,-97.72766,29.270603,25.755856,-12.273433,-12.478588,22.38184,-13.381628,83.312355,10.265792,-99.803,9.33547,-22.725985
112,-0.18326528370380402,0.44359198212623596,78.8042221069336,-0.2579436652818887,5.0372708977821405,-87.79703975178882,-0.33531594,6.135251,22.921408,6.98445,-9.168738,-4.9238997,-0.844252,-3.7198806,-10.788949,6.9391446,-9.965258,3.7646143,-1.2872626,-1.7331505,-0.8058992,21.398483,11.739447,-97.7126,29.264467,25.748604,-12.269386,-12.479401,22.37635,-13.382798,83.33437,10.253942,-99.82996,9.344052,-22.711971
113,-0.17450536787509918,0.43680429458618164,78.80296325683594,-0.2624777543507164,5.054045472069216,-87.79189608265354,-0.34184226,6.1344066,22.91999,6.976791,-9.190943,-4.9536595,-0.85456306,-3.7223768,-10.791083,6.9386015,-9.977299,3.7861085,-1.2936938,-1.7376205,-0.8193643,21.408798,11.740263,-97.700516,29.263288,25.751207,-12.263629,-12.479038,22.370157,-13.383248,83.342514,10.237139,-99.85735,9.34678,-22.701921
114,-0.1657734215259552,0.4286865293979645,78.79824829101562,-0.2679583344298356,5.072475967642038,-87.78965067276624,-0.34982866,6.134802,22.917738,6.969862,-9.215324,-4.987324,-0.8665231,-3.7233007,-10.790706,6.9374385,-9.989286,3.8074226,-1.2917047,-1.743618,-0.8332168,21.415686,11.740882,-97.69192,29.265306,25.75804,-12.255833,-12.477415,22.364523,-13.383364,83.34392,10.216315,-99.88472,9.347265,-22.691149
115,-0.1586894690990448,0.41988423466682434,78.79279327392578,-0.2736599645369577,5.091360773095312,-87.7920596135879,-0.35757142,6.1353097,22.91696,6.96328,-9.242949,-5.022685,-0.88035804,-3.7240481,-10.785929,6.936366,-10.001347,3.8293068,-1.2882807,-1.7539054,-0.84283036,21.42208,11.742513,-97.673065,29.269562,25.772352,-12.248765,-12.476846,22.357313,-13.383407,83.343475,10.193055,-99.91405,9.3432865,-22.683435
116,-0.1514725536108017,0.4123793840408325,78.7887954711914,-0.280035142080015,5.1103286272156625,-87.80061718377826,-0.3655716,6.136283,22.919857,6.9597845,-9.276151,-5.057777,-0.89626163,-3.7247312,-10.775525,6.9354763,-10.013719,3.8520656,-1.2814525,-1.7646369,-0.8448763,21.424028,11.744885,-97.65312,29.27358,25.787203,-12.241751,-12.47172,22.348537,-13.383149,83.34141,10.172242,-99.945366,9.337633,-22.681664
117,-0.14107102155685425,0.4052446782588959,78.7843246459961,-0.2874212684735028,5.127661646051544,-87.82013771700122,-0.37109134,6.1393766,22.929405,6.958533,-9.31638,-5.0968986,-0.91342014,-3.7235901,-10.75537,6.9344134,-10.026607,3.8735836,-1.2651606,-1.7764527,-0.8351335,21.41784,11.746872,-97.635605,29.280033,25.79913,-12.232883,-12.457406,22.33904,-13.382635,83.33592,10.154357,-99.98177,9.331169,-22.684883
118,-0.12604109942913055,0.3966690003871918,78.77886199951172,-0.2958485846407401,5.144218671054531,-87.84819715576714,-0.37508252,6.144218,22.94357,6.959135,-9.362361,-5.1395273,-0.9325207,-3.7209523,-10.727511,6.9336095,-10.039648,3.8943923,-1.2414331,-1.7896092,-0.8165779,21.406443,11.748708,-97.617516,29.288921,25.812044,-12.222771,-12.4371395,22.328112,-13.381803,83.326996,10.137748,-100.0212,9.322814,-22.6941
119,-0.11507166922092438,0.3928689658641815,78.77367401123047,-0.3036077737669532,5.1625060620223255,-87.8760726578756,-0.38225406,6.146712,22.957203,6.9629498,-9.411355,-5.176388,-0.952782,-3.7207427,-10.699522,6.932549,-10.053828,3.918822,-1.2212715,-1.8040795,-0.79386276,21.392767,11.752122,-97.59072,29.295889,25.831213,-12.216444,-12.421813,22.313562,-13.379663,83.31385,10.122949,-100.060905,9.307382,-22.706135
120,-0.10403711348772049,0.3915993869304657,78.76779174804688,-0.3087330377217883,5.185675837156386,-87.89502597570593,-0.39703485,6.141994,22.96533,6.970808,-9.460904,-5.198123,-0.9752041,-3.727919,-10.67876,6.932388,-10.070545,3.9515395,-1.208081,-1.8173367,-0.7849018,21.388449,11.754629,-97.58102,29.301971,25.850677,-12.209255,-12.403498,22.306353,-13.377891,83.31017,10.11059,-100.093666,9.299662,-22.715374
121,-0.08811891078948975,0.38333356380462646,78.761962890625,-0.3111555658949114,5.215375264708623,-87.90269612973668,-0.42349708,6.1289983,22.965487,6.9847455,-9.511251,-5.2000246,-1.0002548,-3.7432513,-10.666749,6.9307003,-10.088242,3.9966326,-1.208645,-1.8285135,-0.7893707,21.390394,11.757549,-97.5802,29.30458,25.876566,-12.205247,-12.390664,22.29984,-13.376071,83.31349,10.102025,-100.11711,9.2916155,-22.72278
122,-0.06467156112194061,0.37129077315330505,78.7558822631836,-0.3103902482074874,5.249033437186652,-87.90420402581853,-0.4563633,6.1083703,22.96138,7.0018606,-9.56155,-5.1875496,-1.0271624,-3.7659454,-10.658975,6.9292574,-10.108003,4.0511084,-1.2169443,-1.83905,-0.8028013,21.397814,11.759759,-97.58763,29.3051,25.907175,-12.202406,-12.380019,22.295658,-13.37506,83.32182,10.097351,-100.13467,9.284124,-22.729076
123,-0.03967444971203804,0.3587723970413208,78.7487564086914,-0.3095738234035382,5.2860077807611905,-87.90001393639591,-0.49370146,6.0854516,22.953896,7.022123,-9.613816,-5.1676874,-1.0553393,-3.791324,-10.65672,6.9286637,-10.129857,4.1072593,-1.2293038,-1.8497107,-0.82091933,21.409798,11.763325,-97.60214,29.304012,25.934872,-12.199296,-12.364797,22.295176,-13.373968,83.33702,10.09186,-100.14897,9.284164,-22.734314
124,-0.010897384025156498,0.3429088890552521,78.74169921875,-0.3092383519133717,5.323149424287606,-87.89155630017568,-0.5312864,6.0629306,22.94542,7.044916,-9.664734,-5.1469436,-1.0804567,-3.8175142,-10.659885,6.9284797,-10.154361,4.1580215,-1.2404752,-1.8637325,-0.833013,21.422071,11.7651415,-97.6107,29.306936,25.956554,-12.200053,-12.348899,22.298393,-13.373491,83.346306,10.079687,-100.16793,9.284464,-22.742073
125,0.015879198908805847,0.32477641105651855,78.73512268066406,-0.31059776216867196,5.360884237524848,-87.87564887520129,-0.56935996,6.0444946,22.936018,7.0720797,-9.713335,-5.1270533,-1.1014441,-3.8419662,-10.672303,6.9285517,-10.181815,4.1981354,-1.2531111,-1.8829366,-0.844468,21.44041,11.771355,-97.62035,29.310837,25.971615,-12.203528,-12.323306,22.309187,-13.371616,83.36365,10.060804,-100.188065,9.298808,-22.750427
126,0.04099790379405022,0.30565759539604187,78.72697448730469,-0.3120214294600522,5.399015077713336,-87.8532072161944,-0.608009,6.026528,22.925156,7.102707,-9.760325,-5.104347,-1.1188523,-3.867865,-10.691986,6.9290237,-10.212012,4.232849,-1.266728,-1.9058784,-0.85107476,21.459192,11.774587,-97.623795,29.320856,25.984888,-12.213517,-12.2985935,22.324219,-13.370362,83.37331,10.03579,-100.21197,9.311877,-22.761517
127,0.06882808357477188,0.2831134796142578,78.71978759765625,-0.3134955010814569,5.439598433820031,-87.82962141786037,-0.65007406,6.005963,22.911459,7.135207,-9.808455,-5.0777903,-1.1376613,-3.8959486,-10.713497,6.9294105,-10.243668,4.2695527,-1.2794539,-1.9286311,-0.85515505,21.47864,11.778072,-97.62655,29.329712,25.990322,-12.221625,-12.272326,22.339134,-13.368809,83.38292,10.009364,-100.23777,9.325831,-22.770262
128,0.10334227979183197,0.2639656364917755,78.71309661865234,-0.31424526425150434,5.484044025669888,-87.81056826471438,-0.69785565,5.9786134,22.89363,7.165871,-9.858756,-5.046334,-1.1620909,-3.9283605,-10.730961,6.9292297,-10.276158,4.3158174,-1.2891831,-1.9489297,-0.8578507,21.497938,11.785534,-97.62896,29.330156,25.983463,-12.221736,-12.245913,22.350082,-13.365391,83.39435,9.986483,-100.26469,9.338494,-22.774422
129,0.1325896829366684,0.2509605288505554,78.70619201660156,-0.31278035090321904,5.532619343614723,-87.7999705897062,-0.75360435,5.941868,22.871477,7.1962442,-9.91154,-5.0049076,-1.1945664,-3.966545,-10.739816,6.929008,-10.308901,4.3762627,-1.2922575,-1.9646168,-0.85233885,21.50912,11.7883215,-97.63302,29.32549,25.951586,-12.210337,-12.219904,22.3512,-13.364093,83.397064,9.963738,-100.29715,9.340553,-22.771187
130,0.17484380304813385,0.2296939492225647,78.6962890625,-0.3108643368074335,5.58557059295026,-87.79353043283177,-0.8177072,5.8999224,22.844997,7.22857,-9.966217,-4.9547234,-1.2338482,-4.008271,-10.744842,6.9285736,-10.3421545,4.4456925,-1.2879779,-1.9775448,-0.8430421,21.51572,11.795169,-97.64551,29.31351,25.899366,-12.189973,-12.189353,22.348118,-13.361145,83.395096,9.940134,-100.332886,9.339753,-22.762922
131,0.22495509684085846,0.21201123297214508,78.6877670288086,-0.30932719842788975,5.640695096685343,-87.78620576474053,-0.8825293,5.8541746,22.815336,7.259135,-10.024512,-4.9078774,-1.2731793,-4.053156,-10.751759,6.9276094,-10.37763,4.5176587,-1.2794026,-1.9865214,-0.8321938,21.522493,11.800671,-97.6545,29.300758,25.85075,-12.169436,-12.164522,22.347475,-13.358896,83.38577,9.918716,-100.3702,9.334924,-22.753109
132,0.27475714683532715,0.1896631419658661,78.67867279052734,-0.30982376079228624,5.696940368864449,-87.77208953501506,-0.9799373,5.823261,22.77953,7.3712993,-10.133867,-4.872937,-1.3088624,-4.1005483,-10.767331,6.9273834,-10.4174185,4.5856404,-1.2719452,-1.9912568,-0.8246023,21.533497,11.803278,-97.65351,29.293638,25.82553,-12.155839,-12.150464,22.354586,-13.357944,83.376175,9.905578,-100.40529,9.332553,-22.747185
133,0.3216135501861572,0.17307551205158234,78.66924285888672,-0.312776398153619,5.756920570516583,-87.74823051614115,-1.1176268,5.810521,22.735298,7.5776806,-10.301886,-4.8541985,-1.3416164,-4.149623,-10.792821,6.927532,-10.464588,4.6510077,-1.261299,-1.989711,-0.8229111,21.551044,11.808908,-97.638565,29.286575,25.837284,-12.152373,-12.156265,22.376123,-13.356218,83.34964,9.901914,-100.44018,9.325218,-22.747528
134,0.3781181275844574,0.14270678162574768,78.65730285644531,-0.316770741663083,5.819897149813674,-87.71852498627311,-1.2468776,5.7921195,22.688707,7.7648206,-10.4671,-4.8453245,-1.3727865,-4.201684,-10.824489,6.9274487,-10.5170355,4.7163854,-1.2496368,-1.983886,-0.82382447,21.573874,11.818293,-97.60816,29.275583,25.875305,-12.155357,-12.179249,22.40647,-13.354157,83.312805,9.907537,-100.47668,9.311906,-22.75115
135,0.44010496139526367,0.09648317098617554,78.64492797851562,-0.3229638606486546,5.881590170205226,-87.68621345568866,-1.3635476,5.7695484,22.642746,7.9332643,-10.628455,-4.8421893,-1.3995429,-4.2558284,-10.863152,6.927659,-10.568888,4.7764506,-1.2374215,-1.9742426,-0.8247378,21.596443,11.821185,-97.5863,29.27254,25.913885,-12.157249,-12.194393,22.436567,-13.3536825,83.29246,9.91577,-100.50636,9.3135195,-22.751451
136,0.5092460513114929,0.06122490018606186,78.6352310180664,-0.3316018982475837,5.936425347111971,-87.65506974149241,-1.4632176,5.744348,22.600895,8.08537,-10.785657,-4.8407273,-1.4191062,-4.3119664,-10.909239,6.92838,-10.613162,4.826294,-1.2199378,-1.9623469,-0.81216,21.611145,11.826371,-97.551796,29.269863,25.954575,-12.167121,-12.213588,22.459152,-13.352986,83.26258,9.919015,-100.539185,9.301155,-22.750645
137,0.5813667178153992,0.03169669210910797,78.62645721435547,-0.34507658907892835,5.982197329309028,-87.62925626041968,-1.5422552,5.7197695,22.56853,8.219126,-10.937583,-4.8442745,-1.4305516,-4.3669086,-10.964742,6.9285893,-10.6460495,4.860193,-1.1941739,-1.9450736,-0.78329206,21.615494,11.8318205,-97.52675,29.265543,25.990234,-12.170904,-12.209138,22.468782,-13.35215,83.24311,9.918405,-100.56594,9.292774,-22.744112
138,0.6546440720558167,-0.0035542775876820087,78.6157455444336,-0.3628913093166365,6.022070558608514,-87.60571913275976,-1.6041323,5.694541,22.54224,8.334993,-11.085021,-4.853616,-1.4355528,-4.4213753,-11.028971,6.928763,-10.672107,4.882411,-1.1617582,-1.9224888,-0.74408853,21.612612,11.837153,-97.50814,29.261017,26.024961,-12.171456,-12.190186,22.47224,-13.3510895,83.23021,9.917574,-100.58882,9.288138,-22.733603
139,0.71981281042099,-0.04067779332399368,78.60751342773438,-0.38053508411388315,6.059065012112758,-87.57734466634771,-1.6487412,5.6601524,22.513254,8.423834,-11.223585,-4.860533,-1.4338249,-4.4799953,-11.0982895,6.9301505,-10.696726,4.9026556,-1.1268982,-1.8986572,-0.7030377,21.605986,11.841509,-97.49077,29.262732,26.05283,-12.183486,-12.182713,22.474607,-13.3498535,83.21995,9.91306,-100.611755,9.284383,-22.719942
140,0.807807981967926,-0.091657355427742,78.59882354736328,-0.39419159819550115,6.096248378699512,-87.53709059405107,-1.6776788,5.6088634,22.47246,8.480159,-11.350299,-4.8568807,-1.4229807,-4.547224,-11.169311,6.9305973,-10.724311,4.9306684,-1.0925452,-1.8778455,-0.669968,21.600227,11.843667,-97.47437,29.277666,26.067162,-12.220376,-12.209545,22.483711,-13.349143,83.21087,9.90489,-100.63989,9.282346,-22.702309
141,0.9031256437301636,-0.15436196327209473,78.58673095703125,-0.40023323762487567,6.132429705845806,-87.4831539480362,-1.6965572,5.538039,22.416103,8.519029,-11.473718,-4.8336444,-1.400867,-4.6254253,-11.239275,6.9322166,-10.764129,4.9742556,-1.0628643,-1.8652807,-0.6386422,21.591188,11.849073,-97.43456,29.308784,26.0788,-12.302011,-12.280172,22.492712,-13.347372,83.19009,9.890067,-100.678894,9.266642,-22.678259
142,0.9902770519256592,-0.21373972296714783,78.57121276855469,-0.39853156312594634,6.16672904455549,-87.41933920035717,-1.7043772,5.449559,22.349825,8.54178,-11.594705,-4.7972097,-1.3684094,-4.714483,-11.310471,6.9344153,-10.811369,5.026918,-1.0337406,-1.8591851,-0.61198777,21.581833,11.854947,-97.39286,29.352169,26.083178,-12.412009,-12.374387,22.505737,-13.345413,83.17091,9.868517,-100.72287,9.249928,-22.648602
143,1.0797754526138306,-0.26912403106689453,78.5562515258789,-0.3923596106929898,6.201456738498885,-87.34633870190527,-1.7024918,5.3495784,22.27713,8.546394,-11.710511,-4.7637057,-1.3438127,-4.8151684,-11.38704,6.964791,-10.865094,5.0765305,-1.0073247,-1.8574404,-0.58823955,21.571789,11.862787,-97.344154,29.393682,26.073252,-12.529529,-12.509295,22.52063,-13.343145,83.15354,9.850081,-100.7678,9.233564,-22.619446
144,1.1679385900497437,-0.32695963978767395,78.53582000732422,-0.3766305131568532,6.239240692078245,-87.2652547946067,-1.6958938,5.2379584,22.203323,8.539344,-11.823832,-4.7486,-1.3403827,-4.935263,-11.471608,7.038851,-10.917498,5.111959,-0.9841981,-1.8635669,-0.5690614,21.559166,11.870136,-97.29581,29.419525,26.035583,-12.630614,-12.697655,22.53854,-13.341479,83.14279,9.838196,-100.80799,9.223179,-22.59951
145,1.270338535308838,-0.3964730203151703,78.51482391357422,-0.3627415655407652,6.2800893411083445,-87.1735161910049,-1.6738285,5.1233654,22.12745,8.497313,-11.923996,-4.76869,-1.3424414,-5.0623155,-11.581654,7.124929,-10.954488,5.126491,-0.9703676,-1.8659409,-0.5570545,21.5432,11.879063,-97.2218,29.422674,25.979372,-12.726161,-12.99829,22.555864,-13.341373,83.14091,9.8384905,-100.83745,9.214898,-22.582735
146,1.3706846237182617,-0.4609801769256592,78.49324035644531,-0.3470146519068145,6.323422681791521,-87.07192423130388,-1.6360438,4.9997582,22.04856,8.419905,-12.010893,-4.8109837,-1.4906954,-5.22754,-11.697,7.530568,-11.147002,5.128972,-0.94587773,-1.8640718,-0.554182,21.520267,11.881392,-97.16416,29.422354,25.895374,-12.816872,-13.37316,22.582323,-13.342596,83.13341,9.8435755,-100.86158,9.212154,-22.568035
147,1.4744645357131958,-0.5468665361404419,78.46514892578125,-0.30754512174938753,6.370838039006899,-86.96792558363366,-1.5856587,4.841642,21.974306,8.30826,-12.08226,-4.8449993,-2.0330775,-5.5007634,-11.76066,8.7795925,-11.755619,5.131347,-0.94704163,-1.8951608,-0.5475407,21.507845,11.885438,-97.07155,29.41026,25.796682,-12.889542,-13.744724,22.600565,-13.347839,83.15042,9.848376,-100.88933,9.210406,-22.565512
148,1.559462308883667,-0.6169266700744629,78.43011474609375,-0.22160502281020983,6.425030677642453,-86.86913047470671,-1.5265177,4.621752,21.912502,8.163728,-12.136304,-4.8398776,-2.715858,-5.847015,-11.761657,10.311093,-12.470564,5.1433578,-0.9290373,-1.9766039,-0.53838736,21.50211,11.886579,-97.055214,29.399488,25.649185,-12.905154,-13.980409,22.632156,-13.349909,83.16508,9.851108,-100.933395,9.223824,-22.583673
149,1.6619116067886353,-0.6877149343490601,78.38512420654297,-0.06569942883956828,6.491560840577106,-86.77488225207252,-1.4505067,4.3054824,21.866072,7.9495115,-12.151982,-4.7834554,-3.5532506,-6.2868257,-11.655478,12.15587,-13.366072,5.1818705,-0.925843,-2.1412241,-0.5314283,21.520014,11.891249,-97.0817,29.376638,25.416216,-12.839375,-14.044172,22.66603,-13.352999,83.21766,9.850778,-100.998116,9.259787,-22.633936
150,1.7581329345703125,-0.7626753449440002,78.33385467529297,0.14599365678377726,6.567237795720714,-86.681850194793,-1.354388,3.910485,21.830835,7.6660314,-12.131132,-4.6926413,-4.519393,-6.8030953,-11.468764,14.26004,-14.400881,5.236041,-0.91833353,-2.367356,-0.52669024,21.546833,11.898009,-97.162506,29.344181,25.109941,-12.711553,-13.992003,22.707869,-13.353621,83.28039,9.850803,-101.07944,9.309803,-22.70787
151,1.856440544128418,-0.8401733040809631,78.2699203491211,0.3829438610383997,6.642039166895971,-86.59408989221328,-1.2872468,3.4987228,21.802835,7.4560986,-12.151604,-4.579877,-5.600292,-7.3717265,-11.267475,16.583574,-15.434381,5.2755423,-0.8972512,-2.6250038,-0.5128428,21.580322,11.911729,-97.26976,29.308535,24.834908,-12.573718,-13.886655,22.758541,-13.350342,83.34192,9.846526,-101.16453,9.369245,-22.784687
152,1.9553743600845337,-0.9056503176689148,78.20148468017578,0.6157023610367166,6.705291618479706,-86.51562741633761,-1.2919555,3.1292622,21.780045,7.448717,-12.2829895,-4.4574504,-6.7722945,-7.969354,-11.1186075,19.072569,-16.316507,5.270661,-0.86661625,-2.887721,-0.46977922,21.613617,11.926241,-97.339676,29.285671,24.704031,-12.487248,-13.809587,22.808718,-13.34421,83.38425,9.8318815,-101.24405,9.414493,-22.843012
153,2.0540103912353516,-0.9764522314071655,78.13114166259766,0.8536180883542799,6.751678695838045,-86.44824116031408,-1.2702899,2.7527897,21.77253,7.435784,-12.419345,-4.3183985,-8.0341215,-8.611757,-11.053905,21.737865,-17.047585,5.2047043,-0.8436912,-3.1770444,-0.39274403,21.660162,11.93395,-97.34492,29.287146,24.80548,-12.468377,-13.738474,22.807919,-13.340105,83.362946,9.544643,-102.49265,9.474613,-22.831266
154,2.159303903579712,-1.056999683380127,78.06312561035156,1.1093118360824843,6.7876081461192666,-86.39029630287895,-1.2353423,2.3555996,21.77927,7.426104,-12.563281,-4.158832,-9.3865385,-9.30847,-11.025883,24.579756,-17.683025,5.09391,-0.77678937,-3.4962685,-0.2863934,21.700117,11.97982,-97.345634,29.269405,25.062466,-12.48913,-13.66124,22.799286,-13.320642,83.220535,9.073355,-104.532875,9.506584,-22.780012
155,2.264577627182007,-1.1313763856887817,77.9860610961914,1.3567863776458184,6.819527542104854,-86.33689424965088,-1.1955744,1.9683168,21.791018,7.418455,-12.707477,-3.9932344,-10.802026,-10.0228,-10.991757,27.523157,-18.155273,4.963364,-0.7158778,-3.8060591,-0.16523565,21.737339,12.040157,-97.334984,29.239386,25.331472,-12.52444,-13.618081,22.83889,-13.290851,83.200096,8.955133,-104.98766,9.534415,-22.777962
156,2.360483169555664,-1.2050023078918457,77.91627502441406,1.5703232756413048,6.8545754208884295,-86.28491882489881,-1.1605885,1.6220981,21.800447,7.4172134,-12.848689,-3.836287,-12.264565,-10.714007,-10.909749,30.513796,-18.400408,4.8456717,-0.6597455,-4.063281,-0.041191153,21.76297,12.103706,-97.33588,29.202265,25.472326,-12.556235,-13.665296,23.013647,-13.240847,83.453896,9.722316,-101.502785,9.532825,-22.92281
157,2.4641313552856445,-1.2811931371688843,77.8516616821289,1.745998095738349,6.891776192571864,-86.23817884584506,-1.1283113,1.3201233,21.811298,7.421057,-12.986019,-3.6833916,-13.81324,-11.370846,-10.740154,33.634926,-18.376259,4.7401276,-0.59451556,-4.2503066,0.100796364,21.761793,12.164579,-97.35555,29.15659,25.437,-12.588886,-13.8691635,23.39828,-13.1523695,84.16377,11.965459,-91.24644,9.414659,-23.254906
158,2.588670253753662,-1.368798017501831,77.7891845703125,1.8957494335378848,6.928314545200927,-86.19715363061832,-1.0951165,1.0483332,21.825607,7.4301844,-13.122618,-3.5298474,-15.43883,-11.998152,-10.520223,36.874466,-18.1171,4.65623,-0.5138196,-4.377024,0.27830857,21.725391,12.219619,-97.390335,29.102375,25.305758,-12.631153,-14.183564,23.904846,-13.016415,85.172615,15.23969,-75.87603,9.119964,-23.626225
159,2.6900200843811035,-1.4504731893539429,77.73629760742188,2.0174577018653137,6.968736755068046,-86.15336983874461,-1.0658873,0.8116584,21.833096,7.443414,-13.255247,-3.3905706,-17.05586,-12.585641,-10.324443,40.04196,-17.682997,4.633896,-0.4390649,-4.44717,0.46209574,21.673073,12.2659,-97.44641,29.0438,25.12569,-12.668734,-14.492097,24.396156,-12.845332,86.13032,18.552471,-60.26261,8.7305765,-23.899126
160,2.793631076812744,-1.5382130146026611,77.68730163574219,2.1082746040177116,7.017746102668956,-86.09823546543647,-1.0450625,0.6165117,21.82355,7.4587855,-13.381012,-3.280571,-18.588211,-13.138744,-10.222274,42.970333,-17.147034,4.6890516,-0.39490965,-4.49232,0.61490446,21.627554,12.302002,-97.523674,29.006811,24.93481,-12.685508,-14.678043,24.761196,-12.663301,86.74996,20.93529,-49.252583,8.422039,-24.12926
161,2.8934013843536377,-1.6299220323562622,77.64600372314453,2.1607562784352528,7.0824853487449415,-86.02837555879269,-1.042772,0.4731712,21.793964,7.478786,-13.498188,-3.2109258,-20.050764,-13.684466,-10.234133,45.700214,-16.425934,4.853257,-0.383491,-4.532604,0.7350835,21.590883,12.328687,-97.649376,29.017624,24.67354,-12.6549635,-14.676905,24.968145,-12.486714,86.971016,21.99305,-44.101147,8.281874,-24.53024
162,2.997073173522949,-1.7433093786239624,77.60972595214844,2.177231950682975,7.1588811155173415,-85.94885475573773,-1.0533731,0.3767244,21.750006,7.5032687,-13.609005,-3.1716313,-21.483404,-14.225211,-10.316062,48.32054,-15.52839,5.088672,-0.38970375,-4.556027,0.83957183,21.54781,12.347246,-97.81847,29.06379,24.339165,-12.592184,-14.559907,25.088684,-12.32124,86.963264,22.271654,-42.09951,8.238972,-25.097246
163,3.093116283416748,-1.8575456142425537,77.57943725585938,2.170046928636355,7.235504748017013,-85.86342284555957,-1.0591217,0.3110414,21.694693,7.527575,-13.715847,-3.1461806,-22.8504,-14.739433,-10.443169,50.743694,-14.669818,5.2958717,-0.40847552,-4.5624843,0.9319386,21.502867,12.357993,-97.9699,29.128344,24.076788,-12.542567,-14.41198,25.168564,-12.169471,86.8344,22.211847,-41.60631,8.245596,-25.675695
164,3.1797685623168945,-1.978477120399475,77.5479965209961,2.153071676543317,7.3010742097814365,-85.77593506393642,-1.0430675,0.25879198,21.631586,7.5497355,-13.822706,-3.117747,-24.114021,-15.204249,-10.596204,52.873608,-14.062145,5.3845544,-0.43540478,-4.551312,1.0140742,21.460854,12.360742,-98.044044,29.19442,24.03088,-12.55031,-14.318597,25.252115,-12.032578,86.68796,22.258444,-41.04132,8.23279,-26.085617
165,3.2809131145477295,-2.1215639114379883,77.51306915283203,2.132010894893623,7.356833596952872,-85.68418227326818,-1.0058215,0.21224245,21.55892,7.56906,-13.928723,-3.0803804,-25.273144,-15.660139,-10.821336,54.74749,-13.807096,5.2611666,-0.4773968,-4.5275455,1.0771024,21.420362,12.353379,-97.999,29.263903,24.343803,-12.64889,-14.301934,25.34622,-11.912252,86.51373,22.475763,-40.283154,8.191552,-26.2487
166,3.371708869934082,-2.2764854431152344,77.49298095703125,2.0997447354431533,7.4073344992655885,-85.58724391020397,-0.9548336,0.181251,21.475788,7.5878396,-14.032841,-3.0435102,-26.34311,-16.110723,-11.116448,56.396534,-13.779058,4.9937105,-0.53843254,-4.492184,1.1228437,21.380527,12.33419,-97.87071,29.346893,24.903578,-12.807714,-14.315802,25.42841,-11.809504,86.274925,22.640812,-40.07769,8.170068,-26.273708
167,3.450437307357788,-2.4326012134552,77.48416900634766,2.045899425768558,7.446582479449996,-85.4908332065698,-0.88200855,0.17863084,21.386377,7.603963,-14.1370535,-3.0133762,-27.316599,-16.466782,-11.396104,57.721664,-13.842558,4.746071,-0.6069386,-4.4329243,1.1699545,21.350286,12.304652,-97.71732,29.436983,25.47642,-12.974226,-14.344713,25.494852,-11.723577,86.03185,22.7744,-40.14379,8.161365,-26.24691
168,3.5158281326293945,-2.593005895614624,77.4805908203125,1.9606372886357113,7.468560521298318,-85.40091001441836,-0.7787203,0.21684821,21.295345,7.6152234,-14.243578,-2.9961789,-28.186163,-16.63434,-11.577351,58.61709,-13.859652,4.687099,-0.6729053,-4.338226,1.2362732,21.337564,12.2697115,-97.59563,29.523764,25.82696,-13.095266,-14.375729,25.5425,-11.654352,85.847145,22.895203,-40.200325,8.157396,-26.254396
169,3.5914201736450195,-2.770484447479248,77.481689453125,1.8347723523157693,7.4655361137820035,-85.31400575259873,-0.66350526,0.3171842,21.19649,7.6833706,-14.384196,-2.9928403,-28.939857,-16.54671,-11.607634,59.0294,-13.840768,4.9093895,-0.73723465,-4.197229,1.3293906,21.344696,12.229018,-97.52162,29.61015,25.848595,-13.151252,-14.413493,25.572578,-11.59239,85.724815,23.015099,-40.2391,8.157997,-26.320358
170,3.6728079319000244,-2.966449022293091,77.4959716796875,1.676089092425714,7.4425060245567884,-85.2285357937823,-0.5016476,0.45397457,21.089994,7.7152557,-14.5087,-2.9998636,-29.586527,-16.267967,-11.544993,59.022373,-13.845967,5.309651,-0.8041232,-4.019507,1.4386933,21.367172,12.192138,-97.46421,29.687714,25.682869,-13.171615,-14.463594,25.587688,-11.547608,85.63596,23.11505,-40.388363,8.167228,-26.398373
171,3.7415072917938232,-3.1673707962036133,77.51466369628906,1.4998528820913608,7.412958621421953,-85.15301490835914,-0.29973784,0.6076262,20.989561,7.694247,-14.610998,-3.0181768,-30.15275,-15.900848,-11.470813,58.672127,-13.813087,5.762095,-0.86544514,-3.8229063,1.5555576,21.39888,12.160996,-97.416466,29.747835,25.458286,-13.177264,-14.51466,25.585207,-11.515755,85.58963,23.197294,-40.569458,8.182079,-26.469416
172,3.792750120162964,-3.3584811687469482,77.53263854980469,1.3210551869388436,7.3905723760671655,-85.09625947924742,-0.06956576,0.7606242,20.908813,7.614434,-14.6905,-3.0489607,-30.663258,-15.545129,-11.465149,58.051292,-13.673824,6.1433167,-0.9087998,-3.623843,1.6704489,21.432493,12.143627,-97.37708,29.774715,25.304222,-13.188091,-14.554058,25.56689,-11.499702,85.59023,23.254278,-40.7071,8.199131,-26.513483
173,3.8554604053497314,-3.5711898803710938,77.55279541015625,1.1364335712688258,7.37518572245552,-85.06430698511262,0.13330884,0.9400282,20.851902,7.6019874,-14.812292,-3.09465,-31.1076,-15.202713,-11.557728,57.123676,-13.392516,6.4367285,-0.9496089,-3.4225674,1.7866048,21.479876,12.103103,-97.30712,29.802986,25.284012,-13.224289,-14.587993,25.507013,-11.465079,85.685104,23.331089,-40.78739,8.224475,-26.528643
174,3.916804790496826,-3.8017399311065674,77.57291412353516,0.9407427540710496,7.360677712160154,-85.05090864462638,0.34797487,1.137542,20.811483,7.5828037,-14.937219,-3.1538796,-31.4731,-14.830456,-11.701655,55.861168,-13.006996,6.700862,-0.96824604,-3.2062626,1.9059157,21.529896,12.078472,-97.250565,29.79486,25.311016,-13.2651415,-14.61453,25.425491,-11.444728,85.83277,23.385181,-40.853966,8.256313,-26.520372
175,3.9566290378570557,-4.019576549530029,77.58808135986328,0.7468939269338553,7.351121879632236,-85.04644244638442,0.5671272,1.3386843,20.780996,7.560797,-15.069074,-3.2242417,-31.782637,-14.455302,-11.863891,54.354874,-12.55883,6.928846,-0.99208355,-2.9994109,2.0223944,21.587502,12.055048,-97.19227,29.776764,25.325129,-13.292898,-14.633517,25.337383,-11.425934,86.01403,23.4317,-40.890957,8.284965,-26.499617
176,3.9884605407714844,-4.253034591674805,77.60169982910156,0.5675729217531186,7.350849082534973,-85.0412182321128,0.7850758,1.5282283,20.754025,7.5371885,-15.210798,-3.3031418,-32.058853,-14.102422,-12.013037,52.695137,-12.088976,7.1150146,-1.0106797,-2.8142016,2.1308486,21.640015,12.04264,-97.17005,29.750488,25.252977,-13.284401,-14.636654,25.27531,-11.415053,86.15781,23.45696,-40.896187,8.293774,-26.467474
177,4.032829761505127,-4.505100250244141,77.60978698730469,0.39954143416982124,7.358952989054829,-85.03306075595845,1.003062,1.7095597,20.72878,7.5120654,-15.363721,-3.3938587,-32.29256,-13.764736,-12.162355,50.858295,-11.587056,7.273389,-1.0375193,-2.653432,2.2336326,21.69594,12.035047,-97.177956,29.720184,25.02112,-13.224196,-14.633057,25.237804,-11.405973,86.28031,23.469149,-40.85559,8.278218,-26.42435
178,4.070529937744141,-4.760867118835449,77.61243438720703,0.23793870926422153,7.373162478307572,-85.02671508805912,1.224217,1.8881648,20.708149,7.484548,-15.526342,-3.4966643,-32.471153,-13.426224,-12.3255005,48.80509,-11.03252,7.4051113,-1.0531455,-2.5033643,2.3359904,21.747452,12.034811,-97.22173,29.67964,24.682722,-13.128388,-14.623953,25.217478,-11.402098,86.372154,23.462626,-40.786972,8.238013,-26.359028
179,4.091078281402588,-5.0175676345825195,77.60659790039062,0.09447925547034018,7.397571181821598,-85.02188368121334,1.442518,2.051705,20.69308,7.4547577,-15.695623,-3.604193,-32.61036,-13.098819,-12.473318,46.593414,-10.455715,7.4858117,-1.0820253,-2.3826935,2.422409,21.800308,12.039905,-97.27263,29.636753,24.367252,-13.018228,-14.583693,25.20836,-11.396969,86.47545,23.451052,-40.683254,8.203103,-26.301874
180,4.103219509124756,-5.285697937011719,77.59414672851562,-0.020790171267455408,7.434731306830185,-85.01947787777858,1.6534628,2.188708,20.68516,7.42563,-15.871335,-3.708948,-32.726696,-12.794346,-12.5762615,44.28456,-9.887625,7.490335,-1.1120539,-2.2954593,2.4930093,21.839693,12.048362,-97.31087,29.600748,24.212065,-12.92677,-14.509162,25.21012,-11.392992,86.54324,23.432821,-40.57644,8.16901,-26.244822
181,4.107652187347412,-5.561077117919922,77.56980895996094,-0.10641856932794155,7.487159345760153,-85.02434333451068,1.8551663,2.2989159,20.689953,7.395815,-16.05181,-3.8100429,-32.827507,-12.501784,-12.631345,41.862133,-9.325694,7.380175,-1.1455836,-2.2455862,2.5448644,21.866907,12.058237,-97.33598,29.571505,24.294733,-12.844092,-14.3345995,25.223362,-11.389616,86.58821,23.40752,-40.452545,8.142125,-26.18993
182,4.114251136779785,-5.85117244720459,77.5361328125,-0.16717968977646616,7.551641050036207,-85.03358913551865,2.051203,2.386901,20.703905,7.365871,-16.238943,-3.9109235,-32.895786,-12.211901,-12.658342,39.29231,-8.753133,7.184206,-1.1846762,-2.2287223,2.5826616,21.886463,12.066899,-97.353615,29.54906,24.530916,-12.760717,-14.088838,25.2465,-11.38701,86.61458,23.374834,-40.30715,8.116387,-26.133343
183,4.10304069519043,-6.139525413513184,77.49573516845703,-0.19976053583008188,7.623877571766136,-85.03509847459019,2.2463346,2.4464927,20.71466,7.334841,-16.433302,-4.0106797,-32.915573,-11.943622,-12.659932,36.611755,-8.179441,6.9777985,-1.2365717,-2.2465537,2.6022744,21.897223,12.097126,-97.36792,29.51476,24.799747,-12.695689,-13.8863125,25.2823,-11.378892,86.631714,23.344294,-40.157555,8.10077,-26.094646
184,4.101916313171387,-6.452920436859131,77.44536590576172,-0.2009770880667624,7.69848109148175,-85.01628437274653,2.4473422,2.4713128,20.709272,7.299721,-16.634212,-4.1083636,-32.870296,-11.717534,-12.637762,33.85606,-7.612156,6.8359156,-1.3061581,-2.2957938,2.6091988,21.895933,12.125989,-97.36683,29.499489,24.989614,-12.681776,-13.855276,25.330814,-11.370664,86.61389,23.311243,-40.03997,8.085182,-26.071333
185,4.089805603027344,-6.7742438316345215,77.38090515136719,-0.1592459340642374,7.775056362071436,-84.96687291358526,2.653924,2.4468896,20.67857,7.2624946,-16.844772,-4.197639,-32.739845,-11.541402,-12.577069,30.966385,-7.043323,6.786569,-1.4022025,-2.3922346,2.596641,21.880245,12.154467,-97.32933,29.514112,25.091248,-12.758663,-14.113663,25.401566,-11.361028,86.55944,23.27081,-39.962097,8.076594,-26.082361
186,4.0719075202941895,-7.091876983642578,77.30680847167969,-0.07465683706589633,7.851763335278179,-84.89032070525795,2.867945,2.3753018,20.62635,7.22217,-17.062908,-4.280419,-32.522522,-11.401658,-12.486435,27.916475,-6.456408,6.794303,-1.5235189,-2.5344236,2.5708315,21.849997,12.192172,-97.26367,29.539454,25.158754,-12.900764,-14.570406,25.49019,-11.345925,86.4711,23.230808,-39.910088,8.0722,-26.1176
187,4.06109094619751,-7.4385457038879395,77.22894287109375,0.036954617243677566,7.92077272495434,-84.79373768574462,3.096853,2.274804,20.558474,7.1779513,-17.286509,-4.367351,-32.229473,-11.292135,-12.401923,24.789942,-5.8433056,6.835998,-1.6700335,-2.701797,2.5465477,21.814962,12.230314,-97.21747,29.566084,25.166012,-13.034856,-15.017241,25.579702,-11.328496,86.376015,23.196718,-39.86629,8.070361,-26.154741
188,4.046990871429443,-7.783514976501465,77.13504791259766,0.1593864282765269,7.97527561875206,-84.68487544760106,3.34539,2.1658142,20.48047,7.132135,-17.51603,-4.468975,-31.879694,-11.210565,-12.357091,21.688013,-5.205769,6.8846474,-1.8343971,-2.8693347,2.5390317,21.781185,12.274922,-97.24316,29.56565,25.089676,-13.085386,-15.248465,25.65381,-11.3070965,86.28906,23.183094,-39.816536,8.066143,-26.168776
189,4.0303850173950195,-8.128861427307129,77.03649139404297,0.29920164665483395,8.015769337316753,-84.5608521101961,3.6110454,2.0407515,20.388487,7.0838137,-17.74908,-4.5889497,-31.46374,-11.178483,-12.348079,18.574074,-4.5209,6.951882,-2.0368333,-3.0442865,2.547114,21.756758,12.30754,-97.37574,29.547749,24.848158,-13.001689,-15.149752,25.706959,-11.291871,86.2265,23.185022,-39.76045,8.061301,-26.149582
190,4.003503322601318,-8.483633041381836,76.93355560302734,0.47016791773278294,8.036839990708984,-84.40921189934384,3.9004865,1.883638,20.271414,7.0323596,-17.988302,-4.718712,-30.96086,-11.201608,-12.366916,15.397655,-3.7883086,7.04953,-2.277067,-3.2412894,2.5723107,21.734468,12.335922,-97.58731,29.517214,24.479416,-12.834475,-14.848739,25.751059,-11.279581,86.16729,23.198156,-39.70782,8.056147,-26.109905
191,3.9724719524383545,-8.839776039123535,76.82723236083984,0.662369511640203,8.028527734622587,-84.23158915817817,4.2264442,1.7060298,20.132223,6.978329,-18.231232,-4.8510275,-30.39282,-11.25805,-12.431154,12.271163,-3.0527291,7.142035,-2.5562403,-3.4564226,2.6269364,21.714586,12.352461,-97.77786,29.489733,24.145365,-12.666946,-14.5114565,25.77858,-11.273085,86.12824,23.215424,-39.64543,8.050958,-26.065226
192,3.9565377235412598,-9.21281909942627,76.71161651611328,0.8540394147337156,7.990664076647313,-84.04092020910802,4.589664,1.5345699,19.983679,6.9269886,-18.47649,-4.981089,-29.776724,-11.311392,-12.558699,9.276165,-2.3438892,7.185182,-2.790238,-3.6510036,2.7121842,21.667532,12.377991,-97.96828,29.457504,23.97777,-12.564834,-14.276851,25.814457,-11.262465,86.044106,23.229029,-39.57444,8.041164,-26.027222
193,3.927753448486328,-9.584431648254395,76.5951919555664,1.0250496963218099,7.9339287094543876,-83.85228841940935,4.982267,1.3914537,19.83991,6.8741903,-18.721785,-5.108296,-29.405592,-11.4127245,-12.6999035,7.0052204,-2.0014024,7.1169558,-3.033135,-3.8306017,2.8258586,21.612566,12.391775,-98.01092,29.440456,24.12353,-12.57546,-14.222784,25.813677,-11.255594,85.972824,23.226797,-39.505707,8.00103,-26.088142
194,3.8998429775238037,-9.961867332458496,76.4769287109375,1.1804947383038473,7.8693177799995,-83.6791442360257,5.3754616,1.2774763,19.712984,6.85845,-18.987894,-5.2377834,-29.984098,-11.724506,-12.685306,6.908422,-2.786933,6.9656143,-3.2360444,-3.9865558,2.9565346,21.53464,12.408954,-98.00913,29.418009,24.458157,-12.647044,-14.251679,25.797718,-11.244393,85.8665,23.218884,-39.448902,7.9325247,-26.204693
195,3.8782596588134766,-10.35579776763916,76.3604736328125,1.3147512640128212,7.8055260415414836,-83.5243229028023,5.777081,1.1938286,19.60522,6.8480697,-19.257647,-5.3759513,-30.497736,-11.997286,-12.7076645,6.8384814,-3.5075247,6.811853,-3.4259949,-4.1186423,3.0758526,21.470627,12.413381,-97.9854,29.402231,24.804743,-12.732777,-14.308963,25.786917,-11.240693,85.8245,23.238081,-39.32579,7.913431,-26.22581
196,3.844113349914551,-10.748414993286133,76.24886322021484,1.4377210181302895,7.7437595863604765,-83.38531538541122,6.187776,1.1289588,19.514164,6.8392134,-19.526646,-5.5276127,-30.930906,-12.220434,-12.75537,6.7924685,-4.1065526,6.742417,-3.5930293,-4.22875,3.1852472,21.426733,12.423644,-97.96192,29.37055,25.000605,-12.797573,-14.369744,25.804144,-11.232153,85.83723,23.331373,-39.10234,7.9831834,-25.959145
197,3.796579360961914,-11.155295372009277,76.12784576416016,1.5514956816602967,7.681790002023339,-83.26183322513809,6.612716,1.0803196,19.443466,6.8294997,-19.797762,-5.695116,-31.277275,-12.391727,-12.846174,6.7627597,-4.5736933,6.808738,-3.743708,-4.319691,3.2669187,21.42602,12.433759,-97.9782,29.32268,24.95507,-12.816625,-14.409774,25.881819,-11.2277975,86.00076,23.534962,-38.68984,8.247632,-25.210434
198,3.763385534286499,-11.574712753295898,76.00556182861328,1.6503062945856213,7.622288314548689,-83.15698197042907,7.0475106,1.0535889,19.39573,6.820316,-20.070467,-5.876086,-31.544956,-12.518273,-12.979105,6.7466016,-4.9363556,6.9511886,-3.8667068,-4.385171,3.3323781,21.447926,12.441744,-98.00945,29.265331,24.774778,-12.818722,-14.457743,25.999746,-11.229911,86.252464,23.813618,-38.153027,8.649551,-24.11781
199,3.7346103191375732,-12.014237403869629,75.88914489746094,1.7237312036316506,7.578154004922497,-83.08097541522132,7.4790473,1.0602359,19.375433,6.8114324,-20.338205,-6.0706515,-31.744263,-12.584356,-13.117322,6.7429576,-5.1787186,7.090712,-3.9809477,-4.4273734,3.370379,21.492489,12.450782,-98.01752,29.203667,24.559256,-12.811898,-14.500265,26.10857,-11.239455,86.55951,24.095427,-37.59088,9.061896,-23.07876
200,3.6871440410614014,-12.448738098144531,75.77145385742188,1.7595388532881193,7.562144510403245,-83.04513906299744,7.8945065,1.1130495,19.388231,6.8041096,-20.595764,-6.279116,-31.881382,-12.568676,-13.2247505,6.7450514,-5.281607,7.149509,-4.0422163,-4.423041,3.3811924,21.5315,12.455876,-98.030396,29.154537,24.397617,-12.80661,-14.523622,26.180092,-11.248681,86.77726,24.307762,-37.13069,9.321214,-22.45872
201,3.647881269454956,-12.904561996459961,75.66121673583984,1.7625747365311222,7.576554423664603,-83.0528077865368,8.292962,1.2075256,19.437944,6.7988,-20.848978,-6.505826,-31.955667,-12.46624,-13.285307,6.7601385,-5.2211337,7.1403594,-4.0802193,-4.3909454,3.3547661,21.587357,12.460101,-98.013855,29.116302,24.294062,-12.800806,-14.528471,26.185032,-11.259096,86.95253,24.417717,-36.737392,9.362724,-22.437958
202,3.5996177196502686,-13.361714363098145,75.54940795898438,1.7355319064565455,7.6155209794131435,-83.09911240741272,8.679904,1.3407012,19.523819,6.7953563,-21.097887,-6.750181,-31.96291,-12.281061,-13.321514,6.7842627,-5.011429,7.096801,-4.079078,-4.324262,3.2989721,21.655735,12.462626,-97.99051,29.084803,24.207048,-12.791647,-14.521952,26.152538,-11.267382,87.087105,24.471813,-36.377953,9.262832,-22.7789
203,3.54083514213562,-13.82454776763916,75.4368896484375,1.670010094399581,7.677312435478202,-83.18050696910316,9.055334,1.5192769,19.642242,6.7928205,-21.328558,-7.00358,-31.917526,-12.016811,-13.347902,6.818847,-4.6993423,6.9731073,-4.0280232,-4.208525,3.2204723,21.710382,12.462976,-97.980156,29.059435,24.160269,-12.7825365,-14.492515,26.11302,-11.2699995,87.16491,24.514303,-36.113293,9.111881,-23.273947
204,3.48469877243042,-14.305922508239746,75.3341293334961,1.555058827159648,7.759583579414527,-83.29324505728434,9.418629,1.7535696,19.789116,6.792702,-21.528255,-7.2578635,-31.829151,-11.675586,-13.381333,6.861712,-4.330186,6.7217727,-3.9570284,-4.0410066,3.1195095,21.746597,12.46161,-97.95836,29.034742,24.18835,-12.775503,-14.428958,26.082684,-11.271139,87.23875,24.587072,-35.976566,9.019979,-23.735651
205,3.4158952236175537,-14.788005828857422,75.23810577392578,1.384499531896691,7.864320224442675,-83.44625657944562,9.770557,2.0475793,19.977415,6.794882,-21.708279,-7.5071273,-31.66812,-11.244581,-13.440583,6.9243164,-3.9487636,6.300849,-3.8462167,-3.8070135,2.9938328,21.763617,12.458966,-97.93077,29.009226,24.334963,-12.774015,-14.312756,26.082138,-11.271166,87.28064,24.707253,-36.058365,9.010435,-24.165525
206,3.355165481567383,-15.283489227294922,75.13848876953125,1.1673309971578916,7.9864035399750195,-83.63553259428949,10.115151,2.3944173,20.202711,6.80008,-21.869987,-7.757055,-31.436932,-10.732346,-13.508563,7.008722,-3.520643,5.745026,-3.7078397,-3.521218,2.8458054,21.769928,12.453822,-97.88875,28.985712,24.571344,-12.775355,-14.155649,26.091553,-11.270262,87.30545,24.85072,-36.303722,9.035912,-24.654146
207,3.299351453781128,-15.793791770935059,75.0689697265625,0.9248214274351233,8.111328817970042,-83.83785847689228,10.449828,2.7777984,20.434164,6.8395705,-22.006767,-8.01327,-31.193804,-10.183313,-13.543434,7.0973415,-2.9793391,5.123899,-3.5519965,-3.2107794,2.6955087,21.750626,12.448492,-97.85469,28.966442,24.821098,-12.774114,-13.991474,26.091547,-11.269075,87.30669,24.9888,-36.569714,9.072132,-25.113577
208,3.2360966205596924,-16.307231903076172,75.01167297363281,0.6770753606988772,8.226949912704509,-84.02975565751599,10.7725315,3.18296,20.639914,6.929459,-22.100494,-8.281453,-31.87695,-9.851361,-13.359126,9.060858,-3.2543037,4.5119405,-3.4064038,-2.9052596,2.5608096,21.697067,12.4371605,-97.8253,28.960024,25.013237,-12.768571,-13.860489,26.054153,-11.266001,87.29772,25.097576,-36.70893,9.092853,-25.45731
209,3.1548964977264404,-16.817800521850586,74.95909118652344,0.39268515920951014,8.344433184242968,-84.21287173249618,11.086474,3.6412604,20.817923,7.032364,-22.135675,-8.567437,-32.5585,-9.462928,-13.106715,10.809912,-3.1701694,3.8285804,-3.2609537,-2.5743697,2.4395125,21.591362,12.424663,-97.81041,28.965488,25.12119,-12.76186,-13.783493,25.96453,-11.262053,87.2627,25.161865,-36.626965,9.090945,-25.646036
210,3.0758204460144043,-17.34394645690918,74.9215087890625,0.07527328076216024,8.463207494061363,-84.39656642786261,11.396467,4.1461616,20.983032,7.1440783,-22.118275,-8.864818,-33.19882,-9.016444,-12.818765,12.361548,-2.7836885,3.0692742,-3.1049986,-2.215418,2.3278096,21.440634,12.403338,-97.808075,28.986221,25.185064,-12.754686,-13.737772,25.840212,-11.254173,87.19219,25.19974,-36.425034,9.076432,-25.72763
211,2.9910473823547363,-17.881956100463867,74.87834167480469,-0.23137341456710483,8.564431852987964,-84.56551698894553,11.727022,4.6436296,21.126959,7.254039,-22.028944,-9.162552,-33.769703,-8.5935545,-12.566401,13.793222,-2.2574317,2.409646,-2.9586875,-1.8690549,2.2269819,21.27475,12.375949,-97.83206,29.01778,25.22515,-12.734937,-13.679642,25.709274,-11.243967,87.12219,25.22964,-36.237507,9.058543,-25.761423
212,2.8957693576812744,-18.432695388793945,74.82915496826172,-0.47954717600566044,8.630505142673865,-84.70463192394423,12.100077,5.0762863,21.240625,7.3572445,-21.845549,-9.449009,-34.229183,-8.275092,-12.407527,15.151711,-1.7415856,2.0241473,-2.8390436,-1.5787123,2.138466,21.122805,12.335646,-97.89849,29.065294,25.260696,-12.691058,-13.565247,25.598635,-11.231805,87.08376,25.271002,-36.19957,9.044547,-25.805462
213,2.8016648292541504,-19.0111026763916,74.78145599365234,-0.6612908389458647,8.662691247165014,-84.79847968030091,12.515057,5.4418597,21.314602,7.4578114,-21.578936,-9.738666,-34.573345,-8.096084,-12.369409,16.446156,-1.1966422,2.0187383,-2.765516,-1.3493111,2.0518248,20.988634,12.275727,-98.01522,29.135332,25.27812,-12.614467,-13.395198,25.513466,-11.223576,87.08295,25.31763,-36.341957,9.031506,-25.853218
214,2.6832802295684814,-19.577796936035156,74.7415771484375,-0.803759064948,8.672369835738602,-84.86158092618173,12.9583645,5.772083,21.357975,7.557446,-21.234463,-10.03109,-34.83805,-8.007559,-12.401316,17.680956,-0.58587164,2.2761886,-2.7250314,-1.1580092,1.9668515,20.85876,12.20673,-98.166214,29.217815,25.274195,-12.514033,-13.190532,25.439148,-11.226473,87.10902,25.353594,-36.593456,9.017541,-25.881145
215,2.5772337913513184,-20.171520233154297,74.70259857177734,-0.9134308087786137,8.656635190988604,-84.92268655160181,13.427078,6.0642886,21.387108,7.6631994,-20.793386,-10.292053,-35.042427,-7.961714,-12.443848,18.895405,-0.06227807,2.6376956,-2.694494,-1.0030715,1.9007102,20.739891,12.145862,-98.32537,29.288778,25.287039,-12.401255,-12.939648,25.367804,-11.236559,87.17674,25.394724,-36.93099,9.015307,-25.924225
216,2.4723756313323975,-20.75484275817871,74.67594146728516,-0.9973294189923235,8.611593540395438,-85.00836919828475,13.919439,6.316512,21.416634,7.782311,-20.237528,-10.487654,-35.198742,-7.910718,-12.44656,20.117113,0.2260957,2.94753,-2.6533844,-0.8764339,1.8725818,20.645077,12.0362215,-98.47814,29.397467,25.348816,-12.288026,-12.623289,25.292507,-11.258881,87.29698,25.450571,-37.333916,9.038194,-26.016792
217,2.3517396450042725,-21.334571838378906,74.66642761230469,-1.054400826133225,8.532963132587264,-85.12288457860991,14.24448,6.6034923,21.419468,8.362184,-19.809626,-10.612542,-35.31041,-7.8479457,-12.4053135,21.366549,0.21989356,3.2206821,-2.6087384,-0.7857979,1.8927768,20.57842,11.927036,-98.611465,29.491331,25.505646,-12.141582,-12.150671,25.207287,-11.278052,87.51885,25.55936,-37.967903,9.139713,-26.264502
218,2.241812229156494,-21.94109344482422,74.65609741210938,-1.0899811395351355,8.427003009940714,-85.25024376611498,14.11592,7.049311,21.349573,10.03497,-19.848663,-10.687078,-35.37015,-7.7901225,-12.354965,22.61935,0.0047039334,3.5216994,-2.5660224,-0.72106653,1.9464862,20.531126,11.817872,-98.744705,29.574831,25.722212,-11.965149,-11.55935,25.120274,-11.290491,87.817635,25.709845,-38.787548,9.299668,-26.615139
219,2.1230409145355225,-22.54977798461914,74.64759063720703,-1.123160311521262,8.304964344601105,-85.38505832042956,13.960797,7.501997,21.264841,11.790887,-19.8028,-10.712945,-35.368378,-7.7203784,-12.311349,23.826874,-0.34142548,3.7711842,-2.523409,-0.6626482,2.014064,20.499996,11.712422,-98.856926,29.649614,25.937624,-11.827562,-11.043296,25.037077,-11.297118,88.12368,25.862337,-39.447147,9.417409,-26.87416
220,1.9930211305618286,-23.153581619262695,74.65343475341797,-1.1728258161180452,8.17821227211376,-85.52038397945763,13.725666,8.000847,21.165594,13.705775,-19.686295,-10.693681,-35.292397,-7.62047,-12.291084,24.93072,-0.7391441,3.890987,-2.4807737,-0.5900855,2.0762165,20.479195,11.61772,-98.927536,29.713032,26.090668,-11.799967,-10.79505,24.960428,-11.301715,88.36712,25.97014,-39.60087,9.385578,-26.849676
221,1.8690556287765503,-23.774667739868164,74.68057250976562,-1.2482281745011792,8.047231917231654,-85.65665511756795,13.422286,8.553002,21.053013,15.767525,-19.514948,-10.650981,-35.147263,-7.4817734,-12.305732,25.943304,-1.1969973,3.8284395,-2.434885,-0.49366832,2.132213,20.474894,11.543969,-98.939224,29.756964,26.174137,-11.9512825,-10.946225,24.886692,-11.308965,88.5276,26.009586,-38.904526,9.0985155,-26.306622
222,1.7453255653381348,-24.40749168395996,74.7170181274414,-1.344077947264627,7.909111400567988,-85.7942012147494,13.070076,9.1463175,20.922737,17.940533,-19.276886,-10.575436,-34.936596,-7.3049083,-12.352495,26.877893,-1.741974,3.6357958,-2.3753538,-0.37601295,2.1875203,20.47957,11.519631,-98.922714,29.750422,26.214525,-12.225757,-11.366606,24.822393,-11.314733,88.62486,26.006115,-37.626377,8.650903,-25.399426
223,1.6181883811950684,-25.023988723754883,74.77096557617188,-1.459077592017571,7.7704847114672,-85.92597575445929,12.629486,9.790796,20.766304,20.256475,-18.928963,-10.4241705,-34.644318,-7.085275,-12.425131,27.67456,-2.320899,3.390983,-2.3311203,-0.2429996,2.2338479,20.488928,11.506729,-98.88212,29.726528,26.213076,-12.513819,-11.858479,24.76582,-11.322672,88.70027,25.98557,-36.32983,8.227431,-24.53635
224,1.485276460647583,-25.636335372924805,74.83270263671875,-1.5940488949657265,7.638893763725204,-86.04528016934817,12.067609,10.494092,20.577751,22.729303,-18.423197,-10.156743,-34.255447,-6.821942,-12.518886,28.277367,-2.884323,3.1708138,-2.3005755,-0.09001125,2.2636182,20.480707,11.501675,-98.85788,29.684551,26.166214,-12.70264,-12.221493,24.726812,-11.330677,88.75086,25.978539,-35.600197,7.9740276,-24.13142
225,1.3527369499206543,-26.26340675354004,74.90693664550781,-1.7529202005089095,7.517696359345469,-86.14900429117739,11.35565,11.265505,20.351707,25.410267,-17.7343,-9.695712,-33.749718,-6.511587,-12.632616,28.651348,-3.437499,2.9827385,-2.2992938,0.087721065,2.266653,20.454348,11.496531,-98.840256,29.621368,26.05088,-12.745152,-12.411848,24.700447,-11.345177,88.791214,25.985558,-35.6629,7.925935,-24.435413
226,1.213980793952942,-26.88782501220703,74.99266815185547,-1.9342221468939973,7.403222854336467,-86.24262444827323,10.53572,12.089707,20.100864,28.229126,-16.867897,-9.0885,-33.143818,-6.1566176,-12.764776,28.837555,-4.00306,2.7871284,-2.3063595,0.29186723,2.2501593,20.413427,11.493484,-98.833626,29.541382,25.87363,-12.706115,-12.530532,24.68842,-11.35637,88.79502,26.002337,-36.191177,7.9985166,-25.180948
227,1.0914843082427979,-27.51240348815918,75.08821105957031,-2.130029046973658,7.2930923790958,-86.3324300572212,9.662292,12.942521,19.841188,31.061432,-15.837706,-8.480138,-32.478207,-5.769337,-12.906916,28.897224,-4.5617967,2.5917244,-2.3167045,0.50589645,2.2292292,20.368202,11.4876175,-98.837715,29.467548,25.690746,-12.643109,-12.598828,24.690954,-11.378168,88.77582,26.005772,-36.919743,8.156844,-26.021814
228,0.9459055662155151,-28.132062911987305,75.18254852294922,-2.32606096313195,7.182402065084904,-86.42725070685877,8.789105,13.794778,19.585817,33.793884,-14.668088,-8.010904,-31.794088,-5.367418,-13.04419,28.897968,-5.0976095,2.4070473,-2.3160195,0.7096261,2.2223082,20.324488,11.47991,-98.85772,29.416893,25.558401,-12.6145735,-12.6393585,24.709635,-11.404172,88.73568,25.998518,-37.588566,8.347488,-26.612425
229,0.819035530090332,-28.754859924316406,75.28565216064453,-2.5293525056854373,7.068316090132569,-86.53176054154082,7.916433,14.6536665,19.31616,36.43471,-13.291786,-7.7496605,-31.07949,-4.943394,-13.178175,28.825548,-5.6065516,2.2392554,-2.3026385,0.9069382,2.2309918,20.280317,11.470171,-98.896996,29.395893,25.515537,-12.637422,-12.646336,24.752644,-11.431017,88.66759,25.986074,-38.407875,8.65441,-26.88289
230,0.6760621666908264,-29.348066329956055,75.38750457763672,-2.738270898463861,6.952249775402985,-86.64328936391517,7.011112,15.523994,19.0266,39.054188,-11.731661,-7.6076417,-30.319017,-4.498389,-13.304445,28.658133,-6.0993176,2.0851002,-2.2686574,1.1032063,2.2481816,20.226677,11.449085,-98.97056,29.40512,25.516808,-12.680054,-12.608513,24.819265,-11.476541,88.554375,25.950356,-39.42836,9.068214,-26.9997
231,0.5319411158561707,-29.943334579467773,75.49055480957031,-2.9249055675026465,6.836783820330594,-86.7581033846894,6.0688014,16.379177,18.746647,41.65461,-10.160554,-7.4840307,-29.549374,-4.066222,-13.402992,28.452648,-6.582552,1.941466,-2.240623,1.2646823,2.2763557,20.189035,11.432727,-99.02802,29.42115,25.521036,-12.72978,-12.552406,24.886023,-11.505325,88.45619,25.924719,-40.135117,9.393752,-27.002169
232,0.40275850892066956,-30.537282943725586,75.5943603515625,-3.064152987952317,6.724460969686459,-86.87249573874337,5.086489,17.201307,18.511145,44.24238,-8.753937,-7.273778,-28.805895,-3.6777575,-13.457521,28.263626,-7.06083,1.8039448,-2.2011516,1.3747065,2.3188853,20.175089,11.416541,-99.08221,29.44438,25.47042,-12.770649,-12.492828,24.94636,-11.531771,88.36712,25.885965,-40.032295,9.429653,-26.923235
233,0.25569799542427063,-31.111122131347656,75.69474792480469,-3.1450559464936116,6.611358978718578,-86.98921046726996,4.041908,18.003788,18.317368,46.887985,-7.4906273,-6.950917,-28.092747,-3.3412814,-13.459335,28.10348,-7.5409894,1.6712046,-2.1530764,1.4217619,2.3847446,20.191341,11.399849,-99.133606,29.47608,25.336092,-12.800765,-12.415456,24.999035,-11.560745,88.28857,25.820255,-38.5294,8.962217,-26.723305
234,0.12204611301422119,-31.691640853881836,75.7999038696289,-3.1824961023199734,6.497116140275424,-87.11009809639711,2.9419308,18.80169,18.153347,49.581272,-6.30972,-6.5581403,-27.391542,-3.0426872,-13.418722,27.9443,-8.018901,1.5470966,-2.101815,1.4170269,2.4688485,20.231579,11.385805,-99.177986,29.51476,25.15141,-12.828062,-12.31861,25.04942,-11.588655,88.22142,25.739683,-36.042927,8.161891,-26.374992
235,-0.0033212353009730577,-32.266571044921875,75.90872955322266,-3.189073872872919,6.389468255071941,-87.23031614752165,1.8287992,19.582426,18.043406,52.211304,-5.330168,-6.0951023,-26.707836,-2.7786992,-13.349192,27.786766,-8.486518,1.4332345,-2.0555766,1.370617,2.5544403,20.292912,11.382937,-99.18471,29.546833,24.961952,-12.854879,-12.244678,25.09431,-11.595324,88.18947,25.682495,-33.582165,7.4032598,-25.964031
236,-0.13431845605373383,-32.808189392089844,76.0080795288086,-3.183094705625458,6.297974883920375,-87.34230790065162,0.7379769,20.335876,18.00608,54.674683,-4.6759076,-5.5697227,-26.047764,-2.5412798,-13.270643,27.627813,-8.933467,1.3298618,-1.9815027,1.3194312,2.6272357,20.355743,11.368275,-99.20787,29.589054,24.793945,-12.872108,-12.206328,25.133,-11.635489,88.15659,25.602936,-32.15938,7.035585,-25.614655
237,-0.2485242486000061,-33.352603912353516,76.1007080078125,-3.163525430669229,6.222490390407915,-87.44778398628137,-0.31047043,21.098213,18.109491,56.99583,-4.410694,-4.901787,-25.425737,-2.3310938,-13.178838,27.490854,-9.363058,1.2339485,-1.9111707,1.240917,2.6884563,20.434326,11.361863,-99.173454,29.623093,24.652714,-12.887904,-12.246823,25.158953,-11.656595,88.185,25.560184,-32.3548,7.281267,-25.381756
238,-0.35752230882644653,-33.889930725097656,76.18777465820312,-3.122931156674266,6.159518497660883,-87.5491150520998,-1.3382612,21.864843,18.318808,59.22354,-4.467807,-4.1175594,-24.834284,-2.1511896,-13.068701,27.367159,-9.777384,1.1458306,-1.8435531,1.1309007,2.7444036,20.534452,11.3563385,-99.09586,29.65807,24.52498,-12.900685,-12.338625,25.172333,-11.680445,88.26215,25.526272,-33.526276,7.8988495,-25.19482
