unveil-humanoid-operators/unveil-humanoid-operators.github.io/feature-analysis-animation/data/feature_matrix_instances/weight_ankle_peak_vel_gesture_A053_looking_around_horizontally_003__A053.csv
Frame,root_translateX,root_translateY,root_translateZ,root_rotateX,root_rotateY,root_rotateZ,left_hip_pitch_joint_dof,left_hip_roll_joint_dof,left_hip_yaw_joint_dof,left_knee_joint_dof,left_ankle_pitch_joint_dof,left_ankle_roll_joint_dof,right_hip_pitch_joint_dof,right_hip_roll_joint_dof,right_hip_yaw_joint_dof,right_knee_joint_dof,right_ankle_pitch_joint_dof,right_ankle_roll_joint_dof,waist_yaw_joint_dof,waist_roll_joint_dof,waist_pitch_joint_dof,left_shoulder_pitch_joint_dof,left_shoulder_roll_joint_dof,left_shoulder_yaw_joint_dof,left_elbow_joint_dof,left_wrist_roll_joint_dof,left_wrist_pitch_joint_dof,left_wrist_yaw_joint_dof,right_shoulder_pitch_joint_dof,right_shoulder_roll_joint_dof,right_shoulder_yaw_joint_dof,right_elbow_joint_dof,right_wrist_roll_joint_dof,right_wrist_pitch_joint_dof,right_wrist_yaw_joint_dof
0,0.09107481688261032,2.2258646488189697,77.95746612548828,-0.2558518609185491,-6.263877529174395,-91.14559196815046,12.038622,5.4318504,14.151049,8.305519,-12.686713,-5.3209867,11.308517,-4.66187,-9.205376,8.952408,-13.547336,4.9778585,-1.3712914,0.25085804,6.789409,4.8256817,7.0852237,-17.932753,59.408737,16.13917,1.1876134,9.484009,0.877853,-9.512235,39.054417,63.264233,1.3191906,4.5336204,-16.740292
1,0.09170978516340256,2.218365430831909,77.95479583740234,-0.2627682394708639,-6.25364523067692,-91.197545257959,12.049262,5.443627,14.198581,8.298865,-12.703616,-5.323333,11.288683,-4.649124,-9.155787,8.956399,-13.554956,4.9618926,-1.3625463,0.23995088,6.767499,4.836616,7.080027,-17.931393,59.410034,16.16454,1.190121,9.465334,0.8735267,-9.5130825,39.052307,63.25743,1.3742653,4.5320535,-16.773129
2,0.09821537882089615,2.206561803817749,77.9538803100586,-0.26953790301775177,-6.239121837596216,-91.25583723730426,12.057941,5.455057,14.252379,8.288734,-12.720095,-5.326013,11.257889,-4.636492,-9.098905,8.969218,-13.566812,4.944356,-1.3415058,0.23400968,6.7358727,4.857305,7.0702615,-17.929922,59.405746,16.20546,1.1964788,9.443876,0.8734377,-9.5146475,39.048916,63.252308,1.4400448,4.5338287,-16.814064
3,0.10559459775686264,2.211437940597534,77.94914245605469,-0.2753924232492289,-6.228608096244474,-91.31350558592803,12.071569,5.466299,14.306514,8.279023,-12.735389,-5.3287377,11.230586,-4.6247177,-9.04323,8.985319,-13.578412,4.929114,-1.3245913,0.23190553,6.7048435,4.8763356,7.051181,-17.928421,59.407875,16.240616,1.1993413,9.427185,0.87431794,-9.517766,39.044754,63.252117,1.4940693,4.533132,-16.85021
4,0.09999064356088638,2.2010483741760254,77.94340515136719,-0.2825927904117009,-6.2288614417542565,-91.37328797189463,12.098643,5.479719,14.36554,8.272044,-12.7494955,-5.33276,11.219936,-4.6104302,-8.986715,8.992661,-13.580568,4.9185505,-1.3092533,0.22370271,6.685504,4.8964267,7.038639,-17.926414,59.404808,16.253334,1.188654,9.406001,0.87823534,-9.519814,39.0427,63.247917,1.533502,4.52689,-16.877615
5,0.10232985764741898,2.1785385608673096,77.9461898803711,-0.2911696086695418,-6.242270393535234,-91.43797323129976,12.142293,5.496788,14.433599,8.270018,-12.76098,-5.3382382,11.222277,-4.593791,-8.926847,9.0033865,-13.574355,4.914027,-1.2985866,0.22500627,6.6674824,4.914234,7.004952,-17.917086,59.420906,16.249826,1.1553024,9.388709,0.88461185,-9.526058,39.051014,63.25807,1.5517224,4.5135226,-16.894123
6,0.10273851454257965,2.174826145172119,77.94706726074219,-0.29936516989399325,-6.265288203962443,-91.50589647482622,12.198602,5.516052,14.507605,8.270572,-12.770345,-5.3448706,11.235545,-4.5753584,-8.865291,9.014875,-13.561811,4.9136972,-1.28722,0.21735683,6.659068,4.9425874,6.9849067,-17.908297,59.422306,16.2248,1.1048872,9.364771,0.8952986,-9.530352,39.061676,63.264767,1.5538203,4.4942102,-16.900862
7,0.10145219415426254,2.1669559478759766,77.94727325439453,-0.308467366793557,-6.292816815669729,-91.57512916183164,12.261413,5.534727,14.584046,8.270047,-12.779563,-5.3520555,11.25431,-4.5572643,-8.802106,9.024253,-13.548904,4.9163322,-1.2805277,0.21136886,6.6529126,4.9696617,6.96146,-17.893703,59.42608,16.196587,1.0576377,9.342367,0.9067728,-9.535647,39.075092,63.271862,1.5528475,4.4739556,-16.90701
8,0.1001298576593399,2.1517226696014404,77.94816589355469,-0.31492972370063105,-6.320201726210435,-91.64415764449757,12.32461,5.5495787,14.658901,8.264109,-12.79001,-5.3593326,11.272719,-4.542103,-8.737489,9.032283,-13.544246,4.920548,-1.2728263,0.20065859,6.649993,4.993365,6.945116,-17.880163,59.42257,16.17201,1.0332541,9.320575,0.91957307,-9.539038,39.0774,63.271698,1.5566399,4.4562683,-16.919695
9,0.09627558290958405,2.137545347213745,77.94432067871094,-0.3191929719032932,-6.348026103679002,-91.71347579822766,12.388559,5.5579195,14.7333555,8.252047,-12.803265,-5.366709,11.291635,-4.5322285,-8.669417,9.037729,-13.551975,4.927251,-1.2638066,0.18860434,6.649828,5.006739,6.924615,-17.862677,59.419823,16.153975,1.0459434,9.304827,0.9337258,-9.542642,39.064526,63.264664,1.5673164,4.442121,-16.944342
10,0.10487557202577591,2.1317946910858154,77.93904876708984,-0.3200952013426091,-6.378180637805652,-91.78371244955792,12.455289,5.562585,14.808631,8.237604,-12.818886,-5.374398,11.313418,-4.5252547,-8.598542,9.039823,-13.566336,4.936716,-1.2502873,0.18136945,6.6520686,5.004111,6.8893027,-17.844667,59.42881,16.140066,1.0831463,9.295813,0.949049,-9.548388,39.033005,63.257042,1.5753651,4.429527,-16.975939
11,0.1109033152461052,2.1347625255584717,77.9356460571289,-0.32273111414098843,-6.40769079590611,-91.85324616675855,12.521899,5.567194,14.881477,8.220319,-12.834376,-5.382158,11.334617,-4.5181694,-8.528897,9.042039,-13.582402,4.9468007,-1.236476,0.17551136,6.6528974,4.992197,6.853082,-17.83172,59.447094,16.131166,1.1219106,9.286832,0.9665599,-9.5538025,38.996483,63.24797,1.5838078,4.4184923,-17.006317
12,0.11379722505807877,2.124494791030884,77.93032836914062,-0.3268472151071909,-6.432597101224749,-91.91965911257581,12.579295,5.577271,14.947095,8.21234,-12.853931,-5.3896823,11.354634,-4.5065174,-8.465986,9.03908,-13.590627,4.9553237,-1.2366759,0.1624056,6.650648,5.001864,6.8431315,-17.823689,59.440044,16.125172,1.1421686,9.268536,0.97850853,-9.55503,38.981743,63.240234,1.6018375,4.408811,-17.028755
13,0.11449199914932251,2.111262321472168,77.92552947998047,-0.33523717162590505,-6.45413771595211,-91.98204994605311,12.63354,5.592337,15.002095,8.203925,-12.873174,-5.396487,11.373004,-4.490298,-8.413113,9.037486,-13.593727,4.9628735,-1.2445283,0.15713501,6.643463,5.0032306,6.823343,-17.812502,59.449883,16.156384,1.1388822,9.246053,0.99169815,-9.557169,38.963097,63.23475,1.6099353,4.4017396,-17.035234
14,0.10707326978445053,2.0996906757354736,77.92203521728516,-0.34479821626376883,-6.469188939496503,-92.03713901796473,12.673815,5.611884,15.044222,8.206779,-12.897398,-5.4023576,11.387242,-4.471471,-8.371817,9.03436,-13.593126,4.9703026,-1.2675442,0.14794548,6.6338215,5.004865,6.8205914,-17.810469,59.454056,16.190966,1.1247996,9.222356,0.9939388,-9.557353,38.96018,63.23506,1.6280783,4.395273,-17.034012
15,0.1092039942741394,2.09629487991333,77.92266845703125,-0.3570680762465658,-6.48795211906499,-92.10014584074234,12.724511,5.634035,15.09574,8.201908,-12.91902,-5.4097233,11.407025,-4.4484034,-8.32179,9.02409,-13.585547,4.97543,-1.2844875,0.1452567,6.61812,5.008434,6.809988,-17.799978,59.471703,16.240198,1.0937302,9.187761,1.008191,-9.557697,38.954834,63.23316,1.6383369,4.3920474,-17.030087
16,0.10919013619422913,2.085371732711792,77.92035675048828,-0.3681653673198923,-6.498101899285769,-92.16097113855977,12.761231,5.654687,15.150348,8.202226,-12.939064,-5.416695,11.411165,-4.427687,-8.268992,9.023049,-13.578658,4.978224,-1.304569,0.14232983,6.6067824,5.009535,6.80761,-17.797592,59.471302,16.253897,1.0640095,9.151891,1.0076579,-9.557755,38.952713,63.234203,1.6446358,4.389914,-17.031963
17,0.11240633577108383,2.076010227203369,77.92400360107422,-0.37981026520278,-6.510985658454134,-92.23774003381195,12.809803,5.6746635,15.231248,8.191654,-12.952887,-5.4253225,11.408798,-4.4056525,-8.190734,9.030179,-13.568399,4.9766784,-1.3076007,0.15378416,6.5922155,5.009743,6.793527,-17.784966,59.48501,16.24814,1.0072483,9.094603,1.0126492,-9.558592,38.941402,63.238964,1.631048,4.3923845,-17.042736
18,0.1172839105129242,2.067603349685669,77.92451477050781,-0.39288960188385486,-6.519565394755866,-92.31458663685203,12.851255,5.694445,15.317607,8.184192,-12.965179,-5.433627,11.3982115,-4.383961,-8.106988,9.041707,-13.555164,4.972725,-1.3081027,0.16950928,6.579868,5.0014176,6.781464,-17.775766,59.499775,16.221994,0.94073886,9.031414,1.0103408,-9.560017,38.926716,63.24745,1.6085997,4.3962502,-17.057392
19,0.1222105547785759,2.052375555038452,77.9271469116211,-0.40551582710313144,-6.523319882370632,-92.39398643029408,12.886594,5.71618,15.407426,8.178515,-12.977028,-5.443461,11.3814745,-4.3603983,-8.021121,9.051233,-13.540729,4.966479,-1.309509,0.18363002,6.5649567,4.995795,6.7773595,-17.773453,59.503483,16.180368,0.87838644,8.968045,1.0058389,-9.560737,38.918617,63.253613,1.5866871,4.402304,-17.072016
20,0.11849096417427063,2.0525472164154053,77.92497253417969,-0.4167334986790423,-6.52045102992826,-92.4765215526927,12.917437,5.738583,15.497563,8.167177,-12.985774,-5.455725,11.356536,-4.3362384,-7.937967,9.062618,-13.533935,4.9587936,-1.3072739,0.19784027,6.5450487,4.9765277,6.7655573,-17.780273,59.51069,16.138704,0.83553445,8.914229,0.9995166,-9.563525,38.902225,63.258347,1.5592244,4.410739,-17.079239
21,0.10909280925989151,2.0400357246398926,77.91941833496094,-0.430874196681787,-6.508060129598663,-92.55604669310777,12.935243,5.7655663,15.578945,8.159044,-12.99539,-5.473374,11.330205,-4.3080225,-7.867828,9.057099,-13.53066,4.947874,-1.3214964,0.19952768,6.519725,4.9619355,6.764045,-17.78741,59.494194,16.097477,0.821558,8.872281,0.9878641,-9.5639715,38.902985,63.25775,1.5347146,4.420372,-17.076384
22,0.10373259335756302,2.034783124923706,77.91222381591797,-0.4432770052119791,-6.484568255902913,-92.65239114113504,12.948811,5.7971177,15.675645,8.141228,-13.000517,-5.496767,11.285087,-4.2745957,-7.7857833,9.05681,-13.5349245,4.9323063,-1.3157246,0.21049675,6.477871,4.923226,6.760477,-17.842642,59.495533,16.0077,0.8226513,8.835826,0.9728717,-9.565573,38.911755,63.26385,1.5147883,4.437368,-17.072313
23,0.10045512020587921,2.027047872543335,77.91069030761719,-0.45624267314472067,-6.4606185290278875,-92.74132126675721,12.956161,5.8277264,15.764079,8.130771,-13.008132,-5.5173416,11.242147,-4.243197,-7.712562,9.053632,-13.537501,4.918617,-1.3180399,0.21448544,6.4375787,4.894408,6.761697,-17.888662,59.48177,15.937155,0.83638453,8.810387,0.9594823,-9.566297,38.916904,63.265343,1.4975302,4.452552,-17.06636
24,0.09882117062807083,2.032705783843994,77.91368865966797,-0.4678244019435764,-6.442152207254477,-92.82484194493382,12.966449,5.8539734,15.849081,8.121435,-13.015137,-5.529413,11.204978,-4.2159996,-7.6411686,9.051713,-13.53122,4.910682,-1.3171762,0.21616958,6.4012194,4.866917,6.766427,-17.93004,59.474148,15.889644,0.8529881,8.796627,0.95547307,-9.566464,38.908684,63.258484,1.4885331,4.465817,-17.064854
25,0.1011410728096962,2.023240089416504,77.91443634033203,-0.47723581149167427,-6.430443776325871,-92.89867558782754,12.97441,5.8753643,15.926871,8.122869,-13.025454,-5.526791,11.173079,-4.195017,-7.573929,9.054837,-13.510578,4.910838,-1.3339385,0.21646976,6.373443,4.8515787,6.7685103,-17.934496,59.46497,15.887617,0.87600124,8.798785,0.9484509,-9.566326,38.896202,63.24961,1.4912388,4.4789243,-17.069014
26,0.10343283414840698,2.0237197875976562,77.92120361328125,-0.4837876569534309,-6.423054041375298,-92.9640221275151,12.980881,5.8923397,15.997103,8.129459,-13.036433,-5.513988,11.145833,-4.1789927,-7.5125093,9.059624,-13.480849,4.916683,-1.3598013,0.21546572,6.347859,4.840264,6.76972,-17.931301,59.46033,15.904829,0.9061225,8.816665,0.9432786,-9.566096,38.882904,63.239918,1.5085151,4.4905415,-17.078777
27,0.10085418820381165,2.0230026245117188,77.9285659790039,-0.4911267566512687,-6.415843936836181,-93.03625985324331,12.991725,5.9083104,16.075916,8.131537,-13.046085,-5.5023737,11.113337,-4.163864,-7.4430428,9.072815,-13.454888,4.9240713,-1.3585149,0.21116559,6.329677,4.8033686,6.7727976,-17.916653,59.473957,15.95209,0.9354743,8.831355,0.94963723,-9.56524,38.824387,63.212524,1.5011284,4.5029507,-17.08056
28,0.09863598644733429,2.0178637504577637,77.9308853149414,-0.49829796962637174,-6.412942366941191,-93.10845316081834,13.013142,5.925092,16.15512,8.128443,-13.0550585,-5.5011406,11.093036,-4.1472187,-7.3758945,9.07591,-13.437568,4.9307246,-1.3639566,0.21492702,6.30706,4.7810006,6.7745733,-17.90818,59.480064,15.987744,0.9523818,8.8401,0.9499074,-9.564797,38.798447,63.20679,1.5107117,4.502375,-17.083818
29,0.0849342793226242,2.004411220550537,77.92852783203125,-0.5068404506877394,-6.413826497532334,-93.18500252031474,13.046751,5.9438276,16.240683,8.120277,-13.063443,-5.5151777,11.082794,-4.128831,-7.3072033,9.072296,-13.437429,4.9360914,-1.364329,0.22737128,6.283853,4.765313,6.7755046,-17.904041,59.479523,16.026278,0.95315325,8.83464,0.9469035,-9.564853,38.79422,63.217743,1.5179473,4.488366,-17.085468
30,0.08955934643745422,2.0027267932891846,77.92385864257812,-0.5151764650241378,-6.4195765629588,-93.26948747601301,13.09807,5.9607816,16.336878,8.096287,-13.06589,-5.5388556,11.079354,-4.110567,-7.2317705,9.066323,-13.4480505,4.941391,-1.3512545,0.24241541,6.2608023,4.7398186,6.777561,-17.893532,59.49393,16.07967,0.93813765,8.81605,0.94617206,-9.5656805,38.798824,63.23868,1.5248127,4.461423,-17.085224
31,0.09136616438627243,2.0016891956329346,77.92048645019531,-0.5242320403690852,-6.425362107926781,-93.35136360144242,13.1472645,5.979692,16.428516,8.077149,-13.072101,-5.5658865,11.078504,-4.0907164,-7.159458,9.058505,-13.460303,4.946536,-1.3431357,0.2608367,6.2357855,4.7223635,6.7787337,-17.88652,59.500698,16.118202,0.92274547,8.802207,0.9459517,-9.566317,38.80583,63.25933,1.5420098,4.43329,-17.08293
32,0.09550256282091141,1.9852502346038818,77.91373443603516,-0.5343106910940112,-6.42967587976596,-93.4314073169371,13.195681,5.998442,16.513939,8.052916,-13.078685,-5.5907826,11.075364,-4.0694118,-7.088283,9.052791,-13.465502,4.9511776,-1.3524927,0.27408665,6.205652,4.7084374,6.782686,-17.862888,59.510574,16.128607,0.9110219,8.797776,0.9503181,-9.568549,38.822884,63.26724,1.5861377,4.409581,-17.077606
33,0.10301876813173294,1.9705796241760254,77.90493774414062,-0.5472062255695174,-6.427232841268981,-93.50362991151515,13.229855,6.022031,16.58285,8.035756,-13.093275,-5.6152506,11.068613,-4.042738,-7.025059,9.042345,-13.45695,4.955717,-1.3757697,0.28802004,6.166611,4.702658,6.7872787,-17.839882,59.51326,16.083584,0.9092626,8.810239,0.960554,-9.570023,38.821472,63.259125,1.6725965,4.390857,-17.06466
34,0.10066814720630646,1.9644228219985962,77.90558624267578,-0.5623544094543158,-6.4212630782698525,-93.57171766309784,13.256808,6.048954,16.641895,8.022717,-13.113772,-5.6412973,11.059193,-4.012788,-6.965991,9.031713,-13.442456,4.960181,-1.4020675,0.30433303,6.1192837,4.6970763,6.7902684,-17.824669,59.519405,15.996683,0.912324,8.835447,0.97703576,-9.570134,38.808075,63.243484,1.7913084,4.3728967,-17.04701
35,0.09378225356340408,1.9542236328125,77.90550231933594,-0.5763428797110541,-6.418418239743557,-93.64124203122513,13.287336,6.0747066,16.702793,8.010111,-13.13437,-5.663507,11.052126,-3.9832196,-6.904556,9.023264,-13.426937,4.9634423,-1.4258337,0.31740388,6.0746875,4.689265,6.794081,-17.80945,59.529636,15.914898,0.9161473,8.865457,0.9956449,-9.569813,38.789566,63.224495,1.8928647,4.3599906,-17.028128
36,0.0866648480296135,1.9423965215682983,77.9067611694336,-0.5874468525382024,-6.425187462171893,-93.71710230846614,13.3292675,6.0959997,16.77705,8.000303,-13.151955,-5.6765943,11.048878,-3.9588666,-6.833867,9.023679,-13.416288,4.964475,-1.4383081,0.32340407,6.042748,4.6769657,6.8000345,-17.796066,59.543987,15.879885,0.9179574,8.895229,1.0101626,-9.569197,38.77302,63.210556,1.9316132,4.3560157,-17.01261
37,0.08808429539203644,1.9342999458312988,77.90502166748047,-0.5924777076041055,-6.445114551430461,-93.80167270887476,13.382229,6.1113377,16.871332,8.003451,-13.16822,-5.6727123,11.050741,-3.9421763,-6.750187,9.036431,-13.411001,4.9618487,-1.4367279,0.32424775,6.0275965,4.662491,6.805907,-17.791576,59.56106,15.911724,0.91745335,8.928983,1.0121782,-9.568647,38.77469,63.214066,1.8768812,4.3675013,-17.000154
38,0.08761381357908249,1.924829363822937,77.90603637695312,-0.5923735666130511,-6.474791330260648,-93.89347246202674,13.449845,6.1187162,16.980614,8.003338,-13.178191,-5.6565957,11.053543,-3.9330537,-6.6555705,9.064593,-13.411866,4.956832,-1.4314218,0.31172282,6.0227947,4.6492887,6.8174977,-17.783693,59.58063,15.986002,0.9138103,8.964652,1.0127759,-9.56796,38.799953,63.2182,1.7640309,4.391565,-16.990376
39,0.0873214602470398,1.9143773317337036,77.90836334228516,-0.5931579312753328,-6.507613823909629,-93.98628252290801,13.51942,6.1289654,17.090082,8.007759,-13.191205,-5.6427317,11.061593,-3.9213505,-6.560143,9.088567,-13.412692,4.951136,-1.4256306,0.30409488,6.0200467,4.639419,6.82383,-17.779173,59.598766,16.067125,0.9131991,9.003226,1.0087161,-9.567755,38.818542,63.22811,1.6457988,4.4144845,-16.987234
40,0.08787380158901215,1.9080119132995605,77.90866088867188,-0.5998696965014684,-6.537922311580548,-94.07681266109955,13.589192,6.145962,17.189356,8.006091,-13.207454,-5.645133,11.073655,-3.9020407,-6.4698224,9.102769,-13.41483,4.947066,-1.4349451,0.29723278,6.0101075,4.640627,6.8321095,-17.764181,59.61011,16.118782,0.9159373,9.037084,1.009655,-9.567217,38.83214,63.2277,1.5874422,4.4240427,-16.998117
41,0.08778437972068787,1.904005527496338,77.90425109863281,-0.6148003537834701,-6.5643661430994635,-94.16163067375741,13.661286,6.1722784,17.269821,7.988267,-13.224761,-5.673234,11.092748,-3.8709817,-6.3891654,9.100266,-13.419339,4.944888,-1.4638076,0.29423416,5.9916267,4.659361,6.8418593,-17.731462,59.60523,16.126984,0.921603,9.064447,1.0176315,-9.565777,38.82209,63.210754,1.6209599,4.4082747,-17.029451
42,0.08820361644029617,1.8838958740234375,77.89751434326172,-0.6350026480865963,-6.5901414698383896,-94.2436192985161,13.73407,6.205826,17.339272,7.966557,-13.245776,-5.717681,11.117222,-3.8322163,-6.313729,9.088859,-13.427005,4.943536,-1.5035176,0.28929153,5.9764333,4.687334,6.8580785,-17.67742,59.584866,16.121557,0.9274896,9.081897,1.0258915,-9.561865,38.783035,63.18154,1.694579,4.3761787,-17.071331
43,0.08230296522378922,1.8719947338104248,77.89057159423828,-0.6571501821731013,-6.616358061622493,-94.32732510633734,13.808285,6.2409368,17.410566,7.945377,-13.268823,-5.7640576,11.143734,-3.7915075,-6.2373066,9.074309,-13.432729,4.9430785,-1.5375987,0.2900554,5.954235,4.7122517,6.8659153,-17.645086,59.577003,16.105751,0.9401677,9.104122,1.0373769,-9.55921,38.745327,63.156944,1.7748029,4.3485518,-17.118002
44,0.07555216550827026,1.866919755935669,77.88525390625,-0.6758410758357982,-6.644351815771002,-94.41688857095497,13.882291,6.272432,17.49556,7.930902,-13.291645,-5.7980046,11.165379,-3.755657,-6.1545386,9.068961,-13.4346485,4.943913,-1.564091,0.2895175,5.936603,4.72801,6.872236,-17.626183,59.58154,16.112011,0.95915693,9.125035,1.0396484,-9.556972,38.719437,63.144096,1.8008335,4.3455067,-17.151337
45,0.08080800622701645,1.8611421585083008,77.87907409667969,-0.6894101045317254,-6.677703976597781,-94.5146086659923,13.965539,6.294598,17.60193,7.914496,-13.309415,-5.812947,11.186087,-3.7282739,-6.0622005,9.073226,-13.42959,4.9476385,-1.5761887,0.28300688,5.933435,4.7415094,6.8832955,-17.619816,59.583103,16.169151,0.9926105,9.136756,1.0342644,-9.554125,38.702084,63.136127,1.7194557,4.3860774,-17.161516
46,0.07936442643404007,1.8577088117599487,77.87411499023438,-0.7021854460947929,-6.710716200856719,-94.61409001263384,14.040954,6.316065,17.7167,7.915764,-13.333579,-5.817332,11.20316,-3.7040002,-5.967764,9.082671,-13.419676,4.95354,-1.5878544,0.28025123,5.930639,4.7450485,6.886641,-17.628023,59.599995,16.244795,1.0370063,9.148472,1.0170097,-9.553834,38.707436,63.14388,1.5947765,4.4506593,-17.163414
47,0.08265796303749084,1.8373539447784424,77.87659454345703,-0.7134385456340031,-6.748539135259931,-94.72350156404843,14.132395,6.333387,17.843729,7.8980827,-13.34781,-5.819916,11.220812,-3.6809103,-5.8637433,9.096053,-13.409748,4.9585977,-1.5927995,0.27205074,5.9282336,4.769222,6.8983574,-17.652393,59.60106,16.31253,1.0815774,9.162602,1.0075656,-9.5537615,38.720486,63.144096,1.4681711,4.52234,-17.163015
48,0.08625297248363495,1.8257558345794678,77.8763198852539,-0.7247891092791818,-6.782779071898659,-94.83324730142185,14.214399,6.3557105,17.96523,7.890842,-13.366828,-5.8278537,11.235071,-3.6542492,-5.760975,9.105973,-13.40206,4.9601583,-1.6042444,0.26152584,5.9217377,4.7853956,6.9059963,-17.66017,59.617577,16.365837,1.1035466,9.173587,0.99810624,-9.554019,38.718952,63.147682,1.3935267,4.5611253,-17.16095
49,0.08566692471504211,1.8292433023452759,77.87384033203125,-0.7373991840658557,-6.817296978126302,-94.94611120863432,14.297382,6.3806224,18.082375,7.8810673,-13.383679,-5.8433285,11.247483,-3.6246727,-5.657427,9.115575,-13.400355,4.955758,-1.6198701,0.24442013,5.910323,4.81049,6.9115677,-17.656973,59.635204,16.391539,1.0959514,9.184395,0.995626,-9.554069,38.701584,63.150066,1.3925115,4.5576534,-17.16055
50,0.0811857208609581,1.816529631614685,77.87427520751953,-0.7486122247448631,-6.852846795841395,-95.06280478626786,14.383844,6.405711,18.199644,7.8657393,-13.396418,-5.862063,11.257232,-3.594336,-5.5514917,9.128879,-13.40346,4.9475355,-1.6264441,0.21709956,5.904369,4.837077,6.9286547,-17.646427,59.649166,16.410452,1.0666194,9.186929,1.0012007,-9.552566,38.6449,63.14285,1.4143807,4.5285077,-17.151947
51,0.08305107802152634,1.8044017553329468,77.8711166381836,-0.7617235356068305,-6.885427516183097,-95.18362359661926,14.467645,6.432816,18.319662,7.8512745,-13.410789,-5.883056,11.263058,-3.5614781,-5.4415345,9.140958,-13.406316,4.939253,-1.631044,0.18751012,5.895426,4.864466,6.9482274,-17.637882,59.663475,16.418705,1.0338825,9.188793,1.0089434,-9.548792,38.583622,63.13362,1.4543489,4.491497,-17.142458
52,0.07729802280664444,1.7979202270507812,77.8692626953125,-0.7773173594262256,-6.912101302041429,-95.30982723229062,14.54716,6.461855,18.44631,7.83605,-13.428311,-5.905131,11.265349,-3.5253618,-5.3252473,9.14569,-13.403576,4.934962,-1.6404333,0.16402829,5.8788743,4.8960724,6.961607,-17.62822,59.67583,16.42607,1.0147487,9.193993,1.0156922,-9.545157,38.536285,63.125,1.4926308,4.46469,-17.134039
53,0.07580631971359253,1.7998920679092407,77.86460876464844,-0.7947086727862859,-6.932266331979865,-95.44375684176251,14.625551,6.4917765,18.58326,7.8131433,-13.44776,-5.9304376,11.261343,-3.4859073,-5.1989264,9.148064,-13.398834,4.937205,-1.6404679,0.14431506,5.8584175,4.930334,6.9749236,-17.62516,59.677532,16.43055,1.0143397,9.198901,1.0270957,-9.541063,38.485863,63.10499,1.5181746,4.45108,-17.123806
54,0.08058299124240875,1.794060468673706,77.8558578491211,-0.8159242760550247,-6.947223744977773,-95.5835953155231,14.701138,6.5237966,18.727121,7.789086,-13.471329,-5.9588504,11.254156,-3.4428923,-5.065569,9.144209,-13.390974,4.9432783,-1.6493264,0.13213266,5.8287864,4.9680634,6.9779563,-17.619026,59.68176,16.426165,1.0241214,9.209233,1.0363076,-9.540068,38.46124,63.085728,1.5608078,4.442388,-17.117405
55,0.08127539604902267,1.7818248271942139,77.85124969482422,-0.8375987476875344,-6.95684287721471,-95.72099306988714,14.765478,6.5579276,18.867296,7.7736154,-13.497558,-5.984931,11.243142,-3.3988082,-4.9349236,9.135581,-13.378299,4.950075,-1.6681654,0.120430864,5.7990193,4.9994745,6.979495,-17.611952,59.689636,16.41948,1.0371765,9.219148,1.0415418,-9.539395,38.438316,63.06831,1.6027336,4.435275,-17.110598
56,0.08069011569023132,1.7720632553100586,77.85013580322266,-0.8566497098549886,-6.96476121807016,-95.86812862494295,14.834234,6.590219,19.016657,7.744632,-13.512134,-6.005681,11.219002,-3.3541617,-4.7947283,9.139433,-13.364746,4.953017,-1.6617702,0.10415569,5.77014,5.046835,6.987798,-17.606934,59.67862,16.443947,1.0483449,9.220276,1.0648452,-9.536414,38.35633,63.041275,1.5935117,4.4342265,-17.089096
57,0.07427499443292618,1.7728732824325562,77.85027313232422,-0.8765603471543129,-6.963299840969284,-96.00559082757583,14.875732,6.626356,19.152075,7.7385716,-13.527157,-6.014053,11.18203,-3.3097305,-4.6656294,9.143831,-13.342639,4.9514823,-1.6780978,0.083965234,5.7372837,5.0820518,6.994966,-17.60318,59.680927,16.46553,1.0582983,9.221743,1.0823244,-9.532738,38.284454,63.02666,1.5822276,4.432932,-17.066378
58,0.06601353734731674,1.7668356895446777,77.85293579101562,-0.893655750570036,-6.954530939275746,-96.14154602840557,14.903265,6.663967,19.283617,7.7397847,-13.5395565,-6.014413,11.133508,-3.2647853,-4.538962,9.149752,-13.314305,4.9474063,-1.6966902,0.060355123,5.702039,5.1163125,7.004681,-17.600798,59.681683,16.49468,1.068975,9.21956,1.1002305,-9.52627,38.194065,63.01808,1.5515162,4.433125,-17.036238
59,0.0551532506942749,1.7626911401748657,77.85675048828125,-0.9115569082648002,-6.947484304869843,-96.28084253818763,14.932646,6.7031527,19.418243,7.742211,-13.552356,-6.016155,11.08469,-3.2184236,-4.4089646,9.157774,-13.286224,4.9424057,-1.7127519,0.034972053,5.6716404,5.148249,7.01796,-17.606676,59.684845,16.527323,1.0774878,9.217305,1.1158742,-9.515995,38.099087,63.012234,1.5132234,4.4367347,-17.009571
60,0.060992613434791565,1.7617881298065186,77.85924530029297,-0.9327667281803242,-6.951393926842488,-96.42777972724714,14.982737,6.7426724,19.563353,7.733933,-13.566026,-6.0285892,11.049028,-3.1695411,-4.2703505,9.162406,-13.261409,4.938325,-1.734254,0.013348537,5.651714,5.185045,7.0289936,-17.614193,59.689396,16.562777,1.0807457,9.218925,1.122146,-9.506719,38.030518,63.008507,1.4841405,4.4458914,-16.997602
61,0.06528858840465546,1.7571617364883423,77.8608169555664,-0.9581822016811832,-6.972025497816135,-96.58577817984474,15.063011,6.783042,19.723194,7.7134867,-13.584265,-6.058379,11.031704,-3.1172526,-4.119533,9.166765,-13.245344,4.9352307,-1.7506927,-0.003853612,5.6505437,5.2208796,7.0392027,-17.63075,59.700035,16.61031,1.0768871,9.226239,1.1181186,-9.497814,37.982986,63.00429,1.456956,4.465067,-17.005037
62,0.061352238059043884,1.7540818452835083,77.85208892822266,-0.9868850196622594,-7.00350650916031,-96.7511127833806,15.16262,6.824649,19.892893,7.6839204,-13.603658,-6.099249,11.026694,-3.0617213,-3.9605384,9.169607,-13.233718,4.9321957,-1.7737643,-0.016356347,5.6615357,5.258913,7.044946,-17.644814,59.715324,16.670258,1.0674732,9.237854,1.1045201,-9.492823,37.961876,63.00057,1.4347721,4.4927797,-17.026754
63,0.06801967322826385,1.7545182704925537,77.84481048583984,-1.014253218757786,-7.036703620372698,-96.92049177202422,15.266367,6.8655834,20.067282,7.652586,-13.622655,-6.140739,11.0230665,-3.0058253,-3.7974467,9.171826,-13.221118,4.92985,-1.7945484,-0.028873209,5.6753902,5.2982283,7.0521746,-17.669285,59.728252,16.718744,1.0562606,9.248478,1.0904896,-9.486715,37.93799,62.997337,1.4129206,4.518586,-17.051449
64,0.07078954577445984,1.7572067975997925,77.8390121459961,-1.0402197644860363,-7.0626476714500175,-97.08978875832688,15.355737,6.9061265,20.240145,7.6322126,-13.642147,-6.172556,11.009561,-2.9518402,-3.6358159,9.176121,-13.203144,4.928604,-1.8313346,-0.04250556,5.6809497,5.338192,7.0560203,-17.685425,59.74056,16.7405,1.0444149,9.252938,1.076939,-9.483746,37.92062,62.99535,1.4035202,4.533838,-17.070536
65,0.06831412017345428,1.756856083869934,77.83731079101562,-1.0615996006390978,-7.076066399261781,-97.25576385897962,15.423273,6.944643,20.407024,7.624,-13.659944,-6.188476,10.981243,-2.9012206,-3.4792871,9.18167,-13.176181,4.9293103,-1.8836021,-0.06077051,5.674641,5.376396,7.05824,-17.698786,59.749878,16.709269,1.0266534,9.246917,1.0656112,-9.482238,37.904766,62.996635,1.4108337,4.532328,-17.083513
66,0.06776128709316254,1.7440142631530762,77.83863067626953,-1.0791503891494025,-7.083712925958384,-97.42379316054782,15.486819,6.9784036,20.575352,7.6092033,-13.670214,-6.1951404,10.942987,-2.8539243,-3.3219206,9.192531,-13.145752,4.9316616,-1.9243331,-0.08087886,5.6586866,5.4273157,7.0662155,-17.742266,59.742752,16.634647,1.0062973,9.236369,1.0617021,-9.477701,37.86325,63.003506,1.4193196,4.520201,-17.09195
67,0.06691944599151611,1.7471892833709717,77.84191131591797,-1.0978952113250846,-7.0916750898733145,-97.59530480752922,15.548578,7.0133924,20.747683,7.5994782,-13.681779,-6.201366,10.903984,-2.805696,-3.1610682,9.202719,-13.113609,4.933958,-1.9479036,-0.103950575,5.643905,5.4662046,7.0829086,-17.810024,59.742043,16.55729,0.9950437,9.226372,1.0689842,-9.469323,37.793015,63.00139,1.4196974,4.5046706,-17.09579
68,0.061859916895627975,1.7533149719238281,77.84351348876953,-1.1177279586392133,-7.107934923870325,-97.77520495085258,15.623841,7.049732,20.931437,7.5857706,-13.6947155,-6.2159023,10.872656,-2.7546372,-2.9903624,9.212206,-13.08491,4.934797,-1.9632573,-0.12829164,5.6389494,5.5083647,7.111349,-17.875683,59.735348,16.529842,1.00456,9.219464,1.079199,-9.455735,37.702126,62.99037,1.3992442,4.494354,-17.091394
69,0.06939899921417236,1.748266577720642,77.8438720703125,-1.1415025873391307,-7.138850085469172,-97.96675058196008,15.724172,7.08713,21.13236,7.562414,-13.7083025,-6.2425485,10.854085,-2.6997447,-2.8056297,9.224785,-13.06408,4.933298,-2.0179574,-0.1388397,5.6420164,5.569563,7.117181,-17.879665,59.72699,16.6001,1.0485828,9.222182,1.0780358,-9.452777,37.657616,62.97669,1.3683704,4.49246,-17.080196
70,0.06796085089445114,1.74961256980896,77.84033203125,-1.168648724461454,-7.179844226738835,-98.16706799739967,15.84067,7.1249003,21.34594,7.533495,-13.72197,-6.276206,10.843234,-2.6426818,-2.6102967,9.2404,-13.048096,4.9304023,-2.0508702,-0.14598894,5.657767,5.6288595,7.127255,-17.888268,59.713726,16.728807,1.1180317,9.226282,1.0857853,-9.447683,37.56166,62.94995,1.29628,4.4926,-17.053782
71,0.07057717442512512,1.7473379373550415,77.83728790283203,-1.1950831711559264,-7.218545925487018,-98.37110997759002,15.954745,7.162781,21.563124,7.5038724,-13.734628,-6.3119287,10.829599,-2.5843914,-2.4115858,9.252928,-13.029891,4.927532,-2.0892854,-0.1513949,5.672194,5.68478,7.135215,-17.89488,59.70755,16.859156,1.1870894,9.234991,1.0908535,-9.443627,37.471912,62.922813,1.2373289,4.4966803,-17.02886
72,0.08372753858566284,1.7583733797073364,77.83395385742188,-1.220798682782091,-7.244689824886295,-98.57503098926848,16.050995,7.1992674,21.776491,7.4751115,-13.744426,-6.344769,10.798405,-2.5264783,-2.2145958,9.265063,-13.005957,4.926051,-2.1313539,-0.15917051,5.680228,5.7276163,7.143208,-17.906105,59.715137,16.944332,1.2299026,9.244771,1.0917329,-9.4401655,37.38633,62.896587,1.2101213,4.505712,-17.01178
73,0.08692708611488342,1.7680920362472534,77.83207702636719,-1.2443960850428695,-7.2500750312979285,-98.77568786863891,16.118423,7.2335243,21.981123,7.4458346,-13.747845,-6.3763194,10.743218,-2.4700303,-2.024517,9.271365,-12.973298,4.9260135,-2.1895077,-0.16939588,5.6774774,5.7577553,7.147866,-17.918262,59.735226,16.96023,1.2354623,9.258073,1.0808238,-9.438481,37.32771,62.875153,1.244983,4.5226626,-17.005821
74,0.08533182740211487,1.7768114805221558,77.830322265625,-1.2677946327103913,-7.242955734697394,-98.97612779874326,16.169634,7.2652597,22.182585,7.412932,-13.745538,-6.4081826,10.670549,-2.414533,-1.836504,9.277918,-12.937316,4.9269476,-2.2082295,-0.18463923,5.675254,5.755502,7.165814,-17.977581,59.772606,16.931948,1.2197802,9.272466,1.081461,-9.432872,37.201817,62.841267,1.2866422,4.544737,-16.99732
75,0.09433034062385559,1.7933093309402466,77.83277893066406,-1.289993775536365,-7.233697303454593,-99.1807583739006,16.217243,7.2980413,22.386618,7.384282,-13.74562,-6.4354305,10.593323,-2.357852,-1.6443123,9.285083,-12.897435,4.929161,-2.24358,-0.2016334,5.6691046,5.763784,7.185787,-18.024769,59.807545,16.89174,1.1953511,9.287371,1.0758505,-9.427185,37.106953,62.811195,1.3457657,4.568153,-16.99798
76,0.1043272316455841,1.80625581741333,77.83145904541016,-1.313942601883483,-7.234340912657081,-99.39445051954038,16.276674,7.3348236,22.600115,7.3634286,-13.753085,-6.4534745,10.526994,-2.297219,-1.440337,9.292006,-12.8535,4.9330816,-2.2754133,-0.21815717,5.668162,5.780517,7.2089696,-18.06376,59.84057,16.871658,1.175578,9.297879,1.0755239,-9.420842,37.012894,62.776028,1.3748785,4.5871778,-17.003435
77,0.10588434338569641,1.8140729665756226,77.83140563964844,-1.3419729983897888,-7.248532220630247,-99.61854927155188,16.348824,7.379848,22.823177,7.361689,-13.77577,-6.4545465,10.474218,-2.2300913,-1.2213899,9.301882,-12.802958,4.9402957,-2.33613,-0.22508618,5.6645417,5.817619,7.2146096,-18.062449,59.88355,16.883821,1.1603763,9.310985,1.0676298,-9.41938,36.975704,62.75132,1.3852192,4.60431,-17.025461
78,0.11188048124313354,1.818942666053772,77.83440399169922,-1.3688653641078967,-7.2716609042355556,-99.85513587209796,16.439402,7.423402,23.058691,7.35094,-13.797461,-6.4432917,10.424738,-2.160765,-0.98657906,9.321936,-12.750596,4.9504313,-2.3527246,-0.23483731,5.6754904,5.846805,7.2282386,-18.071222,59.92681,16.924854,1.1428576,9.3141165,1.079106,-9.416768,36.867416,62.70511,1.3257972,4.620921,-17.041492
79,0.11644553393125534,1.8241139650344849,77.83737182617188,-1.396437097871021,-7.296336536851328,-100.09383764974311,16.52595,7.471746,23.29675,7.356157,-13.827766,-6.43352,10.37975,-2.089207,-0.7508343,9.336701,-12.697026,4.959833,-2.400934,-0.23951292,5.6781845,5.883571,7.232604,-18.0697,59.97765,16.95356,1.1296343,9.322437,1.0793316,-9.416189,36.820198,62.673893,1.3009638,4.6310277,-17.069635
80,0.12236610054969788,1.8316245079040527,77.83912658691406,-1.4231886470032848,-7.321123274500192,-100.33537951772185,16.625217,7.509263,23.542738,7.332318,-13.842538,-6.438589,10.331764,-2.022443,-0.5164485,9.3555155,-12.654675,4.9658246,-2.4074736,-0.25239217,5.696307,5.894382,7.253512,-18.101173,60.022114,16.981264,1.1234462,9.317635,1.0978357,-9.415457,36.689266,62.620003,1.2526188,4.629047,-17.078676
81,0.13355621695518494,1.8424127101898193,77.83888244628906,-1.4461872432581773,-7.343667365133553,-100.5763999783401,16.723616,7.541039,23.79453,7.304874,-13.854275,-6.465994,10.2855215,-1.9609398,-0.28966197,9.367537,-12.625443,4.9660006,-2.4746408,-0.26202038,5.7041135,5.9254923,7.262003,-18.108524,60.053047,16.982182,1.1304631,9.312829,1.0856481,-9.4158,36.64699,62.599834,1.271338,4.6084266,-17.093391
82,0.14101684093475342,1.8389116525650024,77.83505249023438,-1.4670286642942019,-7.369251164872184,-100.82315585261611,16.839472,7.5607047,24.057941,7.2468143,-13.850505,-6.5071793,10.238342,-1.9047935,-0.061424855,9.385894,-12.609415,4.9627233,-2.535701,-0.27584115,5.720886,5.9521847,7.273263,-18.124918,60.07195,16.976097,1.1484097,9.300382,1.075835,-9.417328,36.587666,62.573757,1.2890257,4.574601,-17.101915
83,0.15258069336414337,1.849645972251892,77.83108520507812,-1.4882407056999998,-7.390543333059323,-101.06803801901053,16.945835,7.583959,24.318438,7.1983213,-13.850103,-6.551849,10.187963,-1.846463,0.16381344,9.401526,-12.591841,4.9588118,-2.600337,-0.28889126,5.735506,5.9723263,7.2864823,-18.144487,60.093792,16.968792,1.1657208,9.287313,1.0648122,-9.419598,36.534992,62.549908,1.3292236,4.537334,-17.106794
84,0.1584223508834839,1.8663698434829712,77.8300552368164,-1.5139301756078898,-7.403970131304374,-101.30799868389742,17.036526,7.615203,24.568157,7.159414,-13.851385,-6.58973,10.1306715,-1.7816938,0.3864207,9.411647,-12.560005,4.9575987,-2.6584225,-0.3027384,5.746404,5.9841948,7.3063946,-18.165417,60.12079,16.97506,1.1733489,9.275961,1.0596299,-9.423071,36.481834,62.521275,1.3915249,4.50747,-17.106083
85,0.15390795469284058,1.88232421875,77.82989501953125,-1.543510636643582,-7.405404895870327,-101.53989505802038,17.103094,7.6597347,24.800257,7.1378574,-13.857438,-6.617521,10.062844,-1.7068863,0.60382044,9.414546,-12.507504,4.9615602,-2.7227595,-0.31133854,5.7478156,5.986838,7.315432,-18.170256,60.163757,17.012613,1.1666105,9.269946,1.049066,-9.424448,36.46423,62.501896,1.5093044,4.4872055,-17.103062
86,0.15604297816753387,1.8981995582580566,77.82994842529297,-1.5754662258112673,-7.398650879769468,-101.76726414981516,17.157135,7.7100863,25.022078,7.119955,-13.862558,-6.640759,9.986297,-1.6267368,0.8178544,9.4155035,-12.443621,4.9686337,-2.7805676,-0.32258037,5.7483687,5.9752746,7.3314476,-18.172564,60.215874,17.069468,1.1496309,9.262847,1.0390346,-9.426487,36.45128,62.480854,1.6618743,4.4705334,-17.093746
87,0.1639161854982376,1.9089338779449463,77.83235931396484,-1.6092016320389586,-7.389715050907097,-101.9946025241053,17.207716,7.7617908,25.24369,7.101935,-13.866289,-6.662598,9.9072,-1.5444064,1.0327458,9.415549,-12.376985,4.974762,-2.8409297,-0.34363005,5.7536135,5.9757853,7.3734226,-18.172863,60.240612,17.117949,1.1306337,9.250157,1.0399171,-9.4300165,36.43196,62.438053,1.8071121,4.4585238,-17.077888
88,0.1659790277481079,1.9183274507522583,77.8354263305664,-1.6422433386119986,-7.384216909176533,-102.22771497146651,17.264399,7.8096437,25.475555,7.083516,-13.8721285,-6.686092,9.828707,-1.4643455,1.2540464,9.421936,-12.3187685,4.9761257,-2.9089196,-0.36312255,5.757284,5.9851775,7.417278,-18.174105,60.25372,17.14107,1.1204758,9.243101,1.0466099,-9.43139,36.384884,62.393597,1.8967443,4.4512773,-17.058868
89,0.1729852706193924,1.9306728839874268,77.83466339111328,-1.6714553196652746,-7.3839844931653476,-102.4698464193342,17.3333,7.851148,25.72456,7.0563545,-13.875685,-6.7134323,9.751779,-1.3865753,1.4855034,9.435786,-12.271819,4.968143,-2.9718769,-0.3811142,5.7618117,5.998662,7.4671817,-18.193314,60.25389,17.122688,1.1251757,9.244008,1.0702641,-9.429683,36.274128,62.33981,1.8958098,4.447401,-17.032343
90,0.1747157871723175,1.9387630224227905,77.83269500732422,-1.7020432883110752,-7.384998373452528,-102.71587339083685,17.401968,7.8932333,25.981337,7.0359015,-13.883559,-6.7424417,9.676098,-1.3084075,1.7217453,9.449497,-12.228204,4.954098,-3.0890708,-0.37958744,5.744642,6.0222387,7.473957,-18.187305,60.27495,17.075754,1.1404152,9.2677555,1.0772398,-9.42895,36.222706,62.322613,1.885809,4.4472833,-17.017263
91,0.17633937299251556,1.9461628198623657,77.83324432373047,-1.729300141098362,-7.388247934615981,-102.96638713130332,17.482666,7.926189,26.243792,6.9951696,-13.882337,-6.7699547,9.597314,-1.233401,1.9623822,9.473616,-12.190857,4.9419613,-3.0887353,-0.400212,5.760525,5.994488,7.536965,-18.257275,60.28797,17.03349,1.1521469,9.269958,1.1395311,-9.41971,35.9502,62.23765,1.7588186,4.452453,-16.968151
92,0.18641826510429382,1.9626541137695312,77.83673095703125,-1.755536429923515,-7.389375205536663,-103.21177396178265,17.554024,7.9611254,26.496037,6.9682636,-13.888884,-6.7927527,9.523016,-1.1597526,2.196019,9.487778,-12.147284,4.939392,-3.1596067,-0.41231668,5.757894,5.99421,7.5679173,-18.270267,60.304237,17.002539,1.1577297,9.280105,1.1653268,-9.413643,35.820454,62.18722,1.7176571,4.467214,-16.94284
93,0.19318149983882904,1.9650155305862427,77.83541870117188,-1.7791964506000837,-7.38908937626071,-103.45158521162344,17.616354,7.996604,26.734764,6.957328,-13.905474,-6.8068013,9.455227,-1.0895002,2.4222898,9.490831,-12.096343,4.9493484,-3.2321327,-0.4303978,5.7542057,5.990146,7.5991826,-18.270185,60.327198,16.986631,1.1498708,9.286014,1.182983,-9.406924,35.71507,62.135185,1.7184507,4.496853,-16.924274
94,0.19972555339336395,1.985532283782959,77.83882904052734,-1.800422320152247,-7.388832042054819,-103.68997178502144,17.677519,8.029711,26.967882,6.9488735,-13.925162,-6.8150377,9.388898,-1.0217099,2.6461217,9.493661,-12.044422,4.9672937,-3.2951052,-0.45789644,5.756877,5.983714,7.641225,-18.2683,60.34046,16.97581,1.1361352,9.285345,1.2059158,-9.397543,35.604923,62.06424,1.7272868,4.5387406,-16.907038
95,0.1992751806974411,1.9793294668197632,77.8357162475586,-1.821529577966724,-7.3874977158403174,-103.92694430133461,17.73713,8.061476,27.199139,6.9390745,-13.943265,-6.8241525,9.324083,-0.95544213,2.8667989,9.4913435,-11.990425,4.990267,-3.3719323,-0.48485643,5.757524,5.9806013,7.682435,-18.253609,60.35068,16.978563,1.1198856,9.282038,1.2178239,-9.38777,35.521454,62.00347,1.7495123,4.5806007,-16.893766
96,0.20604203641414642,2.0020344257354736,77.83821105957031,-1.8445992440337302,-7.3853596406107656,-104.16437706749866,17.7953,8.093272,27.43396,6.9286327,-13.959045,-6.841209,9.258883,-0.8888423,3.085472,9.48396,-11.9352455,5.0152063,-3.4540668,-0.50482863,5.759731,5.9707956,7.71843,-18.237833,60.359886,17.003122,1.108344,9.274984,1.2203631,-9.379862,35.447906,61.956963,1.763896,4.610725,-16.881578
97,0.22147218883037567,2.026362419128418,77.83612823486328,-1.8677009677262861,-7.3818592307866036,-104.40181921897675,17.85159,8.123729,27.674076,6.9155164,-13.969394,-6.8705983,9.192263,-0.82370615,3.2996092,9.471583,-11.880598,5.045261,-3.5306308,-0.52428097,5.770496,5.9553533,7.767703,-18.228142,60.35273,17.06649,1.1052067,9.254423,1.2147422,-9.370352,35.371876,61.91966,1.7580496,4.6261578,-16.868105
98,0.2339121401309967,2.040322780609131,77.83580017089844,-1.8927350660489988,-7.377536917729526,-104.6384726921532,17.906504,8.152891,27.916668,6.8996015,-13.9756365,-6.907748,9.126519,-0.7598781,3.5096312,9.451271,-11.82382,5.0807223,-3.6118727,-0.5373051,5.782839,5.9313836,7.81054,-18.21407,60.34693,17.162037,1.1068791,9.2279415,1.1997249,-9.363989,35.308937,61.894974,1.7455665,4.6335325,-16.856596
99,0.23889487981796265,2.041783094406128,77.8333740234375,-1.918636719036466,-7.370741214630767,-104.87407568033821,17.954866,8.185566,28.157568,6.891893,-13.985568,-6.9457817,9.059289,-0.6943715,3.7187116,9.428788,-11.765548,5.114462,-3.7119186,-0.5358871,5.779681,5.909992,7.8319836,-18.205196,60.353783,17.244164,1.1104195,9.215989,1.1775533,-9.361494,35.278675,61.89341,1.7546142,4.6333084,-16.85375
100,0.24385035037994385,2.056661367416382,77.83384704589844,-1.9455828081099948,-7.366614474753683,-105.11672637535032,18.013794,8.216871,28.404253,6.87269,-13.993152,-6.978592,8.9885235,-0.62478286,3.9394498,9.418306,-11.709831,5.139368,-3.7931926,-0.5440548,5.793985,5.8650117,7.864967,-18.2058,60.3666,17.290659,1.0991056,9.202533,1.1653755,-9.358584,35.207073,61.86424,1.7524755,4.6286077,-16.83798
101,0.2512306272983551,2.074012517929077,77.8359375,-1.9731930258844639,-7.360265619476411,-105.3618799103219,18.070011,8.254662,28.649223,6.8579407,-14.00599,-7.0036893,8.911404,-0.54788613,4.16861,9.418653,-11.655174,5.150617,-3.8564851,-0.5621723,5.8006806,5.8324013,7.9324813,-18.272493,60.360004,17.239359,1.0780829,9.207929,1.1772395,-9.350814,35.109158,61.819992,1.7752842,4.6084127,-16.823427
102,0.25127002596855164,2.0926992893218994,77.83784484863281,-2.0008180461072667,-7.3525351242696395,-105.60994011283064,18.126366,8.296189,28.89482,6.8442016,-14.022211,-7.0249496,8.83201,-0.46562812,4.404454,9.421596,-11.598907,5.152972,-3.9175048,-0.5862127,5.8021965,5.8087635,8.022289,-18.373901,60.341755,17.127106,1.0493199,9.225053,1.1953247,-9.336653,35.01067,61.776585,1.8197706,4.57568,-16.811665
103,0.2568778097629547,2.0969936847686768,77.83601379394531,-2.031119350167186,-7.34520202190911,-105.85810847298143,18.183775,8.337014,29.140621,6.827913,-14.036779,-7.0438795,8.751711,-0.3827954,4.6412845,9.427145,-11.542745,5.153668,-3.99627,-0.5998033,5.7967796,5.7754045,8.081559,-18.451523,60.3486,17.01755,1.0184594,9.249595,1.2032701,-9.325012,34.93057,61.746696,1.8675544,4.547489,-16.798819
104,0.26243865489959717,2.10632586479187,77.83306121826172,-2.0585053246909615,-7.337863728037833,-106.10312491595852,18.239594,8.374754,29.384527,6.8135266,-14.050457,-7.0622144,8.673123,-0.30343336,4.872722,9.431249,-11.486886,5.159751,-4.061224,-0.62192476,5.7957644,5.7452836,8.156581,-18.520792,60.343216,16.93406,0.99239796,9.259998,1.2132452,-9.308789,34.828636,61.70791,1.8886212,4.5378346,-16.775349
105,0.26687878370285034,2.117016077041626,77.83283233642578,-2.0858786228814594,-7.332388368517631,-106.34335431423085,18.295612,8.4082155,29.626507,6.798217,-14.060538,-7.0795455,8.599063,-0.22877575,5.096742,9.4317045,-11.43041,5.1722794,-4.1410995,-0.63862807,5.7945952,5.7138658,8.209067,-18.533718,60.350155,16.906101,0.96940935,9.255585,1.212285,-9.296433,34.733734,61.66979,1.8769459,4.5637193,-16.732939
106,0.2832454442977905,2.1306393146514893,77.8345718383789,-2.112950678700504,-7.327770911376546,-106.58067671779398,18.351898,8.439022,29.867233,6.781913,-14.068264,-7.095322,8.527803,-0.15668155,5.316651,9.429867,-11.37281,5.187641,-4.2128806,-0.66454697,5.7983017,5.6886616,8.277788,-18.533014,60.3432,16.897652,0.94765764,9.2372465,1.2123749,-9.278757,34.61817,61.620934,1.8371174,4.611935,-16.674183
107,0.28878700733184814,2.1423213481903076,77.84066009521484,-2.137694641985743,-7.32185440790477,-106.81733897605214,18.407177,8.467862,30.107018,6.763416,-14.073575,-7.110893,8.457175,-0.08605326,5.5348744,9.424795,-11.314584,5.206237,-4.296187,-0.6814795,5.7965884,5.6552644,8.322024,-18.511187,60.35406,16.906631,0.9304353,9.223309,1.2047626,-9.266993,34.523464,61.583202,1.8035963,4.65746,-16.624834
108,0.2952536642551422,2.1504886150360107,77.84039306640625,-2.161614408830287,-7.313280051396856,-107.05535997488508,18.459764,8.494288,30.346153,6.745725,-14.080375,-7.1275425,8.383672,-0.017148692,5.754168,9.418785,-11.258116,5.2285223,-4.370154,-0.70232123,5.7961855,5.622173,8.376726,-18.50454,60.35115,16.911354,0.92237025,9.214852,1.1986158,-9.252646,34.430855,61.54998,1.7872468,4.6732845,-16.60279
109,0.30815815925598145,2.1570839881896973,77.83647155761719,-2.182268093628917,-7.298749707251542,-107.29684973170755,18.507542,8.51589,30.58428,6.7253537,-14.086604,-7.144323,8.305332,0.048716113,5.9764056,9.406767,-11.201393,5.2562885,-4.444248,-0.71722215,5.7889457,5.5783896,8.4170265,-18.505144,60.354786,16.918892,0.93054,9.224024,1.1860818,-9.243191,34.37232,61.540665,1.8133366,4.6420646,-16.62799
110,0.3106032907962799,2.154693365097046,77.83599853515625,-2.2003983628331736,-7.280252625472257,-107.54022423324287,18.549889,8.534652,30.820978,6.7069583,-14.093833,-7.1610193,8.222944,0.11181797,6.1999817,9.392659,-11.145822,5.2886467,-4.5070057,-0.7393065,5.784305,5.5385113,8.474244,-18.518612,60.335804,16.926363,0.9513961,9.236566,1.17493,-9.231421,34.31827,61.535645,1.8564408,4.580601,-16.681742
111,0.31833162903785706,2.176856279373169,77.8360595703125,-2.218798166685289,-7.262907461124362,-107.78172892293078,18.59548,8.553176,31.057796,6.684393,-14.098796,-7.179974,8.144842,0.17536691,6.421415,9.37476,-11.089052,5.3222632,-4.580355,-0.7522916,5.7745323,5.49196,8.510369,-18.524168,60.336277,16.93616,0.97006804,9.254654,1.1607304,-9.225378,34.27652,61.53382,1.9060551,4.517359,-16.741467
112,0.3321303427219391,2.1918184757232666,77.8365249633789,-2.2414515333267384,-7.251811729920206,-108.0175935829013,18.649263,8.575396,31.295887,6.661279,-14.103853,-7.2034397,8.075775,0.24207361,6.6372776,9.358912,-11.032673,5.353597,-4.653664,-0.7709507,5.769007,5.453691,8.5623255,-18.53597,60.333904,16.930828,0.97171605,9.261956,1.1569893,-9.218139,34.205048,61.50389,1.9305223,4.4790115,-16.777027
113,0.33695366978645325,2.2040722370147705,77.83676147460938,-2.2694495595021964,-7.251282036754757,-108.24543189284006,18.71453,8.606784,31.537754,6.6419854,-14.110528,-7.235702,8.023663,0.31526947,6.8453093,9.341227,-10.973709,5.379372,-4.7602587,-0.7731426,5.752343,5.422166,8.579402,-18.528448,60.3682,16.913204,0.949835,9.267996,1.1504393,-9.21643,34.15083,61.466377,1.9451251,4.4813485,-16.787119
114,0.34315264225006104,2.207348108291626,77.83797454833984,-2.3006207713992897,-7.257909337286471,-108.46785137166114,18.792091,8.640831,31.782782,6.615682,-14.113463,-7.274398,7.9816613,0.39225334,7.04801,9.32604,-10.915504,5.402136,-4.8243923,-0.7944478,5.760687,5.379577,8.6476345,-18.552471,60.38704,16.881495,0.9087685,9.249304,1.172163,-9.2111025,33.99575,61.369644,1.9060332,4.5050015,-16.763361
115,0.34433382749557495,2.222806215286255,77.83830261230469,-2.332647063982421,-7.264571420468504,-108.6882344667066,18.869268,8.673845,32.024837,6.5881934,-14.1158695,-7.3117394,7.941812,0.4682872,7.248223,9.307105,-10.855567,5.427435,-4.905469,-0.8154193,5.7602415,5.3533506,8.713804,-18.576069,60.400898,16.839207,0.8659643,9.235636,1.1918769,-9.206441,33.86169,61.274334,1.8738428,4.531774,-16.740795
116,0.35709893703460693,2.215855121612549,77.8364028930664,-2.3586021513894724,-7.264213908154043,-108.91062964663321,18.936022,8.700446,32.258568,6.56342,-14.120679,-7.339994,7.8938003,0.53787905,7.4498105,9.286603,-10.796126,5.460908,-5.0060916,-0.8318745,5.748749,5.325673,8.754908,-18.583931,60.424957,16.807825,0.83311874,9.237798,1.1982899,-9.204347,33.753292,61.202168,1.8502595,4.542076,-16.73267
117,0.3699272871017456,2.223148822784424,77.83763122558594,-2.3780992010406803,-7.255543826385283,-109.1347514685976,18.988953,8.716627,32.47632,6.540056,-14.128091,-7.35249,7.8369894,0.59728515,7.651992,9.259887,-10.735592,5.5083027,-5.083698,-0.8659532,5.7429605,5.2977414,8.827126,-18.623434,60.41851,16.773209,0.81494784,9.248644,1.2140151,-9.201676,33.60496,61.120403,1.8115697,4.522436,-16.731985
118,0.378329336643219,2.232997417449951,77.8358154296875,-2.3919460132235013,-7.242045199270061,-109.35918363153706,19.03399,8.725602,32.683445,6.516822,-14.137127,-7.3547926,7.7755623,0.6496397,7.8537292,9.228752,-10.674082,5.565346,-5.1795826,-0.90084416,5.7300177,5.274258,8.88703,-18.651392,60.41159,16.744806,0.80451846,9.272649,1.219891,-9.199978,33.474045,61.053345,1.7753407,4.4868174,-16.74095
119,0.3885756731033325,2.2398314476013184,77.83563232421875,-2.406500832360478,-7.2249436619296485,-109.58495713915431,19.075848,8.733424,32.89213,6.492443,-14.144734,-7.3579745,7.7094707,0.70161974,8.056758,9.198615,-10.613723,5.621989,-5.2706738,-0.9379404,5.7133303,5.252972,8.952356,-18.687733,60.400608,16.711382,0.7951751,9.296705,1.2294555,-9.198954,33.338806,60.98156,1.7404208,4.4527044,-16.75239
120,0.39371395111083984,2.2442150115966797,77.83547973632812,-2.424381948504817,-7.205189116137808,-109.81350551416801,19.119406,8.745826,33.115154,6.4659805,-14.148967,-7.3731112,7.64157,0.75994045,8.262766,9.169863,-10.554098,5.6683044,-5.3646555,-0.96674067,5.686886,5.2355337,9.007842,-18.719511,60.399475,16.673134,0.78048754,9.31479,1.2382247,-9.199273,33.222828,60.90995,1.7214435,4.438296,-16.766275
121,0.4043304920196533,2.2497105598449707,77.838134765625,-2.4483395437743742,-7.178948501558537,-110.04507938233299,19.161852,8.76431,33.359146,6.436095,-14.147004,-7.4068837,7.5641317,0.82693607,8.473092,9.1485,-10.49833,5.697051,-5.4440556,-0.9934066,5.649125,5.22533,9.075974,-18.765121,60.395397,16.611696,0.75522643,9.319189,1.2588676,-9.201448,33.11134,60.817463,1.7182022,4.4559817,-16.779684
122,0.4078640937805176,2.2529990673065186,77.8338851928711,-2.474597516934861,-7.146718922011913,-110.27906222325248,19.202467,8.785871,33.616364,6.4027095,-14.140281,-7.452208,7.4813166,0.89894944,8.686593,9.12741,-10.443217,5.7150607,-5.5370874,-1.0069185,5.593868,5.2133975,9.1178465,-18.793919,60.415665,16.546694,0.7235772,9.323238,1.2701356,-9.204059,33.033756,60.73666,1.7354066,4.4937897,-16.799423
123,0.4148743152618408,2.2457809448242188,77.8302993774414,-2.5027722182179497,-7.11784812626155,-110.51489258003923,19.2468,8.809283,33.877167,6.371504,-14.134701,-7.4992204,7.4013753,0.97293925,8.900856,9.108115,-10.388089,5.733635,-5.6177053,-1.023652,5.5454245,5.206808,9.172809,-18.837729,60.423805,16.483307,0.6950743,9.321504,1.2928318,-9.209492,32.94067,60.642105,1.7501788,4.532688,-16.816797
124,0.42563727498054504,2.254157543182373,77.82854461669922,-2.529305750850351,-7.100743798414237,-110.75166881975427,19.3059,8.830504,34.132748,6.337374,-14.132007,-7.5380244,7.337418,1.0460918,9.113446,9.0826645,-10.32784,5.7640433,-5.709583,-1.0398529,5.510319,5.2040277,9.220624,-18.87145,60.431797,16.449461,0.67688227,9.321136,1.3100781,-9.215643,32.84891,60.561993,1.7617015,4.5529237,-16.832249
125,0.4384274482727051,2.255913496017456,77.8271484375,-2.5571936038450116,-7.103061801273167,-110.98924132004267,19.385578,8.850364,34.37927,6.3014655,-14.133305,-7.5640593,7.2964373,1.1181748,9.322693,9.051807,-10.260721,5.8115582,-5.8062487,-1.0580915,5.499587,5.2041645,9.2664175,-18.902988,60.43319,16.455002,0.6722644,9.321961,1.3243515,-9.222969,32.755333,60.497787,1.7588184,4.543604,-16.842024
126,0.44921770691871643,2.261228084564209,77.82946014404297,-2.585979611302281,-7.118329052430628,-111.22782020532833,19.479805,8.8695,34.62203,6.266379,-14.139294,-7.5831046,7.2712073,1.1904656,9.530097,9.01732,-10.189176,5.869366,-5.894132,-1.082824,5.509779,5.210789,9.328962,-18.947102,60.415764,16.480438,0.676417,9.318054,1.3475964,-9.23458,32.646854,60.42653,1.7449126,4.5170927,-16.844799
127,0.4547787010669708,2.2588212490081787,77.8314437866211,-2.6147173339203134,-7.1351349988216946,-111.46791446667618,19.576355,8.887897,34.86493,6.230076,-14.14501,-7.601497,7.2494187,1.2623268,9.738715,8.979504,-10.116817,5.9306936,-5.984869,-1.1107498,5.5245037,5.2296963,9.401423,-18.98929,60.38376,16.512136,0.68634665,9.309831,1.3777341,-9.249237,32.52338,60.344288,1.7364178,4.4888926,-16.84782
128,0.4576244354248047,2.2614760398864746,77.82804870605469,-2.641349762187715,-7.142718599741915,-111.70970762844034,19.664553,8.903416,35.111588,6.191586,-14.148916,-7.6252213,7.217779,1.3327324,9.951453,8.941124,-10.048859,5.988959,-6.09195,-1.1305766,5.52175,5.2487283,9.450716,-19.010237,60.37205,16.544043,0.69920015,9.304082,1.4022104,-9.259807,32.385323,60.26714,1.74843,4.474303,-16.860394
129,0.46199527382850647,2.2607221603393555,77.82447814941406,-2.6677249694133547,-7.136112400049299,-111.95185012004565,19.737938,8.916671,35.36118,6.151838,-14.14943,-7.658772,7.1708455,1.4008884,10.168428,8.903698,-9.990025,6.0410647,-6.198795,-1.1476191,5.5023484,5.269907,9.497167,-19.03084,60.36602,16.564274,0.71931905,9.296485,1.4385529,-9.270584,32.19507,60.163834,1.784221,4.4851303,-16.878517
130,0.473705917596817,2.254713535308838,77.82120513916016,-2.691507715864181,-7.121795695805114,-112.19473750610449,19.803633,8.927709,35.612103,6.1111546,-14.148562,-7.6978745,7.1167397,1.467329,10.38852,8.864987,-9.936209,6.090946,-6.302013,-1.1630341,5.4748034,5.29172,9.54265,-19.055264,60.363575,16.580645,0.7464795,9.287113,1.4855886,-9.282171,31.96116,60.04095,1.8349313,4.5104475,-16.899319
131,0.49080219864845276,2.263598918914795,77.81627655029297,-2.7159479146910526,-7.1058570833864545,-112.44125981892026,19.869205,8.936523,35.86779,6.069705,-14.148107,-7.7356977,7.0612645,1.5328679,10.612094,8.824149,-9.880517,6.142605,-6.3960705,-1.1787664,5.4455667,5.3137345,9.590956,-19.088318,60.362034,16.591013,0.77205044,9.275567,1.5430655,-9.295244,31.70243,59.91186,1.8836051,4.5318933,-16.924131
132,0.4971961975097656,2.2614476680755615,77.81190490722656,-2.738865343000194,-7.094225971109746,-112.6941880519991,19.942154,8.943681,36.131783,6.0253506,-14.147676,-7.7654567,7.009797,1.5992297,10.839582,8.783975,-9.818749,6.1998463,-6.5028253,-1.1921532,5.4142623,5.3415675,9.626276,-19.101852,60.36882,16.604765,0.78692657,9.26475,1.58983,-9.30523,31.473305,59.816887,1.9226825,4.5308013,-16.959848
133,0.5031643509864807,2.2545807361602783,77.81149291992188,-2.76073424847125,-7.089465285812036,-112.9546995969276,20.02517,8.946643,36.406166,5.978339,-14.148264,-7.780669,6.9641094,1.6647311,11.071172,8.745741,-9.748116,6.265283,-6.5952463,-1.2091769,5.3889785,5.3669004,9.66432,-19.126131,60.37992,16.611923,0.78609586,9.252949,1.643801,-9.316403,31.242414,59.742153,1.9344081,4.49273,-17.010485
134,0.5038596391677856,2.253542900085449,77.8081283569336,-2.780553147104932,-7.087603047563355,-113.22106830524962,20.115316,8.945635,36.688686,5.927103,-14.148611,-7.7864366,6.922361,1.7295378,11.306468,8.706289,-9.670818,6.3363075,-6.683965,-1.2282993,5.3656926,5.3967323,9.704591,-19.151104,60.3905,16.61445,0.77485406,9.239393,1.7022878,-9.328215,31.011976,59.680202,1.9335953,4.430811,-17.073492
135,0.5143272876739502,2.248117446899414,77.80957794189453,-2.801940933502172,-7.086572698801742,-113.4920278464034,20.206825,8.945346,36.975933,5.8766823,-14.150057,-7.7935295,6.8802195,1.7968415,11.545668,8.6672735,-9.592133,6.4092727,-6.7866836,-1.2443824,5.3372335,5.4356537,9.735652,-19.15623,60.40313,16.62076,0.7610487,9.224538,1.7492434,-9.337035,30.80343,59.640114,1.9351991,4.3675423,-17.134285
136,0.5331424474716187,2.253225326538086,77.80888366699219,-2.826606552568125,-7.08264215000167,-113.76730457346224,20.298258,8.9489565,37.265327,5.822193,-14.14804,-7.8128114,6.836892,1.8700105,11.789161,8.622833,-9.512836,6.480392,-6.8744307,-1.2580075,5.3090324,5.4697933,9.771099,-19.169575,60.413155,16.626871,0.7537246,9.203953,1.8037835,-9.3463955,30.575039,59.58613,1.9339675,4.326724,-17.169882
137,0.544651985168457,2.2512431144714355,77.80387878417969,-2.8567147164056137,-7.07745220592161,-114.04429863972085,20.38949,8.960478,37.55461,5.7672253,-14.143794,-7.8515677,6.7950177,1.9513459,12.034792,8.571315,-9.43344,6.5491285,-6.95423,-1.2677867,5.2798185,5.5094743,9.81447,-19.183477,60.409836,16.632849,0.75667256,9.172002,1.8641406,-9.3553915,30.324497,59.51493,1.9342064,4.3184056,-17.165312
138,0.5471054911613464,2.244980573654175,77.79893493652344,-2.8912969665781523,-7.071696442501178,-114.32449642435436,20.48022,8.977996,37.84577,5.715006,-14.139835,-7.902501,6.754663,2.0382109,12.283323,8.514371,-9.352472,6.617323,-7.0436115,-1.2743587,5.245924,5.5589814,9.854464,-19.179161,60.401157,16.643368,0.7647719,9.13334,1.9176643,-9.36124,30.080347,59.44969,1.9383186,4.328981,-17.138218
139,0.5547552704811096,2.2487475872039795,77.79264831542969,-2.9269102875398376,-7.062920313486754,-114.61079863844951,20.568802,8.995348,38.14112,5.661232,-14.1351595,-7.954554,6.70861,2.127921,12.537997,8.458514,-9.272362,6.6847706,-7.128186,-1.2785381,5.209979,5.607321,9.894548,-19.177807,60.394012,16.653543,0.77183694,9.096387,1.966794,-9.3645735,29.847376,59.392418,1.9462948,4.3440986,-17.108944
140,0.5619583129882812,2.2458531856536865,77.78877258300781,-2.959909169639302,-7.047917516440787,-114.90702371256972,20.65285,9.006825,38.442978,5.6049905,-14.131487,-7.9964843,6.653758,2.2164824,12.802492,8.40094,-9.190798,6.751412,-7.200547,-1.283828,5.1733756,5.6492257,9.939692,-19.193758,60.39194,16.65869,0.7714927,9.069642,2.007476,-9.367108,29.641308,59.352436,1.9621643,4.3495073,-17.100527
141,0.5721520185470581,2.238192081451416,77.78681182861328,-2.9886783298183808,-7.022163788597108,-115.21717776052677,20.72759,9.009312,38.752678,5.5445733,-14.128978,-8.022054,6.5809264,2.302801,13.080892,8.34839,-9.111614,6.816066,-7.2893877,-1.2817442,5.125285,5.687059,9.962816,-19.19722,60.413834,16.671486,0.75823903,9.065149,2.0141838,-9.368584,29.522842,59.366962,2.0160885,4.336772,-17.137505
142,0.5802699327468872,2.2321572303771973,77.78323364257812,-3.014774923737981,-6.988856781206865,-115.53842001369648,20.793928,9.007685,39.068398,5.485891,-14.129346,-8.03833,6.494602,2.3892105,13.370029,8.299853,-9.034526,6.8790903,-7.3328266,-1.2854627,5.086793,5.7068586,10.011687,-19.247087,60.431705,16.675117,0.7365177,9.065178,2.0313385,-9.3709955,29.381084,59.37461,2.0670066,4.3145294,-17.187334
143,0.5915376543998718,2.242539644241333,77.77989959716797,-3.041677730043763,-6.9556405013160125,-115.8633647540364,20.86213,9.004387,39.388397,5.4258523,-14.129505,-8.054034,6.408372,2.4761853,13.66315,8.249954,-8.956017,6.9430575,-7.389996,-1.2877263,5.0435524,5.737123,10.056852,-19.287567,60.447258,16.675022,0.71532863,9.068117,2.0386584,-9.373538,29.27853,59.392174,2.1188545,4.296083,-17.236876
144,0.6011629700660706,2.2435102462768555,77.77811431884766,-3.0715873405086223,-6.929433731467819,-116.18526964717076,20.940271,9.003102,39.710743,5.3644814,-14.126034,-8.0777855,6.3350897,2.5647094,13.953317,8.19561,-8.873959,7.0104976,-7.464,-1.2849735,4.998131,5.7749996,10.088218,-19.312284,60.464382,16.670708,0.7032511,9.06605,2.0485258,-9.375949,29.187063,59.395958,2.1401415,4.2945385,-17.25842
145,0.6032874584197998,2.2340946197509766,77.7757797241211,-3.104106485157479,-6.91347396672543,-116.50239118064428,21.034645,9.005598,40.037178,5.299204,-14.116575,-8.113137,6.278994,2.6568959,14.239452,8.138372,-8.787776,7.0832677,-7.5349855,-1.2810147,4.954708,5.820881,10.12444,-19.34698,60.470016,16.64727,0.7071822,9.05048,2.0764704,-9.380894,29.077333,59.363297,2.101864,4.314771,-17.233658
146,0.6131992936134338,2.2318105697631836,77.77572631835938,-3.1399370306198815,-6.904481909439536,-116.81889698411649,21.138851,9.009932,40.36846,5.234371,-14.105512,-8.155107,6.234195,2.7510912,14.52557,8.077697,-8.6984005,7.1596966,-7.60639,-1.2747959,4.9121904,5.873624,10.158609,-19.384867,60.467968,16.611698,0.72179615,9.028327,2.1157079,-9.388105,28.97003,59.306488,2.0256433,4.3499417,-17.181011
147,0.6223053932189941,2.2301361560821533,77.77243041992188,-3.1751255282092936,-6.896684843108377,-117.13470342925956,21.24606,9.012097,40.70003,5.165207,-14.09128,-8.199439,6.191975,2.8451474,14.810293,8.015996,-8.60833,7.2365294,-7.655145,-1.2761638,4.8816857,5.9297757,10.222885,-19.450716,60.44163,16.562502,0.7354204,8.9995,2.181975,-9.404012,28.827967,59.206604,1.9385576,4.39359,-17.11131
148,0.6287785768508911,2.210768222808838,77.76556396484375,-3.208942701527408,-6.885463406005492,-117.44993409869188,21.345173,9.012028,41.027203,5.1001077,-14.079752,-8.24211,6.144446,2.9359572,15.092965,7.9554443,-8.520917,7.3106465,-7.761955,-1.268993,4.835961,5.985504,10.239281,-19.451855,60.45658,16.542048,0.73698616,8.9896145,2.203146,-9.407687,28.75645,59.169453,1.9059973,4.4384465,-17.06525
149,0.637513279914856,2.1986260414123535,77.76080322265625,-3.2388044134828453,-6.87008917021414,-117.76313300115812,21.43737,9.005442,41.348083,5.0310245,-14.067263,-8.286011,6.0904117,3.0224543,15.370889,7.8968406,-8.438327,7.3795786,-7.821296,-1.2791761,4.816857,6.0262904,10.30101,-19.487322,60.449875,16.528515,0.71625054,8.978298,2.2572055,-9.415954,28.588804,59.087082,1.8908037,4.4910336,-17.009073
150,0.6503157615661621,2.1987318992614746,77.75601196289062,-3.2676002569167992,-6.852493146515932,-118.07488215977112,21.521156,8.998982,41.664505,4.9718795,-14.059701,-8.332105,6.032627,3.105859,15.645587,7.8402824,-8.359148,7.445688,-7.9114914,-1.2924706,4.792543,6.075722,10.352876,-19.490911,60.45276,16.526787,0.68236077,8.977963,2.2916603,-9.415195,28.455032,59.03106,1.9186946,4.5520296,-16.960691
151,0.6664167642593384,2.197631359100342,77.75169372558594,-3.2950472973110574,-6.834077957473466,-118.38798039637922,21.605293,8.988712,41.9811,4.907225,-14.050485,-8.372897,5.9739723,3.1884463,15.921512,7.78203,-8.278268,7.5123105,-8.014239,-1.3019679,4.7661505,6.1185718,10.389966,-19.480753,60.46966,16.53287,0.6503069,8.980877,2.3131635,-9.410246,28.33722,58.99011,1.9532887,4.6067457,-16.923876
152,0.6738766431808472,2.1931698322296143,77.7447509765625,-3.322523410644874,-6.816729953544797,-118.70499247527982,21.68944,8.978094,42.300945,4.84557,-14.044795,-8.401123,5.9141617,3.272224,16.203262,7.7241335,-8.193485,7.582838,-8.095741,-1.3196423,4.7483563,6.1589804,10.453969,-19.496515,60.464382,16.527002,0.6352203,8.96979,2.338357,-9.397883,28.200361,58.936928,1.9559904,4.639511,-16.898981
153,0.6754934191703796,2.187579393386841,77.73992919921875,-3.3499811243722033,-6.801951768445816,-119.02832941314533,21.780394,8.962926,42.626404,4.773847,-14.037639,-8.406761,5.853933,3.3582313,16.494022,7.6676116,-8.103691,7.6592517,-8.1802225,-1.3313767,4.7329774,6.1970987,10.51356,-19.511822,60.45269,16.518171,0.64527833,8.944409,2.3536077,-9.385521,28.088848,58.88715,1.9218217,4.644639,-16.906248
154,0.6875683069229126,2.1852974891662598,77.73750305175781,-3.3770694032763258,-6.788982017469914,-119.35608869549472,21.871275,8.946981,42.9548,4.707086,-14.036,-8.396423,5.793107,3.444716,16.7911,7.6111364,-8.0099,7.7395387,-8.269604,-1.3355252,4.718646,6.2248225,10.557186,-19.521498,60.45053,16.51324,0.6709849,8.912907,2.359593,-9.378079,27.995447,58.843483,1.8669751,4.6311736,-16.937227
155,0.7087968587875366,2.1830410957336426,77.7364730834961,-3.4039850946435735,-6.773616491864012,-119.68457112506904,21.96184,8.928778,43.283943,4.633295,-14.030393,-8.387527,5.7312365,3.5319827,17.08864,7.55155,-7.9134216,7.820724,-8.348258,-1.3446909,4.7072587,6.2520456,10.619591,-19.550962,60.434677,16.497768,0.7010708,8.87972,2.3733323,-9.369026,27.887304,58.78427,1.8133818,4.6071124,-16.961655
156,0.7217480540275574,2.1856167316436768,77.73297882080078,-3.4321041502590357,-6.753064301659509,-120.01019259464114,22.042656,8.915956,43.61126,4.5699306,-14.026805,-8.397634,5.6670113,3.6199787,17.381369,7.489067,-7.8174634,7.9001107,-8.446773,-1.3468555,4.683078,6.271582,10.65964,-19.571775,60.44286,16.483768,0.72398186,8.865973,2.3800118,-9.36324,27.79478,58.73217,1.8024155,4.581496,-16.960321
157,0.729000985622406,2.1809029579162598,77.72791290283203,-3.461638708649811,-6.724370987611226,-120.33233045561175,22.116335,8.905185,43.937786,4.502496,-14.015616,-8.436458,5.601979,3.7085218,17.667747,7.416418,-7.7188306,7.9778075,-8.54227,-1.3555365,4.649572,6.2890716,10.713063,-19.617626,60.4539,16.457127,0.7365097,8.871587,2.396688,-9.3550205,27.679478,58.66273,1.8455019,4.5499797,-16.910616
158,0.7343342900276184,2.1751418113708496,77.72364044189453,-3.492101939229361,-6.690265532670108,-120.65273615627775,22.181879,8.89855,44.263996,4.4412584,-14.004072,-8.493017,5.535056,3.797687,17.950623,7.339154,-7.6188955,8.055034,-8.633341,-1.3722908,4.6115885,6.3105273,10.786582,-19.68586,60.45497,16.417444,0.744925,8.887374,2.421765,-9.341434,27.548477,58.576622,1.9235114,4.510029,-16.829603
159,0.7338656783103943,2.170480489730835,77.7196273803711,-3.5223990554542226,-6.654328187426444,-120.97168179414317,22.241596,8.894804,44.587585,4.388403,-13.995819,-8.553556,5.4660697,3.8872278,18.231163,7.2630734,-7.520172,8.130227,-8.721523,-1.3979633,4.5756965,6.3362017,10.881944,-19.761526,60.439304,16.367916,0.7520261,8.902199,2.4445412,-9.3191595,27.413046,58.49395,2.0033815,4.471029,-16.74464
160,0.7476915121078491,2.1707265377044678,77.71701049804688,-3.5527901404882014,-6.620003912598547,-121.28909110162799,22.304714,8.8863535,44.90765,4.324815,-13.983255,-8.603937,5.397127,3.97688,18.510412,7.1878405,-7.42193,8.202047,-8.813962,-1.4178153,4.543406,6.348637,10.965586,-19.821724,60.43174,16.32071,0.76081604,8.912677,2.4527946,-9.295205,27.291197,58.439484,2.0539606,4.443099,-16.68435
161,0.7594372034072876,2.170515537261963,77.71528625488281,-3.5818854403505225,-6.587258074274,-121.6075935465748,22.36456,8.879775,45.222843,4.2705774,-13.979361,-8.639118,5.3263197,4.0672216,18.790094,7.117542,-7.3274436,8.268089,-8.90206,-1.4289544,4.5167837,6.340576,11.035175,-19.872894,60.43526,16.27076,0.7743453,8.917863,2.4486482,-9.272173,27.174126,58.416748,2.0517676,4.4283714,-16.655933
162,0.7672963738441467,2.174539566040039,77.71025848388672,-3.6116618465824324,-6.55543080896306,-121.92602999486036,22.424744,8.870696,45.534794,4.212536,-13.976015,-8.666858,5.2534585,4.1581464,19.06904,7.0504327,-7.2355313,8.329707,-8.974476,-1.447161,4.4974613,6.3268404,11.12652,-19.936436,60.423798,16.207422,0.7904512,8.916068,2.4400585,-9.236748,27.042679,58.410633,2.0142417,4.420682,-16.642912
163,0.7733041048049927,2.1714534759521484,77.70491027832031,-3.640581792395948,-6.524052519210164,-122.24005124188048,22.48088,8.864208,45.842686,4.1628904,-13.974067,-8.693247,5.1824613,4.2479353,19.34474,6.9813433,-7.1415668,8.391432,-9.056402,-1.4609988,4.4790444,6.303062,11.205209,-19.98537,60.42265,16.151505,0.8041784,8.913395,2.4223883,-9.202301,26.927237,58.417553,1.9800549,4.420473,-16.640635
164,0.7794893980026245,2.173022985458374,77.70048522949219,-3.6704709145233365,-6.494312245843257,-122.5446573651203,22.537798,8.856541,46.147125,4.1080875,-13.961797,-8.723991,5.116186,4.3363013,19.614527,6.9080343,-7.0426908,8.4574,-9.143436,-1.4812598,4.464473,6.2801313,11.294499,-20.029251,60.41419,16.10412,0.81121165,8.905379,2.4017234,-9.158628,26.821352,58.421486,1.9783192,4.4261203,-16.63988
165,0.7958986759185791,2.1941843032836914,77.69416809082031,-3.6960082261411173,-6.470824205857782,-122.83555731572059,22.54582,8.901676,46.43711,4.21318,-14.021709,-8.762187,5.0302896,4.4292197,19.874815,6.8986664,-6.9732823,8.530576,-9.246345,-1.5108447,4.4576674,6.2531166,11.38395,-20.056376,60.4089,16.064562,0.8063842,8.892442,2.3751178,-9.111153,26.7431,58.42158,2.035734,4.443095,-16.637144
166,0.8054569363594055,2.190406322479248,77.6938247680664,-3.720832637429332,-6.454172521747453,-123.11641863621689,22.510414,8.99626,46.71454,4.4616537,-14.1482,-8.80451,4.949268,4.5190415,20.12964,6.894754,-6.9039683,8.60855,-9.358935,-1.5469078,4.458489,6.2211347,11.475068,-20.071714,60.404427,16.02953,0.79360723,8.874785,2.3429031,-9.059126,26.684425,58.422333,2.1295912,4.4700766,-16.637024
167,0.8092340230941772,2.1834917068481445,77.69430541992188,-3.7445319326664137,-6.434788155728235,-123.39673753614616,22.481606,9.082598,46.99419,4.687099,-14.261574,-8.847541,4.8674097,4.6089106,20.383162,6.890396,-6.834257,8.686989,-9.473328,-1.57918,4.4568815,6.186563,11.560905,-20.080128,60.402084,16.01297,0.78050476,8.856649,2.307993,-9.007019,26.628416,58.4251,2.221637,4.496896,-16.645859
168,0.8142263889312744,2.1869747638702393,77.69068145751953,-3.7674879844189313,-6.410424553663916,-123.68750858229583,22.456861,9.158856,47.28271,4.8927646,-14.370294,-8.889281,4.7799454,4.6977625,20.641832,6.886379,-6.767834,8.762497,-9.577468,-1.6105661,4.4464273,6.1595063,11.650865,-20.089739,60.39079,16.024414,0.7751791,8.839411,2.27226,-8.94925,26.552807,58.434757,2.268722,4.5126457,-16.670464
169,0.8190300464630127,2.1764583587646484,77.68843078613281,-3.786430342789636,-6.376205750220922,-123.99443962504637,22.434473,9.222442,47.584496,5.0778737,-14.476365,-8.931351,4.683729,4.7846584,20.908081,6.883014,-6.706285,8.834518,-9.667364,-1.6329635,4.422044,6.138221,11.731065,-20.095024,60.37942,16.088024,0.7774512,8.824585,2.2403817,-8.89317,26.451097,58.44848,2.2502716,4.5102277,-16.722054
170,0.8289663791656494,2.167056083679199,77.68632507324219,-3.802825845710831,-6.335844041569842,-124.31102927011669,22.412212,9.278804,47.894432,5.253485,-14.5816555,-8.9743185,4.5817537,4.8698883,21.178354,6.88056,-6.6478167,8.904799,-9.745207,-1.6556739,4.3891582,6.123063,11.815262,-20.099323,60.361492,16.187965,0.7841991,8.809065,2.2071786,-8.829163,26.329214,58.470856,2.1889968,4.4959497,-16.79416
171,0.8362936973571777,2.1653072834014893,77.67992401123047,-3.818583117925641,-6.294543793444073,-124.62958444096647,22.391119,9.333602,48.206043,5.4262385,-14.686963,-9.014239,4.4801483,4.9545293,21.450447,6.87652,-6.589828,8.973465,-9.821243,-1.6753515,4.354197,6.1037874,11.896712,-20.10849,60.34372,16.287794,0.7974124,8.796817,2.1719024,-8.763922,26.203468,58.49457,2.119455,4.4829006,-16.865639
172,0.8407400250434875,2.159681797027588,77.67710876464844,-3.8354160897183784,-6.2582463491713725,-124.94295318431753,22.368898,9.396292,48.51251,5.6166553,-14.799525,-9.047367,4.3827567,5.040162,21.72186,6.873886,-6.5322776,9.04054,-9.900157,-1.6963831,4.3253083,6.073732,11.982537,-20.134203,60.324154,16.347528,0.8195996,8.789496,2.1308167,-8.695794,26.085585,58.51625,2.0758884,4.483049,-16.914923
173,0.848078727722168,2.1527419090270996,77.67405700683594,-3.8552013182368823,-6.228629452521934,-125.24834991392851,22.354818,9.460729,48.813812,5.7991915,-14.910717,-9.0700445,4.2916007,5.129372,21.992874,6.8719788,-6.47525,9.10165,-9.985009,-1.714899,4.3040934,6.0291653,12.073319,-20.190737,60.298985,16.343943,0.85779434,8.793752,2.0850384,-8.629414,25.981977,58.533802,2.0597537,4.500996,-16.93177
174,0.8539722561836243,2.1490187644958496,77.67188262939453,-3.8753886271838143,-6.2025275012191345,-125.550393928639,22.344727,9.526805,49.112766,5.983068,-15.024792,-9.085034,4.205019,5.220134,22.26454,6.8699865,-6.418977,9.158118,-10.070999,-1.7318653,4.2881765,5.976425,12.169956,-20.26998,60.265556,16.301277,0.9085974,8.805551,2.037325,-8.564348,25.88444,58.54603,2.0563698,4.5298443,-16.928532
175,0.862348198890686,2.1509315967559814,77.66863250732422,-3.8966594712423244,-6.1770288773570154,-125.85048559124259,22.333483,9.594813,49.409054,6.1685,-15.13637,-9.098669,4.1177416,5.3113275,22.534252,6.8683457,-6.3615727,9.218651,-10.157887,-1.7509432,4.2751503,5.9216638,12.270633,-20.3443,60.230408,16.253317,0.9582025,8.812246,1.9872534,-8.499227,25.78632,58.551186,2.0733538,4.5648975,-16.917765
176,0.8714861273765564,2.152643918991089,77.66431427001953,-3.915363243982877,-6.146537037583033,-126.15049072180861,22.317581,9.663203,49.70324,6.354597,-15.240909,-9.117203,4.0266848,5.401472,22.799664,6.865346,-6.300816,9.291626,-10.246924,-1.7738457,4.262374,5.869051,12.368676,-20.383453,60.204933,16.23599,0.9927223,8.802211,1.9346805,-8.435334,25.681713,58.548782,2.117008,4.6014495,-16.912323
177,0.8803392648696899,2.161405324935913,77.65705871582031,-3.9335338764699803,-6.110827366383642,-126.44991912092004,22.294209,9.732698,49.994,6.541982,-15.334672,-9.1420765,3.92967,5.4898176,23.05788,6.8608565,-6.233997,9.383535,-10.336165,-1.800108,4.250915,5.81438,12.458444,-20.367962,60.197712,16.268406,1.0053539,8.764765,1.8774655,-8.373341,25.565432,58.540867,2.210968,4.64432,-16.913546
178,0.8841485977172852,2.167006492614746,77.65122985839844,-3.9500281454620625,-6.071235421628834,-126.7479455683097,22.267612,9.801263,50.282005,6.726372,-15.418801,-9.169987,3.8290815,5.5769367,23.311024,6.855199,-6.1630626,9.488547,-10.425117,-1.8369259,4.2415776,5.764977,12.558268,-20.318115,60.189945,16.32647,1.0046872,8.7060585,1.8102263,-8.299171,25.438526,58.53712,2.3405297,4.692842,-16.916758
179,0.886776864528656,2.1654202938079834,77.6509017944336,-3.966743302605076,-6.030218651198079,-127.04611161594693,22.242796,9.867026,50.56968,6.900624,-15.496153,-9.199784,3.7266343,5.6647105,23.563263,6.8496222,-6.0931077,9.596494,-10.522088,-1.873586,4.2286243,5.715666,12.652344,-20.260046,60.192337,16.387478,0.9996793,8.649281,1.7385687,-8.227767,25.319029,58.529198,2.4700248,4.7370343,-16.92327
180,0.8887438178062439,2.160762071609497,77.64884185791016,-3.9838825953927506,-5.989727166143371,-127.34600360477572,22.224182,9.927589,50.85906,7.059052,-15.570073,-9.230678,3.624856,5.753884,23.818792,6.844345,-6.0286994,9.6974535,-10.62959,-1.9122155,4.208769,5.6758423,12.752222,-20.226341,60.190186,16.423052,0.999728,8.611832,1.6646404,-8.154725,25.215923,58.513763,2.558243,4.7656875,-16.934679
181,0.8921840190887451,2.1536576747894287,77.64726257324219,-4.002006462620532,-5.9497135263638325,-127.64731223706845,22.211716,9.981066,51.148876,7.2002306,-15.643031,-9.263167,3.522164,5.844801,24.078636,6.841205,-5.972826,9.785629,-10.751638,-1.9518857,4.17907,5.646057,12.857324,-20.226364,60.181175,16.420658,1.0129673,8.600717,1.5866328,-8.085632,25.139708,58.483936,2.5891721,4.7861013,-16.949934
182,0.8987112641334534,2.1588294506073,77.64264678955078,-4.0201070414049775,-5.908948647560897,-127.94947421993311,22.20186,10.030518,51.438328,7.3296547,-15.713209,-9.297581,3.4187818,5.936375,24.340588,6.8375115,-5.9212584,9.8673935,-10.884097,-1.9933287,4.143368,5.6253085,12.968442,-20.244501,60.165897,16.395374,1.0324343,8.604393,1.507274,-8.019852,25.081026,58.438488,2.585614,4.80095,-16.967646
183,0.9027765393257141,2.162036418914795,77.63475799560547,-4.038626702236579,-5.868950401384499,-128.25359231135738,22.202017,10.071613,51.73213,7.435387,-15.772199,-9.332577,3.3168292,6.030157,24.604248,6.834651,-5.8720393,9.950616,-11.020609,-2.0348833,4.106399,5.611519,13.083596,-20.271969,60.149708,16.363855,1.0451158,8.61584,1.4317137,-7.958277,25.02369,58.388012,2.5698762,4.79224,-16.989908
184,0.9065713882446289,2.1639561653137207,77.625244140625,-4.059729334505283,-5.832709018605678,-128.56042040945553,22.201218,10.124809,52.031353,7.566701,-15.843772,-9.367171,3.2204335,6.1266866,24.869091,6.8299103,-5.821458,10.042947,-11.153953,-2.0739076,4.073606,5.6007633,13.199215,-20.301262,60.1402,16.342257,1.0376676,8.628427,1.3679959,-7.9016232,24.951029,58.339676,2.5634563,4.7422357,-17.018522
185,0.9047986268997192,2.1656858921051025,77.61526489257812,-4.080651809836209,-5.800184264222848,-128.86945738116398,22.216436,10.170745,52.341248,7.6753783,-15.900565,-9.402016,3.1318045,6.2256455,25.134163,6.82486,-5.771953,10.150976,-11.282432,-2.1092,4.045853,5.591266,13.3127365,-20.334494,60.14613,16.334677,0.99516416,8.64728,1.3216447,-7.852068,24.858448,58.30001,2.5778675,4.610576,-17.060244
186,0.9029965996742249,2.162274122238159,77.6056137084961,-4.102971109881388,-5.771278595485584,-129.18010748394437,22.193975,10.277131,52.64969,7.9364333,-16.034855,-9.438822,3.0482893,6.326735,25.399641,6.8196597,-5.7239747,10.269112,-11.410349,-2.1377525,4.0193744,5.5794787,13.4163885,-20.37356,60.17093,16.334578,0.92834973,8.675805,1.2884579,-7.8137217,24.756489,58.262836,2.600555,4.419022,-17.111965
187,0.899057924747467,2.158078670501709,77.59912872314453,-4.126536120371352,-5.742543555236343,-129.4949377865267,22.165085,10.398946,52.959236,8.231889,-16.188654,-9.473786,2.9655535,6.4314737,25.668436,6.8148646,-5.674875,10.3869095,-11.537458,-2.1617944,3.9942782,5.567975,13.515886,-20.413584,60.19789,16.33877,0.863151,8.701096,1.2614099,-7.7814794,24.645336,58.216965,2.6135533,4.2421126,-17.160398
188,0.9014754295349121,2.159252405166626,77.5938720703125,-4.152827737407816,-5.711636089058604,-129.816068945362,22.136303,10.522958,53.268364,8.525295,-16.345339,-9.503984,2.8795452,6.541291,25.943016,6.8098946,-5.620862,10.493846,-11.66231,-2.1878805,3.971218,5.5630035,13.6262,-20.451582,60.203594,16.341354,0.8253767,8.708701,1.2294372,-7.747005,24.52535,58.1553,2.6011887,4.1538973,-17.192375
189,0.9041165709495544,2.156608819961548,77.5864486694336,-4.182363313778487,-5.676867168005149,-130.1439409184178,22.104593,10.650871,53.572575,8.819106,-16.510246,-9.5220995,2.7879043,6.657042,26.223299,6.806077,-5.5600805,10.5847645,-11.792112,-2.2074463,3.9481637,5.5563383,13.726391,-20.472052,60.199913,16.351145,0.82817113,8.693838,1.1873863,-7.7129035,24.399096,58.07166,2.5488362,4.199014,-17.200903
190,0.901123583316803,2.154247760772705,77.58201599121094,-4.21458683819582,-5.639836078025424,-130.4775080909869,22.0715,10.784005,53.875015,9.117538,-16.683403,-9.53191,2.6936426,6.7779465,26.508211,6.80231,-5.494126,10.666128,-11.93131,-2.2115366,3.920813,5.5367646,13.79391,-20.475058,60.215496,16.373528,0.85570693,8.669746,1.1365299,-7.6893234,24.276493,57.980064,2.4737327,4.329973,-17.196215
191,0.8926900029182434,2.1494460105895996,77.57266235351562,-4.248510268885316,-5.6034978135242035,-130.8163483936765,22.043373,10.916061,54.182896,9.408526,-16.850563,-9.546892,2.599212,6.9027476,26.79871,6.7983804,-5.426643,10.744951,-12.0566635,-2.2283633,3.897412,5.529695,13.894158,-20.497982,60.203526,16.38487,0.8905506,8.6370125,1.0900087,-7.652389,24.133091,57.88393,2.3870265,4.4818215,-17.185923
192,0.8936825394630432,2.1513185501098633,77.56275939941406,-4.281491527993113,-5.569420621250984,-131.16078572146614,22.025898,11.042634,54.504246,9.684799,-17.000494,-9.580617,2.5070176,7.030512,27.096552,6.794955,-5.362321,10.828521,-12.188167,-2.2416525,3.8670664,5.5252805,13.985531,-20.529776,60.204296,16.391872,0.9144886,8.6177,1.0470976,-7.6184278,24.007387,57.807472,2.322371,4.593164,-17.18734
193,0.89226895570755,2.1525230407714844,77.55331420898438,-4.314222041184571,-5.539726596239614,-131.51391206256702,22.024546,11.159777,54.847622,9.93852,-17.123964,-9.646127,2.41811,7.1627355,27.406006,6.791674,-5.3010488,10.918947,-12.31221,-2.2621446,3.8327208,5.5344515,14.09716,-20.598581,60.19881,16.378206,0.91982913,8.6149025,1.0104523,-7.5794835,23.888693,57.751965,2.289195,4.6448874,-17.205282
194,0.896390974521637,2.1561384201049805,77.54177856445312,-4.346816864780492,-5.512745858084827,-131.87486190397058,22.035416,11.269921,55.207012,10.174296,-17.22841,-9.732746,2.3322167,7.2983956,27.725187,6.787044,-5.240717,11.012321,-12.436677,-2.2813323,3.7939696,5.5495167,14.209637,-20.686102,60.196617,16.354536,0.916855,8.622962,0.97804075,-7.542538,23.780546,57.708004,2.274893,4.671845,-17.23251
195,0.8869444131851196,2.1588480472564697,77.52839660644531,-4.378704708016291,-5.4863595610729945,-132.2370795774784,22.049076,11.379266,55.567905,10.407654,-17.329714,-9.819573,2.2468085,7.435481,28.045862,6.783722,-5.1824436,11.1069145,-12.562239,-2.3003824,3.7537718,5.5640907,14.318085,-20.769344,60.19702,16.335196,0.9157075,8.630218,0.9526887,-7.507531,23.673012,57.669147,2.2596626,4.689271,-17.258778
196,0.8747840523719788,2.1527907848358154,77.51730346679688,-4.409366607892564,-5.458609292966324,-132.59402156186675,22.054947,11.496817,55.91549,10.660446,-17.445679,-9.885274,2.1620412,7.570668,28.359692,6.77988,-5.125638,11.20077,-12.694117,-2.3166385,3.7137294,5.5685678,14.40856,-20.821522,60.206516,16.33662,0.9263978,8.626862,0.9363305,-7.4765177,23.562155,57.631138,2.2252648,4.7125797,-17.274511
197,0.863761842250824,2.1447203159332275,77.50872039794922,-4.4386348580839945,-5.426153181391484,-132.94041472256262,22.047758,11.621951,56.240105,10.928628,-17.581787,-9.916032,2.0745254,7.7022595,28.660913,6.775899,-5.0721326,11.295783,-12.828405,-2.3423676,3.6769633,5.571169,14.5048685,-20.837393,60.20193,16.363844,0.9592624,8.600919,0.9335446,-7.437178,23.434126,57.591095,2.147216,4.7418694,-17.273762
198,0.8612651228904724,2.1628105640411377,77.49836730957031,-4.466956937367441,-5.390874075290336,-133.28089091931608,22.032686,11.753253,56.551117,11.20959,-17.730274,-9.925794,1.9851108,7.8327136,28.95482,6.7724357,-5.0213175,11.392088,-12.969692,-2.37383,3.639458,5.5749216,14.601295,-20.824446,60.190914,16.40996,1.0063956,8.561515,0.93519574,-7.3896785,23.302488,57.561478,2.0431595,4.7697988,-17.264812
199,0.8475868701934814,2.1586525440216064,77.48812103271484,-4.495319733622712,-5.35826802754847,-133.6231935509071,22.024162,11.883299,56.864628,11.485423,-17.875587,-9.935376,1.8997525,7.964376,29.25035,6.768872,-4.9702206,11.485282,-13.117255,-2.3914733,3.599275,5.5636253,14.662968,-20.796074,60.208088,16.465006,1.050595,8.52604,0.9431858,-7.3548846,23.178598,57.532127,1.9513805,4.8016143,-17.252966
200,0.8319346308708191,2.1661722660064697,77.47920989990234,-4.523763092831796,-5.334181021617421,-133.97491708600566,22.037798,12.002493,57.196854,11.735062,-18.000254,-9.965787,1.8236749,8.100049,29.556576,6.766889,-4.9167156,11.570784,-13.245599,-2.4207969,3.5673676,5.561402,14.75198,-20.791853,60.208694,16.496077,1.0754712,8.493174,0.9495874,-7.2985287,23.035295,57.503326,1.8937052,4.837678,-17.241114
201,0.8279151320457458,2.1788036823272705,77.46981811523438,-4.553178825647447,-5.322499888632165,-134.3414189270725,22.085037,12.104412,57.558876,11.943225,-18.092426,-10.029869,1.7621255,8.241819,29.880037,6.7645884,-4.8562727,11.641451,-13.362467,-2.4446523,3.5401976,5.5612655,14.836597,-20.806162,60.21877,16.500471,1.072173,8.47437,0.95435816,-7.240539,22.899273,57.472984,1.8938549,4.887529,-17.234661
202,0.8094504475593567,2.1757969856262207,77.46022033691406,-4.583127401541383,-5.31925413291785,-134.7176259358594,22.154749,12.19547,57.939693,12.125184,-18.164003,-10.114172,1.7104095,8.388125,30.214193,6.7636166,-4.792365,11.701761,-13.482045,-2.4482987,3.5141633,5.5514207,14.884889,-20.816833,60.257126,16.497555,1.050335,8.468172,0.96676403,-7.205415,22.782717,57.430817,1.9393318,4.9493113,-17.2295
203,0.7950173020362854,2.1795601844787598,77.44685363769531,-4.611037871018814,-5.318752575638543,-135.09588114887123,22.23361,12.277179,58.324688,12.289591,-18.226448,-10.198269,1.6622335,8.53365,30.550638,6.7629485,-4.730047,11.764828,-13.5736065,-2.4768002,3.495904,5.5454636,14.978003,-20.858473,60.268322,16.47882,1.02371,8.454295,0.9797032,-7.132857,22.614998,57.395798,1.9848287,5.0027766,-17.218254
204,0.7785103917121887,2.1711947917938232,77.43643188476562,-4.636112304179662,-5.3141060779226,-135.46852686103912,22.301083,12.361994,58.696697,12.467921,-18.301968,-10.264488,1.6097788,8.674642,30.879307,6.761338,-4.673854,11.843931,-13.685878,-2.505931,3.4748688,5.543283,15.062328,-20.875637,60.273266,16.478762,1.0016581,8.433354,0.99560386,-7.0617523,22.44121,57.358818,2.031761,5.037528,-17.19894
205,0.7629668116569519,2.1691834926605225,77.42450714111328,-4.656616175712282,-5.3038995938757765,-135.83503736126306,22.353058,12.451209,59.052666,12.667289,-18.398045,-10.30089,1.5511395,8.80876,31.19729,6.7590165,-4.627342,11.948034,-13.810691,-2.539984,3.4524906,5.539043,15.142142,-20.874746,60.26942,16.500908,0.9885985,8.397368,1.019256,-6.989155,22.240957,57.315582,2.0766842,5.0462346,-17.158756
206,0.7525221705436707,2.184375762939453,77.41404724121094,-4.673811235525641,-5.291355564543459,-136.19898178701402,22.400696,12.537136,59.401115,12.866998,-18.500004,-10.319637,1.4906496,8.938672,31.509918,6.755623,-4.5868964,12.068172,-13.949872,-2.5675936,3.429159,5.531367,15.202415,-20.854837,60.267483,16.540071,0.97770226,8.354081,1.0536681,-6.9301863,22.03252,57.259247,2.1341894,5.0389204,-17.103474
207,0.7359199523925781,2.1869139671325684,77.4039535522461,-4.690133790929453,-5.277762040592257,-136.55880276953178,22.447319,12.620818,59.743484,13.061432,-18.600782,-10.336979,1.429464,9.067972,31.819948,6.7532816,-4.548486,12.190511,-14.071298,-2.6184974,3.4079866,5.522286,15.299389,-20.858675,60.249294,16.570879,0.9667354,8.309226,1.0821735,-6.8295846,21.775663,57.221992,2.1713884,5.0195837,-17.054003
208,0.7256068587303162,2.198096752166748,77.39327239990234,-4.708717669715624,-5.263339490021699,-136.91344012997354,22.495598,12.703434,60.08181,13.245282,-18.693865,-10.369082,1.368879,9.199858,32.130722,6.7509837,-4.506834,12.301668,-14.203958,-2.6601987,3.384932,5.512703,15.386083,-20.859076,60.237045,16.599361,0.9502117,8.2808275,1.1103412,-6.7327137,21.526373,57.18696,2.200056,5.0008774,-17.030283
209,0.7223041653633118,2.217531681060791,77.37865447998047,-4.7304631989178025,-5.247816992487057,-137.26470911669622,22.545645,12.785296,60.41668,13.417235,-18.77831,-10.423946,1.307518,9.335999,32.446934,6.7483315,-4.4602084,12.399801,-14.33886,-2.6847253,3.360851,5.4919977,15.454333,-20.868483,60.24461,16.62402,0.9214761,8.27887,1.1429583,-6.647735,21.277033,57.155212,2.2136085,4.980759,-17.043077
210,0.7101561427116394,2.224153518676758,77.36587524414062,-4.753441372330619,-5.231133314145467,-137.61249627022391,22.596292,12.86556,60.747017,13.579068,-18.856329,-10.492307,1.245306,9.474497,32.76568,6.746549,-4.412185,12.491422,-14.460959,-2.7162495,3.3356752,5.4606676,15.535024,-20.902493,60.25982,16.63978,0.886014,8.292341,1.170265,-6.5364532,20.997269,57.145542,2.2045462,4.9529734,-17.081928
211,0.688890278339386,2.227524757385254,77.35313415527344,-4.776948882968951,-5.214160018598948,-137.95278607362835,22.648554,12.942599,61.072624,13.7311,-18.928015,-10.562376,1.1851549,9.612009,33.078693,6.74454,-4.3632183,12.576171,-14.592618,-2.7432563,3.3098404,5.426677,15.606147,-20.930027,60.275486,16.655203,0.8541591,8.309557,1.2005771,-6.430222,20.718163,57.125053,2.1944623,4.9282627,-17.126348
212,0.6669347286224365,2.2303881645202637,77.34172058105469,-4.800194372156879,-5.1976208801616,-138.28148729202562,22.697773,13.026078,61.3916,13.89577,-19.003895,-10.624193,1.1295401,9.746193,33.377472,6.74341,-4.3150234,12.653525,-14.740688,-2.7626264,3.2844505,5.390108,15.658131,-20.940495,60.28576,16.671299,0.8374704,8.318358,1.2392159,-6.3503957,20.451294,57.06972,2.2006447,4.9159207,-17.155333
213,0.6371257901191711,2.2207469940185547,77.33383178710938,-4.822971616678928,-5.185940949115847,-138.59640057502438,22.754217,13.109158,61.707157,14.057732,-19.072992,-10.674886,1.0857086,9.876044,33.659195,6.743167,-4.268352,12.721085,-14.879882,-2.7986052,3.2615433,5.3427134,15.722419,-20.961517,60.28199,16.675722,0.8498951,8.309533,1.2829559,-6.2535386,20.14917,56.98817,2.2107337,4.915736,-17.163973
214,0.6143874526023865,2.2228450775146484,77.3260498046875,-4.845603918214378,-5.1769134175392395,-138.90008392353758,22.817465,13.187591,62.019215,14.206048,-19.13393,-10.720116,1.0499715,10.002583,33.9284,6.7424,-4.2215652,12.779896,-15.026873,-2.8419893,3.2401752,5.2982607,15.792189,-20.975435,60.260258,16.674389,0.8811472,8.2902355,1.3310342,-6.152275,19.837948,56.88322,2.2265875,4.9244256,-17.163603
215,0.6010818481445312,2.233525037765503,77.3193130493164,-4.868212875048892,-5.162828383114804,-139.19542777073838,22.869724,13.271928,62.321957,14.365914,-19.200102,-10.761795,1.0097291,10.1272135,34.18836,6.7419662,-4.1738935,12.834213,-15.188641,-2.8768556,3.2177105,5.2539277,15.848014,-20.976961,60.23721,16.675024,0.9097785,8.272566,1.3795019,-6.0738487,19.54845,56.7637,2.2491255,4.939877,-17.15869
216,0.5805208086967468,2.2435035705566406,77.31106567382812,-4.889956214700893,-5.136363932929186,-139.48496544971337,22.900923,13.358701,62.61079,14.53183,-19.271885,-10.8014,0.95301217,10.250057,34.442383,6.741183,-4.1239767,12.888308,-15.349458,-2.9118595,3.189967,5.20057,15.903183,-20.989492,60.22746,16.673903,0.9159045,8.267209,1.4137973,-5.9988613,19.274242,56.664917,2.258802,4.956276,-17.157703
217,0.569088339805603,2.2574028968811035,77.30277252197266,-4.910585382266755,-5.089779754753036,-139.76896090404333,22.900251,13.446824,62.88205,14.702251,-19.351746,-10.838564,0.86990577,10.370433,34.68892,6.7397237,-4.071663,12.945594,-15.527355,-2.9367175,3.1507468,5.147257,15.945431,-20.99528,60.23364,16.670736,0.88381696,8.282893,1.4297535,-5.942997,19.03898,56.58561,2.258954,4.978202,-17.157326
218,0.5540120601654053,2.268324613571167,77.2933349609375,-4.930629511850258,-5.029303734025734,-140.04618416332278,22.877752,13.53558,63.139317,14.873872,-19.43561,-10.872576,0.769274,10.488266,34.926678,6.7369933,-4.016658,13.003105,-15.696673,-2.9683697,3.1052575,5.0819902,15.997005,-21.021177,60.251007,16.657438,0.8287406,8.310883,1.4308786,-5.8764906,18.796577,56.525764,2.2385716,5.003979,-17.155088
219,0.5405909419059753,2.2820935249328613,77.2838363647461,-4.9505436140794705,-4.967110614154505,-140.31699652808794,22.848753,13.6293,63.387676,15.054805,-19.522417,-10.904913,0.66679084,10.605489,35.16012,6.7355423,-3.9613528,13.0551815,-15.879554,-2.9955652,3.0601857,5.0174246,16.037933,-21.036459,60.270363,16.655321,0.7731608,8.3394165,1.4224849,-5.8269653,18.593834,56.476326,2.2271256,5.027861,-17.162539
220,0.5257097482681274,2.2995901107788086,77.27466583251953,-4.970464050797821,-4.9157645998014745,-140.58208305608395,22.834772,13.721141,63.633556,15.229402,-19.600458,-10.936431,0.57983124,10.722547,35.3937,6.733791,-3.9056177,13.096421,-16.044247,-3.0320022,3.0281506,4.936874,16.085352,-21.071096,60.288914,16.66885,0.74116015,8.354449,1.4116505,-5.7734137,18.396378,56.439236,2.2201247,5.0401616,-17.186834
221,0.4984477460384369,2.3055994510650635,77.26899719238281,-4.990369722340116,-4.8802875261959455,-140.8410975748912,22.839264,13.818016,63.876724,15.412898,-19.670683,-10.967038,0.5148625,10.840721,35.629597,6.7336354,-3.8493335,13.121536,-16.213043,-3.0686688,3.0086756,4.850931,16.11928,-21.09452,60.30317,16.720453,0.74600244,8.34872,1.3973752,-5.7406435,18.250826,56.41405,2.2438922,5.039531,-17.24002
222,0.48352769017219543,2.321235179901123,77.26268768310547,-5.009575106255658,-4.853532239131416,-141.0938968398679,22.854736,13.914495,64.11501,15.593722,-19.731943,-10.996249,0.46207273,10.95913,35.86504,6.73518,-3.7924414,13.134663,-16.349628,-3.1231325,3.0029302,4.7445793,16.174114,-21.151474,60.31207,16.78621,0.7738778,8.326504,1.3792913,-5.694907,18.092573,56.40499,2.2664375,5.0274034,-17.309462
223,0.4661506414413452,2.331594228744507,77.25753021240234,-5.029589891737926,-4.828899329523673,-141.3414094953736,22.869347,14.01808,64.348724,15.787855,-19.798866,-11.025133,0.41263658,11.077368,36.097015,6.7365227,-3.7358596,13.144502,-16.506104,-3.169571,3.000588,4.644123,16.215378,-21.193638,60.321156,16.857111,0.80285084,8.306317,1.354353,-5.6671023,17.978046,56.401787,2.2980952,5.01116,-17.386578
224,0.44707736372947693,2.341064453125,77.25287628173828,-5.051122328690187,-4.800014999745151,-141.58490372253132,22.878935,14.120782,64.579254,15.976423,-19.868252,-11.054328,0.35824606,11.194662,36.322624,6.737046,-3.6818676,13.159461,-16.69196,-3.1988628,2.9953606,4.550883,16.234255,-21.221685,60.34365,16.910437,0.81301045,8.30506,1.3200336,-5.65733,17.904034,56.40289,2.328898,4.994893,-17.458553
225,0.43276506662368774,2.351717472076416,77.2470474243164,-5.074330034083904,-4.762476490539382,-141.82429207868577,22.872578,14.231933,64.80607,16.181314,-19.953848,-11.084324,0.29134467,11.310772,36.540962,6.736994,-3.629374,13.183976,-16.837227,-3.231029,3.0027282,4.428432,16.276821,-21.314157,60.3784,16.90668,0.7920057,8.330381,1.2913213,-5.6354823,17.766687,56.382263,2.3363652,4.984189,-17.51001
226,0.4215281903743744,2.362157106399536,77.2385025024414,-5.098896872029546,-4.720163387972082,-142.0588238163779,22.858706,14.344821,65.0291,16.387054,-20.044037,-11.114491,0.218294,11.426008,36.753597,6.7364225,-3.5783963,13.212663,-17.0106,-3.25403,3.0074866,4.3179216,16.308292,-21.392286,60.419323,16.882143,0.75232136,8.376852,1.2473089,-5.6211667,17.672361,56.36872,2.354882,4.9767933,-17.563662
227,0.39764404296875,2.3695242404937744,77.23046112060547,-5.124556011030583,-4.681198317837186,-142.28854841254213,22.848513,14.46024,65.24757,16.594646,-20.135954,-11.144351,0.15045099,11.540756,36.96039,6.735852,-3.530347,13.239794,-17.196276,-3.273592,3.015331,4.210929,16.335165,-21.470024,60.461105,16.862984,0.7136479,8.418217,1.1952715,-5.6112833,17.595192,56.376556,2.346971,4.9563937,-17.612656
228,0.3875749707221985,2.3889732360839844,77.22101593017578,-5.150984489594546,-4.654055146547206,-142.51548509681612,22.856825,14.572452,65.463486,16.792454,-20.220259,-11.173731,0.099588946,11.655984,37.163685,6.735726,-3.4864478,13.259746,-17.343414,-3.301898,3.0363255,4.075406,16.373007,-21.604292,60.506496,16.855585,0.6990825,8.4284525,1.164246,-5.602735,17.477291,56.400944,2.2678943,4.905262,-17.647398
229,0.3729318082332611,2.4031643867492676,77.21043395996094,-5.1798667216449195,-4.645981285076235,-142.73667529834603,22.891455,14.687114,65.673355,16.987427,-20.299152,-11.201487,0.07567122,11.773166,37.359634,6.7374296,-3.4502234,13.266839,-17.514359,-3.3293412,3.065591,3.953226,16.402298,-21.722279,60.54091,16.901426,0.71989155,8.389815,1.1202315,-5.6041822,17.397057,56.49319,2.064394,4.8035345,-17.66962
230,0.3438914716243744,2.40533709526062,77.19918823242188,-5.210506499135868,-4.651004335409469,-142.9530520705004,22.944517,14.802559,65.87883,17.178373,-20.373808,-11.228369,0.07042985,11.891089,37.549667,6.739222,-3.418922,13.265599,-17.67784,-3.357499,3.1056476,3.8245182,16.433302,-21.862452,60.571487,16.969591,0.76361555,8.318328,1.0815393,-5.617208,17.317993,56.618107,1.7664973,4.6650515,-17.677608
231,0.31728047132492065,2.4137184619903564,77.19001770019531,-5.240400214070588,-4.655623790980793,-143.16595928602618,22.998762,14.913998,66.08111,17.361612,-20.44386,-11.255625,0.066637196,12.006825,37.736584,6.740588,-3.3891032,13.2647,-17.889357,-3.3821046,3.13916,3.7212107,16.444956,-21.95043,60.59701,17.066074,0.80532694,8.246596,1.0150789,-5.6277604,17.283758,56.778103,1.5186551,4.5286674,-17.695938
232,0.29453641176223755,2.414339780807495,77.18368530273438,-5.267145604148791,-4.646018159533362,-143.37611998124243,23.034506,15.020822,66.28076,17.54249,-20.513138,-11.284818,0.044879388,12.118132,37.922962,6.7428207,-3.3569098,13.273082,-18.062597,-3.4037511,3.1677625,3.590985,16.462336,-22.105957,60.633,17.125076,0.82380015,8.20515,0.98790514,-5.6500854,17.185177,56.872444,1.4453003,4.4335747,-17.721869
233,0.27485695481300354,2.417057991027832,77.17855834960938,-5.288078809104522,-4.615520314385287,-143.5854524053811,23.04317,15.118435,66.4791,17.717934,-20.580545,-11.3163,-0.002503227,12.2210865,38.11344,6.742673,-3.3204741,13.294592,-18.216797,-3.4212954,3.1902676,3.4473789,16.481436,-22.303741,60.673023,17.156868,0.80441874,8.208551,0.9879232,-5.6819773,17.032124,56.88767,1.6510419,4.395049,-17.75852
234,0.2733897566795349,2.437807321548462,77.17084503173828,-5.3051733406639805,-4.572224047209327,-143.79206351304785,23.036667,15.206563,66.67462,17.882318,-20.6427,-11.349064,-0.065779895,12.319043,38.30422,6.7428827,-3.2826757,13.324045,-18.378334,-3.4361846,3.2050014,3.3070266,16.496752,-22.510527,60.713146,17.18255,0.761757,8.238689,0.99170744,-5.7159224,16.864197,56.873566,2.046248,4.389548,-17.805618
235,0.245934396982193,2.442662000656128,77.1642837524414,-5.322500834542244,-4.5259637017435415,-143.99510574434254,23.026718,15.29518,66.86748,18.046412,-20.704315,-11.383111,-0.13090941,12.415511,38.49001,6.742514,-3.2439053,13.356507,-18.561415,-3.4510996,3.2126765,3.1805725,16.50496,-22.688606,60.744816,17.20838,0.7159695,8.273133,0.9885826,-5.7438493,16.707296,56.872723,2.4663708,4.3999586,-17.865929
236,0.2178853452205658,2.444469928741455,77.1577377319336,-5.344645624420127,-4.486370506220097,-144.19331392964614,23.025925,15.392582,67.05764,18.21596,-20.76827,-11.418345,-0.18502139,12.515366,38.66487,6.742071,-3.2046034,13.387212,-18.759695,-3.4651873,3.2192333,3.0684097,16.50796,-22.82764,60.757343,17.231346,0.6874644,8.288177,0.98354113,-5.7660627,16.56612,56.907673,2.74773,4.409392,-17.935242
237,0.19004665315151215,2.4500765800476074,77.14755249023438,-5.373281638382189,-4.459284655672069,-144.38508702090292,23.041737,15.501566,67.24527,18.39252,-20.834517,-11.457116,-0.2200054,12.619284,38.82343,6.7410154,-3.1633227,13.417089,-18.906515,-3.4725018,3.2388413,2.9173584,16.505213,-23.006739,60.772533,17.228765,0.6866473,8.276048,1.028511,-5.803709,16.356838,56.93757,2.810621,4.4168,-18.000832
238,0.16423869132995605,2.449782371520996,77.13623046875,-5.406101155833093,-4.438461906221018,-144.57147082302177,23.065945,15.617698,67.43035,18.57283,-20.901691,-11.49869,-0.24461967,12.725022,38.969963,6.739774,-3.120707,13.447964,-19.06106,-3.4743507,3.2607987,2.7704358,16.492397,-23.161167,60.77485,17.221895,0.70006543,8.249023,1.0835795,-5.848268,16.148563,56.983997,2.7666368,4.430294,-18.075281
239,0.13619369268417358,2.451923370361328,77.12681579589844,-5.440226009471662,-4.415264735037961,-144.75574328802327,23.087885,15.738478,67.61279,18.7579,-20.971699,-11.538397,-0.2704705,12.832128,39.113647,6.738024,-3.0787404,13.476402,-19.238052,-3.4754963,3.273651,2.6456358,16.475512,-23.274332,60.759537,17.214039,0.71587783,8.216303,1.1324394,-5.8868566,15.966844,57.04966,2.6846912,4.449151,-18.155325
240,0.1090279072523117,2.4616215229034424,77.11912536621094,-5.473660440930191,-4.3811695783521385,-144.9415003480878,23.096441,15.862392,67.792305,18.94958,-21.046953,-11.571391,-0.3104674,12.941137,39.26266,6.737282,-3.0396295,13.499191,-19.394604,-3.4690588,3.2753992,2.5092971,16.450203,-23.401163,60.75188,17.190731,0.7226884,8.189533,1.1976007,-5.9335256,15.7709875,57.09527,2.6234603,4.4737353,-18.223408
241,0.0718735083937645,2.4603464603424072,77.11310577392578,-5.505535717553292,-4.326488112283024,-145.1310268098854,23.078907,15.991711,67.96793,19.15327,-21.13182,-11.592633,-0.37632215,13.052674,39.421806,6.7361755,-3.0028245,13.512983,-19.553263,-3.4579103,3.2535605,2.3836899,16.42294,-23.512405,60.737633,17.148687,0.7169318,8.170088,1.2618806,-5.978788,15.588765,57.13729,2.6046772,4.505307,-18.283922
242,0.04664108157157898,2.4706008434295654,77.10554504394531,-5.537638037014415,-4.25855320653398,-145.32196271524793,23.044157,16.127748,68.13962,19.368391,-21.224813,-11.606016,-0.45929396,13.167235,39.585335,6.7361536,-2.9679694,13.520295,-19.725086,-3.4472334,3.214139,2.28005,16.400974,-23.59492,60.704285,17.093325,0.70517844,8.151474,1.3195506,-6.0140653,15.429045,57.189304,2.594887,4.5428977,-18.344181
243,0.01719355769455433,2.48075795173645,77.09595489501953,-5.569434200983307,-4.193317895960465,-145.51107408038425,23.014986,16.261873,68.31035,19.579357,-21.315226,-11.619955,-0.53668344,13.28094,39.747875,6.7348905,-2.9355834,13.52666,-19.864815,-3.4308414,3.1786332,2.1535268,16.368776,-23.70591,60.68366,17.032652,0.69018036,8.133665,1.4067595,-6.062763,15.23616,57.211086,2.570562,4.5841184,-18.390951
