unveil-humanoid-operators/unveil-humanoid-operators.github.io/feature-analysis-animation/data/feature_matrix_instances/weight_ankle_peak_vel_jogging_A063_jog_ff_start_315_005__A063.csv
Frame,root_translateX,root_translateY,root_translateZ,root_rotateX,root_rotateY,root_rotateZ,left_hip_pitch_joint_dof,left_hip_roll_joint_dof,left_hip_yaw_joint_dof,left_knee_joint_dof,left_ankle_pitch_joint_dof,left_ankle_roll_joint_dof,right_hip_pitch_joint_dof,right_hip_roll_joint_dof,right_hip_yaw_joint_dof,right_knee_joint_dof,right_ankle_pitch_joint_dof,right_ankle_roll_joint_dof,waist_yaw_joint_dof,waist_roll_joint_dof,waist_pitch_joint_dof,left_shoulder_pitch_joint_dof,left_shoulder_roll_joint_dof,left_shoulder_yaw_joint_dof,left_elbow_joint_dof,left_wrist_roll_joint_dof,left_wrist_pitch_joint_dof,left_wrist_yaw_joint_dof,right_shoulder_pitch_joint_dof,right_shoulder_roll_joint_dof,right_shoulder_yaw_joint_dof,right_elbow_joint_dof,right_wrist_roll_joint_dof,right_wrist_pitch_joint_dof,right_wrist_yaw_joint_dof
0,-2.66843318939209,-0.3737931549549103,78.14298248291016,-0.35998949760767396,-5.466992284864349,2.492253294945847,5.5521307,6.478012,3.9849055,12.303164,-11.754514,-7.856252,6.3350263,-7.0789843,-8.41034,10.9932165,-12.889553,7.0311728,-2.5290747,-1.3331887,11.18047,-13.375252,11.932964,-55.903336,66.905754,-3.176249,-0.10333199,9.543589,-8.680028,-10.212395,38.10505,64.748375,-7.7824197,-6.3074903,5.0101523
1,-2.7067761421203613,-0.36104464530944824,78.14012908935547,-0.3652022066484429,-5.435310481249942,2.4503909524131195,5.386608,6.485762,4.013935,12.526715,-11.839666,-7.8343377,6.145657,-7.0945616,-8.344607,11.213021,-12.947318,7.0305905,-2.5379465,-1.3189253,11.158076,-13.392711,11.920429,-55.911324,66.92375,-3.1987782,-0.11461001,9.559596,-8.725783,-10.214468,38.10308,64.744606,-7.8066344,-6.328378,4.950857
2,-2.750033378601074,-0.3439925014972687,78.1344985961914,-0.3704251833719592,-5.405231759200316,2.4118528342705994,5.2246737,6.493218,4.040864,12.747116,-11.924082,-7.8130383,5.963143,-7.1098022,-8.282868,11.426671,-13.003818,7.030159,-2.5471067,-1.3037543,11.13588,-13.407462,11.908418,-55.922737,66.937325,-3.2241795,-0.124943815,9.57744,-8.769135,-10.216998,38.104973,64.73988,-7.8382425,-6.352077,4.8843894
3,-2.791832685470581,-0.32718127965927124,78.12769317626953,-0.3752806226048498,-5.372551668147768,2.366819425452311,5.0563803,6.500851,4.071687,12.974091,-12.010263,-7.79037,5.768266,-7.125283,-8.213302,11.651614,-13.062468,7.029672,-2.557336,-1.2895443,11.114793,-13.420727,11.902695,-55.92756,66.94454,-3.2451239,-0.13473178,9.592347,-8.816702,-10.218588,38.10131,64.73464,-7.854335,-6.3694997,4.8316617
4,-2.83305025100708,-0.30721819400787354,78.12059783935547,-0.3798057540299095,-5.338048506468846,2.30638466013929,4.8822956,6.509362,4.1122007,13.207177,-12.096177,-7.7644167,5.5570765,-7.1386595,-8.126211,11.885601,-13.117225,7.028745,-2.5675962,-1.2763809,11.096016,-13.432774,11.900004,-55.924656,66.94974,-3.2590613,-0.14319824,9.602245,-8.86572,-10.219485,38.088524,64.72322,-7.8261523,-6.370382,4.810987
5,-2.8859941959381104,-0.2911006808280945,78.11279296875,-0.3798702851111198,-5.2883923813772125,2.220649569652958,4.679524,6.5153456,4.1671715,13.467704,-12.191862,-7.732747,5.2840443,-7.1571765,-8.007572,12.186654,-13.195546,7.0255046,-2.5603564,-1.2598284,11.079866,-13.45755,11.892828,-55.899845,66.954475,-3.2529926,-0.152607,9.601395,-8.940855,-10.221389,38.034363,64.72179,-7.738686,-6.3465257,4.8588634
6,-2.9403235912323,-0.2663460671901703,78.10419464111328,-0.3794307611052028,-5.240862643529317,2.119165841786388,4.483188,6.521564,4.2316003,13.721924,-12.282883,-7.697446,5.006221,-7.172539,-7.872063,12.485465,-13.266599,7.0203624,-2.5397034,-1.2426947,11.073663,-13.488435,11.881277,-55.859234,66.96379,-3.2275915,-0.1616599,9.592603,-9.016077,-10.223754,37.946472,64.71263,-7.6157417,-6.302984,4.9526052
7,-2.9975898265838623,-0.24405717849731445,78.09410095214844,-0.37907793650976995,-5.183844460951917,2.012112149933342,4.2580147,6.529855,4.300099,14.007081,-12.384682,-7.660672,4.6967072,-7.188514,-7.727785,12.813539,-13.344178,7.0181866,-2.5286558,-1.2271777,11.066101,-13.526383,11.873553,-55.822426,66.97347,-3.2023642,-0.16903166,9.580758,-9.09673,-10.224702,37.85258,64.69904,-7.4886913,-6.260988,5.0409627
8,-3.074212074279785,-0.22322821617126465,78.08332824707031,-0.38046360037275034,-5.111461439781238,1.9115333460468686,3.9802566,6.54226,4.365973,14.348509,-12.50707,-7.624717,4.3480706,-7.2063394,-7.586399,13.176864,-13.430087,7.0236998,-2.5369341,-1.211808,11.060131,-13.583075,11.868495,-55.802155,66.983185,-3.1802158,-0.17102474,9.567622,-9.18731,-10.224449,37.732548,64.68136,-7.4158597,-6.2428093,5.079858
9,-3.1617655754089355,-0.20603574812412262,78.06800079345703,-0.38177671344633196,-5.02402184842753,1.8203534653933968,3.653692,6.556194,4.429701,14.739375,-12.650447,-7.591659,3.9614375,-7.2289395,-7.449096,13.576717,-13.527275,7.04113,-2.5464144,-1.1988189,11.0595045,-13.670567,11.8656025,-55.825397,66.992584,-3.1664078,-0.16134115,9.553294,-9.275149,-10.221807,37.549545,64.65174,-7.4436703,-6.264148,5.0529327
10,-3.2480907440185547,-0.18457554280757904,78.05134582519531,-0.38290976918810016,-4.924124671440648,1.7324354723926743,3.287277,6.571507,4.493714,15.171923,-12.811075,-7.559459,3.5405009,-7.254742,-7.3105125,14.009309,-13.633838,7.067019,-2.5635996,-1.1882778,11.059798,-13.7749815,11.867946,-55.87737,66.99815,-3.1619937,-0.14338122,9.538566,-9.363311,-10.216787,37.333252,64.6149,-7.5263805,-6.3092136,4.9835405
11,-3.334500551223755,-0.15896636247634888,78.03250885009766,-0.38796458069736206,-4.810486514437768,1.645451283822918,2.8668566,6.594998,4.555293,15.668922,-12.990773,-7.5246916,3.0796278,-7.2777276,-7.1712995,14.477666,-13.745983,7.094708,-2.5765533,-1.1800146,11.0641985,-13.902114,11.878606,-55.96008,67.0065,-3.1616817,-0.12763484,9.5195875,-9.459588,-10.207725,37.07655,64.571236,-7.618103,-6.3580728,4.896041
12,-3.4272751808166504,-0.13275139033794403,78.01280975341797,-0.4014006989627487,-4.681291067731176,1.5568434244481,2.3841672,6.6330347,4.6125283,16.24097,-13.189585,-7.484038,2.57377,-7.2920837,-7.032281,14.982323,-13.858174,7.1176443,-2.6354342,-1.1671834,11.067868,-14.032762,11.89174,-56.004276,67.0273,-3.144921,-0.12764515,9.494153,-9.591251,-10.200357,36.86606,64.530106,-7.6395006,-6.3868117,4.8088236
13,-3.536576747894287,-0.10607489198446274,77.98751831054688,-0.42232404873690693,-4.534457782649536,1.4707375671512493,1.8277551,6.684367,4.6629386,16.903429,-13.40953,-7.4335856,2.0205464,-7.2998734,-6.899493,15.525803,-13.972135,7.1371255,-2.667075,-1.1629386,11.076813,-14.195887,11.930388,-56.111217,67.05053,-3.12453,-0.14921087,9.452332,-9.736029,-10.182151,36.587223,64.4816,-7.6018004,-6.3900847,4.740763
14,-3.664032459259033,-0.08518947660923004,77.95757293701172,-0.45050008432405664,-4.371361196634531,1.3872309365382653,1.20491,6.747662,4.707235,17.647022,-13.650846,-7.376262,1.428308,-7.3011003,-6.771999,16.095608,-14.086484,7.15589,-2.777452,-1.1502441,11.077818,-14.356594,11.955093,-56.153107,67.10201,-3.0732675,-0.19123554,9.401202,-9.92357,-10.17239,36.395184,64.44061,-7.479166,-6.373659,4.6688867
15,-3.7952005863189697,-0.06223100796341896,77.92569732666016,-0.4861881622769832,-4.197275427090818,1.2962335112622045,0.5325493,6.8253255,4.749588,18.454119,-13.907833,-7.3190246,0.791121,-7.292386,-6.6353297,16.710293,-14.2038965,7.1692452,-2.8303258,-1.1454821,11.098879,-14.546579,12.021691,-56.26194,67.12156,-3.0485861,-0.22634502,9.350749,-10.110597,-10.14749,36.09573,64.38627,-7.3911567,-6.3605757,4.5869117
16,-3.92688250541687,-0.03638796880841255,77.89126586914062,-0.5321857370450739,-4.0163541531285585,1.1897387388860203,-0.17185082,6.9214272,4.792253,19.302418,-14.17716,-7.2687545,0.1078399,-7.2675614,-6.4782276,17.375742,-14.32286,7.1727443,-2.908326,-1.1318583,11.134779,-14.729273,12.103553,-56.311634,67.12255,-3.0416307,-0.24426825,9.319148,-10.323552,-10.120544,35.823517,64.33069,-7.328983,-6.35867,4.4698067
17,-4.073447227478027,-0.007830177433788776,77.85096740722656,-0.5907420028363496,-3.8251431802731237,1.0681304844704795,-0.9209103,7.036239,4.826128,20.209202,-14.46132,-7.226606,-0.6239518,-7.223517,-6.3022904,18.089304,-14.442473,7.1644626,-2.997321,-1.1020488,11.183877,-14.926574,12.166904,-56.31392,67.13917,-3.0702107,-0.23824398,9.313397,-10.550598,-10.101537,35.557774,64.26637,-7.318468,-6.3777986,4.3021526
18,-4.237628936767578,0.017635297030210495,77.80288696289062,-0.6599319504941007,-3.6232026899860528,0.9350196167077188,-1.7179817,7.1678853,4.8523164,21.178322,-14.760626,-7.188917,-1.4025363,-7.1633244,-6.1128592,18.848639,-14.562867,7.147326,-3.0680857,-1.0706687,11.250585,-15.130218,12.270941,-56.32317,67.11526,-3.135738,-0.21275584,9.32244,-10.790312,-10.072343,35.245686,64.19702,-7.355608,-6.4114857,4.099271
19,-4.410671234130859,0.03953753784298897,77.74928283691406,-0.7370396656147701,-3.4188645590091538,0.7862475658834189,-2.5384498,7.3178763,4.8880944,22.181818,-15.072334,-7.1555433,-2.2232933,-7.088743,-5.903354,19.662325,-14.687935,7.125116,-3.146742,-1.0352954,11.336143,-15.339217,12.382103,-56.29505,67.086235,-3.1970713,-0.1826552,9.339111,-11.048451,-10.044435,34.939507,64.11568,-7.397015,-6.4420877,3.8890655
20,-4.57693338394165,0.06289701163768768,77.69310760498047,-0.8189263420838749,-3.2205132390065434,0.6175185066851716,-3.3563612,7.4879045,4.951291,23.1895,-15.391778,-7.127324,-3.082461,-7.001449,-5.6670833,20.540308,-14.819006,7.1021204,-3.2181664,-1.0012138,11.448405,-15.557424,12.50183,-56.240196,67.05297,-3.230373,-0.15849572,9.354578,-11.317824,-10.017825,34.626057,64.00962,-7.424642,-6.4549823,3.7027197
21,-4.752893924713135,0.09518935531377792,77.62606048583984,-0.9125430075746285,-3.0315587963449326,0.43667337609791707,-4.169427,7.6824727,5.039711,24.19753,-15.722236,-7.1060877,-3.9700131,-6.8948464,-5.4122725,21.471727,-14.952958,7.0830264,-3.287696,-0.96093905,11.592818,-15.785026,12.629927,-56.150505,67.018936,-3.2217824,-0.1460176,9.365482,-11.599686,-9.993655,34.306946,63.87618,-7.4286313,-6.4345546,3.5504408
22,-4.94607400894165,0.13014239072799683,77.55120849609375,-1.0174898707743045,-2.847012711596776,0.24307729445734047,-4.9893913,7.89991,5.14556,25.219894,-16.06416,-7.0924654,-4.892136,-6.7685013,-5.140273,22.458027,-15.090913,7.0664062,-3.3564155,-0.9144988,11.764578,-16.022799,12.7664175,-56.030895,66.98249,-3.1891086,-0.13833779,9.376689,-11.894612,-9.972284,33.981026,63.719513,-7.4221544,-6.3927274,3.4155276
23,-5.155592441558838,0.15512977540493011,77.46668243408203,-1.1193177453755465,-2.663390899890768,0.019574498808710455,-5.81158,8.132207,5.2789717,26.25292,-16.408686,-7.086179,-5.864316,-6.631868,-4.8345876,23.515707,-15.235601,7.048806,-3.40904,-0.87850916,11.954587,-16.268389,12.913442,-55.896122,66.93459,-3.1479387,-0.12751856,9.391699,-12.19831,-9.952353,33.643494,63.540993,-7.4183125,-6.3557434,3.2881494
24,-5.367122650146484,0.17803849279880524,77.37435150146484,-1.2037063356277262,-2.4768263332487286,-0.25083071939978047,-6.630768,8.371051,5.4505954,27.290764,-16.747087,-7.0871587,-6.9032974,-6.4938498,-4.478372,24.664433,-15.3913555,7.0278234,-3.4310431,-0.86998266,12.154162,-16.517422,13.074518,-55.758656,66.86363,-3.1112976,-0.10546747,9.4142885,-12.50759,-9.931299,33.290493,63.342735,-7.4287405,-6.3499913,3.158234
25,-5.582864761352539,0.20198456943035126,77.27259063720703,-1.266249618755974,-2.2846422800694746,-0.575817539967259,-7.454573,8.615677,5.667679,28.346878,-17.074295,-7.097451,-8.027963,-6.3554044,-4.06218,25.932583,-15.570049,7.0002136,-3.417715,-0.8937477,12.362999,-16.769682,13.253334,-55.620964,66.76315,-3.0818295,-0.063186504,9.445918,-12.82225,-9.906458,32.901543,63.126167,-7.4700274,-6.3941875,3.0378935
26,-5.799587726593018,0.22128531336784363,77.16423797607422,-1.3149821173596186,-2.0891728579241358,-0.9451450610195518,-8.281169,8.869965,5.923692,29.41546,-17.39486,-7.1193333,-9.220477,-6.207079,-3.5983214,27.293955,-15.7635,6.9737945,-3.3774,-0.9413353,12.5853405,-17.02558,13.451276,-55.477364,66.63858,-3.053242,-0.009067508,9.484187,-13.147193,-9.877277,32.48493,62.89543,-7.5320873,-6.4720097,2.9269137
27,-6.041623592376709,0.24477091431617737,77.04104614257812,-1.3546955515253902,-1.8947869305621496,-1.3486834748038077,-9.099393,9.134247,6.206953,30.481203,-17.717289,-7.150809,-10.449283,-6.0419173,-3.1021924,28.699064,-15.946299,6.962487,-3.3148944,-1.0086747,12.818401,-17.281116,13.668935,-55.327667,66.48922,-3.0260296,0.045128863,9.52696,-13.481707,-9.844447,32.07741,62.64847,-7.5889935,-6.5525055,2.797461
28,-6.259120464324951,0.2601933181285858,76.91842651367188,-1.389888337742233,-1.7054684261395852,-1.7762765142261097,-9.897928,9.409531,6.5053954,31.528097,-18.049442,-7.187267,-11.67811,-5.8545995,-2.5894673,30.088919,-16.093397,6.979464,-3.2349966,-1.0914903,13.059565,-17.532045,13.906641,-55.171734,66.31268,-3.0004725,0.089270286,9.572485,-13.826277,-9.8090725,31.716951,62.386993,-7.613795,-6.6081357,2.6213183
29,-6.480624675750732,0.2821645736694336,76.78593444824219,-1.4153600344691195,-1.5130821949609474,-2.2425839275288157,-10.678954,9.694848,6.833606,32.546978,-18.393694,-7.225404,-12.946319,-5.64436,-2.0513945,31.50736,-16.192282,6.9686866,-3.1286366,-1.1963242,13.304255,-17.77675,14.164354,-54.995026,66.106606,-2.970397,0.120192036,9.623076,-14.186749,-9.772751,31.426598,62.097393,-7.5821157,-6.6186237,2.3846776
30,-6.725059986114502,0.2917324900627136,76.64808654785156,-1.43093354046149,-1.3182592916095561,-2.7471019900060294,-11.447208,9.991662,7.1915245,33.549683,-18.74667,-7.265861,-14.253508,-5.4106994,-1.485387,32.959644,-16.255428,6.9489126,-2.9979947,-1.3223599,13.555519,-18.01635,14.44315,-54.800453,65.87027,-2.9374585,0.14466095,9.678694,-14.561124,-9.735704,31.185051,61.78315,-7.5120096,-6.6036534,2.1046505
31,-6.967172145843506,0.3079586327075958,76.49900817871094,-1.4490687505319517,-1.138720348086184,-3.257189299650599,-12.196619,10.304954,7.5445495,34.5544,-19.108011,-7.3089604,-15.51133,-5.1510773,-0.9152762,34.344692,-16.304787,7.041031,-2.8638668,-1.4534991,13.823342,-18.250929,14.743813,-54.610783,65.61316,-2.9094915,0.15758896,9.73379,-14.933472,-9.695171,30.95735,61.46595,-7.445393,-6.594252,1.799977
32,-7.204085350036621,0.3148539364337921,76.33956909179688,-1.4821373053490172,-0.9920636040327311,-3.740231032471806,-12.920449,10.638644,7.858246,35.57695,-19.476742,-7.35597,-16.63572,-4.8657656,-0.36452138,35.57052,-16.371557,7.361141,-2.746364,-1.573701,14.116505,-18.480537,15.066893,-54.45029,65.342,-2.8948064,0.15742174,9.782991,-15.29034,-9.647366,30.708147,61.172024,-7.424142,-6.621323,1.4890745
33,-7.432265758514404,0.32252535223960876,76.17296600341797,-1.5335486723097256,-0.888084963017763,-4.198456119328324,-13.608638,10.9984665,8.132843,36.624256,-19.860271,-7.4064355,-17.60298,-4.547691,0.15956193,36.586227,-16.46257,7.9538436,-2.6453555,-1.6819012,14.447034,-18.705404,15.413612,-54.3188,65.048294,-2.8946157,0.1384159,9.819345,-15.636568,-9.589552,30.43404,60.91003,-7.4592047,-6.7032967,1.163925
34,-7.660195350646973,0.32102301716804504,76.00038146972656,-1.5967741605138694,-0.8157370757530401,-4.645757694095313,-14.267181,11.380861,8.383496,37.685947,-20.256195,-7.4596496,-18.463604,-4.20278,0.66790766,37.461006,-16.578257,8.7482,-2.5512304,-1.7851222,14.806226,-18.924448,15.784228,-54.206005,64.73007,-2.9039352,0.10378825,9.847692,-15.978407,-9.521045,30.149826,60.669376,-7.529988,-6.8201585,0.81835455
35,-7.896334648132324,0.3014911413192749,75.8340835571289,-1.669700894538429,-0.7618885453666205,-5.066836587898173,-14.914348,11.774756,8.597048,38.75343,-20.648792,-7.5172877,-19.245275,-3.8512685,1.1641746,38.28589,-16.741964,9.683403,-2.4704363,-1.8800995,15.172375,-19.140844,16.176588,-54.12645,64.41139,-2.9296348,0.062478792,9.880298,-16.306053,-9.441132,29.849834,60.44579,-7.6291347,-6.9442687,0.474062
36,-8.124492645263672,0.27539801597595215,75.6625747680664,-1.7502073010924353,-0.713070226322771,-5.446578975925135,-15.567784,12.16911,8.760486,39.816074,-21.0216,-7.581161,-19.972599,-3.5121143,1.6519274,39.147354,-16.970564,10.6990185,-2.4070232,-1.9633532,15.524041,-19.356087,16.585272,-54.089268,64.11671,-2.9705355,0.023184642,9.9297,-16.606953,-9.348821,29.525244,60.232136,-7.7493496,-7.0481796,0.15308762
37,-8.35130500793457,0.24054886400699615,75.48844909667969,-1.8397858388744412,-0.6638806113427694,-5.782408192172884,-16.237589,12.5657835,8.87206,40.87644,-21.370773,-7.649877,-20.629246,-3.1245306,2.2180827,39.96136,-17.25088,11.957775,-2.363014,-2.0349514,15.857577,-19.578367,17.007309,-54.115116,63.849712,-3.0407355,-0.014163967,10.014407,-16.873432,-9.240624,29.149282,60.022232,-7.887555,-7.1232934,-0.13393325
38,-8.592179298400879,0.1993720680475235,75.30874633789062,-1.9392451248032359,-0.6214908656550542,-6.082121762609611,-16.912771,12.968552,8.937858,41.935936,-21.703423,-7.7228827,-21.211565,-2.7024105,2.8251832,40.72639,-17.592546,13.427683,-2.3334067,-2.0963159,16.182701,-19.809042,17.440523,-54.1962,63.60493,-3.1371884,-0.054009866,10.12308,-17.11381,-9.115388,28.731535,59.822933,-8.048568,-7.1845655,-0.4004428
39,-8.804068565368652,0.15756651759147644,75.12677764892578,-2.044299062457016,-0.592295901059174,-6.346601745584027,-17.581991,13.368098,8.957194,42.9899,-22.024017,-7.803128,-21.765697,-2.3748448,3.2974973,41.6471,-18.021955,14.756893,-2.3144119,-2.1480527,16.496695,-20.038109,17.878794,-54.297047,63.395817,-3.2324977,-0.093808204,10.223554,-17.344238,-8.979537,28.323856,59.65093,-8.235357,-7.240193,-0.66059446
40,-9.014928817749023,0.10131966322660446,74.95006561279297,-2.2444438512112064,-0.5829085158582725,-6.601295854302867,-18.26982,13.883948,8.880603,44.09862,-22.36867,-7.928376,-22.296953,-2.114096,3.383631,42.830814,-18.486454,15.000033,-2.280358,-2.1012535,16.80007,-20.259193,18.31419,-54.386044,63.24001,-3.3058376,-0.13143276,10.283767,-17.57793,-8.844811,27.98006,59.51923,-8.450591,-7.2980113,-0.92814595
41,-9.230975151062012,0.036449216306209564,74.76463317871094,-2.3744783281597392,-0.596261737659928,-6.8061046868615795,-18.907337,14.28982,8.790549,45.14549,-22.680782,-8.041847,-22.895546,-2.25276,3.162667,44.509094,-19.089617,15.000033,-2.265992,-2.110063,17.090542,-20.479404,18.741299,-54.47182,63.154884,-3.3407428,-0.16975603,10.284901,-17.812927,-8.718039,27.716381,59.42987,-8.70095,-7.354905,-1.2115228
42,-9.437715530395508,-0.02250315248966217,74.5698471069336,-2.420240322731877,-0.6291289764948131,-6.954974493811604,-19.496052,14.568539,8.699017,46.12677,-22.956192,-8.13593,-23.524633,-2.7486367,2.7706645,46.55226,-19.808687,15.000033,-2.2769427,-2.188225,17.36956,-20.704088,19.157553,-54.566296,63.13408,-3.3519516,-0.20925166,10.247737,-18.036142,-8.599938,27.503963,59.365623,-8.981468,-7.407367,-1.500715
43,-9.642088890075684,-0.09187417477369308,74.37089538574219,-2.4337653077999946,-0.6774858386831741,-7.056221061984133,-20.061317,14.78819,8.582922,47.075775,-23.212128,-8.224885,-24.105453,-3.47068,2.285939,48.756165,-20.54754,14.970814,-2.3062153,-2.2833693,17.634953,-20.92146,19.55894,-54.638496,63.159534,-3.3583233,-0.24432324,10.198729,-18.241953,-8.4942875,27.32908,59.307205,-9.273472,-7.46259,-1.7818711
44,-9.840330123901367,-0.17878767848014832,74.1759033203125,-2.5286428066008204,-0.7333741448853602,-7.139140006381931,-20.655169,15.101865,8.383358,48.060085,-23.4811,-8.346843,-24.55696,-4.1732416,1.6910619,50.893528,-21.186287,14.375229,-2.3296902,-2.2855954,17.882574,-21.117771,19.940918,-54.654106,63.212173,-3.3771439,-0.2692985,10.164543,-18.424316,-8.4069605,27.179533,59.233932,-9.5598345,-7.527966,-2.0411654
45,-10.040458679199219,-0.2740771472454071,73.97158813476562,-2.629232678980731,-0.7921698457793889,-7.174005481580547,-21.256107,15.4022665,8.1378975,49.026886,-23.736876,-8.471909,-24.903872,-5.035915,0.9996786,53.044018,-21.771013,13.678867,-2.3729153,-2.264814,18.106627,-21.300333,20.300608,-54.63183,63.3072,-3.4157782,-0.2860393,10.150421,-18.573246,-8.340839,27.056114,59.13346,-9.840668,-7.6097045,-2.2762346
46,-10.230907440185547,-0.3775182068347931,73.76762390136719,-2.73063766174723,-0.8586305969577357,-7.163793858526381,-21.85647,15.684386,7.8486733,49.976833,-23.979866,-8.601066,-25.159342,-6.086408,0.19930097,55.263138,-22.337158,12.795668,-2.430687,-2.2263412,18.311794,-21.4752,20.635853,-54.581936,63.452602,-3.463967,-0.29675657,10.142949,-18.690891,-8.2970705,26.963797,59.014,-10.121844,-7.7024713,-2.4934926
47,-10.417684555053711,-0.49339228868484497,73.56678771972656,-2.830387420832649,-0.9416186611691942,-7.1227339807566175,-22.44072,15.948387,7.5253954,50.910645,-24.212631,-8.735668,-25.30291,-7.2070913,-0.5445907,57.458862,-22.862028,11.865245,-2.491993,-2.1718748,18.506886,-21.627028,20.943537,-54.457653,63.61898,-3.5116217,-0.29635766,10.140183,-18.784882,-8.278673,26.893887,58.880802,-10.396798,-7.7964873,-2.6918273
48,-10.61397647857666,-0.6104940176010132,73.35726165771484,-2.9271568642755224,-1.0495639252282938,-7.06566936447066,-22.994463,16.196894,7.177164,51.830173,-24.438105,-8.877551,-25.32338,-8.267696,-1.076204,59.540127,-23.313368,11.035107,-2.5462825,-2.1015549,18.700483,-21.74023,21.220915,-54.213196,63.777073,-3.5514421,-0.27990353,10.140153,-18.86392,-8.289895,26.841948,58.739536,-10.655134,-7.8818464,-2.870079
49,-10.800801277160645,-0.7365458607673645,73.150634765625,-3.025711090397277,-1.188014505030799,-6.986736868257008,-23.512432,16.429497,6.7957373,52.73595,-24.660614,-9.024853,-25.214687,-9.226087,-1.3577945,61.500557,-23.643476,10.335495,-2.596404,-2.0080771,18.898516,-21.813179,21.463804,-53.826973,63.934967,-3.5840516,-0.24307507,10.132372,-18.926098,-8.335681,26.81777,58.58077,-10.885261,-7.951424,-3.0257304
50,-10.981023788452148,-0.8707394003868103,72.93595886230469,-3.126218309330684,-1.3514393599933925,-6.881115845246747,-24.00341,16.645494,6.3791485,53.62873,-24.87698,-9.177767,-24.990608,-10.145631,-1.4815179,63.38308,-23.877523,9.69669,-2.6463256,-1.891307,19.096169,-21.85297,21.670172,-53.323853,64.10596,-3.610107,-0.18981211,10.121015,-18.965277,-8.417321,26.822443,58.400127,-11.093089,-8.012158,-3.1592968
51,-11.158595085144043,-1.0219414234161377,72.72643280029297,-3.221613161971307,-1.5310597008620763,-6.765416605041313,-24.473103,16.849932,5.9475827,54.508118,-25.082428,-9.341724,-24.675304,-11.047981,-1.4913385,65.17213,-24.0853,9.121303,-2.686222,-1.7608365,19.285225,-21.858082,21.842587,-52.732986,64.26521,-3.6270556,-0.12628558,10.126047,-18.981953,-8.531049,26.832752,58.20954,-11.299531,-8.075201,-3.2743084
52,-11.334573745727539,-1.1758272647857666,72.50858306884766,-3.3041451049539727,-1.718381989734362,-6.656452643460344,-24.928713,17.04777,5.520352,55.376556,-25.269167,-9.521615,-24.293098,-11.955714,-1.4270697,66.85387,-24.339563,8.611609,-2.7069416,-1.6277927,19.457586,-21.829151,21.987364,-52.08678,64.39126,-3.636869,-0.06294759,10.1669655,-18.979832,-8.669839,26.826021,58.02451,-11.525904,-8.151635,-3.3748388
53,-11.504226684570312,-1.339902639389038,72.29007720947266,-3.37292042981812,-1.9148030621024346,-6.551815347565705,-25.378674,17.238705,5.095814,56.251656,-25.43372,-9.719968,-23.836899,-12.857385,-1.2665278,68.42373,-24.667274,8.220086,-2.709533,-1.4954711,19.614727,-21.762074,22.108398,-51.368885,64.47616,-3.6320548,0.005508737,10.24748,-18.958284,-8.828092,26.78855,57.84713,-11.785361,-8.254856,-3.4525292
54,-11.6836576461792,-1.5082123279571533,72.0647201538086,-3.432196496676105,-2.123687806871794,-6.444993351250632,-25.817457,17.421469,4.665929,57.127323,-25.58051,-9.933775,-23.303532,-13.743369,-1.0023592,69.892105,-25.025654,7.9328213,-2.6992662,-1.3597231,19.759167,-21.65652,22.207047,-50.5718,64.528725,-3.6176517,0.081624106,10.357233,-18.92059,-9.004534,26.734547,57.676662,-12.066359,-8.375866,-3.5094943
55,-11.85423469543457,-1.7003384828567505,71.84087371826172,-3.4818957993538446,-2.3390607216202306,-6.346554826701492,-26.231596,17.599674,4.239277,57.971664,-25.715244,-10.160076,-22.722095,-14.649235,-0.6925638,71.267624,-25.385103,7.6514983,-2.6718817,-1.220114,19.884169,-21.510643,22.287102,-49.730488,64.53805,-3.6011825,0.15857138,10.495588,-18.875977,-9.198699,26.684036,57.52325,-12.349504,-8.49222,-3.5654824
56,-12.033978462219238,-1.8965462446212769,71.61746978759766,-3.5216542624197564,-2.55517031454713,-6.266962691321067,-26.607307,17.777637,3.8255434,58.75122,-25.84246,-10.395605,-22.121126,-15.60807,-0.39460742,72.55835,-25.717201,7.278312,-2.6223748,-1.0765464,19.9834,-21.322289,22.353434,-48.87792,64.49456,-3.587725,0.22730887,10.661926,-18.83094,-9.410533,26.653175,57.394657,-12.619139,-8.581461,-3.6393676
57,-12.20577335357666,-2.1037447452545166,71.39972686767578,-3.553322617895288,-2.775231300101494,-6.2091463931262885,-26.948767,17.957546,3.4145932,59.482365,-25.966574,-10.643043,-21.500978,-16.61587,-0.09307824,73.77934,-26.019518,6.7773924,-2.5459027,-0.9298061,20.060898,-21.099855,22.409859,-48.013176,64.39923,-3.5839076,0.2800594,10.844776,-18.793047,-9.64001,26.650465,57.29304,-12.862352,-8.627313,-3.741579
58,-12.384700775146484,-2.322089672088623,71.18096923828125,-3.576158063632105,-3.000929289548641,-6.167379512788057,-27.260302,18.137047,3.0060995,60.174496,-26.084532,-10.903007,-20.851133,-17.656769,0.23071055,74.92179,-26.306719,6.2058587,-2.4473312,-0.7802811,20.118916,-20.839037,22.458164,-47.120163,64.24979,-3.5852242,0.32292587,11.047864,-18.756823,-9.886363,26.665628,57.213047,-13.091609,-8.645063,-3.8597538
59,-12.558117866516113,-2.5434224605560303,70.97158813476562,-3.5857990228800745,-3.2238816357027495,-6.1394033441835365,-27.528461,18.314056,2.624091,60.78388,-26.188864,-11.168698,-20.181211,-18.751446,0.5238393,75.95834,-26.576536,5.602279,-2.3347983,-0.6271154,20.147171,-20.519604,22.501143,-46.217213,64.02532,-3.5882,0.37495592,11.294374,-18.71406,-10.150027,26.691626,57.156166,-13.322119,-8.6598,-3.9792304
60,-12.727157592773438,-2.7735702991485596,70.78033447265625,-3.5771754571018572,-3.4356534029694865,-6.123042544293219,-27.73981,18.487398,2.2930422,61.267456,-26.27218,-11.432654,-19.498796,-19.914263,0.73130125,76.86098,-26.825052,5.004868,-2.2162104,-0.47059014,20.13618,-20.117998,22.540348,-45.31295,63.70764,-3.5790424,0.45064902,11.607063,-18.656216,-10.433121,26.720062,57.122982,-13.571045,-8.696809,-4.085185
61,-12.900532722473145,-3.0094540119171143,70.59891510009766,-3.5525302926050477,-3.6374812455548047,-6.11754552840806,-27.893064,18.66277,2.0181174,61.629868,-26.363413,-11.689327,-18.791653,-21.18,0.8239353,77.64251,-27.055902,4.399889,-2.0920026,-0.30542085,20.082918,-19.636103,22.576674,-44.398026,63.274513,-3.513503,0.58296674,11.966848,-18.58271,-10.739257,26.75115,57.118965,-13.849659,-8.769894,-4.180743
62,-13.080009460449219,-3.2640223503112793,70.4415512084961,-3.5129476764318395,-3.832646894841943,-6.124360434079899,-27.994514,18.840643,1.7872635,61.889202,-26.4556,-11.942966,-18.057455,-22.526512,0.8304391,78.31249,-27.269865,3.7764392,-1.9585357,-0.13378417,19.993664,-19.080652,22.610378,-43.465115,62.736042,-3.4081562,0.7548686,12.369338,-18.497625,-11.070336,26.789343,57.140015,-14.14599,-8.8632965,-4.271164
63,-13.25852108001709,-3.5318329334259033,70.3076400756836,-3.453187878502961,-4.016143244195528,-6.144681901061289,-28.044165,19.011612,1.5971082,62.02308,-26.488928,-12.20097,-17.318182,-23.887308,0.78252405,78.842545,-27.459562,3.1782491,-1.814759,0.037127826,19.872534,-18.44744,22.643827,-42.555397,62.120438,-3.3694873,0.911033,12.860608,-18.391838,-11.421548,26.827675,57.16487,-14.44275,-8.957803,-4.344851
64,-13.448323249816895,-3.805974006652832,70.19942474365234,-3.367877448247321,-4.182390776343531,-6.180104423276521,-28.042528,19.1673,1.444566,62.01049,-26.403702,-12.470919,-16.59818,-25.194036,0.71328574,79.206215,-27.616125,2.6497405,-1.6591092,0.19857922,19.721624,-17.730423,22.680563,-41.711678,61.452095,-3.5040727,0.9977588,13.487816,-18.260746,-11.785426,26.85931,57.179993,-14.722615,-9.034595,-4.3904133
65,-13.654555320739746,-4.091943264007568,70.12471008300781,-3.2541592680005533,-4.335095624503811,-6.227843135911275,-27.998186,19.298695,1.3212821,61.872746,-26.20154,-12.755998,-15.891808,-26.467827,0.61563367,79.41156,-27.750479,2.1866748,-1.4975656,0.3451437,19.54302,-16.921768,22.725101,-40.93425,60.696144,-3.8873324,0.9982785,14.282135,-18.111557,-12.157017,26.874771,57.19085,-15.014695,-9.0890465,-4.3993316
66,-13.850398063659668,-4.397543430328369,70.10210418701172,-3.115512469043115,-4.47505679080208,-6.288668654837713,-27.90837,19.41291,1.2310449,61.612106,-25.908068,-13.051898,-15.187806,-27.726744,0.47181684,79.47127,-27.861,1.7726331,-1.3296854,0.4801644,19.334011,-16.021679,22.77915,-40.20346,59.84593,-4.4483895,0.9360004,15.211762,-17.949911,-12.535854,26.88061,57.20992,-15.31832,-9.131676,-4.380255
67,-14.074090003967285,-4.7229695320129395,70.12063598632812,-2.9569532061964203,-4.592732063996572,-6.3692941996641945,-27.756414,19.524559,1.1875857,61.17994,-25.500065,-13.355433,-14.502872,-28.898382,0.30060047,79.36636,-27.919117,1.433432,-1.1430323,0.60889333,19.090815,-15.033987,22.838894,-39.52464,58.970566,-5.064843,0.8155504,16.228954,-17.763283,-12.91922,26.89023,57.227726,-15.574139,-9.166476,-4.347426
68,-14.294001579284668,-5.0614848136901855,70.18904876708984,-2.783543378806594,-4.678263421007966,-6.476431035344875,-27.524675,19.647451,1.2047478,60.526203,-24.954102,-13.663631,-13.854865,-29.912422,0.12269327,79.077156,-27.895811,1.1938673,-0.9239169,0.73549044,18.807629,-13.967318,22.895302,-38.906876,58.148117,-5.614561,0.645862,17.286829,-17.54216,-13.304639,26.91747,57.24009,-15.721683,-9.197174,-4.315541
69,-14.521601676940918,-5.422036170959473,70.30390930175781,-2.591027687428668,-4.728281556830059,-6.619451633149002,-27.219442,19.786716,1.2947235,59.66923,-24.2814,-13.972382,-13.258817,-30.796354,-0.067412734,78.61549,-27.805828,1.0373973,-0.66066515,0.8604118,18.473766,-12.807978,22.941603,-38.36583,57.366413,-6.113505,0.3844678,18.43165,-17.289557,-13.69427,26.964172,57.264168,-15.756903,-9.24113,-4.291785
70,-14.771978378295898,-5.807758808135986,70.470947265625,-2.3791693998460164,-4.7475875863807095,-6.792202375299406,-26.846579,19.933134,1.446061,58.626373,-23.489899,-14.285038,-12.701926,-31.571806,-0.27611983,77.98934,-27.657549,0.95755684,-0.36009848,0.9821719,18.092775,-11.562963,22.974215,-37.89621,56.606342,-6.6049485,0.039158873,19.668135,-17.006777,-14.088743,27.020668,57.296803,-15.708087,-9.290735,-4.267134
71,-15.024551391601562,-6.219154357910156,70.69275665283203,-2.15898846302067,-4.738727539668938,-6.978189988326925,-26.38664,20.080048,1.6385354,57.345573,-22.550816,-14.609506,-12.163634,-32.153183,-0.48010048,77.17729,-27.413797,0.9926784,-0.036907535,1.1015631,17.678156,-10.27648,22.986938,-37.482704,55.942577,-7.01537,-0.2985368,20.890305,-16.683372,-14.481407,27.08291,57.307587,-15.565053,-9.31221,-4.232874
72,-15.277322769165039,-6.650893211364746,70.96733856201172,-1.9413809490371228,-4.704187429055571,-7.1607834530532,-25.820503,20.220144,1.8511931,55.77401,-21.43535,-14.954179,-11.624411,-32.46224,-0.6516444,76.15726,-27.03909,1.1802225,0.29345056,1.2189946,17.242985,-8.993252,22.971165,-37.10713,55.45322,-7.272919,-0.532481,21.994411,-16.309797,-14.859619,27.145166,57.269276,-15.320383,-9.271592,-4.181178
73,-15.54304313659668,-7.101585865020752,71.29865264892578,-1.6801264001550726,-4.6365255645392995,-7.334260931202741,-25.126957,20.279837,2.1648085,53.869793,-20.16708,-15.000033,-11.110584,-32.56169,-0.75805146,74.926605,-26.509895,1.5098753,0.6230427,1.2956172,16.776245,-7.7081957,22.918943,-36.770824,55.16582,-7.326203,-0.64130646,23.008892,-15.886095,-15.211006,27.198174,57.190342,-14.929087,-9.134816,-4.1278715
74,-15.833785057067871,-7.578649520874023,71.67312622070312,-1.3877049293251813,-4.537237147049499,-7.508750452596348,-24.316275,20.293509,2.5424626,51.663506,-18.751505,-15.000033,-10.624049,-32.46675,-0.8111839,73.49841,-25.85859,1.962427,0.9609193,1.3411494,16.270391,-6.411272,22.826561,-36.484848,55.05494,-7.225771,-0.66787916,23.973078,-15.425194,-15.532768,27.246935,57.099144,-14.413578,-8.927942,-4.075253
75,-16.1343994140625,-8.081279754638672,72.09220886230469,-1.094661293431778,-4.40828018013542,-7.658450560019207,-23.430445,20.28354,2.9169548,49.20216,-17.113773,-15.000033,-10.129075,-32.126003,-0.8201445,71.871544,-25.130798,2.5894845,1.2889166,1.3680253,15.732589,-5.1428595,22.69455,-36.251823,55.120735,-7.0607653,-0.61318684,24.799843,-14.938425,-15.828696,27.311848,56.997463,-13.861807,-8.706799,-3.9953513
76,-16.45024299621582,-8.613551139831543,72.55696868896484,-0.8051180217116556,-4.24630273599441,-7.745536683087593,-22.508276,20.235804,3.244516,46.50963,-15.168744,-15.000033,-9.596789,-31.522953,-0.78214335,70.04348,-24.373922,3.4542027,1.5767893,1.3639474,15.167519,-3.941684,22.527262,-36.072285,55.358997,-6.919706,-0.48161945,25.401571,-14.431646,-16.105852,27.411657,56.87896,-13.362019,-8.526883,-3.8577995
77,-16.780302047729492,-9.171871185302734,73.05951690673828,-0.5183365862484643,-4.044814658201102,-7.769749104355325,-21.511496,20.136911,3.5401273,43.49474,-12.906257,-15.000033,-9.024621,-30.566004,-0.59608173,67.94644,-23.603193,4.6385264,1.8212305,1.3291388,14.566053,-2.8059275,22.328392,-35.972046,55.804104,-6.772186,-0.26028645,25.750217,-13.895536,-16.368963,27.55561,56.741077,-12.929637,-8.402402,-3.6245198
78,-17.124008178710938,-9.754179000854492,73.59065246582031,-0.23002835595264726,-3.808533659247098,-7.747596706234918,-20.434452,19.986248,3.821505,40.1713,-10.366458,-15.000033,-8.428904,-29.313662,-0.26709753,65.59733,-22.820208,6.0673614,2.0375266,1.269474,13.930926,-1.7182218,22.099459,-35.943993,56.444008,-6.589461,0.047907867,25.89295,-13.32368,-16.618773,27.72991,56.579113,-12.520032,-8.302761,-3.3198316
79,-17.476835250854492,-10.365376472473145,74.14636993408203,0.05996281408454231,-3.5509036774031273,-7.666538784748581,-19.372313,19.795218,4.051128,36.729866,-7.5405064,-15.000033,-7.8169136,-27.97394,0.044626795,63.122242,-22.042177,7.5747366,2.2207751,1.1809623,13.28545,-0.68952245,21.844336,-35.934204,57.200527,-6.459998,0.41279694,25.855959,-12.731306,-16.857935,27.924461,56.386734,-12.1274185,-8.216685,-3.0066526
80,-17.852466583251953,-10.990550994873047,74.70826721191406,0.3515764984100321,-3.2845966939090876,-7.513880737387182,-18.427649,19.585907,4.1930156,33.371925,-4.421103,-15.000033,-7.200517,-26.734,0.16490975,60.643948,-21.262362,9.009896,2.3632667,1.0600911,12.653958,0.27490348,21.568624,-35.881813,57.98828,-6.4685225,0.8047437,25.6662,-12.13303,-17.08943,28.129827,56.15435,-11.747096,-8.13345,-2.7478182
81,-18.24250602722168,-11.641521453857422,75.26795196533203,0.6467309197152816,-3.0100568234077416,-7.2566089547087245,-17.651955,19.361563,4.201208,30.099173,-0.67462873,-15.000033,-6.552303,-25.543676,0.09912032,58.101048,-20.439644,10.456634,2.4390795,0.8972721,12.046989,1.1692226,21.277927,-35.778984,58.80878,-6.6580215,1.2512655,25.299978,-11.514396,-17.311083,28.3409,55.85129,-11.391887,-8.031332,-2.5716555
82,-18.643964767456055,-12.315154075622559,75.80863952636719,0.9509975635983344,-2.719964198809088,-6.909333028395312,-17.022406,19.107138,4.1099315,26.883924,3.5610201,-15.000033,-5.8883557,-24.338257,-0.06664404,55.44593,-19.585722,11.954963,2.4546256,0.69223285,11.4504,2.0055442,20.976273,-35.647923,59.688816,-6.9703608,1.758966,24.755167,-10.873538,-17.52156,28.564583,55.489155,-11.059556,-7.923072,-2.4411023
83,-19.06596565246582,-12.990830421447754,76.32320404052734,1.2658460650470604,-2.4153860767663913,-6.531098168913804,-16.508448,18.83002,3.9977818,23.847792,7.5906696,-15.000033,-5.2892966,-23.258902,-0.4083884,52.83545,-18.74324,13.3104925,2.450905,0.45889252,10.852333,2.801494,20.667248,-35.477974,60.583332,-7.3483834,2.2669423,24.091885,-10.245371,-17.727701,28.812891,55.12227,-10.719781,-7.85004,-2.3206534
84,-19.491729736328125,-13.672381401062012,76.80399322509766,1.585095465128481,-2.1000046703447093,-6.183574393046192,-16.038067,18.555387,3.9399981,21.045052,10.756641,-15.000033,-4.8264856,-22.428455,-1.0221779,50.430607,-17.945047,14.34029,2.4708538,0.2191454,10.244744,3.5765982,20.35376,-35.25771,61.4433,-7.7366076,2.7131948,23.367987,-9.661365,-17.941175,29.098244,54.798145,-10.341635,-7.852918,-2.1732566
85,-19.92489242553711,-14.35753059387207,77.23407745361328,1.9039047536643858,-1.7545319445524739,-5.857453331143727,-15.486819,18.290318,4.0024004,18.103355,13.016443,-15.000033,-4.504386,-21.870502,-2.024407,48.219364,-17.135296,15.000033,2.5176737,-0.02092849,9.594252,4.3514557,20.035822,-34.97619,62.24556,-8.195993,3.0895631,22.562506,-9.097377,-18.174015,29.458277,54.511166,-9.86125,-7.9524264,-2.022059
86,-20.351224899291992,-15.035414695739746,77.60823059082031,2.1377440325444406,-1.3743158887787597,-5.554712106780178,-14.920306,18.15776,4.0911913,15.0767765,14.703228,-15.000033,-4.287377,-21.369335,-3.4230442,46.109035,-16.275406,15.000033,2.5932617,-0.18516406,8.907434,5.112212,19.712004,-34.63972,63.01556,-8.731007,3.4279542,21.656755,-8.539997,-18.431149,29.875786,54.22826,-9.310784,-8.123243,-1.8723274
87,-20.788272857666016,-15.71187973022461,77.89765167236328,2.366807874817129,-1.0234932496866798,-5.295251253004546,-14.387108,18.07604,4.1472917,12.454454,15.821615,-15.000033,-4.1503477,-21.003834,-4.9814644,44.22329,-15.488044,15.000033,2.6899846,-0.33979496,8.27927,5.829378,19.385035,-34.26418,63.764942,-9.199871,3.7307904,20.709684,-8.033716,-18.709753,30.277649,53.953754,-8.801659,-8.335147,-1.6594223
88,-21.22378921508789,-16.378732681274414,78.08061218261719,2.625092063743842,-0.7517063663964076,-5.106715876448823,-14.038146,18.011253,4.084511,10.884063,16.30053,-15.000033,-4.0848045,-20.774887,-6.5582085,42.67931,-14.885673,15.000033,2.8086615,-0.51707894,7.790221,6.4723425,19.06,-33.86859,64.51028,-9.463411,3.9905443,19.77796,-7.6274605,-19.000732,30.591093,53.696365,-8.446689,-8.558365,-1.3206257
89,-21.687345504760742,-17.047983169555664,78.21333312988281,2.9305085982913575,-0.5551151514507754,-4.998222465074733,-13.965392,17.937443,3.8735144,10.638328,15.983731,-15.000033,-4.1207833,-20.740818,-8.2296095,41.538666,-14.402341,15.000033,2.9540088,-0.74343574,7.4416213,7.057346,18.737736,-33.412193,65.24901,-9.496052,4.182954,18.846142,-7.3456144,-19.300228,30.8141,53.45803,-8.324291,-8.815772,-0.7681082
90,-22.188486099243164,-17.735336303710938,78.32466125488281,3.139080216436333,-0.3749713452179796,-4.992180175548011,-14.224062,18.042242,3.5091863,11.54767,14.852317,-15.000033,-4.2610183,-20.686602,-10.14522,40.67427,-13.97879,14.413249,3.1622593,-0.88320744,7.157655,7.5962234,18.41684,-32.901093,65.97013,-9.370798,4.3132296,17.892101,-7.1634192,-19.60713,30.981958,53.24014,-8.357559,-9.115505,-0.06073066
91,-22.718542098999023,-18.435148239135742,78.38885498046875,3.3198326205755446,-0.25581366037935005,-5.0423293054099085,-14.636148,18.224028,3.0554898,13.236793,13.214764,-15.000033,-4.407291,-20.63032,-12.101728,40.060017,-13.840478,13.423787,3.3910453,-0.9918528,6.984806,8.050039,18.103975,-32.427094,66.682144,-9.098863,4.4137683,16.960476,-7.060012,-19.913033,31.076723,53.055893,-8.428686,-9.404378,0.64402634
92,-23.261837005615234,-19.133926391601562,78.3980941772461,3.488778580000742,-0.23145555711103522,-5.1193393958338325,-15.079639,18.444279,2.5525782,15.416117,11.338457,-15.000033,-4.472864,-20.530058,-13.869026,39.636124,-14.179485,12.4298315,3.6210825,-1.0693223,6.9562764,8.379379,17.81205,-32.085533,67.38798,-8.691953,4.5217595,16.097261,-7.0123262,-20.206324,31.073265,52.91976,-8.425706,-9.627128,1.1893027
93,-23.837060928344727,-19.84324836730957,78.31582641601562,3.620626855118598,-0.3291480387523183,-5.233695140074677,-15.553583,18.718071,1.8710346,18.152073,9.106409,-15.000033,-4.406302,-20.355015,-15.452506,39.429615,-15.168082,11.381184,3.8688517,-1.0906906,7.1060214,8.564356,17.556152,-31.906513,68.0994,-8.067126,4.648884,15.256997,-7.0196614,-20.47552,30.939608,52.83122,-8.324335,-9.779563,1.547826
94,-24.418432235717773,-20.556713104248047,78.18466186523438,3.7003220313375755,-0.5308630125210503,-5.402225632618005,-16.043344,19.04977,1.0403478,21.423595,6.511121,-15.000033,-4.2509356,-20.108759,-16.914852,39.44247,-16.667807,10.22954,4.149411,-1.04812,7.411904,8.638208,17.341314,-31.840708,68.79756,-7.251409,4.7707744,14.43277,-7.096585,-20.71935,30.692253,52.795036,-8.1882305,-9.888307,1.7982842
95,-25.021442413330078,-21.239471435546875,78.0297622680664,4.062200293049596,-0.7684778048860387,-5.500950031850585,-16.357044,19.016785,0.7958305,24.635155,4.0900564,-13.59137,-4.206875,-20.228598,-18.077244,39.77556,-18.457964,9.242061,4.3436537,-1.2629356,7.8097053,8.634053,17.163412,-31.857716,69.44958,-6.4160304,4.8731256,13.727165,-7.237862,-20.939919,30.37938,52.82313,-8.035873,-9.942267,1.9414397
96,-25.630712509155273,-21.915910720825195,77.84207153320312,4.436597425731533,-1.0316617615586436,-5.620485383785615,-16.56492,19.00442,0.89550626,27.88166,1.9679255,-12.1956005,-4.2510047,-20.288109,-18.895172,40.144794,-20.144468,8.459644,4.52786,-1.4721506,8.259059,8.587505,17.008257,-31.927113,70.02314,-5.7327933,4.948843,13.24519,-7.4421773,-21.14555,30.053745,52.931877,-7.8848023,-9.9309025,1.9798995
97,-26.251113891601562,-22.581554412841797,77.6248550415039,4.823169681554536,-1.3445765261976412,-5.778232988507465,-16.631084,19.103426,1.4192717,31.20914,0.2151008,-11.252747,-4.374647,-20.248705,-19.273518,40.485027,-21.682974,7.9443035,4.7137527,-1.670821,8.793373,8.479806,16.866755,-32.085033,70.53363,-5.256584,4.9938855,13.070383,-7.714829,-21.337135,29.704744,53.12301,-7.728971,-9.827392,1.8708751
98,-26.886917114257812,-23.232284545898438,77.38314056396484,5.227004982590786,-1.7132145621266612,-5.970477392353623,-16.602875,19.304026,2.2463903,34.743725,-1.360348,-10.549307,-4.560968,-20.15641,-19.29333,40.87895,-23.222307,7.599362,4.902336,-1.8627634,9.422579,8.293286,16.736324,-32.331783,71.002815,-4.8920083,5.019105,13.130636,-8.054068,-21.514156,29.314133,53.38903,-7.5615687,-9.645922,1.6272904
99,-27.52729606628418,-23.870052337646484,77.11703491210938,5.596935053046746,-2.080921859704809,-6.177333219515012,-16.570635,19.583237,3.1381216,38.4399,-2.8811803,-9.878501,-4.8509936,-20.009315,-19.14451,41.398705,-24.715778,7.2915783,5.0736794,-2.0052311,10.061409,8.062057,16.609426,-32.582115,71.412994,-4.586314,5.0402074,13.297909,-8.446597,-21.687775,28.927004,53.726063,-7.398281,-9.436581,1.3352906
100,-28.169464111328125,-24.486255645751953,76.81643676757812,5.880120130429509,-2.391981083110133,-6.378386919371174,-16.620314,19.89669,3.8515558,42.235767,-4.459838,-9.049755,-5.283319,-19.80297,-19.011848,42.11288,-26.116568,6.89129,5.2008963,-2.0537841,10.62521,7.8233547,16.475344,-32.742977,71.74488,-4.282371,5.0708976,13.444118,-8.880766,-21.87589,28.596611,54.12541,-7.250873,-9.248629,1.0815784
101,-28.812971115112305,-25.08468246459961,76.50347137451172,6.054461207642497,-2.6487104182109076,-6.574210607539083,-16.794392,20.273668,4.337726,46.223778,-6.143765,-7.971516,-5.87753,-19.514439,-18.890362,43.064846,-27.43922,6.384036,5.2691927,-1.9809526,11.114695,7.584048,16.322428,-32.785564,71.997604,-3.972325,5.11719,13.5694685,-9.3828745,-22.094011,28.360819,54.605778,-7.1032057,-9.090002,0.86706525
102,-29.455909729003906,-25.664052963256836,76.1743392944336,6.150234702913629,-2.876097545239307,-6.772303029383357,-17.034319,20.722862,4.709607,50.400932,-7.872734,-6.7566237,-6.613542,-19.148432,-18.70251,44.21111,-28.69655,5.831011,5.2862773,-1.8111657,11.568088,7.319609,16.146278,-32.75583,72.18962,-3.6815498,5.1698055,13.732,-9.945889,-22.345476,28.192774,55.151836,-6.9496207,-8.9351,0.65463626
103,-30.104970932006836,-26.240503311157227,75.8367919921875,6.1926288717975195,-3.0536601562580383,-6.961654789981843,-17.284863,21.14278,4.972232,54.56501,-9.591298,-5.539421,-7.4677606,-18.737568,-18.52325,45.47996,-29.8356,5.2200475,5.2626433,-1.5791234,11.957238,7.020971,15.950627,-32.676384,72.328514,-3.40248,5.2184334,13.89018,-10.502362,-22.627375,28.04146,55.70077,-6.821234,-8.782046,0.47475165
104,-30.741214752197266,-26.811296463012695,75.50676727294922,6.207045305100597,-3.1598841286170196,-7.131329777749103,-17.496399,21.425898,5.1432233,58.52426,-11.240374,-4.459592,-8.414742,-18.320091,-18.425673,46.79939,-30.804893,4.5393105,5.21072,-1.321662,12.253944,6.683377,15.745641,-32.570713,72.41516,-3.129452,5.2530794,14.001338,-10.9862,-22.933056,27.854197,56.19196,-6.7504654,-8.628568,0.35750344
105,-31.377025604248047,-27.361324310302734,75.18266296386719,6.1635465214694225,-3.1592749982706207,-7.2874604176596245,-17.720758,21.599325,5.215706,62.316772,-12.866694,-3.5270035,-9.519981,-17.890884,-18.449549,48.236347,-31.568214,3.74974,5.138246,-1.0109334,12.424283,6.317932,15.532544,-32.404804,72.43236,-2.8783107,5.276872,14.045718,-11.406561,-23.26318,27.628353,56.639732,-6.776348,-8.48029,0.3125696
106,-31.999319076538086,-27.898221969604492,74.8729019165039,6.0609596677773725,-3.073089897842293,-7.432632264682309,-17.967346,21.687742,5.197023,66.03295,-14.480839,-2.683824,-10.772579,-17.44036,-18.55519,49.792717,-32.15458,2.8759954,5.0391173,-0.64199114,12.492983,5.9236345,15.311813,-32.181305,72.38218,-2.6476057,5.29291,14.048211,-11.789672,-23.619307,27.387108,57.065998,-6.8714237,-8.336116,0.32385078
107,-32.62163162231445,-28.425607681274414,74.58186340332031,5.966709259289553,-2.9651965119161336,-7.5510979757707375,-18.125664,21.580057,5.1400795,69.5598,-15.970633,-1.9729455,-12.034854,-17.004581,-18.690987,51.31558,-32.62279,1.9969755,4.909568,-0.28728715,12.519567,5.483268,15.099111,-31.977901,72.28689,-2.4048457,5.2916427,14.033335,-12.092108,-23.992907,27.107347,57.423946,-6.974441,-8.184657,0.38207343
108,-33.225887298583984,-28.953683853149414,74.31482696533203,5.948578498224357,-2.8989503255917604,-7.627001914287868,-18.08792,21.167545,5.1023774,72.779465,-17.219963,-1.437136,-13.167185,-16.617485,-18.800776,52.656315,-33.036278,1.1867971,4.750396,-0.022940688,12.564102,4.9847417,14.920599,-31.879114,72.15879,-2.120533,5.2648263,14.024139,-12.26868,-24.37059,26.7593,57.667538,-7.0245028,-8.01469,0.4774158
109,-33.81761169433594,-29.49203872680664,74.07186126708984,6.057793022708559,-2.8997445572956497,-7.659094120551482,-17.814869,20.372383,5.1198874,75.687,-18.184147,-1.0495793,-14.148151,-16.329271,-18.830048,53.832363,-33.409554,0.48368317,4.570425,0.09471196,12.657482,4.4335012,14.795756,-31.897997,71.96726,-1.7864286,5.211201,13.996193,-12.316542,-24.746658,26.32966,57.794716,-7.010038,-7.8186526,0.6451265
110,-34.40903091430664,-30.047643661499023,73.84745788574219,6.2473771179027215,-2.9308963118156544,-7.655392295351456,-17.375507,19.264742,5.1672993,78.339134,-18.921247,-0.8036845,-15.044386,-16.109245,-18.819788,54.908348,-33.712963,-0.16148818,4.372017,0.11041276,12.76446,3.8487494,14.7296915,-31.998213,71.689865,-1.4217145,5.1370325,13.943663,-12.253359,-25.120197,25.826399,57.825607,-6.9647546,-7.604623,0.8770196
111,-34.99612045288086,-30.602079391479492,73.64522552490234,6.438130503216349,-2.962877734909355,-7.613392377564879,-16.827545,17.953611,5.21309,80.70491,-19.468021,-0.775127,-15.842092,-15.86923,-18.855782,55.799664,-33.94888,-0.80789125,4.1447864,0.09895747,12.845432,3.24254,14.72559,-32.18638,71.3493,-1.0340514,5.046569,13.917488,-12.065624,-25.48186,25.250221,57.749763,-6.898013,-7.3847284,1.097314
112,-35.55537033081055,-31.16808319091797,73.47266387939453,6.5514958320411205,-2.966124704846525,-7.530109877359488,-16.227097,16.54329,5.2312894,82.74869,-19.863823,-1.0423062,-16.530966,-15.524204,-19.024157,56.42852,-34.1187,-1.5155398,3.8781672,0.13404515,12.860022,2.62471,14.785487,-32.470512,70.97259,-0.63312376,4.9442635,13.969107,-11.745024,-25.81826,24.602661,57.564754,-6.8202286,-7.171811,1.2296613
113,-36.113426208496094,-31.7435359954834,73.32543182373047,6.557274120439061,-2.9324472596246864,-7.410876372219494,-15.578958,15.039621,5.2134886,84.48223,-20.102716,-1.666687,-17.086363,-15.032829,-19.36661,56.74792,-34.254787,-2.3152192,3.5678544,0.24585918,12.792355,1.9877446,14.916251,-32.902725,70.55459,-0.20956133,4.8346334,14.109852,-11.310273,-26.117796,23.883902,57.28783,-6.7352624,-6.9682827,1.2912287
114,-36.658260345458984,-32.324703216552734,73.21172332763672,6.500827256024079,-2.8777036983900013,-7.255219885792794,-14.866401,13.380133,5.1811743,85.91649,-20.178593,-2.601915,-17.51748,-14.446815,-19.832474,56.80876,-34.352474,-3.1706767,3.2198806,0.3881065,12.665515,1.3351912,15.118625,-33.463596,70.07704,0.23766525,4.716163,14.311956,-10.765774,-26.375378,23.093596,56.92555,-6.6390243,-6.768514,1.3085197
115,-37.20580291748047,-32.92363739013672,73.12972259521484,6.415446802310394,-2.808255406775615,-7.051596463154844,-14.111282,11.569365,5.1517596,87.00938,-20.132362,-3.7613432,-17.864334,-13.82018,-20.372725,56.67571,-34.355816,-4.0411468,2.8348815,0.5246455,12.49803,0.69041044,15.380943,-34.050053,69.55342,0.68669015,4.584226,14.569841,-10.084111,-26.585188,22.236702,56.459,-6.5267534,-6.57279,1.2197812
116,-37.74445343017578,-33.52785873413086,73.08307647705078,6.333297158466896,-2.7307323663694443,-6.788306378569984,-13.336492,9.621257,5.1344633,87.71825,-19.998875,-5.0532393,-18.16879,-13.208986,-20.939934,56.414417,-34.205406,-4.8875003,2.4090996,0.622108,12.305711,0.07300342,15.68545,-34.553463,69.00825,1.1173263,4.4328957,14.879951,-9.24572,-26.740757,21.325869,55.877533,-6.3919168,-6.381905,0.9627547
117,-38.279144287109375,-34.14176559448242,73.080322265625,6.247309335717779,-2.6378575513440277,-6.457208645574592,-12.542849,7.562758,5.1520767,88.04483,-19.806232,-6.4586616,-18.4394,-12.611749,-21.548859,56.023445,-33.89872,-5.718579,1.9284551,0.69017166,12.075473,-0.5297793,16.024563,-34.961334,68.463554,1.5611827,4.240033,15.256833,-8.241625,-26.83125,20.338202,55.155205,-6.195554,-6.171916,0.5120172
118,-38.81419372558594,-34.756771087646484,73.11402130126953,6.142830634418023,-2.5286988337880834,-6.066502741266689,-11.7303505,5.3885417,5.173131,88.00435,-19.5388,-8.017191,-18.652224,-11.99877,-22.222454,55.46942,-33.462433,-6.5485044,1.3947176,0.7472222,11.800362,-1.1276475,16.39802,-35.32149,67.91548,2.019695,4.0168066,15.7001095,-7.098307,-26.849806,19.28741,54.319626,-5.950538,-5.95207,-0.0978489
119,-39.352230072021484,-35.37422180175781,73.19403076171875,6.039105432210751,-2.419756411827906,-5.628933266464191,-10.914223,3.0697339,5.1180463,87.57343,-19.162603,-9.724786,-18.807707,-11.387866,-22.924843,54.78042,-32.881462,-7.34928,0.8237645,0.7768389,11.504917,-1.6986402,16.796421,-35.613884,67.357124,2.4264677,3.8018863,16.18387,-5.8455606,-26.79498,18.240253,53.434338,-5.729772,-5.7720685,-0.8379986
120,-39.88163757324219,-35.98185729980469,73.31420135498047,5.954968026013172,-2.3281350282427784,-5.157416809746096,-10.101625,0.57884485,4.9042096,86.72808,-18.646992,-11.579432,-18.906958,-10.799528,-23.618769,53.983265,-32.138515,-8.094056,0.22773594,0.76322234,11.211363,-2.2190516,17.205193,-35.811115,66.78131,2.7174304,3.6361666,16.68179,-4.5199113,-26.669939,17.272825,52.57033,-5.605908,-5.6795464,-1.6799477
121,-40.39886474609375,-36.61104965209961,73.47669982910156,5.897584166788665,-2.2615338062262547,-4.623075768922251,-9.274213,-2.1706047,4.446122,85.42514,-17.974289,-13.6648,-18.932074,-10.259473,-24.317053,53.06653,-31.234,-8.786488,-0.42003867,0.6997288,10.917397,-2.694243,17.614431,-35.871086,66.198845,2.8832483,3.5396187,17.178253,-3.0925827,-26.476137,16.401163,51.70646,-5.5796385,-5.7093873,-2.7006748
122,-40.925140380859375,-37.23545837402344,73.67975616455078,5.865506914178427,-2.210205200665061,-4.026090831797736,-8.40202,-4.977619,4.038298,83.67931,-17.180141,-15.000033,-18.899225,-9.777243,-25.023289,52.040443,-30.178185,-9.426313,-1.1227309,0.59991705,10.608721,-3.138466,18.021912,-35.81341,65.6248,2.9576833,3.4851549,17.691116,-1.5673034,-26.21165,15.601104,50.82552,-5.619548,-5.826208,-3.8882096
123,-41.445960998535156,-37.83140182495117,73.91905975341797,6.176229694251347,-2.15138540954612,-3.326625866405374,-7.515648,-7.8940463,4.0306525,81.40917,-16.137882,-15.000033,-19.030684,-9.809798,-25.55081,51.303,-29.115654,-9.905251,-1.9287164,0.14825357,10.253991,-3.544749,18.424019,-35.707108,65.064674,2.9396377,3.4406712,18.24482,-0.023965921,-25.87849,14.883746,50.002743,-5.752443,-5.969412,-5.0800056
124,-41.96653366088867,-38.43511199951172,74.18718719482422,6.409435821330396,-2.0989872846555335,-2.71781642422917,-6.593169,-10.59701,3.893093,78.85639,-15.083085,-15.000033,-19.150883,-9.700125,-26.046726,50.48502,-27.84953,-10.336551,-2.6646945,-0.24057825,9.901733,-3.9037862,18.814438,-35.61718,64.520966,2.830635,3.3739884,18.864477,1.4551394,-25.480757,14.260535,49.315926,-6.0037084,-6.078675,-6.113848
125,-42.49736785888672,-39.05214309692383,74.47749328613281,6.582271492954771,-2.0481301639524006,-2.18074859953996,-5.6315203,-13.229124,3.505403,75.9399,-13.9483795,-15.000033,-19.266457,-9.481263,-26.518135,49.58934,-26.367777,-10.73941,-3.3440835,-0.5868007,9.54605,-4.2261224,19.188906,-35.553944,64.003456,2.580433,3.285644,19.575495,2.8938985,-25.01897,13.729943,48.757885,-6.438669,-6.161886,-7.003546
126,-43.03324890136719,-39.679466247558594,74.78829956054688,6.705840196628273,-2.004873954131911,-1.6940009081185616,-4.592567,-15.809953,2.843206,72.63769,-12.739698,-15.000033,-19.360714,-9.180173,-26.970459,48.60571,-24.683792,-11.108408,-3.9818254,-0.9023041,9.187284,-4.5196314,19.544973,-35.48843,63.520496,2.205325,3.1833994,20.35911,4.322081,-24.494719,13.288453,48.29746,-7.0259657,-6.2386694,-7.817436
127,-43.569156646728516,-40.31412124633789,75.11603546142578,6.754412662538462,-1.9656646080380473,-1.3059956344561674,-3.4788413,-18.016941,2.1400135,69.12498,-11.584623,-15.000033,-19.44511,-8.7392,-27.373432,47.535954,-22.808815,-11.395039,-4.536218,-1.1574483,8.837907,-4.7724333,19.879831,-35.42835,63.068104,1.8069787,3.0532565,21.174397,5.671896,-23.919737,12.939003,47.974163,-7.642619,-6.27082,-8.473867
128,-44.11222457885742,-40.96845245361328,75.45843505859375,6.720858697444389,-1.9214978421538824,-1.0532561237606342,-2.3384757,-19.566545,1.7037306,65.581154,-10.566001,-15.000033,-19.543463,-8.124719,-27.690365,46.389374,-20.75582,-11.545482,-4.97473,-1.3395623,8.504984,-4.9753017,20.189552,-35.384106,62.64582,1.4855211,2.88106,21.980389,6.88245,-23.311985,12.679164,47.820446,-8.16344,-6.224846,-8.88927
129,-44.6730842590332,-41.638221740722656,75.80748748779297,6.61473408827868,-1.8610824482114396,-0.9500390845362353,-1.1864917,-20.326265,1.7883067,61.971622,-9.700546,-15.000033,-19.664228,-7.3508472,-27.964577,45.1649,-18.48946,-11.664164,-5.2834177,-1.4579917,8.176245,-5.1207514,20.469704,-35.361313,62.25603,1.2459631,2.640133,22.83037,7.9755254,-22.680891,12.518567,47.83838,-8.542857,-6.083508,-9.039616
130,-45.245513916015625,-42.31901931762695,76.15745544433594,6.464874765004137,-1.7900531040813075,-0.9662165310926973,-0.00964884,-20.525845,2.294711,58.212864,-8.904453,-15.000033,-19.80148,-6.4637613,-28.181082,43.86277,-16.015158,-11.728105,-5.488962,-1.5420698,7.85112,-5.217994,20.718098,-35.353718,61.902077,1.0448899,2.3456821,23.724798,8.982602,-22.030348,12.450326,48.004204,-8.848903,-5.872435,-8.967408
131,-45.83025360107422,-43.00318908691406,76.49826049804688,6.294685724876692,-1.7242015575378549,-1.069952504493283,1.17454,-20.440039,3.0237844,54.402206,-8.104372,-15.000033,-19.95519,-5.469008,-28.20024,42.48146,-13.400624,-11.488862,-5.6199145,-1.610789,7.5540934,-5.283075,20.93488,-35.354095,61.58202,0.9083275,2.0507646,24.544533,9.861764,-21.37413,12.439088,48.306652,-9.127354,-5.6238556,-8.687754
132,-46.417972564697266,-43.68262481689453,76.82630920410156,6.120831684608945,-1.6761532772028738,-1.2259257307505704,2.3364844,-20.322588,3.7267423,50.63739,-7.221567,-15.000033,-20.123463,-4.355982,-27.871258,41.009247,-10.712838,-10.693741,-5.708114,-1.6722414,7.3087015,-5.330858,21.1212,-35.356136,61.289055,0.85660297,1.8095138,25.170418,10.575463,-20.728298,12.448844,48.72623,-9.421069,-5.36989,-8.214186
133,-47.023948669433594,-44.35954284667969,77.13019561767578,5.942257667133313,-1.641664336764574,-1.4628883614630297,3.5224428,-20.123861,4.515844,46.802544,-6.215992,-15.000033,-20.328693,-3.0856102,-27.138199,39.46741,-7.924774,-9.423352,-5.7356033,-1.7234062,7.1139903,-5.34467,21.274141,-35.338436,61.00865,0.9262239,1.6368443,25.58418,11.122322,-20.099522,12.475178,49.278736,-9.730335,-5.0888987,-7.4384017
134,-47.64413070678711,-45.03301239013672,77.40975952148438,5.751464216140665,-1.6195354943741676,-1.7865245088316575,4.750557,-19.781607,5.500027,42.868385,-5.1373425,-15.000033,-20.53721,-1.6543002,-26.046377,37.824524,-5.0309277,-7.737386,-5.696051,-1.7579776,6.9643555,-5.3215857,21.391651,-35.308094,60.745075,1.0939964,1.5056126,25.8451,11.529197,-19.488998,12.530381,49.956306,-10.035718,-4.776546,-6.388021
135,-48.272552490234375,-45.699119567871094,77.65748596191406,5.551965179852885,-1.623227476415922,-2.11822746931488,5.917095,-19.485056,6.352042,39.082226,-4.049327,-15.000033,-20.657251,-0.08928216,-24.576006,35.978455,-2.1388628,-5.3463697,-5.6441855,-1.7765268,6.8716655,-5.2979527,21.478916,-35.303143,60.51847,1.2902389,1.4062268,25.950531,11.800291,-18.907608,12.598506,50.702904,-10.348907,-4.4899473,-5.280832
136,-48.91438293457031,-46.361083984375,77.86146545410156,5.352958771221755,-1.6645045877275586,-2.3764286697318444,6.890104,-19.378452,6.717754,35.716995,-3.0084777,-15.000033,-20.595764,1.5752134,-22.692234,33.83274,0.63067746,-1.9607729,-5.637356,-1.7824702,6.847767,-5.30559,21.544855,-35.361046,60.33987,1.4448612,1.3286844,25.896334,11.942618,-18.36794,12.664469,51.456104,-10.675156,-4.2840705,-4.332983
137,-49.577659606933594,-47.01719284057617,78.01453399658203,5.205288594886354,-1.738072168059508,-2.5310269200575033,7.659268,-19.614264,6.3035874,32.65992,-1.8405051,-15.000033,-20.229849,3.4038095,-20.116545,31.05054,3.2657385,3.0570843,-5.710687,-1.8205612,6.883052,-5.328761,21.592419,-35.463173,60.19137,1.5515118,1.2733023,25.62307,11.94717,-17.87684,12.722878,52.23954,-11.044727,-4.1833653,-3.523354
138,-50.25285339355469,-47.663204193115234,78.1077651977539,5.1136606869709,-1.8433494881312769,-2.6152408755237815,8.288405,-20.054455,5.3176928,29.812754,-0.54931533,-15.000033,-19.557215,5.318679,-16.899706,27.788548,5.6590505,9.368033,-5.841425,-1.89881,6.976367,-5.351719,21.622663,-35.596058,60.062496,1.6418622,1.2435349,25.150452,11.820581,-17.4329,12.7806425,53.06178,-11.438282,-4.1547933,-2.7611315
139,-50.934730529785156,-48.31490707397461,78.15106201171875,5.011640436721051,-1.9914205476374542,-2.6555738461662117,8.677515,-20.382143,4.2040286,27.58952,0.48284233,-15.000033,-18.752808,7.0750604,-13.749579,24.766764,7.618265,15.000033,-5.988241,-1.9662555,7.147451,-5.4049687,21.643982,-35.805515,59.973347,1.7038351,1.2349311,24.593967,11.589486,-17.036438,12.838641,53.843254,-11.788365,-4.1637883,-2.1590223
140,-51.633338928222656,-49.05073928833008,78.11954498291016,4.45654441286806,-2.088611501015707,-3.0209760497142626,8.155002,-19.78778,3.8649948,27.32403,0.2842734,-15.000033,-17.74661,9.06812,-12.289648,21.740444,9.802537,15.000033,-5.7796364,-1.5837483,7.3809094,-5.512044,21.661581,-36.127422,59.93934,1.7236961,1.2400283,24.06493,11.316099,-16.732002,12.911074,54.453846,-12.00893,-4.1723084,-1.8167995
141,-52.346717834472656,-49.800811767578125,78.042724609375,3.834761841476437,-2.3016226762932352,-3.30094337751036,7.2235427,-18.741795,3.9408145,28.383614,-0.7069328,-15.000033,-17.04929,10.704636,-11.167096,20.057453,11.716876,15.000033,-5.5782633,-1.1700358,7.7632804,-5.7050214,21.713993,-36.64196,59.975826,1.6480535,1.2707679,23.58189,10.91691,-16.392576,12.96897,55.0054,-12.137185,-4.1824365,-1.8424934
142,-53.090511322021484,-50.52007293701172,77.92021179199219,3.305160352531038,-2.5305943583975887,-3.4172816657592358,6.0077004,-17.586142,4.5609202,30.176823,-2.0956826,-12.668584,-16.994196,11.801736,-10.396588,20.050343,13.035117,15.000033,-5.493593,-0.8160183,8.189996,-5.9360476,21.770813,-37.28121,60.030216,1.5021228,1.3286602,23.088146,10.41447,-16.117558,13.021697,55.46802,-12.178126,-4.209018,-2.1355386
143,-53.851348876953125,-51.21012496948242,77.7623519897461,2.7287746990977406,-2.779933526811093,-3.451722688349194,4.6842375,-16.279066,5.387717,32.401733,-3.9157832,-8.996352,-17.407745,12.576114,-9.968758,21.344456,13.665549,15.000033,-5.453986,-0.3907098,8.6752825,-6.1916857,21.827023,-37.988388,60.100216,1.3679427,1.4030619,22.597515,9.820787,-15.9036255,13.0675125,55.83239,-12.133023,-4.237263,-2.5842674
144,-54.63285446166992,-51.883949279785156,77.56472778320312,2.103777646897512,-3.0445163957364922,-3.4379481423132296,3.4704018,-14.925533,6.0078125,34.60526,-6.0216556,-5.6081543,-18.211195,13.058666,-9.774154,23.773535,13.3754015,15.000033,-5.4409046,0.095893815,9.2047415,-6.45416,21.881931,-38.703007,60.17746,1.3260148,1.4826088,22.12248,9.145017,-15.75095,13.108993,56.08993,-12.002301,-4.2526565,-3.0765996
145,-55.42429733276367,-52.52949523925781,77.3062973022461,1.4625793468025456,-3.3362826075087186,-3.3660197338937814,2.4213006,-13.586091,6.370964,36.741394,-8.431417,-2.3716817,-19.475021,13.144809,-9.806362,27.59702,11.903665,15.000033,-5.450069,0.6006351,9.788006,-6.7353253,21.942492,-39.442814,60.26783,1.4042299,1.5700759,21.669817,8.389454,-15.649621,13.144305,56.21349,-11.754638,-4.236033,-3.6392386
146,-56.22419738769531,-53.15370559692383,76.9954833984375,0.8622266688468357,-3.661545448266655,-3.2226682495280095,1.463233,-12.296397,6.5458894,38.934967,-11.146216,0.9226894,-21.036924,12.844434,-9.93301,32.4661,9.593533,15.000033,-5.500423,1.0650845,10.429273,-7.0315824,22.010614,-40.223694,60.372402,1.558847,1.6677383,21.229298,7.5496373,-15.602357,13.183494,56.21571,-11.398544,-4.203099,-4.313785
147,-57.026451110839844,-53.77315139770508,76.64300537109375,0.356522143286803,-4.001645423281012,-3.030919051763971,0.5931753,-11.157137,6.5742936,41.00816,-13.924068,3.8630233,-22.591284,12.321098,-9.87989,37.547882,6.996225,15.000033,-5.580855,1.4370067,11.099325,-7.3182263,22.089878,-41.013393,60.478024,1.7583765,1.7642387,20.788916,6.6329966,-15.594984,13.215276,56.15149,-11.007196,-4.1908484,-5.013003
148,-57.82710266113281,-54.38558578491211,76.24898529052734,-0.04864314038157152,-4.329800282760785,-2.8288920592973166,-0.22030261,-10.176262,6.544355,42.84562,-16.54263,6.027125,-23.942986,11.783881,-9.487152,42.187786,4.5905633,15.000033,-5.6835227,1.7169032,11.764734,-7.566579,22.17377,-41.75151,60.578297,1.9826772,1.8476534,20.338272,5.6262345,-15.621823,13.247962,56.092697,-10.650733,-4.2331157,-5.652733
149,-58.62755584716797,-55.004356384277344,75.82549285888672,-0.3706084788132609,-4.649104525471675,-2.6252613060338983,-0.9732099,-9.281899,6.5553823,44.45578,-19.0201,7.1809683,-25.135149,11.311655,-8.754682,46.40889,2.370235,15.000033,-5.8012385,1.9183851,12.436341,-7.7892103,22.266497,-42.444134,60.6743,2.23165,1.9012834,19.886868,4.5072503,-15.685721,13.286054,56.035633,-10.321116,-4.3586907,-6.221518
150,-59.43470764160156,-55.608619689941406,75.37506103515625,-0.6182297759892628,-4.967279576055741,-2.4100754253055965,-1.678359,-8.438472,6.608214,45.943615,-21.449312,7.5988975,-26.26764,10.831581,-7.774787,50.535553,0.11199308,15.000033,-5.9366775,2.046666,13.12206,-7.994888,22.36717,-43.102737,60.775196,2.520888,1.9349324,19.436861,3.2779205,-15.789081,13.333858,55.96097,-9.990794,-4.5421777,-6.7625113
151,-60.241825103759766,-56.19807815551758,74.91041564941406,-0.7912088597818375,-5.262899258788342,-2.199786634915951,-2.398282,-7.669671,6.653821,47.353294,-23.731499,7.6133604,-27.3022,10.325885,-6.59035,54.49719,-2.1034775,15.000033,-6.0659213,2.1143267,13.785902,-8.168924,22.471582,-43.716568,60.88314,2.8303106,1.9773842,18.96761,1.9863589,-15.918245,13.3700695,55.8943,-9.7040415,-4.733891,-7.26907
152,-61.04570007324219,-56.77859115600586,74.44735717773438,-0.8892071471736123,-5.514603740422592,-2.0093278658065286,-3.190198,-7.0160227,6.6171656,48.71154,-25.761532,7.5539207,-28.199945,9.762032,-5.233981,58.216846,-4.195369,15.000033,-6.166548,2.1315413,14.389836,-8.299257,22.570808,-44.27399,61.008736,3.1437593,2.0572822,18.458736,0.67350554,-16.052372,13.373618,55.871742,-9.506869,-4.883117,-7.738545
153,-61.83980178833008,-57.345970153808594,73.99519348144531,-0.8869240142133855,-5.696210620076134,-1.8410156073953101,-4.094604,-6.5303063,6.462762,50.00711,-27.524126,7.429193,-29.01078,9.152897,-3.5951667,61.71463,-6.205091,15.000033,-6.23593,2.0782666,14.906362,-8.400372,22.657728,-44.801044,61.1751,3.4807346,2.1828663,17.901897,-0.688646,-16.177841,13.332704,55.935963,-9.440709,-4.9744654,-8.205746
154,-62.622432708740234,-57.91629409790039,73.57250213623047,-0.7904000797678721,-5.824530179453784,-1.6914860756170726,-5.0817075,-6.170664,6.256177,51.24526,-29.07457,7.0918407,-29.750584,8.513429,-1.6929668,65.04548,-8.172073,15.000033,-6.2745376,1.9511881,15.3552475,-8.485365,22.7297,-45.30055,61.3904,3.8440342,2.3374674,17.309866,-2.1150908,-16.295326,13.254861,56.070866,-9.475947,-5.033353,-8.665479
155,-63.38417053222656,-58.4942512512207,73.18397521972656,-0.6470338427139527,-5.943756754077904,-1.564989698079177,-6.0971985,-5.851247,6.0504794,52.461174,-30.406675,6.638451,-30.33988,7.7815447,0.25459734,68.17787,-9.999918,15.000033,-6.269013,1.7871127,15.769922,-8.538641,22.78495,-45.7295,61.641914,4.1880913,2.513117,16.693321,-3.5461953,-16.407986,13.150793,56.223484,-9.551481,-5.070095,-9.054408
156,-64.12696075439453,-59.06387710571289,72.82575988769531,-0.5041169113906867,-6.099521041289622,-1.462745946380365,-7.082599,-5.490054,5.8895073,53.686348,-31.515747,6.1666937,-30.707764,6.874252,2.0402923,71.080925,-11.604822,15.000033,-6.2116275,1.6243265,16.18648,-8.539159,22.823256,-46.04089,61.911686,4.4684987,2.7027116,16.063269,-4.9234858,-16.519728,13.035647,56.340607,-9.604114,-5.096031,-9.308516
157,-64.86817932128906,-59.647865295410156,72.4900131225586,-0.36686474950809905,-6.319333621786288,-1.3727394249768865,-8.025162,-5.074933,5.7878833,54.96652,-32.377617,5.679174,-30.82707,5.697944,3.6177614,73.75026,-12.971699,15.000033,-6.112979,1.4670024,16.63804,-8.475646,22.843275,-46.190826,62.203514,4.7138257,2.9110923,15.386431,-6.2434754,-16.622854,12.867096,56.409325,-9.630643,-5.1007466,-9.377464
158,-65.597900390625,-60.23395538330078,72.18147277832031,-0.20715947733774565,-6.576637479577465,-1.2944780652460879,-8.946846,-4.656733,5.7208066,56.26723,-33.006065,5.1349506,-30.768303,4.2745104,5.1168,76.211876,-14.165152,15.000033,-5.97862,1.2919883,17.099686,-8.358565,22.84552,-46.213634,62.523643,4.93497,3.1404488,14.668822,-7.537911,-16.715239,12.65658,56.462566,-9.6592455,-5.082736,-9.307132
159,-66.31749725341797,-60.81479263305664,71.9011459350586,-0.023287281315826188,-6.836286699359323,-1.2454482265669342,-9.841709,-4.248797,5.6683464,57.500546,-33.448204,4.5643334,-30.603456,2.6906252,6.5931573,78.472664,-15.219727,15.000033,-5.7971473,1.1007794,17.522131,-8.194148,22.833822,-46.17382,62.851883,5.063488,3.3802052,13.980677,-8.796255,-16.813547,12.502316,56.507137,-9.673292,-5.0680356,-9.175682
160,-67.02182006835938,-61.401451110839844,71.65457916259766,0.14119519464111566,-7.064594421471271,-1.2547370096229256,-10.711304,-3.8042073,5.598071,58.610313,-33.774097,3.9840205,-30.390293,1.084116,8.052241,80.5215,-16.14601,15.000033,-5.548063,0.9469761,17.865946,-7.9846153,22.814262,-46.13159,63.154507,5.0312176,3.6252272,13.392449,-10.002478,-16.942173,12.506492,56.53867,-9.650201,-5.0822206,-9.058118
161,-67.70935821533203,-62.009857177734375,71.44234466552734,0.06585099689135523,-7.272478667317897,-1.3972761534085223,-11.601467,-3.0248969,5.424757,59.78493,-34.069878,3.3242855,-30.135305,-0.5293538,9.019518,82.26523,-16.872498,14.002638,-5.1666946,1.0577914,18.166552,-7.7277484,22.788101,-46.100307,63.42264,4.7667227,3.8942044,12.922234,-11.163575,-17.119106,12.7020645,56.547073,-9.549627,-5.1379714,-8.949405
162,-68.39138793945312,-62.62989044189453,71.26384735107422,-0.03982781790703162,-7.464500677569392,-1.6040516654662038,-12.470755,-2.188463,5.21099,60.881763,-34.20937,2.6269593,-29.860445,-2.3709338,9.671838,83.82377,-17.498077,12.035521,-4.7153783,1.2212925,18.413185,-7.41946,22.75419,-46.04735,63.655804,4.3230796,4.1895986,12.533341,-12.274299,-17.34123,13.035961,56.517635,-9.3866825,-5.2194257,-8.811332
163,-69.05304718017578,-63.2492790222168,71.12157440185547,-0.14173558649722037,-7.630502512749188,-1.8191451436472827,-13.279954,-1.363519,4.9713583,61.78851,-34.240566,1.9079859,-29.542831,-4.261256,10.289378,85.196556,-18.030201,10.068511,-4.2418914,1.4009539,18.589323,-7.060362,22.714514,-45.957733,63.847336,3.8184204,4.468613,12.216407,-13.310861,-17.599745,13.483233,56.446106,-9.22573,-5.3101826,-8.670751
164,-69.69577026367188,-63.875885009765625,71.01667022705078,-0.2149023352149243,-7.7603067629439275,-1.9887977305006828,-13.994149,-0.59672606,4.7155023,62.40372,-34.215897,1.1773374,-29.1709,-6.12719,10.913045,86.38094,-18.443218,8.269174,-3.79419,1.5567756,18.678936,-6.6511254,22.674038,-45.818977,63.990414,3.366499,4.687984,11.960115,-14.2528925,-17.88528,14.020597,56.33391,-9.132243,-5.3942065,-8.556565
165,-70.32720184326172,-64.50654602050781,70.9496841430664,-0.2510231175114285,-7.843567604563896,-2.1298290343062685,-14.601174,0.11782541,4.4694767,62.68752,-34.16745,0.42826635,-28.763386,-7.9690723,11.563937,87.39761,-18.69394,6.6252923,-3.3601665,1.6771827,18.664888,-6.1771307,22.636925,-45.612354,64.07065,2.987029,4.8394036,11.746916,-15.113695,-18.202587,14.6968775,56.18934,-9.11757,-5.4662414,-8.488049
166,-70.9467544555664,-65.13922882080078,70.91954803466797,-0.26439088562192253,-7.887921700435814,-2.2604427895743546,-15.122928,0.8025634,4.222319,62.701057,-34.061256,-0.33737624,-28.313726,-9.819901,12.197974,88.24347,-18.794024,5.063028,-2.9250574,1.7799808,18.562162,-5.63818,22.605165,-45.346287,64.08644,2.6212516,4.9440117,11.586026,-15.903272,-18.55151,15.510131,56.009636,-9.147814,-5.535312,-8.446452
167,-71.55029296875,-65.77938842773438,70.93180847167969,-0.2643391678889678,-7.911685728049093,-2.3293506656820395,-15.578947,1.4371347,3.9300463,62.497776,-33.85035,-1.0951712,-27.763628,-11.657946,12.753646,88.88682,-18.787777,3.6632805,-2.5272017,1.8658544,18.402662,-5.0568395,22.580551,-45.0493,64.05489,2.2693222,5.002408,11.505531,-16.591787,-18.912205,16.350937,55.780704,-9.226839,-5.6072803,-8.40637
168,-72.15023803710938,-66.4233169555664,70.98121643066406,-0.26035943445226273,-7.9332169241138235,-2.2853436735859396,-15.99032,1.9975722,3.5462985,62.132412,-33.48783,-1.8213671,-27.043993,-13.455722,13.167965,89.29567,-18.71653,2.515935,-2.2012978,1.9334081,18.216347,-4.4612627,22.56507,-44.75569,64.00135,1.9296631,5.014685,11.534168,-17.146544,-19.255531,17.102427,55.49293,-9.363188,-5.6879005,-8.34506
169,-72.74365234375,-67.08601379394531,71.07342529296875,-0.2447293464920428,-7.956370171363603,-2.104425953139348,-16.351732,2.4595582,3.0629435,61.596855,-32.97746,-2.4968443,-26.10485,-15.25606,13.4058485,89.46273,-18.539412,1.6894464,-1.9662099,1.9638476,17.99754,-3.8425794,22.561802,-44.44816,63.925877,1.6036828,4.96679,11.675786,-17.562714,-19.570509,17.756405,55.156727,-9.596534,-5.785625,-8.264375
170,-73.32511901855469,-67.7641372680664,71.21395874023438,-0.2162210629656919,-7.972455450889096,-1.8174107923623466,-16.65708,2.840407,2.5028205,60.870335,-32.337845,-3.1383379,-24.966173,-17.04973,13.48184,89.4098,-18.234694,1.1282566,-1.8008068,1.9573686,17.732527,-3.1897776,22.573154,-44.118248,63.820404,1.2895867,4.8623524,11.916085,-17.864769,-19.860043,18.364231,54.789764,-9.917425,-5.8957334,-8.178915
171,-73.90061950683594,-68.47103881835938,71.39542388916016,-0.19501028672930365,-7.9799630815804194,-1.4558199701518977,-16.92444,3.1797414,1.8661944,59.986412,-31.543947,-3.7791986,-23.657951,-18.725527,13.403975,89.148445,-17.870895,0.7341663,-1.6776313,1.9401883,17.437456,-2.5298886,22.598982,-43.814373,63.704433,0.9827964,4.7276683,12.257073,-18.064636,-20.116335,18.897312,54.397644,-10.260016,-6.004076,-8.08595
172,-74.47562408447266,-69.19453430175781,71.61699676513672,-0.20335408576999298,-7.9767623672234675,-1.051616283601645,-17.169409,3.5187638,1.151141,58.973675,-30.569569,-4.4525948,-22.212784,-20.171322,13.185865,88.687454,-17.519707,0.40843353,-1.5640159,1.939024,17.126314,-1.8970169,22.636732,-43.593704,63.606544,0.6752179,4.588591,12.70188,-18.172415,-20.32747,19.321938,53.988884,-10.560469,-6.0968285,-7.982993
173,-75.0478286743164,-69.93827056884766,71.87935638427734,-0.26638731889166806,-7.973499679791103,-0.5788996501188063,-17.408888,3.8644948,0.3082846,57.873173,-29.41918,-5.172125,-20.566462,-21.4051,12.744331,88.022,-17.18726,0.13640533,-1.4774809,1.9730985,16.801918,-1.2987765,22.68651,-43.477467,63.545883,0.34858313,4.4392133,13.291646,-18.17366,-20.484234,19.605978,53.557793,-10.827325,-6.172342,-7.853602
174,-75.6246566772461,-70.70655059814453,72.17647552490234,-0.36755499555747645,-7.966840793827937,-0.032991198655326834,-17.6288,4.1962876,-0.6497279,56.65677,-28.10388,-5.9199333,-18.708408,-22.448908,12.089139,87.15411,-16.836897,-0.032591853,-1.4235697,2.0234177,16.453373,-0.7220628,22.746296,-43.436897,63.51521,0.01300376,4.267702,14.012083,-18.073065,-20.583563,19.770481,53.11629,-11.091692,-6.237938,-7.7065616
175,-76.20660400390625,-71.49568176269531,72.51258850097656,-0.4644151296536662,-7.932391856491867,0.5222228111347857,-17.804968,4.512654,-1.6354729,55.25601,-26.609211,-6.6812444,-16.77355,-23.20835,11.393945,86.11189,-16.486074,-0.10225582,-1.3558099,2.060539,16.074688,-0.16620603,22.814692,-43.45259,63.49584,-0.30028886,4.09209,14.782973,-17.909185,-20.636454,19.869473,52.6915,-11.317958,-6.2922935,-7.574921
176,-76.8056640625,-72.28643035888672,72.8878402709961,-0.514367094221029,-7.84695708571082,1.0229391360405706,-17.913507,4.812605,-2.5595353,53.601807,-24.919462,-7.4408813,-14.907334,-23.600182,10.843362,84.91927,-16.156582,-0.08109752,-1.2222289,2.0550103,15.653972,0.3450035,22.857733,-43.514236,63.513626,-0.55723345,3.930255,15.527366,-17.72094,-20.644405,19.94895,52.3213,-11.476509,-6.333862,-7.493126
177,-77.4008560180664,-73.09674072265625,73.29719543457031,-0.5048035900392208,-7.698882232076957,1.458045032068417,-17.942389,5.086607,-3.403928,51.641373,-23.047958,-8.204935,-13.134973,-23.569942,10.5197525,83.59523,-15.892067,-0.007046341,-1.0185192,1.9905286,15.181292,0.84669995,22.93129,-43.674942,63.49982,-0.7643935,3.7897708,16.295948,-17.490185,-20.615534,20.02055,51.979977,-11.546225,-6.34539,-7.4990864
178,-78.00428009033203,-73.91544342041016,73.73917388916016,-0.4576215293225059,-7.5028531240578795,1.859910162785027,-17.906778,5.3387585,-4.2157907,49.42533,-20.99605,-8.977682,-11.402518,-23.185976,10.342869,82.12555,-15.676578,0.12072013,-0.7642824,1.8851191,14.659508,1.3077736,22.99639,-43.931858,63.51755,-0.9309463,3.6584933,17.109356,-17.205164,-20.54135,20.050192,51.668686,-11.554744,-6.3332887,-7.564363
179,-78.6185302734375,-74.74626922607422,74.21215057373047,-0.3803829759528095,-7.275014507685873,2.229756958015278,-17.819284,5.585461,-4.9995933,47.023098,-18.728174,-9.743743,-9.744776,-22.562605,10.262247,80.49167,-15.437342,0.35332334,-0.4716573,1.751732,14.123483,1.7415699,23.045261,-44.1495,63.547455,-1.0458522,3.539877,17.831638,-16.910118,-20.432018,20.05978,51.411903,-11.508752,-6.329605,-7.622057
180,-79.24434661865234,-75.57369232177734,74.71021270751953,-0.2816243284557307,-7.031419606325813,2.568423360927901,-17.696873,5.8399005,-5.758741,44.50673,-16.206087,-10.489425,-8.192625,-21.810007,10.222363,78.672806,-15.103111,0.7477615,-0.15561843,1.6048726,13.60882,2.1640038,23.066648,-44.1843,63.57009,-1.0947163,3.4380665,18.32672,-16.651127,-20.302412,20.074732,51.232903,-11.415153,-6.3664308,-7.6045375
181,-79.8831558227539,-76.41191864013672,75.22520446777344,-0.1549208290427643,-6.773013223384685,2.8656143451343183,-17.507406,6.097526,-6.483354,41.809547,-13.361106,-11.261219,-6.7425184,-20.836454,10.319646,76.63561,-14.622812,1.4060614,0.19651937,1.4466895,13.122698,2.5751839,23.050089,-44.02059,63.58365,-1.034387,3.3474877,18.54814,-16.415249,-20.154522,20.089626,51.128986,-11.228609,-6.456501,-7.500753
182,-80.53929138183594,-77.24673461914062,75.74742126464844,0.002271052754653323,-6.492225814299461,3.1249673483253013,-17.258995,6.340239,-7.1730385,38.924194,-10.231197,-12.05121,-5.385297,-19.642698,10.573894,74.39952,-14.060593,2.2582843,0.58287793,1.2702785,12.646133,2.9659886,22.991064,-43.725075,63.60678,-0.88452506,3.268459,18.57259,-16.18581,-19.98707,20.100643,51.08947,-10.959422,-6.5804353,-7.343644
183,-81.21604919433594,-78.08761596679688,76.26750183105469,0.1741442284400083,-6.19139518981538,3.3675091669801054,-17.033396,6.5663486,-7.8419857,36.014744,-6.936955,-12.764739,-4.143389,-18.465324,10.796129,72.02028,-13.505952,3.112558,0.9695129,1.0816834,12.176494,3.3394926,22.88801,-43.279713,63.645153,-0.7241496,3.2136402,18.448565,-15.999302,-19.813093,20.134922,51.11814,-10.690027,-6.721605,-7.1307235
184,-81.89768981933594,-78.93555450439453,76.77645874023438,0.3440935470354206,-5.872084561316274,3.613769339354332,-16.917948,6.785307,-8.500293,33.254738,-3.6028366,-13.307035,-3.041813,-17.520449,10.778536,69.55288,-13.033902,3.7907693,1.320634,0.89095217,11.712838,3.7021203,22.742594,-42.662,63.697037,-0.6320657,3.1959193,18.223736,-15.887859,-19.652088,20.221025,51.210358,-10.501448,-6.863619,-6.858871
185,-82.59777069091797,-79.78748321533203,77.26162719726562,0.5111065530482083,-5.515335885302601,3.8766479654384263,-16.967577,7.02702,-9.15142,30.587994,0.098980516,-13.609512,-2.0898986,-16.788054,10.501314,66.94611,-12.697211,4.328089,1.6318449,0.7015488,11.246032,4.0634704,22.55286,-41.81459,63.7403,-0.63794875,3.2251863,17.877983,-15.843014,-19.510221,20.348843,51.367527,-10.4350395,-7.004789,-6.534736
186,-83.30196380615234,-80.63529205322266,77.71539306640625,0.6860587354099735,-5.1240027918773015,4.144879232331769,-17.158209,7.274081,-9.769812,28.005457,4.098006,-13.730155,-1.2721219,-16.168694,10.047252,64.187904,-12.436369,4.80435,1.918534,0.5081609,10.779772,4.4168487,22.31713,-40.765697,63.78018,-0.695567,3.2924144,17.396555,-15.843426,-19.385685,20.508572,51.577553,-10.437424,-7.153332,-6.156061
187,-84.01776123046875,-81.48168182373047,78.1293716430664,0.8644350020763371,-4.7344941940572385,4.400982871565528,-17.42542,7.4864573,-10.332537,25.699139,7.6862597,-13.770543,-0.57142365,-15.73656,9.344662,61.395817,-12.149539,5.1290803,2.1795459,0.3160132,10.334125,4.741719,22.040863,-39.622253,63.854015,-0.76965046,3.3825223,16.83438,-15.904856,-19.293392,20.729683,51.817497,-10.444064,-7.3078947,-5.705966
188,-84.75611877441406,-82.32254791259766,78.48921203613281,1.0325742567952423,-4.387169832945245,4.624262480282723,-17.667765,7.642942,-10.838987,23.808943,10.18415,-13.84285,0.04075264,-15.54264,8.313797,58.68716,-11.737861,5.2197695,2.4205263,0.1434797,9.935478,5.017766,21.733458,-38.492477,63.99089,-0.82473797,3.48046,16.245943,-16.034319,-19.258541,21.036854,52.05034,-10.386803,-7.465809,-5.1642604
189,-85.48736572265625,-83.15325927734375,78.79026794433594,1.1640578277972962,-4.080702537526555,4.807373439726821,-17.777458,7.7884445,-11.335064,22.109705,11.354964,-14.029787,0.5539604,-15.6314335,6.8150334,56.036873,-11.049462,4.921088,2.6554244,0.021702781,9.571963,5.2607183,21.39655,-37.351532,64.182144,-0.89871687,3.5949943,15.599929,-16.219809,-19.306046,21.45823,52.2368,-10.280506,-7.6027756,-4.4779706
190,-86.22672271728516,-83.98204040527344,79.03135681152344,1.2595523246117177,-3.8029019142051146,4.958808305013164,-17.800648,7.9530516,-11.815613,20.558485,11.610259,-14.253599,0.99623,-15.915424,4.887401,53.413265,-10.202204,4.3522534,2.887467,-0.04372546,9.246286,5.4680076,21.029137,-36.16398,64.40782,-0.9945407,3.7308633,14.881536,-16.44221,-19.439808,21.96821,52.374348,-10.14194,-7.726185,-3.6670623
191,-86.97677612304688,-84.81050872802734,79.19004821777344,1.3459882438805326,-3.577854177088317,5.080232282621235,-17.850706,8.091016,-12.211889,19.54285,11.252985,-14.395517,1.4479992,-16.255596,2.739118,50.916782,-9.482952,3.8419526,3.1095037,-0.075872675,9.004812,5.594839,20.641554,-35.023632,64.67979,-1.027137,3.865028,14.169265,-16.705233,-19.651638,22.509068,52.49161,-9.91083,-7.879212,-2.8207138
192,-87.74365234375,-85.6228256225586,79.2750015258789,1.4611145221440518,-3.42648809961974,5.176108241209847,-18.062923,8.125743,-12.457404,19.493515,10.56649,-14.345628,1.971426,-16.527113,0.6069453,48.62351,-9.140856,3.715533,3.3159702,-0.11243199,8.890778,5.5998983,20.25231,-34.03059,65.00508,-0.91545886,3.9730017,13.541227,-17.011766,-19.927898,23.015373,52.619324,-9.528724,-8.1042385,-2.0284064
193,-88.5351791381836,-86.43646240234375,79.32795715332031,1.610527742221631,-3.3618235045863765,5.238561379133307,-18.481606,8.00467,-12.5819,20.620478,9.433913,-14.050842,2.6168823,-16.723299,-1.5204396,46.476433,-9.11472,4.149877,3.5153098,-0.16443521,8.928837,5.490217,19.875576,-33.182335,65.37203,-0.58028764,4.04643,12.998855,-17.38633,-20.2705,23.504295,52.755985,-8.931328,-8.437809,-1.2602152
194,-89.35710144042969,-87.25849914550781,79.32855224609375,1.7805932085593015,-3.368492118307485,5.269017885213161,-19.04301,7.758606,-12.606948,22.684336,7.7583647,-13.583397,3.349838,-16.889566,-3.7439232,44.423298,-9.265599,4.952816,3.7100263,-0.2201441,9.092507,5.294202,19.516954,-32.435436,65.7613,-0.08746738,4.0973587,12.504837,-17.821867,-20.6816,23.994932,52.885765,-8.164256,-8.843555,-0.4818694
195,-90.20491027832031,-88.0889663696289,79.26295471191406,1.9838386226937437,-3.4225111072320282,5.285215322474777,-19.706896,7.4391165,-12.451899,25.414219,5.862913,-13.02771,4.083088,-17.014545,-5.9409437,42.537163,-9.71265,5.8862267,3.8877566,-0.28977594,9.346519,5.004996,19.183754,-31.829294,66.17118,0.42573935,4.1316524,12.080193,-18.272009,-21.141502,24.417664,53.022003,-7.3406496,-9.258724,0.22039866
196,-91.0811996459961,-88.92923736572266,79.12813568115234,2.2314517709729604,-3.4999559236781024,5.304002267499946,-20.430035,7.11698,-12.034986,28.535782,4.0709553,-12.461921,4.721627,-17.106756,-7.986122,40.900646,-10.598833,6.707235,4.040582,-0.38587475,9.6526575,4.6144,18.885254,-31.409006,66.59764,0.82019234,4.1633677,11.746889,-18.689587,-21.619976,24.695326,53.187653,-6.5828123,-9.626387,0.7547035
197,-91.96945190429688,-89.77120971679688,78.94610595703125,2.5523602434800625,-3.6061687569437377,5.325604262631071,-21.225004,6.793448,-11.328878,32.12098,2.4184377,-11.929037,5.290654,-17.247553,-9.975192,39.51096,-12.13559,7.3625627,4.17134,-0.543784,10.021122,4.0963507,18.63439,-31.216316,67.06248,1.0708439,4.1970854,11.514086,-19.088476,-22.095444,24.790865,53.42165,-5.89008,-9.97209,1.0952734
198,-92.86530303955078,-90.6155014038086,78.71795654296875,2.9301930373962053,-3.7491636798656813,5.339112159895214,-22.100183,6.482147,-10.382349,36.252987,0.7520145,-11.361236,5.8184004,-17.425674,-11.93648,38.326263,-14.187113,7.98762,4.2865114,-0.7532499,10.462209,3.4731581,18.436121,-31.21748,67.549164,1.2437161,4.2296314,11.367999,-19.492752,-22.564837,24.744139,53.72146,-5.2203674,-10.319021,1.286909
199,-93.76593017578125,-91.43917083740234,78.45773315429688,3.310254029409213,-3.9100467845070708,5.345922925539809,-23.007793,6.281105,-9.232318,40.69028,-0.8917123,-10.661335,6.188463,-17.544937,-13.62675,37.410236,-16.416512,8.588767,4.3754163,-0.9615062,10.937029,2.808176,18.282612,-31.336868,68.00881,1.3386189,4.2585363,11.296444,-19.885578,-23.031355,24.610226,54.062695,-4.6282296,-10.610283,1.3385345
200,-94.65715026855469,-92.25236511230469,78.16722106933594,3.6398531040838336,-4.07197923052518,5.349153500487024,-23.889969,6.2750173,-7.9213386,45.192093,-2.4767401,-9.736046,6.271681,-17.527172,-14.790734,36.843353,-18.506172,9.134904,4.42357,-1.1143194,11.407682,2.1610956,18.157747,-31.496504,68.399254,1.3594671,4.2804255,11.288422,-20.247618,-23.500595,24.444008,54.416374,-4.1699033,-10.787985,1.2580973
201,-95.55528259277344,-93.04304504394531,77.8399658203125,3.919615837315947,-4.256683256494309,5.362523965241437,-24.754911,6.5376267,-6.3732963,49.856472,-4.0048532,-8.447737,5.994018,-17.353796,-15.197341,36.70872,-20.45999,9.613986,4.407519,-1.2051847,11.893714,1.5195012,18.052023,-31.722334,68.73174,1.269401,4.290848,11.360278,-20.597801,-23.976765,24.267189,54.806168,-3.8839586,-10.8251505,0.9904037
202,-96.46129608154297,-93.8298568725586,77.478515625,4.171472377917911,-4.467878401170876,5.381089026115014,-25.591698,7.059553,-4.630138,54.751392,-5.5131793,-6.8445106,5.4142876,-17.091095,-15.022455,36.98481,-22.45914,9.994355,4.3364024,-1.2562869,12.406875,0.85360104,17.962313,-32.036114,69.03421,1.0820872,4.291591,11.512962,-20.941755,-24.459978,24.055906,55.24024,-3.7301195,-10.757834,0.5480482
203,-97.36448669433594,-94.5906982421875,77.08534240722656,4.377965316530419,-4.6618127240044505,5.381854565280391,-26.320215,7.7528067,-2.8971255,59.604687,-7.011995,-5.1400323,4.601922,-16.773933,-14.616813,37.587852,-24.44971,10.211252,4.2402873,-1.2583038,12.896941,0.19595774,17.880754,-32.35699,69.29353,0.8740245,4.287716,11.7138815,-21.24029,-24.948065,23.795654,55.667503,-3.648593,-10.621754,0.0402573
204,-98.27063751220703,-95.32341766357422,76.67312622070312,4.524510985294452,-4.792801357565172,5.342546852579804,-26.881296,8.480016,-1.3531374,64.152245,-8.494529,-3.5807261,3.6239295,-16.44071,-14.326847,38.422726,-26.364079,10.214029,4.144089,-1.2043657,13.311255,-0.41793647,17.798025,-32.599194,69.498024,0.7238733,4.284486,11.930628,-21.46286,-25.436525,23.48091,56.04473,-3.5765452,-10.452914,-0.4245305
205,-99.16246032714844,-96.05207061767578,76.24742889404297,4.612435442047701,-4.8485149674879215,5.258762933100749,-27.296368,9.214947,0.018837305,68.41751,-10.002881,-2.193954,2.4273865,-16.120977,-14.170715,39.56355,-28.249846,9.995326,4.0390844,-1.0905358,13.636157,-0.98386425,17.706575,-32.74482,69.65289,0.64376837,4.279434,12.178087,-21.633965,-25.92548,23.124203,56.395336,-3.502035,-10.2450285,-0.85665125
206,-100.04829406738281,-96.7708969116211,75.82280731201172,4.649967535645492,-4.853741523500573,5.143906089963487,-27.584206,9.991417,1.3037063,72.53109,-11.527947,-0.8787866,0.9896554,-15.772183,-13.980522,41.02212,-30.108534,9.58711,3.9104662,-0.9221101,13.897761,-1.5229403,17.60486,-32.83625,69.773056,0.5961698,4.2702594,12.467064,-21.766748,-26.414572,22.732409,56.74066,-3.4533281,-9.983873,-1.3015938
207,-100.9238510131836,-97.48931884765625,75.41788482666016,4.63387870567605,-4.8162711068846455,5.00224264436272,-27.709883,10.726786,2.454766,76.39351,-12.958414,0.28535676,-0.57298017,-15.3505125,-13.819888,42.60074,-31.795744,9.009513,3.7742658,-0.70749325,14.100508,-2.033533,17.494936,-32.876293,69.85713,0.5872943,4.264118,12.75886,-21.80911,-26.89479,22.282642,57.033573,-3.4365466,-9.693634,-1.7043942
208,-101.78667449951172,-98.2164306640625,75.04737091064453,4.561223242110616,-4.74339382147966,4.8366528494097425,-27.647741,11.334392,3.4373438,79.89807,-14.173,1.2156568,-2.1356294,-14.827495,-13.75511,44.102882,-33.172565,8.282652,3.6476312,-0.45560843,14.2482395,-2.5104628,17.382187,-32.867107,69.898384,0.62196255,4.268612,13.014313,-21.707441,-27.349916,21.748884,57.22764,-3.4609644,-9.39895,-2.0106843
209,-102.62619018554688,-98.94879150390625,74.7108154296875,4.396058922307945,-4.605964922670569,4.6323755541973,-27.440525,11.804672,4.2232237,83.055695,-15.1155615,1.8577087,-3.7199078,-14.182953,-13.860844,45.554577,-34.195595,7.3415103,3.542636,-0.1325711,14.314742,-2.9449296,17.269737,-32.773796,69.885956,0.7367359,4.294413,13.221438,-21.464256,-27.770206,21.117126,57.320694,-3.5258195,-9.099443,-2.19063
210,-103.45297241210938,-99.6741943359375,74.41580963134766,4.151512867089701,-4.410051915186472,4.391062806290588,-27.098856,12.150437,4.873104,85.91177,-15.84061,2.2477014,-5.3671045,-13.448611,-14.09123,47.01476,-34.926617,6.2109137,3.448013,0.25202224,14.304851,-3.335625,17.159187,-32.602077,69.82115,0.9181907,4.3353114,13.401166,-21.10358,-28.151346,20.403212,57.342236,-3.631845,-8.784767,-2.279823
211,-104.24944305419922,-100.39496612548828,74.16222381591797,3.895757494344777,-4.214756693116038,4.142441204197999,-26.567888,12.321359,5.479761,88.42312,-16.393253,2.4392405,-6.981572,-12.673739,-14.333426,48.370358,-35.416367,5.0357623,3.3415878,0.62331986,14.266124,-3.6883817,17.055735,-32.419704,69.71721,1.0900902,4.373306,13.563883,-20.621193,-28.486788,19.640013,57.309914,-3.782576,-8.464847,-2.322538
212,-105.03070068359375,-101.11756134033203,73.94256591796875,3.696634843654573,-4.07912475886593,3.9175459906966004,-25.794374,12.271521,6.126626,90.5438,-16.822382,2.4910822,-8.457394,-11.899715,-14.472097,49.515835,-35.729465,3.9542098,3.2001927,0.9059833,14.247157,-4.0085487,16.965775,-32.295956,69.58478,1.1777058,4.3902225,13.719853,-20.014654,-28.768585,18.857307,57.239983,-3.9819822,-8.149631,-2.3627238
213,-105.7977294921875,-101.83950805664062,73.75767517089844,3.5745214870868427,-4.031058633544052,3.6918821728749402,-24.727491,11.974882,6.8531404,92.26047,-17.106823,2.4016268,-9.7628145,-11.104646,-14.429031,50.46126,-35.866962,2.9968126,3.0446324,1.0777242,14.2826395,-4.294759,16.891891,-32.2232,69.418175,1.1489561,4.3780847,13.869607,-19.297777,-28.99159,18.052904,57.149685,-4.2385945,-7.8494534,-2.377141
214,-106.55195617675781,-102.56389617919922,73.60800170898438,3.49365537000469,-4.0350430734849425,3.45990046362559,-23.426207,11.442525,7.610048,93.59519,-17.223719,2.1412573,-10.931271,-10.2720995,-14.2906475,51.254753,-35.82158,2.0795846,2.876634,1.1763568,14.339087,-4.5408316,16.83428,-32.17394,69.20964,1.0472261,4.3475943,14.007597,-18.473017,-29.150688,17.216314,57.029823,-4.548835,-7.557215,-2.3537836
215,-107.29410552978516,-103.28717041015625,73.49755096435547,3.43725635919383,-4.054337152776076,3.281580690259093,-22.008303,10.693686,8.336391,94.55844,-17.215036,1.7306376,-11.961371,-9.447899,-14.181129,51.851208,-35.6381,1.1708883,2.6424882,1.2145543,14.361027,-4.744965,16.796513,-32.18638,68.96922,0.9107204,4.3083797,14.135197,-17.529715,-29.239758,16.36712,56.862717,-4.9003835,-7.255846,-2.3534417
216,-108.0086669921875,-104.0094223022461,73.4238052368164,3.387357988358877,-4.051361440889752,3.216645286311894,-20.585684,9.757985,8.971695,95.15642,-17.130249,1.1925286,-12.862865,-8.680113,-14.221052,52.201244,-35.35224,0.24611747,2.2903466,1.2075177,14.293368,-4.9053035,16.783514,-32.301407,68.70439,0.77574784,4.2701635,14.253339,-16.455154,-29.250055,15.5227375,56.627483,-5.278024,-6.9272823,-2.43673
217,-108.70361328125,-104.730224609375,73.3864517211914,3.3454015045611123,-4.019825854146864,3.2882426518983423,-19.144918,8.65557,9.543817,95.37591,-16.99185,0.5500477,-13.633123,-7.987929,-14.448788,52.28811,-34.978443,-0.7068179,1.7876979,1.1504965,14.116504,-4.9969172,16.800854,-32.51024,68.39179,0.65320367,4.240597,14.35136,-15.244248,-29.166258,14.672546,56.32445,-5.7271333,-6.5481377,-2.626834
218,-109.37104034423828,-105.45135498046875,73.3985824584961,3.317330263042572,-3.9778189982897736,3.46224209813047,-17.653862,7.3721056,10.053477,95.21818,-16.769854,-0.21246238,-14.27244,-7.341448,-14.79996,52.136406,-34.49633,-1.671017,1.1642295,1.0376949,13.857183,-5.022838,16.851301,-32.795074,68.030205,0.5209029,4.2132998,14.4323225,-13.92085,-28.981913,13.8192005,55.972073,-6.2406864,-6.132834,-2.8896291
219,-110.02323913574219,-106.17753601074219,73.45960998535156,3.2915874591338863,-3.9236227473779413,3.7125992152456138,-16.18899,5.892267,10.403143,94.7132,-16.43333,-1.1325579,-14.800097,-6.721025,-15.241861,51.75633,-33.890575,-2.6208582,0.4632296,0.8845746,13.531447,-5.022348,16.932688,-33.17687,67.658875,0.37402576,4.1774335,14.517053,-12.508859,-28.709158,12.997315,55.56939,-6.7229085,-5.7200027,-3.2000904
220,-110.68032836914062,-106.91175842285156,73.56550598144531,3.2562479010566387,-3.8558761216556747,4.013265107277174,-14.821569,4.2045307,10.499254,93.89433,-15.95964,-2.248697,-15.236461,-6.108054,-15.741387,51.158123,-33.141235,-3.5306,-0.26756012,0.71034473,13.158191,-5.039009,17.0377,-33.682476,67.319496,0.20707506,4.1214933,14.626529,-11.0167055,-28.371845,12.234673,55.101967,-7.078479,-5.349117,-3.5325923
221,-111.32437133789062,-107.64418029785156,73.70854949951172,3.1906933594347353,-3.7748254757751436,4.394299506465557,-13.549183,2.3124392,10.286717,92.77009,-15.376854,-3.557852,-15.554775,-5.498288,-16.348063,50.29412,-32.235813,-4.4074554,-1.0478371,0.53779197,12.731443,-5.092911,17.162231,-34.37847,67.03678,-0.0233974,4.040236,14.77611,-9.401628,-27.9797,11.519713,54.520023,-7.274764,-5.0058384,-3.8929877
222,-111.96308135986328,-108.38497924804688,73.88662719726562,3.104401463250446,-3.680425364209198,4.856450838611563,-12.319253,0.2402426,9.810421,91.32562,-14.711665,-5.0372357,-15.756834,-4.896417,-17.062971,49.173695,-31.185219,-5.2579775,-1.8851844,0.36382902,12.247722,-5.1671233,17.302923,-35.24002,66.79045,-0.30269212,3.9370782,14.950629,-7.6578736,-27.530767,10.838323,53.824787,-7.361027,-4.6777916,-4.2877245
223,-112.59034729003906,-109.12161254882812,74.09309387207031,3.031045546451366,-3.5718870449595705,5.329265105976031,-11.1230135,-1.992562,9.12592,89.56052,-13.942677,-6.696897,-15.907764,-4.3023605,-17.777624,47.893593,-29.999542,-6.0575595,-2.7137284,0.16960835,11.730888,-5.245446,17.450628,-36.1512,66.54466,-0.54303885,3.8210382,15.125018,-5.8469706,-27.034952,10.217484,53.079876,-7.3622093,-4.4080653,-4.6932383
224,-113.20913696289062,-109.84773254394531,74.32807922363281,3.004131643885192,-3.4489740629282317,5.742625931757601,-9.952359,-4.370843,8.283369,87.465065,-13.054249,-8.548345,-16.07322,-3.7205305,-18.381641,46.551834,-28.68671,-6.78335,-3.472013,-0.06439672,11.203586,-5.310989,17.592836,-36.99131,66.26796,-0.65502053,3.7001553,15.275596,-4.033812,-26.511686,9.689739,52.353523,-7.3013496,-4.2396255,-5.0859222
225,-113.84069061279297,-110.57465362548828,74.58454132080078,3.041554245674983,-3.3040796671630557,6.102765846103951,-8.809277,-7.005899,7.1652956,84.98427,-12.038887,-10.660873,-16.262146,-3.1848907,-18.864199,45.143322,-27.24408,-7.4927745,-4.1647882,-0.355082,10.647669,-5.37159,17.721285,-37.779556,65.984695,-0.59044343,3.5741665,15.39903,-2.1862316,-25.97953,9.281846,51.621777,-7.139203,-4.210721,-5.4793963
226,-114.47657012939453,-111.30023956298828,74.86241912841797,3.1171937056017955,-3.1415896728643764,6.436516991519015,-7.64818,-9.82595,5.740281,82.139694,-10.95989,-12.981015,-16.442871,-2.6826324,-19.277151,43.627872,-25.664787,-8.178888,-4.818844,-0.6749452,10.059646,-5.4357033,17.832256,-38.56002,65.70734,-0.4023686,3.439433,15.507998,-0.28154454,-25.442533,8.976238,50.85799,-6.8751655,-4.2909713,-5.8765965
227,-115.11995697021484,-112.02154541015625,75.15526580810547,3.203740931588639,-2.9781719261994306,6.706834236087082,-6.4118547,-12.487341,4.29912,79.03147,-9.873971,-15.000033,-16.625137,-2.1619833,-19.593754,42.057972,-23.950365,-8.719673,-5.4057713,-0.98407865,9.483247,-5.4899254,17.920933,-39.250904,65.391884,-0.15514576,3.298489,15.604029,1.5994933,-24.897064,8.737935,50.13071,-6.589886,-4.419352,-6.2395806
228,-115.7750244140625,-112.70325469970703,75.45137786865234,3.4190537739745213,-2.823344850549003,6.9243818840946565,-5.078175,-14.5702,3.6104584,75.67282,-8.684237,-15.000033,-16.919302,-1.8025305,-19.72795,40.701065,-22.20609,-8.940974,-5.9472046,-1.3834183,8.937764,-5.5171614,17.983448,-39.76426,64.993484,0.08833203,3.1540954,15.688399,3.3691967,-24.337328,8.536993,49.515213,-6.364407,-4.5330377,-6.5326552
229,-116.44245147705078,-113.37896728515625,75.74242401123047,3.7414015231569113,-2.676310522435674,7.077844918452024,-3.6576507,-16.502573,3.054476,71.9637,-7.279875,-15.000033,-17.32032,-1.5646068,-19.714806,39.543697,-20.39772,-8.9817295,-6.433353,-1.8685532,8.418837,-5.5126934,18.014978,-40.056114,64.49325,0.3641573,3.0395968,15.729315,5.0620627,-23.76011,8.352895,48.994396,-6.2026987,-4.6472087,-6.7636237
230,-117.11997985839844,-114.04985046386719,76.02520751953125,4.043527539240241,-2.536252663922988,7.138994650352842,-2.150066,-18.269,2.4527633,67.94468,-5.752564,-15.000033,-17.73704,-1.265288,-19.590685,38.37184,-18.439417,-8.891512,-6.830953,-2.3191807,7.9322047,-5.490625,18.015131,-40.179436,63.927685,0.68883497,2.9420276,15.738153,6.7045584,-23.168522,8.2068405,48.546783,-6.069339,-4.7839456,-6.9481807
231,-117.80982208251953,-114.72672271728516,76.2996826171875,4.287145535314901,-2.413057840388337,7.09480389621846,-0.6112517,-19.748634,1.8186789,63.83066,-4.314254,-15.000033,-18.11814,-0.8118037,-19.274378,37.080376,-16.341518,-8.399594,-7.137306,-2.7037344,7.506719,-5.461547,17.989128,-40.19025,63.333473,0.97197706,2.7950118,15.781035,8.198006,-22.572315,8.126818,48.241375,-5.9860077,-4.8899155,-7.063746
232,-118.50851440429688,-115.42091369628906,76.55640411376953,4.452677740729974,-2.3162347911957646,6.938870728421057,0.88590443,-20.8365,1.2258784,59.834686,-3.1484952,-15.000033,-18.403442,-0.121347174,-18.661919,35.550503,-14.11827,-7.2284102,-7.3574324,-3.0083323,7.1688466,-5.4307528,17.94682,-40.143764,62.737625,1.1225479,2.5346556,15.923486,9.443314,-21.985428,8.140018,48.147335,-5.973125,-4.911741,-7.08769
233,-119.22510528564453,-116.13339233398438,76.78970336914062,4.556463529391947,-2.2465726145357783,6.655689606062453,2.352622,-21.479456,0.8307063,55.87298,-2.3057926,-15.000033,-18.573872,0.86283445,-17.612915,33.725388,-11.815264,-5.3727083,-7.482968,-3.249357,6.9205704,-5.3775096,17.894163,-40.011585,62.101776,1.0990821,2.1324754,16.171635,10.434262,-21.411392,8.268422,48.30819,-6.0277476,-4.8143635,-7.018776
234,-119.95919036865234,-116.8461685180664,76.99703979492188,4.633927074238263,-2.1996508932430383,6.267247986793979,3.8071823,-21.784534,0.6562534,51.848152,-1.6394614,-15.000033,-18.623196,2.0504446,-16.16647,31.639948,-9.452659,-2.937775,-7.5309696,-3.46174,6.7484484,-5.298247,17.834148,-39.77531,61.41399,0.9567545,1.6264428,16.49147,11.221267,-20.852995,8.488567,48.6781,-6.140177,-4.6329365,-6.8672423
235,-120.70755004882812,-117.5675048828125,77.17242431640625,4.703574523607097,-2.179799975257526,5.82445467777363,5.1705976,-21.88822,0.60906947,47.980885,-1.0453336,-15.000033,-18.505638,3.3082817,-14.463714,29.304146,-7.009153,0.19925328,-7.5432014,-3.662944,6.658379,-5.2196445,17.772186,-39.502716,60.734604,0.75337964,1.0501763,16.886833,11.79375,-20.320038,8.758258,49.18438,-6.3171916,-4.420287,-6.624499
236,-121.48058319091797,-118.28418731689453,77.30937194824219,4.784239871187582,-2.191156540049745,5.376265440304871,6.3552423,-21.917734,0.5726658,44.50747,-0.42841738,-15.000033,-18.193619,4.51719,-12.633817,26.738798,-4.4577956,4.174791,-7.5562506,-3.8697233,6.656364,-5.1694613,17.713531,-39.26532,60.123154,0.54523975,0.4378041,17.362503,12.144656,-19.824747,9.031214,49.748684,-6.5657325,-4.229464,-6.2806916
237,-122.28593444824219,-119.00496673583984,77.38330078125,4.964437422031333,-2.2414484881784156,4.936226083942179,7.3679585,-21.954567,0.6111649,41.363224,0.3990624,-15.000033,-17.53597,5.683232,-10.442958,23.541723,-1.5632982,9.814092,-7.58849,-4.164982,6.743765,-5.136388,17.661072,-39.061665,59.562626,0.3058091,-0.2786418,17.971416,12.255028,-19.373081,9.293397,50.392967,-6.9422507,-4.047636,-5.729036
238,-123.0931625366211,-119.7511215209961,77.39018249511719,5.138341312329238,-2.3196520876035254,4.4074486281892264,8.165182,-21.830713,0.86575085,38.626774,1.1907823,-15.000033,-16.447895,7.0433536,-8.094168,19.5631,1.593636,15.000033,-7.5496836,-4.458697,6.923601,-5.106018,17.619091,-38.860474,59.025486,0.024266139,-1.0942684,18.689348,12.150081,-18.959143,9.56569,51.128174,-7.422106,-3.858287,-5.005994
