unveil-humanoid-operators/unveil-humanoid-operators.github.io/feature-analysis-animation/data/feature_matrix_instances/weight_ankle_peak_vel_gesture_A299_wash_floor_360_R_002__A299.csv
Frame,root_translateX,root_translateY,root_translateZ,root_rotateX,root_rotateY,root_rotateZ,left_hip_pitch_joint_dof,left_hip_roll_joint_dof,left_hip_yaw_joint_dof,left_knee_joint_dof,left_ankle_pitch_joint_dof,left_ankle_roll_joint_dof,right_hip_pitch_joint_dof,right_hip_roll_joint_dof,right_hip_yaw_joint_dof,right_knee_joint_dof,right_ankle_pitch_joint_dof,right_ankle_roll_joint_dof,waist_yaw_joint_dof,waist_roll_joint_dof,waist_pitch_joint_dof,left_shoulder_pitch_joint_dof,left_shoulder_roll_joint_dof,left_shoulder_yaw_joint_dof,left_elbow_joint_dof,left_wrist_roll_joint_dof,left_wrist_pitch_joint_dof,left_wrist_yaw_joint_dof,right_shoulder_pitch_joint_dof,right_shoulder_roll_joint_dof,right_shoulder_yaw_joint_dof,right_elbow_joint_dof,right_wrist_roll_joint_dof,right_wrist_pitch_joint_dof,right_wrist_yaw_joint_dof
0,-0.2576945424079895,2.2061028480529785,77.5031509399414,0.26286355594549493,0.5358478147829799,-86.44606438209001,0.5251269,6.6287546,9.708158,10.600735,-8.763333,-4.770267,1.0512116,-10.816647,-22.276117,16.145586,-16.231823,6.8706536,-3.1281226,-2.9031904,7.3601646,-7.235586,18.256193,-52.133503,64.40198,-2.3710005,3.1570253,6.1615753,-12.09144,-31.798872,1.2592951,-6.035002,15.930558,6.578266,-30.6522
1,-0.26335400342941284,2.2106616497039795,77.5036392211914,0.25984663440276046,0.5343123011992479,-86.45100137244948,0.52380234,6.6384797,9.712352,10.602894,-8.761163,-4.7701664,1.050793,-10.806468,-22.27378,16.140612,-16.227358,6.870008,-3.1398218,-2.89424,7.355468,-7.2481785,18.256409,-52.14419,64.41136,-2.3364625,3.1683247,6.146591,-12.092748,-31.800064,1.2646343,-6.0379944,15.944621,6.580855,-30.660353
2,-0.27071690559387207,2.2119390964508057,77.50389099121094,0.2554761987777555,0.5334639034556876,-86.45650362101341,0.5198212,6.650188,9.71681,10.6092005,-8.761107,-4.7698846,1.0512054,-10.793738,-22.27147,16.131155,-16.220268,6.8695054,-3.1311545,-2.885256,7.3314924,-7.270911,18.256872,-52.217953,64.43529,-2.3405197,3.1810443,6.1292896,-12.108481,-31.806448,1.2926724,-6.0011406,15.9660635,6.578,-30.695538
3,-0.27525317668914795,2.214850664138794,77.50511932373047,0.2518307514013112,0.531747278150389,-86.46075299257834,0.51805896,6.660911,9.720086,10.612258,-8.75951,-4.7705665,1.0527337,-10.781986,-22.270134,16.122965,-16.214529,6.868022,-3.1283453,-2.877971,7.3101044,-7.2912297,18.25689,-52.28133,64.4579,-2.3372645,3.1922321,6.1149974,-12.124412,-31.80848,1.3136503,-5.96533,15.983554,6.5748906,-30.718071
4,-0.280816912651062,2.2179055213928223,77.50580596923828,0.24737550722202312,0.527186869485317,-86.46048480737787,0.518667,6.672018,9.718543,10.61601,-8.759008,-4.7740006,1.0587106,-10.770057,-22.272896,16.116615,-16.211447,6.8636985,-3.1301475,-2.8740895,7.2880144,-7.316037,18.256844,-52.355877,64.48632,-2.3301244,3.2009823,6.104111,-12.133936,-31.807674,1.336294,-5.9342513,15.996087,6.573628,-30.735727
5,-0.2894552946090698,2.217705249786377,77.50592803955078,0.24153466690453348,0.519809064362978,-86.45393286609544,0.520935,6.685084,9.710171,10.621755,-8.760723,-4.7819633,1.072089,-10.75589,-22.28184,16.107576,-16.209631,6.8544354,-3.1381948,-2.8727255,7.263713,-7.345862,18.257126,-52.445038,64.52203,-2.321556,3.2052493,6.098282,-12.141269,-31.804296,1.3624313,-5.900326,16.005505,6.571615,-30.745914
6,-0.2973563075065613,2.219295024871826,77.50552368164062,0.23469566556990878,0.5106839134038403,-86.44341181833823,0.5232928,6.699391,9.6972,10.6305065,-8.765089,-4.7931156,1.0882858,-10.741181,-22.294468,16.101072,-16.21063,6.841611,-3.1389418,-2.8760848,7.2298546,-7.383369,18.257246,-52.57141,64.57012,-2.3293464,3.2067924,6.0985675,-12.147172,-31.797195,1.3896544,-5.8494725,16.010279,6.5668654,-30.75498
7,-0.30488696694374084,2.217319965362549,77.5051498413086,0.2282958461632337,0.49905105614781536,-86.43132748931058,0.5285269,6.7126594,9.682522,10.638013,-8.768386,-4.804669,1.1083646,-10.727136,-22.30857,16.09365,-16.211916,6.828887,-3.149987,-2.878718,7.201997,-7.4226794,18.257685,-52.687878,64.6154,-2.3243623,3.2081246,6.096444,-12.153248,-31.79024,1.4194942,-5.808839,16.013918,6.5657134,-30.759325
8,-0.3113512098789215,2.2231781482696533,77.50470733642578,0.22442698431869262,0.4852946125835464,-86.4213854091613,0.5353657,6.722776,9.669974,10.647115,-8.771407,-4.8138056,1.1276169,-10.717106,-22.319721,16.090225,-16.214684,6.819729,-3.152822,-2.8844874,7.166749,-7.467594,18.257374,-52.832672,64.666405,-2.332593,3.2125263,6.090967,-12.159363,-31.779533,1.4517211,-5.7570148,16.017317,6.565046,-30.769386
9,-0.31391242146492004,2.2268130779266357,77.50426483154297,0.22423056754705858,0.46937816752310235,-86.41577072476242,0.5455693,6.7280455,9.661253,10.654813,-8.772265,-4.819681,1.1454719,-10.7125225,-22.32596,16.090712,-16.219053,6.8164043,-3.1562092,-2.8911233,7.1319246,-7.514496,18.255484,-52.981514,64.716354,-2.3398924,3.2214136,6.077551,-12.169646,-31.766634,1.4880745,-5.705024,16.0214,6.568216,-30.783398
10,-0.31993094086647034,2.229093551635742,77.50433349609375,0.2264064498072917,0.4511795728541466,-86.41227726543178,0.56028724,6.729865,9.654476,10.6585045,-8.770043,-4.823826,1.1637232,-10.71159,-22.32954,16.093685,-16.224447,6.816562,-3.171679,-2.895042,7.1026974,-7.559197,18.254255,-53.111916,64.76071,-2.3345294,3.2306907,6.0566506,-12.189868,-31.758732,1.534597,-5.6568756,16.02833,6.5751843,-30.798063
11,-0.32673823833465576,2.2317802906036377,77.5041275024414,0.22896581989413228,0.4304847925930603,-86.4071838479806,0.57301784,6.731196,9.6461735,10.670461,-8.771458,-4.826981,1.1827854,-10.712635,-22.334166,16.101305,-16.231956,6.817128,-3.180006,-2.9010975,7.0624704,-7.6105967,18.25092,-53.280857,64.81313,-2.3467712,3.2421615,6.03767,-12.214286,-31.747028,1.5891415,-5.5883183,16.033371,6.5810423,-30.8184
12,-0.333036333322525,2.2364919185638428,77.50383758544922,0.2303429359064414,0.4063721558042219,-86.39693266460787,0.58502924,6.734099,9.633542,10.688812,-8.775779,-4.829968,1.2073258,-10.712503,-22.344168,16.108374,-16.23836,6.8150134,-3.1943345,-2.9051886,7.028912,-7.668486,18.246399,-53.44119,64.86093,-2.3413417,3.2564843,6.020875,-12.232939,-31.73412,1.6385716,-5.5297866,16.032343,6.5895224,-30.830933
13,-0.34067028760910034,2.238119125366211,77.5035171508789,0.22963811430599754,0.37659924763309105,-86.38036115024305,0.59658116,6.739652,9.616085,10.718565,-8.786099,-4.832076,1.2406727,-10.71078,-22.360926,16.115316,-16.24397,6.80869,-3.2137055,-2.9070663,6.9970255,-7.7335,18.24163,-53.603607,64.90933,-2.3192253,3.2755895,6.007087,-12.248089,-31.720615,1.6870517,-5.4711194,16.024662,6.6012087,-30.834679
14,-0.34771928191185,2.243375301361084,77.50221252441406,0.22861005123978384,0.34224189444994874,-86.35934438845804,0.6097336,6.745974,9.5954075,10.7537155,-8.799034,-4.833107,1.2803197,-10.708827,-22.382278,16.123207,-16.249327,6.8000946,-3.227353,-2.9106433,6.961574,-7.809069,18.233006,-53.789364,64.9661,-2.293457,3.29918,5.996869,-12.256808,-31.699596,1.7309803,-5.4065695,16.008284,6.6150565,-30.834345
15,-0.3516838550567627,2.252767324447632,77.50223541259766,0.22658480470249906,0.30775781619707676,-86.33532872060232,0.61797416,6.7530026,9.5713415,10.794977,-8.813843,-4.834971,1.3192227,-10.706997,-22.406136,16.13238,-16.25469,6.7910943,-3.2570689,-2.9110026,6.937355,-7.8847084,18.227585,-53.94426,65.00622,-2.2525818,3.3213832,5.985007,-12.264021,-31.684416,1.7759049,-5.36085,15.9944,6.6289387,-30.829512
16,-0.35864031314849854,2.2592132091522217,77.50252532958984,0.2243084012578986,0.27824626062267194,-86.30976520790003,0.6162929,6.759176,9.544168,10.838801,-8.827233,-4.8392177,1.3477526,-10.706775,-22.42985,16.147903,-16.262703,6.7835526,-3.2751765,-2.9206648,6.907983,-7.9743505,18.216846,-54.13123,65.05204,-2.2449994,3.3372264,5.977708,-12.260171,-31.657682,1.811352,-5.3145523,15.978137,6.6337104,-30.83083
17,-0.3655466139316559,2.2673466205596924,77.5016098022461,0.2224060077508298,0.2553077595072619,-86.28219039962242,0.6060278,6.764386,9.512658,10.877625,-8.834635,-4.847574,1.367409,-10.706716,-22.454329,16.162569,-16.27047,6.778082,-3.3045776,-2.9333696,6.8865623,-8.064144,18.20703,-54.285686,65.08335,-2.2338748,3.3409238,5.972007,-12.247487,-31.633173,1.8402804,-5.2904224,15.968531,6.625667,-30.832087
18,-0.37249135971069336,2.280728816986084,77.5003890991211,0.22096055799897873,0.2362785924822124,-86.25222362886453,0.58271426,6.770002,9.4764,10.92826,-8.846001,-4.858692,1.378906,-10.707901,-22.479834,16.18311,-16.281576,6.7736254,-3.339647,-2.9477832,6.867883,-8.155772,18.198515,-54.430088,65.10384,-2.2267842,3.336915,5.9685993,-12.229687,-31.610004,1.8666848,-5.2759514,15.963628,6.6080146,-30.83553
19,-0.3785194754600525,2.297978401184082,77.50044250488281,0.21916115961115806,0.21898766652548773,-86.2209675245121,0.5544226,6.775217,9.439208,10.979633,-8.85578,-4.8700657,1.3842363,-10.71036,-22.505308,16.20871,-16.292925,6.7696295,-3.3757763,-2.9663508,6.855603,-8.256692,18.189262,-54.5787,65.11613,-2.2361603,3.3340433,5.963363,-12.20514,-31.583752,1.8892511,-5.275623,15.95659,6.5934854,-30.839846
20,-0.3839116096496582,2.317007064819336,77.50084686279297,0.21724903485607314,0.2013494118129695,-86.18999670882731,0.52119106,6.780191,9.404054,11.037629,-8.867785,-4.87922,1.3818165,-10.715957,-22.52917,16.246124,-16.305368,6.7657623,-3.4195852,-2.9848213,6.856961,-8.364767,18.181736,-54.723465,65.10785,-2.2644408,3.3412971,5.9498916,-12.181348,-31.560028,1.9174645,-5.2953424,15.9485,6.5950627,-30.846157
21,-0.3890542685985565,2.3389699459075928,77.50125885009766,0.2161280721042118,0.1834997521943833,-86.15649687381807,0.4823962,6.7846766,9.369109,11.10194,-8.882356,-4.8861666,1.3721691,-10.7249775,-22.553938,16.296066,-16.318815,6.76368,-3.4661777,-3.0065587,6.8700104,-8.481346,18.174324,-54.86158,65.08255,-2.312141,3.3628702,5.9300003,-12.1528425,-31.536337,1.9440432,-5.335256,15.932798,6.625186,-30.858513
22,-0.39454615116119385,2.3638014793395996,77.50067901611328,0.21376906066447968,0.16631126330881763,-86.12092840743723,0.43658,6.789039,9.333534,11.173665,-8.899607,-4.891964,1.3559889,-10.736605,-22.579632,16.355154,-16.33284,6.7630405,-3.5227559,-3.0268629,6.895939,-8.600545,18.169842,-54.980263,65.033066,-2.37039,3.3932984,5.9041185,-12.129575,-31.51947,1.9766252,-5.3904176,15.915554,6.6744323,-30.876469
23,-0.4001048803329468,2.389864683151245,77.49984741210938,0.2121596918452206,0.1487434158032974,-86.08876538817607,0.38723496,6.7934537,9.301984,11.250568,-8.917789,-4.8959703,1.330885,-10.750914,-22.600155,16.42613,-16.348963,6.7602553,-3.5847328,-3.048265,6.9324484,-8.728778,18.166626,-55.11471,64.97025,-2.4520445,3.4261637,5.8701577,-12.103998,-31.504414,2.0169604,-5.46534,15.902658,6.721122,-30.89042
24,-0.4041968882083893,2.4190659523010254,77.50038146972656,0.21347338568930654,0.12980477218672481,-86.0653279844203,0.33619347,6.798708,9.278996,11.333748,-8.936658,-4.897438,1.295506,-10.767315,-22.609514,16.510017,-16.368288,6.7515783,-3.642901,-3.0717459,6.9776998,-8.874441,18.162924,-55.307034,64.89966,-2.5726657,3.4586303,5.8264914,-12.077458,-31.48435,2.0663216,-5.553495,15.896672,6.743576,-30.891731
25,-0.408638596534729,2.453753709793091,77.49948120117188,0.21361027912562444,0.1082821625889441,-86.05477092483594,0.28619757,6.804916,9.269294,11.423134,-8.956464,-4.8957133,1.2469072,-10.787368,-22.603123,16.612967,-16.392656,6.7347894,-3.708139,-3.0941868,7.03738,-9.029946,18.160952,-55.53155,64.817566,-2.7360718,3.4885683,5.7657304,-12.049563,-31.468557,2.1326973,-5.6695504,15.905915,6.736612,-30.865515
26,-0.4127361476421356,2.4891371726989746,77.49918365478516,0.2155004339515265,0.0849283805978726,-86.05308838660112,0.23474786,6.811886,9.269063,11.51973,-8.977823,-4.891283,1.1869867,-10.810682,-22.585295,16.732424,-16.420986,6.7122927,-3.779843,-3.1148303,7.110947,-9.194507,18.16069,-55.781807,64.72043,-2.9359348,3.518772,5.6912794,-12.025687,-31.457312,2.2141576,-5.8057837,15.925746,6.7118363,-30.821346
27,-0.41561159491539,2.5255191326141357,77.49906921386719,0.21737121353018785,0.062161704482917426,-86.05456591373844,0.17893724,6.8192005,9.271014,11.620787,-8.999018,-4.8853927,1.1214396,-10.833986,-22.563051,16.854124,-16.448236,6.687359,-3.8543835,-3.1368039,7.1933894,-9.371611,18.161367,-56.070606,64.60584,-3.1425965,3.5497196,5.612722,-11.9988165,-31.447544,2.303026,-5.9583445,15.951645,6.673509,-30.782688
28,-0.41847461462020874,2.57043719291687,77.49858856201172,0.21790553205845134,0.04196940898631483,-86.0528307497043,0.11278336,6.8274217,9.266342,11.729607,-9.021099,-4.8792534,1.0569237,-10.853748,-22.544981,16.964268,-16.469664,6.6631474,-3.9310029,-3.1602223,7.285769,-9.565938,18.162418,-56.406044,64.46657,-3.3200824,3.581967,5.539585,-11.963888,-31.43497,2.3882565,-6.1299734,15.977847,6.629005,-30.770424
29,-0.4217628240585327,2.6108345985412598,77.49876403808594,0.21992197369953767,0.022365268221887707,-86.04470566084517,0.03978026,6.8348513,9.250594,11.84376,-9.043905,-4.8731484,1.0000001,-10.870012,-22.534386,17.057135,-16.484526,6.641915,-4.02245,-3.186027,7.394786,-9.769793,18.164604,-56.75168,64.29425,-3.4412336,3.6166947,5.468313,-11.925884,-31.420292,2.4749231,-6.324626,16.007544,6.5743966,-30.791775
30,-0.42699575424194336,2.660390853881836,77.49922943115234,0.22061576511885314,0.0031483988366002628,-86.03424603469018,-0.03927,6.8420916,9.228868,11.963741,-9.067342,-4.8664756,0.9450867,-10.884855,-22.52657,17.142147,-16.495968,6.621534,-4.129825,-3.2130554,7.5176506,-9.980625,18.168604,-57.11067,64.09228,-3.5297415,3.6529336,5.395517,-11.891925,-31.404543,2.5729618,-6.5366154,16.04268,6.507693,-30.835785
31,-0.4298693537712097,2.709221363067627,77.50005340576172,0.21826857547352296,-0.011262928094382159,-86.02535293485602,-0.1294002,6.8516393,9.208265,12.089207,-9.089558,-4.8589425,0.8825994,-10.896136,-22.516903,17.222498,-16.501604,6.598326,-4.245608,-3.2415242,7.6491404,-10.208164,18.174505,-57.512955,63.87029,-3.603821,3.6885598,5.3279195,-11.855145,-31.384836,2.6744912,-6.770454,16.072018,6.440737,-30.888777
32,-0.43483442068099976,2.7650372982025146,77.50152587890625,0.21491407419939834,-0.01672666622051414,-86.02208627806809,-0.23690347,6.867076,9.195495,12.2222185,-9.10944,-4.8504643,0.8052572,-10.901147,-22.501398,17.296047,-16.496328,6.5687685,-4.3731213,-3.267779,7.7891345,-10.456212,18.181578,-57.96,63.63277,-3.6644378,3.7206442,5.2698245,-11.829122,-31.360538,2.7825463,-7.0223,16.082945,6.3863196,-30.935184
33,-0.4428682327270508,2.8295695781707764,77.5042495727539,0.20757464389191504,-0.01154256952049238,-86.021153399953,-0.36691374,6.889487,9.189391,12.366028,-9.1267,-4.8411727,0.71073985,-10.898958,-22.482946,17.364347,-16.47994,6.5300026,-4.5121083,-3.2935255,7.9348273,-10.72911,18.189392,-58.47432,63.383537,-3.72657,3.7478929,5.227704,-11.805151,-31.328468,2.8891997,-7.298614,16.072462,6.356591,-30.967167
34,-0.4506770074367523,2.898737907409668,77.50752258300781,0.1961795684866757,0.0018859275932498181,-86.02188391524192,-0.5145133,6.916848,9.187365,12.517416,-9.141141,-4.831144,0.6042163,-10.89055,-22.462656,17.425417,-16.453602,6.4844446,-4.6480503,-3.325768,8.089797,-11.033146,18.19716,-59.064346,63.125317,-3.7886686,3.7722762,5.198319,-11.763152,-31.278166,2.973665,-7.6092863,16.039404,6.342969,-30.988304
35,-0.4599689841270447,2.9699926376342773,77.5119400024414,0.18418489255547243,0.021612224475965752,-86.03224802926813,-0.6697472,6.9474163,9.19431,12.667778,-9.151616,-4.819832,0.48459166,-10.878296,-22.4327,17.483156,-16.42002,6.436739,-4.8154035,-3.3498428,8.254402,-11.339053,18.203289,-59.64405,62.840736,-3.8112876,3.7946458,5.1676273,-11.757554,-31.235874,3.1009321,-7.9241505,16.001396,6.323156,-31.020746
36,-0.4617929458618164,3.0396728515625,77.51707458496094,0.17447094115261055,0.04624225093845911,-86.06018322665231,-0.8287708,6.979542,9.214654,12.819249,-9.162815,-4.806672,0.34799898,-10.865829,-22.384659,17.546455,-16.384254,6.391338,-4.9654927,-3.3809955,8.427459,-11.671407,18.20707,-60.265133,62.547905,-3.8108232,3.8176768,5.1309376,-11.726963,-31.182203,3.2191477,-8.272121,15.951542,6.277124,-31.067106
37,-0.4653204083442688,3.111812114715576,77.52204895019531,0.16425772419422616,0.07533199705699226,-86.1066731044382,-0.98398143,7.0124,9.24864,12.958637,-9.168469,-4.7918835,0.19703726,-10.851856,-22.318026,17.611296,-16.344757,6.3500614,-5.103045,-3.4210908,8.61052,-12.03034,18.20539,-60.91763,62.2498,-3.7741318,3.8435252,5.076008,-11.681652,-31.10855,3.3329732,-8.6471815,15.883144,6.197932,-31.134518
38,-0.46814727783203125,3.1947240829467773,77.52745056152344,0.15376564513535196,0.10952927538937131,-86.16797624969367,-1.1440262,7.0479684,9.293622,13.09823,-9.173114,-4.775628,0.031966567,-10.835208,-22.236443,17.67631,-16.300352,6.3102794,-5.2735977,-3.4472291,8.802219,-12.384571,18.203337,-61.54593,61.915524,-3.688345,3.8697894,5.006031,-11.681782,-31.054844,3.5053737,-9.018699,15.81793,6.0951543,-31.23149
39,-0.4738853871822357,3.2780792713165283,77.5321044921875,0.14547090447675595,0.14939968183332425,-86.2445731316677,-1.3057064,7.08428,9.352742,13.230879,-9.172702,-4.757142,-0.15069729,-10.818339,-22.13918,17.746878,-16.251898,6.269976,-5.4139385,-3.4910808,9.00245,-12.777385,18.190748,-62.236843,61.592266,-3.595139,3.8933575,4.9481664,-11.635227,-30.97149,3.6442635,-9.435048,15.730753,5.979599,-31.320852
40,-0.4781986474990845,3.36752986907959,77.5379867553711,0.13679990618026225,0.19496459109108624,-86.33679939382404,-1.4704423,7.121183,9.428323,13.358929,-9.1676,-4.735683,-0.34777632,-10.800772,-22.026684,17.814226,-16.19696,6.2274284,-5.5682178,-3.5314257,9.218593,-13.180321,18.172022,-62.899754,61.25366,-3.4694328,3.9087954,4.915024,-11.611016,-30.892595,3.8125567,-9.863592,15.641206,5.858992,-31.39789
41,-0.4797990322113037,3.464078903198242,77.5439224243164,0.13020046945155697,0.24656588654149147,-86.44531648786804,-1.6354094,7.158062,9.521849,13.477236,-9.155089,-4.7096143,-0.5610913,-10.783623,-21.898434,17.881449,-16.135162,6.1825495,-5.726987,-3.5698278,9.448592,-13.598821,18.148178,-63.56132,60.8989,-3.3047252,3.9157374,4.9186053,-11.584871,-30.820295,3.998067,-10.319632,15.552823,5.7289333,-31.459082
42,-0.478616863489151,3.558164358139038,77.55062103271484,0.12462135993623738,0.30414388715701735,-86.56972749817736,-1.8053327,7.1960196,9.631222,13.595351,-9.14062,-4.6798024,-0.791396,-10.766786,-21.75421,17.95136,-16.068373,6.1364555,-5.8777957,-3.6132176,9.691053,-14.0427065,18.110489,-64.24209,60.54377,-3.1073575,3.9163394,4.9484305,-11.538956,-30.738451,4.1805015,-10.811189,15.455994,5.587774,-31.507763
43,-0.4767228364944458,3.6537904739379883,77.55850219726562,0.11935855151167253,0.3668780384478285,-86.7090916705395,-1.9762646,7.234383,9.75562,13.704459,-9.119198,-4.649042,-1.0381122,-10.749375,-21.594612,18.023508,-15.996128,6.088834,-6.0315213,-3.6585176,9.94746,-14.501373,18.063047,-64.90382,60.183983,-2.9047308,3.9109118,4.988449,-11.499172,-30.658142,4.3761005,-11.322954,15.352745,5.446093,-31.54781
44,-0.47034987807273865,3.754140853881836,77.56623077392578,0.11682725049318111,0.4339576221837926,-86.86242357848825,-2.1515517,7.273374,9.893316,13.809731,-9.093043,-4.6202064,-1.3034377,-10.732058,-21.4195,18.103445,-15.921078,6.039361,-6.1863236,-3.7095191,10.217887,-14.977987,18.006357,-65.537155,59.82899,-2.740846,3.8994606,5.024427,-11.461193,-30.577253,4.577946,-11.859299,15.24042,5.3148932,-31.578182
45,-0.4675043821334839,3.870575428009033,77.57362365722656,0.11737759154991739,0.5023864194549624,-87.03069990858225,-2.3261898,7.31114,10.0452385,13.905614,-9.05954,-4.5976343,-1.5877622,-10.716039,-21.227215,18.196455,-15.8452,5.987153,-6.340658,-3.7670045,10.507738,-15.471212,17.940268,-66.13043,59.47693,-2.6226647,3.8829486,5.0524244,-11.42164,-30.494366,4.7805347,-12.426169,15.115834,5.193554,-31.60119
46,-0.45915132761001587,3.982661247253418,77.58062744140625,0.12000731035163151,0.5735077026765638,-87.21382106563748,-2.5030012,7.3488708,10.211546,13.996787,-9.021264,-4.5785656,-1.8900605,-10.700463,-21.01839,18.298466,-15.7666645,5.932542,-6.49483,-3.8298466,10.814796,-15.983651,17.864967,-66.69865,59.125927,-2.5350924,3.860812,5.0801373,-11.383697,-30.408827,4.9880414,-13.018416,14.980421,5.0772305,-31.616356
47,-0.46051838994026184,4.100281715393066,77.59024810791016,0.12345867473512344,0.6531080147330007,-87.41009600071874,-2.6866663,7.3884754,10.390597,14.084725,-8.978634,-4.5551,-2.2084012,-10.681406,-20.796661,18.397106,-15.681017,5.8771467,-6.6517534,-3.9006555,11.128358,-16.509138,17.780853,-67.24482,58.77971,-2.459725,3.8318534,5.1108537,-11.338391,-30.32104,5.2056613,-13.639444,14.838991,4.9711013,-31.617767
48,-0.452818900346756,4.22509765625,77.59693908691406,0.12626070849546267,0.7470326410148032,-87.61779916146908,-2.8836648,7.4324107,10.580535,14.172909,-8.932937,-4.519366,-2.5398307,-10.654582,-20.56572,18.477898,-15.582529,5.822671,-6.8131776,-3.9800458,11.439051,-17.043108,17.688515,-67.773865,58.44075,-2.3788793,3.7948692,5.147708,-11.302153,-30.23029,5.4437933,-14.268745,14.6964,4.880091,-31.60053
49,-0.44675567746162415,4.341976165771484,77.60520935058594,0.12678766500746866,0.8543627160362721,-87.83918545614948,-3.0943477,7.4842434,10.783642,14.269309,-8.8882,-4.465975,-2.8802025,-10.616468,-20.324146,18.534157,-15.468431,5.770133,-6.983331,-4.0683155,11.744173,-17.584703,17.589724,-68.28983,58.107,-2.296082,3.7487164,5.18657,-11.236824,-30.138287,5.698557,-14.944863,14.550532,4.808903,-31.558615
50,-0.43873023986816406,4.464595317840576,77.61512756347656,0.12603783645262767,0.9727368552668352,-88.0742361415771,-3.3143964,7.541659,11.000119,14.366786,-8.840976,-4.400246,-3.229919,-10.569186,-20.071323,18.57007,-15.339875,5.718494,-7.158174,-4.1638865,12.050567,-18.135433,17.484722,-68.78744,57.774075,-2.2146459,3.694552,5.2273655,-11.163931,-30.044352,5.9688272,-15.648541,14.399839,4.7534986,-31.496634
51,-0.4340638518333435,4.59120512008667,77.62564086914062,0.12641238088055423,1.1059507218187408,-88.31779340839252,-3.5493076,7.599397,11.224149,14.461024,-8.789434,-4.3302197,-3.6005054,-10.520331,-19.81058,18.60333,-15.205185,5.6667547,-7.3342934,-4.26965,12.35728,-18.70113,17.372904,-69.26949,57.45128,-2.1366498,3.633727,5.279359,-11.148802,-29.94741,6.2646585,-16.311703,14.254066,4.705985,-31.423899
52,-0.4272706210613251,4.715856075286865,77.63706970214844,0.13061138356174948,1.2574858055366693,-88.56445414655708,-3.8002772,7.651119,11.450564,14.53959,-8.727855,-4.263968,-3.9974272,-10.47557,-19.546083,18.63865,-15.067094,5.6138086,-7.521106,-4.3934436,12.654084,-19.269423,17.252588,-69.7173,57.15126,-2.0507352,3.5681143,5.35135,-11.065849,-29.852825,6.566245,-17.0502,14.112624,4.65907,-31.346584
53,-0.4187326431274414,4.853849411010742,77.64744567871094,0.13869781870678854,1.432450369059205,-88.81386271025836,-4.075691,7.695831,11.677233,14.604272,-8.656496,-4.2053914,-4.43392,-10.437549,-19.277395,18.6902,-14.928905,5.556053,-7.7102823,-4.5314074,12.944905,-19.85054,17.12223,-70.12967,56.873352,-1.9590597,3.4985433,5.4438,-10.99604,-29.761349,6.8814235,-17.789198,13.990347,4.6032677,-31.269701
54,-0.4040428102016449,4.98831033706665,77.65601348876953,0.14932643843327081,1.627414542248446,-89.06839081149145,-4.369603,7.7360144,11.907627,14.655073,-8.575306,-4.1494613,-4.900337,-10.4018545,-19.003132,18.745247,-14.78585,5.49531,-7.9042087,-4.682364,13.230481,-20.43869,16.980595,-70.503365,56.613968,-1.8558556,3.4243865,5.552615,-10.921518,-29.67326,7.2102504,-18.54813,13.880288,4.5457716,-31.188465
55,-0.39414963126182556,5.118229866027832,77.6659164428711,0.16237405907001273,1.8335782838945307,-89.32740674551991,-4.6730914,7.773,12.143262,14.699517,-8.490203,-4.090815,-5.3818445,-10.367453,-18.724136,18.799047,-14.638623,5.4383655,-8.103826,-4.8467803,13.511004,-21.04173,16.828518,-70.87576,56.37984,-1.7649937,3.3423107,5.680047,-10.844082,-29.588686,7.558428,-19.31519,13.767884,4.501232,-31.099865
56,-0.37985438108444214,5.252976894378662,77.67710876464844,0.17812502922647167,2.0422385919086254,-89.59006207716291,-4.9774632,7.8080754,12.385698,14.745221,-8.406485,-4.0241256,-5.863534,-10.333341,-18.441372,18.845953,-14.486628,5.3920155,-8.309477,-5.0255613,13.788117,-21.657614,16.666025,-71.26923,56.173122,-1.692248,3.2499871,5.828566,-10.760796,-29.506788,7.9283934,-20.084105,13.638498,4.486229,-31.000332
57,-0.3672904074192047,5.379873275756836,77.68721008300781,0.19683026039464274,2.2531598669096273,-89.85365032275692,-5.281456,7.840414,12.634514,14.791099,-8.323974,-3.9460766,-6.340631,-10.2999,-18.157644,18.880835,-14.32993,5.3618765,-8.524079,-5.218996,14.058511,-22.28893,16.493347,-71.7033,55.995102,-1.6605438,3.1388755,6.005907,-10.668285,-29.426264,8.320536,-20.859947,13.486779,4.5123615,-30.8875
58,-0.35189351439476013,5.507116794586182,77.69496154785156,0.21828396941367556,2.4703874756521205,-90.11934370142781,-5.5909753,7.870159,12.88899,14.837465,-8.241997,-3.8601477,-6.822069,-10.267669,-17.87135,18.909561,-14.169534,5.343136,-8.745198,-5.42785,14.32315,-22.933058,16.309526,-72.15816,55.843597,-1.654327,3.0131924,6.208356,-10.572601,-29.347757,8.731849,-21.63749,13.321775,4.568612,-30.762125
59,-0.32878220081329346,5.649116039276123,77.7011489868164,0.24163717166892623,2.691287934222658,-90.39241971673074,-5.9031825,7.8988214,13.150799,14.884796,-8.161515,-3.771112,-7.310612,-10.235679,-17.577103,18.937292,-14.004225,5.3270793,-8.967365,-5.6489487,14.588025,-23.593233,16.114838,-72.6184,55.71559,-1.6492345,2.8879387,6.4206247,-10.435154,-29.268158,9.157564,-22.453386,13.136684,4.6368146,-30.62994
60,-0.30658602714538574,5.790663719177246,77.70713806152344,0.26624825220024606,2.913136734147647,-90.67816959068672,-6.215954,7.9280095,13.421664,14.934739,-8.083652,-3.6837158,-7.811406,-10.203417,-17.269104,18.974764,-13.835615,5.3048463,-9.182794,-5.8863616,14.860324,-24.266768,15.908305,-73.05836,55.612396,-1.6051714,2.7800655,6.6281443,-10.3313,-29.191336,9.600313,-23.2336,12.959204,4.699439,-30.491835
61,-0.2839927673339844,5.932997226715088,77.71576690673828,0.29120375706646356,3.137528837191358,-90.97952781902467,-6.532831,7.959209,13.701041,14.991576,-8.010975,-3.5978277,-8.328575,-10.169047,-16.944138,19.023441,-13.662306,5.2713127,-9.390602,-6.137963,15.140159,-24.960651,15.691489,-73.48469,55.53394,-1.5219845,2.693894,6.833672,-10.236258,-29.11993,10.059242,-23.998667,12.782736,4.757997,-30.343128
62,-0.2547616958618164,6.0694990158081055,77.72371673583984,0.31677034387245756,3.364891650056647,-91.29308976542752,-6.8522644,7.990789,13.9885645,15.050638,-7.940932,-3.511249,-8.85816,-10.133115,-16.60586,19.077799,-13.484101,5.2322187,-9.595359,-6.3999467,15.426202,-25.662806,15.462069,-73.88681,55.473515,-1.3966709,2.6224453,7.0432487,-10.101106,-29.048923,10.533703,-24.799156,12.587106,4.819371,-30.18689
63,-0.22428962588310242,6.210017681121826,77.72959899902344,0.34471032024237536,3.5920029418057213,-91.61500471228554,-7.1720243,8.021289,14.285177,15.115947,-7.875406,-3.4253833,-9.394311,-10.098525,-16.258656,19.139324,-13.304018,5.1951084,-9.799213,-6.6787257,15.715247,-26.375242,15.219648,-74.27122,55.439713,-1.2537724,2.5594103,7.245365,-9.979025,-28.98056,11.027441,-25.58498,12.39363,4.874642,-30.032969
64,-0.19287487864494324,6.351831436157227,77.73441314697266,0.3757412483491273,3.8157399951038458,-91.94138104038265,-7.4924874,8.050503,14.591194,15.19695,-7.8181686,-3.3417869,-9.930991,-10.06789,-15.907114,19.20825,-13.125297,5.1675253,-10.000991,-6.9723005,16.004173,-27.113796,14.971202,-74.66796,55.433075,-1.1454864,2.4955494,7.427814,-9.8476095,-28.912264,11.539631,-26.375397,12.196324,4.9142547,-29.8966
65,-0.1576841175556183,6.4954304695129395,77.73616027832031,0.41132162975033015,4.035059219489565,-92.26659863012581,-7.808949,8.075008,14.903638,15.280838,-7.7636313,-3.2639983,-10.466696,-10.044818,-15.555728,19.288277,-12.950528,5.1519675,-10.214121,-7.283854,16.297888,-27.844969,14.708902,-75.019646,55.44752,-0.9976966,2.4361892,7.5898046,-9.708502,-28.840021,12.074012,-27.177866,11.995756,4.92897,-29.776266
66,-0.12502333521842957,6.632865905761719,77.73735809326172,0.4502907078292884,4.252143159662461,-92.59436431831921,-8.125384,8.097006,15.222911,15.3726015,-7.713478,-3.1901503,-11.004407,-10.02662,-15.200884,19.376547,-12.776744,5.1445155,-10.431318,-7.6142106,16.591454,-28.595499,14.437274,-75.37209,55.49275,-0.857076,2.3790536,7.7356925,-9.575286,-28.76616,12.629291,-27.971273,11.796579,4.9261675,-29.665508
67,-0.0741778016090393,6.777263641357422,77.73712921142578,0.4927577278977683,4.466392587537541,-92.93440804120598,-8.438422,8.11903,15.557411,15.475738,-7.6725707,-3.114141,-11.547557,-10.010056,-14.833141,19.474596,-12.604107,5.1430726,-10.657449,-7.964684,16.891106,-29.309946,14.132133,-75.61134,55.566055,-0.6341453,2.3369637,7.870024,-9.452389,-28.690536,13.2183,-28.764296,11.591192,4.922061,-29.56955
68,-0.03174750134348869,6.915299415588379,77.73612976074219,0.534703437071819,4.679388790584382,-93.29605148956406,-8.750045,8.147569,15.913366,15.599195,-7.648018,-3.0296843,-12.095552,-9.987166,-14.446039,19.571085,-12.426015,5.1456056,-10.828339,-8.322629,17.175325,-30.12288,13.848402,-76.00134,55.671413,-0.62576276,2.2760131,7.9855194,-9.307484,-28.617012,13.802766,-29.536919,11.381023,4.931128,-29.49864
69,0.014543737284839153,7.051575183868408,77.73367309570312,0.5813357136418938,4.888009189881357,-93.68338651814503,-9.051551,8.177011,16.297085,15.736441,-7.637937,-2.9333632,-12.650184,-9.963197,-14.035963,19.67473,-12.246434,5.154527,-10.993464,-8.7031765,17.471287,-30.887535,13.54845,-76.24878,55.77853,-0.5363929,2.2392087,8.0781145,-9.177021,-28.548513,14.415351,-30.302406,11.175363,4.96192,-29.443317
70,0.07493016868829727,7.192148208618164,77.72798156738281,0.6308911772719789,5.093396577868169,-94.09052247962025,-9.346838,8.2085,16.70269,15.887521,-7.640327,-2.8291905,-13.210542,-9.937433,-13.608175,19.784468,-12.065311,5.1699543,-11.141605,-9.098028,17.766079,-31.66637,13.2395525,-76.47531,55.910603,-0.48141924,2.207083,8.147361,-9.052408,-28.486176,15.050485,-31.049711,10.974528,5.0039444,-29.409021
71,0.13499459624290466,7.3302788734436035,77.72296905517578,0.6790378033774441,5.298908750068082,-94.51369047779781,-9.644685,8.248089,17.123417,16.059023,-7.657812,-2.7225652,-13.775416,-9.902984,-13.163083,19.893469,-11.880129,5.1857014,-11.27489,-9.505484,18.057026,-32.4479,12.92301,-76.6701,56.06659,-0.44674438,2.173073,8.222107,-8.931936,-28.429314,15.706713,-31.791855,10.761811,5.0502343,-29.39725
72,0.20007793605327606,7.459305286407471,77.71533203125,0.7210825107035068,5.507777111077859,-94.94916493348164,-9.954347,8.302016,17.552607,16.258026,-7.6930175,-2.6186829,-14.347325,-9.854306,-12.700354,20.001707,-11.691979,5.1959014,-11.39972,-9.9227915,18.339787,-33.222233,12.597577,-76.82293,56.250042,-0.42359316,2.1298914,8.33094,-8.821356,-28.375278,16.392159,-32.530907,10.517435,5.0934854,-29.41221
73,0.2662581503391266,7.5912981033325195,77.70709991455078,0.7563582097301568,5.724204956137007,-95.39799152443544,-10.281975,8.372886,17.990686,16.48772,-7.7471185,-2.5170867,-14.930905,-9.788333,-12.214684,20.107319,-11.498614,5.1952634,-11.513331,-10.353793,18.60739,-33.993347,12.267389,-76.9519,56.46583,-0.4415327,2.0658677,8.490832,-8.739011,-28.326023,17.104864,-33.252888,10.258237,5.1258817,-29.466684
74,0.33005794882774353,7.730502605438232,77.69520568847656,0.7871046990626128,5.945211284887467,-95.86154523841235,-10.620187,8.456985,18.440493,16.741207,-7.8168745,-2.415544,-15.524336,-9.708603,-11.707812,20.213709,-11.301788,5.1885405,-11.615478,-10.796784,18.86605,-34.76317,11.932792,-77.04925,56.70809,-0.48912123,1.989181,8.683758,-8.666279,-28.279568,17.848381,-33.97118,9.975994,5.1535535,-29.555988
75,0.4004245102405548,7.860924243927002,77.6833267211914,0.8131057844136816,6.163463538953924,-96.33655447258263,-10.960969,8.552276,18.898102,17.020075,-7.904453,-2.3167028,-16.113972,-9.618417,-11.191984,20.314692,-11.100615,5.1850386,-11.710534,-11.250778,19.119661,-35.52693,11.594363,-77.10055,56.97616,-0.52694315,1.916258,8.883946,-8.6130905,-28.237434,18.6118,-34.67116,9.673641,5.190827,-29.649406
76,0.4820002615451813,7.990198612213135,77.66728973388672,0.8343387986969054,6.371677152507547,-96.81977440235633,-11.297536,8.656988,19.359657,17.32823,-8.011481,-2.223122,-16.688278,-9.521942,-10.678735,20.408503,-10.89631,5.1939545,-11.80074,-11.71084,19.375298,-36.281395,11.251982,-77.09041,57.266193,-0.5143007,1.86405,9.065965,-8.565484,-28.198181,19.39061,-35.359947,9.334032,5.2511983,-29.719244
77,0.566123902797699,8.11642074584961,77.64861297607422,0.8510298720726324,6.566829452882582,-97.31406282651798,-11.618297,8.768316,19.82739,17.651184,-8.136915,-2.14045,-17.242977,-9.419486,-10.169172,20.493353,-10.688885,5.2155685,-11.886433,-12.1771965,19.634426,-37.025448,10.906172,-77.00776,57.57511,-0.42066038,1.8450105,9.226382,-8.528327,-28.162382,20.191689,-36.03198,8.935159,5.3498816,-29.762148
78,0.6515167355537415,8.245644569396973,77.63164520263672,0.8632864602954531,6.752987397076709,-97.81976044640868,-11.933711,8.889383,20.301704,18.001356,-8.281016,-2.0653737,-17.784714,-9.30937,-9.657838,20.57076,-10.477889,5.2457824,-11.9682865,-12.653092,19.892656,-37.761127,10.557347,-76.86115,57.90872,-0.27336708,1.8479917,9.377839,-8.51038,-28.132137,21.016417,-36.684456,8.495031,5.4758253,-29.790497
79,0.7556726336479187,8.36808967590332,77.61070251464844,0.8712530480157104,6.934020868925714,-98.33060326059868,-12.251985,9.020746,20.778233,18.379519,-8.44411,-1.9870727,-18.318161,-9.192998,-9.146308,20.644186,-10.264664,5.2870355,-12.043696,-13.13525,20.149525,-38.492634,10.206713,-76.67049,58.273144,-0.12118041,1.8531622,9.51915,-8.495964,-28.103846,21.845432,-37.32917,8.054373,5.602338,-29.80204
80,0.8478121161460876,8.480131149291992,77.58721923828125,0.8751563881072894,7.113683841698478,-98.8402163066217,-12.586065,9.165093,21.251522,18.797754,-8.626669,-1.8948854,-18.847929,-9.071046,-8.63664,20.716253,-10.050564,5.341708,-12.110994,-13.623987,20.403353,-39.22227,9.85523,-76.455925,58.67727,-0.012670974,1.8408471,9.649108,-8.480117,-28.074236,22.65715,-37.970066,7.661188,5.7032814,-29.791042
81,0.9453493356704712,8.605025291442871,77.55792999267578,0.8751655388547267,7.296206149398289,-99.34771247379055,-12.946343,9.324899,21.721794,19.265617,-8.832747,-1.7807525,-19.381264,-8.943527,-8.1266775,20.790674,-9.835382,5.414422,-12.168768,-14.119372,20.652401,-39.953487,9.503123,-76.214615,59.11937,0.041694004,1.8076466,9.753256,-8.457349,-28.04065,23.449974,-38.611195,7.3260136,5.767513,-29.752361
82,1.0492037534713745,8.721095085144043,77.52880096435547,0.8707842647357895,7.478272728052647,-99.85618076266464,-13.324223,9.499192,22.190554,19.776937,-9.06162,-1.6521775,-19.913486,-8.810028,-7.6164665,20.864534,-9.61855,5.5027084,-12.218217,-14.622958,20.897392,-40.68396,9.150586,-75.939644,59.59829,0.06665548,1.7633003,9.83706,-8.437688,-28.003979,24.23142,-39.245094,7.029238,5.8102694,-29.688496
83,1.1609569787979126,8.837423324584961,77.49758911132812,0.8619286553873496,7.652607805732778,-100.3654345149793,-13.699635,9.683241,22.65606,20.308659,-9.302762,-1.521888,-20.432676,-8.671272,-7.110189,20.934477,-9.402889,5.5983915,-12.257342,-15.132288,21.14425,-41.410187,8.798817,-75.64675,60.11708,0.066696286,1.7077075,9.929413,-8.414793,-27.962143,24.999895,-39.87322,6.7477345,5.8447924,-29.609861
84,1.274250864982605,8.95121955871582,77.46372985839844,0.8488344464959154,7.811619945413684,-100.875082954778,-14.052593,9.871845,23.11695,20.837574,-9.545317,-1.4027112,-20.926786,-8.528485,-6.612024,20.996635,-9.190142,5.693235,-12.287014,-15.648831,21.395947,-42.12689,8.448539,-75.35077,60.68258,0.045887113,1.6415666,10.059041,-8.400209,-27.915964,25.747108,-40.489044,6.477781,5.8851767,-29.523638
85,1.3889224529266357,9.053803443908691,77.42967224121094,0.8325648241528519,7.954182299173086,-101.38690754324335,-14.38237,10.064482,23.573042,21.367836,-9.790682,-1.2988384,-21.395844,-8.383122,-6.123074,21.053879,-8.984035,5.784786,-12.301787,-16.17073,21.656708,-42.837734,8.100749,-75.05657,61.29303,0.0029855925,1.5567347,10.238388,-8.382834,-27.86379,26.478657,-41.10377,6.2130504,5.9376907,-29.430115
86,1.5092297792434692,9.164510726928711,77.3929443359375,0.8129416530622506,8.083813371107802,-101.90043411711694,-14.696917,10.26304,24.025505,21.90579,-10.041588,-1.2034917,-21.845243,-8.234562,-5.6409435,21.10707,-8.782517,5.877387,-12.304575,-16.699291,21.922789,-43.543118,7.755761,-74.75478,61.94719,-0.06345774,1.4560063,10.450496,-8.369903,-27.806032,27.19424,-41.711555,5.965211,5.9941525,-29.324442
87,1.6325440406799316,9.27208137512207,77.35283660888672,0.7884069155258739,8.20085364924519,-102.41222441538373,-14.994393,10.466965,24.47356,22.442303,-10.29547,-1.1126575,-22.272356,-8.08094,-5.1649156,21.150515,-8.579675,5.972861,-12.298195,-17.234287,22.191833,-44.235332,7.4149637,-74.44619,62.642803,-0.14922993,1.3542603,10.680364,-8.362929,-27.742887,27.885468,-42.301693,5.719951,6.0461473,-29.211311
88,1.7591038942337036,9.374459266662598,77.31428527832031,0.7568640070284042,8.30551251190237,-102.91903539903919,-15.272169,10.675521,24.916487,22.966925,-10.549329,-1.0223141,-22.674852,-7.919936,-4.694069,21.18042,-8.370456,6.072817,-12.285898,-17.774784,22.462177,-44.908394,7.0795326,-74.13108,63.377464,-0.2510523,1.2668154,10.913147,-8.363038,-27.673836,28.545471,-42.862465,5.460507,6.085089,-29.095245
89,1.8887454271316528,9.469442367553711,77.27547454833984,0.7156801142207838,8.397079550334965,-103.42393348108432,-15.528736,10.893303,25.356346,23.480192,-10.804707,-0.9366733,-23.051731,-7.7465577,-4.2256045,21.19438,-8.152632,6.178627,-12.264864,-18.318932,22.734041,-45.561054,6.7498507,-73.81728,64.15988,-0.36913267,1.2026964,11.160829,-8.371419,-27.59769,29.173796,-43.38948,5.1608243,6.103644,-28.971817
90,2.0190439224243164,9.569546699523926,77.23658752441406,0.6670918869171013,8.475516725182676,-103.92758792818036,-15.767952,11.120544,25.793234,23.99265,-11.066208,-0.85633916,-23.402931,-7.5633616,-3.7607284,21.192072,-7.9274235,6.288819,-12.236449,-18.869736,23.00577,-46.19425,6.426631,-73.50145,64.98918,-0.5051466,1.1518916,11.425929,-8.402571,-27.51761,29.765427,-43.878246,4.8548226,6.1083684,-28.838013
91,2.1505608558654785,9.667901039123535,77.19921112060547,0.6161344778278838,8.542203271163418,-104.42213443036545,-15.988536,11.344661,26.22244,24.490274,-11.3239,-0.77115875,-23.731571,-7.381132,-3.3049164,21.179665,-7.6992655,6.401118,-12.202677,-19.425959,23.281803,-46.81081,6.111452,-73.17121,65.83946,-0.657667,1.1015582,11.679875,-8.4342575,-27.431053,30.331408,-44.354313,4.56157,6.110463,-28.70909
92,2.2889046669006348,9.758272171020508,77.1621322631836,0.5684927992936011,8.598436478386516,-104.89969074772819,-16.190609,11.553661,26.639744,24.963356,-11.570474,-0.670999,-24.042887,-7.2110195,-2.862811,21.16723,-7.474807,6.513148,-12.173363,-19.993944,23.55765,-47.407574,5.8075886,-72.81098,66.69134,-0.8248347,1.0389473,11.893536,-8.4864435,-27.341646,30.864,-44.808372,4.3480372,6.1230865,-28.593527
93,2.435274362564087,9.846089363098145,77.12433624267578,0.5275675932322914,8.64089601629817,-105.36063673997761,-16.368057,11.74237,27.048069,25.407192,-11.803547,-0.54815507,-24.336159,-7.0573153,-2.4325356,21.160738,-7.2573934,6.625483,-12.149963,-20.576832,23.838366,-47.990246,5.516675,-72.41361,67.536896,-0.9040766,0.98936194,12.0166645,-8.55039,-27.249422,31.37048,-45.261738,4.175533,6.1861835,-28.449715
94,2.579529047012329,9.936582565307617,77.08838653564453,0.48989998791377803,8.670076734753604,-105.80823701482905,-16.523182,11.917354,27.448315,25.827902,-12.027536,-0.40969795,-24.608837,-6.9137897,-2.0125484,21.152365,-7.0420494,6.7387652,-12.127885,-21.17064,24.124405,-48.557438,5.2401624,-71.98784,68.38428,-0.93019444,0.9505166,12.079195,-8.621709,-27.152386,31.855124,-45.709118,4.024732,6.2805653,-28.287968
95,2.7242231369018555,10.026764869689941,77.0540771484375,0.45135449620023294,8.69387320951716,-106.23944297875993,-16.667313,12.084347,27.834833,26.226734,-12.243519,-0.26776892,-24.86708,-6.7753515,-1.6075591,21.137585,-6.8264136,6.850367,-12.108329,-21.770111,24.404797,-49.096657,4.982155,-71.54421,69.235374,-1.1084634,0.86827445,12.172053,-8.719957,-27.055704,32.299213,-46.116547,3.9962022,6.331833,-28.196411
96,2.8740930557250977,10.113544464111328,77.01929473876953,0.40717723365319186,8.720123867778742,-106.65125678895258,-16.815487,12.250358,28.200068,26.612215,-12.451762,-0.13475302,-25.112997,-6.6370273,-1.2231286,21.104202,-6.604175,6.957765,-12.080702,-22.359505,24.682436,-49.601704,4.7478743,-71.09799,70.07813,-1.6429815,0.687215,12.385707,-8.80622,-26.95495,32.71657,-46.48773,4.1181545,6.2627645,-28.272533
97,3.0211262702941895,10.201804161071777,76.98457336425781,0.3610440325037067,8.745657874664031,-107.04201941486743,-16.95886,12.408398,28.545763,26.971878,-12.649555,-0.012658926,-25.34658,-6.5025535,-0.8569349,21.058632,-6.378366,7.060484,-12.053685,-22.950481,24.953539,-50.063133,4.5424666,-70.68642,70.92014,-2.7438836,0.366139,12.769078,-8.918853,-26.853142,33.13046,-46.802616,4.450799,6.0234246,-28.570242
98,3.1636271476745605,10.293526649475098,76.95086669921875,0.3138314882096176,8.76809710994765,-107.41375195557552,-17.094769,12.5574255,28.874285,27.30771,-12.837727,0.10456252,-25.565842,-6.3735204,-0.5072745,21.00166,-6.149737,7.1595545,-12.029682,-23.54616,25.218346,-50.483536,4.369378,-70.291985,71.75472,-4.2481375,-0.06585426,13.257355,-9.06132,-26.75322,33.52607,-47.070534,4.96011,5.661787,-29.026031
99,3.3171277046203613,10.377640724182129,76.91828155517578,0.2575795061527633,8.796147507318809,-107.76834323966538,-17.243746,12.712679,29.181723,27.642134,-13.02223,0.21710236,-25.776142,-6.241023,-0.17994526,20.924566,-5.9129066,7.2546763,-11.99239,-24.12171,25.481552,-50.8723,4.230991,-69.845726,72.554955,-5.8001723,-0.5563892,13.772405,-9.1653595,-26.64532,33.858116,-47.311954,5.547059,5.247942,-29.55816
100,3.4643609523773193,10.458586692810059,76.88487243652344,0.18497927613416804,8.838187232691547,-108.10801826444704,-17.425089,12.888522,29.464577,27.995636,-13.208039,0.3252608,-25.981462,-6.097034,0.11964793,20.817076,-5.6626263,7.3455076,-11.942166,-24.668474,25.72732,-51.226715,4.1314,-69.27182,73.310425,-7.04575,-1.0438731,14.243309,-9.245825,-26.53521,34.02416,-47.497097,6.230008,4.8587165,-30.072123
101,3.6085102558135986,10.53856372833252,76.85267639160156,0.09384407186969337,8.891161486606043,-108.43529948826703,-17.63661,13.088915,29.724585,28.37297,-13.398215,0.42541707,-26.183472,-5.9385304,0.39342526,20.68587,-5.4003344,7.4279184,-11.866366,-25.17433,25.969828,-51.542145,4.0731163,-68.50597,74.01577,-7.898655,-1.4810848,14.680555,-9.251563,-26.417994,34.000572,-47.630272,7.0677876,4.5026093,-30.642376
102,3.7537765502929688,10.627227783203125,76.8185806274414,-0.011439910825910513,8.951925768757947,-108.7484362429927,-17.86986,13.305465,29.962631,28.762278,-13.588889,0.51868486,-26.379225,-5.770912,0.6432875,20.53313,-5.127977,7.5032563,-11.775248,-25.651608,26.205252,-51.81479,4.058375,-67.601,74.676445,-8.545265,-1.9064109,15.116427,-9.219228,-26.296312,33.826775,-47.70774,8.063518,4.1384897,-31.279629
103,3.895474910736084,10.713510513305664,76.78520965576172,-0.13026332860592277,9.029484728081465,-109.04297777790035,-18.136452,13.535906,30.173193,29.162231,-13.775967,0.612283,-26.56754,-5.597116,0.86282283,20.339968,-4.8386917,7.5794444,-11.6765175,-26.101507,26.425766,-52.06638,4.0865536,-66.668655,75.27618,-9.044683,-2.3810744,15.519121,-9.16166,-26.171776,33.575027,-47.772205,8.983177,3.7698758,-31.820248
104,4.041759014129639,10.800025939941406,76.75060272216797,-0.2619381288247867,9.1324787127689,-109.31453923483188,-18.447046,13.7772665,30.350855,29.569954,-13.954421,0.713557,-26.749165,-5.421863,1.0465794,20.09213,-4.5280952,7.6648192,-11.583153,-26.533321,26.615,-52.313698,4.155985,-65.81951,75.808846,-9.455355,-2.9673789,15.854577,-9.123358,-26.055553,33.288124,-47.84979,9.647471,3.411732,-32.097134
105,4.1792097091674805,10.883758544921875,76.71833038330078,-0.40722337079504317,9.265876796992348,-109.56438900550837,-18.809387,14.031931,30.494553,29.990051,-14.124396,0.8243437,-26.929564,-5.244857,1.1941243,19.786995,-4.194166,7.7539153,-11.485775,-26.941961,26.780842,-52.56244,4.2652183,-65.07626,76.27783,-9.735431,-3.736495,16.11527,-9.043966,-25.941109,32.958874,-47.9956,9.892315,3.0678694,-32.010574
106,4.320969581604004,10.971723556518555,76.68680572509766,-0.5657415184641401,9.423589303232001,-109.79385283421803,-19.215954,14.299358,30.606533,30.422258,-14.288086,0.9406053,-27.107227,-5.0661564,1.3089191,19.433567,-3.8407152,7.845079,-11.386396,-27.331089,26.921768,-52.798515,4.4139576,-64.38228,76.69262,-9.873434,-4.634538,16.320913,-8.95027,-25.831696,32.54394,-48.164185,9.900742,2.738083,-31.666716
107,4.453824996948242,11.053524017333984,76.65534210205078,-0.7351973807977822,9.598858934405708,-109.99924789939955,-19.653673,14.57202,30.686352,30.851786,-14.440991,1.0612266,-27.267723,-4.889643,1.3899673,19.021532,-3.4656808,7.952301,-11.289017,-27.698032,27.04254,-53.03111,4.5971317,-63.739048,77.03184,-9.974407,-5.5358944,16.476398,-8.881198,-25.738214,32.131943,-48.32416,9.822581,2.4247258,-31.23215
108,4.584039211273193,11.137207984924316,76.62284851074219,-0.9138539025179501,9.785196481316088,-110.17690638801214,-20.112381,14.843858,30.732946,31.270346,-14.582354,1.1852186,-27.400442,-4.71893,1.436517,18.548014,-3.0702012,8.089576,-11.193551,-28.034515,27.15414,-53.274967,4.8063226,-63.148094,77.27236,-10.144576,-6.3162045,16.58416,-8.847734,-25.665686,31.838072,-48.463406,9.761767,2.1293359,-30.878119
109,4.716846466064453,11.218372344970703,76.59355926513672,-1.1054609787099314,9.986251134737532,-110.32232442390732,-20.601503,15.118085,30.740269,31.683323,-14.714378,1.3133464,-27.50863,-4.553092,1.4442055,18.012259,-2.6491902,8.2477865,-11.119347,-28.341393,27.241545,-53.539825,5.0366983,-62.644764,77.42415,-10.49106,-6.9468236,16.606062,-8.894814,-25.628025,31.664946,-48.543312,9.7800665,1.8559674,-30.631258
110,4.839014530181885,11.296916961669922,76.56572723388672,-1.3084828481779796,10.203632407378763,-110.43840297566624,-21.123838,15.394788,30.710316,32.094624,-14.837954,1.4463779,-27.595228,-4.3928123,1.4156233,17.41299,-2.2027135,8.423887,-11.054614,-28.616045,27.313402,-53.824303,5.2854466,-62.217083,77.49589,-10.932897,-7.492513,16.552097,-8.968428,-25.624458,31.575733,-48.611015,9.776116,1.5998849,-30.41356
111,4.95854377746582,11.383857727050781,76.53775787353516,-1.5114530382843456,10.426563373572861,-110.53151021318149,-21.651766,15.658782,30.656681,32.481,-14.944516,1.5831845,-27.648008,-4.2455106,1.3616819,16.749537,-1.7424855,8.640927,-10.977485,-28.868477,27.385138,-54.11081,5.548893,-61.786495,77.48874,-11.292991,-7.970446,16.496841,-9.04658,-25.650078,31.554558,-48.695873,9.755796,1.359214,-30.218746
112,5.074028968811035,11.462776184082031,76.51414489746094,-1.702723066554894,10.644251447502977,-110.60798312894005,-22.158978,15.895116,30.593386,32.821888,-15.026708,1.7228771,-27.65306,-4.1183653,1.2934078,16.0167,-1.2778479,8.921952,-10.870596,-29.111425,27.467722,-54.378757,5.824361,-61.270504,77.40683,-11.391236,-8.398549,16.518204,-9.12286,-25.699177,31.580683,-48.815605,9.7402,1.1328578,-30.03862
113,5.183615684509277,11.538837432861328,76.49478149414062,-1.8811865078203422,10.85906590872707,-110.67007399779698,-22.648361,16.103617,30.523369,33.11874,-15.085184,1.8696041,-27.612661,-4.003905,1.2332894,15.201842,-0.7911604,9.265655,-10.727119,-29.349697,27.557632,-54.62784,6.10967,-60.57525,77.23452,-11.173289,-8.75471,16.641363,-9.214099,-25.775984,31.65474,-48.951233,9.782294,0.9086705,-29.881334
114,5.283508777618408,11.622088432312012,76.47845458984375,-2.050165622627118,11.074396758583603,-110.71297980303349,-23.130371,16.288021,30.440676,33.381287,-15.124062,2.0231392,-27.529379,-3.9048476,1.1703229,14.306601,-0.28260857,9.662169,-10.555966,-29.573921,27.655468,-54.869183,6.403977,-59.767212,76.97625,-10.734743,-9.03727,16.827042,-9.303303,-25.876532,31.804008,-49.108124,9.827153,0.6898961,-29.752306
115,5.385931015014648,11.705838203430176,76.46226501464844,-2.2026520513056864,11.280782963177602,-110.73249116179416,-23.585424,16.436708,30.34818,33.593334,-15.137399,2.1756964,-27.3912,-3.8423975,1.064629,13.351614,0.20889044,10.121323,-10.372529,-29.789852,27.762548,-55.090664,6.7084665,-59.003838,76.67737,-10.120127,-9.295693,17.05751,-9.390309,-25.992533,31.995716,-49.30491,9.823809,0.50297993,-29.62649
116,5.484803199768066,11.776872634887695,76.45226287841797,-2.369523488386209,11.474634359520667,-110.71481867519084,-24.03414,16.584948,30.2082,33.789,-15.138152,2.3149924,-27.146029,-3.804133,0.83820224,12.274155,0.6865388,10.6466055,-10.185482,-29.793802,27.864916,-55.21066,7.016923,-58.38993,76.21283,-9.376773,-9.579029,17.30561,-9.580363,-26.149744,32.143105,-49.381516,9.732397,0.39672637,-29.454178
117,5.57705020904541,11.842506408691406,76.4458999633789,-2.4924718492744184,11.641381308214264,-110.65646598899912,-24.418344,16.65735,30.064428,33.901154,-15.101363,2.4469793,-26.777864,-3.8286197,0.5798657,11.031186,1.1434431,11.354725,-10.000918,-29.793802,27.994612,-55.302055,7.326986,-58.056515,75.75747,-8.427956,-9.90968,17.60569,-9.744357,-26.328836,32.281445,-49.5368,9.531901,0.3493692,-29.25153
118,5.654083728790283,11.913468360900879,76.44229125976562,-2.57661394990989,11.786816794854682,-110.56150478199788,-24.7496,16.662592,29.917118,33.940735,-15.030847,2.5752056,-26.28936,-3.9060261,0.28695774,9.615511,1.6073067,12.205318,-9.810172,-29.793802,28.144682,-55.37315,7.6353536,-57.911873,75.29545,-7.2800274,-10.254295,17.96037,-9.904058,-26.519466,32.419937,-49.73657,9.261396,0.35032403,-29.025522
119,5.723758697509766,11.989117622375488,76.44469451904297,-2.6596391510679034,11.92565695594784,-110.45416534639564,-25.056332,16.656067,29.762663,33.936428,-14.935939,2.693106,-25.765862,-4.0157065,-0.16486509,8.24127,2.029265,12.983894,-9.598406,-29.793802,28.299686,-55.43585,7.9429,-57.866608,74.8331,-6.101172,-10.583064,18.317198,-10.062415,-26.713213,32.552094,-49.994434,8.930064,0.40381983,-28.782536
120,5.790614128112793,12.061982154846191,76.46110534667969,-2.7859815933228993,12.075670990003028,-110.36248284832553,-25.375628,16.70258,29.593672,33.926285,-14.829588,2.7932043,-25.324223,-4.126319,-0.896034,7.1846313,2.3286438,13.47602,-9.351941,-29.793802,28.439754,-55.499287,8.255088,-57.83259,74.37851,-5.0608234,-10.869818,18.621103,-10.22706,-26.903381,32.668663,-50.321915,8.555876,0.51379997,-28.527649
121,5.85176420211792,12.135807991027832,76.48774719238281,-2.9768844149180267,12.242821887280025,-110.30067451878763,-25.717077,16.831291,29.406858,33.917355,-14.711916,2.8691347,-25.147476,-4.2213445,-1.958771,6.826878,2.321912,13.620976,-9.029164,-29.793802,28.60615,-55.605125,8.575152,-57.837696,73.943924,-4.210014,-11.11164,18.835798,-10.239962,-27.026262,32.910683,-50.836735,7.8599424,0.6831839,-28.289967
122,5.901727676391602,12.20515251159668,76.52070617675781,-3.2181213607333756,12.419899563900385,-110.25229045812375,-26.071976,17.01878,29.195189,33.900032,-14.579759,2.9242363,-25.07834,-4.3106003,-3.2910001,6.830023,2.1497982,13.534294,-8.718898,-29.793802,28.697401,-55.672302,8.9154625,-57.871513,73.53323,-3.4542015,-11.326385,18.994019,-10.463304,-27.138933,33.032707,-51.251423,7.319734,0.932661,-28.000551
123,5.945371627807617,12.27147102355957,76.56397247314453,-3.480647274726766,12.604595189570823,-110.2095926291085,-26.427603,17.227695,28.974094,33.858936,-14.430833,2.96884,-24.943079,-4.414465,-4.802913,6.848828,1.9771166,13.2680645,-8.375261,-29.793802,28.793009,-55.73683,9.271717,-57.92836,73.0884,-2.7558072,-11.511376,19.147226,-10.612109,-27.206438,33.25662,-51.766304,6.608047,1.2041367,-27.713326
124,5.987987995147705,12.339590072631836,76.60830688476562,-3.743320702041234,12.794397819918768,-110.16076902212419,-26.778122,17.429266,28.748781,33.787247,-14.265299,3.0121331,-24.789522,-4.5545154,-6.3970113,7.0091963,1.7194014,12.870559,-8.043304,-29.793802,28.850061,-55.755207,9.642703,-57.945015,72.578186,-2.0726388,-11.664591,19.345392,-10.81583,-27.233677,33.54265,-52.25391,5.9098315,1.4731777,-27.412996
125,6.0234375,12.407505989074707,76.6576919555664,-4.0034510685379,12.987720978972566,-110.10692724668876,-27.116621,17.619164,28.52655,33.675407,-14.079562,3.057253,-24.860903,-4.784914,-8.093264,7.8654523,1.0673997,12.292836,-7.700401,-29.793802,28.897358,-55.745953,10.024271,-57.93269,71.98225,-1.3799282,-11.773217,19.610407,-10.98375,-27.188023,34.022743,-52.77965,5.0456347,1.7318115,-27.120329
126,6.053986549377441,12.480015754699707,76.7104721069336,-4.275069708013838,13.183472664336726,-110.04731889162329,-27.450756,17.814432,28.293097,33.536613,-13.877412,3.0982542,-24.94892,-5.083602,-9.937955,8.983775,0.25013193,11.52853,-7.4126,-29.793802,28.84406,-55.6516,10.426883,-57.86505,71.334694,-0.69983643,-11.844641,19.910286,-11.413398,-27.14047,34.401657,-53.14212,4.4666038,2.01882,-26.772314
127,6.077770709991455,12.5441312789917,76.76649475097656,-4.538643457206447,13.37912996995381,-109.9746543533834,-27.773912,17.991875,28.052326,33.367374,-13.65929,3.1345823,-25.011086,-5.4401474,-11.804421,10.240189,-0.6505618,10.693235,-7.1066937,-29.793802,28.798777,-55.537445,10.844771,-57.77878,70.62781,-0.074557155,-11.896731,20.21711,-11.7540655,-27.056501,34.8715,-53.5821,3.7604344,2.298062,-26.433119
128,6.096927165985107,12.611621856689453,76.82172393798828,-4.78540363364173,13.573419501694007,-109.87924013500201,-28.088448,18.140392,27.796112,33.17418,-13.428914,3.163658,-25.009378,-5.824902,-13.578763,11.509855,-1.5456388,9.899373,-6.8195477,-29.793802,28.724874,-55.375446,11.277601,-57.641617,69.88907,0.45876014,-11.954109,20.502623,-12.119263,-26.947916,35.284836,-53.985443,3.139603,2.569108,-26.080696
129,6.108145236968994,12.67561149597168,76.88131713867188,-5.014250159615264,13.76496930029253,-109.76182676676996,-28.389557,18.25779,27.523642,32.950226,-13.183379,3.1841362,-24.954556,-6.240634,-15.2687435,12.828122,-2.4366665,9.141541,-6.5357604,-29.793802,28.637506,-55.170387,11.723498,-57.450275,69.11035,0.8641381,-12.028392,20.74447,-12.469096,-26.816973,35.648514,-54.39082,2.5648096,2.840113,-25.707058
130,6.106823921203613,12.73630142211914,76.93842315673828,-5.223690825864296,13.951840054567436,-109.62173301036012,-28.67264,18.341873,27.239729,32.692844,-12.921935,3.1983225,-24.856691,-6.706642,-16.921421,14.245664,-3.3648877,8.370485,-6.254135,-29.793802,28.539715,-54.927383,12.179612,-57.213215,68.28351,1.1676652,-12.106443,20.961897,-12.804117,-26.662476,35.999573,-54.805447,2.0008588,3.112226,-25.31781
131,6.109863758087158,12.802459716796875,76.98652648925781,-5.403881789313507,14.13421700641151,-109.4505864661851,-28.941097,18.383482,26.9485,32.414043,-12.65034,3.2094584,-24.70126,-7.2102656,-18.482086,15.690022,-4.308012,7.632981,-5.988709,-29.793802,28.421839,-54.63973,12.644282,-56.93599,67.41941,1.4353657,-12.175559,21.190077,-13.147249,-26.493687,36.30913,-55.18436,1.5036983,3.3642807,-24.937351
132,6.10324764251709,12.861950874328613,77.0294418334961,-5.5481299804816695,14.313646644374884,-109.24245101757009,-29.199781,18.377092,26.653723,32.125633,-12.374185,3.2202344,-24.48387,-7.7338014,-19.896103,17.099428,-5.2472057,6.976129,-5.743783,-29.793802,28.286459,-54.313145,13.114014,-56.633526,66.53246,1.7298605,-12.221233,21.464594,-13.483773,-26.318096,36.57539,-55.519264,1.0807141,3.5729609,-24.598633
133,6.089578628540039,12.906742095947266,77.07257080078125,-5.662156694440196,14.492941656383069,-108.9927028765392,-29.458403,18.33089,26.346691,31.837654,-12.097529,3.230122,-24.206362,-8.267279,-21.16103,18.47448,-6.175913,6.412702,-5.516443,-29.750717,28.129145,-53.923683,13.583046,-56.28916,65.58521,2.059927,-12.235757,21.799051,-13.83276,-26.153454,36.775375,-55.782425,0.7407395,3.7390127,-24.314667
134,6.075855731964111,12.95733642578125,77.10700988769531,-5.751501292000032,14.671093995729219,-108.70518801503172,-29.714678,18.249924,26.024536,31.544912,-11.817385,3.2375185,-23.872417,-8.810032,-22.308187,19.837067,-7.097122,5.916538,-5.296278,-29.656021,27.958683,-53.47627,14.047401,-55.90227,64.570465,2.3911269,-12.227727,22.172325,-14.177625,-26.00678,36.915714,-56.00055,0.46338215,3.8739948,-24.070261
135,6.048890113830566,13.00968074798584,77.13555145263672,-5.81041188094135,14.845573503387591,-108.388043468421,-29.96038,18.130884,25.699957,31.243832,-11.532917,3.243372,-23.487152,-9.355065,-23.332996,21.159336,-8.006218,5.477028,-5.0921907,-29.566408,27.778284,-53.00929,14.506991,-55.492687,63.557728,2.7341652,-12.20807,22.5683,-14.501055,-25.878735,37.00682,-56.20718,0.2820477,3.9745107,-23.84728
136,6.015110492706299,13.066350936889648,77.16338348388672,-5.8456324531439225,15.01547924754147,-108.04853706355118,-30.198675,17.983833,25.372704,30.942778,-11.247319,3.2471766,-23.042704,-9.878443,-24.242538,22.384136,-8.887133,5.082141,-4.9062405,-29.480402,27.588688,-52.53271,14.96417,-55.064148,62.563087,3.1037366,-12.188867,22.96926,-14.804897,-25.769733,37.05045,-56.39139,0.22260772,4.0409446,-23.622213
137,5.975703716278076,13.110817909240723,77.18916320800781,-5.858266348357152,15.180149975405005,-107.68806712311834,-30.428375,17.812256,25.042643,30.642334,-10.961466,3.2468493,-22.544418,-10.373453,-25.019676,23.518332,-9.753919,4.740758,-4.744184,-29.397682,27.383268,-52.040096,15.420841,-54.6123,61.585598,3.5084083,-12.171632,23.39176,-15.095006,-25.680752,37.049114,-56.54584,0.29916316,4.068196,-23.393684
138,5.931211471557617,13.155841827392578,77.20799255371094,-5.848613672622481,15.341508460380414,-107.30477931430539,-30.650835,17.616215,24.70841,30.339603,-10.673761,3.242688,-22.000679,-10.843872,-25.670803,24.583378,-10.606845,4.4550943,-4.6020584,-29.31521,27.16276,-51.525826,15.877853,-54.134945,60.613445,3.939938,-12.149479,23.838123,-15.368985,-25.61257,36.999954,-56.680668,0.49732152,4.058891,-23.173206
139,5.889350891113281,13.207507133483887,77.22329711914062,-5.823670271685286,15.50250865963018,-106.90107247300361,-30.875626,17.402227,24.3669,30.040106,-10.3842325,3.2374187,-21.419483,-11.285471,-26.235497,25.568151,-11.413428,4.2025657,-4.4753437,-29.228283,26.937023,-51.0106,16.334278,-53.639782,59.655415,4.3818126,-12.121873,24.26901,-15.62715,-25.565575,36.908882,-56.796154,0.7980445,4.0256476,-22.955172
140,5.841073989868164,13.255579948425293,77.23348999023438,-5.789696932789295,15.666068427404253,-106.47931691225803,-31.112394,17.176458,24.01522,29.750742,-10.093858,3.233593,-20.808094,-11.695279,-26.752626,26.462975,-12.142721,3.960594,-4.3534684,-29.131804,26.71557,-50.506905,16.790928,-53.13791,58.71505,4.820251,-12.090051,24.646215,-15.86576,-25.54066,36.769196,-56.89602,1.1904064,3.981188,-22.733442
141,5.796056747436523,13.300307273864746,77.24076843261719,-5.751801261311123,15.83569786361655,-106.0398680365567,-31.369104,16.943596,23.649614,29.477343,-9.803543,3.23166,-20.177505,-12.067461,-27.204264,27.27809,-12.782331,3.716099,-4.237725,-29.022108,26.49475,-50.011967,17.24574,-52.619274,57.781307,5.2678337,-12.050354,24.957075,-16.08263,-25.5394,36.577465,-56.99062,1.6827786,3.924288,-22.497244
142,5.740239143371582,13.353286743164062,77.24457550048828,-5.7070109484383185,16.009356932049688,-105.58219668617578,-31.639502,16.701334,23.272326,29.214962,-9.512328,3.2297797,-19.52525,-12.403146,-27.579935,28.015732,-13.350305,3.482945,-4.1293406,-28.900793,26.270638,-49.51782,17.698702,-52.08426,56.8553,5.7272344,-12.004875,25.223333,-16.279179,-25.56397,36.3283,-57.07612,2.2856662,3.851128,-22.251846
143,5.682162761688232,13.40958309173584,77.24747467041016,-5.65110610048408,16.182275057255772,-105.10839489676962,-31.913408,16.445827,22.888594,28.95576,-9.218481,3.2268908,-18.841877,-12.712925,-27.929369,28.66481,-13.867582,3.2787714,-4.025483,-28.771791,26.056149,-49.046898,18.149931,-51.556854,55.97032,6.1648536,-11.961736,25.45589,-16.454912,-25.613014,36.049366,-57.14141,2.9568763,3.7689717,-22.017342
144,5.623476028442383,13.46727180480957,77.24578094482422,-5.579693285644233,16.34947862415238,-104.62042839897812,-32.178764,16.172354,22.504272,28.689173,-8.918659,3.2221162,-18.114033,-13.005753,-28.303057,29.20805,-14.351161,3.1215086,-3.923786,-28.639599,25.862408,-48.619316,18.600634,-51.06144,55.159096,6.5476775,-11.929411,25.666416,-16.613441,-25.681982,35.760868,-57.17031,3.662205,3.6847525,-21.813494
145,5.558669567108154,13.527612686157227,77.24076843261719,-5.490349222326995,16.51110343628006,-104.11256471704938,-32.43394,15.875117,22.115932,28.408329,-8.611479,3.2127597,-17.332869,-13.282643,-28.710829,29.637245,-14.811007,3.0310462,-3.833837,-28.504885,25.686201,-48.233612,19.05182,-50.59266,54.434647,6.841792,-11.915971,25.871851,-16.757717,-25.767529,35.452164,-57.137108,4.4429226,3.613379,-21.652338
146,5.493162155151367,13.585360527038574,77.2370376586914,-5.38680544164297,16.66939466462395,-103.58636981292312,-32.68476,15.559128,21.72196,28.119978,-8.298646,3.199842,-16.509571,-13.537726,-29.127836,29.965961,-15.237255,2.992884,-3.7483163,-28.363873,25.522493,-47.876385,19.506603,-50.149242,53.773273,7.0702753,-11.916725,26.062243,-16.883514,-25.867935,35.115707,-57.052654,5.2989,3.5467129,-21.520338
147,5.427170753479004,13.646872520446777,77.23005676269531,-5.274810831384604,16.822586501839005,-103.05474219015643,-32.93325,15.237612,21.330633,27.838003,-7.9834023,3.1881795,-15.661923,-13.769205,-29.552666,30.213156,-15.619884,2.9731061,-3.6602876,-28.218922,25.378223,-47.56136,19.961864,-49.736576,53.170578,7.297069,-11.918297,26.20726,-17.00231,-25.97915,34.790253,-56.954475,6.1366253,3.4560194,-21.39759
148,5.358007907867432,13.718022346496582,77.2184066772461,-5.159843020775815,16.96881910062447,-102.53043956682502,-33.180824,14.923384,20.950104,27.5745,-7.6685524,3.1823976,-14.8082695,-13.976906,-29.983208,30.398895,-15.950107,2.9379299,-3.555717,-28.071232,25.257784,-47.298916,20.4146,-49.370678,52.62058,7.581536,-11.908862,26.277138,-17.124708,-26.095499,34.50818,-56.86986,6.8666706,3.3133137,-21.262774
149,5.289398193359375,13.791661262512207,77.20978546142578,-5.038150297377262,17.106535159072763,-102.01072908610597,-33.426464,14.61332,20.58288,27.333488,-7.3535724,3.1874712,-13.945617,-14.164418,-30.418,30.524065,-16.226154,2.8886206,-3.4234755,-27.919172,25.167877,-47.094734,20.864742,-49.036686,52.152153,7.9316483,-11.889174,26.242847,-17.242987,-26.209919,34.249123,-56.749966,7.529033,3.0592432,-21.135
150,5.209025859832764,13.863309860229492,77.20054626464844,-4.909036865096814,17.2370643754254,-101.49099392665548,-33.669907,14.3028145,20.224434,27.107124,-7.0364556,3.1994715,-13.068643,-14.33068,-30.857826,30.581726,-16.45391,2.8398242,-3.2772865,-27.764406,25.101114,-46.945156,21.310726,-48.730762,51.76672,8.32027,-11.865374,26.127151,-17.36416,-26.318537,34.009766,-56.5876,8.150607,2.7260973,-21.014124
151,5.129717826843262,13.950662612915039,77.18297576904297,-4.7825371768074945,17.363304308838718,-100.98101337269158,-33.916866,14.004579,19.871098,26.895473,-6.7210994,3.2092988,-12.190906,-14.467043,-31.303776,30.577501,-16.63332,2.7776537,-3.1262078,-27.608566,25.044195,-46.84247,21.75128,-48.501717,51.406017,8.746664,-11.834891,25.979313,-17.506142,-26.41978,33.840927,-56.48115,8.614903,2.4236376,-20.854069
152,5.053882122039795,14.0383939743042,77.1690673828125,-4.6691922506089885,17.488496391660895,-100.49082485420263,-34.17469,13.731699,19.518803,26.702599,-6.4132013,3.2080626,-11.328544,-14.566184,-31.755638,30.522417,-16.767416,2.6882021,-2.9794302,-27.452621,24.986496,-46.781315,22.183851,-48.394894,51.01129,9.212543,-11.794158,25.84809,-17.683262,-26.510534,33.800415,-56.53088,8.79573,2.2610164,-20.613058
153,4.974947929382324,14.1297025680542,77.15309143066406,-4.574539590338618,17.61411400724092,-100.0173194973475,-34.446194,13.487805,19.158596,26.52645,-6.1110306,3.1911752,-10.475921,-14.614618,-32.214382,30.397413,-16.825691,2.5707445,-2.8479235,-27.297516,24.922037,-46.778946,22.603874,-48.440395,50.58345,9.75906,-11.749756,25.730831,-17.910841,-26.58771,33.922325,-56.791267,8.581413,2.2868743,-20.208233
154,4.891651630401611,14.234149932861328,77.13381958007812,-4.492594975852492,17.738520090009587,-99.55720196548424,-34.728584,13.266417,18.794413,26.368134,-5.813863,3.1637666,-9.630041,-14.620045,-32.678112,30.206886,-16.818926,2.4317088,-2.7265992,-27.142796,24.855337,-46.839005,23.00819,-48.608223,50.157875,10.371789,-11.701691,25.606783,-18.184168,-26.648214,34.170284,-57.194374,8.066057,2.4321978,-19.68557
155,4.804513931274414,14.337408065795898,77.11607360839844,-4.415802401425047,17.860825373758125,-99.12027704891749,-35.016003,13.063818,18.442865,26.22584,-5.5234594,3.1316402,-8.807665,-14.607146,-33.14399,29.987896,-16.806633,2.2680922,-2.6043541,-26.98885,24.792883,-46.939774,23.394407,-48.847557,49.729877,10.972596,-11.634194,25.497421,-18.489882,-26.688032,34.509132,-57.65102,7.421811,2.6311233,-19.197943
156,4.714601039886475,14.45470142364502,77.09231567382812,-4.33669991108168,17.97996864847957,-98.7164822428411,-35.303932,12.876033,18.12049,26.099987,-5.242651,3.100751,-8.025549,-14.600917,-33.609325,29.777796,-16.848242,2.0772007,-2.4742546,-26.83799,24.73927,-47.058243,23.760458,-49.103413,49.297016,11.484545,-11.530101,25.423864,-18.818888,-26.703663,34.90546,-58.074234,6.8267803,2.8250618,-18.899536
157,4.632848739624023,14.577484130859375,77.06497955322266,-4.253997094880182,18.096322115328306,-98.34661527571377,-35.593605,12.70316,17.829319,25.993763,-4.9722376,3.0704424,-7.286856,-14.60341,-34.072323,29.584034,-16.968369,1.8349069,-2.3268049,-26.690432,24.69957,-47.19776,24.106184,-49.409225,48.84238,11.901128,-11.368382,25.392172,-19.175522,-26.692753,35.40556,-58.46264,6.2691264,3.0248015,-18.87336
158,4.550050735473633,14.707939147949219,77.03429412841797,-4.171842223472115,18.210468070377768,-98.00615098658919,-35.88722,12.546553,17.561234,25.906134,-4.7108626,3.038282,-6.584333,-14.603806,-34.53442,29.389603,-17.1339,1.5511358,-2.1657207,-26.544874,24.668303,-47.35845,24.432878,-49.775402,48.36645,12.26486,-11.1628475,25.391111,-19.558897,-26.652437,36.011044,-58.855034,5.670863,3.257717,-19.02202
159,4.4577507972717285,14.842963218688965,77.00342559814453,-4.090423745545126,18.322034115620166,-97.69723094398292,-36.182476,12.406074,17.317415,25.831654,-4.457645,3.0077374,-5.915963,-14.606808,-34.998405,29.190495,-17.316116,1.2741808,-2.0128632,-26.402897,24.634922,-47.53406,24.738401,-50.117405,47.91185,12.557895,-10.948649,25.41449,-19.965351,-26.580591,36.61718,-59.21008,5.1246347,3.4878206,-19.231205
160,4.3700456619262695,14.990663528442383,76.96693420410156,-4.009873248836629,18.430733184144454,-97.42194167337067,-36.477257,12.281096,17.099506,25.765963,-4.2124634,2.982693,-5.2795196,-14.6160555,-35.468266,28.980467,-17.484482,1.0514307,-1.8752209,-26.261879,24.590563,-47.700333,25.023598,-50.35471,47.501923,12.76966,-10.761988,25.457512,-20.377335,-26.477203,37.109627,-59.489853,4.7175264,3.675967,-19.388584
161,4.286259651184082,15.148154258728027,76.92662811279297,-3.9292525132411322,18.538824767002808,-97.17849048501573,-36.77598,12.169434,16.907095,25.712803,-3.9780498,2.9670904,-4.6708517,-14.634003,-35.959473,28.757942,-17.646526,0.8963467,-1.7184899,-26.11471,24.53181,-47.76622,25.303228,-50.45481,47.074135,12.935371,-10.617108,25.535994,-20.75711,-26.344885,37.44416,-59.68417,4.4687824,3.807023,-19.479889
162,4.205304145812988,15.308520317077637,76.88272857666016,-3.8484358018237166,18.64615217383894,-96.96688435154157,-37.078884,12.071552,16.740204,25.67427,-3.7540903,2.9583848,-4.092402,-14.658316,-36.4657,28.525015,-17.812288,0.7836106,-1.5764799,-25.97113,24.467194,-47.823193,25.574007,-50.474117,46.675076,13.011634,-10.490363,25.643867,-21.144897,-26.18591,37.70624,-59.817898,4.332391,3.9023263,-19.562813
163,4.12393045425415,15.475696563720703,76.83576202392578,-3.7707336670353597,18.748656797250426,-96.79166019061893,-37.376015,11.99136,16.60043,25.639439,-3.5337512,2.9512513,-3.5527527,-14.687066,-36.95738,28.287891,-17.957085,0.7020961,-1.4533875,-25.828384,24.395527,-47.88662,25.833578,-50.41347,46.30061,13.022441,-10.3710985,25.757168,-21.559292,-25.996347,37.893192,-59.8917,4.300557,3.9765599,-19.628387
164,4.043303489685059,15.651766777038574,76.79086303710938,-3.700042576100809,18.84229530968977,-96.6572109221612,-37.658455,11.9333,16.488012,25.599138,-3.3109944,2.9403105,-3.0615067,-14.719064,-37.405674,28.056118,-18.056496,0.640295,-1.3098507,-25.674845,24.316593,-47.893612,26.098257,-50.268673,45.867752,13.033798,-10.251714,25.85571,-21.976141,-25.78428,37.966187,-59.914833,4.366001,4.044492,-19.665684
165,3.963660478591919,15.840957641601562,76.747314453125,-3.6387560428258006,18.928010617627283,-96.56382640309863,-37.929047,11.898435,16.400015,25.554987,-3.0848544,2.925697,-2.619046,-14.748712,-37.806515,27.821898,-18.104464,0.5996016,-1.1679906,-25.511248,24.230486,-47.87,26.374344,-50.020927,45.380455,13.008798,-10.132935,25.925304,-22.408236,-25.557497,37.902615,-59.911663,4.548341,4.1190267,-19.63844
166,3.8881118297576904,16.039947509765625,76.70669555664062,-3.5848391551807377,19.007689720002123,-96.50965217493575,-38.191887,11.884647,16.33704,25.512186,-2.85912,2.9103372,-2.22196,-14.779892,-38.174355,27.586306,-18.113266,0.58352935,-1.0261903,-25.339602,24.138607,-47.806637,26.666555,-49.674126,44.84058,12.94282,-10.018528,25.98038,-22.848866,-25.323149,37.716236,-59.879208,4.844936,4.189113,-19.56431
167,3.8171143531799316,16.240873336791992,76.66560363769531,-3.53410062429786,19.0783664152321,-96.49595125209676,-38.436672,11.890068,16.306286,25.460983,-2.6321688,2.8925006,-1.8698021,-14.824078,-38.508076,27.359756,-18.090385,0.5838925,-0.8835348,-25.166616,24.050718,-47.727394,26.976559,-49.27319,44.27774,12.867355,-9.89798,26.035494,-23.298925,-25.087702,37.47425,-59.800945,5.215969,4.2318335,-19.516973
168,3.752408504486084,16.44944190979004,76.62736511230469,-3.4832250076606877,19.137249352402588,-96.52419523108316,-38.654316,11.9144,16.314304,25.394735,-2.4034379,2.8701754,-1.5607016,-14.891531,-38.80713,27.149977,-18.041733,0.5924291,-0.7325774,-24.998014,23.973969,-47.64277,27.30625,-48.86326,43.71276,12.820664,-9.761668,26.106312,-23.756994,-24.8539,37.243042,-59.65271,5.620809,4.22391,-19.568357
169,3.684077024459839,16.671981811523438,76.59100341796875,-3.430701680115578,19.183488787458945,-96.60090246650219,-38.83973,11.958785,16.367718,25.308197,-2.1724324,2.8407824,-1.2967706,-14.990941,-39.07639,26.963276,-17.973116,0.60400957,-0.5657797,-24.836302,23.911453,-47.550404,27.6575,-48.436047,43.114445,12.821558,-9.587219,26.194279,-24.220924,-24.626368,37.019753,-59.44062,6.062749,4.1459246,-19.760798
170,3.6072044372558594,16.895713806152344,76.55613708496094,-3.378958540538679,19.21883574683373,-96.72347027741314,-38.99888,12.023238,16.461348,25.206343,-1.9393209,2.8061445,-1.077888,-15.115568,-39.314598,26.793877,-17.879913,0.6236375,-0.3885641,-24.67764,23.859001,-47.440075,28.032282,-47.972397,42.477665,12.848071,-9.386094,26.2917,-24.68896,-24.40904,36.775364,-59.17664,6.5592666,4.012566,-20.047363
171,3.5488288402557373,17.126909255981445,76.5237045288086,-3.329070039231572,19.244356243605512,-96.87920030015572,-39.139244,12.105308,16.584063,25.096684,-1.7052794,2.770683,-0.9014571,-15.253996,-39.51156,26.636019,-17.75429,0.6587118,-0.21078476,-24.518272,23.818417,-47.319744,28.431427,-47.50424,41.864788,12.873348,-9.200092,26.39988,-25.148357,-24.203613,36.530212,-58.865566,7.0878677,3.8509164,-20.367746
172,3.4929115772247314,17.367496490478516,76.49177551269531,-3.2823452394254042,19.260785296577904,-97.05555210324033,-39.267883,12.202514,16.72478,24.98688,-1.4715952,2.7387054,-0.7642802,-15.393986,-39.65713,26.482656,-17.587996,0.71665514,-0.0424959,-24.354443,23.790668,-47.19939,28.854044,-47.064007,41.341537,12.870753,-9.071193,26.52043,-25.58844,-24.00926,36.30399,-58.50888,7.6285005,3.6895254,-20.661236
173,3.4293034076690674,17.615692138671875,76.45712280273438,-3.244383864056728,19.269676377310947,-97.25863940763948,-39.38369,12.323174,16.88539,24.874512,-1.2389752,2.709629,-0.6863992,-15.555591,-39.768093,26.393082,-17.373436,0.6834535,0.119976945,-24.183725,23.773829,-47.083534,29.299631,-46.655323,40.91925,12.846844,-9.019837,26.668234,-26.002579,-23.824728,36.085,-58.118828,8.176286,3.5409253,-20.912558
174,3.368208885192871,17.866201400756836,76.42694854736328,-3.212695482332846,19.270158491618513,-97.4920732814896,-39.485405,12.466072,17.06999,24.759865,-1.0083,2.6816015,-0.6638584,-15.739091,-39.84306,26.353405,-17.11845,0.5937122,0.28066978,-24.009222,23.768396,-46.967327,29.767439,-46.263744,40.566994,12.811125,-9.020774,26.837908,-26.396122,-23.650549,35.86674,-57.69193,8.742607,3.388426,-21.153028
175,3.3093299865722656,18.1263370513916,76.39279174804688,-3.1758341732221256,19.260027567298863,-97.7392375683015,-39.57417,12.61354,17.271704,24.643782,-0.7743109,2.6570704,-0.6546483,-15.898608,-39.843822,26.237099,-16.832087,0.6771108,0.4304372,-23.835463,23.77885,-46.849007,30.254717,-45.894676,40.289143,12.741984,-9.04774,27.000875,-26.776339,-23.486877,35.67811,-57.20585,9.32961,3.2170897,-21.393196
176,3.248929262161255,18.395666122436523,76.35916900634766,-3.1228533971293557,19.2368125988369,-97.98338802816443,-39.6539,12.748423,17.483213,24.531517,-0.5341626,2.638559,-0.61635256,-15.9861965,-39.730927,25.914457,-16.520803,1.163467,0.55983096,-23.667063,23.809526,-46.72791,30.756819,-45.554077,40.091503,12.617464,-9.074626,27.128338,-27.1513,-23.332611,35.55043,-56.635292,9.938019,3.0120473,-21.643244
177,3.191460609436035,18.671018600463867,76.32025146484375,-3.0460675440197913,19.198737125274906,-98.22129650935398,-39.719048,12.861721,17.70829,24.41588,-0.28250635,2.6268952,-0.50343996,-15.96804,-39.503468,25.25377,-16.133175,2.27842,0.66729766,-23.50998,23.860216,-46.605507,31.270178,-45.247154,39.98849,12.410021,-9.101139,27.213936,-27.527822,-23.18661,35.488747,-55.959538,10.586414,2.7606583,-21.893135
178,3.133024215698242,18.953222274780273,76.27703094482422,-2.94929475992623,19.14764631712734,-98.46176851359992,-39.76864,12.961652,17.952478,24.297586,-0.021952385,2.6210613,-0.34617952,-15.878374,-39.179386,24.348001,-15.679315,3.8436038,0.75927436,-23.363308,23.929003,-46.48588,31.792961,-44.971176,39.978462,12.139027,-9.1395,27.272356,-27.898226,-23.04715,35.47743,-55.19423,11.266041,2.473321,-22.140617
179,3.0683021545410156,19.244049072265625,76.23640441894531,-2.8407575583463283,19.085754289194035,-98.70567335363336,-39.808136,13.056029,18.210041,24.18053,0.24077834,2.6207764,-0.21721596,-15.773711,-38.7494,23.414467,-15.264751,5.4831004,0.8368386,-23.220156,24.016827,-46.37162,32.3228,-44.71963,40.045403,11.853069,-9.1817,27.307648,-28.252142,-22.912422,35.51371,-54.374702,11.942816,2.1696763,-22.407387
180,3.0116686820983887,19.542316436767578,76.18614959716797,-2.732278021755632,19.015584192093794,-98.95342975794803,-39.850048,13.15728,18.469822,24.082396,0.49645355,2.625096,-0.19046782,-15.706471,-38.2044,22.674185,-14.997324,6.8230486,0.90091705,-23.068537,24.125406,-46.265682,32.85729,-44.48565,40.17303,11.601243,-9.219609,27.324232,-28.57981,-22.779697,35.596764,-53.532246,12.580201,1.8681546,-22.716032
181,2.95870304107666,19.84663963317871,76.13706970214844,-2.6316172285212853,18.93778387853034,-99.2030771907664,-39.89967,13.270896,18.72459,24.00696,0.7436153,2.635298,-0.294265,-15.674578,-37.507977,22.168304,-14.903232,7.7749753,0.9486031,-22.900688,24.255016,-46.169434,33.394524,-44.25997,40.371826,11.399101,-9.243278,27.32793,-28.882938,-22.648724,35.73668,-52.65647,13.170502,1.5817125,-23.087194
182,2.902329444885254,20.159032821655273,76.08755493164062,-2.5327797372699963,18.8510588498552,-99.45467229447766,-39.951996,13.391896,18.97905,23.949556,0.9853149,2.6512256,-0.48496917,-15.653015,-36.67883,21.788029,-14.928841,8.535473,0.9805423,-22.721424,24.40504,-46.082993,33.93375,-44.048954,40.648033,11.220367,-9.259684,27.31519,-29.165886,-22.51857,35.9309,-51.735428,13.731406,1.2959292,-23.504225
183,2.8451645374298096,20.47319984436035,76.03121948242188,-2.4314164511754623,18.754083568418864,-99.71123861853104,-40.00509,13.518419,19.236767,23.912342,1.220819,2.6696906,-0.7331025,-15.655884,-35.789528,21.53524,-15.065072,9.159619,1.0010469,-22.53585,24.574059,-46.006084,34.47402,-43.868458,40.979645,11.050918,-9.285919,27.276283,-29.424532,-22.385206,36.158566,-50.79703,14.266273,0.9946653,-23.934523
184,2.7928659915924072,20.79659080505371,75.96815490722656,-2.322988069239064,18.6457332349456,-99.97591150591256,-40.05817,13.649908,19.501163,23.900019,1.4481848,2.6874213,-1.0086312,-15.6964655,-34.912876,21.406082,-15.2986,9.70232,1.0149318,-22.349537,24.760277,-45.939648,35.01397,-43.7361,41.346573,10.876434,-9.339435,27.201422,-29.654993,-22.242973,36.39807,-49.868797,14.7793865,0.6625936,-24.343956
185,2.743171453475952,21.1260986328125,75.89826202392578,-2.2047801646302028,18.52583915025368,-100.25024251557124,-40.11156,13.784553,19.773592,23.914057,1.6680688,2.705378,-1.3224953,-15.78486,-34.03621,21.431774,-15.658111,10.140318,1.0255032,-22.164486,24.964453,-45.88966,35.55157,-43.660202,41.76301,10.686782,-9.424512,27.077473,-29.860268,-22.08668,36.65411,-48.928802,15.288768,0.26298007,-24.750332
186,2.689807415008545,21.458904266357422,75.82697296142578,-2.0808465038382478,18.39516629354003,-100.53232849527475,-40.166477,13.924702,20.050793,23.952904,1.8807341,2.724681,-1.6869297,-15.906967,-33.130123,21.601328,-16.137146,10.457498,1.0297338,-21.976885,25.18557,-45.85723,36.085,-43.6331,42.23806,10.491591,-9.531847,26.91332,-30.044436,-21.913631,36.93465,-47.965767,15.785226,-0.18466826,-25.160835
187,2.641105890274048,21.80672264099121,75.7491683959961,-1.9559160198195518,18.25365215998863,-100.82032230629493,-40.22186,14.074315,20.330038,24.015682,2.0845625,2.7424953,-2.0766666,-16.04491,-32.241932,21.857632,-16.675215,10.719668,1.0226244,-21.784561,25.418646,-45.836506,36.61365,-43.648987,42.74434,10.306028,-9.657765,26.73321,-30.207695,-21.723299,37.226196,-47.019485,16.233006,-0.6090809,-25.526865
188,2.5855093002319336,22.154144287109375,75.6673583984375,-1.834753740183657,18.101545196905516,-101.11244150469454,-40.27663,14.237673,20.608402,24.1009,2.2781444,2.7557695,-2.467674,-16.18434,-31.419872,22.149458,-17.215569,10.992355,1.0004119,-21.584053,25.659628,-45.842052,37.13979,-43.723564,43.265373,10.124003,-9.799319,26.560678,-30.346788,-21.516996,37.51191,-46.133778,16.598202,-0.9380946,-25.802326
189,2.535130023956299,22.503084182739258,75.58294677734375,-1.7148537854415271,17.93332031056581,-101.40886952060953,-40.323864,14.413619,20.889212,24.209698,2.4591424,2.761272,-2.8477407,-16.326296,-30.670704,22.462164,-17.745436,11.29622,0.96261716,-21.382002,25.914465,-45.82255,37.65987,-43.811665,43.772118,9.9927225,-9.972628,26.396528,-30.455765,-21.297289,37.78462,-45.327656,16.845463,-1.1252097,-25.946947
190,2.4896504878997803,22.860424041748047,75.4946060180664,-1.5949605276725105,17.75093226496192,-101.71034283589309,-40.366615,14.601286,21.172094,24.343267,2.628472,2.7612648,-3.2331948,-16.477602,-29.970114,22.82567,-18.295595,11.595202,0.9111934,-21.17497,26.182432,-45.828144,38.17763,-43.960613,44.304558,9.860358,-10.174894,26.229372,-30.538507,-21.065077,38.054684,-44.574818,17.00384,-1.2161058,-25.998278
191,2.439345121383667,23.22153091430664,75.40418243408203,-1.4814349848386743,17.564688574062323,-102.01601315839602,-40.417114,14.804001,21.449957,24.496193,2.7921927,2.7608774,-3.6378145,-16.631557,-29.32165,23.247187,-18.870121,11.86989,0.84781104,-20.954903,26.453815,-45.861732,38.692284,-44.16088,44.84783,9.737954,-10.369775,26.06797,-30.600756,-20.820177,38.327965,-43.85861,17.137611,-1.2766212,-26.023201
192,2.388943672180176,23.594751358032227,75.31478118896484,-1.3801234812900898,17.38511514019148,-102.3248752653132,-40.486362,15.024069,21.715681,24.660904,2.957395,2.7648535,-4.0724564,-16.779634,-28.728685,23.726952,-19.470758,12.1003685,0.77051693,-20.71709,26.719213,-45.862633,39.193405,-44.327133,45.352943,9.70642,-10.519244,25.922117,-30.649307,-20.561264,38.61348,-43.16733,17.310175,-1.3733002,-26.087725
193,2.3420441150665283,23.968259811401367,75.2181625366211,-1.2888988354525661,17.213879305682838,-102.63120312247234,-40.58129,15.257926,21.967833,24.844498,3.12121,2.780738,-4.534561,-16.925268,-28.206429,24.264437,-20.10535,12.297626,0.67588687,-20.4582,26.976532,-45.86262,39.680153,-44.498695,45.841774,9.774851,-10.623252,25.820845,-30.682468,-20.286686,38.91095,-42.50512,17.543644,-1.5142369,-26.20608
194,2.28932785987854,24.344249725341797,75.11962890625,-1.2054418689591622,17.04589614966347,-102.9374605404243,-40.692944,15.505169,22.209581,25.043509,3.284095,2.8029134,-5.018425,-17.06953,-27.746592,24.853836,-20.768713,12.465629,0.5662175,-20.183138,27.231457,-45.85047,40.14896,-44.66499,46.316204,9.940044,-10.698317,25.751467,-30.696894,-19.995203,39.216,-41.876656,17.80137,-1.6675279,-26.343672
195,2.2392475605010986,24.71866226196289,75.02020263671875,-1.1367344198431715,16.880348730926283,-103.25436686281965,-40.81523,15.775992,22.44233,25.252398,3.4473107,2.8197525,-5.5405817,-17.209066,-27.319742,25.518496,-21.450064,12.579064,0.44628996,-19.888838,27.478376,-45.837254,40.599937,-44.827522,46.783268,10.108775,-10.7365,25.65832,-30.711555,-19.686777,39.54113,-41.243324,18.06096,-1.8395203,-26.494656
196,2.1944801807403564,25.10763931274414,74.92010498046875,-1.0889149026967748,16.716732715791878,-103.59284854790641,-40.938683,16.07861,22.666512,25.457556,3.6167545,2.817912,-6.1157947,-17.336166,-26.892805,26.272709,-22.134716,12.6095,0.31933916,-19.57479,27.712982,-45.796745,41.030643,-44.942978,47.22789,10.227386,-10.728909,25.48592,-30.743277,-19.361341,39.89663,-40.571457,18.300617,-2.0367298,-26.653536
197,2.14509654045105,25.494544982910156,74.82099151611328,-1.0684273288561215,16.555534508033702,-103.95068889867915,-41.06707,16.417032,22.874287,25.658829,3.7930639,2.7909408,-6.745292,-17.445599,-26.474878,27.124193,-22.827124,12.537913,0.1818105,-19.233553,27.932709,-45.720543,41.43908,-44.984234,47.634575,10.31018,-10.650932,25.198963,-30.802294,-19.017748,40.295715,-39.838604,18.525623,-2.2832055,-26.83179
198,2.0905873775482178,25.888946533203125,74.72036743164062,-1.0691014851408749,16.396729250181544,-104.32380007000205,-41.20426,16.78584,23.06744,25.864243,3.9748292,2.746122,-7.4210925,-17.540571,-26.07496,28.0587,-23.52913,12.382667,0.030700838,-18.870926,28.140879,-45.585426,41.821484,-44.93134,47.99729,10.418012,-10.514076,24.83363,-30.879452,-18.654177,40.730663,-39.066303,18.743631,-2.56851,-27.028057
199,2.0462918281555176,26.287731170654297,74.61937713623047,-1.0794100028905054,16.238477568735124,-104.71989333864576,-41.336086,17.178158,23.265089,26.063866,4.1609945,2.6943226,-8.143558,-17.627611,-25.663961,29.06354,-24.22495,12.174782,-0.12813827,-18.49887,28.33867,-45.42857,42.1844,-44.86532,48.361908,10.464626,-10.36618,24.441113,-30.966301,-18.270098,41.1852,-38.279224,18.934584,-2.846958,-27.218796
200,1.9993958473205566,26.68990707397461,74.5218276977539,-1.0880410180468467,16.079244840903,-105.1469802342887,-41.449654,17.587843,23.486456,26.250374,4.350582,2.6463287,-8.913323,-17.713299,-25.212881,30.125679,-24.89808,11.94533,-0.28579435,-18.132935,28.53063,-45.261673,42.53372,-44.834515,48.756313,10.395587,-10.252584,24.073296,-31.048897,-17.866392,41.639393,-37.510048,19.077911,-3.0722046,-27.379925
201,1.9515268802642822,27.096494674682617,74.42193603515625,-1.101297156711517,15.922845723170408,-105.60869998846685,-41.555504,18.023167,23.72674,26.430342,4.5422044,2.6059837,-9.746171,-17.792898,-24.72316,31.267014,-25.551863,11.677816,-0.44064876,-17.769594,28.716887,-45.059982,42.86753,-44.805264,49.174763,10.189262,-10.177314,23.724459,-31.12224,-17.443136,42.089222,-36.770813,19.140831,-3.2267663,-27.495556
202,1.9050164222717285,27.500980377197266,74.32472229003906,-1.121891590119368,15.768475326512142,-106.10017885497705,-41.656555,18.484701,23.979965,26.607637,4.734618,2.5683005,-10.634912,-17.863134,-24.208332,32.482365,-26.1897,11.36533,-0.5960981,-17.402739,28.895077,-44.84259,43.188004,-44.790527,49.614025,9.856593,-10.11732,23.373707,-31.193743,-17.00104,42.544857,-36.042427,19.144567,-3.3363822,-27.581778
203,1.8631659746170044,27.90960693359375,74.22698974609375,-1.1313446061026216,15.608084913704612,-106.61690701276741,-41.725185,18.951937,24.262611,26.762285,4.934133,2.5285327,-11.548441,-17.93071,-23.653765,33.720497,-26.79906,11.049989,-0.7505966,-17.049763,29.069693,-44.62289,43.499672,-44.820374,50.06822,9.470642,-10.075637,23.050138,-31.262897,-16.543264,43.00207,-35.321568,19.150267,-3.4197917,-27.663254
204,1.8118427991867065,28.32805824279785,74.128173828125,-1.1115742725274278,15.433495782782263,-107.1541693674743,-41.735992,19.405493,24.592096,26.881254,5.1422997,2.4832304,-12.454925,-18.003664,-23.047009,34.930992,-27.36723,10.775663,-0.9026469,-16.732355,29.247602,-44.374912,43.801086,-44.86653,50.510822,9.156719,-10.054743,22.78228,-31.326927,-16.076227,43.455196,-34.616165,19.221197,-3.4958663,-27.762695
205,1.7622175216674805,28.743946075439453,74.02936553955078,-1.0581027923424275,15.238308553130336,-107.72212075608282,-41.67778,19.849087,24.982147,26.969759,5.3565784,2.4289653,-13.362351,-18.086208,-22.365587,36.131172,-27.887888,10.550402,-1.0415362,-16.454323,29.436434,-44.129673,44.099407,-44.977573,50.962044,8.892159,-10.074719,22.598646,-31.379017,-15.605938,43.90142,-33.94355,19.391514,-3.5446045,-27.865683
206,1.7217698097229004,29.152437210083008,73.93507385253906,-0.9801313400642185,15.028798692798992,-108.31974563286093,-41.56521,20.289652,25.42184,27.032787,5.576712,2.368929,-14.282302,-18.171278,-21.623474,37.33769,-28.368624,10.35276,-1.169089,-16.208208,29.63446,-43.859356,44.391933,-45.105766,51.40703,8.668377,-10.127287,22.476082,-31.415205,-15.136463,44.339867,-33.31057,19.62373,-3.5648017,-27.966366
207,1.67460036277771,29.56180191040039,73.83927917480469,-0.8799416713361565,14.823402273888414,-108.92535266206943,-41.422123,20.71327,25.890148,27.05875,5.80965,2.3095868,-15.197665,-18.251015,-20.862108,38.50134,-28.818407,10.181871,-1.3193542,-15.982656,29.793802,-43.554073,44.673416,-45.257927,51.841297,8.4644,-10.178535,22.366991,-31.438267,-14.660996,44.79388,-32.669994,19.873207,-3.6067502,-28.106081
208,1.6305571794509888,29.97185516357422,73.74364471435547,-0.7605263172831946,14.65884843808818,-109.5183806600406,-41.284946,21.10185,26.369947,27.015518,6.0715785,2.2591214,-16.114223,-18.31867,-20.121603,39.57475,-29.244143,10.035485,-1.5415171,-15.769755,29.793802,-43.18457,44.939335,-45.479095,52.27648,8.227429,-10.194661,22.219063,-31.414797,-14.168285,45.298084,-31.965368,20.11051,-3.7240481,-28.320568
209,1.580865502357483,30.383813858032227,73.64736938476562,-0.6090829101365065,14.49543710989114,-110.10141361662205,-41.116577,21.451876,26.870604,26.930609,6.3543973,2.2329621,-16.987526,-18.390461,-19.393873,40.55514,-29.648193,9.935282,-1.7791748,-15.580892,29.793802,-42.8074,45.186157,-45.71466,52.67899,8.047234,-10.168485,22.045341,-31.412434,-13.666413,45.808247,-31.208506,20.304926,-3.9525769,-28.655674
210,1.532600998878479,30.791837692260742,73.55358123779297,-0.42903536863053654,14.330628944340043,-110.68273324078417,-40.912785,21.770435,27.397152,26.805796,6.655041,2.2219002,-17.830137,-18.464344,-18.664251,41.46594,-30.027483,9.875603,-2.026301,-15.410542,29.793802,-42.461384,45.420406,-46.029083,53.076576,7.8636136,-10.118876,21.865908,-31.420944,-13.159783,46.320927,-30.420414,20.477995,-4.2573757,-29.080164
211,1.4754523038864136,31.201379776000977,73.46417999267578,-0.24514697231261617,14.171185315871242,-111.24549836755482,-40.690975,22.065372,27.91432,26.632538,6.957778,2.191447,-18.627157,-18.513494,-17.970737,42.292255,-30.388704,9.819888,-2.2951064,-15.240079,29.793802,-42.11814,45.63723,-46.351852,53.44976,7.6909413,-10.041098,21.652317,-31.431505,-12.6562195,46.81654,-29.630384,20.620617,-4.561563,-29.512941
212,1.4217768907546997,31.60545539855957,73.37732696533203,-0.08292605119272596,14.023042460265916,-111.77267749472459,-40.467396,22.343687,28.386715,26.398191,7.250044,2.1063783,-19.363722,-18.512138,-17.352024,43.021015,-30.738974,9.730355,-2.599774,-15.043759,29.793802,-41.78199,45.83598,-46.66585,53.79596,7.494152,-9.931808,21.377525,-31.438177,-12.164883,47.27905,-28.86109,20.724083,-4.7880898,-29.875925
213,1.3587701320648193,32.00154113769531,73.29540252685547,0.05546971017972544,13.8844376575657,-112.26371152268321,-40.240257,22.602219,28.808247,26.092024,7.562168,1.9541196,-20.024595,-18.45941,-16.82977,43.63119,-31.091846,9.5874,-2.9436731,-14.817796,29.793802,-41.44367,46.015373,-46.962254,54.111572,7.2513204,-9.779554,21.008678,-31.429049,-11.693237,47.701767,-28.125853,20.77734,-4.8972063,-30.152029
214,1.2970129251480103,32.40202713012695,73.22102355957031,0.18133676867962123,13.753530908039913,-112.72646470200849,-40.005844,22.83603,29.195683,25.721039,7.8936005,1.7527484,-20.622519,-18.370895,-16.37979,44.138256,-31.44063,9.4124775,-3.3186414,-14.571883,29.793802,-41.11144,46.176277,-47.2642,54.402843,6.975562,-9.588957,20.569584,-31.405909,-11.2460785,48.09578,-27.417658,20.790606,-4.936394,-30.383774
215,1.2274893522262573,32.80448532104492,73.14503479003906,0.2887251524339839,13.636089689103198,-113.15689887895876,-39.775948,23.049093,29.548716,25.295021,8.187923,1.5118201,-21.183947,-18.245134,-15.971363,44.57942,-31.75954,9.229715,-3.7198057,-14.304575,29.793802,-40.7919,46.317665,-47.565247,54.668777,6.718432,-9.380227,20.116905,-31.377426,-10.8279295,48.468037,-26.742828,20.788,-4.959158,-30.581463
216,1.1528570652008057,33.20341110229492,73.07569122314453,0.37133720767621636,13.537438372763216,-113.55069904237604,-39.560604,23.24729,29.86654,24.823002,8.388592,1.2396544,-21.7358,-18.07998,-15.574461,44.99443,-32.024353,9.063645,-4.1436005,-14.012575,29.793802,-40.503914,46.441124,-47.880196,54.91394,6.5110264,-9.1756525,19.707403,-31.355707,-10.44354,48.82788,-26.103443,20.793032,-5.0191126,-30.755436
217,1.0742827653884888,33.597354888916016,73.01441955566406,0.4119309970283396,13.463124159911269,-113.90012540677294,-39.375538,23.44592,30.129158,24.308035,8.499902,0.915614,-22.274412,-17.853361,-15.188467,45.37148,-32.22645,8.930585,-4.595791,-13.675972,29.793802,-40.21197,46.53961,-48.147194,55.11541,6.441598,-8.966187,19.340395,-31.329878,-10.097537,49.1741,-25.5076,20.825415,-5.151884,-30.897554
218,0.997761070728302,33.987754821777344,72.95905303955078,0.417529677541929,13.40837221405874,-114.2100968220831,-39.206516,23.63653,30.34294,23.733578,8.553952,0.5396999,-22.788414,-17.573795,-14.828333,45.697357,-32.380096,8.813538,-5.076926,-13.297189,29.793802,-39.943874,46.617233,-48.42522,55.29114,6.4267635,-8.747628,18.991404,-31.297096,-9.792474,49.507027,-24.952105,20.869009,-5.322191,-31.007128
219,0.9169633388519287,34.37899398803711,72.91564178466797,0.4206686327709793,13.364867925080643,-114.49534532603865,-39.02559,23.799204,30.556591,23.107227,8.508081,0.16126956,-23.29485,-17.28659,-14.486781,46.00797,-32.493927,8.689985,-5.569884,-12.925982,29.793802,-39.685116,46.6708,-48.686813,55.449856,6.4385777,-8.5434885,18.675062,-31.265821,-9.528677,49.82486,-24.449808,20.894093,-5.476749,-31.10184
220,0.8367124199867249,34.764225006103516,72.8795166015625,0.45370320680831233,13.323861914424864,-114.77084836194379,-38.80163,23.912653,30.818287,22.431885,8.322465,-0.1714775,-23.809425,-17.03636,-14.156297,46.33592,-32.57427,8.53768,-6.060783,-12.607454,29.793802,-39.448406,46.701595,-48.95121,55.612206,6.404981,-8.378037,18.40784,-31.25135,-9.304315,50.12874,-24.004503,20.870564,-5.562437,-31.200634
221,0.7476451992988586,35.155982971191406,72.85550689697266,0.528365751585659,13.287377328473436,-115.03749350473194,-38.526756,23.967068,31.14365,21.69929,7.9491215,-0.44829848,-24.352541,-16.83837,-13.83147,46.710262,-32.620426,8.345565,-6.548106,-12.353716,29.793802,-39.245304,46.71205,-49.235924,55.782803,6.3126607,-8.255006,18.196499,-31.268644,-9.118418,50.421528,-23.614304,20.781612,-5.5511065,-31.325766
222,0.6667619347572327,35.54218292236328,72.84223937988281,0.6247247161459966,13.257940587953343,-115.28938843861536,-38.213642,23.97864,31.508368,20.907743,7.421052,-0.6906724,-24.909077,-16.666573,-13.517393,47.103695,-32.62757,8.128002,-7.0377727,-12.139459,29.793802,-39.07027,46.70239,-49.534546,55.95172,6.190392,-8.162443,18.031382,-31.306648,-8.970533,50.701015,-23.27863,20.646116,-5.475179,-31.461073
223,0.5867171287536621,35.91688537597656,72.8456039428711,0.7298249343525504,13.227815161018636,-115.53107032224082,-37.864635,23.963491,31.898966,20.076166,6.8173227,-0.89973533,-25.445477,-16.50396,-13.220095,47.474094,-32.601265,7.900435,-7.526344,-11.956317,29.793802,-38.897377,46.66826,-49.807545,56.11257,6.0493183,-8.1001425,17.904335,-31.343927,-8.859661,50.96007,-22.998388,20.487495,-5.371646,-31.568102
224,0.5125477313995361,36.27452850341797,72.85980987548828,0.8303277420647108,13.18924559274953,-115.76631196148165,-37.482292,23.935062,32.30147,19.221107,6.2192106,-1.0803434,-25.9271,-16.334753,-12.946374,47.77719,-32.546124,7.677957,-8.013075,-11.793852,29.793802,-38.714424,46.61173,-50.042233,56.26222,5.874124,-8.068612,17.808096,-31.357985,-8.790124,51.192863,-22.779673,20.33095,-5.277986,-31.608877
225,0.42804014682769775,36.63037109375,72.8845443725586,0.9340707264478033,13.140840587631711,-115.9921302451474,-37.05039,23.877384,32.731216,18.317207,5.6220875,-1.2222226,-26.35102,-16.168701,-12.696109,48.009438,-32.458992,7.46433,-8.504015,-11.661478,29.793802,-38.536633,46.523205,-50.267498,56.4305,5.605752,-8.091629,17.75806,-31.365446,-8.749578,51.396397,-22.601372,20.178972,-5.2064857,-31.548761
226,0.3621519207954407,36.972434997558594,72.91566467285156,1.0430026458468675,13.085984634053904,-116.20857717673212,-36.57262,23.788494,33.187897,17.36201,4.9936733,-1.3291309,-26.73321,-16.00949,-12.466086,48.1914,-32.338673,7.25149,-8.998011,-11.5599,29.793802,-38.359554,46.407913,-50.474438,56.604393,5.271638,-8.161097,17.751524,-31.36865,-8.745357,51.573536,-22.47544,20.02115,-5.136525,-31.41575
227,0.29381072521209717,37.29636764526367,72.95504760742188,1.1377138688151718,13.022834903300698,-116.42355862581582,-36.0817,23.701418,33.633507,16.411842,4.37167,-1.429536,-27.066307,-15.833751,-12.257758,48.317703,-32.194782,7.0355616,-9.477496,-11.464034,29.793802,-38.190773,46.26262,-50.65691,56.76282,4.9514217,-8.232226,17.75778,-31.343513,-8.775183,51.728863,-22.405762,19.852108,-5.0555897,-31.26605
228,0.21821877360343933,37.60552215576172,73.00031280517578,1.199236614222711,12.949124830252865,-116.6439951740018,-35.60308,23.646393,34.034134,15.509832,3.7958014,-1.5509989,-27.342085,-15.618454,-12.073483,48.381435,-32.036674,6.8125954,-9.926847,-11.347266,29.793802,-38.05445,46.085716,-50.84005,56.893784,4.696531,-8.260997,17.747992,-31.26838,-8.835195,51.865486,-22.392597,19.668375,-4.9508586,-31.155514
229,0.1456257700920105,37.91497802734375,73.04794311523438,1.2087193693716183,12.859829320238614,-116.87111326307249,-35.129135,23.6477,34.416615,14.632217,3.2251441,-1.695613,-27.544146,-15.344586,-11.92711,48.374695,-31.870586,6.5814743,-10.338699,-11.193789,29.793802,-37.893063,45.860912,-50.90966,56.962517,4.641758,-8.2206,17.705503,-31.124102,-8.923197,51.985638,-22.446562,19.471233,-4.817005,-31.10556
230,0.07888806611299515,38.21233367919922,73.09751892089844,1.1810831051414385,12.75663911049093,-117.10102656074416,-34.645813,23.680773,34.79003,13.757624,2.6597915,-1.8532112,-27.680214,-15.028719,-11.813281,48.302425,-31.690948,6.3434978,-10.725593,-11.015851,29.793802,-37.74132,45.58918,-50.937572,57.004925,4.679824,-8.141585,17.650818,-30.933327,-9.036902,52.09176,-22.549984,19.26024,-4.661579,-31.085575
231,0.015003045089542866,38.498260498046875,73.15299224853516,1.1510488681985824,12.650455656087779,-117.33179817072374,-34.19712,23.719027,35.0841,12.99381,2.1805456,-2.027287,-27.783909,-14.706589,-11.70431,48.181976,-31.490578,6.0986323,-11.090169,-10.851024,29.793802,-37.6362,45.276512,-50.986996,57.058064,4.7210193,-8.058805,17.603456,-30.72224,-9.174967,52.166504,-22.69812,19.03213,-4.4896374,-31.066742
232,-0.04546181485056877,38.76668930053711,73.2192153930664,1.1553835823622387,12.554090685533344,-117.56014122210509,-33.827885,23.736206,35.227196,12.452468,1.8640125,-2.2156723,-27.890116,-14.415578,-11.572801,48.031017,-31.262703,5.847257,-11.436896,-10.739066,29.793802,-37.605324,44.931946,-51.105427,57.151337,4.686909,-8.006403,17.582987,-30.517267,-9.336601,52.194324,-22.88609,18.78174,-4.3065667,-31.020658
233,-0.11776074767112732,39.04032897949219,73.29966735839844,1.205451508426529,12.474833843487033,-117.78492841267857,-33.55926,23.732077,35.211636,12.15973,1.7309489,-2.409543,-28.010454,-14.165906,-11.410881,47.848717,-31.00473,5.58863,-11.764376,-10.696049,29.793802,-37.634624,44.558067,-51.25309,57.277756,4.60352,-7.996782,17.596725,-30.328705,-9.522391,52.161163,-23.113426,18.513441,-4.119285,-30.937473
234,-0.1865391582250595,39.313236236572266,73.39532470703125,1.2838682250038742,12.405856970503036,-118.00553599116314,-33.36788,23.71833,35.06867,12.066794,1.7327986,-2.6089633,-28.126581,-13.94083,-11.233842,47.628384,-30.721489,5.3232174,-12.074684,-10.701235,29.793802,-37.72043,44.157993,-51.430534,57.422756,4.485417,-8.010591,17.633932,-30.144897,-9.732869,52.078827,-23.38258,18.227615,-3.9231653,-30.83275
235,-0.2372102588415146,39.58076095581055,73.51667785644531,1.3845175372269838,12.339962628304555,-118.21959768397933,-33.239304,23.690382,34.782177,12.184711,1.8367424,-2.8242674,-28.229666,-13.738016,-11.049688,47.37931,-30.41815,5.053307,-12.373512,-10.743477,29.793802,-37.870026,43.73729,-51.67888,57.58614,4.297986,-8.032915,17.685305,-29.951672,-9.96637,51.965416,-23.701523,17.91266,-3.7065086,-30.714931
236,-0.291571706533432,39.848636627197266,73.6404800415039,1.5012281174449627,12.269167725406511,-118.42469494396639,-33.154743,23.639284,34.337864,12.515158,2.014633,-3.067873,-28.311333,-13.555176,-10.865862,47.11239,-30.100454,4.781082,-12.662244,-10.817243,29.793802,-38.039864,43.29379,-51.947548,57.746796,4.0909085,-8.046887,17.739395,-29.73369,-10.222461,51.83532,-24.08343,17.559395,-3.4569972,-30.590229
237,-0.346911758184433,40.10643005371094,73.77281188964844,1.6371653589575652,12.18967946614172,-118.62819823073036,-33.132145,23.559576,33.67769,13.105686,2.356494,-3.3753858,-28.36762,-13.390417,-10.672138,46.82071,-29.759712,4.504214,-12.939027,-10.927566,29.793802,-38.252487,42.832363,-52.28566,57.919617,3.801995,-8.051514,17.806808,-29.496382,-10.498508,51.692673,-24.524784,17.15607,-3.170244,-30.455217
238,-0.4056190550327301,40.35439682006836,73.91582489013672,1.7916622261849144,12.104172003728978,-118.831495747064,-33.165733,23.441883,32.82882,13.916826,2.8535233,-3.7455757,-28.402666,-13.241508,-10.467873,46.50328,-29.397577,4.222014,-13.199865,-11.077148,29.793802,-38.489468,42.351933,-52.652035,58.09466,3.4705405,-8.053903,17.887472,-29.242773,-10.794426,51.526905,-25.023397,16.712702,-2.8531675,-30.305603
239,-0.468574196100235,40.601436614990234,74.0472412109375,1.9512498277706607,12.01480468218013,-119.0236819382932,-33.202854,23.276447,31.906384,14.825343,3.3279498,-4.129622,-28.416786,-13.106218,-10.276004,46.173813,-29.031782,3.9394536,-13.45368,-11.243846,29.793802,-38.735447,41.851006,-53.020916,58.254612,3.1478348,-8.052428,17.958864,-28.959478,-11.109341,51.34494,-25.577707,16.244432,-2.5126586,-30.15209
