unveil-humanoid-operators/unveil-humanoid-operators.github.io/feature-analysis-animation/data/feature_matrix_instances/weight_root_translate_peak_vel_dancing_A306.csv
Frame,root_translateX,root_translateY,root_translateZ,root_rotateX,root_rotateY,root_rotateZ,left_hip_pitch_joint_dof,left_hip_roll_joint_dof,left_hip_yaw_joint_dof,left_knee_joint_dof,left_ankle_pitch_joint_dof,left_ankle_roll_joint_dof,right_hip_pitch_joint_dof,right_hip_roll_joint_dof,right_hip_yaw_joint_dof,right_knee_joint_dof,right_ankle_pitch_joint_dof,right_ankle_roll_joint_dof,waist_yaw_joint_dof,waist_roll_joint_dof,waist_pitch_joint_dof,left_shoulder_pitch_joint_dof,left_shoulder_roll_joint_dof,left_shoulder_yaw_joint_dof,left_elbow_joint_dof,left_wrist_roll_joint_dof,left_wrist_pitch_joint_dof,left_wrist_yaw_joint_dof,right_shoulder_pitch_joint_dof,right_shoulder_roll_joint_dof,right_shoulder_yaw_joint_dof,right_elbow_joint_dof,right_wrist_roll_joint_dof,right_wrist_pitch_joint_dof,right_wrist_yaw_joint_dof
0,-2.14432954788208,0.4559068977832794,78.37333679199219,0.656246784368272,-6.563353565214515,-8.300527536525657,14.138946,7.437096,22.295029,6.8065267,-10.049065,-8.822952,8.316885,-6.1846533,-11.780579,8.520261,-10.136913,6.0406284,-1.0961379,-0.0500899,11.922849,2.207814,13.894937,-30.747553,59.860996,-1.777544,2.4071229,-8.017089,-6.8561406,-16.417616,57.15368,59.43864,-12.929901,2.579508,14.255148
1,-2.145207643508911,0.4613718092441559,78.37406921386719,0.6554514083263714,-6.555841132081939,-8.291365084648808,14.127799,7.43265,22.28671,6.8063893,-10.051215,-8.821691,8.308793,-6.189011,-11.782461,8.522089,-10.136618,6.0391197,-1.0942689,-0.04884407,11.944235,2.2156463,13.907479,-30.750353,59.815254,-1.7865918,2.3926501,-8.007243,-6.90929,-16.428513,57.066036,59.38851,-10.1076,2.4189856,12.702398
2,-2.142788887023926,0.4675411581993103,78.37457275390625,0.6547337158348544,-6.547891952151122,-8.281860969375437,14.115637,7.428518,22.2781,6.8065147,-10.053456,-8.821208,8.299409,-6.1932817,-11.78427,8.525235,-10.137004,6.0369296,-1.0843501,-0.046134356,11.96396,2.2146525,13.918121,-30.765776,59.779377,-1.8016789,2.375887,-7.995739,-6.962436,-16.438679,56.9635,59.34461,-7.1487885,2.1649377,11.082902
3,-2.1436920166015625,0.4722106158733368,78.37434387207031,0.6542619275983199,-6.540629925817326,-8.272639232075008,14.104405,7.423823,22.269815,6.8068123,-10.055644,-8.819221,8.29212,-6.198143,-11.786756,8.525858,-10.136016,6.0361385,-1.0887659,-0.042179096,11.977392,2.2262433,13.9218445,-30.763737,59.74125,-1.8055058,2.3620331,-7.986415,-7.015337,-16.443357,56.883244,59.315636,-4.479083,1.863403,9.627116
4,-2.142314910888672,0.47663673758506775,78.3752212524414,0.6553918962199917,-6.5350537841969585,-8.263958795523623,14.095949,7.416874,22.262857,6.805633,-10.056573,-8.813311,8.286313,-6.2058406,-11.791329,8.52827,-10.135838,6.038862,-1.096687,-0.04024364,11.981305,2.2415755,13.923157,-30.762764,59.709812,-1.805536,2.3532162,-7.9825783,-7.0506,-16.446114,56.823914,59.292725,-2.529579,1.6018801,8.562963
5,-2.141397476196289,0.4844323694705963,78.37605285644531,0.658966702558748,-6.53313159274335,-8.258078369089223,14.091574,7.4074054,22.25978,6.8070593,-10.058644,-8.80026,8.2852955,-6.217432,-11.79739,8.52869,-10.133913,6.0478325,-1.0706619,-0.03667615,11.992305,2.2235224,13.925113,-30.797031,59.694492,-1.7954118,2.3571975,-7.9896894,-7.0637674,-16.454819,56.766937,59.27661,-1.5179378,1.4512559,7.9946017
6,-2.1410725116729736,0.4894658923149109,78.37520599365234,0.6637750494324658,-6.532455745652128,-8.253408889937624,14.08968,7.395975,22.258812,6.806917,-10.059416,-8.782155,8.2853775,-6.231548,-11.805159,8.5300665,-10.132179,6.0612035,-1.0835243,-0.03877939,11.986198,2.2339566,13.924787,-30.798065,59.677265,-1.7765788,2.3648226,-8.002182,-7.069492,-16.455633,56.756382,59.266087,-1.2191206,1.411552,7.808593
7,-2.1375720500946045,0.4943723678588867,78.37493896484375,0.6696703842823919,-6.532572511652529,-8.247241515920976,14.087681,7.3830857,22.255894,6.8074374,-10.059967,-8.764645,8.28657,-6.2473807,-11.814705,8.532318,-10.131372,6.0744596,-1.0659754,-0.03255038,11.990241,2.2426748,13.92172,-30.812668,59.641354,-1.7376455,2.3794215,-8.017741,-7.067887,-16.46054,56.74469,59.265274,-1.184733,1.4097475,7.7527237
8,-2.1385252475738525,0.5017096996307373,78.37501525878906,0.6734864807353406,-6.5334559979260645,-8.241967897891112,14.087614,7.3726397,22.252426,6.807485,-10.061048,-8.7547455,8.28725,-6.259767,-11.82108,8.537146,-10.132928,6.081984,-1.0631375,-0.030545842,11.986874,2.2509255,13.918837,-30.81776,59.623306,-1.7233895,2.3842897,-8.02962,-7.0642843,-16.46315,56.73846,59.257706,-1.1561456,1.402467,7.7097473
9,-2.1345643997192383,0.5048374533653259,78.37353515625,0.6750503428331197,-6.535902037698713,-8.235884321384779,14.089214,7.3648686,22.245802,6.8071384,-10.062018,-8.756691,8.289545,-6.267891,-11.824716,8.54232,-10.136015,6.079729,-1.0618471,-0.026646608,11.983016,2.2610097,13.913541,-30.81929,59.60985,-1.7304643,2.3788362,-8.03701,-7.059601,-16.466934,56.728367,59.24691,-1.0354439,1.3632759,7.6195946
10,-2.1321053504943848,0.5082708597183228,78.37223052978516,0.6749906568047084,-6.539634729956526,-8.229667171335052,14.093467,7.3583374,22.237482,6.8057094,-10.062851,-8.766117,8.292589,-6.273313,-11.826634,8.549133,-10.140886,6.071334,-1.0608042,-0.023520108,11.978261,2.2697303,13.909658,-30.818092,59.60283,-1.7515267,2.36697,-8.043302,-7.0508285,-16.469244,56.721146,59.23331,-0.9998487,1.3266778,7.5755696
11,-2.1298348903656006,0.5153913497924805,78.37258911132812,0.6747870880790158,-6.543450169899815,-8.223953088190928,14.096876,7.352642,22.229437,6.806091,-10.065059,-8.776345,8.294861,-6.2785482,-11.827649,8.55773,-10.147574,6.0636015,-1.0581274,-0.021223126,11.973064,2.2779725,13.9075985,-30.817104,59.59617,-1.7753813,2.3554702,-8.048876,-7.040877,-16.470274,56.718582,59.220894,-1.06882,1.3128831,7.5949554
12,-2.1316235065460205,0.5203465819358826,78.37246704101562,0.6754292053707419,-6.54607493809371,-8.219183270368701,14.099162,7.3460507,22.223478,6.8054028,-10.0674715,-8.780466,8.298629,-6.2843704,-11.829418,8.559591,-10.151534,6.06343,-1.0530915,-0.018434308,11.964723,2.2879448,13.902778,-30.81652,59.588287,-1.7887433,2.35035,-8.053279,-7.0265923,-16.472485,56.717644,59.20981,-1.2694616,1.3434935,7.6977115
13,-2.1314053535461426,0.5283225774765015,78.37336730957031,0.6763661768714672,-6.54683951962664,-8.215874554686287,14.099489,7.3395195,22.22089,6.804947,-10.0724,-8.775698,8.302677,-6.290548,-11.832032,8.556083,-10.153984,6.074095,-1.0401374,-0.016958512,11.961279,2.2886648,13.901197,-30.81757,59.579,-1.7862194,2.3535082,-8.05885,-7.0213614,-16.473026,56.72027,59.207874,-1.3843607,1.4000024,7.778496
14,-2.1303858757019043,0.5345941185951233,78.37105560302734,0.677337899177682,-6.546269973152183,-8.213410252459362,14.097483,7.333678,22.219875,6.8061085,-10.079453,-8.766057,8.308674,-6.2962236,-11.8352995,8.545056,-10.153606,6.0914965,-1.0337664,-0.013746046,11.946169,2.299934,13.8953285,-30.818836,59.567066,-1.7798706,2.365251,-8.062413,-7.011102,-16.474512,56.723526,59.198627,-1.5109371,1.5016888,7.888641
15,-2.1286160945892334,0.5420750379562378,78.37007141113281,0.6791852614796335,-6.546004508864056,-8.211297596761316,14.09613,7.3264995,22.219719,6.805952,-10.085038,-8.754796,8.315033,-6.3032455,-11.838625,8.533224,-10.153002,6.1112165,-1.0218375,-0.01223123,11.9342985,2.3028283,13.890365,-30.823614,59.561855,-1.7736893,2.3763828,-8.06428,-6.9967213,-16.475365,56.73943,59.195503,-2.01289,1.6465483,8.197625
16,-2.1299283504486084,0.5461187362670898,78.36833953857422,0.6828886950890662,-6.54739052703259,-8.208938784034629,14.096568,7.3158545,22.219355,6.805473,-10.087861,-8.745099,8.317576,-6.314463,-11.841223,8.532146,-10.156996,6.1288915,-1.0129249,-0.011634799,11.920147,2.307114,13.882148,-30.830534,59.563972,-1.7774755,2.3841615,-8.060812,-6.9676404,-16.476097,56.7824,59.192528,-3.3052125,1.8559465,8.914941
17,-2.131638526916504,0.5534735918045044,78.36852264404297,0.6898564440257516,-6.551525316410421,-8.205258715193038,14.099189,7.300183,22.217855,6.804976,-10.085568,-8.737846,8.3241415,-6.33043,-11.844294,8.528631,-10.159435,6.1452756,-1.0065198,-0.015570224,11.902538,2.3103418,13.875759,-30.84419,59.578228,-1.8047341,2.3860784,-8.049372,-6.9097214,-16.476685,56.867554,59.189728,-6.071635,2.1500301,10.403339
18,-2.132760763168335,0.5600270628929138,78.3678970336914,0.6990753915905241,-6.5572061032197695,-8.200888388022898,14.103011,7.2809196,22.215973,6.804381,-10.079999,-8.731266,8.329431,-6.350651,-11.847456,8.530057,-10.164219,6.162095,-1.0113963,-0.02073738,11.878553,2.3250704,13.867267,-30.852314,59.593616,-1.8442007,2.385281,-8.031777,-6.833092,-16.4784,56.995216,59.192795,-9.920009,2.4098864,12.472678
19,-2.1337428092956543,0.5696414709091187,78.36968231201172,0.7081984975989993,-6.563465805096018,-8.1973956454012,14.107342,7.261932,22.214611,6.803793,-10.0741205,-8.725065,8.335354,-6.370664,-11.850005,8.53096,-10.167399,6.1762676,-1.0415128,-0.023240421,11.855235,2.3517244,13.84947,-30.83012,59.607937,-1.8687341,2.3835049,-8.016665,-6.7731595,-16.485264,57.150677,59.20599,-13.6183815,2.520376,14.47136
20,-2.1343846321105957,0.5773159861564636,78.37102508544922,0.7142547232496699,-6.568965881858239,-8.195873571511376,14.111827,7.247308,22.214605,6.8030534,-10.071718,-8.71868,8.337406,-6.3865037,-11.851192,8.537664,-10.17068,6.184636,-1.0584269,-0.02174639,11.840692,2.3671494,13.834181,-30.818321,59.622623,-1.8701059,2.3845491,-8.010515,-6.7346716,-16.494122,57.247974,59.21583,-15.95033,2.525432,15.736755
21,-2.134941577911377,0.5816184282302856,78.37078857421875,0.7151590914350096,-6.574633080400768,-8.197953088515273,14.117697,7.240726,22.217026,6.8029733,-10.075264,-8.712449,8.33876,-6.394248,-11.85028,8.545521,-10.170319,6.1831436,-1.0606495,-0.015053738,11.838276,2.3734617,13.82338,-30.814209,59.631504,-1.8320769,2.3906794,-8.018665,-6.7249627,-16.501074,57.280457,59.221794,-16.555126,2.5259566,16.077173
22,-2.1353931427001953,0.5915789604187012,78.3707046508789,0.7130808396091831,-6.580425140858331,-8.20230654870952,14.123836,7.2389293,22.220856,6.8034854,-10.081784,-8.706419,8.336617,-6.3978896,-11.847677,8.560201,-10.170129,6.174668,-1.0563504,-0.007050466,11.843898,2.3765638,13.818653,-30.812006,59.635723,-1.7660403,2.3993127,-8.036291,-6.734266,-16.503838,57.27481,59.225666,-16.096334,2.541638,15.846808
23,-2.1378700733184814,0.5969223380088806,78.36875915527344,0.7105605107325549,-6.5846676060516325,-8.206633766954216,14.12829,7.237514,22.224438,6.80442,-10.089203,-8.700007,8.33341,-6.4010816,-11.84526,8.573319,-10.168814,6.166063,-1.0533148,0.00213077,11.852339,2.3826158,13.814765,-30.80827,59.634468,-1.6975541,2.4088824,-8.054347,-6.757557,-16.505547,57.24748,59.22708,-14.89195,2.556669,15.208829
24,-2.1361045837402344,0.6023897528648376,78.36958312988281,0.7101331095142144,-6.586326613825488,-8.209107653537798,14.129628,7.232193,22.226385,6.804519,-10.094444,-8.692727,8.332054,-6.4069753,-11.844411,8.576766,-10.164764,6.1639643,-1.0443513,0.011381935,11.864843,2.3732057,13.80968,-30.815264,59.643913,-1.6562388,2.416967,-8.065625,-6.7909155,-16.50699,57.20436,59.226322,-13.248883,2.5463095,14.320786
25,-2.136897563934326,0.6122133135795593,78.36957550048828,0.7131040801723451,-6.5826117314013,-8.208418844074789,14.124065,7.2207904,22.225029,6.804106,-10.096176,-8.684813,8.327481,-6.4185543,-11.845765,8.574758,-10.161505,6.1722007,-1.0271374,0.018307822,11.875988,2.3477619,13.80333,-30.83953,59.668884,-1.6581817,2.4217172,-8.064862,-6.8338423,-16.507101,57.122833,59.217377,-10.718014,2.4704432,12.930273
26,-2.138667583465576,0.6211796402931213,78.36698913574219,0.7180775355238352,-6.574821724089534,-8.205741971289463,14.113201,7.205697,22.221668,6.803842,-10.096178,-8.67641,8.31794,-6.4341407,-11.848368,8.57484,-10.161306,6.1864266,-1.0295932,0.02430498,11.891256,2.3436005,13.801348,-30.837202,59.669643,-1.6688433,2.426988,-8.06063,-6.9046664,-16.50633,57.03139,59.209164,-7.307897,2.2660363,11.057494
27,-2.1374127864837646,0.6287210583686829,78.36875915527344,0.7235659332654247,-6.567179070244969,-8.202472334665295,14.102372,7.190049,22.217875,6.803488,-10.09621,-8.666755,8.310048,-6.450069,-11.851593,8.571297,-10.15975,6.2016926,-1.028557,0.0302717,11.9044695,2.3341,13.800155,-30.846266,59.67719,-1.6906688,2.4314878,-8.054468,-6.971358,-16.505913,56.939785,59.209324,-4.0510283,1.9622834,9.275862
28,-2.13688588142395,0.6373128294944763,78.37092590332031,0.7281257829870177,-6.563076940037425,-8.19954957575273,14.095582,7.1764274,22.215637,6.8032103,-10.097627,-8.655011,8.304974,-6.4645567,-11.854565,8.570561,-10.159042,6.2131596,-1.0341169,0.03542536,11.905552,2.3395035,13.799764,-30.854015,59.68613,-1.7028939,2.43411,-8.051303,-7.007563,-16.506155,56.881683,59.212757,-1.9789983,1.7151744,8.149454
29,-2.1370646953582764,0.6456644535064697,78.37168884277344,0.7315583418770462,-6.566650691188865,-8.199941081483368,14.098887,7.165719,22.218632,6.803042,-10.1030445,-8.638187,8.304662,-6.4767914,-11.854904,8.5771475,-10.160727,6.218347,-0.99771184,0.042135574,11.91118,2.3004854,13.799477,-30.911129,59.733032,-1.7172639,2.4343789,-8.053647,-7.0035253,-16.508652,56.852413,59.226692,-1.5520334,1.6523232,7.9149976
30,-2.1371512413024902,0.6527829766273499,78.37203979492188,0.7346284610974757,-6.573579279426057,-8.199886325838609,14.105441,7.15636,22.222614,6.8036823,-10.110382,-8.617353,8.306084,-6.488858,-11.856049,8.588145,-10.164166,6.220593,-0.9892029,0.047375996,11.911238,2.2952685,13.799582,-30.930975,59.761517,-1.708711,2.4321232,-8.060217,-6.9863153,-16.5102,56.872204,59.244694,-2.1808145,1.7282121,8.251629
31,-2.1396071910858154,0.661149799823761,78.37080383300781,0.7370811540275075,-6.5804363276622615,-8.200680207708082,14.112127,7.1481304,22.227001,6.8051414,-10.1182575,-8.598944,8.30987,-6.499018,-11.856001,8.593888,-10.165098,6.222229,-0.9863547,0.052958097,11.906481,2.297033,13.799904,-30.948088,59.788338,-1.6971322,2.431535,-8.067318,-6.9626055,-16.51211,56.910957,59.263115,-3.1714704,1.8431162,8.788971
32,-2.139033794403076,0.666790246963501,78.371337890625,0.739329461013679,-6.582844895694485,-8.202639796392898,14.114877,7.14001,22.23046,6.80488,-10.122202,-8.58922,8.311086,-6.5075827,-11.853433,8.594811,-10.164781,6.226064,-0.98886853,0.057640065,11.899695,2.300208,13.8003235,-30.957127,59.8121,-1.6815768,2.4366565,-8.075001,-6.94781,-16.51334,56.9376,59.27817,-3.8516178,1.9131842,9.164195
33,-2.138827085494995,0.6742093563079834,78.37005615234375,0.7417271010434225,-6.578980119326191,-8.206429278767482,14.111888,7.1317406,22.232227,6.803803,-10.12229,-8.592721,8.306238,-6.5146213,-11.8466015,8.5931835,-10.165358,6.2323627,-0.998842,0.06183892,11.8842125,2.312139,13.800973,-30.962847,59.829517,-1.662968,2.4519928,-8.082572,-6.93967,-16.514954,56.951702,59.28519,-4.1104484,1.9303255,9.321083
34,-2.1355044841766357,0.6795039772987366,78.36936950683594,0.7438827043999788,-6.5712091512503825,-8.211667410254838,14.104979,7.1239057,22.233086,6.80275,-10.119792,-8.605165,8.2983,-6.5202603,-11.836597,8.589541,-10.166649,6.2399373,-1.0101604,0.06555355,11.863663,2.3254657,13.802204,-30.970098,59.845417,-1.6416612,2.4744294,-8.090679,-6.9316883,-16.517189,56.956688,59.286434,-4.2876077,1.9350027,9.440268
35,-2.1339356899261475,0.688228964805603,78.36786651611328,0.7457498409264025,-6.562070988641916,-8.217335373510682,14.096943,7.116487,22.234257,6.8013296,-10.1164875,-8.619504,8.288213,-6.52526,-11.825994,8.586707,-10.167633,6.2488403,-1.0187756,0.0694893,11.842829,2.335592,13.803986,-30.977491,59.863277,-1.6213328,2.495926,-8.097943,-6.9249697,-16.519869,56.95339,59.28724,-4.3717813,1.9318092,9.5079
36,-2.133190155029297,0.6897000074386597,78.36727905273438,0.7467352727359229,-6.553826456732958,-8.22243302092815,14.089643,7.1098733,22.236742,6.800429,-10.114909,-8.628618,8.279343,-6.529844,-11.817135,8.583268,-10.165374,6.259231,-1.0219404,0.07494466,11.824924,2.3428595,13.805959,-30.985146,59.88122,-1.6080879,2.5093803,-8.101911,-6.9186196,-16.522459,56.94634,59.289673,-4.3491526,1.9263333,9.509354
37,-2.1319079399108887,0.6943659782409668,78.36811065673828,0.7461629896328628,-6.545732791043064,-8.22628875209405,14.082274,7.104429,22.240904,6.799098,-10.114182,-8.631187,8.273381,-6.5332904,-11.811411,8.572843,-10.153525,6.273074,-1.0244275,0.08302859,11.809537,2.3483512,13.806924,-30.986301,59.900578,-1.6020644,2.5115857,-8.100416,-6.918315,-16.523533,56.94073,59.30093,-4.180939,1.9198781,9.421361
38,-2.1296145915985107,0.7014269232749939,78.36820220947266,0.7446356270539177,-6.536942857031114,-8.229807234115697,14.07388,7.09977,22.24622,6.7985444,-10.114663,-8.630717,8.265773,-6.5362897,-11.806778,8.5641165,-10.138979,6.289602,-1.024081,0.093169995,11.794366,2.3531315,13.808024,-30.98592,59.919827,-1.601602,2.5071824,-8.095196,-6.9197445,-16.524563,56.933586,59.314438,-3.8835685,1.9091994,9.257569
39,-2.131276845932007,0.7093168497085571,78.36809539794922,0.7431193713031903,-6.529746344059647,-8.233287338201444,14.066883,7.0953927,22.252087,6.7987943,-10.116376,-8.6277685,8.258727,-6.5397754,-11.80257,8.558424,-10.126671,6.3050833,-1.0227342,0.10327894,11.781081,2.3568408,13.809496,-30.98436,59.939106,-1.6044745,2.4986742,-8.089538,-6.9229493,-16.525791,56.9263,59.33008,-3.5311248,1.8919396,9.060305
40,-2.1280531883239746,0.7161995768547058,78.36888122558594,0.7427241523471633,-6.526704840265051,-8.23734342906509,14.065275,7.089891,22.257645,6.798699,-10.11977,-8.622703,8.254856,-6.54466,-11.797996,8.556869,-10.121234,6.315556,-1.0203959,0.11118981,11.773218,2.3591316,13.814509,-30.983925,59.955193,-1.6099855,2.4886518,-8.087753,-6.924075,-16.529736,56.91999,59.338913,-3.1938312,1.866162,8.871205
41,-2.124220609664917,0.7228264212608337,78.36784362792969,0.7436630112509094,-6.53032649550054,-8.242406412210077,14.071405,7.0836215,22.26324,6.7984376,-10.125439,-8.614236,8.2588825,-6.5510716,-11.793488,8.556513,-10.12468,6.3181195,-1.0200899,0.11776585,11.77017,2.3661604,13.817989,-30.978476,59.966892,-1.6145732,2.4751496,-8.089702,-6.924114,-16.532402,56.910706,59.345985,-2.860421,1.8258771,8.683137
42,-2.1235406398773193,0.7275629043579102,78.36719512939453,0.7457101015148924,-6.53853719050135,-8.248224829778867,14.083011,7.0764933,22.269106,6.7992544,-10.134348,-8.602453,8.265213,-6.559367,-11.788765,8.563843,-10.137385,6.3154826,-1.0199039,0.12330807,11.770498,2.3741887,13.82128,-30.970621,59.977806,-1.6206579,2.4574456,-8.0937805,-6.9237657,-16.53492,56.899307,59.35333,-2.5021505,1.7732288,8.47901
43,-2.1203854084014893,0.7359633445739746,78.36676025390625,0.7479859419394563,-6.547605500215614,-8.2533987870032,14.095333,7.069052,22.274122,6.79929,-10.142328,-8.59057,8.271144,-6.5681844,-11.784072,8.57419,-10.151891,6.312291,-1.0208002,0.12816747,11.772381,2.3805165,13.824406,-30.962715,59.98768,-1.627401,2.441154,-8.098612,-6.92298,-16.537281,56.8885,59.35882,-2.1824627,1.7224208,8.295588
44,-2.122015953063965,0.7429767847061157,78.365966796875,0.7500820092990673,-6.553792854658038,-8.256621049458634,14.103193,7.061551,22.277363,6.8002887,-10.148762,-8.5815935,8.275725,-6.57634,-11.780031,8.579665,-10.159349,6.313091,-1.0233963,0.13262348,11.771637,2.382905,13.827868,-30.95808,59.999767,-1.6345077,2.4318275,-8.10155,-6.9222603,-16.539831,56.882267,59.365356,-1.9646592,1.6883641,8.169251
45,-2.121295690536499,0.7492214441299438,78.3647232055664,0.7518726898869209,-6.555710915468145,-8.256474861898853,14.105879,7.0531945,22.277473,6.799634,-10.151449,-8.576893,8.277384,-6.583548,-11.776768,8.580353,-10.158218,6.3202987,-1.0284244,0.13627544,11.768198,2.379677,13.8330145,-30.958637,60.01249,-1.6451602,2.4335337,-8.102886,-6.9198923,-16.54342,56.88196,59.368507,-1.8714689,1.6777878,8.110885
46,-2.120152235031128,0.7536656260490417,78.36465454101562,0.7535311781196242,-6.555452085167321,-8.253846527682287,14.105334,7.0444593,22.27506,6.798461,-10.151615,-8.574747,8.277789,-6.590472,-11.774286,8.57828,-10.152103,6.3310294,-1.0350869,0.13854617,11.762216,2.375777,13.843148,-30.96692,60.02187,-1.663883,2.44213,-8.103263,-6.914224,-16.550238,56.88704,59.36595,-1.8657854,1.6825849,8.10135
47,-2.1227211952209473,0.7640883922576904,78.36569213867188,0.7551320828216775,-6.554753166952966,-8.251464829463,14.103481,7.035964,22.272884,6.798289,-10.151944,-8.573228,8.276907,-6.5972037,-11.77163,8.57673,-10.144727,6.3421173,-1.0418942,0.14174867,11.755451,2.371068,13.849483,-30.97603,60.031487,-1.6770412,2.4534416,-8.1008415,-6.9088464,-16.554327,56.893867,59.36691,-1.9234077,1.6969688,8.126093
48,-2.121110439300537,0.766852617263794,78.36445617675781,0.7561609152497714,-6.555268407713628,-8.25161027734986,14.10377,7.0288944,22.273771,6.7980404,-10.153271,-8.570568,8.276188,-6.6032186,-11.768665,8.575743,-10.138166,6.350385,-1.0461605,0.14594693,11.750498,2.3649552,13.8551235,-30.98369,60.042107,-1.678311,2.4594631,-8.099277,-6.904354,-16.557812,56.901306,59.37096,-2.0151308,1.7109635,8.17253
49,-2.123826265335083,0.7726913690567017,78.36433410644531,0.7567622279215572,-6.557858811467322,-8.256328791493464,14.107462,7.0234313,22.279928,6.7982383,-10.156509,-8.566609,8.273241,-6.6089463,-11.764252,8.581635,-10.135937,6.353945,-1.0461395,0.15006818,11.749276,2.3614013,13.864422,-30.989151,60.04812,-1.6613632,2.4585128,-8.099485,-6.899991,-16.563532,56.910275,59.375282,-2.142253,1.7230169,8.244556
50,-2.123749017715454,0.777119517326355,78.36381530761719,0.7566539339437093,-6.561746194799058,-8.263822100867046,14.112869,7.019674,22.289385,6.7989154,-10.160692,-8.562235,8.271065,-6.61378,-11.759263,8.586616,-10.132614,6.354779,-1.0430233,0.1565341,11.751355,2.3558414,13.867083,-30.991343,60.05448,-1.6274965,2.455507,-8.098605,-6.897529,-16.56511,56.917645,59.383804,-2.3184285,1.738627,8.346155
51,-2.124873399734497,0.7860304117202759,78.36343383789062,0.7566099347306702,-6.565102848187722,-8.271110009696113,14.118006,7.0157604,22.298466,6.7986426,-10.164348,-8.557038,8.268732,-6.6182995,-11.754615,8.590604,-10.129183,6.355801,-1.0449156,0.1612206,11.7524395,2.3556182,13.876402,-30.990612,60.055,-1.5945452,2.4504597,-8.098512,-6.894377,-16.570604,56.93177,59.388985,-2.529792,1.7569876,8.466189
52,-2.125518321990967,0.7871463894844055,78.36412048339844,0.7573982832720002,-6.566662941707974,-8.275275970263042,14.119464,7.010737,22.302961,6.798615,-10.166511,-8.550602,8.267699,-6.6232834,-11.751239,8.589758,-10.124108,6.3600426,-1.0495452,0.16514295,11.752536,2.3527982,13.883011,-30.992043,60.05614,-1.5731777,2.4458082,-8.097845,-6.8893547,-16.574255,56.94344,59.39061,-2.764223,1.7789028,8.590326
53,-2.1249966621398926,0.7938490509986877,78.36550903320312,0.7593461617655693,-6.565723855206965,-8.274439725256212,14.116439,7.0036435,22.3004,6.7981024,-10.16682,-8.541192,8.267013,-6.629009,-11.749688,8.585963,-10.118864,6.3700438,-1.0586395,0.1683791,11.750171,2.346761,13.885844,-30.99669,60.05938,-1.5666566,2.4434779,-8.094611,-6.8838387,-16.575682,56.953724,59.392433,-3.0536523,1.8081309,8.730372
54,-2.1277003288269043,0.8008541464805603,78.36641693115234,0.7620930344137149,-6.562621623877893,-8.270253882778595,14.108433,6.996066,22.292768,6.7992125,-10.166415,-8.529569,8.2639675,-6.6359243,-11.749439,8.584572,-10.115926,6.3837533,-1.0737954,0.16889463,11.742231,2.3482552,13.895517,-31.007608,60.055683,-1.5762421,2.441113,-8.0898075,-6.8713098,-16.580154,56.969498,59.38539,-3.3926518,1.8430394,8.889588
55,-2.128077507019043,0.8043950200080872,78.3684310913086,0.7645942027945274,-6.559000577103138,-8.266026081878644,14.100187,6.9883313,22.285221,6.7996697,-10.165051,-8.519136,8.263645,-6.6420417,-11.749319,8.575816,-10.109287,6.396744,-1.0868678,0.16949852,11.736297,2.3465974,13.906092,-31.019524,60.050213,-1.5896355,2.4379141,-8.086006,-6.859781,-16.584625,56.98052,59.37751,-3.7134678,1.8761573,9.038214
56,-2.1296496391296387,0.8073779940605164,78.36788177490234,0.7664113960504244,-6.55589260537963,-8.264853519669527,14.094304,6.981131,22.282255,6.7986283,-10.162576,-8.513083,8.260019,-6.6480827,-11.74733,8.573069,-10.105704,6.404751,-1.0976692,0.17240854,11.732436,2.3408968,13.911517,-31.028194,60.046833,-1.6013547,2.432656,-8.0832,-6.8515816,-16.586664,56.987907,59.372795,-3.948969,1.902449,9.148152
57,-2.130887746810913,0.8119935393333435,78.36714172363281,0.767476426699512,-6.55287724855194,-8.267727061870913,14.08952,6.9746675,22.285614,6.7991343,-10.160341,-8.513563,8.250524,-6.65493,-11.742299,8.579732,-10.107088,6.4056783,-1.1045347,0.17696059,11.729786,2.33371,13.91606,-31.03504,60.041424,-1.6142472,2.4234037,-8.082221,-6.8471956,-16.588253,56.992653,59.373013,-4.081735,1.9232486,9.213811
58,-2.1336562633514404,0.8153365850448608,78.36737823486328,0.7680674001258615,-6.549726383267384,-8.272841877665542,14.086241,6.9681687,22.292578,6.797931,-10.156497,-8.518407,8.240374,-6.661577,-11.735894,8.585346,-10.108042,6.4020443,-1.1103827,0.1821523,11.727843,2.3264935,13.921294,-31.04174,60.033028,-1.6326168,2.4113379,-8.081884,-6.843369,-16.589958,56.99506,59.372406,-4.1491227,1.942233,9.25009
59,-2.136021375656128,0.8240330815315247,78.3682861328125,0.7680538289552857,-6.546843725028136,-8.279393869757152,14.083478,6.962615,22.30127,6.796948,-10.1527,-8.524414,8.229589,-6.6674047,-11.729001,8.592153,-10.109248,6.3968945,-1.1109934,0.18626292,11.728342,2.3208864,13.934375,-31.054482,60.01538,-1.6541853,2.3999643,-8.08358,-6.8385324,-16.594065,56.994183,59.3655,-4.1555085,1.9530389,9.25658
60,-2.1370632648468018,0.8324901461601257,78.3685531616211,0.7668716847854066,-6.544614477647853,-8.286328835160441,14.0812435,6.9591284,22.309484,6.7958083,-10.149549,-8.528415,8.220462,-6.6708503,-11.723298,8.596359,-10.107026,6.3929763,-1.1128458,0.19209868,11.729839,2.3089,13.942354,-31.061916,60.007538,-1.6661428,2.390202,-8.087313,-6.8389406,-16.596355,56.995426,59.36171,-4.1101356,1.9498279,9.235344
61,-2.1391079425811768,0.8372628092765808,78.37026977539062,0.7636486314510015,-6.542898271023063,-8.294450731312493,14.078677,6.9592566,22.317474,6.795826,-10.14815,-8.530228,8.211236,-6.6704993,-11.719356,8.59998,-10.102001,6.389754,-1.115077,0.19960088,11.731894,2.296205,13.947008,-31.067654,60.00226,-1.671993,2.3829536,-8.091035,-6.843085,-16.597544,56.996815,59.35704,-3.9883273,1.9252441,9.173399
62,-2.144261121749878,0.8421040177345276,78.3723373413086,0.7590442213256073,-6.541489974167943,-8.304745456738946,14.076875,6.9615765,22.326874,6.795658,-10.147322,-8.531388,8.203111,-6.66731,-11.715602,8.600325,-10.093244,6.386107,-1.1104511,0.2079663,11.737695,2.2718801,13.952574,-31.07784,60.004547,-1.6767855,2.3760788,-8.097412,-6.8510427,-16.598793,57.00141,59.351814,-3.7809134,1.8809719,9.067189
63,-2.144749164581299,0.845057487487793,78.37275695800781,0.7548496440381779,-6.541030348023432,-8.314178980460103,14.075805,6.963709,22.335363,6.795395,-10.146856,-8.531,8.19612,-6.664341,-11.712184,8.601491,-10.084736,6.384247,-1.1060435,0.21473365,11.742298,2.246532,13.960248,-31.092863,60.00868,-1.6819646,2.3720198,-8.105235,-6.8591175,-16.600384,57.00937,59.34548,-3.557342,1.8362399,8.953408
64,-2.1488280296325684,0.8517533540725708,78.37393188476562,0.752993848655464,-6.541736177269253,-8.320884157979506,14.075992,6.96282,22.34174,6.795471,-10.146857,-8.528169,8.191464,-6.6647553,-11.708025,8.603228,-10.077216,6.3863544,-1.1048479,0.21975692,11.744799,2.2282634,13.967617,-31.105028,60.008278,-1.6768117,2.3732038,-8.115451,-6.8647785,-16.601711,57.016384,59.3399,-3.3836527,1.807166,8.863069
65,-2.149299144744873,0.856160581111908,78.37236785888672,0.754871010168846,-6.5447319905378585,-8.323793088530488,14.078142,6.9574127,22.345354,6.7959027,-10.147092,-8.522349,8.189938,-6.670191,-11.702556,8.607263,-10.07102,6.3943157,-1.1040317,0.219773,11.745974,2.2102876,13.978605,-31.122866,60.007797,-1.6644428,2.38253,-8.133779,-6.866493,-16.603394,57.02913,59.33223,-3.250005,1.8006936,8.790126
66,-2.1508185863494873,0.8586825132369995,78.3717269897461,0.758944925399641,-6.549473429748689,-8.324004072478361,14.082742,6.948996,22.3471,6.79523,-10.147215,-8.514053,8.193797,-6.677923,-11.6968565,8.606203,-10.061737,6.4064665,-1.1049976,0.2172917,11.745613,2.1963801,13.9905205,-31.14133,60.00401,-1.6424961,2.3987787,-8.156809,-6.865919,-16.604921,57.044205,59.32312,-3.135697,1.8082387,8.724117
67,-2.153813362121582,0.8646056056022644,78.3710708618164,0.7636918906180646,-6.554140459135913,-8.323800245693198,14.086543,6.9400983,22.348068,6.7954392,-10.147937,-8.504399,8.196213,-6.6870675,-11.69033,8.609357,-10.05629,6.4198346,-1.1075916,0.21414621,11.745118,2.1861804,14.003258,-31.156425,59.997265,-1.6206187,2.4155436,-8.17699,-6.8657217,-16.60624,57.0583,59.315853,-3.0590782,1.8198357,8.678754
68,-2.1538126468658447,0.8670195937156677,78.37089538574219,0.7669506756046566,-6.557482989618411,-8.325121466477222,14.089144,6.9328527,22.349512,6.795503,-10.149946,-8.494356,8.199523,-6.693616,-11.684046,8.605842,-10.050592,6.4311624,-1.1109624,0.21336553,11.744151,2.1725707,14.011105,-31.163956,59.998325,-1.6065938,2.4251761,-8.186278,-6.866965,-16.606888,57.06599,59.313217,-3.040191,1.8257986,8.6685
69,-2.1567556858062744,0.872160792350769,78.370361328125,0.7692322916794174,-6.558416635830661,-8.328851820775167,14.089128,6.9264326,22.35168,6.7959557,-10.154581,-8.481684,8.197067,-6.6996303,-11.676196,8.607314,-10.05257,6.4400096,-1.1153431,0.21405348,11.742228,2.160316,14.015614,-31.167944,60.00185,-1.6122574,2.4251914,-8.175999,-6.868534,-16.607319,57.069546,59.31398,-3.0867155,1.8229388,8.700773
70,-2.1569643020629883,0.8753722310066223,78.37028503417969,0.7703830501998445,-6.5578327794325455,-8.333443450664738,14.0874,6.9209433,22.353527,6.795714,-10.160083,-8.466849,8.195129,-6.7040215,-11.667992,8.603816,-10.0557995,6.447879,-1.1201885,0.21611413,11.738927,2.1479795,14.020178,-31.169226,60.00911,-1.627579,2.4188385,-8.153451,-6.8702664,-16.607834,57.070065,59.317867,-3.1871862,1.8158832,8.767382
71,-2.1585865020751953,0.8785064220428467,78.3710708618164,0.7713070048106216,-6.55728824603495,-8.339075208346584,14.085281,6.916511,22.356178,6.797404,-10.166449,-8.454366,8.192307,-6.707958,-11.659797,8.601563,-10.060049,6.4549747,-1.1239654,0.2181433,11.735539,2.1355352,14.023022,-31.169447,60.015484,-1.649857,2.412509,-8.129733,-6.871334,-16.608236,57.069336,59.32161,-3.3227692,1.8107291,8.852218
72,-2.158754348754883,0.8865121006965637,78.3741683959961,0.7715688548048775,-6.558110085178811,-8.345300441079631,14.086002,6.913174,22.36059,6.797683,-10.170245,-8.448869,8.191103,-6.7102985,-11.652997,8.599258,-10.061539,6.4612756,-1.1240056,0.2198663,11.7323065,2.1213927,14.028343,-31.171267,60.018837,-1.6738209,2.4118578,-8.116629,-6.871871,-16.609047,57.06834,59.323612,-3.4725595,1.8130618,8.940019
73,-2.1612753868103027,0.8886915445327759,78.37235260009766,0.7710449928337009,-6.561779306083935,-8.352827988231045,14.091593,6.9116845,22.367836,6.7970886,-10.170345,-8.455449,8.194206,-6.7101316,-11.648237,8.59604,-10.058839,6.4669576,-1.1197398,0.2224081,11.727263,2.1075559,14.032624,-31.17611,60.017723,-1.7009215,2.4222662,-8.115746,-6.868996,-16.60975,57.07412,59.323822,-3.6608856,1.8287572,9.040583
74,-2.161964178085327,0.8882434964179993,78.37086486816406,0.7696470064312106,-6.567099014256738,-8.361307460732018,14.10065,6.912023,22.377014,6.7955046,-10.16823,-8.470287,8.200093,-6.7078085,-11.6449175,8.591119,-10.05312,6.4720287,-1.1131018,0.2252109,11.719816,2.096027,14.039453,-31.18503,60.011814,-1.7360176,2.4391105,-8.121437,-6.8636403,-16.610865,57.087265,59.323,-3.8852782,1.8527035,9.157211
75,-2.165005683898926,0.8930323719978333,78.36871337890625,0.7684455414973368,-6.571832718397372,-8.370139133484525,14.108949,6.9119487,22.386696,6.7944813,-10.166321,-8.484913,8.20561,-6.7055035,-11.641525,8.585218,-10.046358,6.476097,-1.1069714,0.22819103,11.7117405,2.0849402,14.044852,-31.193277,60.004272,-1.7722132,2.4554331,-8.1317425,-6.861293,-16.611752,57.102077,59.32434,-4.088259,1.8770486,9.26079
76,-2.163964033126831,0.8960047960281372,78.36738586425781,0.7685743798735906,-6.573783437213787,-8.378715434969184,14.112659,6.90984,22.395475,6.7937593,-10.165479,-8.4909935,8.203916,-6.7065063,-11.635766,8.585575,-10.043722,6.4791594,-1.104363,0.2310115,11.703908,2.0764205,14.050488,-31.202188,59.99202,-1.8096356,2.4654026,-8.143603,-6.864361,-16.612686,57.11639,59.32702,-4.208684,1.8951898,9.320367
77,-2.165018320083618,0.9018760323524475,78.36832427978516,0.7710882273946985,-6.570704333895784,-8.387126068059588,14.109456,6.903544,22.402843,6.7933326,-10.167175,-8.482803,8.195767,-6.711358,-11.626986,8.585342,-10.04287,6.4810705,-1.1053478,0.23212221,11.6956835,2.0699537,14.058615,-31.213158,59.974373,-1.8499225,2.4626787,-8.158488,-6.874843,-16.614025,57.12885,59.330906,-4.2262983,1.9077672,9.325716
78,-2.1674115657806396,0.9107069373130798,78.3695297241211,0.7753946378472842,-6.564324973324206,-8.395704685767738,14.101854,6.894228,22.409794,6.7930627,-10.170435,-8.466014,8.180051,-6.7199874,-11.615748,8.591841,-10.046561,6.4820223,-1.1081117,0.23354293,11.68826,2.0653918,14.06317,-31.222313,59.95101,-1.890046,2.4535217,-8.176245,-6.8904386,-16.614815,57.13565,59.33527,-4.178481,1.9185979,9.294217
79,-2.169445514678955,0.9096289277076721,78.3719711303711,0.7792528237372929,-6.558355991956097,-8.403697319588243,14.093409,6.885925,22.416334,6.7946305,-10.174243,-8.448983,8.163395,-6.728524,-11.604326,8.600667,-10.050956,6.4819984,-1.1112778,0.23482923,11.680954,2.059568,14.068267,-31.232811,59.92997,-1.9274471,2.4447844,-8.196611,-6.9072437,-16.615753,57.14143,59.341293,-4.084026,1.9222424,9.237148
80,-2.1727640628814697,0.9148107171058655,78.37345886230469,0.7811795551803292,-6.556209251743507,-8.410777503698561,14.090994,6.8800807,22.423347,6.793741,-10.175488,-8.439806,8.154398,-6.7337074,-11.59473,8.603793,-10.050702,6.4809628,-1.1131968,0.23791818,11.676165,2.0519824,14.071662,-31.244566,59.912174,-1.961013,2.4460266,-8.21705,-6.9232993,-16.61649,57.147163,59.349438,-3.9591074,1.9142821,9.164229
81,-2.170736789703369,0.9182948470115662,78.37388610839844,0.7791548153025498,-6.560234059166353,-8.41585842841755,14.094961,6.8806243,22.430492,6.794461,-10.1748905,-8.443689,8.151774,-6.734013,-11.587783,8.611081,-10.050152,6.4768133,-1.1149255,0.24360365,11.67378,2.0421937,14.073951,-31.253342,59.901596,-1.982131,2.4617271,-8.242105,-6.9355965,-16.617043,57.150555,59.35968,-3.7868822,1.887223,9.062725
82,-2.1738359928131104,0.9260097742080688,78.37383270263672,0.7751225051547135,-6.56810524381108,-8.41988652019687,14.104506,6.8840365,22.438196,6.793636,-10.172117,-8.45514,8.15537,-6.731489,-11.582189,8.615777,-10.046604,6.470422,-1.1145769,0.25065103,11.674626,2.0272715,14.0776415,-31.267508,59.89558,-2.00142,2.4871652,-8.270763,-6.948139,-16.618034,57.15661,59.372883,-3.556573,1.8445361,8.928972
83,-2.177186965942383,0.9258385896682739,78.37290954589844,0.7707603563097081,-6.576931620199855,-8.423575357413203,14.115302,6.887542,22.445364,6.7925286,-10.169289,-8.466995,8.159815,-6.7286215,-11.57714,8.621334,-10.043146,6.4656343,-1.1134582,0.25680017,11.674384,2.014467,14.083872,-31.28639,59.889706,-2.0198736,2.5137289,-8.295698,-6.9579678,-16.619928,57.16339,59.383102,-3.3281631,1.800436,8.79923
84,-2.1795854568481445,0.9274507164955139,78.37096405029297,0.7686704399698894,-6.583786734888819,-8.427894245120541,14.12323,6.887979,22.450914,6.7919908,-10.167771,-8.472143,8.164238,-6.7279887,-11.572094,8.622044,-10.038553,6.4664655,-1.1183292,0.260014,11.672306,2.0085225,14.086416,-31.2917,59.884117,-2.0269194,2.5326633,-8.310873,-6.9670806,-16.620916,57.163044,59.38902,-3.172316,1.7706958,8.712673
85,-2.18110990524292,0.9364186525344849,78.37057495117188,0.7695357842137723,-6.5885843656034595,-8.4345024469219,14.128439,6.8842483,22.45563,6.792204,-10.1681,-8.468346,8.166579,-6.730412,-11.565185,8.621372,-10.035205,6.476839,-1.1163232,0.26183885,11.673059,1.9999219,14.091693,-31.30502,59.875103,-2.0337522,2.5450907,-8.313689,-6.98027,-16.62331,57.166332,59.395054,-3.0655956,1.7520404,8.663824
86,-2.1805989742279053,0.9341357350349426,78.37138366699219,0.7720603932989011,-6.5912987181987654,-8.441843280657318,14.131309,6.8777237,22.45917,6.792618,-10.169582,-8.459309,8.168946,-6.734221,-11.558101,8.61583,-10.030063,6.4936,-1.1209186,0.2607074,11.668911,1.9976221,14.093267,-31.308207,59.87005,-2.0318494,2.5511515,-8.306325,-6.98993,-16.62424,57.16514,59.395996,-3.0128353,1.7454776,8.647944
87,-2.183634042739868,0.9375970959663391,78.37177276611328,0.7752572010331237,-6.595061582046986,-8.448688800406282,14.135885,6.870026,22.461927,6.791412,-10.170922,-8.447624,8.174675,-6.7386465,-11.552238,8.605669,-10.023347,6.5103893,-1.1230888,0.259553,11.668741,1.9944252,14.095985,-31.314045,59.862747,-2.0275474,2.55575,-8.295368,-7.0037155,-16.626228,57.164845,59.398735,-2.993341,1.7434595,8.653452
88,-2.185163736343384,0.9393841028213501,78.37100219726562,0.778549421010022,-6.600315776795529,-8.454233183598792,14.140731,6.86349,22.464516,6.7928796,-10.173758,-8.435842,8.177065,-6.744839,-11.547753,8.607239,-10.02302,6.520696,-1.1258196,0.257883,11.667622,1.9911394,14.097174,-31.316895,59.859554,-2.0205874,2.559367,-8.290067,-7.011901,-16.627317,57.1659,59.400684,-3.0181515,1.7456832,8.673757
89,-2.1882712841033936,0.9425661563873291,78.37194061279297,0.7822829205850274,-6.61117359960251,-8.45690944279489,14.152179,6.8565373,22.46591,6.7929473,-10.176849,-8.422948,8.1847105,-6.7530994,-11.546779,8.612938,-10.026011,6.5214076,-1.1304312,0.25538227,11.6724615,1.9864293,14.098973,-31.323044,59.856785,-2.0185664,2.5636213,-8.289479,-7.023678,-16.62943,57.17045,59.406788,-3.1032484,1.751485,8.721797
90,-2.191054344177246,0.9493059515953064,78.37049102783203,0.7866356932252373,-6.624635298365344,-8.458205696952248,14.16613,6.84941,22.466866,6.7934093,-10.180908,-8.408229,8.189124,-6.763998,-11.547308,8.632314,-10.036947,6.516332,-1.1348684,0.2522258,11.677923,1.9826277,14.101323,-31.329018,59.85539,-2.0159316,2.5665214,-8.292728,-7.030882,-16.633026,57.17847,59.410957,-3.2386189,1.762091,8.790351
91,-2.193060874938965,0.9537785053253174,78.37251281738281,0.7905819557386833,-6.636569867407618,-8.459145583692793,14.17831,6.842971,22.46809,6.793539,-10.184344,-8.394177,8.19649,-6.7736373,-11.548976,8.642099,-10.042282,6.5098634,-1.139627,0.24915788,11.682151,1.9782372,14.1028385,-31.333385,59.856087,-2.0089586,2.568328,-8.295996,-7.0373826,-16.636078,57.18702,59.41489,-3.3936143,1.7762556,8.867868
92,-2.191427230834961,0.9553540349006653,78.37433624267578,0.7937046678136416,-6.642001776588498,-8.461387699626862,14.183978,6.8374085,22.471222,6.793273,-10.1865,-8.383152,8.197064,-6.781214,-11.549191,8.649593,-10.04433,6.506601,-1.1442873,0.24700671,11.681369,1.9733418,14.103542,-31.33806,59.858315,-1.996499,2.568796,-8.295571,-7.0445776,-16.63781,57.194798,59.420155,-3.5355499,1.7920761,8.940179
93,-2.1937363147735596,0.9568242430686951,78.37592315673828,0.7966376002515843,-6.637702529399183,-8.465637698297504,14.178708,6.832502,22.477003,6.7935634,-10.18764,-8.374013,8.186948,-6.7874994,-11.547669,8.654738,-10.041465,6.50767,-1.1498334,0.24604851,11.672141,1.9677128,14.10479,-31.348013,59.86312,-1.981429,2.5680182,-8.286848,-7.0539975,-16.641756,57.20691,59.427486,-3.671133,1.8129297,9.013432
94,-2.193161725997925,0.9582186937332153,78.374755859375,0.7992015857621881,-6.626634235842524,-8.470990177167533,14.166267,6.8281784,22.484903,6.793845,-10.18781,-8.366113,8.169534,-6.7927504,-11.545186,8.658683,-10.035726,6.5107026,-1.1541743,0.2457495,11.657979,1.9614606,14.105624,-31.36017,59.868546,-1.9622351,2.5667849,-8.273197,-7.061911,-16.644705,57.218533,59.433285,-3.812022,1.8386151,9.090235
95,-2.1937263011932373,0.961562991142273,78.37428283691406,0.8003939979938068,-6.615777282912415,-8.475986458343362,14.154365,6.8252063,22.492373,6.793188,-10.186751,-8.362506,8.155793,-6.79536,-11.54298,8.654729,-10.025736,6.514917,-1.1559,0.24618226,11.645569,1.9549701,14.106016,-31.367342,59.87303,-1.9354122,2.5644581,-8.262757,-7.0691423,-16.645943,57.225163,59.44094,-3.9268878,1.8604307,9.150943
96,-2.196249485015869,0.9640337228775024,78.37454986572266,0.799617945585527,-6.605676932769628,-8.481040241214087,14.143183,6.8246756,22.499065,6.793353,-10.185342,-8.36598,8.141889,-6.7952113,-11.538944,8.653126,-10.018925,6.5193877,-1.1628188,0.24809895,11.627542,1.9513813,14.106468,-31.379263,59.881042,-1.9155293,2.5573773,-8.255388,-7.077502,-16.647926,57.23329,59.445927,-4.009343,1.8777239,9.198413
97,-2.196404457092285,0.9627232551574707,78.37177276611328,0.7953446466770947,-6.603403970713283,-8.483717491100368,14.1411705,6.827482,22.502254,6.7921205,-10.182105,-8.382389,8.13865,-6.7907043,-11.535089,8.649416,-10.0151825,6.524991,-1.1656252,0.2541845,11.613246,1.9517689,14.107399,-31.3926,59.884308,-1.8919836,2.5457988,-8.26021,-7.08009,-16.65387,57.238026,59.44723,-4.019799,1.8815182,9.205667
98,-2.196690082550049,0.9646248817443848,78.37189483642578,0.7882056426574277,-6.6045556742750655,-8.485291580810507,14.14319,6.833569,22.503725,6.790715,-10.177507,-8.408585,8.144048,-6.781383,-11.531325,8.635733,-10.0081625,6.5315394,-1.1707921,0.26090306,11.602455,1.9534624,14.107704,-31.39361,59.886093,-1.8583084,2.530885,-8.274267,-7.082927,-16.655779,57.23585,59.44655,-3.9915469,1.8785747,9.190075
99,-2.200153350830078,0.9675593376159668,78.3718032836914,0.7807313937073388,-6.606267037327085,-8.487492657059258,14.145602,6.840151,22.505228,6.78943,-10.173194,-8.434135,8.149467,-6.771518,-11.526532,8.623467,-10.002442,6.5378475,-1.1743841,0.26784405,11.592876,1.9568326,14.108177,-31.391876,59.885975,-1.824035,2.5160067,-8.289294,-7.0864353,-16.658882,57.230446,59.44693,-3.9353814,1.8708621,9.158738
100,-2.2014639377593994,0.972038984298706,78.37295532226562,0.7758551798620108,-6.6052716631425845,-8.49225120337976,14.144781,6.8443236,22.508821,6.7892504,-10.1716585,-8.448348,8.146971,-6.7650895,-11.519721,8.619407,-9.9991,6.5427194,-1.179327,0.2710009,11.582256,1.9589698,14.108399,-31.390995,59.88665,-1.8045634,2.5083852,-8.29478,-7.0914054,-16.660471,57.226883,59.447628,-3.8712559,1.8634621,9.122812
101,-2.202338933944702,0.9735016822814941,78.37521362304688,0.773463493605179,-6.598611006881207,-8.501372069762123,14.138941,6.8460183,22.515984,6.787511,-10.172498,-8.446265,8.139221,-6.76036,-11.510258,8.610202,-9.990395,6.545115,-1.1727183,0.27440372,11.571992,1.9607886,14.109076,-31.393362,59.883255,-1.7916576,2.506592,-8.291381,-7.097138,-16.66655,57.218536,59.449013,-3.7770965,1.8535907,9.070954
102,-2.2035927772521973,0.9721269011497498,78.37602996826172,0.7729024702267291,-6.589638824452167,-8.51309578535182,14.128892,6.8465815,22.52478,6.7890687,-10.1769905,-8.434202,8.121741,-6.758852,-11.498191,8.615064,-9.988141,6.5462375,-1.1683999,0.2738622,11.559224,1.9626517,14.10922,-31.396046,59.88195,-1.7942804,2.511359,-8.279637,-7.103004,-16.669094,57.213356,59.450394,-3.6654692,1.8436248,9.009967
103,-2.202958822250366,0.9751876592636108,78.37708282470703,0.7736317102854072,-6.5798959411173925,-8.52542505084078,14.117815,6.8460336,22.534243,6.790753,-10.181548,-8.418971,8.10452,-6.758473,-11.485795,8.616811,-9.9831505,6.5468287,-1.1563482,0.27416337,11.547237,1.9612966,14.109324,-31.4094,59.879993,-1.8027829,2.5177703,-8.263925,-7.1067276,-16.676937,57.20351,59.45025,-3.540658,1.8301833,8.940629
104,-2.207674741744995,0.979589581489563,78.37582397460938,0.7753555208998599,-6.573211917847648,-8.53630050191789,14.111289,6.843245,22.543585,6.7899013,-10.183602,-8.4073515,8.089981,-6.7600236,-11.474209,8.619931,-9.978378,6.5478673,-1.1476346,0.27073207,11.538155,1.9596083,14.1092615,-31.416883,59.879345,-1.8048428,2.521257,-8.249801,-7.110734,-16.68025,57.19798,59.451473,-3.4209616,1.8153502,8.869091
105,-2.209642171859741,0.9832529425621033,78.3758544921875,0.7792012778086161,-6.570055567883751,-8.544854684006236,14.108022,6.8379235,22.552265,6.7907724,-10.184985,-8.400035,8.080198,-6.7646346,-11.464021,8.62153,-9.971838,6.551112,-1.1369488,0.26533058,11.532915,1.9558465,14.109122,-31.42812,59.878365,-1.8038228,2.5210853,-8.23416,-7.114805,-16.684734,57.19302,59.45454,-3.2929058,1.7943188,8.786352
106,-2.2091948986053467,0.9826015830039978,78.37728881835938,0.7849000964938111,-6.569034520333933,-8.55222014139942,14.1076355,6.8298635,22.560976,6.7902875,-10.184543,-8.393807,8.072418,-6.7721334,-11.454414,8.623781,-9.96446,6.5555434,-1.1268338,0.25769874,11.530264,1.953018,14.108907,-31.438324,59.875366,-1.8004946,2.5193882,-8.216527,-7.119547,-16.690033,57.189358,59.459957,-3.156417,1.76861,8.693351
107,-2.212556838989258,0.9808160066604614,78.3758773803711,0.7903421741253174,-6.568928482119823,-8.559207978030312,14.108215,6.821925,22.569557,6.7894993,-10.183402,-8.389406,8.06151,-6.78025,-11.444832,8.634923,-9.962026,6.5580387,-1.115414,0.25039923,11.529427,1.9474766,14.10864,-31.452156,59.874126,-1.7956481,2.5165884,-8.201768,-7.122315,-16.69709,57.187164,59.46206,-3.033465,1.7442311,8.609316
108,-2.22002911567688,0.9878008365631104,78.37593841552734,0.7927382467637337,-6.569112994458102,-8.565528896599764,14.107696,6.818496,22.57686,6.7897277,-10.181715,-8.387952,8.055758,-6.7835164,-11.437431,8.636377,-9.9562,6.555418,-1.1077389,0.2460742,11.530035,1.9419762,14.10843,-31.464024,59.873646,-1.7824628,2.513204,-8.196648,-7.1271496,-16.703426,57.18811,59.465603,-2.9513824,1.7268709,8.555416
109,-2.2173686027526855,0.9856008887290955,78.37751770019531,0.7907191257362794,-6.569064428859123,-8.57180206314983,14.105936,6.8207407,22.583054,6.789585,-10.177959,-8.391469,8.04821,-6.781906,-11.431329,8.642466,-9.955445,6.544105,-1.1069757,0.24413939,11.530976,1.9389929,14.108448,-31.469156,59.873188,-1.7528214,2.5096374,-8.206637,-7.133142,-16.705383,57.189716,59.47114,-2.917778,1.7169669,8.537841
110,-2.2192821502685547,0.9878199696540833,78.37908935546875,0.7862977506279965,-6.5686878768931845,-8.57896325739435,14.104003,6.826181,22.589933,6.788486,-10.172385,-8.398856,8.037407,-6.7776375,-11.424969,8.653901,-9.958604,6.52665,-1.0998365,0.24825034,11.534848,1.9303744,14.108505,-31.485838,59.87488,-1.7113411,2.503424,-8.22874,-7.143806,-16.710497,57.198105,59.482037,-2.897211,1.7063624,8.538433
111,-2.2295377254486084,0.9901735782623291,78.38020324707031,0.7808773547818062,-6.569244878438923,-8.584324586084977,14.102355,6.8327565,22.59481,6.7884417,-10.168142,-8.406032,8.028047,-6.77224,-11.420583,8.666093,-9.962936,6.509296,-1.0978254,0.2513361,11.538558,1.923,14.108651,-31.498812,59.87742,-1.6775107,2.498021,-8.249449,-7.1515703,-16.713987,57.20585,59.48957,-2.9213545,1.7066083,8.563407
112,-2.2346460819244385,0.9914115071296692,78.38148498535156,0.7763805134622354,-6.570880417908211,-8.586848696116379,14.101257,6.838288,22.59714,6.7881885,-10.165486,-8.409137,8.024667,-6.767294,-11.419096,8.668862,-9.962086,6.49823,-1.093858,0.25566053,11.540307,1.9127527,14.109336,-31.52833,59.88263,-1.678905,2.4937305,-8.255408,-7.152897,-16.725674,57.22089,59.487522,-2.9824913,1.7207367,8.607956
113,-2.235517740249634,0.9878543019294739,78.38214111328125,0.7733989708584198,-6.575375752609977,-8.583760941859065,14.102647,6.841517,22.594625,6.7883987,-10.166808,-8.405198,8.025984,-6.7643366,-11.422528,8.67193,-9.961804,6.496083,-1.0985968,0.25494277,11.547566,1.9017333,14.11015,-31.542177,59.887104,-1.7081807,2.4916074,-8.245342,-7.1550922,-16.72999,57.2318,59.48311,-3.1296139,1.7616589,8.689753
114,-2.239265203475952,0.993200957775116,78.38280487060547,0.7708954576903906,-6.5818649753528575,-8.57667340416141,14.105397,6.8442564,22.588524,6.7890005,-10.170714,-8.397087,8.034026,-6.7614923,-11.429955,8.667783,-9.958115,6.4992557,-1.1067002,0.25377044,11.557037,1.8899707,14.110997,-31.554806,59.890785,-1.7624546,2.490896,-8.224195,-7.1565166,-16.732101,57.244328,59.47671,-3.3377175,1.8207597,8.802358
115,-2.240598440170288,0.9944664239883423,78.38044738769531,0.7682138485919459,-6.5878178052280685,-8.5703484367133,14.107749,6.847284,22.582859,6.789933,-10.174824,-8.389037,8.041219,-6.758097,-11.436756,8.663775,-9.954316,6.5042357,-1.1140444,0.2527441,11.563031,1.8783132,14.113352,-31.578241,59.89738,-1.8278817,2.4900382,-8.198937,-7.155738,-16.736132,57.26479,59.46852,-3.5473268,1.87842,8.9173975
116,-2.2492010593414307,0.9934660196304321,78.37940216064453,0.7650811874880569,-6.590592024482291,-8.570473539272088,14.106941,6.851534,22.582636,6.7915163,-10.176835,-8.385561,8.042768,-6.7533746,-11.437828,8.65901,-9.948905,6.5075665,-1.1138109,0.25231847,11.566576,1.8697621,14.116886,-31.598963,59.90135,-1.8638561,2.4892085,-8.183882,-7.1544566,-16.74106,57.28216,59.46249,-3.7083216,1.9108883,9.006454
117,-2.260385274887085,0.9924001097679138,78.37798309326172,0.7602496275156867,-6.589009655508996,-8.580110724667689,14.103417,6.858004,22.589794,6.791471,-10.174355,-8.390111,8.036566,-6.7450576,-11.430633,8.653361,-9.941208,6.5084267,-1.1052438,0.25314078,11.5686865,1.8633547,14.118969,-31.609507,59.905148,-1.8522339,2.486774,-8.183922,-7.1560636,-16.743744,57.29305,59.46187,-3.8152654,1.9086126,9.066773
118,-2.2639169692993164,0.996554434299469,78.3803939819336,0.7542413278834216,-6.5846195080627385,-8.595954165527461,14.097939,6.866138,22.601748,6.7907195,-10.169301,-8.399574,8.026113,-6.7341065,-11.418224,8.645072,-9.930985,6.508613,-1.0912312,0.2549404,11.567411,1.8593445,14.122226,-31.620321,59.909138,-1.8184437,2.4831583,-8.191095,-7.1574526,-16.748049,57.30617,59.46269,-3.8894932,1.88496,9.110303
119,-2.265146255493164,0.9956150054931641,78.38182830810547,0.7493270929761116,-6.579152608899208,-8.613045192196594,14.091636,6.872951,22.615318,6.7901325,-10.164299,-8.408241,8.0123415,-6.724946,-11.4040785,8.640944,-9.922829,6.508601,-1.0754374,0.25574806,11.567243,1.855065,14.123675,-31.625109,59.913002,-1.774773,2.481506,-8.201435,-7.1601486,-16.750011,57.31346,59.466,-3.9381866,1.8537643,9.138754
120,-2.269705057144165,0.998032808303833,78.38455200195312,0.7473509867462411,-6.574300842372825,-8.626841513977206,14.084914,6.8762836,22.627865,6.7902036,-10.161495,-8.410553,7.999191,-6.7202787,-11.391778,8.639125,-9.916586,6.5086765,-1.0622561,0.25402543,11.567674,1.8489594,14.126122,-31.631464,59.91701,-1.7479672,2.483351,-8.20966,-7.162701,-16.753407,57.323685,59.468178,-3.9556718,1.8267839,9.151206
121,-2.270355224609375,0.9988413453102112,78.38601684570312,0.7499789753554426,-6.571305599891816,-8.634777460088655,14.079754,6.8733478,22.638147,6.790552,-10.162683,-8.402134,7.9880447,-6.723201,-11.382206,8.642199,-9.913868,6.50874,-1.0528878,0.24798988,11.571361,1.8404894,14.129513,-31.639662,59.919586,-1.7456545,2.4926925,-8.21448,-7.164634,-16.758244,57.334976,59.468426,-3.9550426,1.8099556,9.153985
122,-2.281906843185425,1.0013540983200073,78.38457489013672,0.7558632457527673,-6.569346525204952,-8.639894712469697,14.075374,6.8665495,22.64793,6.789464,-10.164549,-8.38711,7.9762177,-6.7312183,-11.373429,8.650439,-9.9141035,6.508637,-1.0443896,0.23926353,11.577319,1.8312355,14.130685,-31.644135,59.921528,-1.7504965,2.5075097,-8.218619,-7.166732,-16.759933,57.33967,59.471382,-3.9389062,1.7960961,9.146375
123,-2.285687208175659,1.0004926919937134,78.3842544555664,0.7624230672209997,-6.5658850084947264,-8.645070321898446,14.068795,6.8589396,22.657995,6.790673,-10.167882,-8.371817,7.964141,-6.7401147,-11.36512,8.656655,-9.914021,6.508946,-1.0340519,0.2298727,11.581878,1.8179927,14.133356,-31.653746,59.926384,-1.7623371,2.5210752,-8.222432,-7.1687245,-16.763906,57.34698,59.471985,-3.8723419,1.778646,9.11316
124,-2.287907838821411,1.0050897598266602,78.38504791259766,0.7666010770035614,-6.559891256836827,-8.6528154257692,14.061189,6.853712,22.66885,6.7907124,-10.168936,-8.362821,7.9508615,-6.7456107,-11.357124,8.65857,-9.912367,6.51017,-1.0227349,0.22286105,11.581964,1.8114965,14.134423,-31.656454,59.927406,-1.7623361,2.5276325,-8.225795,-7.170431,-16.765505,57.34793,59.47098,-3.740925,1.7540654,9.044568
125,-2.2926390171051025,1.0041069984436035,78.3847427368164,0.7682141530102776,-6.5479603102244965,-8.665481193214244,14.048847,6.851104,22.681835,6.789589,-10.165857,-8.36325,7.9297132,-6.7477655,-11.349028,8.661208,-9.911133,6.5118065,-1.006238,0.2177982,11.575996,1.8063903,14.1387415,-31.660334,59.925312,-1.7519221,2.5241768,-8.231559,-7.171554,-16.772015,57.351414,59.461056,-3.4941146,1.7127018,8.915836
126,-2.292022466659546,1.003361463546753,78.38603210449219,0.7676349555984104,-6.532462277205546,-8.680555406728033,14.033413,6.8508286,22.695545,6.788406,-10.160657,-8.369305,7.90768,-6.746666,-11.3420315,8.656761,-9.906566,6.513667,-0.98858947,0.21577671,11.565312,1.8066676,14.140721,-31.656317,59.91995,-1.7281574,2.5142572,-8.238371,-7.174246,-16.774906,57.347946,59.453037,-3.1689563,1.6592858,8.744409
127,-2.2946107387542725,1.0065237283706665,78.38835906982422,0.7669151895505122,-6.517713680205388,-8.695674863500985,14.019455,6.8506804,22.709059,6.787258,-10.155896,-8.376618,7.888016,-6.7449465,-11.334582,8.650272,-9.902518,6.5173216,-0.97356975,0.21293706,11.555336,1.8086765,14.144027,-31.649343,59.9139,-1.7069763,2.501824,-8.243353,-7.1771693,-16.779467,57.346424,59.440914,-2.8265357,1.6078875,8.565083
128,-2.298858165740967,1.0111621618270874,78.38842010498047,0.7669509309228894,-6.508773500702342,-8.707740988792198,14.011281,6.850347,22.72027,6.7867246,-10.154032,-8.381026,7.8786664,-6.7429166,-11.3261385,8.637501,-9.898067,6.5241785,-0.9630222,0.20923474,11.549245,1.8121316,14.146821,-31.643671,59.910576,-1.6986485,2.4911478,-8.241075,-7.179413,-16.783043,57.344025,59.43013,-2.5386217,1.573533,8.4162035
129,-2.297426462173462,1.0102922916412354,78.38697814941406,0.7687654953960557,-6.508615950053689,-8.716331142879486,14.013459,6.8485365,22.729406,6.7849936,-10.15543,-8.380716,7.8793807,-6.742031,-11.314436,8.628004,-9.900321,6.5355988,-0.95751595,0.2030513,11.550169,1.8159188,14.151272,-31.64041,59.910538,-1.7156416,2.4815116,-8.227308,-7.180511,-16.788029,57.340515,59.41737,-2.3074052,1.5622818,8.301865
130,-2.2928783893585205,1.0078480243682861,78.38481140136719,0.7715077959815528,-6.513929406362071,-8.722472386808885,14.020397,6.8467846,22.736792,6.7860103,-10.160404,-8.378135,7.8864427,-6.7414913,-11.300957,8.619877,-9.906556,6.5504885,-0.9572145,0.19626749,11.552748,1.8213536,14.153774,-31.638535,59.91449,-1.749599,2.4722595,-8.204767,-7.180512,-16.790392,57.334164,59.406624,-2.106828,1.5660559,8.206156
131,-2.2982773780822754,1.0089939832687378,78.38397979736328,0.7742030565229,-6.520380816595001,-8.727767083575522,14.029446,6.844923,22.743021,6.7853074,-10.165394,-8.375495,7.898772,-6.7401185,-11.287696,8.60501,-9.909782,6.5668263,-0.9532204,0.18892807,11.558707,1.8235785,14.156297,-31.639421,59.9218,-1.7778633,2.463793,-8.18184,-7.1801085,-16.79251,57.329014,59.39526,-1.9370443,1.5785673,8.123918
132,-2.302578926086426,1.013288974761963,78.3842544555664,0.7756944214346395,-6.5210788945191105,-8.730984669709391,14.031023,6.8437796,22.746014,6.785988,-10.170767,-8.374485,7.903583,-6.7391477,-11.2783785,8.594572,-9.912721,6.582763,-0.9543033,0.18390797,11.55727,1.8275574,14.158864,-31.640747,59.93227,-1.7886859,2.4589725,-8.169809,-7.1783543,-16.794498,57.323235,59.38897,-1.8341659,1.5886375,8.07234
133,-2.3024959564208984,1.013906717300415,78.38247680664062,0.7752930915524322,-6.5132477626517895,-8.731738321832962,14.022485,6.843513,22.744656,6.7855215,-10.174038,-8.376129,7.90366,-6.7373166,-11.274175,8.577077,-9.908104,6.601643,-0.9538053,0.18100211,11.549641,1.8306848,14.163185,-31.644354,59.945652,-1.7705386,2.4578872,-8.170428,-7.173979,-16.797926,57.317352,59.38521,-1.7996179,1.5959897,8.045918
134,-2.30397367477417,1.01503324508667,78.38240051269531,0.7736979887960881,-6.500175225749571,-8.730106354502396,14.007495,6.8439584,22.739632,6.785371,-10.177299,-8.379232,7.899102,-6.735133,-11.273354,8.559465,-9.901056,6.623034,-0.95449287,0.1793406,11.5353985,1.8340906,14.167387,-31.648844,59.963314,-1.7336432,2.4602153,-8.179579,-7.164815,-16.80168,57.31202,59.381348,-1.8260459,1.6054263,8.043852
135,-2.30291748046875,1.0185821056365967,78.3829116821289,0.7720204287298827,-6.488084822232502,-8.729098792276028,13.994259,6.8443785,22.735088,6.7836976,-10.179622,-8.382839,7.8959374,-6.733095,-11.273371,8.541335,-9.893275,6.6398506,-0.9591112,0.17881903,11.524605,1.8380933,14.168386,-31.650597,59.981182,-1.690687,2.4647875,-8.191758,-7.1613626,-16.802652,57.310863,59.383915,-1.8875892,1.6173654,8.062908
136,-2.2975449562072754,1.0154776573181152,78.38275146484375,0.7696359155022242,-6.477509612564973,-8.729203921696271,13.982678,6.8462024,22.732206,6.7853756,-10.183943,-8.3856125,7.8916435,-6.730296,-11.273728,8.528946,-9.889623,6.644496,-0.9617075,0.17673372,11.507608,1.8485283,14.173307,-31.652035,60.00111,-1.6369004,2.467783,-8.212281,-7.145449,-16.808342,57.29209,59.37395,-1.9912679,1.6392747,8.112314
137,-2.2953264713287354,1.01615309715271,78.38291931152344,0.7679165868301749,-6.475621502954907,-8.733320452735526,13.983553,6.8475637,22.733994,6.785123,-10.188142,-8.387585,7.8857374,-6.7296085,-11.271968,8.538741,-9.899576,6.627978,-0.9677448,0.17366792,11.49987,1.8606375,14.175153,-31.65019,60.02281,-1.5760002,2.4704337,-8.242235,-7.1382446,-16.810846,57.278915,59.36894,-2.1144855,1.671137,8.19135
138,-2.301328182220459,1.0168225765228271,78.38167572021484,0.7658054047103493,-6.478029579501449,-8.73945627337552,13.990243,6.849631,22.73834,6.785654,-10.193535,-8.389284,7.8782845,-6.729221,-11.269732,8.561565,-9.917458,6.596513,-0.97499716,0.1702157,11.494016,1.8762697,14.176722,-31.645552,60.04649,-1.5008243,2.4737139,-8.281942,-7.1293974,-16.813366,57.26184,59.36171,-2.275949,1.7119659,8.299809
139,-2.2964179515838623,1.0166370868682861,78.3812484741211,0.7644546178636386,-6.479606858751429,-8.746948181995595,13.996559,6.850849,22.744251,6.786165,-10.198514,-8.390554,7.870186,-6.7294173,-11.266596,8.582715,-9.933759,6.566243,-0.97402513,0.1647,11.492344,1.8909746,14.179542,-31.635,60.064617,-1.4237818,2.4768584,-8.318577,-7.114841,-16.818998,57.213585,59.34469,-2.473728,1.753852,8.425942
140,-2.2895612716674805,1.015820860862732,78.38035583496094,0.7639404256924279,-6.476539758811999,-8.754717868643064,13.997948,6.8508506,22.7509,6.785086,-10.200689,-8.391549,7.8634877,-6.729068,-11.262692,8.589532,-9.940852,6.5531383,-0.97852105,0.160494,11.487502,1.9020661,14.180892,-31.633709,60.081215,-1.3970666,2.478921,-8.327507,-7.110817,-16.822786,57.18953,59.33728,-2.63884,1.7852775,8.533011
141,-2.2930567264556885,1.0170457363128662,78.38119506835938,0.7658690861683789,-6.465632969170236,-8.763388032771017,13.988644,6.848414,22.758507,6.785398,-10.200679,-8.392052,7.8535595,-6.7300315,-11.25628,8.582134,-9.936901,6.5674496,-0.98424023,0.1552496,11.479744,1.9103814,14.181532,-31.635342,60.090137,-1.4271061,2.4804633,-8.296917,-7.1133595,-16.825981,57.17353,59.332943,-2.7890787,1.8073237,8.6251745
142,-2.2877204418182373,1.014441967010498,78.3809814453125,0.7688045472906091,-6.450048849280583,-8.772741873124687,13.974243,6.844131,22.767065,6.7843986,-10.198265,-8.392047,7.8472714,-6.730328,-11.249063,8.554532,-9.920197,6.598549,-0.99101686,0.15007247,11.470352,1.9166287,14.181762,-31.640337,60.09426,-1.4976143,2.4811738,-8.239359,-7.121676,-16.82975,57.16097,59.33217,-2.93552,1.8234184,8.713091
143,-2.2828378677368164,1.0152816772460938,78.38090515136719,0.771874431456635,-6.433884449011292,-8.7826434461988,13.959571,6.840339,22.776724,6.783704,-10.195653,-8.391972,7.837171,-6.7311387,-11.24086,8.533747,-9.907227,6.631609,-0.9982558,0.14519002,11.461641,1.9220773,14.181536,-31.646605,60.09686,-1.5795805,2.4815605,-8.17842,-7.1320143,-16.833492,57.15286,59.333153,-3.0665684,1.8323683,8.789779
144,-2.282477617263794,1.0178742408752441,78.3812026977539,0.772915543468845,-6.421538116598735,-8.79283515949369,13.950056,6.839571,22.787453,6.783259,-10.194139,-8.392173,7.8302965,-6.7292056,-11.233127,8.517015,-9.899636,6.651494,-1.0021912,0.14286307,11.456333,1.9272093,14.180752,-31.657648,60.099815,-1.6473836,2.4821992,-8.134506,-7.1408505,-16.839088,57.140507,59.335148,-3.1774263,1.8330562,8.852647
145,-2.2801880836486816,1.0181384086608887,78.38262176513672,0.7714133816774092,-6.416026297323105,-8.803894322120646,13.950549,6.8430157,22.800575,6.7829204,-10.194096,-8.392445,7.8279777,-6.724174,-11.225575,8.510076,-9.90237,6.6535087,-1.0025051,0.14293751,11.456919,1.9298058,14.178829,-31.670332,60.108818,-1.6908879,2.483526,-8.118373,-7.1475,-16.848528,57.125404,59.33719,-3.2220616,1.8161305,8.872078
146,-2.279118537902832,1.017891764640808,78.38337707519531,0.7682531541588506,-6.414416247742579,-8.815904602462828,13.956642,6.8491125,22.815828,6.7830663,-10.19493,-8.392688,7.828266,-6.7169857,-11.2177515,8.507923,-9.910606,6.6459317,-1.0053016,0.14349921,11.460981,1.9338369,14.176403,-31.677498,60.119213,-1.723035,2.4852595,-8.1169195,-7.1554174,-16.857862,57.115746,59.339985,-3.2189417,1.7868229,8.859899
147,-2.274348735809326,1.0140113830566406,78.38202667236328,0.7644665719663474,-6.412242492083455,-8.826830392955516,13.9619665,6.8562384,22.829775,6.7828574,-10.196001,-8.393469,7.826135,-6.7093596,-11.210795,8.510568,-9.921554,6.633173,-1.0098875,0.14356643,11.465138,1.937214,14.174279,-31.683266,60.128216,-1.749018,2.4863224,-8.122425,-7.164197,-16.865019,57.11026,59.34574,-3.247579,1.7614411,8.866306
148,-2.2708356380462646,1.0139554738998413,78.38233947753906,0.7612529494759549,-6.404506840777444,-8.83551880126705,13.959157,6.8625054,22.840044,6.783136,-10.197544,-8.39536,7.814605,-6.7035303,-11.204498,8.517998,-9.930671,6.619864,-1.0166184,0.1439094,11.466376,1.9375218,14.172369,-31.69267,60.133602,-1.7793437,2.484348,-8.127038,-7.174736,-16.87106,57.10646,59.356983,-3.3920736,1.7528735,8.946423
149,-2.273641586303711,1.0141162872314453,78.38056182861328,0.7581452175248943,-6.38804959134583,-8.83989067871864,13.943651,6.867783,22.84368,6.7827573,-10.198685,-8.398962,7.792845,-6.6989565,-11.201124,8.523461,-9.932589,6.601997,-1.0239924,0.14579552,11.459888,1.9344597,14.168719,-31.71095,60.13601,-1.8150666,2.4782622,-8.129005,-7.1809683,-16.88201,57.104904,59.367275,-3.7598028,1.7782347,9.165041
150,-2.270263433456421,1.0101063251495361,78.3814697265625,0.7550959566452129,-6.3657650235443946,-8.841967614892713,13.919566,6.873051,22.843443,6.783483,-10.20066,-8.40384,7.759877,-6.695794,-11.19867,8.537177,-9.934731,6.5789185,-1.0319175,0.14681263,11.448138,1.9261106,14.16437,-31.734093,60.140625,-1.8535788,2.4688592,-8.132407,-7.182093,-16.895197,57.106316,59.37509,-4.279956,1.8237448,9.476969
151,-2.2639811038970947,1.0075632333755493,78.3830795288086,0.7524150766293691,-6.342944983194958,-8.841672394423616,13.894547,6.8776135,22.840736,6.783601,-10.202686,-8.408701,7.7315507,-6.6924205,-11.198549,8.541782,-9.932249,6.560029,-1.044687,0.1471365,11.437173,1.9204922,14.160911,-31.751328,60.13835,-1.8819896,2.4601543,-8.1392565,-7.1887236,-16.905546,57.112267,59.389187,-4.75476,1.8655356,9.764871
152,-2.2626614570617676,1.006706953048706,78.38514709472656,0.7507975236180541,-6.323708068975831,-8.839909675816282,13.874245,6.880811,22.837341,6.783814,-10.205493,-8.412096,7.7129626,-6.6896744,-11.200029,8.539329,-9.929728,6.5548263,-1.0565765,0.14550652,11.429832,1.9167247,14.158626,-31.76354,60.130672,-1.891752,2.4560418,-8.149024,-7.1956286,-16.91221,57.11485,59.400642,-4.9884534,1.8873901,9.909558
153,-2.254929304122925,1.004895806312561,78.38629913330078,0.7527545404820926,-6.310178511679208,-8.83555836222924,13.862094,6.878689,22.833036,6.7835827,-10.210413,-8.41093,7.710805,-6.6897497,-11.203935,8.523429,-9.924461,6.575133,-1.0713463,0.1393455,11.425524,1.9181411,14.15711,-31.768358,60.117233,-1.8763752,2.45699,-8.162334,-7.203983,-16.916027,57.11074,59.410114,-4.863211,1.8795266,9.840723
154,-2.2454428672790527,1.0012221336364746,78.38399505615234,0.7560492298513066,-6.298608861639839,-8.827809998719596,13.851829,6.874378,22.82629,6.7835927,-10.216246,-8.406988,7.7213783,-6.6903043,-11.211411,8.491293,-9.913202,6.6126328,-1.0757631,0.13839555,11.429307,1.9147711,14.153257,-31.780155,60.09286,-1.8399416,2.4637656,-8.179694,-7.2175183,-16.925344,57.103245,59.42198,-4.4773574,1.8501238,9.620802
155,-2.240264892578125,1.0008302927017212,78.3802261352539,0.7583547886806657,-6.288509620612702,-8.82024122374668,13.8444805,6.8717303,22.81956,6.783243,-10.221848,-8.405493,7.7333446,-6.68923,-11.219077,8.4617405,-9.906453,6.647219,-1.0833168,0.1354935,11.431805,1.9119741,14.149159,-31.78708,60.072124,-1.798959,2.4714193,-8.197982,-7.2272134,-16.93475,57.094917,59.42842,-4.0520043,1.818893,9.377388
156,-2.2383370399475098,0.9962027668952942,78.3809585571289,0.7562369980725275,-6.278075363997194,-8.815039140746034,13.836674,6.8763027,22.813961,6.783477,-10.225004,-8.411895,7.739638,-6.682922,-11.225594,8.441667,-9.908404,6.6587534,-1.087683,0.13888003,11.43441,1.9045053,14.140553,-31.79579,60.057446,-1.7652335,2.4793754,-8.214977,-7.228884,-16.954563,57.086605,59.421413,-3.7660902,1.8027227,9.218544
157,-2.233693838119507,0.9928040504455566,78.3796157836914,0.7466707351765954,-6.267611106004972,-8.813659195869393,13.831125,6.891473,22.810467,6.782604,-10.224387,-8.430958,7.734679,-6.6680865,-11.229471,8.443689,-9.929599,6.630872,-1.0921586,0.14432728,11.435957,1.89929,14.136205,-31.798763,60.0445,-1.737615,2.4873595,-8.235589,-7.22955,-16.965065,57.08022,59.417793,-3.691639,1.8133165,9.185096
158,-2.225048542022705,0.9864597320556641,78.38045501708984,0.7319385574738003,-6.257820655405146,-8.81441448651161,13.82619,6.9149537,22.80774,6.783558,-10.22195,-8.458873,7.726069,-6.6466312,-11.232278,8.454211,-9.961086,6.5778995,-1.0943515,0.1552798,11.438542,1.8943346,14.131829,-31.800816,60.031097,-1.7115113,2.4966137,-8.258679,-7.227339,-16.976282,57.072044,59.410275,-3.719675,1.8377817,9.214369
159,-2.217531204223633,0.9776226282119751,78.38243103027344,0.7170911655064922,-6.24712953077196,-8.815266854665992,13.821098,6.938928,22.805346,6.783145,-10.218838,-8.487391,7.7162085,-6.6248183,-11.235632,8.465224,-9.99164,6.5257807,-1.0964187,0.16427039,11.440441,1.8891088,14.129952,-31.802439,60.017414,-1.6899941,2.5067735,-8.277349,-7.2259417,-16.98145,57.06925,59.40695,-3.7732708,1.8642141,9.257307
160,-2.210885524749756,0.9704030156135559,78.38224792480469,0.7074781522387386,-6.233127082803316,-8.814118987781102,13.811338,6.9568,22.801968,6.7829857,-10.2172365,-8.508354,7.7081923,-6.608449,-11.241464,8.465487,-10.008322,6.500339,-1.0953362,0.16991404,11.442695,1.8779128,14.12752,-31.80681,60.00421,-1.6744406,2.5181472,-8.28504,-7.2244997,-16.988909,57.066,59.40321,-3.7812178,1.8800995,9.269079
161,-2.2109785079956055,0.9679598808288574,78.38261413574219,0.7048925491622037,-6.215143651736226,-8.809954924777795,13.796011,6.966004,22.79741,6.7830253,-10.218906,-8.520192,7.7050924,-6.599322,-11.251918,8.445703,-10.001215,6.5170393,-1.0930701,0.16991214,11.444006,1.8609173,14.125355,-31.81572,59.990517,-1.6731435,2.53284,-8.273532,-7.2259307,-16.99659,57.071117,59.404377,-3.7052464,1.8786361,9.228674
162,-2.2027788162231445,0.961215615272522,78.38182830810547,0.7060058811878301,-6.194236421280323,-8.804010404971939,13.777219,6.970785,22.792067,6.782863,-10.222266,-8.527121,7.7095532,-6.592739,-11.266111,8.403606,-9.974247,6.5591583,-1.0890453,0.16648823,11.444392,1.83652,14.123141,-31.831163,59.980442,-1.68701,2.5499656,-8.247505,-7.227786,-17.005547,57.0862,59.40588,-3.5860484,1.868436,9.161958
163,-2.1897873878479004,0.948864221572876,78.38035583496094,0.7089066801443652,-6.172482601048364,-8.797413025755896,13.757495,6.973841,22.786715,6.782142,-10.225326,-8.529541,7.710542,-6.588507,-11.279488,8.36761,-9.949584,6.604485,-1.0851105,0.16159813,11.441887,1.8112239,14.120463,-31.850122,59.974575,-1.7022176,2.5641909,-8.22005,-7.225677,-17.01688,57.10918,59.403442,-3.465682,1.8577627,9.091752
164,-2.1822195053100586,0.9368876814842224,78.37964630126953,0.7117961867644096,-6.152485833727275,-8.79130382511843,13.740311,6.9775705,22.781612,6.7823772,-10.228221,-8.527674,7.708715,-6.584123,-11.288604,8.3421955,-9.936391,6.6306767,-1.0811459,0.15661986,11.441436,1.7930862,14.119171,-31.858152,59.964924,-1.691068,2.571933,-8.207792,-7.2229238,-17.022928,57.121986,59.405617,-3.4028332,1.8525004,9.045166
165,-2.172990322113037,0.9278314113616943,78.37870025634766,0.7159111150997974,-6.137515570252891,-8.785270479834981,13.730165,6.9797325,22.777166,6.7829256,-10.230893,-8.5153,7.7049747,-6.581808,-11.290147,8.333381,-9.940647,6.632257,-1.0807662,0.14994073,11.442216,1.7847732,14.118674,-31.860945,59.954784,-1.6473416,2.5702016,-8.217441,-7.216699,-17.025354,57.126892,59.409214,-3.3871534,1.8531455,9.01346
166,-2.1670050621032715,0.9163089990615845,78.37931060791016,0.7214130009706601,-6.122966224436171,-8.777739260058793,13.720637,6.9802675,22.771809,6.784376,-10.23318,-8.494202,7.6964607,-6.581708,-11.287891,8.3370495,-9.955871,6.6208425,-1.0772094,0.14138316,11.441782,1.7722874,14.117272,-31.862888,59.9522,-1.5735276,2.563156,-8.244775,-7.200946,-17.030949,57.136604,59.4065,-3.3845835,1.8563753,8.973639
167,-2.1586759090423584,0.9068952202796936,78.38021850585938,0.7247178847864096,-6.107346015907878,-8.771843605563758,13.710057,6.9846897,22.76725,6.786898,-10.235941,-8.477285,7.684286,-6.5784802,-11.285356,8.3459,-9.975401,6.6001754,-1.0741161,0.135522,11.440816,1.7625476,14.115553,-31.859467,59.950344,-1.5084652,2.5511267,-8.269029,-7.1854224,-17.037195,57.14364,59.40161,-3.4413106,1.8668028,8.973533
168,-2.1482694149017334,0.8975265622138977,78.3810043334961,0.7215818569393434,-6.086273138034418,-8.76878557186406,13.693714,6.998512,22.7636,6.7878,-10.237338,-8.477281,7.667903,-6.5662923,-11.288618,8.350237,-9.990947,6.5737576,-1.0625697,0.13492987,11.436548,1.7463207,14.115185,-31.857141,59.954338,-1.481605,2.536545,-8.27493,-7.1730704,-17.039146,57.150635,59.40004,-3.5804923,1.8886589,9.037217
169,-2.1422252655029297,0.8836262226104736,78.38397216796875,0.707702546896186,-6.057864889218352,-8.770894791906082,13.6699,7.0277267,22.76161,6.78743,-10.237577,-8.504347,7.644835,-6.5385265,-11.299606,8.349843,-10.002095,6.53637,-1.0393287,0.14321303,11.425972,1.7193922,14.1151495,-31.853323,59.970165,-1.509573,2.516862,-8.253549,-7.1579757,-17.040785,57.16565,59.39627,-3.897067,1.9345874,9.225205
170,-2.135175943374634,0.8688153624534607,78.38545989990234,0.6858405298989156,-6.023592929714528,-8.776431042342818,13.639835,7.0681825,22.760635,6.7876797,-10.238079,-8.549355,7.617715,-6.4987383,-11.31598,8.343613,-10.009632,6.488321,-1.0223515,0.15381916,11.408085,1.6842023,14.115055,-31.834116,60.0049,-1.5763129,2.4887505,-8.216884,-7.1430993,-17.044645,57.203644,59.383083,-4.3465962,1.9996712,9.508938
171,-2.129038095474243,0.8523578643798828,78.38468170166016,0.6634573439749779,-5.986399560581395,-8.781343900892017,13.606302,7.110125,22.759369,6.7872467,-10.237516,-8.596254,7.5881963,-6.457753,-11.33452,8.334666,-10.013753,6.441585,-1.0002627,0.16835734,11.391562,1.65177,14.115678,-31.820213,60.030693,-1.6525881,2.4632103,-8.175971,-7.133664,-17.046064,57.230232,59.375343,-4.7446203,2.054599,9.768003
172,-2.120922803878784,0.8292469382286072,78.38285827636719,0.6479206690034853,-5.9467698288291375,-8.781468549660973,13.568585,7.143928,22.756662,6.786549,-10.235364,-8.628894,7.5542426,-6.426728,-11.352204,8.328183,-10.015441,6.4079394,-0.98987067,0.1776039,11.37858,1.6210876,14.1167755,-31.799915,60.050365,-1.7133864,2.442885,-8.149256,-7.134147,-17.04669,57.2462,59.36271,-4.9062085,2.079001,9.888312
173,-2.1189141273498535,0.8270439505577087,78.38201904296875,0.642169617590086,-5.904271788956162,-8.775400278060511,13.525668,7.165736,22.75313,6.786503,-10.232105,-8.641551,7.5208735,-6.4085245,-11.367483,8.312178,-10.008383,6.397216,-0.98732096,0.18228866,11.367514,1.5992547,14.11777,-31.782963,60.053787,-1.7567936,2.4330823,-8.14154,-7.145072,-17.046661,57.24026,59.35065,-4.6860995,2.0548208,9.784335
174,-2.1154744625091553,0.8075381517410278,78.38261413574219,0.641587424899893,-5.857681306614359,-8.765022466290022,13.475757,7.18207,22.748692,6.7883635,-10.228098,-8.643271,7.4839377,-6.397152,-11.382808,8.293163,-9.996625,6.4010916,-0.99182945,0.18153927,11.365707,1.5674245,14.119766,-31.754005,60.05549,-1.788214,2.4282632,-8.149562,-7.1705832,-17.046156,57.216858,59.333107,-4.2153263,1.9968381,9.536266
175,-2.107180118560791,0.783780038356781,78.3837890625,0.6425288185623956,-5.810544499356533,-8.752896012038118,13.42474,7.1965437,22.742678,6.7895074,-10.222973,-8.640208,7.4443083,-6.3879676,-11.3998,8.278451,-9.98491,6.404149,-0.9989875,0.17821842,11.371554,1.5304557,14.124306,-31.717426,60.056355,-1.8073862,2.4246984,-8.161563,-7.2005796,-17.044622,57.175945,59.310028,-3.7348018,1.9336874,9.278783
176,-2.1033895015716553,0.7699377536773682,78.38614654541016,0.6416524417182401,-5.7647418068257625,-8.741282923439629,13.374861,7.213289,22.733847,6.789464,-10.216223,-8.638481,7.400981,-6.376994,-11.420499,8.274875,-9.977142,6.3909745,-1.0062164,0.17947865,11.370597,1.5008659,14.129606,-31.698149,60.058254,-1.8313512,2.419087,-8.157969,-7.2207756,-17.042498,57.141914,59.284176,-3.4620776,1.8988004,9.1386175
177,-2.104022979736328,0.7541534304618835,78.38885498046875,0.6377354844205715,-5.7239500749213965,-8.731177957706446,13.3286,7.2341423,22.721966,6.792191,-10.20983,-8.634093,7.3574452,-6.362922,-11.44639,8.284546,-9.9743,6.3549423,-1.0156076,0.18360718,11.371986,1.4675326,14.135457,-31.688368,60.070328,-1.8552122,2.4067419,-8.138413,-7.2305713,-17.039675,57.106167,59.248398,-3.5743794,1.9237754,9.21555
178,-2.102597951889038,0.7366347908973694,78.39204406738281,0.6322403902675399,-5.686280541163784,-8.721585856749115,13.286609,7.2557,22.708252,6.792995,-10.20257,-8.625483,7.312577,-6.3474445,-11.47567,8.304271,-9.974016,6.3053446,-1.0346559,0.19324306,11.368192,1.4429822,14.138447,-31.686838,60.0853,-1.8826412,2.391508,-8.1054945,-7.2360735,-17.038073,57.089043,59.211426,-3.8950334,1.983389,9.413204
179,-2.095630645751953,0.715569257736206,78.39839935302734,0.6266497940436683,-5.644063233901403,-8.710163603114333,13.236648,7.2795444,22.690866,6.795992,-10.194047,-8.623116,7.2605677,-6.3306417,-11.507389,8.328408,-9.973866,6.25048,-1.0296459,0.19654757,11.374632,1.3935466,14.152667,-31.694971,60.10689,-1.896581,2.3782976,-8.07601,-7.23558,-17.029974,57.0145,59.16391,-4.211318,2.0273416,9.595013
180,-2.0943007469177246,0.6911789774894714,78.40130615234375,0.6217941230153229,-5.592945383215606,-8.69719808703655,13.176135,7.304852,22.671234,6.798108,-10.18368,-8.63751,7.197477,-6.312049,-11.537946,8.354512,-9.973258,6.198495,-1.0263214,0.2015717,11.371588,1.3492031,14.162374,-31.70444,60.12441,-1.9070611,2.374137,-8.047567,-7.2466125,-17.024622,56.978634,59.126972,-4.203901,2.0077677,9.5897255
181,-2.0955913066864014,0.6576582193374634,78.40164947509766,0.612255340153601,-5.526802825237481,-8.682046100073169,13.098363,7.338184,22.648636,6.797704,-10.169878,-8.678629,7.1234484,-6.284105,-11.567831,8.36788,-9.963146,6.1538944,-1.0079244,0.2084757,11.36344,1.295099,14.176819,-31.720123,60.138603,-1.9038135,2.3830888,-8.024102,-7.267191,-17.016945,56.942165,59.095184,-3.7130857,1.8842269,9.295295
182,-2.0964574813842773,0.6303771138191223,78.40022277832031,0.598569350438568,-5.4501391549917955,-8.664976790535043,13.008,7.378044,22.622955,6.797032,-10.15446,-8.738496,7.047738,-6.2468014,-11.599443,8.359286,-9.938619,6.1120424,-0.9867515,0.21854429,11.349718,1.2387403,14.192536,-31.736427,60.150726,-1.8902887,2.4008963,-8.001084,-7.297617,-17.009018,56.92081,59.068455,-2.9090743,1.6868144,8.816525
183,-2.0963187217712402,0.59560626745224,78.39414978027344,0.6198438330964315,-5.360380036436446,-8.656166034123768,12.9047165,7.3798227,22.603933,6.7922955,-10.135121,-8.796327,6.620463,-6.3162637,-11.582098,9.071285,-10.291683,6.0723667,-0.95238465,0.19029774,11.326021,1.185741,14.220716,-31.751762,60.15235,-1.8766625,2.4212,-7.985424,-7.330728,-16.995047,56.90594,59.043514,-2.0772433,1.4772487,8.322564
184,-2.0974531173706055,0.5694109201431274,78.38605499267578,0.6528525393349954,-5.281559895686318,-8.642799125629486,12.81054,7.3701477,22.579737,6.787941,-10.112333,-8.84072,6.232137,-6.391979,-11.571945,9.727053,-10.617839,6.0218964,-0.92460394,0.1492425,11.319583,1.1400536,14.256911,-31.751738,60.137478,-1.8645778,2.4386616,-7.9821906,-7.3678637,-16.976997,56.89592,59.02029,-1.4985305,1.3251983,7.9799237
185,-2.101901054382324,0.5392155051231384,78.38166809082031,0.69928763799508,-5.219625853256526,-8.625147437775965,12.733167,7.346121,22.55106,6.784283,-10.086412,-8.861749,5.8784614,-6.480536,-11.56829,10.352756,-10.936177,5.958835,-0.8998748,0.10252831,11.327225,1.0769011,14.267813,-31.742134,60.15083,-1.8554575,2.4487808,-7.9939547,-7.3908567,-16.971619,56.885563,58.985462,-1.2547988,1.2579216,7.831428
186,-2.109509229660034,0.498739629983902,78.37283325195312,0.7585593733243715,-5.165916617645201,-8.60512886388799,12.662897,7.308915,22.519508,6.7815742,-10.0580435,-8.869319,5.522995,-6.5861225,-11.564717,11.002947,-11.270331,5.886709,-0.8710075,0.038657032,11.351143,1.0087616,14.289487,-31.723133,60.156834,-1.847295,2.4577298,-8.0234585,-7.4125648,-16.960732,56.865784,58.947678,-1.1999584,1.2373854,7.7883644
187,-2.116511106491089,0.45531633496284485,78.36705780029297,0.8239706755025938,-5.112255775189962,-8.580885030348446,12.589505,7.2671757,22.48306,6.7784543,-10.026388,-8.877879,5.1635466,-6.6970215,-11.561829,11.660804,-11.61016,5.8052144,-0.8426041,-0.038454067,11.386207,0.95422006,14.338195,-31.697384,60.13047,-1.8395218,2.465583,-8.056989,-7.447,-16.935759,56.848347,58.916985,-1.2553059,1.2459944,7.8154845
188,-2.128272294998169,0.4113100469112396,78.3603286743164,0.8909209797377089,-5.048937978946932,-8.551898686892923,12.501967,7.226385,22.44124,6.772657,-9.990677,-8.901302,4.786148,-6.805592,-11.557511,12.329135,-11.955043,5.7148304,-0.81691325,-0.11790059,11.422918,0.8949709,14.393132,-31.670134,60.099247,-1.8306377,2.4686997,-8.077743,-7.497392,-16.906818,56.848396,58.88614,-1.3387564,1.2676632,7.876961
189,-2.149484395980835,0.36534181237220764,78.34932708740234,0.9586235513059196,-4.970906986864673,-8.520592135903865,12.392292,7.188116,22.396332,6.767503,-9.952495,-8.948514,4.3756504,-6.911357,-11.547209,13.022229,-12.311015,5.6143136,-0.79068804,-0.1947701,11.45759,0.8132996,14.436652,-31.640911,60.090492,-1.8200351,2.461361,-8.077618,-7.562623,-16.884176,56.854813,58.84497,-1.4561756,1.3064578,7.9911747
190,-2.1668221950531006,0.3162722587585449,78.33787536621094,1.0293867052396157,-4.884102329283933,-8.486477425571856,12.268691,7.149241,22.348108,6.7612953,-9.910837,-9.010518,3.940776,-7.018215,-11.532653,13.739501,-12.679402,5.5037403,-0.76684636,-0.2771069,11.496433,0.72842264,14.488963,-31.60399,60.0757,-1.808745,2.4474351,-8.067947,-7.6432056,-16.857302,56.867348,58.80092,-1.6424443,1.3676817,8.167838
191,-2.187129020690918,0.25826701521873474,78.32225799560547,1.102970047141795,-4.795881641037442,-8.444454286428638,12.140495,7.1100297,22.291178,6.754155,-9.86657,-9.0742,3.5088098,-7.1242576,-11.52254,14.449539,-13.045378,5.3858438,-0.7404006,-0.35946885,11.540685,0.62984335,14.537101,-31.572582,60.06509,-1.7911758,2.43374,-8.053932,-7.730727,-16.833864,56.8995,58.75801,-1.8598707,1.4384078,8.360831
192,-2.2129247188568115,0.19140563905239105,78.3069839477539,1.1795175256600507,-4.713602946901196,-8.389318293404687,12.014419,7.0714297,22.21993,6.749914,-9.821797,-9.126465,3.1051137,-7.228378,-11.525242,15.123945,-13.395534,5.2632775,-0.71926045,-0.4470895,11.596715,0.54122216,14.603529,-31.543106,60.0201,-1.762003,2.4300232,-8.046912,-7.8307643,-16.803669,56.975914,58.731632,-2.0709536,1.5052072,8.523031
193,-2.2388875484466553,0.1160941869020462,78.29425048828125,1.2628154696157354,-4.641100469667716,-8.32136587043454,11.895938,7.028337,22.13323,6.746503,-9.77627,-9.15847,2.7307248,-7.335842,-11.538649,15.770754,-13.733054,5.134461,-0.6932631,-0.5337504,11.665704,0.4273492,14.654703,-31.534445,59.993122,-1.7242632,2.4371855,-8.045722,-7.9254823,-16.782831,57.07048,58.71626,-2.3054287,1.5695684,8.655687
194,-2.2643256187438965,0.042876120656728745,78.2833480834961,1.3519597526133713,-4.573465180783511,-8.242848267973335,11.779535,6.9822416,22.034277,6.7442446,-9.729952,-9.177821,2.3707244,-7.447,-11.559082,16.405779,-14.065214,4.9985075,-0.67642874,-0.627379,11.747708,0.31979233,14.720064,-31.525415,59.942966,-1.6801873,2.4529264,-8.050024,-8.031103,-16.758305,57.198887,58.714764,-2.5653589,1.6362538,8.777773
195,-2.284968614578247,-0.028100429102778435,78.26959228515625,1.4393696828892026,-4.505608662610529,-8.152187435996494,11.659718,6.9414387,21.92399,6.7420506,-9.679616,-9.199099,2.0351923,-7.550348,-11.593638,16.996496,-14.379828,4.8587666,-0.6507815,-0.71705663,11.831068,0.2064577,14.786829,-31.525333,59.874992,-1.6195673,2.4716015,-8.052416,-8.144904,-16.736734,57.37348,58.714508,-2.789073,1.700923,8.8756695
196,-2.298444986343384,-0.11273722350597382,78.25904846191406,1.5177357581137063,-4.431859936521846,-8.047565185481014,11.529766,6.9157295,21.803783,6.7396417,-9.6223,-9.235807,1.7257673,-7.6365666,-11.648715,17.526697,-14.669434,4.7186685,-0.63939005,-0.8102044,11.913119,0.15139116,14.907764,-31.495415,59.69615,-1.5321295,2.4925656,-8.055938,-8.2953005,-16.70228,57.661793,58.713013,-2.8967547,1.7590274,8.930982
197,-2.325820207595825,-0.20677021145820618,78.24627685546875,1.5855972389517803,-4.353967531373943,-7.927748606794582,11.391554,6.9062324,21.673822,6.736897,-9.557146,-9.296336,1.4448444,-7.705085,-11.726138,17.996696,-14.934346,4.576216,-0.60703236,-0.89099205,11.987311,0.08293254,15.028348,-31.483068,59.503895,-1.4138238,2.5114584,-8.054798,-8.443423,-16.67438,57.980633,58.702694,-2.8499084,1.8013908,8.939435
198,-2.3556556701660156,-0.29673561453819275,78.23517608642578,1.646404107035183,-4.273798620757998,-7.794002723153583,11.248151,6.908243,21.533924,6.7328777,-9.485899,-9.371926,1.19013,-7.760428,-11.822545,18.415304,-15.178086,4.4305315,-0.5358871,-0.95081115,12.051185,-0.04707502,15.103525,-31.513142,59.36635,-1.2697402,2.526836,-8.043871,-8.5720625,-16.66345,58.303482,58.680565,-2.7036438,1.8339337,8.91191
199,-2.3683509826660156,-0.394833505153656,78.22901153564453,1.7012308160401335,-4.186227902235222,-7.648746027512154,11.0921135,6.923109,21.383696,6.7298403,-9.409539,-9.451123,0.95792776,-7.8011165,-11.936899,18.77587,-15.397877,4.2867208,-0.5117653,-1.0176562,12.117316,-0.0720347,15.249937,-31.469053,59.057827,-1.1019701,2.546985,-8.033888,-8.764947,-16.650543,58.832474,58.64383,-2.5015836,1.8755585,8.851193
200,-2.3798434734344482,-0.5122143626213074,78.22589874267578,1.7499153778607854,-4.0868615458506925,-7.494797414530622,10.919112,6.9518633,21.223925,6.7284083,-9.329918,-9.521864,0.7473452,-7.824139,-12.068038,19.068008,-15.589015,4.1498075,-0.4616848,-1.0727427,12.171248,-0.08376776,15.39912,-31.419394,58.66943,-0.9234615,2.5654144,-8.006983,-8.998181,-16.65263,59.555954,58.5706,-2.358322,1.9443731,8.774244
201,-2.3945114612579346,-0.6408634185791016,78.22307586669922,1.792636895544975,-3.978966909961951,-7.3285200863487905,10.733333,6.994537,21.050894,6.728067,-9.248657,-9.577677,0.573531,-7.829519,-12.223099,19.274704,-15.746645,4.0293818,-0.41030365,-1.115797,12.217099,-0.0595637,15.552823,-31.315836,58.18754,-0.7162969,2.5853848,-7.972134,-9.294812,-16.67207,60.57803,58.47212,-2.1756892,2.0583208,8.653071
202,-2.410635471343994,-0.7797229290008545,78.21907043457031,1.8297403284708238,-3.863568748872656,-7.150082640512616,10.535236,7.0506816,20.865543,6.729006,-9.16446,-9.626047,0.43499306,-7.817712,-12.400796,19.399902,-15.874078,3.9200532,-0.3620463,-1.1475749,12.257226,-0.0018320447,15.71322,-31.164742,57.61897,-0.48012727,2.6066368,-7.9306903,-9.638787,-16.70669,61.843513,58.34482,-1.9435159,2.2033093,8.491765
203,-2.4367494583129883,-0.9041329026222229,78.21782684326172,1.8602002262341935,-3.731842345632636,-6.967325116005,10.315397,7.120193,20.675064,6.729205,-9.072258,-9.675736,0.2954788,-7.7886066,-12.586503,19.485762,-15.981064,3.804351,-0.31236827,-1.1673961,12.284415,0.09170505,15.88563,-31.006649,56.939972,-0.24456823,2.6236246,-7.8639865,-10.005331,-16.757126,63.23873,58.15536,-1.8619992,2.3527117,8.34774
204,-2.4605467319488525,-1.034716010093689,78.22032165527344,1.8833351769929496,-3.574760158976386,-6.788075908422301,10.062799,7.2039256,20.485968,6.7306275,-8.969283,-9.735451,0.12169038,-7.7410817,-12.765933,19.56723,-16.076645,3.6645136,-0.2529807,-1.174213,12.292618,0.22273889,16.077225,-30.885895,56.124447,-0.04017389,2.6313243,-7.753813,-10.368054,-16.826982,64.64509,57.864746,-2.1328845,2.4811916,8.2793255
205,-2.4792978763580322,-1.1838173866271973,78.22771453857422,1.8945122062174657,-3.3889163042595642,-6.618748319666412,9.777751,7.307888,20.305265,6.729454,-8.853849,-9.808946,-0.08952409,-7.665259,-12.93071,19.63746,-16.152975,3.487458,-0.17151822,-1.162897,12.274092,0.3957321,16.292622,-30.816128,55.16062,0.12315548,2.636258,-7.576024,-10.730899,-16.922781,66.10461,57.468716,-2.877907,2.577062,8.341364
206,-2.5104916095733643,-1.3390624523162842,78.23504638671875,1.895655979556685,-3.179131210320722,-6.453613245163372,9.463322,7.430191,20.127134,6.729942,-8.730099,-9.890867,-0.32144886,-7.564125,-13.090659,19.681177,-16.208355,3.2853696,-0.072175905,-1.1354622,12.236884,0.6116199,16.533405,-30.775871,54.05393,0.2602654,2.6397092,-7.3475885,-11.097188,-17.047693,67.652,56.97233,-3.96852,2.653919,8.491569
207,-2.5502567291259766,-1.494917869567871,78.24412536621094,1.8980287967452236,-2.9498320730244205,-6.283139633713196,9.119407,7.554992,19.940655,6.729542,-8.593735,-9.975912,-0.5771846,-7.4590664,-13.257187,19.721298,-16.26024,3.0783463,0.031072943,-1.1050401,12.196692,0.86729884,16.80253,-30.760069,52.805416,0.37671712,2.6286058,-7.1108537,-11.444869,-17.202208,69.155655,56.359684,-5.232406,2.725502,8.642716
208,-2.602752923965454,-1.6624817848205566,78.25273132324219,1.911984166445868,-2.705865863654569,-6.097197964754428,8.72769,7.674686,19.732883,6.7686915,-8.463278,-10.05854,-0.8666116,-7.373141,-13.44065,19.795828,-16.33348,2.887189,0.12945719,-1.0845975,12.168479,1.1544912,17.10391,-30.772446,51.4202,0.47552863,2.589884,-6.907785,-11.752554,-17.38689,70.47747,55.6166,-6.497936,2.8091993,8.70756
209,-2.6404101848602295,-1.8449209928512573,78.25279998779297,1.9237367112524935,-2.4493580519646976,-5.891079069157102,8.282643,7.8079677,19.497377,6.8693333,-8.36128,-10.142103,-1.189301,-7.297857,-13.650314,19.917185,-16.442202,2.7216816,0.22325754,-1.0593351,12.149663,1.4748254,17.442865,-30.834734,49.88105,0.5308827,2.5135856,-6.748685,-12.008016,-17.60522,71.57501,54.72371,-7.8426337,2.9186153,8.69752
210,-2.6964807510375977,-2.0159289836883545,78.24526977539062,1.9405985673979096,-2.176872290097784,-5.672489266670681,7.8086815,7.939305,19.24558,6.972841,-8.252734,-10.225963,-1.5319738,-7.2296176,-13.877075,20.043049,-16.557116,2.568604,0.3228856,-1.0360035,12.134209,1.8346267,17.821592,-30.942959,48.184093,0.54732764,2.409718,-6.6118975,-12.225794,-17.861603,72.518105,53.68735,-9.317953,3.0441382,8.648973
211,-2.778825283050537,-2.187155246734619,78.22819519042969,1.9572778338205747,-1.8871145455577814,-5.4400981388866825,7.0531554,8.157357,18.939383,7.6231556,-8.404812,-10.3023,-1.930744,-7.168356,-14.11483,20.238176,-16.70445,2.414965,0.42186612,-1.0140047,12.132941,2.233138,18.237837,-31.05776,46.355434,0.57546276,2.2946813,-6.4911385,-12.425716,-18.157684,73.336655,52.538586,-10.718674,3.1743255,8.510597
212,-2.8634018898010254,-2.37160062789917,78.20743560791016,1.9667688653248747,-1.5787105263609906,-5.192323947375126,6.002892,8.46527,18.571966,8.827185,-8.795666,-10.360999,-2.4215167,-7.1130753,-14.359417,20.567284,-16.90926,2.2476945,0.5137213,-0.99049884,12.156222,2.6664264,18.686323,-31.140976,44.42476,0.66560745,2.184675,-6.37931,-12.625989,-18.491802,74.060165,51.305424,-11.837097,3.2991557,8.229678
213,-2.9566128253936768,-2.563465118408203,78.17517852783203,1.9569682473723955,-1.2407558174001179,-4.913162206089584,4.729435,8.839537,18.132305,10.3856945,-9.318,-10.388713,-3.0000296,-7.0496945,-14.626496,21.004517,-17.165274,2.0614333,0.5735435,-0.95199704,12.183588,3.1485217,19.165953,-31.181366,42.37252,0.843926,2.0672066,-6.291119,-12.828962,-18.86395,74.66304,49.970688,-12.548028,3.4201035,7.7122545
214,-3.0494275093078613,-2.7770915031433105,78.13294219970703,1.931627835788325,-0.877173312117768,-4.608294056162168,3.2737215,9.265221,17.627825,12.223487,-9.943753,-10.388145,-3.6509638,-6.9801307,-14.914016,21.528637,-17.463364,1.862616,0.60895866,-0.9003993,12.21614,3.6802838,19.677795,-31.194708,40.189125,1.0802352,1.9397179,-6.224566,-13.02933,-19.275246,75.14366,48.52605,-12.982987,3.543853,7.011964
215,-3.181950807571411,-2.9645464420318604,78.06471252441406,1.9084014660618807,-0.5087979653964929,-4.308574706948509,1.7231802,9.708448,17.102463,14.213812,-10.6045265,-10.374755,-4.39425,-6.9288316,-15.190103,22.212704,-17.824831,1.6550314,0.66057616,-0.8573508,12.295768,4.235438,20.217289,-31.18236,37.923233,1.3410256,1.8330735,-6.14714,-13.232881,-19.724049,75.56678,47.023056,-13.323156,3.666343,6.297063
216,-3.31498646736145,-3.1643435955047607,77.974609375,1.9061833225037417,-0.15704674848485833,-4.044944192235373,0.1652303,10.135807,16.604456,16.235556,-11.234087,-10.3693285,-5.2514963,-6.922167,-15.421286,23.132904,-18.27172,1.4430431,0.76781553,-0.8444825,12.463629,4.7857413,20.775661,-31.142673,35.62769,1.5943513,1.7778033,-6.0263205,-13.446108,-20.204746,75.99809,45.516285,-13.75035,3.7847323,5.736038
217,-3.4827027320861816,-3.3805019855499268,77.8575668334961,1.9121424647632594,0.192546849324411,-3.8149714811785658,-1.432812,10.563663,16.134413,18.315355,-11.838478,-10.370515,-6.2522616,-6.951382,-15.612945,24.315058,-18.819132,1.2357212,0.93275094,-0.84520245,12.708887,5.3341336,21.347239,-31.060543,33.287464,1.8638676,1.7929561,-5.864529,-13.66457,-20.714907,76.44698,44.012928,-14.274674,3.8677409,5.3506083
218,-3.6454010009765625,-3.5905115604400635,77.72046661376953,1.9215658333655774,0.5442185068090007,-3.6055981505066996,-3.1002233,10.999694,15.669348,20.501535,-12.444616,-10.374837,-7.377987,-7.0075054,-15.777072,25.718481,-19.45234,1.0293716,1.1341752,-0.8531774,13.015358,5.891252,21.930683,-30.936487,30.888775,2.1579006,1.8586504,-5.675361,-13.889983,-21.253143,76.88223,42.49298,-14.8115015,3.9252715,5.0578833
219,-3.8318257331848145,-3.7986412048339844,77.5550537109375,1.9683146640322065,0.8613824924118768,-3.4320233805559024,-4.73422,11.39581,15.231082,22.688845,-13.015674,-10.403252,-8.579322,-7.1192875,-15.88743,27.32117,-20.150944,0.8100363,1.3806242,-0.9068064,13.416443,6.4343796,22.5224,-30.797014,28.493858,2.4204698,1.9466386,-5.4419847,-14.137789,-21.811325,77.3111,40.973118,-15.398216,4.01681,4.870489
220,-4.030320644378662,-4.029031753540039,77.36412048339844,2.0879875975796107,1.1078177033526981,-3.309185666266177,-6.232625,11.705875,14.84526,24.77746,-13.516733,-10.474211,-9.8059,-7.315701,-15.915658,29.098396,-20.887772,0.56287396,1.6818153,-1.0450989,13.944248,6.938,23.116312,-30.670963,26.170856,2.596199,2.0277643,-5.1464815,-14.424823,-22.37554,77.74431,39.480347,-16.07252,4.2006083,4.8026466
221,-4.245393753051758,-4.254977226257324,77.14724731445312,2.303115153319178,1.2617979874687881,-3.2456717050351998,-7.565672,11.906119,14.53115,26.760752,-13.931766,-10.595614,-11.061575,-7.624327,-15.839445,31.09615,-21.66503,0.28632182,2.0471473,-1.2878848,14.63264,7.4050164,23.708326,-30.565062,23.923304,2.6443772,2.0874324,-4.7313714,-14.758699,-22.934708,78.19134,38.003895,-16.852118,4.4786406,4.9387236
222,-4.468812465667725,-4.482603549957275,76.90707397460938,2.5930000847691246,1.3472602049260491,-3.2316587090653335,-8.790094,12.026312,14.27821,28.693708,-14.282454,-10.759268,-12.36141,-8.017311,-15.672934,33.292362,-22.483168,-0.011394747,2.472784,-1.6075455,15.455344,7.840244,24.296394,-30.466942,21.72966,2.6040158,2.1418085,-4.222116,-15.131577,-23.481968,78.6486,36.554554,-17.715574,4.817352,5.2475467
223,-4.686366558074951,-4.735567092895508,76.64151763916016,2.928568572964967,1.3965503121134784,-3.2541035502456017,-9.941601,12.104345,14.066084,30.587265,-14.611994,-10.956458,-13.678077,-8.447821,-15.447444,35.577072,-23.324991,-0.32565105,2.9503713,-1.9714385,16.354782,8.213694,24.87578,-30.382414,19.629128,2.5385664,2.2070973,-3.7255845,-15.531909,-24.005234,79.10526,35.19016,-18.646166,5.2243834,5.570897
224,-4.901644229888916,-4.977903842926025,76.35083770751953,3.2798054205516243,1.4417315653476905,-3.300004661392892,-11.055455,12.179598,13.872094,32.451824,-14.9612875,-11.17554,-14.985947,-8.869724,-15.195804,37.845867,-24.176231,-0.65282995,3.4717228,-2.3476253,17.27128,8.490267,25.439064,-30.321873,17.667128,2.5113885,2.3014278,-3.34863,-15.949431,-24.488607,79.55136,33.977814,-19.623896,5.711937,5.7505884
225,-5.1063947677612305,-5.2171430587768555,76.04067993164062,3.6710779680659433,1.454602400020044,-3.389285540398368,-12.085568,12.231494,13.71395,34.281864,-15.327651,-11.4090395,-16.26871,-9.300142,-14.884869,40.120888,-25.051374,-0.9866177,4.05639,-2.7606716,18.235111,8.678214,25.980497,-30.281103,15.838038,2.5725164,2.4622228,-3.1310258,-16.380075,-24.917871,80.02663,32.919876,-20.783606,6.412092,5.781301
226,-5.314432621002197,-5.479869842529297,75.69461059570312,4.107990714488481,1.4310704515004813,-3.52159661091984,-13.031416,12.254447,13.596666,36.078568,-15.695103,-11.66116,-17.543028,-9.748606,-14.509966,42.439487,-25.950058,-1.328881,4.7032714,-3.210431,19.26247,8.780364,26.496733,-30.263136,14.137994,2.6789362,2.6683335,-3.0127883,-16.829626,-25.28163,80.52753,32.009357,-22.089579,7.277691,5.745561
227,-5.521039009094238,-5.754402160644531,75.33060455322266,4.530707110599808,1.4384554524645994,-3.652363388910815,-13.997235,12.307311,13.475389,37.86084,-16.0839,-11.938619,-18.833357,-10.162191,-14.1502695,44.725334,-26.83711,-1.6891013,5.3724103,-3.6328626,20.269148,8.743905,26.9825,-30.29712,12.625371,2.753161,2.8493247,-2.9496186,-17.300024,-25.567698,80.97212,31.306276,-23.264687,8.057745,5.6030397
228,-5.716039657592773,-6.044727325439453,74.94062042236328,4.879200116146885,1.5429459239633707,-3.7363468224432674,-15.087158,12.444368,13.305192,39.644142,-16.513767,-12.251606,-20.166796,-10.493016,-13.886069,46.91089,-27.681627,-2.077189,6.0252895,-3.9677882,21.168558,8.5077,27.430307,-30.418863,11.365146,2.717086,2.9350283,-2.8948982,-17.79217,-25.764414,81.27101,30.872026,-24.028427,8.501099,5.296419
229,-5.894626140594482,-6.337613105773926,74.52720642089844,5.124757433349506,1.7863506639697182,-3.741905262525729,-16.389244,12.683427,13.036984,41.46828,-16.984509,-12.637421,-21.568491,-10.721192,-13.747813,48.962395,-28.492565,-2.486803,6.6408343,-4.1898737,21.913511,8.058135,27.835373,-30.649208,10.357587,2.5128565,2.903019,-2.849314,-18.288454,-25.86148,81.349335,30.752317,-24.162682,8.489573,4.678346
230,-6.111626148223877,-6.620009422302246,74.08499908447266,5.304094798773129,2.1242042495404325,-3.699156868555416,-17.827246,12.987585,12.705084,43.308384,-17.486303,-13.083386,-23.020773,-10.88058,-13.6918745,50.929512,-29.283136,-2.9148543,7.245771,-4.3389387,22.555033,7.4074984,28.193577,-30.978363,9.589794,2.1949317,2.7918289,-2.831023,-18.78967,-25.85221,81.26019,30.924479,-23.869396,8.169362,3.81464
231,-6.2931976318359375,-6.925398826599121,73.64522552490234,5.453647400041755,2.4937381316332297,-3.6553855378569957,-19.263401,13.331584,12.388564,45.088676,-18.026943,-13.5244,-24.486998,-11.007339,-13.690706,52.86919,-30.027163,-3.3740804,7.86672,-4.4542613,23.15304,6.5389457,28.496698,-31.388386,9.104892,1.8550429,2.6225061,-2.820504,-19.331242,-25.732777,81.11179,31.346346,-23.494823,7.6892138,2.9620266
232,-6.456181526184082,-7.229579925537109,73.20297241210938,5.609478892806789,2.832232207253478,-3.6578808961193316,-20.557404,13.696399,12.16727,46.730453,-18.610971,-13.892495,-25.928654,-11.134412,-13.716765,54.833168,-30.694622,-3.8764374,8.528102,-4.5719075,23.768984,5.438409,28.7333,-31.857534,8.947168,1.5870205,2.415807,-2.7986193,-19.95082,-25.50058,81.013145,31.971312,-23.376783,7.209531,2.3718157
233,-6.614074230194092,-7.5561137199401855,72.7613754272461,5.780021754208044,3.135621791685538,-3.7232556180036784,-21.67518,14.094934,12.094284,48.209034,-19.262407,-14.141071,-27.315994,-11.254635,-13.766427,56.774754,-31.332668,-4.423319,9.243022,-4.698656,24.405037,4.0885506,28.892532,-32.41753,9.209358,1.3294561,2.1472015,-2.7235136,-20.696653,-25.14751,81.06309,32.8355,-23.810402,6.7886167,2.1385257
234,-6.761585712432861,-7.880626678466797,72.31405639648438,5.945869305486371,3.43333111749892,-3.825251517807914,-22.688719,14.537019,12.114662,49.56525,-19.968414,-14.314768,-28.677322,-11.357228,-13.854898,58.685856,-31.934462,-5.0070524,9.985831,-4.8172035,25.035744,2.5060792,28.968746,-33.050247,9.842587,1.0687681,1.8155586,-2.620728,-21.54596,-24.66658,81.177734,33.9542,-24.541965,6.3392515,2.1142783
235,-6.907049655914307,-8.2178373336792,71.85468292236328,6.099739459341801,3.713502951812174,-3.946459357256507,-23.619917,15.000792,12.147146,50.824055,-20.677895,-14.4795685,-30.055197,-11.467558,-13.985682,60.665688,-32.392284,-5.62181,10.726672,-4.9255395,25.679865,0.7277135,28.962343,-33.66284,10.680636,0.96686137,1.477686,-2.5692248,-22.422997,-24.063932,81.19337,35.251827,-25.084982,5.8070345,2.1854312
236,-7.068281650543213,-8.566235542297363,71.3908462524414,6.234770241718426,3.9638540063020713,-4.0698703761227994,-24.489824,15.462472,12.112319,52.005466,-21.342968,-14.701413,-31.49128,-11.61171,-14.1648655,62.810177,-32.595604,-6.2569838,11.436856,-5.0205755,26.354767,-1.2072444,28.87937,-34.165543,11.554171,1.1810603,1.1900864,-2.645793,-23.246176,-23.357182,80.95516,36.64249,-24.953382,5.1395,2.2459764
237,-7.205276012420654,-8.917491912841797,70.95182800292969,6.37085390937093,4.189545749925471,-4.190754965157068,-25.287794,15.890719,12.0129175,53.07663,-21.969711,-14.996322,-32.997215,-11.812288,-14.422975,65.15675,-32.591915,-6.9723244,12.131003,-5.1198354,27.077576,-3.3352094,28.722242,-34.58952,12.528989,1.8894687,0.9575978,-2.9110172,-24.039967,-22.559366,80.50385,38.153915,-23.935482,4.2994986,2.285508
238,-7.365331649780273,-9.283425331115723,70.51748657226562,6.557900166607728,4.405706398391138,-4.2882422536261675,-26.016628,16.214981,11.937479,54.004826,-22.555166,-15.000033,-34.584282,-12.128327,-14.720109,67.67396,-32.41651,-7.7220826,12.7903,-5.268026,27.83349,-5.655687,28.491667,-34.956768,13.6525,2.9591613,0.7478789,-3.3075988,-24.824827,-21.67775,79.89611,39.79664,-22.318644,3.3259163,2.3777733
239,-7.504368782043457,-9.655818939208984,70.09838104248047,6.710424024211104,4.589376849493518,-4.390208330316962,-26.705254,16.567186,11.810492,54.89819,-23.085325,-15.000033,-36.21318,-12.469156,-15.031866,70.279175,-31.91444,-8.370329,13.39985,-5.3868957,28.593824,-8.074741,28.197033,-35.17209,14.729316,4.079638,0.56319976,-3.7366047,-25.510695,-20.728725,79.01046,41.46101,-20.370398,2.280429,2.5458598
240,-7.646828651428223,-10.02443790435791,69.71145629882812,6.791916703137571,4.728093241346204,-4.4975830756578,-27.388721,16.994999,11.601484,55.830196,-23.526402,-15.000033,-37.87892,-12.806645,-15.30731,72.921234,-30.945454,-8.7549,13.924556,-5.444492,29.323603,-10.50351,27.858673,-35.151028,15.564719,4.9384346,0.41300875,-4.1014643,-26.01726,-19.738592,77.727036,43.033115,-18.353304,1.2230855,2.8011618
241,-7.794341564178467,-10.417946815490723,69.3339614868164,6.76918278879933,4.878689512186102,-4.623527181852699,-28.170425,17.542793,11.285202,56.857975,-23.85313,-15.000033,-39.692097,-13.094983,-15.598657,75.67926,-29.453093,-9.05513,14.378094,-5.4441247,29.793802,-12.883043,27.459127,-34.947315,16.188221,5.5711584,0.2990977,-4.4369273,-26.192158,-18.711637,75.946236,44.478775,-16.118166,0.15135905,3.275077
