unveil-humanoid-operators/unveil-humanoid-operators.github.io/feature-analysis-animation/data/feature_matrix_instances/weight_root_translate_peak_vel_walking_A049_walk_ff_start_360_002__A049.csv
Frame,root_translateX,root_translateY,root_translateZ,root_rotateX,root_rotateY,root_rotateZ,left_hip_pitch_joint_dof,left_hip_roll_joint_dof,left_hip_yaw_joint_dof,left_knee_joint_dof,left_ankle_pitch_joint_dof,left_ankle_roll_joint_dof,right_hip_pitch_joint_dof,right_hip_roll_joint_dof,right_hip_yaw_joint_dof,right_knee_joint_dof,right_ankle_pitch_joint_dof,right_ankle_roll_joint_dof,waist_yaw_joint_dof,waist_roll_joint_dof,waist_pitch_joint_dof,left_shoulder_pitch_joint_dof,left_shoulder_roll_joint_dof,left_shoulder_yaw_joint_dof,left_elbow_joint_dof,left_wrist_roll_joint_dof,left_wrist_pitch_joint_dof,left_wrist_yaw_joint_dof,right_shoulder_pitch_joint_dof,right_shoulder_roll_joint_dof,right_shoulder_yaw_joint_dof,right_elbow_joint_dof,right_wrist_roll_joint_dof,right_wrist_pitch_joint_dof,right_wrist_yaw_joint_dof
0,-0.09269335865974426,2.369818925857544,78.22760009765625,0.11544459623354157,-4.054801135191504,-87.7691690361039,5.086397,2.6548898,1.5698682,10.272828,-12.484407,-2.366398,6.3711343,-1.7306409,-10.275086,9.094665,-12.825053,0.6807895,-1.7830555,0.74675417,8.0349045,-2.3252451,18.64483,-42.28328,60.71029,0.20399207,-0.9042783,11.497066,5.588915,-14.243746,19.47238,57.186745,-10.01328,-4.235247,-3.3498442
1,-0.0992770567536354,2.3803293704986572,78.23063659667969,0.10692212240627195,-4.069674298065196,-87.76300791518331,5.084055,2.6657763,1.5562919,10.288924,-12.485325,-2.365309,6.3753867,-1.720091,-10.28181,9.096664,-12.8076105,0.67491,-1.784338,0.7602447,8.03802,-2.326863,18.658941,-42.300106,60.73557,0.17397575,-0.9413302,11.419699,5.582959,-14.244732,19.481705,57.1836,-10.019082,-4.2523346,-3.3587332
2,-0.09913250058889389,2.3937366008758545,78.2335433959961,0.09752440445935784,-4.085296150004704,-87.75700665759136,5.082421,2.6775486,1.5418193,10.306179,-12.487744,-2.3638134,6.380669,-1.708626,-10.28793,9.098264,-12.789283,0.6685391,-1.7818993,0.77476376,8.039313,-2.3275697,18.673918,-42.32855,60.758957,0.13350186,-0.98028696,11.337828,5.5803566,-14.245034,19.492226,57.180992,-10.021142,-4.2712092,-3.370339
3,-0.10097674280405045,2.4074277877807617,78.23332977294922,0.08890342413037146,-4.09924127186594,-87.75050366163673,5.079345,2.6874602,1.5290657,10.321249,-12.487389,-2.3631382,6.3835034,-1.6992099,-10.295347,9.100799,-12.772681,0.66316307,-1.7784866,0.7860697,8.040098,-2.3305228,18.688778,-42.355774,60.78286,0.0990725,-1.0132132,11.267924,5.57768,-14.244526,19.499987,57.176098,-10.024063,-4.2860794,-3.3795547
4,-0.10318545252084732,2.4217753410339355,78.23392486572266,0.08556514887184365,-4.109219282976089,-87.74335152904416,5.073836,2.6927702,1.5210178,10.329669,-12.479472,-2.3645225,6.3822546,-1.6944299,-10.305695,9.101534,-12.75823,0.6601927,-1.77631,0.7935991,8.041245,-2.3323126,18.69938,-42.371506,60.79944,0.081377015,-1.0275536,11.229887,5.5742993,-14.24353,19.504906,57.163376,-10.026263,-4.2901053,-3.3839452
5,-0.1067792996764183,2.4354937076568604,78.23465728759766,0.08691087698325682,-4.114928624995998,-87.73519241886044,5.0664825,2.691959,1.5222899,10.329908,-12.461056,-2.369891,6.375406,-1.6966311,-10.322929,9.101667,-12.74735,0.6601426,-1.7734959,0.79181826,8.041742,-2.3318217,18.710032,-42.385876,60.802525,0.07694831,-1.013827,11.23896,5.5716376,-14.242029,19.51083,57.139244,-10.021194,-4.2757354,-3.3809216
6,-0.11180688440799713,2.447221517562866,78.23516082763672,0.09351334412581183,-4.1177428466850055,-87.72631823606767,5.058102,2.6865907,1.5301117,10.323648,-12.434604,-2.3781252,6.3663144,-1.703492,-10.34484,9.098494,-12.737815,0.66215295,-1.7735982,0.7808003,8.04404,-2.3271072,18.729517,-42.38959,60.79396,0.09044278,-0.98208636,11.279343,5.5658092,-14.237939,19.517605,57.1079,-10.014983,-4.2486835,-3.3707457
7,-0.11549385637044907,2.4628262519836426,78.24049377441406,0.10113924440817247,-4.116761969076134,-87.71681827409641,5.045616,2.6792371,1.5357336,10.314353,-12.4060135,-2.3856542,6.3519278,-1.712255,-10.36486,9.097869,-12.730856,0.66574717,-1.77832,0.76935583,8.045857,-2.3141384,18.750694,-42.378647,60.770237,0.10977696,-0.94417137,11.32898,5.5553017,-14.232295,19.525097,57.078167,-10.009581,-4.221608,-3.3633149
8,-0.11929395794868469,2.4781596660614014,78.24079895019531,0.10651217564933076,-4.111241728273407,-87.70645315880085,5.0234923,2.6721218,1.5300541,10.30999,-12.383465,-2.3890781,6.333295,-1.7190671,-10.376882,9.095922,-12.722122,0.67028683,-1.782322,0.7622501,8.0418215,-2.305104,18.767078,-42.365074,60.751408,0.11738504,-0.91872656,11.363767,5.5446315,-14.227094,19.528452,57.05657,-10.005943,-4.208194,-3.3663335
9,-0.127261683344841,2.4928319454193115,78.23973083496094,0.11276629000211866,-4.095279720146009,-87.6954975918711,4.9850297,2.6643856,1.5068219,10.308105,-12.367652,-2.3860197,6.30618,-1.7238106,-10.375348,9.089779,-12.712236,0.6776457,-1.7807779,0.7559661,8.026125,-2.3003082,18.789804,-42.35005,60.733,0.10251194,-0.9122434,11.374584,5.538712,-14.21866,19.522663,57.042152,-10.003926,-4.2159786,-3.3855639
10,-0.13125702738761902,2.5171444416046143,78.24087524414062,0.12065538013030913,-4.0712881543543595,-87.68377896994386,4.93531,2.65489,1.4721663,10.30521,-12.35431,-2.3786972,6.2722063,-1.7282107,-10.364831,9.08007,-12.701664,0.6874647,-1.7723616,0.75143194,8.001823,-2.3000355,18.811703,-42.337257,60.714005,0.07422629,-0.9139553,11.376622,5.5380125,-14.20929,19.506475,57.03032,-10.003129,-4.236569,-3.4151673
11,-0.13529352843761444,2.53222918510437,78.2427749633789,0.12505437064475883,-4.052972074752855,-87.67215349340124,4.8922787,2.6472976,1.4367234,10.301824,-12.341283,-2.3710275,6.243962,-1.7309514,-10.353637,9.071633,-12.689188,0.6959295,-1.7650123,0.75377685,7.9782104,-2.3067856,18.817127,-42.330772,60.713943,0.042117894,-0.9197542,11.38057,5.538388,-14.206504,19.498413,57.02136,-9.995077,-4.25688,-3.4463482
12,-0.13579601049423218,2.5604641437530518,78.24103546142578,0.12562262610637054,-4.044199016063369,-87.65855380478503,4.85479,2.64624,1.4078513,10.312419,-12.331915,-2.367089,6.2211914,-1.72924,-10.35275,9.071418,-12.673511,0.6985987,-1.7578926,0.751948,7.9755507,-2.312136,18.844458,-42.31365,60.697914,0.03240901,-0.923935,11.380323,5.5364,-14.191837,19.472523,57.006634,-10.009288,-4.2730675,-3.4696395
13,-0.14394567906856537,2.5753567218780518,78.24689483642578,0.11772724759354848,-4.064349050127893,-87.6459890644108,4.8529763,2.6563904,1.3933043,10.326972,-12.3244095,-2.3709211,6.228225,-1.7188698,-10.362699,9.077056,-12.65615,0.68895537,-1.7606347,0.7592343,7.995929,-2.322406,18.856436,-42.301914,60.709923,0.037958812,-0.9266605,11.3892355,5.530114,-14.185068,19.46968,56.993057,-10.015593,-4.274457,-3.4850166
14,-0.14839477837085724,2.5874950885772705,78.24993133544922,0.10274772691875918,-4.102103152350561,-87.63323469937147,4.8706975,2.6744235,1.3860716,10.347882,-12.320238,-2.3794496,6.252418,-1.7023413,-10.379386,9.0877075,-12.637106,0.67090106,-1.7771851,0.7631739,8.037034,-2.3183444,18.887459,-42.27257,60.70742,0.060768418,-0.9283456,11.396702,5.505634,-14.1672325,19.479334,56.99259,-10.028286,-4.2698956,-3.4982808
15,-0.15055236220359802,2.6035306453704834,78.2510986328125,0.08875250916201195,-4.1369765847037065,-87.61884711496536,4.8826447,2.6909497,1.3789626,10.370564,-12.311678,-2.3855727,6.2707033,-1.6879534,-10.40072,9.09888,-12.609979,0.6570426,-1.7885138,0.772076,8.074053,-2.3324075,18.901436,-42.258415,60.72996,0.080008306,-0.9337081,11.409046,5.492603,-14.159325,19.485794,56.980774,-10.037051,-4.2619576,-3.5048397
16,-0.15127193927764893,2.631647825241089,78.25142669677734,0.08227948273586097,-4.149094595807101,-87.60064052836643,4.8633947,2.696767,1.3642416,10.391002,-12.290851,-2.3823621,6.262974,-1.6838133,-10.425346,9.102226,-12.566525,0.6598172,-1.7990136,0.7759421,8.09009,-2.349426,18.914806,-42.249165,60.747875,0.08949508,-0.9416955,11.425781,5.4765244,-14.151907,19.488995,56.97275,-10.042755,-4.2548313,-3.5059338
17,-0.1540563851594925,2.655656576156616,78.25929260253906,0.08668312018040297,-4.132379140924782,-87.57795494214143,4.810178,2.6863425,1.339638,10.398768,-12.251153,-2.3677614,6.2234645,-1.695407,-10.454667,9.09413,-12.505649,0.6884185,-1.8075902,0.77199334,8.078133,-2.3711438,18.92179,-42.248947,60.76518,0.083018266,-0.95702046,11.450434,5.460316,-14.1486435,19.487646,56.965786,-10.045106,-4.247256,-3.495592
18,-0.15797032415866852,2.682816743850708,78.26604461669922,0.09634033824618905,-4.096121364944787,-87.55091660276985,4.7286863,2.6667886,1.3079216,10.40831,-12.202357,-2.3458195,6.1634345,-1.7159792,-10.490374,9.076291,-12.429845,0.7340994,-1.8012009,0.7545536,8.053624,-2.4032998,18.955214,-42.275845,60.768093,0.05348074,-0.9783711,11.477396,5.442934,-14.133934,19.465202,56.959507,-10.049227,-4.2396684,-3.473364
19,-0.1587478220462799,2.7141456604003906,78.27387237548828,0.10856087350533572,-4.04878949262596,-87.52240919389803,4.631736,2.6424944,1.2742666,10.415001,-12.143972,-2.3177347,6.0864673,-1.7409103,-10.525681,9.059504,-12.341592,0.78360534,-1.8031752,0.742473,8.016922,-2.4396005,18.96732,-42.291904,60.784206,0.032245755,-0.9967159,11.506858,5.425018,-14.130008,19.452757,56.953194,-10.048245,-4.232576,-3.4549778
20,-0.15347820520401,2.7476372718811035,78.28215026855469,0.11480741973564432,-3.9963360529679997,-87.49311196659066,4.521588,2.6201813,1.2410711,10.429217,-12.082583,-2.2851691,5.993028,-1.7639841,-10.556582,9.056197,-12.243623,0.82319546,-1.7969817,0.73227066,7.9838753,-2.4823186,18.985712,-42.31781,60.784256,0.011943342,-1.0009036,11.530224,5.403362,-14.125806,19.429338,56.948143,-10.048331,-4.231697,-3.4509597
21,-0.14502328634262085,2.7886061668395996,78.29181671142578,0.11454907537474748,-3.9392374635518452,-87.46475868555389,4.399801,2.6034546,1.2108433,10.450894,-12.019658,-2.2493873,5.88512,-1.7809122,-10.578961,9.062975,-12.127418,0.8492782,-1.8013765,0.73029256,7.9532504,-2.523375,18.998428,-42.320786,60.776585,0.014384498,-0.98141736,11.551052,5.368585,-14.124673,19.422525,56.951977,-10.046833,-4.2389507,-3.4743788
22,-0.13170212507247925,2.8354744911193848,78.30585479736328,0.10955965797921406,-3.8745349878452626,-87.43601231805424,4.2649074,2.589029,1.1813166,10.474501,-11.951123,-2.2093132,5.76048,-1.795293,-10.596377,9.078043,-11.995764,0.8693103,-1.8114698,0.73144805,7.92182,-2.5633698,19.009695,-42.30998,60.75889,0.029916024,-0.94696707,11.569728,5.3260527,-14.125889,19.425383,56.959263,-10.043506,-4.2518926,-3.5151618
23,-0.12028993666172028,2.877506732940674,78.32345581054688,0.10367757652363624,-3.8030511608335216,-87.40464036449971,4.1143565,2.5702593,1.1488025,10.50516,-11.877226,-2.1630003,5.6214795,-1.8137214,-10.615177,9.09942,-11.860583,0.88600296,-1.8382089,0.73505914,7.8899226,-2.5958169,19.02034,-42.28288,60.724846,0.046981726,-0.91164774,11.579767,5.25734,-14.130443,19.436779,56.985615,-10.033653,-4.2659287,-3.5561094
24,-0.10505539923906326,2.936169385910034,78.33844757080078,0.11156200571306402,-3.7251279835328637,-87.37189063780849,3.9563127,2.531823,1.114999,10.52447,-11.786329,-2.1073315,5.414998,-1.8619871,-10.635281,9.2419,-11.794387,0.9033803,-1.8670673,0.7252171,7.849621,-2.6382303,19.025927,-42.26891,60.69985,0.042178288,-0.8956263,11.574792,5.19176,-14.135518,19.43952,57.00674,-10.016631,-4.27262,-3.5817816
25,-0.08817767351865768,2.9951722621917725,78.35223388671875,0.14218464716451,-3.636999273636293,-87.3393942244836,3.7913349,2.4639008,1.0815843,10.523591,-11.6730175,-2.0433154,5.1018744,-1.9570096,-10.655528,9.582048,-11.843826,0.91935205,-1.9034373,0.69792074,7.8034744,-2.6799293,19.036,-42.2549,60.661392,0.0036256725,-0.90549636,11.540965,5.1158524,-14.149382,19.428205,57.0271,-9.987671,-4.271341,-3.5743515
26,-0.06818728893995285,3.049342632293701,78.36682891845703,0.1761543935974178,-3.5435902604075387,-87.30197116415792,3.6149082,2.388204,1.0419856,10.523317,-11.549628,-1.9738418,4.79466,-2.0561552,-10.683059,9.889861,-11.881044,0.9304709,-1.9425563,0.6666177,7.7484503,-2.728836,19.041965,-42.25589,60.628853,-0.06116722,-0.93012154,11.490005,5.043222,-14.161628,19.405361,57.04611,-9.951208,-4.262963,-3.5529888
27,-0.04155590757727623,3.1160035133361816,78.37906646728516,0.21348708142513506,-3.4472156618850263,-87.26234268696258,3.42809,2.3030093,1.0006423,10.525466,-11.4175415,-1.8934071,4.475811,-2.165196,-10.71092,10.205974,-11.918121,0.94425493,-1.9666195,0.63956696,7.7074566,-2.7934072,19.052387,-42.281906,60.576405,-0.1285398,-0.9601984,11.435227,4.9849896,-14.192545,19.34871,57.033398,-9.918047,-4.255284,-3.521718
28,-0.009097829461097717,3.1899054050445557,78.39212799072266,0.2480447037764021,-3.3526921907352727,-87.21898581442164,3.2311752,2.2141895,0.9568713,10.538951,-11.28215,-1.7978901,4.1518035,-2.2779956,-10.737827,10.527516,-11.945307,0.96722156,-1.9999583,0.6112629,7.6700587,-2.865785,19.058256,-42.315372,60.53272,-0.16779478,-0.9888677,11.398936,4.907276,-14.22263,19.309425,57.03939,-9.883481,-4.2518516,-3.513366
29,0.027291258797049522,3.2689831256866455,78.40577697753906,0.2711330368321821,-3.256878370802013,-87.16623040860719,2.9475856,2.1312118,0.8994344,10.713933,-11.219128,-1.6864893,3.8184102,-2.38608,-10.770579,10.856148,-11.95777,0.9979211,-2.037044,0.5916149,7.6421213,-2.9550896,19.061468,-42.368534,60.493324,-0.16797447,-1.0165838,11.384848,4.8314595,-14.258697,19.27429,57.03265,-9.851073,-4.250868,-3.5344348
30,0.06748595088720322,3.3596343994140625,78.41664123535156,0.28922894385343234,-3.159685715979647,-87.10615756226176,2.6099615,2.0483432,0.83233726,10.983846,-11.194525,-1.5613328,3.4829998,-2.493175,-10.80838,11.17683,-11.955908,1.0339209,-2.0765944,0.5799693,7.6207757,-3.0575361,19.061354,-42.44058,60.455086,-0.14597379,-1.047783,11.382547,4.7540007,-14.307513,19.237442,57.02007,-9.816835,-4.25292,-3.5705738
31,0.11407622694969177,3.447402000427246,78.4298095703125,0.30837395985022514,-3.0641118930595743,-87.04895590327921,2.2662926,1.9594729,0.7724165,11.26144,-11.168285,-1.4245154,3.142023,-2.6063719,-10.838444,11.502127,-11.950165,1.0782673,-2.1134162,0.57365054,7.609701,-3.1677868,19.055391,-42.519604,60.408634,-0.116662696,-1.074671,11.390227,4.6783013,-14.376076,19.200047,56.992332,-9.781629,-4.256877,-3.606311
32,0.1679907739162445,3.5455663204193115,78.43948364257812,0.32785629307906894,-2.971882161969485,-87.00298417844708,1.925207,1.8662182,0.73220855,11.53965,-11.142468,-1.2790195,2.796666,-2.7242742,-10.850801,11.830898,-11.945207,1.1328017,-2.1497614,0.5746821,7.608703,-3.2752004,19.040392,-42.5846,60.345448,-0.09049524,-1.0897865,11.405222,4.595159,-14.466818,19.169535,56.957073,-9.746969,-4.262535,-3.6282957
33,0.23017281293869019,3.652711868286133,78.44481658935547,0.35067598840252573,-2.8826284051100957,-86.96326222073358,1.5851332,1.7665939,0.70730877,11.820479,-11.117388,-1.1262113,2.4516256,-2.848127,-10.84857,12.155957,-11.942258,1.2039634,-2.1947627,0.57320595,7.613205,-3.375405,19.01973,-42.626747,60.265987,-0.066249885,-1.0832645,11.435056,4.4879074,-14.561087,19.159515,56.9382,-9.716659,-4.2700415,-3.6368856
34,0.29652366042137146,3.76088285446167,78.45610046386719,0.3732697047575055,-2.7956736436711083,-86.92749157008846,1.2379183,1.6613173,0.6933549,12.116909,-11.096311,-0.96409726,2.1042268,-2.9776363,-10.835019,12.48135,-11.93961,1.2884773,-2.2455742,0.5618422,7.6210127,-3.4719663,19.001251,-42.657177,60.175533,-0.0391182,-1.0608939,11.478528,4.348544,-14.639503,19.16464,56.95107,-9.694272,-4.279966,-3.6438093
35,0.36210742592811584,3.8699069023132324,78.4678955078125,0.3954854253655168,-2.7126751552521373,-86.90863639390902,0.8993329,1.5543272,0.7037993,12.402286,-11.072458,-0.79021215,1.7473129,-3.1097264,-10.800886,12.817658,-11.934506,1.3744628,-2.2878,0.56903,7.6443257,-3.5720484,18.969757,-42.68438,60.071095,-0.015965184,-1.0409553,11.519789,4.2207932,-14.76109,19.164444,56.927822,-9.666318,-4.2909,-3.6393185
36,0.436093807220459,3.991464138031006,78.4782485961914,0.4176745641644108,-2.6352433510185413,-86.91918135175287,0.5718904,1.4509705,0.75110596,12.67685,-11.047642,-0.6024067,1.3729562,-3.240343,-10.737349,13.177008,-11.9253,1.4495507,-2.3091826,0.5862277,7.6805387,-3.679039,18.932953,-42.715603,59.9639,-0.0012976045,-1.0391856,11.544658,4.08465,-14.889269,19.144234,56.899635,-9.641719,-4.3033257,-3.636276
37,0.518880307674408,4.117433547973633,78.4878158569336,0.43549039796880856,-2.5670544250197844,-86.9650307456512,0.26201582,1.3554054,0.84393024,12.939652,-11.022804,-0.3976263,0.98415655,-3.3656704,-10.64013,13.559235,-11.90703,1.5086339,-2.3019054,0.61451,7.7339664,-3.793889,18.89472,-42.75494,59.853848,-0.008049298,-1.0657808,11.5443,3.9351346,-15.01193,19.087729,56.87607,-9.630853,-4.3200274,-3.6348422
38,0.606194257736206,4.252312183380127,78.49304962158203,0.45023330756532093,-2.5060020428188556,-87.03842158269455,-0.03674741,1.2647562,0.97351855,13.196489,-10.998929,-0.17771766,0.5832659,-3.4881456,-10.514526,13.958482,-11.881888,1.5587561,-2.2714534,0.657061,7.8036494,-3.9177127,18.849249,-42.801426,59.738873,-0.030652037,-1.1103603,11.528335,3.7837534,-15.147089,19.00329,56.840572,-9.62782,-4.339951,-3.6295264
39,0.6944642066955566,4.393409729003906,78.4990234375,0.46737181429781804,-2.4447305689274708,-87.13179567379596,-0.3324405,1.1717652,1.1269984,13.441994,-10.9727335,0.052050356,0.16129279,-3.6134799,-10.366103,14.379291,-11.859303,1.6058921,-2.2289228,0.7015645,7.87777,-4.0473676,18.798033,-42.851086,59.62252,-0.045917217,-1.1572561,11.509231,3.624195,-15.291966,18.91968,56.800076,-9.618008,-4.3581395,-3.6272802
40,0.807094395160675,4.559566497802734,78.50043487548828,0.4933849756943175,-2.375863125201245,-87.23796653583125,-0.63301635,1.0686245,1.2916234,13.67047,-10.940883,0.28660023,-0.2921487,-3.7479846,-10.199997,14.829728,-11.851119,1.6557425,-2.1876388,0.7286984,7.943,-4.1753454,18.750942,-42.898136,59.50451,-0.030582657,-1.1901374,11.499405,3.438151,-15.429205,18.868223,56.77799,-9.590211,-4.3697233,-3.6387904
41,0.9114470481872559,4.718578338623047,78.49906158447266,0.5323438160285929,-2.3013052159402787,-87.34983947453185,-0.93713886,0.94623995,1.4626361,13.883164,-10.905904,0.53599334,-0.7645171,-3.8973198,-10.020115,15.294876,-11.867783,1.7096653,-2.1513557,0.7397062,7.997414,-4.3045588,18.703295,-42.95382,59.38572,0.020012697,-1.2017806,11.498348,3.2395198,-15.58243,18.866674,56.75911,-9.525307,-4.372351,-3.660843
42,1.001194953918457,4.876140594482422,78.49647521972656,0.5798676795582843,-2.223516399694619,-87.47298163934926,-1.2412866,0.8109423,1.6475035,14.081757,-10.868713,0.7995286,-1.2557355,-4.0565567,-9.822613,15.776947,-11.901127,1.7642361,-2.1168427,0.73644304,8.046434,-4.430365,18.6614,-43.011818,59.259598,0.09521338,-1.2010807,11.500262,3.0196025,-15.73678,18.900576,56.75362,-9.436954,-4.36919,-3.6931586
43,1.1139439344406128,5.046801567077637,78.49405670166016,0.6284123834358392,-2.137032380036885,-87.61837331900539,-1.5513316,0.67942643,1.8511955,14.265315,-10.826042,1.0557024,-1.792925,-4.214042,-9.600808,16.30368,-11.930986,1.8179307,-2.0766768,0.7307406,8.0977955,-4.5521398,18.625584,-43.054306,59.12033,0.18877178,-1.1985005,11.509832,2.7809913,-15.890618,18.937706,56.74506,-9.348303,-4.3627524,-3.7336075
44,1.2370346784591675,5.227423191070557,78.48665618896484,0.6694411652809144,-2.0363211246873183,-87.79693822120446,-1.873496,0.56879616,2.0783353,14.432544,-10.7732,1.2827377,-2.4045243,-4.358202,-9.347883,16.907393,-11.938144,1.8690555,-2.0240119,0.7343051,8.158986,-4.6708155,18.595505,-43.065285,58.964397,0.29197803,-1.2049141,11.531709,2.525632,-16.040434,18.94609,56.717903,-9.283037,-4.355479,-3.78049
45,1.3549662828445435,5.415799617767334,78.48255920410156,0.6958615026166151,-1.917118194631549,-88.01332001065582,-2.2148473,0.48803535,2.329693,14.58798,-10.711231,1.4721307,-3.100402,-4.4819355,-9.062787,17.59312,-11.915291,1.917516,-1.9533373,0.7523148,8.231796,-4.78757,18.571,-43.033768,58.785564,0.42143902,-1.2213082,11.574227,2.2476625,-16.180437,18.915577,56.674297,-9.256269,-4.3467536,-3.8407035
46,1.4760531187057495,5.619703769683838,78.47339630126953,0.7117302289942019,-1.7836692595498722,-88.26083511421056,-2.570235,0.42724466,2.6023765,14.730791,-10.641086,1.6361823,-3.8678129,-4.591585,-8.748558,18.35285,-11.875638,1.9631256,-1.8694572,0.78179395,8.314007,-4.9023643,18.54977,-42.970634,58.58638,0.5756071,-1.2426496,11.6324005,1.9539808,-16.321793,18.862934,56.611668,-9.25053,-4.335416,-3.9107838
47,1.595501184463501,5.8320770263671875,78.46360778808594,0.7272443035864491,-1.6434714826048455,-88.53356979417808,-2.9294033,0.37689015,2.8949952,14.857621,-10.562497,1.7835635,-4.682298,-4.690763,-8.407425,19.159039,-11.820542,2.004617,-1.7801346,0.81020766,8.401507,-5.015015,18.534798,-42.894745,58.385445,0.71864694,-1.2699018,11.692086,1.6444342,-16.45561,18.79641,56.542095,-9.249327,-4.324168,-3.9809866
48,1.7158349752426147,6.0572896003723145,78.45539093017578,0.7518037056013513,-1.5036460159971445,-88.82558281773072,-3.2764807,0.32544926,3.2067654,14.95237,-10.467922,1.9232317,-5.5186167,-4.784695,-8.041108,19.981081,-11.748311,2.0419555,-1.6921121,0.8192359,8.487947,-5.12451,18.530436,-42.823814,58.203876,0.81785864,-1.3037305,11.739263,1.312033,-16.557512,18.72487,56.489758,-9.238991,-4.3158455,-4.0443463
49,1.822221040725708,6.289384365081787,78.44190216064453,0.7828163546266295,-1.3613329249787,-89.13732849840004,-3.6184437,0.27512,3.537669,15.023064,-10.362115,2.0492117,-6.392032,-4.871184,-7.646632,20.841349,-11.65818,2.0739734,-1.6090558,0.8264005,8.58119,-5.223447,18.537058,-42.751778,58.019974,0.85481846,-1.3539028,11.770335,0.9825389,-16.672628,18.643208,56.405388,-9.203743,-4.3067365,-4.0832977
50,1.9392132759094238,6.532468795776367,78.42903137207031,0.8182325802794095,-1.21450311108948,-89.47126279434765,-3.9578626,0.22995915,3.888032,15.069087,-10.243893,2.1592152,-7.3065295,-4.9470873,-7.224478,21.74158,-11.550797,2.1019647,-1.5251915,0.82275605,8.6763525,-5.315787,18.556652,-42.676044,57.839775,0.8500854,-1.4161917,11.793585,0.63325334,-16.768902,18.549665,56.323475,-9.161519,-4.297411,-4.1133304
51,2.066865921020508,6.772875785827637,78.41525268554688,0.8603101605770413,-1.070002370586532,-89.8245651947753,-4.2813606,0.1834892,4.257291,15.082257,-10.1083,2.268025,-8.223373,-5.014571,-6.781888,22.627039,-11.426387,2.1306758,-1.4397954,0.8027819,8.773518,-5.408819,18.585152,-42.606297,57.67789,0.8272319,-1.4731723,11.807801,0.26512012,-16.83845,18.454775,56.25732,-9.117942,-4.2945056,-4.1458592
52,2.186532974243164,7.009650707244873,78.40262603759766,0.9142865667843556,-0.9347155361024381,-90.1945090999529,-4.5739217,0.12889461,4.645022,15.050003,-9.948842,2.3906472,-9.099195,-5.0760913,-6.326459,23.432838,-11.284938,2.165722,-1.3520985,0.7732577,8.883918,-5.496047,18.633,-42.546467,57.51127,0.8103264,-1.5063554,11.808766,-0.0946232,-16.906647,18.365952,56.174538,-9.069153,-4.3042183,-4.1824203
53,2.3112075328826904,7.254404544830322,78.39430236816406,0.9833987824591066,-0.8048612010172499,-90.5969198253597,-4.832434,0.062415473,5.068236,14.962888,-9.761651,2.537322,-9.954404,-5.1331005,-5.851798,24.17406,-11.103336,2.1804912,-1.2518735,0.72107786,8.99399,-5.595413,18.669622,-42.49647,57.388332,0.8043927,-1.5060092,11.800637,-0.47891268,-16.94206,18.295359,56.123432,-9.012183,-4.3241167,-4.2361236
54,2.427307605743408,7.501933574676514,78.38629150390625,1.0631621094662898,-0.6781797938969273,-91.02783383690793,-5.063107,-0.013502959,5.5222044,14.826831,-9.550112,2.6982875,-10.799746,-5.1833506,-5.3567452,24.870686,-10.8876705,2.1839511,-1.1448224,0.6586461,9.119498,-5.6793356,18.731625,-42.442684,57.242943,0.7983211,-1.481572,11.778388,-0.8618362,-16.982616,18.230312,56.04931,-8.941599,-4.351857,-4.2898655
55,2.546333074569702,7.761303424835205,78.37874603271484,1.151544397307973,-0.5636387816448228,-91.45466647746021,-5.2669363,-0.09676232,5.9739246,14.657198,-9.320932,2.8585415,-11.579953,-5.22686,-4.8559613,25.471893,-10.684716,2.2344763,-1.0481418,0.58755267,9.254489,-5.7623806,18.815826,-42.41069,57.103973,0.78762704,-1.4507692,11.744402,-1.2326157,-17.013271,18.162863,55.966534,-8.8800955,-4.395206,-4.345289
56,2.658663272857666,8.02877140045166,78.36717987060547,1.2393201401872298,-0.47061524545103606,-91.84508838072892,-5.44668,-0.18400198,6.3899217,14.472561,-9.081081,3.0029094,-12.240223,-5.264509,-4.3641386,25.929281,-10.543346,2.3888128,-0.97488654,0.5108759,9.396612,-5.8585367,18.922148,-42.426003,56.99295,0.7702412,-1.4307293,11.699758,-1.5730401,-17.024284,18.074661,55.878716,-8.854707,-4.461949,-4.401428
57,2.758530855178833,8.300556182861328,78.35704803466797,1.3321573324924751,-0.40032098730467364,-92.20058708008948,-5.596413,-0.27887154,6.7716684,14.260051,-8.824204,3.1272054,-12.769317,-5.287482,-3.8487272,26.171785,-10.4515,2.6759336,-0.925981,0.42355964,9.548613,-5.9763913,19.046371,-42.498833,56.923683,0.73939043,-1.4262046,11.634642,-1.8847195,-17.009735,17.95904,55.790886,-8.875428,-4.569317,-4.4638653
58,2.867696523666382,8.558286666870117,78.34535217285156,1.430924577942105,-0.3483029684419496,-92.53527138346122,-5.7195735,-0.38166428,7.1333184,14.0210495,-8.551829,3.239282,-13.195601,-5.3018565,-3.3144262,26.246885,-10.394513,3.05967,-0.8928865,0.32298595,9.709396,-6.1078815,19.190031,-42.61617,56.88449,0.69944745,-1.4275798,11.552137,-2.1778336,-16.970615,17.822544,55.705578,-8.930267,-4.7082853,-4.5326138
59,2.9617061614990234,8.813883781433105,78.33131408691406,1.5261279594228156,-0.31524575976867086,-92.83531339013355,-5.825724,-0.483281,7.4602275,13.777516,-8.272906,3.3418705,-13.528769,-5.3313456,-2.8326511,26.293056,-10.422061,3.497895,-0.87667984,0.22080559,9.870089,-6.251171,19.35221,-42.772636,56.871204,0.65964735,-1.4325205,11.473249,-2.4442997,-16.909485,17.672228,55.618332,-9.008551,-4.847016,-4.597445
60,3.0459702014923096,9.077797889709473,78.31915283203125,1.6060881768290798,-0.3017178109548203,-93.08718286863622,-5.9295573,-0.5736811,7.737857,13.562065,-8.002435,3.437771,-13.779963,-5.3983397,-2.4756386,26.448431,-10.582121,3.9488857,-0.87761295,0.12935168,10.021578,-6.4029517,19.52931,-42.958973,56.880283,0.63458234,-1.4386905,11.419131,-2.6754797,-16.830042,17.514294,55.52423,-9.098677,-4.953915,-4.6477237
61,3.1287920475006104,9.338094711303711,78.30912017822266,1.6678570579867573,-0.3091710495341601,-93.28383888558889,-6.0308285,-0.65224975,7.9597807,13.3741,-7.7397046,3.5270598,-13.925608,-5.500883,-2.2436595,26.646152,-10.890514,4.498847,-0.90380806,0.051777467,10.166767,-6.575383,19.720762,-43.196163,56.922024,0.6354957,-1.4479455,11.403557,-2.8660011,-16.732018,17.330006,55.412346,-9.21119,-5.0232625,-4.680664
62,3.1923632621765137,9.594207763671875,78.2974853515625,1.7194401198161835,-0.33641411609425115,-93.43389829151376,-6.124793,-0.72287107,8.134664,13.20132,-7.4789963,3.6083517,-13.971838,-5.631968,-2.1088798,26.851046,-11.322287,5.1361694,-0.95070827,-0.017500326,10.30854,-6.767933,19.925974,-43.48231,56.99568,0.65307045,-1.4608428,11.412654,-3.0194223,-16.614792,17.121222,55.28578,-9.34732,-5.071149,-4.7013593
63,3.2653541564941406,9.847847938537598,78.28564453125,1.7583013966031509,-0.38117003815216266,-93.54793197299404,-6.2182093,-0.7813533,8.270492,13.057635,-7.227674,3.6822286,-13.976944,-5.804165,-2.0978086,27.253231,-11.86442,5.6742997,-1.002914,-0.07882337,10.436951,-6.9610553,20.139826,-43.777096,57.085934,0.6640859,-1.473405,11.426535,-3.141789,-16.485085,16.927456,55.162766,-9.482193,-5.098152,-4.711365
64,3.324749708175659,10.106507301330566,78.28305053710938,1.7824718704332616,-0.44086966158949387,-93.63601017998953,-6.3181133,-0.82461274,8.375297,12.9572315,-6.9925804,3.7496114,-13.999954,-6.0304923,-2.2304704,28.046116,-12.500043,5.9273787,-1.0477195,-0.13143171,10.542096,-7.1335783,20.354742,-44.034943,57.17838,0.64864683,-1.4818628,11.4253435,-3.239426,-16.354761,16.792084,55.060658,-9.588759,-5.1044393,-4.711742
65,3.3825080394744873,10.357863426208496,78.27520751953125,1.792940826530586,-0.5187274378984355,-93.68699891663475,-6.420997,-0.85319066,8.43914,12.900108,-6.774202,3.809625,-14.04933,-6.3397098,-2.5557513,29.297297,-13.274311,5.772927,-1.0943737,-0.1679604,10.620174,-7.295245,20.566732,-44.27023,57.291336,0.58735913,-1.4948059,11.39017,-3.3053744,-16.231705,16.73524,54.97228,-9.640208,-5.078422,-4.6968713
66,3.428161859512329,10.614914894104004,78.26976776123047,1.7894401771910893,-0.6160146370674199,-93.69909026236799,-6.5217204,-0.873055,8.461864,12.875409,-6.5667334,3.8628922,-14.08275,-6.727195,-3.0372453,30.879047,-14.172201,5.3324337,-1.148109,-0.19119304,10.678109,-7.4532866,20.774216,-44.495403,57.42852,0.4974316,-1.5115718,11.336259,-3.3359947,-16.117422,16.733723,54.88722,-9.654017,-5.023601,-4.666642
67,3.4634482860565186,10.857781410217285,78.26200866699219,1.7858554268619575,-0.727205659720356,-93.696623414041,-6.622278,-0.8880645,8.465588,12.8765745,-6.366416,3.9120138,-14.077173,-7.15535,-3.5667298,32.67929,-15.085519,4.784815,-1.1904279,-0.21201436,10.722842,-7.584417,20.972704,-44.664757,57.55488,0.40975305,-1.5148062,11.294619,-3.3380437,-16.010937,16.766014,54.81214,-9.670304,-4.962801,-4.629791
68,3.497706413269043,11.10678768157959,78.25261688232422,1.7877124501414443,-0.8465098351539013,-93.70431404065437,-6.727097,-0.90001875,8.472798,12.900635,-6.1715474,3.9593785,-14.018379,-7.582784,-4.0417867,34.59952,-15.908538,4.3088007,-1.204449,-0.24005406,10.760361,-7.6640234,21.156815,-44.729355,57.636562,0.35636762,-1.4874841,11.296319,-3.3220148,-15.909884,16.814547,54.75754,-9.727365,-4.9189663,-4.595637
69,3.528463840484619,11.35578727722168,78.24838256835938,1.8009664994356371,-0.9790747401745178,-93.72908698558253,-6.829335,-0.9112475,8.4854,12.9451685,-5.977869,4.0087934,-13.900238,-8.029122,-4.4826164,36.677444,-16.643024,3.9306092,-1.1810324,-0.27891397,10.793975,-7.6860943,21.320766,-44.66973,57.676697,0.3411787,-1.4237987,11.355643,-3.281052,-15.810098,16.86778,54.731117,-9.861182,-4.9097905,-4.5782084
70,3.5453033447265625,11.618302345275879,78.23609924316406,1.8207336825900156,-1.1261936282837728,-93.7573308361834,-6.9286933,-0.9206141,8.492701,13.01218,-5.787831,4.057914,-13.725655,-8.517389,-4.9243345,38.938683,-17.335093,3.5534587,-1.1314074,-0.3237718,10.8185215,-7.6667957,21.462729,-44.514664,57.6986,0.3485016,-1.3339005,11.454424,-3.2155776,-15.711342,16.939114,54.730675,-10.042722,-4.9193296,-4.569767
71,3.560732364654541,11.881542205810547,78.218994140625,1.838143751327692,-1.2752340355656049,-93.78360196557904,-7.0390587,-0.9227599,8.497396,13.101553,-5.6061625,4.0996957,-13.50403,-8.999892,-5.2950864,41.278637,-17.945494,3.1760798,-1.0689853,-0.36915636,10.827059,-7.611277,21.584757,-44.28378,57.69436,0.3847145,-1.2237808,11.575168,-3.1443317,-15.619084,17.046055,54.748764,-10.214504,-4.9195504,-4.5464087
72,3.5698912143707275,12.14870548248291,78.1942138671875,1.8493272110120085,-1.413278325438781,-93.80256782297684,-7.177094,-0.91051626,8.50197,13.219442,-5.44164,4.126812,-13.247025,-9.417813,-5.5288863,43.593655,-18.433144,2.8040054,-1.0081737,-0.4077907,10.813534,-7.525106,21.692436,-44.000175,57.6524,0.45069784,-1.0997398,11.700105,-3.0858595,-15.542103,17.207855,54.775196,-10.317085,-4.8826456,-4.4834647
73,3.572309732437134,12.4104642868042,78.1710205078125,1.8535953958423736,-1.542985555221291,-93.81566615712362,-7.336851,-0.88431805,8.513102,13.364915,-5.2989106,4.140995,-12.965886,-9.742566,-5.588866,45.92667,-18.797892,2.4310951,-0.94578874,-0.44042626,10.779499,-7.396365,21.78834,-43.637863,57.55057,0.59512717,-0.9278121,11.838342,-3.0499473,-15.493131,17.465816,54.80529,-10.299072,-4.779386,-4.3489075
74,3.5727620124816895,12.678506851196289,78.14408111572266,1.8522110293398424,-1.669134092199747,-93.82485968090852,-7.5178256,-0.8454702,8.526649,13.545952,-5.178447,4.144051,-12.652109,-9.99824,-5.5245376,48.307564,-19.054436,2.0635633,-0.8757122,-0.46466938,10.729546,-7.227841,21.86969,-43.19865,57.396187,0.7966424,-0.71620816,11.993794,-3.0180542,-15.474452,17.79684,54.833603,-10.20102,-4.631424,-4.1618557
75,3.5695459842681885,12.958429336547852,78.11456298828125,1.8417278059051565,-1.7817789920324079,-93.82609005007373,-7.7273774,-0.7903408,8.530741,13.744372,-5.061339,4.1314025,-12.290434,-10.20071,-5.4019475,50.61671,-19.183008,1.7294111,-0.8187021,-0.47405902,10.6627445,-7.020962,21.947031,-42.716946,57.199196,0.9704025,-0.53359014,12.139791,-2.9781766,-15.470793,18.135061,54.85891,-10.1016035,-4.4876533,-3.9764018
76,3.5524234771728516,13.244501113891602,78.08887481689453,1.8171942478373384,-1.8710837745831836,-93.81536060276714,-7.978701,-0.71527034,8.511357,13.953504,-4.9347034,4.095256,-11.867599,-10.369885,-5.2850027,52.73888,-19.166925,1.4533868,-0.7607284,-0.46220362,10.575215,-6.8196,22.011488,-42.280403,57.00978,1.0164951,-0.45007715,12.254389,-2.8931487,-15.462252,18.372175,54.868546,-10.090237,-4.39872,-3.8440123
77,3.533736228942871,13.537623405456543,78.05980682373047,1.7736407703510766,-1.9321843542647772,-93.78766353499206,-8.277433,-0.61452264,8.459893,14.172086,-4.7963343,4.029495,-11.373276,-10.502399,-5.1898203,54.658077,-19.001677,1.264079,-0.73529476,-0.43009531,10.461937,-6.584677,22.087404,-41.845657,56.788773,0.8964992,-0.5000885,12.325585,-2.782426,-15.427675,18.511532,54.887516,-10.211184,-4.3862305,-3.7932913
78,3.5004994869232178,13.842513084411621,78.02835845947266,1.713227046540377,-1.9711507351808482,-93.74676723706537,-8.616325,-0.4916665,8.384667,14.404551,-4.6535635,3.938803,-10.819556,-10.587863,-5.0846243,56.43649,-18.697353,1.1430871,-0.707686,-0.38667607,10.322975,-6.3368077,22.164934,-41.429142,56.55102,0.6579443,-0.64103144,12.369536,-2.6421847,-15.365073,18.56291,54.914436,-10.423599,-4.422014,-3.7924845
79,3.4634687900543213,14.145581245422363,77.99724578857422,1.6494550588938481,-1.9940752309422733,-93.70129273299274,-8.985669,-0.35839605,8.298656,14.645569,-4.5035424,3.8341281,-10.231196,-10.640083,-4.958438,58.0838,-18.26117,1.042626,-0.6780931,-0.34291896,10.166083,-6.0896864,22.24135,-41.0526,56.324997,0.36376074,-0.8259114,12.396776,-2.4974,-15.283538,18.573277,54.956684,-10.654703,-4.478334,-3.814247
80,3.414264678955078,14.451083183288574,77.96650695800781,1.5889602516312884,-2.007324079329757,-93.65970677438177,-9.375248,-0.22627842,8.215095,14.888567,-4.342503,3.7267277,-9.630489,-10.672992,-4.80166,59.601204,-17.699791,0.91474384,-0.6456185,-0.31294233,10.000372,-5.849902,22.322468,-40.732506,56.128277,0.08180847,-1.0068386,12.417569,-2.3740957,-15.1889925,18.586872,55.022552,-10.833443,-4.527721,-3.8312817
81,3.3740856647491455,14.780396461486816,77.92914581298828,1.5325555340338912,-2.0097228734694954,-93.62318384023764,-9.79374,-0.093196735,8.134481,15.148814,-4.176848,3.6212175,-9.02691,-10.680777,-4.60559,61.001408,-16.962496,0.7393221,-0.6048541,-0.29129806,9.825979,-5.627041,22.403543,-40.488644,55.967136,-0.21094619,-1.1972095,12.4307575,-2.2629676,-15.093732,18.59967,55.10108,-10.940466,-4.5684986,-3.8349333
82,3.323768377304077,15.116174697875977,77.88705444335938,1.4758888634950977,-1.9990312683321783,-93.5877506854841,-10.2412195,0.045060907,8.050532,15.42098,-4.0040007,3.511365,-8.40775,-10.657558,-4.3799553,62.277294,-16.060183,0.54705775,-0.5595181,-0.27050647,9.64048,-5.4128737,22.48389,-40.30347,55.82751,-0.5356532,-1.4137812,12.431179,-2.1517012,-14.997754,18.594906,55.184673,-11.011579,-4.6131454,-3.838598
83,3.26800799369812,15.454350471496582,77.84101867675781,1.4229516417281485,-1.9793928742006106,-93.55388503369521,-10.702428,0.18071492,7.966571,15.683599,-3.8173225,3.3917189,-7.7669516,-10.618704,-4.1410365,63.41295,-15.094203,0.36608818,-0.5084151,-0.25692374,9.449181,-5.2110224,22.561445,-40.16422,55.7166,-0.83287174,-1.6150694,12.426767,-2.0439746,-14.902526,18.581985,55.27061,-11.057873,-4.6559877,-3.8446407
84,3.2103347778320312,15.800750732421875,77.79136657714844,1.3832930871503877,-1.9549827914442761,-93.52255023289489,-11.161147,0.30648822,7.8860216,15.913701,-3.6094227,3.2564955,-7.0976324,-10.578665,-3.9039216,64.39162,-14.166871,0.22380319,-0.4509828,-0.25584388,9.257397,-5.02338,22.632738,-40.054977,55.64095,-1.0401251,-1.7594258,12.426144,-1.942222,-14.809451,18.569794,55.35439,-11.091071,-4.69131,-3.8550372
85,3.1518802642822266,16.160423278808594,77.73348999023438,1.3538179141820448,-1.9279336504123405,-93.49156461827867,-11.611374,0.42255655,7.8056884,16.103289,-3.377747,3.0948782,-6.3905177,-10.530894,-3.6657917,65.206955,-13.2674,0.13625129,-0.38120607,-0.25412133,9.06909,-4.8725777,22.673086,-39.99429,55.626522,-1.1191554,-1.8303542,12.445233,-1.8218967,-14.747143,18.550581,55.410233,-11.099631,-4.720643,-3.8693826
86,3.0843851566314697,16.530649185180664,77.67292785644531,1.334472560226685,-1.8957012067647252,-93.4615385560988,-12.063425,0.5318058,7.7254233,16.268578,-3.1288333,2.9125056,-5.653129,-10.47009,-3.419206,65.871956,-12.355397,0.087377265,-0.31318596,-0.28059885,8.875855,-4.723049,22.731178,-39.96587,55.63596,-1.1075649,-1.8485391,12.473929,-1.7350948,-14.647621,18.533827,55.507336,-11.096262,-4.7470603,-3.8994033
87,3.019308567047119,16.907978057861328,77.60738372802734,1.3241377797439182,-1.855486013822652,-93.43687995734346,-12.523911,0.6337267,7.652008,16.415714,-2.8629692,2.7285383,-4.904158,-10.410945,-3.1727314,66.39726,-11.487409,0.054529462,-0.23696147,-0.30476055,8.680298,-4.5917854,22.76513,-39.961594,55.683678,-1.0657363,-1.8412201,12.488621,-1.6391813,-14.578901,18.519793,55.57448,-11.076603,-4.763079,-3.9206684
88,2.933051347732544,17.291269302368164,77.5398941040039,1.3263063150276873,-1.8043832548362368,-93.42185477000761,-13.000998,0.72606665,7.592918,16.55444,-2.5826252,2.562258,-4.162329,-10.3713045,-2.934956,66.79451,-10.721164,0.013441762,-0.15646632,-0.3359862,8.477355,-4.4628105,22.787285,-39.957027,55.75315,-1.0551379,-1.8310403,12.463858,-1.5564339,-14.5225725,18.520473,55.6278,-11.057835,-4.7627993,-3.9272425
89,2.855984687805176,17.68534278869629,77.46995544433594,1.345872822324098,-1.7392278146076885,-93.4226790720622,-13.494185,0.8058669,7.5569525,16.680225,-2.284296,2.416196,-3.432428,-10.377501,-2.716555,67.07186,-10.0981045,-0.052393604,-0.0742437,-0.39327863,8.256239,-4.322843,22.812643,-39.9429,55.841877,-1.0909563,-1.8189126,12.377765,-1.5194181,-14.444801,18.557232,55.71514,-11.043733,-4.7496104,-3.9373093
90,2.7832233905792236,18.09385871887207,77.39195251464844,1.3790404191278332,-1.662117180849505,-93.43530442970685,-13.997714,0.87540114,7.5378356,16.784393,-1.9675206,2.2807586,-2.7060246,-10.414095,-2.5101066,67.22409,-9.580182,-0.12877984,0.017810678,-0.4494995,8.03069,-4.1874623,22.819805,-39.9349,55.95136,-1.1392207,-1.795168,12.247858,-1.4758058,-14.406836,18.609974,55.766632,-11.016341,-4.7245755,-3.9370053
91,2.7059128284454346,18.51238250732422,77.31072235107422,1.4187404567933874,-1.5789933420443476,-93.44924634950645,-14.519397,0.94152606,7.521233,16.889816,-1.6405244,2.1570485,-1.9821023,-10.437861,-2.2961824,67.2433,-9.105617,-0.19410473,0.10674509,-0.5078631,7.8076615,-4.055709,22.818977,-39.928097,56.07514,-1.1889433,-1.7627331,12.109733,-1.436367,-14.3829155,18.659788,55.786877,-10.993104,-4.679439,-3.9097106
92,2.6301705837249756,18.946659088134766,77.21997833251953,1.4559315934304782,-1.4953998659023315,-93.4536351180496,-15.064263,1.0099682,7.492658,17.013245,-1.3102831,2.0468214,-1.2596155,-10.4050255,-2.054929,67.12216,-8.6131115,-0.22602834,0.17426606,-0.56503075,7.5914655,-3.9229932,22.811687,-39.91241,56.209343,-1.2272669,-1.7255689,11.999472,-1.4133675,-14.358614,18.697672,55.782494,-10.983865,-4.6068673,-3.8378332
93,2.5434229373931885,19.389612197875977,77.1262435913086,1.4920771281498373,-1.411433342964179,-93.44797931733632,-15.635371,1.0786611,7.4515996,17.161396,-0.9812215,1.9563555,-0.53328353,-10.338286,-1.8099313,66.86073,-8.0847435,-0.24978836,0.22192025,-0.62248844,7.383241,-3.791033,22.794245,-39.882526,56.35992,-1.2349222,-1.6794062,11.925293,-1.4052951,-14.32969,18.701982,55.740135,-11.002135,-4.481828,-3.6827395
94,2.453479051589966,19.845788955688477,77.0256576538086,1.5318078469342722,-1.3244647520480568,-93.43727755505557,-16.227392,1.1451281,7.4050937,17.320683,-0.64673,1.8836691,0.19385782,-10.249771,-1.5609455,66.464745,-7.555372,-0.26753345,0.26483348,-0.679303,7.1849093,-3.657759,22.779442,-39.856865,56.50661,-1.2336714,-1.6216596,11.868462,-1.3916336,-14.314593,18.678455,55.639713,-11.033964,-4.315395,-3.4624786
95,2.3581182956695557,20.31491470336914,76.91910552978516,1.5668660777438095,-1.2366313852138073,-93.4190883943997,-16.84136,1.2149792,7.3494062,17.492414,-0.3039519,1.818081,0.9127439,-10.079647,-1.2511214,65.93344,-7.0414944,-0.22148517,0.29719082,-0.7366166,6.9857793,-3.5560791,22.72966,-39.83367,56.715393,-1.2304555,-1.5689557,11.825041,-1.4054779,-14.280821,18.645329,55.557835,-11.087136,-4.157267,-3.2529051
96,2.256649971008301,20.796480178833008,76.80441284179688,1.594790540512431,-1.149550814354138,-93.39122599367752,-17.478197,1.2943195,7.280443,17.67824,0.049647033,1.7484529,1.6150603,-9.7686405,-0.82160455,65.26754,-6.561207,-0.05408499,0.32682404,-0.7836735,6.797844,-3.47024,22.677797,-39.837994,56.925663,-1.2724017,-1.5260379,11.790618,-1.4090713,-14.261241,18.62824,55.458054,-11.125518,-4.0513253,-3.1178305
97,2.1476757526397705,21.299379348754883,76.68289184570312,1.6141095037468187,-1.0590617106698552,-93.34995518687535,-18.145124,1.3821996,7.1950917,17.879305,0.41631088,1.676272,2.3026154,-9.277273,-0.22223738,64.45425,-6.0914273,0.27510393,0.34551173,-0.820561,6.622134,-3.3904254,22.643288,-39.866344,57.11789,-1.3831431,-1.496875,11.760733,-1.405511,-14.255916,18.63385,55.343918,-11.155483,-4.019637,-3.088707
98,2.0380678176879883,21.81630516052246,76.555419921875,1.6272344659780966,-0.9661049029115291,-93.29723955920805,-18.837807,1.4752126,7.095669,18.091682,0.7955998,1.6059239,2.984269,-8.651585,0.50964725,63.500267,-5.638945,0.7225048,0.35336193,-0.85118353,6.455952,-3.3199165,22.613567,-39.91039,57.309124,-1.5375923,-1.4760804,11.739096,-1.4035584,-14.256374,18.650352,55.218605,-11.185133,-4.034399,-3.1257982
99,1.9263124465942383,22.345897674560547,76.42166137695312,1.6351587778842454,-0.8799409895327991,-93.23937763585131,-19.54016,1.575803,6.9860835,18.308876,1.1861439,1.5304487,3.66278,-7.961677,1.30065,62.42973,-5.2629995,1.2179483,0.3625181,-0.87437785,6.2994657,-3.2755847,22.558659,-39.972073,57.53236,-1.6947632,-1.4614269,11.729842,-1.398978,-14.264747,18.672,55.081512,-11.20006,-4.06842,-3.1872578
100,1.7960025072097778,22.880634307861328,76.28248596191406,1.6382146371973425,-0.8097537947520838,-93.18272726962851,-20.236975,1.6863987,6.8704495,18.525242,1.5858706,1.4428315,4.335913,-7.276446,2.0751295,61.268837,-5.019726,1.6914258,0.37028307,-0.89244443,6.166697,-3.24042,22.486408,-40.018562,57.763638,-1.8039813,-1.4477748,11.730245,-1.3990251,-14.284206,18.69678,54.92643,-11.191379,-4.095651,-3.2266219
101,1.6592938899993896,23.432483673095703,76.13235473632812,1.640509838946017,-0.7579630453259218,-93.12227333850805,-20.931116,1.8020896,6.7443595,18.752993,1.9886985,1.3470267,5.0191693,-6.554073,2.8795319,59.96711,-4.8730235,2.2064192,0.36801118,-0.9142175,6.0583553,-3.1979113,22.409092,-40.034317,57.99096,-1.8384787,-1.433409,11.748474,-1.4067351,-14.313174,18.741385,54.748703,-11.142519,-4.109625,-3.2324662
102,1.522681713104248,23.99431037902832,75.97749328613281,1.6397093026526275,-0.7197046540866742,-93.05662632789712,-21.627687,1.9217998,6.607699,18.988876,2.3986886,1.2453946,5.7105503,-5.788333,3.7342114,58.528152,-4.81252,2.7631166,0.35458404,-0.93371904,5.9696364,-3.158793,22.317554,-40.03208,58.227215,-1.8282957,-1.421537,11.782447,-1.4196211,-14.356401,18.806122,54.55054,-11.061447,-4.1239586,-3.2281096
103,1.3835465908050537,24.58701515197754,75.81306457519531,1.6342893915492962,-0.6927961955957876,-92.99891475750273,-22.314894,2.0550659,6.471132,19.203167,2.828324,1.1280583,6.3718486,-5.0890427,4.517995,57.063007,-4.9215517,3.203251,0.3449573,-0.94566345,5.9057903,-3.1219718,22.229218,-40.024628,58.44242,-1.8120935,-1.4104711,11.81216,-1.4383913,-14.404749,18.86159,54.34108,-10.97703,-4.143013,-3.2232008
104,1.2301396131515503,25.192102432250977,75.64497375488281,1.6177072988630525,-0.6748985768185651,-92.9621739183559,-22.983473,2.213385,6.344244,19.371864,3.2893345,0.98431385,6.9612494,-4.55294,5.105386,55.67864,-5.27782,3.379177,0.35321143,-0.94132286,5.870392,-3.088726,22.150417,-40.020466,58.61696,-1.8231343,-1.3992932,11.818789,-1.4640574,-14.451118,18.880384,54.13095,-10.916981,-4.170859,-3.227633
105,1.0657888650894165,25.813827514648438,75.47044372558594,1.5842291173056455,-0.6691539272412086,-92.94434476990033,-23.639416,2.40766,6.2216296,19.512049,3.7809036,0.820195,7.4607005,-4.2003984,5.434255,54.376656,-5.8959675,3.2354915,0.38042384,-0.9067847,5.8660135,-3.074463,22.069117,-40.039658,58.765434,-1.9055142,-1.3978028,11.783366,-1.4851109,-14.498105,18.841532,53.90683,-10.896579,-4.211586,-3.245347
106,0.9040156602859497,26.461118698120117,75.29191589355469,1.5353931564439358,-0.6754857713087007,-92.94046599317382,-24.28438,2.6321144,6.098146,19.627766,4.2969217,0.6368461,7.892625,-3.9566286,5.579095,53.10387,-6.7321367,2.878528,0.42252576,-0.85296035,5.889664,-3.0713613,21.993515,-40.073742,58.887634,-2.0299227,-1.4024009,11.720549,-1.5084707,-14.540216,18.760496,53.674816,-10.901402,-4.2623186,-3.2717748
107,0.7449197769165039,27.120214462280273,75.10603332519531,1.4839436307546117,-0.6861873485312832,-92.95945290977407,-24.907042,2.8739107,5.9828954,19.683142,4.8411145,0.4160178,8.276245,-3.7713375,5.618949,51.88309,-7.773628,2.4064033,0.4769398,-0.79916215,5.9347353,-3.0543973,21.943031,-40.087063,58.957283,-2.1251802,-1.3940256,11.662324,-1.56113,-14.570112,18.67811,53.468597,-10.908283,-4.316009,-3.303683
108,0.5643864870071411,27.79601287841797,74.91619110107422,1.4425418128667855,-0.693642401411274,-93.01042599355004,-25.493801,3.1203325,5.8855205,19.638212,5.414667,0.14050022,8.628992,-3.6045651,5.6337194,50.73729,-9.004843,1.9061795,0.5678375,-0.74053353,5.992112,-3.0570824,21.864336,-40.07869,59.02628,-2.1180592,-1.3595406,11.646393,-1.6273118,-14.625384,18.606503,53.280983,-10.89032,-4.364969,-3.3278127
109,0.39174267649650574,28.4948787689209,74.7127914428711,1.4160025485106935,-0.6925824086751718,-93.10099474950621,-26.048857,3.3680148,5.812672,19.480719,6.0704393,-0.20774844,8.951046,-3.4534338,5.650854,49.677647,-10.483884,1.3266288,0.68539315,-0.69110686,6.0562825,-3.0531352,21.782028,-40.023632,59.064213,-1.938856,-1.2724514,11.6930275,-1.7348827,-14.695763,18.576199,53.1375,-10.832869,-4.411725,-3.3456125
110,0.22236178815364838,29.215106964111328,74.50244140625,1.3969798313056385,-0.6884862454925772,-93.22488309280406,-26.576946,3.6249344,5.755405,19.233313,6.789055,-0.6153992,9.236267,-3.3279748,5.633766,48.687214,-12.199475,0.6534425,0.82700396,-0.63928795,6.1338673,-3.0491045,21.694584,-39.93722,59.07349,-1.6436138,-1.1484884,11.779278,-1.8690587,-14.782052,18.567173,53.018124,-10.750064,-4.458598,-3.3589756
111,0.048580851405858994,29.9468994140625,74.28443145751953,1.3780619763920585,-0.6898590834650931,-93.37065130462155,-27.058735,3.8921976,5.7044578,18.895365,7.472701,-1.0517302,9.490121,-3.2212214,5.5609565,47.75134,-14.029159,0.014839715,0.9820853,-0.57642496,6.234366,-3.0421193,21.60085,-39.816017,59.055397,-1.3420441,-1.0313127,11.871192,-2.0207274,-14.88415,18.570343,52.915398,-10.658977,-4.4978046,-3.3713577
112,-0.1395958662033081,30.69376564025879,74.05843353271484,1.350597525279915,-0.705240074743075,-93.52705228373163,-27.477577,4.1714363,5.653031,18.47062,8.022891,-1.4853961,9.716659,-3.134299,5.4030995,46.855637,-15.849321,-0.46524823,1.1389897,-0.49382895,6.3678875,-3.0267587,21.499931,-39.653576,59.00798,-1.1415203,-0.965072,11.935519,-2.1800408,-14.999397,18.578619,52.82026,-10.5755625,-4.521361,-3.3864415
113,-0.3210335373878479,31.459379196166992,73.83710479736328,1.3247302632263327,-0.7191260195883982,-93.70821687428969,-27.849318,4.465032,5.6179504,17.958479,8.427289,-1.9121662,9.902613,-3.108657,5.1097693,45.990364,-17.676077,-0.75517863,1.3072101,-0.39897564,6.523039,-3.0059135,21.392067,-39.45278,58.93145,-1.0887668,-0.9770457,11.960627,-2.3598258,-15.126887,18.594782,52.744736,-10.521381,-4.526845,-3.408736
114,-0.5006886720657349,32.24622344970703,73.62244415283203,1.2991551058241917,-0.7335098352624619,-93.91526723217284,-28.176157,4.774029,5.5995994,17.359287,8.734875,-2.3465657,10.052302,-3.1344478,4.7030225,45.16055,-19.554525,-0.9194812,1.4895912,-0.29261065,6.69926,-2.981128,21.277235,-39.21578,58.82703,-1.1202941,-1.0386572,11.965449,-2.5605512,-15.266792,18.621479,52.68984,-10.482598,-4.5185285,-3.4352856
115,-0.6751670837402344,33.036598205566406,73.41445922851562,1.2528236460982949,-0.7833436187362298,-94.11778118669423,-28.40693,5.098523,5.568905,16.650501,8.943634,-2.7847855,10.197453,-3.1396348,4.2574186,44.368855,-21.401098,-0.98720723,1.6639888,-0.15573798,6.922244,-2.9472418,21.154524,-38.936726,58.69809,-1.1806296,-1.1111281,11.963528,-2.7573047,-15.41848,18.6507,52.633907,-10.4227705,-4.4988923,-3.4589648
116,-0.8688077330589294,33.83865737915039,73.21512603759766,1.1634163626375005,-0.9037040400894896,-94.28511958274377,-28.482807,5.4379644,5.4985504,15.793333,9.057719,-3.2226431,10.364398,-3.0540257,3.8513577,43.62737,-23.137478,-0.9947344,1.8082553,0.030111669,7.218126,-2.8997111,21.022562,-38.61054,58.54866,-1.214257,-1.1556681,11.968576,-2.9242423,-15.581034,18.673582,52.554707,-10.306382,-4.4704576,-3.47259
117,-1.0624914169311523,34.65027618408203,73.02876281738281,1.0291305734107545,-1.102176070985323,-94.41934847668301,-28.388689,5.797237,5.3848066,14.767444,9.092223,-3.6715593,10.555732,-2.8748724,3.4987223,42.935184,-24.782358,-0.91870713,1.9206995,0.26699856,7.6032662,-2.8359632,20.879255,-38.210293,58.36539,-1.1997564,-1.1514823,11.985305,-3.071808,-15.756515,18.690592,52.44543,-10.138493,-4.428262,-3.48416
118,-1.2363035678863525,35.475833892822266,72.85521697998047,0.8572922145421553,-1.361967785925401,-94.53433625086299,-28.149097,6.180454,5.2462325,13.585485,9.045397,-4.128032,10.754254,-2.6376665,3.1583352,42.292904,-26.367542,-0.7626967,2.0112245,0.5497205,8.061836,-2.7593803,20.724283,-37.74715,58.15237,-1.1695358,-1.1230168,12.005969,-3.2072515,-15.945094,18.70687,52.316723,-9.932362,-4.372875,-3.4940398
119,-1.4410252571105957,36.28205871582031,72.7053451538086,0.6434250015690102,-1.6816022955580776,-94.61675144356931,-27.777264,6.587657,5.088267,12.284536,8.887391,-4.5655146,10.960017,-2.3267539,2.8316314,41.709038,-27.832047,-0.6051123,2.0764368,0.881681,8.570026,-2.6746364,20.559662,-37.27427,57.94195,-1.1484355,-1.0988731,12.026339,-3.3042984,-16.145502,18.716873,52.1798,-9.6677,-4.3146334,-3.48484
120,-1.6491154432296753,37.07418441772461,72.56935119628906,0.3804579760689784,-2.058926242426307,-94.652537669755,-27.280792,7.0168743,4.917368,10.887744,8.593684,-4.9575615,11.174275,-1.924474,2.5232382,41.19087,-29.113201,-0.5202321,2.1145935,1.2649865,9.104144,-2.5878541,20.388163,-36.846558,57.76542,-1.1607451,-1.1074071,12.042108,-3.3334117,-16.354717,18.711855,52.04296,-9.324837,-4.2639894,-3.4385993
121,-1.8562935590744019,37.869384765625,72.44557189941406,0.04932176410221635,-2.519753907738765,-94.62663424558957,-26.620491,7.477155,4.714852,9.360366,8.133538,-5.289688,11.417838,-1.3954151,2.2434204,40.739025,-30.175716,-0.53444237,2.116268,1.7186964,9.696876,-2.5085723,20.210123,-36.469677,57.62787,-1.2425073,-1.1597048,12.052718,-3.2901957,-16.573486,18.686625,51.899246,-8.855208,-4.2279725,-3.3559046
122,-2.059055805206299,38.653656005859375,72.33563995361328,-0.3418292490114182,-3.0555177970943013,-94.54776231789248,-25.78604,7.969238,4.4935045,7.6601667,7.5510044,-5.5758286,11.681863,-0.7566653,1.991603,40.350796,-31.060616,-0.6073287,2.0847585,2.233959,10.349037,-2.4338567,20.02502,-36.12138,57.514423,-1.3727856,-1.2393641,12.060309,-3.1859272,-16.802612,18.64221,51.744698,-8.285398,-4.1989174,-3.2443109
123,-2.2620975971221924,39.41949462890625,72.23536682128906,-0.7548705988379066,-3.6120734795029255,-94.4379033620168,-25.056746,8.490456,4.272213,6.2774415,6.687831,-5.8339005,11.926474,-0.071406156,1.7549826,40.02446,-31.817602,-0.7086533,2.03777,2.7677233,10.988105,-2.3498964,19.835308,-35.812977,57.426056,-1.488309,-1.3331022,12.064966,-3.0197587,-17.038279,18.580133,51.597195,-7.7058806,-4.164869,-3.0973954
124,-2.4548540115356445,40.16157531738281,72.14242553710938,-1.154561749765703,-4.135807480013722,-94.31999163706567,-24.977787,9.047653,4.018783,6.2582307,5.0924263,-6.0836535,12.111509,0.59580517,1.5178304,39.762283,-32.498436,-0.8064775,1.9961404,3.2766297,11.540649,-2.2431407,19.645239,-35.558044,57.3633,-1.5278476,-1.4274937,12.067133,-2.7911084,-17.273449,18.500635,51.476376,-7.209073,-4.1142845,-2.909262
125,-2.642482042312622,40.87432861328125,72.0501480102539,-1.5573614690200914,-4.650435681253929,-94.20484382674438,-24.888126,9.620636,3.820219,6.249629,3.335555,-6.344938,12.273265,1.2694838,1.2852801,39.559143,-33.10293,-0.8847869,1.9769554,3.7812467,12.006758,-2.095547,19.456331,-35.363403,57.31915,-1.4741107,-1.5259023,12.0747,-2.4805577,-17.505278,18.40703,51.388985,-6.8153024,-4.044575,-2.6553032
126,-2.8384125232696533,41.56068420410156,71.95275115966797,-1.9783741990705546,-5.168330710344087,-94.07699588465263,-24.785368,10.210675,3.6539385,6.2662587,1.4147995,-6.605052,12.415365,1.9692384,1.0600901,39.425823,-33.6177,-0.95901465,1.9650314,4.2938867,12.416116,-1.9192762,19.269468,-35.221443,57.294815,-1.3617439,-1.6330297,12.085493,-2.0960832,-17.733162,18.295591,51.32582,-6.4785705,-3.9614604,-2.3475823
127,-3.0272440910339355,42.22749710083008,71.86287689208984,-2.3525703260846544,-5.6194731420060124,-93.92223760669056,-24.738306,10.736655,3.5432355,6.33645,-0.36791512,-6.842027,12.444495,2.6048448,0.81769323,39.394577,-34.076565,-1.0435187,1.9342386,4.740083,12.739969,-1.7426623,19.08988,-35.119514,57.299854,-1.2026742,-1.7374871,12.083898,-1.6810971,-17.950308,18.157612,51.285755,-6.1910305,-3.8670552,-2.0354872
128,-3.1945955753326416,42.88922119140625,71.79570007324219,-2.626022621778928,-5.948661306568179,-93.73200487137079,-24.752815,11.136414,3.5093791,6.3856106,-1.6538054,-7.0415416,12.291235,3.1138585,0.53483087,39.44921,-34.475014,-1.165821,1.8605852,5.0625963,12.960375,-1.589311,18.925125,-35.047997,57.340454,-1.0137458,-1.8271902,12.053659,-1.2827206,-18.148651,17.988031,51.27479,-5.9463806,-3.7637742,-1.7674809
129,-3.3575024604797363,43.54902648925781,71.76463317871094,-2.78704140772948,-6.113284127811325,-93.51006379235473,-24.88619,11.397473,3.5801578,6.4092393,-2.336667,-7.214386,11.885357,3.4786987,0.20348462,39.630844,-34.826134,-1.3487414,1.7419028,5.2359986,13.037514,-1.4494202,18.781305,-34.990555,57.40144,-0.754596,-1.8982939,11.997707,-0.922471,-18.32375,17.811852,51.306168,-5.7617073,-3.6454237,-1.5297331
130,-3.5234599113464355,44.202880859375,71.76667785644531,-2.8660988425977654,-6.156334530087381,-93.26212680042782,-25.098875,11.555679,3.7343943,6.4150305,-2.596771,-7.366094,11.286683,3.7383971,-0.16616212,39.92337,-35.119602,-1.5769116,1.5890555,5.2968016,12.994256,-1.3075658,18.661325,-34.954037,57.476532,-0.43332902,-1.9570557,11.921235,-0.5812454,-18.474352,17.629887,51.38337,-5.6349216,-3.5139983,-1.3059442
131,-3.7019665241241455,44.84247970581055,71.79936218261719,-2.88189375980967,-6.140460698466754,-92.98038475292086,-25.289623,11.620329,3.9140294,6.4090757,-2.5426538,-7.467292,10.606638,3.910424,-0.5702445,40.25154,-35.341656,-1.8138235,1.3998305,5.2819924,12.897775,-1.1780863,18.566586,-34.96099,57.583233,-0.13274823,-2.0066037,11.811196,-0.23961572,-18.59322,17.396412,51.49269,-5.531416,-3.3847861,-1.1410679
132,-3.8715009689331055,45.475833892822266,71.85198211669922,-2.855441977254001,-6.128074138680497,-92.65608920373074,-25.357887,11.600565,4.0619755,6.3977714,-2.2829633,-7.488487,9.955532,4.0124044,-1.0041461,40.541492,-35.477257,-2.0227814,1.1616756,5.217216,12.813664,-1.0657533,18.51105,-35.026,57.732006,0.060944162,-2.0489883,11.6539345,0.10024197,-18.657255,17.079468,51.644474,-5.4183044,-3.273594,-1.0848366
133,-4.026536464691162,46.106204986572266,71.92708587646484,-2.771801111114856,-6.112064277013688,-92.27635659720373,-25.299528,11.47528,4.166192,6.378019,-1.7326276,-7.3937726,9.32089,4.0257463,-1.480156,40.805893,-35.521854,-2.197649,0.87630934,5.101111,12.738356,-0.99585253,18.478605,-35.177074,57.9478,0.10726316,-2.0971963,11.429761,0.47601357,-18.682093,16.637756,51.81379,-5.312689,-3.2110713,-1.1751407
134,-4.190237045288086,46.72175979614258,72.02799987792969,-2.621991249754182,-6.067481877347987,-91.84863592841631,-25.160921,11.244925,4.25889,6.348924,-0.8730004,-7.2035365,8.657591,3.941846,-1.99422,41.07352,-35.48064,-2.3577394,0.5676373,4.9177227,12.639343,-0.97450274,18.467012,-35.4244,58.23001,0.05091826,-2.1450918,11.152463,0.8908386,-18.663216,16.074457,51.99883,-5.2312255,-3.1811972,-1.3752809
135,-4.346676349639893,47.327911376953125,72.15162658691406,-2.433664562307321,-6.029726024096701,-91.39543991371596,-24.91753,10.952245,4.347737,6.31772,0.08968,-6.9751296,8.026919,3.7950723,-2.5171735,41.29527,-35.360435,-2.5030522,0.25658968,4.687602,12.542811,-0.99367505,18.480274,-35.754177,58.572754,-0.060153585,-2.169083,10.860165,1.3154793,-18.590504,15.422163,52.208637,-5.130282,-3.1277523,-1.6167789
136,-4.5000152587890625,47.88576126098633,72.29884338378906,-2.237365989419909,-6.022651043029527,-90.93760490696678,-24.585968,10.638896,4.4305205,6.3570633,0.9128318,-6.7630935,7.473771,3.616015,-3.0227966,41.454773,-35.19303,-2.6246927,-0.06864589,4.4406586,12.471479,-1.0227762,18.51658,-36.110264,58.953995,-0.16479228,-2.1476555,10.58849,1.7051281,-18.476921,14.753967,52.44826,-4.94788,-2.993211,-1.8313478
137,-4.640742301940918,48.435298919677734,72.45301055908203,-2.0409462114245485,-6.073376908203682,-90.46799263648656,-24.117117,10.319159,4.525294,6.4402237,1.5727345,-6.5947704,7.0395722,3.4208272,-3.5116205,41.51778,-34.952705,-2.724206,-0.4037804,4.1912336,12.452747,-1.0843501,18.573092,-36.537823,59.406784,-0.27159753,-2.0637968,10.341787,2.0759351,-18.32497,14.02313,52.683598,-4.6889296,-2.6995003,-2.0197537
138,-4.771368026733398,48.98927307128906,72.61873626708984,-1.8383128219947955,-6.166056505512871,-89.98337666050709,-23.518782,9.980931,4.621338,6.547877,2.1815577,-6.437165,6.694301,3.198261,-3.9918876,41.50269,-34.632854,-2.80544,-0.7479731,3.9290836,12.471504,-1.1788777,18.647497,-37.039013,59.926258,-0.40199143,-1.9327947,10.102589,2.438784,-18.134474,13.221924,52.921642,-4.373818,-2.2982726,-2.212978
139,-4.89115571975708,49.532806396484375,72.7959976196289,-1.634521227251467,-6.275330179873889,-89.5152923039145,-23.839705,9.7185,4.5066824,8.782262,1.6397259,-6.261354,6.4012384,2.9663353,-4.4473696,41.42115,-34.253975,-2.874944,-1.0656774,3.6659591,12.498998,-1.2830391,18.73539,-37.555836,60.46031,-0.5306935,-1.7811139,9.877321,2.7900016,-17.921112,12.412661,53.196728,-3.985189,-1.9273297,-2.3814075
140,-5.004217147827148,50.05397033691406,72.98272705078125,-1.4471947873208966,-6.37601080757891,-89.09560623424257,-24.249435,9.48239,4.2953343,11.307133,0.93118256,-6.050752,6.124951,2.7468257,-4.8616567,41.283104,-33.835674,-2.9404423,-1.3270907,3.4207938,12.509569,-1.3681941,18.830847,-38.021397,60.94998,-0.6293107,-1.6356461,9.671166,3.130218,-17.707937,11.664863,53.534195,-3.5011287,-1.7236184,-2.492358
141,-5.102561950683594,50.57050704956055,73.18052673339844,-1.2766846964848442,-6.464510368341235,-88.73136166597575,-24.622688,9.258507,4.0062814,13.859134,0.20895875,-5.7826614,5.863112,2.5422642,-5.2301764,41.079514,-33.372215,-2.997664,-1.5296937,3.2090623,12.506896,-1.433573,18.928152,-38.426414,61.38937,-0.68913347,-1.4975612,9.4847355,3.463209,-17.51031,10.966454,53.95253,-2.826953,-1.752378,-2.514298
142,-5.195809364318848,51.07194900512695,73.38758850097656,-1.1279450103071955,-6.558143136711331,-88.41167041712248,-24.958035,9.04795,3.6511316,16.490828,-0.56067187,-5.4829717,5.6397085,2.3580775,-5.557994,40.802338,-32.852806,-3.046804,-1.6869129,3.037425,12.5098,-1.4911097,19.024487,-38.79874,61.8051,-0.7243624,-1.3553437,9.315011,3.7947624,-17.330667,10.294727,54.420662,-1.9975512,-1.928618,-2.465232
143,-5.281972885131836,51.557411193847656,73.59516906738281,-1.0088325030416243,-6.659883518382719,-88.13816088404523,-25.217224,8.854317,3.2241936,19.102158,-1.356045,-5.2053776,5.45582,2.2110577,-5.8464375,40.4615,-32.289383,-3.1008124,-1.7978117,2.9038312,12.511992,-1.5310395,19.12,-39.125095,62.18619,-0.7401534,-1.2156359,9.161891,4.1285295,-17.172453,9.703805,54.891148,-1.1872653,-2.1642745,-2.387784
144,-5.366339683532715,52.03551483154297,73.80643463134766,-0.9212776203476352,-6.769109330932821,-87.90917378438434,-25.373875,8.675118,2.72046,21.613762,-2.1624918,-5.001306,5.307543,2.1110406,-6.099662,40.070824,-31.696417,-3.1715746,-1.8694263,2.7986498,12.505125,-1.538585,19.217709,-39.38494,62.52014,-0.7403227,-1.0885403,9.024533,4.4633007,-17.039816,9.255032,55.31989,-0.56870925,-2.3727217,-2.3286896
145,-5.448816299438477,52.493953704833984,74.01803588867188,-0.8644898531096031,-6.884678353818048,-87.71823365637455,-25.433434,8.496825,2.1176713,24.041218,-3.0229032,-4.8786697,5.20146,2.0586603,-6.3277874,39.620228,-31.06962,-3.2606084,-1.9064363,2.7157736,12.481795,-1.5072399,19.322098,-39.57335,62.803127,-0.71549934,-0.97039706,8.904105,4.8068724,-16.941032,8.98719,55.70534,-0.16028032,-2.558439,-2.3011184
146,-5.52557897567749,52.94163131713867,74.22685241699219,-0.829776618143828,-7.002649972217122,-87.56369619189594,-25.413519,8.302623,1.4299568,26.427698,-3.9354544,-4.814876,5.130447,2.0393348,-6.5300403,39.111946,-30.407345,-3.3601081,-1.9136349,2.6537597,12.445879,-1.438391,19.43467,-39.69268,63.03328,-0.6650379,-0.85856855,8.799459,5.15485,-16.877857,8.865919,56.06795,0.124130465,-2.758524,-2.2799711
147,-5.607443809509277,53.37874221801758,74.442138671875,-0.802393453764906,-7.118306793294797,-87.45077561174081,-25.303278,8.088739,0.7080726,28.726957,-4.8201594,-4.813329,5.0685,2.0374453,-6.694619,38.58237,-29.729103,-3.4679327,-1.8964202,2.6059244,12.403118,-1.3341968,19.554903,-39.742817,63.201183,-0.6127435,-0.7591956,8.707224,5.4866114,-16.842787,8.839433,56.400948,0.26501146,-2.9369311,-2.2581298
148,-5.678493499755859,53.80712890625,74.65059661865234,-0.7714331061248697,-7.22697960403467,-87.38484861672175,-25.098198,7.8578067,9.2012626e-05,30.905699,-5.5983973,-4.876196,4.9889627,2.0380092,-6.809216,38.069252,-29.055412,-3.582092,-1.8581415,2.564627,12.358822,-1.1977116,19.680927,-39.722614,63.30096,-0.5795766,-0.67841756,8.6245,5.78092,-16.822968,8.8548765,56.699448,0.24133109,-3.0577803,-2.230259
149,-5.744594573974609,54.23587417602539,74.85895538330078,-0.7291337126524029,-7.328423166476008,-87.37920600959772,-24.788877,7.606544,-0.6936682,32.945786,-6.2520676,-5.0107627,4.8834643,2.032692,-6.861647,37.583202,-28.387142,-3.7047179,-1.783505,2.523396,12.315002,-1.0273323,19.811014,-39.620216,63.322968,-0.5754746,-0.6152376,8.547447,6.016639,-16.810673,8.899488,56.991726,0.013151223,-3.1127844,-2.173074
150,-5.7988810539245605,54.6607780456543,75.05968475341797,-0.6777411604623053,-7.423336045155309,-87.42652041033516,-24.383265,7.3310122,-1.3916428,34.877594,-6.8288913,-5.2152452,4.7648993,2.0268633,-6.8620453,37.10489,-27.71551,-3.8353097,-1.6738802,2.4813626,12.266021,-0.82644886,19.945303,-39.443253,63.279808,-0.58831865,-0.56738824,8.479342,6.2086754,-16.805933,8.99819,57.27533,-0.40016532,-3.12154,-2.0995202
151,-5.853072643280029,55.085384368896484,75.26055908203125,-0.62939004016097,-7.509364367997932,-87.49811117626002,-23.907276,7.0418096,-2.077015,36.741283,-7.3535323,-5.472113,4.6364655,2.0292504,-6.833549,36.631493,-27.048208,-3.9680903,-1.5589851,2.441155,12.205895,-0.6079556,20.084988,-39.223026,63.199997,-0.6084146,-0.53904766,8.428227,6.3892984,-16.808475,9.153496,57.499294,-0.93167704,-3.089598,-2.0580268
152,-5.907923221588135,55.49832534790039,75.45649719238281,-0.5937511625186461,-7.584126879057545,-87.56529423588748,-23.38735,6.7521057,-2.7348804,38.575977,-7.8491716,-5.7628846,4.5020995,2.0486188,-6.799039,36.15933,-26.392313,-4.097397,-1.4665788,2.4062212,12.12882,-0.38555437,20.231407,-38.99233,63.111977,-0.6256733,-0.53447473,8.402053,6.592599,-16.817097,9.365855,57.61111,-1.514728,-3.02133,-2.0967016
153,-5.960911750793457,55.9060173034668,75.6424560546875,-0.5750564415574636,-7.649036764225117,-87.62649187578057,-22.822092,6.456722,-3.3912578,40.38528,-8.301139,-6.120946,4.36678,2.0907266,-6.7541595,35.68329,-25.745596,-4.2308326,-1.3959273,2.3748677,12.0296955,-0.15851717,20.386545,-38.754032,63.01981,-0.64312136,-0.56716794,8.4050865,6.85078,-16.83523,9.678109,57.54428,-2.2166722,-2.873693,-2.2833436
154,-6.008455753326416,56.313663482666016,75.81584930419922,-0.5647161901739134,-7.704130168333133,-87.69468213926025,-22.20266,6.1552777,-4.0448217,42.156895,-8.708974,-6.541869,4.226183,2.1480865,-6.6903067,35.207775,-25.106075,-4.3680325,-1.3361574,2.3452308,11.912896,0.08087621,20.550888,-38.491833,62.906403,-0.6651015,-0.6306849,8.432087,7.136721,-16.863329,10.076888,57.344044,-3.0431867,-2.6556425,-2.5711327
155,-6.052094459533691,56.72060775756836,75.98161315917969,-0.5611692517752159,-7.745980424956592,-87.7631694997774,-21.544603,5.871637,-4.642386,43.9055,-9.115045,-6.9481263,4.0719876,2.2113712,-6.6237698,34.741558,-24.480873,-4.4916344,-1.2959386,2.3200676,11.785988,0.32510325,20.72232,-38.214455,62.773376,-0.6836025,-0.6992871,8.477077,7.3978724,-16.893866,10.473714,57.126144,-3.8378823,-2.4520764,-2.8396144
156,-6.092008113861084,57.12245178222656,76.13784790039062,-0.5631674114011483,-7.771040608763869,-87.8248275653576,-20.863188,5.6310244,-5.131731,45.64084,-9.556803,-7.260546,3.8970644,2.2714636,-6.570119,34.289833,-23.8747,-4.5846086,-1.2789798,2.3020954,11.65586,0.5609399,20.896399,-37.93651,62.628998,-0.6917619,-0.7473968,8.53464,7.585872,-16.914017,10.773974,57.00491,-4.448986,-2.352573,-2.9722247
157,-6.123455047607422,57.530033111572266,76.28060150146484,-0.572504432659014,-7.77648928869967,-87.87689891119267,-20.16797,5.44173,-5.5127716,47.382984,-10.052601,-7.4503794,3.696065,2.328092,-6.5367775,33.8606,-23.279114,-4.6353683,-1.2850455,2.2962255,11.520523,0.7830823,21.069712,-37.65925,62.47588,-0.6820729,-0.7661731,8.607059,7.6759677,-16.912132,10.93442,57.040165,-4.8320036,-2.406244,-2.9091675
158,-6.157491207122803,57.929080963134766,76.41278839111328,-0.5907028567005809,-7.764848169332182,-87.92339602893821,-19.450508,5.295788,-5.8125305,49.119564,-10.576223,-7.5581894,3.4755485,2.3857803,-6.5130043,33.445797,-22.693054,-4.655707,-1.3051826,2.2971165,11.375408,0.98992753,21.24125,-37.384518,62.32208,-0.6606864,-0.7701598,8.697127,7.6994977,-16.88714,11.003647,57.16506,-5.0745177,-2.5600188,-2.7268503
159,-6.182192802429199,58.32713317871094,76.53414154052734,-0.6106561376272243,-7.7411171152063485,-87.96827732017672,-18.70045,5.193918,-6.020824,50.8135,-11.098297,-7.607525,3.2416022,2.441067,-6.4884415,33.03552,-22.13802,-4.6622777,-1.3323071,2.2932951,11.223774,1.1721888,21.409945,-37.128716,62.186924,-0.644039,-0.7703804,8.800318,7.6920757,-16.84444,11.027701,57.30406,-5.2219644,-2.75125,-2.5136843
160,-6.2079081535339355,58.730167388916016,76.64338684082031,-0.6264261985043098,-7.7103785950992965,-88.01548895562162,-17.909174,5.136751,-6.1278024,52.430866,-11.591849,-7.6219263,2.9988284,2.4911044,-6.4532514,32.624115,-21.638353,-4.671815,-1.3596843,2.2759998,11.069069,1.321976,21.574648,-36.90929,62.082798,-0.6498869,-0.77417237,8.911929,7.6922617,-16.79138,11.052354,57.377686,-5.3194675,-2.916662,-2.3562357
161,-6.236466884613037,59.136348724365234,76.74382019042969,-0.6301533904702986,-7.675644030971359,-88.06374127173423,-17.07554,5.144399,-6.0925217,53.987965,-12.073948,-7.5804935,2.7615318,2.5298457,-6.401448,32.188736,-21.216465,-4.6866593,-1.3901849,2.2386193,10.914101,1.4368777,21.734516,-36.72759,62.018032,-0.6858706,-0.79287744,9.04209,7.7080455,-16.734629,11.083624,57.359886,-5.340265,-3.0435836,-2.26335
162,-6.256446838378906,59.544212341308594,76.83634948730469,-0.6294106063410787,-7.6336426248456615,-88.1116914336477,-16.205795,5.2152267,-5.9380918,55.4966,-12.551314,-7.4755287,2.5223064,2.5605493,-6.3390174,31.740946,-20.854853,-4.6987405,-1.428118,2.1907291,10.757004,1.5213864,21.888826,-36.57554,61.98266,-0.7432524,-0.81921524,9.189279,7.721387,-16.674665,11.101067,57.29107,-5.2710023,-3.1636543,-2.191149
163,-6.269074440002441,59.957725524902344,76.91270446777344,-0.6335539827332582,-7.579898666360279,-88.16323476733768,-15.301726,5.3151965,-5.7481112,56.915825,-12.980582,-7.3518205,2.2569962,2.5943244,-6.274559,31.318369,-20.513597,-4.709277,-1.4675198,2.1449633,10.594151,1.5799606,22.035599,-36.448677,61.965992,-0.80562764,-0.83588684,9.331704,7.730357,-16.609612,11.1088505,57.193165,-5.1791134,-3.2800949,-2.149175
164,-6.273709774017334,60.376136779785156,76.96348571777344,-0.6506160901874176,-7.509505341832054,-88.22261651643963,-14.36429,5.406988,-5.6032147,58.2013,-13.320051,-7.2566624,1.9407558,2.6423032,-6.2170773,30.959177,-20.153185,-4.71892,-1.5029604,2.112692,10.421311,1.6131878,22.172861,-36.347908,61.961903,-0.86264473,-0.82582986,9.448107,7.730996,-16.537771,11.111702,57.090572,-5.132566,-3.3964043,-2.1478474
165,-6.288027763366699,60.7863655090332,77.0269546508789,-0.6896567588725128,-7.418288777734645,-88.29028785424103,-13.3924465,5.489903,-5.5136166,59.349865,-13.553092,-7.192216,1.566173,2.7104487,-6.1738176,30.67013,-19.761023,-4.727156,-1.5346023,2.0979211,10.233137,1.6195154,22.298725,-36.274765,61.978077,-0.90633583,-0.7705342,9.529446,7.728971,-16.456385,11.097126,56.974163,-5.164582,-3.5167966,-2.1980672
166,-6.300952911376953,61.2025260925293,77.08722686767578,-0.7406051413976639,-7.309859586792192,-88.36429289943901,-12.387365,5.578862,-5.438489,60.384274,-13.704527,-7.137511,1.1472026,2.7921176,-6.1389956,30.430916,-19.358545,-4.73376,-1.5639268,2.0939035,10.032573,1.5969487,22.41263,-36.229584,62.017178,-0.9437086,-0.68266076,9.588728,7.724164,-16.364544,11.066313,56.837696,-5.235216,-3.6383433,-2.2924173
167,-6.314102649688721,61.62891387939453,77.13546752929688,-0.7993149459140912,-7.191427927467637,-88.44458365066949,-11.354502,5.6576242,-5.3794456,61.29933,-13.789389,-7.106018,0.6911207,2.8805168,-6.1025033,30.23991,-18.956419,-4.739931,-1.5881417,2.0945604,9.828326,1.5454787,22.514845,-36.209194,62.069813,-0.98495835,-0.5963091,9.637316,7.7023134,-16.266483,11.045551,56.71034,-5.3013487,-3.753782,-2.4139242
168,-6.321725368499756,62.0579948425293,77.16914367675781,-0.8576785620559205,-7.0701322213032425,-88.53083550624345,-10.299895,5.709679,-5.338513,62.09162,-13.823206,-7.111408,0.20421688,2.9683094,-6.054039,30.097479,-18.566744,-4.74675,-1.6061022,2.0950391,9.629377,1.4711373,22.606234,-36.205387,62.116573,-1.0369157,-0.5413127,9.686111,7.6496687,-16.16869,11.062433,56.62003,-5.3190184,-3.855997,-2.544508
169,-6.33091402053833,62.49563217163086,77.2149887084961,-0.9189048731930237,-6.945146789250845,-88.62556277258504,-9.225057,5.7163215,-5.3438044,62.764614,-13.792686,-7.170727,-0.32671693,3.0579379,-5.9914217,30.029697,-18.18671,-4.7598133,-1.6167911,2.0982935,9.437588,1.373483,22.687006,-36.212555,62.155666,-1.1110529,-0.531883,9.74448,7.562221,-16.076544,11.140054,56.566177,-5.2500987,-3.9450684,-2.693415
170,-6.328130722045898,62.94200897216797,77.2405776977539,-0.9838273386346253,-6.813643274614956,-88.7281259680111,-8.1279335,5.689065,-5.3845544,63.320747,-13.696079,-7.273323,-0.90012157,3.151678,-5.9202414,30.027533,-17.811575,-4.776616,-1.6244222,2.1070974,9.249288,1.2540708,22.75703,-36.231728,62.190918,-1.199455,-0.5494173,9.803924,7.447028,-15.990596,11.2618265,56.53444,-5.124349,-4.0244994,-2.8642159
171,-6.329503059387207,63.38240432739258,77.25473022460938,-1.0466009238424512,-6.679531706801367,-88.83283104873748,-7.011021,5.657191,-5.405658,63.75436,-13.565269,-7.390468,-1.4879454,3.2418642,-5.8415103,30.039139,-17.451374,-4.7858777,-1.6343036,2.1165845,9.064973,1.1205112,22.816952,-36.266468,62.214012,-1.280565,-0.57589537,9.848767,7.3090262,-15.9083605,11.393403,56.53003,-5.0005817,-4.091591,-3.0299928
172,-6.318771839141846,63.838661193847656,77.263427734375,-1.1015258693049128,-6.546665598965448,-88.93386583243351,-5.8763037,5.6500974,-5.3522387,64.0581,-13.430955,-7.492465,-2.0604126,3.3216162,-5.755981,30.009079,-17.114088,-4.7766376,-1.6509007,2.1222775,8.885411,0.98099416,22.867586,-36.319317,62.215466,-1.3308327,-0.5929656,9.86315,7.1538687,-15.823964,11.50064,56.558304,-4.937192,-4.143461,-3.164328
173,-6.303117275238037,64.30239868164062,77.2698745727539,-1.142981724208674,-6.419514649838586,-89.03221644257007,-4.7077627,5.6738935,-5.2025,64.2253,-13.33148,-7.568577,-2.5971012,3.388611,-5.656482,29.904257,-16.815838,-4.742638,-1.6765133,2.1286538,8.715865,0.8339235,22.900532,-36.39866,62.200424,-1.339787,-0.59199435,9.820492,6.98214,-15.750047,11.565011,56.62485,-4.95493,-4.175608,-3.2512476
174,-6.296543121337891,64.7680435180664,77.2684555053711,-1.1764819503961501,-6.294716130081111,-89.12979571801415,-3.5106082,5.711007,-4.988641,64.26179,-13.239394,-7.634618,-3.1170003,3.446299,-5.5446434,29.758347,-16.54661,-4.6909423,-1.6994956,2.1145737,8.549358,0.67189294,22.937334,-36.512375,62.176136,-1.3259354,-0.5823819,9.737694,6.773036,-15.641226,11.601874,56.756943,-5.034886,-4.1917267,-3.3206146
175,-6.275452136993408,65.23286437988281,77.24999237060547,-1.2065672458967307,-6.164743336774915,-89.22297919580271,-2.3204975,5.758948,-4.737999,64.18266,-13.089623,-7.700744,-3.6538162,3.498208,-5.434699,29.624031,-16.279745,-4.6305876,-1.7243301,2.100728,8.382226,0.5013122,22.966364,-36.63521,62.126236,-1.2979658,-0.57770187,9.661527,6.558749,-15.531014,11.637613,56.896706,-5.137464,-4.1977186,-3.376889
176,-6.252824306488037,65.71517944335938,77.23614501953125,-1.2449155569407981,-6.021925723091701,-89.30797460327676,-1.172687,5.814987,-4.477308,64.002075,-12.816213,-7.7773805,-4.2399287,3.5469906,-5.3413615,29.551119,-15.987203,-4.570554,-1.7516391,2.0929427,8.206468,0.32549277,22.987043,-36.748768,62.040478,-1.2679954,-0.59061617,9.639628,6.355528,-15.423523,11.699169,57.011497,-5.2309446,-4.2001705,-3.4342594
177,-6.228437423706055,66.20321655273438,77.2205581665039,-1.293935760625933,-5.8581048617938105,-89.38736988965277,-0.07970897,5.8964477,-4.195126,63.726967,-12.3672905,-7.87005,-4.894774,3.5989106,-5.268995,29.564299,-15.657303,-4.5124803,-1.7849121,2.1125236,8.018259,0.15397198,22.994638,-36.845173,61.897194,-1.2264681,-0.62272686,9.688525,6.184647,-15.354571,11.806537,57.060585,-5.299469,-4.1923127,-3.4876518
178,-6.19523286819458,66.70386505126953,77.20025634765625,-1.3491678723364957,-5.679777613046558,-89.46175743011244,0.9783619,5.9962487,-3.883197,63.348812,-11.788947,-7.9726624,-5.5974064,3.649331,-5.209499,29.63306,-15.306306,-4.4518,-1.819983,2.1211872,7.8097568,-0.028955461,22.99733,-36.943935,61.738594,-1.1726681,-0.66726077,9.786172,5.996897,-15.248631,11.948267,57.1292,-5.376985,-4.1745872,-3.5533738
179,-6.173810958862305,67.2123031616211,77.18318176269531,-1.4006295738263013,-5.499882317505823,-89.5251660132383,2.0121,6.080331,-3.5744474,62.865967,-11.1674385,-8.078181,-6.3210173,3.688651,-5.1597943,29.726898,-14.949333,-4.3886585,-1.8624557,2.1342525,7.6105633,-0.21420756,22.991648,-37.02882,61.544174,-1.125026,-0.72740024,9.906629,5.8169045,-15.156111,12.087627,57.181515,-5.454328,-4.1605306,-3.6063585
180,-6.1369099617004395,67.7304916381836,77.15338897705078,-1.4430530227097815,-5.331371879077847,-89.57133293200637,3.0328813,6.11471,-3.3019733,62.273838,-10.587663,-8.179127,-7.039153,3.7061126,-5.1161423,29.815714,-14.601988,-4.3230667,-1.9143996,2.1357367,7.433953,-0.40612352,22.976488,-37.09377,61.328846,-1.101745,-0.80273086,10.029938,5.631603,-15.062088,12.196292,57.24648,-5.5381055,-4.1649036,-3.645828
181,-6.0937395095825195,68.25325775146484,77.1126708984375,-1.4687332647428075,-5.178158611479145,-89.60222428036299,4.0486794,6.105774,-3.0513375,61.5689,-10.038599,-8.255879,-7.747939,3.6984346,-5.075191,29.898758,-14.269083,-4.259573,-1.9749589,2.122762,7.2864027,-0.6034226,22.951643,-37.13124,61.081314,-1.1054066,-0.8932377,10.162825,5.4330516,-14.963525,12.258104,57.33872,-5.6376762,-4.197653,-3.6579003
182,-6.04509162902832,68.79865264892578,77.0714340209961,-1.483195578447305,-5.032917381244438,-89.61991997832074,5.0509048,6.067368,-2.8141096,60.756046,-9.487945,-8.318066,-8.463705,3.670498,-5.03962,29.995693,-13.945704,-4.1966558,-2.0419867,2.0983143,7.157083,-0.808224,22.917494,-37.149597,60.805584,-1.1273702,-0.99868244,10.312781,5.224999,-14.85944,12.289989,57.449837,-5.7504115,-4.2492394,-3.6512477
183,-6.0027642250061035,69.35908508300781,77.028564453125,-1.4922923234902352,-4.892276329131413,-89.61838388220207,6.024845,5.979902,-2.6321847,59.84214,-8.98644,-8.400009,-9.179072,3.6262603,-5.0125046,30.085093,-13.619221,-4.125488,-2.1159544,2.0668626,7.0397897,-1.0262626,22.875082,-37.16605,60.527916,-1.1710521,-1.121415,10.458958,5.025753,-14.752593,12.312428,57.550064,-5.857598,-4.304345,-3.6500726
184,-5.958212375640869,69.93047332763672,76.98588562011719,-1.5016459318358182,-4.752301990226057,-89.59158644996994,6.954545,5.824995,-2.549648,58.8364,-8.587766,-8.536325,-9.895492,3.5675776,-4.998433,30.16307,-13.287835,-4.0366287,-2.1970882,2.0327942,6.928411,-1.2609463,22.825287,-37.194153,60.27264,-1.2362378,-1.2639493,10.580123,4.854544,-14.649435,12.344203,57.608414,-5.941392,-4.347704,-3.6782825
185,-5.916104316711426,70.505126953125,76.93436431884766,-1.5153651973845688,-4.611356594853887,-89.53377110242015,7.8471594,5.5866246,-2.6013587,57.72288,-8.3604,-8.757753,-10.608869,3.4960337,-4.9979243,30.2219,-12.948897,-3.9225245,-2.2884037,1.9984725,6.8178644,-1.5118892,22.768751,-37.238285,60.042797,-1.3356276,-1.4423529,10.664255,4.7233872,-14.553546,12.396627,57.605526,-5.996964,-4.371152,-3.7506428
186,-5.851240158081055,71.10375213623047,76.87326049804688,-1.5279463075977235,-4.471426599153697,-89.44960823154386,8.707333,5.2864127,-2.7590384,56.503624,-8.260052,-9.0331955,-11.322033,3.4097457,-5.0084915,30.27027,-12.606963,-3.7895617,-2.3899496,1.9639574,6.7139864,-1.7724676,22.707119,-37.287144,59.81839,-1.4635377,-1.6499608,10.723513,4.622582,-14.467226,12.458522,57.55581,-6.0319576,-4.3841157,-3.8495128
187,-5.7900004386901855,71.71231842041016,76.80525970458984,-1.538230816878975,-4.3347805597220965,-89.34843824644572,9.518948,4.960558,-2.9700525,55.208134,-8.168141,-9.305208,-12.034932,3.3066244,-5.0276914,30.303885,-12.255436,-3.6493037,-2.4965534,1.9274838,6.623601,-2.0502846,22.634396,-37.34194,59.60964,-1.6001929,-1.8557574,10.775683,4.533316,-14.38412,12.515853,57.490334,-6.0493097,-4.39761,-3.9534154
188,-5.7153215408325195,72.34178924560547,76.7316665649414,-1.5419237589496784,-4.203796774513311,-89.2397024866983,10.263189,4.6405416,-3.1814995,53.870323,-7.962156,-9.521187,-12.747364,3.1848288,-5.052923,30.318808,-11.88779,-3.5134575,-2.6041844,1.8919952,6.558392,-2.3401241,22.554598,-37.397316,59.403038,-1.7241907,-2.0277033,10.836389,4.4459476,-14.309887,12.555024,57.42336,-6.047244,-4.422418,-4.03543
189,-5.632049560546875,72.98538970947266,76.6543197631836,-1.5337284277286989,-4.08353505440832,-89.12274859430381,10.943421,4.285259,-3.4304855,52.48757,-7.4964705,-9.732941,-13.459056,3.0355601,-5.0791826,30.32623,-11.516841,-3.3822422,-2.7109213,1.8508588,6.523914,-2.654408,22.457886,-37.45155,59.21477,-1.8407595,-2.1602008,10.909667,4.3577952,-14.2371025,12.5623665,57.361626,-6.019076,-4.4657674,-4.092532
190,-5.554401874542236,73.6456298828125,76.57564544677734,-1.5160071299552578,-3.9713515254176905,-88.99377345071032,11.567704,3.8946116,-3.7299674,51.047085,-6.8743205,-9.948877,-14.169998,2.8614538,-5.107696,30.324432,-11.141688,-3.2498477,-2.8187618,1.8064559,6.514226,-2.990012,22.347206,-37.508076,59.04141,-1.959127,-2.2692227,10.987017,4.2768807,-14.169446,12.548302,57.29194,-5.9663653,-4.520461,-4.136153
191,-5.459147930145264,74.32767486572266,76.4864273071289,-1.500285387961436,-3.8578330115017336,-88.8573263281556,12.124677,3.5559618,-3.9859564,49.565247,-6.348383,-10.055434,-14.882833,2.6770244,-5.1458883,30.295511,-10.737309,-3.1190825,-2.9263763,1.7672762,6.515414,-3.3387642,22.224936,-37.574333,58.880802,-2.0576463,-2.3569078,11.069154,4.197195,-14.109246,12.532171,57.22405,-5.90884,-4.575848,-4.169545
192,-5.359753131866455,75.01042175292969,76.39144897460938,-1.4972049648338728,-3.7334208161099083,-88.71799589638324,12.6028385,3.3522122,-4.0990305,48.055695,-6.168923,-9.940346,-15.600896,2.4972074,-5.201784,30.222912,-10.279365,-2.9930496,-3.0332255,1.7423304,6.5144563,-3.6922438,22.09638,-37.66117,58.72803,-2.1200583,-2.425081,11.156577,4.1130276,-14.059825,12.534496,57.165752,-5.865117,-4.6212025,-4.195396
193,-5.271105766296387,75.72427368164062,76.29581451416016,-1.511608799203125,-3.5917813244231547,-88.57053103913654,12.994484,3.3216074,-4.016043,46.487038,-6.447338,-9.550322,-16.323742,2.327504,-5.2890477,30.096544,-9.773539,-2.8756163,-3.144646,1.7366229,6.5018196,-4.0438704,21.964962,-37.77054,58.576702,-2.135013,-2.4598322,11.251063,4.0273747,-14.024856,12.571833,57.114033,-5.8213253,-4.652488,-4.2097507
194,-5.166176795959473,76.43867492675781,76.20198059082031,-1.5366377937395224,-3.439339942486616,-88.41484072968781,13.310865,3.3941596,-3.7953942,44.86011,-7.038485,-8.970326,-17.050364,2.1579976,-5.3990374,29.928501,-9.229229,-2.7645283,-3.2606122,1.7430136,6.488055,-4.3942003,21.831278,-37.893967,58.422928,-2.114111,-2.4645045,11.351114,3.9423726,-14.003999,12.631684,57.06323,-5.7720866,-4.6756864,-4.2117677
195,-5.057514190673828,77.1795425415039,76.1039047241211,-1.5583390801897177,-3.286335162620067,-88.2630432384881,13.565786,3.490132,-3.5054128,43.242714,-7.812024,-8.294637,-17.78368,1.9815807,-5.5069,29.735544,-8.628039,-2.6543455,-3.3714986,1.7514884,6.4902306,-4.747007,21.697285,-38.027805,58.266777,-2.0742311,-2.4667761,11.45254,3.8500204,-13.994139,12.688616,57.020348,-5.750433,-4.6955576,-4.2092843
196,-4.939911842346191,77.94354248046875,76.00325012207031,-1.5679998781135651,-3.142608032831418,-88.12722495308306,13.770733,3.54144,-3.214035,41.703514,-8.63346,-7.6067386,-18.527086,1.7926046,-5.587899,29.535177,-7.951669,-2.5396972,-3.4670804,1.7525616,6.52509,-5.1060967,21.565683,-38.169506,58.107758,-2.0327446,-2.4942906,11.551205,3.7420552,-13.98983,12.7172365,56.992405,-5.7889533,-4.7167172,-4.210428
197,-4.829317092895508,78.7408447265625,75.90371704101562,-1.5634914717761206,-3.0097630215331646,-88.01044872173999,13.930223,3.5345569,-2.9380727,40.220158,-9.449752,-6.893034,-19.29715,1.58965,-5.6357627,29.360239,-7.203674,-2.4205785,-3.5424194,1.7423497,6.600065,-5.4717774,21.43775,-38.30752,57.93679,-1.9978498,-2.5639806,11.654926,3.6078637,-13.985337,12.699925,56.99842,-5.925499,-4.7501936,-4.2104774
198,-4.701950550079346,79.55015563964844,75.80320739746094,-1.5491840339656944,-2.882885334939157,-87.90627309360889,14.039496,3.4995337,-2.6444435,38.766544,-10.340065,-6.1258197,-20.088375,1.3767062,-5.6627655,29.194296,-6.39223,-2.2999604,-3.6028333,1.7233579,6.704674,-5.8437853,21.314682,-38.450573,57.75771,-1.9617267,-2.6576385,11.763059,3.4528923,-13.979953,12.652562,57.031933,-6.134668,-4.7903433,-4.208693
199,-4.572040557861328,80.3679428100586,75.70568084716797,-1.5249707052785508,-2.7618949120650607,-87.81195007691304,14.094686,3.443202,-2.325131,37.405285,-11.364165,-5.3577895,-20.866991,1.1576338,-5.6721897,28.970465,-5.499394,-2.1760912,-3.6536367,1.6969565,6.829562,-6.218554,21.198761,-38.616177,57.584087,-1.907413,-2.750202,11.858456,3.2944033,-13.977182,12.599397,57.060333,-6.3541894,-4.8170114,-4.2185946
200,-4.441818714141846,81.20337677001953,75.61527252197266,-1.4973100004094217,-2.6464202248770783,-87.72428531251433,14.093106,3.3747804,-1.9728281,36.194733,-12.57844,-4.6424203,-21.599897,0.9362199,-5.667965,28.623564,-4.508663,-2.0469394,-3.7009697,1.6669593,6.9656043,-6.593258,21.09292,-38.82499,57.428055,-1.8226109,-2.816763,11.92373,3.151786,-13.981406,12.56546,57.04754,-6.5209928,-4.8102717,-4.252452
201,-4.299056529998779,82.05522918701172,75.51567840576172,-1.47183441176696,-2.5393902898402203,-87.63236485376358,14.030637,3.3164735,-1.5639925,35.189137,-14.1136,-3.9655824,-22.272753,0.7144536,-5.6620703,28.13525,-3.4548802,-1.9168863,-3.7534115,1.6421762,7.115851,-6.969017,20.999691,-39.088528,57.287193,-1.6815004,-2.8447967,11.947979,3.0311146,-14.001219,12.572555,56.973255,-6.616151,-4.753711,-4.324362
202,-4.158956527709961,82.94781494140625,75.42061614990234,-1.4456795131599665,-2.4394852199866652,-87.54059423558844,13.915264,3.2554636,-1.1154515,34.331207,-15.895781,-3.3179047,-22.905058,0.4914565,-5.6495304,27.5395,-2.3335626,-1.7853897,-3.8145144,1.617816,7.2862706,-7.3307905,20.931973,-39.382763,57.133614,-1.4985942,-2.8485787,11.940374,2.9169798,-14.032559,12.611639,56.859135,-6.6714516,-4.661564,-4.423349
203,-4.009025573730469,83.83829498291016,75.3296890258789,-1.4050432081795936,-2.3403476949881736,-87.4690107665737,13.759868,3.1555448,-0.67445683,33.516937,-17.672354,-2.7505355,-23.517073,0.2665115,-5.608042,26.853745,-1.0681524,-1.6422377,-3.8620322,1.5822098,7.4665694,-7.683719,20.874292,-39.700165,56.986027,-1.3211253,-2.8451457,11.917603,2.8122005,-14.070143,12.638193,56.727196,-6.703344,-4.5599627,-4.522869
204,-3.8641412258148193,84.73433685302734,75.26392364501953,-1.3337501639154068,-2.235739608141097,-87.43786708359782,13.574584,2.987075,-0.2816184,32.64701,-19.18958,-2.3025503,-24.124249,0.039884064,-5.51395,26.085497,0.41876346,-1.4763184,-3.8699398,1.5270855,7.6468854,-8.036759,20.807388,-40.035812,56.86647,-1.1954074,-2.8517127,11.897066,2.7240138,-14.109385,12.603645,56.595325,-6.728479,-4.475028,-4.5958247
205,-3.716338872909546,85.64090728759766,75.22643280029297,-1.2238487237688422,-2.1205627035294503,-87.4466089983192,13.347006,2.7454154,0.0469668,31.697598,-20.39361,-1.9821955,-24.75583,-0.20486236,-5.3486586,25.277346,2.1343355,-1.3005854,-3.8540096,1.4364482,7.8338776,-8.383304,20.751696,-40.37303,56.749424,-1.1502331,-2.8776467,11.896671,2.6121738,-14.131054,12.509857,56.510498,-6.7511816,-4.4140067,-4.644321
206,-3.558938503265381,86.56959533691406,75.20698547363281,-1.0901961354196992,-1.9989733497740971,-87.4865757703892,13.075972,2.4565496,0.3428064,30.719997,-21.410711,-1.7586626,-25.394184,-0.46112788,-5.124317,24.409271,4.0418262,-1.1122923,-3.8078039,1.3203608,8.027971,-8.736208,20.701754,-40.73594,56.64787,-1.158605,-2.9124596,11.904419,2.4940135,-14.136491,12.363269,56.447742,-6.767218,-4.363362,-4.6802454
207,-3.4159467220306396,87.50738525390625,75.2119140625,-0.9429857201455054,-1.8788753776211526,-87.56636592770167,12.7810955,2.1397533,0.63787204,29.73964,-22.262997,-1.5992358,-25.991531,-0.69856757,-4.858862,23.412598,6.1505804,-0.8738685,-3.7448494,1.1885462,8.213855,-9.052985,20.663103,-41.08603,56.56884,-1.1649686,-2.9399993,11.884609,2.3847637,-14.127131,12.207168,56.38106,-6.773927,-4.316916,-4.7071133
208,-3.253171920776367,88.4179916381836,75.22026062011719,-0.7927403725284047,-1.768625642152718,-87.69427452350197,12.477244,1.8154774,0.9601849,28.791609,-22.97611,-1.4710766,-26.499474,-0.8887861,-4.56722,22.218853,8.470103,-0.5456307,-3.6761742,1.0534472,8.377282,-9.2924185,20.637821,-41.386284,56.519882,-1.111738,-2.9446182,11.801547,2.3044534,-14.10875,12.082198,56.278187,-6.7672944,-4.2686157,-4.7264733
209,-3.106170415878296,89.33641815185547,75.24927520751953,-0.6574471927799179,-1.6499826244077334,-87.8949555384374,12.143026,1.5078255,1.3242337,27.868841,-23.545223,-1.3763145,-26.96898,-1.0008609,-4.2459073,20.815207,11.194173,-0.24957113,-3.5530233,0.9284118,8.500108,-9.485999,20.613747,-41.685097,56.541763,-0.97226447,-2.924548,11.650785,2.2730742,-14.074758,11.964332,56.11908,-6.735784,-4.2108364,-4.7404323
210,-2.969590663909912,90.23503875732422,75.28624725341797,-0.525935238893797,-1.524745200530058,-88.15782781135914,11.767248,1.2134731,1.7116152,26.974539,-23.96712,-1.3184731,-27.407131,-1.0660951,-3.8770866,19.244307,14.2500925,0.04998667,-3.3942628,0.8047478,8.593415,-9.635975,20.591446,-41.969357,56.620586,-0.7739161,-2.8879812,11.449536,2.2646673,-14.020284,11.855521,55.93502,-6.683909,-4.1485424,-4.750486
211,-2.8301432132720947,91.11841583251953,75.33451080322266,-0.37562279709735114,-1.4335974450937676,-88.4355722769416,11.395791,0.9037264,2.0977752,26.129847,-24.264048,-1.2682685,-27.68321,-1.1456853,-3.4397,17.493868,17.254461,0.6302653,-3.2715933,0.6660635,8.690831,-9.698801,20.582943,-42.17884,56.702744,-0.5698603,-2.835311,11.19725,2.277736,-13.975021,11.780855,55.728394,-6.6370254,-4.095537,-4.7452145
212,-2.693981885910034,92.00269317626953,75.36994934082031,-0.16882237714140283,-1.421652876886858,-88.67623438980853,11.086982,0.5323021,2.4549992,25.342419,-24.451553,-1.1983095,-27.653967,-1.3024156,-2.900171,15.537769,19.822603,1.7655069,-3.1625934,0.45647678,8.816623,-9.723608,20.57291,-42.38569,56.82113,-0.43846443,-2.7653458,10.903671,2.3585227,-13.889511,11.647871,55.499554,-6.6656,-4.0690856,-4.7195973
213,-2.562873601913452,92.84793853759766,75.4055404663086,0.14138012723092377,-1.5216499481579304,-88.85828345367943,10.882984,0.035464298,2.770711,24.602503,-24.503544,-1.1066262,-27.130325,-1.5792304,-2.171398,13.023644,22.098879,3.8039293,-3.1465204,0.13951246,8.99209,-9.644141,20.567547,-42.493137,56.93098,-0.3759189,-2.6670384,10.53147,2.494633,-13.79617,11.509713,55.242523,-6.801397,-4.0775886,-4.672229
214,-2.4281933307647705,93.64977264404297,75.43104553222656,0.5607361345289646,-1.7207261925796629,-88.99278414615625,10.779489,-0.59442616,3.041687,23.867542,-24.39844,-0.99834937,-26.193312,-1.9962392,-1.2687358,10.032631,24.19588,6.5131335,-3.2002656,-0.29391503,9.211271,-9.480427,20.56877,-42.53402,57.04849,-0.35405836,-2.544033,10.089877,2.6878488,-13.691117,11.360068,54.95061,-7.011137,-4.1112094,-4.60543
215,-2.296025037765503,94.45719909667969,75.45368957519531,1.0415630720665179,-1.9844909242409317,-89.08837187627346,10.745097,-1.2949096,3.2667975,23.123596,-24.173813,-0.8639,-25.095024,-2.5435278,-0.38025394,7.1320715,25.72578,9.260176,-3.2968976,-0.7939332,9.460888,-9.27792,20.57914,-42.564182,57.194237,-0.37180978,-2.4195707,9.64525,2.9141264,-13.576712,11.208562,54.651184,-7.2032733,-4.1541524,-4.5178337
216,-2.1771161556243896,95.24771881103516,75.48663330078125,1.4815286120894429,-2.25650219117875,-89.17618833382627,10.704746,-1.9427851,3.4695299,22.409021,-23.895433,-0.7045537,-24.27355,-3.1225383,0.2589943,5.224018,26.170702,11.38847,-3.3882418,-1.2558427,9.712778,-9.078042,20.598225,-42.632828,57.38254,-0.4230056,-2.3162496,9.264716,3.1479044,-13.459256,11.064833,54.37022,-7.2855983,-4.190884,-4.4063525
217,-2.061534881591797,96.04042053222656,75.53633117675781,1.8596640594763658,-2.521597035968257,-89.2599515900147,10.626094,-2.514024,3.6576686,21.757992,-23.574863,-0.51481974,-24.171457,-3.6757224,0.56793606,5.2539673,24.826195,12.778186,-3.4660892,-1.6522043,9.959493,-8.896692,20.623955,-42.752693,57.621944,-0.52552855,-2.2428384,8.9513035,3.39516,-13.345485,10.916052,54.087734,-7.2040257,-4.211768,-4.249251
218,-1.9481414556503296,96.81001281738281,75.59870910644531,2.200205564566852,-2.7953502001312396,-89.33997390731075,10.526019,-3.0404267,3.836401,21.175528,-23.197739,-0.30242887,-23.927805,-4.2205634,0.5807156,5.36056,22.797655,13.734342,-3.5430012,-2.0016196,10.205361,-8.706445,20.649832,-42.888905,57.8993,-0.6719613,-2.1861358,8.674717,3.6669457,-13.245909,10.766249,53.7922,-7.0121493,-4.226412,-4.0517745
219,-1.839199423789978,97.57754516601562,75.6747817993164,2.4593079735496666,-3.060152110349437,-89.44897839100533,10.384604,-3.4615686,4.0350513,20.683472,-22.805532,-0.09168598,-23.577602,-4.6992664,0.35964903,5.506797,20.578712,14.251337,-3.5722473,-2.2755697,10.434586,-8.513794,20.68224,-43.06803,58.21866,-0.8434651,-2.1352894,8.454854,3.9407806,-13.128947,10.618779,53.542053,-6.8016405,-4.2493887,-3.8595374
220,-1.7461752891540527,98.33119201660156,75.77284240722656,2.6028484532128715,-3.3038857948963924,-89.61121306871279,10.190354,-3.7280247,4.2738695,20.290087,-22.429659,0.09568468,-23.147324,-5.0652566,-0.0022257543,5.657556,18.652056,14.335131,-3.5561028,-2.4267826,10.6393175,-8.292526,20.709984,-43.25765,58.562057,-1.003028,-2.082267,8.308607,4.1936536,-13.028099,10.526009,53.373726,-6.6332107,-4.2939396,-3.707932
221,-1.6525765657424927,99.08932495117188,75.88317108154297,2.62228985823192,-3.528917047658349,-89.83377783805201,9.938504,-3.8273923,4.556638,20.012203,-22.072075,0.25525585,-22.631971,-5.303932,-0.43968296,5.8104568,17.061356,13.917496,-3.499143,-2.4331403,10.8223505,-8.035037,20.723494,-43.458458,58.940662,-1.1483334,-2.0330012,8.276388,4.432954,-12.969396,10.506209,53.290974,-6.506316,-4.382248,-3.6069007
222,-1.5518782138824463,99.8205795288086,76.01251983642578,2.5457275328872173,-3.7457740078969004,-90.096917507711,9.641453,-3.7952077,4.8666744,19.83825,-21.715666,0.4004687,-22.727718,-5.4474583,-0.90088314,7.49008,14.774742,13.038169,-3.3922477,-2.3362777,10.990064,-7.7667103,20.728943,-43.70301,59.368397,-1.3006756,-1.9891433,8.338099,4.6737585,-12.91894,10.514785,53.27518,-6.399097,-4.5017014,-3.5382693
223,-1.4772084951400757,100.54020690917969,76.15987396240234,2.4024099715999085,-3.960875674087174,-90.37850164478708,9.323255,-3.6679103,5.18645,19.728912,-21.362011,0.5398096,-22.918528,-5.5413976,-1.4582855,9.606863,12.41814,11.872173,-3.2729785,-2.1678145,11.148909,-7.47721,20.72635,-43.93824,59.80807,-1.4417481,-1.9400187,8.4153805,4.893474,-12.887005,10.562829,53.31454,-6.3128543,-4.61175,-3.484309
224,-1.418226718902588,101.24759674072266,76.3131332397461,2.2242490093428504,-4.180853680314841,-90.65608845090665,9.00971,-3.4841695,5.498563,19.63952,-21.009254,0.6811791,-23.076347,-5.6361504,-2.1634822,11.892374,10.17859,10.587047,-3.1475167,-1.9699165,11.302536,-7.1790843,20.717579,-44.158695,60.238018,-1.5683181,-1.8731151,8.432781,5.0890837,-12.859369,10.630844,53.391533,-6.2578135,-4.6725054,-3.4301784
225,-1.3638157844543457,101.9566421508789,76.46438598632812,2.003194433283089,-4.418650329108173,-90.93667683287575,8.711535,-3.2273135,5.8108764,19.583876,-20.663086,0.8398089,-23.22342,-5.7549257,-3.0554419,14.449638,8.040665,9.066094,-3.0266693,-1.7331662,11.466938,-6.852246,20.70667,-44.33018,60.646107,-1.6710954,-1.7808256,8.372162,5.240097,-12.8398485,10.743588,53.535164,-6.232693,-4.6959004,-3.3755095
226,-1.3149182796478271,102.66351318359375,76.61381530761719,1.7557129615274192,-4.682797189435012,-91.2111875066409,8.443313,-2.9222283,6.111447,19.545969,-20.305515,1.0131744,-23.342537,-5.935429,-4.081895,17.273865,5.942022,7.27456,-2.9159994,-1.4775054,11.643436,-6.500346,20.694324,-44.4756,61.05198,-1.7583379,-1.6711663,8.273302,5.359527,-12.824717,10.901691,53.74483,-6.233322,-4.6953974,-3.3300433
227,-1.2698092460632324,103.35699462890625,76.75733184814453,1.534212593589612,-4.96240579535602,-91.44524555076588,8.217969,-2.6436546,6.3661137,19.454617,-19.909067,1.1777419,-23.363237,-6.2204175,-5.168245,20.157576,3.901816,5.492251,-2.8410292,-1.2566459,11.818217,-6.1377816,20.684668,-44.605392,61.442944,-1.8254932,-1.5545319,8.142353,5.464925,-12.813346,11.073891,53.964302,-6.2660885,-4.633534,-3.2868342
228,-1.2369412183761597,104.04874420166016,76.89302825927734,1.37088850965311,-5.23650379723993,-91.6150133090062,8.027743,-2.4435642,6.551114,19.261284,-19.45845,1.305979,-23.246853,-6.6172223,-6.2517595,22.932648,1.9400165,3.9967365,-2.8138611,-1.1062328,11.96736,-5.7830515,20.680618,-44.739563,61.81232,-1.8753169,-1.4426112,7.986268,5.573331,-12.80242,11.228748,54.140854,-6.335529,-4.4734406,-3.2400475
229,-1.2037400007247925,104.73609924316406,77.0226821899414,1.2642432380324267,-5.5009670318675505,-91.71858342350956,7.8699603,-2.3196304,6.662356,18.962475,-18.94428,1.3821232,-22.979364,-7.1617975,-7.453494,25.604092,0.008494049,2.8545177,-2.8290029,-1.0292188,12.083401,-5.437315,20.683874,-44.892323,62.161808,-1.9110881,-1.3256804,7.799018,5.684359,-12.787644,11.370333,54.25328,-6.4647655,-4.136993,-3.1861682
230,-1.1863583326339722,105.39840698242188,77.1466293334961,1.1825148012107574,-5.7585469324280245,-91.77530796557205,7.73374,-2.230342,6.719246,18.59677,-18.384735,1.4200531,-22.590332,-7.8393655,-8.767885,28.266443,-1.8945482,1.9051222,-2.867861,-0.99450195,12.175241,-5.0941525,20.697924,-45.056973,62.48853,-1.9326727,-1.2006749,7.5793266,5.791976,-12.766228,11.50175,54.33098,-6.648244,-3.6674,-3.1271782
231,-1.1774687767028809,106.06282043457031,77.26040649414062,1.1188363467183058,-5.994617977969849,-91.79916508839021,7.59174,-2.1607609,6.7377133,18.188814,-17.811968,1.4352311,-22.136919,-8.547605,-9.9549675,30.912523,-3.6702702,1.0859995,-2.918021,-0.9857261,12.237558,-4.760498,20.730389,-45.230015,62.783424,-1.943704,-1.0903078,7.343763,5.9016857,-12.735081,11.597102,54.401978,-6.8458934,-3.208733,-3.0706902
232,-1.1751927137374878,106.73542022705078,77.35980987548828,1.0637901169556778,-6.195603544025394,-91.80290866332082,7.418233,-2.0993602,6.7333198,17.761152,-17.256401,1.4439137,-21.689152,-9.165347,-10.780853,33.537197,-5.206976,0.33732793,-2.9653625,-0.98524964,12.267091,-4.4412465,20.787493,-45.405663,63.0297,-1.942885,-1.0138808,7.108513,6.0260115,-12.695211,11.626761,54.485806,-7.0162215,-2.9046679,-3.0232742
233,-1.1740572452545166,107.39859008789062,77.44329833984375,1.0066071505896212,-6.342831956858144,-91.78315668547839,7.1979012,-2.034442,6.6992483,17.300892,-16.730606,1.4466767,-21.299461,-9.637896,-11.210914,36.175346,-6.4366617,-0.3735932,-3.0155995,-0.97716403,12.244722,-4.147659,20.867414,-45.618042,63.236134,-1.9464283,-0.98973566,6.8554277,6.170178,-12.651378,11.580011,54.59465,-7.1510696,-2.813691,-2.9842472
234,-1.1808013916015625,108.0627670288086,77.52197265625,0.9490733739316659,-6.446322223548293,-91.73731759644362,6.94415,-1.970563,6.6320915,16.80406,-16.21738,1.4355383,-20.939512,-10.00737,-11.381319,38.83001,-7.4201436,-1.0110995,-3.0679314,-0.9704202,12.177055,-3.8724008,20.971397,-45.860252,63.40151,-1.9496168,-1.0022597,6.582948,6.330098,-12.601316,11.47037,54.71181,-7.271436,-2.852323,-2.9507747
235,-1.200213074684143,108.73043823242188,77.57923889160156,0.9085923828175657,-6.535351078236507,-91.67964867349022,6.674941,-1.9221481,6.55304,16.305626,-15.703328,1.4140368,-20.557951,-10.2823105,-11.319607,41.43494,-8.232991,-1.5239972,-3.111873,-0.9795638,12.096358,-3.6005926,21.091745,-46.064026,63.516045,-1.9265723,-1.02332,6.334182,6.49876,-12.547863,11.320998,54.819427,-7.372877,-2.9511003,-2.92852
236,-1.2215006351470947,109.40821075439453,77.63052368164062,0.8972743023350153,-6.639400733666615,-91.6241023432988,6.409841,-1.9040583,6.483702,15.837099,-15.172735,1.3855923,-20.104109,-10.474551,-11.050621,43.930313,-8.956361,-1.8593915,-3.1361732,-1.0195997,12.035073,-3.316053,21.221985,-46.16135,63.567776,-1.8513272,-1.024661,6.152256,6.6688385,-12.495532,11.154423,54.899525,-7.450628,-3.040445,-2.9228694
237,-1.2468211650848389,110.0743408203125,77.67921447753906,0.9151598067118175,-6.765339179862737,-91.57725564227154,6.1592236,-1.9154791,6.4369745,15.398131,-14.624544,1.3442109,-19.577383,-10.530034,-10.5051985,46.31826,-9.59114,-1.9453231,-3.1396291,-1.0885314,11.995738,-3.006188,21.357002,-46.117302,63.54727,-1.6682632,-0.99256176,6.043127,6.846914,-12.447378,10.967086,54.943348,-7.5014553,-3.124981,-2.9320087
238,-1.2700427770614624,110.74217224121094,77.71434783935547,0.9527334401323799,-6.896736023734238,-91.53192820173611,5.907393,-1.9464182,6.4002657,14.980969,-14.067386,1.2896072,-19.004528,-10.434702,-9.713614,48.636448,-10.104514,-1.8122644,-3.1298575,-1.1751342,11.961803,-2.6828158,21.495634,-45.972427,63.46694,-1.4085791,-0.9446963,5.985761,7.0332904,-12.404271,10.754501,54.962143,-7.5265136,-3.2339196,-2.9539812
