unveil-humanoid-operators/unveil-humanoid-operators.github.io/feature-analysis-animation/data/feature_matrix_instances/weight_ankle_peak_vel_jogging_A256_jog_ff_start_180_R_001__A256.csv
Frame,root_translateX,root_translateY,root_translateZ,root_rotateX,root_rotateY,root_rotateZ,left_hip_pitch_joint_dof,left_hip_roll_joint_dof,left_hip_yaw_joint_dof,left_knee_joint_dof,left_ankle_pitch_joint_dof,left_ankle_roll_joint_dof,right_hip_pitch_joint_dof,right_hip_roll_joint_dof,right_hip_yaw_joint_dof,right_knee_joint_dof,right_ankle_pitch_joint_dof,right_ankle_roll_joint_dof,waist_yaw_joint_dof,waist_roll_joint_dof,waist_pitch_joint_dof,left_shoulder_pitch_joint_dof,left_shoulder_roll_joint_dof,left_shoulder_yaw_joint_dof,left_elbow_joint_dof,left_wrist_roll_joint_dof,left_wrist_pitch_joint_dof,left_wrist_yaw_joint_dof,right_shoulder_pitch_joint_dof,right_shoulder_roll_joint_dof,right_shoulder_yaw_joint_dof,right_elbow_joint_dof,right_wrist_roll_joint_dof,right_wrist_pitch_joint_dof,right_wrist_yaw_joint_dof
0,0.05991504341363907,1.2604612112045288,78.43505096435547,-0.18373980035835732,2.8983216655201898,-93.48694143388161,1.2125453,3.1715276,21.131704,12.518518,-16.710651,-1.8601949,-1.7694353,-1.4124515,-6.9739485,13.653137,-15.33034,1.6102341,-2.6214998,0.60849804,5.274831,3.4471297,22.399319,-41.812466,48.73829,3.8210514,-3.0750978,2.4587605,-1.2756008,-18.240065,42.619335,54.79293,10.198703,-7.9875712,-7.9258876
1,0.06921050697565079,1.2431188821792603,78.41822052001953,-0.2272925829207932,2.9050932816293984,-93.43927073677148,1.06152,3.274517,21.076569,12.87524,-16.920528,-1.8274052,-1.7434927,-1.3755301,-7.0223227,13.642281,-15.356394,1.6069916,-2.6436539,0.64365184,5.2665486,3.4812555,22.406137,-41.820435,48.72844,3.805587,-3.0481317,2.4794924,-1.2638408,-18.243427,42.626526,54.791332,10.194503,-7.9921236,-7.9308167
2,0.07566579431295395,1.2202043533325195,78.40438842773438,-0.27011210282902476,2.910896080629036,-93.39334855634458,0.91091657,3.3778393,21.024054,13.23356,-17.131533,-1.7915069,-1.7205403,-1.3392208,-7.068501,13.638269,-15.38541,1.6033118,-2.6641133,0.67819434,5.2583413,3.512251,22.409525,-41.829338,48.723427,3.787741,-3.0211067,2.5036054,-1.2534223,-18.246067,42.635418,54.790493,10.191494,-7.998293,-7.935349
3,0.08425135165452957,1.1967353820800781,78.3917236328125,-0.31624241522356966,2.919147403491574,-93.34359998068942,0.7588778,3.4820333,20.964499,13.587933,-17.33954,-1.7618421,-1.6911554,-1.2995206,-7.1196656,13.618709,-15.407714,1.6001339,-2.687924,0.71695614,5.2455683,3.547341,22.412678,-41.841972,48.717346,3.7715683,-2.9954343,2.5228179,-1.239489,-18.250345,42.647385,54.790157,10.192376,-8.0019455,-7.9419465
4,0.09488312900066376,1.1724636554718018,78.38053894042969,-0.3680112948515727,2.932136214370703,-93.28504203395782,0.60890067,3.583845,20.88972,13.924207,-17.53599,-1.7474546,-1.6454791,-1.2546601,-7.1818447,13.563477,-15.415596,1.5987562,-2.7187142,0.75959414,5.2297544,3.588582,22.412868,-41.84847,48.709488,3.7723842,-2.9743502,2.524411,-1.2172762,-18.252232,42.648285,54.789886,10.186434,-7.9995127,-7.9499974
5,0.10846877843141556,1.1485587358474731,78.37106323242188,-0.4337350903932306,2.9531243903358186,-93.20706267645669,0.44245493,3.69377,20.781939,14.268454,-17.730637,-1.7571455,-1.5753708,-1.1958094,-7.267867,13.45163,-15.398363,1.5948178,-2.7645516,0.81843984,5.1999993,3.6463718,22.411013,-41.85788,48.694237,3.7950125,-2.9536514,2.5023289,-1.1752423,-18.255062,42.638474,54.787037,10.169223,-7.986969,-7.9647303
6,0.12759289145469666,1.120375156402588,78.3615493774414,-0.5064770632477226,2.9788416851565045,-93.11633935527176,0.27205586,3.8030932,20.652899,14.604342,-17.91748,-1.7834314,-1.4858536,-1.130178,-7.369071,13.297677,-15.364205,1.5898926,-2.8133512,0.8841005,5.166294,3.7033253,22.404633,-41.871487,48.68255,3.8357832,-2.9344692,2.461647,-1.1221645,-18.258354,42.612244,54.78212,10.144346,-7.967205,-7.982238
7,0.13985121250152588,1.0848792791366577,78.35325622558594,-0.5786009270219039,3.0072948135672655,-93.03006262690853,0.11221066,3.9070768,20.52985,14.9161,-18.093765,-1.8135846,-1.3928527,-1.0647873,-7.466212,13.133447,-15.326377,1.591319,-2.8538003,0.94798434,5.1306963,3.75759,22.392504,-41.88993,48.67551,3.8742688,-2.9228847,2.4189088,-1.0573548,-18.260885,42.572037,54.772408,10.116643,-7.946303,-7.996236
8,0.15304972231388092,1.043609380722046,78.34086608886719,-0.6412471772241572,3.036166421381468,-92.96561676990567,-0.019906297,3.9978611,20.44069,15.182633,-18.254196,-1.8343412,-1.3046991,-1.0075454,-7.5398617,12.975529,-15.295302,1.6066747,-2.876817,0.99922085,5.0973687,3.8202343,22.37828,-41.904804,48.659103,3.8970747,-2.9236598,2.3903904,-0.99737287,-18.262075,42.536575,54.766853,10.108908,-7.9309273,-8.00065
9,0.1620756983757019,1.0061461925506592,78.3305435180664,-0.6929014388854433,3.0617265247743024,-92.93065669261111,-0.11348923,4.076906,20.399149,15.395814,-18.396616,-1.843859,-1.2136234,-0.95741904,-7.5821757,12.814342,-15.267227,1.6446362,-2.8732069,1.0354252,5.0673237,3.8888452,22.358347,-41.920326,48.639366,3.8995132,-2.9467175,2.3850906,-0.93154204,-18.262247,42.49603,54.757072,10.123087,-7.920813,-7.990013
10,0.17689572274684906,0.952970027923584,78.31880187988281,-0.7378419749948313,3.086275626732437,-92.91493065063273,-0.179813,4.1468954,20.388403,15.567214,-18.523756,-1.8485417,-1.1162987,-0.91128,-7.60461,12.641549,-15.237338,1.6990134,-2.852669,1.0622032,5.038061,3.9606712,22.332788,-41.938496,48.618587,3.887008,-2.9861267,2.393214,-0.8626812,-18.261206,42.45263,54.7476,10.154282,-7.9133167,-7.969437
11,0.19395188987255096,0.9040496349334717,78.30679321289062,-0.7758174784794356,3.116180569777269,-92.90887084986295,-0.23685907,4.2047973,20.390528,15.713852,-18.641563,-1.847711,-1.0352918,-0.8745836,-7.615945,12.490262,-15.220171,1.7551259,-2.8256247,1.0805345,5.0090523,4.04139,22.308987,-41.94794,48.58456,3.8689456,-3.024901,2.4010236,-0.7975481,-18.259367,42.41409,54.73972,10.189257,-7.910249,-7.9466453
12,0.21445445716381073,0.8585544228553772,78.29695892333984,-0.8069807726495845,3.157767733372585,-92.90297479724283,-0.29716426,4.2459397,20.388004,15.839435,-18.751793,-1.8408614,-0.989789,-0.8513776,-7.6252313,12.386892,-15.226615,1.7980845,-2.7938788,1.0934061,4.977526,4.1138363,22.27781,-41.952213,48.552593,3.850463,-3.0472348,2.3964095,-0.7429134,-18.25735,42.380707,54.7403,10.215562,-7.9135942,-7.928594
13,0.238090381026268,0.7999486327171326,78.28854370117188,-0.8290808721139015,3.2134728777784676,-92.8922178621129,-0.36625072,4.2661347,20.373735,15.9472475,-18.853,-1.8267496,-0.98964834,-0.84685355,-7.63651,12.348627,-15.267137,1.8197684,-2.7657685,1.0962828,4.943033,4.1961827,22.259714,-41.942265,48.490982,3.8285573,-3.0423834,2.3700123,-0.69696856,-18.256763,42.35882,54.74285,10.229313,-7.928877,-7.9192357
14,0.2672162353992462,0.7491423487663269,78.27982330322266,-0.8434113957922577,3.279456255587477,-92.88246887968297,-0.4356515,4.268951,20.357826,16.032452,-18.94431,-1.8060071,-1.0214554,-0.856671,-7.644536,12.354876,-15.331758,1.8294507,-2.7320871,1.0970265,4.9034004,4.25691,22.20939,-41.925888,48.458652,3.8100116,-3.024533,2.3320756,-0.65796787,-18.258469,42.338734,54.754562,10.23489,-7.9529223,-7.9122667
15,0.2935856282711029,0.7068300843238831,78.26806640625,-0.8537129918633629,3.3534004965400586,-92.880687925416,-0.5064683,4.263781,20.348106,16.106997,-19.034119,-1.7810014,-1.0764498,-0.8736609,-7.6442285,12.390254,-15.409105,1.8382035,-2.6956718,1.0908147,4.867562,4.330919,22.177235,-41.900925,48.399754,3.7858715,-3.0023198,2.2925057,-0.6241465,-18.260853,42.3243,54.76293,10.234788,-7.9756074,-7.9062443
16,0.3162880539894104,0.661375880241394,78.25581359863281,-0.864089527122241,3.4327160622729878,-92.89389888970905,-0.578307,4.259681,20.352655,16.180103,-19.129824,-1.7540071,-1.1437123,-0.8901193,-7.630523,12.434612,-15.484993,1.8572929,-2.655783,1.0863341,4.837263,4.404503,22.134527,-41.863674,48.352787,3.769724,-2.9907362,2.264204,-0.6049491,-18.2651,42.320175,54.77806,10.235071,-7.9861426,-7.897291
17,0.33964791893959045,0.6033424139022827,78.24222564697266,-0.8734943839321812,3.5205407353017963,-92.92871124577694,-0.65303963,4.2565436,20.37794,16.250715,-19.230947,-1.7229134,-1.2340412,-0.9073578,-7.5978346,12.499635,-15.561509,1.891136,-2.6058054,1.0776597,4.812985,4.4910336,22.10321,-41.811497,48.290882,3.7594619,-2.9891505,2.2516341,-0.59515387,-18.267721,42.316257,54.793125,10.224005,-7.97819,-7.880687
18,0.3674706816673279,0.5503545999526978,78.22655487060547,-0.8802497086913542,3.616998977008643,-92.9798885403761,-0.7297802,4.250188,20.418222,16.314173,-19.334291,-1.6874496,-1.3480111,-0.92814326,-7.550317,12.589301,-15.643685,1.9332805,-2.550239,1.0656757,4.793068,4.581206,22.07405,-41.746994,48.224445,3.7504272,-2.9922764,2.2480786,-0.60166407,-18.269371,42.32236,54.81481,10.210405,-7.958658,-7.859498
19,0.3992953300476074,0.4963098168373108,78.21348571777344,-0.8889313199743974,3.7147998735826544,-93.03626186787874,-0.80541116,4.2447968,20.463018,16.378643,-19.444162,-1.6527789,-1.4637076,-0.94760245,-7.4975247,12.680461,-15.726543,1.9784999,-2.5023623,1.0572906,4.77972,4.673426,22.035734,-41.670013,48.169823,3.7471385,-3.0035625,2.2462702,-0.6158091,-18.270113,42.338253,54.840866,10.19386,-7.937024,-7.8424826
20,0.4343118965625763,0.4426165521144867,78.19976806640625,-0.9031273685060366,3.806917527391959,-93.08694146794079,-0.8770253,4.244271,20.501871,16.452246,-19.564735,-1.6241066,-1.5616385,-0.96168494,-7.448865,12.755446,-15.806417,2.0215187,-2.4525185,1.0523901,4.7794485,4.758498,22.007381,-41.614845,48.122578,3.7349837,-3.023453,2.2400813,-0.6297947,-18.270477,42.351128,54.86784,10.186504,-7.9233913,-7.8376203
21,0.4715019464492798,0.37466466426849365,78.1866226196289,-0.923246882629163,3.883491630959545,-93.13454131677365,-0.9284453,4.247474,20.538519,16.525602,-19.69809,-1.6045458,-1.6249944,-0.9682961,-7.400011,12.801208,-15.880423,2.0612576,-2.4059064,1.0544368,4.8013616,4.837114,21.978762,-41.57065,48.09164,3.7114367,-3.0636032,2.2281134,-0.6505457,-18.27123,42.376907,54.903286,10.196702,-7.9210587,-7.8532486
22,0.5088827013969421,0.30772361159324646,78.17098999023438,-0.9473791701334965,3.950930922740027,-93.18302039714216,-0.969685,4.254743,20.576159,16.606426,-19.843023,-1.591576,-1.6695634,-0.9702436,-7.348122,12.833368,-15.951548,2.1003573,-2.3588305,1.0604763,4.839678,4.911886,21.952015,-41.534874,48.071083,3.6794436,-3.119061,2.2141016,-0.6718627,-18.27257,42.40552,54.941128,10.210909,-7.9243636,-7.882901
23,0.5465076565742493,0.24116073548793793,78.15461730957031,-0.975827549839507,4.026656074637606,-93.22359730886622,-1.0255009,4.2660294,20.604378,16.699347,-19.993954,-1.5792375,-1.7138407,-0.96969193,-7.3052797,12.853536,-16.021923,2.1395488,-2.3193245,1.0703435,4.8772097,4.983022,21.928661,-41.509277,48.05823,3.654071,-3.1694605,2.1968997,-0.6901448,-18.274385,42.42753,54.971092,10.223928,-7.929628,-7.9127645
24,0.5878967642784119,0.16688179969787598,78.13743591308594,-1.0085020044798048,4.128109515523616,-93.24772795843614,-1.1217753,4.2819986,20.612875,16.81217,-20.145256,-1.5627205,-1.77461,-0.96845216,-7.2832685,12.859931,-16.091673,2.1794953,-2.2920182,1.0828364,4.8984256,5.047562,21.914898,-41.502674,48.04643,3.644458,-3.1928968,2.1758506,-0.70412564,-18.276066,42.434082,54.98319,10.234745,-7.9330797,-7.9295187
25,0.6252343058586121,0.09327784925699234,78.11935424804688,-1.0489943413066487,4.268934567153862,-93.24808485491351,-1.288207,4.3102493,20.591793,16.969995,-20.302498,-1.5336192,-1.8628465,-0.963338,-7.2930503,12.844259,-16.158846,2.2210119,-2.2933233,1.1018847,4.889651,5.1070414,21.906107,-41.506092,48.043594,3.6686702,-3.1784737,2.1463478,-0.7203367,-18.277134,42.432953,54.979614,10.244111,-7.935565,-7.927673
26,0.6657857894897461,0.011543478816747665,78.10102844238281,-1.0961819116005094,4.4367993929959955,-93.23138748921801,-1.503248,4.3479543,20.549131,17.160856,-20.466114,-1.4975071,-1.967391,-0.9544085,-7.325464,12.810438,-16.223997,2.26353,-2.3130653,1.1292182,4.862022,5.1562233,21.894062,-41.523857,48.056343,3.7147088,-3.1380684,2.111675,-0.73511046,-18.278366,42.421604,54.963917,10.24973,-7.93817,-7.9150987
27,0.714788019657135,-0.06445503979921341,78.08285522460938,-1.1427165705940485,4.610203342397495,-93.20821026602512,-1.7166417,4.3791795,20.500404,17.337824,-20.62403,-1.4656091,-2.0710857,-0.94900244,-7.3636985,12.772321,-16.290554,2.305875,-2.338432,1.1554424,4.834614,5.201811,21.883684,-41.54963,48.077034,3.7641504,-3.0935788,2.0777347,-0.7462587,-18.279709,42.401825,54.938465,10.254879,-7.938672,-7.8976088
28,0.7620285749435425,-0.13762225210666656,78.06684112548828,-1.1822971548073495,4.767756606306394,-93.1892016644064,-1.878678,4.3892403,20.461258,17.454773,-20.764103,-1.4493628,-2.1557233,-0.95361775,-7.391024,12.742651,-16.36159,2.346657,-2.3430598,1.1755527,4.8250046,5.2303314,21.864964,-41.594547,48.122597,3.7977843,-3.0678487,2.053076,-0.73840696,-18.283794,42.353893,54.89898,10.253631,-7.9343667,-7.8785734
29,0.8160415887832642,-0.24045692384243011,78.05217742919922,-1.214292154167007,4.898373431133174,-93.17745122803669,-1.9683055,4.3750763,20.436213,17.496044,-20.882635,-1.458349,-2.2089868,-0.9678195,-7.4009733,12.721246,-16.436401,2.3832023,-2.339361,1.1892058,4.8450537,5.260703,21.841007,-41.63572,48.179157,3.8182309,-3.0675442,2.0362146,-0.71477646,-18.293089,42.288513,54.83965,10.249241,-7.9207983,-7.856466
30,0.8709713816642761,-0.33799973130226135,78.03877258300781,-1.2420461763712582,5.015420481931894,-93.16722986319128,-2.0142577,4.3444653,20.41692,17.486343,-20.98543,-1.484361,-2.2421625,-0.9888139,-7.4031453,12.700318,-16.512703,2.416996,-2.3386467,1.1983325,4.8842335,5.297619,21.820349,-41.67057,48.23705,3.8335388,-3.0800972,2.023193,-0.68740875,-18.30593,42.21851,54.767334,10.248083,-7.9007363,-7.8304605
31,0.931323766708374,-0.4303341209888458,78.02179718017578,-1.2638567282568949,5.133718040915399,-93.15534919859797,-2.0432591,4.2989006,20.39982,17.444336,-21.078016,-1.5120118,-2.2777214,-1.0199722,-7.4049225,12.691522,-16.596283,2.4529474,-2.3401582,1.2022943,4.9274454,5.3375144,21.802187,-41.70265,48.294613,3.843855,-3.0995033,2.015301,-0.6531296,-18.321686,42.14596,54.6864,10.24163,-7.881507,-7.8061204
32,0.9848434329032898,-0.5451510548591614,78.00624084472656,-1.278480517169671,5.268194872133766,-93.13876593228137,-2.081784,4.2399755,20.380949,17.387949,-21.16565,-1.5259005,-2.33753,-1.0650845,-7.413556,12.704819,-16.692364,2.4960039,-2.355808,1.1977023,4.9595695,5.385856,21.792194,-41.723606,48.342327,3.847424,-3.1191857,2.0126119,-0.62896705,-18.332928,42.096046,54.620586,10.231637,-7.8715534,-7.7911024
33,1.0429197549819946,-0.6625897288322449,77.98748016357422,-1.2840962158009055,5.427703845929006,-93.11738329100815,-2.1400454,4.1645317,20.360182,17.315577,-21.246569,-1.5193815,-2.4292386,-1.1273831,-7.4320993,12.733392,-16.797531,2.5539744,-2.3588955,1.1910666,4.977113,5.4037685,21.769695,-41.770645,48.41069,3.8338404,-3.1437514,2.0259902,-0.58481514,-18.365807,42.03039,54.536636,10.201175,-7.872409,-7.782015
34,1.1061789989471436,-0.7854195237159729,77.96558380126953,-1.2818203545910645,5.602566846550621,-93.09243322568784,-2.2019837,4.0727515,20.339169,17.217697,-21.318104,-1.5015314,-2.5408485,-1.2042774,-7.456311,12.775593,-16.91083,2.6220284,-2.3804693,1.1773194,4.9861865,5.435832,21.752514,-41.798878,48.467403,3.8156948,-3.173877,2.0493493,-0.551765,-18.395073,41.990036,54.46404,10.165431,-7.8816595,-7.780659
35,1.1749780178070068,-0.9113265872001648,77.94302368164062,-1.2754571665069394,5.780226400007561,-93.06325776757969,-2.257483,3.9724078,20.31699,17.107895,-21.38727,-1.4805871,-2.6635075,-1.289535,-7.4826927,12.846658,-17.039576,2.6861575,-2.4034212,1.1600795,4.9943657,5.4631586,21.734722,-41.828964,48.530003,3.7933836,-3.2010357,2.0683131,-0.5121241,-18.432104,41.954235,54.386654,10.134531,-7.89264,-7.784486
36,1.2458884716033936,-1.0296392440795898,77.91949462890625,-1.268089629108193,5.9479317684125315,-93.02899795918921,-2.2961073,3.8715925,20.292904,16.99917,-21.461435,-1.4647508,-2.7874064,-1.3773279,-7.5077333,12.9593315,-17.189106,2.7323284,-2.4335544,1.1365678,5.006242,5.5027423,21.726446,-41.847363,48.5875,3.778108,-3.2154562,2.0663154,-0.4784262,-18.454945,41.931423,54.327545,10.122132,-7.9017763,-7.7943296
37,1.3114912509918213,-1.1694458723068237,77.89530944824219,-1.2641390635181924,6.102498245538052,-92.98640658789533,-2.316064,3.7772644,20.26499,16.896593,-21.543697,-1.4578905,-2.9053311,-1.4608954,-7.5324917,13.107317,-17.35582,2.7502782,-2.4545906,1.1144645,5.025966,5.53295,21.718382,-41.876747,48.660587,3.768846,-3.2101386,2.0358796,-0.41985998,-18.49091,41.90411,54.245327,10.138057,-7.9035583,-7.8162675
38,1.380054235458374,-1.3146156072616577,77.87171173095703,-1.260639221780586,6.250838507642581,-92.93689994319006,-2.3234048,3.6836894,20.234268,16.794344,-21.630728,-1.4548898,-3.0239315,-1.5456452,-7.558051,13.28613,-17.538187,2.749713,-2.476801,1.0930604,5.0500946,5.5668287,21.713764,-41.904327,48.733997,3.7648628,-3.1910598,1.986322,-0.35008383,-18.538315,41.883694,54.152325,10.175927,-7.9030433,-7.8472953
39,1.438411831855774,-1.455263376235962,77.84676361083984,-1.2496559978032795,6.394916962979526,-92.88687129943843,-2.3170304,3.5787778,20.204092,16.683588,-21.716795,-1.4504714,-3.1569502,-1.6429311,-7.58042,13.518683,-17.748453,2.7462704,-2.5034747,1.0587597,5.0752497,5.6039405,21.715008,-41.92332,48.806107,3.7595792,-3.1714997,1.9293804,-0.28844285,-18.570066,41.870388,54.079395,10.215108,-7.9027967,-7.875001
40,1.5067660808563232,-1.5949420928955078,77.81774139404297,-1.2241207811273094,6.536999576838747,-92.8428157841534,-2.2971191,3.4509108,20.177814,16.55861,-21.797812,-1.4394435,-3.3175623,-1.7646883,-7.595631,13.826145,-17.998148,2.7557795,-2.5278249,1.005969,5.103061,5.6384096,21.719486,-41.935246,48.87219,3.7481797,-3.1651149,1.8775228,-0.22171317,-18.597881,41.848072,54.00554,10.234656,-7.9018626,-7.8835416
41,1.5765901803970337,-1.7443647384643555,77.78492736816406,-1.1859171310551782,6.674830859042891,-92.805118801133,-2.2601714,3.3001728,20.15291,16.41616,-21.87227,-1.4298927,-3.4944346,-1.9095393,-7.6061187,14.190542,-18.283178,2.7818954,-2.5376456,0.94003534,5.1441483,5.667411,21.736439,-41.954697,48.919,3.7386072,-3.1768386,1.8324581,-0.12245203,-18.662088,41.799194,53.879417,10.235986,-7.894853,-7.8584795
42,1.6459479331970215,-1.9084954261779785,77.74752044677734,-1.1372226612311866,6.808253852923302,-92.77065512262776,-2.2058628,3.1308463,20.128727,16.256853,-21.94109,-1.4214768,-3.6861112,-2.0733914,-7.612507,14.609914,-18.60086,2.8162553,-2.5475097,0.85972774,5.190406,5.6976023,21.759508,-41.968433,48.959217,3.7323046,-3.199133,1.7883525,-0.018630983,-18.725468,41.746464,53.749676,10.227182,-7.8854814,-7.813666
43,1.7189992666244507,-2.0819694995880127,77.7083969116211,-1.0723375560989574,6.942515374350647,-92.74072053377353,-2.145168,2.940503,20.110996,16.093845,-22.01021,-1.3964254,-3.9205258,-2.2626412,-7.608207,15.126576,-18.9611,2.8562584,-2.5550728,0.7611735,5.237436,5.725074,21.788408,-41.97096,48.988026,3.7044327,-3.2258914,1.7441548,0.09071792,-18.789373,41.688763,53.616966,10.205748,-7.877688,-7.7649813
44,1.796646237373352,-2.258474588394165,77.66073608398438,-0.9841706316626281,7.082942557396708,-92.71649351027054,-2.0867686,2.7252026,20.105606,15.935619,-22.082848,-1.3368891,-4.2218866,-2.4841967,-7.586167,15.775428,-19.373379,2.8990786,-2.5603359,0.64054567,5.281593,5.7474046,21.822468,-41.953125,48.999393,3.631129,-3.251031,1.6987101,0.19976585,-18.854534,41.63451,53.484535,10.178247,-7.8752966,-7.7286124
45,1.8705496788024902,-2.4377870559692383,77.60533905029297,-0.8676613363552322,7.230869258054555,-92.69957733327239,-2.0307992,2.480449,20.116705,15.784226,-22.159239,-1.2250941,-4.595118,-2.744203,-7.538785,16.560822,-19.846786,2.95046,-2.56121,0.4927628,5.3182774,5.7679515,21.861494,-41.917873,48.99372,3.5045533,-3.2760737,1.6517978,0.3121915,-18.921864,41.585342,53.35499,10.135491,-7.8804226,-7.711174
46,1.9569979906082153,-2.61354923248291,77.54566192626953,-0.726461885367184,7.38360190712174,-92.68879437503415,-1.9714531,2.2078552,20.140285,15.631563,-22.2358,-1.0749094,-5.0277553,-3.039276,-7.4698777,17.463793,-20.373205,3.0088396,-2.5581377,0.32093662,5.3513575,5.7836018,21.905714,-41.870483,48.974964,3.3352637,-3.3033075,1.6038213,0.42798448,-18.99139,41.539513,53.22472,10.08148,-7.890433,-7.70318
47,2.028470754623413,-2.803880453109741,77.48091888427734,-0.5677553884881961,7.540399160271434,-92.68128724884127,-1.9121436,1.9129893,20.170395,15.477474,-22.315344,-0.9156256,-5.523259,-3.3627715,-7.388672,18.494352,-20.938583,3.0599742,-2.5559862,0.13165207,5.3870306,5.795171,21.953987,-41.79435,48.93679,3.1392007,-3.3270254,1.5549082,0.54046726,-19.063908,41.492535,53.090755,10.029619,-7.90256,-7.6971154
48,2.1002345085144043,-2.991305351257324,77.40813446044922,-0.3976519484292561,7.700528266272965,-92.6742306335537,-1.854825,1.6006637,20.201279,15.318612,-22.398039,-0.77643025,-6.0855,-3.7082388,-7.304053,19.664938,-21.530148,3.08955,-2.5609436,-0.0686522,5.4312596,5.7994018,22.004835,-41.67533,48.87601,2.92814,-3.341978,1.5049314,0.64490724,-19.140524,41.4388,52.947685,9.990525,-7.913848,-7.685448
49,2.176971197128296,-3.1755924224853516,77.32972717285156,-0.20409879116873586,7.866864519501877,-92.66319459975314,-1.797638,1.2519199,20.231558,15.139835,-22.478931,-0.65821254,-6.7171288,-4.091488,-7.2057014,20.971329,-22.17139,3.0908356,-2.5767102,-0.2900747,5.480665,5.796519,22.057117,-41.50925,48.794727,2.729508,-3.3376052,1.4388659,0.73650783,-19.222822,41.37768,52.799973,9.975524,-7.927042,-7.6619163
50,2.255218982696533,-3.3505804538726807,77.24705505371094,0.012971489118482499,8.038797280509769,-92.65062835005251,-1.7389492,0.86927783,20.264082,14.944624,-22.557814,-0.54754126,-7.414163,-4.511244,-7.090009,22.404915,-22.858381,3.0709846,-2.5992625,-0.5327781,5.5334773,5.7890744,22.110249,-41.301815,48.693615,2.5310304,-3.3197532,1.3617376,0.82133996,-19.31147,41.310448,52.64591,9.974712,-7.942232,-7.6317787
51,2.33709454536438,-3.533268690109253,77.16114044189453,0.2284216760014802,8.2104670626346,-92.64438335071107,-1.6831297,0.49009448,20.300055,14.762495,-22.645256,-0.451927,-8.169676,-4.9366045,-6.976083,23.97032,-23.536331,3.035893,-2.622627,-0.7753954,5.598626,5.7704816,22.164371,-41.060093,48.57233,2.2786033,-3.3077393,1.3041776,0.90285194,-19.405962,41.242218,52.477085,9.975498,-7.953036,-7.6051617
52,2.4172608852386475,-3.7301204204559326,77.0744857788086,0.41736898211385487,8.376383245755148,-92.65259454024135,-1.6345387,0.15160242,20.340916,14.622473,-22.75121,-0.37880176,-8.976488,-5.3380976,-6.8837094,25.673527,-24.152874,2.9904382,-2.641301,-0.99655473,5.6847315,5.738715,22.21974,-40.787983,48.42734,1.9216899,-3.3210213,1.2964883,0.98897636,-19.504345,41.174427,52.282352,9.960753,-7.9530606,-7.5919485
53,2.4905521869659424,-3.9214446544647217,76.98661041259766,0.5774823537107785,8.53737067838328,-92.68334385655581,-1.5959733,-0.14320587,20.39089,14.526672,-22.87516,-0.33996284,-9.83237,-5.714803,-6.811643,27.51727,-24.70956,2.9657605,-2.646791,-1.1980655,5.791378,5.692963,22.277157,-40.47681,48.266888,1.4177061,-3.3804321,1.3385893,1.0790068,-19.60535,41.111923,52.05535,9.923824,-7.9374375,-7.59962
54,2.5623762607574463,-4.1114115715026855,76.89599609375,0.7208501136650176,8.695923910517074,-92.73051048029538,-1.5639415,-0.41248474,20.448378,14.459251,-23.011456,-0.32807156,-10.739692,-6.083443,-6.749782,29.496788,-25.230156,2.9447958,-2.6451628,-1.3894432,5.9142776,5.638135,22.336876,-40.12507,48.087597,0.80618733,-3.4711351,1.4162251,1.1722661,-19.708437,41.050022,51.802544,9.870315,-7.9106665,-7.621305
55,2.641282320022583,-4.341065883636475,76.8140640258789,0.8450456333337759,8.848211202285487,-92.78097797942632,-1.5377982,-0.6504113,20.5066,14.43271,-23.168285,-0.32154724,-11.70466,-6.4433517,-6.703774,31.625328,-25.696987,2.8599076,-2.651156,-1.5620995,6.057551,5.568695,22.398764,-39.756783,47.87651,0.14901641,-3.5598898,1.5388048,1.2609886,-19.81311,40.988304,51.543365,9.818475,-7.880841,-7.6456227
56,2.71459698677063,-4.565585613250732,76.73016357421875,0.948653365574688,8.990356969377569,-92.82153897135242,-1.5137556,-0.8532546,20.5586,14.452194,-23.349934,-0.29847562,-12.730994,-6.793421,-6.679567,33.911777,-26.090214,2.6443067,-2.6796894,-1.708323,6.224537,5.4781284,22.46207,-39.39681,47.62219,-0.49205026,-3.6134653,1.7168592,1.343033,-19.919086,40.92037,51.29465,9.779669,-7.856003,-7.6611
57,2.787710428237915,-4.779103755950928,76.64722442626953,1.025636983962256,9.120945590004128,-92.85500541089344,-1.5014458,-1.0088832,20.608429,14.542638,-23.567097,-0.24652779,-13.82739,-7.1302905,-6.6817274,36.396885,-26.379557,2.294455,-2.7292893,-1.8234295,6.4244637,5.36472,22.524796,-39.03357,47.332764,-1.213019,-3.6276255,1.9732008,1.4117204,-20.02591,40.838657,51.058662,9.764637,-7.8319087,-7.6589108
58,2.8571887016296387,-4.979072570800781,76.5616455078125,1.0799745751352074,9.241754284811966,-92.8862812230839,-1.4980531,-1.1255035,20.658203,14.689697,-23.812212,-0.1790144,-14.98318,-7.4594197,-6.706063,39.054703,-26.580803,1.8380606,-2.7939801,-1.913681,6.6522675,5.2286386,22.586508,-38.662304,47.01472,-2.0112886,-3.621333,2.2962515,1.4728898,-20.133158,40.746056,50.826477,9.762153,-7.8063593,-7.64704
59,2.922822952270508,-5.221197605133057,76.4827880859375,1.124998148437306,9.354196385381162,-92.90543093504613,-1.4824276,-1.2292173,20.697515,14.843905,-24.064737,-0.11252681,-16.169836,-7.7910624,-6.746941,41.788246,-26.74164,1.2581875,-2.8792772,-1.988701,6.890006,5.0729547,22.648996,-38.3129,46.64713,-2.6691825,-3.593356,2.64609,1.5345986,-20.241632,40.656902,50.602093,9.759322,-7.790562,-7.639474
60,3.0020864009857178,-5.4642157554626465,76.40423583984375,1.1744443680465864,9.459881516345785,-92.90249853556246,-1.4312259,-1.3467221,20.716208,14.950069,-24.300812,-0.063548915,-17.360498,-8.1337,-6.7985673,44.503727,-26.910336,0.54031825,-2.990433,-2.0579479,7.1198406,4.898306,22.715366,-38.018684,46.21003,-2.9734414,-3.538753,2.9821365,1.6099896,-20.352856,40.581184,50.38598,9.738371,-7.7956967,-7.6501126
61,3.0612337589263916,-5.7036943435668945,76.32733917236328,1.2325263113427236,9.555494190274214,-92.8758287171179,-1.3397936,-1.4847509,20.71526,15.008641,-24.524237,-0.029824544,-18.571915,-8.514451,-6.882458,47.28959,-27.095352,-0.43844897,-3.1317594,-2.1243207,7.3444576,4.7091417,22.787268,-37.78702,45.691216,-2.771894,-3.4303346,3.3048308,1.6986371,-20.46744,40.520912,50.183895,9.685137,-7.8346763,-7.689598
62,3.1275651454925537,-5.939530372619629,76.24652099609375,1.2925618720643883,9.641185100753626,-92.83013116300722,-1.2185374,-1.6302247,20.6986,15.041256,-24.743025,-0.004644301,-19.807095,-8.923734,-6.99558,50.15332,-27.271618,-1.6317474,-3.2990596,-2.1836824,7.571367,4.504462,22.864805,-37.60161,45.100994,-2.2115424,-3.2740464,3.6304681,1.7963066,-20.585411,40.469604,49.991894,9.611836,-7.898192,-7.7482285
63,3.2046194076538086,-6.203963756561279,76.16162872314453,1.348626275434558,9.724230406666194,-92.76545196440635,-1.0735569,-1.775063,20.660542,15.039664,-24.94754,0.0016246861,-21.024437,-9.305713,-7.0975943,52.890823,-27.438028,-2.7931085,-3.484065,-2.2329333,7.7896466,4.2758274,22.949028,-37.46133,44.451782,-1.5272708,-3.1141443,3.9430826,1.9100775,-20.708307,40.424595,49.794853,9.541183,-7.963696,-7.80906
64,3.27103590965271,-6.4906229972839355,76.07636260986328,1.39363520449742,9.811898140699189,-92.6820127255134,-0.91162294,-1.9096268,20.595642,14.997329,-25.129164,-0.021614743,-22.189253,-9.596201,-7.150181,55.31024,-27.59253,-3.6680691,-3.677453,-2.2672641,7.988728,4.01608,23.04145,-37.364136,43.75485,-0.9522805,-2.9978158,4.2288136,2.0499787,-20.83838,40.38121,49.574562,9.494925,-8.008577,-7.8548717
65,3.317896604537964,-6.792389392852783,75.99414825439453,1.4277013213201484,9.902005509839706,-92.5791785348882,-0.7297241,-2.0349157,20.50061,14.906247,-25.2855,-0.09182494,-23.289616,-9.770695,-7.1415877,57.39366,-27.775187,-4.1571045,-3.8789535,-2.290076,8.165101,3.7229228,23.145407,-37.321983,43.013855,-0.505176,-2.9458537,4.4992514,2.2229788,-20.977497,40.339153,49.312416,9.484757,-8.017448,-7.8816504
66,3.36572265625,-7.097902297973633,75.92129516601562,1.451949560956225,9.992107620028525,-92.45736783836217,-0.5266216,-2.1519592,20.37926,14.774284,-25.42251,-0.19862263,-24.353039,-9.855409,-7.0991206,59.25059,-27.975145,-4.39416,-4.091938,-2.3007174,8.32539,3.3995311,23.26217,-37.33449,42.220387,-0.07915859,-2.930748,4.757351,2.4260147,-21.126778,40.297894,49.018143,9.49528,-8.005351,-7.897994
67,3.4209041595458984,-7.418224811553955,75.84698486328125,1.4613471567415959,10.089833713837583,-92.31879363689463,-0.31565648,-2.250547,20.236963,14.623993,-25.546713,-0.31079724,-25.400568,-9.861574,-7.0448184,60.872242,-28.119923,-4.473248,-4.311424,-2.2879534,8.474323,3.057208,23.38765,-37.37419,41.35958,0.29278693,-2.9295428,4.977409,2.646497,-21.287283,40.26021,48.720566,9.517247,-7.9953866,-7.905539
68,3.480720043182373,-7.744060516357422,75.78389739990234,1.4507452344615213,10.202374345668039,-92.1656275474296,-0.10909145,-2.3209376,20.079096,14.477241,-25.6647,-0.39711744,-26.45256,-9.802792,-6.998805,62.24506,-28.134993,-4.490752,-4.5351477,-2.2406201,8.61556,2.7022943,23.514875,-37.414692,40.42456,0.57379097,-2.920042,5.1336412,2.8763618,-21.460756,40.224297,48.447247,9.532646,-8.010636,-7.906048
69,3.5445942878723145,-8.087451934814453,75.72283172607422,1.4149160877728448,10.336118203059167,-91.99147488393457,0.07842375,-2.3536067,19.903631,14.3536215,-25.78549,-0.43782276,-27.521332,-9.653199,-6.9461865,63.353237,-27.973719,-4.434109,-4.766384,-2.1476238,8.747297,2.3237724,23.638702,-37.458458,39.416206,0.72262555,-2.8957887,5.2093043,3.112848,-21.648634,40.190815,48.205296,9.551079,-8.060553,-7.8937645
70,3.5933501720428467,-8.451582908630371,75.6650619506836,1.3581907304967948,10.485657702997365,-91.79761535480388,0.25580823,-2.3549745,19.708782,14.241857,-25.90587,-0.45330414,-28.595787,-9.416133,-6.883929,64.20917,-27.686277,-4.260399,-5.00583,-2.016062,8.867919,1.9220458,23.757492,-37.514908,38.342247,0.77254045,-2.8701515,5.221913,3.363845,-21.851683,40.158363,47.978767,9.574734,-8.131586,-7.8697777
71,3.6352779865264893,-8.827823638916016,75.61447143554688,1.2896161105090194,10.640396714900312,-91.5975395814976,0.45438385,-2.3441687,19.499605,14.095993,-26.001675,-0.47210208,-29.6586,-9.153195,-6.8468814,64.83581,-27.339718,-4.0255504,-5.2467566,-1.8610764,8.982836,1.5111394,23.869877,-37.574207,37.21118,0.7906121,-2.8510473,5.1973476,3.625225,-22.070013,40.13255,47.76589,9.589985,-8.212118,-7.8465014
72,3.6770408153533936,-9.1881103515625,75.56543731689453,1.2183740067218183,10.789874780664247,-91.40454960982011,0.70125,-2.3380666,19.281384,13.879479,-26.053835,-0.5228821,-30.692997,-8.927374,-6.8691683,65.25816,-27.000725,-3.7901828,-5.483331,-1.6982855,9.096872,1.1117437,23.974611,-37.621754,36.02669,0.84893715,-2.846159,5.161058,3.8923333,-22.303013,40.120636,47.566288,9.583791,-8.290817,-7.8363156
73,3.7168920040130615,-9.572213172912598,75.51753997802734,1.147488835294015,10.933822147277587,-91.22191359254185,1.0121225,-2.3500156,19.041975,13.558767,-26.05088,-0.609316,-31.698076,-8.750939,-6.954463,65.46135,-26.670223,-3.5449798,-5.716591,-1.5286494,9.20528,0.73166007,24.06936,-37.65124,34.785088,0.9534899,-2.8653693,5.100039,4.1616135,-22.551006,40.127594,47.391163,9.544742,-8.363055,-7.836623
74,3.7601094245910645,-9.987844467163086,75.47674560546875,1.0718829375895276,11.07706915086368,-91.04218868629998,1.370835,-2.3674414,18.78228,13.159669,-26.004175,-0.7169757,-32.680984,-8.595293,-7.0841155,65.43916,-26.318607,-3.271036,-5.9498053,-1.3442678,9.307197,0.3606734,24.153267,-37.669228,33.48616,1.0724332,-2.9019537,5.007594,4.433676,-22.81405,40.151157,47.23944,9.485457,-8.435558,-7.8429956
75,3.8011796474456787,-10.416812896728516,75.43649291992188,0.9884244203171565,11.21620617472788,-90.86237658787324,1.7546473,-2.368034,18.527489,12.73876,-25.932997,-0.84739244,-33.634068,-8.460766,-7.260059,65.2243,-25.962482,-3.0159922,-6.1819158,-1.148174,9.412383,-0.014066079,24.229858,-37.685265,32.14354,1.2135326,-2.9393582,4.918039,4.7171354,-23.090496,40.18082,47.086792,9.418379,-8.51351,-7.8652596
76,3.830441951751709,-10.855676651000977,75.4027099609375,0.8946217217328911,11.348223656013234,-90.67983988723017,2.146629,-2.333126,18.302994,12.339854,-25.84923,-1.002051,-34.550896,-8.347634,-7.48455,64.85291,-25.619637,-2.8272643,-6.410736,-0.9448348,9.530913,-0.4029052,24.305475,-37.70874,30.766129,1.3854668,-2.9603171,4.865701,5.01616,-23.377954,40.208473,46.912907,9.359956,-8.602293,-7.913397
77,3.8527157306671143,-11.302704811096191,75.37273406982422,0.7912077387335784,11.469649879474002,-90.49610054621267,2.5442395,-2.256766,18.12682,11.976916,-25.761398,-1.1890122,-35.429188,-8.273054,-7.780424,64.310356,-25.306728,-2.7376032,-6.633171,-0.738556,9.673162,-0.811732,24.385332,-37.741467,29.342525,1.6041359,-2.970977,4.877836,5.3293157,-23.67272,40.2309,46.72695,9.307835,-8.699407,-7.9851975
78,3.870209217071533,-11.761520385742188,75.34379577636719,0.6792731492708066,11.582973550136286,-90.31175767300063,2.9590774,-2.1511173,17.981796,11.620286,-25.659191,-1.4048591,-36.26913,-8.229542,-8.141047,63.58199,-25.008192,-2.7154458,-6.8501678,-0.5281741,9.831627,-1.2278906,24.471027,-37.77855,27.863045,1.8608948,-2.9757898,4.929986,5.6478624,-23.973677,40.255802,46.54217,9.261016,-8.803833,-8.077046
79,3.883847951889038,-12.234597206115723,75.32096862792969,0.557511928859204,11.693934660335815,-90.12300362297462,3.3798158,-2.0206642,17.841942,11.2802,-25.541855,-1.6342736,-37.07077,-8.181639,-8.522733,62.707043,-24.696423,-2.7104788,-7.069139,-0.31024712,9.989229,-1.6420779,24.564175,-37.822124,26.346233,2.1186726,-2.9556358,4.9777484,5.9905477,-24.281748,40.27424,46.32272,9.213803,-8.922203,-8.19682
80,3.896623134613037,-12.71842098236084,75.30142974853516,0.4237562820706317,11.80775910097005,-89.92586236108365,3.803197,-1.8709885,17.680605,10.949691,-25.404284,-1.8621383,-37.834057,-8.094487,-8.881206,61.72251,-24.341938,-2.67348,-7.294277,-0.07964546,10.130909,-2.044472,24.665735,-37.875504,24.808142,2.343186,-2.8919907,4.976874,6.361438,-24.600256,40.28822,46.041126,9.178033,-9.06152,-8.3520775
81,3.903414011001587,-13.211841583251953,75.2798080444336,0.28095040481556605,11.924115184796621,-89.72221361653195,4.2167587,-1.7027736,17.493504,10.659265,-25.25384,-2.0822344,-38.56491,-7.9755063,-9.215635,60.628033,-23.949627,-2.6219423,-7.5243697,0.16115867,10.258581,-2.4414277,24.777285,-37.944195,23.23748,2.5395162,-2.7537904,4.9126983,6.7668743,-24.931902,40.29532,45.68794,9.153739,-9.23646,-8.56738
82,3.901578903198242,-13.720294952392578,75.2563247680664,0.12911637371191337,12.040559759918212,-89.51313428914229,4.6288357,-1.5143125,17.293615,10.397564,-25.089985,-2.303631,-39.25902,-7.8368177,-9.546081,59.403244,-23.529545,-2.571805,-7.7570777,0.41099986,10.379899,-2.833717,24.899633,-38.02581,21.626366,2.7211843,-2.559583,4.809297,7.206048,-25.27758,40.292843,45.27292,9.136004,-9.438692,-8.831103
83,3.895819902420044,-14.244769096374512,75.23890686035156,-0.035307963466635665,12.159622552247292,-89.29377566611892,5.053452,-1.3051417,17.081152,10.126225,-24.902132,-2.533486,-39.905003,-7.655373,-9.853709,58.05964,-23.062021,-2.4723816,-7.995957,0.6738931,10.488314,-3.2051728,25.031925,-38.110703,19.998716,2.866486,-2.3657353,4.681121,7.6759644,-25.638233,40.280006,44.794716,9.12413,-9.64065,-9.096149
84,3.8907244205474854,-14.788278579711914,75.22154998779297,-0.2158846542570146,12.283905031311194,-89.05907598363324,5.503839,-1.0739925,16.856472,9.806469,-24.679184,-2.7788792,-40.48994,-7.409791,-10.118274,56.60569,-22.5264,-2.2737362,-8.246658,0.95374495,10.5764675,-3.5379717,25.172163,-38.18633,18.379917,2.9544113,-2.2285752,4.543108,8.188592,-26.014595,40.24523,44.241676,9.103305,-9.81448,-9.315615
85,3.8851332664489746,-15.345333099365234,75.21027374267578,-0.4162159424747374,12.411688709989674,-88.8029216120927,5.9849043,-0.818033,16.609467,9.429463,-24.42511,-3.0446231,-41.011868,-7.093658,-10.332831,55.02533,-21.912083,-1.9552329,-8.512477,1.2552662,10.646258,-3.8382156,25.31895,-38.25157,16.777065,2.95676,-2.184679,4.386642,8.748421,-26.408258,40.190292,43.603203,9.074844,-9.946488,-9.486419
86,3.869983673095703,-15.914401054382324,75.20298767089844,-0.6323482985444275,12.542195799052138,-88.5289495990828,6.4911356,-0.539505,16.34265,9.01124,-24.141308,-3.3256733,-41.47406,-6.7225885,-10.503461,53.3133,-21.230434,-1.5481117,-8.790842,1.5744767,10.701755,-4.1116185,25.47191,-38.311123,15.177388,2.8930585,-2.1966434,4.2088156,9.3561945,-26.820179,40.113476,42.880653,9.040935,-10.053199,-9.630619
87,3.851579189300537,-16.50275421142578,75.20135498046875,-0.8562348891905646,12.679774759855972,-88.24654898167418,7.016059,-0.2433981,16.07475,8.560138,-23.817747,-3.6143014,-41.874393,-6.3093452,-10.628286,51.49725,-20.495018,-1.081209,-9.07672,1.9035048,10.739868,-4.3474407,25.630863,-38.365032,13.580219,2.8103056,-2.2101269,4.0335383,10.003439,-27.248981,40.009277,42.09019,9.005018,-10.151915,-9.738117
88,3.8313746452331543,-17.1103572845459,75.20188903808594,-1.0794706837487245,12.828475735110297,-87.96567317979992,7.554393,0.06438329,15.824823,8.083193,-23.44413,-3.9029107,-42.211666,-5.866711,-10.705344,49.607605,-19.72194,-0.58303726,-9.364065,2.2344294,10.757617,-4.531756,25.795609,-38.411846,11.981361,2.758178,-2.1710932,3.884541,10.670549,-27.6909,39.881866,41.25608,8.979643,-10.260191,-9.79927
89,3.8072566986083984,-17.73907470703125,75.20084381103516,-1.3085225554809774,12.99667358968707,-87.68766122395147,7.9133234,0.4458587,15.596478,7.9876823,-23.245369,-4.1968336,-42.487755,-5.3735504,-10.722167,47.606865,-18.860115,-0.014251604,-9.658249,2.576112,10.74397,-4.6558156,25.966003,-38.444546,10.364294,2.7359192,-2.0457335,3.778857,11.365626,-28.145123,39.728474,40.370686,8.947071,-10.383095,-9.790541
90,3.771092653274536,-18.388322830200195,75.1985092163086,-1.542003985501051,13.17889379913587,-87.4061718411523,8.257509,0.8504659,15.3765545,7.9194956,-23.03584,-4.496034,-42.69673,-4.8382854,-10.676286,45.48463,-17.919706,0.62189823,-9.961221,2.9269512,10.705486,-4.7278867,26.142605,-38.464684,8.734995,2.723209,-1.8694688,3.7002757,12.090713,-28.61164,39.55075,39.42932,8.911261,-10.5111265,-9.724281
91,3.7338972091674805,-19.055789947509766,75.19845581054688,-1.7628236467462248,13.358527767335277,-87.12026912231482,8.61616,1.2532768,15.157798,7.8499827,-22.778967,-4.7907405,-42.831936,-4.313966,-10.587305,43.325172,-17.003376,1.2340325,-10.263813,3.2646422,10.662806,-4.760235,26.326723,-38.482384,7.1265535,2.7376199,-1.6926317,3.622184,12.82967,-29.085037,39.350147,38.454197,8.901893,-10.640495,-9.644216
92,3.702766180038452,-19.72560691833496,75.19677734375,-1.954971768255648,13.519420627760423,-86.82969978768935,9.004172,1.6342449,14.934469,7.7837734,-22.455559,-5.0718317,-42.888012,-3.8483427,-10.481485,41.2149,-16.210546,1.7321906,-10.559009,3.5667577,10.634465,-4.7630363,26.519928,-38.505898,5.5731683,2.7964704,-1.5657799,3.5177593,13.588985,-29.553852,39.113297,37.453926,8.926836,-10.767076,-9.594373
93,3.6542296409606934,-20.421207427978516,75.19660949707031,-2.118510874900558,13.658910396134072,-86.53450566430543,9.426355,1.9933659,14.714325,7.7219486,-22.060934,-5.335344,-42.860027,-3.4349852,-10.357491,39.138683,-15.565705,2.1037054,-10.840228,3.8290448,10.620857,-4.73578,26.72329,-38.535114,4.073886,2.9234338,-1.5014166,3.371411,14.367961,-30.010042,38.838108,36.43647,8.981436,-10.895455,-9.58283
94,3.6108386516571045,-21.1174259185791,75.19525909423828,-2.260554922991169,13.78427343758978,-86.23449796193466,9.876665,2.3390045,14.497508,7.661315,-21.605392,-5.587505,-42.75065,-3.0535192,-10.208999,37.062893,-15.013073,2.3923342,-11.112912,4.0610247,10.61302,-4.6751685,26.937155,-38.566288,2.6152322,3.1020973,-1.47346,3.200344,15.153368,-30.450375,38.536774,35.41024,9.065383,-11.026868,-9.587786
95,3.553969144821167,-21.827844619750977,75.19627380371094,-2.3772742211710924,13.895053398512708,-85.93101407248638,10.349702,2.6658883,14.270372,7.6030197,-21.092299,-5.8357167,-42.57432,-2.7226384,-10.059754,35.062035,-14.536546,2.5961022,-11.386272,4.260494,10.612872,-4.5848846,27.161598,-38.60202,1.2130979,3.2911377,-1.4744539,3.0270927,15.934738,-30.869673,38.215942,34.386143,9.188454,-11.152922,-9.608472
96,3.498716354370117,-22.558799743652344,75.20025634765625,-2.4675042732413597,13.991807999604346,-85.62619185477506,10.839421,2.970765,14.019935,7.548703,-20.526094,-6.0877557,-42.348454,-2.456738,-9.935787,33.21292,-14.121143,2.7157924,-11.665734,4.427525,10.622491,-4.472162,27.395992,-38.64852,-0.115411796,3.449218,-1.4964132,2.8744466,16.673798,-31.262491,37.89843,33.397186,9.381031,-11.265822,-9.6444025
97,3.425133228302002,-23.300996780395508,75.20330810546875,-2.524205085297134,14.071541051992288,-85.31517694193408,11.346626,3.2474618,13.7393675,7.4988027,-19.909325,-6.352219,-42.063816,-2.2753205,-9.85887,31.490261,-13.816949,2.7177243,-11.961571,4.5536323,10.640722,-4.339698,27.641357,-38.70975,-1.3700255,3.5734699,-1.545577,2.752243,17.367512,-31.624943,37.599285,32.45581,9.667375,-11.359729,-9.702867
98,3.357583999633789,-24.051219940185547,75.20992279052734,-2.5535712961780783,14.135909023465743,-85.00041025498037,11.87346,3.50166,13.439261,7.451578,-19.23938,-6.6250687,-41.721466,-2.1545167,-9.817035,29.874693,-13.615753,2.619089,-12.267233,4.642763,10.66423,-4.1829658,27.898207,-38.780296,-2.5569327,3.6834269,-1.6232221,2.646911,18.029064,-31.954386,37.306847,31.551556,10.022555,-11.441037,-9.782334
99,3.283961057662964,-24.81645393371582,75.21037292480469,-2.574297211740847,14.19330668056275,-84.69734292164686,12.410305,3.7502117,13.134492,7.4122944,-18.515087,-6.89541,-41.361214,-2.0426073,-9.782967,28.465115,-13.421942,2.4962554,-12.56092,4.714673,10.6909485,-4.0003943,28.163654,-38.853264,-3.6657226,3.770877,-1.7137991,2.5457456,18.644703,-32.246845,37.005272,30.68205,10.402319,-11.520137,-9.868454
100,3.2178778648376465,-25.588539123535156,75.21068572998047,-2.6065485546114666,14.252881736806136,-84.42227628520094,12.946679,4.0121326,12.841194,7.386465,-17.735594,-7.151445,-41.022423,-1.8901916,-9.727906,27.35979,-13.138599,2.4218407,-12.819102,4.790759,10.7177,-3.7929115,28.432167,-38.923412,-4.6809874,3.82823,-1.8019507,2.4360528,19.201605,-32.497974,36.67687,29.847034,10.7604265,-11.607266,-9.947014
101,3.1370372772216797,-26.389118194580078,75.20658111572266,-2.6661680044377833,14.32830599254004,-84.18251290393678,13.464255,4.309778,12.56415,7.3752284,-16.894354,-7.3829007,-40.726208,-1.6963922,-9.682222,26.580555,-12.677538,2.3889143,-13.030765,4.888349,10.739501,-3.5673456,28.69882,-38.99052,-5.5930195,3.8623595,-1.8881654,2.3062623,19.702517,-32.702965,36.315945,29.045599,11.114647,-11.699778,-10.007263
102,3.0532522201538086,-27.17757797241211,75.21805572509766,-2.7462119207755604,14.413495263563899,-83.97159504776019,13.969646,4.636209,12.299027,7.377782,-15.994143,-7.5993953,-40.45374,-1.4775301,-9.651461,26.084316,-12.114802,2.3646169,-13.203876,4.9993033,10.756516,-3.3297184,28.960981,-39.062397,-6.400777,3.8751814,-1.9790916,2.1657028,20.142082,-32.860252,35.937454,28.291754,11.482839,-11.794502,-10.05894
103,2.968540668487549,-27.97713279724121,75.2228775024414,-2.8332474191080554,14.488409228137277,-83.78498732159929,14.316796,5.005298,12.032523,7.761532,-15.237386,-7.817687,-40.189156,-1.2141675,-9.567162,25.881874,-11.605022,2.3800902,-13.346397,5.108174,10.773049,-3.0754921,29.215763,-39.142284,-7.1040998,3.8524165,-2.0687783,2.0326765,20.517923,-32.96995,35.545197,27.586817,11.804122,-11.900015,-10.118215
104,2.8812344074249268,-28.79783821105957,75.21212005615234,-2.9134506681669965,14.532451456359645,-83.61682306195834,14.434875,5.4134216,11.752724,8.731004,-14.740678,-8.052463,-39.911682,-0.8874012,-9.360983,25.974926,-11.297979,2.4689238,-13.468133,5.199671,10.793683,-2.799018,29.460356,-39.232864,-7.703966,3.7802336,-2.1511483,1.9254582,20.833912,-33.03307,35.13947,26.928476,12.01485,-12.026114,-10.200964
105,2.7843737602233887,-29.626026153564453,75.18519592285156,-2.989491251756204,14.535985393592433,-83.45895391261915,14.5604515,5.8268433,11.465694,9.797437,-14.258566,-8.324097,-39.60533,-0.44370577,-8.935797,26.436504,-11.272789,2.7053192,-13.575594,5.2768,10.81827,-2.4982488,29.692484,-39.34942,-8.188745,3.6058943,-2.2307947,1.8651208,21.091106,-33.053684,34.728104,26.327177,12.1136875,-12.188825,-10.305652
106,2.7031357288360596,-30.456851959228516,75.14208984375,-3.071339972993006,14.511779588733763,-83.3127960147949,14.660572,6.2656713,11.168335,10.995703,-13.799202,-8.613249,-39.277702,0.09670509,-8.362874,27.230764,-11.433764,3.052297,-13.665543,5.352228,10.845223,-2.179712,29.910257,-39.487133,-8.557596,3.3536363,-2.3087363,1.8359678,21.293396,-33.032433,34.30625,25.774862,12.127362,-12.37823,-10.425908
107,2.6021652221679688,-31.29890251159668,75.07921600341797,-3.156406626325846,14.472994291255564,-83.18564514101706,14.670621,6.721145,10.870996,12.425665,-13.387391,-8.873329,-38.949024,0.6381888,-7.8268194,28.201103,-11.669636,3.3758886,-13.730107,5.423572,10.876506,-1.8533254,30.112011,-39.622902,-8.827454,3.1262848,-2.3734887,1.8013475,21.417723,-32.967297,33.868523,25.265303,12.053736,-12.563571,-10.571114
108,2.4980852603912354,-32.14909362792969,75.00652313232422,-3.2444528740384273,14.434543276288519,-83.08430575200467,14.528585,7.186239,10.583882,14.182075,-13.044282,-9.058668,-38.643074,1.0786319,-7.5093646,29.191196,-11.864768,3.537856,-13.762704,5.49143,10.913186,-1.5294454,30.296347,-39.73308,-9.015393,3.0255039,-2.4132855,1.7249353,21.433247,-32.85367,33.41503,24.798092,11.895221,-12.714313,-10.751051
109,2.3965840339660645,-33.0044059753418,74.92410278320312,-3.3366413694738637,14.40591777078895,-83.0050941774898,14.2551985,7.665879,10.272953,16.214931,-12.7843685,-9.1506605,-38.366722,1.3585202,-7.510991,30.165634,-11.891979,3.534597,-13.768861,5.5574775,10.944327,-1.2063546,30.462597,-39.81682,-9.127786,3.0983768,-2.4120874,1.5844433,21.338137,-32.686794,32.929443,24.381517,11.649981,-12.8073635,-10.935287
110,2.2776787281036377,-33.871273040771484,74.83519744873047,-3.433373850613174,14.377500639432181,-82.94349391870048,13.882178,8.167496,9.939692,18.476492,-12.579149,-9.167769,-38.106113,1.5347888,-7.7168617,31.201473,-11.84214,3.4226673,-13.750376,5.620826,10.971909,-0.8833572,30.610165,-39.888317,-9.15141,3.284166,-2.3806531,1.4034108,21.143513,-32.466427,32.416393,24.020329,11.317369,-12.864061,-11.1299715
111,2.1601152420043945,-34.75715637207031,74.73974609375,-3.5319314579110905,14.335583381641577,-82.90620542219165,13.396328,8.683079,9.652473,21.002676,-12.367499,-9.117177,-37.854065,1.6784213,-7.982136,32.30908,-11.925453,3.1541615,-13.695705,5.6775823,11.016715,-0.57023865,30.737957,-39.943516,-9.075897,3.522747,-2.347885,1.2136154,20.840282,-32.195103,31.90821,23.706867,10.899598,-12.919252,-11.400489
112,2.061938762664795,-35.62501525878906,74.6360092163086,-3.6286973179205146,14.266097532203553,-82.90067638790858,12.781666,9.209292,9.478679,23.844658,-12.094672,-8.999986,-37.604935,1.8666154,-8.160973,33.499317,-12.351418,2.6877072,-13.5929985,5.7229104,11.100698,-0.27495548,30.845106,-39.976883,-8.892573,3.7544277,-2.3420563,1.0466624,20.398668,-31.87828,31.44848,23.447355,10.411913,-13.007354,-11.812611
113,1.9628266096115112,-36.50118637084961,74.51759338378906,-3.710982376667214,14.159045730629463,-82.92891563226135,12.044193,9.755387,9.458092,27.073204,-11.814227,-8.771181,-37.38475,2.1132753,-8.2013645,34.849766,-13.262189,1.9050474,-13.43956,5.742685,11.2327385,0.012520276,30.931986,-39.98317,-8.620292,3.973216,-2.3775265,0.9036678,19.83909,-31.513897,31.02381,23.237368,9.835009,-13.155148,-12.422477
114,1.8656234741210938,-37.381221771240234,74.39176177978516,-3.7767819821366677,14.020155757805036,-82.98906746201186,11.203028,10.3359,9.541227,30.639431,-11.53768,-8.413859,-37.18272,2.3871927,-8.168499,36.324467,-14.513614,0.8677748,-13.238058,5.7342978,11.402147,0.2915499,30.999245,-39.967957,-8.255908,4.2078958,-2.4369729,0.77020806,19.161018,-31.102211,30.618382,23.080496,9.171452,-13.332329,-13.184657
115,1.762870192527771,-38.24684524536133,74.26493835449219,-3.8424152975981443,13.860292081013498,-83.08396802138836,10.248562,10.955988,9.662443,34.446205,-11.153651,-7.970892,-36.94134,2.6997786,-8.096009,37.76619,-15.886538,-0.19294557,-12.992127,5.715448,11.600791,0.547508,31.045591,-39.933125,-7.7635007,4.451527,-2.5006902,0.6542131,18.342794,-30.652573,30.258673,22.960218,8.44846,-13.489917,-14.011463
116,1.6490134000778198,-39.1257209777832,74.12699890136719,-3.927403609983076,13.69183725605142,-83.21734373335201,9.165682,11.612902,9.761223,38.401825,-10.550977,-7.493653,-36.605614,3.053706,-8.027704,39.02291,-17.16797,-1.0465676,-12.708616,5.7074995,11.819265,0.7684475,31.068571,-39.874893,-7.106461,4.6970725,-2.5489879,0.5625983,17.372133,-30.181683,29.96803,22.849953,7.6905894,-13.580997,-14.813921
117,1.5561940670013428,-39.99993896484375,73.98469543457031,-4.039905357874864,13.508045866452182,-83.3903002684494,7.914076,12.367052,9.901072,42.640713,-9.581124,-6.91418,-36.151875,3.4479916,-7.988174,40.06831,-18.341942,-1.6282525,-12.396343,5.720809,12.06602,0.9576843,31.064566,-39.784904,-6.272431,4.9202046,-2.6036365,0.48403412,16.245281,-29.696602,29.742857,22.743654,6.884624,-13.572102,-15.599088
118,1.4680674076080322,-40.865360260009766,73.83484649658203,-4.172692343302174,13.306138988613371,-83.60350770849622,6.5127263,13.2311945,10.090284,47.17671,-8.356723,-6.1914372,-35.612396,3.8799045,-7.9505515,40.982323,-19.512259,-2.0620396,-12.049965,5.7492623,12.343386,1.1230125,31.032143,-39.66318,-5.2823043,5.1333003,-2.6660726,0.4187851,14.98213,-29.1996,29.564968,22.638813,6.027449,-13.492286,-16.401657
119,1.3761742115020752,-41.734405517578125,73.68457794189453,-4.32081655309435,13.104702268186244,-83.86042575193264,5.028311,14.092152,10.191014,51.74397,-7.1489835,-5.461987,-35.024483,4.3407755,-7.8877273,41.78786,-20.655043,-2.4004908,-11.658083,5.7921824,12.6325,1.2629821,30.973059,-39.515686,-4.1555095,5.3836503,-2.6865516,0.39086375,13.5956,-28.701853,29.446678,22.514353,5.1726503,-13.392233,-17.173008
120,1.2888906002044678,-42.6006965637207,73.53573608398438,-4.474133448340551,12.923226214182503,-84.16323023342484,3.515837,14.78652,10.063717,56.090363,-6.22684,-4.918732,-34.42982,4.820268,-7.7717175,42.51198,-21.746693,-2.6962056,-11.212585,5.8444257,12.913976,1.3798133,30.891191,-39.34426,-2.9158728,5.718612,-2.6153133,0.42403197,12.088401,-28.221203,29.408188,22.353365,4.378496,-13.325137,-17.8666
121,1.222577691078186,-43.444454193115234,73.38905334472656,-4.639777832566783,12.761328380355835,-84.52083258490751,1.9781175,15.244254,9.692681,60.256268,-5.54819,-4.740013,-33.836945,5.3353834,-7.6009946,43.16032,-22.787325,-2.9476836,-10.713935,5.9148946,13.200446,1.4697218,30.781683,-39.124493,-1.5172615,6.1878905,-2.4773088,0.5190236,10.442585,-27.766176,29.450882,22.147127,3.6812413,-13.33664,-18.472494
122,1.1586809158325195,-44.29745864868164,73.2454605102539,-4.813794081671621,12.61121414702274,-84.92886688354909,0.38037848,15.503333,9.154023,64.37256,-5.0164576,-4.8391433,-33.230484,5.8789773,-7.3877125,43.72929,-23.79072,-3.1316125,-10.171666,6.0019526,13.494712,1.5394359,30.642502,-38.85576,0.029957145,6.7539062,-2.2856207,0.6628274,8.671782,-27.336967,29.565695,21.888433,3.0457697,-13.390463,-19.015581
123,1.1177268028259277,-45.12698745727539,73.0973892211914,-4.966149124935773,12.482357753050309,-85.3684763184151,-1.2845314,15.518914,8.453132,68.324684,-4.808237,-5.056094,-32.61721,6.4030843,-7.1250086,44.229897,-24.751644,-3.2683513,-9.593971,6.0798817,13.762605,1.6114485,30.488583,-38.57386,1.611522,7.3309917,-1.9726578,0.8588621,6.8193836,-26.93969,29.764784,21.565138,2.429198,-13.417436,-19.499994
124,1.0724257230758667,-45.95870590209961,72.95806121826172,-5.067538288350818,12.384781673566591,-85.82042396970036,-3.0201526,15.244913,7.6024747,71.97968,-5.092083,-5.2314715,-32.006016,6.860983,-6.8089437,44.675568,-25.666464,-3.379074,-8.99118,6.121454,13.972654,1.7168247,30.347229,-38.31109,3.0998917,7.8294506,-1.4712166,1.111953,4.9306602,-26.584377,30.064466,21.160124,1.7887322,-13.3474045,-19.926798
125,1.030273675918579,-46.79924392700195,72.82917022705078,-5.109058589514198,12.331569445590944,-86.28290451211333,-4.8599677,14.509268,6.488134,75.33382,-6.104033,-5.3487144,-31.430681,7.2405634,-6.445199,45.107548,-26.546947,-3.4683685,-8.361638,6.1139235,14.126863,1.8641382,30.23063,-38.03596,4.520201,8.206728,-0.68252796,1.4065696,2.968915,-26.280003,30.516521,20.665798,1.0740817,-13.132865,-20.345695
126,1.012955665588379,-47.63914108276367,72.72228240966797,-5.107168929118942,12.313980570243631,-86.76482499755478,-6.775089,13.336794,5.192488,78.45897,-7.6919503,-5.520938,-30.876696,7.5681815,-6.0399323,45.508274,-27.392115,-3.5273967,-7.710513,6.0710177,14.244741,2.0594099,30.143208,-37.729553,5.8912964,8.509122,0.3305956,1.7448074,0.9342766,-26.023397,31.110298,20.071983,0.32656324,-12.820149,-20.734743
127,1.004285216331482,-48.48305130004883,72.63726806640625,-5.071172157434759,12.309302419193417,-87.26293714427874,-8.6875305,12.013807,3.9973574,81.3176,-9.429023,-5.761377,-30.28018,7.8574038,-5.5908036,45.801666,-28.178293,-3.5588937,-7.0511117,6.004766,14.322766,2.3273456,30.10963,-37.45123,7.072166,8.777247,1.3930233,2.162645,-1.1052878,-25.806854,31.776194,19.390137,-0.34695473,-12.482522,-20.987406
128,1.01212477684021,-49.30883026123047,72.56538391113281,-5.01029530191815,12.296823325729504,-87.77351470007065,-10.539163,10.859395,3.1449018,83.85521,-10.881289,-6.074927,-29.579334,8.118812,-5.093237,45.913094,-28.88244,-3.565947,-6.391684,5.926567,14.357683,2.697925,30.168951,-37.26424,7.906762,9.04904,2.3312945,2.699068,-3.0716453,-25.6209,32.435863,18.625246,-0.84885675,-12.19749,-20.99925
129,1.0177973508834839,-50.15196228027344,72.5274887084961,-4.918396933709674,12.270689215894095,-88.30975429931918,-12.342017,9.937051,2.6699247,86.07209,-11.879847,-6.5506105,-28.77801,8.348148,-4.532861,45.86109,-29.52104,-3.5409772,-5.723353,5.8283167,14.355261,3.2001336,30.35993,-37.198395,8.308169,9.367937,3.1889431,3.4715793,-4.9791965,-25.46317,33.09018,17.77092,-1.166527,-11.981961,-20.679573
130,1.0216846466064453,-51.012874603271484,72.52594757080078,-4.794073605843734,12.243706698042049,-88.86744236371747,-14.131841,9.120831,2.4314575,87.98285,-12.664394,-7.138971,-27.898907,8.540216,-3.9188576,45.670868,-30.100754,-3.4904237,-5.046318,5.701262,14.323315,3.8410492,30.69827,-37.206646,8.321694,9.686397,4.032762,4.426224,-6.8639007,-25.332476,33.78546,16.828415,-1.3478875,-11.800685,-20.10551
131,1.0232621431350708,-51.87810516357422,72.56118774414062,-4.655904963266636,12.223192831762901,-89.42187932895223,-15.907326,8.458505,2.3779638,89.5612,-13.410884,-7.6396112,-26.922142,8.704418,-3.2786684,45.28952,-30.581427,-3.4379516,-4.3798714,5.556884,14.25865,4.619668,31.182991,-37.23412,7.993201,9.917098,4.7213387,5.34531,-8.667269,-25.222382,34.50289,15.809115,-1.403071,-11.650695,-19.427694
132,1.0168511867523193,-52.7635383605957,72.63776397705078,-4.523146987576556,12.215817111774578,-89.94867449489143,-17.664787,7.992313,2.4557674,90.77602,-14.290465,-7.8540154,-25.827812,8.848246,-2.6375587,44.66363,-30.922157,-3.4046814,-3.736643,5.4077616,14.156215,5.521056,31.801445,-37.234646,7.3862095,9.984414,5.1091094,6.0132847,-10.3417635,-25.126371,35.213516,14.734696,-1.3363622,-11.528633,-18.796238
133,1.0173420906066895,-53.67289352416992,72.7542495727539,-4.412546805852938,12.22544552633504,-90.4522744805824,-19.426113,7.762105,2.6526048,91.62272,-15.379273,-7.7187996,-24.608454,8.981803,-1.9938203,43.76859,-31.139254,-3.3945343,-3.1171787,5.2766013,14.001851,6.562974,32.554543,-37.212025,6.4533076,9.804539,5.0740867,6.389558,-11.889797,-25.044624,35.92106,13.586762,-1.1081005,-11.44489,-18.227196
134,1.0221977233886719,-54.59001159667969,72.90422821044922,-4.310646504437095,12.247541671280846,-90.94298616101315,-21.186733,7.7370057,2.9762821,92.10929,-16.567049,-7.3464212,-23.276922,9.091783,-1.3325078,42.639874,-31.245573,-3.3982825,-2.5171556,5.1490984,13.805227,7.754683,33.445107,-37.174202,5.1774693,9.449519,4.7189083,6.578761,-13.338984,-24.97796,36.638306,12.364942,-0.72781056,-11.393681,-17.650244
135,1.0235648155212402,-55.550926208496094,73.09651947021484,-4.1901883676103475,12.275585787236567,-91.4047594117439,-22.898754,7.8439536,3.406701,92.22015,-17.746988,-6.807382,-21.842207,9.148464,-0.6585459,41.311626,-31.19923,-3.4123385,-1.9373775,4.981798,13.592852,9.057184,34.450928,-37.087578,3.6864595,9.080052,4.2357483,6.5862446,-14.665566,-24.92055,37.33454,11.111486,-0.2855919,-11.348845,-17.085575
136,1.0082566738128662,-56.52018356323242,73.3232421875,-4.024631395501296,12.303724759312715,-91.82132416980927,-24.511517,8.010411,3.9313474,91.94062,-18.816431,-6.1721787,-20.315653,9.123175,0.019794516,39.819798,-30.956081,-3.4299283,-1.3752428,4.734357,13.386772,10.413611,35.532013,-36.928024,2.1347713,8.858775,3.8167202,6.424463,-15.853613,-24.86364,37.976463,9.884539,0.12990573,-11.287116,-16.554024
137,0.9999244213104248,-57.52058029174805,73.59806823730469,-3.807849389806178,12.330583114256426,-92.18808935412919,-26.018005,8.287534,4.6063213,91.25151,-19.821207,-5.3664975,-18.656939,9.009671,0.71431905,38.08259,-30.514296,-3.4578269,-0.82320136,4.3973794,13.172861,11.799322,36.6609,-36.694347,0.5730731,8.838124,3.4783342,6.016217,-16.92447,-24.807487,38.575115,8.708275,0.5541201,-11.20788,-16.057362
138,0.9935645461082458,-58.53567123413086,73.90609741210938,-3.5517905130623935,12.359624218219583,-92.51353932729673,-27.425472,8.66822,5.4286165,90.159355,-20.807547,-4.4043074,-16.882326,8.814328,1.4207866,36.120533,-29.89975,-3.4894018,-0.28274414,3.9946988,12.940204,13.229916,37.825592,-36.40228,-1.0413339,8.935058,3.1283526,5.383947,-17.885187,-24.754265,39.137264,7.566042,1.0115483,-11.1226,-15.586415
139,0.9756697416305542,-59.57711410522461,74.25663757324219,-3.2587286661993047,12.392495382586224,-92.80059715320054,-28.710764,9.004983,6.303545,88.68976,-21.662388,-3.4770973,-15.083499,8.534057,2.103424,34.113262,-29.108635,-3.496798,0.23736368,3.5366378,12.710169,14.670818,39.00486,-36.071087,-2.6583672,9.094965,2.794036,4.695337,-18.696672,-24.698318,39.621754,6.458692,1.3897128,-11.024477,-15.143932
140,0.9626717567443848,-60.635154724121094,74.6334457397461,-2.9333900933846255,12.430561577592643,-93.05221639514947,-29.858969,9.167987,7.132651,86.86764,-22.26105,-2.7619684,-13.349847,8.172724,2.7267427,32.237434,-28.136387,-3.4546127,0.73272306,3.0371869,12.499936,16.097214,40.16954,-35.72288,-4.229871,9.280279,2.503909,4.1186604,-19.318277,-24.629694,39.9856,5.3954196,1.5745811,-10.909761,-14.731638
141,0.954407274723053,-61.70411682128906,75.03639221191406,-2.563094678269419,12.477858683527577,-93.26301589467775,-30.874239,9.154646,7.929781,84.66571,-22.554739,-2.2785583,-11.651456,7.717756,3.298762,30.43308,-26.946293,-3.3387728,1.2092297,2.4877183,12.297751,17.494791,41.297726,-35.38435,-5.721647,9.59542,2.2924342,3.665869,-19.725098,-24.535673,40.18234,4.4089923,1.4652276,-10.780054,-14.338672
142,0.9494067430496216,-62.789642333984375,75.4527359008789,-2.153303807714972,12.532195229076207,-93.43249358260752,-31.754385,9.025013,8.743476,82.07338,-22.612638,-1.9397249,-9.965946,7.1803126,3.8265457,28.648787,-25.557121,-3.166206,1.6659545,1.8948083,12.092697,18.743763,42.383236,-35.095387,-7.0473595,9.969611,2.1327145,3.260733,-19.957905,-24.413713,40.25213,3.5143921,1.1420453,-10.64094,-13.965971
143,0.9488458633422852,-63.87200927734375,75.8811264038086,-1.7388274249343179,12.584544028506532,-93.57144709104232,-32.486816,8.764097,9.513293,79.14259,-22.479668,-1.7469485,-8.387932,6.6084304,4.277997,27.072437,-24.045341,-2.979254,2.1064217,1.296317,11.89634,20.042152,43.40527,-34.773495,-8.355599,10.329078,1.9667959,2.9392889,-20.052574,-24.275095,40.263897,2.6817753,0.7638792,-10.492837,-13.632092
144,0.9557400941848755,-64.9520263671875,76.30620574951172,-1.354048211858643,12.625583319191517,-93.69074723929494,-33.063484,8.364359,10.1691065,75.92271,-22.19792,-1.6936824,-7.0035286,6.049447,4.623176,25.886614,-22.483896,-2.8199468,2.5068736,0.7335802,11.729557,21.204004,44.3537,-34.453194,-9.520609,10.370026,1.7367398,2.7320983,-20.065557,-24.136457,40.315826,1.8788769,0.49325666,-10.333055,-13.361267
145,0.9823225736618042,-66.06436157226562,76.7394027709961,-0.9810443221749694,12.653528630488067,-93.77975023366771,-33.49368,7.772725,10.650743,72.37044,-21.719097,-1.7653402,-5.8323507,5.481728,4.8283734,25.158323,-20.855919,-2.7063391,2.8733828,0.19671933,11.597161,22.37033,45.20763,-34.108025,-10.632395,10.122185,1.4148058,2.687982,-19.96632,-24.01182,40.401054,1.0935407,0.34468827,-10.14621,-13.208254
146,1.0221948623657227,-67.1820068359375,77.16694641113281,-0.6102617170769318,12.671016839809266,-93.83720243421719,-33.771713,7.02663,10.991906,68.46538,-21.037294,-1.949653,-4.809733,4.897869,4.9219627,24.763187,-19.125507,-2.608404,3.2065442,-0.32149738,11.490582,23.472803,45.95965,-33.771923,-11.636936,9.6682625,1.0355675,2.7709725,-19.738543,-23.90517,40.48826,0.3317756,0.24438493,-9.936127,-13.146896
147,1.0581107139587402,-68.29618072509766,77.58283233642578,-0.2872567716457546,12.67542590247995,-93.88889119062411,-33.873955,6.2582126,11.260311,64.29163,-20.259855,-2.2390087,-3.9048812,4.366224,4.971223,24.615843,-17.339357,-2.496764,3.519083,-0.7816469,11.39677,24.51969,46.606064,-33.424614,-12.558859,9.087164,0.6392338,2.8933775,-19.420462,-23.822866,40.58927,-0.42020974,0.22022487,-9.727707,-13.07518
148,1.1021347045898438,-69.41881561279297,77.97891235351562,-0.06069153112125838,12.665204389674365,-93.9613281981174,-33.78218,5.5970416,11.526477,59.92865,-19.489603,-2.6306734,-3.0807073,3.9555101,5.044801,24.608795,-15.532561,-2.3441756,3.8190408,-1.1433909,11.303981,25.536705,47.14662,-33.0304,-13.436632,8.458332,0.26707807,2.9673915,-19.049242,-23.770687,40.720413,-1.1814365,0.29704434,-9.546274,-12.8919735
149,1.149556279182434,-70.55785369873047,78.35559844970703,0.05005301317994161,12.65059904275886,-94.06571624612917,-33.470005,5.050775,11.777278,55.234486,-18.69912,-3.2037868,-2.3413527,3.6892343,5.1730294,24.695845,-13.624091,-2.1373963,4.112514,-1.3908877,11.2076435,26.526564,47.57813,-32.584583,-14.27699,7.7407494,-0.076918386,2.9937968,-18.63281,-23.754675,40.89492,-1.9677765,0.55440646,-9.388595,-12.574348
150,1.199249267578125,-71.70902252197266,78.70367431640625,0.07266305819007106,12.626918995055608,-94.19035938656276,-32.93698,4.577303,11.973611,50.178524,-17.835535,-3.91473,-1.6807212,3.534086,5.3249245,24.899536,-11.603017,-1.8803036,4.395026,-1.5460753,11.116601,27.470812,47.898552,-32.11099,-15.060516,6.9131565,-0.41261968,3.0085092,-18.150042,-23.777443,41.10267,-2.774166,0.9549457,-9.2418,-12.176306
151,1.2573519945144653,-72.87814331054688,79.01889038085938,0.02333141808508537,12.57071097674458,-94.32820913523375,-32.22019,4.216675,12.162171,45.022903,-16.959974,-4.5917573,-1.0583626,3.4768455,5.476901,25.228708,-9.616773,-1.5846665,4.6586633,-1.6224897,11.038473,28.371605,48.113846,-31.611835,-15.795208,6.0831,-0.73252225,2.9789717,-17.60506,-23.837597,41.32776,-3.5795014,1.3532976,-9.117633,-11.711565
152,1.314520239830017,-74.05302429199219,79.2960205078125,-0.07897541522271825,12.459403510744393,-94.47056169523773,-31.368202,3.9885473,12.4040165,40.043312,-16.136927,-5.0831614,-0.44361323,3.4983306,5.6023755,25.70641,-7.818424,-1.2772458,4.891133,-1.6363536,10.982114,29.216358,48.237778,-31.087631,-16.481735,5.341646,-1.0283196,2.8733075,-17.003952,-23.929182,41.556335,-4.3629436,1.6041471,-9.030692,-11.192809
153,1.3607558012008667,-75.2306137084961,79.52916717529297,-0.26048324253800426,12.281764400840984,-94.62745481663913,-30.353209,3.91951,12.746752,35.163574,-15.35734,-5.374972,0.18251678,3.6125517,5.6997643,26.326712,-6.245492,-0.99788374,5.100172,-1.5666432,10.949872,30.041021,48.279133,-30.51316,-17.149158,4.7069244,-1.28754,2.667426,-16.344143,-24.049055,41.792458,-5.1338725,1.6418121,-8.989529,-10.585944
154,1.40782630443573,-76.40824127197266,79.71452331542969,-0.5324760612629593,12.047415888675536,-94.80388684880046,-29.15783,3.9819796,13.163211,30.260868,-14.578968,-5.559796,0.80164355,3.8286927,5.7844563,27.079803,-4.811307,-0.74140227,5.2920694,-1.4038457,10.940353,30.848577,48.241547,-29.89007,-17.802984,4.126336,-1.5159771,2.385136,-15.626815,-24.196037,42.041794,-5.897225,1.5526491,-8.987716,-9.895203
155,1.45499849319458,-77.58280944824219,79.84835052490234,-0.8504765403917587,11.768186497944379,-94.9808180605658,-27.874634,4.1031966,13.607385,25.592817,-13.838448,-5.657827,1.3739132,4.112751,5.8519316,28.009935,-3.495876,-0.4766115,5.452699,-1.1856538,10.952842,31.599178,48.132236,-29.254652,-18.422533,3.5985217,-1.732526,2.068491,-14.868631,-24.366278,42.29072,-6.617194,1.4216578,-9.018547,-9.189264
156,1.4946538209915161,-78.75287628173828,79.9325942993164,-1.1620537483541982,11.460646673536266,-95.1355083745529,-26.615755,4.20974,14.026758,21.454704,-13.189349,-5.684735,1.8498408,4.424005,5.8948693,29.174963,-2.287904,-0.16923746,5.5637007,-0.95747954,10.984211,32.21805,47.96271,-28.65659,-18.96178,3.104718,-1.9567838,1.7596254,-14.085192,-24.553253,42.524815,-7.2574506,1.3322356,-9.07311,-8.537409
157,1.5317718982696533,-79.92306518554688,79.97522735595703,-1.4472342900464699,11.137957374045897,-95.2509358542613,-25.440144,4.3157344,14.522631,17.981895,-12.718122,-5.533003,2.1826484,4.731747,5.883067,30.657467,-1.2491907,0.12876526,5.619055,-0.74201745,11.026838,32.72868,47.73693,-28.08113,-19.441666,2.6552155,-2.1962652,1.4536558,-13.273098,-24.75146,42.732555,-7.8131957,1.2714845,-9.171315,-7.93444
158,1.5739340782165527,-81.0807113647461,79.97380065917969,-1.719739910570363,10.798568541225972,-95.33205351292223,-24.315863,4.419912,15.088961,15.037504,-12.39876,-5.2437763,2.377339,5.025565,5.820797,32.45405,-0.38932768,0.39773014,5.6178074,-0.5284785,11.07745,33.138866,47.45824,-27.516819,-19.865076,2.242679,-2.4394934,1.1345329,-12.430426,-24.956997,42.925293,-8.295848,1.2062527,-9.311002,-7.351327
159,1.6224026679992676,-82.22502899169922,79.93170928955078,-1.9653591662635654,10.44192632032059,-95.38365754705544,-23.24819,4.4457626,15.498535,12.5778885,-12.134491,-5.0317883,2.454649,5.293926,5.749982,34.50082,0.3816241,0.7356188,5.5550575,-0.32736215,11.132618,33.423935,47.135517,-27.001892,-20.208168,1.8677127,-2.6799767,0.8303703,-11.567952,-25.16666,43.111187,-8.69136,1.1887426,-9.448414,-6.819854
160,1.66745126247406,-83.36677551269531,79.83870697021484,-2.177081600031597,10.064777576071739,-95.41368340874631,-22.216599,4.340398,15.517511,10.519954,-11.803395,-5.095287,2.4491842,5.5500717,5.7153425,36.71333,1.1608657,1.2578628,5.433175,-0.14151539,11.190658,33.555313,46.78078,-26.580309,-20.44849,1.5306144,-2.909367,0.5710282,-10.692547,-25.37837,43.293133,-8.988365,1.2713455,-9.538863,-6.3715887
161,1.7169013023376465,-84.49504089355469,79.68704223632812,-2.390261322498308,9.657038656239957,-95.4248362191305,-21.186317,4.106624,14.939271,8.789852,-11.411331,-5.6509953,2.389251,5.839501,5.6592917,39.07313,2.075048,2.099416,5.253523,0.06465244,11.248587,33.549744,46.403297,-26.246965,-20.603704,1.2173983,-3.134054,0.35408723,-9.786586,-25.59153,43.468765,-9.195025,1.4858664,-9.558953,-6.0131836
162,1.7751083374023438,-85.62602233886719,79.4798355102539,-2.580428729632175,9.231736841012605,-95.40343222481442,-20.235384,3.788129,13.923954,7.575565,-11.087541,-6.519959,2.2289417,6.1321874,5.5768948,41.66157,3.0176427,3.1736155,5.0100374,0.26157263,11.303628,33.421402,46.006886,-25.979767,-20.684998,0.93231267,-3.356185,0.16921274,-8.849023,-25.804659,43.63183,-9.315271,1.7971685,-9.535748,-5.728907
163,1.8193563222885132,-86.75984954833984,79.2292251586914,-2.6502512457699976,8.817606381404774,-95.33687148394719,-19.675182,3.4187238,12.777361,7.543888,-11.07514,-7.311922,1.9130743,6.3563156,5.5903854,44.511967,3.7453175,4.2965164,4.6974626,0.34887326,11.354508,33.131336,45.594402,-25.798956,-20.658539,0.69968194,-3.5616057,0.035102397,-7.9109926,-26.014723,43.779633,-9.330012,2.1542995,-9.500268,-5.515906
164,1.868291974067688,-87.90602111816406,78.9407730102539,-2.5030468010968603,8.438980488171847,-95.21827752623118,-18.981976,2.8242648,11.860479,7.537991,-10.63268,-7.6412215,1.4125601,6.4545765,5.822063,47.619827,4.0265226,5.3049355,4.31543,0.2271565,11.401198,32.612442,45.167877,-25.73537,-20.464758,0.5314664,-3.7365286,-0.028943745,-7.0052404,-26.216915,43.910343,-9.217788,2.5077643,-9.483891,-5.3704815
165,1.9364051818847656,-89.00491333007812,78.64982604980469,-2.094915387967442,8.087788838533916,-95.03752036878478,-18.648087,2.0812247,11.190341,8.756381,-10.050652,-7.44556,0.7668317,6.499157,6.388018,50.997787,3.8117101,6.253565,3.8584957,-0.14823645,11.443897,31.85669,44.725845,-25.79681,-20.085674,0.42223024,-3.8999271,-0.009477343,-6.12306,-26.405563,44.028095,-8.976761,2.875417,-9.473216,-5.3055053
166,2.009829044342041,-90.09248352050781,78.32686614990234,-1.4960880040187814,7.73889843540624,-94.81604864226162,-18.50305,1.1899016,10.643783,10.815451,-9.28697,-6.9363737,0.043466154,6.5686946,7.1921844,54.586742,3.2219627,7.254125,3.3460598,-0.7073911,11.487063,30.929953,44.26514,-25.955898,-19.574402,0.38241938,-4.0521255,0.082902364,-5.251564,-26.577219,44.131474,-8.611719,3.2731545,-9.459633,-5.3171206
167,2.0642306804656982,-91.17710876464844,77.9327621459961,-0.7920705474241585,7.389339820469402,-94.59693168570705,-18.470055,0.22466977,10.266938,13.313322,-8.743083,-6.13316,-0.74635863,6.6030617,8.039928,58.269897,2.2984908,8.206185,2.810267,-1.3686814,11.53906,29.810604,43.78886,-26.201054,-18.934158,0.4101145,-4.150313,0.23052347,-4.427544,-26.732775,44.217266,-8.106577,3.649451,-9.481263,-5.3755646
168,2.119905710220337,-92.26435852050781,77.50082397460938,-0.06572860469595448,7.046462706812299,-94.41676647687842,-18.633467,-0.7100155,10.072382,16.185223,-9.002438,-5.040498,-1.6266928,6.493129,8.7443495,61.946457,1.0961677,8.972128,2.2897406,-2.0514119,11.600739,28.557999,43.298225,-26.509367,-18.23341,0.5505227,-4.15104,0.41852728,-3.6676548,-26.87629,44.267193,-7.456902,3.9487064,-9.575952,-5.450872
169,2.190218448638916,-93.30647277832031,77.03878021240234,0.7106654721884393,6.677874757582332,-94.29188837455133,-19.178246,-1.5987239,10.078145,19.880371,-10.496583,-3.3867013,-2.585635,6.1561694,9.330728,65.68977,-0.5107854,9.518968,1.7913169,-2.780696,11.703071,27.164064,42.787773,-26.865618,-17.463411,0.7723152,-4.056522,0.65158707,-3.0003762,-27.014626,44.281242,-6.66295,4.258598,-9.765907,-5.468066
170,2.263824701309204,-94.33573150634766,76.53678894042969,1.5129749287624672,6.283862712257685,-94.21272720067792,-19.983952,-2.4210432,10.209066,24.264803,-12.836735,-1.247244,-3.605271,5.7021422,9.867965,69.50353,-2.4793544,9.883252,1.3084309,-3.531602,11.840108,25.628223,42.25424,-27.272112,-16.616985,1.071677,-3.8824425,0.9342438,-2.4032114,-27.153147,44.26422,-5.735258,4.5751834,-10.025972,-5.4637713
171,2.352226972579956,-95.33999633789062,76.00859832763672,2.25159139997316,5.94362340176268,-94.15336767663543,-20.757683,-3.1540923,10.3500595,28.520718,-15.42389,0.8574854,-4.7628493,5.196913,10.267597,73.23171,-4.5056787,10.024327,0.8348704,-4.2185874,11.945575,23.951283,41.708233,-27.747286,-15.70814,1.4994522,-3.6101556,1.250048,-1.8138354,-27.28967,44.205547,-4.693676,4.706159,-10.325032,-5.57962
172,2.442453622817993,-96.34199523925781,75.47701263427734,2.882557576418027,5.745502507132204,-94.07534625513556,-21.25962,-3.8224154,10.454563,31.91213,-17.68457,2.400277,-6.1568303,4.6597347,10.471776,76.738655,-6.3039703,9.922692,0.35552126,-4.802829,11.945059,22.140846,41.16985,-28.30928,-14.760324,2.1056075,-3.2199774,1.5839753,-1.1724991,-27.416824,44.091133,-3.5488,4.4566646,-10.631743,-5.959897
173,2.5004422664642334,-97.37264251708984,74.98064422607422,3.456002773095614,5.79638442868003,-93.94967966687908,-21.553602,-4.4856963,10.603873,34.313625,-19.55546,3.178674,-7.959044,3.9956164,10.49002,80.10491,-7.800004,9.490788,-0.15072426,-5.338733,11.750107,20.119656,40.663273,-29.014236,-13.712653,2.879001,-2.635798,1.9864814,-0.4585318,-27.522097,43.9072,-2.2771492,3.6659052,-10.953733,-6.6874804
174,2.534604787826538,-98.4030990600586,74.52119445800781,4.015874153818539,6.032066424283038,-93.78799921588472,-21.777836,-5.150908,10.826806,36.176147,-21.347044,3.4933083,-10.097539,3.168571,10.397761,83.38647,-9.155092,8.762672,-0.6751671,-5.8669558,11.414029,17.921692,40.189262,-29.83168,-12.599801,3.7849116,-1.8869884,2.449121,0.30236736,-27.601557,43.6484,-0.8783904,2.4669392,-11.287094,-7.676809
175,2.559818983078003,-99.45105743408203,74.10477447509766,4.507588071189577,6.282989043655126,-93.61359670430429,-21.819908,-5.758937,11.035962,37.661804,-23.051567,3.5698903,-12.310195,2.270997,10.212153,86.407036,-10.419274,7.8787656,-1.1962273,-6.3278036,11.0782585,15.7232685,39.72722,-30.643581,-11.583685,4.844502,-1.1134968,2.862461,1.0998563,-27.663391,43.326244,0.5965463,1.1046423,-11.584349,-8.820013
176,2.5966482162475586,-100.51170349121094,73.74234008789062,4.868775915027268,6.377914660529104,-93.45510641582852,-21.551094,-6.253261,11.13013,38.903275,-24.64823,3.6351717,-14.332522,1.4037358,9.929153,88.9931,-11.640516,6.9861817,-1.6994292,-6.6565824,10.890642,13.61698,39.251904,-31.350096,-10.74854,6.0511436,-0.46010745,3.1120303,1.90466,-27.724691,42.9733,2.0980508,-0.16613407,-11.810666,-10.006492
177,2.6358842849731445,-101.5731430053711,73.43389892578125,5.068848024750143,6.259405660569077,-93.32227672248179,-20.89936,-6.6148233,11.083859,39.908104,-26.154097,3.7066329,-16.103786,0.546932,9.497349,91.11984,-12.840332,6.0951734,-2.153625,-6.816847,10.904144,11.82568,38.736126,-31.908781,-10.261801,7.8019786,0.064077064,3.126714,2.741342,-27.796593,42.572113,3.6795468,-1.522667,-11.937717,-11.336366
178,2.676427125930786,-102.63031768798828,73.17312622070312,5.144691066742684,6.022255307833119,-93.19996637387288,-19.940796,-6.881315,10.957159,40.607906,-27.56988,3.6809692,-17.759672,-0.34505698,8.930148,92.87994,-13.99797,5.1374717,-2.6238458,-6.852177,11.053649,9.737078,38.18763,-32.481335,-9.627135,9.715641,0.5139804,2.966167,3.5693417,-27.88619,42.16421,5.3433304,-3.0098963,-11.975129,-12.8274145
179,2.705439329147339,-103.69578552246094,72.97169494628906,5.131465509182661,5.721620489554939,-93.08118092685535,-18.758934,-7.079475,10.764993,41.010193,-28.84489,3.6035218,-19.327072,-1.1999686,8.301607,94.26647,-15.088915,4.1529746,-3.0783024,-6.7989464,11.258986,7.9968824,37.597878,-32.93271,-9.342751,11.621167,0.8495698,2.735806,4.4361253,-28.000505,41.720234,6.928042,-4.1851087,-11.982659,-14.232247
180,2.7296056747436523,-104.77053833007812,72.82403564453125,5.064099224532482,5.413807441768788,-92.95932764304877,-17.441935,-7.2304573,10.518378,41.12952,-29.930325,3.5172632,-20.837036,-1.9403532,7.679698,95.2688,-16.081656,3.183182,-3.5783913,-6.700822,11.467234,6.3438916,36.990887,-33.27893,-9.202629,12.8320875,1.035412,2.5389943,5.2966466,-28.15127,41.300426,8.285341,-4.607011,-12.050046,-15.315486
181,2.757662534713745,-105.83245849609375,72.73578643798828,4.947602067043052,5.067454081648846,-92.83848941207555,-15.954069,-7.3345447,10.2099495,40.962276,-30.831919,3.4217157,-22.28149,-2.5620942,7.0499206,95.88902,-16.963034,2.1978636,-4.1203876,-6.57555,11.720108,4.836382,36.381737,-33.483795,-9.311727,13.17213,1.0242501,2.369102,6.1505203,-28.345987,40.89365,9.374101,-3.8924513,-12.245533,-15.965841
182,2.766364812850952,-106.90015411376953,72.7101821899414,4.763534354446695,4.667783059539235,-92.71861909855338,-14.268566,-7.3721004,9.836193,40.509495,-31.573719,3.2980952,-23.64383,-3.0915587,6.3655148,96.12868,-17.749794,1.1992569,-4.693373,-6.402187,12.036219,3.4409325,35.780323,-33.58249,-9.638633,12.92857,0.8513171,2.1889646,7.0189724,-28.58756,40.482826,10.2556925,-2.3641996,-12.534021,-16.320843
183,2.7740061283111572,-107.97904968261719,72.73583221435547,4.512203814762841,4.29630939822482,-92.5879435092157,-12.482388,-7.333228,9.411679,39.783257,-32.126987,3.159486,-24.946632,-3.4965863,5.643025,95.97158,-18.444818,0.27611125,-5.292175,-6.1610575,12.317141,2.1835532,35.197853,-33.633327,-10.112349,12.353478,0.61449385,2.0649967,7.9242697,-28.87815,40.069935,10.936294,-0.6330541,-12.8535595,-16.51762
184,2.777881145477295,-109.08678436279297,72.81755065917969,4.1938756573504365,4.034587939318963,-92.43515701718503,-10.694789,-7.2137284,8.951702,38.798954,-32.46714,3.0205655,-26.212738,-3.7461956,4.8992114,95.40137,-19.049587,-0.48253804,-5.9114594,-5.829253,12.467136,1.0839052,34.646103,-33.68873,-10.656658,11.69221,0.40872154,2.0646625,8.894006,-29.219412,39.655605,11.41774,0.6804519,-13.140482,-16.702734
185,2.778008222579956,-110.22479248046875,72.94967651367188,3.7919274564051295,3.9090861185785313,-92.24153982114906,-8.917757,-6.995114,8.42907,37.52504,-32.618275,2.8903983,-27.461193,-3.8088548,4.105418,94.38003,-19.575438,-1.0243002,-6.562366,-5.380823,12.463295,0.14944589,34.132957,-33.748753,-11.30964,10.928614,0.25286737,2.225051,9.946422,-29.618164,39.23679,11.661005,1.4610482,-13.395907,-16.900156
186,2.7811100482940674,-111.37708282470703,73.12976837158203,3.3120808639975747,3.8757308180759393,-92.01876438047798,-7.108186,-6.6781917,7.8478665,35.975468,-32.587177,2.7620153,-28.665974,-3.707869,3.2479265,92.91766,-20.013166,-1.3985155,-7.2378454,-4.831702,12.366736,-0.6240916,33.66206,-33.78987,-12.1092825,9.959419,0.09523449,2.5052047,11.075896,-30.07663,38.803226,11.661877,2.0221543,-13.642008,-17.038868
187,2.7789666652679443,-112.55638885498047,73.35957336425781,2.789220601986198,3.910339273601991,-91.8026806902494,-5.2787657,-6.2861385,7.271442,34.231655,-32.32916,2.6210837,-29.784643,-3.4965022,2.368665,91.06806,-20.329485,-1.67443,-7.904877,-4.2205143,12.206862,-1.2443551,33.238594,-33.82509,-12.969856,8.890967,-0.07628051,2.8570445,12.252263,-30.585821,38.354202,11.493749,2.3916104,-13.850123,-17.130096
188,2.7761597633361816,-113.75255584716797,73.63032531738281,2.257659333475063,3.9876752497779906,-91.62902417385403,-3.4404557,-5.8474956,6.7618446,32.369595,-31.792175,2.4515116,-30.77738,-3.225262,1.5134255,88.88597,-20.493134,-1.9225626,-8.531916,-3.5873573,12.008559,-1.7097178,32.867252,-33.865513,-13.811056,7.834652,-0.27159223,3.232569,13.446018,-31.125381,37.889835,11.235519,2.592755,-13.992439,-17.185026
189,2.7722458839416504,-114.97030639648438,73.93637084960938,1.7074401426289787,4.1221720931249735,-91.50911179745053,-1.5547396,-5.3529735,6.3211308,30.283028,-30.944912,2.2420988,-31.66037,-2.8668659,0.69283026,86.35813,-20.486065,-2.1600235,-9.117872,-2.9195173,11.745276,-1.9868046,32.55176,-33.902348,-14.633792,6.7393074,-0.4925865,3.6653662,14.645352,-31.681776,37.41223,10.911419,2.5102277,-14.035736,-17.196016
190,2.7667839527130127,-116.2145767211914,74.27203369140625,1.129590793328293,4.319403007992738,-91.42562029026746,0.36608824,-4.7970757,5.9242773,27.980667,-29.824907,2.0017898,-32.4376,-2.4059844,-0.115947485,83.45536,-20.330221,-2.3477118,-9.676684,-2.2061856,11.414851,-2.0784373,32.296257,-33.925934,-15.482248,5.5738435,-0.73758686,4.1640697,15.851555,-32.24875,36.927826,10.501143,2.1708417,-14.003586,-17.161564
191,2.751483678817749,-117.47847747802734,74.63630676269531,0.5608692817909406,4.540313031055802,-91.37115992099268,2.2364867,-4.2200303,5.5900297,25.713013,-28.488152,1.7444074,-33.0569,-1.9081104,-0.91219264,80.212494,-20.055706,-2.4736,-10.203012,-1.4953208,11.072194,-2.0412853,32.10566,-33.945705,-16.331898,4.476637,-1.0071871,4.6439805,17.050291,-32.812717,36.44598,10.025366,1.8053318,-13.954226,-17.101627
192,2.7209582328796387,-118.74823760986328,75.00508880615234,0.03766189809802619,4.745423206352241,-91.3377129123311,3.9763246,-3.6637316,5.333887,23.726418,-26.986513,1.4841863,-33.469128,-1.4375592,-1.6928,76.6623,-19.690968,-2.5257785,-10.692728,-0.8369574,10.7692795,-1.9323193,31.984308,-33.97392,-17.156315,3.5854213,-1.2947539,5.021436,18.216742,-33.35375,35.980587,9.516449,1.6473231,-13.945871,-17.03727
193,2.685621500015259,-120.01988983154297,75.3749008178711,-0.4577429650457395,4.930466305950299,-91.33904847451169,5.624082,-3.115889,5.1642976,21.969177,-25.27294,1.2071099,-33.662254,-1.0065717,-2.496689,72.76552,-19.213474,-2.5258434,-11.1434765,-0.22272743,10.50891,-1.7416242,31.938988,-34.00584,-17.952602,2.9202044,-1.5950457,5.2883,19.322174,-33.85604,35.552177,9.004181,1.7828326,-14.00025,-16.971474
194,2.6574504375457764,-121.29141998291016,75.74742126464844,-0.9300899452562664,5.111182876557593,-91.37642180147165,7.2095594,-2.5738835,5.0688014,20.352602,-23.3412,0.9088294,-33.65425,-0.57311964,-3.303584,68.50802,-18.612392,-2.4655979,-11.560447,0.35400614,10.263014,-1.4387854,31.974007,-34.030674,-18.73832,2.4115996,-1.9075193,5.4853544,20.364187,-34.311787,35.161827,8.493317,2.0742247,-14.085012,-16.89441
195,2.622220754623413,-122.56732177734375,76.1170425415039,-1.3274778147273105,5.279128480904781,-91.42048427353764,8.648127,-2.09528,5.0240564,19.04652,-21.302393,0.61803126,-33.449806,-0.13072497,-4.020098,63.953564,-17.93076,-2.3040285,-11.950772,0.84377736,10.034221,-1.0604355,32.086235,-34.057476,-19.514307,2.0604293,-2.2303922,5.603253,21.34971,-34.71428,34.796455,7.9858713,2.4232476,-14.176247,-16.808502
196,2.5832369327545166,-123.84618377685547,76.4814453125,-1.6017566301350739,5.428460210665958,-91.43886797173855,9.856933,-1.7338158,5.0058765,18.20419,-19.255096,0.3600024,-33.060207,0.31187648,-4.548451,59.15688,-17.208485,-2.0125294,-12.320438,1.2032816,9.822524,-0.6533084,32.265926,-34.10344,-20.27007,1.8677292,-2.562253,5.632735,22.294216,-35.058445,34.43628,7.479865,2.7287827,-14.250419,-16.715471
197,2.5374183654785156,-125.12245178222656,76.8280029296875,-1.7395442474468397,5.570737971978285,-91.41460124358971,10.803048,-1.5040336,5.0335665,17.850502,-17.126556,0.13525058,-32.462612,0.7168644,-4.8641977,53.97215,-16.422579,-1.6037467,-12.678582,1.4223002,9.619019,-0.24144301,32.509098,-34.183662,-20.996511,1.8978273,-2.893526,5.5385323,23.207933,-35.338554,34.076183,6.9719133,2.9913363,-14.304852,-16.633162
198,2.4974052906036377,-126.40364074707031,77.15989685058594,-1.773604899923863,5.7064656635210635,-91.3595052356041,11.552295,-1.3775241,5.1037927,17.859262,-14.867128,-0.0858875,-31.647486,1.0718867,-5.0111275,48.37487,-15.545295,-1.1158255,-13.022339,1.5307715,9.421171,0.18943964,32.813934,-34.294426,-21.685074,2.127791,-3.2276626,5.33864,24.071465,-35.55264,33.730183,6.4764433,3.2563012,-14.351258,-16.554039
199,2.452653169631958,-127.69512939453125,77.4668197631836,-1.714569849958592,5.815837677137773,-91.28205159357582,12.162176,-1.3543674,5.154255,18.165129,-12.616364,-0.32293063,-30.669252,1.3782127,-4.983621,42.635273,-14.6212225,-0.57046926,-13.344105,1.5384576,9.23417,0.653288,33.16867,-34.423634,-22.331318,2.4311652,-3.583305,5.102155,24.887838,-35.702602,33.39639,5.9916096,3.474432,-14.386615,-16.442932
200,2.4153058528900146,-128.98968505859375,77.7342529296875,-1.568037361599949,5.87691530625026,-91.19185254635372,12.686324,-1.4374641,5.123255,18.713211,-10.519297,-0.57672495,-29.58791,1.6336064,-4.7739797,37.035305,-13.705116,0.013115208,-13.631947,1.4506313,9.063096,1.1547257,33.55429,-34.56464,-22.918587,2.6829185,-3.9777977,4.8966136,25.651857,-35.795174,33.073303,5.522392,3.6046176,-14.408099,-16.264536
201,2.3815054893493652,-130.29629516601562,77.96202087402344,-1.286883366283115,5.878827167273254,-91.07745503095973,13.136442,-1.6745217,4.9718018,19.501078,-8.582823,-0.80619746,-28.361996,1.8199595,-4.2572384,31.429674,-12.771181,0.6856459,-13.894274,1.2242637,8.898265,1.6790879,33.960423,-34.74182,-23.428493,2.912614,-4.4341264,4.7288303,26.393845,-35.83842,32.75798,5.0541706,3.6157205,-14.404527,-15.996344
202,2.3401997089385986,-131.6069793701172,78.14019012451172,-0.8532282379080485,5.825359556580023,-90.924913237433,13.505198,-2.080132,4.7278185,20.520855,-6.716541,-1.0047123,-26.954481,1.8489835,-3.4580967,25.701681,-11.797225,1.4025717,-14.143686,0.8416618,8.737833,2.2116077,34.383095,-34.95957,-23.85373,3.168737,-4.9368677,4.564571,27.117184,-35.835766,32.447266,4.5788283,3.5378454,-14.3807335,-15.661988
203,2.3016490936279297,-132.91546630859375,78.27165985107422,-0.3167467480476463,5.718613721847176,-90.74439274447663,13.803159,-2.600633,4.43259,21.741295,-4.934834,-1.212064,-25.469048,1.6598029,-2.6144128,20.239382,-10.857407,2.038644,-14.373529,0.34800097,8.597234,2.7606287,34.809387,-35.178963,-24.197628,3.3574667,-5.444179,4.4067574,27.785442,-35.78406,32.14054,4.1039925,3.4161866,-14.357359,-15.295481
204,2.266800880432129,-134.2217254638672,78.36092376708984,0.24323664272470968,5.570877283817781,-90.55956685772514,14.01347,-3.148961,4.1390834,23.171839,-3.2756953,-1.4743001,-24.04192,1.2870513,-1.9891219,15.468121,-10.035002,2.5077329,-14.5643015,-0.18143924,8.488758,3.330806,35.219803,-35.36214,-24.451338,3.3859503,-5.914152,4.2559943,28.356073,-35.676598,31.840172,3.6468153,3.2936764,-14.354838,-14.931143
205,2.2370786666870117,-135.52227783203125,78.41509246826172,0.8004241561685537,5.399803301774201,-90.38573230074141,14.072234,-3.702649,3.814371,24.912462,-1.8462111,-1.7762824,-22.710485,0.79146016,-1.7180904,11.422336,-9.3740015,2.7917056,-14.695037,-0.71403116,8.399026,3.9123466,35.59616,-35.510883,-24.596193,3.1987545,-6.3600435,4.0974607,28.840418,-35.50592,31.531092,3.2070975,3.146059,-14.381449,-14.545152
206,2.2008063793182373,-136.80909729003906,78.43701934814453,1.3520048048481117,5.209773134567334,-90.23472846467948,13.954239,-4.240833,3.4761434,27.023033,-0.6435524,-2.0924003,-21.35526,0.25390846,-1.6682335,7.7374907,-8.727639,2.96812,-14.750935,-1.2447568,8.320012,4.4803853,35.927982,-35.65819,-24.607456,2.8589787,-6.7955027,3.931259,29.24701,-35.270523,31.218914,2.7922895,2.9612074,-14.424957,-14.1298
207,2.165008544921875,-138.08441162109375,78.42525482177734,1.8146921377080614,5.008330111162351,-90.13757671533337,13.670788,-4.6369786,3.2612293,29.484037,0.43766707,-2.4613972,-21.274265,-0.22660731,-1.6998633,7.1855407,-9.432303,3.1034214,-14.709099,-1.6961404,8.27079,5.0168333,36.205654,-35.81144,-24.476519,2.4515474,-7.179839,3.7813706,29.517204,-34.97338,30.93971,2.4525092,2.802678,-14.481463,-13.743953
208,2.1300086975097656,-139.34759521484375,78.37861633300781,2.120812829392761,4.798759471606667,-90.11542608638423,13.248066,-4.782819,3.290979,32.248886,1.5242023,-2.9164908,-21.198977,-0.51101124,-1.6581061,7.1093807,-9.956878,3.2575974,-14.55906,-2.007154,8.27037,5.511814,36.42216,-35.97085,-24.199957,2.0620959,-7.47308,3.6722872,29.596706,-34.621105,30.730717,2.2300346,2.7323787,-14.543303,-13.447254
209,2.098687171936035,-140.598876953125,78.2861328125,2.249672774007778,4.588489690261075,-90.18171118149422,12.679149,-4.6306167,3.6209397,35.33474,2.7234569,-3.4858782,-20.901596,-0.55774957,-1.4929929,7.0661216,-10.0256605,3.466579,-14.287022,-2.1572993,8.3197975,5.9648004,36.567177,-36.135365,-23.761486,1.6387749,-7.6782303,3.6114607,29.480177,-34.21331,30.597958,2.1185784,2.8094234,-14.614316,-13.242543
210,2.0680720806121826,-141.84278869628906,78.15504455566406,2.228529561899549,4.376094966774144,-90.32186178165747,11.961438,-4.2057705,4.161143,38.7531,3.9516938,-4.1103315,-20.392847,-0.41076025,-1.2866993,7.0499873,-9.708713,3.6928785,-13.901065,-2.1675627,8.4080305,6.3698616,36.633575,-36.31124,-23.153337,1.163046,-7.8124495,3.584075,29.199232,-33.750175,30.516651,2.1022727,2.9861624,-14.695503,-13.1027355
211,2.0110433101654053,-143.0574188232422,78.03842163085938,2.070369602105884,4.148202938572054,-90.50933228497973,11.145363,-3.5259445,4.80501,42.421494,5.0585866,-4.704297,-19.699312,-0.10045639,-1.1013231,7.062002,-9.044556,3.8810644,-13.432625,-2.045014,8.538664,6.7187743,36.625202,-36.502743,-22.395113,0.76995146,-7.8579497,3.5842721,28.759605,-33.242725,30.477621,2.1974237,3.1661994,-14.77425,-13.042315
212,1.9392688274383545,-144.25621032714844,77.89605712890625,1.7898206485302683,3.8897574232328296,-90.71624140713708,10.285793,-2.6233723,5.449496,46.251263,5.8923507,-5.2038093,-18.84582,0.3443164,-0.9994929,7.099712,-8.069663,3.9771771,-12.918164,-1.798066,8.718053,7.0142965,36.554585,-36.705555,-21.520685,0.5924782,-7.796965,3.6076357,28.166542,-32.71028,30.472115,2.4135683,3.2541697,-14.838368,-13.076238
213,1.8894623517990112,-145.4652099609375,77.68313598632812,1.3829657026598225,3.5729407031289675,-90.93849948293274,9.448634,-1.423884,6.208518,50.265415,6.472877,-5.6464252,-17.976864,0.9239987,-1.0123296,7.642125,-6.752334,4.076211,-12.363038,-1.4197332,8.965708,7.2737703,36.430748,-36.922054,-20.546415,0.7047471,-7.6127663,3.692368,27.44079,-32.16568,30.486568,2.7356477,3.2551613,-14.889453,-13.218874
214,1.8543615341186523,-146.6646270751953,77.41061401367188,0.869337485697756,3.195768645100368,-91.17224694764172,8.634115,0.059047896,7.056586,54.4706,6.871586,-6.031653,-18.24394,1.6013541,-1.1319232,11.13161,-6.46335,4.1777906,-11.7719145,-0.9303474,9.281455,7.5074506,36.25769,-37.142235,-19.47221,1.0196092,-7.3182683,3.8281877,26.591251,-31.613728,30.51965,3.136092,3.2132516,-14.93178,-13.459809
215,1.7980648279190063,-147.85543823242188,77.0880126953125,0.30800439982721906,2.7867337205361267,-91.3930071459607,7.7846146,1.6057792,7.701294,58.740974,7.0151663,-6.2822194,-18.488272,2.326196,-1.3082956,14.783858,-6.31194,4.0891533,-11.181727,-0.39032683,9.638965,7.7194433,36.045036,-37.335026,-18.319649,1.4310286,-6.940787,3.9383461,25.5999,-31.063173,30.587406,3.6049314,3.0933394,-14.955617,-13.778185
216,1.7418373823165894,-149.03919982910156,76.70745086669922,-0.25846827779294207,2.3878891522373547,-91.58777301237872,6.8082685,2.97081,7.8707986,62.95784,6.8209686,-6.3648577,-18.820547,3.047181,-1.494696,18.48389,-6.8149314,3.6067064,-10.621425,0.15645899,10.006696,7.9211826,35.80598,-37.463486,-17.118093,1.8343945,-6.5099154,3.9476717,24.443861,-30.52561,30.706974,4.1340256,2.8604372,-14.951422,-14.1528
217,1.6811555624008179,-150.2017822265625,76.28538513183594,-0.8545208879273729,1.9773031302307515,-91.747643290111,5.6741567,4.040751,7.436432,67.1899,6.151808,-6.2889395,-19.403969,3.7909653,-1.6678182,22.570906,-8.316173,2.4667542,-10.105383,0.7289709,10.409718,8.126262,35.551743,-37.500107,-15.886002,2.2751694,-6.012068,3.8024454,23.111074,-30.004545,30.872143,4.73694,2.5184085,-14.92999,-14.571933
218,1.6245713233947754,-151.31854248046875,75.82228088378906,-1.4639501425236323,1.5447117594099808,-91.87893012295258,4.427122,4.846665,6.5873723,71.458405,5.090336,-6.129017,-20.17257,4.551972,-1.815372,27.06148,-10.509714,0.8500279,-9.627863,1.3128021,10.852804,8.34508,35.28992,-37.454273,-14.628458,2.7839303,-5.441491,3.552235,21.618061,-29.500572,31.076252,5.3999014,2.0833626,-14.889479,-15.050029
219,1.5872210264205933,-152.42514038085938,75.32463836669922,-2.0503085783745716,1.167774724600398,-92.0123797808616,3.0433238,5.422624,5.5343413,75.618126,3.864785,-5.9768405,-20.890753,5.3048415,-1.9241765,31.31077,-12.913669,-0.795811,-9.166209,1.8845524,11.270448,8.588485,35.025486,-37.34436,-13.358765,3.236593,-4.8359203,3.2824247,19.971653,-29.022018,31.339293,6.082829,1.549161,-14.801247,-15.605098
220,1.5666086673736572,-153.5164794921875,74.81643676757812,-2.5997251155432646,0.9289890413835867,-92.1800121416808,1.4944199,5.863233,4.473615,79.51931,2.706187,-5.9031153,-21.359547,6.025283,-2.024488,34.755634,-15.097542,-2.0280964,-8.697163,2.444121,11.595404,8.866587,34.760567,-37.186584,-12.086757,3.5054653,-4.2309604,3.0815423,18.183937,-28.581545,31.68184,6.7356486,0.910798,-14.634752,-16.254839
221,1.567368984222412,-154.61529541015625,74.32661437988281,-3.182369928223876,0.8982583830221293,-92.40614427795575,-0.3114309,6.2154613,3.3652534,83.225395,1.5545385,-5.916975,-21.590244,6.768803,-2.1961849,37.26154,-17.054127,-2.715753,-8.207684,3.069143,11.791332,9.189041,34.48576,-36.94988,-10.809126,3.5277162,-3.609,2.9208183,16.204475,-28.19022,32.126698,7.372091,0.09670068,-14.355653,-17.08151
222,1.5764411687850952,-155.7171173095703,73.86797332763672,-3.8082163656004786,1.021860543793913,-92.67834746524221,-2.3367796,6.4233937,2.1464632,86.801895,0.31824303,-6.0021834,-21.712803,7.5442886,-2.4155445,39.212337,-19.025436,-3.1034606,-7.706896,3.7615287,11.897058,9.554745,34.198013,-36.62745,-9.521777,3.3817017,-2.9595275,2.7739303,14.056345,-27.845928,32.65349,7.981213,-0.8546446,-13.979169,-18.047556
223,1.5842384099960327,-156.82086181640625,73.4454574584961,-4.374803097488586,1.1965483579341694,-92.97460625909537,-4.435315,6.474913,0.9665617,90.11129,-0.8155138,-6.16613,-21.705305,8.249146,-2.5830016,40.816143,-20.949423,-3.3174057,-7.1976075,4.407974,11.960338,9.957324,33.91488,-36.280148,-8.240344,3.1482997,-2.3277018,2.7369204,11.861292,-27.535503,33.220036,8.484286,-1.7861025,-13.557059,-18.989946
224,1.5945935249328613,-157.9140167236328,73.06930541992188,-4.776269569422918,1.3196351412207386,-93.26913274537675,-6.4686136,6.3835287,-0.031309105,93.01076,-1.6551982,-6.4038935,-21.535854,8.786689,-2.5980575,42.258503,-22.753813,-3.4861705,-6.6836886,4.8911176,12.032458,10.394064,33.667828,-35.976166,-6.993374,2.9044504,-1.7594414,2.9073596,9.741705,-27.242134,33.785664,8.814811,-2.5563812,-13.151303,-19.746128
225,1.59556245803833,-159.02281188964844,72.75093078613281,-4.968145989404739,1.38554252954529,-93.55341993949911,-8.463183,6.150254,-0.82358027,95.506065,-1.9923776,-6.70745,-21.196577,9.122658,-2.432012,43.565384,-24.438623,-3.6182387,-6.1664014,5.162987,12.116884,10.871807,33.478107,-35.722862,-5.7326894,2.6056452,-1.272479,3.3463585,7.697372,-26.948477,34.362972,8.99231,-3.176637,-12.748118,-20.33342
226,1.6082791090011597,-160.16014099121094,72.48994445800781,-5.013800596250603,1.4430665358163537,-93.84036782350105,-10.483967,5.7955346,-1.4807494,97.663734,-1.9706862,-7.06887,-20.698778,9.31399,-2.1500802,44.63674,-26.0315,-3.6557531,-5.6395082,5.285305,12.195261,11.403908,33.354088,-35.49061,-4.4870505,2.2233143,-0.84383553,3.9955354,5.6709733,-26.645473,34.97251,9.053081,-3.7157116,-12.331719,-20.815834
227,1.6402522325515747,-161.2935333251953,72.28385925292969,-4.966233540615614,1.471748052945588,-94.13272599986178,-12.46099,5.3773036,-2.0098104,99.426056,-1.9174418,-7.4760284,-20.033491,9.400954,-1.7879146,45.453644,-27.493204,-3.6265004,-5.1016936,5.305053,12.289906,11.98855,33.31216,-35.294086,-3.4018896,1.8506597,-0.4575505,4.7716937,3.6571643,-26.33697,35.605564,8.991998,-4.1057367,-11.969298,-21.106117
228,1.6713632345199585,-162.4102020263672,72.13325500488281,-4.879564554477435,1.4505901276428128,-94.43385859123211,-14.323203,4.9584866,-2.419171,100.732475,-2.1624382,-7.9137383,-19.19099,9.425836,-1.3793561,45.994766,-28.783089,-3.5588973,-4.5508,5.272249,12.423368,12.631056,33.37263,-35.143845,-2.6332364,1.5821035,-0.0935251,5.5920696,1.6687247,-26.038202,36.247963,8.785745,-4.2887464,-11.7287855,-21.117079
229,1.7105121612548828,-163.50831604003906,72.0383529663086,-4.740117436609336,1.3323421340931698,-94.75025456250964,-16.021786,4.495562,-2.717657,101.5548,-2.7243586,-8.531357,-18.129765,9.374895,-0.91215956,46.2774,-29.920376,-3.44781,-3.9837918,5.1699443,12.658792,13.34739,33.55823,-35.04742,-2.258575,1.4992087,0.30754566,6.5741854,-0.3487392,-25.76659,36.936844,8.410693,-4.1564155,-11.666107,-20.753256
230,1.7563557624816895,-164.61744689941406,71.99449920654297,-4.531582162470468,1.1424833938382917,-95.08020628569092,-17.611609,4.0052476,-2.900987,101.9277,-3.4455614,-9.272147,-16.865408,9.235108,-0.38274208,46.30174,-30.91644,-3.2873802,-3.406291,4.98715,12.974592,14.159616,33.877697,-34.97222,-2.2219136,1.5229641,0.7208116,7.714542,-2.3759687,-25.528109,37.684963,7.871276,-3.7708554,-11.731048,-20.085913
231,1.8041245937347412,-165.7238311767578,72.00090026855469,-4.303485685277313,0.9686341487786346,-95.41462409977373,-19.174654,3.634796,-2.9698014,101.8813,-4.3898625,-9.820327,-15.477446,9.050644,0.16735964,46.027866,-31.721098,-3.1060011,-2.8255827,4.782501,13.264305,15.080155,34.321846,-34.87149,-2.4763246,1.517468,1.0404142,8.748306,-4.314583,-25.322008,38.44085,7.2007275,-3.313233,-11.831206,-19.278315
232,1.8633015155792236,-166.83091735839844,72.06243133544922,-4.103839402809389,0.8979087964954366,-95.74383324446863,-20.788813,3.5120678,-2.9282916,101.443016,-5.6202273,-9.874077,-14.047667,8.860556,0.70396596,45.42096,-32.286133,-2.9277115,-2.246125,4.609836,13.417956,16.098557,34.869255,-34.716824,-2.9523053,1.3519678,1.1561626,9.411525,-6.0614676,-25.143883,39.13867,6.430414,-2.9711213,-11.881373,-18.495695
233,1.9206470251083374,-167.9823455810547,72.1866683959961,-3.942956741429069,0.9608271461525095,-96.07886518546061,-22.501064,3.6446433,-2.7818031,100.60106,-7.320172,-9.266729,-12.57917,8.666854,1.2426455,44.41229,-32.62401,-2.748645,-1.6624156,4.484484,13.390414,17.22738,35.50861,-34.514004,-3.6821723,0.9333248,0.99318534,9.625113,-7.6176167,-24.996012,39.76313,5.5397525,-2.8399463,-11.872073,-17.719439
234,1.9838383197784424,-169.15707397460938,72.36424255371094,-3.7894964811480762,1.107966056384408,-96.42023838386378,-24.24694,3.9279132,-2.5300224,99.33942,-9.410715,-8.221977,-11.039566,8.435981,1.802962,43.05715,-32.76259,-2.5614762,-1.0729975,4.368395,13.243656,18.460594,36.23617,-34.27718,-4.671418,0.356574,0.6280248,9.527222,-9.028452,-24.882215,40.346653,4.521265,-2.8046396,-11.846785,-16.88265
235,2.048015594482422,-170.35018920898438,72.59634399414062,-3.628989430766973,1.3059726758858554,-96.74128200636099,-25.929579,4.314815,-2.1616282,97.67747,-11.56496,-7.0290914,-9.456645,8.155105,2.3584757,41.500816,-32.66965,-2.3778791,-0.48567727,4.2317004,13.02495,19.742153,37.0343,-34.00375,-5.790712,-0.22562274,0.17756614,9.182016,-10.252688,-24.798689,40.882664,3.4264858,-2.750053,-11.803098,-16.080683
236,2.101555824279785,-171.56619262695312,72.87293243408203,-3.4506084949369735,1.5215120757207692,-97.01510446655979,-27.451925,4.7855377,-1.6566465,95.63165,-13.454359,-5.965014,-7.8578043,7.818633,2.8778286,39.883694,-32.310665,-2.2031884,0.09365639,4.0501685,12.77873,21.010387,37.875824,-33.69612,-6.8984303,-0.6539846,-0.24459322,8.659184,-11.255739,-24.738632,41.36218,2.32018,-2.560718,-11.73547,-15.408804
237,2.151909351348877,-172.80194091796875,73.18994140625,-3.2591300744000717,1.7595118157056562,-97.23513022160114,-28.803606,5.419568,-0.9464083,93.1763,-15.1284685,-5.060256,-6.202111,7.433701,3.3750713,38.10717,-31.646463,-2.0270164,0.67101234,3.8296,12.485058,22.224007,38.744545,-33.361496,-7.9356837,-0.87644047,-0.64263195,7.8450227,-12.016904,-24.699293,41.779762,1.2059304,-2.2122562,-11.615363,-14.932169
238,2.2045583724975586,-174.06539916992188,73.54814147949219,-3.0529911739350153,2.0324666235662114,-97.41343017856693,-29.999098,6.1629763,-0.030285107,90.298805,-16.73428,-4.222155,-4.4983397,6.9937243,3.8576083,36.152164,-30.71265,-1.8404806,1.249104,3.5751011,12.125932,23.470722,39.6296,-32.988586,-9.001073,-0.94315666,-1.0656695,6.747963,-12.564814,-24.683418,42.13432,0.06906209,-1.7667253,-11.45301,-14.58763
239,2.257962226867676,-175.33065795898438,73.93157196044922,-2.817942565854011,2.3188950293197683,-97.55209896617444,-30.989622,6.8418884,1.0115755,87.03414,-18.078213,-3.504435,-2.8469942,6.487856,4.278228,34.269077,-29.578348,-1.6506922,1.8175591,3.2706704,11.745993,24.899975,40.5057,-32.545265,-10.197754,-0.82903945,-1.4727708,5.624401,-12.930507,-24.693121,42.42236,-1.0556376,-1.2456863,-11.300207,-14.277044
