unveil-humanoid-operators/unveil-humanoid-operators.github.io/feature-analysis-animation/data/feature_matrix_instances/weight_ankle_peak_vel_jogging_A064_jog_ff_start_360_005__A064.csv
Frame,root_translateX,root_translateY,root_translateZ,root_rotateX,root_rotateY,root_rotateZ,left_hip_pitch_joint_dof,left_hip_roll_joint_dof,left_hip_yaw_joint_dof,left_knee_joint_dof,left_ankle_pitch_joint_dof,left_ankle_roll_joint_dof,right_hip_pitch_joint_dof,right_hip_roll_joint_dof,right_hip_yaw_joint_dof,right_knee_joint_dof,right_ankle_pitch_joint_dof,right_ankle_roll_joint_dof,waist_yaw_joint_dof,waist_roll_joint_dof,waist_pitch_joint_dof,left_shoulder_pitch_joint_dof,left_shoulder_roll_joint_dof,left_shoulder_yaw_joint_dof,left_elbow_joint_dof,left_wrist_roll_joint_dof,left_wrist_pitch_joint_dof,left_wrist_yaw_joint_dof,right_shoulder_pitch_joint_dof,right_shoulder_roll_joint_dof,right_shoulder_yaw_joint_dof,right_elbow_joint_dof,right_wrist_roll_joint_dof,right_wrist_pitch_joint_dof,right_wrist_yaw_joint_dof
0,-0.023503556847572327,2.26466703414917,78.06550598144531,-0.3285019895650748,-4.188629614313201,-89.39570020227906,12.628668,3.4726708,10.470481,7.236973,-16.967081,-4.610035,13.0822935,-3.4859142,-19.716528,7.073014,-14.0378685,3.0397894,-2.534707,0.36580846,7.9647555,10.368729,8.4677,-15.185899,58.069,12.162513,4.661696,15.769615,3.3486392,-5.60273,13.155225,65.824715,-7.5185704,5.423004,-18.628624
1,-0.0185003113001585,2.2580807209014893,78.06346130371094,-0.3221940437829982,-4.187007157583983,-89.39139767271246,12.6296215,3.4645615,10.493003,7.23607,-16.963816,-4.588568,13.087536,-3.4946392,-19.725576,7.072108,-14.041257,3.0489094,-2.4930298,0.33741578,7.98345,10.3727665,8.452474,-14.947489,58.14011,12.386582,4.5781355,15.683607,3.385115,-5.5858946,13.11127,65.77996,-7.5483885,5.391879,-18.633316
2,-0.021517712622880936,2.255953550338745,78.05973815917969,-0.31655592312975983,-4.184717976702652,-89.3866036792041,12.62902,3.456385,10.517716,7.236432,-16.961243,-4.5661564,13.091806,-3.5039637,-19.73574,7.072425,-14.045098,3.059605,-2.4930565,0.3097579,7.997157,10.372704,8.396627,-14.6337595,58.241848,12.652066,4.4878993,15.598246,3.3860788,-5.56076,13.108212,65.774414,-7.5773234,5.359994,-18.649433
3,-0.02308947592973709,2.2538723945617676,78.05854797363281,-0.3115725649797208,-4.184176868042931,-89.38284366856517,12.629888,3.4486222,10.538079,7.2370024,-16.958103,-4.5456123,13.097136,-3.512694,-19.743582,7.072845,-14.049289,3.0672977,-2.4944365,0.29395747,8.005666,10.358846,8.322032,-14.354523,58.355267,12.892454,4.4067016,15.532196,3.3848262,-5.5427012,13.107898,65.7765,-7.599766,5.333585,-18.667406
4,-0.022690700367093086,2.2513580322265625,78.06102752685547,-0.30733861745391255,-4.187880438808631,-89.3815185391266,12.636127,3.441652,10.547443,7.237076,-16.95424,-4.5297995,13.105407,-3.5195093,-19.74592,7.073743,-14.054605,3.0672464,-2.4967792,0.28869462,8.012814,10.343912,8.253546,-14.157806,58.443752,13.063258,4.346688,15.493874,3.382431,-5.5349364,13.111133,65.78005,-7.606606,5.3190026,-18.67972
5,-0.022730594500899315,2.2490482330322266,78.06349182128906,-0.3023472115200916,-4.199541692181352,-89.38466931375268,12.649789,3.4346447,10.541348,7.23735,-16.947298,-4.5201406,13.120096,-3.5250638,-19.739319,7.075388,-14.06282,3.0550826,-2.4988804,0.2879157,8.021462,10.337155,8.210396,-14.075511,58.483368,13.133988,4.315601,15.491705,3.3763883,-5.535717,13.123766,65.7866,-7.5840573,5.319893,-18.683065
6,-0.017894523218274117,2.2430436611175537,78.06708526611328,-0.29889620806764333,-4.216748833779887,-89.39076471866993,12.669182,3.4275265,10.524233,7.2377396,-16.938448,-4.5148854,13.139161,-3.5297499,-19.726479,7.0769253,-14.071989,3.0342882,-2.4988756,0.28495935,8.0337105,10.34076,8.19674,-14.074757,58.47941,13.131946,4.304772,15.511105,3.3678284,-5.537752,13.139863,65.79287,-7.5425997,5.3313684,-18.678589
7,-0.01794521138072014,2.243549108505249,78.06224060058594,-0.29664664745135827,-4.233342751994892,-89.3965865241692,12.688763,3.4219966,10.502498,7.2366447,-16.930183,-4.512393,13.157223,-3.5323148,-19.713133,7.0784583,-14.081309,3.0121996,-2.507419,0.28488463,8.043816,10.34729,8.18686,-14.095243,58.462658,13.106576,4.303056,15.536968,3.354329,-5.540501,13.159399,65.802765,-7.5037613,5.348383,-18.672659
8,-0.015345337800681591,2.2396812438964844,78.06338500976562,-0.2955242833166664,-4.241778450648517,-89.39919031780886,12.699004,3.4195406,10.482826,7.2376213,-16.926868,-4.510929,13.162401,-3.5341756,-19.704561,7.089332,-14.093158,2.9963121,-2.5141923,0.28478155,8.047904,10.350497,8.183354,-14.101736,58.45163,13.094775,4.2989573,15.5455885,3.3519495,-5.5415115,13.16283,65.80071,-7.492307,5.3627086,-18.66572
9,-0.019050288945436478,2.240017890930176,78.06143951416016,-0.29879710074716925,-4.240524101946677,-89.39570395804239,12.699966,3.4222975,10.464684,7.237939,-16.930038,-4.509656,13.162431,-3.529563,-19.704586,7.089944,-14.097285,2.9885964,-2.5235054,0.29808453,8.039815,10.367238,8.170032,-14.110908,58.436966,13.086564,4.2967043,15.549939,3.3590057,-5.544106,13.155666,65.790504,-7.525269,5.4293046,-18.675362
10,-0.017505381256341934,2.236272096633911,78.06400299072266,-0.3055479695262128,-4.231310149206365,-89.38934231770448,12.693005,3.4289382,10.446365,7.238889,-16.938057,-4.50961,13.156482,-3.5198972,-19.70869,7.084626,-14.096675,2.984759,-2.5371552,0.31442893,8.025852,10.375261,8.158686,-14.108444,58.4299,13.086953,4.2950754,15.541338,3.367917,-5.5440373,13.132041,65.77715,-7.600604,5.52715,-18.689417
11,-0.017337774857878685,2.2343673706054688,78.06314086914062,-0.31009244713361184,-4.222500816144915,-89.3830233193499,12.686455,3.4355595,10.429127,7.238995,-16.946117,-4.512074,13.150936,-3.5110743,-19.713545,7.0796547,-14.095449,2.983902,-2.5532477,0.32444066,8.012863,10.380281,8.156716,-14.106099,58.425987,13.080434,4.293835,15.531361,3.372864,-5.5436034,13.123675,65.76852,-7.639691,5.556922,-18.692598
12,-0.01779313012957573,2.2301218509674072,78.06354522705078,-0.31346005629430185,-4.217038137835416,-89.37755048915008,12.68209,3.438402,10.412207,7.2395153,-16.950981,-4.5179152,13.14728,-3.5080276,-19.717976,7.080044,-14.097005,2.9848773,-2.5671704,0.33037478,8.000838,10.389873,8.154714,-14.101776,58.420017,13.07224,4.292882,15.522361,3.3826194,-5.5430346,13.1116295,65.74333,-7.623392,5.4512525,-18.664818
13,-0.01773269847035408,2.2298567295074463,78.06156158447266,-0.30967972766702223,-4.219692092942305,-89.3729987667277,12.684457,3.435192,10.393415,7.2393003,-16.95001,-4.530781,13.1543665,-3.5131397,-19.723076,7.079876,-14.098456,2.9879937,-2.5654125,0.32419255,7.9961176,10.398321,8.147052,-14.088997,58.416256,13.079311,4.2938743,15.520081,3.4116652,-5.5431237,13.074148,65.71529,-7.488099,4.9922247,-18.562553
14,-0.016389138996601105,2.2261769771575928,78.06151580810547,-0.30178770947833594,-4.227999340770015,-89.3701971252814,12.692305,3.428026,10.375241,7.23863,-16.94644,-4.5490403,13.168682,-3.5237174,-19.727707,7.0800714,-14.10013,2.993581,-2.560622,0.31214598,7.99522,10.394292,8.137461,-14.079219,58.42906,13.076943,4.2946897,15.523028,3.4357178,-5.547803,13.047388,65.6843,-7.251353,4.322899,-18.415386
15,-0.01585644856095314,2.225179672241211,78.05902099609375,-0.2952059810175411,-4.235901398991263,-89.36817084632061,12.699787,3.4208245,10.360415,7.237579,-16.94228,-4.5658994,13.181924,-3.5339658,-19.730976,7.080154,-14.101685,3.0008855,-2.5563624,0.30350173,7.995028,10.387775,8.126492,-14.070473,58.44484,13.073354,4.2953916,15.526846,3.4586692,-5.557939,13.032148,65.65444,-7.0257044,3.7205634,-18.28082
16,-0.01664675585925579,2.222712516784668,78.0590591430664,-0.29339573813188696,-4.238269629540219,-89.36652520210595,12.702589,3.4178524,10.352244,7.237053,-16.941235,-4.5746875,13.187184,-3.5371966,-19.73134,7.0794644,-14.103541,3.0088494,-2.5538437,0.3035303,7.9943843,10.381041,8.115563,-14.064819,58.456512,13.07151,4.2952647,15.527924,3.4726734,-5.56897,13.029994,65.63457,-6.9221745,3.4755876,-18.225864
17,-0.016278302296996117,2.2201294898986816,78.0604019165039,-0.294752500988639,-4.232172335440232,-89.36569926037882,12.697567,3.420632,10.350712,7.2375317,-16.944235,-4.5709076,13.178988,-3.530209,-19.725996,7.078388,-14.105919,3.0196514,-2.551611,0.31754026,7.993313,10.375808,8.104348,-14.066222,58.458904,13.073809,4.2961755,15.526129,3.463069,-5.5749035,13.044567,65.64272,-7.0181046,3.8341277,-18.309553
18,-0.013956854119896889,2.216538429260254,78.0639877319336,-0.3016352989049754,-4.2207845007668086,-89.36534184707138,12.687733,3.4273388,10.3540125,7.2382164,-16.949131,-4.5591655,13.162633,-3.5161064,-19.716932,7.077397,-14.109489,3.0328639,-2.5498366,0.33727938,7.990152,10.367799,8.091519,-14.070575,58.462715,13.079719,4.2977176,15.524878,3.4340742,-5.571776,13.0738535,65.676605,-7.2389593,4.585836,-18.485453
19,-0.016063494607806206,2.2146852016448975,78.06166076660156,-0.30834646878135563,-4.208481896298977,-89.365159052201,12.677569,3.4346888,10.363983,7.239013,-16.955376,-4.54579,13.145384,-3.5016196,-19.708591,7.076679,-14.112808,3.0442333,-2.5436394,0.3555329,7.9895988,10.3595,8.087387,-14.0756445,58.461517,13.086557,4.298147,15.519828,3.4074445,-5.567503,13.089695,65.70598,-7.479417,5.330836,-18.653553
20,-0.02045525051653385,2.214975357055664,78.05787658691406,-0.3139552158420037,-4.199409077256065,-89.3645252563213,12.67025,3.4407527,10.3822565,7.2396083,-16.961754,-4.5373387,13.134251,-3.4924955,-19.705322,7.0755887,-14.114212,3.0494158,-2.551069,0.36406243,7.9810925,10.359442,8.0765,-14.071346,58.466045,13.089218,4.3006525,15.527085,3.3865712,-5.5520086,13.10755,65.73367,-7.620967,5.674759,-18.742619
21,-0.014866169542074203,2.2145166397094727,78.05708312988281,-0.3157876412907438,-4.193827587683797,-89.36214023217731,12.666656,3.4449224,10.418863,7.2396007,-16.96935,-4.5353,13.131163,-3.491198,-19.711126,7.075611,-14.11413,3.0451124,-2.564205,0.36364672,7.9695983,10.365527,8.07089,-14.05841,58.47058,13.084892,4.2996783,15.536039,3.3912623,-5.5456634,13.09559,65.731026,-7.6227775,5.377268,-18.687866
22,-0.016462689265608788,2.212907552719116,78.05392456054688,-0.3178171358613876,-4.190012495852078,-89.35869901672861,12.665177,3.4485857,10.469853,7.2388544,-16.977993,-4.536271,13.132744,-3.494064,-19.722347,7.075416,-14.11218,3.034328,-2.5814302,0.3593629,7.957269,10.371233,8.065047,-14.036324,58.47889,13.082379,4.296958,15.54698,3.4062922,-5.544148,13.058788,65.71508,-7.555331,4.694798,-18.546963
23,-0.01758657954633236,2.214384078979492,78.0523452758789,-0.3179219427152154,-4.188440185619762,-89.35679081547984,12.665422,3.45101,10.515396,7.239184,-16.986235,-4.5391955,13.136323,-3.4992867,-19.733452,7.0769873,-14.110915,3.022439,-2.592845,0.3569958,7.949218,10.375703,8.05954,-14.017211,58.48429,13.080828,4.2949405,15.5561695,3.4305851,-5.548221,13.0140505,65.68536,-7.4707317,3.9649315,-18.389748
24,-0.019816067069768906,2.213150978088379,78.05532836914062,-0.317775950023909,-4.189609706426995,-89.35872588575197,12.668964,3.4509273,10.535752,7.2388244,-16.990465,-4.5429487,13.1416235,-3.5043259,-19.738625,7.077305,-14.109931,3.014628,-2.5962384,0.35733807,7.9470415,10.380786,8.054907,-14.00509,58.483265,13.082331,4.2965097,15.562053,3.4504652,-5.553528,12.985273,65.658775,-7.4249563,3.5241482,-18.29286
25,-0.018937019631266594,2.2119693756103516,78.05687713623047,-0.3135697062664246,-4.1960580490254555,-89.36715910581735,12.677868,3.4465656,10.515689,7.2380466,-16.988798,-4.549387,13.150549,-3.5108762,-19.736006,7.0770926,-14.109584,3.0127976,-2.5856793,0.36222064,7.9581842,10.381885,8.0509405,-13.998454,58.474003,13.095134,4.303447,15.560775,3.4586358,-5.5559063,12.97146,65.63919,-7.4618526,3.5222394,-18.288824
26,-0.022086922079324722,2.2116541862487793,78.05718994140625,-0.308139997782656,-4.206638121167398,-89.38002864949486,12.69035,3.4391134,10.46908,7.238819,-16.984,-4.5583887,13.162761,-3.519454,-19.728796,7.078365,-14.110854,3.013866,-2.5664868,0.36844027,7.977517,10.380321,8.046391,-13.992479,58.46104,13.117787,4.3142285,15.555813,3.4620633,-5.5554175,12.965049,65.62124,-7.5430584,3.76032,-18.335596
27,-0.01928180642426014,2.209474802017212,78.05448913574219,-0.3025351497496159,-4.216442881042317,-89.39316890577444,12.702462,3.4317455,10.419614,7.2384524,-16.97778,-4.5659957,13.172859,-3.526577,-19.7189,7.0791492,-14.112288,3.016195,-2.5489697,0.37418753,7.9946055,10.378307,8.038982,-13.984634,58.45144,13.14181,4.325356,15.552296,3.4595897,-5.5506315,12.966457,65.61266,-7.6110997,4.0488553,-18.39251
28,-0.015756556764245033,2.205082893371582,78.05559539794922,-0.3010652723435316,-4.220188602888323,-89.40213424465193,12.708789,3.4282954,10.390781,7.238109,-16.97368,-4.5683155,13.175833,-3.5279062,-19.708656,7.0787168,-14.113623,3.0178218,-2.5385923,0.3793281,8.001834,10.377258,8.03374,-13.976647,58.448097,13.158176,4.3318973,15.55076,3.4579575,-5.545377,12.970073,65.60889,-7.6107016,4.1976933,-18.413975
29,-0.014657878316938877,2.202596664428711,78.05572509765625,-0.30278984023009814,-4.213800572670453,-89.40496443900159,12.703902,3.4316773,10.392139,7.238331,-16.97248,-4.562076,13.165311,-3.519331,-19.696203,7.079148,-14.11773,3.0211375,-2.53563,0.38649976,7.996399,10.378781,8.030978,-13.97112,58.44865,13.165898,4.333188,15.551293,3.463125,-5.541892,12.970705,65.60169,-7.4991407,4.1385007,-18.37573
30,-0.016252536326646805,2.199946641921997,78.05768585205078,-0.3095975789189238,-4.199906348784006,-89.40473956581428,12.691786,3.4390671,10.410552,7.2386603,-16.972883,-4.550106,13.145178,-3.5037487,-19.680656,7.077607,-14.12168,3.0260181,-2.5402927,0.39087498,7.9770937,10.374509,8.025477,-13.955324,58.46725,13.180147,4.331078,15.554298,3.4627824,-5.533776,12.982316,65.612564,-7.304041,3.9708793,-18.307522
31,-0.018809592351317406,2.202043056488037,78.05775451660156,-0.31626765370525256,-4.186867689604619,-89.40340245034841,12.680022,3.4464815,10.433973,7.239792,-16.97403,-4.5377145,13.126145,-3.4893587,-19.667086,7.0779834,-14.126264,3.0274715,-2.544335,0.39711276,7.960545,10.374954,8.023617,-13.946676,58.477966,13.182076,4.3265033,15.55666,3.467066,-5.5301595,12.987244,65.61496,-7.1169763,3.7830358,-18.236532
32,-0.02096223086118698,2.198849678039551,78.05874633789062,-0.3188977472253269,-4.182360260721251,-89.40378366304648,12.677356,3.450159,10.451076,7.239739,-16.973995,-4.5301833,13.119659,-3.4828289,-19.659718,7.0785704,-14.128437,3.0200906,-2.54853,0.40366384,7.9557004,10.379672,8.022771,-13.941242,58.4782,13.169319,4.320616,15.558697,3.4742248,-5.5280375,12.987935,65.605225,-7.014491,3.6567738,-18.197401
33,-0.017948487773537636,2.2005767822265625,78.05559539794922,-0.3185565203672455,-4.191447093765681,-89.40732137867693,12.688261,3.4482243,10.4625435,7.240117,-16.973352,-4.529321,13.133929,-3.488403,-19.660992,7.0793395,-14.12749,2.99465,-2.5555146,0.4056734,7.964175,10.389177,8.021402,-13.931796,58.472202,13.13822,4.310938,15.563328,3.4790766,-5.524436,12.987577,65.59644,-7.025941,3.598572,-18.208136
34,-0.02101537026464939,2.1981287002563477,78.05299377441406,-0.3144756125280558,-4.20947881676259,-89.41205755177081,12.708888,3.4427404,10.472853,7.239899,-16.97242,-4.5321746,13.1579075,-3.5029395,-19.668282,7.088737,-14.128702,2.9567153,-2.5697265,0.40534046,7.9843397,10.406432,8.0186825,-13.913392,58.45539,13.097213,4.2980466,15.568671,3.480601,-5.5172086,12.983642,65.581856,-7.115587,3.578462,-18.248716
35,-0.015781143680214882,2.194753885269165,78.0530776977539,-0.3093748422465327,-4.226880097001596,-89.41674756171656,12.728251,3.4363396,10.477857,7.2400837,-16.971218,-4.5370708,13.168575,-3.5240242,-19.676666,7.12757,-14.144541,2.9229863,-2.5814586,0.4056692,8.0037365,10.422335,8.016169,-13.900572,58.438793,13.053518,4.2864013,15.572986,3.480672,-5.5101213,12.978952,65.571655,-7.231036,3.5810275,-18.298172
36,-0.013424898497760296,2.193498134613037,78.05321502685547,-0.30576713874956557,-4.23408029746633,-89.42006931854874,12.736822,3.4309373,10.473248,7.2396374,-16.969078,-4.5423174,13.174546,-3.5376303,-19.68344,7.1456003,-14.150217,2.909705,-2.5904844,0.40460327,8.0112915,10.432892,8.012951,-13.886978,58.43036,13.029928,4.2803116,15.57413,3.4723976,-5.499144,12.9751005,65.58207,-7.334015,3.5947697,-18.338846
37,-0.011179624125361443,2.1921725273132324,78.0532455444336,-0.3021240546295846,-4.225723559205086,-89.42249915438998,12.728255,3.426731,10.450991,7.2390037,-16.964865,-4.5495605,13.171623,-3.5408325,-19.686579,7.1348543,-14.141508,2.9286697,-2.5858183,0.40645716,8.004469,10.431539,8.012476,-13.887697,58.431126,13.024382,4.2812,15.566965,3.4704902,-5.496449,12.977719,65.60052,-7.4138584,3.6299026,-18.362595
38,-0.014456777833402157,2.186784267425537,78.05575561523438,-0.2988829015396435,-4.206821907078272,-89.42339651890131,12.707818,3.4229312,10.414589,7.238388,-16.959013,-4.5588837,13.163753,-3.5379283,-19.68954,7.1049604,-14.123119,2.9685767,-2.58078,0.41007772,7.9826245,10.427333,8.012248,-13.893644,58.439144,13.027012,4.286902,15.553728,3.4606698,-5.492945,12.984609,65.641205,-7.505254,3.6929944,-18.38492
39,-0.02000158466398716,2.180962562561035,78.05850219726562,-0.2954992843906345,-4.186711061464045,-89.42347007387163,12.686691,3.4201474,10.380719,7.237793,-16.95471,-4.5666056,13.15162,-3.5343795,-19.692505,7.080161,-14.107551,3.0115123,-2.5747175,0.4137311,7.9599414,10.423296,8.0124235,-13.900817,58.446983,13.036441,4.294562,15.542607,3.453883,-5.4895897,12.991553,65.67847,-7.5764995,3.7507179,-18.401308
40,-0.017451951280236244,2.180551528930664,78.0548095703125,-0.29451381017871453,-4.173262570497651,-89.42179846224943,12.673331,3.4192512,10.364491,7.237636,-16.954792,-4.5689383,13.138765,-3.534408,-19.697466,7.0782824,-14.105038,3.0395713,-2.5749896,0.41696098,7.9422774,10.426587,8.012877,-13.903645,58.450256,13.045392,4.3010554,15.539255,3.4550505,-5.483621,12.99379,65.69681,-7.6120253,3.7772958,-18.41162
41,-0.01397939957678318,2.1831252574920654,78.04940795898438,-0.29585063567624015,-4.168472243906188,-89.41716686271646,12.671139,3.4213488,10.377982,7.2382245,-16.962788,-4.5630646,13.138054,-3.53457,-19.707998,7.077783,-14.103264,3.0460906,-2.587046,0.4208241,7.9327126,10.43985,8.012985,-13.8924885,58.44687,13.059164,4.305424,15.544869,3.4667606,-5.4771547,12.984492,65.687965,-7.6036444,3.755193,-18.413666
42,-0.014734863303601742,2.17696213722229,78.05071258544922,-0.2988976495713901,-4.168022343238055,-89.41025724152067,12.674954,3.425909,10.410185,7.2390943,-16.975864,-4.5516434,13.143935,-3.5336978,-19.722347,7.077973,-14.102248,3.0412254,-2.606925,0.42449918,7.9274826,10.459184,8.012507,-13.869241,58.439648,13.0815935,4.3091993,15.555528,3.4842737,-5.467945,12.9666395,65.662964,-7.564364,3.7026405,-18.408888
43,-0.01437453180551529,2.1736528873443604,78.05136108398438,-0.3032519444324368,-4.170809192032706,-89.40350350494717,12.682232,3.4301186,10.442399,7.2399073,-16.98899,-4.538798,13.153204,-3.5327423,-19.734758,7.0780053,-14.102748,3.0320559,-2.6298227,0.42315322,7.9273996,10.47646,8.011266,-13.833128,58.43383,13.112252,4.311757,15.567032,3.4951704,-5.4497476,12.942076,65.638725,-7.517282,3.6448162,-18.39839
44,-0.01888292096555233,2.174578905105591,78.0499038696289,-0.30587925715272113,-4.1753522917448,-89.39945111138226,12.690187,3.4314947,10.455451,7.2405276,-16.996428,-4.528697,13.162281,-3.5319743,-19.740036,7.0782714,-14.106418,3.0256526,-2.645962,0.42201898,7.928095,10.487626,8.010376,-13.811717,58.432983,13.129798,4.3128924,15.57811,3.498956,-5.433768,12.925156,65.623924,-7.46535,3.6053045,-18.380438
45,-0.019071640446782112,2.171928644180298,78.0505599975586,-0.3049735533268308,-4.1834616827545625,-89.4002342800541,12.700214,3.4290102,10.437087,7.2403235,-16.994236,-4.5214233,13.172284,-3.5310636,-19.73337,7.07821,-14.114726,3.0203795,-2.6545687,0.42453846,7.9336333,10.49311,8.010205,-13.809096,58.432434,13.126004,4.3111916,15.585909,3.5003784,-5.4295034,12.919588,65.606064,-7.401685,3.5953598,-18.344378
46,-0.018274391070008278,2.1708152294158936,78.04898071289062,-0.3026739378785395,-4.197206009824022,-89.40313568629138,12.714718,3.4236634,10.398891,7.2415214,-16.987993,-4.514947,13.185652,-3.5307262,-19.719551,7.0800867,-14.127966,3.0138648,-2.652725,0.42129445,7.9485526,10.494454,8.010761,-13.814732,58.429996,13.120841,4.308827,15.597956,3.5006332,-5.4194274,12.905474,65.58164,-7.3293877,3.6014028,-18.291405
47,-0.016522370278835297,2.164957046508789,78.05084228515625,-0.3001823179886396,-4.20835497914625,-89.40627914873578,12.726526,3.4181826,10.361003,7.241802,-16.98054,-4.5107455,13.196232,-3.5298123,-19.704588,7.08076,-14.140792,3.0111372,-2.6496305,0.42063296,7.9601316,10.494606,8.011886,-13.823891,58.42869,13.111066,4.306191,15.605679,3.500036,-5.4127994,12.898465,65.5634,-7.260863,3.6096442,-18.244974
48,-0.013939039781689644,2.1627559661865234,78.04997253417969,-0.29784778497422687,-4.2121741547617715,-89.40753837775902,12.731647,3.4145777,10.3426485,7.2416162,-16.977644,-4.510003,13.199775,-3.5288086,-19.69493,7.0807247,-14.149946,3.0175865,-2.6374383,0.42026854,7.96359,10.489092,8.013469,-13.83811,58.43335,13.105289,4.3068914,15.612634,3.5060844,-5.4063735,12.891673,65.552376,-7.2124104,3.6090546,-18.22443
49,-0.01191338337957859,2.1604926586151123,78.05076599121094,-0.297332739134838,-4.203390662751174,-89.40411165406948,12.724768,3.4144514,10.354283,7.241034,-16.981785,-4.5150847,13.190688,-3.5269468,-19.694244,7.079718,-14.1540165,3.041038,-2.6241257,0.4218568,7.9560976,10.48608,8.014601,-13.843796,58.43429,13.115118,4.312274,15.612485,3.514215,-5.4015427,12.892203,65.555954,-7.1906,3.5912442,-18.24253
50,-0.012282468378543854,2.1579246520996094,78.05070495605469,-0.2968223406715188,-4.185985120167777,-89.39879970106689,12.7099285,3.4159758,10.3847475,7.239348,-16.989513,-4.524699,13.173134,-3.524392,-19.697649,7.076156,-14.153834,3.0765069,-2.6019256,0.4227163,7.936,10.4750185,8.01545,-13.850995,58.44694,13.133017,4.3217583,15.609309,3.53224,-5.395524,12.901253,65.569115,-7.1795454,3.5619116,-18.29234
51,-0.014968367293477058,2.155359983444214,78.04950714111328,-0.2968912314896342,-4.1688216259883655,-89.39351421984459,12.694755,3.41815,10.416992,7.2394333,-16.999151,-4.5344396,13.15523,-3.5224235,-19.702246,7.074823,-14.153878,3.1100023,-2.584788,0.42324933,7.9172544,10.469011,8.0157995,-13.853316,58.454647,13.14926,4.3298073,15.605398,3.5458112,-5.3885846,12.914251,65.58732,-7.183681,3.5367124,-18.342636
52,-0.016207287088036537,2.15370512008667,78.0488052368164,-0.29688803460514535,-4.160205727142169,-89.39110731796828,12.688021,3.4192724,10.435113,7.2392454,-17.0054,-4.5397906,13.146955,-3.521503,-19.704212,7.07409,-14.154663,3.1274176,-2.5756583,0.42443198,7.9079227,10.469477,8.015524,-13.852557,58.45666,13.153908,4.331584,15.602605,3.5533361,-5.3840203,12.922648,65.603134,-7.2013617,3.526595,-18.366526
53,-0.01159520260989666,2.1540050506591797,78.04524993896484,-0.2973931613805976,-4.165441542588999,-89.39386301689832,12.695166,3.4185798,10.431465,7.23954,-17.007774,-4.538616,13.153667,-3.5222945,-19.700182,7.073797,-14.157086,3.1238756,-2.573015,0.4255271,7.9138365,10.473935,8.0151825,-13.851575,58.455124,13.138564,4.323993,15.602188,3.5555625,-5.382737,12.923959,65.61418,-7.237892,3.5368805,-18.353802
54,-0.009440979920327663,2.1559743881225586,78.04025268554688,-0.29756154723112455,-4.181231027855147,-89.40038563939711,12.713762,3.4169085,10.416244,7.239008,-17.007683,-4.5337076,13.171664,-3.5243354,-19.692339,7.075176,-14.161524,3.1073174,-2.582547,0.42673847,7.9283643,10.495275,8.013105,-13.8451805,58.441357,13.107382,4.3090396,15.60414,3.5488021,-5.378798,12.920692,65.63054,-7.30793,3.5632231,-18.315908
55,-0.012300800532102585,2.154751777648926,78.04094696044922,-0.29901998366412985,-4.195695750183012,-89.40607212833544,12.729801,3.4159462,10.398611,7.24002,-17.007498,-4.5277486,13.188687,-3.5266562,-19.687134,7.0773525,-14.164607,3.0827754,-2.5905926,0.42841548,7.9429708,10.509955,8.010265,-13.839458,58.432907,13.079914,4.2942376,15.605657,3.5416617,-5.375643,12.9137745,65.64365,-7.3728065,3.5938344,-18.27405
56,-0.009109021164476871,2.152301073074341,78.04607391357422,-0.30139725935224027,-4.200204633871672,-89.40704042481156,12.735187,3.4167488,10.388547,7.240976,-17.008097,-4.523466,13.196311,-3.528005,-19.69023,7.0786734,-14.162629,3.0553734,-2.5945082,0.43197334,7.9477963,10.515802,8.008692,-13.838554,58.43072,13.067558,4.285574,15.603995,3.540594,-5.3743143,12.911348,65.649895,-7.407712,3.6179357,-18.244726
57,-0.008795907720923424,2.149714231491089,78.04986572265625,-0.3057807236406017,-4.188559533018913,-89.40036421678582,12.723322,3.4192321,10.385752,7.241484,-17.007767,-4.5144076,13.188737,-3.5287123,-19.707396,7.080624,-14.154403,3.0231118,-2.5993652,0.43783918,7.93395,10.5200615,8.005565,-13.842125,58.431774,13.078841,4.285241,15.60114,3.53939,-5.371294,12.909174,65.652756,-7.413826,3.6432269,-18.22638
58,-0.010633314028382301,2.1475448608398438,78.05017852783203,-0.30996519798014766,-4.16671933039766,-89.38910059161361,12.700428,3.4233003,10.3862505,7.241967,-17.006355,-4.5016756,13.171985,-3.5285923,-19.73372,7.081099,-14.140001,2.9843106,-2.601541,0.44483063,7.9094963,10.514001,8.003038,-13.852119,58.441765,13.10344,4.290432,15.595843,3.546298,-5.3676167,12.913283,65.64577,-7.3894777,3.6670294,-18.217484
59,-0.011411959305405617,2.1433582305908203,78.05189514160156,-0.3148879071552407,-4.144812660503937,-89.37691809323076,12.676801,3.4287915,10.392885,7.2433257,-17.007917,-4.498701,13.148151,-3.5309777,-19.760612,7.099298,-14.13516,2.9450815,-2.6033082,0.45145425,7.884663,10.508718,8.00141,-13.861255,58.45106,13.129578,4.296936,15.591437,3.5532804,-5.364149,12.918068,65.63855,-7.361261,3.6880126,-18.21338
60,-0.0068412721157073975,2.1403932571411133,78.0492935180664,-0.3198034539874862,-4.131967364276397,-89.36751865206887,12.663203,3.4357831,10.408743,7.24296,-17.013966,-4.5189705,13.132748,-3.5332196,-19.78031,7.118182,-14.13557,2.9112797,-2.6023693,0.45667922,7.865709,10.503824,7.999478,-13.868397,58.4644,13.141697,4.3007517,15.59328,3.5643928,-5.3602715,12.920555,65.6321,-7.348805,3.7042356,-18.214447
61,0.0005644434713758528,2.139031410217285,78.04806518554688,-0.326119029820018,-4.132657399302897,-89.360976847933,12.663676,3.4476905,10.445338,7.241221,-17.03055,-4.5854726,13.134741,-3.532035,-19.791267,7.129215,-14.139155,2.8820806,-2.6028028,0.4629368,7.8628373,10.508004,7.997471,-13.864964,58.4672,13.138129,4.300793,15.599896,3.5697467,-5.358165,12.917312,65.63242,-7.3646774,3.7127147,-18.217567
62,0.0013790354132652283,2.135730028152466,78.04607391357422,-0.3322542726436028,-4.1416641576590765,-89.35687563103399,12.673671,3.4627664,10.498982,7.2379937,-17.054909,-4.6847067,13.147225,-3.5292766,-19.796364,7.135641,-14.144074,2.8551784,-2.6023607,0.4695494,7.8665767,10.517604,7.9944715,-13.854095,58.467773,13.127749,4.298858,15.611387,3.5791337,-5.3568397,12.908965,65.63098,-7.4013634,3.7177951,-18.22504
63,-0.003022117307409644,2.135789155960083,78.04329681396484,-0.3369297641614403,-4.154563088140395,-89.354152825315,12.688005,3.474989,10.544746,7.234666,-17.076508,-4.774954,13.163982,-3.5277095,-19.798664,7.1407347,-14.1502075,2.8340979,-2.6026657,0.47448483,7.876471,10.52784,7.989389,-13.8349085,58.465206,13.121034,4.2961006,15.621021,3.5848136,-5.356208,12.896812,65.63106,-7.441811,3.7181563,-18.231972
64,-0.0014703527558594942,2.1344375610351562,78.04509735107422,-0.3387220147623237,-4.166152970940468,-89.35253360501838,12.700963,3.478536,10.559053,7.233156,-17.086006,-4.8146315,13.178323,-3.5299897,-19.800495,7.1462607,-14.15664,2.8223236,-2.6021562,0.47590125,7.8848195,10.5352125,7.986058,-13.822691,58.463158,13.112347,4.2935,15.626336,3.5867617,-5.3562856,12.890918,65.633316,-7.4597187,3.7146213,-18.236786
65,-0.0044407048262655735,2.1381380558013916,78.0428237915039,-0.33407580076929383,-4.1778417201489075,-89.35379225167802,12.715003,3.4684713,10.523406,7.23432,-17.077671,-4.7756224,13.188752,-3.540033,-19.801342,7.1598916,-14.166803,2.8187244,-2.6012459,0.47173163,7.8938355,10.540709,7.9807014,-13.811964,58.45913,13.103372,4.291141,15.626092,3.5855308,-5.3570766,12.890034,65.635445,-7.445113,3.6898634,-18.232979
66,-0.0064624822698533535,2.1356019973754883,78.04174041748047,-0.3268069991240055,-4.1912573619913225,-89.35744793362605,12.731344,3.4490702,10.4546,7.237484,-17.057903,-4.685795,13.198504,-3.5553634,-19.800323,7.1779656,-14.179851,2.8221793,-2.5989769,0.46381304,7.9038672,10.545048,7.97545,-13.806028,58.45471,13.089807,4.2887497,15.62363,3.5838428,-5.358601,12.8944025,65.63665,-7.4086213,3.649808,-18.224821
67,-0.0044656782411038876,2.1318864822387695,78.04261779785156,-0.31747442794228853,-4.202051807132147,-89.36058957926528,12.744305,3.428162,10.381849,7.2412715,-17.03526,-4.5873637,13.206299,-3.5697181,-19.798613,7.1913776,-14.1910095,2.8359683,-2.60093,0.45618632,7.9101887,10.551331,7.9680853,-13.800123,58.44917,13.080284,4.2874284,15.620007,3.5768423,-5.361829,12.906842,65.64386,-7.3691344,3.629474,-18.224365
68,0.0025845395866781473,2.1299943923950195,78.04390716552734,-0.3084855980766819,-4.207552885573069,-89.36163335667005,12.751415,3.41226,10.335662,7.2432375,-17.019064,-4.522483,13.214829,-3.577457,-19.796227,7.1855183,-14.192774,2.8635495,-2.599261,0.44913614,7.912251,10.553931,7.9636903,-13.799155,58.445927,13.081189,4.2875843,15.613883,3.5728498,-5.36408,12.914001,65.64788,-7.354257,3.66547,-18.241074
69,0.004597449209541082,2.129603624343872,78.04438781738281,-0.30279378633262516,-4.202954677486105,-89.35796988328889,12.747142,3.404272,10.328627,7.243017,-17.012016,-4.5063066,13.223141,-3.5741932,-19.794586,7.1497135,-14.181007,2.9175873,-2.5996108,0.44585806,7.9044223,10.555571,7.958047,-13.801448,58.443985,13.104789,4.291987,15.605756,3.5635839,-5.366782,12.925082,65.657715,-7.3812466,3.814274,-18.29117
70,0.0033391304314136505,2.128106117248535,78.04446411132812,-0.2958607838662037,-4.191498241730782,-89.3517655978959,12.735208,3.3992634,10.343437,7.2419295,-17.009903,-4.5149994,13.230517,-3.5649455,-19.79272,7.093074,-14.1592245,2.9924884,-2.5979002,0.44209543,7.890589,10.553736,7.955559,-13.807231,58.44394,13.144164,4.298523,15.593473,3.551641,-5.3675566,12.933584,65.67052,-7.436918,4.040149,-18.362892
71,-0.0006248766439966857,2.1234936714172363,78.04719543457031,-0.2909274585953527,-4.180174825511627,-89.34568958329474,12.723189,3.3965037,10.36333,7.2399745,-17.00869,-4.53237,13.2191105,-3.5607326,-19.788353,7.0784388,-14.158976,3.0638444,-2.597149,0.43947333,7.876462,10.55396,7.9530582,-13.8146105,58.44261,13.17782,4.304538,15.582666,3.5418882,-5.36752,12.941653,65.68146,-7.482375,4.243968,-18.432566
72,-0.0012518216390162706,2.125624895095825,78.04557800292969,-0.28754737218120885,-4.175691412783357,-89.34253389704524,12.717865,3.394285,10.371453,7.239365,-17.006758,-4.5420933,13.210833,-3.5581908,-19.781857,7.075847,-14.16181,3.1069088,-2.5986586,0.43705297,7.8679643,10.559034,7.9508624,-13.817005,58.438663,13.187173,4.306101,15.576172,3.539125,-5.367173,12.9430895,65.68667,-7.4839916,4.3248954,-18.474802
73,-0.003240997903048992,2.1254937648773193,78.04383850097656,-0.28762333318271827,-4.182800697987811,-89.34413567189466,12.724016,3.3924344,10.36023,7.2395244,-17.002398,-4.5399976,13.215729,-3.5567496,-19.772102,7.0761623,-14.162947,3.107753,-2.6057754,0.4354783,7.868679,10.571896,7.9473395,-13.8109665,58.431557,13.154146,4.2984443,15.576234,3.5493639,-5.366937,12.934776,65.67878,-7.3992953,4.1838727,-18.466745
74,0.0020468549337238073,2.125431537628174,78.0457763671875,-0.2896211502357559,-4.196923686785532,-89.34883285761785,12.738121,3.391126,10.339811,7.2393494,-16.997517,-4.534585,13.228996,-3.5550914,-19.759787,7.0772004,-14.16259,3.081903,-2.6167054,0.43576333,7.87615,10.59281,7.9412827,-13.79321,58.41819,13.102289,4.285067,15.579183,3.566644,-5.3676996,12.912043,65.666336,-7.265084,3.8928661,-18.424938
75,0.005855266470462084,2.126875400543213,78.04681396484375,-0.2927142738129103,-4.210893260889552,-89.35341244486139,12.750829,3.3916597,10.319391,7.2400804,-16.992289,-4.5291324,13.240812,-3.5519829,-19.747639,7.0793405,-14.158925,3.0489526,-2.6265936,0.4373089,7.8851013,10.60919,7.936887,-13.778306,58.407833,13.048122,4.2727337,15.581967,3.5828178,-5.368442,12.893762,65.65273,-7.1433086,3.626798,-18.386782
76,0.007228827103972435,2.130053758621216,78.0483627319336,-0.29753707141685604,-4.2174967312367615,-89.35476796076495,12.7547865,3.394356,10.308436,7.240494,-16.985882,-4.5266423,13.242876,-3.546083,-19.738352,7.080572,-14.149427,3.028532,-2.6305528,0.4414064,7.8920093,10.615345,7.931939,-13.768496,58.401447,13.02217,4.269378,15.58026,3.5876846,-5.369345,12.882361,65.646935,-7.1094384,3.552665,-18.389702
77,0.00658239284530282,2.13566255569458,78.04850006103516,-0.3022577303234505,-4.21297836867668,-89.35095797003267,12.746757,3.3982937,10.3098545,7.2407446,-16.976654,-4.514207,13.230716,-3.53698,-19.732824,7.0791917,-14.13376,3.029814,-2.6253273,0.44919586,7.895985,10.605663,7.9273963,-13.764845,58.401237,13.043761,4.279597,15.571145,3.5754468,-5.3693075,12.880658,65.65302,-7.218813,3.779255,-18.458523
78,0.004843153990805149,2.136239767074585,78.05386352539062,-0.30745668794931263,-4.202056722050344,-89.34393535469523,12.731458,3.4033115,10.318455,7.241009,-16.965296,-4.4947805,13.209632,-3.5254672,-19.729712,7.0787015,-14.114988,3.041031,-2.6139126,0.45737436,7.895839,10.587374,7.924842,-13.768784,58.40632,13.088561,4.2988987,15.559264,3.5538995,-5.368497,12.889356,65.66908,-7.414512,4.193977,-18.569567
79,0.008294602856040001,2.1362948417663574,78.06150817871094,-0.31428899914137726,-4.188941396950048,-89.3368169527951,12.712069,3.412136,10.331592,7.2411075,-16.955378,-4.495296,13.185562,-3.5115504,-19.727749,7.076422,-14.088272,3.0502894,-2.603501,0.46866748,7.8969474,10.565155,7.9215264,-13.776496,58.411896,13.13577,4.3204885,15.547721,3.5274498,-5.3659587,12.90611,65.685814,-7.617725,4.639669,-18.684412
80,0.005154092330485582,2.1446733474731445,78.06424713134766,-0.32634917701185834,-4.179188648116273,-89.33260199634394,12.693931,3.4268525,10.346515,7.239114,-16.949785,-4.542582,13.16394,-3.4959722,-19.725773,7.0743685,-14.052152,3.0457537,-2.6036234,0.4814594,7.8956523,10.545188,7.910124,-13.779409,58.42441,13.16754,4.3379126,15.5441675,3.4960244,-5.355572,12.932007,65.71608,-7.7471657,4.946128,-18.769949
81,0.015399879775941372,2.1474645137786865,78.0735855102539,-0.3406351193321941,-4.175407635864356,-89.33284167074062,12.678536,3.4501147,10.363663,7.2352557,-16.95569,-4.66943,13.148841,-3.47926,-19.723822,7.073194,-14.007763,3.0149517,-2.6006176,0.5002387,7.904265,10.533075,7.9038815,-13.777495,58.422626,13.18617,4.347324,15.534194,3.4736938,-5.3514347,12.935822,65.739265,-7.797196,5.0903144,-18.808792
82,0.02028805948793888,2.1621549129486084,78.07610321044922,-0.36162100984197887,-4.174405503945832,-89.33545307855795,12.6638365,3.4801404,10.384063,7.2292223,-16.968842,-4.853126,13.136256,-3.4607694,-19.722593,7.072542,-13.955893,2.9671688,-2.59823,0.5244304,7.917263,10.522203,7.8969183,-13.773615,58.417572,13.198445,4.353714,15.523703,3.4518704,-5.349103,12.933523,65.76431,-7.8033104,5.1550746,-18.826576
83,0.021403461694717407,2.178579092025757,78.0823974609375,-0.382516293364957,-4.172640218739469,-89.33913895284383,12.646334,3.5122473,10.406406,7.2223234,-16.97613,-5.036618,13.120295,-3.4401712,-19.72089,7.0701933,-13.892701,2.923647,-2.5990026,0.5508292,7.9310255,10.508234,7.888331,-13.77002,58.415005,13.205019,4.3571563,15.51439,3.4266407,-5.3488803,12.9274645,65.78915,-7.7797318,5.1220613,-18.813078
84,0.018018290400505066,2.1899006366729736,78.0964584350586,-0.40547604944738336,-4.166118680305737,-89.34243452207414,12.621264,3.541747,10.429295,7.2177806,-16.965855,-5.1629343,13.092491,-3.4176753,-19.717018,7.068125,-13.816148,2.9055076,-2.605226,0.57680595,7.9438863,10.491776,7.87854,-13.770973,58.411427,13.20556,4.359465,15.509098,3.403208,-5.351943,12.921238,65.79814,-7.7401986,4.975251,-18.7596
85,0.021027006208896637,2.207042932510376,78.1110610961914,-0.42419249763932815,-4.153163796885097,-89.34548675528202,12.58906,3.5650084,10.45531,7.2151794,-16.93785,-5.2107577,13.052322,-3.3947911,-19.71097,7.0631075,-13.726851,2.9290104,-2.6225274,0.59419227,7.9509664,10.477833,7.874343,-13.774832,58.40698,13.191163,4.3590655,15.507522,3.3842156,-5.3557653,12.915848,65.787766,-7.663698,4.6257157,-18.634346
86,0.020849382504820824,2.230201482772827,78.12596893310547,-0.4428719800215042,-4.136063022202424,-89.3485033895177,12.550926,3.5853472,10.483838,7.2140627,-16.897606,-5.212618,13.00275,-3.3712354,-19.703629,7.057789,-13.626901,2.9793243,-2.6472719,0.61063266,7.956516,10.4648075,7.8697634,-13.782339,58.400116,13.165089,4.3563547,15.508835,3.3671546,-5.364868,12.906435,65.76274,-7.550333,4.1106896,-18.450039
87,0.024317847564816475,2.2586350440979004,78.13861083984375,-0.46576007285430626,-4.117311404881877,-89.35160826966454,12.507447,3.6087348,10.510035,7.213268,-16.841257,-5.1922584,12.946682,-3.3423893,-19.694141,7.0505886,-13.509734,3.030745,-2.6657119,0.63567597,7.967437,10.4406395,7.8648763,-13.802264,58.394302,13.138419,4.3521595,15.510392,3.347523,-5.383542,12.894445,65.73041,-7.441739,3.6004243,-18.263548
88,0.025333361700177193,2.2855937480926514,78.1582260131836,-0.4942166040433616,-4.098851227173457,-89.35437490326552,12.457771,3.639095,10.528411,7.212273,-16.765053,-5.1728497,12.884391,-3.306611,-19.682425,7.044664,-13.3711605,3.0580773,-2.6782727,0.6679777,7.986253,10.410951,7.861324,-13.828331,58.380047,13.127344,4.3492594,15.512185,3.3210976,-5.404257,12.89982,65.699684,-7.379774,3.2680273,-18.141912
89,0.0205687265843153,2.3220083713531494,78.18754577636719,-0.5303075386549092,-4.077387984268713,-89.35201179844195,12.39729,3.6795235,10.530183,7.2119503,-16.668503,-5.1561623,12.813865,-3.2598798,-19.670004,7.039543,-13.214179,3.0480523,-2.6846552,0.7054521,8.009309,10.369495,7.8600874,-13.8583,58.362766,13.139352,4.3482423,15.512433,3.2774162,-5.4176207,12.925233,65.683586,-7.394856,3.2047863,-18.116522
90,0.01437246985733509,2.356588125228882,78.21782684326172,-0.57111099027006,-4.052919059345021,-89.34614703147571,12.327682,3.7268622,10.5205145,7.2115736,-16.55258,-5.1311965,12.734894,-3.2048886,-19.656727,7.03529,-13.040433,3.0164232,-2.68847,0.7495046,8.033073,10.321872,7.8603044,-13.898584,58.34227,13.159668,4.3483496,15.513934,3.2244127,-5.4299903,12.971756,65.67374,-7.451641,3.3036757,-18.149807
91,0.015657931566238403,2.3915212154388428,78.25374603271484,-0.6162020780203685,-4.033050634174516,-89.34632360609805,12.258265,3.7776377,10.515315,7.210784,-16.419039,-5.1026015,12.644426,-3.1503377,-19.63917,7.0509143,-12.851874,2.9810584,-2.6885126,0.79556787,8.071518,10.269148,7.861606,-13.9332,58.31448,13.196208,4.347994,15.51644,3.155801,-5.437207,13.020129,65.67296,-7.5258245,3.4375906,-18.2042
92,0.03098643198609352,2.444031000137329,78.29393768310547,-0.6656290029197204,-4.024699595650423,-89.36182215782505,12.197002,3.8293757,10.529946,7.209261,-16.268385,-5.074766,12.544964,-3.1019518,-19.614107,7.090943,-12.642624,2.9596448,-2.6924431,0.84678817,8.128632,10.230193,7.8634357,-13.968254,58.26589,13.226207,4.3477645,15.527984,3.078457,-5.446505,13.09288,65.675354,-7.552601,3.481221,-18.24857
93,0.03863944858312607,2.5022988319396973,78.3437271118164,-0.7230612806899024,-4.034536598509376,-89.39480043825382,12.15237,3.887813,10.572417,7.207411,-16.104935,-5.04685,12.4523535,-3.0512607,-19.585466,7.1344805,-12.389585,2.9556682,-2.6849444,0.9067302,8.22225,10.186232,7.8638396,-13.990144,58.205803,13.280259,4.3458242,15.548395,2.9950476,-5.451598,13.139539,65.67602,-7.558106,3.3902333,-18.267462
94,0.049530670046806335,2.563709259033203,78.39261627197266,-0.7898060761381388,-4.057196147829887,-89.43972141674811,12.117,3.9528313,10.632612,7.205605,-15.9266615,-5.0167637,12.362354,-2.9973676,-19.553741,7.1817155,-12.10086,2.9601035,-2.6948092,0.97837245,8.3363495,10.161576,7.86205,-14.008197,58.120506,13.328077,4.3444824,15.582721,2.8891962,-5.46587,13.232435,65.69529,-7.513592,3.2357798,-18.288704
95,0.07029581815004349,2.640073776245117,78.44483184814453,-0.8502749926611157,-4.082607379177476,-89.49716768082646,12.078912,4.0102844,10.701632,7.2036448,-15.727465,-4.9860244,12.2614,-2.9540448,-19.509478,7.2381754,-11.79998,2.971925,-2.7071621,1.0510257,8.4628105,10.14153,7.8549843,-14.012191,58.01962,13.383669,4.340953,15.608098,2.7815118,-5.4919863,13.3408575,65.69868,-7.4595256,3.062354,-18.303934
96,0.09831227362155914,2.7296879291534424,78.50299835205078,-0.8952449139517122,-4.101373182039221,-89.5667578085542,12.02699,4.04612,10.76908,7.1993666,-15.499641,-4.9595084,12.140583,-2.9332678,-19.444466,7.3013744,-11.506952,2.990338,-2.7079346,1.1132222,8.585216,10.11541,7.8448467,-14.025743,57.915474,13.426773,4.3359594,15.615306,2.6656377,-5.523895,13.45645,65.69226,-7.406946,2.912401,-18.31768
97,0.12630729377269745,2.8179538249969482,78.56627655029297,-0.9145807613009017,-4.108515585358932,-89.65088327493838,11.940224,4.053382,10.831576,7.224617,-15.2523155,-4.940174,11.991732,-2.9456675,-19.35221,7.3779006,-11.234836,3.0165799,-2.6894183,1.1562668,8.695809,10.08291,7.8356586,-14.051597,57.806934,13.447135,4.329742,15.593813,2.5386438,-5.554305,13.581145,65.68925,-7.3411636,2.7843351,-18.328653
98,0.1515902429819107,2.91664719581604,78.62779235839844,-0.918795715361396,-4.109598171928903,-89.74882237797708,11.822209,4.0422835,10.894054,7.286921,-14.99508,-4.925378,11.821664,-2.9819307,-19.238997,7.4655013,-10.969894,3.0510905,-2.6696513,1.1912382,8.803934,10.057079,7.822547,-14.074199,57.68228,13.453823,4.321815,15.551237,2.4045186,-5.5990863,13.735817,65.68028,-7.2515182,2.6601765,-18.335001
99,0.17737224698066711,3.022655963897705,78.6939926147461,-0.9181968827656022,-4.111557755914668,-89.85593087100166,11.697714,4.0255046,10.959475,7.352513,-14.723143,-4.906713,11.640064,-3.025713,-19.112299,7.559735,-10.697529,3.0887783,-2.650474,1.2254395,8.918728,10.0317545,7.808299,-14.10336,57.549408,13.459099,4.3123875,15.505551,2.2656999,-5.65096,13.902672,65.64674,-7.176883,2.5569456,-18.343187
100,0.2155885547399521,3.137101888656616,78.76183319091797,-0.9256323075141863,-4.121260969615306,-89.9675646794501,11.569596,4.0193624,11.029284,7.4340315,-14.456499,-4.8759274,11.456297,-3.061517,-18.979767,7.6563563,-10.403149,3.1243112,-2.6341991,1.2616746,9.047484,10.00282,7.7994857,-14.149199,57.41592,13.474002,4.3018503,15.474971,2.120908,-5.6918383,14.065912,65.576454,-7.155929,2.491344,-18.363039
101,0.24877715110778809,3.260228157043457,78.83092498779297,-0.9432936016294025,-4.138533185659839,-90.07727377265324,11.430736,4.0274544,11.097248,7.5446067,-14.201585,-4.819785,11.269839,-3.0879686,-18.848663,7.759705,-10.088004,3.1553013,-2.6396885,1.3025992,9.190563,9.984494,7.794847,-14.206286,57.269306,13.49755,4.289064,15.466741,1.9718049,-5.733729,14.249387,65.45753,-7.1805167,2.473101,-18.402794
102,0.2830677330493927,3.392106771469116,78.89856719970703,-0.9642639420553767,-4.160197014238044,-90.18921958492328,11.2826395,4.0418663,11.164887,7.6738377,-13.947492,-4.746445,11.076992,-3.111978,-18.713306,7.8693967,-9.757771,3.1842086,-2.6665275,1.3491046,9.346963,9.983223,7.7938566,-14.267421,57.09849,13.523525,4.2735205,15.467145,1.8255153,-5.7908683,14.464917,65.28623,-7.228582,2.4920447,-18.451946
103,0.3253128230571747,3.537745475769043,78.96825408935547,-0.9918196229060111,-4.188803091927667,-90.31418960573448,11.137604,4.06209,11.24484,7.8020263,-13.688242,-4.680609,10.876874,-3.132318,-18.561544,7.985977,-9.410602,3.2126403,-2.681311,1.393835,9.515903,9.969376,7.7982974,-14.342381,56.934547,13.559651,4.258548,15.470415,1.6729808,-5.832002,14.663964,65.089554,-7.3293204,2.5365736,-18.5011
104,0.3626551330089569,3.684845209121704,79.04267120361328,-1.024243689512662,-4.226808664472798,-90.46303399105064,11.010496,4.0876045,11.349577,7.9056864,-13.416265,-4.6463,10.670503,-3.1462824,-18.381409,8.103731,-9.041155,3.2423725,-2.6880734,1.441106,9.703239,9.951901,7.806278,-14.411041,56.766266,13.61239,4.2451634,15.462116,1.5216562,-5.869879,14.861451,64.86184,-7.4786983,2.5932734,-18.531887
105,0.4070378243923187,3.839033365249634,79.12080383300781,-1.0626039723389529,-4.280968874971889,-90.64527022673849,10.912852,4.1201906,11.4909,7.979498,-13.126129,-4.6572056,10.4592495,-3.1548405,-18.161783,8.23249,-8.647902,3.2753239,-2.6846845,1.4953437,9.917131,9.94348,7.8188815,-14.464003,56.57589,13.689395,4.2316947,15.431347,1.3756449,-5.924824,15.091227,64.5912,-7.6747212,2.691464,-18.528881
106,0.4636853039264679,4.010678291320801,79.19378662109375,-1.104858853579174,-4.348006933762638,-90.85326953974422,10.834595,4.1582165,11.65929,8.035342,-12.822853,-4.697607,10.242361,-3.1602619,-17.911531,8.370871,-8.233222,3.3094878,-2.6694317,1.5565462,10.152989,9.932818,7.832449,-14.5127325,56.376846,13.786632,4.2176027,15.386916,1.2325623,-5.989401,15.332006,64.28167,-7.921507,2.8257449,-18.502024
107,0.5148497223854065,4.18337869644165,79.26235961914062,-1.1332081986439473,-4.408790523367402,-91.0799591143417,10.757251,4.1770306,11.84355,8.061901,-12.506845,-4.744754,9.876909,-3.223099,-17.632725,8.792152,-7.9517117,3.34395,-2.6476424,1.6015973,10.389661,9.907478,7.844162,-14.564595,56.191547,13.889574,4.2065873,15.346254,1.0963248,-6.0420146,15.541427,63.934166,-8.209995,2.94102,-18.47484
108,0.5748656392097473,4.374172687530518,79.32499694824219,-1.131067782883619,-4.445858273418406,-91.31489822509175,10.661015,4.155591,12.028938,8.055186,-12.183186,-4.7756834,9.280138,-3.3792138,-17.333336,9.638724,-7.888984,3.37706,-2.6645455,1.6194702,10.6229,9.907485,7.8635364,-14.597858,55.97281,13.978423,4.1995697,15.308662,1.0101205,-6.121863,15.740355,63.472214,-8.495352,2.988479,-18.454062
109,0.6268094182014465,4.573519229888916,79.38607788085938,-1.1184405112807003,-4.464981826117251,-91.54028339428409,10.533727,4.118509,12.1957855,8.047234,-11.862899,-4.78115,8.63632,-3.5492122,-17.040068,10.521941,-7.847531,3.3986015,-2.7042594,1.61791,10.845305,9.884005,7.8794494,-14.635143,55.783978,14.05598,4.2013264,15.293059,0.9436392,-6.1672063,15.854397,62.9585,-8.836001,2.929476,-18.461792
110,0.6610318422317505,4.797615051269531,79.4414291381836,-1.0989723151394672,-4.473964788826111,-91.76412009248378,10.389527,4.0700293,12.354967,8.032133,-11.542403,-4.774182,7.963382,-3.7257693,-16.744308,11.419092,-7.8118677,3.4109852,-2.772289,1.601782,11.069618,9.85975,7.8993506,-14.663387,55.594017,14.1279,4.20866,15.28616,0.8991146,-6.202662,15.930286,62.379787,-9.215439,2.8006437,-18.483763
111,0.7233810424804688,5.009265422821045,79.49422454833984,-1.0767390893253022,-4.477619492416492,-91.99463845824552,10.240777,4.015791,12.515512,8.0004225,-11.228977,-4.7721434,7.263339,-3.9022627,-16.438553,12.333927,-7.7758064,3.4230301,-2.8573608,1.5780199,11.299039,9.827104,7.919422,-14.696635,55.418053,14.193739,4.219017,15.288524,0.86575943,-6.2249913,15.972968,61.751976,-9.588947,2.6539404,-18.516472
112,0.8356675505638123,5.244428634643555,79.55003356933594,-1.0626668639977161,-4.480984123440278,-92.23870641870998,10.099659,3.9674134,12.685003,7.944119,-10.93041,-4.7915926,6.541175,-4.0653853,-16.117933,13.26549,-7.7333283,3.4436033,-2.9477394,1.5602169,11.543,9.783079,7.945744,-14.753894,55.2582,14.246411,4.22842,15.295825,0.84362966,-6.2427173,15.9891405,61.0715,-9.905954,2.5406528,-18.550266
113,0.9367210865020752,5.491875648498535,79.58776092529297,-1.087118630796445,-4.4807443528923425,-92.4874999946335,9.733174,4.0144544,12.833499,8.368997,-10.92969,-4.847852,5.8071465,-4.184005,-15.798293,14.196338,-7.6835217,3.473349,-3.0431266,1.5771093,11.789249,9.729329,7.972134,-14.829614,55.134216,14.299256,4.233549,15.310785,0.8459205,-6.251315,15.95883,60.296703,-10.174625,2.5034611,-18.578112
114,1.0139544010162354,5.750932693481445,79.60044860839844,-1.1252594942590053,-4.481258030119879,-92.74534566396618,9.306433,4.0963235,12.977386,8.925173,-11.03272,-4.9251084,5.0629635,-4.282001,-15.472612,15.130323,-7.6286864,3.507958,-3.1351168,1.6076335,12.043525,9.660776,8.001181,-14.929141,55.042103,14.346844,4.2370462,15.334201,0.8738799,-6.2495117,15.874158,59.437164,-10.416628,2.5045753,-18.604229
115,1.0915069580078125,6.01879358291626,79.6062240600586,-1.1702601658789806,-4.478247776600976,-93.0129729442375,8.8075485,4.199996,13.125368,9.60698,-11.202065,-5.00305,4.2700915,-4.3723865,-15.130644,16.119583,-7.5780773,3.5414736,-3.2307947,1.6397249,12.31685,9.564174,8.041224,-15.077577,54.959595,14.362487,4.246801,15.3663,0.8891947,-6.2350016,15.761809,58.597733,-10.609336,2.475972,-18.643888
116,1.180090308189392,6.286504745483398,79.60652160644531,-1.2172196529619694,-4.465985046273512,-93.2893324419326,8.189168,4.325214,13.281675,10.483236,-11.443147,-5.0609765,3.3880906,-4.463243,-14.763776,17.218561,-7.54178,3.5671124,-3.360075,1.6654491,12.620489,9.438582,8.094086,-15.276105,54.855755,14.325544,4.2690296,15.403962,0.8495929,-6.21333,15.677604,57.882435,-10.720082,2.3507237,-18.713724
117,1.2738327980041504,6.5930938720703125,79.59581756591797,-1.2665540828293318,-4.432423247204496,-93.57329801421392,7.4239373,4.477756,13.441505,11.574879,-11.770979,-5.100704,2.400977,-4.55412,-14.369976,18.4252,-7.5222397,3.5810518,-3.514513,1.6787925,12.950034,9.291163,8.194009,-15.579712,54.69384,14.1671715,4.3122344,15.452558,0.7512396,-6.180853,15.615808,57.304123,-10.752046,2.0867498,-18.819386
118,1.3695340156555176,6.918374538421631,79.57659912109375,-1.3213391884494832,-4.385848450531602,-93.86635000470076,6.5455337,4.6590447,13.603247,12.843312,-12.180274,-5.1246157,1.3276293,-4.6430736,-13.95238,19.729128,-7.519139,3.5853748,-3.7030056,1.6821257,13.305281,9.133349,8.324632,-15.945787,54.48883,13.925594,4.3691173,15.507845,0.6088523,-6.1422806,15.57996,56.812237,-10.710785,1.7284455,-18.951357
119,1.4965534210205078,7.272620677947998,79.53802490234375,-1.376228156986784,-4.3509871313890764,-94.17043008067662,5.5821676,4.8697414,13.77298,14.300541,-12.6577835,-5.113799,0.19776067,-4.7291183,-13.51257,21.134508,-7.5287848,3.5826871,-3.8999712,1.6759756,13.70647,8.950009,8.469337,-16.33167,54.27902,13.70214,4.4263463,15.551295,0.446291,-6.099483,15.541638,56.3848,-10.591432,1.3333445,-19.093435
120,1.616881251335144,7.637540817260742,79.4921646118164,-1.4324349711682374,-4.351557643812391,-94.48670416766647,4.565482,5.110546,13.956549,15.949104,-13.185027,-5.0518603,-0.9517816,-4.8071585,-13.053807,22.62643,-7.5415263,3.5766063,-4.0765758,1.6568737,14.174904,8.7344265,8.627368,-16.698072,54.08934,13.59396,4.4709945,15.561166,0.2894727,-6.048173,15.4681835,55.995834,-10.390044,0.95853686,-19.228058
121,1.7105460166931152,7.999000549316406,79.41885375976562,-1.500254132589152,-4.39631900340451,-94.80058028677865,3.4903576,5.394546,14.135197,17.823658,-13.785281,-4.9396906,-2.1006932,-4.867031,-12.589961,24.197956,-7.5690126,3.570564,-4.2494516,1.6367011,14.72252,8.478978,8.778884,-17.014284,53.95022,13.651254,4.493953,15.536996,0.14976917,-5.9863997,15.3381605,55.628635,-10.04652,0.5797932,-19.336851
122,1.8312642574310303,8.378808975219727,79.32389831542969,-1.5786007466757337,-4.470861451394113,-95.11596651117657,2.347735,5.7219152,14.3088875,19.90339,-14.455997,-4.783184,-3.2712445,-4.911035,-12.116578,25.85375,-7.611011,3.5615287,-4.425274,1.6169623,15.33264,8.183773,8.92314,-17.310017,53.850567,13.815813,4.5043235,15.491213,0.009394722,-5.9148426,15.170668,55.305832,-9.584229,0.17937176,-19.433031
123,1.9656099081039429,8.770440101623535,79.21387481689453,-1.6491162990661405,-4.563829314452151,-95.46172231484547,1.1645262,6.072761,14.513197,22.1045,-15.139889,-4.5762243,-4.5068655,-4.9539347,-11.608023,27.630491,-7.6454625,3.546149,-4.5788655,1.5858291,15.981258,7.851553,9.06701,-17.615461,53.763073,14.031357,4.515528,15.422486,-0.15564212,-5.842663,15.014711,55.066593,-9.120463,-0.17462464,-19.550522
124,2.1083433628082275,9.174358367919922,79.08663940429688,-1.6943141431448583,-4.664102643900217,-95.86679327254848,-0.031483967,6.427235,14.785027,24.345339,-15.77942,-4.31285,-5.8455915,-5.0062056,-11.039199,29.552803,-7.645167,3.5235338,-4.6853623,1.5332826,16.646345,7.488712,9.220314,-17.960636,53.65402,14.2411,4.5407495,15.328025,-0.36518288,-5.781589,14.920546,54.943233,-8.770107,-0.41411728,-19.7244
125,2.2547152042388916,9.593109130859375,78.93283081054688,-1.7067706202777377,-4.774692028989215,-96.34025184353763,-1.2784681,6.7821016,15.119468,26.706888,-16.358913,-3.976797,-7.30196,-5.0713387,-10.402369,31.65701,-7.623512,3.510324,-4.7375684,1.4576737,17.34409,7.0945916,9.387724,-18.36433,53.5165,14.422169,4.5790377,15.192505,-0.63757366,-5.735139,14.900158,54.962692,-8.579443,-0.4577077,-19.998833
126,2.395271062850952,10.02029800415039,78.75038146972656,-1.6989089196980502,-4.898979790115337,-96.8662415104664,-2.563693,7.1490383,15.502654,29.178867,-16.90144,-3.57589,-8.84712,-5.13159,-9.713369,33.90327,-7.5789404,3.5082393,-4.7483606,1.367908,18.080479,6.6719575,9.567851,-18.810064,53.359493,14.605501,4.6242566,15.019792,-0.9526377,-5.7018123,14.927914,55.09409,-8.4791155,-0.36267728,-20.343203
127,2.5477142333984375,10.454113960266113,78.54231262207031,-1.6760761686808732,-5.0253397044576955,-97.43650641408558,-3.8154511,7.5380926,15.957413,31.613546,-17.437574,-3.145002,-10.478463,-5.1685514,-8.980794,36.25094,-7.481449,3.4977052,-4.723072,1.2697786,18.818506,6.2311826,9.761069,-19.27405,53.1721,14.814212,4.6824045,14.835409,-1.2726934,-5.6861444,15.000558,55.281864,-8.408171,-0.26878285,-20.680128
128,2.7188565731048584,10.885995864868164,78.31694793701172,-1.649746772718514,-5.142503842335746,-98.04248397120176,-4.9578953,7.954216,16.5061,33.852306,-17.99557,-2.721125,-12.188412,-5.1641526,-8.213661,38.65124,-7.295232,3.4614248,-4.6680007,1.1686617,19.522495,5.7827744,9.968677,-19.730822,52.94101,15.071713,4.7591953,14.664094,-1.55692,-5.6957645,15.114747,55.46504,-8.307362,-0.3163304,-20.93044
129,2.8811893463134766,11.331107139587402,78.0645980834961,-1.6165895262242027,-5.2408425706563175,-98.69521910062359,-5.9859757,8.407024,17.200203,35.87401,-18.567087,-2.3015697,-14.021828,-5.1144905,-7.4242487,41.15872,-6.994232,3.3604956,-4.5740123,1.0649239,20.191982,5.314339,10.1940365,-20.191841,52.663166,15.401069,4.8747153,14.507203,-1.8044106,-5.742738,15.291493,55.633198,-8.136167,-0.6069578,-21.067492
130,3.057603359222412,11.766989707946777,77.79164123535156,-1.5765489150765912,-5.3284597620939795,-99.39478811986113,-6.9321675,8.889486,18.012136,37.758163,-19.140184,-1.8766131,-15.959685,-5.0161767,-6.608339,43.763206,-6.591383,3.2335985,-4.4419956,0.96084344,20.846092,4.8272104,10.43614,-20.664732,52.337883,15.783909,5.0190387,14.350915,-2.027164,-5.8274965,15.526759,55.805595,-7.9315515,-1.0442171,-21.131237
131,3.2273542881011963,12.199165344238281,77.5000991821289,-1.527229441669511,-5.419365133032007,-100.11657506070858,-7.7859397,9.379532,18.849844,39.51257,-19.74652,-1.475981,-17.90982,-4.8560123,-5.7511387,46.345375,-6.127846,3.174475,-4.2928414,0.86008686,21.476482,4.348679,10.689532,-21.116526,51.961548,16.181343,5.1534967,14.199334,-2.2112107,-5.9390416,15.778448,55.975834,-7.7542205,-1.4710308,-21.146584
132,3.4003708362579346,12.632518768310547,77.19194030761719,-1.4705449584825239,-5.5282999911559285,-100.83573916462697,-8.54133,9.853442,19.62119,41.14707,-20.419374,-1.1271448,-19.782694,-4.6239443,-4.835074,48.793266,-5.651777,3.270759,-4.147666,0.7635341,22.072699,3.9040787,10.947649,-21.511873,51.53585,16.556196,5.2398944,14.058628,-2.3466673,-6.0609393,16.004385,56.14463,-7.666689,-1.7305143,-21.142351
133,3.568455696105957,13.04927921295166,76.86150360107422,-1.399833497724172,-5.65560358854173,-101.57990881701723,-9.165518,10.300219,20.331549,42.61643,-21.1889,-0.8598151,-21.604845,-4.3045387,-3.8360982,51.119522,-5.1573153,3.496354,-3.9898577,0.66340405,22.63487,3.4897866,11.210416,-21.850832,51.069702,16.908384,5.249751,13.919784,-2.4557407,-6.1811047,16.206013,56.34931,-7.719423,-1.7495769,-21.139828
134,3.736706018447876,13.456928253173828,76.51631164550781,-1.3165099332592263,-5.794499598882136,-102.35092017690819,-9.678152,10.728234,21.020842,43.93684,-22.030079,-0.6545747,-23.405142,-3.8979268,-2.7706032,53.376633,-4.631888,3.8306653,-3.8154156,0.55882555,23.164927,3.091596,11.480761,-22.145813,50.567528,17.255962,5.2100635,13.785955,-2.5437295,-6.298885,16.400202,56.59066,-7.8716006,-1.6224412,-21.123056
135,3.902252435684204,13.858874320983887,76.1552734375,-1.2337861814570332,-5.947216189907188,-103.08658483283305,-10.148079,11.14291,21.651423,45.198963,-22.889164,-0.46876252,-25.100939,-3.425393,-1.6797079,55.525036,-4.125423,4.3578105,-3.6647089,0.4601749,23.654526,2.71832,11.755812,-22.380428,50.024456,17.588394,5.1664634,13.681751,-2.5749893,-6.4184294,16.567448,56.813305,-8.049357,-1.4430236,-21.066187
136,4.062859535217285,14.2545804977417,75.78618621826172,-1.1673233766869044,-6.116691677529336,-103.7241740240897,-10.646171,11.548897,22.178864,46.49263,-23.711746,-0.25513923,-26.611303,-2.9130177,-0.60151005,57.524956,-3.693594,5.1586885,-3.5783303,0.37954542,24.094862,2.3775702,12.028674,-22.539045,49.438164,17.895851,5.164754,13.631845,-2.5113595,-6.5462966,16.68687,56.9595,-8.179551,-1.3053701,-20.943115
137,4.209331035614014,14.643603324890137,75.41543579101562,-1.1215785500254576,-6.294353007262989,-104.27069372773566,-11.206764,11.961964,22.59258,47.859486,-24.515804,-0.007655217,-27.946985,-2.3195958,0.5053092,59.31816,-3.3373938,6.347378,-3.5677009,0.3205118,24.472803,2.0654538,12.294954,-22.607264,48.831676,18.167233,5.2201705,13.663114,-2.3499992,-6.6921535,16.768879,57.00514,-8.297299,-1.2010247,-20.703543
138,4.35416316986084,15.03148365020752,75.05136108398438,-1.0899187548563116,-6.481894771809276,-104.75159221319296,-11.789372,12.372868,22.912619,49.24237,-25.316652,0.25040415,-29.139864,-1.6499996,1.6430453,60.955856,-3.0559156,7.847278,-3.612011,0.27955973,24.796223,1.7769234,12.554062,-22.596628,48.20341,18.411392,5.3077364,13.755874,-2.105159,-6.85929,16.819597,56.978786,-8.422269,-1.091351,-20.374517
139,4.480867862701416,15.405218124389648,74.69284057617188,-1.066153988402412,-6.6982967560902456,-105.13296142029947,-12.351039,12.75567,23.150887,50.588524,-26.065073,0.52384806,-30.147049,-1.0126324,2.7148802,62.565296,-2.8932562,9.4382305,-3.7018104,0.25637403,25.08644,1.5169986,12.803721,-22.531393,47.51371,18.649286,5.4135933,13.865077,-1.7643912,-7.040221,16.810385,56.901573,-8.456845,-1.0232506,-20.04744
140,4.59328031539917,15.769371032714844,74.34666442871094,-1.0403960378038501,-6.961377779195618,-105.38164230556896,-12.846517,13.081836,23.320831,51.839214,-26.707535,0.816122,-30.929413,-0.52178144,3.6264925,64.26474,-2.8741057,10.895149,-3.8256104,0.24775104,25.36253,1.2880158,13.041877,-22.437422,46.7281,18.901018,5.5238023,13.946241,-1.3207906,-7.223588,16.710794,56.803986,-8.304232,-1.0428162,-19.815739
141,4.684015274047852,16.12342071533203,74.02098846435547,-1.0099118685081434,-7.2936964739584225,-105.47554923807665,-13.243195,13.3432455,23.440062,52.98646,-27.25208,1.151731,-31.455208,-0.19613181,4.3957787,66.06539,-2.9749563,12.267763,-3.9958243,0.24990183,25.640226,1.0736239,13.269893,-22.321333,45.869793,19.204493,5.6572924,13.996501,-0.7574873,-7.399468,16.49057,56.68594,-7.8532043,-1.2019982,-19.726023
142,4.757237911224365,16.483348846435547,73.71732330322266,-0.9790441586791019,-7.680004908786424,-105.43650301262751,-13.574437,13.55167,23.498089,54.058,-27.718777,1.5226429,-31.75868,0.0024069576,5.059679,67.90842,-3.1827612,13.624268,-4.210447,0.26038542,25.902737,0.87521327,13.489312,-22.172215,44.952232,19.537497,5.814474,14.037275,-0.08753154,-7.566759,16.168287,56.543633,-7.187066,-1.4631431,-19.720778
143,4.8170695304870605,16.821474075317383,73.44544219970703,-0.9540254692052711,-8.080620048492113,-105.29820568721587,-13.890456,13.712561,23.474958,55.047405,-28.071087,1.8786223,-31.90066,0.037651498,5.559128,69.7951,-3.5178576,14.762601,-4.439439,0.28013787,26.121536,0.72545004,13.696189,-21.985714,43.920135,19.831398,5.953266,14.061058,0.65537393,-7.724423,15.792033,56.395653,-6.496583,-1.7375103,-19.737328
144,4.853431224822998,17.15185546875,73.21953582763672,-0.9905858789162615,-8.459680645943076,-105.1054199344257,-14.256267,13.90813,23.322998,55.986927,-28.292095,2.1493134,-31.940674,-0.19027968,5.6237025,71.693474,-3.9724011,15.000033,-4.643346,0.3597267,26.274412,0.65460324,13.884112,-21.756748,42.721977,20.017199,6.0316043,14.061612,1.4351455,-7.8737006,15.410349,56.263554,-5.973398,-1.9350215,-19.717505
145,4.870085716247559,17.49687385559082,73.01612854003906,-1.01918567273869,-8.808763712099546,-104.8154027845053,-14.684049,14.016294,23.042374,56.853455,-28.330595,2.3426225,-31.882877,-0.66820204,5.538624,73.69032,-4.6366186,15.000033,-4.851966,0.43165568,26.335285,0.6795294,14.047881,-21.46171,41.327873,20.087532,6.035218,14.030306,2.270495,-8.017945,15.01221,56.125217,-5.6107473,-2.045737,-19.653477
146,4.882326126098633,17.83888816833496,72.84281158447266,-0.9921521613986911,-9.144751569099892,-104.41083152372934,-15.126416,13.972925,22.682083,57.60596,-28.195776,2.5021853,-31.701117,-1.3683023,5.4548383,75.78531,-5.4946723,15.000033,-5.086112,0.45206597,26.315847,0.781063,14.186836,-21.1071,39.772934,20.076393,5.9877243,13.973495,3.1738346,-8.155866,14.583511,55.977665,-5.3245435,-2.1125891,-19.574577
147,4.8844990730285645,18.18831443786621,72.70819854736328,-0.9477638038246521,-9.466349074031722,-103.96347210016275,-15.544364,13.860872,22.29612,58.208214,-27.941313,2.636967,-31.403528,-2.1779737,5.3541007,77.850945,-6.403149,14.879607,-5.299383,0.46201637,26.24513,0.93502426,14.302819,-20.733452,38.103043,19.977905,5.904996,13.908938,4.093656,-8.283589,14.167992,55.877197,-5.1902833,-2.124552,-19.482748
148,4.862000465393066,18.54673957824707,72.61141967773438,-0.9503066280141277,-9.770534633883837,-103.55444848980964,-15.911135,13.807,21.920404,58.64577,-27.630136,2.744924,-31.006605,-3.0102735,5.1117578,79.75301,-7.2078614,14.31407,-5.438322,0.5297495,26.154514,1.1204369,14.398841,-20.379787,36.35999,19.78721,5.8025475,13.853325,4.97702,-8.395217,13.808697,55.879654,-5.284463,-2.0709531,-19.37985
149,4.82848596572876,18.925275802612305,72.55193328857422,-0.9562662644812929,-10.044847749151709,-103.17540046553616,-16.21587,13.743249,21.586275,58.871502,-27.268026,2.8507934,-30.531261,-3.8247921,4.8978558,81.54752,-7.9329023,13.641682,-5.50201,0.6126397,26.025826,1.3433226,14.477499,-20.050455,34.514126,19.442572,5.6618156,13.813889,5.817539,-8.490729,13.49489,56.018517,-5.7866483,-1.9001426,-19.248312
150,4.788076400756836,19.312545776367188,72.53182983398438,-0.9621570936278672,-10.295016417123318,-102.79635896349787,-16.478472,13.657814,21.25849,58.920277,-26.830423,2.9411452,-29.961767,-4.6890006,4.668941,83.26604,-8.64116,12.796231,-5.5104356,0.7070734,25.85374,1.6159084,14.539481,-19.72693,32.549793,18.966324,5.482878,13.77942,6.6400404,-8.570375,13.20937,56.257523,-6.6048183,-1.6361772,-19.090889
151,4.7310709953308105,19.72146987915039,72.55361938476562,-0.9529671291282553,-10.540033637129945,-102.4311301508585,-16.66753,13.539847,20.956463,58.777355,-26.282753,3.013816,-29.274426,-5.5335755,4.4867964,84.82997,-9.283736,11.937273,-5.4712534,0.79303676,25.666914,1.9179192,14.583532,-19.416801,30.541288,18.481434,5.3089337,13.741315,7.431726,-8.626876,12.984664,56.55858,-7.4091873,-1.3803861,-18.945957
152,4.646756172180176,20.14751434326172,72.6241226196289,-0.9120604552287878,-10.798558840075444,-102.09418042994974,-16.75286,13.379359,20.698591,58.429684,-25.59118,3.0668464,-28.446152,-6.283976,4.4044476,86.15699,-9.803123,11.227403,-5.3949966,0.8498314,25.496996,2.2399418,14.616601,-19.124105,28.547304,18.10855,5.1821313,13.689282,8.18168,-8.6618,12.856169,56.875923,-7.867056,-1.2316623,-18.854033
153,4.553203105926514,20.598369598388672,72.73562622070312,-0.8246890436346062,-11.088124312985826,-101.80908518353864,-16.695475,13.178797,20.502298,57.86501,-24.769514,3.078896,-27.454767,-6.9204245,4.4464555,87.251114,-10.1874895,10.703441,-5.2443724,0.8728068,25.357094,2.5582585,14.632435,-18.872305,26.566624,17.856098,5.1171536,13.628458,8.908148,-8.667244,12.833039,57.21116,-7.8586,-1.2443348,-18.856684
154,4.45351505279541,21.063766479492188,72.89147186279297,-0.7035002362195909,-11.394524641145148,-101.56181700684876,-16.523264,12.941848,20.348434,57.094612,-23.82921,3.0588787,-26.321398,-7.478654,4.5705757,88.14855,-10.458136,10.2859,-5.0595756,0.8566124,25.238974,2.9389496,14.651496,-18.604845,24.513115,17.671448,5.0866437,13.5484705,9.588977,-8.658402,12.932539,57.58849,-7.563937,-1.3553519,-18.921171
155,4.360843181610107,21.532381057739258,73.09928131103516,-0.5677091750484448,-11.690235633314808,-101.31139095299842,-16.302755,12.667717,20.209301,56.143684,-22.738745,3.046645,-25.087303,-7.964006,4.719638,88.81678,-10.604752,9.956545,-4.885995,0.80857223,25.114561,3.3763804,14.675851,-18.324978,22.466305,17.573906,5.078379,13.452636,10.197339,-8.629751,13.121926,57.99857,-7.1188974,-1.4851444,-18.992962
156,4.236366271972656,22.032323837280273,73.35076141357422,-0.44032534280993335,-11.947608653662881,-101.01634173760338,-16.099009,12.355794,20.057484,55.033577,-21.465252,3.0822213,-23.791859,-8.376349,4.834147,89.221924,-10.615256,9.697588,-4.7142816,0.7824434,24.957024,3.7908738,14.677711,-18.115038,20.563206,17.575808,5.0840816,13.357471,10.759609,-8.591776,13.279787,58.384476,-6.677455,-1.5559261,-19.001368
157,4.160799980163574,22.579660415649414,73.62140655517578,-0.32087719746268917,-12.164606107420234,-100.65923665207859,-15.930073,11.996777,19.892889,53.785362,-20.023203,3.2013142,-22.420422,-8.725845,4.901242,89.362495,-10.506266,9.4864025,-4.598393,0.7564628,24.763544,4.2154574,14.656443,-17.925322,18.791252,17.740742,5.104393,13.251194,11.23526,-8.538882,13.441957,58.7835,-6.1585155,-1.5390592,-18.937733
158,4.04964542388916,23.1479549407959,73.9434814453125,-0.1997400775656083,-12.354230707580548,-100.26422960175034,-15.761333,11.5958605,19.72739,52.385994,-18.42549,3.3742034,-20.95927,-9.000313,4.9427047,89.254654,-10.272726,9.339193,-4.5062413,0.728708,24.542152,4.6350255,14.601788,-17.762283,17.134718,18.046928,5.143711,13.136077,11.637848,-8.465473,13.62232,59.206387,-5.5287848,-1.4782925,-18.837414
159,3.91504168510437,23.710535049438477,74.32563018798828,-0.08580952748652115,-12.511285768928866,-99.8514517038607,-15.583132,11.173073,19.551378,50.8145,-16.633322,3.5433986,-19.451342,-9.166503,4.9545283,88.897606,-9.876217,9.295377,-4.4009743,0.72207814,24.297619,5.044323,14.532893,-17.648304,15.585304,18.380323,5.187871,13.021859,12.008496,-8.3954525,13.808645,59.58387,-4.975743,-1.4008824,-18.701746
160,3.7662744522094727,24.30841636657715,74.74266052246094,0.015119018606434591,-12.630397037358447,-99.4407164141803,-15.387324,10.746792,19.350603,49.049393,-14.606335,3.650556,-17.940464,-9.191895,4.939719,88.290726,-9.279471,9.396761,-4.296918,0.72182274,24.013285,5.441512,14.423201,-17.523859,14.184539,18.674961,5.2184215,12.904922,12.2992935,-8.296503,14.06221,59.962555,-4.6877155,-1.3340237,-18.569183
161,3.603893518447876,24.9305419921875,75.18938446044922,0.11555186156829758,-12.713184827415505,-99.04371807013517,-15.153059,10.3022585,19.125294,47.065575,-12.358025,3.7019427,-16.420326,-9.05471,4.934622,87.42562,-8.460993,9.703073,-4.1534033,0.7341537,23.704145,5.833172,14.312174,-17.432865,12.908046,18.872948,5.237105,12.792727,12.560949,-8.200619,14.367662,60.27561,-4.8128896,-1.2760886,-18.395393
162,3.438762664794922,25.577232360839844,75.6694564819336,0.2166558005717933,-12.760957057996754,-98.64680878194473,-14.895471,9.836259,18.873035,44.891518,-9.910036,3.7209828,-14.8766775,-8.774212,4.9392824,86.30767,-7.4520273,10.177559,-4.0053825,0.74299276,23.360025,6.2155137,14.171613,-17.344242,11.7758045,19.048958,5.2485166,12.67663,12.753229,-8.082483,14.742669,60.58514,-5.217587,-1.2169694,-18.197308
163,3.2704885005950928,26.247068405151367,76.16302490234375,0.2932133655896996,-12.765152949095503,-98.23377928415364,-14.664675,9.382096,18.56764,42.584282,-7.229647,3.6724389,-13.345092,-8.3789425,4.9067526,84.95852,-6.2930574,10.718338,-3.8590264,0.7747995,22.983158,6.5962625,14.018781,-17.274952,10.7335,19.207743,5.2522187,12.561093,12.899184,-7.9581904,15.127805,60.84906,-5.6659145,-1.173034,-18.009819
164,3.135490894317627,27.007427215576172,76.65333557128906,0.3167656289969771,-12.717153282644635,-97.7876685947923,-14.510549,8.969823,18.178467,40.195194,-4.2787523,3.5187473,-11.863222,-7.90053,4.7874503,83.399216,-5.0204163,11.220668,-3.7345726,0.8489326,22.572525,6.990051,13.864263,-17.222258,9.728717,19.361269,5.2463107,12.446662,13.006613,-7.8355412,15.484115,61.041492,-5.9181495,-1.1579868,-17.874584
165,2.9545059204101562,27.7464656829834,77.17938232421875,0.27193870909044915,-12.613399360812082,-97.31134764796599,-14.419647,8.609035,17.634699,37.675533,-0.99360657,3.2134645,-10.420134,-7.300408,4.591586,81.60445,-3.568603,11.718395,-3.6330116,0.9812466,22.115839,7.407632,13.707755,-17.186686,8.773058,19.552212,5.252226,12.332561,13.07127,-7.712411,15.851732,61.143303,-5.8089495,-1.2081869,-17.803074
166,2.7566325664520264,28.508201599121094,77.70458221435547,0.18584915925098944,-12.455069239523217,-96.80997565836938,-14.386982,8.271728,16.940928,35.035793,2.5791345,2.7777019,-9.011562,-6.584457,4.357942,79.57546,-1.9482181,12.249793,-3.5482223,1.151197,21.615593,7.8429246,13.548073,-17.167242,7.8809414,19.759243,5.2632065,12.218211,13.090602,-7.586359,16.238182,61.170357,-5.4984035,-1.3043784,-17.772116
167,2.550651788711548,29.281171798706055,78.2120590209961,0.08420050052484374,-12.241201438771403,-96.27000061361474,-14.480888,7.940696,16.190552,32.42961,6.2997475,2.2795343,-7.6836576,-5.855985,4.0649915,77.3703,-0.30862135,12.707579,-3.4869251,1.3250183,21.092884,8.2824955,13.394196,-17.1616,7.0071554,19.898975,5.235911,12.105307,13.071396,-7.464773,16.551765,61.152756,-5.235795,-1.3764421,-17.771914
168,2.355325937271118,30.090734481811523,78.70147705078125,-0.004200339059779248,-11.971380381463456,-95.67840597874526,-14.75924,7.6046553,15.489471,29.98276,10.046582,1.7873784,-6.480917,-5.2210197,3.6768878,75.04751,1.2060043,12.978816,-3.4580655,1.4714702,20.565088,8.7039,13.241522,-17.16424,6.1235023,19.895742,5.1269436,11.9944935,13.011659,-7.344084,16.702097,61.135517,-5.2729535,-1.3543036,-17.799255
169,2.14536190032959,30.93343734741211,79.15215301513672,-0.07607427578847811,-11.612232188015652,-95.01684344066224,-15.248721,7.262538,14.9220295,27.484694,14.21856,1.2690679,-5.443928,-4.661014,3.1911175,72.60315,2.6332178,13.031593,-3.4755495,1.5895698,20.006208,9.124964,13.097981,-17.166471,5.1936374,19.734995,4.936181,11.855042,12.917481,-7.2241874,16.640692,61.0794,-5.6553946,-1.2497202,-17.881634
170,1.9539896249771118,31.790611267089844,79.5608901977539,-0.12887748460125542,-11.168244756896401,-94.29035790592077,-15.939853,6.9173512,14.372899,24.971067,18.730972,0.6778958,-4.549382,-4.1665635,2.6135802,70.026505,4.0172467,12.919501,-3.5355852,1.6804034,19.409426,9.545256,12.962874,-17.175907,4.247611,19.455435,4.683874,11.696472,12.78426,-7.1002636,16.42143,60.9822,-6.2572503,-1.0891633,-18.012012
171,1.767537236213684,32.67403793334961,79.90203857421875,-0.16156633426020242,-10.702563006509429,-93.53109493412033,-16.779055,6.5843096,13.7118,22.845629,22.788784,0.08120676,-3.729753,-3.8186276,1.9031273,67.345535,5.242709,12.655506,-3.603619,1.7417872,18.838575,9.931787,12.844126,-17.22414,3.3223715,19.045395,4.3589125,11.581634,12.618021,-6.988052,16.097563,60.90601,-7.070711,-0.8245217,-18.121557
172,1.5627304315567017,33.575069427490234,80.15406036376953,-0.20416788484239348,-10.290822792765903,-92.78300835338527,-17.66339,6.294087,12.867277,21.449753,25.630985,-0.42776588,-2.8941226,-3.6461828,1.0100206,64.57736,6.1966267,12.252965,-3.6422374,1.8017304,18.376871,10.271726,12.760857,-17.335337,2.4270253,18.485863,3.949274,11.572177,12.437108,-6.9211774,15.733015,60.890026,-8.0818,-0.409102,-18.13296
173,1.3689336776733398,34.49456787109375,80.34773254394531,-0.309544230570282,-9.935072886050829,-92.03577924901042,-18.602762,6.0158463,11.723025,20.801207,27.028461,-0.8543601,-2.0124896,-3.6075633,-0.17034824,61.597034,6.9904146,11.8002,-3.6520875,1.9070069,18.045576,10.561381,12.711605,-17.510174,1.5348024,17.685644,3.410973,11.694395,12.245529,-6.904395,15.244697,60.92801,-9.50613,0.2638708,-17.997255
174,1.1899888515472412,35.42099380493164,80.47573852539062,-0.47134392199767133,-9.614984825210191,-91.28614240492874,-19.60878,5.758015,10.402244,20.718502,27.414494,-1.219054,-1.0944872,-3.6303391,-1.5940034,58.420387,7.637749,11.284239,-3.6195526,2.0668132,17.816168,10.789542,12.686181,-17.762102,0.66231734,16.683142,2.7622075,11.909661,12.058187,-6.9335995,14.606362,60.980846,-11.28702,1.1315882,-17.74037
175,1.0154340267181396,36.35789489746094,80.51939392089844,-0.635953409231387,-9.375171245852211,-90.59085202371156,-20.595562,5.600503,9.222763,21.25987,27.027897,-1.4262366,-0.104938775,-3.6782086,-3.0835743,55.26814,7.8800683,10.575573,-3.5305603,2.2360168,17.698496,10.972954,12.686347,-18.074818,-0.14221947,15.6629,2.0801132,12.17335,11.869579,-7.0152073,14.032022,61.075993,-12.986002,1.9901584,-17.423153
176,0.8243284225463867,37.29119873046875,80.48170471191406,-0.7462111520232396,-9.255095170189232,-90.00081340487566,-21.48443,5.627867,8.490566,22.467113,26.123112,-1.3809707,0.9709888,-3.727852,-4.4547005,52.368397,7.458065,9.545276,-3.3576446,2.384484,17.699137,11.114794,12.711529,-18.45843,-0.82614493,14.802182,1.4458106,12.454324,11.695582,-7.181627,13.707345,61.21271,-14.162483,2.6409883,-17.118149
177,0.6319476366043091,38.22324752807617,80.38050842285156,-0.7832827136325067,-9.284447868400123,-89.50530923503209,-22.280346,5.8964157,8.309615,24.498554,24.547922,-0.9161505,2.21001,-3.781713,-5.6681585,49.696926,6.168091,7.9990315,-3.1250696,2.4703422,17.83587,11.215179,12.762422,-18.89004,-1.3482555,14.071324,0.78341174,12.775008,11.487493,-7.425238,13.769395,61.48986,-14.610964,3.0491047,-16.885622
178,0.4690430462360382,39.17023849487305,80.20882415771484,-0.7695871786914228,-9.42887425326566,-89.0765215799541,-23.050575,6.376957,8.470103,27.326431,22.206112,-0.115654096,3.5660126,-3.8037915,-6.765614,47.15741,4.166697,6.142393,-2.8439112,2.5185409,18.093775,11.274031,12.837707,-19.376991,-1.7515217,13.398409,0.0809513,13.1453,11.26005,-7.749302,14.0886965,61.861866,-14.589852,3.3180676,-16.681364
179,0.32694533467292786,40.12254333496094,79.96514892578125,-0.7221510055217228,-9.631707683003285,-88.74395820113367,-23.786045,7.0427303,8.819415,30.670216,19.45704,0.74384433,4.854259,-3.764361,-7.691567,44.88128,1.7488923,4.4000053,-2.55606,2.5403278,18.419468,11.361364,12.919974,-19.841522,-2.12945,12.924765,-0.48720232,13.493817,11.01027,-8.131765,14.579683,62.2413,-14.335241,3.4708066,-16.47129
180,0.19602307677268982,41.06944274902344,79.67263793945312,-0.6508264335869547,-9.838048760836251,-88.53990546004545,-24.477367,7.842854,9.254373,34.26263,16.677437,1.4007436,5.8944917,-3.6903996,-8.438426,42.998104,-0.7622999,3.129132,-2.3027859,2.540174,18.757477,11.540555,12.9865055,-20.20088,-2.5635693,12.795441,-0.7438889,13.751669,10.727524,-8.542984,15.156505,62.553047,-14.087342,3.530415,-16.224943
181,0.08046231418848038,42.02117156982422,79.3349838256836,-0.5127881858863416,-10.038774986152312,-88.47601049338336,-25.122238,8.801434,9.915934,38.164845,13.839919,1.8182404,6.679389,-3.6927936,-9.052475,41.513214,-3.4055474,2.4234195,-2.0716016,2.4794557,19.093237,11.806184,13.025403,-20.443892,-3.07044,13.197428,-0.56042063,13.901671,10.370534,-8.973822,15.896332,62.873287,-13.871907,3.4494069,-15.896913
182,-0.04654071852564812,42.98474884033203,78.94723510742188,-0.30931293562342277,-10.259115334705733,-88.53705815168267,-25.715904,9.989102,10.793319,42.50839,10.755772,2.156558,7.2897453,-3.7745907,-9.54636,40.347527,-6.2788916,2.062134,-1.8467857,2.3625643,19.45045,12.119322,13.036924,-20.608532,-3.5859537,14.010213,-0.05584561,13.97547,9.943017,-9.428188,16.811247,63.22923,-13.575098,3.2358801,-15.521596
183,-0.18277998268604279,43.94839859008789,78.52436065673828,-0.1219253209454371,-10.497847138561609,-88.71903946080654,-26.236906,11.372873,11.610211,47.109745,7.60241,2.448114,7.6805644,-3.8314004,-9.890671,39.517136,-9.146709,1.875465,-1.6524276,2.2587204,19.832684,12.486938,13.017825,-20.694908,-4.065036,14.916454,0.5755156,13.982236,9.5107,-9.893534,17.707626,63.468872,-13.232316,2.9944193,-15.187755
184,-0.28974494338035583,44.91153335571289,78.06845092773438,-0.03391767372283042,-10.756224212239912,-89.01780901397672,-26.666912,12.877941,12.105168,51.756218,4.5857983,2.708478,7.806029,-3.7479808,-10.043571,39.05181,-11.788142,1.679743,-1.5050099,2.2400756,20.241898,12.906485,12.964002,-20.710897,-4.4522085,15.60098,1.1398492,13.94292,9.143923,-10.347708,18.382727,63.443478,-12.885491,2.8283849,-14.9882
185,-0.38873863220214844,45.87655258178711,77.5912857055664,-0.08852769012834166,-11.061714178058489,-89.45634224937785,-27.009878,14.525929,12.220719,56.504852,1.6910872,2.883463,7.6404524,-3.4781485,-9.9553795,39.032978,-14.239148,1.4301416,-1.4013933,2.3435972,20.70609,13.40195,12.870563,-20.632814,-4.746614,16.028376,1.6284289,13.854728,8.849224,-10.77835,18.764786,63.088448,-12.356762,2.7273533,-15.007091
186,-0.49316442012786865,46.82588195800781,77.10205078125,-0.23700971947173177,-11.409264229216564,-90.02860818350565,-27.258877,16.318668,12.100959,61.407604,-1.1525413,2.9776752,7.2041554,-3.0959363,-9.668057,39.452175,-16.60487,1.1850876,-1.3261029,2.5283387,21.213228,13.953063,12.737214,-20.476624,-4.956309,16.354036,2.1302805,13.713271,8.592104,-11.18685,18.956425,62.504265,-11.693316,2.646338,-15.178915
187,-0.5800341367721558,47.770301818847656,76.60653686523438,-0.42712559969241937,-11.752275236853828,-90.68761988841976,-27.384735,18.115067,11.80665,66.22526,-3.8012655,3.0780518,6.5243196,-2.6544497,-9.267945,40.20112,-18.769667,0.9183606,-1.2786179,2.7500927,21.705374,14.491041,12.569936,-20.305994,-5.042218,16.546259,2.5992937,13.545857,8.383745,-11.568553,19.018694,61.78868,-11.274916,2.6387331,-15.374513
188,-0.6672863364219666,48.71631622314453,76.11396026611328,-0.6116092935126746,-12.042423995295495,-91.3867559689897,-27.364473,19.77098,11.402082,70.72307,-6.103712,3.2689188,5.6313796,-2.205699,-8.841821,41.162674,-20.61114,0.6122171,-1.2528672,2.9636025,22.125265,14.947209,12.380279,-20.187792,-4.966448,16.572536,2.9907458,13.381827,8.233494,-11.916233,19.007109,61.04246,-11.482182,2.7613468,-15.466146
189,-0.7381619215011597,49.662452697753906,75.63772583007812,-0.7900971090518346,-12.26848782927925,-92.17366921160225,-27.202166,21.28365,10.890008,74.91805,-7.962109,3.5814536,4.443448,-1.7313064,-8.348823,42.444504,-22.095535,0.25259188,-1.2156289,3.1706192,22.47294,15.320482,12.173146,-20.11933,-4.6864133,16.265686,3.2652109,13.248765,8.138544,-12.222672,18.889465,60.24534,-12.650953,3.0673566,-15.417235
190,-0.7897873520851135,50.59803771972656,75.19174194335938,-0.9885033118131512,-12.458826778794846,-93.05401810917739,-26.89391,22.690374,10.268945,78.90499,-9.459553,3.9516044,2.9812322,-1.2019023,-7.776175,44.056152,-23.285288,-0.14454651,-1.1766967,3.3894541,22.775011,15.645293,11.950238,-20.072351,-4.2382054,15.693366,3.4578521,13.128391,8.093426,-12.486471,18.649214,59.365707,-14.503882,3.5104437,-15.28759
191,-0.8297218680381775,51.543827056884766,74.78044128417969,-1.1873696474968765,-12.620397808036401,-93.92137906717565,-26.40478,23.908312,9.608984,82.55835,-10.709455,4.3224945,1.4310143,-0.6675622,-7.2462354,45.72313,-24.196686,-0.54788,-1.1931946,3.5938668,23.014647,15.911044,11.722242,-20.072147,-3.707748,15.1734915,3.635362,12.979653,8.104093,-12.710133,18.366404,58.483143,-16.500761,3.9992936,-15.097955
192,-0.8872030377388,52.49137878417969,74.42621612548828,-1.3647810618902452,-12.75840604867282,-94.66821726027383,-25.705757,24.858665,8.982404,85.749504,-11.826877,4.641971,-0.024664408,-0.19078147,-6.873718,47.170654,-24.845743,-0.92839664,-1.3233776,3.7539613,23.176908,16.11107,11.504936,-20.142801,-3.1877353,15.022094,3.8638067,12.761275,8.176806,-12.89753,18.123058,57.6739,-18.09897,4.4477224,-14.881279
193,-0.9111710786819458,53.40989303588867,74.12844848632812,-1.5051124056856393,-12.8526290119646,-95.28328625367023,-24.79299,25.499805,8.430614,88.47281,-12.819526,4.9731784,-1.416346,0.17504501,-6.707833,48.422703,-25.213154,-1.2949274,-1.5907462,3.842249,23.245884,16.242147,11.309578,-20.294817,-2.689725,15.301452,4.172623,12.488693,8.290134,-13.04892,17.95342,56.9649,-19.165123,4.874941,-14.641568
194,-0.9084382057189941,54.32827377319336,73.88298797607422,-1.6188150148554523,-12.90593278829691,-95.81882157858499,-23.68209,25.871868,7.9331703,90.79674,-13.620176,5.3167877,-2.8162773,0.46061966,-6.679595,49.587933,-25.29455,-1.6524769,-1.9609606,3.875362,23.235943,16.319471,11.138146,-20.511774,-2.1843085,15.846021,4.5202413,12.172941,8.449028,-13.16257,17.812298,56.309525,-19.984127,5.313336,-14.366267
195,-0.9131411910057068,55.22990417480469,73.7009048461914,-1.737364054186668,-12.958161463001195,-96.26137389330582,-22.37664,26.02587,7.4688864,92.69733,-14.23656,5.533938,-4.107276,0.72206295,-6.719665,50.522503,-25.131533,-1.9702609,-2.4046366,3.889337,23.179132,16.363657,10.991028,-20.778803,-1.7032615,16.631357,4.8628473,11.764734,8.701739,-13.238317,17.66039,55.66902,-20.639603,5.701447,-14.072712
196,-0.9106862545013428,56.110103607177734,73.58509063720703,-1.8879831562894214,-13.049403179547333,-96.59829688663486,-20.8808,26.016733,7.014128,94.14818,-14.67868,5.485133,-5.173405,1.0195345,-6.758887,51.08688,-24.76812,-2.2204552,-2.892775,3.9195468,23.108295,16.394983,10.868308,-21.08018,-1.2774667,17.63429,5.1547565,11.215118,9.095018,-13.2790365,17.459044,55.00566,-21.213709,5.9774594,-13.777913
197,-0.8949889540672302,56.974159240722656,73.52478790283203,-2.0866059199959452,-13.232820200468042,-96.80083317867576,-19.107475,25.798918,6.5353293,95.113686,-14.949205,5.0881977,-5.936646,1.3665936,-6.7787247,51.25621,-24.214247,-2.392784,-3.448241,3.9767678,23.06238,16.407223,10.774227,-21.430187,-0.9061255,19.005745,5.3774023,10.466477,9.659404,-13.284324,17.219345,54.340458,-21.685911,6.1109695,-13.471887
198,-0.8804111480712891,57.84312438964844,73.5243911743164,-2.314480166993205,-13.473041813319908,-96.88498330341312,-17.088257,25.370342,6.058944,95.6208,-15.042345,4.439338,-6.476959,1.7265314,-6.809767,51.1041,-23.45019,-2.503613,-4.0741024,4.0405955,23.016579,16.39736,10.710361,-21.831884,-0.5798836,20.705675,5.5398946,9.558039,10.365246,-13.251547,16.954536,53.67931,-22.024214,6.1406803,-13.1526785
199,-0.8506011366844177,58.70912170410156,73.59188842773438,-2.555449761984372,-13.677381563351654,-96.90305745254844,-15.004613,24.853207,5.6486626,95.729744,-14.9579735,3.668244,-6.912029,2.0861416,-6.8568263,50.63517,-22.475113,-2.569568,-4.7174554,4.102062,22.907988,16.393574,10.670656,-22.248589,-0.3193189,22.422731,5.644532,8.588305,11.171497,-13.18143,16.635569,52.959057,-22.291742,6.1080093,-12.84874
200,-0.8192695379257202,59.56763458251953,73.72355651855469,-2.789989150447627,-13.75284727760559,-96.90738551236028,-13.045351,24.365955,5.3621516,95.50852,-14.690678,2.9007444,-7.358265,2.432993,-6.9274073,49.85292,-21.287348,-2.6089587,-5.315574,4.162252,22.668873,16.40591,10.6397505,-22.657747,-0.12464402,23.849546,5.710573,7.6597185,12.04214,-13.069153,16.219349,52.12006,-22.558191,6.053438,-12.588257
201,-0.7943400144577026,60.433135986328125,73.92479705810547,-3.0456563085033657,-13.654881128360664,-96.89075754169474,-11.259215,23.950632,5.180441,94.949005,-14.208916,2.1277163,-7.836245,2.7918744,-7.0575643,48.71534,-19.897867,-2.6365209,-5.8832026,4.249177,22.240843,16.449286,10.608751,-23.047338,-0.010415281,24.99778,5.753508,6.723027,12.99926,-12.920018,15.720887,51.152023,-22.906197,5.9893684,-12.360904
202,-0.7617642879486084,61.32058334350586,74.18229675292969,-3.3220869962790487,-13.438451095832413,-96.83281346641864,-9.555389,23.539062,5.0701046,94.030174,-13.527014,1.2966791,-8.284429,3.1595802,-7.2324476,47.232544,-18.305098,-2.643755,-6.443759,4.36304,21.66975,16.505981,10.575557,-23.43309,0.043124843,26.004635,5.7645473,5.7510304,14.054273,-12.733181,15.161149,50.089687,-23.278124,5.893812,-12.157756
203,-0.7170757055282593,62.22410202026367,74.5008316040039,-3.56129638150925,-13.158781143894512,-96.7659394773819,-7.9134693,23.082947,5.068314,92.79236,-12.708084,0.46919844,-8.693788,3.4850924,-7.3840623,45.484154,-16.486698,-2.613646,-6.9741874,4.4529476,21.046251,16.562754,10.541914,-23.804903,0.058798034,26.746496,5.7420225,4.873879,15.143274,-12.500229,14.540697,48.942577,-23.521008,5.7576632,-12.009162
204,-0.6622185707092285,63.16958236694336,74.86650085449219,-3.705279948318727,-12.871719713625689,-96.7218879597748,-6.314633,22.534056,5.2107706,91.27461,-11.813059,-0.29279786,-9.057354,3.7185786,-7.4417434,43.553066,-14.420646,-2.5283704,-7.4500833,4.463332,20.460167,16.605299,10.512294,-24.154032,0.058452442,27.09923,5.691152,4.2219915,16.197102,-12.210566,13.852711,47.722492,-23.483534,5.5731134,-11.946325
205,-0.5765210390090942,64.14244842529297,75.28031158447266,-3.7521446027210152,-12.584259199863526,-96.72364012955208,-4.731718,21.939735,5.578132,89.45988,-10.798906,-0.909763,-9.368949,3.878415,-7.3575683,41.4283,-12.113218,-2.3973634,-7.8505583,4.3910007,19.916847,16.622694,10.487816,-24.487097,0.045763474,26.915741,5.6257925,3.8576565,17.22098,-11.860709,13.05634,46.399155,-23.01718,5.3236566,-11.9606
206,-0.4844335913658142,65.127685546875,75.73744201660156,-3.7267899333859873,-12.268496283270538,-96.74847024950299,-3.1885898,21.298954,6.1141114,87.33968,-9.655764,-1.437971,-9.635288,3.9878843,-7.176599,39.081913,-9.575352,-2.225885,-8.191646,4.2595425,19.371878,16.622137,10.468704,-24.808334,0.010881376,26.299564,5.5503283,3.702283,18.242699,-11.449289,12.167048,44.978996,-22.240412,5.018396,-12.038188
207,-0.3800971806049347,66.14002227783203,76.22859191894531,-3.6250958261683563,-11.928831955748773,-96.75954782303438,-1.7411585,20.499355,6.646313,84.95904,-8.492963,-2.0177355,-9.870774,4.0034103,-6.961903,36.57066,-6.789346,-1.9883529,-8.504674,4.051365,18.83967,16.616827,10.460256,-25.103039,-0.046634935,25.502663,5.4539304,3.6736784,19.220308,-10.97062,11.255321,43.530846,-21.40533,4.6875463,-12.204987
208,-0.27892202138900757,67.21380615234375,76.74237823486328,-3.4432208364796595,-11.569825694539889,-96.72015675950774,-0.44126695,19.439022,6.9984922,82.3555,-7.420745,-2.7873585,-10.094568,3.8813815,-6.772079,33.955437,-3.736022,-1.6579908,-8.821102,3.7494407,18.335197,16.62293,10.470784,-25.354979,-0.13119613,24.776276,5.3252096,3.689592,20.104935,-10.417222,10.391393,42.12691,-20.763515,4.361809,-12.492507
209,-0.16726046800613403,68.31928253173828,77.26620483398438,-3.1663018546726285,-11.202540563776227,-96.62080847879237,0.7388536,18.0592,7.1353436,79.457565,-6.4573507,-3.8834777,-10.307833,3.5881846,-6.608852,31.240648,-0.32266745,-1.3705993,-9.161835,3.3246267,17.875254,16.654806,10.504264,-25.544828,-0.25277466,24.171053,5.163577,3.7720072,20.895433,-9.768543,9.55922,40.77023,-20.382935,4.044893,-12.939028
210,-0.053342513740062714,69.43841552734375,77.80015563964844,-2.8143731671912113,-10.821134768410797,-96.48279297467543,1.824841,16.451046,7.1280956,76.263756,-5.555463,-5.1957755,-10.528924,3.1699052,-6.4438753,28.441021,3.3944898,-1.0936049,-9.498316,2.8015082,17.446,16.697687,10.562979,-25.687853,-0.40696728,23.558483,4.971947,3.9492676,21.599245,-9.022799,8.7250185,39.436634,-20.134687,3.7221472,-13.523437
211,0.0777607336640358,70.59363555908203,78.31692504882812,-2.4213325132804098,-10.40500808781525,-96.31787873024297,2.7678711,14.741866,6.970745,72.916885,-4.7251883,-6.4887094,-10.778987,2.6994152,-6.254666,25.589306,7.230013,-0.5355154,-9.791063,2.2448473,17.021526,16.728382,10.6535635,-25.819202,-0.5850011,22.91807,4.746132,4.1489067,22.191326,-8.213363,7.9303284,38.141422,-19.971745,3.3968153,-14.186769
212,0.23442348837852478,71.77128601074219,78.79690551757812,-2.015715961464001,-9.935627929872187,-96.13569146315838,3.5180876,13.043315,6.6720877,69.56534,-3.971273,-7.528683,-11.049947,2.2334025,-5.9725065,22.671246,11.027504,0.6147931,-10.009903,1.7108641,16.581085,16.735722,10.783845,-25.969467,-0.7922054,22.226631,4.4827876,4.297518,22.659218,-7.395329,7.222022,36.883038,-19.840294,3.0709977,-14.864639
213,0.41306406259536743,72.97956085205078,79.23358917236328,-1.5204676127256116,-9.383358397716325,-95.93812186608885,4.040779,11.185327,6.1737666,66.134476,-3.3181129,-8.306203,-11.294989,1.7230927,-5.44119,19.3317,15.1401615,2.5843112,-10.188975,1.141039,16.095606,16.755594,10.954741,-26.120455,-1.0644153,21.429949,4.169875,4.3877892,23.019575,-6.5855875,6.581114,35.655777,-19.737286,2.7291389,-15.565518
214,0.5844744443893433,74.1868896484375,79.60997009277344,-0.933891075360562,-8.772682043566368,-95.71388873978941,4.4028115,9.1707325,5.5033307,62.56705,-2.7485592,-8.916241,-11.4582,1.1055458,-4.59665,15.595841,19.511633,5.2301955,-10.347019,0.51798064,15.590113,16.79893,11.164465,-26.257904,-1.4090468,20.552729,3.8126373,4.451694,23.279879,-5.782174,5.997501,34.443512,-19.678251,2.3761735,-16.310854
215,0.7732049822807312,75.40885925292969,79.89704895019531,-0.3513172720245675,-8.170176458057934,-95.4478559631875,4.697509,7.2969594,4.820701,59.03751,-2.1892166,-9.293229,-11.509826,0.40367666,-3.5724738,11.990455,23.400452,8.283656,-10.444579,-0.083344646,15.126654,16.827719,11.417192,-26.413157,-1.7987263,19.688269,3.435083,4.4743557,23.43243,-5.020723,5.5427265,33.216072,-19.631172,2.0426404,-17.051296
216,0.9502239227294922,76.65929412841797,80.13068389892578,0.14183037138622118,-7.638709353939674,-95.12791816353938,4.994931,5.8224044,4.295909,55.727314,-1.5649059,-9.391541,-11.514303,-0.30660558,-2.6484163,9.160226,26.082687,11.404527,-10.45093,-0.5947054,14.766714,16.817293,11.717836,-26.612072,-2.2202072,18.926306,3.0611932,4.442412,23.478039,-4.357505,5.2993946,31.937216,-19.553576,1.756256,-17.732065
217,1.111153244972229,77.9308853149414,80.29309844970703,0.5465786171301591,-7.1699246658643805,-94.73232983480655,5.276123,4.792484,4.0208483,52.630314,-0.65191454,-9.219629,-11.466975,-0.9780825,-2.0051935,7.136618,27.301018,14.907092,-10.378611,-1.0036801,14.510639,16.739376,12.072297,-26.876629,-2.6911123,18.26779,2.6786003,4.317091,23.444101,-3.826537,5.3267217,30.558067,-19.306868,1.5400178,-18.354412
218,1.223834753036499,79.18013000488281,80.35553741455078,0.6489251811349646,-6.734989885257444,-94.3860655305617,5.4601407,4.373616,3.8843575,49.85245,0.31072602,-8.962739,-11.140021,-1.369249,-3.237742,5.0918646,27.900555,15.000033,-10.16145,-1.1172047,14.372239,16.653435,12.482591,-27.166773,-3.2497587,17.668125,2.282742,4.113587,23.337215,-3.425158,5.598215,29.098291,-18.936523,1.3709048,-18.936176
219,1.3527880907058716,80.4310531616211,80.35206604003906,0.5080571993932111,-6.333352279874091,-94.08398368161485,5.533261,4.339155,3.840165,47.406773,0.96938545,-8.5480995,-11.534915,-1.5099348,-4.613559,5.0533433,27.326231,15.000033,-9.832041,-0.97851676,14.330209,16.619164,12.928311,-27.432343,-3.8688934,17.141737,1.903799,3.9138014,23.071737,-3.163562,6.031679,27.6737,-18.679348,1.2049377,-19.441944
220,1.5004712343215942,81.71342468261719,80.2992172241211,0.1720935386888755,-5.988033983429243,-93.80474331437769,5.521323,4.513067,3.7741237,45.291325,0.9751119,-7.937012,-11.735189,-1.4642328,-5.6665926,5.0915723,26.981089,15.000033,-9.449264,-0.64102715,14.377484,16.691984,13.3721075,-27.620869,-4.5081186,16.70921,1.5697359,3.7996178,22.565992,-3.0592406,6.547805,26.3965,-18.769638,1.0033792,-19.837431
221,1.6565853357315063,82.99388885498047,80.21240234375,-0.39492178231999836,-5.703950302242918,-93.54498390185417,5.437339,4.9117017,3.5862286,43.45414,0.22190018,-6.954687,-12.601474,-1.3112283,-6.0723777,7.1018333,25.896687,15.000033,-9.022192,-0.07277,14.514711,16.88521,13.782108,-27.714802,-5.1520033,16.398304,1.2585261,3.783298,21.770325,-3.1379035,7.1949525,25.34228,-19.391855,0.72449106,-20.11977
222,1.838688611984253,84.27359771728516,80.09048461914062,-1.0905349191521185,-5.4776514999132635,-93.28617369057314,5.281443,5.4580264,3.3474603,41.85258,-1.0727228,-5.6650023,-14.526054,-1.215178,-6.0296025,11.944065,23.374216,15.000033,-8.573944,0.6316219,14.715483,17.170301,14.148301,-27.724434,-5.801259,16.20266,0.96219087,3.8221915,20.731138,-3.3998308,8.016416,24.441843,-20.36818,0.40547794,-20.310453
223,2.024224281311035,85.56678771972656,79.91036224365234,-1.671014518390643,-5.345952555569276,-92.99648530984723,5.1087956,5.88757,3.1835706,40.497795,-2.7709122,-4.3908496,-16.530111,-1.357712,-5.9204335,17.556767,20.427786,15.000033,-8.160586,1.2281336,14.96653,17.548693,14.477007,-27.640652,-6.4493885,16.09598,0.7307785,3.912448,19.536743,-3.8066742,8.929675,23.569517,-21.39572,0.124799944,-20.412764
224,2.2121095657348633,86.86875915527344,79.6574478149414,-2.0234146131063175,-5.3387801198743645,-92.65116378263224,4.95738,6.1086535,3.2092574,39.439896,-4.7428045,-3.4603949,-18.283632,-1.906149,-6.158319,23.286716,17.320658,15.000033,-7.8085117,1.5998896,15.278946,17.996714,14.782061,-27.475828,-7.0740447,16.047045,0.6148265,4.0553412,18.271914,-4.302876,9.823432,22.602419,-22.184467,-0.040256623,-20.423286
225,2.398998260498047,88.1630630493164,79.34408569335938,-2.198536374580181,-5.4811088712099,-92.24603569993648,4.8695884,6.237346,3.5053952,38.72364,-7.1629734,-3.031187,-19.720196,-2.9476233,-6.897054,29.174612,13.933605,15.000033,-7.5018945,1.7803892,15.688462,18.494871,15.075038,-27.252632,-7.656365,16.02269,0.6372349,4.291899,16.913864,-4.8604007,10.678468,21.52123,-22.730827,-0.022516035,-20.318165
226,2.5724422931671143,89.4453353881836,78.98320770263672,-2.3805223183875768,-5.755058629149744,-91.83735700744347,4.7848706,6.504113,3.9862998,38.416637,-10.087106,-2.9430945,-20.812857,-4.4009576,-8.338151,35.19537,10.283006,13.755815,-7.173778,1.9450331,16.20465,19.052608,15.361909,-26.970848,-8.208594,16.04479,0.77007276,4.610522,15.431561,-5.4742136,11.541084,20.393295,-23.18091,0.11875577,-20.104364
227,2.7119646072387695,90.7185287475586,78.57735443115234,-2.622356144266041,-6.112358674707934,-91.44690151930583,4.5892024,6.913533,4.5231733,38.532825,-13.152629,-2.985955,-21.494505,-6.171337,-10.3686285,41.025204,6.585034,10.952038,-6.798966,2.1575477,16.78572,19.664856,15.644083,-26.62561,-8.735367,16.16251,0.987461,4.937913,13.889054,-6.1311555,12.372316,19.235964,-23.47646,0.26927063,-19.824675
228,2.8407936096191406,91.98368835449219,78.13150024414062,-2.7437458120453035,-6.528695821393278,-90.99039663127914,4.2538595,7.1324224,4.950262,38.896713,-15.8893585,-2.8577862,-21.844973,-8.189112,-12.155641,46.615414,2.96679,8.158956,-6.4440637,2.256516,17.38809,20.317926,15.920581,-26.217926,-9.232869,16.427797,1.2641606,5.2003455,12.353988,-6.811707,13.125745,18.06444,-23.560255,0.31581968,-19.523499
229,2.9657726287841797,93.2566909790039,77.6484603881836,-2.7306420390527992,-7.039876959950371,-90.43731094434746,3.7503734,7.1193123,5.2212768,39.60361,-18.265295,-2.4691336,-21.85963,-10.499216,-13.780363,52.09291,-0.66630816,5.2895126,-6.114347,2.22157,18.048628,20.987251,16.19548,-25.760593,-9.704873,16.937822,1.6501398,5.3528666,10.832438,-7.505355,13.771729,16.842897,-23.321095,0.21790017,-19.18153
230,3.0702641010284424,94.51778411865234,77.14665222167969,-2.615870609293633,-7.650791815167863,-89.8097545430502,3.1123269,6.946309,5.416048,40.665295,-20.477892,-1.9435987,-21.546507,-13.106536,-15.312332,57.57143,-4.452946,2.2856152,-5.7921686,2.0750582,18.773438,21.680922,16.47138,-25.255825,-10.145356,17.63717,2.1411662,5.440596,9.288376,-8.212457,14.334492,15.585752,-22.826923,0.042625993,-18.785374
231,3.1960651874542236,95.75141143798828,76.64283752441406,-2.436622966626179,-8.276866829301166,-89.17453764721526,2.3602858,6.6633196,5.560411,41.883,-22.468721,-1.3719356,-20.96926,-15.750129,-16.591625,62.779873,-8.12196,-0.60443133,-5.4435716,1.8674713,19.477737,22.429956,16.741482,-24.688349,-10.530969,18.350231,2.6304173,5.526349,7.7265487,-8.931145,14.846512,14.382036,-22.289873,-0.16284156,-18.390825
232,3.2847204208374023,96.97949981689453,76.13819122314453,-2.2306187688864885,-8.831692306738974,-88.5965238879545,1.5188856,6.330537,5.6845136,43.0505,-24.179577,-0.8499235,-20.22686,-18.166931,-17.517439,67.46591,-11.347978,-3.1418133,-5.0364804,1.6491712,20.074894,23.259232,16.991941,-24.043507,-10.830627,18.901312,3.0119798,5.677592,6.151937,-9.65752,15.339744,13.320815,-21.923006,-0.35538578,-18.05619
233,3.376610517501831,98.18499755859375,75.6557388305664,-1.9851243801055307,-9.295879856727666,-88.04706408629802,0.5335662,5.9328547,5.770581,44.217052,-25.614529,-0.38478,-19.348516,-20.408848,-18.214863,71.68807,-14.013011,-5.352163,-4.581387,1.4059502,20.543783,24.162779,17.211721,-23.322361,-10.986646,19.25701,3.2457247,5.912728,4.5337176,-10.405344,15.813368,12.420115,-21.766441,-0.5333315,-17.808088
234,3.4724631309509277,99.38129425048828,75.21175384521484,-1.6840462022835292,-9.715583880148035,-87.50714038429359,-0.5831397,5.454889,5.823438,45.451805,-26.800976,0.06299414,-18.305824,-22.565662,-18.789047,75.5826,-16.261494,-7.3539577,-4.0914116,1.1224707,20.930788,25.12352,17.395164,-22.532839,-11.019123,19.508411,3.3916135,6.1973076,2.881341,-11.17812,16.258385,11.632307,-21.709637,-0.71839374,-17.613207
235,3.5278663635253906,100.57167053222656,74.81671905517578,-1.3588007922109557,-10.100034026081836,-87.05484924460625,-1.7029276,4.9654875,5.9074807,46.570995,-27.712255,0.46759403,-17.144495,-24.424372,-19.144484,79.020645,-18.117102,-9.044304,-3.5335217,0.8441545,21.24731,26.1423,17.535778,-21.677055,-11.003927,19.66878,3.4945211,6.5218453,1.2570145,-11.949345,16.683369,10.956647,-21.749031,-0.9051457,-17.442764
236,3.5885207653045654,101.76908874511719,74.4800033569336,-1.0433385160387358,-10.45557562511943,-86.76927864650717,-2.7036345,4.537537,6.082547,47.39247,-28.317783,0.8016816,-15.931664,-25.754473,-19.178978,81.86726,-19.583715,-10.306213,-2.8708973,0.6147637,21.500706,27.217197,17.628252,-20.758602,-11.009333,19.752249,3.5995839,6.875914,-0.28518572,-12.676407,17.090517,10.407692,-21.888456,-1.0882535,-17.268555
237,3.5864577293395996,102.90625,74.22274017333984,-0.7381004130355695,-10.777551190471845,-86.71481541836765,-3.56792,4.2142496,6.396172,47.90091,-28.611977,1.0618598,-14.718066,-26.406754,-18.81388,84.10129,-20.60261,-11.092441,-2.0479705,0.43099776,21.671827,28.377737,17.670795,-19.75988,-11.030499,19.722507,3.707608,7.2771974,-1.7960944,-13.340342,17.496008,10.081535,-22.203566,-1.2837876,-17.108412
238,3.5688583850860596,104.02369689941406,74.04429626464844,-0.4278851088742297,-11.061538186108693,-86.83462167430748,-4.358784,3.960263,6.8049026,48.178005,-28.6067,1.2582335,-13.481378,-26.517843,-18.17567,85.81061,-21.146673,-11.464936,-1.097758,0.26613662,21.75942,29.612404,17.661734,-18.691906,-11.024551,19.58732,3.7970963,7.724107,-3.2970934,-13.939986,17.888393,9.966416,-22.680557,-1.4907373,-16.971111
239,3.5752456188201904,105.20650482177734,73.9261245727539,-0.11960426514146205,-11.313554733556291,-87.02674136479342,-5.0767827,3.7310889,7.227583,48.186695,-28.294737,1.3828824,-12.1819315,-26.277071,-17.456923,87.014275,-21.26714,-11.461934,-0.112423025,0.12971255,21.794062,30.853722,17.597824,-17.603193,-10.998531,19.428581,3.8812935,8.177923,-4.691495,-14.457988,18.221195,9.924641,-23.194092,-1.6786141,-16.813644
240,3.5719499588012695,106.32041931152344,73.90022277832031,0.17912339948646608,-11.540782012406767,-87.1892754958673,-5.7196302,3.4794912,7.5831847,47.887993,-27.669844,1.4291615,-10.779665,-25.874826,-16.838129,87.727104,-21.024061,-11.123161,0.8146651,0.030323474,21.80216,32.03381,17.478773,-16.53748,-10.960315,19.33069,3.975429,8.600454,-5.8897743,-14.869994,18.447983,9.831585,-23.62308,-1.817467,-16.59088
