unveil-humanoid-operators/unveil-humanoid-operators.github.io/feature-analysis-animation/data/feature_matrix_instances/weight_root_translate_peak_vel_jogging_turning_A025.csv
Frame,root_translateX,root_translateY,root_translateZ,root_rotateX,root_rotateY,root_rotateZ,left_hip_pitch_joint_dof,left_hip_roll_joint_dof,left_hip_yaw_joint_dof,left_knee_joint_dof,left_ankle_pitch_joint_dof,left_ankle_roll_joint_dof,right_hip_pitch_joint_dof,right_hip_roll_joint_dof,right_hip_yaw_joint_dof,right_knee_joint_dof,right_ankle_pitch_joint_dof,right_ankle_roll_joint_dof,waist_yaw_joint_dof,waist_roll_joint_dof,waist_pitch_joint_dof,left_shoulder_pitch_joint_dof,left_shoulder_roll_joint_dof,left_shoulder_yaw_joint_dof,left_elbow_joint_dof,left_wrist_roll_joint_dof,left_wrist_pitch_joint_dof,left_wrist_yaw_joint_dof,right_shoulder_pitch_joint_dof,right_shoulder_roll_joint_dof,right_shoulder_yaw_joint_dof,right_elbow_joint_dof,right_wrist_roll_joint_dof,right_wrist_pitch_joint_dof,right_wrist_yaw_joint_dof
0,-0.17140857875347137,-2.543543577194214,78.40240478515625,0.09824612357576244,-5.866599172998807,83.90662531807791,12.0109825,4.7536507,19.65732,8.60812,-12.897033,-5.441637,6.1258187,-7.317614,-10.647986,8.571977,-10.96712,8.035852,1.8649161,1.7751403,9.405885,-1.7865986,14.00052,-45.660145,59.95679,2.2701724,-6.988678,-2.0375042,-11.679055,-12.327142,62.31339,68.77357,20.366243,2.329921,4.7195296
1,-0.16939659416675568,-2.5382421016693115,78.40559387207031,0.1004931755249434,-5.760888213422062,83.89406005207049,11.896164,4.753277,19.665848,8.609191,-12.889909,-5.435861,6.005533,-7.3122635,-10.627891,8.567362,-10.946769,8.013868,1.8473151,1.7667961,9.308574,-1.7642692,14.015194,-45.64641,59.93297,2.2106035,-6.955665,-2.059434,-11.666084,-12.31492,62.300106,68.7378,20.385317,2.3323066,4.715468
2,-0.16652241349220276,-2.53164005279541,78.41114807128906,0.10235464183598716,-5.652874276227365,83.8825927350065,11.779119,4.7526426,19.673388,8.608485,-12.881489,-5.4302826,5.88568,-7.306268,-10.608596,8.557431,-10.9241495,7.9912987,1.8188308,1.7589662,9.203026,-1.7125788,14.031585,-45.60166,59.890373,2.175219,-6.920594,-2.0826135,-11.623868,-12.294392,62.23101,68.699875,20.33249,2.3335474,4.713055
3,-0.16311243176460266,-2.5267515182495117,78.41112518310547,0.11251077680316139,-5.546534172452266,83.86696372336965,11.666838,4.7435946,19.685272,8.604105,-12.871818,-5.423083,5.6924686,-7.322325,-10.576068,8.706553,-10.98394,7.9705853,1.8021414,1.7420728,9.102566,-1.682548,14.047138,-45.577324,59.86368,2.1295776,-6.8872247,-2.1062577,-11.597203,-12.266906,62.179295,68.67144,20.303205,2.336055,4.70843
4,-0.1590447723865509,-2.5207040309906006,78.4114990234375,0.12462392957501363,-5.451122026868551,83.8462527364857,11.561772,4.7349114,19.702343,8.613475,-12.870085,-5.414544,5.4869914,-7.345406,-10.538181,8.906622,-11.069489,7.9513645,1.8055209,1.7257656,9.019433,-1.6741505,14.053491,-45.576145,59.84935,2.0913272,-6.8546033,-2.129088,-11.604381,-12.250974,62.186996,68.64756,20.344105,2.3414173,4.6990895
5,-0.15668968856334686,-2.515444278717041,78.41158294677734,0.13542725186138943,-5.3712103834498075,83.81859579357058,11.471586,4.731752,19.726152,8.63465,-12.87744,-5.4028435,5.31542,-7.3621554,-10.500023,9.069911,-11.132766,7.931343,1.7791767,1.7133583,8.938953,-1.6382289,14.05875,-45.549522,59.824024,2.0696568,-6.821867,-2.154295,-11.552509,-12.230771,62.12621,68.59801,20.246872,2.3555725,4.677946
6,-0.15056364238262177,-2.506131172180176,78.41170501708984,0.14200422900991955,-5.306829415597807,83.78685785733326,11.394733,4.7361813,19.753817,8.668762,-12.893887,-5.3896117,5.180139,-7.3701534,-10.463863,9.192125,-11.173484,7.910396,1.7971461,1.7047902,8.891723,-1.6360341,14.061101,-45.55272,59.806232,2.0681262,-6.7890825,-2.1828635,-11.56009,-12.218679,62.128906,68.56407,20.256037,2.374953,4.656837
7,-0.1457074135541916,-2.5024797916412354,78.41180419921875,0.15277672138033552,-5.240823053493064,83.75409749435698,11.310955,4.738762,19.783009,8.713906,-12.913603,-5.377614,5.0336595,-7.383887,-10.425928,9.333508,-11.224124,7.8928304,1.7775817,1.6903965,8.826304,-1.6202357,14.066292,-45.54872,59.793797,2.0482519,-6.757532,-2.2095091,-11.511664,-12.17932,62.053596,68.52961,20.126286,2.3897645,4.627616
8,-0.14140932261943817,-2.50028657913208,78.41386413574219,0.15932908670678908,-5.179683400622148,83.72918109943771,11.223661,4.749345,19.805445,8.774152,-12.936124,-5.3735948,4.9152274,-7.388933,-10.39808,9.429359,-11.256473,7.880309,1.7823672,1.679884,8.777828,-1.6152016,14.069065,-45.551376,59.782074,2.0602582,-6.7284884,-2.2319226,-11.516068,-12.146707,62.04437,68.510315,20.108734,2.3918622,4.5995517
9,-0.13491515815258026,-2.4968433380126953,78.41248321533203,0.1626250926465561,-5.119003421108049,83.71242780504511,11.127568,4.7647233,19.820889,8.848898,-12.959446,-5.3804097,4.8128014,-7.389635,-10.37891,9.493683,-11.278616,7.8769374,1.7801826,1.6711928,8.737648,-1.6261611,14.070385,-45.558857,59.780605,2.0750065,-6.7033386,-2.2523966,-11.537283,-12.126872,62.062683,68.478386,20.126925,2.3795161,4.5688305
10,-0.12937036156654358,-2.494027614593506,78.41448211669922,0.16582753237850945,-5.060836828921925,83.70051731592665,11.027532,4.7841535,19.83215,8.935598,-12.984408,-5.39484,4.726019,-7.386611,-10.36618,9.532575,-11.291962,7.880212,1.7506195,1.660762,8.692574,-1.626,14.0729265,-45.550827,59.782047,2.0964906,-6.6808486,-2.2713656,-11.5353365,-12.078381,62.039555,68.45572,20.070986,2.3548949,4.5327873
11,-0.12236280739307404,-2.4922170639038086,78.41429901123047,0.165924358700519,-5.008302111545408,83.69284400938523,10.928665,4.806864,19.84081,9.030134,-13.010454,-5.4114094,4.655622,-7.3804836,-10.358295,9.550702,-11.296691,7.884244,1.7424142,1.6549051,8.668993,-1.6564248,14.073518,-45.562336,59.793144,2.1195617,-6.660602,-2.2875028,-11.565363,-12.072043,62.055695,68.40849,20.090202,2.3293984,4.5008793
12,-0.11517169326543808,-2.494887351989746,78.41438293457031,0.16289759998904715,-4.953168544944323,83.69095991478925,10.801791,4.8424034,19.843948,9.175463,-13.059786,-5.424872,4.5799346,-7.3716288,-10.3552065,9.574742,-11.303195,7.882475,1.6994385,1.6496129,8.627656,-1.6507628,14.074809,-45.54661,59.796467,2.146418,-6.641694,-2.286841,-11.543353,-12.045399,62.022213,68.35554,20.01439,2.3037672,4.4587154
13,-0.11006224900484085,-2.4984657764434814,78.41288757324219,0.15866122885506997,-4.904725616707778,83.69401733431646,10.675688,4.8813925,19.845419,9.332776,-13.113337,-5.436113,4.5133657,-7.361768,-10.355815,9.596586,-11.307454,7.8728366,1.6776696,1.6449455,8.612795,-1.7055844,14.077575,-45.57695,59.83203,2.1390564,-6.627815,-2.2767844,-11.595943,-12.010884,62.046555,68.35361,20.038393,2.274708,4.4259286
14,-0.10188716650009155,-2.4990432262420654,78.41253662109375,0.15057401420362776,-4.859913636780191,83.70250217167339,10.540158,4.9274006,19.843458,9.514814,-13.176349,-5.4473834,4.4543076,-7.3493857,-10.361374,9.612271,-11.308918,7.858624,1.6474137,1.6423696,8.595976,-1.728635,14.079377,-45.575195,59.85205,2.1700382,-6.615433,-2.2550504,-11.625375,-11.981414,62.044197,68.33768,20.027582,2.245417,4.3894057
15,-0.09665250033140182,-2.501586675643921,78.41392517089844,0.1403987001590701,-4.816143543309675,83.71421517574964,10.394039,4.979974,19.837854,9.720404,-13.25007,-5.455115,4.400618,-7.3343916,-10.370425,9.619076,-11.305837,7.8431654,1.6018008,1.6433163,8.585096,-1.7765875,14.081167,-45.587273,59.88926,2.1598427,-6.6039414,-2.2288382,-11.648228,-11.964968,62.038776,68.30225,19.996914,2.2206962,4.3547187
16,-0.08850273489952087,-2.508289337158203,78.41211700439453,0.12968417758755116,-4.770344952053659,83.72719237576892,10.234847,5.0390496,19.828308,9.948842,-13.335781,-5.455805,4.351649,-7.3163786,-10.382246,9.612434,-11.296886,7.8294625,1.569543,1.6465666,8.56794,-1.8200195,14.083564,-45.60194,59.923878,2.1419697,-6.588115,-2.2028642,-11.669466,-11.940511,62.01463,68.28837,19.951212,2.198123,4.3282657
17,-0.08109970390796661,-2.511988639831543,78.41169738769531,0.1188277768690662,-4.723226493917567,83.74114804289289,10.063669,5.102828,19.814777,10.198683,-13.433415,-5.4446464,4.307518,-7.2976403,-10.396557,9.593435,-11.282814,7.8186846,1.5289052,1.6552662,8.546185,-1.8513178,14.084409,-45.60263,59.950905,2.1068478,-6.5663943,-2.176903,-11.681136,-11.933564,62.001354,68.258736,19.897861,2.1840603,4.309214
18,-0.07263895124197006,-2.5135726928710938,78.4123764038086,0.10576948403681696,-4.674355732627485,83.75885748932765,9.872477,5.177581,19.795057,10.486252,-13.550122,-5.424609,4.272489,-7.2739215,-10.416486,9.553134,-11.258546,7.808489,1.523092,1.6635178,8.537212,-1.9123636,14.086129,-45.62667,59.987896,2.0604277,-6.5405273,-2.149613,-11.751979,-11.919581,62.037224,68.2673,19.938698,2.1732125,4.300473
19,-0.06305981427431107,-2.521007776260376,78.41193389892578,0.09107469914391136,-4.625017232698002,83.77620042432488,9.677156,5.2550325,19.774069,10.780995,-13.669601,-5.404733,4.2354765,-7.2485166,-10.436088,9.514514,-11.235451,7.7989554,1.4766364,1.6800374,8.515372,-1.9592981,14.087113,-45.632828,60.02411,1.9830339,-6.5154424,-2.122114,-11.772607,-11.914148,62.035988,68.2482,19.882366,2.166395,4.2925744
20,-0.05505218356847763,-2.5247340202331543,78.41133117675781,0.06943572662549669,-4.573070385212903,83.79376046497654,9.470273,5.3428583,19.75034,11.093499,-13.795898,-5.392852,4.201004,-7.2133512,-10.457575,9.462259,-11.204816,7.788464,1.4715171,1.7009848,8.499002,-2.0220153,14.088487,-45.651936,60.059795,1.9307554,-6.4924874,-2.0979683,-11.839682,-11.905191,62.0782,68.25962,19.916695,2.158361,4.291294
21,-0.04347063601016998,-2.5335652828216553,78.40972137451172,0.04517289919733889,-4.517545823908364,83.81137235845112,9.260781,5.433671,19.724827,11.400739,-13.91622,-5.393237,4.1633644,-7.1726255,-10.479267,9.405027,-11.1706,7.7794456,1.4541485,1.7307026,8.466363,-2.0600438,14.088957,-45.64643,60.084003,1.8899388,-6.4722733,-2.076951,-11.873871,-11.902053,62.09259,68.2615,19.895773,2.15003,4.293687
22,-0.034084662795066833,-2.5380287170410156,78.41056060791016,0.011701026571831032,-4.456822951218584,83.83240254249931,9.029366,5.5389595,19.692606,11.741033,-14.050904,-5.401131,4.1292515,-7.119694,-10.506255,9.326961,-11.125211,7.770444,1.4014033,1.7719524,8.421952,-2.0730484,14.088637,-45.59124,60.09724,1.8618199,-6.454378,-2.060945,-11.867925,-11.895515,62.05815,68.24817,19.775555,2.144067,4.299011
23,-0.02249603532254696,-2.5447590351104736,78.4092025756836,-0.02161302771446567,-4.399269086294368,83.84842039455569,8.807195,5.6434207,19.664812,12.071228,-14.180911,-5.409621,4.0958405,-7.0654836,-10.528808,9.251928,-11.0813465,7.759569,1.3741155,1.8148555,8.386899,-2.1163797,14.088513,-45.5689,60.12141,1.8208088,-6.4391875,-2.045577,-11.891133,-11.892701,62.055504,68.24905,19.712252,2.1385515,4.3081284
24,-0.01330241747200489,-2.5541346073150635,78.40438842773438,-0.053746753943871614,-4.349174140052608,83.8548635887453,8.601896,5.7459908,19.646631,12.389434,-14.307886,-5.41246,4.0643783,-7.0116634,-10.542369,9.186896,-11.042775,7.7435184,1.3769426,1.8583341,8.362701,-2.1676207,14.0882635,-45.562363,60.13934,1.8026298,-6.4268627,-2.0284848,-11.942051,-11.891885,62.09444,68.26221,19.72077,2.1334188,4.3153195
25,-0.006192540749907494,-2.561716079711914,78.40435028076172,-0.08535467600295568,-4.306011662203687,83.85034882451275,8.412319,5.847384,19.639652,12.697322,-14.432396,-5.4045267,4.0334315,-6.9581556,-10.54593,9.132339,-11.009662,7.717434,1.3848877,1.9059232,8.338988,-2.202252,14.08776,-45.55362,60.139812,1.814865,-6.417523,-2.007565,-11.986525,-11.892954,62.152554,68.27449,19.744383,2.129688,4.313648
26,0.005829521454870701,-2.5702900886535645,78.4010009765625,-0.11711693401458911,-4.267356225423217,83.83775643874252,8.232166,5.949628,19.64026,13.001171,-14.5566025,-5.3903313,4.0015907,-6.9037056,-10.541987,9.087141,-10.981384,7.6843286,1.3805496,1.9591658,8.317864,-2.2462108,14.087486,-45.55474,60.142414,1.8141639,-6.412233,-1.985617,-12.020616,-11.895916,62.217632,68.2798,19.751524,2.1282284,4.306875
27,0.014994766563177109,-2.574906349182129,78.39761352539062,-0.1495986516493177,-4.236331306350378,83.81880834765576,8.069583,6.0504003,19.647133,13.289208,-14.675602,-5.377508,3.9784343,-6.8475904,-10.532573,9.038726,-10.951504,7.6526384,1.3939292,2.0136523,8.300462,-2.2789178,14.086797,-45.552353,60.13309,1.8353236,-6.4093328,-1.961061,-12.064538,-11.902276,62.306602,68.29102,19.79896,2.1250088,4.300342
28,0.02444801852107048,-2.579481840133667,78.397705078125,-0.18158968573214354,-4.215627773230402,83.79698766036135,7.931007,6.147374,19.656845,13.552776,-14.786185,-5.373657,3.9727604,-6.7897525,-10.521913,8.97685,-10.915118,7.6310334,1.3866618,2.069758,8.282524,-2.286305,14.086066,-45.52393,60.11192,1.851391,-6.4096026,-1.9318794,-12.072895,-11.910089,62.349747,68.283104,19.778505,2.121118,4.295644
29,0.035477980971336365,-2.58912992477417,78.39095306396484,-0.2139341673954381,-4.207589322817307,83.77023462597944,7.820992,6.241259,19.671825,13.788811,-14.887904,-5.3820233,3.9881668,-6.7289066,-10.507673,8.898007,-10.869504,7.624901,1.3962364,2.1231027,8.279377,-2.3095517,14.085695,-45.503574,60.098995,1.8450013,-6.4158564,-1.8979317,-12.094182,-11.919499,62.38868,68.27947,19.778597,2.1127927,4.3000207
30,0.04505198448896408,-2.594968795776367,78.38878631591797,-0.24743970772054394,-4.210496170198447,83.73914906472811,7.7353697,6.3326726,19.691202,14.001405,-14.9817,-5.3979206,4.0267,-6.6642013,-10.491559,8.794345,-10.811044,7.6285133,1.4256706,2.176642,8.291223,-2.3365831,14.08585,-45.488514,60.07953,1.8376973,-6.4261785,-1.8573909,-12.162033,-11.932507,62.49359,68.29268,19.883104,2.1025848,4.309674
31,0.053114112466573715,-2.5955758094787598,78.38923645019531,-0.278475169527765,-4.220337332240845,83.70450641579164,7.6666317,6.4199805,19.714096,14.197179,-15.070243,-5.4173083,4.06547,-6.601838,-10.471074,8.705831,-10.761724,7.63408,1.4196341,2.232791,8.29826,-2.3399405,14.086446,-45.444065,60.051716,1.8250604,-6.437792,-1.819145,-12.17563,-11.951144,62.540283,68.276184,19.876883,2.0917544,4.317218
32,0.0652775764465332,-2.6034843921661377,78.38299560546875,-0.30818850187846714,-4.234514566512528,83.66928911279727,7.6105146,6.500825,19.737919,14.37585,-15.15043,-5.4362144,4.1057386,-6.543393,-10.449075,8.624849,-10.71811,7.6334777,1.4246981,2.2868602,8.306329,-2.3360612,14.087244,-45.403522,60.01605,1.8341458,-6.4443636,-1.7880278,-12.181293,-11.969399,62.559673,68.260025,19.846136,2.0812595,4.3238006
33,0.06862189620733261,-2.6184418201446533,78.3795394897461,-0.33384761439216265,-4.253102065412144,83.63435785597159,7.5718412,6.5724506,19.762325,14.526687,-15.220279,-5.4545274,4.141083,-6.49089,-10.425924,8.565902,-10.688932,7.623586,1.4507407,2.3388867,8.322433,-2.356857,14.088064,-45.40017,59.98933,1.8481041,-6.4453945,-1.7668165,-12.218463,-11.981272,62.60431,68.26789,19.84962,2.0696535,4.3331122
34,0.07887723296880722,-2.6272497177124023,78.37699890136719,-0.35876458976707526,-4.277324339335979,83.59916965937975,7.5483704,6.638731,19.787222,14.657728,-15.282385,-5.4740853,4.180272,-6.4408226,-10.402068,8.513483,-10.66576,7.608826,1.4353023,2.3958905,8.328872,-2.3374908,14.088794,-45.364487,59.94225,1.8769515,-6.443645,-1.7501403,-12.207426,-11.996187,62.61551,68.249916,19.757618,2.058914,4.3369603
35,0.09278328716754913,-2.6261487007141113,78.37407684326172,-0.3803572573811536,-4.305676031596903,83.56051584553305,7.539419,6.699124,19.815823,14.769747,-15.33661,-5.493365,4.221437,-6.3934054,-10.373868,8.465096,-10.644576,7.593116,1.444412,2.4504185,8.350848,-2.3270202,14.090307,-45.3298,59.88926,1.9182427,-6.4396377,-1.7382503,-12.251335,-12.02479,62.69845,68.24785,19.78323,2.0470963,4.341909
36,0.10523410886526108,-2.6249489784240723,78.36924743652344,-0.39884917364919326,-4.336268317283623,83.51621407677418,7.5384665,6.756415,19.849445,14.873525,-15.387748,-5.511185,4.254128,-6.3492303,-10.337987,8.437812,-10.633695,7.5800495,1.4539262,2.4993198,8.365697,-2.3058622,14.090988,-45.289436,59.839115,1.9370931,-6.4349484,-1.7251376,-12.258165,-12.046054,62.719177,68.240746,19.765184,2.0330353,4.3385777
37,0.1187271699309349,-2.6257386207580566,78.36591339111328,-0.41273774140788894,-4.3682592643542515,83.46583159734787,7.549968,6.805157,19.888685,14.956723,-15.428457,-5.5258317,4.2863,-6.3099585,-10.294785,8.410332,-10.619933,7.5735364,1.4781383,2.53776,8.377643,-2.2867723,14.090922,-45.2569,59.79595,1.9260955,-6.4283032,-1.7100195,-12.259272,-12.056857,62.71782,68.24446,19.781412,2.0110013,4.3228087
38,0.13188143074512482,-2.631995916366577,78.36293029785156,-0.42278026788693107,-4.403010633336131,83.4112631517119,7.5718713,6.848369,19.931513,15.025973,-15.462762,-5.53863,4.316123,-6.274568,-10.246052,8.392689,-10.610416,7.5705857,1.4902616,2.5725496,8.397131,-2.257405,14.090675,-45.19149,59.743813,1.913357,-6.419711,-1.6985401,-12.25691,-12.078906,62.70624,68.23409,19.805157,1.9872253,4.30013
39,0.14494450390338898,-2.6347012519836426,78.3584213256836,-0.4325084315595016,-4.441572496092867,83.35140455914521,7.6036677,6.892101,19.979637,15.087983,-15.495861,-5.5520387,4.346221,-6.2375617,-10.191186,8.381996,-10.604764,7.564756,1.5147152,2.606512,8.412046,-2.2201715,14.089841,-45.134335,59.69324,1.8854188,-6.411489,-1.6853291,-12.245695,-12.096254,62.684944,68.232285,19.833635,1.9668196,4.275918
40,0.15236175060272217,-2.6429007053375244,78.35492706298828,-0.4487653386684136,-4.485845151636324,83.28644623559313,7.6417203,6.945218,20.03344,15.156878,-15.536963,-5.568848,4.381153,-6.192155,-10.130877,8.373952,-10.602114,7.5494547,1.5292883,2.6486993,8.425894,-2.1597352,14.087228,-45.051125,59.63529,1.8604841,-6.4071665,-1.674609,-12.198389,-12.123796,62.620434,68.2084,19.781446,1.96223,4.2599535
41,0.1646197885274887,-2.64477276802063,78.35269927978516,-0.4769599124938041,-4.540379787903717,83.21122463838428,7.6930842,7.0151563,20.097704,15.2349,-15.591631,-5.591981,4.428264,-6.130425,-10.060884,8.362771,-10.6014595,7.518876,1.5903864,2.7027516,8.446971,-2.1257253,14.084844,-45.027725,59.596165,1.7895529,-6.4080496,-1.6616162,-12.213606,-12.138377,62.65085,68.24195,19.85092,1.9726478,4.258244
42,0.17220821976661682,-2.6474709510803223,78.3493423461914,-0.5119366085136667,-4.602797674589653,83.1276300650363,7.75511,7.096382,20.170115,15.318761,-15.655788,-5.6193104,4.4839754,-6.057419,-9.982714,8.351107,-10.602931,7.477869,1.6221303,2.7686682,8.461134,-2.0496404,14.079361,-44.95994,59.544376,1.7173994,-6.413122,-1.6504649,-12.183551,-12.157071,62.65087,68.255684,19.8321,1.9981604,4.2603874
43,0.18669582903385162,-2.6390292644500732,78.34295654296875,-0.5454849593989164,-4.6642909431077495,83.04553416672584,7.816624,7.175231,20.24241,15.400341,-15.717021,-5.645792,4.5324492,-5.9877596,-9.904284,8.352868,-10.61024,7.4357815,1.6588463,2.829715,8.468822,-1.9825417,14.076695,-44.924454,59.503757,1.6106894,-6.4192033,-1.6333755,-12.14249,-12.162582,62.631615,68.2823,19.796011,2.0261624,4.26181
44,0.19712068140506744,-2.6388680934906006,78.3414535522461,-0.568735496709051,-4.716033028704493,82.97445271667476,7.86417,7.2396493,20.305979,15.475714,-15.765049,-5.6665254,4.5615807,-5.9337997,-9.833705,8.375005,-10.623992,7.401778,1.6945198,2.8775632,8.47702,-1.9292322,14.072356,-44.887184,59.470165,1.5107667,-6.4244857,-1.6163563,-12.121356,-12.169582,62.620815,68.31194,19.796068,2.050324,4.2647247
45,0.20310336351394653,-2.6411736011505127,78.3430404663086,-0.5779665724385089,-4.755239942980229,82.91668514061689,7.8931546,7.28587,20.358809,15.545658,-15.79705,-5.6775064,4.5703964,-5.8992863,-9.772306,8.41369,-10.640022,7.3782344,1.706968,2.9155507,8.486687,-1.8740004,14.060903,-44.830345,59.43038,1.4229879,-6.427618,-1.5899862,-12.129518,-12.185969,62.654163,68.34335,19.849932,2.0721018,4.267107
46,0.21807686984539032,-2.648099899291992,78.33648681640625,-0.5780881968087598,-4.786855628516867,82.86636320646376,7.910392,7.3195786,20.406261,15.613347,-15.819801,-5.682088,4.5518823,-5.8808126,-9.713842,8.493444,-10.673592,7.360611,1.7016666,2.9419608,8.481539,-1.8166702,14.049623,-44.785423,59.399147,1.3067503,-6.4315996,-1.5551777,-12.091542,-12.197756,62.625195,68.36089,19.828863,2.091423,4.2642655
47,0.23133093118667603,-2.653287887573242,78.33839416503906,-0.5750959225825514,-4.812658763676211,82.82434238206018,7.919213,7.346948,20.44671,15.67656,-15.834743,-5.6869383,4.5274854,-5.868634,-9.663471,8.574047,-10.7058735,7.346646,1.6982137,2.9595745,8.470069,-1.761007,14.042831,-44.75529,59.36925,1.1917998,-6.4335675,-1.5199867,-12.05527,-12.202784,62.59463,68.38123,19.820024,2.1077635,4.258473
48,0.2465997338294983,-2.662001371383667,78.3353042602539,-0.5730057791303045,-4.834057234821208,82.79083629028673,7.920543,7.374519,20.478859,15.738555,-15.846805,-5.6985617,4.5035067,-5.8558745,-9.624333,8.646153,-10.734631,7.334413,1.6923581,2.976341,8.459728,-1.7207088,14.034737,-44.732975,59.350616,1.0885783,-6.432399,-1.494866,-12.034422,-12.207497,62.575504,68.39931,19.831314,2.1202803,4.251418
49,0.2529297471046448,-2.6864500045776367,78.33589172363281,-0.5736666211302831,-4.849629600823407,82.76835250372021,7.9094944,7.4045334,20.500046,15.804804,-15.856582,-5.72192,4.479278,-5.8413424,-9.600173,8.708817,-10.759431,7.325371,1.6712679,2.991748,8.44023,-1.6787907,14.027138,-44.714386,59.33734,0.9996029,-6.427839,-1.4810289,-12.007646,-12.210863,62.55848,68.40609,19.834156,2.1275718,4.2355785
50,0.2654027044773102,-2.7036519050598145,78.33482360839844,-0.5744704151891624,-4.858578120883841,82.7560166683846,7.8860598,7.433509,20.511702,15.87357,-15.862703,-5.7524643,4.450204,-5.8288007,-9.588275,8.769951,-10.783415,7.3198333,1.6380203,3.0042748,8.415482,-1.6476732,14.01919,-44.703228,59.335682,0.9152377,-6.421084,-1.4769938,-11.984739,-12.213505,62.54788,68.40567,19.839045,2.131996,4.216093
51,0.2798723876476288,-2.7123301029205322,78.33493041992188,-0.574547087650577,-4.868376257256742,82.74886425940322,7.866962,7.458451,20.518805,15.928943,-15.862287,-5.7827425,4.428023,-5.8174386,-9.582548,8.81893,-10.801729,7.3143945,1.612892,3.011339,8.399848,-1.6290042,14.014987,-44.699787,59.339252,0.844784,-6.412314,-1.4745502,-11.980312,-12.214433,62.548683,68.406235,19.877525,2.1328242,4.198354
52,0.30180594325065613,-2.707611322402954,78.32843017578125,-0.5715566696584132,-4.872441265704668,82.74096780611467,7.8439593,7.477812,20.52644,15.97569,-15.862135,-5.8044004,4.386073,-5.8121033,-9.573672,8.893919,-10.833658,7.305594,1.552663,3.021902,8.357792,-1.5719807,14.006071,-44.66934,59.33367,0.7794912,-6.400162,-1.4668738,-11.916387,-12.215135,62.496773,68.380775,19.821136,2.1353297,4.1836815
53,0.3120378255844116,-2.7270712852478027,78.33113861083984,-0.5633473174035116,-4.880598958654434,82.73530173418955,7.836203,7.487801,20.532827,15.993746,-15.854916,-5.813782,4.350161,-5.810919,-9.565105,8.964916,-10.866652,7.290414,1.5322014,3.0249197,8.344683,-1.5680485,13.994246,-44.667366,59.352573,0.7195153,-6.384967,-1.4558899,-11.920128,-12.215104,62.484364,68.37501,19.8723,2.138896,4.191037
54,0.3282327651977539,-2.7427587509155273,78.328857421875,-0.552451288581237,-4.887377384312833,82.73317362534445,7.8320074,7.490337,20.536604,15.994618,-15.843174,-5.815411,4.3088284,-5.8149123,-9.558368,9.044151,-10.906084,7.2714396,1.48945,3.0234005,8.321701,-1.5449182,13.985955,-44.649715,59.36793,0.6655531,-6.367657,-1.4411376,-11.890193,-12.213782,62.436935,68.34897,19.86777,2.1422837,4.204306
55,0.3453279733657837,-2.7559330463409424,78.32803344726562,-0.539246412043251,-4.895177893149906,82.72791679429947,7.8349094,7.489891,20.542854,15.98236,-15.826753,-5.815433,4.2710342,-5.8189764,-9.549594,9.115508,-10.939361,7.253523,1.448253,3.0217392,8.300941,-1.5349463,13.971568,-44.634167,59.397636,0.6191505,-6.350215,-1.4282837,-11.833246,-12.210313,62.325417,68.30754,19.79866,2.14393,4.2162523
56,0.3597272038459778,-2.768282890319824,78.32843017578125,-0.527668818757522,-4.9053902735575265,82.7129367148558,7.8459234,7.4898868,20.557316,15.9639,-15.806877,-5.8195224,4.231077,-5.8214025,-9.533228,9.191158,-10.967617,7.241544,1.4222007,3.0225236,8.284078,-1.5181073,13.962372,-44.623524,59.41485,0.59657526,-6.3344145,-1.4160926,-11.799002,-12.207728,62.268734,68.27537,19.803497,2.1384284,4.2120137
57,0.37383949756622314,-2.7813940048217773,78.33004760742188,-0.5192510850855522,-4.918367803807278,82.68967992360002,7.861375,7.494598,20.576967,15.94748,-15.785533,-5.827887,4.2086763,-5.816568,-9.515286,9.231389,-10.970524,7.241022,1.3907583,3.030881,8.279712,-1.506528,13.961112,-44.618313,59.425163,0.5819388,-6.3231564,-1.4043485,-11.781801,-12.207148,62.256172,68.24513,19.85144,2.1215916,4.185126
58,0.3855050206184387,-2.797783613204956,78.33219909667969,-0.502959015465386,-4.9331983469966945,82.6534101557721,7.897655,7.4840965,20.610466,15.895668,-15.746312,-5.8363914,4.1742954,-5.822072,-9.484799,9.294019,-10.978177,7.2496223,1.3870949,3.0267627,8.27116,-1.4982185,13.95629,-44.611385,59.44476,0.60342973,-6.311145,-1.3981994,-11.757366,-12.205567,62.235424,68.207054,19.922705,2.0994077,4.143131
59,0.39932504296302795,-2.8168833255767822,78.3321762084961,-0.4923918991709909,-4.950205323316367,82.61262590704476,7.9341307,7.4834085,20.64641,15.851831,-15.713006,-5.849585,4.151184,-5.8169546,-9.45128,9.334604,-10.973924,7.2548976,1.3691348,3.0352144,8.26634,-1.488398,13.950287,-44.602757,59.46198,0.6214717,-6.3018503,-1.3926449,-11.7245865,-12.20371,62.208008,68.16726,19.965082,2.0760891,4.0968456
60,0.4107973575592041,-2.835329055786133,78.3331298828125,-0.48893122596741,-4.969778593675031,82.56520449950183,7.9717755,7.493856,20.688288,15.816745,-15.689346,-5.869954,4.127519,-5.801269,-9.407438,9.376987,-10.975445,7.2468467,1.3579445,3.0526283,8.2607565,-1.4711167,13.946423,-44.59241,59.471832,0.64417046,-6.2942142,-1.3914264,-11.692766,-12.2025585,62.183125,68.13337,20.003407,2.058597,4.0571632
61,0.4193790853023529,-2.8523614406585693,78.3377685546875,-0.4951103870256408,-4.995972498453002,82.50152706585493,8.025123,7.5202537,20.747,15.779491,-15.679993,-5.9026027,4.1091404,-5.76685,-9.342477,9.416776,-10.984213,7.2196,1.3708731,3.085767,8.250997,-1.4349808,13.940269,-44.57013,59.471336,0.69865614,-6.286287,-1.3999919,-11.651877,-12.2016115,62.138348,68.10682,20.013039,2.050402,4.026633
62,0.4286276698112488,-2.8739399909973145,78.33783721923828,-0.5113034462520879,-5.027951811967883,82.42542944346128,8.090517,7.559725,20.818,15.741402,-15.680811,-5.944753,4.101843,-5.7162433,-9.26295,9.440734,-10.989811,7.1795335,1.402739,3.1331377,8.247723,-1.4079136,13.931927,-44.558838,59.47249,0.75569844,-6.27949,-1.4149525,-11.631642,-12.201624,62.11612,68.09478,20.050491,2.0468397,4.000809
63,0.4478319585323334,-2.8833212852478027,78.33204650878906,-0.5254356309664544,-5.056209182291545,82.35413750915659,8.140272,7.5994105,20.882301,15.720047,-15.681381,-5.9864926,4.0774198,-5.6704254,-9.185597,9.489702,-11.007611,7.1356177,1.4194522,3.1777399,8.240571,-1.3770301,13.923494,-44.53773,59.473705,0.8096194,-6.2755437,-1.4297776,-11.596568,-12.2023735,62.070503,68.07793,20.052898,2.0460205,3.9782107
64,0.4638270139694214,-2.9052085876464844,78.32747650146484,-0.5255457805214557,-5.071868039714299,82.30531667832763,8.14849,7.626724,20.920351,15.729844,-15.669112,-6.01786,4.0268497,-5.6463537,-9.129568,9.56703,-11.0332985,7.096648,1.4130605,3.2020495,8.238082,-1.3667974,13.914151,-44.5159,59.480835,0.8390011,-6.2746353,-1.439537,-11.560025,-12.203695,61.98705,68.05384,20.03369,2.0461817,3.9618647
65,0.4794088304042816,-2.9318206310272217,78.33106994628906,-0.5064420522089476,-5.070381583068338,82.29080003841887,8.101277,7.6337647,20.918638,15.777165,-15.635317,-6.033022,3.9428506,-5.6549854,-9.107206,9.680178,-11.068523,7.0660634,1.3846569,3.195454,8.246644,-1.3850855,13.910605,-44.506615,59.48912,0.836562,-6.277855,-1.4405624,-11.579427,-12.2038965,61.939117,68.05107,20.100195,2.0461354,3.9590464
66,0.4911428689956665,-2.975675344467163,78.33833312988281,-0.47444182135609003,-5.057740030690455,82.29779987262229,8.016988,7.626589,20.891842,15.849677,-15.586733,-6.0381284,3.8312945,-5.686507,-9.104218,9.8266945,-11.115267,7.039004,1.3257071,3.1646674,8.2606735,-1.4209423,13.907466,-44.48023,59.506687,0.8216822,-6.2857876,-1.4421906,-11.558363,-12.202209,61.76624,68.021774,20.036413,2.0501094,3.9673924
67,0.5119296908378601,-3.0139737129211426,78.34139251708984,-0.4391362603004286,-5.039245311223671,82.31063427946529,7.911336,7.6204076,20.857538,15.945668,-15.53939,-6.041845,3.701528,-5.7231283,-9.105209,9.996054,-11.170818,7.010969,1.2999966,3.1288767,8.278674,-1.4761466,13.908079,-44.48337,59.520527,0.8007909,-6.292845,-1.4387685,-11.589017,-12.199618,61.664455,68.02117,20.102196,2.0516365,3.9751985
68,0.532722532749176,-3.050943613052368,78.3425064086914,-0.40963418404170565,-5.020529575333499,82.31189951538725,7.8022842,7.6278763,20.835613,16.059467,-15.507874,-6.0526223,3.55638,-5.749809,-9.091942,10.191533,-11.239778,6.9777803,1.276142,3.1063848,8.281864,-1.512846,13.910295,-44.47738,59.52209,0.7776037,-6.297334,-1.4320074,-11.589771,-12.197702,61.588776,68.01,20.1708,2.0502343,3.963988
69,0.5504788160324097,-3.0899360179901123,78.34416961669922,-0.3927109157883094,-5.0081013319810985,82.29048504870582,7.707014,7.6584873,20.839668,16.184538,-15.497427,-6.079524,3.4133322,-5.753164,-9.055078,10.390083,-11.312894,6.9381933,1.320249,3.106614,8.284059,-1.5506623,13.912502,-44.48943,59.51524,0.7783545,-6.297296,-1.4327655,-11.608657,-12.197336,61.586384,68.01769,20.373446,2.0482905,3.9327216
70,0.5784271955490112,-3.1178066730499268,78.34105682373047,-0.38179962617445423,-4.996389523059803,82.25723701775989,7.612033,7.702093,20.857208,16.323582,-15.499017,-6.1156116,3.2601922,-5.746281,-9.004647,10.607235,-11.396251,6.89454,1.378992,3.1200447,8.275236,-1.5840092,13.91679,-44.513332,59.50521,0.7648403,-6.2957673,-1.4351943,-11.607905,-12.198809,61.61709,68.02344,20.615427,2.0452447,3.8834755
71,0.6045104265213013,-3.15547776222229,78.33837127685547,-0.3660111839325132,-4.976462440002032,82.22923302384037,7.4899707,7.746006,20.866169,16.490011,-15.507708,-6.146259,3.0740106,-5.7470107,-8.955038,10.870351,-11.498752,6.8471527,1.4561657,3.1261153,8.264999,-1.6172439,13.922035,-44.5304,59.479477,0.7715996,-6.2921734,-1.4233282,-11.64308,-12.203243,61.714436,68.036354,20.933043,2.034559,3.831501
72,0.6290603876113892,-3.214373826980591,78.33411407470703,-0.33310652314271927,-4.938293363434799,82.22434690336576,7.3113775,7.7766557,20.844183,16.700127,-15.520445,-6.1564803,2.8225474,-5.776429,-8.919686,11.226108,-11.640376,6.796368,1.4800113,3.1064243,8.247691,-1.6303192,13.929448,-44.483894,59.425846,0.8022013,-6.287563,-1.3825386,-11.656497,-12.210156,61.763233,68.01249,21.107592,2.0132,3.7866468
73,0.6578566431999207,-3.273711681365967,78.3314437866211,-0.28220234744529465,-4.875500436482589,82.25105746314665,7.061849,7.78976,20.780756,16.957499,-15.536422,-6.1346297,2.499175,-5.840279,-8.9043455,11.673287,-11.819329,6.7402196,1.5045134,3.0429914,8.240306,-1.6730323,13.938235,-44.41325,59.364395,0.8850733,-6.275254,-1.3016224,-11.731524,-12.21674,61.82749,67.98472,21.2891,1.980111,3.7627125
74,0.6900394558906555,-3.3390276432037354,78.32500457763672,-0.2180116244343027,-4.794428694503004,82.29875045813719,6.7590275,7.792691,20.689592,17.254011,-15.55753,-6.0913534,2.1193333,-5.9276323,-8.900276,12.194163,-12.029045,6.6782527,1.4665074,2.9517138,8.23859,-1.6848509,13.965398,-44.244682,59.253616,1.0219045,-6.257237,-1.197295,-11.819536,-12.230313,61.905483,67.92368,21.404346,1.939838,3.7471294
75,0.7242427468299866,-3.4087448120117188,78.3183364868164,-0.14173510780376286,-4.706847004672007,82.3551215227006,6.427933,7.7868037,20.586134,17.57838,-15.5788765,-6.045633,1.6940721,-6.0341682,-8.898906,12.790634,-12.270456,6.6133623,1.4710563,2.847567,8.228626,-1.7157065,13.985525,-44.107903,59.14481,1.1461054,-6.246519,-1.0784338,-11.90315,-12.239146,61.94447,67.86262,21.47052,1.8848263,3.731006
76,0.7560688257217407,-3.489926338195801,78.30841827392578,-0.05552237174181857,-4.625141316036455,82.40863289956775,6.092365,7.7747364,20.48468,17.923553,-15.597231,-6.016344,1.2366321,-6.154925,-8.893008,13.462021,-12.543301,6.5484385,1.4795296,2.7508368,8.231609,-1.730223,14.018633,-43.953842,58.98586,1.2268528,-6.25528,-0.9689085,-12.045044,-12.253798,62.09147,67.8185,21.58306,1.8137524,3.7045295
77,0.8012059926986694,-3.558342218399048,78.29215240478516,0.03584241213410036,-4.55308768599986,82.45524084113188,5.7631664,7.7607346,20.38951,18.28025,-15.61098,-6.0128407,0.7514856,-6.284471,-8.881119,14.209301,-12.850342,6.4827776,1.5083858,2.6738749,8.222063,-1.7271603,14.049497,-43.815395,58.80086,1.2331212,-6.288725,-0.87700427,-12.139062,-12.270316,62.191902,67.76403,21.544277,1.7258759,3.6634977
78,0.8407652378082275,-3.639413833618164,78.27298736572266,0.1336593520704008,-4.484417092332862,82.50195281412591,5.4221725,7.7442713,20.291876,18.664616,-15.623835,-6.02384,0.23271552,-6.4268446,-8.866776,15.030078,-13.189465,6.414583,1.5396866,2.6045268,8.2141485,-1.7018656,14.091697,-43.660965,58.569687,1.2008389,-6.3388357,-0.7933758,-12.238647,-12.298515,62.32195,67.701904,21.450775,1.6237158,3.6144633
79,0.881295919418335,-3.7331383228302,78.24951171875,0.24740760709037077,-4.415174062302315,82.5511642082855,5.0676265,7.7126594,20.192165,19.0647,-15.63379,-6.037373,-0.32805344,-6.592411,-8.846749,15.92929,-13.558212,6.3450074,1.6169893,2.521928,8.218835,-1.7057813,14.133023,-43.53665,58.33395,1.1431087,-6.4044495,-0.6987576,-12.4145,-12.331319,62.556225,67.659164,21.490875,1.5035139,3.5584283
80,0.9217668175697327,-3.8411834239959717,78.22589874267578,0.3890379551160137,-4.341176973411512,82.60513987417168,4.6909657,7.6560354,20.089582,19.483633,-15.64046,-6.0416694,-0.9357732,-6.7905602,-8.817964,16.903585,-13.952845,6.2751274,1.6934834,2.4052026,8.227599,-1.6966248,14.176488,-43.366863,58.081352,1.1180975,-6.483873,-0.5834154,-12.560187,-12.370168,62.722942,67.56511,21.47157,1.3667288,3.490793
81,0.9591870903968811,-3.957059144973755,78.1933822631836,0.5625311435666682,-4.254498508260133,82.65878588818366,4.2882056,7.564208,19.99211,19.909657,-15.6404085,-6.030835,-1.6118597,-7.030551,-8.770039,17.97064,-14.378588,6.2086315,1.7978736,2.2449505,8.250718,-1.7053279,14.229542,-43.187576,57.81351,1.1111616,-6.580599,-0.4332451,-12.757919,-12.421309,62.944874,67.44993,21.554403,1.2054266,3.405737
82,1.0131165981292725,-4.076289176940918,78.15548706054688,0.763429144889806,-4.159620343311039,82.71288573592594,3.86285,7.4460173,19.897646,20.349436,-15.636119,-6.012515,-2.3464456,-7.304682,-8.705953,19.124262,-14.834912,6.1425114,1.9097594,2.0530336,8.28363,-1.7011887,14.303092,-42.977303,57.504063,1.116605,-6.693306,-0.26168513,-12.952283,-12.496093,63.156345,67.279816,21.620985,1.024646,3.304879
83,1.0784173011779785,-4.1917033195495605,78.11296844482422,0.9804781371974152,-4.072091855218127,82.77899903241746,3.4254887,7.315363,19.792025,20.815083,-15.629967,-5.995117,-3.1000216,-7.5996513,-8.642118,20.329966,-15.306807,6.06765,2.0459557,1.838658,8.329631,-1.7009214,14.377163,-42.75508,57.188435,1.1409376,-6.814023,-0.08544819,-13.149132,-12.576352,63.341293,67.08085,21.711563,0.8347259,3.205985
84,1.1508064270019531,-4.307999610900879,78.06869506835938,1.203913582290128,-4.007285094123842,82.86828755865015,2.9850428,7.186782,19.66075,21.322084,-15.625945,-5.9873185,-3.8330379,-7.9026556,-8.595764,21.553959,-15.7795105,5.9753156,2.1845758,1.6112864,8.397922,-1.6882721,14.452148,-42.491245,56.863403,1.1997503,-6.93434,0.07333911,-13.343482,-12.659811,63.49618,66.84579,21.839739,0.6486549,3.1248932
85,1.2252060174942017,-4.433714866638184,78.01709747314453,1.4384046200431804,-3.9670394182166224,82.97886237299106,2.5468836,7.0523086,19.505093,21.862722,-15.619929,-5.989734,-4.5496593,-8.219627,-8.558152,22.806387,-16.256868,5.861569,2.3259168,1.3641437,8.488983,-1.6539106,14.528631,-42.16719,56.52403,1.3217932,-7.0506077,0.21109492,-13.535715,-12.744739,63.609,66.57654,22.053001,0.46941566,3.0819056
86,1.308579921722412,-4.5677361488342285,77.96070098876953,1.689749433128181,-3.9436964310686475,83.10588888431114,2.1040988,6.9068522,19.331703,22.434263,-15.612388,-5.999173,-5.2667346,-8.555871,-8.523287,24.09945,-16.744795,5.730763,2.4846895,1.0951592,8.607222,-1.6190699,14.608131,-41.807568,56.173004,1.4868462,-7.1675763,0.33960307,-13.790559,-12.829607,63.78524,66.30365,22.449936,0.28901443,3.0648203
87,1.398818016052246,-4.704361915588379,77.89923858642578,1.9404476646796127,-3.9395279011703703,83.25708926535751,1.6530569,6.7666802,19.134232,23.047066,-15.607089,-6.0187025,-5.961439,-8.898782,-8.512808,25.398384,-17.228647,5.5873504,2.6022522,0.81911117,8.71946,-1.5338387,14.68882,-41.37855,55.804653,1.6640726,-7.289037,0.45334968,-13.834735,-12.914518,63.626904,65.90549,22.397923,0.11151057,3.032606
88,1.498021125793457,-4.843210220336914,77.83483123779297,2.178939646377431,-3.9553288674870224,83.43976037562092,1.1874943,6.648217,18.905695,23.715508,-15.610564,-6.051262,-6.6141877,-9.236124,-8.549385,26.67506,-17.69687,5.436317,2.768524,0.5506748,8.879479,-1.4868165,14.772414,-40.985706,55.434296,1.8069927,-7.4186234,0.5615709,-14.108674,-13.001247,63.821747,65.585526,22.678753,-0.07651025,2.9615145
89,1.6015344858169556,-4.985137462615967,77.76422119140625,2.40256102245337,-3.997967526689316,83.65525877639288,0.7144464,6.551043,18.646574,24.442368,-15.620027,-6.104725,-7.2137246,-9.569918,-8.643669,27.927788,-18.14824,5.278649,2.9017823,0.2873951,9.054547,-1.4032505,14.857621,-40.543777,55.0451,1.9235331,-7.561534,0.6522901,-14.297086,-13.086177,63.90369,65.196724,22.59832,-0.26017308,2.8177435
90,1.7159554958343506,-5.1308674812316895,77.68766021728516,2.6198377331318805,-4.064380601865007,83.89942670699887,0.23410915,6.4666543,18.359854,25.220482,-15.633875,-6.1757436,-7.7712507,-9.906578,-8.782811,29.168537,-18.589857,5.111858,3.04026,0.023215083,9.257282,-1.319113,14.945689,-40.088234,54.648285,2.019106,-7.7144804,0.73052275,-14.520285,-13.170365,64.0366,64.79444,22.458397,-0.44314936,2.6276991
91,1.836530327796936,-5.2718048095703125,77.60980224609375,2.8244538099792873,-4.1430224439789205,84.17232342527215,-0.2625539,6.395975,18.042694,26.03391,-15.653508,-6.2499537,-8.299526,-10.240021,-8.954618,30.390163,-19.016306,4.9363685,3.18084,-0.23070739,9.472803,-1.2296582,15.034538,-39.62158,54.240307,2.1006236,-7.869116,0.8033941,-14.761961,-13.253743,64.19638,64.38123,22.322174,-0.6401603,2.4286604
92,1.9623498916625977,-5.421954154968262,77.53030395507812,3.0120789405852464,-4.222173683279373,84.47348144732625,-0.7939027,6.3449674,17.694016,26.889482,-15.687487,-6.3160615,-8.810842,-10.562408,-9.146561,31.58365,-19.427057,4.752938,3.321316,-0.46269807,9.683317,-1.1364334,15.120214,-39.1554,53.825897,2.1662285,-8.017335,0.8785595,-14.980348,-13.337003,64.32184,63.94909,22.2104,-0.8661736,2.2582397
93,2.0878303050994873,-5.584495544433594,77.44638061523438,3.1844481027285685,-4.299198321570804,84.80015245500086,-1.355085,6.3076186,17.314138,27.770864,-15.731096,-6.367855,-9.310645,-10.872473,-9.353605,32.750904,-19.813251,4.554389,3.4791334,-0.6656859,9.888418,-1.0555527,15.198442,-38.712555,53.41113,2.211523,-8.154383,0.95213854,-15.214956,-13.422522,64.4738,63.52581,22.2292,-1.1409533,2.1224682
94,2.231126308441162,-5.741292476654053,77.35502624511719,3.3423520897657957,-4.380344929638126,85.1532951494368,-1.940613,6.2824326,16.904276,28.682913,-15.782179,-6.4148927,-9.791371,-11.1733465,-9.583994,33.8961,-20.179583,4.3436227,3.645457,-0.84566087,10.091906,-0.97756374,15.266669,-38.27662,52.995724,2.2403512,-8.285858,1.0218956,-15.441865,-13.510992,64.619804,63.09202,22.283173,-1.4507226,2.0026321
95,2.382160186767578,-5.895260334014893,77.25790405273438,3.479735407315084,-4.466567907290336,85.53936889545925,-2.5519247,6.2723274,16.459684,29.62638,-15.838175,-6.464481,-10.237977,-11.462615,-9.848572,34.997555,-20.532795,4.1375895,3.8108568,-1.0111005,10.301093,-0.9025146,15.325907,-37.83689,52.58511,2.2523682,-8.419241,1.1015483,-15.687277,-13.601428,64.79053,62.641205,22.397858,-1.7647895,1.9037472
96,2.5322105884552,-6.057211875915527,77.15790557861328,3.5915270444394483,-4.558898260637095,85.96452086633565,-3.1913636,6.2811155,15.9762535,30.603966,-15.897927,-6.5238547,-10.635851,-11.737968,-10.15851,36.03527,-20.88055,3.9530995,3.9604688,-1.1708926,10.52102,-0.81862557,15.379186,-37.371223,52.176743,2.2550821,-8.561837,1.2037562,-15.953902,-13.690205,64.98443,62.15594,22.555618,-2.0518448,1.8301194
97,2.6994214057922363,-6.212225437164307,77.05339050292969,3.666755321271919,-4.6574178676337326,86.43039701438705,-3.860059,6.32028,15.449784,31.622606,-15.963133,-6.600519,-10.97618,-11.986398,-10.517881,36.994953,-21.208609,3.8016515,4.080172,-1.3375504,10.754196,-0.71326977,15.431974,-36.849106,51.769146,2.2694595,-8.713867,1.3463484,-16.245975,-13.771142,65.21563,61.61796,22.792208,-2.3036015,1.7913314
98,2.8684918880462646,-6.371811866760254,76.94794464111328,3.711801428867973,-4.761058945234027,86.93371063418007,-4.556768,6.3823423,14.883214,32.679245,-16.034298,-6.690617,-11.269953,-12.212795,-10.92154,37.89515,-21.520264,3.6727288,4.178573,-1.5045527,10.998584,-0.59323436,15.487197,-36.286697,51.35738,2.2852886,-8.871716,1.5170099,-16.572832,-13.841094,65.4934,61.050358,23.117409,-2.537353,1.7829987
99,3.0403125286102295,-6.546048641204834,76.83130645751953,3.7435703537013536,-4.869771309052985,87.47371553198381,-5.274839,6.4397874,14.282411,33.750862,-16.102217,-6.7824845,-11.525821,-12.441697,-11.367793,38.751453,-21.843071,3.5505261,4.273598,-1.6521803,11.249065,-0.47370315,15.541547,-35.732372,50.93666,2.2620783,-9.037028,1.6829398,-16.910563,-13.902302,65.76391,60.482006,23.418915,-2.759451,1.7873516
100,3.2121613025665283,-6.727814674377441,76.70703125,3.7790261486868197,-4.9837619629353025,88.04977707745643,-6.0081673,6.4649954,13.65168,34.81443,-16.156343,-6.8627167,-11.751643,-12.69767,-11.855256,39.57857,-22.203411,3.4195986,4.3911524,-1.7587664,11.500081,-0.38161975,15.585227,-35.24865,50.515965,2.1537347,-9.212205,1.8129597,-17.241453,-13.960429,65.98061,59.94449,23.601088,-2.9760609,1.7864516
101,3.3875818252563477,-6.917494773864746,76.58126831054688,3.83235900882976,-5.111860365158275,88.66038337747825,-6.7364306,6.443719,12.999076,35.85163,-16.202747,-6.9300094,-11.9472275,-12.994842,-12.372017,40.394173,-22.611605,3.2819765,4.5443954,-1.8136612,11.756061,-0.32376546,15.611161,-34.861317,50.099556,1.9454322,-9.401105,1.8852358,-17.56625,-14.027862,66.143074,59.444866,23.641241,-3.1837506,1.778849
102,3.5786900520324707,-7.112632751464844,76.44500732421875,3.890115156560835,-5.251370190697511,89.30649104827067,-7.4685698,6.3915186,12.319122,36.878036,-16.242628,-6.9893556,-12.106625,-13.316215,-12.9237585,41.182365,-23.05002,3.145038,4.724035,-1.8257743,12.016702,-0.29761535,15.615516,-34.54504,49.69816,1.6604232,-9.602266,1.9221125,-17.884552,-14.112779,66.26517,58.95285,23.588593,-3.3793461,1.7721328
103,3.783430576324463,-7.293637752532959,76.29988861083984,3.931402368853914,-5.38441684923286,89.99049336373736,-8.246611,6.3308096,11.602152,37.933594,-16.267654,-7.0400815,-12.235101,-13.640007,-13.533075,41.920544,-23.511887,3.0014102,4.9152207,-1.8059402,12.271106,-0.30016163,15.600488,-34.268703,49.313084,1.31946,-9.809172,1.9571928,-18.204636,-14.20536,66.358315,58.464653,23.489227,-3.5716362,1.7623903
104,3.979902744293213,-7.482295989990234,76.14962005615234,3.935375887882173,-5.492819539716534,90.71495318589743,-9.111105,6.281898,10.837544,39.054226,-16.266766,-7.082228,-12.336723,-13.943984,-14.222634,42.582565,-23.989048,2.843749,5.0884304,-1.7640201,12.513684,-0.3146454,15.572378,-33.978218,48.928017,0.95004267,-10.016054,2.0203836,-18.537216,-14.317242,66.457115,57.948086,23.401958,-3.7675612,1.7442784
105,4.206314563751221,-7.66586971282959,75.99771118164062,3.8964995440891226,-5.580316968463429,91.48318303022369,-10.066868,6.2491794,10.016238,40.263054,-16.240383,-7.127805,-12.389571,-14.223923,-15.013002,43.145176,-24.496267,2.6690915,5.2429695,-1.7069653,12.749326,-0.33781374,15.540647,-33.67352,48.538815,0.52135515,-10.223053,2.123742,-18.894783,-14.434156,66.574585,57.412273,23.341389,-3.9689808,1.7079957
106,4.410531997680664,-7.8705668449401855,75.84716033935547,3.8263302091297673,-5.6526533980563025,92.2930346406117,-11.092665,6.2174754,9.145853,41.533497,-16.19127,-7.1743083,-12.398899,-14.489112,-15.88775,43.628376,-25.032555,2.4825559,5.3830843,-1.6304438,12.979897,-0.36594635,15.508131,-33.36676,48.139492,0.032929573,-10.433114,2.247003,-19.263956,-14.5534525,66.68972,56.863728,23.264894,-4.172232,1.6584902
107,4.613458156585693,-8.079524040222168,75.69169616699219,3.7294490484569085,-5.694180735963513,93.13906973120176,-12.190979,6.176928,8.241061,42.828808,-16.113583,-7.200815,-12.411062,-14.739134,-16.81414,44.073406,-25.566257,2.288722,5.5157633,-1.5324032,13.193058,-0.40048927,15.474606,-33.06196,47.725323,-0.45242113,-10.642833,2.377566,-19.649494,-14.674821,66.79396,56.319572,23.188953,-4.379326,1.6160161
108,4.832123279571533,-8.295859336853027,75.527587890625,3.6071828463164293,-5.6890088317814955,94.01605891157907,-13.364068,6.118203,7.316302,44.11193,-16.000467,-7.187122,-12.471651,-14.97503,-17.759228,44.518204,-26.063953,2.0918682,5.6462045,-1.4100168,13.375224,-0.44178993,15.437509,-32.760704,47.29315,-0.8702511,-10.848699,2.5033162,-20.040297,-14.799029,66.86288,55.78855,23.108196,-4.591927,1.6005307
109,5.063223838806152,-8.503942489624023,75.36508178710938,3.4558943050145383,-5.625912553318705,94.92264622885422,-14.625827,6.0475054,6.3611064,45.38664,-15.848219,-7.153332,-12.590312,-15.18346,-18.71855,44.95606,-26.533398,1.8855995,5.778645,-1.2583864,13.513473,-0.48802984,15.394491,-32.454082,46.84296,-1.2487466,-11.055181,2.6160371,-20.433395,-14.92693,66.88123,55.265972,23.012253,-4.8119726,1.6371096
110,5.29233980178833,-8.71961498260498,75.21199035644531,3.2764539452011023,-5.514316166862095,95.86141085583448,-15.968879,5.9625883,5.3720193,46.66672,-15.6590395,-7.1045113,-12.744576,-15.369243,-19.707922,45.37153,-26.98582,1.6702703,5.9113474,-1.0800785,13.618565,-0.54338443,15.3456955,-32.147346,46.380203,-1.6078293,-11.262493,2.7248094,-20.846117,-15.05946,66.87673,54.755085,22.92393,-5.0384936,1.7088164
111,5.520529270172119,-8.953086853027344,75.05511474609375,3.083175927589578,-5.370095596217815,96.83211551652724,-17.362839,5.8449593,4.3762126,47.929993,-15.434444,-6.997241,-12.933811,-15.563446,-20.725004,45.79635,-27.397816,1.4602481,6.037819,-0.8825973,13.710922,-0.6115995,15.290932,-31.858192,45.906258,-1.8684912,-11.459912,2.8430538,-21.268795,-15.197182,66.85899,54.262447,22.847694,-5.2679152,1.7718725
112,5.749917030334473,-9.196610450744629,74.9003677368164,2.8903244849919005,-5.209746616140559,97.83509550299262,-18.777136,5.6771607,3.4004035,49.15266,-15.172588,-6.787616,-13.155492,-15.7967415,-21.768187,46.259914,-27.743864,1.2698767,6.1517143,-0.6734096,13.810446,-0.7009521,15.230296,-31.608109,45.427208,-1.9554656,-11.6367,2.9856067,-21.692606,-15.341533,66.83865,53.796734,22.78657,-5.496633,1.7830085
113,5.983951091766357,-9.455512046813965,74.74958038330078,2.6983174851411724,-5.026554685632394,98.8814835654106,-20.253706,5.4273534,2.3788447,50.367207,-14.833577,-6.4401093,-13.428555,-16.086063,-22.84595,46.786522,-27.99967,1.1119221,6.2469835,-0.45356414,13.920562,-0.82096255,15.164906,-31.40371,44.9318,-1.8165376,-11.7857895,3.1493466,-22.157625,-15.494063,66.8661,53.367027,22.797743,-5.7277026,1.6931012
114,6.220684051513672,-9.71485710144043,74.60438537597656,2.5018459082391784,-4.814882929663815,99.9671681866931,-21.788992,5.112191,1.3261298,51.57121,-14.425767,-5.9888473,-13.746883,-16.415009,-23.956278,47.35644,-28.185415,0.97639126,6.327439,-0.21916153,14.0318985,-0.96491987,15.094972,-31.23205,44.420975,-1.502529,-11.91318,3.3300037,-22.655529,-15.654899,66.92151,52.965397,22.860708,-5.961755,1.5379472
115,6.454633712768555,-9.968157768249512,74.47001647949219,2.303840552046226,-4.592682685524799,101.06979034937456,-23.290653,4.796697,0.38514486,52.693077,-14.02257,-5.489651,-14.068462,-16.76272,-25.083303,47.929375,-28.33925,0.84257954,6.410352,0.029415188,14.148769,-1.1222852,15.01888,-31.092323,43.919575,-1.0916857,-12.027478,3.5416336,-23.14771,-15.823816,66.95484,52.590343,22.931759,-6.1921806,1.4029037
116,6.692240238189697,-10.227983474731445,74.34104919433594,2.1048542555039678,-4.377739199899743,102.16741017979813,-24.672422,4.5565057,-0.30604157,53.665604,-13.704819,-4.9914174,-14.3536825,-17.10666,-26.211784,48.46612,-28.500578,0.6899082,6.5235214,0.29215625,14.281242,-1.2957388,14.935065,-30.994902,43.457096,-0.6634428,-12.137708,3.7999146,-23.674091,-16.00126,66.991714,52.27445,23.077696,-6.4130883,1.3747115
117,6.926381587982178,-10.496208190917969,74.21780395507812,1.8985589343334266,-4.165668065394116,103.27253622127795,-25.9636,4.3840995,-0.8016984,54.483097,-13.443779,-4.5037255,-14.595688,-17.440926,-27.35966,48.953796,-28.674625,0.5051357,6.6410756,0.5794413,14.413202,-1.4746298,14.839773,-30.941803,43.03817,-0.21581903,-12.252056,4.1004415,-24.059649,-16.187992,66.83584,51.95491,23.058596,-6.6187487,1.4916908
118,7.168396472930908,-10.765803337097168,74.0897445678711,1.6855614433377093,-3.949039144462995,104.39088018658187,-27.198906,4.2614837,-1.1499075,55.180428,-13.21943,-3.9943144,-14.816592,-17.77763,-28.52805,49.415775,-28.842289,0.30253273,6.78437,0.8881323,14.556732,-1.6887491,14.734437,-30.953035,42.658894,0.28384134,-12.362569,4.442405,-24.488283,-16.387257,66.6744,51.69633,23.129894,-6.814675,1.7056679
119,7.407311916351318,-11.023150444030762,73.96123504638672,1.4796901470819068,-3.742841645121304,105.49063981352509,-28.307026,4.2579207,-1.2094489,55.76141,-13.125789,-3.4438856,-15.015352,-18.117674,-29.678663,49.858753,-29.00192,0.10227707,6.979789,1.2007365,14.72627,-1.9260169,14.619742,-30.993395,42.311256,0.81094706,-12.454004,4.8341937,-25.095995,-16.597042,66.69155,51.543106,23.470232,-7.0062294,1.9651885
120,7.657638072967529,-11.269598960876465,73.84537506103516,1.2940791924426978,-3.563406067111118,106.54062422746186,-29.214254,4.443568,-0.8405996,56.22791,-13.258742,-2.8326774,-15.190613,-18.46152,-30.772797,50.28966,-29.152708,-0.07597947,7.1922545,1.5016322,14.89587,-2.1153827,14.489766,-30.976734,41.980854,1.3380667,-12.51165,5.2749295,-25.571102,-16.815918,66.66007,51.355423,23.644867,-7.1956105,2.212729
121,7.888923645019531,-11.516592025756836,73.73516845703125,1.1181451862141931,-3.4172163282229637,107.53648474464796,-29.891928,4.856921,0.022711158,56.52028,-13.671565,-2.120439,-15.327617,-18.791708,-31.814087,50.69339,-29.296247,-0.22536191,7.4520307,1.7991688,15.083231,-2.2824466,14.341887,-30.931118,41.680737,1.8698363,-12.520223,5.801594,-26.045631,-17.043766,66.706,51.190342,23.859802,-7.381036,2.4237597
122,8.116399765014648,-11.77763557434082,73.61634063720703,0.9494395099060431,-3.2958015365221183,108.49441139949062,-30.372421,5.456048,1.2896476,56.661865,-14.311983,-1.3306056,-15.430939,-19.112146,-32.819725,51.06809,-29.430765,-0.35715827,7.7473245,2.0989752,15.28408,-2.4369113,14.174975,-30.869396,41.413025,2.418196,-12.489826,6.398836,-26.521582,-17.278742,66.80557,51.054367,24.109941,-7.5613956,2.6305845
123,8.351900100708008,-12.036264419555664,73.49388885498047,0.8092812960737589,-3.192159346232885,109.41400340683822,-30.676493,6.1876564,2.8659296,56.790268,-15.12388,-0.5400275,-15.533456,-19.45912,-33.770798,51.45647,-29.559185,-0.4791391,8.067047,2.3790479,15.484501,-2.568504,13.992377,-30.766766,41.167503,2.9604878,-12.444519,7.001336,-26.99816,-17.520967,66.963264,50.938698,24.349665,-7.743457,2.8694322
124,8.572253227233887,-12.294934272766113,73.38219451904297,0.7178315595978573,-3.099442217929653,110.29456287672721,-30.825592,6.9999814,4.6605935,57.038017,-16.046318,0.17692253,-15.665012,-19.86797,-34.648304,51.89728,-29.68263,-0.59938604,8.399239,2.6165698,15.672426,-2.661782,13.800689,-30.59521,40.92764,3.4761643,-12.409845,7.5435557,-27.474817,-17.770962,67.185074,50.83082,24.53457,-7.934232,3.176118
125,8.77721118927002,-12.545432090759277,73.27410125732422,0.6986668580932018,-3.0256850050100366,111.13382756255038,-30.771097,7.901533,6.774193,57.379276,-17.149824,0.811882,-15.835114,-20.375395,-35.435917,52.423046,-29.800865,-0.71239895,8.746583,2.795187,15.859526,-2.7090566,13.604292,-30.346037,40.678093,3.9634914,-12.389965,8.0477295,-27.949434,-18.030293,67.461945,50.74132,24.630524,-8.145875,3.5845582
126,8.969736099243164,-12.807825088500977,73.1634292602539,0.7343770670645117,-2.973388839477326,111.93359517848013,-30.492487,8.891952,9.220219,57.76288,-18.439804,1.3923979,-16.023966,-20.95419,-36.14763,53.00341,-29.91291,-0.8169511,9.102607,2.9281445,16.043324,-2.7029169,13.40317,-30.024042,40.4207,4.432615,-12.372999,8.533463,-28.352768,-18.301344,67.73156,50.63736,24.57583,-8.372006,4.0664935
127,9.155912399291992,-13.069952964782715,73.04785919189453,0.7867234933613786,-2.9285553619729687,112.69857763936196,-30.06703,9.918171,11.778846,58.285477,-19.754448,1.9081155,-16.222183,-21.545128,-36.808422,53.592064,-30.023758,-0.92846215,9.478721,3.0372868,16.212915,-2.6712396,13.203043,-29.655836,40.17516,4.8759995,-12.361734,8.936857,-28.824594,-18.580444,68.13465,50.543415,24.605312,-8.591034,4.566689
128,9.339555740356445,-13.327542304992676,72.93827056884766,0.8183784971297916,-2.876982556898865,113.43306003959034,-29.586855,10.942444,14.22941,59.043724,-20.929604,2.3577006,-16.420504,-22.086899,-37.443943,54.141003,-30.137651,-1.0629315,9.863608,3.1442323,16.347479,-2.620326,13.010839,-29.246647,39.953236,5.285816,-12.36046,9.190563,-29.392529,-18.857693,68.71373,50.43949,24.79839,-8.780878,5.02808
129,9.51112174987793,-13.583154678344727,72.82197570800781,0.8292317831030436,-2.8132258659937137,114.12032869497651,-29.06091,11.981112,16.602962,60.09788,-21.912828,2.7530577,-16.633501,-22.56748,-38.040245,54.653423,-30.268747,-1.2413021,10.233389,3.2409775,16.42545,-2.4993467,12.826123,-28.726774,39.739998,5.6927123,-12.380643,9.237177,-29.867737,-19.133154,69.31974,50.242924,24.931421,-8.937041,5.437499
130,9.680535316467285,-13.840201377868652,72.70849609375,0.8345926292124292,-2.745632295540563,114.76360767010812,-28.438168,13.042595,18.996796,61.384274,-22.792871,3.0974276,-16.863438,-23.017605,-38.589676,55.15595,-30.413834,-1.4509281,10.62468,3.318457,16.478794,-2.341342,12.652322,-28.13667,39.53293,6.0898514,-12.418819,9.128478,-30.442188,-19.401478,70.10549,50.04682,25.227875,-9.069165,5.825247
131,9.854403495788574,-14.092681884765625,72.59770965576172,0.8201352301960285,-2.6792144639756734,115.39680042687571,-27.733526,14.087132,21.288567,62.80349,-23.609838,3.3804047,-17.075706,-23.435202,-39.130116,55.616844,-30.546883,-1.6579242,10.989046,3.3942091,16.494825,-2.1535783,12.491698,-27.53594,39.337738,6.4108834,-12.458413,8.94427,-30.992466,-19.658707,70.92834,49.812737,25.465605,-9.182836,6.195978
132,10.031390190124512,-14.343990325927734,72.48876190185547,0.7704873803755949,-2.618000905943707,116.05389626872261,-26.972075,15.081373,23.35411,64.25886,-24.40636,3.5910776,-17.239351,-23.821396,-39.698547,56.01486,-30.641747,-1.8276398,11.309784,3.4865942,16.471449,-1.9702456,12.349672,-27.014696,39.169212,6.58911,-12.480421,8.769007,-31.5171,-19.901716,71.7491,49.55021,25.593916,-9.282881,6.555418
133,10.194501876831055,-14.589068412780762,72.3849868774414,0.6778496206626916,-2.563000866321607,116.7359033651651,-26.174036,16.003614,25.13695,65.77363,-25.19058,3.71685,-17.342041,-24.157505,-40.294903,56.32331,-30.696444,-1.926338,11.585325,3.6058066,16.4049,-1.7953482,12.233143,-26.598387,39.02868,6.537583,-12.479146,8.593016,-32.032036,-20.12813,72.59037,49.274773,25.608095,-9.371162,6.9019804
134,10.339237213134766,-14.870333671569824,72.2873306274414,0.5513844168431461,-2.5109820126643063,117.4269495044235,-25.331947,16.876766,26.716263,67.37786,-25.93878,3.766256,-17.402678,-24.448122,-40.90342,56.56159,-30.722729,-1.9808422,11.829565,3.7375207,16.298615,-1.6119689,12.143996,-26.244452,38.90556,6.3128114,-12.463193,8.382503,-32.546173,-20.33699,73.47024,48.984352,25.550213,-9.446234,7.233672
135,10.478986740112305,-15.114705085754395,72.20081329345703,0.4022428601126297,-2.459475728668561,118.13711637245194,-24.435347,17.737663,28.163265,68.986984,-26.643593,3.7592173,-17.43469,-24.728767,-41.53911,56.7759,-30.714983,-2.0472126,12.0450735,3.864987,16.159788,-1.4234097,12.07832,-25.938004,38.799377,6.063124,-12.435773,8.185516,-33.038845,-20.528025,74.33833,48.661865,25.428236,-9.508984,7.555474
136,10.610397338867188,-15.361197471618652,72.12455749511719,0.24155215039144903,-2.4066201069024595,118.87592573709894,-23.469612,18.627157,29.549221,70.52246,-27.301506,3.7183259,-17.4501,-25.035973,-42.21793,57.012936,-30.66899,-2.1819434,12.241103,3.973195,15.997146,-1.2405372,12.02838,-25.670914,38.71493,5.9376764,-12.401404,8.051536,-33.504864,-20.701262,75.156815,48.295715,25.275078,-9.559311,7.872427
137,10.729174613952637,-15.619540214538574,72.05870819091797,0.06439181766154453,-2.3490348550425892,119.64259646994408,-22.417702,19.568386,30.8884,71.99819,-27.91118,3.6127622,-17.464674,-25.38047,-42.948517,57.320393,-30.585886,-2.435185,12.415526,4.0635176,15.801239,-1.0807259,11.988927,-25.46158,38.68385,5.988228,-12.356868,8.019397,-33.929317,-20.858898,75.92096,47.880917,25.075989,-9.595726,8.195509
138,10.84786319732666,-15.891456604003906,71.99567413330078,-0.13243992377562425,-2.288343569708471,120.43298205326597,-21.289831,20.54158,32.148308,73.445816,-28.475655,3.4445646,-17.46488,-25.742472,-43.722942,57.66136,-30.468887,-2.7665179,12.568785,4.1452465,15.571362,-0.94235444,11.959097,-25.312078,38.703014,6.131434,-12.301822,8.055462,-34.326256,-21.002039,76.65684,47.42874,24.834553,-9.618825,8.518688
139,10.958531379699707,-16.163883209228516,71.95198822021484,-0.3357842914805092,-2.2297349028895583,121.25196807242374,-20.11364,21.525068,33.323673,74.815445,-28.994558,3.2861278,-17.42011,-26.111347,-44.531204,57.95724,-30.316444,-3.0967476,12.702484,4.213489,15.323428,-0.7923538,11.936157,-25.177639,38.71882,6.317194,-12.2457695,8.099395,-34.683453,-21.12733,77.327385,46.943886,24.539412,-9.633288,8.823166
140,11.056551933288574,-16.44086456298828,71.92826080322266,-0.5325938074991748,-2.178919648371992,122.10474856069992,-18.92009,22.49833,34.40596,76.05418,-29.465588,3.209247,-17.301395,-26.474785,-45.36295,58.128616,-30.124989,-3.3454869,12.808738,4.2664547,15.074971,-0.5941261,11.913099,-25.001598,38.675404,6.4975204,-12.199285,8.0882225,-34.98206,-21.247303,77.89938,46.411892,24.170599,-9.643385,9.088079
141,11.144207000732422,-16.73475456237793,71.921875,-0.7247576405298581,-2.1388078436314775,122.98752913573801,-17.693256,23.491081,35.406773,77.17119,-29.878725,3.2417471,-17.10147,-26.816956,-46.213467,58.14683,-29.898008,-3.483887,12.898626,4.306766,14.824824,-0.36221728,11.891313,-24.8057,38.599308,6.7212424,-12.17046,8.048385,-35.22335,-21.338785,78.353195,45.859787,23.667112,-9.651937,9.299838
142,11.225873947143555,-17.036970138549805,71.9329833984375,-0.9186068459530218,-2.106446942878452,123.89914141283579,-16.427118,24.51487,36.32654,78.18715,-30.23912,3.34357,-16.835535,-27.144236,-47.091568,58.056065,-29.634218,-3.5559492,12.941318,4.3440895,14.576629,-0.093798175,11.858088,-24.562538,38.49312,7.007388,-12.154826,7.9896255,-35.441105,-21.446476,78.7649,45.240433,23.08621,-9.654624,9.464922
143,11.302270889282227,-17.345914840698242,71.9626693725586,-1.1060836298255265,-2.0765248855557017,124.84923620563096,-15.181978,25.51962,37.129543,79.07227,-30.565094,3.4824219,-16.513819,-27.479412,-48.001724,57.888786,-29.321997,-3.590468,12.98233,4.360874,14.313072,0.21080196,11.825202,-24.312824,38.32776,7.2147737,-12.135219,7.860719,-35.56189,-21.53726,79.03785,44.594734,22.47956,-9.650034,9.620539
144,11.371352195739746,-17.668794631958008,72.0129623413086,-1.2793594525580154,-2.044411208092789,125.84721167981537,-14.022836,26.45799,37.77808,79.79974,-30.876074,3.625637,-16.144451,-27.846262,-48.950745,57.67781,-28.950937,-3.6166284,13.03171,4.3437,14.034925,0.5744231,11.799482,-24.042618,38.043865,7.2180367,-12.096639,7.598666,-35.591488,-21.60217,79.17883,43.938538,21.98593,-9.635326,9.794479
145,11.446876525878906,-17.996259689331055,72.0862045288086,-1.4194963420230013,-2.0097482855136337,126.89743380054612,-12.956095,27.309029,38.24905,80.34889,-31.18962,3.8003733,-15.736036,-28.279171,-49.938824,57.45355,-28.525583,-3.644626,13.049637,4.2719517,13.758925,1.032582,11.770536,-23.671951,37.61162,6.9724793,-12.016766,7.139082,-35.527264,-21.671364,79.19245,43.21564,21.596064,-9.605928,9.989283
146,11.50547981262207,-18.31795883178711,72.18158721923828,-1.5364854602586153,-1.9750847583725073,127.9946009481573,-11.966919,28.111952,38.558193,80.74265,-31.490952,4.010577,-15.281579,-28.755331,-50.96572,57.193806,-28.049019,-3.6582806,13.05235,4.157734,13.479038,1.5562063,11.739832,-23.242065,37.070885,6.5476036,-11.905426,6.5339403,-35.371864,-21.743986,79.07192,42.4352,21.259819,-9.563251,10.192596
147,11.549234390258789,-18.660120010375977,72.2997817993164,-1.6660118950684553,-1.9396382905430087,129.13462373465913,-11.084322,28.905537,38.72696,81.00799,-31.75585,4.1897635,-14.764462,-29.210009,-52.038353,56.848946,-27.507734,-3.6470366,13.058392,4.0486636,13.18045,2.122092,11.712926,-22.815273,36.4204,6.0145745,-11.800315,5.87044,-35.130924,-21.823853,78.85178,41.621437,21.018547,-9.512384,10.398028
148,11.594295501708984,-19.007381439208984,72.43517303466797,-1.8426374136957215,-1.9011071830569617,130.3126872980793,-10.3332815,29.725857,38.78107,81.17248,-31.95988,4.2723484,-14.171735,-29.579704,-53.15994,56.37135,-26.89081,-3.599988,13.084801,3.9887495,12.845493,2.7138264,11.701119,-22.455473,35.6554,5.4394083,-11.741536,5.2347364,-34.779144,-21.924921,78.542465,40.78186,20.878895,-9.458722,10.598881
149,11.640219688415527,-19.3527774810791,72.57611846923828,-2.073685773752852,-1.855828679093528,131.5241833400823,-9.746255,30.566513,38.656937,81.23567,-32.090466,4.233873,-13.515957,-29.851326,-54.316174,55.76432,-26.200788,-3.5156236,13.13731,3.9864533,12.4633875,3.3489032,11.707257,-22.165897,34.74503,4.804535,-11.74399,4.660555,-34.31813,-21.999002,78.13072,39.95847,20.882637,-9.403097,10.80157
150,11.668670654296875,-19.7270565032959,72.74835205078125,-2.341168375793446,-1.8035055838859935,132.77293983291906,-9.30919,31.415932,38.35724,81.18601,-32.162197,4.1119576,-12.803566,-30.053627,-55.506065,55.04855,-25.441969,-3.3978946,13.214126,4.010485,12.053459,4.0367947,11.7469015,-21.916077,33.67983,4.081504,-11.781542,4.090464,-33.739433,-22.108086,77.58538,39.066654,20.99389,-9.338106,11.006861
151,11.677108764648438,-20.115264892578125,72.95185089111328,-2.6422492825173634,-1.7461179733188348,134.0675883221594,-8.969876,32.298904,38.01103,81.024536,-32.187473,3.9349196,-12.015141,-30.183233,-56.75186,54.200275,-24.596504,-3.2422478,13.300085,4.061286,11.619153,4.750302,11.815416,-21.729021,32.520596,3.3168926,-11.8356495,3.4932861,-33.076538,-22.228107,76.97908,38.15918,21.16816,-9.269943,11.197822
152,11.683697700500488,-20.51766014099121,73.17536163330078,-2.9739810222846423,-1.6856152566389815,135.41686599197385,-8.675317,33.24132,37.74909,80.7578,-32.176,3.73049,-11.132463,-30.234985,-58.074833,53.19754,-23.647135,-3.0437016,13.378506,4.13744,11.166639,5.457336,11.907752,-21.619207,31.332798,2.5624948,-11.888807,2.83339,-32.346855,-22.34748,76.36584,37.269558,21.340523,-9.20346,11.361326
153,11.682866096496582,-20.919084548950195,73.42024230957031,-3.366439509198456,-1.6092223765223241,136.81984909968986,-8.469687,34.26813,37.51088,80.380165,-32.113483,3.4497364,-10.152265,-30.142517,-59.5022,51.979332,-22.61367,-2.8148608,13.459799,4.267516,10.676272,6.1557674,12.040322,-21.617825,30.088467,1.7491924,-11.948586,2.089987,-31.560759,-22.475052,75.76209,36.388733,21.559835,-9.135175,11.4986
154,11.68494987487793,-21.34749984741211,73.68411254882812,-3.811321877954461,-1.5167419091034493,138.27289546244265,-8.363994,35.36113,37.252346,79.8906,-31.999636,3.097679,-9.096208,-29.919376,-61.003674,50.57458,-21.495842,-2.550573,13.539847,4.44394,10.149013,6.866623,12.208328,-21.699778,28.767122,0.8772942,-12.016546,1.2824887,-30.682611,-22.604729,75.12504,35.50329,21.808529,-9.064695,11.615029
155,11.653895378112793,-21.791824340820312,73.97102355957031,-4.249926338254614,-1.43113043254259,139.78220111122843,-8.250243,36.481606,37.138565,79.30446,-31.869114,2.7820466,-7.981201,-29.682798,-62.517437,49.09714,-20.24464,-2.2206614,13.613718,4.603714,9.631676,7.580701,12.402895,-21.83177,27.4326,0.09453957,-12.067847,0.44245562,-29.737528,-22.73525,74.45361,34.629993,22.02197,-8.9991455,11.703997
156,11.603569030761719,-22.24964714050293,74.2800064086914,-4.6242365030455606,-1.3787722186320106,141.35476643220508,-8.013018,37.58997,37.346046,78.63778,-31.755741,2.6088886,-6.818513,-29.554047,-63.987633,47.66391,-18.80938,-1.7980397,13.678985,4.6860666,9.175619,8.277637,12.610314,-21.981482,26.156591,-0.44812468,-12.084069,-0.39540553,-28.807438,-22.861336,73.78274,33.80789,22.196236,-8.945874,11.75941
157,11.551591873168945,-22.7316951751709,74.60545349121094,-4.93178858555188,-1.367594912876272,142.9915290119986,-7.6112533,38.712772,37.956005,77.88839,-31.683823,2.605022,-5.6052775,-29.532253,-65.42991,46.252384,-17.172604,-1.2672558,13.715616,4.688256,8.770468,8.980807,12.818971,-22.121273,24.934343,-0.6709058,-12.063704,-1.2812648,-27.699566,-22.984684,73.011185,32.98811,22.107172,-8.906703,11.781816
158,11.487475395202637,-23.224376678466797,74.94987487792969,-5.202378620345902,-1.386120920889092,144.69109244294165,-7.096478,39.85333,38.88175,77.05562,-31.633165,2.7099082,-4.3458285,-29.563007,-66.85466,44.825886,-15.360213,-0.6483313,13.766012,4.6402106,8.419075,9.648113,13.036491,-22.302464,23.750599,-0.6580323,-12.024812,-2.2067733,-26.745646,-23.095797,72.33038,32.273724,22.158564,-8.876498,11.77552
159,11.400649070739746,-23.736392974853516,75.30554962158203,-5.423412550636175,-1.434769662925979,146.45898976692692,-6.491411,40.92927,40.050644,76.15907,-31.573011,2.897398,-3.058775,-29.70735,-68.20133,43.496124,-13.3890295,0.028721644,13.770063,4.5396075,8.106079,10.304586,13.250459,-22.491482,22.641758,-0.51973283,-11.981257,-3.0688572,-25.658497,-23.194654,71.56654,31.561602,22.036203,-8.859661,11.73694
160,11.2980318069458,-24.26553726196289,75.6706314086914,-5.582099392539327,-1.5151496942973637,148.3015558559149,-5.824579,41.859684,41.38182,75.21786,-31.473148,3.1433506,-1.7567545,-30.030312,-69.41674,42.37391,-11.274512,0.7307483,13.724942,4.3817425,7.8448663,10.921429,13.450446,-22.701172,21.658539,-0.3576641,-11.94291,-3.7553864,-24.541245,-23.280285,70.758736,30.871279,21.851547,-8.857102,11.6645155
161,11.17884635925293,-24.812219619750977,76.03417205810547,-5.6611845981192905,-1.6449638465944658,150.21745880744766,-5.021035,42.646763,42.986626,74.21172,-31.418592,3.479578,-0.41913998,-30.580965,-70.543655,41.48047,-8.994382,1.5028684,13.632413,4.1505585,7.648331,11.506705,13.62328,-22.922804,20.813417,-0.15888406,-11.898317,-4.2216234,-23.393988,-23.350996,69.92194,30.211336,21.550062,-8.880706,11.527051
162,11.047528266906738,-25.382699966430664,76.39269256591797,-5.67080920085238,-1.8244698897679332,152.2073609347035,-4.0836797,43.30143,44.872982,73.138725,-31.40136,3.9003184,0.94733703,-31.337175,-71.58507,40.777637,-6.545545,2.3334038,13.49485,3.8527818,7.508887,12.061958,13.765409,-23.15582,20.090832,0.12366929,-11.847903,-4.5308394,-22.19432,-23.40529,69.048096,29.581326,21.124615,-8.924484,11.335753
163,10.896211624145508,-25.970693588256836,76.74398803710938,-5.637366008609021,-2.0293822574101017,154.27979222753464,-3.1751993,43.768738,46.78368,72.041695,-31.248606,4.333391,2.300423,-32.267017,-72.43765,40.288177,-3.97687,3.1066687,13.302551,3.5150783,7.4099803,12.544521,13.885804,-23.41867,19.507965,0.43094254,-11.821065,-4.734505,-21.000185,-23.440868,68.13377,28.984882,20.739084,-8.96559,11.1529
164,10.733500480651855,-26.57552146911621,77.07562255859375,-5.5858404447257755,-2.233559715690147,156.44272237351097,-2.4699066,44.012833,48.448647,70.96262,-30.78291,4.715385,3.6072524,-33.337128,-73.00582,40.026665,-1.3415905,3.7145116,13.035483,3.163632,7.329255,12.924409,13.994846,-23.720049,19.075571,0.7023523,-11.846247,-4.886088,-19.799622,-23.455112,67.14357,28.397709,20.483028,-8.981315,11.0391245
165,10.563722610473633,-27.200307846069336,77.38927459716797,-5.5011064683903115,-2.4519678542119694,158.71096816112467,-1.9891818,44.013947,49.822803,69.89148,-30.043829,5.0806317,4.978422,-34.61066,-73.50228,39.98646,1.5338749,4.2937775,12.696031,2.777414,7.2771173,13.209039,14.110777,-24.083784,18.79989,0.9240541,-11.947737,-4.9142556,-18.568016,-23.449888,66.05855,27.785086,20.321068,-8.961752,11.017171
166,10.377302169799805,-27.831941604614258,77.67998504638672,-5.370473918017184,-2.6962585951517632,161.07752285555793,-1.6589726,43.79565,51.02612,68.80532,-29.095068,5.453217,6.398027,-36.09853,-73.89375,40.15749,4.6229844,4.8516827,12.284484,2.339422,7.263334,13.421831,14.227986,-24.487946,18.660912,1.1272262,-12.103266,-4.8216977,-17.321991,-23.422619,64.908356,27.162725,20.223259,-8.921485,11.05028
167,10.17989730834961,-28.475337982177734,77.94406127929688,-5.221937734228294,-2.928332997633522,163.51462772634252,-1.5134431,43.406433,52.037197,67.73502,-27.793865,5.7615666,7.6467385,-37.679188,-73.73618,40.516453,7.568438,5.0996337,11.830971,1.873933,7.254866,13.530597,14.354734,-24.934864,18.640066,1.3003335,-12.27001,-4.7603383,-16.050241,-23.371513,63.652504,26.557673,20.252554,-8.873748,11.120373
168,9.975818634033203,-29.1322078704834,78.17408752441406,-5.0854506571666285,-3.1043781677339366,165.99315558530398,-1.588034,42.90275,52.83679,66.71369,-25.99291,5.9351606,8.497634,-39.213604,-72.60666,41.013653,10.010534,4.748838,11.367419,1.4092137,7.215626,13.507071,14.503704,-25.425713,18.711857,1.4303566,-12.405893,-4.883644,-14.740779,-23.29456,62.251236,25.991676,20.473698,-8.831784,11.208639
169,9.746941566467285,-29.793628692626953,78.36863708496094,-4.957426907531722,-3.216486331426,168.52207355139703,-1.9920354,42.270466,53.277596,65.6854,-23.29,5.818196,8.902796,-40.768154,-70.423225,41.656143,11.933606,3.4653795,10.898176,0.9367699,7.137344,13.329329,14.686424,-25.98587,18.900167,1.5137131,-12.520627,-5.197859,-13.373793,-23.185316,60.691254,25.428677,20.95157,-8.772641,11.351284
170,9.544825553894043,-30.453575134277344,78.52375793457031,-4.826797096306647,-3.2811168243500655,171.11001914420882,-2.6848614,41.495644,53.39855,64.64987,-19.872011,5.4872274,8.93608,-42.323654,-67.41315,42.406773,13.543107,1.4749243,10.415086,0.4464375,7.031914,13.021559,14.905282,-26.613543,19.196648,1.5513139,-12.629228,-5.63303,-11.957037,-23.039227,58.99277,24.862219,21.63654,-8.696877,11.54452
171,9.353275299072266,-31.126707077026367,78.61985778808594,-4.724009444414973,-3.2865269674780464,173.7270973117145,-3.4716103,40.66275,53.4809,63.73389,-16.480337,5.2264233,8.553944,-43.571743,-63.6042,43.137085,14.81144,-0.6602046,9.929085,-0.019167155,6.8928547,12.620572,15.156524,-27.26817,19.53056,1.5365009,-12.697995,-6.228962,-10.512075,-22.857603,57.16544,24.348711,22.420586,-8.65376,11.709154
172,9.143932342529297,-31.799379348754883,78.66983795166016,-4.686038893282136,-3.220781834700992,176.34294561526892,-4.140893,39.88791,53.8435,63.079075,-13.863028,5.3407626,7.763194,-44.196606,-59.030773,43.73816,15.679226,-2.3537335,9.450429,-0.40730652,6.716166,12.159555,15.433182,-27.906328,19.835743,1.4652971,-12.693053,-7.0252047,-9.056714,-22.647226,55.21686,23.94206,23.191412,-8.6949835,11.767503
173,8.932669639587402,-32.47822952270508,78.66754913330078,-4.730326671100577,-3.0618391770021374,178.96200529874554,-4.594197,39.289387,54.791798,62.812233,-12.094666,6.079829,6.469111,-44.005814,-53.217167,44.15583,16.06385,-3.4280097,8.991151,-0.68491524,6.4859433,11.585101,15.7402315,-28.609982,20.146723,1.2424289,-12.582537,-8.114005,-7.561114,-22.408625,53.11424,23.627283,24.0077,-8.846461,11.701617
174,8.736491203308105,-33.166786193847656,78.61945343017578,-4.850613175129429,-2.824402348557526,-178.4020878044308,-4.934998,38.817974,56.109104,62.839703,-10.830104,7.2418213,4.8933635,-43.097023,-46.43625,44.533154,15.987416,-4.1963325,8.546161,-0.8594204,6.2190228,10.890279,16.078806,-29.374975,20.48032,0.90350187,-12.385564,-9.444546,-6.015024,-22.13906,50.861347,23.364975,24.899267,-9.079051,11.555979
175,8.555218696594238,-33.86565399169922,78.51441192626953,-5.0322935020234585,-2.5469682988753775,-175.76432113166203,-5.2718015,38.32011,57.320583,62.981377,-10.184893,8.450989,3.484857,-41.735207,-39.798176,45.10657,15.509761,-4.787636,8.09196,-0.9536826,5.960123,10.1848955,16.429213,-30.017017,20.746885,0.6494105,-12.151915,-10.84412,-4.4839854,-21.845095,48.531,23.188007,25.719564,-9.363266,11.346278
176,8.369359016418457,-34.56270217895508,78.34554290771484,-5.2500794460166365,-2.2594096355055404,-173.14286068437667,-5.7302294,37.60664,57.93634,63.01537,-10.238685,9.312077,2.5165415,-40.281918,-34.263054,46.031338,14.724585,-5.3253093,7.59849,-1.0000923,5.7435527,9.580305,16.760489,-30.34073,20.872936,0.6824189,-11.944014,-12.145117,-3.040555,-21.540482,46.2045,23.138384,26.32144,-9.668598,11.083659
177,8.18423080444336,-35.29704666137695,78.11599731445312,-5.498852700063816,-1.9597895863511816,-170.52094683056094,-6.279131,36.601616,57.931477,62.927464,-11.267131,9.814495,2.0364454,-38.932674,-30.061666,47.38647,13.475126,-5.77515,7.048134,-0.9844224,5.56223,9.1149235,17.046368,-30.282236,20.839252,1.1495327,-11.768184,-13.481652,-1.6710762,-21.239214,43.82955,23.21326,26.513023,-9.9847355,10.761091
178,8.026820182800293,-36.03997802734375,77.83907318115234,-5.775087309783403,-1.6242178390303847,-167.8979288630664,-6.8787956,35.38383,57.51856,62.803852,-13.124051,10.127626,1.8001063,-37.622364,-26.561134,49.14055,11.719896,-6.0957227,6.457472,-0.90065163,5.4007,8.718555,17.28082,-29.939117,20.71752,1.9232324,-11.615201,-14.886379,-0.34447008,-20.946829,41.391537,23.386543,26.424904,-10.325448,10.370818
179,7.911209583282471,-36.789695739746094,77.51575469970703,-6.058067280120504,-1.2507900989656486,-165.31670155817227,-7.628421,34.01362,56.59402,62.597527,-15.257991,10.13461,1.5394161,-36.297775,-23.354105,51.239902,9.752653,-6.3926964,5.8453274,-0.7971508,5.273235,8.343136,17.466751,-29.359604,20.571518,2.7855902,-11.518006,-16.04009,0.881594,-20.66731,39.02961,23.686405,26.394438,-10.698407,9.922877
180,7.794896602630615,-37.5236701965332,77.15896606445312,-6.330661162272275,-0.8443883444221604,-162.81754991927974,-8.599995,32.555965,55.085297,62.26996,-17.1303,9.725351,1.0376474,-34.82285,-20.10562,53.615013,7.892761,-6.764678,5.218989,-0.7222848,5.193264,7.951377,17.612251,-28.581467,20.45283,3.5184715,-11.490616,-16.625044,1.9382263,-20.403862,36.89579,24.157907,26.759699,-11.118241,9.430492
181,7.684162139892578,-38.2360725402832,76.77007293701172,-6.6339651556809365,-0.4165391110311829,-160.41816680066893,-9.842202,31.014477,52.804726,61.81816,-18.654535,8.686574,0.23707804,-32.96591,-16.713177,56.339275,6.162706,-7.264107,4.5724883,-0.64532894,5.174093,7.5780826,17.711617,-27.517464,20.362434,4.0630045,-11.513795,-16.384937,2.7830718,-20.165865,34.991657,24.830801,27.684172,-11.6080885,8.901256
182,7.602645397186279,-38.91130828857422,76.35954284667969,-6.961856189682706,0.03366725133635606,-158.0929034357716,-11.208035,29.351166,49.945354,61.29048,-20.13812,7.1702766,-0.72278357,-30.792198,-13.388997,59.439228,4.4165835,-7.80733,3.898317,-0.5567895,5.206811,7.223643,17.761318,-26.174,20.287058,4.534711,-11.570683,-15.547919,3.4587922,-19.963234,33.252697,25.685766,28.961592,-12.164886,8.333681
183,7.521120548248291,-39.59668731689453,75.93363952636719,-7.230301378004715,0.5138439811051796,-155.81304873895,-12.503644,27.57011,46.970554,60.70751,-21.617363,5.5953445,-1.739703,-28.557768,-10.325796,62.728172,2.7501101,-8.290446,3.1955154,-0.5183634,5.261176,6.80592,17.769562,-24.746574,20.249468,4.9695973,-11.674784,-14.509629,4.0498347,-19.85524,31.762447,26.655537,30.402199,-12.770483,7.7133126
184,7.4247918128967285,-40.26058578491211,75.50540161132812,-7.352296405867194,1.0270189678776889,-153.54788850180108,-13.592266,25.686594,44.28196,60.077583,-23.098661,4.3619776,-2.736156,-26.547562,-7.695484,65.99626,1.2583014,-8.621405,2.4960928,-0.6440158,5.326611,6.2495365,17.802225,-23.383741,20.230074,5.4285727,-11.845445,-13.717088,4.5635324,-19.713573,30.474827,27.811253,31.720398,-13.382092,7.0835876
185,7.335330486297607,-40.91600799560547,75.0877914428711,-7.294668705115121,1.5775642590422885,-151.28410012365282,-14.519518,23.64741,41.795444,59.36225,-24.60196,3.470631,-3.7241535,-24.730804,-5.4706826,69.19502,0.059936132,-8.666188,1.7718942,-0.97058475,5.3614964,5.6001434,17.87215,-22.080124,20.214672,5.8901687,-12.12449,-13.150084,5.0123997,-19.601519,29.510784,29.16265,33.0319,-14.059728,6.33933
186,7.2210869789123535,-41.5443229675293,74.7025146484375,-7.10345853836342,2.149906112979158,-149.03257361328556,-15.335858,21.464895,39.33597,58.570263,-26.106367,2.7362282,-4.7524505,-22.971586,-3.5987728,72.404655,-0.92454267,-8.500053,1.026645,-1.4516009,5.3881025,4.885162,17.983713,-20.757189,20.181705,6.335512,-12.490223,-12.633255,5.387149,-19.525982,28.805883,30.687864,34.3983,-14.800027,5.5190196
187,7.08221435546875,-42.16719055175781,74.35105895996094,-6.821665286961922,2.721902586176887,-146.80226818565777,-15.981617,19.267475,37.104954,57.765938,-27.537941,2.2632496,-5.8218517,-21.445276,-2.173496,75.5706,-1.8861076,-8.381679,0.27374253,-2.0053778,5.4099035,4.063784,18.148432,-19.565428,20.122587,6.76358,-12.868107,-12.26039,5.7220054,-19.487402,28.325375,32.311718,35.622192,-15.513688,4.73843
188,6.937813758850098,-42.794944763183594,74.02824401855469,-6.488133682316686,3.277538420474924,-144.60190342878653,-16.43435,17.179457,35.285637,57.011578,-28.819933,2.1572266,-6.9511213,-20.368471,-1.2558337,78.645905,-3.0096755,-8.600602,-0.46505693,-2.5571856,5.435216,3.0903788,18.379604,-18.668081,20.029179,7.166476,-13.184769,-12.123979,6.057717,-19.484861,28.023533,33.951664,36.507835,-16.099936,4.10677
189,6.794174671173096,-43.42145919799805,73.73668670654297,-6.068236125001868,3.8369004338000354,-142.42832704316788,-16.70919,15.204552,34.035694,56.29177,-29.938599,2.5967364,-8.166119,-19.94889,-0.9173194,81.6388,-4.3469477,-9.311924,-1.179698,-3.1463244,5.436015,1.9407058,18.693327,-18.121126,19.889507,7.553344,-13.415086,-12.362477,6.39362,-19.52132,27.912125,35.65494,36.901035,-16.523716,3.643769
190,6.636640548706055,-44.066375732421875,73.46891784667969,-5.55067083551393,4.397040029495567,-140.27381021678923,-16.870787,13.273675,33.173126,55.564857,-30.91505,3.472292,-9.47253,-20.074867,-1.0433475,84.55175,-5.8018217,-10.36998,-1.8755287,-3.8033645,5.417204,0.646194,19.089447,-17.846302,19.694204,7.9117174,-13.603802,-12.888178,6.7165008,-19.596994,27.995253,37.43535,36.942863,-16.82805,3.284405
191,6.48708438873291,-44.71186065673828,73.22476196289062,-5.011041178901711,4.91518533676211,-138.1430410002864,-16.967499,11.404433,32.384823,54.858913,-31.730612,4.457507,-10.851843,-20.489788,-1.4116229,87.32073,-7.33196,-11.615696,-2.5534825,-4.4427514,5.4413652,-0.7465056,19.545444,-17.80009,19.43473,8.209469,-13.780933,-13.456388,7.046924,-19.701694,28.21706,39.163467,36.879036,-17.026192,3.010544
192,6.330702304840088,-45.37910079956055,73.01000213623047,-4.529989440931153,5.35342873849372,-136.04372670738454,-17.02278,9.622377,31.375841,54.210392,-32.375565,5.2240853,-12.291743,-20.91642,-1.823929,89.88583,-8.882155,-12.881281,-3.209538,-4.976058,5.57109,-2.2095363,20.027355,-17.946867,19.128393,8.417792,-13.973973,-13.820018,7.4017286,-19.82163,28.519812,40.72337,36.953026,-17.13642,2.808766
193,6.19219446182251,-46.05048751831055,72.82192993164062,-4.117913191307746,5.694751611093657,-133.97256460203155,-17.023588,7.9169207,30.06076,53.644203,-32.831387,5.679758,-13.771423,-21.44221,-2.355225,92.272446,-10.518003,-14.238358,-3.8428235,-5.3933105,5.8444266,-3.8032403,20.517668,-18.347431,18.82828,8.520591,-14.197899,-13.876064,7.7666693,-19.95155,28.919958,42.151024,37.23195,-17.126787,2.7030222
194,6.067750930786133,-46.723426818847656,72.66193389892578,-3.732582162338987,5.9656498736299195,-131.92328129998188,-16.949703,6.264021,28.610405,53.136494,-33.118473,6.0038023,-15.293609,-21.96125,-2.8120308,94.49224,-12.250612,-15.000033,-4.4529624,-5.737764,6.2218847,-5.5306935,21.008003,-19.003496,18.520878,8.546067,-14.434265,-13.76776,8.1251135,-20.092237,29.43745,43.509182,37.58195,-17.001488,2.6904657
195,5.968382835388184,-47.400360107421875,72.52286529541016,-3.2520048001956496,6.179795823124385,-129.85583499962047,-16.736275,4.5016747,27.149282,52.528023,-33.225098,6.294932,-16.8798,-22.333426,-2.9319744,96.49411,-13.940602,-15.000033,-5.088826,-6.136277,6.659785,-7.2959733,21.479649,-19.79007,18.14996,8.526278,-14.659937,-13.618102,8.493398,-20.237978,30.023949,44.72307,37.942425,-16.835144,2.7180407
196,5.85885763168335,-48.091651916503906,72.41699981689453,-2.7492018863370586,6.376630168005733,-127.79883916282577,-16.430166,2.7605197,25.734257,51.8441,-33.214413,6.6001086,-18.58349,-22.510143,-2.8906515,98.19697,-15.404407,-15.000033,-5.7442575,-6.52883,7.0948977,-8.977061,21.90746,-20.572298,17.646914,8.507252,-14.852381,-13.5493355,8.887592,-20.381016,30.632847,45.724056,38.250973,-16.704021,2.734395
197,5.750690937042236,-48.78695297241211,72.33818054199219,-2.3833014410334,6.592742561508164,-125.80296110041809,-16.153082,1.2826668,24.337393,51.288296,-33.163883,6.8986783,-20.482601,-22.291822,-2.7752817,99.57088,-16.539183,-15.000033,-6.36559,-6.751207,7.5205255,-10.600924,22.27472,-21.350227,17.01376,8.486839,-14.999569,-13.603769,9.304802,-20.521402,31.286674,46.512325,38.53935,-16.61607,2.750279
198,5.6454033851623535,-49.48957443237305,72.29005432128906,-2.126020062351907,6.813176836037726,-123.85948443676835,-15.879156,0.013553502,22.92767,50.836044,-33.04619,7.155831,-22.541119,-21.812563,-2.6549227,100.64987,-17.42984,-15.000033,-6.959844,-6.82855,7.9618163,-12.211319,22.577232,-22.183023,16.294195,8.451421,-15.116456,-13.71272,9.735423,-20.662025,32.00156,47.13135,38.823963,-16.536657,2.7844129
199,5.538736820220947,-50.21023178100586,72.27316284179688,-1.9594008801303933,7.031997576774066,-121.9852121715297,-15.539597,-1.092126,21.517565,50.35726,-32.867306,7.360932,-24.682333,-21.137495,-2.5503802,101.40541,-18.119291,-15.000033,-7.535013,-6.785147,8.385964,-13.7168,22.81244,-23.02448,15.49148,8.43113,-15.221091,-13.828344,10.17833,-20.80068,32.72163,47.587124,39.020485,-16.479187,2.7995622
200,5.422219276428223,-50.94797134399414,72.28959655761719,-1.8645638013473556,7.2410437935249305,-120.19674339950593,-15.06341,-2.076423,20.115124,49.723797,-32.62978,7.5060735,-26.827795,-20.333687,-2.4768922,101.80908,-18.65562,-15.000033,-8.101129,-6.644707,8.761017,-15.054631,22.984888,-23.829441,14.6334095,8.443525,-15.332153,-13.903222,10.630496,-20.93322,33.392593,47.88528,39.04334,-16.457499,2.7583876
201,5.304213523864746,-51.71730041503906,72.34760284423828,-1.8637995461785086,7.452949911622034,-118.49943915463766,-14.457778,-2.9113927,18.708887,48.931736,-32.384274,7.5813723,-29.01597,-19.34321,-2.4255106,101.83547,-19.025465,-15.000033,-8.651462,-6.38583,9.081464,-16.213505,23.09698,-24.58822,13.695935,8.538662,-15.461003,-13.927129,11.102324,-21.05568,34.022938,47.999645,38.813385,-16.478659,2.6406507
202,5.1786274909973145,-52.51030731201172,72.44513702392578,-1.9526257873858304,7.6680928129927075,-116.88437202078693,-13.749615,-3.5892882,17.301508,48.037224,-32.117805,7.5950327,-31.256487,-18.161934,-2.4019997,101.49528,-19.210772,-15.000033,-9.181713,-6.0128045,9.369398,-17.226831,23.151123,-25.324379,12.681496,8.691106,-15.59503,-13.923754,11.592457,-21.168045,34.63284,47.93969,38.393135,-16.533941,2.4693668
203,5.037281513214111,-53.352935791015625,72.57675170898438,-2.077366676689537,7.859035151593718,-115.34587145854447,-12.899557,-4.174983,15.915626,47.003384,-31.742022,7.5683565,-33.42988,-16.937607,-2.4289052,100.81489,-19.253803,-15.000033,-9.703186,-5.5834293,9.633575,-18.074268,23.155268,-26.034004,11.629991,8.818865,-15.717178,-13.896593,12.083512,-21.267878,35.187527,47.753464,37.91546,-16.611635,2.2727125
204,4.9099578857421875,-54.245174407958984,72.74995422363281,-2.1895815869052244,8.000749484355842,-113.88022586237497,-11.870763,-4.726692,14.569134,45.79289,-31.166077,7.5219135,-35.42607,-15.812859,-2.521353,99.82536,-19.19611,-15.000033,-10.239973,-5.1561337,9.879549,-18.712446,23.134445,-26.686636,10.557334,8.842522,-15.810772,-13.859613,12.525597,-21.331758,35.663643,47.526314,37.50708,-16.704397,2.0793645
205,4.783926486968994,-55.17119598388672,72.95751953125,-2.2871058265480353,8.084670432182103,-112.4895757296422,-10.614854,-5.252808,13.249397,44.33557,-30.409718,7.4736123,-37.259266,-14.801639,-2.6406028,98.55978,-19.074345,-15.000033,-10.756423,-4.7308397,10.100578,-19.182516,23.072071,-27.349781,9.496241,8.722336,-15.862126,-13.772159,13.002549,-21.404373,36.02967,47.153763,37.197422,-16.812922,1.8787884
206,4.658578872680664,-56.13368225097656,73.1987533569336,-2.3967297575812005,8.1280242949723,-111.17548142094648,-9.170667,-5.712414,11.9472065,42.676334,-29.510374,7.4099746,-38.97135,-13.833966,-2.7822587,96.99216,-18.862387,-15.000033,-11.282195,-4.281336,10.301329,-19.445316,22.990047,-27.952818,8.384756,8.513266,-15.885498,-13.664899,13.458656,-21.454897,36.325737,46.681374,36.90772,-16.94354,1.662456
207,4.533799648284912,-57.1326789855957,73.47187042236328,-2.5174597311608964,8.146578445710066,-109.93517995345088,-7.640471,-6.0883365,10.684817,40.957058,-28.405264,7.299404,-40.501293,-12.926817,-3.0120602,95.072914,-18.521172,-15.000033,-11.8024845,-3.8121371,10.486988,-19.542515,22.894318,-28.523361,7.277139,8.251918,-15.894889,-13.554935,13.886102,-21.483896,36.53887,46.15216,36.660152,-17.078543,1.462097
208,4.411196708679199,-58.15876770019531,73.77168273925781,-2.6446735804898216,8.153929366166743,-108.76498745885496,-6.1239867,-6.3751235,9.487761,39.309357,-27.02587,7.1055584,-41.788483,-12.097658,-3.3875563,92.74951,-18.01125,-15.000033,-12.330767,-3.3314178,10.670005,-19.455784,22.815407,-29.037968,6.166954,7.9831553,-15.905099,-13.474096,14.244731,-21.491673,36.679157,45.627544,36.476097,-17.201572,1.3096454
209,4.292550086975098,-59.21883010864258,74.09661102294922,-2.782090424222485,8.135845705355464,-107.6648586890517,-4.5819554,-6.5853014,8.334935,37.681732,-25.355953,6.8279133,-42.825455,-11.356522,-3.884102,90.02385,-17.437595,-15.000033,-12.823321,-2.8255765,10.853648,-19.254183,22.688473,-29.561354,5.1365376,7.6865826,-15.91582,-13.415698,14.590335,-21.479452,36.66962,45.073795,36.385944,-17.30615,1.233649
210,4.19678258895874,-60.30166244506836,74.44579315185547,-2.9287892531263693,8.091039982085597,-106.6369463160613,-2.9925416,-6.726576,7.223091,36.032623,-23.430288,6.480073,-43.640842,-10.686344,-4.4657197,86.91969,-16.790447,-15.000033,-13.322932,-2.299591,11.035657,-18.87251,22.552496,-30.026756,4.1123104,7.352087,-15.921842,-13.383246,14.88275,-21.44546,36.568634,44.49936,36.37525,-17.404491,1.2087417
211,4.116855621337891,-61.40934371948242,74.81634521484375,-3.0692707777087995,8.05025213015476,-105.68055042936412,-1.4812018,-6.80295,6.206346,34.51028,-21.25582,6.048187,-44.229355,-10.060258,-5.1575966,83.40631,-15.853452,-15.000033,-13.790682,-1.7736504,11.19336,-18.389566,22.413704,-30.493351,3.1539726,7.0404787,-15.927621,-13.356068,15.1394005,-21.392967,36.39508,43.909016,36.374687,-17.49786,1.1949563
212,4.047362327575684,-62.53461837768555,75.19229888916016,-3.183523196108032,8.042532066017916,-104.79323188082375,-0.16732562,-6.829747,5.3364606,33.25615,-18.832998,5.520439,-44.585594,-9.453216,-5.9754953,79.444954,-14.417366,-15.000033,-14.197269,-1.268652,11.303541,-17.861818,22.277523,-31.003487,2.3039985,6.8214974,-15.938447,-13.318388,15.369067,-21.325323,36.177555,43.31182,36.316776,-17.587238,1.1513821
213,3.97401762008667,-63.674800872802734,75.57526397705078,-3.2255992234375337,8.087623673934573,-103.9595143052384,0.8977486,-6.875069,4.640488,32.306816,-16.065437,5.0758047,-44.74002,-8.873671,-6.8225026,74.95179,-12.475389,-15.000033,-14.566768,-0.8187575,11.343251,-17.289742,22.14862,-31.560486,1.557835,6.714917,-15.957213,-13.271679,15.559764,-21.244259,35.908344,42.69846,36.174084,-17.66446,1.0634952
214,3.9215571880340576,-64.83980560302734,75.96002960205078,-3.071553550140946,8.146712541702026,-103.10164799458349,1.8833379,-7.118682,4.0341864,31.394901,-12.8640375,4.715295,-44.71934,-8.328391,-7.3027387,70.044174,-10.180207,-14.17868,-14.980947,-0.5293689,11.317295,-16.650911,22.027517,-32.14527,0.89591205,6.6798387,-15.980198,-13.222268,15.713852,-21.149664,35.576298,42.0619,35.985493,-17.730925,0.95475847
215,3.8741745948791504,-66.018798828125,76.33984375,-2.855052028781249,8.193225514081758,-102.28244110629923,2.825537,-7.397822,3.4710355,30.54121,-9.440077,4.0652323,-44.466713,-7.716585,-7.561959,64.80558,-7.4447374,-12.465758,-15.348276,-0.29096478,11.263334,-15.966057,21.9131,-32.767426,0.34271744,6.6980147,-16.00365,-13.163037,15.855897,-21.044224,35.20591,41.42539,35.783997,-17.802723,0.84059125
216,3.8257319927215576,-67.21604919433594,76.70114135742188,-2.5875853220348097,8.186109925320627,-101.49580150912,3.845682,-7.7166805,2.8272295,29.607082,-5.904353,2.7612636,-43.934753,-7.0936522,-7.7801647,59.370487,-4.216396,-10.3618965,-15.648237,-0.11240394,11.208926,-15.256063,21.801886,-33.43561,-0.07717048,6.7509694,-16.023462,-13.086234,16.012505,-20.931463,34.82079,40.80705,35.603313,-17.895828,0.73663616
217,3.776984214782715,-68.42900848388672,77.0389633178711,-2.274276669192825,8.099763063979628,-100.74633175733665,5.0524497,-8.095677,2.0254772,28.41022,-2.0328841,0.4075851,-43.01156,-6.3590875,-7.8559165,53.437767,-0.098883964,-7.5864334,-15.880621,0.004894819,11.179292,-14.52011,21.692062,-34.164783,-0.34268543,6.8465056,-16.034863,-12.969353,16.191961,-20.811798,34.414066,40.20978,35.451927,-18.032085,0.62865955
218,3.7253708839416504,-69.66340637207031,77.34300994873047,-1.9128863790739976,7.958477922253301,-100.03199082888361,6.3835297,-8.576113,1.0155509,27.036486,2.126942,-2.7743073,-41.731323,-5.5173254,-7.6583037,46.963375,4.736733,-4.2063847,-16.058752,0.06757728,11.152896,-13.750173,21.58292,-34.94702,-0.469007,6.9918923,-16.041286,-12.823431,16.381765,-20.684767,33.975315,39.620525,35.311863,-18.19651,0.51398045
219,3.675942897796631,-70.90982818603516,77.59294128417969,-1.4946952188544498,7.7932090300158645,-99.33106531334671,7.705734,-9.183163,-0.23955072,25.758474,6.0619035,-6.2102785,-40.274612,-4.738909,-7.253543,40.48227,9.514084,-0.6942467,-16.185,0.07420159,11.087736,-12.963294,21.473581,-35.75572,-0.47946817,7.161399,-16.049698,-12.691929,16.576025,-20.555101,33.522846,39.034985,35.177578,-18.35032,0.42524236
220,3.621868371963501,-72.16144561767578,77.79019165039062,-1.0055056932534183,7.633830438393752,-98.62407317889432,8.874908,-9.899374,-1.6606538,24.86382,9.294329,-9.27169,-38.84981,-4.226285,-6.8798704,34.595474,13.50089,2.4212017,-16.260855,0.01874837,10.941667,-12.177443,21.364288,-36.561466,-0.39657262,7.327314,-16.068127,-12.61909,16.770737,-20.432331,33.075333,38.44682,35.044224,-18.45497,0.39531296
221,3.5722780227661133,-73.42574310302734,77.92085266113281,-0.38812738089498433,7.465579381491217,-97.89019088391223,9.899801,-10.7654505,-3.214387,24.385807,11.741156,-11.7923765,-37.39626,-4.059199,-6.767313,29.220951,16.673655,5.3392587,-16.306713,-0.15145901,10.697572,-11.35949,21.25346,-37.36189,-0.22346291,7.5279965,-16.090982,-12.649181,17.004787,-20.322496,32.623108,37.83735,34.909637,-18.494436,0.45288864
222,3.5146877765655518,-74.69173431396484,77.98722839355469,0.35558950222975305,7.264715099722703,-97.13415215553049,10.863051,-11.775185,-4.883533,24.183834,13.656727,-14.090192,-35.829327,-4.1384616,-6.839699,24.094301,19.420046,8.215637,-16.328234,-0.4397928,10.3857765,-10.508387,21.142784,-38.16623,0.04918563,7.762793,-16.11711,-12.749056,17.274975,-20.227297,32.159878,37.20237,34.77789,-18.490438,0.5731704
223,3.471849203109741,-75.96205139160156,77.99993896484375,1.1973021670540496,7.065713473357705,-96.39330327407386,11.730067,-12.794878,-6.085753,24.189907,15.189316,-15.000033,-34.488544,-4.4587207,-6.9506173,19.842115,21.56302,10.436619,-16.289373,-0.81053424,10.011025,-9.681641,21.037653,-38.96005,0.40634567,7.949396,-16.160591,-12.845021,17.510313,-20.151213,31.71273,36.557808,34.65437,-18.459665,0.7096927
224,3.448314666748047,-77.22219848632812,77.96760559082031,2.03298635416306,6.936549585397736,-95.7426819285388,12.379351,-13.676544,-6.6874137,24.435177,16.43894,-15.000033,-33.775955,-4.9372153,-7.007111,17.18284,22.890036,11.3491955,-16.119787,-1.1619265,9.571454,-8.942349,20.943459,-39.728016,0.831982,8.001851,-16.235332,-12.862414,17.630917,-20.102283,31.313158,35.92859,34.546852,-18.419203,0.81787986
225,3.4267280101776123,-78.47078704833984,77.9168930053711,2.644037732039236,6.984940021864891,-95.26041384604328,12.552387,-14.287336,-6.930308,25.240973,17.304419,-15.000033,-33.90039,-5.3214526,-7.1937017,16.26381,23.615866,10.26872,-15.7361965,-1.2703041,9.037164,-8.314262,20.86241,-40.4728,1.3294597,7.9042745,-16.352728,-12.786966,17.61807,-20.086308,30.969776,35.297337,34.451153,-18.370594,0.8785228
226,3.399993896484375,-79.70268249511719,77.84782409667969,3.091668815185316,7.179707007184069,-94.91568603374257,12.304125,-14.701966,-6.8865547,26.570332,17.748531,-15.000033,-34.69613,-5.65671,-7.589219,16.819199,23.75353,7.673812,-15.169998,-1.2018669,8.406708,-7.762403,20.792604,-41.199417,1.8990785,7.6988225,-16.503475,-12.656347,17.51262,-20.10544,30.671116,34.658306,34.36792,-18.30542,0.91929805
227,3.3719160556793213,-80.8988037109375,77.75524139404297,3.4630732872885654,7.366511700990036,-94.6134673152202,11.844724,-14.970325,-6.659545,28.328905,17.688507,-15.000033,-35.6956,-6.039408,-8.114006,18.418606,23.00383,4.609117,-14.528838,-1.0824845,7.796605,-7.266497,20.735449,-41.895603,2.5297048,7.382615,-16.672396,-12.474684,17.32526,-20.160332,30.421432,34.057304,34.309555,-18.226591,0.9651283
228,3.3224925994873047,-82.04129791259766,77.63558197021484,3.8299536557222704,7.381900050598102,-94.25835592552012,11.396171,-15.1332855,-6.375941,30.425705,17.038984,-15.000033,-36.37662,-6.526414,-8.621089,20.544916,21.079187,2.163746,-13.926048,-1.0200349,7.3391957,-6.7924266,20.69524,-42.54444,3.1981385,6.9582925,-16.84442,-12.245393,17.061518,-20.249428,30.225922,33.541744,34.28863,-18.136614,1.0405082
229,3.2419040203094482,-83.14913177490234,77.47099304199219,4.211811954342306,7.16238907582798,-93.81404690163798,11.064955,-15.2300625,-6.140099,32.865986,15.60621,-15.000033,-36.59392,-7.2108216,-9.076033,23.412071,17.322283,0.5253005,-13.384214,-1.0442815,7.0648437,-6.339465,20.679813,-43.177486,3.9102237,6.3736095,-17.03553,-11.939244,16.75081,-20.374819,30.082966,33.094227,34.34492,-18.035995,1.1628911
230,3.1715447902679443,-84.32441711425781,77.20130920410156,4.559430592905067,6.788824584802512,-93.32752352655874,10.759257,-15.231382,-5.9103856,35.641098,13.521719,-15.000033,-36.549747,-8.083025,-9.439897,27.051477,12.082597,-0.75596786,-12.857621,-1.0877298,6.920373,-5.914074,20.692211,-43.78888,4.660838,5.644167,-17.250006,-11.5651455,16.382097,-20.536129,29.992786,32.693188,34.459564,-17.922552,1.3150302
231,3.0926027297973633,-85.50138854980469,76.8956298828125,4.807169869611036,6.336370115661543,-92.85243838997539,10.366863,-15.0355,-5.5725093,38.670967,11.168935,-15.000033,-36.310436,-8.975914,-9.643267,30.76117,6.5951715,-1.6097196,-12.333,-1.0729729,6.90259,-5.494794,20.72757,-44.303856,5.416577,4.874265,-17.454927,-11.182656,15.883965,-20.72898,29.962843,32.399586,34.559048,-17.797462,1.4713308
232,3.009615182876587,-86.61271667480469,76.6120376586914,4.901805082556272,5.881343802421297,-92.43612306896044,9.779631,-14.540845,-5.026132,41.879627,8.921127,-15.000033,-35.965157,-9.647828,-9.729404,33.907394,2.097563,-2.062094,-11.803448,-0.93159527,7.0038743,-5.0589995,20.776207,-44.64462,6.1469183,4.170224,-17.614689,-10.850933,15.184661,-20.944834,30.00249,32.274456,34.5692,-17.662695,1.6057585
233,2.9297714233398438,-87.68546295166016,76.32830810546875,4.808958311502821,5.392631642436428,-92.08867450544986,9.0072365,-13.634324,-4.2164598,45.346603,6.784324,-15.000033,-35.546543,-9.961643,-9.759171,36.493458,-1.0266738,-2.0444174,-11.258534,-0.64052963,7.288647,-4.6468506,20.835823,-44.80181,6.8909783,3.5076058,-17.715345,-10.586599,14.223542,-21.174704,30.123407,32.35819,34.461563,-17.512142,1.7293096
234,2.8405747413635254,-88.70710754394531,76.04690551757812,4.548938334289117,4.854318423158135,-91.7897072131172,8.122632,-12.355916,-3.2512133,49.056446,4.591968,-15.000033,-35.031384,-10.036725,-9.801137,38.87234,-3.468233,-1.63959,-10.701129,-0.21827999,7.7341104,-4.2576375,20.906065,-44.81097,7.6539683,2.84707,-17.776459,-10.35683,13.043098,-21.41506,30.31814,32.618835,34.277348,-17.348938,1.849524
235,2.732755184173584,-89.70702362060547,75.77627563476562,4.1672327821402435,4.359302583961871,-91.53292694949315,7.1093445,-10.851463,-2.2835217,52.806145,2.4512064,-15.000033,-34.396896,-9.954754,-9.946522,40.907322,-5.6025505,-1.1263416,-10.148982,0.32277876,8.20141,-3.8069658,20.975225,-44.66458,8.357758,2.2766893,-17.809856,-10.146922,11.727437,-21.668884,30.567915,33.010494,34.04941,-17.189272,1.9358819
236,2.640301465988159,-90.72181701660156,75.52590942382812,3.71525149875265,3.9987593729092703,-91.31284685333222,5.9344215,-9.287589,-1.4536985,56.4039,0.46292022,-15.000033,-33.61392,-9.7982025,-10.260378,42.434505,-7.787956,-0.77039385,-9.619692,0.964025,8.549773,-3.2134118,21.023884,-44.355423,8.932028,1.8836321,-17.827967,-9.943197,10.3650055,-21.942505,30.859125,33.481487,33.812973,-17.048151,1.9573389
237,2.57564640045166,-91.77247619628906,75.30883026123047,3.1535207396985565,3.807635999067355,-91.13391545296545,4.5294566,-7.64911,-0.8328106,59.9106,-1.3751099,-15.000033,-32.610455,-9.506705,-10.81814,43.271034,-10.100073,-0.6422953,-9.134558,1.7635809,8.745093,-2.4260557,21.026009,-43.852093,9.389045,1.7012252,-17.841778,-9.707204,8.914206,-22.251406,31.237284,34.109283,33.607574,-16.944002,1.8781292
238,2.575770854949951,-92.77293395996094,75.10433959960938,2.657878787312184,3.7352441479106084,-90.9670433792225,2.943026,-5.9390445,-0.096814044,63.2924,-3.0292394,-14.375402,-31.536167,-9.24112,-11.412325,43.708458,-12.422428,-0.5550063,-8.702647,2.5409546,8.825011,-1.5101646,20.9708,-43.171543,9.780786,1.6805252,-17.842073,-9.460299,7.3619156,-22.59529,31.699722,34.866985,33.412094,-16.860668,1.7229519
239,2.5965330600738525,-93.79647827148438,74.92903137207031,2.309664481596871,3.741486129905679,-90.80446828411657,1.2660255,-4.074058,1.1356664,66.43669,-4.519978,-12.122278,-30.509773,-9.104211,-11.919803,44.007015,-14.690419,-0.45962554,-8.271431,3.199184,8.810007,-0.5577537,20.867226,-42.38671,10.095137,1.7863792,-17.809622,-9.276168,5.8381686,-22.949484,32.1494,35.563446,33.160522,-16.762436,1.5532141
240,2.614175796508789,-94.80438995361328,74.74955749511719,2.0370649094066815,3.7807189747948926,-90.66800442717481,-0.41339254,-2.2765012,2.3307276,69.309135,-5.930201,-9.993473,-29.555658,-9.008859,-12.347717,44.291092,-16.785671,-0.36250308,-7.7635126,3.7569547,8.745067,0.33707777,20.737875,-41.57832,10.311241,1.9792982,-17.724249,-9.225109,4.455999,-23.279768,32.48166,36.038593,32.785664,-16.616749,1.4324524
241,2.625521421432495,-95.81610870361328,74.59264373779297,1.861823797617359,3.8769865717892977,-90.56650011685008,-2.1292713,-0.5229037,3.5761416,71.93383,-7.2698345,-7.9504294,-28.697104,-8.980584,-12.681827,44.555523,-18.721144,-0.2674899,-7.1456513,4.1723847,8.590127,1.1757598,20.601357,-40.74785,10.393934,2.3839183,-17.55659,-9.3452015,3.2450635,-23.557743,32.641075,36.296844,32.21877,-16.412222,1.3665365
