unveil-humanoid-operators/unveil-humanoid-operators.github.io/feature-analysis-animation/data/feature_matrix_instances/weight_root_translate_peak_vel_walking_A431_walking_quip_360_R_002__A431.csv
Frame,root_translateX,root_translateY,root_translateZ,root_rotateX,root_rotateY,root_rotateZ,left_hip_pitch_joint_dof,left_hip_roll_joint_dof,left_hip_yaw_joint_dof,left_knee_joint_dof,left_ankle_pitch_joint_dof,left_ankle_roll_joint_dof,right_hip_pitch_joint_dof,right_hip_roll_joint_dof,right_hip_yaw_joint_dof,right_knee_joint_dof,right_ankle_pitch_joint_dof,right_ankle_roll_joint_dof,waist_yaw_joint_dof,waist_roll_joint_dof,waist_pitch_joint_dof,left_shoulder_pitch_joint_dof,left_shoulder_roll_joint_dof,left_shoulder_yaw_joint_dof,left_elbow_joint_dof,left_wrist_roll_joint_dof,left_wrist_pitch_joint_dof,left_wrist_yaw_joint_dof,right_shoulder_pitch_joint_dof,right_shoulder_roll_joint_dof,right_shoulder_yaw_joint_dof,right_elbow_joint_dof,right_wrist_roll_joint_dof,right_wrist_pitch_joint_dof,right_wrist_yaw_joint_dof
0,-0.004980836994946003,1.7805287837982178,77.72447967529297,0.7476987592012316,0.5750560254126776,-89.52724030073193,-3.2194047,7.8343487,11.070296,12.351094,-9.106736,-7.973191,-6.329617,-10.652922,-7.109184,16.84287,-10.253765,8.893567,0.22234157,-1.1068908,8.184769,-2.4948573,24.58292,-35.654522,51.794437,16.765362,-14.80063,-8.463546,-11.402809,-23.644117,52.50595,51.81698,-11.44663,-2.7697837,3.0050352
1,0.001178000122308731,1.7791622877120972,77.7196273803711,0.7164356593279613,0.5810698407348402,-89.50476615939486,-3.3395736,7.8776846,11.026626,12.586429,-9.225635,-7.9570513,-6.2931304,-10.631661,-7.148484,16.776888,-10.240096,8.8925295,0.20686096,-1.0957402,8.199869,-2.4691622,24.598171,-35.6617,51.80365,16.680304,-14.804645,-8.386847,-11.397478,-23.664228,52.510674,51.738304,-11.484159,-2.803119,2.9947715
2,0.009886371903121471,1.7776243686676025,77.71440124511719,0.6876849626380831,0.5880731384148036,-89.48270144735334,-3.4554372,7.9182277,10.984935,12.810331,-9.338311,-7.940716,-6.259052,-10.612737,-7.1873307,16.712645,-10.227655,8.8906765,0.19099057,-1.0858313,8.213561,-2.4451375,24.611944,-35.671024,51.817158,16.584038,-14.807173,-8.303852,-11.38763,-23.686731,52.511406,51.656998,-11.530729,-2.843756,2.984058
3,0.021716168150305748,1.7751365900039673,77.70970916748047,0.6545179818128186,0.5930549714517431,-89.45962679688851,-3.5788207,7.9643965,10.938794,13.054764,-9.462443,-7.9246507,-6.219147,-10.588543,-7.227431,16.642883,-10.211751,8.890542,0.1753424,-1.0711942,8.227242,-2.4246304,24.619442,-35.67798,51.83555,16.510979,-14.814184,-8.23265,-11.380013,-23.701698,52.51288,51.58236,-11.569273,-2.8706253,2.9743054
4,0.041234780102968216,1.7638638019561768,77.70528411865234,0.6097835648563918,0.5931997590652307,-89.43415415039985,-3.7208884,8.02504,10.881734,13.349917,-9.614943,-7.9093423,-6.165042,-10.551487,-7.2704535,16.55954,-10.187343,8.894639,0.16188614,-1.0463085,8.244689,-2.4063559,24.62594,-35.6812,51.848938,16.490131,-14.831714,-8.192491,-11.375584,-23.717527,52.518658,51.507343,-11.580905,-2.8627546,2.9676604
5,0.06005372852087021,1.7568283081054688,77.69930267333984,0.5511565641700538,0.5868987054004146,-89.40597896520494,-3.881862,8.101405,10.811141,13.699773,-9.797699,-7.9003983,-6.0949507,-10.498816,-7.3150125,16.462608,-10.152531,8.903642,0.15017219,-1.0104923,8.267883,-2.3906667,24.630953,-35.675972,51.85758,16.553467,-14.869842,-8.193007,-11.370118,-23.731697,52.52574,51.42738,-11.560414,-2.7995527,2.967424
6,0.07828344404697418,1.7548840045928955,77.69159698486328,0.48300003425418003,0.5759666918901865,-89.37591415277902,-4.052543,8.188683,10.730953,14.080658,-10.00071,-7.895846,-6.012205,-10.434328,-7.3609924,16.353924,-10.109324,8.916182,0.13757882,-0.9657187,8.297246,-2.372556,24.637222,-35.659443,51.856724,16.677933,-14.922744,-8.223653,-11.363942,-23.751986,52.536823,51.33614,-11.514103,-2.6968622,2.971964
7,0.09221082180738449,1.7522282600402832,77.68362426757812,0.40548521739051496,0.562622242029832,-89.34365018102824,-4.2422996,8.288008,10.643385,14.507009,-10.227537,-7.8842235,-5.9187603,-10.361082,-7.4116187,16.232141,-10.060338,8.931708,0.12019086,-0.9111079,8.32835,-2.3471425,24.643795,-35.633923,51.84272,16.812649,-14.971338,-8.270581,-11.359775,-23.776896,52.554302,51.240585,-11.458375,-2.5873792,2.9750297
8,0.11138495802879333,1.7443552017211914,77.67357635498047,0.32046940452262185,0.5490181773548549,-89.30902850842155,-4.457787,8.400204,10.550764,14.987038,-10.480369,-7.8544583,-5.817297,-10.281541,-7.4698215,16.097792,-10.00935,8.949616,0.1019224,-0.84641266,8.353926,-2.321978,24.64645,-35.61513,51.82615,16.901514,-14.998357,-8.320103,-11.355571,-23.793554,52.568512,51.158257,-11.416219,-2.5074868,2.9698637
9,0.13689321279525757,1.7397500276565552,77.66255187988281,0.2256453751407488,0.5370755384447568,-89.26982132700323,-4.7080584,8.525922,10.452856,15.53346,-10.764429,-7.7944903,-5.7082896,-10.197274,-7.538731,15.948438,-9.955695,8.970254,0.07373065,-0.76925683,8.374465,-2.2888696,24.646898,-35.590725,51.796116,16.928885,-14.998468,-8.384083,-11.352761,-23.814932,52.58803,51.07829,-11.37587,-2.4563582,2.9473777
10,0.16839314997196198,1.7304102182388306,77.65145111083984,0.12366184775310095,0.5251033249004601,-89.22664710075908,-4.9869266,8.66529,10.34798,16.137352,-11.076142,-7.7135296,-5.590991,-10.105698,-7.6159773,15.78556,-9.8981695,8.993621,0.037749678,-0.67885345,8.392484,-2.2506309,24.643919,-35.56166,51.75549,16.922937,-14.981134,-8.46428,-11.345591,-23.843342,52.608448,50.992603,-11.336535,-2.4177659,2.9136791
11,0.20511369407176971,1.7249528169631958,77.63382720947266,0.00920194989467938,0.5103777604864593,-89.18433782470959,-5.275682,8.815507,10.237143,16.770594,-11.40405,-7.631856,-5.4610524,-10.004067,-7.6973147,15.60595,-9.835545,9.0188465,0.0066681122,-0.57817656,8.410497,-2.2133405,24.637587,-35.54002,51.71272,16.904,-14.950832,-8.533763,-11.344416,-23.871914,52.63552,50.91335,-11.30289,-2.404085,2.885922
12,0.23742739856243134,1.7134660482406616,77.61468505859375,-0.11624668437221107,0.48993329624254706,-89.14741574590535,-5.5586734,8.974811,10.120936,17.412298,-11.739825,-7.5696454,-5.3150845,-9.889486,-7.7782335,15.407936,-9.766766,9.0450535,-0.019590868,-0.4671992,8.430988,-2.1727688,24.628447,-35.526173,51.66929,16.89101,-14.91245,-8.566226,-11.33513,-23.900503,52.65822,50.829075,-11.312385,-2.4254317,2.881616
13,0.2829758822917938,1.6994988918304443,77.59664154052734,-0.25415696077681765,0.4628655561157264,-89.11777241571652,-5.834502,9.146521,9.996738,18.061396,-12.083907,-7.538627,-5.152697,-9.758126,-7.8581834,15.19082,-9.6915865,9.069344,-0.03597514,-0.3415079,8.458935,-2.1350749,24.609951,-35.522663,51.63165,16.884037,-14.860961,-8.541147,-11.3212185,-23.949463,52.68746,50.7196,-11.372573,-2.5154479,2.919033
14,0.31842583417892456,1.6922221183776855,77.57489013671875,-0.40429061538074695,0.4307342384002957,-89.09274204563322,-6.110804,9.329664,9.865387,18.728697,-12.440927,-7.5258956,-4.975882,-9.612795,-7.9389505,14.955801,-9.610487,9.093058,-0.042638242,-0.20482655,8.489792,-2.1002798,24.588127,-35.533245,51.596287,16.870825,-14.7957,-8.477286,-11.2966,-23.999691,52.706345,50.599945,-11.484336,-2.6592112,2.9838767
15,0.35972651839256287,1.6810381412506104,77.55122375488281,-0.5618712281674556,0.39452094065812926,-89.07025394010849,-6.3822665,9.516678,9.733276,19.401114,-12.803196,-7.5149374,-4.784743,-9.461039,-8.019438,14.703563,-9.523871,9.121777,-0.044830896,-0.060140885,8.519891,-2.0643928,24.56146,-35.55121,51.559574,16.866217,-14.728618,-8.405473,-11.271614,-24.054451,52.730164,50.485252,-11.587634,-2.7903855,3.046956
16,0.4114055633544922,1.6532745361328125,77.53015899658203,-0.7210960794727947,0.3551720971885748,-89.0481856350677,-6.642823,9.700281,9.606723,20.064045,-13.163792,-7.4891477,-4.577568,-9.310474,-8.098801,14.430278,-9.429373,9.161247,-0.047427632,0.089486375,8.545054,-2.0248609,24.529346,-35.572662,51.51867,16.882748,-14.671768,-8.356266,-11.246503,-24.113256,52.76247,50.38549,-11.634992,-2.8421276,3.0795193
17,0.48070937395095825,1.6200270652770996,77.51251220703125,-0.8834519299331508,0.3100654634927135,-89.02451593421031,-6.8895855,9.882481,9.485711,20.716349,-13.520189,-7.4454546,-4.3450475,-9.158535,-8.17951,14.125413,-9.322486,9.212766,-0.05434975,0.24780224,8.566029,-1.976832,24.492054,-35.595524,51.47152,16.929754,-14.63547,-8.344912,-11.22397,-24.17288,52.809444,50.308926,-11.595959,-2.7667217,3.0639694
18,0.5475779175758362,1.5960417985916138,77.486328125,-1.0531965830321435,0.25961327581102855,-89.0007412920779,-7.126266,10.066357,9.36721,21.36453,-13.876392,-7.3919716,-4.08816,-9.002656,-8.261339,13.787778,-9.204071,9.273461,-0.06393094,0.4154378,8.583806,-1.9240396,24.447842,-35.621964,51.4229,16.997551,-14.611009,-8.352336,-11.198624,-24.235552,52.86405,50.245823,-11.508274,-2.6095254,3.018897
19,0.6074195504188538,1.5761470794677734,77.45989227294922,-1.2208448236779192,0.20961930508980417,-88.98052008793572,-7.3557844,10.2454,9.253542,22.004211,-14.234114,-7.3285747,-3.829873,-8.850659,-8.338024,13.448063,-9.085496,9.342316,-0.06982056,0.5792966,8.595551,-1.8652135,24.40619,-35.649708,51.36282,17.074537,-14.581707,-8.36021,-11.177555,-24.289078,52.92126,50.201344,-11.4109955,-2.4447904,2.969087
20,0.6725379824638367,1.546172857284546,77.43373107910156,-1.381079064310448,0.1658392349897224,-88.96752304686798,-7.580426,10.413147,9.147263,22.630373,-14.594882,-7.255496,-3.5853693,-8.709346,-8.404947,13.120191,-8.973962,9.418513,-0.067193836,0.7333582,8.598059,-1.8106608,24.360373,-35.679077,51.29819,17.148853,-14.531707,-8.347872,-11.149987,-24.34414,52.96892,50.15533,-11.351002,-2.3451138,2.9408705
21,0.7444629669189453,1.5142884254455566,77.40812683105469,-1.5363057291212592,0.13092654235467466,-88.96340278726126,-7.808809,10.573251,9.046361,23.256544,-14.966132,-7.1693907,-3.3576112,-8.575365,-8.462078,12.804032,-8.870249,9.501449,-0.049098264,0.88132626,8.588134,-1.7670289,24.303274,-35.712,51.232986,17.211617,-14.452129,-8.307367,-11.113,-24.411362,53.006504,50.097904,-11.332988,-2.3402011,2.941425
22,0.8242189884185791,1.4812514781951904,77.37754821777344,-1.687936991775608,0.10145408204643341,-88.96605006608765,-8.037279,10.726722,8.950576,23.881742,-15.345296,-7.0715504,-3.1387787,-8.447584,-8.511524,12.492736,-8.771096,9.591634,-0.021444703,1.0200183,8.568845,-1.7185211,24.253904,-35.74597,51.148796,17.267445,-14.35244,-8.252049,-11.076981,-24.46881,53.03865,50.051037,-11.338208,-2.388798,2.9559867
23,0.90407794713974,1.441166639328003,77.34703063964844,-1.829050582758554,0.07374143750877328,-88.97337920342189,-8.248388,10.86396,8.865113,24.475393,-15.716591,-6.968978,-2.9272704,-8.33388,-8.55243,12.191221,-8.677537,9.68977,0.012147115,1.1502429,8.544856,-1.6797857,24.193464,-35.78664,51.072727,17.337051,-14.245915,-8.187752,-11.027983,-24.538425,53.05868,49.99668,-11.364277,-2.4532518,2.9819746
24,0.990427553653717,1.4038795232772827,77.31798553466797,-1.9547010052816802,0.04434902233071834,-88.98362064445284,-8.426044,10.975001,8.7953005,25.009449,-16.06558,-6.868761,-2.7222865,-8.243645,-8.583581,11.906217,-8.591553,9.7969885,0.04600073,1.2610989,8.521823,-1.6474193,24.133858,-35.837414,51.002655,17.433428,-14.144372,-8.123726,-10.975617,-24.607286,53.067875,49.952675,-11.40595,-2.498437,3.0148656
25,1.0814125537872314,1.367300033569336,77.29069519042969,-2.0680638123194655,0.011674789976302166,-88.9942014539529,-8.570951,11.063532,8.735919,25.487106,-16.394243,-6.771234,-2.509846,-8.171248,-8.609838,11.613544,-8.50216,9.915485,0.07736008,1.3556198,8.50194,-1.6209112,24.075544,-35.90062,50.94335,17.55784,-14.061019,-8.05026,-10.928993,-24.67578,53.076214,49.923325,-11.467231,-2.5364077,3.0628295
26,1.1808934211730957,1.3248497247695923,77.26510620117188,-2.1718628670905025,-0.022149128402653956,-89.00686261312815,-8.69028,11.132798,8.686692,25.920013,-16.708582,-6.673177,-2.2946281,-8.11448,-8.630325,11.317962,-8.412011,10.044228,0.10871098,1.4359581,8.482082,-1.5977595,24.018368,-35.97251,50.88791,17.703087,-13.985794,-7.9671454,-10.880283,-24.743301,53.07716,49.901432,-11.5531435,-2.5789979,3.1247816
27,1.2782260179519653,1.2801868915557861,77.23804473876953,-2.2532869069957733,-0.05530899055120519,-89.02571197569532,-8.778278,11.1738205,8.659921,26.29658,-17.00152,-6.5761733,-2.1052108,-8.087869,-8.635561,11.072801,-8.344338,10.179384,0.14424735,1.4934245,8.460474,-1.5803953,23.962164,-36.050404,50.830357,17.872154,-13.896394,-7.8964963,-10.830369,-24.809517,53.068977,49.893017,-11.633467,-2.5909092,3.1828911
28,1.3769714832305908,1.2351608276367188,77.21275329589844,-2.3078304149806366,-0.08612034166759663,-89.0548473320306,-8.828877,11.177607,8.667954,26.604673,-17.26573,-6.4818826,-1.9676064,-8.105018,-8.616703,10.926017,-8.319793,10.316914,0.18864089,1.5200073,8.435874,-1.5699403,23.906359,-36.129604,50.762836,18.070398,-13.770841,-7.860242,-10.780531,-24.873304,53.050655,49.902294,-11.675016,-2.5366204,3.2193677
29,1.485216736793518,1.1853245496749878,77.19029235839844,-2.333760991655236,-0.11341876801170371,-89.0935564184629,-8.842578,11.148634,8.71246,26.843433,-17.500853,-6.39589,-1.8811983,-8.163161,-8.576747,10.876327,-8.340019,10.454247,0.24145627,1.5184456,8.405877,-1.5655037,23.850512,-36.209507,50.683674,18.326324,-13.599278,-7.8788934,-10.732051,-24.933207,53.02563,49.9401,-11.658037,-2.3514655,3.2315555
30,1.5994426012039185,1.1396598815917969,77.16858673095703,-2.338102374782031,-0.1383284555366575,-89.14020622122155,-8.823026,11.08973,8.787123,27.021067,-17.711706,-6.315723,-1.8337247,-8.2565365,-8.519207,10.901039,-8.394685,10.5938225,0.29821968,1.4899763,8.372402,-1.5613345,23.800753,-36.288624,50.590088,18.627598,-13.395109,-7.937241,-10.692775,-24.982147,53.000225,50.010426,-11.599398,-2.0732172,3.2274735
31,1.7183423042297363,1.0963420867919922,77.1484146118164,-2.3120101397720694,-0.16271679095772104,-89.19750623435793,-8.7653,10.990123,8.892683,27.130732,-17.89551,-6.2310724,-1.8386139,-8.395575,-8.435111,11.026741,-8.490825,10.7398815,0.36432156,1.4305304,8.337079,-1.5712891,23.743196,-36.37424,50.500835,18.92032,-13.170826,-8.000312,-10.636674,-25.034426,52.94503,50.0765,-11.549786,-1.8183489,3.2073808
32,1.844855785369873,1.038926124572754,77.12625885009766,-2.2458293045565156,-0.18819197868076937,-89.26826621696055,-8.670884,10.839034,9.028656,27.17876,-18.051512,-6.13136,-1.9072415,-8.590465,-8.315676,11.274946,-8.6334915,10.896579,0.4384482,1.3293397,8.304953,-1.5885186,23.686049,-36.460587,50.40678,19.14956,-12.937917,-8.035897,-10.574846,-25.085062,52.86416,50.13096,-11.530482,-1.7046996,3.1704469
33,1.9720935821533203,0.9904454350471497,77.10987854003906,-2.1378961704109853,-0.21370817852915755,-89.35295068843438,-8.538591,10.63598,9.196772,27.162252,-18.180199,-6.0147486,-2.0406685,-8.842324,-8.16097,11.644936,-8.821227,11.067182,0.52219063,1.1872061,8.275531,-1.6121982,23.62801,-36.54672,50.305992,19.294453,-12.677941,-8.029789,-10.499529,-25.13757,52.748363,50.163723,-11.576826,-1.8342597,3.1047256
34,2.1041624546051025,0.9423797130584717,77.0909423828125,-1.9950307044002387,-0.23863403295360341,-89.45028129783508,-8.3675995,10.383857,9.396701,27.07788,-18.2802,-5.886479,-2.2313273,-9.146393,-7.9742427,12.121589,-9.049366,11.249178,0.6149611,1.0062838,8.248215,-1.6416591,23.570757,-36.633068,50.196484,19.38629,-12.391659,-8.001326,-10.418437,-25.191822,52.60912,50.18678,-11.656928,-2.1208997,3.014137
35,2.2375059127807617,0.891428530216217,77.07379150390625,-1.8096711685880094,-0.2653096521000775,-89.56040174695964,-8.158143,10.077718,9.624716,26.926502,-18.351183,-5.7469807,-2.4834754,-9.504317,-7.7500505,12.716987,-9.32439,11.437921,0.71715254,0.7825509,8.224415,-1.6859614,23.511892,-36.72807,50.09141,19.446394,-12.119332,-7.9662533,-10.319479,-25.251736,52.435017,50.193565,-11.737676,-2.398548,2.923748
36,2.383887529373169,0.8362904191017151,77.06038665771484,-1.580044935440691,-0.29606727775408953,-89.68340161368945,-7.909031,9.711666,9.877435,26.706984,-18.389973,-5.5966034,-2.802569,-9.918053,-7.482226,13.443848,-9.651326,11.628583,0.8240996,0.5090243,8.206488,-1.742562,23.458544,-36.83138,49.989674,19.498,-11.901174,-7.941697,-10.206756,-25.312078,52.230297,50.191334,-11.774696,-2.5020676,2.8585532
37,2.5214037895202637,0.7918072938919067,77.04296112060547,-1.2987924848085177,-0.3305677094651199,-89.82128620628905,-7.610375,9.274936,10.15781,26.400652,-18.390753,-5.435696,-3.1869006,-10.394726,-7.164794,14.291592,-10.035121,11.825055,0.93625915,0.17688994,8.194489,-1.8063036,23.415333,-36.940365,49.892105,19.549603,-11.747416,-7.9264402,-10.077193,-25.366404,51.981308,50.19369,-11.747544,-2.3177814,2.830094
38,2.6689560413360596,0.7308079600334167,77.025146484375,-0.9676859463982401,-0.3671933537957528,-89.9735756532947,-7.264807,8.770458,10.465508,26.011597,-18.354713,-5.2643137,-3.6359434,-10.93184,-6.7993045,15.254999,-10.468312,12.0280075,1.047519,-0.21148418,8.188012,-1.8681068,23.386486,-37.04573,49.786774,19.587933,-11.637013,-7.9146214,-9.945162,-25.407251,51.7052,50.207615,-11.677261,-1.957529,2.8221068
39,2.817211151123047,0.6774848103523254,77.00254821777344,-0.5972668797161185,-0.4070163210101091,-90.1366185241359,-6.882016,8.211608,10.793493,25.555489,-18.28926,-5.0824704,-4.1458964,-11.515827,-6.3923626,16.331097,-10.934403,12.227804,1.181449,-0.6451534,8.188742,-1.9606403,23.36128,-37.18417,49.686428,19.598883,-11.561488,-7.9121857,-9.784412,-25.456945,51.38501,50.184063,-11.608318,-1.5935442,2.8227935
40,2.9668807983398438,0.6236057281494141,76.97635650634766,-0.19400003908923652,-0.45113888535521185,-90.30666257912755,-6.4738503,7.611861,11.134769,25.052544,-18.204441,-4.890072,-4.7131343,-12.133219,-5.950504,17.518723,-11.41747,12.415014,1.3000934,-1.1149029,8.197574,-2.0494144,23.350693,-37.31327,49.553562,19.58072,-11.514554,-7.9313827,-9.624891,-25.504631,51.079926,50.119175,-11.5755005,-1.3975705,2.8154733
41,3.1201977729797363,0.569031834602356,76.94781494140625,0.2551373251913521,-0.498759860978784,-90.48612798467708,-6.030052,6.9495916,11.497724,24.48051,-18.091902,-4.679173,-5.3429894,-12.804274,-5.467527,18.826206,-11.943544,12.583808,1.4193605,-1.639303,8.214029,-2.14191,23.356117,-37.44535,49.394012,19.535511,-11.521145,-7.98701,-9.448564,-25.558212,50.766758,49.99468,-11.605664,-1.4677932,2.7962685
42,3.262200117111206,0.5132640600204468,76.91556549072266,0.752430839479242,-0.5490766612855118,-90.67580602134355,-5.5468593,6.2237425,11.880209,23.833519,-17.948454,-4.453176,-6.0333257,-13.525226,-4.9395556,20.240337,-12.505873,12.739835,1.5374367,-2.216746,8.239129,-2.2339246,23.379015,-37.57618,49.207684,19.466621,-11.576045,-8.070352,-9.264553,-25.617031,50.4487,49.826614,-11.665847,-1.6949596,2.7728262
43,3.4171414375305176,0.45348605513572693,76.87921142578125,1.2570683152804736,-0.6036456595915074,-90.86993565518719,-5.0459604,5.481347,12.260461,23.155493,-17.79014,-4.228537,-6.7683916,-14.24761,-4.3778057,21.730354,-13.039943,12.891033,1.6476513,-2.807217,8.276656,-2.3327155,23.419695,-37.714558,48.985935,19.358139,-11.625675,-8.154688,-9.073044,-25.680843,50.132915,49.61164,-11.7312565,-1.9397768,2.7512665
44,3.557931661605835,0.39908862113952637,76.83943176269531,1.7348230517715997,-0.6644913649257956,-91.06274450929496,-4.5501776,4.7703643,12.61826,22.492733,-17.633734,-4.020991,-7.531985,-14.924364,-3.7952025,23.268984,-13.48325,13.045531,1.7424312,-3.3713894,8.329945,-2.444495,23.477625,-37.867752,48.719566,19.19607,-11.616244,-8.212681,-8.885418,-25.748398,49.838238,49.3546,-11.765063,-2.0632231,2.737841
45,3.712305784225464,0.34022271633148193,76.80032348632812,2.1873177439020774,-0.737046799856887,-91.25909926668574,-4.0510807,4.084269,12.957942,21.839277,-17.476208,-3.8322875,-8.325791,-15.558424,-3.1825395,24.868515,-13.845417,13.208974,1.8247513,-3.9166932,8.401263,-2.568738,23.552727,-38.04036,48.398216,18.965147,-11.521617,-8.231374,-8.698021,-25.818533,49.56201,49.043823,-11.758662,-1.9932525,2.7469919
46,3.8555219173431396,0.2861133813858032,76.75980377197266,2.631628584915031,-0.8186122849473011,-91.46003164800472,-3.5436974,3.4059408,13.286331,21.179972,-17.312494,-3.6545932,-9.157408,-16.165792,-2.5374625,26.540407,-14.153144,13.376181,1.8978964,-4.456817,8.488081,-2.703281,23.644842,-38.2283,48.02925,18.677134,-11.374335,-8.226555,-8.513358,-25.890972,49.30283,48.685356,-11.723141,-1.8157805,2.7709856
47,3.9966681003570557,0.23464567959308624,76.72254943847656,3.042145551711811,-0.8993069347520812,-91.65367629902697,-3.0534515,2.7658687,13.590295,20.542849,-17.153442,-3.488205,-10.014862,-16.720078,-1.886214,28.250513,-14.368082,13.539004,1.9492307,-4.964325,8.583263,-2.8504755,23.752945,-38.423508,47.632385,18.357023,-11.209266,-8.214487,-8.327006,-25.965382,49.056976,48.30071,-11.688588,-1.6282595,2.7833147
48,4.139372825622559,0.1799270510673523,76.68817901611328,3.394811956696054,-0.9696408003789697,-91.828223398083,-2.6060922,2.193906,13.8580675,19.958103,-17.011343,-3.3330078,-10.893652,-17.195583,-1.2533692,29.980577,-14.454247,13.686408,1.9669174,-5.412421,8.680049,-3.0116954,23.874851,-38.61642,47.22684,18.032377,-11.060939,-8.211677,-8.141338,-26.041145,48.82789,47.91376,-11.674514,-1.5283746,2.7575815
49,4.2618536949157715,0.12808965146541595,76.658935546875,3.685758918156808,-1.0316607189279352,-91.98183500127095,-2.2126396,1.7004163,14.090917,19.44918,-16.895924,-3.1932511,-11.790765,-17.588192,-0.6311475,31.732853,-14.386838,13.872722,1.944698,-5.7954593,8.77972,-3.1922686,24.010427,-38.812035,46.815968,17.689224,-10.938167,-8.234896,-7.9588118,-26.118399,48.62043,47.529133,-11.701827,-1.5546825,2.6745274
50,4.414312362670898,0.06920435279607773,76.63404846191406,3.9250159684846313,-1.0897442333911014,-92.12036138086233,-1.8567586,1.2683591,14.296162,18.993216,-16.797327,-3.066444,-12.712081,-17.914034,-0.010791115,33.523502,-14.192743,14.080402,1.8904799,-6.1278667,8.884517,-3.3906016,24.159355,-39.013126,46.390434,17.321302,-10.822518,-8.271122,-7.7859106,-26.197037,48.44028,47.13907,-11.743429,-1.650953,2.5519638
51,4.554814338684082,0.015696432441473007,76.61588287353516,4.120318765407032,-1.137469317850091,-92.24311987335776,-1.5358561,0.8907889,14.473723,18.579094,-16.71346,-2.9441094,-13.6667385,-18.177923,0.5833679,35.35646,-13.920201,14.190524,1.8079973,-6.415095,8.985556,-3.5981054,24.31876,-39.206684,45.95527,16.963566,-10.7081,-8.292171,-7.6004806,-26.27538,48.26105,46.737194,-11.791459,-1.7725863,2.4202125
52,4.688711643218994,-0.04109899327158928,76.60302734375,4.276959502315922,-1.1684605976180398,-92.34942236167404,-1.2484385,0.56020045,14.623315,18.197752,-16.643425,-2.817836,-14.661963,-18.388216,1.1257297,37.231316,-13.615709,14.085633,1.7032591,-6.6629086,9.074881,-3.8086529,24.484102,-39.38103,45.517555,16.651794,-10.589529,-8.269984,-7.3926883,-26.351683,48.067028,46.324585,-11.822422,-1.8754281,2.3093488
53,4.82016134262085,-0.0998646467924118,76.59556579589844,4.388568001189635,-1.1777001990822327,-92.44106466071761,-1.0005586,0.27975726,14.745124,17.851408,-16.586985,-2.6751828,-15.717814,-18.54094,1.6190344,39.191948,-13.243441,13.705914,1.5762829,-6.867841,9.148199,-4.023763,24.651695,-39.538845,45.0847,16.390228,-10.465202,-8.1828785,-7.157491,-26.425095,47.852074,45.88695,-11.839375,-1.9528323,2.2261672
54,4.950723648071289,-0.16531974077224731,76.59549713134766,4.45886939438975,-1.1700776581161536,-92.51752348327075,-0.79185736,0.050910298,14.841507,17.546425,-16.546179,-2.5238702,-16.820442,-18.642788,2.0669289,41.217693,-12.793174,13.118615,1.425448,-7.0302362,9.209929,-4.2505198,24.820333,-39.687275,44.65812,16.160982,-10.338799,-8.050041,-6.9063687,-26.496132,47.62959,45.43466,-11.845785,-2.026897,2.1549315
55,5.074028491973877,-0.23752038180828094,76.60398864746094,4.498447155339109,-1.1547001048696321,-92.5747577079657,-0.6046189,-0.13898642,14.913737,17.266619,-16.516428,-2.3845468,-17.922714,-18.711327,2.4429636,43.207855,-12.346705,12.399046,1.2513667,-7.1595774,9.264304,-4.4847264,24.988998,-39.815037,44.2325,15.970954,-10.212095,-7.904765,-6.6308665,-26.562508,47.392967,44.988693,-11.844007,-2.0956724,2.0924456
56,5.193820953369141,-0.3154957592487335,76.61286163330078,4.515145313061438,-1.140395236215753,-92.60874466095572,-0.4217966,-0.3014002,14.961981,16.996191,-16.492937,-2.277622,-18.978516,-18.7616,2.7243567,45.06412,-11.985516,11.628236,1.0549034,-7.2656054,9.314948,-4.722604,25.157427,-39.911087,43.803497,15.826865,-10.086726,-7.7799563,-6.3313937,-26.621624,47.142967,44.57929,-11.829645,-2.1574516,2.0352917
57,5.306095123291016,-0.3947729170322418,76.62435913085938,4.5103867233479145,-1.1286369036518498,-92.61853043995042,-0.24278754,-0.43641153,14.98694,16.734093,-16.47655,-2.2102678,-20.004751,-18.822123,2.873602,46.84041,-11.725792,10.720378,0.8340405,-7.349967,9.362075,-4.9654226,25.3264,-39.969917,43.375694,15.766079,-9.968651,-7.6786304,-6.0048366,-26.669394,46.874947,44.20817,-11.811234,-2.2052612,1.972383
58,5.416625022888184,-0.4770551323890686,76.63749694824219,4.479671136887197,-1.1151280141350508,-92.6062733969771,-0.07546302,-0.5383008,14.988506,16.48806,-16.469275,-2.1706002,-21.015142,-18.880304,2.9111488,48.564175,-11.52808,9.668767,0.5880968,-7.4083686,9.403586,-5.214308,25.49647,-39.99799,42.950264,15.77256,-9.854826,-7.5853047,-5.6538963,-26.70347,46.590885,43.86569,-11.789481,-2.2423818,1.9085375
59,5.5223774909973145,-0.5678790807723999,76.65193939208984,4.42567433721271,-1.0996517373838195,-92.57272073528301,0.082670294,-0.6088615,14.966448,16.25921,-16.46952,-2.1510942,-21.96148,-18.88347,2.9067156,50.105934,-11.391228,8.682171,0.32051456,-7.4403586,9.440045,-5.462685,25.666166,-40.00028,42.515114,15.7754755,-9.733258,-7.5057697,-5.2889743,-26.724428,46.303013,43.563087,-11.74398,-2.2824721,1.8645359
60,5.626760959625244,-0.6717426180839539,76.67353057861328,4.346461666821677,-1.082018871463394,-92.5188955659979,0.23224741,-0.64823323,14.920561,16.05289,-16.478048,-2.1446922,-22.796299,-18.76721,2.929738,51.338894,-11.310812,7.9750977,0.03414323,-7.44406,9.47188,-5.7051377,25.832794,-39.98164,42.059956,15.703389,-9.59212,-7.4447947,-4.9132104,-26.734447,46.018284,43.305897,-11.661049,-2.3391008,1.8614117
61,5.726855278015137,-0.7798952460289001,76.69674682617188,4.239157973140325,-1.0640115592396193,-92.44087262372359,0.3758975,-0.6502996,14.846235,15.869723,-16.495308,-2.1586785,-23.500095,-18.490847,3.007572,52.23553,-11.325251,7.6397505,-0.2779957,-7.4128985,9.498913,-5.9388146,25.994219,-39.94015,41.583866,15.531423,-9.42028,-7.406894,-4.5194874,-26.734543,45.728714,43.086113,-11.535256,-2.421428,1.9231077
62,5.813179969787598,-0.902717113494873,76.72313690185547,4.102971824767004,-1.044947826506629,-92.33974325942066,0.51098275,-0.6157077,14.745439,15.711202,-16.523127,-2.1938703,-24.102463,-18.090109,3.1019464,52.867912,-11.423825,7.558998,-0.6139976,-7.3485813,9.521547,-6.1690917,26.149635,-39.87486,41.095104,15.300149,-9.226815,-7.387469,-4.1067724,-26.724672,45.43343,42.90166,-11.374012,-2.520104,2.0325682
63,5.898366451263428,-1.0324369668960571,76.75221252441406,3.948670945323048,-1.020841873313198,-92.22425336290677,0.6359096,-0.55701935,14.628219,15.570182,-16.55691,-2.233876,-24.630562,-17.615347,3.184049,53.25824,-11.528003,7.6330585,-0.958031,-7.2625937,9.540091,-6.40277,26.298319,-39.792454,40.597813,15.035873,-9.030309,-7.3780622,-3.687081,-26.707085,45.149536,42.768475,-11.184964,-2.6207168,2.1495535
64,5.980403900146484,-1.1667999029159546,76.77838897705078,3.789295417048456,-0.9875689596805487,-92.1030805463134,0.74571097,-0.4865685,14.503239,15.446675,-16.596325,-2.2611592,-25.1108,-17.117952,3.2272608,53.426773,-11.557594,7.7620835,-1.2946006,-7.1657352,9.555123,-6.646895,26.4394,-39.6992,40.095398,14.7644825,-8.849351,-7.3706145,-3.267636,-26.684063,44.891766,42.696545,-10.977751,-2.7087512,2.2334456
65,6.051090240478516,-1.3067715167999268,76.8091049194336,3.618791954655021,-0.9422973259659949,-91.96988668612661,0.8307908,-0.39669728,14.363772,15.350585,-16.6413,-2.2690623,-25.537933,-16.5922,3.223528,53.35084,-11.487887,7.9573913,-1.6252819,-7.0525856,9.564334,-6.907492,26.571592,-39.59596,39.59325,14.48472,-8.68405,-7.380984,-2.8450153,-26.657242,44.6643,42.69428,-10.791115,-2.7723904,2.3166218
66,6.1366071701049805,-1.4441475868225098,76.833251953125,3.4352053209376985,-0.8878450235308235,-91.82280104847973,0.89506096,-0.28520268,14.207394,15.281777,-16.693747,-2.2669442,-25.903002,-16.020498,3.1915808,53.026203,-11.363657,8.258046,-1.956714,-6.92006,9.568725,-7.180521,26.694132,-39.47968,39.08998,14.1855955,-8.526091,-7.4071364,-2.4138417,-26.626886,44.458244,42.750603,-10.608602,-2.8218284,2.4063702
67,6.208063125610352,-1.602026104927063,76.8666000366211,3.2520009447459155,-0.8287377473291246,-91.67728129746477,0.9615563,-0.17262207,14.052305,15.209744,-16.746204,-2.2644503,-26.223991,-15.440499,3.1416512,52.497124,-11.207163,8.602782,-2.2805865,-6.782941,9.572753,-7.4579053,26.80748,-39.35173,38.57885,13.87833,-8.381371,-7.4152994,-1.987354,-26.59511,44.273582,42.855507,-10.352557,-2.8765078,2.4244018
68,6.27070426940918,-1.7606174945831299,76.89527893066406,3.0880024437432465,-0.769619380217079,-91.54877802973097,1.0590684,-0.08009892,13.9169,15.090908,-16.789686,-2.27022,-26.517977,-14.887641,3.0824497,51.809006,-11.039343,8.93077,-2.5886326,-6.655206,9.581016,-7.731608,26.913229,-39.213184,38.052174,13.573133,-8.256253,-7.3719707,-1.5780741,-26.564787,44.110737,42.996544,-9.943856,-2.95661,2.29298
69,6.336481094360352,-1.9291552305221558,76.92332458496094,2.942333186218184,-0.712646411313134,-91.44056554198141,1.1934365,-0.008584302,13.803817,14.919641,-16.821278,-2.2878752,-26.776857,-14.353806,3.0195684,50.939636,-10.863277,9.243086,-2.8816826,-6.5358396,9.596044,-7.9976387,27.012358,-39.05676,37.50348,13.248946,-8.160026,-7.247276,-1.1912342,-26.538525,43.972,43.176323,-9.27105,-3.0787373,1.9316256
70,6.389490604400635,-2.104787588119507,76.9483413696289,2.806921224345174,-0.6555271212954855,-91.34454987703656,1.3512487,0.051164187,13.704228,14.714621,-16.845476,-2.3110712,-26.993925,-13.829431,2.949211,49.873512,-10.667734,9.56405,-3.1639576,-6.419037,9.61524,-8.257827,27.105293,-38.881958,36.93485,12.908966,-8.08746,-7.0667872,-0.81672484,-26.517826,43.85561,43.39509,-8.408167,-3.2347198,1.4032878
71,6.457220077514648,-2.2784323692321777,76.9638442993164,2.6892931917054606,-0.5957437913512151,-91.25861235645888,1.5248928,0.09473398,13.617814,14.486894,-16.86574,-2.3398798,-27.183413,-13.339876,2.8628802,48.661076,-10.447788,9.869829,-3.431345,-6.312469,9.635573,-8.518155,27.193533,-38.705193,36.354656,12.596286,-8.023032,-6.8793364,-0.44734782,-26.504221,43.757233,43.63981,-7.550451,-3.4046314,0.84501064
72,6.512513160705566,-2.453580856323242,76.97771453857422,2.5910263874312753,-0.5309700171536459,-91.18110590948874,1.7090751,0.11742513,13.54364,14.24176,-16.885065,-2.3737884,-27.360584,-12.908928,2.7509046,47.356194,-10.199438,10.138094,-3.678574,-6.2227335,9.654803,-8.781871,27.278458,-38.541714,35.768047,12.356613,-7.9501076,-6.7336264,-0.073055215,-26.498095,43.67043,43.89406,-6.8927884,-3.561062,0.3921348
73,6.561871528625488,-2.6399850845336914,76.98719787597656,2.5177597701563252,-0.4596815248482458,-91.11295002485338,1.9043745,0.11536623,13.485875,13.97562,-16.900396,-2.4114113,-27.524214,-12.541318,2.6079447,45.944702,-9.925088,10.363734,-3.8984053,-6.155589,9.672577,-9.052015,27.360395,-38.39436,35.16913,12.243335,-7.85852,-6.66208,0.30769777,-26.500729,43.600056,44.159794,-6.4998217,-3.6994581,0.07610869
74,6.612625598907471,-2.8374533653259277,76.99109649658203,2.464791345371872,-0.38379726498476113,-91.05433146731497,2.1131666,0.09215057,13.442558,13.686825,-16.912024,-2.4530766,-27.663616,-12.223287,2.4382868,44.402214,-9.62247,10.560264,-4.0952816,-6.1054454,9.690325,-9.327554,27.439383,-38.25711,34.557186,12.216783,-7.7583003,-6.6323156,0.6938084,-26.512636,43.544228,44.439472,-6.2650113,-3.8291717,-0.17464304
75,6.654743194580078,-3.039766788482666,76.98958587646484,2.4277069014817205,-0.30566999938780354,-91.00218437091759,2.3308773,0.05461642,13.4062395,13.388921,-16.925596,-2.502652,-27.781698,-11.946442,2.2455454,42.771053,-9.282121,10.733564,-4.2798934,-6.0644526,9.708463,-9.601187,27.515844,-38.1292,33.942486,12.187965,-7.6632924,-6.5963545,1.0808167,-26.53306,43.493156,44.726784,-6.1170764,-3.9402838,-0.38033336
76,6.697792053222656,-3.2491695880889893,76.98196411132812,2.3991889087659635,-0.2274501609089221,-90.95349740227765,2.5551162,0.009003442,13.369498,13.0903635,-16.944132,-2.563893,-27.880976,-11.703432,2.0335345,41.091377,-8.893715,10.889784,-4.4628086,-6.024354,9.727456,-9.871786,27.591265,-38.014305,33.33965,12.0619755,-7.587732,-6.5058804,1.4668064,-26.559721,43.434284,45.013264,-5.9871817,-4.0237045,-0.56083584
77,6.735637664794922,-3.468273639678955,76.96912384033203,2.3801156196348057,-0.1517184041216622,-90.91188229318759,2.7901354,-0.04443098,13.333749,12.789184,-16.969118,-2.6460407,-27.955843,-11.489815,1.8019753,39.349056,-8.443009,11.030865,-4.643618,-5.9857454,9.749641,-10.137083,27.667276,-37.909138,32.73896,11.780611,-7.5376787,-6.335803,1.8518144,-26.590982,43.36417,45.29814,-5.872094,-4.069762,-0.71143234
78,6.770584583282471,-3.6896164417266846,76.95101928710938,2.373739772622194,-0.0770393552975669,-90.8770307768505,3.0373106,-0.10944009,13.30137,12.478792,-16.997036,-2.7440906,-28.002623,-11.308268,1.5470109,37.5247,-7.93618,11.156591,-4.8180666,-5.9528885,9.774428,-10.396945,27.744518,-37.812885,32.135246,11.405362,-7.5057254,-6.1159616,2.234979,-26.626566,43.289894,45.58746,-5.8029985,-4.0851784,-0.82531023
79,6.799937725067139,-3.910275936126709,76.92718505859375,2.3770574402135596,0.00018550354698832635,-90.83976986984936,3.2826352,-0.18357266,13.266068,12.178003,-17.032297,-2.8404293,-28.029337,-11.155674,1.2661787,35.65541,-7.395206,11.268405,-4.9912496,-5.9236436,9.797597,-10.652977,27.822647,-37.733044,31.549175,11.021048,-7.4850645,-5.880439,2.616558,-26.665716,43.21185,45.88199,-5.765636,-4.0863056,-0.9186909
80,6.82550573348999,-4.146600246429443,76.90139770507812,2.3891173519670876,0.08367996171925522,-90.79107502080588,3.5130467,-0.26452094,13.221785,11.904392,-17.078905,-2.9176795,-28.046871,-11.035754,0.95935905,33.782814,-6.844679,11.367341,-5.1671233,-5.8963933,9.814766,-10.906678,27.899986,-37.677425,31.002428,10.714335,-7.4679475,-5.662867,2.9944875,-26.70835,43.131256,46.185913,-5.745069,-4.089665,-1.0080146
81,6.854788780212402,-4.388381004333496,76.87153625488281,2.411519120163491,0.17534672440980933,-90.72930793626522,3.7231042,-0.35352665,13.167053,11.665196,-17.137396,-2.9696593,-28.05573,-10.953562,0.61980456,31.89858,-6.2701163,11.452781,-5.3436623,-5.8723216,9.823597,-11.159985,27.974358,-37.647774,30.495779,10.508812,-7.4521537,-5.474125,3.3722649,-26.754353,43.05374,46.502087,-5.7566504,-4.10332,-1.1006979
82,6.882528305053711,-4.634329795837402,76.8383560180664,2.4444467487456034,0.27198788150598685,-90.65825027653901,3.9217231,-0.4525212,13.104268,11.449258,-17.205124,-3.006217,-28.04751,-10.905411,0.24834163,29.981934,-5.663166,11.526412,-5.5203114,-5.8526096,9.826919,-11.415373,28.045101,-37.642284,30.023848,10.356721,-7.4414496,-5.2955003,3.7503102,-26.803518,42.976074,46.82847,-5.8034153,-4.117003,-1.1871197
83,6.906423568725586,-4.894099712371826,76.80061340332031,2.4879530497667512,0.36983746873516893,-90.57699066525828,4.117413,-0.5612516,13.0333395,11.245907,-17.28069,-3.033854,-28.022202,-10.878288,-0.14345582,28.060438,-5.0587792,11.590342,-5.70243,-5.835927,9.829052,-11.667648,28.11172,-37.658108,29.592575,10.24387,-7.4364567,-5.116525,4.1215506,-26.855106,42.88743,47.15983,-5.8475895,-4.1201644,-1.257513
84,6.922299385070801,-5.152968883514404,76.75941467285156,2.540903306796314,0.46510060836766776,-90.48474299646301,4.3183317,-0.67924297,12.95413,11.04447,-17.36293,-3.0592213,-27.981,-10.8647,-0.54245436,26.161667,-4.49167,11.645884,-5.895666,-5.8205605,9.834024,-11.911296,28.173845,-37.69242,29.20753,10.156015,-7.4376035,-4.9267,4.4823036,-26.907675,42.774563,47.488686,-5.8545766,-4.102421,-1.3021313
85,6.938299655914307,-5.4228973388671875,76.7130355834961,2.605238534680735,0.5583668734723279,-90.37865192265417,4.523167,-0.8093257,12.865993,10.844035,-17.452118,-3.0855317,-27.924175,-10.872562,-0.9584687,24.280968,-3.96776,11.68371,-6.1041155,-5.80806,9.842717,-12.148961,28.232029,-37.74946,28.869576,10.094619,-7.4480443,-4.7081985,4.825871,-26.960705,42.632904,47.81964,-5.717097,-4.07216,-1.3709443
86,6.956676959991455,-5.701385974884033,76.66545104980469,2.6825882133560004,0.6497679402602103,-90.25880477351744,4.7299933,-0.9526436,12.767831,10.649787,-17.54886,-3.1085882,-27.85099,-10.907632,-1.3936404,22.408138,-3.47,11.7062435,-6.324967,-5.8004146,9.853706,-12.384242,28.286592,-37.830727,28.5773,10.063837,-7.4663286,-4.471621,5.158978,-27.014072,42.466965,48.153446,-5.489484,-4.0315113,-1.4517825
87,6.977975368499756,-5.982428550720215,76.61017608642578,2.7699749217906464,0.7353614534422487,-90.12847033534285,4.950885,-1.1064603,12.658791,10.448815,-17.645796,-3.1236384,-27.760414,-10.954178,-1.8238064,20.563559,-2.9989362,11.73017,-6.553221,-5.7968283,9.86745,-12.610967,28.334505,-37.926712,28.333591,10.057548,-7.486373,-4.249458,5.483164,-27.065115,42.289837,48.488182,-5.3666773,-3.9601562,-1.4420012
88,6.98875093460083,-6.273914337158203,76.55437469482422,2.8648119133376015,0.8111354860474658,-89.99120089468408,5.1960063,-1.2684662,12.538054,10.231976,-17.737234,-3.12578,-27.649351,-10.998409,-2.2245157,18.761082,-2.5549796,11.772205,-6.7896214,-5.7970448,9.881454,-12.820733,28.36885,-38.02163,28.146564,10.071705,-7.502657,-4.074958,5.7929807,-27.104866,42.121864,48.832657,-5.544836,-3.8377187,-1.2397927
89,6.998946666717529,-6.572704792022705,76.49610900878906,2.9660331895759064,0.8777814443310593,-89.84499940369336,5.4612703,-1.436934,12.401657,10.005857,-17.824335,-3.1109524,-27.511694,-11.04171,-2.608391,16.983135,-2.1460264,11.839661,-7.0125923,-5.801187,9.90381,-13.027708,28.405409,-38.14511,28.002214,10.098744,-7.5045276,-3.9573522,6.133861,-27.157305,41.925854,49.13159,-6.2204847,-3.6382563,-0.7109611
90,7.012058258056641,-6.882543087005615,76.43220520019531,3.076258777702697,0.935716950664397,-89.68788751912582,5.74374,-1.6141983,12.249614,9.774759,-17.910511,-3.0824788,-27.35097,-11.093704,-2.9820983,15.23,-1.7701675,11.922131,-7.2701845,-5.810056,9.91816,-13.205408,28.425097,-38.246048,27.917786,10.1584635,-7.5007052,-3.8846006,6.432627,-27.189152,41.77237,49.467434,-7.227787,-3.3906262,0.05097145
91,7.018158435821533,-7.195285797119141,76.36602783203125,3.1956381469332573,0.9824527423308685,-89.5246533020997,6.0622215,-1.8033711,12.088338,9.506656,-17.983345,-3.046814,-27.181656,-11.150512,-3.3115199,13.548052,-1.4104644,12.007197,-7.5051727,-5.824762,9.946885,-13.3854885,28.442005,-38.382015,27.878922,10.223136,-7.503502,-3.8349695,6.752928,-27.227451,41.572884,49.777683,-8.280182,-3.147701,0.8335276
92,7.0191755294799805,-7.523813247680664,76.29737091064453,3.3213057160190247,1.0173253222251326,-89.36174643501853,6.421418,-1.9999834,11.92612,9.196219,-18.045065,-3.01149,-27.030647,-11.205837,-3.5607886,12.004903,-1.0613312,12.080859,-7.7443266,-5.8400345,9.984372,-13.537492,28.449465,-38.50526,27.884474,10.292085,-7.530338,-3.7986138,7.0378323,-27.25831,41.37897,50.117912,-9.051488,-2.9473832,1.4075929
93,7.021285533905029,-7.854807376861572,76.22940826416016,3.451963400394733,1.0400281452787892,-89.20450668503284,6.8249836,-2.203884,11.767523,8.837445,-18.094774,-2.9687314,-26.906223,-11.255526,-3.7110934,10.608237,-0.71956545,12.140134,-7.94189,-5.8530865,10.044334,-13.69518,28.445353,-38.66206,27.937601,10.329466,-7.5919,-3.7574174,7.3348494,-27.29638,41.128807,50.454346,-9.520561,-2.7746863,1.7416614
94,7.022219181060791,-8.194340705871582,76.15581512451172,3.5838521344992285,1.0550143623929882,-89.05221573244121,7.262053,-2.4086838,11.6107025,8.442726,-18.135748,-2.9194002,-26.798616,-11.30012,-3.7840195,9.326623,-0.38916132,12.188521,-8.155596,-5.8613434,10.106813,-13.808106,28.433104,-38.78395,28.028353,10.364924,-7.6796517,-3.7297215,7.5749416,-27.319504,40.912067,50.84505,-9.814482,-2.6103544,1.9385201
95,7.021467208862305,-8.54369068145752,76.0833969116211,3.7079403042134413,1.0700305496277753,-88.90282097732924,7.7180896,-2.6003952,11.455068,8.025936,-18.171925,-2.8838186,-26.706245,-11.338717,-3.805467,8.162421,-0.07107031,12.222337,-8.374329,-5.8548017,10.16614,-13.885875,28.416468,-38.896233,28.156132,10.441116,-7.7721906,-3.730942,7.7757926,-27.335371,40.70247,51.256542,-9.90395,-2.4803421,1.9957769
96,7.021390438079834,-8.900191307067871,76.0152359008789,3.8161018710085,1.091961996502248,-88.75699768112116,8.123027,-2.7540693,11.305794,7.7252135,-18.272888,-2.8825502,-26.62988,-11.366818,-3.7983558,7.1243515,0.23166765,12.238858,-8.537964,-5.8322716,10.228727,-14.007011,28.379637,-39.075947,28.369839,10.593683,-7.850572,-3.7787366,8.027864,-27.358435,40.40952,51.58657,-9.782285,-2.4047136,1.9084293
97,7.008364200592041,-9.268396377563477,75.9381332397461,3.907521889619387,1.1249745954150192,-88.61188673171911,8.393027,-2.8528705,11.167333,7.7103953,-18.527325,-2.923594,-26.886255,-11.398037,-3.6822808,6.8581343,0.17837717,12.245703,-8.705632,-5.7799077,10.274193,-14.111885,28.313343,-39.259285,28.653475,10.874943,-7.9029655,-3.9030914,8.257117,-27.39166,40.109722,51.89762,-9.232404,-2.4332035,1.5430692
98,6.9922871589660645,-9.637091636657715,75.8550796508789,3.983852151618705,1.167441721574959,-88.47193477842707,8.661762,-2.9273665,11.037555,7.697143,-18.78692,-2.9946702,-27.222029,-11.413945,-3.501561,6.831177,0.052623365,12.242465,-8.90068,-5.705889,10.3050785,-14.160844,28.247229,-39.401276,28.969908,11.255042,-7.943682,-4.0925937,8.426462,-27.421635,39.848976,52.224606,-8.3241205,-2.5453005,0.9431237
99,6.982540130615234,-10.012465476989746,75.77848815917969,4.04247866070745,1.2167742478685193,-88.34024473871779,8.932397,-2.9749787,10.915482,7.683206,-19.0528,-3.087583,-27.516373,-11.41099,-3.3280728,6.815195,-0.032413356,12.211659,-9.081128,-5.61047,10.32885,-14.196611,28.168976,-39.55325,29.342775,11.67161,-7.991344,-4.2886744,8.589262,-27.454447,39.577,52.52871,-7.4409633,-2.6626165,0.37627426
100,6.961283206939697,-10.40438461303711,75.70101928710938,4.08227172445509,1.2703823543978157,-88.22062558942696,9.20507,-2.9939206,10.801064,7.671049,-19.322048,-3.1942368,-27.758131,-11.3942375,-3.2099705,6.810101,-0.082924545,12.134916,-9.23847,-5.496268,10.347117,-14.224042,28.075006,-39.720493,29.776806,12.072038,-8.064331,-4.4374585,8.749552,-27.4886,39.30251,52.80823,-6.942484,-2.6922817,0.10298791
101,6.935482978820801,-10.79678726196289,75.62246704101562,4.104171616456212,1.3282098933287527,-88.118801587577,9.482478,-2.985723,10.697643,7.656359,-19.594894,-3.318542,-27.953865,-11.361313,-3.1284142,6.817759,-0.09360212,12.004434,-9.379222,-5.3699417,10.358725,-14.21911,27.983711,-39.884426,30.251062,12.4474535,-8.1718445,-4.530149,8.89509,-27.513767,39.036137,53.072952,-7.070041,-2.5644302,0.30470926
102,6.905882835388184,-11.195432662963867,75.54061889648438,4.108914217639643,1.3923462295229263,-88.0322357395297,9.761518,-2.9512742,10.606103,7.6414323,-19.872114,-3.462991,-28.106415,-11.310435,-3.0673296,6.836148,-0.06247881,11.831588,-9.495175,-5.228121,10.363716,-14.197727,27.885675,-40.060493,30.77744,12.82288,-8.30174,-4.5918794,9.033801,-27.531828,38.76183,53.31799,-7.584306,-2.3429608,0.80640507
103,6.8728790283203125,-11.611180305480957,75.4592514038086,4.093530163254489,1.4627937194343434,-87.95137835656736,10.040973,-2.8873608,10.521107,7.6283646,-20.1544,-3.617904,-28.203087,-11.2471075,-3.0802665,6.865755,-0.0024293305,11.625796,-9.596586,-5.065498,10.362147,-14.166261,27.776281,-40.24978,31.359722,13.200811,-8.439744,-4.62655,9.156757,-27.544693,38.492146,53.555214,-8.123879,-2.1270275,1.3270633
104,6.835965156555176,-12.03061294555664,75.37788391113281,4.056599702114655,1.5386403548497887,-87.86590555637257,10.319324,-2.7922647,10.436567,7.620923,-20.442596,-3.7734993,-28.277687,-11.180617,-3.2109067,7.008944,0.013178107,11.396348,-9.696405,-4.877876,10.355808,-14.123694,27.650797,-40.44705,31.995394,13.588572,-8.571652,-4.6386333,9.25313,-27.55425,38.243977,53.79429,-8.32089,-2.005512,1.5818739
105,6.793041706085205,-12.455215454101562,75.30001068115234,4.005525901265035,1.6148894955356305,-87.76770954713572,10.601517,-2.6739988,10.345475,7.6187296,-20.740757,-3.9220126,-28.687107,-11.151883,-3.4439623,8.044785,-0.44761854,11.190363,-9.817363,-4.6757665,10.349633,-14.044816,27.5324,-40.632442,32.654106,13.971055,-8.689297,-4.610075,9.300723,-27.561377,38.042343,54.050182,-7.909169,-2.031066,1.3736618
106,6.7473859786987305,-12.88602352142334,75.21802520751953,3.9412147724197206,1.6907996528922689,-87.66203300063236,10.889127,-2.533606,10.25102,7.61959,-21.046417,-4.070337,-29.063242,-11.141602,-3.8092167,9.189327,-0.96186614,10.989793,-9.937863,-4.457433,10.3425865,-13.956625,27.398832,-40.829876,33.367558,14.3498745,-8.801403,-4.5432563,9.327791,-27.567896,37.85653,54.3029,-7.144185,-2.149603,0.89589643
107,6.703047275543213,-13.32378101348877,75.1345443725586,3.8475370942259066,1.774429705314092,-87.56146214114246,11.174643,-2.353127,10.165435,7.625514,-21.352707,-4.2322416,-29.457085,-11.112123,-4.2063394,10.493999,-1.5094894,10.694145,-10.060675,-4.211343,10.332993,-13.828302,27.279379,-41.01346,34.09986,14.755619,-8.917293,-4.4839125,9.318856,-27.573225,37.701828,54.552956,-6.418666,-2.2797894,0.44330195
108,6.656569480895996,-13.776922225952148,75.04852294921875,3.7112372443924264,1.8710130309644644,-87.47641088058236,11.4536495,-2.1176896,10.0983095,7.637023,-21.652477,-4.420751,-29.901089,-11.026264,-4.539483,11.97617,-2.0576415,10.205572,-10.154306,-3.9195673,10.315303,-13.706585,27.138369,-41.2176,34.90463,15.212171,-9.048512,-4.47036,9.304702,-27.578049,37.543404,54.779293,-6.1360617,-2.3275967,0.30907992
109,6.609900951385498,-14.236712455749512,74.96722412109375,3.5225597175103838,1.986482898086634,-87.4131317999341,11.7196245,-1.8174889,10.056907,7.6548333,-21.949814,-4.6450667,-30.432634,-10.879101,-4.830887,13.762018,-2.6732967,9.394494,-10.223824,-3.5746615,10.287623,-13.568177,26.98933,-41.42518,35.766567,15.771933,-9.203434,-4.522907,9.275009,-27.581892,37.39723,54.983322,-6.542489,-2.2349656,0.6794092
110,6.555605888366699,-14.69239616394043,74.89860534667969,3.3006780072568946,2.1065254409543233,-87.35463005075839,11.9864,-1.4733434,10.024091,7.6773148,-22.245646,-4.8947086,-31.00015,-10.703987,-5.121933,15.772842,-3.3341513,8.3517275,-10.285881,-3.198165,10.259581,-13.410709,26.839563,-41.637352,36.67674,16.402582,-9.375026,-4.6167555,9.2262745,-27.585606,37.268192,55.17083,-7.3774877,-2.0682466,1.3634664
111,6.4984517097473145,-15.15950870513916,74.82579040527344,3.06877510398446,2.211586491519169,-87.28190990489068,12.273481,-1.1090124,9.978953,7.7047176,-22.529606,-5.154055,-31.521618,-10.505337,-5.3460884,17.742626,-3.8816757,7.309055,-10.356748,-2.8147035,10.243514,-13.237758,26.691198,-41.851658,37.621918,17.018211,-9.550767,-4.729456,9.165037,-27.5874,37.143353,55.340534,-8.2783575,-1.910075,2.0841355
112,6.439990520477295,-15.643623352050781,74.74254608154297,2.8407240001730427,2.2908480128619257,-87.18520817784675,12.591233,-0.73713833,9.910793,7.740597,-22.793552,-5.4089994,-31.939322,-10.271781,-5.4344053,19.43608,-4.1728272,6.4960976,-10.443788,-2.4388647,10.246695,-13.054423,26.547684,-42.066772,38.5889,17.531044,-9.717408,-4.838738,9.087502,-27.585003,37.014996,55.50069,-8.875662,-1.8280132,2.5605905
113,6.3697190284729,-16.136415481567383,74.6614990234375,2.6005571967232215,2.348062672394897,-87.06377814399848,12.934986,-0.33585438,9.82378,7.786713,-23.049772,-5.656111,-32.24184,-9.94877,-5.2977047,20.75418,-4.089895,5.998134,-10.548697,-2.0539994,10.272733,-12.865568,26.412157,-42.28908,39.579197,17.8859,-9.874129,-4.932103,8.982451,-27.57583,36.887543,55.66201,-9.07288,-1.8444918,2.715043
114,6.295792102813721,-16.63285255432129,74.58562469482422,2.3383084149776456,2.3933892249317226,-86.92879520855969,13.294774,0.104650065,9.730099,7.8429837,-23.29925,-5.9044185,-32.476738,-9.540495,-4.998793,21.857939,-3.7457135,5.6881037,-10.661954,-1.649976,10.314478,-12.665394,26.285559,-42.516186,40.59388,18.13969,-10.026264,-5.024322,8.852653,-27.558266,36.762516,55.820126,-9.06729,-1.9169446,2.6970122
115,6.214447021484375,-17.14508056640625,74.50379943847656,2.074219913143529,2.4280745863627295,-86.79187047221312,13.670535,0.55650705,9.633908,7.908518,-23.514648,-6.1586432,-32.68269,-9.1231785,-4.6922016,22.912897,-3.3525515,5.4713836,-10.770082,-1.248201,10.360415,-12.4437475,26.167583,-42.734238,41.620594,18.372746,-10.170068,-5.1339903,8.705951,-27.533293,36.63728,55.968296,-8.918454,-2.007351,2.5642138
116,6.124056339263916,-17.6707706451416,74.41276550292969,1.8310191000070046,2.45182185202415,-86.66234173520294,14.021465,0.9959897,9.535584,8.073233,-23.717064,-6.4227037,-32.899296,-8.782462,-4.5305867,24.089676,-3.121205,5.246048,-10.861876,-0.8717681,10.399321,-12.1889305,26.057173,-42.928185,42.646317,18.666307,-10.30234,-5.2793903,8.553225,-27.503239,36.508446,56.095676,-8.686318,-2.077881,2.374627
117,6.030212879180908,-18.206119537353516,74.31629180908203,1.6123551151280524,2.467023091963483,-86.53299017529746,14.068303,1.4649637,9.416035,8.932538,-24.226053,-6.7011595,-33.155823,-8.559211,-4.5670257,25.472864,-3.1159222,4.976555,-10.944168,-0.52308214,10.423427,-11.896715,25.952816,-43.10375,43.684578,19.012028,-10.425078,-5.4704537,8.395845,-27.471037,36.37309,56.198517,-8.206772,-2.1353045,2.017822
118,5.932552337646484,-18.760976791381836,74.2226333618164,1.40522984837095,2.4736056261283883,-86.40115456359528,14.124776,1.9271401,9.281504,9.809989,-24.697348,-6.990111,-33.424297,-8.412398,-4.7123184,26.962421,-3.2268853,4.708384,-11.020738,-0.18782923,10.438923,-11.574087,25.854227,-43.266197,44.737686,19.375956,-10.539954,-5.6957107,8.232372,-27.43781,36.231583,56.2784,-7.509535,-2.1990688,1.5060225
119,5.839151382446289,-19.296154022216797,74.13114166259766,1.2103936819321217,2.4664253228234863,-86.28262980740173,14.173631,2.3840094,9.150586,10.753867,-25.132448,-7.2809925,-33.65816,-8.306176,-4.904307,28.447508,-3.4043956,4.462993,-11.074631,0.13119256,10.456292,-11.222235,25.762222,-43.395405,45.7731,19.806372,-10.643658,-5.9410768,8.059355,-27.404102,36.09491,56.340096,-6.9349957,-2.2434502,1.0792812
120,5.734727382659912,-19.84405517578125,74.04021453857422,1.0255978661406993,2.44101394948053,-86.19316502976409,14.206719,2.8382106,9.042089,11.792077,-25.523527,-7.5660625,-33.812756,-8.192589,-5.0858636,29.814499,-3.5944684,4.2700067,-11.091563,0.43415245,10.486035,-10.840763,25.679228,-43.469315,46.75574,20.350206,-10.733412,-6.192592,7.8759375,-27.368591,35.972294,56.385246,-6.8263884,-2.2336364,0.97707623
121,5.627841472625732,-20.39408302307129,73.95516967773438,0.8527439794603171,2.396830614735345,-86.14110347669482,14.240133,3.2843401,8.968867,12.901785,-25.887648,-7.8384886,-33.887012,-8.056595,-5.2533183,31.045292,-3.7554274,4.180319,-11.068379,0.7165118,10.528581,-10.420452,25.607817,-43.473206,47.67882,21.024982,-10.825402,-6.4535775,7.682897,-27.330442,35.86072,56.406853,-7.4739804,-2.128451,1.4033886
122,5.519532680511475,-20.94805145263672,73.87584686279297,0.6876770544715999,2.3374488939007,-86.11653197516877,14.27123,3.7265024,8.918666,14.078506,-26.222963,-8.105247,-33.9046,-7.9139767,-5.437391,32.19714,-3.9241586,4.1687016,-11.015016,0.98384315,10.577855,-9.959998,25.549244,-43.417755,48.554344,21.804258,-10.917188,-6.729268,7.479369,-27.290169,35.75884,56.406704,-8.630724,-1.9671836,2.186391
123,5.407432556152344,-21.510326385498047,73.80534362792969,0.5192341319717527,2.2647663115730805,-86.10746200879709,14.262627,4.18305,8.871266,15.384767,-26.498953,-8.379773,-33.85827,-7.7559476,-5.636199,33.26819,-4.1626506,4.1549845,-10.935886,1.2523456,10.636405,-9.4729,25.506979,-43.320618,49.373417,22.668913,-10.977173,-7.009376,7.2569194,-27.251627,35.679893,56.40106,-9.828413,-1.8242857,2.9985242
124,5.2864227294921875,-22.078292846679688,73.74610137939453,0.3341911251118947,2.1810566676679994,-86.10077024255483,14.178557,4.6731057,8.80463,16.876612,-26.681072,-8.67584,-33.738647,-7.5739675,-5.8494697,34.252785,-4.531135,4.05728,-10.836892,1.538862,10.704041,-8.978105,25.47457,-43.200584,50.1413,23.601883,-10.973771,-7.284317,7.0012174,-27.210974,35.637234,56.41833,-10.600136,-1.7502024,3.506589
125,5.17933464050293,-22.635053634643555,73.70814514160156,0.11957171558535278,2.0863873794401084,-86.09135086531509,14.042978,5.2065167,8.72169,18.515028,-26.779318,-9.022604,-33.545074,-7.361464,-6.088843,35.15958,-5.0815396,3.8384943,-10.722376,1.8586884,10.789108,-8.473931,25.451435,-43.046696,50.855034,24.686953,-10.891002,-7.5795836,6.7089176,-27.169653,35.627613,56.44256,-10.727382,-1.7579917,3.5561523
126,5.059435844421387,-23.21091079711914,73.67829895019531,-0.117759375583152,1.9809335132511507,-86.08524609906691,13.868665,5.7715755,8.628874,20.276436,-26.80052,-9.406401,-33.284286,-7.1160097,-6.3535175,35.986355,-5.767209,3.546943,-10.57675,2.2051566,10.889892,-7.9633803,25.440613,-42.872803,51.513668,25.897202,-10.749728,-7.893285,6.411738,-27.141592,35.622467,56.44094,-10.495446,-1.8129824,3.3478887
127,4.93079948425293,-23.78549575805664,73.66079711914062,-0.3634624580207095,1.867893617870748,-86.08561089343833,13.606332,6.357311,8.5074,22.23142,-26.700003,-9.779435,-32.95785,-6.8382144,-6.625591,36.7113,-6.501299,3.2267501,-10.430833,2.5587547,10.985077,-7.4269443,25.436106,-42.655045,52.121307,27.080328,-10.573158,-8.177346,6.0546484,-27.099842,35.691853,56.50572,-10.166705,-1.8825985,3.0722253
128,4.805224895477295,-24.36849594116211,73.65959167480469,-0.6049898241881091,1.751323617402222,-86.09489589274808,13.208414,6.9524117,8.338115,24.445435,-26.42974,-10.096831,-32.565926,-6.5334883,-6.887757,37.314583,-7.2002254,2.9223073,-10.251717,2.9069068,11.059553,-6.8919406,25.444643,-42.459637,52.676914,28.051687,-10.376738,-8.378566,5.6812367,-27.05029,35.80582,56.63624,-10.023523,-1.9307176,2.9264193
129,4.677893161773682,-24.950807571411133,73.67294311523438,-0.8496151148103295,1.6346636518003996,-86.1097184947813,12.690291,7.5637374,8.130572,26.910637,-25.998127,-10.424213,-32.10286,-6.199088,-7.145075,37.791187,-7.8630567,2.628708,-10.046702,3.2559102,11.102696,-6.3540974,25.467371,-42.295536,53.18289,28.75366,-10.1460705,-8.4809475,5.293343,-26.988255,35.967583,56.851105,-10.1513815,-1.9494154,2.9806857
130,4.541232585906982,-25.538175582885742,73.6982650756836,-1.1011387717530352,1.515857428305884,-86.12982714883915,12.076626,8.184458,7.8892336,29.58161,-25.411991,-10.770097,-31.570448,-5.837365,-7.399819,38.15482,-8.53074,2.327958,-9.817921,3.6093762,11.123444,-5.8108835,25.504211,-42.14635,53.63902,29.280159,-9.874531,-8.512792,4.884231,-26.910234,36.173874,57.135227,-10.400634,-1.9578335,3.124504
131,4.3992719650268555,-26.125244140625,73.74173736572266,-1.3439451773453632,1.3915866754025563,-86.16101982996513,11.344704,8.7837715,7.590282,32.43944,-24.614313,-11.009856,-30.977427,-5.4620457,-7.634562,38.4083,-9.18143,2.0452502,-9.559485,3.951487,11.134601,-5.262116,25.553854,-41.984104,54.03596,29.697966,-9.589981,-8.48773,4.435592,-26.818268,36.43236,57.478237,-10.692573,-1.958137,3.2806888
132,4.259174823760986,-26.711469650268555,73.8019790649414,-1.5640174325935312,1.259043116858304,-86.20871278046029,10.469562,9.334212,7.21288,35.46569,-23.540977,-11.021832,-30.335033,-5.085759,-7.8351326,38.558475,-9.794036,1.804828,-9.267261,4.269529,11.149593,-4.7099943,25.61473,-41.78348,54.36481,30.069271,-9.321051,-8.419739,3.9297512,-26.717606,36.75476,57.866985,-10.944488,-1.9512259,3.3724613
133,4.118487358093262,-27.303329467773438,73.87422180175781,-1.7541567272621426,1.116071127153607,-86.2794096249102,9.422845,9.825282,6.7589273,38.716248,-22.089447,-10.74883,-29.634874,-4.7075076,-7.992581,38.58825,-10.36558,1.6196605,-8.933544,4.5586324,11.170822,-4.152374,25.685946,-41.54083,54.627487,30.434492,-9.068773,-8.294088,3.3600335,-26.610619,37.164803,58.329655,-11.111193,-1.9754444,3.3399396
134,3.9809675216674805,-27.88596534729004,73.95993041992188,-1.9217638792920004,0.9655817714727336,-86.36832598902988,8.23289,10.264505,6.2536216,42.153122,-20.295801,-10.287352,-28.87379,-4.3252735,-8.115192,38.499714,-10.906505,1.4759917,-8.566193,4.8259664,11.190396,-3.585909,25.767088,-41.263382,54.825207,30.753048,-8.819397,-8.108966,2.7416062,-26.496342,37.650112,58.856926,-11.246559,-2.0168405,3.2378144
135,3.8568835258483887,-28.467086791992188,74.05805206298828,-2.072750199564108,0.8119015069061676,-86.46316150509055,6.953595,10.654648,5.709268,45.63235,-18.308846,-9.738174,-28.071787,-3.949146,-8.215368,38.326492,-11.414388,1.357008,-8.181024,5.075429,11.207622,-3.0133016,25.857166,-40.94555,54.94927,30.966269,-8.580441,-7.8965025,2.080072,-26.378452,38.176952,59.385048,-11.40437,-1.9973416,3.1619086
136,3.733875274658203,-29.045005798339844,74.16584014892578,-2.2127116198524086,0.658791337503428,-86.5523524861197,5.633155,10.998716,5.128125,49.028748,-16.289972,-9.189111,-27.250809,-3.5893905,-8.305129,38.106865,-11.888871,1.2450085,-7.7927504,5.310502,11.223256,-2.4365067,25.954655,-40.581028,54.989456,31.01764,-8.36036,-7.688501,1.3805948,-26.264494,38.713345,59.847527,-11.633988,-1.839384,3.2087297
137,3.6140589714050293,-29.621410369873047,74.28273010253906,-2.341873826900862,0.5031311109455162,-86.64027342075732,4.2287383,11.281611,4.45311,52.431187,-14.0643835,-8.61636,-26.404852,-3.2433653,-8.3814125,37.83102,-12.320754,1.1357776,-7.396868,5.5367246,11.243939,-1.8530974,26.057219,-40.147133,54.930897,30.872377,-8.160536,-7.4803333,0.6482903,-26.158493,39.24115,60.234398,-11.96433,-1.4740027,3.418168
138,3.4987289905548096,-30.205055236816406,74.40625762939453,-2.454567915985861,0.34396823633721685,-86.73097656295268,2.7283666,11.501401,3.7080245,55.872475,-11.611139,-7.990049,-25.52668,-2.909716,-8.43898,37.487446,-12.714115,1.0388569,-6.9869885,5.749976,11.268486,-1.2638139,26.163782,-39.65403,54.78228,30.568302,-7.978392,-7.257955,-0.1183517,-26.062763,39.78308,60.57197,-12.361037,-0.9603399,3.7376535
139,3.3874456882476807,-30.782175064086914,74.52887725830078,-2.55632460986671,0.18754238645057575,-86.81153959645232,1.2148181,11.695136,2.9975338,59.180103,-9.353334,-7.3664355,-24.63395,-2.5946577,-8.491535,37.104027,-13.084073,0.95579135,-6.578256,5.946968,11.288198,-0.6753452,26.27509,-39.14628,54.569008,30.152544,-7.81703,-7.0388513,-0.90464336,-25.980486,40.34464,60.830467,-12.80206,-0.4124783,4.1258397
140,3.286771535873413,-31.346126556396484,74.64107513427734,-2.652905970435532,0.0396638965559624,-86.8686311927715,-0.23184495,11.912617,2.4145453,62.195305,-7.7336154,-6.7863445,-23.743326,-2.299992,-8.554501,36.70563,-13.443325,0.8879684,-6.182731,6.128152,11.29574,-0.09581652,26.392738,-38.669888,54.316288,29.674753,-7.678858,-6.840748,-1.6986136,-25.916199,40.93439,60.980267,-13.255753,0.056304228,4.5395894
141,3.1864748001098633,-31.904592514038086,74.74810028076172,-2.756493309305019,-0.10459163341182054,-86.89143854809633,-1.6187499,12.196416,1.9543566,64.98482,-6.921223,-6.1645246,-22.853096,-2.023147,-8.644134,36.30207,-13.797188,0.8401775,-5.809339,6.3046365,11.2965555,0.47194934,26.517786,-38.234333,54.01028,29.157724,-7.5513473,-6.67941,-2.4982882,-25.874475,41.557613,61.000423,-13.75125,0.42400175,5.015812
142,3.091114044189453,-32.46455383300781,74.85562896728516,-2.8626796206838483,-0.24660805128409777,-86.889886670785,-2.987542,12.524571,1.5625443,67.62696,-6.6841564,-5.4854784,-21.954967,-1.7601451,-8.749795,35.875572,-14.135674,0.80924094,-5.4474053,6.4757185,11.294224,1.0314496,26.649986,-37.817707,53.64393,28.57191,-7.43774,-6.541599,-3.3066914,-25.857014,42.20824,60.903408,-14.290687,0.74650735,5.5620003
143,3.0007107257843018,-33.024864196777344,74.96288299560547,-2.9549324504429517,-0.375044004608609,-86.88271147370595,-4.320644,12.853331,1.2474984,70.00463,-6.878698,-4.896993,-21.06059,-1.5118183,-8.8494005,35.41801,-14.453243,0.78397024,-5.080621,6.6247354,11.278038,1.5833077,26.789448,-37.420414,53.253765,27.886698,-7.3639765,-6.4020066,-4.1133223,-25.862244,42.86766,60.706566,-14.81162,1.0303401,6.088464
144,2.9050865173339844,-33.586151123046875,75.06919860839844,-3.0232621617046993,-0.47846373602052955,-86.88857327745606,-5.599505,13.139411,1.0238712,71.99733,-7.3590817,-4.551671,-20.180412,-1.2798011,-8.920471,34.920155,-14.74395,0.75338477,-4.691136,6.7332687,11.236676,2.1258044,26.936249,-37.046036,52.879585,27.069756,-7.356526,-6.2359266,-4.9089375,-25.887667,43.513737,60.43164,-15.254078,1.2844474,6.504408
145,2.8122639656066895,-34.14910888671875,75.1807861328125,-3.0648320681394505,-0.5527879559016069,-86.90773519364676,-6.801919,13.393593,0.9122986,73.54838,-8.332604,-4.548737,-19.319016,-1.0629898,-8.964315,34.382824,-15.009161,0.71207404,-4.2726035,6.797934,11.163032,2.65567,27.092281,-36.702927,52.520267,26.057886,-7.421725,-6.04469,-5.6903076,-25.931622,44.151237,60.070786,-15.623601,1.5369656,6.830875
146,2.722691059112549,-34.708438873291016,75.30162048339844,-3.0896426903604124,-0.6047050120502612,-86.93252647735895,-7.9482574,13.647142,0.90338635,74.74224,-9.801606,-4.7797,-18.469404,-0.85955536,-8.991491,33.8092,-15.250908,0.66611224,-3.8332565,6.827693,11.065356,3.1737611,27.258503,-36.389366,52.15966,24.885286,-7.5476327,-5.841312,-6.465986,-25.993782,44.79005,59.619755,-15.941507,1.776641,7.0995836
147,2.6348214149475098,-35.27056121826172,75.42697143554688,-3.093215273359128,-0.6392831094722244,-86.969212163052,-9.083524,13.884482,0.96894896,75.663666,-11.307139,-5.0898933,-17.625996,-0.6718924,-8.993889,33.19644,-15.464992,0.6221443,-3.3781052,6.822641,10.955022,3.6864483,27.43182,-36.090702,51.813934,23.66951,-7.7338448,-5.6199536,-7.236607,-26.072613,45.403446,59.099136,-16.18267,1.956258,7.2355947
148,2.5446977615356445,-35.8351936340332,75.55359649658203,-3.0719887526577363,-0.6614250663670908,-87.02389470223949,-10.250201,14.079205,1.0726395,76.392654,-12.389066,-5.3318243,-16.783766,-0.503357,-8.963627,32.54325,-15.64793,0.5871186,-2.9106398,6.7839074,10.8429985,4.1968737,27.606142,-35.794624,51.503223,22.52795,-7.9792886,-5.3733664,-8.0032425,-26.166029,45.96735,58.53165,-16.316368,2.0285647,7.1630983
149,2.461293935775757,-36.40288543701172,75.69063568115234,-3.016733420995887,-0.6595342216339498,-87.10842499391742,-11.477628,14.206859,1.207697,76.93386,-12.91004,-5.4796267,-15.9614525,-0.36010954,-8.88473,31.854532,-15.796474,0.56139207,-2.4179535,6.7020316,10.716904,4.698191,27.777105,-35.512085,51.243343,21.417835,-8.308369,-5.0747633,-8.776844,-26.275219,46.50199,57.93106,-16.27265,1.931988,6.8009195
150,2.385091781616211,-36.96830368041992,75.82839965820312,-2.9318663958325692,-0.6354478319078267,-87.21604060675591,-12.736077,14.290929,1.3906344,77.24608,-13.117461,-5.6091743,-15.153902,-0.2392594,-8.767188,31.128391,-15.912975,0.54183286,-1.9037454,6.580055,10.575254,5.188113,27.943155,-35.24583,51.028496,20.303135,-8.715507,-4.738537,-9.549325,-26.40104,47.006058,57.28384,-16.097675,1.7070029,6.209838
151,2.3084332942962646,-37.53495407104492,75.96492004394531,-2.8372628949601455,-0.6134459517520034,-87.32558029170924,-13.977009,14.367308,1.6141728,77.33848,-13.1305,-5.7312126,-14.326323,-0.13138762,-8.642313,30.362738,-16.00667,0.53044605,-1.3929939,6.4391823,10.44526,5.671825,28.102186,-34.97746,50.84717,19.309101,-9.150995,-4.416028,-10.308464,-26.540203,47.445217,56.58048,-15.906598,1.4602754,5.5264397
152,2.2311785221099854,-38.10033416748047,76.10000610351562,-2.7517586543845325,-0.6184278939751207,-87.41595040679867,-15.151586,14.471244,1.8739276,77.222336,-13.068381,-5.8534036,-13.440579,-0.025923736,-8.539945,29.548431,-16.083042,0.52923304,-0.91148114,6.300728,10.3525305,6.155248,28.252102,-34.687744,50.688446,18.559418,-9.5617075,-4.155164,-11.03795,-26.687475,47.775578,55.813152,-15.823866,1.3017443,4.8854084
153,2.160353660583496,-38.66507339477539,76.23336029052734,-2.6786843668882914,-0.6565761283219418,-87.48617804494296,-16.25105,14.619744,2.1909647,76.89466,-12.896586,-5.978883,-12.483123,0.07975477,-8.464363,28.673208,-16.139185,0.54154813,-0.4592524,6.1683416,10.301419,6.640944,28.392286,-34.375114,50.550667,18.105053,-9.949462,-3.9554741,-11.741784,-26.8399,47.995777,54.987442,-15.901628,1.2819183,4.2801723
154,2.0944855213165283,-39.232757568359375,76.3635025024414,-2.6082870253397954,-0.7150032371062732,-87.54607732727699,-17.297379,14.79019,2.563023,76.35115,-12.574027,-6.103497,-11.473631,0.17989972,-8.400392,27.741827,-16.171705,0.5659922,-0.025378056,6.0314994,10.27744,7.1252766,28.522581,-34.048573,50.44163,17.873825,-10.333596,-3.7916157,-12.427076,-26.997608,48.124325,54.111988,-16.069798,1.3372439,3.6522813
155,2.033700466156006,-39.797306060791016,76.48735809326172,-2.540313780975824,-0.789718263947611,-87.59100347061955,-18.283716,14.955807,2.95227,75.595634,-12.208207,-6.224945,-10.429055,0.2739113,-8.349054,26.781767,-16.191957,0.59707457,0.3839675,5.8913717,10.278215,7.60162,28.641735,-33.707825,50.365818,17.803465,-10.686616,-3.672289,-13.093622,-27.160248,48.162525,53.18846,-16.247091,1.4080998,3.057349
156,1.9794832468032837,-40.3707275390625,76.60645294189453,-2.4775989788211716,-0.8768331854258852,-87.61609016328714,-19.20476,15.089562,3.3202505,74.6324,-11.906908,-6.340924,-9.363994,0.361357,-8.311563,25.816336,-16.20888,0.6286812,0.76136976,5.749436,10.30092,8.065227,28.747314,-33.350395,50.326923,17.832983,-10.981489,-3.6074061,-13.72552,-27.326468,48.09333,52.208427,-16.373856,1.4333618,2.5508337
157,1.924396276473999,-40.940040588378906,76.71692657470703,-2.4175219756725674,-0.9840723384889769,-87.61621392643579,-20.050297,15.182369,3.668379,73.44778,-11.70393,-6.4595003,-8.27022,0.43947965,-8.289423,24.849749,-16.223747,0.6551557,1.1009611,5.602128,10.355083,8.513622,28.837652,-32.9772,50.331264,17.994024,-11.217257,-3.6037211,-14.330713,-27.49594,47.902916,51.166836,-16.442514,1.378101,2.1483884
158,1.8749128580093384,-41.50898361206055,76.81723022460938,-2.3594390071624516,-1.1109522814013242,-87.59503396214443,-20.82252,15.244635,4.017118,72.04115,-11.540503,-6.581384,-7.140473,0.51006883,-8.281664,23.863367,-16.231272,0.68042,1.4081745,5.4510365,10.438041,8.94857,28.912077,-32.58935,50.377224,18.303713,-11.40626,-3.6530461,-14.909399,-27.669107,47.59748,50.068333,-16.488693,1.2805653,1.8202728
159,1.8251668214797974,-42.082096099853516,76.90475463867188,-2.3081410105235003,-1.2401233544767016,-87.56115295929054,-21.534681,15.278099,4.354942,70.43464,-11.384124,-6.6940312,-6.003251,0.57746524,-8.28604,22.872623,-16.237152,0.71339554,1.6957833,5.3042326,10.529573,9.365167,28.970837,-32.192207,50.46083,18.674099,-11.541748,-3.7435124,-15.472817,-27.848013,47.23254,48.9448,-16.470003,1.1866314,1.5530635
160,1.787490725517273,-42.653236389160156,76.98210144042969,-2.263212306747683,-1.3544166615964013,-87.52322956337888,-22.201488,15.285577,4.6696005,68.65238,-11.204356,-6.7840543,-4.8863044,0.64628494,-8.300225,21.890768,-16.247656,0.76277673,1.9734857,5.1694245,10.6091795,9.762613,29.013845,-31.786352,50.575912,19.019825,-11.616937,-3.8639731,-16.016495,-28.033571,46.84945,47.8166,-16.361433,1.1424723,1.3337067
161,1.7550899982452393,-43.22890853881836,77.04330444335938,-2.2202265776070105,-1.4566185551931439,-87.47864601813058,-22.814919,15.247925,4.9561243,66.67408,-11.008752,-6.865864,-3.784833,0.70840484,-8.327035,20.912851,-16.2612,0.83959883,2.2353532,5.0402074,10.680831,10.14461,29.039558,-31.367506,50.721237,19.329165,-11.608841,-4.009925,-16.540436,-28.225508,46.439636,46.679134,-16.151373,1.1746224,1.1888847
162,1.7239494323730469,-43.80557632446289,77.09296417236328,-2.18003465687705,-1.553171786187024,-87.42449333722077,-23.367496,15.166031,5.2242517,64.491295,-10.808389,-6.942482,-2.6869993,0.76431715,-8.366712,19.932482,-16.274525,0.935773,2.4786599,4.914962,10.752614,10.509255,29.047468,-30.936821,50.90046,19.644354,-11.5288315,-4.188581,-17.054691,-28.423187,45.995148,45.528683,-15.844718,1.2537925,1.1152492
163,1.7054879665374756,-44.38429641723633,77.12950897216797,-2.1527938687933137,-1.6326278590799372,-87.36868949708787,-23.873917,15.072425,5.4836946,62.1423,-10.576413,-6.9824996,-1.611668,0.83086514,-8.41223,18.963093,-16.292719,1.031981,2.7150226,4.806212,10.808234,10.852783,29.039473,-30.499098,51.11339,19.962433,-11.420966,-4.406917,-17.560162,-28.62817,45.550854,44.38499,-15.460477,1.3418431,1.054712
164,1.689437985420227,-44.96654510498047,77.15116882324219,-2.1524412365996834,-1.6832314122420478,-87.31914320854419,-24.350988,15.000539,5.7441525,59.667103,-10.28754,-6.9545584,-0.57725596,0.92447066,-8.455976,18.017311,-16.320242,1.1096908,2.9556298,4.7266936,10.832195,11.172788,29.01883,-30.057737,51.35737,20.280512,-11.329801,-4.6716967,-18.056932,-28.841722,45.143673,43.263767,-15.013052,1.4002188,0.94935066
165,1.6829639673233032,-45.55668258666992,77.15911102294922,-2.1779546628647948,-1.703196250753824,-87.27871592182368,-24.800306,14.956954,6.017113,57.0588,-9.919018,-6.829895,0.40920654,1.0443518,-8.495602,17.106043,-16.35962,1.15927,3.2039657,4.6769667,10.821311,11.467052,28.987915,-29.62482,51.635715,20.575905,-11.253207,-4.993461,-18.562326,-29.065285,44.792995,42.17221,-14.449725,1.4250922,0.79181117
166,1.6850084066390991,-46.14908981323242,77.15292358398438,-2.2229049565211816,-1.6978605890357321,-87.24313120364678,-25.21173,14.920241,6.2979717,54.298836,-9.4928465,-6.633834,1.3628894,1.1827939,-8.534507,16.209557,-16.406548,1.1938949,3.4536738,4.6493115,10.783734,11.740073,28.946825,-29.19325,51.94483,20.858294,-11.1726465,-5.366047,-19.073145,-29.298275,44.47904,41.10014,-13.776832,1.4338772,0.6103365
167,1.681819200515747,-46.739959716796875,77.12818145751953,-2.290106668113617,-1.6662876476676833,-87.20968159556755,-25.58576,14.883312,6.5710473,51.408035,-9.04442,-6.415382,2.28379,1.3436068,-8.571894,15.3253765,-16.457237,1.2281032,3.700914,4.642908,10.720612,11.998379,28.896797,-28.739084,52.27236,21.16965,-11.107681,-5.770483,-19.579006,-29.540785,44.197002,40.05448,-13.084008,1.4182656,0.4007708
168,1.6881372928619385,-47.33513259887695,77.08842468261719,-2.3816727466879897,-1.6077283521127714,-87.17608605533312,-25.92055,14.838991,6.8203907,48.39909,-8.608412,-6.222964,3.1760073,1.5304873,-8.608093,14.442193,-16.508833,1.2762684,3.9411385,4.6566215,10.633812,12.251165,28.839458,-28.236305,52.60372,21.55202,-11.078453,-6.1882386,-20.060846,-29.791655,43.936455,39.034737,-12.466925,1.370541,0.15894389
169,1.7069872617721558,-47.93711471557617,77.03726196289062,-2.503874778533615,-1.5180831020164667,-87.14063596219965,-26.210613,14.788434,7.044247,45.217724,-8.197445,-6.0147753,4.0456157,1.7544957,-8.643604,13.53721,-16.552753,1.3421925,4.174943,4.6978254,10.517404,12.503588,28.77761,-27.688726,52.928955,22.02689,-11.08384,-6.6424227,-20.540407,-30.052029,43.71571,38.05914,-11.900324,1.2727497,-0.12402955
170,1.7232831716537476,-48.5422248840332,76.97002410888672,-2.6517073411808942,-1.398927772749266,-87.10660358205313,-26.453506,14.732394,7.2528734,41.863144,-7.787265,-5.783272,4.887958,2.00863,-8.6758995,12.623866,-16.593876,1.4171857,4.4030285,4.7622943,10.3718405,12.756963,28.711658,-27.102266,53.25242,22.568527,-11.117237,-7.1341696,-20.991766,-30.32065,43.514378,37.102245,-11.375021,1.1337209,-0.4427332
171,1.7389856576919556,-49.149288177490234,76.8870849609375,-2.811683693579957,-1.2587728189913825,-87.07976681777271,-26.647509,14.662895,7.4479384,38.4132,-7.3461018,-5.629084,5.6963277,2.2722957,-8.69946,11.734285,-16.643074,1.4951874,4.6320806,4.8314185,10.214525,13.001578,28.642557,-26.46541,53.58371,23.144339,-11.189305,-7.610226,-21.453178,-30.596653,43.354427,36.18636,-10.894812,0.98577,-0.7805474
172,1.7609072923660278,-49.761573791503906,76.78966522216797,-2.9690366848101633,-1.1075201525059277,-87.06618430741375,-26.78777,14.572778,7.6304727,34.93715,-6.8356557,-5.654252,6.470777,2.5286198,-8.708818,10.89023,-16.708027,1.5699471,4.861386,4.889705,10.06101,13.236427,28.569094,-25.758966,53.930073,23.723154,-11.309374,-8.018054,-21.900791,-30.875734,43.216923,35.293232,-10.521296,0.8624878,-1.1217955
173,1.7805019617080688,-50.371490478515625,76.68067932128906,-3.137983198072214,-0.9442577692021688,-87.06916281970112,-26.829163,14.476471,7.84021,31.2986,-6.2127814,-5.975465,7.210007,2.7959502,-8.703011,10.089392,-16.78519,1.6347543,5.093054,4.950359,9.910987,13.473372,28.488146,-24.947306,54.28471,24.318386,-11.487873,-8.362088,-22.334242,-31.156284,43.10729,34.410324,-10.286573,0.7836157,-1.4765599
174,1.809617280960083,-50.98487091064453,76.56571197509766,-3.329131859269831,-0.771836699301317,-87.09254686093635,-26.751913,14.373881,8.0700035,27.437366,-5.466574,-6.514792,7.9302,3.0871599,-8.67671,9.303855,-16.86385,1.6922084,5.334612,5.024814,9.765263,13.710232,28.40065,-24.049618,54.64452,24.940107,-11.716365,-8.662341,-22.82042,-31.439209,43.067825,33.590004,-10.112162,0.72841,-1.8490764
175,1.8410762548446655,-51.60403823852539,76.44229888916016,-3.522135389696958,-0.6069492799391001,-87.14254871136231,-26.599638,14.246016,8.244892,23.565395,-4.6208615,-7.0795164,8.642772,3.378852,-8.619866,8.54858,-16.947836,1.7497153,5.5791264,5.1008925,9.629307,13.941593,28.306112,-23.120338,55.023727,25.551294,-11.974447,-8.893014,-23.198414,-31.716228,42.98851,32.74749,-10.076119,0.6709607,-2.2155645
176,1.8721954822540283,-52.21867370605469,76.31326293945312,-3.7004218841912975,-0.46225862578504323,-87.22120268928657,-26.442972,14.081185,8.282861,19.948515,-3.734091,-7.470952,9.351935,3.642481,-8.527383,7.8472543,-17.045534,1.81557,5.853384,5.159355,9.5267515,14.116374,28.218775,-22.249231,55.443462,26.109528,-12.239166,-9.023948,-23.703184,-31.98757,42.988888,32.077316,-9.947443,0.58295214,-2.5506606
177,1.9043402671813965,-52.842140197753906,76.18077087402344,-3.8474950298804034,-0.3315761745638557,-87.32070253521134,-26.368008,13.881159,8.101727,16.708292,-2.843153,-7.5359626,9.885691,3.837521,-8.420614,7.5566726,-17.351225,1.8959938,6.1302886,5.186481,9.44333,14.257112,28.136871,-21.428473,55.904816,26.599117,-12.514974,-9.021569,-24.108269,-32.244278,42.928223,31.422636,-9.906455,0.4479789,-2.8606064
178,1.9353383779525757,-53.4599494934082,76.04473114013672,-3.9802749231297785,-0.21213285160293788,-87.44283732223695,-26.334284,13.662518,7.761526,13.732431,-1.9389461,-7.410166,10.302307,3.9921331,-8.296098,7.5433764,-17.794415,1.9844772,6.4233603,5.1942844,9.379283,14.363926,28.063501,-20.636091,56.400352,27.041714,-12.8071,-8.909428,-24.494804,-32.488625,42.857426,30.832022,-9.910853,0.28345928,-3.1538124
179,1.9679477214813232,-54.0872802734375,75.90576171875,-4.111375770401159,-0.1156322570973879,-87.59462025163859,-26.266314,13.442929,7.3758516,11.008442,-1.0388219,-7.317772,10.739587,4.141414,-8.133309,7.5368605,-18.220127,2.073753,6.736461,5.2011843,9.338377,14.438305,28.001675,-19.871506,56.91975,27.45741,-13.097606,-8.75232,-24.847342,-32.718723,42.77868,30.304968,-9.95,0.11541205,-3.413357
180,2.00490140914917,-54.71360778808594,75.7655029296875,-4.255747143398671,-0.05332378452367761,-87.78288509409465,-26.064436,13.245421,7.0579205,8.469591,-0.12718159,-7.4794827,11.20888,4.300407,-7.9195247,7.5351353,-18.61436,2.158209,7.076447,5.225804,9.3231125,14.479886,27.955133,-19.136063,57.453316,27.86711,-13.369147,-8.615562,-25.146606,-32.931416,42.689716,29.839764,-10.013723,-0.030790722,-3.6219356
181,2.042861223220825,-55.34175109863281,75.62049865722656,-4.413824898295927,-0.018281624967146012,-88.0169228077215,-26.026947,13.11511,6.7524824,6.715856,0.4684834,-8.006644,11.700005,4.469684,-7.6462145,7.5404277,-18.984354,2.236766,7.452045,5.268522,9.322901,14.488002,27.926785,-18.417915,58.003506,28.277273,-13.630679,-8.519487,-25.396738,-33.124126,42.5956,29.442621,-10.116451,-0.15848167,-3.773056
182,2.078685760498047,-55.97554016113281,75.47494506835938,-4.565108214189688,0.004145970634467317,-88.27605554891394,-26.617102,13.066041,6.306495,6.619862,0.29809725,-8.750059,12.20024,4.62532,-7.337096,7.5522013,-19.333258,2.316276,7.8477826,5.3032045,9.325444,14.450448,27.917854,-17.732737,58.592064,28.67117,-13.889201,-8.426094,-25.613369,-33.276505,42.494728,29.139019,-10.262731,-0.27917317,-3.8782866
183,2.1255879402160645,-56.61147689819336,75.3316421508789,-4.693997639428055,0.015073885877549638,-88.52091465886996,-27.040316,12.978658,5.8964334,6.557176,0.22595863,-9.547634,12.712303,4.747381,-7.029433,7.573445,-19.646381,2.403101,8.213058,5.3149023,9.352814,14.395454,27.928316,-17.0693,59.167206,29.051434,-14.117467,-8.3240385,-25.777699,-33.415512,42.382385,28.878582,-10.4118185,-0.37595618,-3.9463584
184,2.1761505603790283,-57.24201965332031,75.19548797607422,-4.783563060546661,0.016131883973082108,-88.71210237374957,-27.280127,12.819291,5.5225616,6.527077,0.26288614,-10.237629,13.240933,4.8167725,-6.7612367,7.601929,-19.906462,2.5039124,8.525059,5.287761,9.403536,14.288918,27.959509,-16.485672,59.75477,29.397799,-14.29386,-8.192227,-25.874329,-33.52524,42.23674,28.673836,-10.537795,-0.43530166,-3.9852915
185,2.2243683338165283,-57.865291595458984,75.06478881835938,-4.842097803816758,-0.00354650285882548,-88.83228644145967,-27.2937,12.592383,5.248744,6.5307994,0.4278673,-10.928858,13.798336,4.8434286,-6.5449476,7.6399555,-20.122171,2.6187732,8.765835,5.2307096,9.497662,14.135279,28.020649,-15.976782,60.346172,29.685411,-14.4141865,-8.028523,-25.895597,-33.613052,42.042408,28.505606,-10.633381,-0.43934163,-3.9814975
186,2.2770588397979736,-58.48704528808594,74.94499969482422,-4.867689404460286,-0.034463440521872904,-88.89630043183291,-27.110846,12.288989,5.0532236,6.565583,0.70674944,-11.665675,14.371352,4.8246326,-6.3706093,7.6885266,-20.298979,2.7466934,8.957118,5.1519427,9.603687,13.890486,28.085688,-15.572998,61.005463,29.919577,-14.487648,-7.8323526,-25.864416,-33.654022,41.821453,28.430716,-10.717306,-0.4011474,-3.9388084
187,2.333028554916382,-59.116546630859375,74.83822631835938,-4.830428118558705,-0.048794633020136056,-88.9174520264585,-26.821957,11.864164,4.806467,6.62901,1.0755352,-12.190753,14.929039,4.725649,-6.2388554,7.7483516,-20.416565,2.8918984,9.089293,4.993733,9.72926,13.651825,28.193274,-15.18435,61.59385,30.169617,-14.514541,-7.62957,-25.763636,-33.681976,41.57706,28.372778,-10.789779,-0.3508985,-3.8789833
188,2.391444683074951,-59.75144577026367,74.74578857421875,-4.704545163829272,-0.023980397239433633,-88.91582393908132,-26.505909,11.293309,4.377543,6.716513,1.5190648,-12.243144,15.24339,4.4940653,-6.159658,8.250862,-20.682102,3.0590174,9.190759,4.731454,9.83452,13.405743,28.335802,-14.847249,62.11744,30.468882,-14.488596,-7.4265738,-25.597862,-33.688686,41.339897,28.364756,-10.847874,-0.3185294,-3.8355856
189,2.4516384601593018,-60.39266586303711,74.67204284667969,-4.460434029312712,0.04902560571414277,-88.8713643757408,-26.77011,10.582372,3.6039262,8.195145,1.327037,-11.551609,15.167627,4.084256,-6.166299,9.496254,-21.270655,3.2523894,9.239702,4.338224,9.916503,13.140923,28.504957,-14.573808,62.58978,30.863346,-14.391968,-7.212477,-25.371567,-33.664604,41.11656,28.42907,-10.88132,-0.3148599,-3.8281684
190,2.528593063354492,-61.031211853027344,74.6214828491211,-4.135443926559774,0.1334449327435461,-88.81042209162906,-27.760956,9.780744,2.5532544,11.486786,0.2879814,-10.326577,15.029685,3.569562,-6.1952195,10.864645,-21.85688,3.4637876,9.256887,3.8687031,9.999376,12.844188,28.677753,-14.364528,63.044342,31.321669,-14.231205,-6.979827,-25.097174,-33.607918,40.911053,28.573631,-10.892846,-0.3219864,-3.835522
191,2.6148200035095215,-61.67227554321289,74.5907211303711,-3.7918627896653896,0.19851040252196692,-88.80882849722005,-28.564333,8.927717,1.4673179,14.506043,-0.49552733,-9.020851,14.869766,3.012218,-6.1587543,12.317366,-22.384838,3.6848319,9.306072,3.3848352,10.094059,12.549079,28.848787,-14.185292,63.449566,31.77349,-14.03471,-6.7509336,-24.790567,-33.524643,40.740757,28.779991,-10.904248,-0.32805324,-3.8259385
192,2.7118499279022217,-62.33546829223633,74.55760955810547,-3.4533726020007105,0.24210931511646125,-88.91179855904515,-29.086056,8.072586,0.42573172,16.811981,-0.79883105,-8.073245,14.675752,2.4377952,-6.0084567,13.869042,-22.827106,3.9155877,9.422203,2.913048,10.194324,12.274899,29.006582,-14.003338,63.792324,32.15303,-13.835236,-6.542439,-24.463657,-33.422333,40.620514,29.025942,-10.936742,-0.3206567,-3.770715
193,2.813920497894287,-63.01126480102539,74.53268432617188,-3.083869993948807,0.2935431176285241,-89.13041217045921,-29.338768,7.1273594,-0.71933633,18.257381,-0.44202742,-7.5993433,14.404704,1.800083,-5.740418,15.546667,-23.21745,4.1727047,9.608857,2.4139066,10.284637,12.017512,29.140663,-13.81113,64.07367,32.466564,-13.627687,-6.3512344,-24.102987,-33.306393,40.54443,29.287334,-11.009322,-0.2810646,-3.6487646
194,2.933986186981201,-63.6973876953125,74.52549743652344,-2.6570763271120685,0.36318372314490044,-89.4280003189939,-29.435415,6.0796175,-1.9644054,19.223047,0.33990297,-7.3631535,14.049285,1.0788776,-5.3915844,17.355934,-23.569237,4.459542,9.840577,1.8617324,10.368682,11.758607,29.252817,-13.624831,64.30612,32.747974,-13.399234,-6.1673627,-23.768929,-33.180367,40.544037,29.62054,-11.05877,-0.22047491,-3.4808767
195,3.0627713203430176,-64.39666748046875,74.52113342285156,-2.2063366169201872,0.4326110444589178,-89.76286327410357,-29.428322,5.0767846,-3.0080953,20.004728,1.1773762,-7.26177,13.632156,0.3215452,-4.9933147,19.29212,-23.831524,4.760513,10.071615,1.2901987,10.446161,11.5097275,29.345175,-13.446014,64.50004,32.959595,-13.170249,-5.9977236,-23.33343,-33.039776,40.553555,29.948017,-11.169752,-0.17161736,-3.3025756
196,3.1984124183654785,-65.1128921508789,74.5099868774414,-1.768908776204408,0.47893939681250186,-90.09590892641904,-29.371475,4.2778363,-3.5496557,20.885187,1.7078983,-7.179081,13.182279,-0.41898644,-4.574885,21.344557,-23.949715,5.0577903,10.281715,0.73359627,10.530633,11.261188,29.432226,-13.291454,64.663765,33.065075,-12.960303,-5.847846,-22.92676,-32.887302,40.648663,30.37652,-11.236716,-0.1676966,-3.1485944
197,3.3343639373779297,-65.84304809570312,74.49278259277344,-1.3520081934397197,0.5027647288328403,-90.43872066691672,-29.28133,3.7915595,-3.393577,21.92089,1.8809512,-7.13393,12.730326,-1.1327856,-4.124973,23.4634,-23.947388,5.3742642,10.476583,0.19681527,10.607411,11.033089,29.516216,-13.149153,64.789024,33.02462,-12.77737,-5.7120657,-22.467642,-32.71999,40.795544,30.85723,-11.299089,-0.22990258,-3.0425112
198,3.4698288440704346,-66.57844543457031,74.47795104980469,-0.9387500710821581,0.5152415325919903,-90.80278601990271,-29.142656,3.5364256,-2.7539315,22.985676,1.8637009,-7.1488705,12.258699,-1.8397366,-3.6354191,25.656307,-23.83503,5.713028,10.665634,-0.3383692,10.67494,10.821925,29.596752,-13.017808,64.87179,32.86756,-12.611397,-5.590003,-21.953764,-32.53735,40.985527,31.381248,-11.369493,-0.33669928,-2.9610581
199,3.6079697608947754,-67.30368041992188,74.48768615722656,-0.5316106832259914,0.5059913097271542,-91.15217121399405,-28.956121,3.3822894,-1.938287,24.071817,1.6257564,-7.1204424,11.730054,-2.5304837,-3.137665,27.994652,-23.535995,6.02666,10.816315,-0.8663049,10.756125,10.60726,29.679104,-12.911934,64.91987,32.659782,-12.456749,-5.4988947,-21.441645,-32.339897,41.23149,31.974651,-11.441256,-0.4566211,-2.8700168
200,3.749922275543213,-68.02693939208984,74.50076293945312,-0.13675586090505143,0.46405480032032465,-91.45218309296267,-28.723366,3.1807132,-1.2485281,25.161758,1.1425443,-6.960623,11.106755,-3.1961992,-2.6617088,30.55223,-22.966665,6.270663,10.892973,-1.3819842,10.870031,10.373667,29.768784,-12.845043,64.93984,32.464634,-12.30764,-5.457206,-20.921972,-32.124763,41.50591,32.618984,-11.559797,-0.55821586,-2.7351654
201,3.8860342502593994,-68.75631713867188,74.5118179321289,0.2470611671112773,0.38650735439609774,-91.69267011776512,-28.464293,2.884865,-0.7315622,26.290728,0.31220946,-6.6206985,10.4055395,-3.8309586,-2.231249,33.341995,-22.108774,6.487866,10.89042,-1.8921362,11.020088,10.121277,29.871656,-12.812285,64.92713,32.32818,-12.162501,-5.4922476,-20.398676,-31.889557,41.812542,33.32817,-11.726056,-0.6396837,-2.56025
202,4.0120978355407715,-69.48480224609375,74.52972412109375,0.6208495130708519,0.27775663635551084,-91.89285597488151,-28.171484,2.5607927,-0.24212661,27.445122,-0.8152409,-6.1692734,9.646419,-4.4306264,-1.8255002,36.314133,-20.997766,6.6942377,10.82643,-2.3969295,11.192782,9.858573,29.988525,-12.812199,64.878654,32.202328,-12.024734,-5.588481,-19.862703,-31.633326,42.15466,34.099876,-11.9286175,-0.71614933,-2.3594224
203,4.141172885894775,-70.21820068359375,74.55799865722656,0.9750742488474409,0.138122924468683,-92.06294425508932,-27.803577,2.219272,0.21275108,28.518274,-2.0331836,-5.6978445,8.802799,-4.9894505,-1.4093236,39.43185,-19.621288,6.8101845,10.708524,-2.8850722,11.382349,9.58145,30.116522,-12.855425,64.80082,32.023212,-11.896019,-5.699903,-19.336882,-31.360064,42.53474,34.927177,-12.1500225,-0.78267634,-2.1132178
204,4.2618794441223145,-70.95333862304688,74.5929183959961,1.3100229431710098,-0.031074120586527927,-92.21333281300474,-27.318989,1.8788424,0.62994546,29.407757,-3.1388443,-5.2955465,7.846361,-5.504353,-0.95024544,42.658512,-17.96127,6.7593474,10.543494,-3.3445404,11.5834465,9.282883,30.249601,-12.957314,64.70339,31.72345,-11.777866,-5.7795687,-18.814703,-31.075012,42.934242,35.782185,-12.396774,-0.83378214,-1.8019176
205,4.394566059112549,-71.6891098022461,74.6414566040039,1.6307626935550088,-0.24771638487540967,-92.33352008119273,-26.672415,1.5316454,1.0052727,30.059654,-4.086523,-4.992294,6.757405,-5.9862742,-0.46317977,46.0568,-15.888614,6.4959817,10.324675,-3.779984,11.819374,8.956414,30.382664,-13.119464,64.59477,31.248743,-11.680713,-5.7852764,-18.300423,-30.782923,43.351727,36.680424,-12.659036,-0.8785821,-1.4273065
206,4.511056423187256,-72.416748046875,74.6914291381836,1.9324370355532132,-0.5061147298776036,-92.42261854974974,-25.900589,1.1695663,1.3416529,30.540213,-4.981939,-4.7372537,5.561207,-6.4241457,0.028367486,49.600018,-13.428743,6.092861,10.051947,-4.192074,12.081667,8.603688,30.514284,-13.337652,64.47162,30.648132,-11.600231,-5.7508135,-17.78253,-30.486076,43.78828,37.618706,-12.942763,-0.9169438,-0.99722296
207,4.640195369720459,-73.15660858154297,74.74542999267578,2.204762664579442,-0.7692233959183696,-92.50582980302674,-25.083689,0.81769663,1.6494608,30.932281,-5.8548436,-4.4993205,4.284894,-6.7892303,0.5486742,53.143837,-10.807808,5.6400886,9.744119,-4.5668116,12.319745,8.224948,30.64718,-13.62479,64.329506,30.004623,-11.514554,-5.7420225,-17.275164,-30.191624,44.259903,38.572277,-13.243526,-0.9304851,-0.50069284
208,4.7779221534729,-73.89926147460938,74.79818725585938,2.434630161719089,-1.000469516362084,-92.60756271560693,-24.299051,0.5037842,1.9384388,31.317362,-6.734378,-4.2492146,2.9486,-7.0565963,1.129627,56.566063,-8.2663,5.210347,9.4214525,-4.890256,12.486129,7.821139,30.785242,-13.992209,64.16084,29.404003,-11.401079,-5.825523,-16.790178,-29.909864,44.779808,39.51171,-13.555785,-0.9009076,0.07376446
209,4.915175437927246,-74.63713073730469,74.84371948242188,2.613502920248042,-1.2076133114788472,-92.74538988086914,-23.55316,0.24656957,2.2161584,31.740273,-7.6514497,-3.9754243,1.5155989,-7.176139,1.8753873,59.96567,-5.753694,4.732056,9.100638,-5.150133,12.581554,7.3986945,30.927559,-14.441639,63.95879,28.848238,-11.253979,-6.0532837,-16.33966,-29.652319,45.386383,40.437225,-13.854603,-0.8114533,0.7462955
210,5.054342746734619,-75.37185668945312,74.8843765258789,2.7496792895765116,-1.4051460308691088,-92.90008462442252,-22.811024,0.034328684,2.4710708,32.156654,-8.58615,-3.6984448,-0.016337244,-7.170151,2.725382,63.380512,-3.1799722,4.1882,8.765249,-5.352272,12.631465,6.9554763,31.071287,-14.967862,63.72518,28.299078,-11.083373,-6.378416,-15.904417,-29.42277,46.054203,41.346653,-14.15302,-0.6762714,1.5062228
211,5.199604511260986,-76.10330200195312,74.92967987060547,2.853122212884911,-1.5662316079637262,-93.04092720750386,-22.088306,-0.15384318,2.6880763,32.51578,-9.492844,-3.4362872,-1.5908214,-7.1411533,3.4842021,66.631836,-0.7516318,3.7055604,8.391509,-5.513344,12.626253,6.476395,31.219479,-15.573705,63.464073,27.783907,-10.891441,-6.7198787,-15.463509,-29.219513,46.709637,42.215668,-14.48563,-0.52438855,2.319058
212,5.3457818031311035,-76.83940887451172,74.98369598388672,2.9352363489771642,-1.6632631932309485,-93.14115152451126,-21.39216,-0.3414122,2.8584967,32.75443,-10.322584,-3.2040637,-3.1542163,-7.2101507,3.9765563,69.542625,1.3101541,3.395113,7.9616437,-5.651889,12.555245,5.9417005,31.379898,-16.27113,63.180256,27.321936,-10.68129,-6.9981966,-14.99278,-29.037144,47.274017,43.017433,-14.890036,-0.38579893,3.150389
213,5.487221717834473,-77.57205200195312,75.05005645751953,3.00402505500818,-1.6744556049674593,-93.19334215996827,-20.745447,-0.5441329,2.9869065,32.858994,-11.063771,-2.9993987,-4.744219,-7.4368267,4.1785583,72.14995,3.087026,3.3235881,7.468751,-5.7777576,12.397468,5.3386655,31.558027,-17.08477,62.882435,26.918646,-10.460437,-7.2352333,-14.496824,-28.873386,47.748585,43.74408,-15.389219,-0.26324105,4.0498137
214,5.6216559410095215,-78.29779052734375,75.1258316040039,3.0543369516184518,-1.6191058389266124,-93.21231373170053,-20.133997,-0.7524388,3.0819516,32.85381,-11.737724,-2.814019,-6.3863997,-7.7822046,4.1948867,74.55152,4.6308775,3.3819563,6.928231,-5.883789,12.16588,4.6747274,31.752968,-18.010328,62.562233,26.556541,-10.225558,-7.462003,-13.982381,-28.728676,48.161835,44.4073,-15.960895,-0.14662899,5.016941
215,5.745453834533691,-79.00911712646484,75.2051773071289,3.0900895033336564,-1.5303819983400717,-93.20187759312734,-19.51904,-0.95936406,3.1426687,32.74299,-12.346081,-2.65133,-8.016382,-8.230581,4.0479674,76.6758,5.6616483,3.419067,6.3543735,-5.969778,11.900783,3.9644008,31.960762,-19.002659,62.202168,26.233982,-9.97283,-7.610188,-13.429329,-28.599957,48.477455,45.008587,-16.571417,-0.04501598,5.9422884
216,5.855937957763672,-79.7164306640625,75.29681396484375,3.112145407816401,-1.4420893069278296,-93.16623680172445,-18.861292,-1.1557133,3.1665735,32.529766,-12.889938,-2.5173242,-9.564284,-8.756162,3.7568488,78.439926,5.901069,3.2996707,5.7613225,-6.035892,11.641898,3.2237039,32.177753,-20.017347,61.78632,25.948898,-9.698876,-7.6109433,-12.817602,-28.483326,48.658623,45.55188,-17.188732,0.035477564,6.7157907
217,5.961623191833496,-80.42738342285156,75.39718627929688,3.1209316376241563,-1.3438554033456878,-93.09032967335588,-18.172977,-1.3488332,3.1415286,32.209023,-13.361234,-2.4165337,-11.002748,-9.409476,3.2658904,79.80331,4.960074,2.996987,5.1302533,-6.085589,11.37747,2.4449172,32.41069,-21.089577,61.320705,25.69115,-9.4087515,-7.433188,-12.132379,-28.372244,48.685135,46.02114,-17.888905,0.11041786,7.3574367
218,6.053868770599365,-81.14427185058594,75.50843048095703,3.1150678613565987,-1.2249137569842272,-92.97657248140204,-17.468494,-1.537502,3.0706882,31.78411,-13.763275,-2.3447983,-12.360897,-10.171742,2.5924125,80.81644,3.0868714,2.6079335,4.46239,-6.116557,11.094076,1.623467,32.65977,-22.230383,60.806335,25.461948,-9.104253,-7.119555,-11.393316,-28.26508,48.585102,46.4264,-18.655699,0.17774737,7.9093204
219,6.148512363433838,-81.86156463623047,75.63256072998047,3.0843312519615633,-1.1181326376368006,-92.85616308363323,-16.714016,-1.6989502,2.9771,31.277412,-14.118173,-2.2903223,-13.657619,-10.915411,1.8594147,81.52805,0.9638629,2.1830025,3.7955804,-6.1175857,10.829921,0.78697926,32.90746,-23.350431,60.219357,25.276522,-8.775881,-6.709933,-10.612828,-28.16424,48.378468,46.79454,-19.34104,0.21241893,8.293775
220,6.2350077629089355,-82.57369995117188,75.76476287841797,3.025695441402718,-1.0558030033457453,-92.76027123411863,-15.872015,-1.8159058,2.8864844,30.701927,-14.4434805,-2.2415566,-14.920013,-11.527844,1.1816627,81.99113,-0.7274817,1.7479209,3.1630397,-6.0790505,10.623123,-0.03204396,33.130253,-24.351372,59.538174,25.157152,-8.41161,-6.2417626,-9.81359,-28.075405,48.098866,47.156414,-19.785221,0.19359066,8.4318695
221,6.317667484283447,-83.28205108642578,75.90428924560547,2.928715024953402,-1.0494251778439994,-92.69642281238069,-14.928967,-1.8722013,2.801548,30.061733,-14.74554,-2.2077565,-16.167955,-11.981932,0.5683864,82.20476,-1.8417773,1.2471029,2.5651774,-5.985387,10.486048,-0.8316812,33.315983,-25.217505,58.77764,25.179207,-8.003062,-5.671731,-8.992083,-28.002205,47.734535,47.51084,-19.941227,0.107059196,8.243731
222,6.403467655181885,-83.99362182617188,76.04823303222656,2.7976261072321083,-1.0809374195684551,-92.64835906685529,-13.906088,-1.8802537,2.7120092,29.34942,-15.014555,-2.1922352,-17.381302,-12.333306,-0.04422627,82.14109,-2.7300951,0.68794763,1.982579,-5.841694,10.397202,-1.6291711,33.46601,-25.995249,57.95351,25.308695,-7.55275,-4.996095,-8.140595,-27.945438,47.281055,47.843853,-19.893995,-0.029197246,7.790746
223,6.486116409301758,-84.70675659179688,76.19818115234375,2.6580788293385345,-1.1380618415726924,-92.61190597183834,-12.816566,-1.8701516,2.6260893,28.55901,-15.242555,-2.174648,-18.536798,-12.613868,-0.65407574,81.82048,-3.4560466,0.17089881,1.4173657,-5.674931,10.343634,-2.418364,33.57796,-26.668034,57.058033,25.414867,-7.076248,-4.30568,-7.2790456,-27.908169,46.783993,48.170883,-19.684385,-0.18895228,7.205879
224,6.564992904663086,-85.41779327392578,76.3482666015625,2.531649559927843,-1.2087248167348468,-92.58289346256393,-11.674375,-1.8720661,2.550612,27.686312,-15.422503,-2.1340055,-19.61191,-12.855089,-1.2587374,81.2653,-4.081247,-0.20382233,0.8641867,-5.5101624,10.310971,-3.1914842,33.650005,-27.218369,56.083298,25.362497,-6.5911455,-3.6887877,-6.4304447,-27.894047,46.29337,48.509705,-19.355324,-0.34544745,6.621754
225,6.643321990966797,-86.1297378540039,76.4984130859375,2.4176439396052607,-1.3027032027982697,-92.56713943447802,-10.455437,-1.888869,2.4906776,26.70784,-15.546176,-2.0576928,-20.58942,-13.070209,-1.8770119,80.46272,-4.5865455,-0.39206585,0.32480544,-5.347079,10.308203,-3.9339325,33.67616,-27.607813,55.022156,25.138512,-6.0840096,-3.1383708,-5.59791,-27.906559,45.808987,48.862556,-18.881664,-0.51020753,6.0239525
226,6.7275872230529785,-86.83946990966797,76.6450424194336,2.3096901905497838,-1.4222654453866086,-92.5646558271783,-9.160015,-1.9067078,2.441386,25.630953,-15.618726,-1.9605404,-21.48343,-13.237716,-2.510976,79.40443,-4.9476976,-0.4533277,-0.20272411,-5.1733656,10.337705,-4.65561,33.65762,-27.853983,53.88778,24.808388,-5.5536656,-2.613683,-4.7678733,-27.946562,45.309143,49.217243,-18.254082,-0.69623506,5.3596473
227,6.81165885925293,-87.55148315429688,76.78218841552734,2.2104916050998957,-1.5435720208034946,-92.56248483021257,-7.844835,-1.9312708,2.3947747,24.51121,-15.659051,-1.8611944,-22.316874,-13.345975,-3.129861,78.11624,-5.2208796,-0.44454178,-0.72404164,-4.998779,10.374674,-5.382662,33.606495,-28.019745,52.69597,24.364187,-5.0381465,-2.1523907,-3.946877,-28.01404,44.817963,49.57843,-17.526764,-0.8761704,4.7029576
228,6.885664939880371,-88.25542449951172,76.90648651123047,2.1266320616473853,-1.6427375955822556,-92.54789249856732,-6.5592356,-1.968552,2.3420057,23.388369,-15.682144,-1.775677,-23.114202,-13.381407,-3.6995654,76.62317,-5.4617996,-0.42192388,-1.2443894,-4.8345656,10.394667,-6.1350145,33.540398,-28.165718,51.453236,23.798756,-4.5751495,-1.7939286,-3.142651,-28.107285,44.35926,49.951744,-16.754068,-1.0203149,4.126754
229,6.958398818969727,-88.96387481689453,77.02161407470703,2.058300469639382,-1.718086628076661,-92.51910128563931,-5.3007107,-2.018607,2.2808907,22.25311,-15.675979,-1.6949682,-23.88143,-13.325829,-4.202114,74.91571,-5.685452,-0.40350723,-1.7624321,-4.6859965,10.397008,-6.895377,33.466896,-28.267761,50.1287,23.051823,-4.162551,-1.5675986,-2.3559182,-28.223497,43.926815,50.34231,-15.8869,-1.1005484,3.6420305
230,7.020617485046387,-89.67274475097656,77.11903381347656,2.0032905403017423,-1.78052683629633,-92.48234868294033,-4.0464573,-2.0799353,2.2158813,21.087603,-15.636894,-1.6108562,-24.604805,-13.193843,-4.655603,72.98228,-5.8620296,-0.35975197,-2.2759748,-4.550472,10.392801,-7.6531773,33.388313,-28.303482,48.716854,22.147327,-3.7828352,-1.4465437,-1.5815686,-28.36089,43.508556,50.745373,-14.918652,-1.1401854,3.2116072
231,7.074146747589111,-90.37787628173828,77.19802856445312,1.9650999761917285,-1.8251413902039453,-92.43723030304722,-2.8233707,-2.1544216,2.1478195,19.937313,-15.595997,-1.5396309,-25.280104,-13.023898,-5.0812335,70.84632,-5.9834886,-0.28130734,-2.7860928,-4.4272614,10.37604,-8.437797,33.31547,-28.340183,47.258755,21.201904,-3.4504275,-1.3887893,-0.82492495,-28.519741,43.125744,51.15659,-13.958222,-1.1826091,2.8355374
232,7.122708320617676,-91.08586883544922,77.25733184814453,1.9455169877667684,-1.8467785187504224,-92.38316719867183,-1.6554632,-2.2436044,2.077263,18.840683,-15.580686,-1.4990069,-25.902561,-12.852083,-5.5002327,68.52785,-6.039329,-0.15498157,-3.2910273,-4.3158765,10.341427,-9.280439,33.261852,-28.451422,45.793587,20.327335,-3.180772,-1.3549355,-0.086054906,-28.700647,42.793713,51.567093,-13.117641,-1.2695503,2.515464
233,7.165764808654785,-91.79444885253906,77.29653930664062,1.9406422339364258,-1.8449952663595266,-92.31908058671722,-0.54612136,-2.3382354,2.0018535,17.798128,-15.589683,-1.506951,-26.466385,-12.66346,-5.906213,66.00398,-6.023124,0.05308713,-3.7904184,-4.212311,10.288676,-10.173033,33.233353,-28.641363,44.307224,19.488234,-2.991881,-1.3752335,0.6309813,-28.90551,42.520645,51.970074,-12.379463,-1.4246184,2.2462537
234,7.211743354797363,-92.49342346191406,77.31324005126953,1.9450740983288834,-1.8220826418336598,-92.24483367180075,0.5183882,-2.4399474,1.9210083,16.787722,-15.608861,-1.5484864,-26.972261,-12.449858,-6.2906356,63.266857,-5.940236,0.32193345,-4.284122,-4.1190715,10.221313,-11.098142,33.22962,-28.877085,42.77387,18.64406,-2.8683784,-1.4613513,1.3297464,-29.133997,42.294056,52.36797,-11.699671,-1.6186,2.0301366
235,7.249405860900879,-93.19805908203125,77.3092041015625,1.9771003433094605,-1.776501789173525,-92.16142134161889,1.5369593,-2.5642133,1.8374587,15.817982,-15.648743,-1.5931929,-27.427422,-12.252856,-6.6741242,60.35939,-5.7987676,0.5842833,-4.769439,-4.0457177,10.138732,-12.071768,33.253662,-29.178198,41.215057,17.897694,-2.778489,-1.5468445,2.0202615,-29.383512,42.095703,52.769264,-11.154418,-1.8127775,1.8792536
236,7.281236171722412,-93.90278625488281,77.28382110595703,2.045796760257812,-1.7069840294071195,-92.07016899832571,2.5069602,-2.726815,1.7530168,14.900467,-15.720634,-1.6138963,-27.840477,-12.110104,-7.078726,57.32535,-5.6075974,0.7761215,-5.241053,-4.0021772,10.040136,-13.114056,33.30867,-29.570581,39.654057,17.349611,-2.6925006,-1.5644051,2.716374,-29.649412,41.900906,53.181454,-10.823313,-1.9682837,1.8046943
237,7.312434196472168,-94.6120834350586,77.23572540283203,2.1562964415740806,-1.6132228819059642,-91.96738837982778,3.424254,-2.930426,1.6670702,14.042382,-15.827584,-1.6035427,-28.206087,-12.03624,-7.5149827,54.150303,-5.3688946,0.8487831,-5.701124,-3.9912977,9.92218,-14.230004,33.399498,-30.082518,38.082478,17.054195,-2.6164289,-1.5060902,3.413788,-29.929464,41.711212,53.6135,-10.754958,-2.0765293,1.8338318
238,7.331625938415527,-95.31676483154297,77.16748809814453,2.2998647803263883,-1.495556816189763,-91.85314152245634,4.2906485,-3.1668384,1.5774928,13.236036,-15.963096,-1.5765421,-28.522024,-12.004142,-7.9716225,50.818825,-5.0776286,0.8499557,-6.149849,-4.0087104,9.785761,-15.406756,33.524364,-30.698256,36.484486,16.945234,-2.5621471,-1.4059803,4.105433,-30.22298,41.53609,54.062798,-10.897075,-2.1567593,1.9512321
239,7.349466323852539,-96.0283432006836,77.07829284667969,2.472864315113163,-1.3542313170091596,-91.73423423482477,5.1116114,-3.4327404,1.4835969,12.472753,-16.124893,-1.5388148,-28.795465,-11.987687,-8.4395275,47.35538,-4.7300024,0.860638,-6.5808377,-4.0512605,9.635463,-16.641556,33.673435,-31.378721,34.877335,16.941084,-2.5097396,-1.2587097,4.802478,-30.525778,41.36381,54.51827,-11.178754,-2.211865,2.1033282
