unveil-humanoid-operators/unveil-humanoid-operators.github.io/feature-analysis-animation/data/feature_matrix_instances/weight_ankle_rom_walking_A064_walk_arc_cw_start_002__A064.csv
Frame,root_translateX,root_translateY,root_translateZ,root_rotateX,root_rotateY,root_rotateZ,left_hip_pitch_joint_dof,left_hip_roll_joint_dof,left_hip_yaw_joint_dof,left_knee_joint_dof,left_ankle_pitch_joint_dof,left_ankle_roll_joint_dof,right_hip_pitch_joint_dof,right_hip_roll_joint_dof,right_hip_yaw_joint_dof,right_knee_joint_dof,right_ankle_pitch_joint_dof,right_ankle_roll_joint_dof,waist_yaw_joint_dof,waist_roll_joint_dof,waist_pitch_joint_dof,left_shoulder_pitch_joint_dof,left_shoulder_roll_joint_dof,left_shoulder_yaw_joint_dof,left_elbow_joint_dof,left_wrist_roll_joint_dof,left_wrist_pitch_joint_dof,left_wrist_yaw_joint_dof,right_shoulder_pitch_joint_dof,right_shoulder_roll_joint_dof,right_shoulder_yaw_joint_dof,right_elbow_joint_dof,right_wrist_roll_joint_dof,right_wrist_pitch_joint_dof,right_wrist_yaw_joint_dof
0,1.9387049674987793,0.26480624079704285,77.95182037353516,0.36608559642610505,-3.3487300469266534,-178.7819861942357,9.668593,3.0449502,9.8137665,7.1531377,-14.849148,-4.7542357,9.793288,-7.768731,-16.52386,9.615129,-12.497314,4.9034534,-1.5816461,-0.38483226,9.405116,8.109188,8.2402115,-10.153336,58.34167,14.45465,6.105201,12.699398,-0.40436715,-5.9266906,18.091679,66.21323,-5.92437,7.266982,-14.68547
1,1.9411566257476807,0.25642868876457214,77.9533920288086,0.35326558902599253,-3.332919847440754,-178.78516640917488,9.650894,3.0432236,9.794404,7.1524477,-14.861355,-4.7824416,9.778273,-7.7624063,-16.520967,9.604834,-12.486429,4.91309,-1.5793853,-0.39583597,9.423761,8.103605,8.239616,-10.151348,58.3019,14.48187,6.114461,12.701107,-0.4092282,-5.9165936,18.076273,66.212395,-5.947412,7.26903,-14.685155
2,1.94478440284729,0.24970506131649017,77.95893859863281,0.3406015099644651,-3.3195141342330423,-178.78994736575407,9.63577,3.0451527,9.776799,7.1523285,-14.874797,-4.815736,9.765587,-7.7557025,-16.51834,9.5946455,-12.474562,4.9205,-1.5760841,-0.40354905,9.443448,8.094837,8.237704,-10.151682,58.267048,14.510476,6.124144,12.702729,-0.41168287,-5.9134817,18.062891,66.20943,-5.9689956,7.2716007,-14.68223
3,1.947912335395813,0.23887011408805847,77.96256256103516,0.33210378641406524,-3.302011191721023,-178.7928654044728,9.615645,3.0393662,9.755847,7.152341,-14.886277,-4.83552,9.748908,-7.754776,-16.5136,9.584081,-12.46441,4.9324384,-1.5699126,-0.41423234,9.462638,8.086502,8.23275,-10.15226,58.22729,14.536158,6.131837,12.70316,-0.412238,-5.9109125,18.040497,66.20177,-5.994132,7.272238,-14.678856
4,1.9505854845046997,0.22150678932666779,77.964111328125,0.33096317949472664,-3.2736278543786677,-178.79181589509176,9.582203,3.0157094,9.727428,7.1526594,-14.892776,-4.823011,9.720614,-7.7655754,-16.50284,9.574031,-12.458836,4.9553533,-1.5615423,-0.43105233,9.474671,8.079897,8.225807,-10.151567,58.182484,14.552798,6.1311603,12.700621,-0.4115014,-5.910558,18.011654,66.19315,-6.026299,7.265848,-14.676026
5,1.9511381387710571,0.2023792862892151,77.96373748779297,0.34124239609792595,-3.22824176575497,-178.78433002859674,9.527686,2.9678483,9.68691,7.153799,-14.892125,-4.7665334,9.675821,-7.791532,-16.481485,9.559252,-12.456851,4.9960957,-1.5485095,-0.45090073,9.471191,8.068094,8.200929,-10.14795,58.14108,14.561009,6.1174507,12.694918,-0.41160655,-5.916202,17.959215,66.18763,-6.0821495,7.249576,-14.67046
6,1.9462188482284546,0.17862758040428162,77.96118927001953,0.35962206167749144,-3.170822824453817,-178.77218452067794,9.457421,2.9039528,9.636846,7.1558957,-14.886489,-4.6774387,9.617535,-7.8293686,-16.452372,9.545093,-12.459006,5.049173,-1.5504094,-0.48578122,9.452568,8.077626,8.185932,-10.136335,58.080933,14.548327,6.0943527,12.684295,-0.40576315,-5.9224086,17.939156,66.17636,-6.127529,7.2283998,-14.669574
7,1.9436124563217163,0.1508544236421585,77.95596313476562,0.37881146970883944,-3.1117472177490906,-178.75897818809705,9.386235,2.8338864,9.584006,7.15869,-14.883243,-4.57111,9.558348,-7.8722014,-16.424633,9.532672,-12.463867,5.1027966,-1.5608886,-0.494123,9.437905,8.075073,8.119569,-10.1064625,58.037766,14.554561,6.0701957,12.681526,-0.40177935,-5.9587536,17.911537,66.16435,-6.171848,7.2046003,-14.666481
8,1.9433568716049194,0.11696507036685944,77.95101928710938,0.38988782381867304,-3.061190593993139,-178.7474642033165,9.327702,2.7687166,9.534502,7.162608,-14.889042,-4.4642587,9.510804,-7.9116006,-16.40808,9.522979,-12.470489,5.1449914,-1.572105,-0.48708466,9.4373255,8.077484,8.042169,-10.083609,57.99146,14.562956,6.053653,12.686091,-0.38625243,-6.0102363,17.892704,66.14112,-6.1798444,7.182426,-14.668401
9,1.940392017364502,0.07495345920324326,77.9432373046875,0.3780873022529152,-3.018959276813326,-178.7322807578915,9.254664,2.7265902,9.480787,7.2219763,-14.929719,-4.3527,9.476793,-7.932343,-16.415565,9.514262,-12.477979,5.1682243,-1.5813397,-0.45036322,9.454622,8.077011,7.956036,-10.074919,57.944134,14.57878,6.0475216,12.704087,-0.35962665,-6.0726585,17.85599,66.10493,-6.148769,7.156083,-14.675117
10,1.9361830949783325,0.02574174478650093,77.93359375,0.3555526327330705,-2.980923211237408,-178.71544615771168,9.042889,2.7140396,9.417826,7.592526,-15.138427,-4.231058,9.4498415,-7.9466643,-16.436872,9.507507,-12.487846,5.180152,-1.5867563,-0.39593884,9.483334,8.074533,7.8601513,-10.076445,57.89619,14.59832,6.0470376,12.731534,-0.3235965,-6.143964,17.805628,66.05838,-6.0902653,7.125731,-14.685165
11,1.9290831089019775,-0.02673998288810253,77.92425537109375,0.3287487602544646,-2.948122292001012,-178.701042510578,8.748847,2.7194574,9.355904,8.160813,-15.459219,-4.11725,9.430539,-7.960398,-16.457867,9.502253,-12.499211,5.19083,-1.5874574,-0.36827928,9.521618,8.100287,7.8115945,-10.075633,57.81739,14.608961,6.0478835,12.742302,-0.2992212,-6.178625,17.76401,66.03342,-6.0257077,7.0999064,-14.701092
12,1.9151771068572998,-0.08534734696149826,77.9131088256836,0.2989529300349104,-2.9213156371454234,-178.69272369962866,8.510096,2.7221684,9.309103,8.64121,-15.750416,-4.028939,9.423229,-7.9735436,-16.465902,9.489402,-12.506643,5.2106776,-1.5783561,-0.28905323,9.566326,8.099419,7.684788,-10.075385,57.783356,14.633898,6.0502787,12.752347,-0.25901085,-6.273664,17.733479,66.00211,-5.9770956,7.0925555,-14.710056
13,1.8945032358169556,-0.14760424196720123,77.90161895751953,0.26397456061967994,-2.902800914848312,-178.69015456712793,8.329879,2.7258117,9.280917,9.032149,-16.010168,-3.975304,9.428423,-7.9826703,-16.458385,9.471562,-12.511133,5.236217,-1.5684987,-0.21147186,9.622473,8.121413,7.5654707,-10.049888,57.731373,14.661238,6.049928,12.730243,-0.22421364,-6.3666177,17.740715,65.98526,-5.948326,7.110738,-14.71766
14,1.873060703277588,-0.21808338165283203,77.88924407958984,0.22418456190080055,-2.891524164579704,-178.69213951271598,8.193517,2.729398,9.267022,9.360148,-16.24938,-3.9459302,9.444299,-7.989357,-16.441788,9.451472,-12.514545,5.2644114,-1.5570594,-0.11972978,9.689281,8.14967,7.4283886,-10.00874,57.679703,14.695407,6.049481,12.691628,-0.18830872,-6.475531,17.77129,65.97377,-5.928461,7.147379,-14.724056
15,1.8478684425354004,-0.29386258125305176,77.87439727783203,0.1877823231508405,-2.88375320665858,-178.7001725192657,8.099045,2.7213264,9.264087,9.620016,-16.463406,-3.9300082,9.468345,-8.003931,-16.416658,9.427241,-12.516091,5.3056993,-1.5420558,-0.028956825,9.759856,8.184652,7.286647,-9.97334,57.63411,14.725151,6.050434,12.648086,-0.1535637,-6.590073,17.81755,65.97688,-5.907285,7.18747,-14.729663
16,1.8106709718704224,-0.37532860040664673,77.85717010498047,0.16275367937121055,-2.8759123681789793,-178.71586961126505,8.043805,2.6906388,9.268492,9.808782,-16.649025,-3.9166143,9.495651,-8.037704,-16.38321,9.40093,-12.516689,5.370617,-1.522037,0.0455931,9.826803,8.226124,7.152806,-9.964012,57.601646,14.739613,6.0542583,12.611671,-0.123781964,-6.701512,17.871677,66.006195,-5.875054,7.215994,-14.735789
17,1.7721344232559204,-0.46084970235824585,77.84066009521484,0.15269500215813178,-2.8709984352143185,-178.74214145786664,8.040851,2.6335068,9.28501,9.908079,-16.799114,-3.9083834,9.531991,-8.094657,-16.338009,9.366627,-12.513831,5.4719257,-1.4959608,0.11240709,9.892062,8.266736,7.0089707,-9.993852,57.595753,14.736232,6.0606294,12.594094,-0.096580826,-6.830051,17.950682,66.06287,-5.8205914,7.2283015,-14.739747
18,1.7309062480926514,-0.54924476146698,77.82318115234375,0.15296053333548745,-2.8696673905412697,-178.7772564410381,8.087278,2.5554757,9.313724,9.924801,-16.917189,-3.9094088,9.576758,-8.168979,-16.282381,9.32644,-12.508139,5.600676,-1.4610081,0.16755553,9.958617,8.313322,6.869481,-10.05331,57.60213,14.716781,6.0687838,12.583285,-0.072677284,-6.9639173,18.048895,66.143845,-5.752786,7.232054,-14.742164
19,1.683746099472046,-0.6428536772727966,77.8053970336914,0.1582514468809557,-2.8640295292956104,-178.8157549753114,8.157124,2.4617994,9.343559,9.890818,-17.014439,-3.9107406,9.618927,-8.254842,-16.224453,9.288088,-12.502742,5.7348866,-1.4265475,0.21895303,10.020668,8.36599,6.7298527,-10.117732,57.616043,14.692458,6.080673,12.567707,-0.043679323,-7.100258,18.137526,66.22978,-5.6864433,7.233373,-14.744182
20,1.6353379487991333,-0.7508857846260071,77.78768920898438,0.1684519130398318,-2.846155761809397,-178.85357875632158,8.22034,2.35329,9.364924,9.846901,-17.10667,-3.9033825,9.641931,-8.354022,-16.170181,9.268734,-12.504277,5.852685,-1.4002407,0.26944172,10.071555,8.424108,6.584506,-10.163627,57.634033,14.674041,6.0981717,12.53653,-0.003311256,-7.2347655,18.188421,66.30496,-5.6350517,7.238039,-14.747603
21,1.5823745727539062,-0.8700352311134338,77.77118682861328,0.17652410085263837,-2.8162605785390142,-178.88635308084577,8.276215,2.2370658,9.371126,9.797468,-17.195135,-3.89303,9.646656,-8.461873,-16.126606,9.272151,-12.52131,5.941412,-1.3884354,0.3273424,10.106453,8.490889,6.4279838,-10.190453,57.661873,14.676078,6.1275783,12.491631,0.052491497,-7.3636565,18.188065,66.37309,-5.6032734,7.2526455,-14.758262
22,1.5225858688354492,-0.9899469017982483,77.7520751953125,0.20060317603032335,-2.769740598958669,-178.92477450359834,8.338756,2.0916991,9.376919,9.704617,-17.262331,-3.8793595,9.505527,-8.633976,-16.062231,9.559523,-12.687876,6.0182233,-1.3788092,0.37381747,10.119968,8.564551,6.261194,-10.20807,57.702446,14.690276,6.1663733,12.438949,0.116938435,-7.4868484,18.153597,66.44539,-5.5842695,7.2723823,-14.774941
23,1.4622043371200562,-1.1091738939285278,77.72709655761719,0.2516703216963611,-2.7045904083739383,-178.97485879285722,8.398624,1.9061766,9.390761,9.577876,-17.313967,-3.848291,9.2154,-8.876777,-15.964357,10.121512,-12.986381,6.100096,-1.3638202,0.39588553,10.119292,8.635905,6.089764,-10.206746,57.747524,14.693618,6.2030973,12.37299,0.17982438,-7.607122,18.102674,66.514946,-5.574594,7.2863507,-14.788708
24,1.4005744457244873,-1.230437994003296,77.69821166992188,0.3311371744187532,-2.6219918516406007,-179.03879708220413,8.446666,1.6810304,9.416339,9.433466,-17.359465,-3.7870119,8.824141,-9.172511,-15.831283,10.847327,-13.345422,6.201309,-1.3399953,0.39020637,10.11592,8.696586,5.920859,-10.177348,57.787224,14.661851,6.226451,12.2872095,0.23244937,-7.727926,18.05298,66.57244,-5.570755,7.283563,-14.790113
25,1.341172218322754,-1.3640806674957275,77.66506958007812,0.43669912488337165,-2.5186989773490227,-179.10952232911717,8.474939,1.4167585,9.4486885,9.278408,-17.402918,-3.6880193,8.349432,-9.520366,-15.667886,11.692823,-13.761289,6.329802,-1.3095956,0.35847124,10.106615,8.748866,5.7550383,-10.115826,57.81905,14.590007,6.232127,12.171222,0.27761996,-7.853164,18.003622,66.61797,-5.5750904,7.2510495,-14.770526
26,1.2832093238830566,-1.5010043382644653,77.62812805175781,0.5611250896841602,-2.398560078689502,-179.18474596089638,8.490675,1.12171,9.483438,9.110229,-17.442862,-3.5608578,7.799746,-9.912071,-15.478316,12.651134,-14.228565,6.4712653,-1.2769762,0.30947584,10.092358,8.796299,5.590374,-10.0281315,57.845676,14.489456,6.226527,12.030084,0.32137462,-7.982019,17.94788,66.65025,-5.587181,7.1980586,-14.735721
27,1.2207013368606567,-1.6426059007644653,77.58333587646484,0.7071623190591684,-2.2703643349042153,-179.27753541189887,8.509476,0.79701614,9.530051,8.919806,-17.474646,-3.4169035,7.155902,-10.344806,-15.250398,13.771218,-14.737174,6.6099133,-1.2373711,0.23821634,10.086146,8.834238,5.432722,-9.919131,57.864944,14.361122,6.2142143,11.881208,0.35651347,-8.111847,17.892925,66.66369,-5.6015,7.146701,-14.698355
28,1.1704155206680298,-1.7856038808822632,77.52793884277344,0.8783151396057279,-2.142791626903421,-179.40092990644595,8.544059,0.4442468,9.597565,8.701916,-17.494724,-3.2674897,6.397436,-10.81647,-14.970245,15.1049795,-15.279453,6.7280974,-1.185606,0.13818178,10.101741,8.859333,5.2916923,-9.794142,57.871765,14.204768,6.1995716,11.740603,0.37633306,-8.236481,17.847721,66.651054,-5.6106567,7.1189027,-14.6709175
29,1.1204262971878052,-1.9231364727020264,77.46913146972656,1.0899455230669568,-2.007406502021753,-179.55988953985246,8.586072,0.04159794,9.68193,8.452469,-17.497911,-3.0928159,5.5169096,-11.347308,-14.6175995,16.647541,-15.906283,6.8319893,-1.1128845,-0.010656795,10.132429,8.875257,5.1724467,-9.638122,57.85557,14.011397,6.183357,11.588381,0.38114664,-8.350593,17.809082,66.60701,-5.6106887,7.1285725,-14.650135
30,1.0772631168365479,-2.055959701538086,77.402099609375,1.3320260091151919,-1.8639422624597548,-179.74551934037882,8.63171,-0.40017873,9.778446,8.179828,-17.490215,-2.8952765,4.5237403,-11.929787,-14.20002,18.375195,-16.604866,6.9199505,-1.0237138,-0.20174709,10.17587,8.885218,5.0782676,-9.454508,57.818142,13.782245,6.1637077,11.422419,0.36991125,-8.449698,17.773157,66.54217,-5.606825,7.1608768,-14.633183
31,1.0286340713500977,-2.188729763031006,77.33618927001953,1.570020720170777,-1.732830338302257,-179.9503760151248,8.706117,-0.833376,9.895346,7.8840537,-17.477571,-2.7187135,3.4271915,-12.518882,-13.746049,20.307877,-17.27131,6.9602346,-0.93708825,-0.39365843,10.252171,8.882056,5.0045037,-9.274465,57.776554,13.534225,6.140143,11.286921,0.3407672,-8.5413,17.749302,66.4633,-5.6058865,7.195394,-14.629597
32,0.9778409004211426,-2.3136274814605713,77.27235412597656,1.7730485731390915,-1.6335847005399404,179.83215974945617,8.83353,-1.2147028,10.042155,7.5646057,-17.465963,-2.6062644,2.236171,-13.073943,-13.28432,22.473928,-17.806597,6.920203,-0.85978013,-0.5658637,10.377853,8.862937,4.972719,-9.14174,57.74273,13.276192,6.112508,11.224448,0.28279534,-8.602144,17.733095,66.395386,-5.622133,7.2104154,-14.654633
33,0.9238806366920471,-2.4386353492736816,77.21393585205078,1.9357322220296376,-1.5795323659315668,179.59649507282862,8.876296,-1.5080143,10.234064,7.5485854,-17.636087,-2.5806673,0.95373374,-13.588926,-12.790385,24.90717,-18.199072,6.8373094,-0.79701596,-0.69988346,10.570867,8.822307,4.9665837,-9.052075,57.713047,12.98238,6.075088,11.256191,0.19340757,-8.655816,17.753578,66.32957,-5.6474333,7.2007003,-14.710743
34,0.871932864189148,-2.5591535568237305,77.15841674804688,2.0749833729427403,-1.5569391087422744,179.3411926517644,8.955101,-1.7618486,10.461276,7.5383606,-17.825125,-2.613947,-0.42738992,-14.087653,-12.257508,27.588747,-18.5018,6.7037554,-0.7448211,-0.81016034,10.821414,8.76962,4.9883914,-8.987123,57.671688,12.655121,6.027572,11.349968,0.09392947,-8.719499,17.806664,66.23233,-5.6744485,7.178322,-14.783584
35,0.8257259726524353,-2.675962448120117,77.10417175292969,2.1937091402625892,-1.543744672310255,179.0792148892526,9.047073,-1.9815571,10.704475,7.528059,-18.014244,-2.6758559,-1.9008257,-14.572544,-11.746624,30.44859,-18.70405,6.421323,-0.70460844,-0.90556264,11.092301,8.698183,5.0304933,-8.958289,57.65896,12.363634,5.9810247,11.490387,-0.024888126,-8.760073,17.842154,66.144554,-5.72086,7.147415,-14.876518
36,0.7814804315567017,-2.7802979946136475,77.05357360839844,2.2968547207872505,-1.5182145834644931,178.82331211445182,9.126874,-2.1747534,10.944267,7.5180416,-18.188126,-2.735723,-3.457551,-15.048858,-11.320406,33.41466,-18.789059,5.8951516,-0.69382095,-0.99460816,11.359818,8.621976,5.101337,-8.958197,57.678364,12.175367,5.942349,11.642334,-0.13646719,-8.790892,17.836157,66.03942,-5.788217,7.1142063,-14.973388
37,0.7275799512863159,-2.8735923767089844,77.00496673583984,2.397014130698613,-1.471463061486108,178.5635236496638,9.185122,-2.3546124,11.189441,7.5044165,-18.337412,-2.779384,-5.1413665,-15.531566,-10.967403,36.5603,-18.696821,5.1028633,-0.68847364,-1.101763,11.623868,8.535135,5.2330685,-9.01142,57.731167,12.114531,5.909557,11.814275,-0.24179392,-8.805044,17.774666,65.9166,-5.890261,7.0766716,-15.070873
38,0.6679831147193909,-2.9574317932128906,76.95970153808594,2.4905014304785538,-1.415938426955569,178.2977596049022,9.234666,-2.517023,11.445544,7.4895864,-18.472717,-2.8240778,-6.929412,-16.022812,-10.675549,39.875378,-18.447794,4.0896115,-0.69966424,-1.2143832,11.888172,8.427138,5.3887634,-9.100342,57.83207,12.152406,5.881817,12.028268,-0.3733955,-8.788576,17.681837,65.81803,-6.023206,7.0330186,-15.185516
39,0.6061546206474304,-3.036957025527954,76.92324829101562,2.5588604009276468,-1.3608942189642972,178.04978761409546,9.286157,-2.643211,11.689891,7.4773774,-18.605335,-2.8866632,-8.707264,-16.507692,-10.509053,43.156567,-18.145647,2.869419,-0.7421581,-1.3129522,12.150578,8.319061,5.566413,-9.2177515,57.956837,12.238585,5.866641,12.242185,-0.49325153,-8.745207,17.53536,65.70668,-6.1695232,6.987716,-15.310403
40,0.5307700634002686,-3.1113195419311523,76.89542388916016,2.583366276368428,-1.315554878548421,177.84299975466305,9.3529625,-2.7148929,11.899537,7.466996,-18.743881,-2.984254,-10.36218,-16.969341,-10.529171,46.208923,-17.896885,1.4634136,-0.8296891,-1.3755745,12.407407,8.228468,5.7569947,-9.357829,58.08722,12.323768,5.8714495,12.417051,-0.5685101,-8.677492,17.312004,65.553116,-6.311827,6.944878,-15.4404955
41,0.44037699699401855,-3.181454658508301,76.87608337402344,2.5587266696012168,-1.2894301268017248,177.67945146790893,9.448164,-2.726784,12.071086,7.4553995,-18.887697,-3.121447,-11.899543,-17.440811,-10.798132,49.111977,-17.703825,-0.33683038,-0.9715226,-1.3948239,12.667878,8.158964,5.9541564,-9.52153,58.223522,12.422411,5.9062886,12.549628,-0.5889331,-8.582047,16.973267,65.33901,-6.4482403,6.9089828,-15.5674515
42,0.34305912256240845,-3.245223045349121,76.86029815673828,2.4961684400425237,-1.275460670616936,177.54826890945418,9.562724,-2.6903725,12.215516,7.4425015,-19.032045,-3.28881,-13.35622,-17.933376,-11.281221,51.924053,-17.517717,-2.4690578,-1.1584148,-1.3827367,12.930247,8.099095,6.1593575,-9.7123575,58.377296,12.551984,5.964713,12.6598,-0.5755304,-8.459881,16.540936,65.086174,-6.5878944,6.8766336,-15.696766
43,0.22903603315353394,-3.308138608932495,76.85008239746094,2.4013626283389655,-1.259099360639022,177.4520147977702,9.6808605,-2.612121,12.333861,7.4290795,-19.180145,-3.4827595,-14.679677,-18.379692,-11.878735,54.438236,-17.367981,-4.4876566,-1.3785602,-1.3443847,13.1752405,8.044476,6.3740063,-9.92402,58.54529,12.670314,6.029233,12.743277,-0.5386931,-8.322576,16.084959,64.8198,-6.7283916,6.841098,-15.843394
44,0.09239121526479721,-3.3670430183410645,76.845947265625,2.279380749019981,-1.2249826015954985,177.39181675421864,9.786343,-2.4972544,12.428089,7.4157705,-19.335028,-3.7000725,-15.832774,-18.693478,-12.476307,56.464897,-17.282341,-5.9317627,-1.6200502,-1.2821575,13.3844595,7.9910417,6.5981126,-10.149896,58.723293,12.734351,6.0819793,12.795028,-0.48371515,-8.187754,15.678049,64.558846,-6.8663635,6.7956557,-16.020895
45,-0.05755801498889923,-3.4184906482696533,76.84981536865234,2.1252771588109436,-1.1752099587745857,177.37852301630585,9.883546,-2.340521,12.486653,7.4008102,-19.49996,-3.9460495,-16.777084,-18.829803,-13.059137,57.934147,-17.314629,-6.5825377,-1.8991015,-1.1859164,13.556905,7.940687,6.832043,-10.400038,58.91176,12.718728,6.115342,12.799664,-0.4027268,-8.067221,15.335813,64.29484,-7.0213127,6.7457085,-16.246273
46,-0.2270405888557434,-3.4620790481567383,76.85558319091797,1.9373452091024423,-1.1152521035182876,177.40637766160592,9.978666,-2.1394737,12.51392,7.384021,-19.672838,-4.220573,-17.559612,-18.821333,-13.672602,58.97455,-17.431292,-6.6956577,-2.2158475,-1.0523356,13.704095,7.895327,7.0731792,-10.673631,59.10908,12.650657,6.1391892,12.762867,-0.28638324,-7.9605494,15.024103,64.00765,-7.1849523,6.6931763,-16.503935
47,-0.40174609422683716,-3.5069591999053955,76.86670684814453,1.726523539262218,-1.035116254319862,177.4515786006111,10.058568,-1.9050258,12.53538,7.368316,-19.848362,-4.5116706,-18.271196,-18.69397,-14.290515,59.683002,-17.528837,-6.5214186,-2.534865,-0.89598066,13.824747,7.8511252,7.3157973,-10.94437,59.309418,12.569018,6.161879,12.712887,-0.14111099,-7.8695908,14.73925,63.70705,-7.3151526,6.6249876,-16.760815
48,-0.5915989279747009,-3.5389199256896973,76.87545776367188,1.5041175169354533,-0.9249813154325228,177.49036989791378,10.111877,-1.6483935,12.576059,7.3543134,-20.020618,-4.8072433,-19.000391,-18.47953,-14.886144,60.15602,-17.4974,-6.31298,-2.8230004,-0.7305947,13.916893,7.804655,7.552079,-11.182845,59.50729,12.51399,6.19174,12.677899,0.026374416,-7.797993,14.48132,63.400932,-7.368394,6.529462,-16.98405
49,-0.7886564135551453,-3.563849925994873,76.88386535644531,1.2634479952498474,-0.7703984679045149,177.5259137174385,10.12218,-1.3588978,12.642616,7.341387,-20.19097,-5.1226487,-19.76603,-18.164265,-15.464825,60.378338,-17.293062,-6.060153,-3.0767624,-0.54496515,13.964867,7.743556,7.7769914,-11.397743,59.727776,12.503335,6.232443,12.666537,0.22212982,-7.7503943,14.263753,63.087757,-7.337881,6.3938055,-17.160336
50,-1.0067157745361328,-3.5898401737213135,76.89593505859375,1.0020443545301758,-0.5806595508717907,177.56736643762326,10.101321,-1.0340515,12.721292,7.3292665,-20.362453,-5.457416,-20.526464,-17.741524,-16.034071,60.306202,-16.979063,-5.6543612,-3.3137991,-0.33258858,13.974791,7.672481,7.9895673,-11.597109,59.967316,12.515485,6.278872,12.664521,0.44784096,-7.727913,14.084239,62.765392,-7.2446055,6.2257895,-17.308176
51,-1.2218811511993408,-3.6005537509918213,76.9018783569336,0.7384381404174043,-0.3825115059797062,177.59993063556522,10.082722,-0.70102996,12.805834,7.3180537,-20.53123,-5.7761683,-21.274588,-17.256374,-16.568905,59.995827,-16.60615,-5.201758,-3.5338056,-0.11663723,13.97638,7.6125503,8.1890335,-11.752631,60.179653,12.529375,6.3267503,12.665777,0.6917446,-7.7268715,13.919634,62.436817,-7.0865173,6.0475044,-17.441704
52,-1.4555357694625854,-3.611027479171753,76.90929412841797,0.49016998291390046,-0.20266892292239375,177.6091537549161,10.097318,-0.38548273,12.890985,7.307706,-20.691402,-6.0437865,-21.997698,-16.750463,-17.047749,59.49941,-16.219395,-4.8098226,-3.7367117,0.0800288,13.998783,7.585859,8.37434,-11.833738,60.31741,12.525344,6.3716264,12.664121,0.93875057,-7.739176,13.74719,62.111687,-6.8608027,5.877914,-17.576094
53,-1.703161358833313,-3.620403528213501,76.91358184814453,0.2577325790050928,-0.04506351402526037,177.58370978309242,10.151008,-0.09091896,12.978861,7.2962604,-20.83544,-6.245807,-22.699228,-16.212315,-17.452791,58.81565,-15.839689,-4.5183268,-3.915448,0.25074497,14.046164,7.604238,8.541243,-11.799319,60.360374,12.498045,6.419412,12.657381,1.181855,-7.760609,13.5751295,61.796986,-6.5666723,5.7267733,-17.723665
54,-1.959922194480896,-3.6229188442230225,76.91492462158203,0.03406029147218451,0.10247813097358359,177.5336815098185,10.227908,0.19368121,13.071602,7.286424,-20.96642,-6.402513,-23.37857,-15.627453,-17.798485,57.916832,-15.437126,-4.2692757,-4.0765395,0.40801078,14.100992,7.649162,8.680936,-11.670239,60.347122,12.462546,6.4705777,12.653471,1.4224844,-7.790399,13.4142275,61.498577,-6.2070985,5.5816817,-17.877163
55,-2.222848415374756,-3.621222734451294,76.90998840332031,-0.17758672115611693,0.23939600919859805,177.47845035249424,10.327893,0.466307,13.162653,7.277828,-21.097546,-6.5317273,-24.018208,-15.030793,-18.115223,56.822163,-14.98353,-4.023735,-4.2353134,0.5533143,14.162373,7.7036443,8.807375,-11.518223,60.303326,12.421003,6.512052,12.655182,1.663904,-7.8283587,13.239672,61.21239,-5.7839727,5.429082,-18.018896
56,-2.4996137619018555,-3.6055855751037598,76.89930725097656,-0.3727868768436224,0.3646239627383434,177.43690949189923,10.451242,0.72352123,13.246114,7.2690983,-21.240974,-6.6510496,-24.600983,-14.4569435,-18.43174,55.549454,-14.451444,-3.7421272,-4.3978057,0.68164575,14.236342,7.7645826,8.962225,-11.42465,60.22765,12.367049,6.529503,12.6533,1.9258746,-7.877174,13.020799,60.909542,-5.295357,5.254979,-18.121801
57,-2.7841835021972656,-3.588085651397705,76.88270568847656,-0.5506381363924083,0.4752316057546089,177.4099505512473,10.60127,0.96407914,13.321933,7.25915,-21.399282,-6.759655,-25.123238,-13.899798,-18.733944,54.083313,-13.836421,-3.398077,-4.5710616,0.7962604,14.3189,7.8187723,9.124678,-11.404121,60.145645,12.286289,6.513991,12.665493,2.1918008,-7.926791,12.749458,60.61947,-4.7373257,5.043199,-18.178104
58,-3.0857021808624268,-3.5618674755096436,76.8560562133789,-0.7128886109789452,0.5725094634396022,177.3891058391396,10.775813,1.1889687,13.392962,7.250797,-21.567158,-6.8498983,-25.588682,-13.342419,-19.012175,52.415268,-13.151304,-3.0187807,-4.738453,0.8914735,14.413999,7.8819594,9.31087,-11.429029,60.02697,12.176374,6.4741135,12.679738,2.4727364,-7.9795413,12.431382,60.324898,-4.110771,4.8052297,-18.193855
59,-3.397890090942383,-3.5266523361206055,76.82427978515625,-0.8606407842326591,0.6626123349048073,177.37965054929532,10.967621,1.399967,13.457538,7.2422833,-21.73964,-6.9293785,-25.99502,-12.802238,-19.30085,50.578903,-12.389663,-2.643414,-4.9028196,0.9697625,14.5126295,7.942665,9.509581,-11.480132,59.891945,12.085791,6.4266396,12.690551,2.763947,-8.029349,12.07892,60.02988,-3.4368691,4.5706544,-18.201221
60,-3.728055953979492,-3.4854917526245117,76.7872543334961,-0.9956704187291631,0.7523517052922118,177.38666309374156,11.168108,1.5999343,13.51417,7.234869,-21.91369,-7.006224,-26.342804,-12.29779,-19.63424,48.611748,-11.5471325,-2.31095,-5.061881,1.0347353,14.607028,7.9900007,9.715499,-11.544091,59.756897,12.059994,6.3884854,12.690063,3.0670223,-8.072468,11.698111,59.73044,-2.7379484,4.3681383,-18.230186
61,-4.06311559677124,-3.440096616744995,76.74175262451172,-1.1198056981564708,0.847644804600383,177.41405384260153,11.366828,1.7915612,13.563074,7.2306447,-22.087376,-7.084845,-26.640108,-11.842159,-20.03,46.504612,-10.572769,-2.071588,-5.21724,1.0882106,14.692579,8.016197,9.926196,-11.627206,59.628437,12.134916,6.3626595,12.675851,3.382711,-8.107308,11.278419,59.421024,-1.9992644,4.212054,-18.292076
62,-4.4183173179626465,-3.3909223079681396,76.68843841552734,-1.2328714806112298,0.943809529146468,177.45831204469079,11.571134,1.9734721,13.60502,7.229475,-22.264624,-7.160515,-26.883596,-11.419458,-20.467167,44.243732,-9.485196,-1.8907179,-5.369508,1.1295784,14.7733345,8.02692,10.14267,-11.733273,59.499767,12.278929,6.3406568,12.653174,3.7090895,-8.134339,10.819821,59.107212,-1.2169323,4.0841646,-18.3709
63,-4.781642913818359,-3.3432178497314453,76.62909698486328,-1.33004722512601,1.0308843769297706,177.51340723387975,11.79464,2.1405723,13.639695,7.230334,-22.446589,-7.227907,-27.05602,-11.00749,-20.91892,41.850674,-8.381282,-1.6804868,-5.516471,1.1555324,14.855126,8.032876,10.363806,-11.843397,59.366444,12.437096,6.32224,12.626764,4.0404015,-8.153307,10.348717,58.804688,-0.42631525,3.964351,-18.457214
64,-5.16257381439209,-3.2883081436157227,76.56272888183594,-1.4058876345721305,1.098317154252749,177.5741624077221,12.051274,2.287033,13.665728,7.2339683,-22.636164,-7.281455,-27.138208,-10.586813,-21.356924,39.341248,-7.3549957,-1.3545847,-5.65847,1.1606674,14.943565,8.045069,10.587851,-11.935796,59.22454,12.555718,6.3070993,12.601416,4.368589,-8.165904,9.892555,58.53127,0.33613548,3.8328602,-18.541874
65,-5.547921657562256,-3.2197606563568115,76.48866271972656,-1.456021825000532,1.1353123420484204,177.64482834177502,12.35215,2.4062076,13.674873,7.241158,-22.836147,-7.31584,-27.088854,-10.159189,-21.798182,36.650505,-6.421912,-0.8629227,-5.805856,1.1410276,15.047879,8.071547,10.812725,-11.999617,59.06485,12.620457,6.2955494,12.577215,4.6936255,-8.171091,9.4476795,58.28761,1.0853407,3.677958,-18.635027
66,-5.949106216430664,-3.154762029647827,76.40382385253906,-1.4815448901044688,1.1485454629742002,177.72915406995835,12.687456,2.500042,13.667543,7.252177,-23.044193,-7.335098,-26.91967,-9.734415,-22.247656,33.76861,-5.523774,-0.26312885,-5.959307,1.0968703,15.1632805,8.105176,11.03869,-12.045967,58.89277,12.661024,6.2876105,12.552178,5.0167947,-8.169813,9.004648,58.067074,1.8322916,3.5122876,-18.737917
67,-6.372136116027832,-3.086570978164673,76.30878448486328,-1.4848343839870708,1.1536439115609993,177.82210249782122,13.0429735,2.573012,13.654371,7.2641425,-23.256577,-7.346915,-26.688757,-9.307236,-22.66073,30.792568,-4.6447134,0.36662194,-6.106177,1.0312506,15.275258,8.135395,11.266837,-12.085826,58.724262,12.689501,6.282681,12.528199,5.3359966,-8.164815,8.583937,57.87266,2.5379672,3.3530188,-18.82704
68,-6.810802459716797,-3.0056798458099365,76.20883178710938,-1.4683037074778047,1.1660962615517174,177.9184688173471,13.402859,2.6301348,13.646029,7.2775946,-23.471697,-7.3589582,-26.45579,-8.874799,-22.993856,27.825994,-3.7722769,0.9491749,-6.2345457,0.947598,15.3693695,8.152565,11.49861,-12.13015,58.574497,12.716816,6.2798743,12.506806,5.649198,-8.160468,8.207498,57.707157,3.1636965,3.2181742,-18.879187
69,-7.259800910949707,-2.915048360824585,76.0989761352539,-1.4225887085870041,1.1913776950963983,178.02588492370933,13.7589035,2.6608598,13.637195,7.2910557,-23.690655,-7.360459,-26.219212,-8.43536,-23.226885,24.833828,-2.9043062,1.4919415,-6.344659,0.83824795,15.440513,8.150227,11.736621,-12.183171,58.44622,12.7412815,6.280221,12.485911,5.964022,-8.1612015,7.8668885,57.562317,3.7102892,3.1089447,-18.87983
70,-7.722712993621826,-2.8126754760742188,75.98108673095703,-1.3413702268537655,1.2167594669717705,178.15170266038928,14.123617,2.6571984,13.61615,7.305728,-23.914358,-7.3494377,-25.939428,-8.00875,-23.387745,21.768116,-2.0412595,2.0235293,-6.449451,0.6968523,15.500004,8.137193,11.980464,-12.239304,58.32848,12.7576475,6.283655,12.464228,6.2821946,-8.165232,7.555826,57.435646,4.1961527,3.01828,-18.843235
71,-8.207466125488281,-2.698201894760132,75.85690307617188,-1.2319459987398744,1.2316051722235604,178.28875454460442,14.514232,2.6276786,13.585348,7.3175526,-24.13537,-7.3472505,-25.629272,-7.622544,-23.504993,18.73364,-1.1859146,2.5040915,-6.5540395,0.52714396,15.55675,8.125161,12.227306,-12.292336,58.219643,12.774102,6.2876816,12.445685,6.588848,-8.171619,7.2995567,57.343704,4.6077967,2.951565,-18.792992
72,-8.704073905944824,-2.576350212097168,75.7210693359375,-1.106615339049095,1.2280995416123077,178.42617029146948,14.944572,2.5876658,13.551804,7.32347,-24.346056,-7.376645,-25.315262,-7.2935452,-23.60901,15.857366,-0.34517524,2.898865,-6.661734,0.33885932,15.618004,8.126054,12.472118,-12.333994,58.117653,12.799446,6.2899,12.433971,6.8683467,-8.17918,7.124948,57.30268,4.9322047,2.9138942,-18.752554
73,-9.21937370300293,-2.4448747634887695,75.57548522949219,-0.973937216737612,1.2088905049913876,178.55944059440034,15.412617,2.5489657,13.521233,7.323862,-24.556252,-7.440782,-25.023884,-6.9988832,-23.65121,13.157378,0.49721667,3.1753874,-6.7678413,0.14463778,15.679926,8.123798,12.698774,-12.364566,58.045124,12.8472185,6.28939,12.443249,7.1136203,-8.192018,7.0576067,57.322296,5.149658,2.9243045,-18.737825
74,-9.750299453735352,-2.3072359561920166,75.42205047607422,-0.829700577104964,1.1788006418424775,178.6922296117055,15.910506,2.5068042,13.491339,7.319763,-24.765411,-7.5298786,-24.737934,-6.72699,-23.639853,10.572604,1.3421307,3.3652096,-6.8666525,-0.06701939,15.74405,8.136774,12.942059,-12.390942,57.966133,12.89972,6.28657,12.456529,7.339117,-8.209904,7.077348,57.381203,5.2769294,2.9745567,-18.72734
75,-10.299006462097168,-2.1708061695098877,75.26239776611328,-0.6742591765295556,1.1350675273348882,178.8189506357952,16.442987,2.4589498,13.4641075,7.3113813,-24.954765,-7.6483617,-24.406664,-6.482373,-23.692783,8.06387,2.1839542,3.5318341,-6.9695535,-0.28864202,15.806981,8.166081,13.174749,-12.396736,57.89214,12.952988,6.2841096,12.468013,7.53923,-8.228908,7.146375,57.489002,5.3415313,3.0265925,-18.71001
76,-10.865967750549316,-2.0235438346862793,75.09559631347656,-0.5092135690956048,1.076155876937088,178.93330064635398,17.011208,2.4057999,13.442598,7.3007092,-25.104254,-7.801487,-24.514027,-6.505175,-23.86413,6.8143415,2.3775942,3.746972,-7.081578,-0.51781636,15.869121,8.227852,13.39549,-12.373173,57.808422,12.992718,6.283862,12.462506,7.7149262,-8.247043,7.223509,57.643536,5.374015,3.0428154,-18.668669
77,-11.447433471679688,-1.8750313520431519,74.92369079589844,-0.333200457525678,0.995640084505341,179.02850435590472,17.627533,2.3442883,13.441332,7.283424,-25.221083,-7.9904985,-25.01139,-6.7841744,-24.190327,6.734079,1.962625,4.065616,-7.2005463,-0.757419,15.933027,8.330371,13.60267,-12.307461,57.706768,13.017222,6.2886615,12.431838,7.8652067,-8.263656,7.303578,57.861618,5.372039,2.9908226,-18.586317
78,-12.039828300476074,-1.7114866971969604,74.74723815917969,-0.15731136194309603,0.9014797518247987,179.1006618748525,18.281704,2.288963,13.46425,7.2634773,-25.31341,-8.215403,-25.423431,-7.0690293,-24.670141,6.674084,1.5606495,4.4359436,-7.3047442,-0.9619308,15.980727,8.385631,13.709078,-12.23071,57.70058,13.052837,6.300887,12.421742,7.987933,-8.278691,7.3755026,58.160164,5.302665,2.896024,-18.49305
79,-12.650479316711426,-1.54581618309021,74.57865142822266,0.004992704578526867,0.8135244391846195,179.14937764080003,18.945705,2.2578275,13.496442,7.2424197,-25.355236,-8.4789295,-25.768494,-7.3341336,-25.277273,6.6314416,1.1800709,4.771008,-7.4238544,-1.1928169,16.035265,8.574805,13.925599,-12.100625,57.546272,13.052834,6.3046203,12.354599,8.085115,-8.304479,7.518401,58.453583,5.2346244,2.815749,-18.373613
80,-13.281954765319824,-1.378945231437683,74.4176025390625,0.13827272618460443,0.7491570238635025,179.1749482895368,19.593035,2.268955,13.522732,7.223263,-25.321115,-8.782741,-26.059258,-7.553995,-25.986681,6.601522,0.82747024,4.9835424,-7.495314,-1.3387125,16.050741,8.652185,14.022512,-12.034947,57.555885,13.061645,6.307914,12.345433,8.165985,-8.314847,7.609931,58.763283,5.1125813,2.7957616,-18.304758
81,-13.919838905334473,-1.2090098857879639,74.26475524902344,0.2360428300752786,0.7161786268535454,179.17180376771708,20.215275,2.3307579,13.549071,7.206832,-25.215647,-9.138091,-26.304193,-7.7235355,-26.835741,6.586098,0.4979121,5.0322585,-7.5669765,-1.4834123,16.061213,8.830659,14.218582,-11.942281,57.453144,13.032205,6.292939,12.304425,8.207925,-8.326093,7.776544,59.039734,5.0029445,2.8930235,-18.245832
82,-14.576784133911133,-1.014244794845581,74.12313842773438,0.3059824375104827,0.7046521875797821,179.13955304356622,20.827656,2.430823,13.583581,7.189157,-25.047365,-9.540081,-26.492937,-7.851219,-27.822733,6.5842657,0.18871868,4.969587,-7.5927305,-1.5703475,16.047337,8.955987,14.362065,-11.890371,57.431015,12.992947,6.2727222,12.291751,8.226853,-8.324142,7.9220586,59.32764,4.848995,3.06302,-18.211758
83,-15.255668640136719,-0.8148996829986572,73.98762512207031,0.3558385046025917,0.7098860291090865,179.08242129060807,21.434187,2.556787,13.61872,7.1772494,-24.80676,-9.9670515,-26.619432,-7.93118,-28.860554,6.594867,-0.09418707,4.844344,-7.6017065,-1.6194383,16.004667,9.072776,14.471643,-11.850737,57.453712,12.95596,6.2548757,12.28868,8.235947,-8.317103,8.056455,59.624863,4.6660056,3.2217758,-18.204443
84,-15.94637680053711,-0.5936132669448853,73.85615539550781,0.3931629274638264,0.7259861573219631,179.00473718267375,22.04348,2.6964881,13.645948,7.1680746,-24.475752,-10.396829,-26.676874,-7.956767,-29.861755,6.610682,-0.33979926,4.704827,-7.610846,-1.6485933,15.929913,9.214305,14.566619,-11.811427,57.49336,12.928786,6.2480283,12.279432,8.254191,-8.304038,8.17497,59.9257,4.46358,3.2845006,-18.228926
85,-16.663799285888672,-0.3740568459033966,73.73226165771484,0.4202723010032103,0.7556079513077723,178.9049805745376,22.654625,2.8471777,13.657675,7.1606374,-24.062422,-10.827155,-26.675913,-7.9260817,-30.830902,6.631924,-0.5514625,4.5591435,-7.6294713,-1.6931952,15.8264675,9.431862,14.708897,-11.7514715,57.490055,12.908519,6.2553144,12.23988,8.269488,-8.265905,8.30465,60.250435,4.256348,3.2096446,-18.278866
86,-17.40291404724121,-0.15039968490600586,73.6162338256836,0.4333344487368405,0.7989473747552905,178.7799968565498,23.265747,3.015434,13.660455,7.155818,-23.569658,-11.26617,-26.618484,-7.839802,-31.802504,6.664684,-0.7349411,4.3815665,-7.6264796,-1.6995238,15.689126,9.630325,14.807107,-11.716507,57.550186,12.902182,6.2742815,12.208191,8.289401,-8.222114,8.398033,60.594566,4.0197,3.0490808,-18.35729
87,-18.15962791442871,0.09622206538915634,73.503173828125,0.42894347607936045,0.8497104721357694,178.63381251775283,23.881367,3.2069466,13.664836,7.153424,-22.980104,-11.709079,-26.48375,-7.692502,-32.73771,6.706812,-0.8818191,4.1682467,-7.6143627,-1.6825358,15.524171,9.848986,14.891823,-11.684698,57.626522,12.894009,6.296699,12.176172,8.322165,-8.167744,8.4717655,60.917103,3.752933,2.8573043,-18.475645
88,-18.937822341918945,0.3498806655406952,73.39952087402344,0.4024954857733615,0.9013322291738063,178.47074553681765,24.506317,3.427113,13.682193,7.155377,-22.279072,-12.151955,-26.252481,-7.4784737,-33.598694,6.7583838,-0.9841479,3.91534,-7.5886683,-1.6512638,15.336084,10.10247,14.985028,-11.653975,57.696854,12.869113,6.315821,12.14312,8.37868,-8.0860405,8.516224,61.181717,3.442797,2.6876602,-18.648756
89,-19.733121871948242,0.6165602207183838,73.30377960205078,0.3807276867563218,0.9379001735190884,178.3100344816941,25.162241,3.643884,13.701269,7.1585183,-21.482227,-12.597329,-25.877302,-7.230034,-34.411106,6.8247523,-1.122174,3.7411351,-7.5591397,-1.6399026,15.129661,10.390109,15.095181,-11.646056,57.769825,12.809648,6.3373713,12.118253,8.466892,-7.9565663,8.509268,61.38043,3.0603015,2.552658,-18.898912
90,-20.560697555541992,0.8909766674041748,73.216796875,0.35467901837739124,0.9651161132653578,178.14366420191652,25.84183,3.8676686,13.719651,7.1653905,-20.592813,-13.044545,-25.382473,-6.931457,-35.182888,6.9047537,-1.2732595,3.6080494,-7.5362444,-1.5993924,14.902651,10.691438,15.164881,-11.656332,57.87293,12.733343,6.361959,12.105562,8.592364,-7.8417697,8.465147,61.513805,2.6291044,2.4285126,-19.201944
91,-21.41815757751465,1.1753486394882202,73.14079284667969,0.268010115709994,1.0077086702490092,177.9372332693282,26.51153,4.1618752,13.762077,7.1796417,-19.574286,-13.4887905,-24.853607,-6.509648,-35.848145,6.9863577,-1.2735332,3.2792685,-7.457659,-1.5048012,14.649753,10.995981,15.2404175,-11.668836,57.990265,12.662861,6.3787847,12.087115,8.72719,-7.6827526,8.384905,61.62201,2.1736588,2.3044472,-19.540598
92,-22.296117782592773,1.4775171279907227,73.1011962890625,0.060911236588649456,1.0883124803795043,177.6600997165747,27.13806,4.5903335,13.85317,7.2121415,-18.396252,-13.930017,-24.374475,-5.896341,-36.347454,7.0585194,-0.9571406,2.5176153,-7.3173084,-1.2419486,14.370125,11.2979,15.266073,-11.650067,58.110912,12.628535,6.372494,12.044159,8.890685,-7.594492,8.30904,61.666367,1.7648826,2.1792884,-19.849955
93,-23.19499969482422,1.7896113395690918,73.09192657470703,-0.3253697490192547,1.2277289092678736,177.32235785654336,27.706203,5.227564,14.024648,7.2722507,-17.07251,-14.420857,-23.95713,-5.045164,-36.706703,7.1170783,-0.15710905,1.1117132,-7.07877,-0.7928354,14.040305,11.570398,15.288847,-11.6395,58.267097,12.642299,6.326758,11.968312,9.074253,-7.46026,8.1883955,61.676907,1.3417195,2.0502286,-20.175827
94,-24.125635147094727,2.0940208435058594,73.09810638427734,-0.8525593585387408,1.4034182062336977,176.95598083631802,28.239758,6.0254936,14.240256,7.366145,-15.62265,-14.959263,-23.55924,-4.0155816,-36.987885,7.170743,1.0143832,-0.75592685,-6.7868853,-0.1901477,13.670468,11.82924,15.301363,-11.639822,58.450367,12.685391,6.253311,11.869895,9.287576,-7.3042517,8.030893,61.640186,0.90397966,1.9217336,-20.521538
95,-25.059986114501953,2.4260058403015137,73.13935852050781,-1.3806628314236722,1.6104746419813172,176.578951356585,28.441702,6.80556,14.287357,8.034788,-14.293608,-15.000033,-23.901417,-3.5149417,-37.108917,9.037064,1.3559545,-2.7083921,-6.4855156,0.4286995,13.258478,12.092207,15.292706,-11.59039,58.625572,12.747258,6.187484,11.774184,9.483451,-7.150732,7.8796463,61.608513,0.5196871,1.7823672,-20.847528
96,-25.989547729492188,2.7854549884796143,73.19457244873047,-1.8647426456591993,1.7856066753701718,176.17147976584374,28.004837,7.6742244,14.169953,10.094565,-13.489793,-15.000033,-24.282017,-3.0630293,-37.098755,10.990414,1.4515785,-4.4395165,-6.186643,1.0041121,12.871663,12.387972,15.253785,-11.426559,58.744686,12.815797,6.1641316,11.702303,9.623741,-7.03727,7.784377,61.619854,0.26383266,1.6201249,-21.107098
97,-26.934280395507812,3.1369094848632812,73.25799560546875,-2.3333398612320644,1.9504991328978432,175.7149113026389,27.500809,8.51754,13.955647,12.246948,-12.498646,-15.000033,-24.583853,-2.5047994,-36.905754,12.643911,1.457422,-5.9199533,-5.873528,1.5558717,12.48243,12.69215,15.166251,-11.128746,58.842205,12.928303,6.213458,11.683002,9.685939,-6.929476,7.7489877,61.700806,0.19530533,1.4077226,-21.315418
98,-27.886289596557617,3.4786477088928223,73.32696533203125,-2.831870927170764,2.127745847912962,175.2260390404246,26.885496,9.393191,13.655894,14.542488,-11.365931,-15.000033,-24.859264,-1.8577648,-36.571304,14.16156,1.4077637,-7.3254466,-5.5541134,2.146492,12.071333,13.009183,15.035484,-10.733911,58.915405,13.0732155,6.308451,11.690714,9.706581,-6.8544903,7.7559586,61.805305,0.2721335,1.1592075,-21.474277
99,-28.837961196899414,3.8290250301361084,73.40276336669922,-3.3334255934834784,2.2719115349034325,174.73043795339646,26.181356,10.272009,13.270593,17.013918,-10.14,-15.000033,-25.016027,-1.1528738,-36.182735,15.513684,1.2527387,-8.645746,-5.2620616,2.7374692,11.689257,13.355381,14.858155,-10.240859,58.945335,13.201227,6.4052634,11.70641,9.663601,-6.807168,7.805866,61.968636,0.36716554,0.91838336,-21.584856
100,-29.772668838500977,4.18947172164917,73.49029541015625,-3.808186797611941,2.334613593889573,174.2523439888886,25.420353,11.122025,12.797623,19.683453,-8.863953,-15.000033,-24.962238,-0.41153154,-35.82133,16.648193,0.9660836,-9.85998,-5.0296264,3.2881045,11.393152,13.749091,14.634496,-9.647593,58.908978,13.262326,6.4599085,11.71061,9.535721,-6.783663,7.899304,62.224476,0.3545393,0.7298835,-21.648388
101,-30.713525772094727,4.549062728881836,73.58545684814453,-4.254061435597883,2.3063499078500858,173.75381858473312,24.63797,11.93746,12.26721,22.541288,-7.539026,-15.000033,-24.725344,0.38351685,-35.44257,17.62052,0.49653646,-10.990078,-4.8371186,3.790452,11.189205,14.233107,14.347584,-8.865791,58.773952,13.241401,6.462047,11.706153,9.2967,-6.7831974,8.059266,62.636772,0.19744009,0.5945859,-21.624765
102,-31.658252716064453,4.9047393798828125,73.69828033447266,-4.687727320029748,2.2112787175408637,173.22557732552576,23.82503,12.72444,11.655264,25.53466,-6.1186132,-15.000033,-24.34305,1.2433726,-34.995556,18.44224,-0.12611064,-12.030035,-4.6710567,4.270509,11.051264,14.775006,13.991073,-7.9196987,58.569164,13.168644,6.4348235,11.703401,8.9604025,-6.808503,8.282495,63.17445,-0.035057683,0.49226382,-21.52929
103,-32.60814666748047,5.270506381988525,73.82881927490234,-5.102228525814243,2.0495594976327776,172.73478614486203,22.948452,13.462306,10.882129,28.626896,-4.575659,-15.000033,-23.744316,2.1442988,-34.551094,18.985247,-0.78560036,-12.910644,-4.566536,4.733764,10.996054,15.288275,13.5952,-6.98248,58.35292,13.057962,6.3843307,11.690633,8.57176,-6.856103,8.524713,63.722656,-0.31067914,0.43640295,-21.44396
104,-33.54762268066406,5.632503032684326,73.98269653320312,-5.397815543819808,1.8433730946028424,172.3562486738801,21.955854,14.011222,9.952423,31.739191,-2.8512712,-14.586918,-22.971172,2.904411,-34.140213,19.335182,-1.4546325,-13.546704,-4.5543084,5.0926046,11.016113,15.697766,13.214493,-6.2372775,58.170525,12.91737,6.316275,11.6515,8.177847,-6.913574,8.729203,64.16505,-0.6010229,0.4383254,-21.448889
105,-34.47371292114258,6.001889705657959,74.15190124511719,-5.639243722878391,1.543320897715812,172.09864706854506,20.834127,14.471348,8.788299,35.045544,-0.88067245,-13.973442,-21.837538,3.6779802,-33.824455,19.205872,-2.033478,-13.881324,-4.629063,5.3914623,11.175499,16.020311,12.887661,-5.710462,57.999107,12.673758,6.209728,11.554133,7.7858825,-6.9619446,8.873893,64.48475,-0.9563056,0.5336709,-21.589273
106,-35.38892364501953,6.37293004989624,74.33421325683594,-5.833372882840729,1.1553904552842855,171.92142122468871,19.609978,14.854131,7.445787,38.526516,1.2915591,-13.266948,-20.397112,4.486512,-33.557453,18.670982,-2.5682077,-13.974142,-4.754009,5.62083,11.458544,16.290047,12.620618,-5.3275495,57.813534,12.336163,6.0689526,11.40661,7.379395,-6.9907165,8.974068,64.73574,-1.3759253,0.7047345,-21.811678
107,-36.289268493652344,6.75663948059082,74.5213394165039,-5.990227803951177,0.7293127332950441,171.81096896768656,18.310663,15.174204,6.057636,42.013443,3.4358544,-12.649537,-18.79704,5.2989135,-33.318336,17.883976,-3.0459177,-13.950513,-4.902887,5.795224,11.806339,16.469414,12.419625,-5.1189356,57.64814,12.036721,5.937779,11.254374,6.9741845,-7.0050254,9.029955,64.89529,-1.7563156,0.8895916,-22.049124
108,-37.17495346069336,7.13481330871582,74.70205688476562,-6.125754482424987,0.31417526098583476,171.75531575197624,16.948069,15.452652,4.7314453,45.382072,5.2938704,-12.311123,-17.18677,6.0792665,-33.089638,17.009106,-3.4580848,-13.928079,-5.0453615,5.938876,12.160125,16.51782,12.293635,-5.1220264,57.53826,11.905032,5.8586946,11.141157,6.5922337,-7.0166407,9.037003,64.93453,-1.9925867,1.0240811,-22.232265
109,-38.03462219238281,7.506624698638916,74.87906646728516,-6.242332522913968,-0.0948205955432742,171.78646336126383,15.462612,15.677081,3.3951528,48.750977,7.0032153,-12.391472,-15.559184,6.8183417,-32.88733,16.04577,-3.8044548,-13.924847,-5.23598,6.041844,12.536594,16.428448,12.264872,-5.3870044,57.502384,11.9811,5.839073,11.073477,6.229162,-7.0222754,8.999512,64.82451,-2.0062778,1.0938553,-22.347788
110,-38.86073684692383,7.878664970397949,75.04737091064453,-6.3283937775266494,-0.5197097188933705,171.89672457508766,13.855064,15.822421,2.0056474,52.194954,8.598902,-12.765089,-13.843893,7.5288115,-32.70883,14.915806,-4.0861425,-13.877107,-5.4128585,6.1307807,12.945045,16.157337,12.293066,-5.9697385,57.58047,12.176854,5.8624926,11.05579,5.910582,-7.03363,8.841595,64.5695,-1.8906806,1.1304656,-22.431831
111,-39.66080856323242,8.242450714111328,75.19921875,-6.372959140009436,-0.9359156007644882,172.00952028323385,12.236729,15.904101,0.721501,55.50994,9.672375,-13.217994,-12.103485,8.199919,-32.504604,13.685949,-4.3032465,-13.777891,-5.512267,6.165289,13.346236,15.786259,12.400645,-6.6701274,57.67025,12.470062,5.9162817,11.040542,5.6262145,-7.050502,8.650204,64.222145,-1.7346375,1.1401657,-22.475748
112,-40.44465637207031,8.611623764038086,75.33670043945312,-6.3681372653110175,-1.3180709858208204,172.04895363317138,10.717444,15.971582,-0.28822672,58.482185,9.820578,-13.5198,-10.399491,8.827253,-32.230362,12.417193,-4.454331,-13.626683,-5.499954,6.136027,13.697979,15.393796,12.529892,-7.2742896,57.690365,12.860016,5.9941735,11.017389,5.335533,-7.077688,8.532534,63.872784,-1.6334467,1.1289532,-22.49419
113,-41.22591781616211,8.965211868286133,75.47161102294922,-6.324241315661047,-1.6613979100967287,172.0197841262644,9.356931,16.057959,-0.9984861,61.047142,8.593003,-13.649901,-8.717082,9.435469,-31.905567,11.062094,-4.5136356,-13.417774,-5.371584,6.0719366,13.993534,14.949815,12.657067,-7.797319,57.669437,13.423038,6.113633,10.995646,5.051466,-7.130265,8.488403,63.506863,-1.5819783,1.0870136,-22.473173
114,-41.99392318725586,9.300413131713867,75.60359954833984,-6.237368778479949,-1.9764254491403657,171.95314378492284,8.077256,16.152075,-1.4909695,63.338444,6.309348,-13.717809,-7.0392637,10.011829,-31.547293,9.619891,-4.496585,-13.159152,-5.1682987,5.9776387,14.252792,14.436643,12.779141,-8.307069,57.636276,14.146962,6.272832,10.9843445,4.7737107,-7.21362,8.495358,63.100903,-1.5353984,1.0159644,-22.41509
115,-42.75958251953125,9.628311157226562,75.73259735107422,-6.085298343428087,-2.2614426311525166,171.81286630168609,6.7855606,16.25059,-1.7611284,65.42415,3.7343075,-13.68482,-5.4245267,10.503603,-31.112938,8.221182,-4.4682827,-12.87592,-4.8814197,5.829712,14.472121,13.919016,12.884178,-8.724209,57.529327,14.882464,6.4377294,10.975195,4.4706125,-7.328731,8.568908,62.70509,-1.5433068,0.93925524,-22.34973
116,-43.50197219848633,9.94051742553711,75.85871887207031,-5.85347757066834,-2.515214694835645,171.56369327182026,5.398828,16.356396,-1.8049603,67.360725,1.633049,-13.504474,-3.9679763,10.841728,-30.572735,7.0883727,-4.541622,-12.591266,-4.512612,5.611281,14.651336,13.466023,12.9546795,-8.9585285,57.285538,15.483374,6.5742235,10.963091,4.1082907,-7.4730067,8.7354,62.366207,-1.654259,0.8858131,-22.309109
117,-44.25000762939453,10.2454195022583,75.98860931396484,-5.528294287925141,-2.7340840444298293,171.18367409160845,3.9008725,16.499857,-1.5465832,69.15018,0.18768093,-13.158968,-2.9888399,10.82834,-29.959906,6.976298,-5.1043005,-12.2905035,-4.0412807,5.310163,14.788607,13.0801735,12.97666,-8.954191,56.89159,15.955157,6.6971574,10.933641,3.6754124,-7.6526723,9.027924,62.103287,-1.9107906,0.85562885,-22.314857
118,-44.98017883300781,10.554604530334473,76.11149597167969,-5.129188948672818,-2.9186906660196206,170.6960770609897,2.351759,16.685,-1.0147502,70.75576,-1.0041021,-12.6765585,-2.0668344,10.744338,-29.237951,6.8735294,-5.635549,-11.983304,-3.4871461,4.9514894,14.89009,12.731102,12.947891,-8.757595,56.384266,16.366585,6.8168178,10.897822,3.1856256,-7.870254,9.4378395,61.893776,-2.274453,0.83732873,-22.346645
119,-45.700313568115234,10.853763580322266,76.23072052001953,-4.694577235831368,-3.0754066056701928,170.13531925964506,0.7849341,16.87769,-0.3561853,72.16865,-2.056719,-12.06971,-1.1856258,10.623919,-28.451212,6.7744446,-6.147296,-11.6898575,-2.9072149,4.5715914,14.967815,12.435871,12.875419,-8.435666,55.776867,16.665337,6.893271,10.89177,2.6400025,-8.117604,9.921153,61.730495,-2.6760702,0.8374892,-22.374746
120,-46.41319274902344,11.151179313659668,76.34233093261719,-4.260057830215518,-3.2109266313944547,169.5362757922408,-0.77466273,17.029142,0.28067926,73.37781,-3.079006,-11.357448,-0.33079216,10.49671,-27.64329,6.67183,-6.6500697,-11.427352,-2.3540568,4.2020335,15.031232,12.212588,12.771957,-8.059692,55.079082,16.796917,6.8871827,10.950139,2.041707,-8.377844,10.429462,61.603878,-3.04792,0.8620772,-22.369858
121,-47.12342834472656,11.461533546447754,76.44039916992188,-3.819007095404716,-3.3206593237283,168.89040342859738,-2.3371139,17.102964,0.8876207,74.39055,-4.0742064,-10.486212,0.48745343,10.356165,-26.803566,6.574577,-7.1437945,-11.199828,-1.8160414,3.8261158,15.070195,12.083381,12.645986,-7.61341,54.25716,16.67,6.7656,11.098218,1.3826619,-8.640707,10.97117,61.53371,-3.3809152,0.9167984,-22.328259
122,-47.828121185302734,11.760177612304688,76.52804565429688,-3.3526548951199215,-3.402278934395445,168.18688352214903,-3.906855,17.11651,1.5403953,75.21108,-4.9993963,-9.474879,1.261414,10.182297,-25.916832,6.494304,-7.629317,-10.995541,-1.2692672,3.4227169,15.084974,12.035318,12.499637,-7.0754776,53.313778,16.33699,6.556268,11.309734,0.6661379,-8.904411,11.562141,61.518867,-3.7104344,0.99612725,-22.265003
123,-48.53144454956055,12.063400268554688,76.6072769165039,-2.9073762154240224,-3.4682788980767225,167.45703912399836,-5.4587493,17.121372,2.1979795,75.81769,-5.8832574,-8.463763,1.9611741,9.99284,-25.03403,6.537233,-8.170285,-10.808855,-0.74390674,3.0445876,15.099303,12.031578,12.337748,-6.512813,52.31374,15.958584,6.3111153,11.543298,-0.08947406,-9.16782,12.158678,61.52125,-4.03904,1.0890187,-22.180357
124,-49.23261260986328,12.363369941711426,76.6768569946289,-2.4800453448067046,-3.529448534548665,166.72884216070065,-6.963313,17.11883,2.85001,76.18348,-6.749678,-7.5783796,2.65814,9.801682,-24.175804,6.5767417,-8.706513,-10.630544,-0.26058367,2.6957312,15.131277,12.033129,12.16978,-5.9980555,51.32222,15.692777,6.083542,11.758377,-0.8624711,-9.429079,12.710852,61.49859,-4.3692894,1.184276,-22.073854
125,-49.93203353881836,12.658312797546387,76.73815155029297,-2.0679836496885082,-3.5862083584222146,166.0055331729482,-8.42053,17.106133,3.508461,76.29357,-7.603998,-6.862113,3.3504255,9.603958,-23.354004,6.618221,-9.241498,-10.464909,0.18029721,2.3744185,15.181659,12.038785,12.001311,-5.5456257,50.328964,15.558947,5.8748784,11.95309,-1.6510942,-9.687378,13.193611,61.441147,-4.7344975,1.2838916,-21.934654
126,-50.62059783935547,12.951310157775879,76.78872680664062,-1.6645647834848936,-3.6330992504543356,165.27425266520046,-9.839095,17.06392,4.18762,76.15496,-8.423967,-6.248927,4.034,9.398109,-22.549181,6.6574483,-9.770146,-10.313119,0.5945131,2.068907,15.239922,12.065963,11.833803,-5.1259155,49.307,15.477368,5.6612535,12.144924,-2.4617507,-9.941887,13.631579,61.367382,-5.123303,1.3913336,-21.76519
127,-51.312129974365234,13.241703987121582,76.82948303222656,-1.2784601999052547,-3.674359413359947,164.53866992721808,-11.211157,16.989523,4.864898,75.788536,-9.198118,-5.7062235,4.7122793,9.193157,-21.750982,6.696473,-10.292657,-10.165749,0.9837713,1.7857437,15.309276,12.101493,11.670415,-4.7434807,48.29786,15.456485,5.459478,12.325035,-3.2883666,-10.19165,14.0472975,61.27988,-5.4735518,1.4983627,-21.586044
128,-52.00132751464844,13.52549934387207,76.86398315429688,-0.9177193437652221,-3.714284013873787,163.80244604142254,-12.529964,16.88178,5.515401,75.21574,-9.916001,-5.1993628,5.3918524,8.999012,-20.949308,6.7333,-10.80894,-10.012474,1.3519639,1.5311579,15.392673,12.130908,11.5159445,-4.4039154,47.34368,15.504228,5.2865796,12.484568,-4.124338,-10.436296,14.461314,61.179825,-5.7229514,1.5974259,-21.418009
129,-52.69013595581055,13.817543029785156,76.88693237304688,-0.5848787645542304,-3.751534333621808,163.06502073280524,-13.809301,16.741405,6.137862,74.43534,-10.603228,-4.7105284,6.0673895,8.818526,-20.13628,6.7722898,-11.314402,-9.847153,1.6988654,1.3074481,15.488729,12.151092,11.375916,-4.1147256,46.439976,15.65861,5.1486316,12.617225,-4.9789963,-10.678002,14.877281,61.067856,-5.8275332,1.6925809,-21.262411
130,-53.3790397644043,14.108821868896484,76.89994049072266,-0.2732364518988758,-3.785216237437333,162.32489919173045,-15.046896,16.56181,6.747204,73.434105,-11.252581,-4.2637997,6.740973,8.646026,-19.319998,6.808186,-11.80909,-9.6751375,2.02486,1.1082401,15.5960655,12.168653,11.250154,-3.871991,45.569134,15.901472,5.0361943,12.728407,-5.8512397,-10.915675,15.283069,60.940228,-5.8287163,1.7866558,-21.109196
131,-54.06119155883789,14.391155242919922,76.89629364013672,0.021169360296150526,-3.8208122860598093,161.58335370399936,-16.216732,16.336773,7.338962,72.221245,-11.8076515,-3.8832521,7.420154,8.475652,-18.51522,6.8444886,-12.309644,-9.503347,2.333702,0.9268233,15.71735,12.182265,11.133336,-3.6622708,44.75454,16.157629,4.9430666,12.827436,-6.720869,-11.144102,15.6748295,60.795517,-5.795084,1.8705885,-20.96376
132,-54.756134033203125,14.677774429321289,76.88311767578125,0.30303810371446244,-3.8638073255513907,160.84168267567847,-17.292532,16.063017,7.908816,70.80459,-12.211003,-3.5898743,8.114018,8.3013315,-17.736223,6.8808446,-12.830585,-9.338512,2.6280382,0.7565183,15.855409,12.190951,11.018047,-3.4706817,44.020176,16.352741,4.8628,12.924135,-7.571055,-11.356408,16.051514,60.635883,-5.793258,1.9351916,-20.832396
133,-55.45187759399414,14.957530975341797,76.85599517822266,0.5774710863765774,-3.918088928434503,160.0887151734453,-18.273464,15.745402,8.458316,69.18328,-12.444501,-3.3900094,8.823727,8.1103,-16.9859,6.9178767,-13.384721,-9.16868,2.911719,0.59392023,16.013952,12.194811,10.897212,-3.291432,43.367798,16.467613,4.7978964,13.026362,-8.40701,-11.549419,16.402908,60.462955,-5.83853,1.9712319,-20.722456
134,-56.14137649536133,15.246583938598633,76.82360076904297,0.8414388997461318,-3.9803957501597917,159.32684770022345,-19.171936,15.386366,8.988747,67.352325,-12.538058,-3.267872,9.544979,7.9087114,-16.25778,6.9544287,-13.960551,-8.99417,3.1800854,0.44348648,16.189611,12.19336,10.7714615,-3.1296968,42.78811,16.544098,4.750525,13.128689,-9.240351,-11.723853,16.734575,60.28181,-5.8964834,1.9858409,-20.630703
135,-56.84071731567383,15.542279243469238,76.79010009765625,1.0870664511348607,-4.045324652286168,158.57790065354894,-19.982101,14.982041,9.492236,65.31271,-12.505598,-3.2083888,10.276487,7.7172,-15.55038,6.9901905,-14.536939,-8.838406,3.4215496,0.3082867,16.373516,12.186258,10.647302,-2.9857004,42.28683,16.599342,4.713942,13.220282,-10.063291,-11.880764,17.066166,60.099964,-5.963543,1.9940262,-20.54728
136,-57.532257080078125,15.843059539794922,76.74385070800781,1.3058278191696904,-4.107721088134221,157.86376521216533,-20.69941,14.532022,9.958728,63.064938,-12.362427,-3.195055,11.014321,7.5542817,-14.861618,7.0260854,-15.091509,-8.723115,3.625777,0.1902732,16.55696,12.173452,10.533913,-2.859815,41.868923,16.64966,4.681279,13.289674,-10.867167,-12.020768,17.41792,59.923706,-6.0348434,2.0107372,-20.461977
137,-58.23565673828125,16.14334487915039,76.68292236328125,1.4938338574283707,-4.167282212319745,157.18433667301437,-21.343317,14.055734,10.36708,60.622215,-12.125302,-3.1629972,11.754267,7.421367,-14.182373,7.061373,-15.612606,-8.656339,3.7978513,0.08591689,16.742062,12.150593,10.444063,-2.7557802,41.53877,16.693888,4.652773,13.331505,-11.661055,-12.136609,17.795092,59.761837,-6.1032305,2.0395432,-20.375786
138,-58.94349670410156,16.450923919677734,76.61093139648438,1.6556514869333958,-4.227495607908968,156.52927389506277,-21.909464,13.555234,10.721869,57.977306,-11.783608,-3.1340895,12.497497,7.3048162,-13.514932,7.095284,-16.112427,-8.621262,3.9316561,0.0009920548,16.933619,12.122517,10.359057,-2.662047,41.28917,16.729221,4.630262,13.3507805,-12.442884,-12.244547,18.199478,59.598423,-6.1669607,2.0734997,-20.290894
139,-59.65412902832031,16.77149772644043,76.52300262451172,1.7955839558435671,-4.2891081807417475,155.90540922083767,-22.361498,13.008564,11.045924,55.10045,-11.313006,-3.2198186,13.248549,7.2005286,-12.8740425,7.128381,-16.603037,-8.602829,4.0461006,-0.076593265,17.119352,12.085281,10.301704,-2.6027086,41.121647,16.744146,4.612541,13.355087,-13.188779,-12.321511,18.584398,59.432587,-6.2548337,2.1077948,-20.20506
140,-60.3737907409668,17.09218406677246,76.42105102539062,1.9161306269580485,-4.353143856580887,155.31902646228295,-22.662596,12.398615,11.358187,51.95389,-10.682999,-3.5297053,14.01594,7.1086016,-12.274148,7.158457,-17.097008,-8.587017,4.1191044,-0.14075963,17.292336,12.054774,10.252264,-2.5585165,41.022297,16.745274,4.5952363,13.34696,-13.878877,-12.384829,18.958643,59.245434,-6.374034,2.140698,-20.112944
141,-61.10837936401367,17.41069984436035,76.30390167236328,2.021438225507523,-4.418001592653276,154.77691943289045,-22.813126,11.729966,11.616634,48.474743,-9.846166,-4.0748887,14.7943,7.0243893,-11.716836,7.18744,-17.600725,-8.575932,4.159729,-0.1998664,17.450289,12.018766,10.224073,-2.546791,41.00169,16.706411,4.5718727,13.320295,-14.517129,-12.426706,19.301712,59.04661,-6.5437446,2.1661644,-20.01582
142,-61.848716735839844,17.745994567871094,76.1751937866211,2.106508627867109,-4.485016770128608,154.27204593589994,-22.820662,11.02651,11.809688,44.67484,-8.825838,-4.7899823,15.584121,6.95069,-11.192428,7.2136073,-18.105705,-8.574572,4.1718955,-0.24790515,17.598532,11.974944,10.214302,-2.5645356,41.061546,16.636412,4.5459356,13.274984,-15.109207,-12.451137,19.620394,58.835403,-6.7531137,2.1872318,-19.91437
143,-62.60179901123047,18.08446502685547,76.0361099243164,2.1604753293783454,-4.560125763855848,153.78855551973584,-22.662153,10.305505,11.998957,40.616905,-7.6989045,-5.666483,16.397457,6.9018855,-10.697941,7.2362657,-18.602926,-8.575437,4.168901,-0.2699707,17.736284,11.934929,10.215574,-2.6083486,41.191116,16.579302,4.53228,13.230593,-15.63645,-12.4626045,19.91019,58.600365,-6.984057,2.2127352,-19.804947
144,-63.36306381225586,18.43349266052246,75.87670135498047,2.1708586007241872,-4.649167115528514,153.30965005798558,-22.31699,9.590598,12.247957,36.356106,-6.541226,-6.6925244,17.247246,6.8947635,-10.228366,7.2544246,-19.083086,-8.571733,4.154932,-0.2523236,17.85903,11.91992,10.2231245,-2.670045,41.375347,16.572802,4.5453134,13.20647,-16.085073,-12.46215,20.186073,58.335186,-7.2110143,2.2523863,-19.688723
145,-64.13806915283203,18.79203224182129,75.69569396972656,2.123714856363024,-4.759344088823145,152.82102179843776,-21.734297,8.935756,12.58375,31.765244,-5.3596992,-7.86436,18.143875,6.950386,-9.771775,7.265144,-19.563526,-8.5741825,4.1698027,-0.1729779,17.980421,11.898808,10.234078,-2.770935,41.63812,16.661339,4.597835,13.213972,-16.43502,-12.451401,20.373842,58.011772,-7.471286,2.312411,-19.545832
146,-64.92859649658203,19.160884857177734,75.49549102783203,2.0130702324488965,-4.8894733553602485,152.321744040733,-20.90329,8.354969,12.961455,26.768745,-4.088875,-9.166048,19.08186,7.0732417,-9.316335,7.2693853,-20.04017,-8.586404,4.1782765,-0.034501217,18.076323,11.918485,10.260746,-2.913915,41.9597,16.778084,4.6833196,13.250467,-16.730185,-12.411803,20.573748,57.691006,-7.7182636,2.389109,-19.406332
147,-65.7301025390625,19.548566818237305,75.27684783935547,1.8299932795917975,-5.036238393427071,151.80615483110458,-19.85952,7.8300395,13.341185,21.4951,-2.6961796,-10.566842,20.060692,7.2665224,-8.845946,7.26443,-20.46857,-8.593185,4.224921,0.17639604,18.16093,11.94683,10.29423,-3.077568,42.337055,16.913727,4.77793,13.289743,-16.947468,-12.358696,20.721176,57.35785,-7.9876413,2.4650218,-19.260788
148,-66.55300903320312,19.94938087463379,75.03916931152344,1.553611206465309,-5.195795823797639,151.26138076965546,-18.649794,7.365415,13.681843,16.099361,-1.1690127,-12.042143,21.078382,7.546696,-8.335028,7.245769,-20.800833,-8.582631,4.315685,0.47212693,18.212938,12.018783,10.346947,-3.252886,42.738945,17.003216,4.863727,13.319784,-17.109703,-12.274377,20.875795,57.06979,-8.242106,2.5269744,-19.1364
149,-67.39251708984375,20.362165451049805,74.77806854248047,1.1188432844200964,-5.380520427747053,150.66020554636376,-17.204971,7.0114856,14.01445,10.409638,0.5687205,-13.695508,22.154593,7.990655,-7.751568,7.2124515,-21.034353,-8.563087,4.4692473,0.9459188,18.240765,12.140653,10.385589,-3.4343557,43.158848,17.065962,4.9376287,13.332531,-17.186834,-12.21766,21.05694,56.77255,-8.465725,2.5806909,-19.024294
150,-68.2613754272461,20.766748428344727,74.48881530761719,0.5440161214461539,-5.593633020136127,150.03224540466846,-16.596096,7.0251265,14.235909,6.6944585,1.2430352,-15.000033,23.283726,8.565451,-7.1204734,7.1841087,-21.20177,-8.528297,4.6558533,1.5811,18.245258,12.314423,10.41456,-3.6297925,43.60122,17.117416,5.009659,13.337564,-17.182545,-12.1779785,21.249357,56.466965,-8.671099,2.630995,-18.917124
151,-69.16220092773438,21.155933380126953,74.19322967529297,-0.007774287040138045,-5.809491104117295,149.48325466350855,-17.46211,7.3091607,14.19996,6.3370037,0.1649901,-15.000033,24.41981,9.062859,-6.5532603,7.1832666,-21.313854,-8.432703,4.7797704,2.2007678,18.221579,12.526214,10.444601,-3.8407402,44.068382,17.121208,5.0780897,13.346653,-17.114195,-12.129866,21.446215,56.195763,-8.864065,2.66651,-18.824814
152,-70.07719421386719,21.555347442626953,73.9163818359375,-0.4915440137999366,-5.986383847828866,148.94442787902375,-18.285206,7.6096807,14.014909,6.173669,-0.9082548,-15.000033,25.511473,9.4437685,-5.968613,7.183206,-21.322348,-8.3073,4.911028,2.758172,18.16819,12.716367,10.445877,-4.029137,44.582577,17.089153,5.134163,13.3587,-16.959808,-12.106832,21.60846,55.917572,-9.063455,2.6768858,-18.731733
153,-71.01908874511719,21.95505714416504,73.6829833984375,-0.8298930767147332,-6.129558312519734,148.44805968750086,-18.986925,7.7063127,13.672075,5.989527,-1.8705356,-15.000033,26.566713,9.611914,-5.4206553,7.184733,-21.259579,-8.145836,5.0138397,3.1740704,18.096333,12.887565,10.424041,-4.2149982,45.14232,16.99511,5.1740603,13.386056,-16.739164,-12.090534,21.753202,55.660397,-9.277618,2.6452458,-18.656326
154,-71.9747314453125,22.360055923461914,73.4743881225586,-1.083514944949842,-6.2287583449453345,148.0122948902747,-19.654675,7.63012,13.199819,5.9050074,-2.79509,-15.000033,27.59323,9.644055,-4.931499,7.182899,-21.136898,-7.94129,5.070805,3.5006058,17.994442,13.035356,10.383845,-4.388485,45.753452,16.859205,5.1990304,13.41936,-16.452332,-12.080997,21.878836,55.412247,-9.500998,2.5803719,-18.594902
155,-72.94708251953125,22.763559341430664,73.29252624511719,-1.230112880833561,-6.296320776099278,147.62472757788262,-20.186861,7.4267306,12.770959,5.8901296,-3.566262,-15.000033,28.575605,9.54178,-4.502488,7.1938486,-20.901314,-7.676565,5.1010184,3.710448,17.866959,13.170345,10.328065,-4.547565,46.412476,16.691957,5.224164,13.454958,-16.095928,-12.075886,21.978462,55.189377,-9.703463,2.5132792,-18.538218
156,-73.92279815673828,23.179807662963867,73.13892364501953,-1.2993499514620845,-6.328790268603491,147.29174900395648,-20.484179,7.176423,12.518,5.880341,-4.0479164,-15.000033,29.478415,9.361482,-4.1373224,7.2564607,-20.5178,-7.3383713,5.1007442,3.8387427,17.685637,13.290286,10.232095,-4.7015047,47.146698,16.503262,5.267366,13.505843,-15.665088,-12.074102,22.062422,55.0228,-9.851089,2.4782417,-18.488913
157,-74.892578125,23.618650436401367,73.00231170654297,-1.332020547836337,-6.302972419225909,147.00495786220816,-20.480343,6.915592,12.595375,5.8497806,-4.300457,-15.000033,30.30746,9.151965,-3.8032186,7.3245826,-19.971748,-6.904576,5.075106,3.8813872,17.46487,13.455233,10.170196,-4.776223,47.85533,16.30082,5.3211446,13.517156,-15.186221,-12.069278,22.105444,54.884964,-9.93482,2.474214,-18.401726
158,-75.86968231201172,24.08099937438965,72.88353729248047,-1.3397816606249264,-6.2033651929963955,146.76178309160082,-20.271185,6.618631,12.891496,5.836833,-4.3407407,-15.000033,31.045254,8.914217,-3.4958508,7.3989053,-19.280745,-6.4004307,5.0328836,3.9163342,17.107038,13.590364,10.020779,-4.8824883,48.703136,16.070808,5.399419,13.588389,-14.584552,-12.062041,22.154114,54.788647,-9.974048,2.5108309,-18.347555
159,-76.85586547851562,24.544967651367188,72.8017349243164,-1.2248137193932631,-6.086996982889289,146.55236783503636,-19.879072,6.2003727,13.203226,5.7885413,-3.959717,-15.000033,31.743032,8.530885,-3.2567105,7.481811,-18.411526,-5.855894,4.9515023,3.8182774,16.756304,13.7318735,9.837222,-4.9310412,49.561275,15.844588,5.4804482,13.637279,-13.974672,-12.053915,22.182764,54.77802,-9.989435,2.5501986,-18.286488
160,-77.8425064086914,25.012413024902344,72.78124237060547,-0.9047512305682837,-5.978083595417952,146.3559511143533,-19.42224,5.6011434,13.307121,5.7659683,-3.0185142,-15.000033,32.09682,7.88509,-3.1613388,8.251813,-17.688316,-5.2973475,4.850277,3.5083106,16.434069,13.860359,9.620068,-4.947162,50.4456,15.622039,5.561487,13.66598,-13.329795,-12.037222,22.19995,54.844696,-9.999545,2.5877702,-18.248539
161,-78.83270263671875,25.5062198638916,72.81509399414062,-0.28460856370182763,-5.849777115377268,146.15772518871537,-18.93573,4.730728,13.05866,5.8099475,-1.1949177,-15.000033,31.727867,6.8608947,-3.2735395,10.504728,-17.5901,-4.677485,4.7794294,2.8588934,16.13631,13.981016,9.445293,-4.937495,51.328133,15.399313,5.6423254,13.639312,-12.585198,-12.014054,22.17203,54.907097,-10.024735,2.6220887,-18.229443
162,-79.83851623535156,26.038917541503906,72.87628173828125,0.6270539105627301,-5.688341916524916,145.9360294524528,-18.364567,3.5849967,12.5773325,5.8643003,1.3507314,-15.000033,31.153074,5.495139,-3.4614086,13.138242,-17.531187,-3.9879572,4.755906,1.9010996,15.834751,14.085727,9.266609,-4.9109383,52.24204,15.178136,5.7294683,13.584588,-11.765258,-11.982003,22.105215,55.00691,-10.055711,2.6601892,-18.225039
163,-80.87480926513672,26.5592098236084,72.98677825927734,1.7535826802027967,-5.533291213524233,145.65056190564195,-17.71322,2.2438207,12.064861,5.8802896,4.012478,-15.000033,30.416525,3.847643,-3.6262991,16.092113,-17.36136,-3.2935238,4.7836986,0.7430165,15.544612,14.185936,9.034498,-4.879679,53.194805,14.936094,5.8170886,13.536534,-10.948121,-11.930286,22.035322,55.246902,-10.050681,2.6997046,-18.23678
164,-81.95489501953125,27.056556701660156,73.0920639038086,3.0494100407566673,-5.412209709896715,145.41796961993035,-17.072744,0.53535175,11.99059,5.878763,6.133928,-12.677991,29.522734,1.940107,-3.8219142,19.406256,-17.008923,-2.5928197,4.691728,-0.5320743,15.250575,14.329653,8.688714,-4.8410807,54.17455,14.645888,5.8997436,13.531123,-10.233611,-11.8467655,22.032175,55.7619,-9.961516,2.7385676,-18.26975
165,-83.04225158691406,27.569664001464844,73.1847152709961,4.503235039463107,-5.332714385014381,145.10400669712013,-16.382711,-1.2679622,12.447436,5.8820696,7.5712047,-9.546039,28.586166,-0.20942485,-3.9210603,22.865263,-16.275764,-1.9344424,4.677524,-1.973091,14.972786,14.523568,8.394638,-4.833907,55.14575,14.206547,5.9542685,13.5374775,-9.496099,-11.767316,22.072472,56.402683,-9.723566,2.7621295,-18.317152
166,-84.14178466796875,28.078502655029297,73.3145751953125,6.1378856324584845,-5.279684963858916,144.70710434565652,-15.613781,-3.1768212,13.252935,5.885741,8.596162,-5.9981666,27.686108,-2.5797405,-3.9081812,26.323526,-15.16158,-1.2470337,4.7480183,-3.5982592,14.71537,14.745275,8.125218,-4.8526697,56.12762,13.661578,5.9914417,13.551558,-8.734701,-11.682535,22.129093,57.16519,-9.382631,2.7761433,-18.379042
167,-85.23681640625,28.552209854125977,73.4752426147461,7.7236270935845965,-5.255834196607737,144.25818361784798,-14.764459,-4.980439,14.167419,5.903875,9.122731,-2.7067218,26.87038,-4.842472,-3.6954684,29.579144,-13.63323,-0.5164998,4.869146,-5.1701493,14.495893,14.962812,7.8739986,-4.912879,57.108532,13.098226,6.028022,13.533395,-7.9722867,-11.583892,22.142061,58.033928,-9.00124,2.80455,-18.428047
168,-86.32063293457031,29.042335510253906,73.64248657226562,9.024546693734099,-5.264216852530947,143.79528105264026,-13.827722,-6.470207,14.917474,5.9321394,9.130045,-0.36635503,26.091219,-6.680938,-3.2197437,32.57228,-11.725686,0.23120232,5.007693,-6.44929,14.326614,15.139889,7.6453633,-5.0344424,58.07522,12.599368,6.0804033,13.44109,-7.2249002,-11.463718,22.044353,58.984684,-8.641321,2.8706493,-18.436268
169,-87.36649322509766,29.55588722229004,73.79811096191406,9.954197852803128,-5.3239687161651315,143.36643321389755,-12.7748,-7.590078,15.363591,5.970539,8.5054,0.6392161,25.313576,-8.007307,-2.4795687,35.35027,-9.436966,0.9659258,5.144855,-7.3481784,14.209396,15.253446,7.4472075,-5.2526646,59.06328,12.159114,6.1456637,13.251261,-6.462759,-11.314335,21.786522,60.03313,-8.330891,2.9614103,-18.389057
170,-88.39117431640625,30.090232849121094,73.9659423828125,10.621986085573743,-5.4240575213535,142.9662157139086,-11.607193,-8.428513,15.604091,6.020194,7.3544116,0.69373286,24.470238,-8.955803,-1.5445821,38.068596,-6.8195577,1.6965615,5.2807145,-7.982398,14.12597,15.320128,7.280874,-5.5497713,60.070778,11.7399845,6.2181897,12.990925,-5.6862545,-11.133158,21.40713,61.181908,-8.036613,3.070431,-18.30432
171,-89.3797836303711,30.631792068481445,74.14346313476562,11.092102799849098,-5.525585642606797,142.54965397757363,-10.388173,-9.003933,15.752278,6.0753927,6.0180163,0.27828717,23.441439,-9.574695,-0.4588876,40.861473,-4.0039268,2.4121497,5.411845,-8.424277,14.061,15.365108,7.140138,-5.8630576,61.02426,11.377798,6.3109217,12.6940775,-4.9564576,-10.922516,20.973791,62.385464,-7.728361,3.2311716,-18.204155
172,-90.33955383300781,31.174436569213867,74.34095764160156,11.433729070980071,-5.596654541843287,142.05859114240744,-9.192499,-9.360261,15.929995,6.126109,4.7955847,-0.08742628,22.12477,-9.925657,0.75048774,43.8558,-1.1078273,3.0814345,5.543513,-8.748253,14.010288,15.41425,7.013554,-6.125638,61.854755,11.1116495,6.4328527,12.3960495,-4.337586,-10.689626,20.55811,63.60282,-7.374643,3.4772735,-18.112392
173,-91.2556381225586,31.70570945739746,74.53882598876953,11.621316250977191,-5.6506563166118555,141.45046136784265,-8.023219,-9.479773,16.17856,6.1707587,3.7080665,-0.31599003,20.425873,-9.950928,2.1977613,47.254135,2.0584264,3.5662043,5.703996,-8.921257,13.992533,15.4666195,6.8912516,-6.3287683,62.561253,10.96863,6.6068363,12.077344,-3.8376815,-10.432396,20.142075,64.84972,-6.976524,3.8498552,-18.050182
174,-92.12643432617188,32.22966003417969,74.73069763183594,11.635652639476074,-5.706893073683916,140.7647746993611,-6.8616743,-9.383382,16.463484,6.21338,2.6130092,-0.6278216,18.409445,-9.669255,3.8140397,50.989464,5.4848742,3.8341722,5.8756175,-8.919788,14.00708,15.511686,6.771938,-6.4983454,63.178127,10.927167,6.8191442,11.731663,-3.4323347,-10.150557,19.705624,66.14587,-6.5479884,4.320633,-18.00429
175,-92.97149658203125,32.74440383911133,74.91514587402344,11.550057053608684,-5.744090859118735,140.05454527551544,-5.744104,-9.180435,16.777863,6.2540197,1.5325135,-0.96001697,16.22159,-9.271426,5.326214,54.771626,8.750507,4.0132933,6.007053,-8.828462,14.02779,15.566318,6.655872,-6.6227503,63.673805,10.9531555,7.030949,11.410767,-3.129421,-9.860797,19.314383,67.44781,-6.075003,4.8196607,-17.946163
176,-93.77027893066406,33.25034713745117,75.08152770996094,11.431416777143578,-5.735558053230048,139.36881576293865,-4.7089443,-8.960101,17.106527,6.2922225,0.4940005,-1.2753552,14.001956,-8.934011,6.5048733,58.29974,11.426038,4.28529,6.0484767,-8.725374,14.028644,15.646832,6.540431,-6.6883655,64.01564,11.012657,7.203404,11.165741,-2.933403,-9.589154,19.038273,68.7081,-5.539264,5.2745333,-17.84513
177,-94.54331970214844,33.74592208862305,75.23710632324219,11.279469904770378,-5.651501377742023,138.66638129833194,-3.7834225,-8.69398,17.484346,6.3291874,-0.5039588,-1.6209153,11.680555,-8.675849,7.3618045,61.611805,13.600796,4.8803086,6.012874,-8.606732,13.994267,15.78353,6.4104404,-6.6514325,64.151344,11.139368,7.3386383,10.992123,-2.8619711,-9.352919,18.903584,69.93581,-4.8702955,5.674573,-17.683922
178,-95.29588317871094,34.217132568359375,75.38763427734375,11.06567136959308,-5.513285673728718,137.93678545686777,-2.9412992,-8.349658,17.911814,6.3638115,-1.470056,-2.0075805,9.200391,-8.443881,7.9921064,64.862816,15.426314,5.613445,5.9134483,-8.43338,13.941509,15.9568405,6.2589784,-6.529832,64.11426,11.339398,7.4523225,10.869441,-2.9004116,-9.156069,18.878386,71.13967,-4.0935626,6.0564227,-17.480343
179,-96.02645111083984,34.66448974609375,75.52894592285156,10.818493862783239,-5.368129526871901,137.27812065305446,-2.1506882,-7.9959416,18.311296,6.394313,-2.3808088,-2.3566244,6.7100415,-8.305049,8.332292,67.93197,16.550877,6.120703,5.7048,-8.233247,13.894996,16.10861,6.1023073,-6.4073386,63.997932,11.53518,7.5265617,10.823265,-2.988946,-9.002279,18.932917,72.24705,-3.3411438,6.4266734,-17.251213
180,-96.74929809570312,35.103816986083984,75.66645050048828,10.565690438361091,-5.2623624101892466,136.78766971278466,-1.3814232,-7.7036796,18.59999,6.42129,-3.215763,-2.5852585,4.374683,-8.316841,8.328824,70.66581,16.621206,6.0699162,5.3531795,-8.0360155,13.884211,16.180532,5.973439,-6.3765936,63.890747,11.644124,7.543066,10.873696,-3.0575712,-8.896846,19.02903,73.17018,-2.7431474,6.790821,-17.008238
181,-97.45915222167969,35.54056930541992,75.79971313476562,10.319546888015568,-5.197517102034826,136.50641900477382,-0.6454872,-7.5081472,18.748365,6.444796,-3.9525056,-2.6260648,2.268178,-8.467163,7.9854393,73.00677,15.095547,5.364215,4.838858,-7.867078,13.922814,16.162424,5.906713,-6.480875,63.786217,11.595049,7.4710007,11.055975,-3.106198,-8.850722,19.198925,73.89033,-2.2979817,7.1699615,-16.731853
182,-98.14888000488281,35.97203063964844,75.92671203613281,10.062211427891802,-5.1534217422598125,136.3757313962555,0.048535224,-7.357874,18.794817,6.4678364,-4.6091304,-2.5386858,0.32055986,-8.685041,7.3797355,75.025116,12.295189,4.2935114,4.1759477,-7.7083974,13.989861,16.086,5.8655086,-6.6564217,63.653473,11.451482,7.3297606,11.356931,-3.1929178,-8.834362,19.453344,74.49142,-1.9513803,7.5530295,-16.43106
183,-98.82137298583984,36.40077590942383,76.05333709716797,9.776793694247665,-5.142704390187563,136.34472706865753,0.74125224,-7.1991763,18.75804,6.4902134,-5.226823,-2.427136,-1.516108,-8.953342,6.5639625,76.7451,9.166828,3.0946798,3.4377742,-7.534343,14.092082,15.944582,5.857729,-6.8772287,63.520184,11.316208,7.169717,11.684437,-3.2426736,-8.843524,19.672882,74.91119,-1.752659,7.896628,-16.124073
184,-99.47407531738281,36.83083724975586,76.18035125732422,9.450799876066778,-5.177179851319898,136.36435341663423,1.4719319,-6.9803905,18.659458,6.5127463,-5.8475456,-2.393392,-3.2952013,-9.311937,5.5486264,78.19055,6.6586266,1.937471,2.6831174,-7.317643,14.22548,15.747243,5.875088,-7.1251636,63.408066,11.280962,7.0461216,11.958187,-3.1882734,-8.870093,19.764978,75.10346,-1.7360401,8.157437,-15.837097
185,-100.13021087646484,37.26657485961914,76.3021011352539,9.071211680095782,-5.285818103063437,136.45294517431856,2.2717798,-6.6938567,18.479202,6.5348644,-6.478846,-2.4574018,-5.000677,-9.888138,4.187859,79.35068,5.0219073,0.7828293,1.9469539,-7.037786,14.428036,15.457316,5.949498,-7.4866853,63.35117,11.355355,6.962829,12.169562,-2.9631853,-8.937927,19.621035,74.976814,-2.0164466,8.331104,-15.533546
186,-100.771240234375,37.70991134643555,76.41785430908203,8.648939541755036,-5.453983364305838,136.62896512329613,3.1177416,-6.366041,18.215164,6.5569925,-7.100887,-2.5633457,-6.5825915,-10.638903,2.5056553,80.21607,3.7379224,-0.44026554,1.1943452,-6.727259,14.695313,15.085411,6.0876384,-7.942689,63.32484,11.495395,6.8935285,12.35079,-2.6122131,-9.037249,19.313631,74.574905,-2.5421927,8.434811,-15.210209
187,-101.40406799316406,38.15957260131836,76.5311279296875,8.205762944652292,-5.6272513327521,136.84300337304998,3.9641263,-6.0104437,17.921144,6.5793753,-7.715585,-2.6994395,-8.062104,-11.392632,0.73309374,80.81142,2.603936,-1.6626403,0.45588538,-6.407092,14.969552,14.669664,6.2648067,-8.40938,63.289692,11.687755,6.850478,12.485222,-2.170318,-9.145496,18.919601,73.99395,-3.1311367,8.458406,-14.933126
188,-102.0197525024414,38.63846969604492,76.64087677001953,7.7653260061564895,-5.749811417484584,137.04207480148247,4.7625546,-5.6326675,17.651684,6.6004424,-8.322334,-2.8571231,-9.490037,-11.959795,-0.88835067,81.15825,1.4350504,-2.8035464,-0.20832522,-6.0916843,15.199305,14.234489,6.474585,-8.827329,63.207127,11.9122,6.845164,12.550892,-1.6485419,-9.255314,18.482826,73.29867,-3.608375,8.3950815,-14.760957
189,-102.63646697998047,39.124820709228516,76.73893737792969,7.323636285561487,-5.813678297845508,137.22178246985942,5.498001,-5.217868,17.412228,6.625161,-8.9205265,-3.047362,-10.901026,-12.271383,-2.3216445,81.25401,0.20528811,-3.917503,-0.78737384,-5.774896,15.375576,13.774485,6.714164,-9.172953,63.079903,12.205986,6.902949,12.519933,-1.0336883,-9.3610525,17.986006,72.46354,-3.941037,8.222811,-14.721888
190,-103.24754333496094,39.62683868408203,76.83393096923828,6.8721047601912355,-5.8443992714682,137.40428666759288,6.196296,-4.7652493,17.180342,6.649691,-9.509529,-3.2725904,-12.277862,-12.420246,-3.6939347,81.08417,-0.9813849,-5.0144086,-1.3109422,-5.448791,15.519572,13.281677,6.9844036,-9.4823265,62.928307,12.566802,7.0099998,12.412761,-0.32809934,-9.461468,17.418911,71.476,-4.218173,7.953983,-14.783602
191,-103.84855651855469,40.13009262084961,76.91461944580078,6.425863338565934,-5.836376748094311,137.57474138526575,6.8568425,-4.3008256,16.970407,6.675825,-10.09572,-3.513611,-13.614431,-12.452353,-5.005073,80.645386,-2.0964353,-5.9477916,-1.7848272,-5.123062,15.621942,12.779002,7.283569,-9.771669,62.734867,12.918715,7.1190667,12.279446,0.42261732,-9.556412,16.843714,70.42885,-4.445941,7.6341133,-14.91364
192,-104.45050048828125,40.637550354003906,76.9788589477539,6.000802080264413,-5.7845685142880265,137.71872886465184,7.4808216,-3.8528605,16.795061,6.7006927,-10.682124,-3.7508678,-14.902388,-12.421453,-6.258506,79.93697,-3.1109598,-6.578901,-2.2198727,-4.8096433,15.67403,12.288009,7.6074266,-10.048173,62.48275,13.187267,7.182354,12.171772,1.1672955,-9.64617,16.324818,69.41764,-4.631474,7.3081408,-15.079903
193,-105.05901336669922,41.14832305908203,77.03316497802734,5.600789657662716,-5.674077132164367,137.83146262500225,8.048347,-3.4227958,16.651018,6.725745,-11.265148,-3.98576,-16.160406,-12.347657,-7.4636393,78.93312,-4.026607,-6.8572907,-2.6146708,-4.5105124,15.6546545,11.807288,7.9586835,-10.320165,62.16745,13.323965,7.182163,12.09311,1.8992053,-9.733591,15.89227,68.45051,-4.7596703,6.9672627,-15.293744
194,-105.68069458007812,41.670310974121094,77.07733154296875,5.21880196807035,-5.51220744313844,137.92099357160552,8.564012,-2.9978037,16.532364,6.75035,-11.84287,-4.2280455,-17.393307,-12.211461,-8.624054,77.63691,-4.8441496,-6.8727055,-2.9675689,-4.2191234,15.573588,11.3264065,8.338078,-10.5768175,61.79796,13.378589,7.1446233,12.019573,2.6417594,-9.818645,15.51077,67.481224,-4.833039,6.595334,-15.564421
195,-106.30660247802734,42.19722366333008,77.10613250732422,4.853484528797038,-5.327446800997661,137.99385815199597,9.062852,-2.5839453,16.44699,6.773908,-12.423199,-4.4705253,-18.569712,-12.011462,-9.73186,76.08489,-5.528175,-6.699811,-3.2912977,-3.934582,15.468395,10.855583,8.735777,-10.793599,61.367588,13.424644,7.0947533,11.963009,3.3799312,-9.896952,15.148873,66.536896,-4.8814354,6.222047,-15.858869
196,-106.93704986572266,42.725337982177734,77.11906433105469,4.503191524754917,-5.148128003678909,138.05670907702637,9.579045,-2.1866398,16.40284,6.7982426,-13.015108,-4.7059016,-19.660355,-11.746307,-10.775071,74.31865,-6.048639,-6.414324,-3.601992,-3.6554854,15.37537,10.403037,9.137229,-10.942736,60.87638,13.536941,7.0565467,11.937692,4.095586,-9.963681,14.778046,65.645454,-4.9328732,5.8813114,-16.146442
197,-107.5642318725586,43.26081848144531,77.12136840820312,4.160778044428284,-4.971951495096491,138.10520255602623,10.113318,-1.7964984,16.412876,6.8208737,-13.621415,-4.944846,-20.669954,-11.426739,-11.756336,72.3274,-6.403643,-6.0146446,-3.905209,-3.3700526,15.291673,9.967912,9.536284,-11.016274,60.31478,13.755906,7.0420246,11.948228,4.781874,-10.018041,14.3974285,64.807144,-4.978645,5.5651193,-16.457783
198,-108.19825744628906,43.79142379760742,77.10586547851562,3.8301521629438304,-4.787188014242341,138.13912592365006,10.64821,-1.4145304,16.467758,6.8429403,-14.236088,-5.1886306,-21.613932,-11.062876,-12.675343,70.092964,-6.608461,-5.4813933,-4.1960483,-3.081636,15.200465,9.543257,9.935218,-11.024573,59.691826,14.037035,7.0371747,11.990379,5.443563,-10.062377,14.020758,64.014915,-5.0100336,5.2617035,-16.798075
199,-108.8424301147461,44.31777572631836,77.07157135009766,3.5251332728257556,-4.6077799338790735,138.17141315299187,11.1943865,-1.0617938,16.541613,6.864404,-14.852341,-5.4157705,-22.482124,-10.652124,-13.508962,67.648125,-6.662063,-4.861386,-4.475305,-2.810911,15.117495,9.129234,10.331384,-10.967013,59.033146,14.328424,7.02661,12.064948,6.078769,-10.095689,13.641915,63.28704,-5.0524497,4.9975443,-17.099045
200,-109.49374389648438,44.85040283203125,77.02423858642578,3.2607241273260144,-4.447807573315842,138.21474612101488,11.762696,-0.76004905,16.608696,6.8842707,-15.462036,-5.6040263,-23.264954,-10.19512,-14.230357,65.02628,-6.565433,-4.203038,-4.7438636,-2.5787966,15.0578785,8.72426,10.719353,-10.842894,58.36703,14.579176,6.995052,12.173584,6.683933,-10.114359,13.252451,62.646828,-5.132599,4.7968707,-17.293598
201,-110.13692474365234,45.39816665649414,76.96097564697266,3.040184438705463,-4.311526481239452,138.2733833176389,12.353991,-0.5147275,16.669128,6.9040856,-16.066782,-5.7446685,-23.969492,-9.699828,-14.802383,62.23588,-6.308477,-3.5169134,-5.005243,-2.3882477,15.028499,8.325452,11.09588,-10.639241,57.69371,14.791587,6.9346833,12.335868,7.2580566,-10.115535,12.8262825,62.086998,-5.2737737,4.6795564,-17.346966
202,-110.78529357910156,45.95478820800781,76.87712860107422,2.8567681430221716,-4.191400202810164,138.34155289047942,12.963465,-0.3152949,16.731998,6.9242253,-16.670635,-5.850955,-24.596806,-9.183754,-15.234707,59.259464,-5.903749,-2.7950673,-5.2585826,-2.2291982,15.019092,7.931573,11.462203,-10.36077,57.00501,14.988325,6.855514,12.546008,7.8002095,-10.099583,12.372645,61.60303,-5.456264,4.6271276,-17.30178
203,-111.44190979003906,46.51780319213867,76.7769775390625,2.7086282753188806,-4.083248259279167,138.41725234220337,13.589801,-0.15616575,16.78418,6.942597,-17.266872,-5.933335,-25.127779,-8.659543,-15.572636,56.091278,-5.3880486,-2.0572026,-5.498368,-2.102145,15.017329,7.5434775,11.820683,-10.033445,56.31731,15.148698,6.7687883,12.76758,8.308847,-10.070449,11.938631,61.2148,-5.6414013,4.612171,-17.206661
204,-112.08979034423828,47.08616638183594,76.6598129272461,2.593470134642724,-3.9826838230433994,138.49860815872768,14.23242,-0.03204334,16.812746,6.960048,-17.85282,-6.001794,-25.542233,-8.135343,-15.864896,52.71769,-4.7946424,-1.3203002,-5.7195187,-2.008273,15.011295,7.1622224,12.173778,-9.683146,55.645657,15.251646,6.685481,12.963381,8.783282,-10.035784,11.571963,60.941444,-5.7905893,4.6076136,-17.110186
205,-112.74147033691406,47.667816162109375,76.5280990600586,2.511590023083332,-3.8882798552539795,138.5830507192494,14.88707,0.053830147,16.802837,6.97783,-18.437572,-6.0365167,-25.84183,-7.5992236,-16.061394,49.10484,-4.1010957,-0.5991569,-5.9151225,-1.9466593,15.002698,6.781873,12.522079,-9.302166,54.98743,15.279568,6.6053476,13.137305,9.226064,-10.000239,11.28049,60.78041,-5.8978553,4.6161594,-17.002733
206,-113.39954376220703,48.25927734375,76.37924194335938,2.4654137672111776,-3.803166102184497,138.67400735408486,15.555757,0.10017168,16.761873,6.9963064,-19.02089,-6.039918,-26.022871,-7.069916,-16.148205,45.258488,-3.3021536,0.103586935,-6.0926614,-1.9179358,14.996326,6.4038444,12.864536,-8.880485,54.335632,15.247483,6.522925,13.303064,9.6385565,-9.964035,11.0412,60.720455,-5.981585,4.6489716,-16.864487
207,-114.0550765991211,48.8597297668457,76.21505737304688,2.4557797623545063,-3.7297064243406033,138.77873805530982,16.247248,0.11543124,16.710508,7.0112767,-19.580778,-6.0548396,-26.064375,-6.5931907,-16.233742,41.222954,-2.4443045,0.7958415,-6.268215,-1.9239775,14.984523,6.0394077,13.20074,-8.442422,53.69946,15.18186,6.441221,13.438857,10.019467,-9.92746,10.857181,60.767097,-6.0371237,4.6921887,-16.727903
208,-114.72127532958984,49.47563552856445,76.03089904785156,2.4854995965428635,-3.670645374880448,138.9052170594943,16.969557,0.10592627,16.668953,7.0206738,-20.096077,-6.122897,-25.946262,-6.2061934,-16.43138,37.02991,-1.5657618,1.4920342,-6.4582934,-1.968524,14.959989,5.7003546,13.53097,-8.012085,53.08726,15.109077,6.3634295,13.522593,10.368227,-9.890772,10.73104,60.92497,-6.0604086,4.732109,-16.625628
209,-115.38528442382812,50.117950439453125,75.83153533935547,2.5600776475356084,-3.6251391269225213,139.06991426411534,17.722082,0.068854816,16.649805,7.0230694,-20.585432,-6.2433686,-25.636744,-5.9259243,-16.76998,32.574574,-0.59921455,2.209832,-6.677917,-2.0590844,14.920472,5.38376,13.856084,-7.580393,52.496567,15.02004,6.2936454,13.52755,10.68029,-9.854262,10.673144,61.21341,-6.0387096,4.752714,-16.572477
210,-116.05133056640625,50.77016830444336,75.61299133300781,2.685961935189861,-3.5965382552294045,139.27292492312037,18.505527,-0.009751045,16.628843,7.018109,-21.051407,-6.3941274,-25.129015,-5.7361593,-17.19381,27.823992,0.47706163,2.9360693,-6.924,-2.2022939,14.870947,5.0848126,14.176796,-7.139082,51.924595,14.905742,6.2293353,13.471877,10.959157,-9.817928,10.679326,61.622284,-5.977962,4.765783,-16.549173
211,-116.72863006591797,51.432464599609375,75.37077331542969,2.8718492987759334,-3.595298022932067,139.50247648891573,19.32852,-0.1438992,16.566132,7.0070853,-21.44566,-6.5832767,-24.445585,-5.6248436,-17.696497,22.921686,1.5586854,3.6433897,-7.189724,-2.4068239,14.81609,4.813813,14.493044,-6.714444,51.376667,14.793231,6.163773,13.401464,11.217934,-9.780924,10.729784,62.111122,-5.901927,4.798923,-16.536674
212,-117.42135620117188,52.110416412353516,75.11786651611328,3.132314986161574,-3.6338943931136005,139.751169547113,20.20276,-0.35294133,16.414303,6.9881034,-21.718378,-6.8176374,-23.613668,-5.5914083,-18.27618,18.024128,2.529713,4.304144,-7.471108,-2.6871846,14.761015,4.582135,14.80453,-6.3342004,50.857826,14.709613,6.090041,13.362309,11.472718,-9.740421,10.803101,62.63565,-5.834982,4.8807955,-16.515575
213,-118.12832641601562,52.80900573730469,74.83919525146484,3.5281265765553975,-3.741197099961344,140.04058604876153,21.157927,-0.7053539,16.129713,6.9604445,-21.862162,-7.093503,-22.584375,-5.66778,-18.926596,12.991958,3.3722994,4.941918,-7.787752,-3.1079326,14.716781,4.397141,15.115821,-6.0157623,50.364292,14.666895,6.000129,13.365822,11.726443,-9.69796,10.902599,63.2137,-5.7805734,5.021129,-16.490204
214,-118.8353042602539,53.534637451171875,74.54566955566406,4.065058173422978,-3.9151584061325204,140.3953156152784,22.1862,-1.1985344,15.703674,6.9288,-21.90156,-7.4001117,-21.27023,-5.8780074,-19.685144,7.6293073,4.234684,5.5453687,-8.162395,-3.6795802,14.678395,4.2551355,15.42969,-5.7424803,49.891006,14.647752,5.899867,13.386299,11.979929,-9.652726,11.036856,63.84924,-5.726747,5.2065854,-16.467396
215,-119.54814147949219,54.28315353393555,74.25994110107422,4.625624873234078,-4.101614754094612,140.7679497907204,23.227339,-1.6871754,15.201543,6.8991857,-21.833838,-7.744215,-21.685051,-6.847011,-20.374243,6.519866,2.8935063,6.081592,-8.55143,-4.281072,14.622927,4.1447086,15.738914,-5.490214,49.44526,14.636833,5.8028345,13.416462,12.228455,-9.598251,11.186414,64.503685,-5.6783347,5.419204,-16.433775
216,-120.26411437988281,55.05181121826172,73.9968490600586,5.077156331405162,-4.237778721121535,141.0936154527459,24.220636,-2.0193462,14.718886,6.872935,-21.66084,-8.135784,-22.344112,-7.8524723,-21.177132,6.369397,1.2798086,6.5199466,-8.889819,-4.768788,14.527437,4.048889,16.030907,-5.2368217,49.041256,14.620008,5.722794,13.452322,12.461638,-9.52746,11.329926,65.14371,-5.640149,5.642057,-16.377054
217,-120.97746276855469,55.83778762817383,73.7596206665039,5.430933446263365,-4.314773965869731,141.38262518247453,25.154066,-2.2065613,14.254038,6.851742,-21.403296,-8.555812,-22.859205,-8.694928,-22.24473,6.204232,-0.17293885,6.9868884,-9.175651,-5.150074,14.3829565,3.9496186,16.302416,-4.9921613,48.693783,14.594809,5.6647415,13.498358,12.682977,-9.436285,11.465728,65.77493,-5.6242576,5.8879657,-16.292095
218,-121.68782043457031,56.65296173095703,73.55119323730469,5.630677977524778,-4.3429651423026,141.5828681796335,26.063198,-2.1917212,13.879907,6.8327184,-21.067333,-9.040253,-23.30043,-9.276477,-23.539778,6.140552,-1.5935233,7.4751925,-9.350416,-5.312613,14.215508,3.8017237,16.465225,-4.7866592,48.452564,14.590861,5.624189,13.586936,12.8941345,-9.370154,11.565924,66.4113,-5.631924,6.16064,-16.18712
219,-122.39877319335938,57.481563568115234,73.36600494384766,5.761676168214788,-4.319926682955493,141.72433923640125,26.923834,-2.0849771,13.53367,6.808559,-20.597157,-9.583157,-23.617167,-9.69783,-24.872612,6.1591444,-2.7276192,7.854457,-9.487139,-5.4094205,14.009711,3.7171664,16.623993,-4.550282,48.21363,14.588371,5.5913415,13.671087,13.078535,-9.292648,11.679786,67.033005,-5.631093,6.4293623,-16.066692
220,-123.1202392578125,58.321739196777344,73.21129608154297,5.779028913670636,-4.237352446487147,141.76133106373382,27.733065,-1.8491526,13.263283,6.7769737,-19.955013,-10.2213125,-23.714779,-9.8535185,-26.07157,6.166618,-3.3077254,7.941437,-9.565323,-5.424945,13.774802,3.7410572,16.81298,-4.2418394,47.94183,14.586019,5.560073,13.734119,13.201991,-9.175408,11.816081,67.64778,-5.601421,6.660602,-15.945363
221,-123.82782745361328,59.167301177978516,73.08464813232422,5.707875532665643,-4.081038806567099,141.67775258305232,28.46694,-1.5202429,13.080801,6.773753,-19.192299,-10.999766,-23.562393,-9.746632,-27.059723,6.256541,-3.298757,7.7337484,-9.534743,-5.312349,13.49413,3.797649,16.932573,-3.9110463,47.70926,14.612337,5.543845,13.809893,13.312879,-9.072781,11.914395,68.21558,-5.5452123,6.8509254,-15.811022
222,-124.53886413574219,60.027503967285156,72.97926330566406,5.525331262467755,-3.8923115078425914,141.46740011526342,29.157703,-1.0714068,13.00117,6.8393497,-18.345383,-11.895613,-23.0517,-9.308424,-27.947678,6.1620164,-2.7053502,7.2684298,-9.435065,-5.123272,13.21018,3.9608393,17.05544,-3.4785988,47.449364,14.668529,5.5367174,13.87339,13.338273,-8.921989,12.060214,68.81383,-5.4622326,7.015225,-15.679835
223,-125.26679992675781,60.91041564941406,72.89119720458984,5.21495029750154,-3.6652707124405466,141.14678686926206,29.82591,-0.4954348,13.008382,6.8871593,-17.29064,-12.819374,-22.46152,-8.6596985,-28.7509,6.161807,-1.7928419,6.4410973,-9.244861,-4.8090158,12.909707,4.1781,17.151161,-3.0357604,47.21814,14.717102,5.526155,13.941514,13.328365,-8.74039,12.183034,69.39178,-5.3721275,7.1585946,-15.561557
224,-125.94267272949219,61.84296417236328,72.8803482055664,4.7346263645150595,-3.4320004131129327,140.706785816121,30.494528,0.2505486,13.11818,6.940286,-15.977785,-13.697939,-21.913145,-7.784229,-29.52086,6.229351,-0.6672316,5.174127,-8.944075,-4.2983303,12.62969,4.4296193,17.193544,-2.6389427,47.03623,14.720425,5.4957542,14.018181,13.332365,-8.582773,12.236981,69.87719,-5.28739,7.286747,-15.450816
225,-126.65502166748047,62.790618896484375,72.88270568847656,3.956104712247153,-3.1829086803413738,140.12774255069738,31.172173,1.3117076,13.413746,7.0323925,-14.44381,-14.640205,-21.423471,-6.554331,-30.444092,6.3692117,0.902338,3.3492377,-8.525964,-3.4727676,12.372505,4.752164,17.196941,-2.2658179,46.856987,14.669131,5.4394526,14.092919,13.348813,-8.442304,12.225901,70.26314,-5.206203,7.401745,-15.358109
226,-127.37776947021484,63.744956970214844,72.92620849609375,2.995886383931088,-2.894608558520287,139.48674279584736,31.799416,2.465137,13.693375,7.1374187,-12.690853,-15.000033,-20.943968,-5.0997906,-31.499,6.491997,2.968717,1.0725112,-8.076281,-2.4647925,12.080741,5.158591,17.164974,-1.8810573,46.676464,14.597953,5.3684287,14.16849,13.334734,-8.267704,12.181009,70.61347,-5.1258307,7.500256,-15.297935
227,-128.0952911376953,64.7152099609375,73.00735473632812,2.0080183925544803,-2.619759338830613,138.83224523224217,32.12176,3.6595886,13.89826,7.860533,-10.98591,-15.000033,-20.50772,-3.572148,-32.441067,6.630982,5.023208,-1.4280602,-7.62995,-1.4229672,11.780651,5.5958405,17.098314,-1.5367649,46.570164,14.492815,5.2843766,14.249141,13.309476,-8.101292,12.1068535,70.90953,-5.0432024,7.5798507,-15.234592
228,-128.8036651611328,65.70109558105469,73.08969116210938,1.0934964425074458,-2.4300356622018406,138.20869798081657,31.248903,5.0933986,13.897117,11.246823,-10.356923,-15.000033,-20.758593,-2.5296965,-32.971054,8.546556,5.6005507,-3.9404316,-7.244234,-0.4683718,11.531648,6.044221,17.00019,-1.2344458,46.58633,14.360817,5.189671,14.336544,13.249868,-7.951732,12.04144,71.176704,-4.9534025,7.6382823,-15.151061
229,-129.51434326171875,66.69288635253906,73.17993927001953,0.21959078101217946,-2.277818998586892,137.62595176113024,30.228653,6.5323973,13.7007265,14.879253,-9.454034,-15.000033,-21.425531,-1.706618,-32.93562,11.444528,4.937625,-6.7031803,-6.9429445,0.43978828,11.283984,6.5078826,16.869228,-0.97746354,46.754593,14.179313,5.064287,14.458405,13.146238,-7.82278,11.998762,71.43688,-4.8341565,7.6652656,-15.037067
230,-130.21372985839844,67.6845932006836,73.27674102783203,-0.6744708979225947,-2.1287788156806364,137.09946490779205,29.063221,8.0128565,13.302609,18.676609,-8.270642,-15.000033,-22.065409,-0.77360624,-32.549995,14.222477,3.8634353,-9.746322,-6.736122,1.3683717,11.0153475,7.0011067,16.703897,-0.7565503,47.03474,13.954257,4.913764,14.60167,13.012768,-7.7140436,11.96257,71.6689,-4.693466,7.665463,-14.902623
231,-130.91525268554688,68.66622924804688,73.36901092529297,-1.5134675409543525,-2.036703671337034,136.6471252085933,27.8483,9.406677,12.682347,22.48577,-6.8137503,-15.000033,-22.459904,0.19936337,-32.052795,16.612837,2.6313848,-12.553832,-6.6206074,2.2302182,10.797735,7.50557,16.506008,-0.5595255,47.380318,13.734325,4.7789793,14.711849,12.849786,-7.620519,11.917746,71.84513,-4.5734553,7.6583533,-14.764182
232,-131.59677124023438,69.6399917602539,73.46979522705078,-2.2350122515750157,-2.0572331330489373,136.27183625928063,26.646322,10.618158,11.847269,26.247715,-5.14498,-15.000033,-22.396702,1.1484593,-31.689531,18.344698,1.535348,-14.60827,-6.5776944,2.9505544,10.709408,8.002412,16.279572,-0.37453318,47.745876,13.567378,4.7013097,14.735897,12.655036,-7.5350456,11.849186,71.940605,-4.515711,7.663057,-14.639015
233,-132.27056884765625,70.59618377685547,73.58783721923828,-2.7879338384224948,-2.2389453815408302,135.96317420394863,25.496395,11.58594,10.747462,30.009064,-3.2313447,-15.000033,-21.831112,1.9782118,-31.380035,19.490833,0.5577192,-15.000033,-6.6130223,3.4697025,10.805442,8.519353,16.01431,-0.14811432,48.119835,13.475843,4.6963844,14.646172,12.404509,-7.45129,11.761193,71.97476,-4.541915,7.682014,-14.524265
234,-132.93759155273438,71.55937194824219,73.72404479980469,-3.2542469398556735,-2.5201911851572127,135.6448713535635,24.305609,12.388193,9.432866,33.859867,-1.090831,-15.000033,-20.88148,2.8714616,-31.097878,20.05445,-0.3437544,-15.000033,-6.662247,3.8778179,11.0230255,9.056759,15.709619,0.10196653,48.524628,13.434185,4.740849,14.477957,12.098366,-7.3714776,11.6612215,71.96103,-4.6268425,7.7056575,-14.416636
235,-133.58541870117188,72.53031921386719,73.87644958496094,-3.621322998470719,-2.8370019802533526,135.35479138646437,22.994247,12.998886,8.030969,37.719875,1.1827435,-14.761636,-19.741493,3.702507,-30.846123,20.315084,-1.2150118,-15.000033,-6.7154307,4.1831384,11.291845,9.551,15.390288,0.27440372,48.969677,13.412869,4.8171563,14.271437,11.775023,-7.295528,11.536492,71.85988,-4.74125,7.734913,-14.327977
236,-134.24090576171875,73.47552490234375,74.0543441772461,-3.8735046326377973,-3.169876295837779,135.19057074283384,21.524254,13.4476595,6.7032776,41.526604,3.4836671,-14.020327,-18.55669,4.3072352,-30.618275,20.588366,-2.1449242,-15.000033,-6.81163,4.3805375,11.587078,9.93204,15.094849,0.2567757,49.4712,13.374991,4.9076757,14.065008,11.47438,-7.2219887,11.366634,71.631226,-4.8558435,7.770146,-14.268681
237,-134.86952209472656,74.3998031616211,74.23686981201172,-4.114046724804258,-3.5818856965679675,135.18790916826634,19.820757,13.818936,5.192814,45.55695,6.044691,-13.432055,-17.127748,4.8787775,-30.50087,20.576008,-3.0287068,-15.000033,-6.9683647,4.5454335,11.986452,10.180183,14.853207,-0.0062815617,50.051258,13.254824,5.014494,13.868145,11.218427,-7.141374,11.112824,71.231514,-4.9643574,7.833343,-14.235595
238,-135.47283935546875,75.31709289550781,74.41805267333984,-4.324773379311581,-4.069583576493061,135.2956839525853,17.916435,14.08899,3.5388465,49.812546,8.806029,-12.898899,-15.445094,5.4758477,-30.482819,20.19699,-3.8403902,-15.000033,-7.15014,4.648041,12.48287,10.322878,14.669148,-0.46354896,50.70736,13.077698,5.144105,13.656227,10.990306,-7.044365,10.785854,70.689964,-5.0829644,7.916048,-14.222515
239,-136.05252075195312,76.21048736572266,74.59579467773438,-4.505174809257611,-4.55899409033171,135.45733554326904,15.981204,14.286431,1.9455844,53.907654,11.131268,-12.475993,-13.656372,6.1033306,-30.494286,19.549135,-4.5543833,-15.000033,-7.3129644,4.698542,12.989519,10.380239,14.54481,-1.0468341,51.401356,12.944056,5.2843566,13.407096,10.7753525,-6.9436445,10.4557495,70.0654,-5.213798,7.9743214,-14.229786
240,-136.6161346435547,77.09770965576172,74.76387023925781,-4.663764350160993,-4.974883081570265,135.61819660820984,14.159887,14.478007,0.5982509,57.510265,12.3444395,-12.212596,-11.913698,6.7492824,-30.470743,18.74554,-5.1461005,-15.000033,-7.3793025,4.744292,13.415115,10.33178,14.441934,-1.7379607,52.127064,12.964028,5.429448,13.127152,10.557191,-6.830431,10.133123,69.43189,-5.3824096,7.9637594,-14.276142
241,-137.16940307617188,77.95825958251953,74.9208984375,-4.821619443278557,-5.303236002030744,135.8301379018187,12.489522,14.701513,-0.54000616,60.586166,11.968369,-12.21656,-10.212219,7.3971143,-30.44322,17.762285,-5.602085,-14.860985,-7.430331,4.800596,13.758905,10.183255,14.37918,-2.544188,52.901264,13.163395,5.5495095,12.779945,10.343008,-6.735937,9.88038,68.75974,-5.580141,7.867286,-14.343554
