unveil-humanoid-operators/unveil-humanoid-operators.github.io/feature-analysis-animation/data/feature_matrix_instances/weight_root_translate_peak_vel_kneeling_A247.csv
Frame,root_translateX,root_translateY,root_translateZ,root_rotateX,root_rotateY,root_rotateZ,left_hip_pitch_joint_dof,left_hip_roll_joint_dof,left_hip_yaw_joint_dof,left_knee_joint_dof,left_ankle_pitch_joint_dof,left_ankle_roll_joint_dof,right_hip_pitch_joint_dof,right_hip_roll_joint_dof,right_hip_yaw_joint_dof,right_knee_joint_dof,right_ankle_pitch_joint_dof,right_ankle_roll_joint_dof,waist_yaw_joint_dof,waist_roll_joint_dof,waist_pitch_joint_dof,left_shoulder_pitch_joint_dof,left_shoulder_roll_joint_dof,left_shoulder_yaw_joint_dof,left_elbow_joint_dof,left_wrist_roll_joint_dof,left_wrist_pitch_joint_dof,left_wrist_yaw_joint_dof,right_shoulder_pitch_joint_dof,right_shoulder_roll_joint_dof,right_shoulder_yaw_joint_dof,right_elbow_joint_dof,right_wrist_roll_joint_dof,right_wrist_pitch_joint_dof,right_wrist_yaw_joint_dof
0,0.2468860000371933,4.8310017585754395,44.29289627075195,-0.9485639471278973,-35.74827054225128,-90.51586257612304,-47.106476,5.215945,0.12731922,112.288956,-28.440207,-0.39763778,-41.36187,-22.659256,-14.038582,113.782486,-36.012135,-10.938799,-2.5483234,0.39851603,29.793802,-18.041262,12.25983,-49.46556,47.4696,28.663618,-0.6760187,36.79967,-15.257035,-11.001217,45.447575,43.976067,-20.0174,-0.52666485,-35.236782
1,0.24988995492458344,4.84336519241333,44.28354263305664,-0.9409545973132186,-35.70959869700142,-90.51554801355283,-47.174282,5.2089486,0.13098958,112.27541,-28.414291,-0.4157415,-41.43429,-22.673449,-14.038172,113.78187,-35.993816,-10.943226,-2.555023,0.37624148,29.793802,-17.990992,12.25694,-49.440903,47.087337,28.673782,-0.45412287,36.545235,-15.188126,-10.994768,45.388313,43.62286,-20.309044,-0.122686,-35.062748
2,0.24365365505218506,4.86072301864624,44.275169372558594,-0.9316567332011672,-35.67140349752799,-90.51368331333845,-47.241062,5.199898,0.13525611,112.260796,-28.388525,-0.43446103,-41.504726,-22.689968,-14.037438,113.78268,-35.97768,-10.947658,-2.5496573,0.35524708,29.793802,-17.930223,12.27477,-49.414238,46.687466,28.697079,-0.22999415,36.296432,-15.107534,-10.992931,45.299553,43.277298,-20.624996,0.25563484,-34.904247
3,0.2398722618818283,4.879454135894775,44.27250671386719,-0.9238561545396843,-35.62786927936763,-90.51498421925335,-47.315525,5.1945844,0.13899183,112.247246,-28.361021,-0.45187888,-41.5848,-22.702503,-14.036525,113.78216,-35.95673,-10.952771,-2.5465155,0.33039358,29.793802,-17.846626,12.339811,-49.410797,46.214954,28.692558,-0.009438192,36.01992,-15.022449,-11.004371,45.221603,42.875046,-20.918385,0.6760411,-34.6895
4,0.2371070683002472,4.896528244018555,44.266944885253906,-0.9174643336780197,-35.573133745798856,-90.52317430217043,-47.407215,5.1993647,0.14049257,112.23488,-28.329737,-0.46612832,-41.68441,-22.704348,-14.035875,113.77928,-35.92479,-10.959349,-2.547369,0.30148375,29.793802,-17.755524,12.4518585,-49.459377,45.65229,28.624424,0.19649847,35.6777,-14.94006,-11.030884,45.160454,42.363567,-21.164427,1.2006522,-34.336166
5,0.23652206361293793,4.919678211212158,44.25929260253906,-0.9112458742145813,-35.50504811903655,-90.54262503494428,-47.518543,5.2203817,0.1397054,112.22481,-28.295437,-0.47781903,-41.80943,-22.690617,-14.035585,113.77304,-35.876884,-10.967801,-2.5434513,0.26946306,29.793802,-17.665104,12.611403,-49.592445,44.984287,28.513233,0.43883747,35.270107,-14.857414,-11.071752,45.124992,41.71794,-21.351913,1.8920805,-33.82045
6,0.23713186383247375,4.943910598754883,44.25492477416992,-0.906184384836863,-35.42672907188889,-90.56962064978306,-47.644955,5.25277,0.13745041,112.215324,-28.258524,-0.4875625,-41.95306,-22.666056,-14.035657,113.76433,-35.817535,-10.97787,-2.5376456,0.23343624,29.793802,-17.562948,12.818538,-49.782673,44.21979,28.37373,0.70611227,34.812725,-14.773645,-11.127404,45.109947,40.971077,-21.502926,2.7012289,-33.185413
7,0.2377650886774063,4.967489242553711,44.2457389831543,-0.9006433701780541,-35.34056807440576,-90.59970904687283,-47.784122,5.286409,0.13316901,112.20759,-28.217207,-0.49349448,-42.10916,-22.637808,-14.035513,113.75577,-35.75445,-10.988735,-2.53812,0.19528326,29.793802,-17.449303,13.072305,-49.993458,43.384594,28.14224,0.8963972,34.293266,-14.69171,-11.195915,45.084408,40.14924,-21.643867,3.5224018,-32.44941
8,0.22651320695877075,4.993701934814453,44.22853469848633,-0.8960948003544128,-35.24876275217508,-90.62778141622753,-47.93347,5.310829,0.12639524,112.202545,-28.170183,-0.4938345,-42.271458,-22.613194,-14.034775,113.747826,-35.694244,-10.999828,-2.5531409,0.1562552,29.793802,-17.320671,13.369656,-50.18419,42.504505,27.758001,0.9093675,33.698627,-14.617294,-11.273866,45.018032,39.28208,-21.797106,4.2492466,-31.63072
9,0.22013476490974426,5.018654823303223,44.21600341796875,-0.8900064172742201,-35.155372527784124,-90.65394865210133,-48.092155,5.32028,0.11385339,112.20313,-28.113358,-0.48435542,-42.43531,-22.593538,-14.0332365,113.74323,-35.638702,-11.010697,-2.5887845,0.114255294,29.793802,-17.166649,13.710161,-50.3486,41.585064,27.190989,0.70365274,33.00659,-14.544733,-11.357348,44.904762,38.365204,-22.024431,4.9027524,-30.693472
10,0.22280895709991455,5.040992736816406,44.21053695678711,-0.8856175488591287,-35.058359345917765,-90.67869111575125,-48.261223,5.3201685,0.09579718,112.20694,-28.049223,-0.468758,-42.601917,-22.57743,-14.03489,113.74087,-35.58978,-11.02573,-2.6408467,0.06879849,29.793802,-16.993668,14.093738,-50.504494,40.61415,26.472994,0.34396818,32.226425,-14.478752,-11.444136,44.761463,37.39311,-22.297308,5.5208325,-29.640984
11,0.22194212675094604,5.065169334411621,44.196311950683594,-0.8780234409352156,-34.95065761932145,-90.70500568722319,-48.441284,5.3206897,0.08140741,112.21115,-27.984478,-0.4519107,-42.783264,-22.560957,-14.032495,113.737175,-35.537136,-11.038191,-2.7021017,0.022714082,29.793802,-16.827532,14.515977,-50.65094,39.595737,25.632458,-0.110096715,31.39243,-14.442804,-11.534749,44.592777,36.39844,-22.497145,6.0257797,-28.55377
12,0.22418266534805298,5.089905261993408,44.186683654785156,-0.8661862664285439,-34.82587248942889,-90.73488904494671,-48.632553,5.3303323,0.07767174,112.21026,-27.925999,-0.44119358,-42.98502,-22.543987,-14.024447,113.73447,-35.480247,-11.04763,-2.7639272,-0.020500042,29.793802,-16.695807,14.969126,-50.789448,38.538063,24.698338,-0.6007087,30.540154,-14.458965,-11.631734,44.40361,35.411903,-22.498852,6.345232,-27.514877
13,0.22356151044368744,5.110065460205078,44.1826286315918,-0.8483040370833813,-34.685006210942674,-90.77193832335044,-48.828617,5.3566885,0.08974628,112.20182,-27.880291,-0.44353002,-43.207085,-22.524107,-14.009248,113.72917,-35.417374,-11.052402,-2.8221974,-0.06097046,29.793802,-16.603062,15.4493,-50.926556,37.44058,23.549175,-1.1896185,29.633068,-14.528619,-11.740011,44.182987,34.422935,-22.24255,6.4416966,-26.524406
14,0.2249610424041748,5.129815101623535,44.18083953857422,-0.8268843760376671,-34.53090151558591,-90.81395235550875,-49.031162,5.393214,0.112485096,112.18737,-27.8417,-0.45360816,-43.446255,-22.502558,-13.988563,113.72302,-35.350395,-11.054022,-2.8802333,-0.09871472,29.793802,-16.537035,15.953157,-51.061718,36.305702,22.2088,-1.8725244,28.659592,-14.637083,-11.861277,43.931156,33.41501,-21.795372,6.3691444,-25.546606
15,0.2300400584936142,5.144979000091553,44.17791748046875,-0.8041232598018853,-34.359558609329774,-90.85334845932236,-49.252945,5.42863,0.13840382,112.17284,-27.800728,-0.45907155,-43.70621,-22.482185,-13.964302,113.71588,-35.27838,-11.05321,-2.9397607,-0.12934397,29.793802,-16.510696,16.472738,-51.193855,35.15646,20.921398,-2.5039663,27.702993,-14.787252,-11.992177,43.67128,32.42062,-21.218699,6.1911974,-24.61235
16,0.2397027313709259,5.159049034118652,44.17230224609375,-0.7889206249252559,-34.16766515634182,-90.8817803957435,-49.50582,5.4504194,0.15817998,112.16191,-27.748434,-0.44974062,-43.98555,-22.469627,-13.944323,113.71127,-35.20973,-11.0574875,-3.0027795,-0.1489742,29.793802,-16.542927,16.99756,-51.323444,34.022285,19.934542,-2.9512239,26.85863,-14.982135,-12.125326,43.42572,31.473063,-20.579279,5.9710646,-23.752258
17,0.247489333152771,5.172613143920898,44.168338775634766,-0.7773117547863556,-33.95278620200776,-90.89858830971131,-49.795677,5.4554863,0.1706515,112.15458,-27.679203,-0.41568285,-44.29144,-22.460905,-13.923311,113.706,-35.13699,-11.062944,-3.0703442,-0.15601848,29.793802,-16.643614,17.519625,-51.44845,32.907345,19.335817,-3.1798596,26.144999,-15.234648,-12.255741,43.191483,30.585688,-19.75122,5.646596,-22.948334
18,0.25088825821876526,5.1872334480285645,44.167144775390625,-0.7725748840175881,-33.717947476716716,-90.90631504563427,-50.113796,5.4501123,0.17995532,112.151215,-27.599865,-0.36542955,-44.61929,-22.455662,-13.901413,113.702576,-35.062622,-11.069782,-3.140328,-0.15244445,29.793802,-16.80884,18.034737,-51.57207,31.811365,18.992727,-3.2736182,25.523573,-15.541345,-12.381074,42.958134,29.746737,-18.745035,5.214967,-22.188856
19,0.26159435510635376,5.199062347412109,44.168907165527344,-0.7699230595856094,-33.467496917756996,-90.90721894373007,-50.452324,5.438398,0.18821692,112.14661,-27.515755,-0.31172282,-44.962513,-22.45687,-13.881844,113.69751,-34.986794,-11.076544,-3.209805,-0.14066532,29.793802,-17.029835,18.536886,-51.697113,30.756897,18.83482,-3.283652,25.009077,-15.885686,-12.496514,42.73859,28.96027,-17.835314,4.8159175,-21.52108
20,0.2663268446922302,5.213329315185547,44.163841247558594,-0.7720469235524476,-33.20566104704038,-90.90109118698797,-50.80282,5.424244,0.19788304,112.138145,-27.43211,-0.2673638,-45.313316,-22.467731,-13.867074,113.692245,-34.911057,-11.08175,-3.2771716,-0.123694144,29.793802,-17.295593,19.018225,-51.82263,29.76505,18.794443,-3.2572353,24.61463,-16.256117,-12.595616,42.546925,28.233772,-17.298872,4.5812106,-20.999979
21,0.2746110260486603,5.227371692657471,44.1636962890625,-0.7806758705889905,-32.93554072985106,-90.88256502669955,-51.16105,5.4055405,0.21090172,112.124115,-27.351383,-0.23794448,-45.665882,-22.495129,-13.859355,113.68691,-34.835117,-11.0860405,-3.345117,-0.10045917,29.793802,-17.622448,19.47222,-51.95773,28.85601,18.947508,-3.1687117,24.369995,-16.655746,-12.67223,42.387234,27.578217,-17.297346,4.5615315,-20.650183
22,0.28331589698791504,5.23843240737915,44.170555114746094,-0.7940740666071865,-32.654928282009095,-90.85385030572716,-51.531666,5.3810587,0.22567101,112.1052,-27.269808,-0.21602023,-46.025364,-22.535,-13.856399,113.67948,-34.757755,-11.089553,-3.4135633,-0.070584595,29.793802,-18.008364,19.893599,-52.097164,28.021288,19.307652,-3.0077677,24.259632,-17.094002,-12.723241,42.251293,26.995548,-17.6587,4.6719165,-20.442274
23,0.2980068027973175,5.244596481323242,44.17320251464844,-0.8090860686353201,-32.359062087212976,-90.82533917370473,-51.918762,5.3568625,0.23911498,112.08683,-27.186708,-0.19450195,-46.398907,-22.575155,-13.855974,113.671425,-34.681774,-11.091413,-3.4746804,-0.03500304,29.793802,-18.441574,20.28108,-52.235497,27.255903,19.683804,-2.847045,24.229641,-17.564592,-12.747111,42.132076,26.477726,-18.16045,4.8398814,-20.353407
24,0.3084699809551239,5.251230716705322,44.17537307739258,-0.8206862393863525,-32.04317452151982,-90.80712927190392,-52.32782,5.339563,0.24797995,112.07049,-27.099606,-0.16602637,-46.796154,-22.601585,-13.85392,113.66054,-34.606133,-11.088419,-3.5217319,0.004587456,29.793802,-18.901503,20.634981,-52.361557,26.548521,19.891731,-2.7582347,24.227474,-18.060434,-12.743315,42.022923,26.014048,-18.579489,4.995318,-20.361874
25,0.31857025623321533,5.255382537841797,44.174034118652344,-0.8310447485329138,-31.708721821076608,-90.80017588751757,-52.757984,5.3284287,0.24788775,112.060585,-27.008911,-0.12665693,-47.21032,-22.613205,-13.856493,113.64542,-34.53974,-11.080796,-3.5488238,0.050908823,29.793802,-19.393234,20.95463,-52.479473,25.90401,19.875391,-2.7729201,24.260462,-18.578428,-12.70971,41.930435,25.606464,-18.908276,5.1524224,-20.512833
26,0.3240202069282532,5.257948875427246,44.18183898925781,-0.8413764485345758,-31.35720650402987,-90.7999245670564,-53.20774,5.3217072,0.24234492,112.05409,-26.914532,-0.07987288,-47.642338,-22.61396,-13.859518,113.628296,-34.474686,-11.065723,-3.5609918,0.10396506,29.793802,-19.926537,21.23956,-52.594,25.327986,19.732985,-2.8482683,24.349977,-19.124466,-12.645244,41.854637,25.261358,-19.247234,5.3398833,-20.800457
27,0.32581207156181335,5.258748531341553,44.18947219848633,-0.8463218716050626,-30.984632740936615,-90.80772059273268,-53.678932,5.320355,0.2360393,112.0466,-26.818224,-0.03444129,-48.09891,-22.608376,-13.862544,113.60755,-34.408276,-11.054102,-3.5676246,0.1579166,29.793802,-20.482548,21.491455,-52.691296,24.805971,19.516634,-2.9446712,24.464703,-19.696701,-12.551623,41.776405,24.96714,-19.539318,5.5082884,-21.128841
28,0.33057865500450134,5.258185863494873,44.2027702331543,-0.8467776572115585,-30.586434523754868,-90.8233280687771,-54.17335,5.3261194,0.23430635,112.0345,-26.721342,0.0014947669,-48.5878,-22.600342,-13.862853,113.58773,-34.336205,-11.055689,-3.5785592,0.2070345,29.793802,-21.037529,21.713024,-52.75485,24.318733,19.282555,-3.0220773,24.573679,-20.289846,-12.431919,41.675373,24.707058,-19.728321,5.606589,-21.40342
29,0.33008691668510437,5.2572197914123535,44.2137451171875,-0.8401559831775549,-30.16271516271815,-90.85035121969388,-54.69163,5.343217,0.23591936,112.01882,-26.62424,0.023037389,-49.11063,-22.587093,-13.862524,113.56641,-34.256958,-11.076622,-3.5971172,0.24991392,29.793802,-21.570826,21.902683,-52.76778,23.860664,19.038815,-3.0753825,24.679676,-20.90682,-12.287841,41.546066,24.485624,-19.782032,5.600725,-21.607693
30,0.3334805369377136,5.2509331703186035,44.2227783203125,-0.8301591796686607,-29.716241931446284,-90.88709579235625,-55.231655,5.3699946,0.23793843,112.00069,-26.526531,0.035440896,-49.661964,-22.56706,-13.8629055,113.54345,-34.172802,-11.110606,-3.6119397,0.29576448,29.793802,-22.138643,22.069895,-52.768257,23.454908,18.71713,-3.1258085,24.7949,-21.546137,-12.121073,41.392853,24.308928,-19.737612,5.524053,-21.790688
31,0.33583658933639526,5.240335464477539,44.23454666137695,-0.8131524485930995,-29.24213961565694,-90.92756316013417,-55.796978,5.397021,0.24714574,111.97798,-26.426828,0.045932565,-50.24676,-22.548923,-13.857071,113.52074,-34.085087,-11.148441,-3.636632,0.32611787,29.793802,-22.651772,22.19953,-52.70485,23.059149,18.444122,-3.1652553,24.90462,-22.19795,-11.932248,41.235687,24.144604,-19.639769,5.424192,-21.951513
32,0.33600443601608276,5.2282609939575195,44.25167465209961,-0.7890738458128074,-28.743649302074665,-90.96624046742599,-56.382854,5.4171276,0.26444834,111.94767,-26.325876,0.060973443,-50.857254,-22.53743,-13.84392,113.49762,-33.995525,-11.180557,-3.6451974,0.36537182,29.793802,-23.287622,22.327526,-52.698402,22.730988,18.074171,-3.1968405,24.990498,-22.854416,-11.729662,41.05992,23.992914,-19.534344,5.3513703,-22.096
33,0.33848997950553894,5.210422515869141,44.26786804199219,-0.752714432594689,-28.214389301388486,-91.00617938027935,-56.994442,5.43013,0.2944696,111.910835,-26.22312,0.08191052,-51.504337,-22.533125,-13.819056,113.47584,-33.902542,-11.206745,-3.6707714,0.3742346,29.793802,-23.806545,22.41998,-52.594578,22.367136,17.8361,-3.2005305,25.056223,-23.511938,-11.514659,40.908005,23.81454,-19.392881,5.3077936,-22.234821
34,0.3369618058204651,5.190372943878174,44.2889518737793,-0.7089539801342419,-27.659985071117394,-91.04906563770083,-57.62653,5.44093,0.33156607,111.86684,-26.119799,0.10477983,-52.1794,-22.531427,-13.7881775,113.453514,-33.806274,-11.230853,-3.6913075,0.38110363,29.793802,-24.361305,22.491898,-52.4844,22.041323,17.570168,-3.188583,25.106068,-24.17011,-11.289535,40.750916,23.635612,-19.207174,5.2720165,-22.366505
35,0.33636507391929626,5.1670355796813965,44.315364837646484,-0.6581713522941307,-27.076023673294237,-91.08514685586624,-58.28589,5.442811,0.38050088,111.81625,-26.01266,0.13096258,-52.88943,-22.539923,-13.745822,113.43215,-33.708366,-11.251839,-3.7157977,0.3790397,29.793802,-24.931778,22.545921,-52.365498,21.748514,17.32232,-3.1766033,25.13582,-24.825727,-11.055991,40.57679,23.451805,-19.040648,5.251458,-22.455475
36,0.3350652754306793,5.141785144805908,44.33962631225586,-0.5962234880166604,-26.45794334304695,-91.10684418966446,-58.978428,5.429336,0.44707987,111.75723,-25.897884,0.16183433,-53.642647,-22.567417,-13.684911,113.416534,-33.610924,-11.268486,-3.7605057,0.35592452,29.793802,-25.48445,22.571856,-52.220795,21.489656,17.156746,-3.180214,25.140934,-25.482641,-10.813559,40.38331,23.26306,-18.954128,5.2536054,-22.466475
37,0.3322868049144745,5.11096715927124,44.371063232421875,-0.5243510075045471,-25.82220487643226,-91.1133742222839,-59.6834,5.3993387,0.53101385,111.687225,-25.775385,0.19293407,-54.422264,-22.603676,-13.598766,113.40159,-33.507504,-11.273631,-3.7923615,0.33875275,29.793802,-26.163076,22.605139,-52.157192,21.313507,16.907032,-3.227273,25.120668,-26.12637,-10.566346,40.1272,23.081858,-18.978045,5.2943664,-22.375515
38,0.33253633975982666,5.073294639587402,44.3930549621582,-0.4395727175398958,-25.16027227272584,-91.10882249935595,-60.410126,5.355454,0.63446397,111.60454,-25.644459,0.2258408,-55.240276,-22.649446,-13.48762,113.38658,-33.397156,-11.270006,-3.8403747,0.2968731,29.793802,-26.805477,22.626886,-52.06537,21.14888,16.722563,-3.2955816,25.080355,-26.757292,-10.312153,39.846695,22.88111,-19.075174,5.3633356,-22.20224
39,0.33874982595443726,5.03082799911499,44.41672134399414,-0.3510132416991556,-24.451684535529303,-91.09004257638875,-61.18641,5.3011193,0.7492427,111.52071,-25.51103,0.2671305,-56.106537,-22.72187,-13.373982,113.38208,-33.298725,-11.272534,-3.9030137,0.24770218,29.793802,-27.474121,22.642157,-51.9672,21.010921,16.583904,-3.3500576,25.01204,-27.412374,-10.055618,39.560154,22.692339,-19.20578,5.434898,-21.993803
40,0.33174121379852295,4.981758117675781,44.44589614868164,-0.2659703630790208,-23.673489712009133,-91.05568364495603,-62.04256,5.239892,0.8690099,111.4438,-25.379757,0.32456467,-57.03791,-22.836826,-13.276803,113.3946,-33.224895,-11.293035,-3.9832406,0.20127761,29.793802,-28.188526,22.65964,-51.863327,20.888544,16.508823,-3.3533187,24.909029,-28.119219,-9.805377,39.288605,22.530012,-19.3311,5.4834156,-21.794926
41,0.3306077718734741,4.917980194091797,44.46735382080078,-0.18883147691720592,-22.824523635408877,-90.99767047718375,-62.989536,5.161487,0.9874754,111.38186,-25.248344,0.39798015,-58.037113,-23.004305,-13.19903,113.43421,-33.183247,-11.334132,-4.0914187,0.16119646,29.793802,-28.948833,22.689009,-51.745335,20.76681,16.5119,-3.2870126,24.751118,-28.89221,-9.5730915,39.04531,22.396936,-19.42269,5.4853587,-21.609118
42,0.32746070623397827,4.843307971954346,44.49054718017578,-0.11292527871722333,-21.913925146245006,-90.92068656669157,-64.0107,5.068186,1.110685,111.32708,-25.115313,0.4839259,-59.09815,-23.21293,-13.129559,113.49296,-33.164513,-11.389362,-4.2225976,0.12183355,29.793802,-29.734219,22.731667,-51.611732,20.639885,16.587763,-3.1736412,24.547213,-29.694826,-9.359439,38.815693,22.263365,-19.514265,5.460775,-21.41459
43,0.3223094046115875,4.757106781005859,44.5060920715332,-0.03490746983908723,-20.93635559245987,-90.83851851146636,-65.095375,4.9835143,1.2469147,111.26988,-24.98853,0.5841383,-60.219276,-23.44826,-13.070455,113.55657,-33.161613,-11.459833,-4.34085,0.094252594,29.793802,-30.574886,22.793535,-51.507523,20.516764,16.679619,-3.038657,24.33244,-30.46588,-9.148611,38.56164,22.101229,-19.67863,5.4502397,-21.219072
44,0.32011178135871887,4.65181303024292,44.522953033447266,0.05993269243458493,-19.891257395207777,-90.76497504988862,-66.22451,4.9287114,1.4117353,111.19955,-24.876505,0.701459,-61.397427,-23.698313,-13.015334,113.61655,-33.170273,-11.545608,-4.468035,0.036556505,29.793802,-31.454733,22.881023,-51.412674,20.429352,16.77024,-2.9040792,24.147036,-31.398888,-8.975472,38.356075,22.021658,-19.749899,5.487897,-21.02401
45,0.30549317598342896,4.535881042480469,44.5492057800293,0.16613933159639585,-18.764627724470056,-90.70824048490525,-67.423965,4.9195137,1.6003762,111.12706,-24.78892,0.8441978,-62.64335,-23.979582,-12.98697,113.68063,-33.208492,-11.658966,-4.5517044,-0.01351314,29.793802,-32.412075,23.003233,-51.378395,20.358059,16.834173,-2.7758229,23.995354,-32.325275,-8.823472,38.138298,21.924498,-19.862173,5.5832086,-20.862148
46,0.29215019941329956,4.3997697830200195,44.583457946777344,0.2826839563763492,-17.561741866603,-90.65834580194853,-68.69179,4.9419403,1.8078033,111.0539,-24.719946,1.0082332,-63.955265,-24.291683,-12.978561,113.750565,-33.273643,-11.795298,-4.609929,-0.060308274,29.793802,-33.42273,23.158844,-51.381847,20.289108,16.900776,-2.6404803,23.858446,-33.25392,-8.681784,37.91306,21.817768,-20.014711,5.7166934,-20.71903
47,0.27171337604522705,4.246143341064453,44.628353118896484,0.40801888019466664,-16.304835369647627,-90.60254037615896,-69.97922,4.9763465,2.037032,110.95502,-24.65424,1.1760764,-65.309944,-24.593605,-12.951858,113.80259,-33.327274,-11.930535,-4.690706,-0.12873764,29.793802,-34.460873,23.351236,-51.392372,20.231558,16.95279,-2.496549,23.732517,-34.314293,-8.579502,37.71539,21.770256,-20.113607,5.88944,-20.53464
48,0.2640044391155243,4.079165935516357,44.68492889404297,0.5385426681216889,-15.005713406761307,-90.52883932238129,-71.253456,5.004429,2.2827673,110.808876,-24.57417,1.3291788,-66.69151,-24.842577,-12.878218,113.81169,-33.32787,-12.043075,-4.7717066,-0.18257938,29.793802,-35.516304,23.570553,-51.43343,20.14778,16.968771,-2.3439002,23.608912,-35.301594,-8.487847,37.44697,21.652502,-20.371939,6.1100745,-20.25373
49,0.2619420289993286,3.8938939571380615,44.75907516479492,0.6851952707296256,-13.645386638386881,-90.41990727295847,-72.5411,5.0155134,2.5631292,110.616875,-24.46517,1.4555473,-68.15199,-25.034239,-12.707479,113.79174,-33.25927,-12.086418,-4.8893046,-0.24698107,29.793802,-36.62375,23.820965,-51.499866,20.059116,16.963293,-2.1692996,23.47263,-36.333385,-8.417572,37.11934,21.518688,-20.743177,6.3954697,-19.8149
50,0.24845699965953827,3.6801376342773438,44.8669548034668,0.8480098373929824,-12.22201635340835,-90.28585147260299,-73.85225,5.02328,2.872332,110.390915,-24.340847,1.5666701,-69.68389,-25.187176,-12.468362,113.75062,-33.145676,-12.086103,-5.024518,-0.31417054,29.793802,-37.77817,24.101236,-51.59398,19.965328,16.944038,-1.9770855,23.330612,-37.379692,-8.365965,36.740807,21.358177,-21.22433,6.7354274,-19.261765
51,0.22705474495887756,3.457501173019409,45.01679611206055,1.0049538554527053,-10.788429565060015,-90.1568477731438,-75.106285,5.042933,3.1784606,110.11528,-24.22633,1.6803757,-71.17115,-25.297523,-12.24118,113.649506,-33.00573,-12.124572,-5.1513476,-0.37010986,29.793802,-38.916714,24.40114,-51.70069,19.87448,16.865396,-1.7927063,23.215893,-38.435444,-8.331551,36.355316,21.216208,-21.72985,7.087817,-18.691347
52,0.22716641426086426,3.2207579612731934,45.18735122680664,1.1360422920207298,-9.395094116343243,-90.06284215405245,-76.22608,5.088374,3.4486222,109.77856,-24.146757,1.8153766,-72.49842,-25.364468,-12.109957,113.44989,-32.857193,-12.284927,-5.2425485,-0.39937422,29.793802,-39.971436,24.698757,-51.798935,19.797325,16.693224,-1.6416295,23.162079,-39.468063,-8.304429,35.9979,21.120714,-22.196795,7.4137697,-18.20404
53,0.22121630609035492,2.9853832721710205,45.404903411865234,1.2387414940279973,-8.03333621833342,-90.01572444900154,-77.210396,5.16406,3.680338,109.36634,-24.096655,2.002884,-73.666084,-25.390156,-12.1082535,113.13749,-32.68195,-12.674771,-5.281047,-0.39343405,29.793802,-40.959007,24.979076,-51.88617,19.747776,16.428246,-1.5536386,23.15742,-40.466278,-8.276715,35.634445,21.034939,-22.669773,7.734473,-17.751926
54,0.2074708640575409,2.7339556217193604,45.676536560058594,1.3207150687983973,-6.683351674362396,-89.99873042216853,-78.09516,5.2621813,3.8863301,108.88842,-24.066088,2.225189,-74.72363,-25.378572,-12.19187,112.73256,-32.47816,-13.221514,-5.286909,-0.3640394,29.793802,-41.91309,25.235804,-51.969337,19.741655,16.090744,-1.5083481,23.191938,-41.462784,-8.250786,35.26174,20.974638,-23.154352,8.060028,-17.307573
55,0.19185519218444824,2.4713757038116455,45.99807357788086,1.3786679976824605,-5.378209392901618,-90.00139915785125,-78.85893,5.3744855,4.056811,108.37018,-24.07103,2.4284334,-75.62654,-25.331535,-12.330701,112.25517,-32.288616,-13.738167,-5.276715,-0.31727353,29.793802,-42.80119,25.456152,-52.05169,19.788683,15.668521,-1.4570076,23.301414,-42.453342,-8.221476,34.94322,21.026237,-23.567102,8.340198,-17.00544
56,0.16971850395202637,2.2025108337402344,46.35788345336914,1.406505078510464,-4.152655625579304,-90.01290918416089,-79.47999,5.4949975,4.182736,107.833466,-24.127073,2.5582974,-76.33211,-25.248894,-12.491888,111.720215,-32.15332,-14.036146,-5.2664638,-0.25931817,29.793802,-43.594913,25.626648,-52.139133,19.902897,15.14405,-1.3522929,23.521967,-43.446014,-8.180172,34.74447,21.288757,-23.81761,8.527275,-16.98189
57,0.1595790535211563,1.9165135622024536,46.7318000793457,1.3909387822954726,-3.007542649241161,-90.0367531763393,-79.94559,5.63326,4.250758,107.27508,-24.249073,2.5908422,-76.80451,-25.116053,-12.68839,111.10769,-32.08057,-14.029872,-5.2563615,-0.18218565,29.793802,-44.294426,25.735884,-52.229626,20.122517,14.472914,-1.2413999,23.898956,-44.45404,-8.119695,34.66244,21.783144,-23.842127,8.580346,-17.30636
58,0.14205893874168396,1.6154279708862305,47.136260986328125,1.3379976599367505,-1.927778831770365,-90.07810387311235,-80.269264,5.7870564,4.2708054,106.68537,-24.425188,2.559397,-77.0747,-24.937319,-12.930354,110.41458,-32.04808,-13.831181,-5.2360806,-0.085957296,29.793802,-44.9218,25.777775,-52.32316,20.446259,13.678026,-1.1348904,24.401289,-45.471012,-8.037142,34.661858,22.464308,-23.707008,8.535485,-17.897074
59,0.11763016134500504,1.3048770427703857,47.56068801879883,1.274850988977889,-0.9248213306405266,-90.12961780911283,-80.4682,5.9323726,4.2713237,106.080925,-24.628212,2.4953394,-77.20045,-24.739939,-13.177651,109.69071,-32.05412,-13.548502,-5.2130065,0.0056942967,29.793802,-45.474384,25.746885,-52.418324,20.830315,12.848579,-0.9283393,24.953382,-46.487682,-7.932016,34.766872,23.332754,-23.500008,8.460409,-18.662682
60,0.11001643538475037,0.9845432639122009,48.00177764892578,1.2324749155744241,-0.010009258530837025,-90.1823659824719,-80.557526,6.0440345,4.2812524,105.47564,-24.834358,2.4299147,-77.24131,-24.55131,-13.389442,108.98635,-32.092754,-13.289493,-5.1986794,0.067661114,29.793802,-45.947296,25.638231,-52.51006,21.232056,12.074381,-0.5141264,25.482038,-47.499577,-7.8055515,35.007156,24.389847,-23.300194,8.424574,-19.512798
61,0.09742720425128937,0.6588493585586548,48.44583511352539,1.2152927868580239,0.8098500498488898,-90.23184188851934,-80.5305,6.105195,4.300557,104.87058,-25.037443,2.3639193,-77.1941,-24.379559,-13.561697,108.30701,-32.175694,-13.078186,-5.1965175,0.09244833,29.793802,-46.336952,25.447384,-52.61507,21.623209,11.388434,0.24131772,26.035048,-48.518074,-7.6565223,35.41598,25.674793,-23.054308,8.407295,-20.55328
62,0.1094740554690361,0.3233851194381714,48.888214111328125,1.2106492049667537,1.5417494068942006,-90.28271079859867,-80.38218,6.133871,4.317121,104.25737,-25.250515,2.28369,-77.03356,-24.210712,-13.714156,107.63042,-32.30205,-12.860307,-5.2006984,0.0917229,29.793802,-46.65077,25.170958,-52.729378,22.042624,10.735039,1.2450556,26.635056,-49.54037,-7.483846,35.96845,27.166924,-22.743776,8.381752,-21.788443
63,0.10362102091312408,-0.027434606105089188,49.33683776855469,1.214617476883858,2.1946561133570217,-90.33997433896464,-80.13138,6.151933,4.3408785,103.64348,-25.478296,2.198316,-76.78378,-24.036999,-13.842789,106.95761,-32.448853,-12.624722,-5.199688,0.07686651,29.793802,-46.904003,24.810516,-52.82785,22.538298,10.066661,2.268587,27.169567,-50.532192,-7.2897077,36.598648,28.780811,-22.505089,8.415378,-22.977879
64,0.09104219824075699,-0.38221001625061035,49.79084777832031,1.2245492726942426,2.778074134488137,-90.40865223425216,-79.797554,6.181145,4.3822308,103.03533,-25.725449,2.1160798,-76.46938,-23.852459,-13.943084,106.29523,-32.595432,-12.361883,-5.1862,0.05737786,29.793802,-47.108524,24.369009,-52.881653,23.15733,9.34705,3.0860498,27.522665,-51.46695,-7.0792093,37.249332,30.436882,-22.468916,8.581809,-23.881626
65,0.09310903400182724,-0.7390838861465454,50.24371337890625,1.2448107131374233,3.282005451723763,-90.4905605319711,-79.371315,6.2253213,4.4508104,102.44096,-26.000061,2.0362425,-76.08941,-23.654741,-14.000754,105.654205,-32.744045,-12.056616,-5.158614,0.032516614,29.793802,-47.24872,23.845741,-52.883297,23.872656,8.503571,3.7102358,27.653036,-52.348083,-6.8559146,37.92166,32.12669,-22.775475,9.022568,-24.432877
66,0.12116061896085739,-1.1064488887786865,50.68678283691406,1.2774074975863599,3.7060415856553983,-90.58229837241402,-78.84783,6.2731676,4.539516,101.85497,-26.297062,1.9545578,-75.6332,-23.448694,-14.022755,105.02856,-32.90395,-11.719752,-5.120897,-0.00088390894,29.793802,-47.324253,23.238216,-52.849937,24.671988,7.583971,4.2429247,27.624851,-53.185,-6.619929,38.6422,33.88562,-23.317717,9.663048,-24.75659
67,0.13682588934898376,-1.4680474996566772,51.13771057128906,1.3093851290824294,4.071922288607698,-90.6820069079043,-78.251076,6.3219957,4.6330366,101.263016,-26.601696,1.8736527,-75.109695,-23.237421,-14.036879,104.396805,-33.064808,-11.37939,-5.067959,-0.031071363,29.793802,-47.36803,22.553778,-52.797474,25.6115,6.729131,4.5930004,27.473124,-53.96135,-6.3749146,39.388725,35.708214,-23.854263,10.25234,-24.905704
68,0.14159272611141205,-1.8394449949264526,51.58803939819336,1.3318025403266054,4.401369946679849,-90.7875465032631,-77.60508,6.370938,4.7155776,100.64777,-26.89828,1.7961932,-74.52825,-23.022446,-14.070966,103.73361,-33.21505,-11.06281,-4.9950314,-0.04681203,29.793802,-47.408978,21.8076,-52.740337,26.73963,6.077218,4.6676693,27.228943,-54.65999,-6.1279674,40.138912,37.586166,-24.142939,10.538959,-24.94092
69,0.14286911487579346,-2.205397367477417,52.05580520629883,1.3434586455661042,4.689127108945101,-90.89783791967872,-76.90754,6.4171963,4.7816324,100.01519,-27.189121,1.7205033,-73.88329,-22.805962,-14.130109,103.0431,-33.35867,-10.781369,-4.9047413,-0.049071934,29.793802,-47.433372,21.008913,-52.655586,28.094357,5.5162783,4.2732935,26.851503,-55.279053,-5.8858104,40.874794,39.535034,-24.182423,10.430284,-24.814232
70,0.1549084186553955,-2.5719153881073,52.52665328979492,1.3493509383668958,4.927067423883442,-91.01436211411404,-76.14843,6.4621887,4.8401537,99.37046,-27.48036,1.6454084,-73.17293,-22.585531,-14.199516,102.33505,-33.499786,-10.51862,-4.799216,-0.04168807,29.793802,-47.424397,20.162628,-52.545464,29.621418,5.014974,3.5198462,26.33179,-55.82537,-5.651923,41.615597,41.54717,-24.079256,10.069423,-24.516058
71,0.1717706173658371,-2.9408135414123535,53.01250076293945,1.3508545868353827,5.134609647953189,-91.13862554903491,-75.340706,6.5095534,4.898142,98.69726,-27.763021,1.5747286,-72.413475,-22.355915,-14.275969,101.59296,-33.62454,-10.25961,-4.6775737,-0.0215574,29.793802,-47.402737,19.27951,-52.45444,31.231909,4.837517,2.7631032,25.757504,-56.29456,-5.4277935,42.40281,43.579247,-23.752535,9.559881,-24.165695
72,0.18875417113304138,-3.308811664581299,53.509254455566406,1.3474703650195015,5.331432689088494,-91.27232865833625,-74.49714,6.5651207,4.962535,97.9802,-28.028593,1.5121399,-71.6224,-22.112043,-14.355588,100.80155,-33.72031,-9.98945,-4.539758,0.012601596,29.793802,-47.38721,18.375162,-52.425976,32.83538,5.254287,2.351542,25.225103,-56.68197,-5.213713,43.27931,45.588684,-23.123604,9.004113,-23.880257
73,0.19937178492546082,-3.6866278648376465,54.02452850341797,1.3456366157303756,5.5231100072062285,-91.41884926109572,-73.61796,6.6306753,5.040524,97.21656,-28.277573,1.4648731,-70.80535,-21.851006,-14.432388,99.95777,-33.7826,-9.702478,-4.3912983,0.055435468,29.793802,-47.369705,17.462667,-52.441933,34.41669,6.409073,2.3595407,24.721704,-56.982937,-5.0105863,44.241394,47.578167,-22.039234,8.344635,-23.683107
74,0.20083636045455933,-4.058499813079834,54.558921813964844,1.3412474950125235,5.699689666726135,-91.57646591785259,-72.69732,6.70335,5.1277413,96.41433,-28.51381,1.4284902,-69.95453,-21.575912,-14.507886,99.06961,-33.818558,-9.406627,-4.236197,0.10296877,29.793802,-47.33305,16.550241,-52.48605,36.00384,8.135984,2.595151,24.205633,-57.201496,-4.819042,45.28201,49.566143,-20.585804,7.5568347,-23.500881
75,0.22889591753482819,-4.435689926147461,55.0872688293457,1.3303257023831427,5.8574031778346365,-91.73850620155736,-71.739525,6.7775035,5.214484,95.570755,-28.73235,1.3899108,-69.0647,-21.289856,-14.590222,98.136536,-33.83182,-9.107336,-4.0732656,0.15726675,29.793802,-47.283226,15.646091,-52.60292,37.580246,10.247832,3.0032384,23.727152,-57.34531,-4.637128,46.4362,51.53139,-19.045591,6.7901006,-23.314154
76,0.24905917048454285,-4.808795928955078,55.63673400878906,1.3104417883426858,5.9924890150309365,-91.89777344774865,-70.748726,6.846899,5.291093,94.68338,-28.928076,1.3364779,-68.13151,-20.996113,-14.687327,97.15827,-33.82594,-8.810185,-3.901242,0.22007346,29.793802,-47.225998,14.758142,-52.83622,39.130726,12.558762,3.537118,23.337479,-57.425644,-4.4619207,47.738453,53.454582,-17.699953,6.192286,-23.117344
77,0.2637266516685486,-5.177595615386963,56.194339752197266,1.276057459757522,6.103450963168906,-92.05713062285342,-69.723946,6.9144697,5.3538184,93.75359,-29.106672,1.26207,-67.15184,-20.689764,-14.802915,96.13385,-33.802883,-8.517611,-3.719297,0.28863522,29.793802,-47.154976,13.892527,-53.193554,40.640533,15.320214,4.329769,23.05137,-57.451633,-4.291255,49.231808,55.357323,-16.635052,5.822087,-22.958786
78,0.2689495086669922,-5.54477596282959,56.754112243652344,1.2317083474671173,6.19237172190787,-92.21857218872579,-68.66337,6.9815726,5.410072,92.78194,-29.26863,1.1757923,-66.129974,-20.371473,-14.927586,95.064,-33.75966,-8.223222,-3.5336545,0.35749543,29.793802,-47.059296,13.054435,-53.650814,42.11797,18.537794,5.360853,22.803568,-57.42229,-4.124895,50.891308,57.24776,-15.698129,5.5913043,-22.83585
79,0.2793442904949188,-5.915369033813477,57.33241271972656,1.1836390136539459,6.261033516804761,-92.37486829814385,-67.56911,7.042368,5.4649353,91.76395,-29.401237,1.0858186,-65.07036,-20.050142,-15.055178,93.94865,-33.693672,-7.9243093,-3.3519862,0.4258568,29.793802,-46.939198,12.249569,-54.205074,43.58098,21.649729,6.3606887,22.559893,-57.33248,-3.9634001,52.647892,59.087627,-14.810149,5.42772,-22.672367
80,0.2851286232471466,-6.281957626342773,57.91740417480469,1.1375116466598103,6.3112365263115136,-92.51846359495184,-66.44327,7.0895343,5.524452,90.695244,-29.491585,1.0014375,-63.9776,-19.73407,-15.182281,92.787964,-33.60303,-7.6211743,-3.1803606,0.49526435,29.793802,-46.799328,11.483463,-54.85433,45.044384,24.086435,7.062854,22.331545,-57.175167,-3.8082998,54.432087,60.83762,-13.891436,5.262024,-22.388391
81,0.2972069978713989,-6.647913932800293,58.51493453979492,1.094756651216285,6.342560103302453,-92.64475695346265,-65.28688,7.1188183,5.589661,89.57678,-29.53729,0.92872256,-62.851364,-19.427439,-15.304793,91.58413,-33.49234,-7.311357,-3.0211542,0.5674793,29.793802,-46.64343,10.759999,-55.60744,46.508976,25.825447,7.4683685,22.15149,-56.94618,-3.6624053,56.274086,62.511417,-12.945651,5.095941,-21.960398
82,0.30706411600112915,-7.0083088874816895,59.11604309082031,1.0526556456613854,6.3545626616926825,-92.75844069498473,-64.098045,7.1339355,5.65741,88.40959,-29.544931,0.8610934,-61.689365,-19.124521,-15.425939,90.33591,-33.36157,-6.997301,-2.872741,0.64100754,29.793802,-46.46665,10.08163,-56.46186,47.963394,27.123,7.704656,22.032127,-56.651264,-3.5282912,58.199745,64.127304,-12.006005,4.963231,-21.433231
83,0.3052072525024414,-7.366710186004639,59.733154296875,1.0110238480522546,6.349409655291084,-92.86630588939524,-62.876595,7.140628,5.7268853,87.19014,-29.51579,0.7887111,-60.494278,-18.82154,-15.55022,89.03997,-33.201805,-6.682945,-2.7332466,0.71470886,29.793802,-46.263805,9.450048,-57.399246,49.40519,27.825521,7.6983237,21.980753,-56.29625,-3.4059427,60.130318,65.652504,-11.037354,4.8446264,-20.826406
84,0.30396977066993713,-7.732044219970703,60.35570526123047,0.9695776536960933,6.329203021098099,-92.97522748328088,-61.621895,7.144481,5.797237,85.91494,-29.450829,0.7019934,-59.267906,-18.514322,-15.682399,87.691444,-33.003033,-6.3718314,-2.599047,0.78809583,29.793802,-46.030857,8.866007,-58.40466,50.832935,27.778635,7.373724,22.000704,-55.88508,-3.292883,61.983547,67.05233,-10.00406,4.720815,-20.158566
85,0.2997823655605316,-8.094096183776855,60.992645263671875,0.9273243506355152,6.292037502889693,-93.08915897705651,-60.32999,7.147993,5.866579,84.582436,-29.352493,0.59345686,-58.007633,-18.198742,-15.823281,86.28855,-32.761875,-6.065529,-2.4676178,0.86326736,29.793802,-45.772522,8.332373,-59.509514,52.263332,26.738703,6.6189137,22.141453,-55.405357,-3.1867385,63.74895,68.31658,-8.855328,4.5636644,-19.39578
86,0.28944581747055054,-8.452083587646484,61.6348876953125,0.8844766353430844,6.237751796786001,-93.20386350886308,-59.00191,7.147597,5.935518,83.19435,-29.219503,0.4698941,-56.7134,-17.877028,-15.969946,84.833755,-32.484085,-5.7618446,-2.3396993,0.94001275,29.793802,-45.489563,7.851916,-60.71522,53.69357,24.861301,5.49841,22.35827,-54.858097,-3.087967,65.46696,69.47148,-7.6231394,4.3969774,-18.539864
87,0.2917875647544861,-8.813104629516602,62.288169860839844,0.8429866876627714,6.171226022413558,-93.31329686773257,-57.646164,7.139964,6.007152,81.75226,-29.048,0.3433231,-55.391293,-17.553888,-16.120619,83.32842,-32.173504,-5.458335,-2.2180917,1.0133693,29.793802,-45.172787,7.422268,-61.956566,55.09449,22.591248,4.2051063,22.515404,-54.26821,-2.9969127,67.13517,70.534706,-6.3970575,4.276492,-17.662802
88,0.2856636345386505,-9.175965309143066,62.94063949584961,0.8046171728315962,6.097065793183304,-93.4111496919497,-56.269707,7.121949,6.0844154,80.25593,-28.83396,0.2256792,-54.046402,-17.233845,-16.274273,81.7728,-31.833334,-5.152711,-2.1038315,1.0806416,29.793802,-44.817574,7.036723,-63.169487,56.43775,20.3605,2.9427545,22.504837,-53.661827,-2.9123626,68.74973,71.52736,-5.268392,4.2499228,-16.839552
89,0.27204006910324097,-9.542884826660156,63.606040954589844,0.7725354427430854,6.009867120665872,-93.49477589250232,-54.864132,7.0891256,6.171399,78.70192,-28.574606,0.12197104,-52.67051,-16.922033,-16.428501,80.165924,-31.468306,-4.8450933,-1.9915428,1.1435372,29.793802,-44.421906,6.6898036,-64.363365,57.72489,18.083143,1.6548853,22.276924,-53.026203,-2.8316112,70.30612,72.43609,-4.237403,4.3496,-16.066624
90,0.27073776721954346,-9.904767990112305,64.27338409423828,0.7447347630479637,5.909294210926622,-93.56777300321566,-53.42635,7.0436807,6.2649302,77.08709,-28.275654,0.025137257,-51.26306,-16.613747,-16.58457,78.50696,-31.075253,-4.536893,-1.8795681,1.2056698,29.793802,-43.99429,6.3792734,-65.566055,58.975414,15.585381,0.28365186,21.878437,-52.35188,-2.7526097,71.80645,73.26094,-3.2654276,4.539352,-15.315464
91,0.2619721293449402,-10.263615608215332,64.94213104248047,0.7148717633099362,5.808185874122244,-93.63373214148045,-51.981228,6.9927435,6.356312,75.42764,-27.936289,-0.070903495,-49.8437,-16.300322,-16.745573,76.80006,-30.646826,-4.2274275,-1.7758288,1.2670268,29.793802,-43.545128,6.1011906,-66.738655,60.18685,13.163406,-0.96991724,21.392761,-51.668465,-2.6740816,73.25597,74.03558,-2.3847265,4.762341,-14.622538
92,0.23975495994091034,-10.623462677001953,65.60940551757812,0.6762860848524583,5.719445114074901,-93.69569607300878,-50.549458,6.943143,6.4373097,73.73051,-27.562925,-0.17241865,-48.429726,-15.972875,-16.916218,75.04544,-30.179285,-3.9165516,-1.691196,1.32688,29.793802,-43.082516,5.850216,-67.83655,61.357746,11.1230545,-1.9170222,20.932108,-51.003563,-2.594938,74.6613,74.786896,-1.6265498,4.9651513,-14.022277
93,0.21389243006706238,-10.981180191040039,66.27372741699219,0.6249881342511013,5.647695057142952,-93.75683567198301,-49.13717,6.9000025,6.504577,71.99434,-27.149918,-0.28273153,-47.02707,-15.620891,-17.09446,73.235176,-29.659948,-3.6016457,-1.6271305,1.3870207,29.793802,-42.607517,5.619984,-68.86817,62.489944,9.538054,-2.5028005,20.528606,-50.357098,-2.5129724,76.089966,75.52094,-0.9996165,5.1301913,-13.519945
94,0.19836930930614471,-11.330754280090332,66.92961120605469,0.5647859892008747,5.585836106988255,-93.81462805848136,-47.73228,6.8589735,6.562736,70.21408,-26.697609,-0.3977837,-45.625423,-15.2510605,-17.27797,71.36931,-29.095842,-3.2838721,-1.5796623,1.4482,29.793802,-42.11704,5.407168,-69.8454,63.59147,8.252063,-2.837692,20.153023,-49.71334,-2.4261134,77.518364,76.22679,-0.48620203,5.2822876,-13.097292
95,0.18534506857395172,-11.68690299987793,67.58930969238281,0.5021456304836026,5.52929874543871,-93.86387002608959,-46.332092,6.813296,6.6160216,68.39959,-26.21266,-0.51283413,-44.222424,-14.879378,-17.468937,69.46628,-28.502779,-2.9675407,-1.5502126,1.5075024,29.793802,-41.61415,5.211276,-70.73032,64.66597,7.2301364,-2.9904604,19.835285,-49.076923,-2.3336248,78.81555,76.90763,-0.075537115,5.4268584,-12.753238
96,0.16416867077350616,-12.04266357421875,68.23587036132812,0.44323860415093796,5.473757507628841,-93.89969093046626,-44.93561,6.756253,6.668576,66.56328,-25.702618,-0.62336683,-42.81757,-14.521096,-17.668858,67.54696,-27.896908,-2.655058,-1.5383586,1.5621449,29.793802,-41.10189,5.03317,-71.48687,65.713806,6.437157,-3.0292566,19.600088,-48.44988,-2.2346745,79.845406,77.55969,0.24150665,5.5698915,-12.486227
97,0.14430786669254303,-12.399665832519531,68.87049865722656,0.3870189337416431,5.424890759372777,-93.91837897730622,-43.546055,6.685881,6.71978,64.69439,-25.159422,-0.7295209,-41.410915,-14.179643,-17.885899,65.60129,-27.2748,-2.3493276,-1.5448911,1.6150328,29.793802,-40.584297,4.8701024,-72.124275,66.73338,5.9825945,-2.893391,19.455694,-47.832798,-2.124688,80.58114,78.175095,0.40644974,5.721285,-12.286475
98,0.12091955542564392,-12.751638412475586,69.49815368652344,0.33075958365746105,5.3829173124618555,-93.92340416610166,-42.16328,6.6054406,6.767482,62.79011,-24.582035,-0.83409274,-40.00207,-13.845354,-18.117525,63.621098,-26.628946,-2.0467498,-1.5676543,1.6663896,29.793802,-40.059055,4.7186255,-72.656525,67.72513,5.845336,-2.5773678,19.392826,-47.22034,-2.0004263,81.089005,78.752594,0.43423155,5.8726506,-12.156708
99,0.09591369330883026,-13.109451293945312,70.10888671875,0.2778769465760807,5.33542484789029,-93.9201143661213,-40.778313,6.5162525,6.813194,60.869686,-23.98647,-0.9365527,-38.58953,-13.515393,-18.352081,61.62829,-25.969591,-1.7451874,-1.600603,1.7105275,29.793802,-39.518204,4.5803814,-73.05455,68.68496,5.7945976,-2.229351,19.405037,-46.603092,-1.8632311,81.364914,79.28644,0.44701752,6.00401,-12.116184
100,0.07341112196445465,-13.465055465698242,70.70285034179688,0.23215007330353613,5.269852915667371,-93.9137074299479,-39.38186,6.419749,6.8577127,58.952133,-23.388863,-1.0361193,-37.170174,-13.188886,-18.579918,59.64401,-25.30788,-1.4434512,-1.6386516,1.740982,29.793802,-38.953304,4.460483,-73.288216,69.607025,5.60034,-2.000495,19.487362,-45.973427,-1.7192025,81.40771,79.77019,0.56596655,6.095297,-12.184467
101,0.04979684203863144,-13.817111015319824,71.2787857055664,0.19570314535973335,5.185929882167226,-93.90207262224821,-37.970947,6.3110566,6.8984566,57.028217,-22.784628,-1.1314287,-35.740932,-12.867944,-18.80058,57.661335,-24.639704,-1.1361489,-1.6846007,1.7552977,29.793802,-38.355995,4.362327,-73.34528,70.48785,5.2188673,-1.9229325,19.656025,-45.324074,-1.57129,81.1559,80.189896,0.83678573,6.1461325,-12.385263
102,0.02571357786655426,-14.172532081604004,71.8344955444336,0.16593198725677505,5.089305424825265,-93.88362214540122,-36.550316,6.1913824,6.935047,55.09109,-22.167791,-1.223005,-34.302464,-12.551989,-19.019564,55.670296,-23.960688,-0.8260506,-1.7385503,1.7572949,29.793802,-37.730778,4.286678,-73.243225,71.318085,4.7669854,-1.9207556,19.906631,-44.663048,-1.4197164,80.62542,80.539986,1.1898024,6.160416,-12.702498
103,0.003005341161042452,-14.536720275878906,72.36399841308594,0.13964180936733006,4.976206565394375,-93.86448186326973,-35.123737,6.0715938,6.9721246,53.16575,-21.552963,-1.3127749,-32.862194,-12.237751,-19.23302,53.693783,-23.283329,-0.52424306,-1.7930293,1.7501444,29.793802,-37.087208,4.2375364,-72.99487,72.07359,4.2559724,-1.9794984,20.204353,-44.00483,-1.2697345,79.932526,80.81476,1.5750822,6.134524,-13.096957
104,-0.03252091258764267,-14.898896217346191,72.87065124511719,0.11426212143078611,4.84281300727573,-93.85078641856447,-33.69324,5.961844,7.0156045,51.27309,-20.954903,-1.4029431,-31.424572,-11.920613,-19.437069,51.749344,-22.618587,-0.24136284,-1.8418803,1.7371589,29.793802,-36.432858,4.222222,-72.60733,72.7259,3.7013164,-2.0836122,20.514011,-43.36261,-1.1300032,79.196884,81.01825,1.9429392,6.0582695,-13.528362
105,-0.06313441693782806,-15.256522178649902,73.35076904296875,0.09047131449261009,4.68420094736627,-93.8437342313818,-32.253117,5.862381,7.0682263,49.413166,-20.371473,-1.4930968,-29.987057,-11.601891,-19.632761,49.84031,-21.963238,0.021828523,-1.8899912,1.7157506,29.793802,-35.753124,4.2494955,-72.0501,73.25031,3.0836947,-2.2462068,20.841269,-42.729828,-1.0079759,78.39977,81.13398,2.3204312,5.910749,-14.016296
106,-0.09181120246648788,-15.611278533935547,73.80646514892578,0.06952383565050738,4.503578473206831,-93.84018684821608,-30.802809,5.768258,7.127111,47.572746,-19.796225,-1.5827682,-28.54673,-11.283129,-19.822018,47.95465,-21.312792,0.2703526,-1.9404223,1.6859593,29.793802,-35.043766,4.325371,-71.327324,73.64346,2.4035006,-2.4715302,21.196867,-42.103634,-0.90740854,77.49378,81.15139,2.7182872,5.701968,-14.570546
107,-0.13283845782279968,-15.96522045135498,74.23802947998047,0.04854750054494766,4.30983701526449,-93.8401517834462,-29.36004,5.681269,7.189115,45.7685,-19.236292,-1.6741636,-27.116022,-10.962724,-20.001802,46.100883,-20.676111,0.5032991,-1.9855617,1.6545986,29.793802,-34.327454,4.452427,-70.49276,73.91351,1.7086962,-2.7308922,21.554285,-41.499535,-0.8328085,76.56221,81.08121,3.0672688,5.4755344,-15.136197
108,-0.16474686563014984,-16.32618522644043,74.6446533203125,0.025071766435181435,4.112088481290196,-93.84370678357743,-27.940466,5.6033487,7.251491,44.01302,-18.696571,-1.7696632,-25.706533,-10.638791,-20.169312,44.286102,-20.060358,0.7204795,-2.015944,1.6289164,29.793802,-33.62893,4.632755,-69.60986,74.06861,1.0385643,-2.9895914,21.887726,-40.930325,-0.7877019,75.68573,80.94469,3.2982938,5.2694197,-15.6593275
109,-0.19758564233779907,-16.684078216552734,75.021728515625,0.0016403209773318272,3.9119906850067787,-93.84990484446547,-26.543354,5.5316277,7.3178344,42.301823,-18.17621,-1.8735799,-24.3213,-10.315279,-20.326488,42.513824,-19.466454,0.9280584,-2.0291173,1.6065645,29.793802,-32.931187,4.865334,-68.603424,74.09054,0.41221404,-3.2500548,22.17943,-40.3957,-0.77746093,74.86698,80.731606,3.366726,5.115287,-16.126825
110,-0.22936712205410004,-17.03612518310547,75.37730407714844,-0.021543025355565872,3.704649549829546,-93.85902264861876,-25.160849,5.465896,7.388684,40.627773,-17.671759,-1.983986,-22.95292,-9.9911585,-20.47509,40.77711,-18.889238,1.1255963,-2.027446,1.5864022,29.793802,-32.243084,5.1596746,-67.543465,73.976685,-0.27219033,-3.5298004,22.444345,-39.88608,-0.80502504,74.066414,80.430664,3.3190858,4.9886503,-16.568483
111,-0.2656058967113495,-17.391826629638672,75.70655822753906,-0.04297529879746297,3.6819275760144943,-93.87354926466291,-24.017471,5.4038095,7.4630303,38.995922,-17.152964,-2.0873222,-21.82462,-9.666644,-20.607395,39.07551,-18.302008,1.2938582,-1.9967759,1.557489,29.00605,-31.06389,5.469725,-66.48436,73.74232,-0.8175077,-3.7864978,22.580584,-38.899162,-0.8549415,73.38827,79.982796,3.220592,4.8623357,-16.87773
112,-0.30810827016830444,-17.73782730102539,76.00687408447266,-0.0753346302768886,3.667152567312548,-93.89499180465907,-22.922062,5.359244,7.528425,37.43165,-16.656599,-2.1830137,-20.726723,-9.324018,-20.723936,37.39671,-17.72624,1.4337026,-1.9567127,1.5393529,28.151657,-29.93713,5.8095417,-65.68352,73.501366,-1.4355291,-4.0258737,22.731253,-37.89905,-0.9236231,72.783226,79.49571,3.1381042,4.690388,-17.16721
113,-0.3455435633659363,-18.086606979370117,76.29199981689453,-0.11829101521913563,3.636491971497573,-93.92668568574193,-21.853647,5.333319,7.587054,35.946026,-16.186958,-2.2678373,-19.635939,-8.962478,-20.822392,35.74624,-17.167057,1.5464131,-1.9148381,1.5303652,27.317347,-28.833017,6.169379,-64.87444,73.21582,-1.8255391,-4.220033,22.931683,-36.940586,-1.0145246,72.25583,78.98096,3.0874808,4.4558134,-17.43672
114,-0.38649725914001465,-18.429386138916016,76.5560302734375,-0.16923350315666164,3.5931762434530587,-93.96656419539363,-20.810514,5.3232727,7.641836,34.529297,-15.742245,-2.3460312,-18.555305,-8.586584,-20.906942,34.1256,-16.624514,1.638312,-1.8673995,1.5292561,26.49277,-27.772642,6.553346,-64.122246,72.89119,-2.13595,-4.387989,23.162146,-36.01637,-1.1284063,71.79841,78.43328,3.0392058,4.180315,-17.685123
115,-0.43360772728919983,-18.760169982910156,76.79499053955078,-0.22885423815589148,3.545138529952476,-94.00826034314505,-19.793633,5.327272,7.689962,33.166298,-15.321744,-2.42199,-17.482738,-8.194514,-20.978567,32.51479,-16.0884,1.709648,-1.8198498,1.5382955,25.677433,-26.750673,6.960445,-63.42148,72.54514,-2.357178,-4.5522766,23.398144,-35.126717,-1.2664849,71.39849,77.8443,2.9719465,3.885125,-17.936178
116,-0.4764446020126343,-19.08802032470703,77.0187759399414,-0.2984918060887164,3.5002172506876095,-94.04524093723701,-18.80483,5.3435163,7.7279215,31.844553,-14.9263735,-2.500372,-16.41805,-7.7872453,-21.040989,30.900608,-15.553231,1.760913,-1.7762108,1.5600662,24.869759,-25.773495,7.3888454,-62.799145,72.20476,-2.5139754,-4.737601,23.613913,-34.26573,-1.4273301,71.022125,77.20539,2.8404505,3.5930393,-18.213972
117,-0.5200035572052002,-19.4126033782959,77.22607421875,-0.3861549296995585,3.4623139019257043,-94.07975320043144,-17.853327,5.3826146,7.752354,30.57309,-14.561976,-2.5841818,-15.360749,-7.3495092,-21.090416,29.268366,-15.011639,1.7850068,-1.735135,1.6020472,24.066496,-24.842201,7.8381524,-62.245403,71.88042,-2.5670724,-4.958102,23.802395,-33.43878,-1.6112561,70.6847,76.5096,2.6420937,3.30918,-18.522036
118,-0.5614175796508789,-19.735820770263672,77.42000579833984,-0.48836004964022606,3.426582759579343,-94.11386521014029,-16.93634,5.4417853,7.76688,29.356256,-14.227235,-2.6711617,-14.310093,-6.885914,-21.127132,27.628113,-14.468565,1.7867789,-1.6930065,1.6598583,23.268505,-23.959446,8.30964,-61.76746,71.56419,-2.53405,-5.198275,23.977903,-32.63953,-1.8174638,70.380035,75.76438,2.378055,3.0233831,-18.849365
119,-0.6189361810684204,-20.069612503051758,77.6016845703125,-0.5876135354812363,3.388048393713444,-94.14117366155683,-16.03308,5.497425,7.7790837,28.16312,-13.905644,-2.7579827,-13.261366,-6.4239426,-21.157452,25.991585,-13.929311,1.7818269,-1.6524467,1.7184296,22.481476,-23.122139,8.798923,-61.379498,71.25103,-2.4840977,-5.4364457,24.147932,-31.873394,-2.050694,70.15149,74.98459,2.1310897,2.729265,-19.195839
120,-0.6665121912956238,-20.385799407958984,77.7696304321289,-0.6683934395052448,3.3418249205784436,-94.15547315493397,-15.124809,5.528143,7.7948103,26.967781,-13.583695,-2.840669,-12.213441,-5.9915366,-21.188848,24.37922,-13.402851,1.783417,-1.6044565,1.7633269,21.712448,-22.340431,9.299441,-61.117702,70.944534,-2.4996276,-5.651989,24.317211,-31.064526,-2.2915463,69.75844,74.161285,1.6804639,2.4365718,-19.566795
121,-0.717795193195343,-20.698469161987305,77.9217529296875,-0.7281639788733157,3.2886348075779264,-94.16100847250885,-14.208752,5.5330706,7.819575,25.767576,-13.259457,-2.918008,-11.168067,-5.59144,-21.212204,22.789549,-12.893707,1.7755393,-1.5563313,1.7950668,20.954252,-21.618273,9.802245,-60.986645,70.649155,-2.5981855,-5.839166,24.507833,-30.342667,-2.5736134,69.6355,73.32563,1.5091592,2.1131244,-19.961061
122,-0.7629636526107788,-21.015844345092773,78.06259155273438,-0.7763913000494451,3.2304373330687297,-94.15925200579186,-13.292175,5.5234714,7.84768,24.570988,-12.940802,-2.992153,-10.126178,-5.2100945,-21.2291,21.217884,-12.397416,1.756599,-1.4998077,1.8208978,20.208466,-20.963947,10.306681,-60.97293,70.37587,-2.7330709,-6.009483,24.708557,-29.602612,-2.8855748,69.44828,72.4238,1.2306265,1.785938,-20.382929
123,-0.8089234232902527,-21.323888778686523,78.18986511230469,-0.8094971873104312,3.1646155160771063,-94.13988800649825,-12.37545,5.49103,7.8705487,23.378094,-12.6241455,-3.0636542,-9.08498,-4.857564,-21.25881,19.669907,-11.913147,1.7566912,-1.439082,1.8345014,19.479317,-20.374826,10.806887,-61.0811,70.14608,-2.9149125,-6.172515,24.883188,-28.85652,-3.220384,69.2426,71.51191,0.8913732,1.4581006,-20.817003
124,-0.8532035946846008,-21.642398834228516,78.31024932861328,-0.8233896125948663,3.0887138102044096,-94.09293312437802,-11.455587,5.427346,7.879561,22.181562,-12.304004,-3.1324706,-8.040372,-4.5445485,-21.32046,18.149384,-11.439182,1.8028309,-1.3866359,1.8312541,18.772123,-19.843172,11.295382,-61.294266,69.97934,-3.140154,-6.337442,24.99585,-28.12474,-3.5727859,69.07953,70.64398,0.5512892,1.1323237,-21.248484
125,-0.8944718241691589,-21.947227478027344,78.41645812988281,-0.814115896122744,3.006184303304441,-94.00641747186411,-10.534683,5.323349,7.8649263,20.970728,-11.971078,-3.1903334,-6.9889545,-4.28132,-21.427393,16.64701,-10.972011,1.8971608,-1.3553783,1.8117396,18.082012,-19.384602,11.76846,-61.640324,69.89264,-3.4388475,-6.521993,25.036617,-27.413635,-3.9376144,68.977806,69.84204,0.20938253,0.77839696,-21.692944
126,-0.9359520077705383,-22.24174690246582,78.50702667236328,-0.7854252670329813,2.9171219753203874,-93.88920235687605,-9.613158,5.187186,7.8323627,19.752834,-11.63146,-3.2392764,-5.934608,-4.0618215,-21.567118,15.16686,-10.516983,2.0187645,-1.3376524,1.7807245,17.407736,-19.00269,12.2232275,-62.10715,69.8801,-3.7938223,-6.7159214,25.025303,-26.725994,-4.3128004,68.930016,69.09029,-0.13024972,0.40068942,-22.152042
127,-0.9774494767189026,-22.547170639038086,78.58689880371094,-0.7450252596416697,2.8136342541289996,-93.76189629702664,-8.684059,5.036895,7.7962713,18.543476,-11.300807,-3.2931705,-4.8891454,-3.8739507,-21.718842,13.744189,-10.092484,2.159618,-1.3150749,1.7385843,16.759441,-18.682446,12.656215,-62.65244,69.9337,-4.1688414,-6.888357,24.969807,-26.046717,-4.6942716,68.8798,68.37469,-0.49247417,0.06604886,-22.591438
128,-1.0045990943908691,-22.83232879638672,78.65074920654297,-0.7003100891147394,2.687963505333662,-93.64522547723409,-7.7437735,4.890723,7.7710533,17.366287,-10.998406,-3.3643358,-3.863294,-3.7039752,-21.862219,12.411116,-9.714431,2.3137646,-1.2686315,1.6852708,16.147568,-18.406288,13.063083,-63.229176,70.04418,-4.521608,-7.0081787,24.878897,-25.364847,-5.0766425,68.77806,67.68428,-0.88877654,-0.16293709,-22.975893
129,-1.0436753034591675,-23.11693572998047,78.701904296875,-0.6512918974028105,2.5438424412575444,-93.53968089087245,-6.79231,4.750999,7.7598724,16.213808,-10.728258,-3.455663,-2.8582373,-3.5479627,-21.999636,11.164222,-9.384935,2.4837656,-1.1914992,1.6192025,15.566855,-18.182146,13.4399185,-63.863064,70.227715,-4.849284,-7.0683517,24.747387,-24.67219,-5.455251,68.59795,67.019325,-1.356541,-0.25217414,-23.300257
130,-1.0767104625701904,-23.421022415161133,78.7401123046875,-0.5956619978707184,2.383602735195632,-93.43620222363353,-5.836228,4.6108766,7.7540283,15.088636,-10.484602,-3.556414,-1.8731391,-3.413867,-22.140446,10.002392,-9.102008,2.6681015,-1.0935181,1.5412834,15.013862,-18.020552,13.784838,-64.57135,70.49064,-5.1755805,-7.0851116,24.574215,-23.979301,-5.828056,68.36881,66.391754,-1.8734264,-0.24211419,-23.580912
131,-1.1127266883850098,-23.702354431152344,78.7591781616211,-0.5351581875038062,2.1970404803506915,-93.34054481105896,-4.862876,4.4714823,7.752576,13.9892,-10.259522,-3.6588898,-0.8947303,-3.2976365,-22.275753,8.914497,-8.859116,2.8572853,-0.98359,1.4529103,14.50263,-17.89642,14.097135,-65.27605,70.803246,-5.479905,-7.061708,24.374493,-23.29998,-6.193025,68.12255,65.80785,-2.3711703,-0.18138677,-23.814013
132,-1.1454191207885742,-23.976242065429688,78.77081298828125,-0.47210515486153093,1.973720456281847,-93.25881507766415,-3.8541458,4.332578,7.7552185,12.902899,-10.042367,-3.757398,0.08748803,-3.1966612,-22.396269,7.8968353,-8.6521845,3.043345,-0.8739843,1.3559617,14.047863,-17.780079,14.377368,-65.88957,71.13441,-5.734876,-7.003429,24.162876,-22.652338,-6.5477743,67.90157,65.27627,-2.7750127,-0.119606584,-23.996546
133,-1.1790952682495117,-24.25053596496582,78.77784729003906,-0.4048482177792045,1.7041022216126354,-93.19408942880851,-2.8092127,4.192261,7.7618914,11.854619,-9.843118,-3.8494399,1.0075277,-3.1447103,-22.498793,7.1263175,-8.574045,3.22871,-0.77048534,1.2489805,13.657756,-17.665386,14.627541,-66.41427,71.48377,-5.9063773,-6.891166,23.929028,-22.039476,-6.8893375,67.720406,64.80409,-3.077806,-0.056122053,-24.118868
134,-1.213250994682312,-24.524677276611328,78.77680969238281,-0.3334819787696394,1.395477529089564,-93.1427701178099,-1.7352375,4.0508094,7.7725935,10.840573,-9.664476,-3.9376824,1.6676953,-3.221596,-22.576845,7.0425663,-8.857211,3.418786,-0.6702749,1.1327943,13.324152,-17.561909,14.849174,-66.880135,71.86202,-6.0128474,-6.7302403,23.669958,-21.45663,-7.215129,67.56068,64.3913,-3.3134036,0.029210957,-24.185808
135,-1.24531888961792,-24.7880859375,78.765869140625,-0.26140730082203356,1.0626334822456005,-93.1003811250325,-0.64043945,3.9117148,7.7863803,9.836107,-9.489218,-4.0256515,2.3547013,-3.2921875,-22.645283,6.950127,-9.13674,3.6061604,-0.5725919,1.0120877,13.035542,-17.464952,15.044484,-67.25804,72.24597,-6.1236,-6.5545197,23.41196,-20.90811,-7.5237093,67.41525,64.04001,-3.472986,0.11576236,-24.216873
136,-1.27385413646698,-25.056236267089844,78.75047302246094,-0.19321044777310237,0.7207707162946382,-93.06253647491957,0.4633291,3.7801893,7.802169,8.823926,-9.303517,-4.118536,3.0507772,-3.3513675,-22.699692,6.8462005,-9.4066305,3.789731,-0.47827595,0.8929235,12.780117,-17.369326,15.217346,-67.517845,72.61063,-6.309595,-6.3971534,23.181656,-20.397926,-7.813616,67.2795,63.751396,-3.5468936,0.18338485,-24.231806
137,-1.3157098293304443,-25.308603286743164,78.72621154785156,-0.1292188787882422,0.36301740086267115,-93.03068952898784,1.5916369,3.6591017,7.8262386,7.788187,-9.101971,-4.226061,3.740509,-3.4086366,-22.733242,6.7811656,-9.695776,3.9862552,-0.38528347,0.77478147,12.56793,-17.271564,15.370992,-67.64124,72.94708,-6.5864086,-6.2547207,22.980822,-19.929443,-8.083483,67.15288,63.526028,-3.5074556,0.22975451,-24.232437
138,-1.3610326051712036,-25.558244705200195,78.69157409667969,-0.05790422733149798,-0.01601903242104301,-93.00754785645361,2.6624918,3.5473368,7.8542953,6.920278,-8.985355,-4.344589,4.4169626,-3.481018,-22.74757,6.7847714,-10.019629,4.1948404,-0.29451808,0.64621,12.402176,-17.16972,15.507578,-67.64542,73.26275,-6.917155,-6.1128316,22.797743,-19.501472,-8.331851,67.04042,63.365765,-3.3679795,0.26431873,-24.2099
139,-1.3988629579544067,-25.813812255859375,78.64791107177734,-0.02244341846138333,-0.3946194522880134,-92.9823587585186,3.3229809,3.531948,7.8427005,6.9167023,-9.3164625,-4.466404,5.0878425,-3.510973,-22.764322,6.786935,-10.337211,4.3851876,-0.21972753,0.5535873,12.256387,-17.06002,15.62953,-67.55465,73.55596,-7.2947345,-5.988577,22.63772,-19.111624,-8.5580015,66.94752,63.27623,-3.1808329,0.28474587,-24.16713
140,-1.4356179237365723,-26.041751861572266,78.60035705566406,-0.008679132496308865,-0.7575991814087257,-92.95375166752832,3.9517398,3.5394902,7.810891,6.9299583,-9.643543,-4.5784435,5.735998,-3.5126026,-22.79068,6.7891245,-10.645016,4.532618,-0.1641511,0.48606303,12.111685,-16.938253,15.738886,-67.38648,73.824356,-7.7046885,-5.8987494,22.5066,-18.757202,-8.761342,66.87699,63.25908,-2.9983478,0.28872272,-24.107576
141,-1.4732158184051514,-26.285388946533203,78.55388641357422,-0.005374751059696522,-1.1105214034374014,-92.92267293644915,4.5643806,3.5614636,7.7554207,6.944014,-9.963591,-4.6891403,6.369671,-3.4976873,-22.825111,6.7915688,-10.948167,4.634296,-0.12902309,0.4312758,11.968391,-16.79814,15.837999,-67.1374,74.0686,-8.161926,-5.854885,22.409204,-18.437202,-8.941653,66.83186,63.31858,-2.8348265,0.26627463,-24.026201
142,-1.511024832725525,-26.5076961517334,78.5062255859375,-0.009422500112406742,-1.459596315706416,-92.89169554802142,5.168687,3.5916705,7.685454,6.957755,-10.27664,-4.802516,6.992755,-3.4743507,-22.861408,6.7943554,-11.24476,4.7073903,-0.10978693,0.38204297,11.836132,-16.639637,15.928273,-66.79861,74.28455,-8.665635,-5.845613,22.34067,-18.154293,-9.098433,66.81053,63.4516,-2.660777,0.22207826,-23.923128
143,-1.5461515188217163,-26.727336883544922,78.46174621582031,-0.011856485494513501,-1.7887493476176228,-92.86132731838559,5.7407594,3.6181831,7.6125193,6.971578,-10.567873,-4.901984,7.5816865,-3.4493551,-22.899319,6.799522,-11.522809,4.754691,-0.10303232,0.33705404,11.707617,-16.471285,16.009632,-66.388855,74.466835,-9.188103,-5.854372,22.292234,-17.910994,-9.231764,66.808,63.65616,-2.468341,0.17525417,-23.809431
144,-1.590186357498169,-26.929283142089844,78.41962432861328,-0.011250169180680945,-2.082180214249407,-92.83151219326221,6.2582917,3.6349735,7.5472775,6.9845085,-10.823312,-4.9705977,8.114527,-3.4225357,-22.939718,6.803837,-11.767224,4.7781467,-0.104859985,0.3005559,11.575756,-16.305458,16.080938,-65.935684,74.612755,-9.710117,-5.864978,22.255081,-17.70951,-9.342277,66.817986,63.92798,-2.2494473,0.14482598,-23.696228
145,-1.6282696723937988,-27.123233795166016,78.38333129882812,-0.019190912560362053,-2.3387496229887916,-92.80947078075333,6.720692,3.6490455,7.4953604,6.9979873,-11.040516,-4.99652,8.586157,-3.3857763,-22.978907,6.8088946,-11.973984,4.773018,-0.110309556,0.28269267,11.441036,-16.143812,16.139639,-65.42496,74.72169,-10.2450485,-5.873513,22.234777,-17.56043,-9.430657,66.86554,64.27119,-2.0014136,0.14387558,-23.592579
146,-1.658010721206665,-27.303874969482422,78.35126495361328,-0.03293560996316417,-2.566028496326092,-92.79233106026291,7.138422,3.6698122,7.4486814,7.0118814,-11.227036,-4.9912453,9.008482,-3.339938,-23.01843,6.814783,-12.150578,4.7415385,-0.123278305,0.2820051,11.306666,-15.979469,16.184603,-64.84823,74.79741,-10.796143,-5.8891487,22.233242,-17.460825,-9.497501,66.94604,64.686584,-1.7278442,0.1597764,-23.49093
147,-1.689618468284607,-27.472328186035156,78.32316589355469,-0.04561891910861771,-2.761211970351953,-92.76436557456569,7.4842544,3.6944957,7.396328,7.067551,-11.406537,-4.9712586,9.383694,-3.2977827,-23.067785,6.820319,-12.301774,4.694911,-0.14818247,0.2848105,11.169681,-15.81626,16.215147,-64.24638,74.84509,-11.327576,-5.914478,22.236004,-17.386158,-9.541432,66.9986,65.1608,-1.4345328,0.1732358,-23.376945
148,-1.7157148122787476,-27.625560760498047,78.30332946777344,-0.050193271296546535,-2.9211016864200965,-92.70985127342097,7.749877,3.713551,7.3295627,7.164984,-11.579858,-4.954061,9.713384,-3.2701328,-23.136559,6.825449,-12.43345,4.64382,-0.19409755,0.27822247,11.027423,-15.654946,16.234934,-63.64859,74.86553,-11.796728,-5.951607,22.228987,-17.312204,-9.566287,66.969284,65.677216,-1.1255137,0.16521841,-23.235905
149,-1.743188500404358,-27.7673397064209,78.28956604003906,-0.04302485588496396,-3.032803574338322,-92.62615556085873,7.942368,3.7164392,7.2544265,7.2479386,-11.708723,-4.9374905,9.97859,-3.2583632,-23.224773,6.8307667,-12.5363455,4.5769773,-0.25309095,0.2603593,10.8755,-15.508057,16.24227,-63.056454,74.85667,-12.194376,-5.992136,22.20359,-17.24117,-9.573297,66.83542,66.24758,-0.8191736,0.1384739,-23.043936
150,-1.7702476978302002,-27.894487380981445,78.28189849853516,-0.02808283735919473,-3.1019134861660445,-92.52110376574468,8.068969,3.7070048,7.173556,7.323318,-11.799397,-4.9130063,10.185077,-3.256773,-23.328138,6.8357496,-12.611168,4.4927316,-0.33011106,0.23841818,10.718133,-15.367495,16.23961,-62.440434,74.81383,-12.532652,-6.0375695,22.16903,-17.183346,-9.566602,66.63668,66.87151,-0.5053832,0.09874706,-22.815283
151,-1.8044888973236084,-28.00987434387207,78.2755126953125,-0.010073024087608233,-3.152401669801252,-92.39441318632436,8.1641,3.6902316,7.076334,7.392589,-11.869079,-4.8900456,10.369337,-3.2641494,-23.45151,6.8398952,-12.677947,4.4162073,-0.42164794,0.21080759,10.560646,-15.226019,16.22846,-61.851315,74.74869,-12.838455,-6.1045957,22.136726,-17.114037,-9.548297,66.37349,67.50965,-0.15482032,0.03950802,-22.591793
152,-1.8405102491378784,-28.115697860717773,78.26890563964844,0.013752342129297138,-3.208065449061993,-92.24608142746985,8.266058,3.6705709,6.9525204,7.450492,-11.931699,-4.878064,10.569421,-3.278247,-23.599422,6.8401713,-12.75478,4.372988,-0.5210336,0.17525238,10.408735,-15.073986,16.210543,-61.32939,74.67047,-13.124751,-6.2092924,22.117386,-17.008316,-9.522815,66.045944,68.1264,0.2634759,-0.050447494,-22.41506
153,-1.8748100996017456,-28.233680725097656,78.26061248779297,0.044915516339769125,-3.2772273539635886,-92.05857637950284,8.381132,3.6435902,6.782447,7.4979515,-11.985757,-4.8774686,10.801475,-3.3027625,-23.79064,6.8364363,-12.84631,4.372631,-0.64206475,0.12628345,10.266385,-14.905652,16.187458,-60.874332,74.58174,-13.414651,-6.367724,22.105644,-16.857132,-9.492756,65.65029,68.729614,0.7787131,-0.1954597,-22.289658
154,-1.9156806468963623,-28.333356857299805,78.25214385986328,0.08062012296043229,-3.3465152057299496,-91.83771956947054,8.4906645,3.6077757,6.5773926,7.537141,-12.025862,-4.8835363,11.04413,-3.3354502,-24.017052,6.828789,-12.941972,4.400254,-0.78034973,0.06747954,10.130552,-14.737319,16.140833,-60.459232,74.49694,-13.683287,-6.568196,22.097015,-16.682556,-9.432017,65.17413,69.35733,1.3571576,-0.38453922,-22.192524
155,-1.9539639949798584,-28.45965003967285,78.23905944824219,0.11879651379819238,-3.4071537238952567,-91.61878382822587,8.59357,3.5715768,6.3739533,7.563543,-12.058432,-4.898209,11.275057,-3.3683467,-24.243517,6.8189144,-13.038576,4.445151,-0.9033946,0.008105901,9.9898815,-14.576925,16.082054,-60.127934,74.40213,-13.916779,-6.784218,22.107141,-16.481976,-9.36355,64.640656,69.95481,1.964421,-0.5720543,-22.130037
156,-1.9934746026992798,-28.568700790405273,78.22673034667969,0.15419823001168403,-3.450710745094561,-91.43675590867205,8.691333,3.5434406,6.20865,7.5680695,-12.08725,-4.923266,11.472565,-3.3941903,-24.434422,6.8084354,-13.132658,4.497069,-0.99210626,-0.040105574,9.842271,-14.431036,16.01568,-59.880695,74.287254,-14.071306,-6.9896903,22.151087,-16.266882,-9.298119,64.067986,70.478676,2.5528054,-0.7127821,-22.105047
157,-2.0319905281066895,-28.659236907958984,78.21467590332031,0.18624143805037022,-3.471075106599078,-91.30351814745038,8.780288,3.526506,6.094857,7.5477505,-12.113118,-4.9635077,11.623961,-3.4122577,-24.578653,6.7988925,-13.224674,4.5621266,-1.0425489,-0.075400494,9.688113,-14.29753,15.955304,-59.726868,74.13938,-14.140868,-7.1906075,22.23592,-16.035534,-9.248279,63.464108,70.91541,3.138745,-0.7951368,-22.130013
158,-2.072490692138672,-28.757678985595703,78.19915008544922,0.21837447468054852,-3.4741686255802526,-91.19952488897646,8.861127,3.5162473,6.0117493,7.50689,-12.133369,-5.016374,11.743534,-3.4263003,-24.695509,6.7894654,-13.316708,4.642522,-1.033513,-0.10568724,9.525957,-14.198386,15.864126,-59.69371,74.00502,-14.146964,-7.3973703,22.352264,-15.778729,-9.188321,62.770847,71.303505,3.7201703,-0.8432339,-22.199608
159,-2.1107699871063232,-28.8519287109375,78.18366241455078,0.24623568902494203,-3.4688279164804507,-91.11264423353649,8.937147,3.5102243,5.9446635,7.4595222,-12.155993,-5.0728126,11.847157,-3.4364479,-24.795725,6.778821,-13.4071045,4.7226286,-1.018121,-0.12600687,9.359875,-14.101793,15.76353,-59.709736,73.84938,-14.085133,-7.5888953,22.493551,-15.509299,-9.139425,62.05613,71.61697,4.2766013,-0.868279,-22.292034
160,-2.1458160877227783,-28.9419002532959,78.1680908203125,0.27125634597974,-3.4639730017456394,-91.03076540521705,9.0128975,3.5058987,5.878836,7.416668,-12.186187,-5.1238317,11.948785,-3.4436302,-24.890018,6.770745,-13.49703,4.7868986,-1.0058329,-0.1363006,9.192411,-13.999815,15.652575,-59.738697,73.66439,-13.944032,-7.7429028,22.651442,-15.232508,-9.105999,61.32591,71.84744,4.767531,-0.88210297,-22.384348
161,-2.174365282058716,-29.041872024536133,78.15253448486328,0.2910449591754034,-3.4580680612260544,-90.95111595196128,9.085189,3.5035682,5.810832,7.3820877,-12.22675,-5.169298,12.048772,-3.4476945,-24.981623,6.7633357,-13.585122,4.8293304,-1.0034579,-0.13340464,9.021576,-13.89462,15.531088,-59.78881,73.44168,-13.707711,-7.839991,22.83563,-14.940116,-9.093011,60.53499,71.96297,5.193228,-0.8715477,-22.473661
162,-2.2062675952911377,-29.133684158325195,78.13809204101562,0.3073991082261413,-3.4477730495487418,-90.87991117021487,9.152848,3.5042107,5.748277,7.3490815,-12.273454,-5.2132416,12.140553,-3.4488988,-25.064743,6.7572165,-13.672363,4.8589854,-0.9983248,-0.11921699,8.847852,-13.790985,15.398845,-59.875675,73.187584,-13.383014,-7.895157,23.046568,-14.628329,-9.103491,59.688725,71.9693,5.5710106,-0.8354273,-22.571428
163,-2.2349746227264404,-29.214801788330078,78.12251281738281,0.3220368933296732,-3.438862175202006,-90.81888605585563,9.223148,3.507306,5.69306,7.316787,-12.325049,-5.253381,12.229388,-3.4469817,-25.13627,6.7523804,-13.75824,4.8833623,-0.9844254,-0.09869629,8.675561,-13.685666,15.255783,-59.979652,72.91922,-13.012389,-7.9399495,23.261616,-14.309567,-9.13747,58.880688,71.91841,5.8831205,-0.8026011,-22.675463
164,-2.2566323280334473,-29.296611785888672,78.10449981689453,0.33156315756356775,-3.436890609149013,-90.76942572895872,9.298971,3.5125792,5.646725,7.291872,-12.383628,-5.2875166,12.321372,-3.4411216,-25.193296,6.747493,-13.841531,4.909958,-0.95994836,-0.076043285,8.50918,-13.573948,15.103176,-60.08023,72.65165,-12.641259,-8.006349,23.45859,-13.9995165,-9.191047,58.210423,71.865906,6.114652,-0.80200714,-22.78343
165,-2.280778646469116,-29.377408981323242,78.08734130859375,0.3379368583794629,-3.446261858258509,-90.73661032707406,9.388331,3.521455,5.614483,7.273443,-12.45318,-5.314744,12.420757,-3.4300542,-25.229643,6.742228,-13.922265,4.9405813,-0.9249371,-0.04804369,8.350142,-13.44907,14.942944,-60.165577,72.37535,-12.266146,-8.111049,23.64445,-13.702276,-9.260668,57.711338,71.83089,6.251471,-0.86091834,-22.913485
166,-2.309889316558838,-29.464895248413086,78.0687255859375,0.3392737180318139,-3.4627427768417443,-90.71811872115806,9.485867,3.5338142,5.593786,7.2593627,-12.530542,-5.336673,12.521976,-3.4152582,-25.248526,6.7401466,-14.002683,4.9715085,-0.8856207,-0.013778128,8.195436,-13.311627,14.776854,-60.242928,72.082954,-11.867122,-8.233972,23.827202,-13.413787,-9.344621,57.333977,71.791565,6.30525,-0.9574725,-23.060366
167,-2.3271501064300537,-29.545705795288086,78.05067443847656,0.34030616477456943,-3.480065450415984,-90.7044092624452,9.582797,3.5463367,5.575173,7.2458367,-12.607187,-5.3546476,12.620328,-3.39907,-25.261526,6.73797,-14.079754,5.001856,-0.8473932,0.019375902,8.043941,-13.167461,14.605786,-60.31677,71.79241,-11.458404,-8.352995,23.986065,-13.137768,-9.439629,57.052937,71.741325,6.301911,-1.0468494,-23.187727
168,-2.3400585651397705,-29.62098503112793,78.0330810546875,0.34193912290216033,-3.4918184545776096,-90.68577210960994,9.665754,3.5562348,5.5487804,7.2378616,-12.678563,-5.3699365,12.710171,-3.384036,-25.280008,6.7343345,-14.151969,5.0305862,-0.8171094,0.043539844,7.8937902,-13.021462,14.4301195,-60.389072,71.52245,-11.0534525,-8.446123,24.100464,-12.879627,-9.541794,56.84357,71.67889,6.266245,-1.0845143,-23.25888
169,-2.3647096157073975,-29.68514633178711,78.01822662353516,0.3463570264585581,-3.4991065703171556,-90.65908830460387,9.737721,3.561873,5.509315,7.2286773,-12.739235,-5.3813705,12.791426,-3.3713593,-25.30708,6.731527,-14.220585,5.0596895,-0.7965358,0.054240406,7.7464075,-12.874925,14.250651,-60.45308,71.270805,-10.642952,-8.510785,24.15728,-12.646849,-9.647895,56.713116,71.60182,6.1961465,-1.0468733,-23.255424
170,-2.3799898624420166,-29.74967384338379,78.0041275024414,0.3490922316668142,-3.5044464573268774,-90.6295494002317,9.801051,3.5654604,5.462678,7.2229843,-12.795284,-5.3889904,12.8662405,-3.3597407,-25.336748,6.729099,-14.284945,5.089064,-0.7827381,0.056002565,7.6017065,-12.72377,14.067994,-60.508446,71.02879,-10.222778,-8.5581875,24.169813,-12.437802,-9.756252,56.670372,71.51816,6.0814457,-0.96205026,-23.200047
171,-2.4005837440490723,-29.817707061767578,77.99010467529297,0.3540604351435573,-3.5035049737005814,-90.60058551403031,9.8545,3.5688126,5.416707,7.2169294,-12.845931,-5.395903,12.931692,-3.3481693,-25.366158,6.7262764,-14.345277,5.114344,-0.7744705,0.055166382,7.456095,-12.5685005,13.88177,-60.57637,70.80832,-9.823918,-8.58832,24.156168,-12.2421665,-9.864958,56.691677,71.438354,5.9335523,-0.86317396,-23.116863
172,-2.417832851409912,-29.883018493652344,77.97737121582031,0.35631169409435287,-3.492428625711967,-90.57519217317005,9.896315,3.5739245,5.3791237,7.208716,-12.891684,-5.405143,12.982462,-3.3369012,-25.392607,6.7239943,-14.401098,5.1313787,-0.7685963,0.05756365,7.3056884,-12.409171,13.689902,-60.67476,70.6224,-9.471277,-8.600589,24.134485,-12.050155,-9.972952,56.753853,71.37389,5.7670755,-0.7835599,-23.030756
173,-2.429232597351074,-29.94147300720215,77.96766662597656,0.35689229094162483,-3.467384633358904,-90.55686327006319,9.925387,3.5818408,5.355162,7.193488,-12.929569,-5.417298,13.014879,-3.324134,-25.411997,6.7218657,-14.451559,5.134422,-0.7606393,0.06592111,7.1464434,-12.245581,13.489953,-60.812847,70.476234,-9.18212,-8.597863,24.108164,-11.860144,-10.079964,56.864403,71.33214,5.5671105,-0.74088955,-22.93776
174,-2.4413652420043945,-30.003028869628906,77.95819854736328,0.3546325829341916,-3.4316691092869753,-90.54285493709176,9.941015,3.5911832,5.3395524,7.178687,-12.963429,-5.43067,13.030718,-3.311251,-25.427067,6.7227836,-14.49858,5.1273303,-0.75202745,0.07658327,6.9809513,-12.076955,13.280232,-60.97586,70.365234,-8.934098,-8.579617,24.06769,-11.677919,-10.186038,57.03135,71.30794,5.3340344,-0.71509945,-22.828363
175,-2.457334041595459,-30.058155059814453,77.9503402709961,0.3537814935435002,-3.3907460979551973,-90.52782000933117,9.949453,3.5995553,5.3248215,7.1606874,-12.991497,-5.4448943,13.039171,-3.2997386,-25.444296,6.7217717,-14.541144,5.119865,-0.74910605,0.08636952,6.8153844,-11.912548,13.061445,-61.171005,70.29248,-8.720723,-8.541165,24.01202,-11.500958,-10.289928,57.224037,71.28856,5.095964,-0.6817113,-22.718508
176,-2.476613998413086,-30.108585357666016,77.94157409667969,0.35743020988820023,-3.350378219870372,-90.50618399786292,9.955168,3.604726,5.3033066,7.139081,-13.013714,-5.459498,13.047635,-3.2916188,-25.470528,6.7196183,-14.58248,5.12164,-0.756326,0.09212004,6.6562276,-11.759069,12.83513,-61.401073,70.25829,-8.52977,-8.477254,23.93967,-11.326086,-10.3893795,57.41084,71.260086,4.8814816,-0.61598814,-22.623913
177,-2.493109703063965,-30.158884048461914,77.93354034423828,0.36467576435681315,-3.3036450557757555,-90.47743923676931,9.950646,3.6057608,5.27353,7.114998,-13.031364,-5.474765,13.048525,-3.2879984,-25.506977,6.717693,-14.623259,5.1344414,-0.7770759,0.09367842,6.4951105,-11.613346,12.60173,-61.677677,70.26688,-8.384666,-8.385803,23.860086,-11.155745,-10.482865,57.596825,71.2237,4.6872597,-0.48826772,-22.545038
178,-2.509673595428467,-30.20230484008789,77.9272232055664,0.3731566401325004,-3.2504105515116617,-90.44417530636537,9.934793,3.6041985,5.239248,7.091075,-13.045356,-5.4906893,13.041977,-3.2872431,-25.550312,6.71204,-14.659758,5.1533504,-0.80732036,0.092193425,6.332031,-11.471932,12.360987,-61.99343,70.31568,-8.27977,-8.269633,23.77072,-10.989882,-10.569441,57.791798,71.185455,4.4999948,-0.31948644,-22.474411
179,-2.5264573097229004,-30.249866485595703,77.92005157470703,0.3858953609461294,-3.2062604720240966,-90.40556128697327,9.913028,3.6016657,5.200236,7.091146,-13.067886,-5.5064325,13.0423765,-3.2895634,-25.59993,6.7089434,-14.696797,5.178028,-0.8419929,0.08585831,6.184819,-11.344791,12.115224,-62.33789,70.396935,-8.176454,-8.131463,23.65198,-10.827024,-10.649128,57.97983,71.14737,4.340103,-0.16098015,-22.41646
180,-2.545715570449829,-30.287349700927734,77.91432189941406,0.40038823898874426,-3.1866658226589784,-90.36085171081261,9.913069,3.5979073,5.157692,7.091115,-13.085932,-5.5211906,13.068415,-3.2934866,-25.655079,6.703066,-14.732067,5.2081237,-0.87541616,0.07238422,6.0716624,-11.240408,11.868221,-62.69638,70.49931,-8.030312,-7.9738374,23.484175,-10.664092,-10.722573,58.143227,71.106026,4.2274795,-0.062485516,-22.37578
181,-2.566946268081665,-30.311033248901367,77.9096450805664,0.42013684357094483,-3.1999999605488623,-90.3065545960257,9.941909,3.5915165,5.108826,7.090666,-13.095906,-5.5331235,13.127171,-3.3015294,-25.719069,6.697533,-14.767061,5.247963,-0.90940547,0.04652411,6.0060153,-11.165465,11.623224,-63.075176,70.6287,-7.8224835,-7.785056,23.248465,-10.505388,-10.790051,58.289364,71.067894,4.1915035,-0.05982572,-22.357916
182,-2.5890543460845947,-30.335859298706055,77.90406036376953,0.44380903963233426,-3.236841292493151,-90.24416354176707,9.990157,3.582395,5.054431,7.0902066,-13.09937,-5.543078,13.209838,-3.312568,-25.791319,6.689537,-14.799993,5.296219,-0.9463674,0.010574992,5.976,-11.110929,11.381692,-63.476006,70.78227,-7.5758753,-7.5681667,22.959599,-10.351019,-10.851651,58.424248,71.02995,4.2137456,-0.11768519,-22.359196
183,-2.615628480911255,-30.362733840942383,77.89761352539062,0.46911167906035034,-3.285181855291104,-90.18048926845964,10.048838,3.5735276,5.0001693,7.0899863,-13.1030855,-5.5545406,13.303483,-3.323186,-25.86465,6.682407,-14.833428,5.344437,-0.98106366,-0.026180815,5.9616547,-11.065227,11.145607,-63.885254,70.937965,-7.3187113,-7.3482985,22.64757,-10.193093,-10.907619,58.528843,70.98494,4.2438807,-0.18728091,-22.370138
184,-2.639375925064087,-30.383556365966797,77.89155578613281,0.4888602288106724,-3.333411439194741,-90.12221950591695,10.108606,3.5682943,4.9515886,7.0898104,-13.11254,-5.571003,13.395577,-3.3298695,-25.932087,6.675381,-14.86591,5.384199,-1.0082021,-0.054784257,5.943132,-11.01611,10.917246,-64.28698,71.07271,-7.0769663,-7.1499863,22.342962,-10.024982,-10.959278,58.584293,70.92816,4.2310658,-0.22014393,-22.381306
185,-2.656702995300293,-30.409189224243164,77.88433074951172,0.5053493904954635,-3.3838210235911923,-90.06608648460926,10.171785,3.5679061,4.9066954,7.0896807,-13.130097,-5.5959697,13.490936,-3.331342,-25.996689,6.6676903,-14.89883,5.412073,-1.0301367,-0.07430311,5.924047,-10.965308,10.698415,-64.67477,71.17605,-6.863698,-6.973495,22.040384,-9.841296,-11.007643,58.57123,70.84492,4.1510153,-0.19459537,-22.395548
186,-2.6806845664978027,-30.42404556274414,77.87657165527344,0.5171535499635724,-3.4410359113674214,-90.010117664822,10.241568,3.5704875,4.8636823,7.089398,-13.152007,-5.6267405,13.59231,-3.329992,-26.060379,6.661622,-14.932391,5.432926,-1.0484362,-0.08915289,5.9125404,-10.918151,10.490401,-65.061165,71.25883,-6.666655,-6.807567,21.728168,-9.646552,-11.053539,58.503765,70.74109,4.033611,-0.13930786,-22.415754
187,-2.701047897338867,-30.439796447753906,77.86886596679688,0.5287700533367905,-3.496252848778751,-89.96321359271363,10.311279,3.5749388,4.8282857,7.088874,-13.176569,-5.657288,13.68939,-3.3267117,-26.115017,6.654208,-14.963279,5.4509997,-1.0561711,-0.09830196,5.895995,-10.864346,10.293978,-65.445816,71.32751,-6.4600086,-6.658536,21.42798,-9.446867,-11.097054,58.414192,70.6374,3.912125,-0.0810931,-22.433462
188,-2.7193856239318848,-30.462121963500977,77.86100006103516,0.5379835452850129,-3.540489741166358,-89.93423145495319,10.37295,3.5795145,4.8063264,7.0900474,-13.202881,-5.6816425,13.769796,-3.3229427,-26.15217,6.650154,-14.993771,5.4703526,-1.0475636,-0.10091278,5.86145,-10.792757,10.109739,-65.82732,71.38906,-6.218255,-6.532785,21.161366,-9.249034,-11.137663,58.335537,70.556244,3.8194492,-0.047029503,-22.440063
189,-2.7330498695373535,-30.482629776000977,77.85441589355469,0.5437544596654427,-3.5713310631949526,-89.92686776652255,10.426368,3.5852156,4.800037,7.0900855,-13.229741,-5.6993284,13.829885,-3.3186777,-26.168472,6.647718,-15.021103,5.4913797,-1.0200485,-0.095556766,5.803768,-10.704166,9.93865,-66.23751,71.45028,-5.9313326,-6.4442277,20.937061,-9.052854,-11.174733,58.27393,70.5044,3.7632987,-0.04853652,-22.431948
190,-2.7416110038757324,-30.505931854248047,77.84762573242188,0.5477793984601264,-3.593661370391448,-89.93598577864107,10.474009,3.592068,4.806111,7.0913553,-13.259288,-5.7131667,13.877438,-3.313036,-26.16876,6.6453576,-15.04673,5.5120153,-0.97727,-0.08357647,5.730486,-10.6023855,9.781215,-66.66536,71.50425,-5.613573,-6.3850784,20.742702,-8.855336,-11.207734,58.21178,70.46957,3.725144,-0.06980152,-22.413813
191,-2.7522146701812744,-30.530378341674805,77.84061431884766,0.55060393130292,-3.6094291836650214,-89.95699082720634,10.517065,3.5994332,4.821736,7.092109,-13.288093,-5.72246,13.914183,-3.3070889,-26.15727,6.6440334,-15.06991,5.5331936,-0.92491335,-0.06645418,5.6476507,-10.482791,9.63753,-67.04706,71.53956,-5.2789245,-6.330035,20.568071,-8.66163,-11.236457,58.1527,70.45028,3.7038236,-0.09728529,-22.391294
192,-2.766474485397339,-30.549877166748047,77.83425903320312,0.553357515682104,-3.620715210627457,-89.98532749814117,10.556167,3.6062286,4.8442044,7.0931344,-13.314952,-5.7264466,13.942947,-3.3021772,-26.137926,6.6440825,-15.090673,5.5558815,-0.87091047,-0.045891147,5.5611057,-10.340815,9.508132,-67.31906,71.54462,-4.9441113,-6.2539177,20.403416,-8.477411,-11.260364,58.102394,70.44585,3.6972837,-0.11732972,-22.369307
193,-2.7715277671813965,-30.574188232421875,77.82852935791016,0.5567917179891949,-3.6264088530185172,-90.02360867029367,10.590245,3.6104028,4.8763905,7.094564,-13.338538,-5.720294,13.962791,-3.2998993,-26.10849,6.64361,-15.1069975,5.5839195,-0.8174188,-0.01957396,5.470312,-10.175168,9.393681,-67.47204,71.512276,-4.576076,-6.138096,20.255386,-8.303118,-11.278822,58.067158,70.45735,3.7229125,-0.13550483,-22.355766
194,-2.777069330215454,-30.595434188842773,77.82364654541016,0.5613736185462529,-3.626124959821502,-90.0728759696548,10.619927,3.613315,4.9184966,7.0954437,-13.35969,-5.706021,13.972709,-3.2989998,-26.067867,6.6435637,-15.119791,5.615591,-0.7631521,0.01282492,5.3730726,-9.985825,9.298554,-67.53156,71.44383,-4.1749983,-5.9994416,20.125917,-8.137849,-11.290556,58.0453,70.486626,3.7758756,-0.15595147,-22.345995
195,-2.7887485027313232,-30.609539031982422,77.81951141357422,0.5631283509889278,-3.6225286574166957,-90.12667623873679,10.646465,3.6181555,4.963947,7.0964823,-13.380758,-5.692891,13.976414,-3.296482,-26.022392,6.6447873,-15.131749,5.6435385,-0.7075714,0.046316616,5.271181,-9.777502,9.215935,-67.49515,71.35668,-3.8142912,-5.867158,19.998224,-7.983194,-11.295637,58.02907,70.53237,3.8231623,-0.16296016,-22.32563
196,-2.796912670135498,-30.63180160522461,77.81448364257812,0.5610456040181032,-3.618626479229444,-90.17805828093005,10.671436,3.6289809,5.0059,7.097799,-13.403425,-5.690292,13.9788885,-3.2881079,-25.978338,6.646473,-15.144771,5.6603055,-0.6507996,0.07526761,5.1691227,-9.545764,9.168996,-67.360085,71.23424,-3.5665488,-5.767898,19.855738,-7.8419747,-11.292933,58.00869,70.59131,3.830443,-0.14084318,-22.280455
197,-2.8096609115600586,-30.651817321777344,77.80928802490234,0.5524916721214627,-3.6170950023000428,-90.22912688755567,10.699558,3.649329,5.0458603,7.0983276,-13.42921,-5.703762,13.984172,-3.269767,-25.934422,6.6479216,-15.159956,5.660171,-0.5933012,0.10297355,5.065377,-9.293296,9.128214,-67.08983,71.10193,-3.4331286,-5.7073026,19.674257,-7.720345,-11.279569,58.010418,70.68283,3.7907937,-0.08319921,-22.197062
198,-2.820042133331299,-30.66851806640625,77.80458068847656,0.5395883736573948,-3.6155425046795493,-90.28212642069359,10.728144,3.6763742,5.086234,7.099294,-13.457606,-5.727415,13.988083,-3.2449486,-25.888266,6.649138,-15.17522,5.6484146,-0.5214739,0.12834084,4.9592414,-9.021193,9.10977,-66.71821,70.94274,-3.3891025,-5.6720743,19.469488,-7.609521,-11.259467,58.013294,70.7971,3.717805,0.0004596342,-22.086418
199,-2.828326463699341,-30.68382453918457,77.80023193359375,0.5250081316186479,-3.6101302964728696,-90.33099631988149,10.749481,3.7039793,5.1222534,7.100563,-13.484189,-5.7532263,13.986448,-3.2195795,-25.844679,6.6523075,-15.191366,5.6338825,-0.48161304,0.15242647,4.8509917,-8.728159,9.106765,-66.242294,70.77087,-3.4273176,-5.660425,19.285954,-7.5218062,-11.222726,58.020992,70.923256,3.6279142,0.10150328,-21.970026
200,-2.835602045059204,-30.698373794555664,77.79730987548828,0.5146179928070834,-3.5963852931551203,-90.36987158101424,10.756028,3.7259636,5.149125,7.1015263,-13.505193,-5.773123,13.975172,-3.198939,-25.808432,6.6538167,-15.204605,5.6254373,-0.46033156,0.16964187,4.7400603,-8.428266,9.121799,-65.74279,70.595795,-3.5680895,-5.6702313,19.168455,-7.4356165,-11.176176,57.962643,71.014656,3.5180717,0.21594982,-21.870527
201,-2.8447701930999756,-30.708932876586914,77.79512023925781,0.5107733787859938,-3.571172166774265,-90.39526046092085,10.742843,3.739489,5.163203,7.102064,-13.519096,-5.7839155,13.950411,-3.1858568,-25.782623,6.655579,-15.215912,5.6254854,-0.47150293,0.17858718,4.6232586,-8.113068,9.155889,-65.19706,70.4094,-3.86198,-5.709986,19.12885,-7.356209,-11.117306,57.837498,71.06845,3.377481,0.35367906,-21.788084
202,-2.8558878898620605,-30.71540069580078,77.7933120727539,0.5078397048100698,-3.5374160514665984,-90.41086006418737,10.714833,3.7482624,5.167823,7.101902,-13.527837,-5.790152,13.916097,-3.176246,-25.764168,6.6559625,-15.225347,5.629184,-0.5005428,0.18097132,4.501913,-7.7843814,9.207829,-64.600716,70.21004,-4.293132,-5.7776594,19.142708,-7.2821116,-11.049675,57.657543,71.09501,3.2059433,0.51409596,-21.712532
203,-2.862459421157837,-30.719953536987305,77.79202270507812,0.5069625004398257,-3.500487778679977,-90.42178397192043,10.679553,3.7549722,5.1688113,7.102283,-13.533917,-5.795402,13.877019,-3.1683958,-25.748407,6.6563835,-15.233365,5.6349025,-0.5399593,0.17943478,4.383989,-7.4545097,9.274058,-63.987442,70.01688,-4.7506227,-5.856547,19.20008,-7.20949,-10.977667,57.431828,71.10087,3.0324855,0.67225534,-21.65005
204,-2.8668289184570312,-30.72425651550293,77.7914047241211,0.5058573410953284,-3.465819429875916,-90.43311748265337,10.645571,3.7629466,5.1719575,7.1017013,-13.537988,-5.8033466,13.83757,-3.160056,-25.731138,6.65699,-15.239003,5.64105,-0.58178145,0.17708431,4.277536,-7.136851,9.352602,-63.394356,69.84853,-5.1273427,-5.929853,19.29149,-7.1339107,-10.902343,57.16638,71.09127,2.8841083,0.80343217,-21.607164
205,-2.870537519454956,-30.726627349853516,77.79147338867188,0.5019950904009896,-3.4288733755941956,-90.44395275602032,10.607201,3.772227,5.1768007,7.101009,-13.539519,-5.8164396,13.793127,-3.1506953,-25.712029,6.658141,-15.242864,5.6499033,-0.6257116,0.17307751,4.177371,-6.829615,9.442473,-62.816433,69.71022,-5.409503,-5.99745,19.422955,-7.0498786,-10.824993,56.8405,71.05892,2.7570436,0.9085866,-21.584143
206,-2.874194383621216,-30.726268768310547,77.7910385131836,0.4992925935873529,-3.3888080937846463,-90.45239481112398,10.562139,3.7818189,5.1808167,7.100682,-13.53808,-5.832299,13.743759,-3.1413395,-25.69326,6.65834,-15.2440815,5.6614895,-0.67431045,0.16665435,4.08183,-6.5279574,9.542622,-62.23964,69.59444,-5.6489177,-6.067452,19.597065,-6.9593806,-10.746535,56.456974,71.00031,2.6403782,0.9988213,-21.578024
207,-2.8770203590393066,-30.720352172851562,77.79158782958984,0.4953406840722283,-3.3563410205545936,-90.4618360229922,10.524737,3.7912812,5.187152,7.0995727,-13.536556,-5.846948,13.700356,-3.1323054,-25.673347,6.6587906,-15.244092,5.670421,-0.7233353,0.15926112,4.0029864,-6.242809,9.650851,-61.692635,69.503845,-5.8414445,-6.1352315,19.798956,-6.8717985,-10.6683035,56.059025,70.93368,2.5515711,1.0638199,-21.5911
208,-2.8850929737091064,-30.71731948852539,77.79051971435547,0.4921735894326128,-3.3423294858999735,-90.4755099942507,10.507329,3.8011396,5.198727,7.0993476,-13.538557,-5.8566284,13.674886,-3.1230478,-25.651108,6.6601553,-15.24464,5.671226,-0.7680639,0.1532207,3.9533021,-5.9852724,9.763839,-61.20299,69.44179,-5.981169,-6.1959615,20.013815,-6.79612,-10.591265,55.6907,70.874664,2.5098577,1.0936058,-21.625513
209,-2.892171859741211,-30.707841873168945,77.78936767578125,0.48700066908184747,-3.3525311756206144,-90.49791505980663,10.51716,3.8123906,5.22043,7.099712,-13.545826,-5.859057,13.6725,-3.11253,-25.622377,6.6614943,-15.245186,5.658584,-0.80584747,0.14874677,3.9403653,-5.7584295,9.87916,-60.765663,69.4131,-6.039831,-6.2473397,20.254341,-6.7367725,-10.51622,55.35754,70.83062,2.541954,1.075331,-21.688654
210,-2.8938071727752686,-30.694744110107422,77.7881851196289,0.48105945053140103,-3.38051148277748,-90.52609470997952,10.546235,3.8244562,5.2494326,7.100346,-13.556274,-5.856681,13.685427,-3.1020877,-25.588848,6.6659565,-15.247054,5.636772,-0.8395197,0.14523798,3.956284,-5.5579247,9.995608,-60.369198,69.419304,-6.0282073,-6.292036,20.523232,-6.6883125,-10.443314,55.039158,70.794174,2.631727,1.0151349,-21.776857
211,-2.8922312259674072,-30.68535614013672,77.78694915771484,0.4764730847348427,-3.4174386104381607,-90.55240828505926,10.583904,3.8351114,5.27683,7.1017265,-13.567201,-5.852759,13.70876,-3.0927238,-25.5587,6.668646,-15.247551,5.614522,-0.8730773,0.1422717,3.9879324,-5.3836384,10.111601,-60.033253,69.460625,-6.0016623,-6.3331356,20.790812,-6.643736,-10.37373,54.73818,70.75276,2.7298408,0.9397032,-21.876385
212,-2.889705181121826,-30.670392990112305,77.78594970703125,0.4730623534812223,-3.4547672684753623,-90.56922323898705,10.620557,3.8408499,5.2941823,7.1022563,-13.5750065,-5.850405,13.736364,-3.0871346,-25.539812,6.6699657,-15.247362,5.6006517,-0.90998596,0.13845491,4.0223465,-5.2363415,10.225222,-59.778557,69.53873,-6.015974,-6.3741937,21.027176,-6.596247,-10.3098545,54.45801,70.69601,2.7879353,0.87432325,-21.973036
213,-2.8841614723205566,-30.661699295043945,77.7844009399414,0.47128398047843933,-3.495010287952167,-90.57167980694358,10.657947,3.8405387,5.2963634,7.102964,-13.579949,-5.85139,13.772368,-3.0869844,-25.538067,6.6705747,-15.247084,5.5997415,-0.953302,0.13484265,4.0615406,-5.1194344,10.33443,-59.613964,69.66068,-6.0798445,-6.419724,21.23014,-6.5407753,-10.2555895,54.187584,70.61309,2.7875273,0.8228235,-22.069155
214,-2.8798975944519043,-30.647781372070312,77.78385925292969,0.4705781642999149,-3.541216692076213,-90.56493074308786,10.700193,3.8353977,5.288976,7.1028385,-13.582177,-5.85363,13.818667,-3.090905,-25.548136,6.6695695,-15.245989,5.606337,-0.9981964,0.1315984,4.110863,-5.0336547,10.437935,-59.528366,69.8272,-6.1646533,-6.4670115,21.413948,-6.4791527,-10.212963,53.927425,70.5069,2.7564483,0.7731713,-22.17001
215,-2.8796615600585938,-30.635822296142578,77.78269958496094,0.4705677540349618,-3.5853267644319518,-90.55589859433911,10.739276,3.8289433,5.2789617,7.102432,-13.58309,-5.855075,13.862975,-3.0955336,-25.560408,6.6679697,-15.243986,5.6143155,-1.0387441,0.12819529,4.1610684,-4.9749856,10.53561,-59.51326,70.028824,-6.2722373,-6.509041,21.573263,-6.4166665,-10.180907,53.69954,70.39247,2.7157383,0.72641265,-22.266678
216,-2.8697383403778076,-30.623754501342773,77.78236389160156,0.46992121866222025,-3.619537751671663,-90.55187785074399,10.766378,3.824236,5.2731833,7.1031456,-13.583216,-5.853567,13.892789,-3.0988345,-25.565508,6.6671877,-15.240508,5.6176476,-1.0694426,0.12329451,4.203267,-4.937585,10.628199,-59.556984,70.25438,-6.402068,-6.538474,21.703075,-6.3590894,-10.155153,53.526737,70.286095,2.6862886,0.6833932,-22.350002
217,-2.8664474487304688,-30.610898971557617,77.78306579589844,0.4673867335344658,-3.6400744247834993,-90.55407361274865,10.777471,3.8224132,5.2727838,7.103938,-13.581677,-5.848171,13.902995,-3.0995855,-25.56095,6.667761,-15.236098,5.614174,-1.0901144,0.11590937,4.2337093,-4.9245496,10.716896,-59.670208,70.50898,-6.5640492,-6.554183,21.807615,-6.3081894,-10.131124,53.413998,70.19222,2.6787753,0.63856643,-22.421839
218,-2.8644492626190186,-30.592573165893555,77.78460693359375,0.4650529541093629,-3.6516166645198975,-90.55897206160398,10.778726,3.8213463,5.274417,7.103122,-13.578204,-5.840074,13.90073,-3.0995314,-25.551731,6.66824,-15.229916,5.607401,-1.1046624,0.10625075,4.257197,-4.9365053,10.801947,-59.852036,70.7969,-6.753949,-6.5614014,21.887466,-6.2636824,-10.106941,53.351013,70.10874,2.6799686,0.5929243,-22.485823
219,-2.858180284500122,-30.576169967651367,77.78713989257812,0.4618096640995119,-3.659365793542563,-90.56614940140912,10.774585,3.820663,5.277948,7.10361,-13.573963,-5.830751,13.892514,-3.0992124,-25.539865,6.669236,-15.222684,5.5993433,-1.1144687,0.09629275,4.277381,-4.9636335,10.883514,-60.076935,71.09886,-6.95359,-6.5568542,21.933035,-6.229719,-10.081902,53.3385,70.041985,2.6780386,0.55723137,-22.535742
220,-2.851256847381592,-30.561927795410156,77.79005432128906,0.4591994533452698,-3.668436100705648,-90.57521252793345,10.772344,3.8200107,5.283323,7.1035447,-13.568616,-5.821609,13.884884,-3.0991933,-25.52737,6.67042,-15.213328,5.5921617,-1.1222332,0.08832932,4.298385,-4.9950347,10.961276,-60.31396,71.39957,-7.1409802,-6.5413175,21.933971,-6.210793,-10.056289,53.37965,69.998795,2.6621978,0.54228663,-22.565342
221,-2.845762014389038,-30.54438591003418,77.79217529296875,0.4556205552118864,-3.678486584689057,-90.58762597070232,10.77073,3.8189576,5.29226,7.103955,-13.561702,-5.812532,13.877136,-3.0999303,-25.513605,6.671149,-15.200773,5.585305,-1.132955,0.086221494,4.319369,-5.042149,11.010059,-60.562794,71.729774,-7.3183756,-6.512276,21.878328,-6.2100787,-10.039019,53.504032,69.97814,2.6287165,0.5584059,-22.574781
222,-2.837210178375244,-30.525291442871094,77.7944107055664,0.45087549109992253,-3.6874430652673897,-90.60282853244036,10.768125,3.8180597,5.3040414,7.104122,-13.553308,-5.802936,13.865778,-3.1014493,-25.498049,6.6741605,-15.186737,5.578014,-1.1296448,0.08143002,4.3387065,-5.094191,11.079146,-60.863922,72.0447,-7.507368,-6.4667315,21.774376,-6.2243214,-10.011923,53.682922,69.98794,2.5794716,0.5956679,-22.56857
223,-2.8275845050811768,-30.50725555419922,77.79678344726562,0.44726467145787124,-3.6974727576889648,-90.61845318747065,10.766337,3.816771,5.3156915,7.1044116,-13.544602,-5.7934713,13.855762,-3.1029134,-25.482443,6.675125,-15.1708,5.572166,-1.1323643,0.07764166,4.3599277,-5.144703,11.14765,-61.156384,72.3503,-7.6736307,-6.4157505,21.643225,-6.251462,-9.98235,53.894722,70.01382,2.5276532,0.6401319,-22.541143
224,-2.8213376998901367,-30.48773956298828,77.7994384765625,0.4430435264906078,-3.710927288372979,-90.63178572764377,10.767756,3.8146784,5.3241153,7.1046104,-13.536856,-5.784706,13.8496895,-3.105217,-25.468689,6.677456,-15.156657,5.569792,-1.1390364,0.073621124,4.3840218,-5.1866913,11.213676,-61.420296,72.63603,-7.8028092,-6.368965,21.506516,-6.280909,-9.9516325,54.093323,70.04402,2.4811277,0.67666036,-22.488348
225,-2.817021608352661,-30.468059539794922,77.80147552490234,0.4413646311485811,-3.7284893234804914,-90.63867847028463,10.772409,3.8108265,5.324473,7.104845,-13.530625,-5.777067,13.850888,-3.1082454,-25.461647,6.677586,-15.143232,5.5734134,-1.1525811,0.06735601,4.4110107,-5.218026,11.278851,-61.656307,72.902985,-7.8798575,-6.3309684,21.355694,-6.311212,-9.919445,54.270298,70.07546,2.4361126,0.7059148,-22.394487
226,-2.80800724029541,-30.448795318603516,77.80294799804688,0.43866946029490106,-3.749061890952547,-90.64162092451394,10.779283,3.8059955,5.3197403,7.1053233,-13.525259,-5.7701764,13.855872,-3.1122506,-25.458664,6.678121,-15.130732,5.5813355,-1.1700327,0.060206845,4.4401345,-5.245083,11.34166,-61.87942,73.1589,-7.9200573,-6.2963886,21.18414,-6.345313,-9.887025,54.44649,70.11203,2.3902178,0.7344669,-22.266567
227,-2.7979202270507812,-30.428049087524414,77.8048095703125,0.4365628882274671,-3.7715942102015227,-90.64827680226452,10.789111,3.8014636,5.318601,7.1052155,-13.519578,-5.763365,13.8625,-3.1155744,-25.451221,6.6777644,-15.11756,5.589001,-1.1833868,0.0548979,4.4722753,-5.2657676,11.404723,-62.0793,73.38924,-7.944352,-6.258444,21.015705,-6.3832235,-9.853611,54.621418,70.1568,2.3539803,0.7555876,-22.13513
228,-2.7887654304504395,-30.406469345092773,77.80632781982422,0.43133579484627316,-3.795742152840131,-90.66589157573755,10.801814,3.7999828,5.3294663,7.105909,-13.513945,-5.7561407,13.865895,-3.117105,-25.43042,6.6795573,-15.10324,5.5918684,-1.1844455,0.05571322,4.5087824,-5.2808948,11.464211,-62.24416,73.58725,-7.9717507,-6.2106504,20.874907,-6.422419,-9.821455,54.796165,70.20565,2.3400967,0.7633614,-22.030308
229,-2.778416395187378,-30.38195037841797,77.80884552001953,0.42319396880699783,-3.826007740591474,-90.70299283053758,10.826043,3.8031273,5.3612604,7.1057734,-13.508442,-5.7480884,13.870105,-3.114728,-25.387142,6.682242,-15.086953,5.587076,-1.1617316,0.06803107,4.555134,-5.297809,11.506266,-62.37681,73.761284,-8.001652,-6.142692,20.763126,-6.4633236,-9.799116,54.98038,70.258545,2.3645816,0.75067055,-21.957687
230,-2.765024185180664,-30.359039306640625,77.81062316894531,0.4112792343948067,-3.8612255533426856,-90.75329113590786,10.857718,3.8094451,5.407069,7.106071,-13.503334,-5.7396765,13.875154,-3.1099362,-25.328276,6.686807,-15.070061,5.577481,-1.1333805,0.08571151,4.607928,-5.297224,11.564797,-62.47193,73.88103,-8.025056,-6.058918,20.669147,-6.5162683,-9.768158,55.185535,70.33287,2.4218416,0.7217291,-21.90354
231,-2.7503223419189453,-30.338787078857422,77.81224060058594,0.40033577357678257,-3.891760194883666,-90.8027773973672,10.883371,3.8156834,5.452405,7.105966,-13.496674,-5.731316,13.87476,-3.1049414,-25.269531,6.689726,-15.051318,5.5674767,-1.1012406,0.103995435,4.658532,-5.295009,11.61551,-62.537468,73.983795,-8.051703,-5.9816594,20.598434,-6.563062,-9.741423,55.368237,70.39816,2.4764187,0.6906689,-21.863888
232,-2.739650011062622,-30.308277130126953,77.8162612915039,0.3899322583033855,-3.9079095580326952,-90.83714688539817,10.887813,3.8191667,5.4824457,7.106957,-13.487686,-5.7235026,13.860791,-3.1026566,-25.226582,6.6938434,-15.033411,5.5610843,-1.0848048,0.11511325,4.6957083,-5.2835484,11.673271,-62.571503,74.06399,-8.096742,-5.9306607,20.556593,-6.601657,-9.710269,55.510124,70.45334,2.5013113,0.66987693,-21.837755
233,-2.730179786682129,-30.2816219329834,77.8208999633789,0.3851709516040663,-3.902803966306939,-90.84964672921296,10.863016,3.8180077,5.490162,7.106427,-13.473688,-5.7166424,13.828238,-3.1034508,-25.205961,6.695353,-15.014251,5.5604825,-1.0841002,0.1143561,4.712288,-5.264942,11.733275,-62.572384,74.13297,-8.17114,-5.9161005,20.551619,-6.6240654,-9.676038,55.594543,70.49082,2.4742231,0.6619008,-21.828417
234,-2.7224080562591553,-30.255964279174805,77.8247299194336,0.38096115485899146,-3.88313996224698,-90.84877083889563,10.817884,3.814363,5.4843373,7.105983,-13.456821,-5.710347,13.782066,-3.105891,-25.19852,6.6960983,-14.994443,5.5630383,-1.0917269,0.10699223,4.7150855,-5.240622,11.792007,-62.542202,74.1877,-8.266114,-5.9258165,20.57822,-6.6350822,-9.640559,55.636673,70.51658,2.4149842,0.6602254,-21.83537
235,-2.7144575119018555,-30.231975555419922,77.82878112792969,0.3785285451521314,-3.859238965673604,-90.8436740995741,10.76647,3.8097649,5.4746313,7.105249,-13.439061,-5.70393,13.731687,-3.1093233,-25.196617,6.6968913,-14.97455,5.5660152,-1.1002795,0.09909495,4.715132,-5.2153525,11.846311,-62.493378,74.22482,-8.362437,-5.9470787,20.6226,-6.6394305,-9.606709,55.647324,70.530754,2.354528,0.66445184,-21.851215
236,-2.7064921855926514,-30.208742141723633,77.8323974609375,0.3750112947250447,-3.841425633914243,-90.84331885956418,10.722744,3.8059156,5.470521,7.104763,-13.422872,-5.6967106,13.687875,-3.1124396,-25.192575,6.696897,-14.954372,5.5665555,-1.1084622,0.09399283,4.724333,-5.180579,11.92014,-62.428925,74.21052,-8.436687,-5.9647593,20.669903,-6.6521244,-9.561045,55.640465,70.55058,2.3226454,0.6730139,-21.869081
237,-2.6989922523498535,-30.1821346282959,77.83638763427734,0.37025426967596353,-3.8316663555539034,-90.8488034737613,10.6896105,3.8033953,5.473657,7.1043077,-13.409694,-5.6886644,13.651751,-3.1155365,-25.186586,6.6985416,-14.935427,5.5628242,-1.1079549,0.096673585,4.7443757,-5.1472483,11.991068,-62.353092,74.15841,-8.474713,-5.972749,20.721313,-6.662305,-9.519373,55.59769,70.552345,2.3299863,0.6941808,-21.886797
238,-2.691227674484253,-30.159069061279297,77.83987426757812,0.36599937931311927,-3.824585617990913,-90.85576951008876,10.659569,3.8017244,5.4791574,7.104105,-13.397828,-5.6802344,13.618819,-3.1183553,-25.182045,6.699439,-14.916381,5.556682,-1.1023309,0.10487743,4.769314,-5.1158423,12.052934,-62.26099,74.08128,-8.489686,-5.979767,20.783024,-6.6653175,-9.485899,55.518578,70.533134,2.359221,0.7261778,-21.907955
