unveil-humanoid-operators/unveil-humanoid-operators.github.io/feature-analysis-animation/data/feature_matrix_instances/weight_ankle_peak_vel_jogging_A037_jog_backward_stop_004__A037.csv
Frame,root_translateX,root_translateY,root_translateZ,root_rotateX,root_rotateY,root_rotateZ,left_hip_pitch_joint_dof,left_hip_roll_joint_dof,left_hip_yaw_joint_dof,left_knee_joint_dof,left_ankle_pitch_joint_dof,left_ankle_roll_joint_dof,right_hip_pitch_joint_dof,right_hip_roll_joint_dof,right_hip_yaw_joint_dof,right_knee_joint_dof,right_ankle_pitch_joint_dof,right_ankle_roll_joint_dof,waist_yaw_joint_dof,waist_roll_joint_dof,waist_pitch_joint_dof,left_shoulder_pitch_joint_dof,left_shoulder_roll_joint_dof,left_shoulder_yaw_joint_dof,left_elbow_joint_dof,left_wrist_roll_joint_dof,left_wrist_pitch_joint_dof,left_wrist_yaw_joint_dof,right_shoulder_pitch_joint_dof,right_shoulder_roll_joint_dof,right_shoulder_yaw_joint_dof,right_elbow_joint_dof,right_wrist_roll_joint_dof,right_wrist_pitch_joint_dof,right_wrist_yaw_joint_dof
0,-0.09806253761053085,-2.616727352142334,79.13267517089844,0.7248295989350078,-6.929321138706052,87.16405657449998,10.173849,3.7344787,4.4606757,10.591072,-13.740818,-2.9171073,10.914999,-3.3620415,-6.73392,10.477653,-14.684444,4.2228518,0.74151653,1.7342134,8.765714,-0.032864556,12.610676,-37.918457,61.32089,-7.8010926,9.220992,5.8885946,-0.18696827,-9.994717,24.523691,68.926285,-15.021199,5.5901756,-1.3970674
1,-0.09966906160116196,-2.6112334728240967,79.14866638183594,0.6939422417352569,-6.963710627151174,87.20017663713887,10.188017,3.778282,4.4449983,10.628347,-13.75504,-2.9285753,10.947046,-3.3012867,-6.315363,10.419819,-14.6051855,4.2295365,0.7187103,1.7702279,8.825511,-0.062348712,12.629612,-37.962452,61.29126,-7.7060146,9.232329,5.9129577,-0.21446495,-9.990351,24.545877,68.878525,-15.368261,5.685577,-1.4684348
2,-0.07930734753608704,-2.6160967350006104,79.15682220458984,0.6577473879719103,-7.002514818178101,87.2382934406653,10.205458,3.828528,4.4294653,10.67001,-13.771872,-2.9414911,10.97862,-3.2328527,-5.850358,10.367892,-14.518885,4.2371507,0.6995211,1.8100346,8.887808,-0.100104295,12.647407,-38.01399,61.27188,-7.6089516,9.242449,5.9386573,-0.23696412,-9.983431,24.557465,68.826706,-15.72459,5.7871265,-1.542398
3,-0.06861631572246552,-2.6259334087371826,79.15272521972656,0.6308572463032394,-7.0322379116230875,87.27230448867549,10.217952,3.865543,4.4141088,10.699954,-13.782337,-2.951468,11.004272,-3.1804807,-5.4775205,10.3210535,-14.452332,4.243172,0.68215585,1.8418123,8.941596,-0.14016172,12.65552,-38.058563,61.26077,-7.516125,9.251463,5.9610596,-0.26557294,-9.979392,24.578686,68.78484,-16.066437,5.8768125,-1.608942
4,-0.0566144660115242,-2.6301960945129395,79.1462631225586,0.6303138508579135,-7.038371647575771,87.296646096058,10.213481,3.8701975,4.398031,10.709367,-13.781182,-2.954285,11.014662,-3.1681025,-5.3361273,10.28255,-14.432472,4.2450047,0.6820702,1.8456566,8.96818,-0.18051495,12.666112,-38.122757,61.25896,-7.4570856,9.256655,5.977276,-0.29859468,-9.973376,24.625637,68.76356,-16.36075,5.936803,-1.660464
5,-0.05543224886059761,-2.6366560459136963,79.14080810546875,0.675194892653758,-7.00501946090621,87.30634628209425,10.18244,3.8184807,4.379755,10.678308,-13.756385,-2.9446912,10.995037,-3.2242315,-5.5602527,10.261951,-14.492711,4.241453,0.6942143,1.8017695,8.948644,-0.21208215,12.679861,-38.20342,61.26249,-7.4411125,9.255815,5.987047,-0.3432166,-9.96614,24.722918,68.77636,-16.598524,5.9553776,-1.7009906
6,-0.030331840738654137,-2.6312451362609863,79.14360809326172,0.7497481654748903,-6.944333603859574,87.30590568235137,10.131809,3.7279384,4.3598633,10.621617,-13.716827,-2.926464,10.95717,-3.3274431,-6.0436487,10.250688,-14.607849,4.2340693,0.71317816,1.7283337,8.906803,-0.24526122,12.690503,-38.275734,61.272915,-7.4361086,9.25012,5.985926,-0.39941764,-9.961762,24.843182,68.80659,-16.809977,5.942655,-1.7280387
7,-0.03237910196185112,-2.6271445751190186,79.13453674316406,0.8248506208517143,-6.882406073653289,87.30246108783179,10.081778,3.6371222,4.3421693,10.562722,-13.676861,-2.9082217,10.919367,-3.4324338,-6.563543,10.245876,-14.727897,4.225089,0.7290579,1.6533105,8.8575535,-0.2659672,12.7012005,-38.34509,61.28184,-7.4538713,9.244989,5.982718,-0.4607816,-9.958919,24.993334,68.85035,-16.971466,5.919223,-1.7407637
8,-0.0379997193813324,-2.637568950653076,79.11540222167969,0.8698796611276736,-6.8462958176627735,87.30268399649431,10.053149,3.5854568,4.330914,10.527567,-13.65293,-2.8986614,10.900279,-3.4930205,-6.8963847,10.243242,-14.801859,4.215969,0.74397635,1.6082889,8.83671,-0.28363487,12.710336,-38.39662,61.28684,-7.473333,9.245329,5.973126,-0.52107066,-9.95803,25.135387,68.88666,-17.097067,5.9015675,-1.7275451
9,-0.032112330198287964,-2.639206886291504,79.10905456542969,0.8702883725704204,-6.851271400526074,87.30897903707672,10.056479,3.5925686,4.3290577,10.532432,-13.654897,-2.9018407,10.912276,-3.4873548,-6.955105,10.24145,-14.804846,4.2061534,0.75515807,1.6070349,8.85581,-0.29622227,12.719667,-38.432686,61.289497,-7.4983144,9.253015,5.955675,-0.577139,-9.9588995,25.282448,68.911545,-17.16958,5.892922,-1.6842625
10,-0.022993851453065872,-2.6372265815734863,79.1091079711914,0.8434907987156948,-6.880260837215795,87.31822729901548,10.079381,3.6344697,4.3331847,10.559489,-13.671729,-2.9124851,10.942485,-3.4431686,-6.8684735,10.242822,-14.767785,4.1950226,0.7531067,1.631445,8.897057,-0.2924474,12.730262,-38.448067,61.281677,-7.5338902,9.265479,5.932965,-0.6395139,-9.963183,25.454473,68.93874,-17.184824,5.88543,-1.6180725
11,-0.014597446657717228,-2.634749412536621,79.11077880859375,0.8103757793581522,-6.911636069051046,87.32611873921269,10.104302,3.6845658,4.340042,10.590406,-13.691995,-2.9254308,10.971821,-3.3897843,-6.7349405,10.246924,-14.722987,4.183866,0.75933665,1.6633121,8.94437,-0.2902948,12.739342,-38.452126,61.27275,-7.5723195,9.280219,5.9054704,-0.69762355,-9.970039,25.606846,68.96035,-17.184956,5.8767858,-1.5312698
12,0.0020838433410972357,-2.6281135082244873,79.12168884277344,0.792087237156543,-6.9235184063518584,87.32913575371406,10.113961,3.7162166,4.3455143,10.604701,-13.702764,-2.9354107,10.980096,-3.3563495,-6.653529,10.254051,-14.70339,4.1739006,0.76788795,1.6804948,8.971664,-0.28311333,12.747575,-38.442524,61.261173,-7.6166883,9.293429,5.8785176,-0.7492055,-9.979882,25.744228,68.97908,-17.18049,5.868888,-1.4329544
13,0.009589000605046749,-2.632328987121582,79.11619567871094,0.7969558568623111,-6.9040959064854235,87.32437108828734,10.095976,3.720828,4.3485885,10.599167,-13.703235,-2.9411576,10.953491,-3.352796,-6.6496525,10.268185,-14.723745,4.1659584,0.78834504,1.6779823,8.967138,-0.27338833,12.753258,-38.425495,61.24793,-7.6674085,9.307234,5.8528438,-0.7964248,-9.989492,25.851107,69.00248,-17.167345,5.8584948,-1.3142179
14,0.015501400455832481,-2.6310694217681885,79.11238861083984,0.8110352160299114,-6.867273286788897,87.31453462892918,10.064136,3.712463,4.351673,10.580117,-13.697161,-2.945425,10.906139,-3.3630881,-6.670676,10.28677,-14.763733,4.159232,0.8135407,1.6647906,8.944406,-0.25970805,12.757742,-38.396088,61.23375,-7.725055,9.321758,5.8257294,-0.8385577,-10.000438,25.943691,69.024925,-17.134476,5.847118,-1.1751662
15,0.029009927064180374,-2.63354229927063,79.11201477050781,0.8289437541423629,-6.828578888909153,87.30410723767119,10.031501,3.701165,4.354427,10.558754,-13.688746,-2.9489763,10.857133,-3.3765085,-6.6994553,10.304998,-14.807067,4.152449,0.84093714,1.6495692,8.919955,-0.2429518,12.760996,-38.357586,61.21679,-7.788741,9.334312,5.8007746,-0.8751738,-10.012384,26.02274,69.044754,-17.11105,5.8392797,-1.0360814
16,0.042068321257829666,-2.6306939125061035,79.11083984375,0.8411758159116564,-6.803721708517908,87.29755768888919,10.0111265,3.6963124,4.3572493,10.546778,-13.682338,-2.952645,10.827145,-3.382073,-6.71829,10.31545,-14.836025,4.144293,0.85837644,1.6407944,8.909579,-0.21614237,12.763904,-38.29958,61.19048,-7.853296,9.342112,5.780384,-0.91015977,-10.0284605,26.105482,69.06193,-17.120054,5.8392286,-0.9168157
17,0.05608010292053223,-2.6292617321014404,79.1119155883789,0.8465538769991765,-6.79928041247961,87.29906665292306,10.008291,3.6999722,4.357897,10.547844,-13.676588,-2.9562984,10.825794,-3.3773165,-6.724,10.313791,-14.842999,4.1340632,0.9241646,1.6368128,8.915703,-0.21487734,12.763893,-38.290474,61.18316,-7.9297132,9.341465,5.769444,-0.91298085,-10.030134,26.115734,69.069244,-17.190287,5.8441544,-0.83328664
18,0.07248719781637192,-2.621030807495117,79.11031341552734,0.8491910012155496,-6.805399165974787,87.30098517052933,10.014928,3.7085855,4.361128,10.55707,-13.671282,-2.959995,10.837047,-3.3666022,-6.721157,10.308469,-14.839702,4.1221485,0.9537729,1.6343303,8.932311,-0.19698356,12.763386,-38.228752,61.166164,-8.018805,9.338096,5.7604694,-0.9353105,-10.039406,26.16051,69.085495,-17.291735,5.854982,-0.741507
19,0.08582556247711182,-2.612461805343628,79.111572265625,0.8502253756374167,-6.815193207116089,87.3046797409964,10.026324,3.7187905,4.363371,10.56598,-13.66678,-2.963545,10.855018,-3.3541076,-6.71875,10.2994795,-14.833048,4.1103096,0.99543685,1.6353098,8.951292,-0.17878044,12.762597,-38.18332,61.14663,-8.111011,9.331882,5.756941,-0.9440819,-10.044158,26.184372,69.0956,-17.406557,5.8741803,-0.6750284
20,0.09293995052576065,-2.604671001434326,79.11540222167969,0.849000787304774,-6.821304216609704,87.30414236187126,10.035578,3.7308028,4.3679547,10.57377,-13.668749,-2.967511,10.870245,-3.340834,-6.718514,10.288947,-14.83003,4.0994115,0.9843261,1.6418341,8.975399,-0.133391,12.759245,-38.061962,61.10423,-8.180276,9.327431,5.748684,-0.9796096,-10.060229,26.258993,69.11041,-17.518688,5.9058714,-0.61987656
21,0.10189010202884674,-2.6057660579681396,79.11477661132812,0.8463994484392816,-6.8213868932570065,87.297768547816,10.041794,3.745074,4.375248,10.577798,-13.680954,-2.9715526,10.879289,-3.3270094,-6.7237263,10.280104,-14.835956,4.089714,1.0020503,1.6514124,8.98859,-0.1015951,12.756105,-37.990803,61.06979,-8.279987,9.326143,5.751336,-0.99921083,-10.069976,26.302437,69.11809,-17.649755,5.956983,-0.58738184
22,0.10819979757070541,-2.6029107570648193,79.11163330078125,0.8410939171188848,-6.819578203288136,87.28821404609857,10.048353,3.7615297,4.3843803,10.580208,-13.700184,-2.975579,10.887831,-3.3118184,-6.731919,10.269494,-14.844884,4.0806704,1.034522,1.6633523,8.99743,-0.07543447,12.753893,-37.944687,61.03719,-8.399532,9.326104,5.7618113,-1.0119296,-10.074323,26.325804,69.124,-17.800747,6.0234594,-0.57455546
23,0.11766756325960159,-2.5975351333618164,79.10677337646484,0.8370454562469177,-6.816895547091926,87.27765298928769,10.054679,3.7779372,4.394278,10.581378,-13.717744,-2.9802902,10.895978,-3.2966356,-6.738209,10.258551,-14.852666,4.072293,1.0196272,1.6782413,9.0114,-0.025692986,12.747778,-37.83694,60.988266,-8.493747,9.326155,5.7657485,-1.0503267,-10.083376,26.388588,69.13991,-17.939495,6.0920053,-0.5647181
24,0.1338590681552887,-2.5857198238372803,79.10476684570312,0.8336050756616028,-6.813583526421954,87.26688671515501,10.05891,3.791709,4.4055476,10.58274,-13.725661,-2.9864538,10.898553,-3.2838585,-6.7358108,10.254474,-14.857103,4.0647,1.0291281,1.6868886,9.020172,0.001937861,12.742511,-37.77416,60.9613,-8.59591,9.325318,5.766205,-1.0685682,-10.088523,26.414734,69.142654,-18.056044,6.1472597,-0.54814845
25,0.14486008882522583,-2.582827091217041,79.10488891601562,0.8362101117485976,-6.809392570986888,87.25524909352124,10.059554,3.799878,4.418792,10.584906,-13.716021,-2.9944942,10.892812,-3.2759295,-6.719589,10.261431,-14.855358,4.0592546,1.038179,1.6907668,9.028259,0.024158195,12.737981,-37.725876,60.941265,-8.694615,9.322101,5.7595596,-1.0889384,-10.09112,26.421572,69.14603,-18.145418,6.185251,-0.5183728
26,0.15031273663043976,-2.5739619731903076,79.11520385742188,0.8406408049881651,-6.804287835311533,87.24203022312349,10.059198,3.8043294,4.4345155,10.584737,-13.694206,-3.0039644,10.879685,-3.271603,-6.69326,10.278382,-14.851029,4.0555115,1.0497197,1.6895453,9.033753,0.03940532,12.734982,-37.69491,60.930264,-8.796904,9.317523,5.749306,-1.1045643,-10.091946,26.41399,69.14473,-18.216133,6.214374,-0.48422122
27,0.15806323289871216,-2.5697617530822754,79.12138366699219,0.8455142564647343,-6.79908458935962,87.23121553779016,10.0577545,3.8101208,4.448221,10.585662,-13.674151,-3.014035,10.869059,-3.2656858,-6.668518,10.291144,-14.845533,4.050764,1.058949,1.6884149,9.039984,0.051016,12.730762,-37.662144,60.922264,-8.8838005,9.314821,5.732923,-1.1171101,-10.092053,26.397774,69.13841,-18.267448,6.2365117,-0.44834864
28,0.17245088517665863,-2.572033166885376,79.11309814453125,0.8440837426167126,-6.795388066171088,87.22771820316721,10.057231,3.821486,4.455375,10.588171,-13.668685,-3.0237844,10.86942,-3.2536814,-6.6571393,10.28875,-14.842065,4.0424104,1.0671376,1.689907,9.046765,0.05802631,12.725732,-37.626385,60.917984,-8.943251,9.3168125,5.7094474,-1.1234063,-10.091214,26.377224,69.12663,-18.297073,6.2544146,-0.41509116
29,0.19182945787906647,-2.56644606590271,79.10652923583984,0.8367452938369406,-6.794624229025558,87.23537298610248,10.059486,3.8413835,4.4529905,10.59296,-13.686893,-3.0327399,10.888858,-3.2322853,-6.6663127,10.261882,-14.841794,4.0286517,1.0754809,1.6963218,9.051376,0.064452894,12.720483,-37.5923,60.914825,-8.977012,9.326171,5.676147,-1.1142939,-10.089315,26.35807,69.10437,-18.282234,6.267457,-0.38881958
30,0.19199031591415405,-2.5655736923217773,79.10228729248047,0.8243298371281869,-6.796088627460679,87.25130564885988,10.062993,3.8673725,4.4436355,10.599515,-13.719657,-3.0415156,10.920836,-3.2043498,-6.688831,10.218779,-14.842797,4.011249,1.0804791,1.705454,9.055377,0.06904027,12.715476,-37.55671,60.914246,-8.987189,9.340263,5.632771,-1.0969638,-10.086657,26.337603,69.07535,-18.233692,6.274464,-0.36564916
31,0.20698446035385132,-2.5561482906341553,79.09986114501953,0.8121783600290123,-6.795672920892505,87.2674325221242,10.066197,3.8931077,4.433355,10.602761,-13.751912,-3.0504951,10.950368,-3.176555,-6.7127676,10.176964,-14.84583,3.9930859,1.0843173,1.7129464,9.056218,0.07248791,12.709818,-37.52351,60.914623,-8.983829,9.355845,5.5920477,-1.0792607,-10.082701,26.318935,69.04715,-18.177591,6.278828,-0.34211528
32,0.22615554928779602,-2.5400540828704834,79.09825134277344,0.8034197764827032,-6.79095522825773,87.27762940668927,10.063088,3.915159,4.4256587,10.607988,-13.772975,-3.0605388,10.967545,-3.1530073,-6.7284956,10.145798,-14.847305,3.9766827,1.0876185,1.7160178,9.054041,0.07196102,12.706083,-37.501667,60.916466,-8.975087,9.367435,5.5632167,-1.0672601,-10.079222,26.306171,69.02223,-18.144295,6.2838116,-0.31315628
33,0.24166318774223328,-2.53468656539917,79.10942840576172,0.7973789107659379,-6.779712359505211,87.27916203617592,10.051574,3.9343276,4.420004,10.614197,-13.777604,-3.0724552,10.972747,-3.1321754,-6.733607,10.116177,-14.839984,3.9619274,1.0887544,1.7113551,9.051213,0.060913913,12.701611,-37.47631,60.925873,-8.941257,9.376596,5.54387,-1.0612624,-10.074099,26.292383,68.992325,-18.156742,6.295609,-0.27120993
34,0.23515534400939941,-2.5145211219787598,79.11144256591797,0.7962349173618097,-6.764562576674,87.27497689533807,10.0377445,3.9477441,4.4158845,10.615244,-13.769976,-3.0848885,10.963509,-3.1176789,-6.732146,10.103341,-14.836468,3.9484906,1.0895553,1.7048064,9.043716,0.052604232,12.700925,-37.47073,60.9294,-8.906204,9.382434,5.53628,-1.0627663,-10.072987,26.289623,68.97209,-18.179733,6.3045473,-0.22696514
35,0.2560071051120758,-2.519641637802124,79.1077880859375,0.7919986543476784,-6.746813613920543,87.27081172247651,10.015614,3.9652255,4.412739,10.626897,-13.763518,-3.0987108,10.956291,-3.0989025,-6.729126,10.078459,-14.823079,3.9350412,1.0869366,1.6905562,9.040781,0.02570428,12.696476,-37.44101,60.949516,-8.840814,9.388014,5.527508,-1.0669445,-10.063478,26.273466,68.942505,-18.226646,6.315988,-0.17361413
36,0.27764928340911865,-2.5279383659362793,79.10350036621094,0.7888589094232862,-6.736178135321701,87.27065980995644,10.005167,3.9817972,4.4129543,10.631205,-13.7555,-3.1120958,10.957181,-3.0813632,-6.7272024,10.057746,-14.811037,3.9233983,1.0865543,1.6826551,9.034311,0.014298096,12.695488,-37.432117,60.954967,-8.793563,9.390892,5.5286617,-1.062225,-10.060603,26.267757,68.92312,-18.249134,6.315542,-0.14035454
37,0.2900422215461731,-2.527702808380127,79.10198974609375,0.7795905139177945,-6.733525066013897,87.27962962587546,9.999432,4.006136,4.413875,10.643149,-13.753988,-3.1265287,10.980349,-3.05521,-6.728932,10.014017,-14.784143,3.9122953,1.0852478,1.6764737,9.035882,-0.0026299937,12.693169,-37.40247,60.963444,-8.726523,9.392123,5.5307217,-1.0445114,-10.0519285,26.245752,68.89885,-18.27094,6.300279,-0.12827152
38,0.31157779693603516,-2.521517753601074,79.10225677490234,0.7696229861441625,-6.734409918037484,87.29259954255926,9.997486,4.0320616,4.417339,10.655048,-13.752156,-3.141361,11.0078535,-3.0279515,-6.7302055,9.972439,-14.754854,3.902486,1.0835721,1.6721748,9.036277,-0.014774192,12.691599,-37.374737,60.966694,-8.656137,9.391599,5.5409985,-1.0243696,-10.043491,26.224955,68.8834,-18.284197,6.2734694,-0.131711
39,0.3171294033527374,-2.5101730823516846,79.11157989501953,0.7583324582563525,-6.740461692819696,87.30639000890959,9.999371,4.058419,4.4223948,10.671688,-13.753461,-3.1561856,11.046525,-3.0001378,-6.733741,9.920369,-14.721667,3.8935726,1.0798321,1.6666242,9.042905,-0.03037227,12.690018,-37.341087,60.97294,-8.580602,9.389289,5.5485034,-1.0030336,-10.032169,26.197962,68.86651,-18.305244,6.2487855,-0.13421297
40,0.33434921503067017,-2.510200023651123,79.11012268066406,0.7538723248219803,-6.749023921305567,87.3139896326281,10.011295,4.07594,4.4327283,10.677269,-13.750732,-3.169271,11.082457,-2.9818149,-6.737809,9.878253,-14.699059,3.8864875,1.0744942,1.6581205,9.051263,-0.042205133,12.689149,-37.319733,60.976543,-8.524872,9.385864,5.5538077,-0.9917385,-10.022475,26.177847,68.85813,-18.326899,6.2372766,-0.12220262
41,0.33162611722946167,-2.498049259185791,79.11920166015625,0.7567514714307778,-6.765164777935774,87.31371938650518,10.038435,4.080916,4.453915,10.674799,-13.744616,-3.1799343,11.121761,-2.977375,-6.7443194,9.846508,-14.69138,3.8820846,1.0657108,1.6442926,9.068216,-0.051194586,12.688842,-37.308945,60.97864,-8.496117,9.381074,5.558548,-0.99055004,-10.0157585,26.161955,68.85446,-18.360586,6.245124,-0.091980636
42,0.3480834662914276,-2.5002920627593994,79.10956573486328,0.765637566777468,-6.787427103118546,87.30854632861629,10.0764885,4.077506,4.483189,10.668265,-13.737129,-3.189012,11.165587,-2.982295,-6.752792,9.818644,-14.691466,3.8799336,1.0546814,1.6271236,9.09192,-0.058223356,12.688831,-37.305546,60.978504,-8.485749,9.374925,5.563932,-0.9936838,-10.011195,26.149212,68.85154,-18.400412,6.2653055,-0.050925262
43,0.3568249046802521,-2.491260528564453,79.1070785522461,0.7742953051216611,-6.8070520946395225,87.30174936481846,10.111362,4.0743136,4.5080137,10.661497,-13.731937,-3.1978862,11.204538,-2.9867797,-6.7608843,9.793845,-14.69373,3.8778136,1.0458041,1.6104144,9.112932,-0.065803215,12.689123,-37.305622,60.9784,-8.471422,9.368175,5.5613194,-0.9989098,-10.005254,26.131975,68.851036,-18.43893,6.290372,-0.00063777115
44,0.36050060391426086,-2.484090805053711,79.10467529296875,0.7760911718757602,-6.813356347043422,87.29608823820544,10.126033,4.078755,4.5165844,10.659283,-13.732576,-3.207823,11.221845,-2.9833288,-6.765306,9.779761,-14.696203,3.8738508,1.0381339,1.5991452,9.117112,-0.07034497,12.689501,-37.306095,60.97641,-8.437367,9.362312,5.544431,-1.0012902,-10.001483,26.122404,68.85407,-18.454721,6.310899,0.052343063
45,0.3657214343547821,-2.476438283920288,79.10252380371094,0.7648127775877505,-6.803060870881758,87.29413919632917,10.114904,4.0993924,4.4923286,10.661634,-13.744477,-3.2197542,11.225321,-2.9610927,-6.7683682,9.751897,-14.684204,3.8665988,1.037636,1.5954788,9.101749,-0.08011597,12.6901865,-37.304073,60.983006,-8.356807,9.355895,5.505385,-1.0050324,-9.995823,26.099506,68.857765,-18.459536,6.3313737,0.12934385
46,0.37816980481147766,-2.478989839553833,79.09815979003906,0.7448045098598735,-6.776726254616663,87.29352134048337,10.076878,4.129601,4.4462004,10.675388,-13.768148,-3.23265,11.206101,-2.9287565,-6.7698865,9.730198,-14.670682,3.857522,1.0399445,1.5987555,9.068946,-0.09093866,12.690795,-37.302094,60.990784,-8.251517,9.350337,5.4514165,-1.008069,-9.989798,26.075838,68.864685,-18.449463,6.3482127,0.21565922
47,0.38666293025016785,-2.4792821407318115,79.09745025634766,0.7272390905508667,-6.7520648748942405,87.29141584978608,10.042524,4.1586514,4.405792,10.68617,-13.787922,-3.2458901,11.1841,-2.898107,-6.7675605,9.717569,-14.660744,3.8482487,1.0449487,1.5998039,9.0367565,-0.10113461,12.691452,-37.297546,60.99728,-8.1416025,9.34367,5.385388,-1.0108907,-9.983786,26.049175,68.87519,-18.435627,6.366942,0.3009605
48,0.3915509283542633,-2.4738106727600098,79.09915924072266,0.7199068661371272,-6.7458658310464825,87.28548463554644,10.034919,4.1775584,4.398138,10.691437,-13.793926,-3.259266,11.178482,-2.879218,-6.7594266,9.714022,-14.657648,3.8400064,1.0578574,1.5903926,9.02588,-0.11711369,12.693381,-37.287975,61.003372,-8.044035,9.334073,5.3056755,-1.0144182,-9.97052,26.006086,68.890495,-18.43425,6.3886747,0.3738735
49,0.37591826915740967,-2.4528634548187256,79.10234069824219,0.7301964086533691,-6.766936096808256,87.28068171489855,10.066622,4.1801763,4.436082,10.689392,-13.777729,-3.2735298,11.20432,-2.879028,-6.748083,9.714987,-14.66302,3.8333716,1.0608976,1.5672168,9.0362835,-0.12438649,12.694754,-37.273457,61.003586,-7.973966,9.321306,5.211353,-1.0079063,-9.964817,25.979399,68.90465,-18.424313,6.413991,0.42582145
50,0.4002605974674225,-2.4702985286712646,79.0973892211914,0.7515529802678896,-6.808135715237336,87.27560309278392,10.130241,4.17158,4.504508,10.674044,-13.743024,-3.288639,11.25236,-2.8909984,-6.7328005,9.720001,-14.67429,3.8276784,1.0745323,1.5287634,9.075741,-0.14677751,12.699078,-37.23973,61.00725,-7.8892984,9.306114,5.088637,-0.9996803,-9.950234,25.912436,68.9173,-18.444237,6.439075,0.47146466
51,0.43213650584220886,-2.4763646125793457,79.09760284423828,0.774361663723553,-6.851087477272144,87.26094034606753,10.1954775,4.1633277,4.584475,10.662114,-13.709377,-3.3028152,11.291988,-2.9036312,-6.7092204,9.739913,-14.689367,3.8220644,1.0968243,1.4912903,9.118194,-0.1675846,12.706788,-37.21017,61.00554,-7.822953,9.288286,4.9669585,-1.0028443,-9.927926,25.84705,68.94329,-18.462149,6.4694924,0.511317
52,0.4438716471195221,-2.473193645477295,79.10478210449219,0.7865176151979514,-6.882142788473565,87.22584650068083,10.24617,4.1649237,4.6595364,10.650672,-13.687002,-3.3141387,11.297934,-2.9068732,-6.671256,9.782685,-14.705088,3.8160193,1.1308742,1.4706637,9.154589,-0.18686476,12.714121,-37.180885,60.99776,-7.7744417,9.266104,4.8590655,-1.0255704,-9.907988,25.7983,68.9771,-18.473352,6.508659,0.5556403
53,0.445353627204895,-2.486548662185669,79.09778594970703,0.7830409655859188,-6.8950646060801155,87.16372660854913,10.2721,4.1816316,4.724534,10.646484,-13.684136,-3.3216822,11.258531,-2.8952982,-6.6157546,9.852746,-14.719224,3.8095558,1.1820905,1.4761955,9.181916,-0.20821722,12.717992,-37.158882,60.984516,-7.7533793,9.236197,4.767163,-1.0680764,-9.897595,25.773088,69.014305,-18.471453,6.560723,0.6088725
54,0.4445425570011139,-2.505598783493042,79.09352111816406,0.7714263800797249,-6.899092061032212,87.08115648355853,10.287018,4.2070584,4.788994,10.644315,-13.691456,-3.326588,11.19019,-2.8757522,-6.5461593,9.944132,-14.733573,3.8029907,1.2469616,1.4981157,9.210002,-0.23322408,12.720865,-37.1343,60.9652,-7.7473073,9.200622,4.6802692,-1.134763,-9.888836,25.753204,69.065025,-18.470608,6.620259,0.66743636
55,0.4361913502216339,-2.51206374168396,79.10590362548828,0.7565234662945082,-6.900476946598735,86.98873330147474,10.298077,4.235278,4.8567276,10.643072,-13.702481,-3.3301673,11.106874,-2.8537796,-6.4674797,10.051521,-14.751831,3.795909,1.3173547,1.5248798,9.241284,-0.25612316,12.723249,-37.09416,60.941006,-7.7392974,9.165451,4.601818,-1.2129103,-9.877156,25.731766,69.116104,-18.476406,6.683785,0.7259379
56,0.43471524119377136,-2.52947735786438,79.10535430908203,0.7454305254665761,-6.90536494982237,86.89702250844991,10.312584,4.2617507,4.931067,10.641149,-13.71062,-3.3339508,11.025096,-2.83389,-6.3852644,10.163018,-14.774339,3.7878165,1.3938076,1.5491616,9.272466,-0.27442497,12.723065,-37.050045,60.91864,-7.7275004,9.1362915,4.539853,-1.2688086,-9.871594,25.703905,69.13591,-18.486258,6.7493863,0.77868485
57,0.44162628054618835,-2.5574073791503906,79.09220123291016,0.7394782057739065,-6.913852906022837,86.80436959299614,10.332332,4.2862344,5.0165696,10.634315,-13.713023,-3.3391414,10.940978,-2.8167675,-6.2966824,10.286463,-14.805643,3.7775419,1.4743582,1.5680605,9.312778,-0.2904416,12.720985,-36.97814,60.89412,-7.6907115,9.115336,4.492306,-1.3158458,-9.865989,25.650566,69.12554,-18.526789,6.8215947,0.8320816
58,0.4187808036804199,-2.5552518367767334,79.09773254394531,0.7347090127908483,-6.923101624148437,86.70685438329463,10.352848,4.311796,5.109886,10.626299,-13.714701,-3.3447654,10.845732,-2.799518,-6.200352,10.429361,-14.8448515,3.7655468,1.5619788,1.5865214,9.360588,-0.30649132,12.716837,-36.882908,60.868176,-7.634295,9.099296,4.4557137,-1.3587984,-9.860485,25.57593,69.092545,-18.593847,6.9000363,0.8871871
59,0.43365490436553955,-2.5902342796325684,79.09405517578125,0.7317568829871833,-6.935550902148217,86.61028402672537,10.376547,4.333753,5.2045627,10.618655,-13.715329,-3.348523,10.755838,-2.7851512,-6.102661,10.567984,-14.884143,3.7543948,1.6530255,1.603805,9.409377,-0.31884173,12.709951,-36.782307,60.842556,-7.5810194,9.086546,4.429513,-1.3937624,-9.854856,25.501104,69.05164,-18.649574,6.970532,0.93232214
60,0.4368549585342407,-2.6134910583496094,79.10005187988281,0.7330601426159761,-6.955305647681957,86.52008644013921,10.409171,4.346011,5.294431,10.609206,-13.713082,-3.3477461,10.675252,-2.7798088,-6.008943,10.709751,-14.927138,3.7469878,1.7319498,1.6190124,9.473733,-0.33027214,12.696865,-36.648125,60.814854,-7.5037913,9.076258,4.397833,-1.4472396,-9.8486805,25.43032,69.0308,-18.693502,7.0141478,0.96448475
61,0.43679821491241455,-2.636532783508301,79.10323333740234,0.7405154119964767,-6.989289790334071,86.4316691741858,10.461515,4.3457766,5.385838,10.596818,-13.707923,-3.3395338,10.610087,-2.7857416,-5.9123716,10.856331,-14.974053,3.745275,1.8102399,1.6334424,9.5416,-0.32915267,12.68153,-36.525665,60.78456,-7.45141,9.068453,4.375827,-1.4951663,-9.846332,25.400692,69.025734,-18.668945,7.0238757,0.96888757
62,0.4329661726951599,-2.658844470977783,79.10359191894531,0.7513249294007588,-7.033587009600943,86.34409967855117,10.526488,4.3368316,5.4794273,10.584751,-13.701677,-3.3260434,10.553793,-2.8000467,-5.8124156,11.010363,-15.025585,3.7474194,1.8912385,1.6470581,9.617545,-0.32057783,12.665453,-36.4026,60.748123,-7.4078264,9.064605,4.3617663,-1.539546,-9.847651,25.388815,69.02491,-18.606249,7.0092306,0.9542777
63,0.42743465304374695,-2.674957752227783,79.10289001464844,0.7656788516106143,-7.072562826871162,86.26831920788622,10.582759,4.323467,5.5602303,10.572917,-13.692747,-3.3122878,10.4969635,-2.8181775,-5.725283,11.159568,-15.077017,3.7501945,1.9331554,1.6603062,9.690928,-0.30012646,12.635504,-36.225567,60.713158,-7.3363442,9.060268,4.343867,-1.5962441,-9.853326,25.404104,69.02998,-18.539278,6.987824,0.9343911
64,0.40345293283462524,-2.6774818897247314,79.09969329833984,0.779062655383942,-7.089727856995058,86.21571687195905,10.607507,4.3099513,5.613521,10.562164,-13.67991,-3.3033519,10.426545,-2.8361158,-5.666821,11.297339,-15.126224,3.7503564,1.9634082,1.6663511,9.734695,-0.27911115,12.604517,-36.06531,60.684834,-7.263986,9.054282,4.325146,-1.631317,-9.85999,25.405685,69.016716,-18.494738,6.978626,0.9169828
65,0.4247552752494812,-2.7130374908447266,79.0876693725586,0.7918488858054575,-7.079016223854048,86.19220902791707,10.592931,4.298044,5.6295204,10.55083,-13.662647,-3.2998142,10.343703,-2.8513553,-5.6478224,11.410247,-15.168726,3.746333,1.9754392,1.6626632,9.745551,-0.255441,12.576592,-35.91146,60.65772,-7.1738124,9.0468235,4.301471,-1.6453556,-9.86386,25.38561,68.981575,-18.489613,6.9834924,0.90486974
66,0.40086162090301514,-2.702275037765503,79.09819793701172,0.8045524729780644,-7.049353830748217,86.19078888965483,10.549495,4.286144,5.6179585,10.54284,-13.6437025,-3.299379,10.252491,-2.866294,-5.6575537,11.507048,-15.207615,3.7399685,1.9822303,1.649214,9.730685,-0.2266387,12.55773,-35.778027,60.62557,-7.08237,9.040379,4.277937,-1.6376791,-9.864155,25.348879,68.92943,-18.503445,6.9940867,0.89096266
67,0.3930193781852722,-2.704069137573242,79.0999755859375,0.8192828953634805,-7.008754315092266,86.20363296022337,10.491716,4.270911,5.593287,10.531496,-13.6182375,-3.3023596,10.150415,-2.8849435,-5.680199,11.608819,-15.249417,3.733242,1.9457535,1.63279,9.709303,-0.19339332,12.521646,-35.585552,60.60628,-6.9601445,9.029744,4.2456675,-1.652215,-9.860317,25.324167,68.89269,-18.532093,7.0092835,0.87963486
68,0.4174122214317322,-2.726931095123291,79.10187530517578,0.8375011354715756,-6.9638866755084,86.22279584871839,10.430028,4.2498455,5.569707,10.515015,-13.583967,-3.3092136,10.0309105,-2.9113438,-5.6997876,11.740064,-15.302156,3.7279708,1.9284346,1.6098131,9.676754,-0.15750551,12.500562,-35.443214,60.583694,-6.87784,9.015567,4.2164574,-1.6437184,-9.8557205,25.277182,68.84367,-18.550022,7.0298386,0.8698262
69,0.4321556091308594,-2.7501444816589355,79.09286499023438,0.857951906188341,-6.920937547315198,86.2517124208307,10.375367,4.225767,5.5542135,10.489735,-13.543941,-3.3211398,9.9080105,-2.9422927,-5.7134805,11.891368,-15.363317,3.7250817,1.9019905,1.5854276,9.641095,-0.11394476,12.483423,-35.30848,60.563797,-6.8086033,8.994769,4.1812735,-1.6294572,-9.850704,25.223602,68.79266,-18.568453,7.059639,0.87030244
70,0.4175831079483032,-2.755901575088501,79.08296966552734,0.8797714448395471,-6.8750525763455475,86.29298105693144,10.3193245,4.198704,5.5380316,10.458699,-13.4988785,-3.337481,9.77957,-2.9773998,-5.729298,12.056226,-15.430922,3.7233753,1.8553305,1.5585185,9.600609,-0.06492231,12.4619875,-35.15733,60.551094,-6.733488,8.968312,4.1380363,-1.6210539,-9.843236,25.165869,68.74798,-18.595955,7.096361,0.87904114
71,0.42616114020347595,-2.762544631958008,79.10025787353516,0.9076263089401985,-6.816598066887578,86.3367416915407,10.246536,4.162808,5.512138,10.422358,-13.438462,-3.3561893,9.619295,-3.022752,-5.7477736,12.254651,-15.508808,3.721767,1.8010657,1.5249509,9.550313,-0.01786889,12.433549,-34.996983,60.547302,-6.674569,8.939306,4.098485,-1.6196545,-9.832089,25.108828,68.71314,-18.6095,7.132781,0.8800135
72,0.43920934200286865,-2.771462917327881,79.10771179199219,0.9496911728828769,-6.735301554120595,86.37309534679856,10.141778,4.11129,5.4675407,10.38127,-13.352792,-3.3750913,9.399175,-3.0857346,-5.7692904,12.510718,-15.603102,3.719262,1.7616843,1.4789703,9.489525,0.02640993,12.411908,-34.84459,60.533886,-6.655955,8.91275,4.0713563,-1.6160512,-9.822684,25.042574,68.67547,-18.59111,7.1603603,0.86119753
73,0.4407122731208801,-2.7887814044952393,79.11634826660156,1.0088121246917867,-6.6289705291113705,86.404997586436,10.0004635,4.0366445,5.3871193,10.33398,-13.230334,-3.3945565,9.12206,-3.1732626,-5.8027883,12.816193,-15.711329,3.7178242,1.7161504,1.4163097,9.419585,0.069330916,12.392226,-34.674973,60.514183,-6.6844444,8.886077,4.0520787,-1.6343703,-9.812996,24.980103,68.65793,-18.530907,7.1741614,0.82037205
74,0.4352218508720398,-2.8231141567230225,79.10884857177734,1.0804718054803024,-6.502755816772071,86.43586794093834,9.830776,3.9448988,5.280722,10.281307,-13.079794,-3.415661,8.798126,-3.279185,-5.844708,13.165388,-15.832652,3.7172103,1.6543094,1.3407605,9.340754,0.11364556,12.368006,-34.477325,60.494164,-6.7433333,8.858847,4.038536,-1.6719717,-9.799435,24.92823,68.65726,-18.440283,7.1815567,0.7622316
75,0.4469510316848755,-2.850661516189575,79.12994384765625,1.1521520754914922,-6.358686904733874,86.4596426639223,9.62325,3.8559663,5.1759186,10.255217,-12.935908,-3.4378033,8.418587,-3.3865163,-5.8795986,13.57244,-15.969354,3.7126963,1.6038249,1.265178,9.254801,0.15562,12.344622,-34.271645,60.46909,-6.8050656,8.834135,4.0343413,-1.7130197,-9.785147,24.866552,68.65839,-18.338522,7.1831975,0.6911585
76,0.45697954297065735,-2.8853015899658203,79.13833618164062,1.2055276737595297,-6.195178412215943,86.47315666319801,9.304492,3.803615,5.093047,10.415131,-12.900632,-3.4617915,7.977914,-3.4681077,-5.8961663,14.03696,-16.115803,3.697436,1.5831176,1.2098352,9.16262,0.19344218,12.325148,-34.062557,60.430347,-6.835872,8.8162985,4.0427136,-1.7432649,-9.773275,24.777514,68.64247,-18.247072,7.18127,0.6113607
77,0.47595730423927307,-2.936829090118408,79.13986206054688,1.2449057119275724,-6.012600972899435,86.46919263536053,8.952184,3.7757757,5.0521984,10.603038,-12.907095,-3.484141,7.4728637,-3.5296376,-5.883138,14.564089,-16.27781,3.6722634,1.581307,1.1702683,9.06952,0.22550023,12.297575,-33.80301,60.388805,-6.787556,8.808056,4.05031,-1.7854096,-9.757622,24.663973,68.6318,-18.183231,7.1724224,0.5184631
78,0.5043166279792786,-3.014263153076172,79.11980438232422,1.2770892291124398,-5.81169653801498,86.45146118078789,8.566364,3.7630703,5.037042,10.816283,-12.940774,-3.5056624,6.9089923,-3.5796034,-5.849431,15.14887,-16.454184,3.6393979,1.6011282,1.1407717,8.968828,0.24818662,12.260289,-33.52217,60.352192,-6.70145,8.80636,4.06402,-1.8300785,-9.738525,24.531004,68.624374,-18.127384,7.157402,0.41036525
79,0.49330922961235046,-3.0598111152648926,79.1269760131836,1.3129255770100876,-5.605560143256237,86.42251724399111,8.155321,3.7524524,5.0372334,11.060067,-12.979416,-3.5277925,6.29777,-3.6301732,-5.8011084,15.797359,-16.641321,3.599199,1.6434559,1.108084,8.87781,0.26209512,12.22152,-33.23847,60.30873,-6.61308,8.804378,4.0987935,-1.8770208,-9.719953,24.38173,68.60796,-18.069613,7.1412616,0.30038553
80,0.5123648643493652,-3.142524480819702,79.12005615234375,1.365355280462815,-5.407229886788381,86.38478112111018,7.725752,3.7303545,5.0424404,11.342681,-13.000939,-3.551789,5.64964,-3.6943235,-5.7440696,16.517496,-16.834818,3.551764,1.6879758,1.059589,8.813025,0.26601386,12.173161,-32.9328,60.26242,-6.5389566,8.793734,4.1663723,-1.9510465,-9.69571,24.233637,68.59742,-18.00442,7.12816,0.20052077
81,0.5321224331855774,-3.2203338146209717,79.13179779052734,1.4418309277531156,-5.209592683729663,86.33711934984531,7.272049,3.6883898,5.057109,11.657825,-12.993439,-3.5760546,4.9594784,-3.7799115,-5.6745276,17.298336,-17.041021,3.4943645,1.7462893,0.98664916,8.772339,0.26195893,12.132955,-32.628517,60.200485,-6.4841413,8.777429,4.26724,-2.0348485,-9.671273,24.071838,68.57188,-17.939966,7.1213536,0.11250483
82,0.5721304416656494,-3.32401180267334,79.12310791015625,1.5352613547471754,-5.009855980876186,86.27870813614706,6.790198,3.6353385,5.084244,12.011439,-12.973201,-3.5998492,4.2208414,-3.8789778,-5.589964,18.148157,-17.261732,3.4265819,1.8052018,0.89599794,8.749008,0.24702688,12.084642,-32.29281,60.14021,-6.4222116,8.75715,4.394099,-2.149375,-9.633239,23.905619,68.56103,-17.880514,7.1180787,0.027444782
83,0.6006614565849304,-3.434774398803711,79.12814331054688,1.6350564152403495,-4.826342989807643,86.21244915634372,6.310234,3.5812528,5.113507,12.386366,-12.946593,-3.625785,3.459711,-3.9805968,-5.498487,19.065464,-17.47832,3.3519368,1.8905029,0.79763925,8.758186,0.23838226,12.054994,-31.975956,60.038376,-6.40589,8.729412,4.554428,-2.2622206,-9.605298,23.73807,68.524445,-17.791824,7.1129003,-0.04639541
84,0.6491232514381409,-3.568425416946411,79.10958862304688,1.7317667063869828,-4.678037733741777,86.14110671032175,5.8629465,3.5357666,5.1342897,12.763329,-12.918651,-3.656828,2.7009244,-4.074642,-5.408567,20.052181,-17.673233,3.2740607,1.9714665,0.6998453,8.810481,0.24359068,12.02225,-31.627634,59.90285,-6.436415,8.685899,4.7499614,-2.4167135,-9.571323,23.610817,68.50859,-17.651257,7.100123,-0.10838734
85,0.705984354019165,-3.7050068378448486,79.08961486816406,1.8273985528171055,-4.576176873064552,86.04963509015936,5.465076,3.5000386,5.152111,13.135743,-12.88747,-3.6957393,1.936326,-4.161246,-5.312016,21.15027,-17.84908,3.1908336,2.079502,0.6037619,8.923168,0.25372568,11.995472,-31.29444,59.72876,-6.545106,8.627853,5.009429,-2.5983548,-9.545669,23.53376,68.49173,-17.423492,7.086499,-0.1516371
86,0.7888315916061401,-3.8421406745910645,79.10008239746094,1.9235474398727863,-4.5083234919785635,85.94213532887068,5.09739,3.469931,5.169446,13.513549,-12.850755,-3.7400496,1.1570177,-4.2458053,-5.2073774,22.34602,-18.013508,3.0988977,2.1957624,0.5073531,9.085912,0.2716882,11.969925,-30.946165,59.52033,-6.704096,8.556333,5.318848,-2.813156,-9.52453,23.504097,68.4796,-17.130835,7.0719247,-0.1787056
87,0.8261902332305908,-3.98130464553833,79.09591674804688,2.0172940339103502,-4.456381252956605,85.84907156037137,4.733336,3.446623,5.1710896,13.906364,-12.816051,-3.7855182,0.38597316,-4.3258324,-5.1140747,23.555408,-18.155293,3.0012355,2.316551,0.41530177,9.264337,0.30978984,11.951828,-30.594242,59.2663,-6.9086094,8.469394,5.6338162,-3.020052,-9.513533,23.467564,68.446556,-16.825169,7.043238,-0.1996212
88,0.8574534058570862,-4.128774642944336,79.0917739868164,2.102850542247494,-4.403015522831506,85.80097236850442,4.349966,3.4307258,5.1423435,14.316945,-12.786994,-3.8277395,-0.3533273,-4.398525,-5.052093,24.695147,-18.263344,2.9027586,2.378552,0.33082813,9.425857,0.40396446,11.932879,-30.160938,58.951115,-7.119148,8.363625,5.902402,-3.2260022,-9.503444,23.432186,68.40723,-16.54938,6.988353,-0.22730884
89,0.918434202671051,-4.2778544425964355,79.07798767089844,2.1757946182071377,-4.340358158411343,85.81090808956942,3.9428263,3.4264739,5.077965,14.736582,-12.770696,-3.8669794,-1.05653,-4.4578843,-5.0290546,25.741152,-18.331816,2.80893,2.4012642,0.25506416,9.552512,0.54295886,11.920872,-29.698355,58.57976,-7.344704,8.239927,6.1144223,-3.4033675,-9.496002,23.356373,68.34974,-16.31155,6.889873,-0.2651691
90,0.9907566905021667,-4.419758319854736,79.06975555419922,2.2403950864221565,-4.278534567665342,85.86083619557691,3.5216088,3.4316947,4.9861307,15.169774,-12.764506,-3.905095,-1.7371863,-4.5078597,-5.0340786,26.741854,-18.369232,2.716546,2.4011276,0.18543755,9.664635,0.71603924,11.915771,-29.215275,58.15746,-7.5966463,8.099541,6.2955275,-3.5630367,-9.490581,23.254456,68.27616,-16.090666,6.75919,-0.3065793
91,1.085191011428833,-4.566990375518799,79.06204223632812,2.3035672699152396,-4.227425025559841,85.93462981148416,3.0919077,3.4360063,4.8729467,15.625532,-12.751046,-3.9397233,-2.3943574,-4.559805,-5.0600715,27.713625,-18.380384,2.6193895,2.3695889,0.11622133,9.784768,0.9369523,11.913025,-28.656193,57.674313,-7.8722177,7.941264,6.4541245,-3.7325299,-9.485899,23.157286,68.19414,-15.893318,6.6251316,-0.34806114
92,1.1767951250076294,-4.725343704223633,79.05721282958984,2.3728337348802873,-4.196086595810866,86.01626405642723,2.651954,3.4299643,4.7441573,16.126183,-12.718341,-3.9682739,-3.0275383,-4.6250606,-5.0996394,28.672003,-18.371271,2.5121431,2.366992,0.046691395,9.925711,1.1792979,11.906317,-28.070425,57.153954,-8.207979,7.763061,6.6116047,-3.8885696,-9.485901,23.025167,68.08052,-15.736099,6.515845,-0.3854748
93,1.2475084066390991,-4.888213157653809,79.05217742919922,2.4524341129657645,-4.195168588068628,86.09854389721244,2.219088,3.4072585,4.604424,16.662582,-12.650236,-3.9863603,-3.6298184,-4.7078586,-5.144218,29.623837,-18.33128,2.3997912,2.3471193,-0.025900671,10.105036,1.4806157,11.884118,-27.35528,56.560947,-8.57751,7.5634933,6.733993,-4.0645714,-9.493918,22.905931,67.95154,-15.618072,6.4369097,-0.41201556
94,1.3140926361083984,-5.051312446594238,79.06275177001953,2.5372415864612003,-4.216438589278087,86.19109423810224,1.7833793,3.3744166,4.4494905,17.237192,-12.560243,-3.995812,-4.2024283,-4.8012114,-5.2004824,30.555622,-18.259521,2.2856631,2.3647008,-0.09571445,10.301549,1.7974545,11.84706,-26.621208,55.934963,-9.00829,7.342763,6.8353667,-4.215566,-9.511021,22.732258,67.787865,-15.542971,6.3731213,-0.4318702
95,1.4115186929702759,-5.242475509643555,79.04973602294922,2.621019864220584,-4.243090403334951,86.30220617697995,1.3263017,3.3387995,4.2734838,17.84281,-12.467687,-4.0032463,-4.7607903,-4.900226,-5.282801,31.464266,-18.174994,2.1616652,2.363915,-0.15486398,10.503915,2.1262288,11.781694,-25.836805,55.304443,-9.4687395,7.101857,6.9597836,-4.3716164,-9.54303,22.57394,67.60361,-15.488424,6.3260136,-0.45597672
96,1.5103815793991089,-5.415538787841797,79.05037689208984,2.6964458100976834,-4.257821076376694,86.44050653601751,0.8263842,3.3070004,4.0704117,18.477472,-12.394358,-4.0156937,-5.321573,-5.0014267,-5.4051423,32.348732,-18.098198,2.0188582,2.3782277,-0.20124905,10.694489,2.4222348,11.699504,-25.096405,54.71772,-9.972064,6.8420067,7.1649246,-4.5129967,-9.584998,22.399607,67.38712,-15.453679,6.2946033,-0.49530396
97,1.6026206016540527,-5.605657577514648,79.04261016845703,2.760902270659934,-4.258405421177402,86.60377120355375,0.29019427,3.2821102,3.8428133,19.12407,-12.352408,-4.033813,-5.8926234,-5.102548,-5.5673313,33.21839,-18.029984,1.8520951,2.401215,-0.23513111,10.871704,2.6954052,11.604797,-24.396988,54.16933,-10.550085,6.5470257,7.4731503,-4.648953,-9.634422,22.218489,67.14367,-15.441566,6.285838,-0.5511381
98,1.6781162023544312,-5.792575836181641,79.02529907226562,2.819079328028911,-4.2532968869034695,86.78878680023021,-0.2747428,3.2590916,3.5926285,19.78872,-12.327892,-4.0539694,-6.4643764,-5.207015,-5.7631707,34.07171,-17.961267,1.6679615,2.4308116,-0.25934207,11.043432,2.9586768,11.496951,-23.712196,53.63875,-11.190496,6.219643,7.8512945,-4.779581,-9.690455,22.029097,66.87369,-15.454372,6.29739,-0.6181484
99,1.7774953842163086,-6.0059814453125,79.00293731689453,2.874189955180243,-4.241795423603487,87.0027243203018,-0.88601226,3.2309206,3.313298,20.500189,-12.301259,-4.077266,-7.0251822,-5.320594,-5.9971037,34.88817,-17.896454,1.4737905,2.4611423,-0.27852592,11.211086,3.2001529,11.379224,-23.038029,53.12971,-11.820489,5.890646,8.267089,-4.9027605,-9.753918,21.83552,66.57647,-15.479781,6.3163576,-0.6991004
100,1.882355809211731,-6.226267337799072,78.97303009033203,2.93099726774597,-4.223037895828266,87.2526950549377,-1.5611676,3.1905756,2.9983644,21.28702,-12.252438,-4.1051226,-7.5640593,-5.449209,-6.2733455,35.648266,-17.840416,1.2760705,2.4870706,-0.2965869,11.377138,3.4074762,11.257593,-22.373236,52.644894,-12.370722,5.592384,8.689528,-5.0136356,-9.825572,21.641495,66.24793,-15.50481,6.329326,-0.7962451
101,1.976136326789856,-6.445062160491943,78.94214630126953,2.9926497454464367,-4.187151319179096,87.55171659877941,-2.3250797,3.131177,2.63176,22.165514,-12.157236,-4.1386313,-8.088721,-5.600542,-6.60667,36.34916,-17.785547,1.0659122,2.5012085,-0.3209194,11.533247,3.578982,11.135921,-21.710178,52.19316,-12.810061,5.3194118,9.12636,-5.1029162,-9.902915,21.432974,65.877235,-15.54504,6.3319974,-0.9209291
102,2.0933449268341064,-6.682796955108643,78.92433166503906,3.0568363181908094,-4.13793519806786,87.89220063729495,-3.1613154,3.0552166,2.2227418,23.117363,-12.032147,-4.177709,-8.600816,-5.771128,-6.989636,37.00078,-17.732433,0.84264517,2.5084963,-0.34930947,11.682122,3.7231252,11.015223,-21.052431,51.76622,-13.181081,5.0601954,9.589538,-5.175708,-9.98459,21.212889,65.468765,-15.600672,6.3316836,-1.0683553
103,2.199369192123413,-6.9107441902160645,78.8936538696289,3.117896443900505,-4.095616308274454,88.25021260599122,-4.0219197,2.9699585,1.8025415,24.11329,-11.916258,-4.2223597,-9.082171,-5.949113,-7.3930144,37.60615,-17.700844,0.62550443,2.5218084,-0.37134922,11.842073,3.846174,10.897635,-20.412827,51.33781,-13.523082,4.8394794,10.054783,-5.247588,-10.075762,21.0085,65.03971,-15.638311,6.332809,-1.2159657
104,2.335073947906494,-7.164015769958496,78.84436798095703,3.1716882476551516,-4.07987884572486,88.60179508089547,-4.8620133,2.8845854,1.4018139,25.129082,-11.850554,-4.271909,-9.514173,-6.1214824,-7.7878137,38.166557,-17.709211,0.43416342,2.5537643,-0.37585664,12.032219,3.9552107,10.785721,-19.804173,50.87981,-13.876963,4.6816635,10.497356,-5.330935,-10.185275,20.847929,64.601265,-15.624002,6.340251,-1.3401031
105,2.4392106533050537,-7.40886116027832,78.79088592529297,3.2113029324449776,-4.082243747490248,88.94961737023547,-5.6866746,2.8029797,0.9973289,26.109055,-11.803935,-4.3596005,-9.90233,-6.2823434,-8.185196,38.671234,-17.750978,0.2670081,2.6106188,-0.35220683,12.251854,4.048011,10.678095,-19.218306,50.38416,-14.265345,4.5979414,10.912158,-5.4268427,-10.318431,20.736998,64.1465,-15.552885,6.364995,-1.4348983
106,2.5402514934539795,-7.668094158172607,78.7237548828125,3.240695581583496,-4.09639226551242,89.30348126480273,-6.515422,2.7192056,0.58364433,27.084747,-11.769543,-4.474344,-10.253605,-6.439014,-8.594264,39.12385,-17.820093,0.11639952,2.6841416,-0.30777222,12.493283,4.122823,10.57428,-18.65186,49.86462,-14.6638975,4.573858,11.312587,-5.524197,-10.476422,20.662525,63.662987,-15.440386,6.4033017,-1.5107675
107,2.6630730628967285,-7.951235771179199,78.64116668701172,3.271397072518901,-4.14561028423881,89.6501769997582,-7.323546,2.6316757,0.21622352,28.15999,-11.825738,-4.550991,-10.551743,-6.5963726,-8.983579,39.546932,-17.936373,-0.0071777473,2.7667806,-0.25530455,12.767124,4.189281,10.479105,-18.125935,49.320316,-15.042953,4.5963273,11.700833,-5.6173525,-10.659283,20.62139,63.16134,-15.282985,6.428421,-1.5696019
108,2.765190601348877,-8.216029167175293,78.55455017089844,3.3157683893468253,-4.252918561219155,89.97657099757373,-8.089528,2.5409865,-0.049014565,29.444555,-12.049348,-4.520653,-10.779751,-6.7586703,-9.32202,39.9607,-18.118198,-0.09369554,2.8510702,-0.20934775,13.084409,4.259879,10.401155,-17.661308,48.746853,-15.372105,4.6529064,12.078767,-5.701189,-10.867681,20.60965,62.65165,-15.078222,6.4142504,-1.6131356
109,2.871779441833496,-8.487536430358887,78.43329620361328,3.3805479718234954,-4.4389263378248485,90.28786985873414,-8.784753,2.4559019,-0.16352627,30.869797,-12.454857,-4.3498826,-10.896985,-6.930187,-9.597192,40.332615,-18.383556,-0.12053621,2.934629,-0.17164104,13.470809,4.330089,10.3540535,-17.30785,48.124866,-15.690616,4.7444425,12.474971,-5.7689404,-11.102973,20.620123,62.11481,-14.828005,6.3517785,-1.6462308
110,2.974539279937744,-8.775232315063477,78.3018798828125,3.457731886770195,-4.686231231567124,90.58815034883484,-9.427841,2.378033,-0.17102814,32.40678,-13.001687,-4.0780535,-10.923829,-7.105367,-9.8283205,40.66109,-18.716482,-0.1000246,3.0250092,-0.13729213,13.915163,4.4020567,10.340788,-17.044283,47.451847,-16.003435,4.8778124,12.87828,-5.820202,-11.364953,20.652029,61.544693,-14.533964,6.255184,-1.6644331
111,3.0671370029449463,-9.047863006591797,78.17440032958984,3.533819936570204,-4.961216245864506,90.86281832883125,-10.067245,2.2993877,-0.15514654,34.226242,-13.688874,-3.7483926,-10.939198,-7.2752795,-10.030931,41.024345,-19.090616,-0.0745248,3.1259632,-0.10834498,14.372252,4.4963737,10.347501,-16.781021,46.75185,-16.22688,5.050909,13.230527,-5.862845,-11.649818,20.717463,60.97537,-14.190067,6.133653,-1.6567103
112,3.1539955139160156,-9.327679634094238,78.03855895996094,3.5976238456392395,-5.23024283671723,91.097261942131,-10.747121,2.2109141,-0.19926822,36.493336,-14.510917,-3.403147,-11.018503,-7.4305463,-10.219536,41.492363,-19.474586,-0.08647019,3.2369432,-0.08461906,14.794143,4.6281843,10.350483,-16.423489,46.059753,-16.273632,5.2617188,13.474148,-5.910385,-11.951843,20.833094,60.45009,-13.790123,5.996954,-1.6137022
113,3.2507379055023193,-9.603696823120117,77.87796020507812,3.6575982417713218,-5.4924657988922885,91.30410749097227,-11.511186,2.0956795,-0.33722177,39.334064,-15.518309,-3.0240214,-11.162214,-7.5878854,-10.415149,42.077137,-19.8904,-0.15412855,3.347379,-0.08124145,15.178611,4.7906117,10.326975,-15.904204,45.40995,-16.041834,5.4981356,13.574208,-5.9767404,-12.2700205,21.045761,59.98679,-13.259257,5.8178396,-1.5376854
114,3.367357015609741,-9.871685028076172,77.70618438720703,3.7145961832258556,-5.76297079030289,91.48578207899105,-12.319363,1.9660944,-0.52625746,42.62598,-16.695478,-2.594784,-11.335474,-7.7464128,-10.603005,42.74128,-20.343597,-0.25303006,3.4513295,-0.0875993,15.542701,4.9687576,10.272388,-15.2763815,44.797455,-15.59507,5.763145,13.567903,-6.0647087,-12.605039,21.3444,59.578358,-12.623541,5.6024528,-1.4341123
115,3.402621030807495,-10.134483337402344,77.50942993164062,3.752854828888868,-6.032138171922746,91.61205113520606,-13.09464,1.854863,-0.7310927,46.176746,-17.944044,-2.1630175,-11.563657,-7.871886,-10.743882,43.487583,-20.783335,-0.36212337,3.5618465,-0.065623894,15.868807,5.1660905,10.195775,-14.634541,44.194424,-15.097138,6.0780015,13.506356,-6.1651177,-12.952295,21.650267,59.225174,-12.030376,5.4104466,-1.2990267
116,3.463784694671631,-10.40977668762207,77.3036880493164,3.756522653696925,-6.290379279240233,91.65281510545043,-13.757192,1.7911046,-0.9123736,49.7941,-19.161615,-1.7806957,-11.870677,-7.9282,-10.799462,44.316307,-21.156101,-0.46041632,3.6955411,0.019708155,16.139969,5.391735,10.115897,-14.078165,43.564766,-14.715569,6.465811,13.442011,-6.266805,-13.305086,21.879921,58.927017,-11.629151,5.300602,-1.1307652
117,3.528252601623535,-10.666093826293945,77.09176635742188,3.7139849088612995,-6.537453166806766,91.59918050446623,-14.319234,1.7775239,-1.0701569,53.556255,-20.35813,-1.477454,-12.273863,-7.896534,-10.756175,45.255978,-21.459915,-0.5443344,3.8750854,0.18389866,16.347652,5.652292,10.048626,-13.65462,42.87984,-14.474849,6.933159,13.396472,-6.3655286,-13.661306,21.998087,58.685837,-11.472538,5.3004136,-0.88382417
118,3.542449951171875,-10.910801887512207,76.86880493164062,3.6376878314484977,-6.777713650936685,91.4677793367757,-14.802809,1.7922597,-1.2169002,57.522274,-21.57536,-1.2277166,-12.755986,-7.79783,-10.636715,46.29613,-21.718275,-0.62461495,4.094701,0.40137112,16.50369,5.94758,9.996947,-13.316462,42.15355,-14.299424,7.469258,13.338732,-6.4592037,-14.021049,22.041706,58.493458,-11.48042,5.372964,-0.5743158
119,3.5878348350524902,-11.179118156433105,76.64083862304688,3.5452861646440983,-7.008988554493364,91.26662975134137,-15.142337,1.8305627,-1.3286208,61.471146,-22.761454,-1.0004427,-13.296158,-7.655842,-10.458962,47.391796,-21.924086,-0.7006647,4.3238125,0.6453843,16.621407,6.280275,9.959173,-13.014895,41.411755,-14.203836,8.072237,13.243827,-6.545938,-14.379214,22.042326,58.341248,-11.600547,5.4799414,-0.29410014
120,3.624922752380371,-11.461126327514648,76.41499328613281,3.4540290292977534,-7.22886131109085,91.00353431654625,-15.279531,1.8933372,-1.3854277,65.19051,-23.861885,-0.7599833,-13.870889,-7.492882,-10.241113,48.49277,-22.066982,-0.77083284,4.5312996,0.8884352,16.713762,6.651427,9.931534,-12.69943,40.68292,-14.200794,8.739938,13.087717,-6.628513,-14.728561,22.03163,58.226532,-11.780876,5.583745,-0.13631862
121,3.636721611022949,-11.726332664489746,76.19294738769531,3.3689465057903476,-7.449178556747053,90.64739127199661,-15.179775,2.0194876,-1.3290426,68.69827,-24.888279,-0.4734531,-14.494243,-7.3069506,-9.962028,49.637413,-22.124084,-0.8341029,4.7235627,1.1254097,16.792673,7.080518,9.903204,-12.334598,39.973217,-14.3060255,9.480248,12.860879,-6.7317047,-15.064324,22.036728,58.19082,-12.038961,5.6723766,-0.123082295
122,3.6162686347961426,-11.977532386779785,75.96280670166016,3.2812793068470087,-7.667797820081049,90.20452622508475,-14.875091,2.1975694,-1.1885058,72.086365,-25.861847,-0.1656843,-15.170394,-7.083886,-9.623422,50.833527,-22.106081,-0.88734454,4.9061894,1.369629,16.846088,7.5594606,9.871546,-11.946535,39.27403,-14.502569,10.291688,12.580247,-6.858581,-15.385013,22.043217,58.236633,-12.391014,5.7670565,-0.20786536
123,3.5940771102905273,-12.235904693603516,75.74272155761719,3.1863056424483824,-7.861959747952043,89.7387233302363,-14.411528,2.3535733,-1.0734208,75.249725,-26.738976,0.11263739,-15.861515,-6.830325,-9.276103,51.98243,-22.051565,-0.92627114,5.051994,1.6188817,16.854477,8.050816,9.850406,-11.581422,38.585403,-14.757265,11.159455,12.261239,-6.97205,-15.686949,22.013641,58.293518,-12.784722,5.8814325,-0.37917885
124,3.6011054515838623,-12.484779357910156,75.52472686767578,3.079320820678723,-8.008481663490254,89.31401141158852,-13.841168,2.4109013,-1.0884111,78.082344,-27.473944,0.30778056,-16.531479,-6.5564523,-8.96911,52.98834,-22.000923,-0.9491003,5.136418,1.8674767,16.800323,8.52109,9.864302,-11.288087,37.89994,-15.040948,12.069449,11.917916,-7.0307136,-15.964325,21.907295,58.28612,-13.167399,6.0285153,-0.6250238
125,3.5873570442199707,-12.741233825683594,75.31597900390625,2.9552752878940582,-8.098828316172327,88.93356285368101,-13.161959,2.355818,-1.2510327,80.575066,-28.073725,0.4153449,-17.186804,-6.2576966,-8.698751,53.845543,-21.951263,-0.9498957,5.167148,2.1133122,16.67573,8.972913,9.92757,-11.090823,37.22937,-15.383713,13.010527,11.581076,-7.0245905,-16.208014,21.701763,58.212517,-13.549583,6.22981,-0.9757632
126,3.600921869277954,-13.018030166625977,75.1201171875,2.8185621451679235,-8.146538037625646,88.56748127123282,-12.355808,2.2250404,-1.5019678,82.7843,-28.552917,0.45691812,-17.842358,-5.9325376,-8.444075,54.600132,-21.886375,-0.93080086,5.159573,2.352191,16.493742,9.424522,10.043206,-10.964924,36.56329,-15.794764,13.995441,11.236372,-6.9724717,-16.415165,21.415104,58.1057,-13.951813,6.4736357,-1.4258837
127,3.6149468421936035,-13.287552833557129,74.92511749267578,2.6734323469355545,-8.160853993033893,88.23110641861604,-11.454647,2.0165749,-1.8291886,84.69742,-28.878506,0.41561073,-18.474783,-5.5993605,-8.2260895,55.232994,-21.824802,-0.9054218,5.098591,2.5750492,16.26863,9.870813,10.220072,-10.882933,35.85531,-16.211235,15.04713,10.8265915,-6.874963,-16.592333,21.069557,57.940517,-14.336276,6.7219353,-1.9098414
128,3.6098296642303467,-13.554924964904785,74.74292755126953,2.520755306299786,-8.150465967681061,87.94044047265325,-10.493777,1.7285433,-2.2220023,86.306305,-29.013973,0.27450863,-19.059824,-5.2775345,-8.065401,55.723797,-21.789185,-0.889381,4.970567,2.7730968,16.01643,10.30864,10.468686,-10.820211,35.054684,-16.569168,16.189371,10.290898,-6.726418,-16.751846,20.686045,57.682022,-14.664275,6.9352903,-2.3612535
129,3.6061768531799316,-13.85242748260498,74.55896759033203,2.3467634807748654,-8.107091223812061,87.69806367561729,-9.479445,1.3515581,-2.7105043,87.62818,-28.93538,0.040382452,-19.593485,-4.954793,-7.977125,56.056896,-21.802694,-0.88921654,4.7599077,2.9550345,15.731168,10.740861,10.795559,-10.762192,34.13872,-16.855223,17.507181,9.595039,-6.5426326,-16.902351,20.276472,57.348656,-14.894963,7.077221,-2.7687316
130,3.608114719390869,-14.154298782348633,74.38885498046875,2.156361308443825,-8.029507734293546,87.49557977730076,-8.395605,0.8898513,-3.2900558,88.664474,-28.665537,-0.28442103,-20.08883,-4.6298594,-7.9452844,56.247845,-21.84876,-0.89863235,4.479421,3.1234944,15.41144,11.172453,11.198562,-10.725698,33.127968,-17.094612,18.964664,8.771533,-6.310373,-17.041994,19.82656,56.93412,-15.05709,7.1759405,-3.163899
131,3.5845510959625244,-14.445866584777832,74.2437973022461,1.9795454859205504,-7.9364767342182105,87.33300035133111,-7.2447248,0.3616768,-3.9014904,89.37956,-28.242317,-0.7211088,-20.548058,-4.3393226,-7.9427114,56.324833,-21.886278,-0.91421574,4.1580653,3.2587872,15.07782,11.603619,11.674282,-10.73363,32.037945,-17.280508,20.402702,7.8579717,-5.9839,-17.16987,19.317167,56.37041,-15.218313,7.2894044,-3.5457723
132,3.596442461013794,-14.770939826965332,74.12059020996094,1.8491413742867269,-7.846027467000829,87.21030868337158,-6.0321865,-0.21313182,-4.489518,89.737625,-27.703896,-1.2873495,-20.97234,-4.117985,-7.9431977,56.314625,-21.872469,-0.9324504,3.8248467,3.3425646,14.750776,12.032608,12.218946,-10.809717,30.884491,-17.412703,21.661741,6.8927684,-5.51394,-17.284897,18.727558,55.585384,-15.44598,7.4763374,-3.912065
133,3.5971884727478027,-15.123997688293457,74.01953125,1.773304542008631,-7.759357970529662,87.12876020390529,-4.7409773,-0.84661067,-5.0588665,89.71977,-27.015099,-2.0085301,-21.362991,-3.9785795,-7.9448314,56.230576,-21.832483,-0.9580877,3.4740307,3.3726022,14.427929,12.456067,12.841189,-10.968052,29.676569,-17.53353,22.695463,5.81323,-4.8926444,-17.38607,18.022984,54.540546,-15.80583,7.8098974,-4.2654905
134,3.5776376724243164,-15.457274436950684,73.95133209228516,1.735521207680761,-7.666871324147223,87.08833834303053,-3.3771932,-1.5413496,-5.647465,89.35164,-26.175585,-2.866057,-21.717947,-3.9002478,-7.9601703,56.054035,-21.775913,-0.99190617,3.0981288,3.359054,14.100595,12.873681,13.544821,-11.197556,28.399923,-17.631739,23.591429,4.620153,-4.1361904,-17.472174,17.218945,53.270985,-16.245235,8.240968,-4.602849
135,3.5758554935455322,-15.83572006225586,73.9199447631836,1.724657885951432,-7.571679619950917,87.08777811402426,-1.9818583,-2.2624102,-6.24901,88.66238,-25.272778,-3.8084948,-22.036205,-3.8679757,-7.98414,55.767075,-21.637836,-1.0237243,2.7179608,3.302019,13.7789345,13.28782,14.313465,-11.477828,27.039274,-17.631548,24.386099,3.4479218,-3.237176,-17.542833,16.374674,51.82061,-16.654554,8.644715,-4.9158816
136,3.5386343002319336,-16.212718963623047,73.92303466796875,1.7265471433217654,-7.476949455060853,87.12620636743091,-0.59630734,-2.972032,-6.8537574,87.6804,-24.392807,-4.783569,-22.315008,-3.8661916,-8.012247,55.348854,-21.352373,-1.043438,2.3497667,3.206146,13.472532,13.702511,15.118594,-11.783693,25.582916,-17.453787,25.110697,2.431614,-2.1922922,-17.5981,15.554551,50.237465,-16.924196,8.895361,-5.199943
137,3.4969282150268555,-16.613161087036133,73.96434783935547,1.746901542014255,-7.391226818953848,87.19713431401343,0.8062259,-3.6731184,-7.4660735,86.38479,-23.585121,-5.789332,-22.556223,-3.8939056,-8.033924,54.82244,-20.933994,-1.0559424,1.9912982,3.07268,13.1844,14.1270275,15.947927,-12.123845,24.015358,-17.003618,25.748508,1.6121211,-0.98531973,-17.64766,14.7865,48.487167,-16.911364,8.928684,-5.467284
138,3.5027265548706055,-17.070812225341797,74.05424499511719,1.7888285184019088,-7.309848707712296,87.30356829628951,2.2359278,-4.37176,-8.097959,84.77089,-22.798965,-6.840157,-22.759806,-3.9563553,-8.056067,54.18773,-20.406494,-1.0643806,1.6291038,2.9062107,12.908939,14.55706,16.801676,-12.498512,22.35029,-16.345285,26.283344,0.9131767,0.3776158,-17.695744,14.038476,46.55398,-16.712137,8.821348,-5.716408
139,3.4925222396850586,-17.54543685913086,74.18922424316406,1.8384215276601952,-7.216080898370485,87.45833916136279,3.6257093,-5.035118,-8.747927,82.8917,-21.970226,-7.9103565,-22.922249,-4.049342,-8.099286,53.39164,-19.721415,-1.0558275,1.259531,2.7166567,12.640615,14.977913,17.666216,-12.866935,20.621243,-15.639011,26.74846,0.29792863,1.858047,-17.725868,13.290638,44.526413,-16.575266,8.658538,-5.9252825
140,3.446561574935913,-18.03771209716797,74.3714370727539,1.883910298550475,-7.0935131861509975,87.67369438172419,4.907719,-5.634343,-9.412195,80.8002,-21.03315,-8.977245,-23.041477,-4.169128,-8.183057,52.386208,-18.827225,-1.0173931,0.87136304,2.5115077,12.369626,15.375306,18.520832,-13.181261,18.870893,-15.04096,27.178478,-0.26730284,3.394753,-17.71065,12.535608,42.52119,-16.750683,8.527866,-6.078614
141,3.4141533374786377,-18.558645248413086,74.61183166503906,1.9161657752095147,-6.9318220951602925,87.97054453892594,6.0781064,-6.1530857,-10.116245,78.461174,-19.996826,-10.119373,-23.114658,-4.3159156,-8.323967,51.149387,-17.725275,-0.9491845,0.44287953,2.2917836,12.075582,15.748382,19.362654,-13.423599,17.072983,-14.542355,27.59031,-0.7785581,4.9910755,-17.634367,11.801291,40.54332,-17.40518,8.42425,-6.16803
142,3.382478713989258,-19.114933013916016,74.90184783935547,1.9455191215708925,-6.742016363125068,88.3357238913219,7.1734853,-6.605187,-10.859275,75.85954,-18.894857,-11.31847,-23.144695,-4.4908447,-8.505816,49.715,-16.44067,-0.8568655,-0.021154761,2.0502534,11.763718,16.106012,20.195436,-13.612553,15.224833,-14.075197,27.964708,-1.2180045,6.649924,-17.49744,11.097878,38.568066,-18.377298,8.311234,-6.2105894
143,3.356848955154419,-19.712066650390625,75.2353286743164,1.9871756725117393,-6.539066384159643,88.73128292591893,8.179099,-7.010688,-11.592257,73.08328,-17.684158,-12.407417,-23.135065,-4.6940107,-8.696563,48.109604,-14.958107,-0.7350795,-0.49444488,1.7831811,11.461973,16.450039,21.001331,-13.75353,13.406646,-13.703973,28.282923,-1.5948173,8.305059,-17.292433,10.39439,36.675087,-19.42162,8.22895,-6.2291408
144,3.3195581436157227,-20.35944175720215,75.60575103759766,2.05516604289485,-6.338438411923962,89.1190506662674,9.079951,-7.3901625,-12.264696,70.21594,-16.322771,-13.223405,-23.090311,-4.9234905,-8.86444,46.360214,-13.262101,-0.5784401,-0.9517154,1.4891776,11.197177,16.771221,21.751846,-13.85211,11.714544,-13.4895935,28.525614,-1.9154934,9.88241,-17.010408,9.656687,34.95169,-20.295404,8.218476,-6.2466
145,3.279440402984619,-21.054004669189453,76.01233673095703,2.1505849745614567,-6.154545128602554,89.49563820172085,9.88863,-7.726914,-12.855747,67.21959,-14.798623,-13.741205,-22.981781,-5.169738,-8.994918,44.439854,-11.352764,-0.3938492,-1.3843356,1.1761061,10.977538,17.050884,22.430946,-13.921669,10.152887,-13.451226,28.691359,-2.1476421,11.379419,-16.64728,8.893977,33.4184,-20.962698,8.310244,-6.2666516
146,3.210819959640503,-21.722349166870117,76.44065856933594,2.266253017496401,-5.976118017815066,89.87853508110203,10.603564,-8.008028,-13.387586,64.07118,-13.131956,-14.039617,-22.820833,-5.435172,-9.1022215,42.352657,-9.241162,-0.18055667,-1.8069111,0.84644127,10.785314,17.284666,23.03743,-13.958725,8.699612,-13.549472,28.789669,-2.2947676,12.818439,-16.20459,8.118805,32.037724,-21.546827,8.475869,-6.277619
147,3.1137425899505615,-22.467382431030273,76.88353729248047,2.405629317380271,-5.780166760438187,90.26060208271277,11.184319,-8.2613735,-13.867847,60.87779,-11.324324,-14.114594,-22.672598,-5.7337313,-9.1967535,40.17171,-6.925627,0.07914528,-2.2303617,0.4929153,10.60915,17.479618,23.562824,-13.943752,7.41716,-13.758653,28.817537,-2.4173489,14.161791,-15.677874,7.302026,30.8105,-22.042086,8.669565,-6.2789884
148,3.0187880992889404,-23.24103546142578,77.35179901123047,2.572515304349543,-5.543744287877469,90.63505181962374,11.590407,-8.5179205,-14.301512,57.74303,-9.374686,-13.964603,-22.602419,-6.07632,-9.288485,37.966953,-4.399871,0.4036493,-2.6650927,0.107842706,10.4356785,17.639189,23.995144,-13.858855,6.374109,-14.049128,28.771648,-2.5765893,15.368451,-15.061272,6.4128494,29.74285,-22.44538,8.84608,-6.2720647
149,2.9026379585266113,-24.06511688232422,77.81648254394531,2.7821898909422282,-5.2443610094699205,91.01404466492527,11.770083,-8.800118,-14.670501,54.58566,-7.0703354,-13.606158,-22.639862,-6.4750137,-9.360696,35.723152,-1.5889642,0.77872026,-3.1315289,-0.3237667,10.243503,17.761068,24.320705,-13.691601,5.5919538,-14.445901,28.631073,-2.7757168,16.423632,-14.32581,5.3956623,28.878172,-22.78501,9.000418,-6.253733
150,2.800713300704956,-24.929447174072266,78.27693176269531,3.0310690386502075,-4.899753384977815,91.39657199417414,11.746948,-9.076105,-14.950322,51.393803,-4.484336,-13.032759,-22.761087,-6.9162583,-9.401983,33.435776,1.471102,1.2036457,-3.6123464,-0.79758155,10.039515,17.822758,24.539618,-13.4654455,5.057963,-14.94532,28.405659,-2.9869018,17.328365,-13.468579,4.2757397,28.215582,-23.063404,9.155626,-6.2277975
151,2.69937801361084,-25.805171966552734,78.7185287475586,3.2873206167838758,-4.546674309096088,91.75554911648761,11.591114,-9.306613,-15.131447,48.380432,-2.0392735,-12.208425,-22.936712,-7.3621736,-9.431768,31.158304,4.6395626,1.7181442,-4.0648775,-1.2798901,9.8582325,17.801275,24.661787,-13.214447,4.782508,-15.481105,28.137247,-3.2283943,18.086649,-12.538348,3.1476696,27.675362,-23.227446,9.305783,-6.204092
152,2.56650972366333,-26.712804794311523,79.12261962890625,3.5184184971746086,-4.2215372766077275,92.06294574712338,11.383226,-9.474919,-15.211982,45.74671,-0.15726285,-11.099223,-23.134417,-7.7777834,-9.465948,28.942406,7.7791615,2.3638632,-4.452452,-1.7346717,9.739355,17.688644,24.697084,-12.965398,4.7584667,-15.991925,27.867329,-3.518665,18.727697,-11.613021,2.1117609,27.153078,-23.210464,9.446337,-6.1880326
153,2.3920111656188965,-27.627798080444336,79.49168395996094,3.743385626063707,-3.923966089119695,92.30821396088403,11.116606,-9.641568,-15.199691,43.546665,1.0576075,-9.512648,-23.364887,-8.196541,-9.534946,26.68422,11.203749,3.1702385,-4.7869773,-2.172236,9.687382,17.519577,24.623512,-12.66844,4.993873,-16.491566,27.616932,-3.9371428,19.282835,-10.73584,1.1693461,26.623392,-22.946692,9.569301,-6.1652036
154,2.231980562210083,-28.573158264160156,79.80436706542969,3.96839995724354,-3.635829187266071,92.505390876362,10.75282,-9.821067,-15.077681,41.679527,1.8154209,-7.5304513,-23.642994,-8.609725,-9.592172,24.391756,14.880304,4.1226416,-5.098731,-2.589736,9.68187,17.292683,24.42359,-12.31811,5.48828,-17.002298,27.360462,-4.4549026,19.73769,-9.910456,0.28915298,26.129608,-22.464828,9.679415,-6.1341376
155,2.0663466453552246,-29.533985137939453,80.06501770019531,4.145812203342772,-3.369985613488794,92.66999330540762,10.340029,-9.953307,-14.859473,40.10509,2.161012,-5.555532,-23.918053,-8.935533,-9.565793,22.249893,18.152855,5.190006,-5.3804054,-2.9371264,9.732507,16.960413,24.12729,-12.007191,6.200446,-17.480389,27.071337,-4.924526,20.073818,-9.159547,-0.48320684,25.65853,-21.84049,9.789479,-6.1178255
156,1.8862476348876953,-30.514446258544922,80.25018310546875,4.2334534053612805,-3.144250470465836,92.82241208941205,9.9448185,-9.9770355,-14.578726,38.75531,2.165248,-3.993678,-24.105059,-9.109769,-9.424703,20.392694,20.38666,6.326119,-5.6270885,-3.1765666,9.8563,16.499603,23.791142,-11.8256445,7.0647287,-17.897446,26.71933,-5.1958847,20.27934,-8.511888,-1.1030369,25.192589,-21.142372,9.909406,-6.1358285
157,1.705338478088379,-31.49654197692871,80.38331604003906,4.216096970714315,-2.950025495745048,92.98801978287473,9.597183,-9.860014,-14.259324,37.596947,1.7841353,-3.0251615,-24.11103,-9.102959,-9.165384,18.630384,21.464169,7.740116,-5.8526034,-3.3024495,10.054053,15.936993,23.440294,-11.752765,8.038928,-18.273518,26.342693,-5.2460794,20.374779,-7.9771037,-1.5465618,24.699469,-20.291344,10.057636,-6.1964126
158,1.5458389520645142,-32.50563430786133,80.45446014404297,4.132459056803117,-2.791922992788805,93.15971609637253,9.293224,-9.669206,-13.919395,36.617157,1.0347159,-2.4271312,-23.961077,-8.996633,-8.856724,16.907164,21.73463,9.359818,-6.068672,-3.360277,10.327345,15.309386,23.072186,-11.746012,9.130904,-18.631405,25.940517,-5.148847,20.364407,-7.5505433,-1.8378147,24.203075,-19.272936,10.219942,-6.2861714
159,1.3911796808242798,-33.50654983520508,80.47578430175781,4.015355309340026,-2.70262871123179,93.30405404000629,9.035984,-9.464958,-13.572047,35.790718,0.081946954,-1.9897828,-23.78002,-8.883165,-8.599553,15.615594,21.246199,10.708592,-6.258442,-3.3785024,10.691061,14.618001,22.708195,-11.864573,10.342568,-18.951506,25.421913,-4.8987913,20.211714,-7.2338395,-2.0044732,23.772436,-18.25112,10.356634,-6.3895326
160,1.2277344465255737,-34.49417495727539,80.435791015625,3.8732506044611177,-2.7041257627500874,93.37626297343759,8.8019905,-9.277903,-13.219026,35.12988,-0.9354869,-1.4994729,-23.714432,-8.80583,-8.466087,15.168785,20.042124,11.331789,-6.3865895,-3.3615806,11.153059,13.86193,22.381187,-12.175957,11.673373,-19.223217,24.694614,-4.488376,19.878048,-7.0274825,-2.079987,23.477432,-17.388182,10.428286,-6.4869595
161,1.0737332105636597,-35.47351837158203,80.360595703125,3.676490208638708,-2.827434116710742,93.33951824518998,8.606849,-9.0762825,-12.854132,34.671757,-2.033726,-0.8997715,-23.811817,-8.699998,-8.302889,15.747347,17.884565,11.072247,-6.4107165,-3.2861168,11.760261,13.041132,22.110596,-12.702706,13.111436,-19.459274,23.705309,-3.878258,19.341825,-6.932149,-2.0675943,23.316761,-16.6951,10.418037,-6.5449557
162,0.9224027395248413,-36.500755310058594,80.26158905029297,3.413802206634868,-3.0450385392408705,93.21806828399926,8.437727,-8.829537,-12.475238,34.41649,-3.2766535,-0.30189943,-24.0171,-8.541245,-8.074266,17.14566,14.804029,10.218874,-6.3473473,-3.1436868,12.489982,12.168431,21.894276,-13.409148,14.641384,-19.66447,22.510979,-3.0873332,18.62417,-6.939897,-1.9555714,23.261892,-16.093433,10.349703,-6.5789165
163,0.7558960914611816,-37.513362884521484,80.12178802490234,3.118503974094513,-3.291470995229182,93.05791882195123,8.225102,-8.567284,-12.089574,34.335793,-4.6092467,0.261714,-24.312365,-8.4260645,-8.0047865,19.17773,11.245144,8.999407,-6.246156,-2.960509,13.24754,11.258055,21.729897,-14.277014,16.259586,-19.816444,21.1857,-2.1930118,17.748081,-7.0312796,-1.7550156,23.346407,-15.612504,10.240519,-6.6447015
164,0.5870939493179321,-38.506591796875,79.96490478515625,2.8292063661022424,-3.5032809243821292,92.90681837685568,7.905193,-8.325392,-11.704224,34.39544,-5.9737673,0.7601187,-24.66094,-8.475074,-8.352948,21.633718,7.6558647,7.6204963,-6.1529994,-2.7719412,13.940739,10.315568,21.616678,-15.2939,17.968252,-19.898718,19.804607,-1.2678207,16.742384,-7.1797543,-1.4804791,23.599335,-15.285165,10.107509,-6.7988663
165,0.4351288974285126,-39.49190902709961,79.78577423095703,2.5432840559215584,-3.683762006622388,92.76892369027709,7.4840865,-8.09295,-11.3144655,34.589905,-7.3690114,1.1696883,-25.020014,-8.791985,-9.352404,24.540768,3.895527,5.9304757,-6.0762157,-2.5838823,14.573948,9.317747,21.566874,-16.499939,19.780138,-19.969717,18.354622,-0.25987664,15.580965,-7.372684,-1.1276115,24.058155,-15.202069,9.928282,-7.08088
166,0.27246809005737305,-40.4689826965332,79.55462646484375,2.256456563907962,-3.8682042857914873,92.62796978262652,6.9987516,-7.867408,-10.922536,34.928852,-8.814396,1.5200173,-25.349611,-9.341979,-10.730275,27.902094,-0.22254167,3.910572,-5.9895988,-2.3984604,15.197449,8.259479,21.58117,-17.89184,21.681465,-20.01475,16.808126,0.8474797,14.266334,-7.601065,-0.6948476,24.68678,-15.32323,9.702825,-7.453967
167,0.11235475540161133,-41.45413589477539,79.3233642578125,2.0043168883310614,-4.036155209301925,92.50079716809034,6.42258,-7.6943793,-10.54563,35.402786,-10.280312,1.8574891,-25.634842,-10.03849,-12.076903,31.48524,-4.279834,1.9105287,-5.8843894,-2.2420037,15.785837,7.1673884,21.63707,-19.393532,23.643602,-19.91145,15.222389,1.9391246,12.875657,-7.8493633,-0.20644824,25.394186,-15.493118,9.485608,-7.8600054
168,-0.03408211097121239,-42.42652130126953,79.05996704101562,1.8170331217927256,-4.163526738903149,92.40198539402573,5.7252517,-7.6170974,-10.199681,36.002052,-11.738319,2.2268658,-25.908432,-10.778141,-13.058733,35.106754,-7.821605,0.2386211,-5.7520885,-2.134833,16.3091,6.0657673,21.703293,-20.926867,25.651094,-19.537674,13.6587515,2.9092977,11.483271,-8.105888,0.31333375,26.09405,-15.559995,9.328806,-8.241223
169,-0.17595942318439484,-43.391265869140625,78.76754760742188,1.7008496535065356,-4.225378940191045,92.34537607900869,4.8560843,-7.6511116,-9.898705,36.76733,-13.227546,2.666418,-26.24568,-11.597221,-13.737738,38.855495,-10.662563,-1.0844985,-5.5942817,-2.074817,16.737715,4.9222584,21.765894,-22.5094,27.748472,-18.86317,12.084911,3.7561736,10.086204,-8.37401,0.8776267,26.806917,-15.520895,9.2407,-8.614672
170,-0.3400140106678009,-44.35197830200195,78.46092224121094,1.641139237224883,-4.239808138358144,92.31914615638458,3.842573,-7.775461,-9.629774,37.692333,-14.749975,3.1456175,-26.615393,-12.550611,-14.294827,42.80062,-13.057901,-2.2624466,-5.41456,-2.0527136,17.093481,3.7219436,21.824162,-24.167513,29.944777,-17.951511,10.492617,4.548683,8.651539,-8.659156,1.4935514,27.563616,-15.447639,9.19567,-9.001774
171,-0.4929256737232208,-45.300148010253906,78.13384246826172,1.6381979505207016,-4.24602443374296,92.29916953067826,2.7673593,-7.975543,-9.366915,38.701084,-16.223671,3.603981,-26.929081,-13.532705,-14.622295,46.762234,-15.183677,-3.3235126,-5.2101107,-2.0731084,17.420828,2.5210247,21.86823,-25.83436,32.17468,-16.825562,8.980576,5.2902136,7.206924,-8.953307,2.1299214,28.2999,-15.301004,9.192408,-9.351255
172,-0.6435733437538147,-46.23581314086914,77.79773712158203,1.6884461919597666,-4.282933972075849,92.26076330156532,1.7101529,-8.23328,-9.081459,39.723045,-17.571262,3.9801695,-27.111113,-14.411495,-14.609427,50.568787,-17.209568,-4.270428,-4.976604,-2.1379213,17.761976,1.3695035,21.887054,-27.443222,34.38514,-15.50535,7.6453505,5.9792185,5.781488,-9.243671,2.7544541,28.95023,-15.045415,9.231226,-9.613065
173,-0.801796019077301,-47.154903411865234,77.44996643066406,1.8032692058161386,-4.365365855659958,92.18874676883291,0.68945545,-8.5531,-8.746055,40.760418,-18.808313,4.2642946,-27.179419,-15.118363,-14.175352,54.25325,-19.129833,-5.0923343,-4.702013,-2.2592044,18.129269,0.25231567,21.87825,-29.002668,36.607807,-13.892855,6.4868603,6.60358,4.356164,-9.5230465,3.3586884,29.542246,-14.664781,9.316937,-9.772434
174,-0.9389232993125916,-48.039886474609375,77.09986877441406,1.9798177787842257,-4.470657115974579,92.09866868639544,-0.34070593,-8.9375925,-8.375494,41.849003,-19.967882,4.4872503,-27.174692,-15.700321,-13.431115,57.893703,-20.850168,-5.77749,-4.3893437,-2.4313293,18.498087,-0.8603207,21.844881,-30.540632,38.87356,-12.015193,5.465503,7.1768303,2.9237351,-9.794065,3.9565551,30.097961,-14.1848955,9.448383,-9.858812
175,-1.0781816244125366,-48.90632629394531,76.77163696289062,2.191868874897311,-4.580211098514719,92.01088767389392,-1.3991671,-9.362334,-8.002647,42.97149,-20.998283,4.648314,-27.055103,-16.18741,-12.550838,61.38445,-22.407436,-6.313274,-4.0580797,-2.6257107,18.853086,-1.9351118,21.784618,-32.020565,41.129345,-10.079286,4.6141095,7.7212963,1.5290622,-10.059518,4.551811,30.549437,-13.631153,9.616231,-9.888717
176,-1.2516003847122192,-49.76129913330078,76.4438705444336,2.412217424262716,-4.675501507265939,91.94593491557049,-2.501494,-9.80358,-7.6604223,44.103653,-21.84325,4.746441,-26.780388,-16.621428,-11.699688,64.62551,-23.840805,-6.691674,-3.730645,-2.8141675,19.17611,-2.9348707,21.693333,-33.405087,43.32554,-8.289242,3.9613793,8.248745,0.21408638,-10.324931,5.151986,30.834099,-13.028939,9.811384,-9.879617
177,-1.4030576944351196,-50.6082649230957,76.14301300048828,2.648657408025347,-4.757835902502529,91.91462006441866,-3.671814,-10.282475,-7.35897,45.283455,-22.462414,4.77189,-26.320648,-17.030416,-10.91963,67.6148,-25.17086,-6.8912477,-3.4199178,-3.004518,19.456411,-3.8987746,21.577734,-34.830956,45.54892,-6.699903,3.4724824,8.7518015,-1.0263876,-10.606357,5.789407,30.968199,-12.309547,10.03384,-9.827332
178,-1.556599497795105,-51.42935562133789,75.84982299804688,2.910004436252418,-4.835235128585327,91.90398246242238,-4.8956456,-10.799884,-7.0741916,46.50732,-22.892899,4.7290964,-25.696972,-17.38124,-10.144737,70.40766,-26.371859,-6.916424,-3.111357,-3.2018578,19.703764,-4.8275423,21.437674,-36.27406,47.795155,-5.2065277,3.1402388,9.211284,-2.2083442,-10.905202,6.450642,30.975054,-11.480325,10.288722,-9.725236
179,-1.7099794149398804,-52.234901428222656,75.56792449951172,3.1704104528096915,-4.900265684161146,91.90045572519753,-6.1312585,-11.306629,-6.795699,47.696114,-23.200699,4.6342244,-24.940546,-17.637901,-9.382333,72.9879,-27.426949,-6.803833,-2.7916396,-3.3775434,19.924875,-5.622391,21.257612,-37.454388,49.892105,-3.7689059,3.0301828,9.614592,-3.3113198,-11.20248,7.082466,30.81383,-10.684433,10.575236,-9.589398
180,-1.8493626117706299,-53.039920806884766,75.29704284667969,3.402030717670387,-4.945271626790716,91.8908785922869,-7.3358097,-11.752984,-6.5152283,48.76841,-23.450853,4.5044336,-24.08383,-17.76338,-8.637997,75.33497,-28.317955,-6.5910482,-2.453306,-3.5056944,20.121416,-6.1800723,21.018784,-38.085884,51.6794,-2.3390224,3.206157,9.946769,-4.318061,-11.470211,7.6402245,30.454716,-10.067409,10.892702,-9.438263
181,-1.9688620567321777,-53.84939193725586,75.05097961425781,3.590807329703878,-4.964035676701961,91.882773883744,-8.528016,-12.1247425,-6.2425537,49.743084,-23.637102,4.31705,-23.11661,-17.707502,-7.9047217,77.43942,-29.023249,-6.2504764,-2.1021802,-3.5742466,20.29249,-6.4693527,20.698578,-38.04172,53.177624,-0.770609,3.7104955,10.124933,-5.2310104,-11.690992,8.0976,29.906218,-9.641743,11.243523,-9.268674
182,-2.096233367919922,-54.65696334838867,74.82627868652344,3.75159166268418,-4.962248662310163,91.8799562865237,-9.719844,-12.448422,-5.980753,50.64949,-23.73342,4.0699196,-22.022818,-17.495996,-7.1974325,79.31693,-29.561693,-5.7711344,-1.747214,-3.6063364,20.425144,-6.555991,20.294138,-37.49425,54.49329,0.8755841,4.487867,10.163287,-6.0679607,-11.869068,8.49623,29.205873,-9.346105,11.628122,-9.078367
183,-2.2308831214904785,-55.432373046875,74.61288452148438,3.904460551243319,-4.9504239274989965,91.86359330784133,-10.853051,-12.735211,-5.7152166,51.410416,-23.76842,3.8113768,-20.830875,-17.207151,-6.5466366,80.98357,-29.97123,-5.2137594,-1.3799322,-3.6296666,20.506466,-6.4813585,19.826029,-36.61015,55.58119,2.333543,5.4611387,10.199749,-6.828583,-12.01298,8.885262,28.357525,-9.21429,12.041285,-8.883333
184,-2.3569514751434326,-56.22112274169922,74.42382049560547,4.069159300009258,-4.938799301528258,91.81493932576264,-11.8712,-12.995798,-5.431151,51.950893,-23.77126,3.5913367,-19.570059,-16.92444,-5.978298,82.44999,-30.29044,-4.642623,-0.99439174,-3.6728563,20.530111,-6.270919,19.33446,-35.545914,56.368084,3.3311405,6.5625114,10.387169,-7.512126,-12.132201,9.314208,27.35857,-9.278557,12.475697,-8.698114
185,-2.4693384170532227,-56.997013092041016,74.26036834716797,4.260905209580888,-4.940055000199929,91.72198353936056,-12.725077,-13.235206,-5.1149716,52.211388,-23.761478,3.4188325,-18.219187,-16.676428,-5.487773,83.72621,-30.498552,-4.066412,-0.5759753,-3.758437,20.515497,-5.8873143,18.845886,-34.213223,56.732807,3.8661208,7.9473104,10.766733,-8.110014,-12.228667,9.790688,26.184633,-9.636442,12.962383,-8.547307
186,-2.594324827194214,-57.74751281738281,74.12355041503906,4.465291105120527,-4.945194551928424,91.59735510302725,-13.455211,-13.445767,-4.781519,52.24251,-23.718132,3.2701519,-16.773191,-16.416794,-5.063791,84.800964,-30.587454,-3.4561431,-0.13786437,-3.8722975,20.470507,-5.3126197,18.367126,-32.561066,56.692898,4.045682,9.596352,11.267433,-8.6211815,-12.299686,10.293434,24.829107,-10.238698,13.491875,-8.40886
187,-2.688138723373413,-58.496315002441406,74.017333984375,4.6591167154213045,-4.9318814837923854,91.45933476363173,-14.138035,-13.621152,-4.458058,52.132263,-23.607471,3.146977,-15.297246,-16.122406,-4.7142673,85.667465,-30.599325,-2.8215342,0.28949735,-3.9871526,20.370655,-4.597029,17.915442,-30.806852,56.38195,3.752771,11.181085,11.897128,-9.050728,-12.348992,10.820806,23.305695,-10.899597,13.999919,-8.228284
188,-2.771278142929077,-59.23419189453125,73.93753051757812,4.817611126052111,-4.878112443256151,91.32624382009854,-14.848323,-13.755718,-4.170545,51.96717,-23.394691,3.0498939,-13.858452,-15.77224,-4.443642,86.31871,-30.577164,-2.1737716,0.6856658,-4.0734825,20.19085,-3.7863424,17.512808,-29.180418,55.933495,2.8721402,12.367771,12.666596,-9.397006,-12.384899,11.358382,21.621555,-11.433734,14.421814,-7.9525776
189,-2.8641953468322754,-59.95552062988281,73.88519287109375,4.942061485113402,-4.77377113196453,91.19766462631826,-15.60945,-13.858345,-3.9164944,51.7729,-23.087086,2.9953325,-12.470338,-15.395172,-4.2617474,86.77235,-30.550863,-1.5001526,1.0482177,-4.138981,19.917747,-2.848572,17.174221,-27.678984,55.29022,1.2019143,13.118424,13.702865,-9.657251,-12.420516,11.901228,19.739557,-11.755432,14.728996,-7.539975
190,-2.944551706314087,-60.692535400390625,73.8643798828125,5.042919868657441,-4.631944971105664,91.06560304350437,-16.377966,-13.93021,-3.6850452,51.500248,-22.69587,2.978278,-11.107242,-14.995369,-4.1541467,87.027756,-30.490513,-0.80546594,1.3919283,-4.1946836,19.572042,-1.7461303,16.903545,-26.20325,54.374134,-1.1438055,13.557484,14.965335,-9.820383,-12.459128,12.449336,17.647472,-11.972665,14.959705,-7.027179
191,-3.024674415588379,-61.455047607421875,73.87742614746094,5.111745643393444,-4.46505357816078,90.9368069789486,-17.128107,-13.957347,-3.4886248,51.124565,-22.192854,2.9666748,-9.782538,-14.516701,-4.08584,87.05716,-30.35313,-0.12928592,1.7252523,-4.217075,19.177822,-0.516417,16.702333,-24.842209,53.30054,-3.7861743,13.611106,16.18886,-9.871578,-12.488851,12.992348,15.390848,-12.192925,15.148365,-6.482017
192,-3.106403112411499,-62.206119537353516,73.9257583618164,5.1379506274223825,-4.285288221580295,90.81809539280714,-17.833889,-13.926742,-3.3399928,50.621315,-21.5497,2.9286563,-8.509401,-13.904598,-4.018966,86.83107,-30.094349,0.48969156,2.0651126,-4.1838455,18.757053,0.78316635,16.567587,-23.699148,52.20719,-6.346086,13.24166,17.098478,-9.79262,-12.489963,13.509277,13.016421,-12.529577,15.327244,-5.970399
193,-3.189568281173706,-62.94941329956055,74.01628875732422,5.1078763157217155,-4.088141261834931,90.71727566912647,-18.51208,-13.831523,-3.2442007,50.016304,-20.774048,2.8611474,-7.2868414,-13.136867,-3.951452,86.34646,-29.723906,0.9663639,2.4131002,-4.074926,18.286797,2.13147,16.51017,-22.875404,51.139763,-8.922667,12.323113,17.635538,-9.56778,-12.450457,13.985451,10.489078,-13.00458,15.530333,-5.5100403
194,-3.232232093811035,-63.701881408691406,74.15657043457031,5.032467614915174,-3.8695582633913475,90.6283527315327,-19.16733,-13.685572,-3.193825,49.30924,-19.8742,2.780155,-6.1158676,-12.254191,-3.8872697,85.62016,-29.258196,1.340812,2.768244,-3.9143047,17.761776,3.5590212,16.532722,-22.298946,50.033344,-11.638243,10.93615,17.88435,-9.209277,-12.3725195,14.426089,7.8016057,-13.569274,15.729185,-5.063342
195,-3.2723333835601807,-64.47792053222656,74.34075927734375,4.935247853760372,-3.6428206634440845,90.53701607839322,-19.757456,-13.504671,-3.179554,48.437572,-18.824383,2.682449,-5.011317,-11.293756,-3.7929647,84.65148,-28.662771,1.7656955,3.1402059,-3.7417316,17.230694,5.0662313,16.607338,-21.811243,48.87928,-14.166172,9.387839,17.820171,-8.742671,-12.256768,14.845186,5.046717,-14.228892,15.862068,-4.6164656
196,-3.320211172103882,-65.24641418457031,74.5667953491211,4.842398727837002,-3.4211010893065974,90.42900152578484,-20.239208,-13.304175,-3.1935399,47.337887,-17.598507,2.564118,-3.9837892,-10.292177,-3.6360865,83.44097,-27.911125,2.3951042,3.536146,-3.592367,16.7386,6.642193,16.686647,-21.251106,47.686546,-16.186485,7.984226,17.466635,-8.202545,-12.104357,15.259747,2.3300784,-14.988083,15.866928,-4.159
197,-3.3708643913269043,-66.03167724609375,74.83726501464844,4.761057626954141,-3.2106386883058815,90.29399216639216,-20.590925,-13.091122,-3.2321498,45.984127,-16.207666,2.4315388,-3.0143015,-9.240471,-3.3901145,81.954025,-27.01089,3.3448467,3.9657044,-3.4653585,16.290018,8.282756,16.741758,-20.575008,46.474297,-17.515741,6.7347116,16.673393,-7.5791636,-11.912271,15.663874,-0.35191375,-15.9822,15.728902,-3.6858974
198,-3.411133289337158,-66.83731842041016,75.15202331542969,4.676396833405514,-3.0035834854889236,90.14150489155293,-20.838953,-12.859691,-3.2977993,44.411587,-14.659439,2.283892,-2.0964746,-8.128356,-3.0631614,80.20069,-25.984533,4.5062156,4.415211,-3.3365972,15.85642,9.970339,16.767122,-19.862352,45.271145,-18.376009,5.510387,15.516339,-6.8767247,-11.682381,16.06158,-3.0231245,-17.163942,15.477228,-3.2111979
199,-3.446709632873535,-67.65069580078125,75.50399017333984,4.578919125882539,-2.7915678214482234,89.98713035915989,-21.011644,-12.603679,-3.392942,42.646614,-12.920364,2.1062613,-1.2580117,-6.9869075,-2.6775842,78.24725,-24.818197,5.700793,4.863536,-3.2000108,15.433464,11.665707,16.745667,-19.14669,44.104614,-19.043194,4.393948,14.379622,-6.139126,-11.424134,16.478382,-5.6177783,-18.25877,15.119953,-2.7548468
200,-3.473971128463745,-68.48308563232422,75.88825225830078,4.458124317770225,-2.566513921289312,89.84636744982537,-21.136732,-12.315178,-3.5221095,40.714527,-10.955931,1.883901,-0.52861416,-5.845724,-2.2610765,76.15984,-23.49102,6.7536855,5.288207,-3.046679,15.014466,13.323961,16.65309,-18.461405,43.012615,-19.770538,3.4671843,13.639792,-5.4123306,-11.152392,16.94275,-8.066052,-18.991735,14.670487,-2.3341665
201,-3.5224246978759766,-69.30811309814453,76.30126953125,4.3124266885988405,-2.3222410273146816,89.71013602052791,-21.20367,-11.986717,-3.693271,38.580925,-8.74596,1.6348603,0.07439023,-4.6771355,-1.78526,73.9264,-21.915655,7.6807284,5.693666,-2.8638098,14.591218,14.950378,16.46386,-17.82567,42.007946,-20.607347,2.738984,13.435943,-4.6849856,-10.875953,17.464474,-10.362669,-19.23799,14.072845,-1.9781501
202,-3.583529233932495,-70.17255401611328,76.7401351928711,4.144237331051279,-2.0651016481355486,89.5741066671544,-21.204466,-11.626541,-3.9024851,36.24519,-6.3119626,1.3591969,0.58031535,-3.4734886,-1.2428945,71.51694,-20.124928,8.560564,6.0888734,-2.6457062,14.164964,16.539825,16.172888,-17.226992,41.099987,-21.403183,2.152639,13.563915,-3.9418445,-10.598897,18.029585,-12.535057,-19.157568,13.346296,-1.6670821
203,-3.610574722290039,-71.08345031738281,77.19526672363281,3.9526605208704826,-1.8055690286259465,89.46082115448631,-21.173145,-11.247582,-4.1424947,33.787086,-3.6809266,1.014597,1.0225146,-2.2968383,-0.70548064,68.97325,-18.271704,9.311568,6.4574413,-2.395339,13.74517,18.039997,15.794972,-16.648214,40.310993,-22.104908,1.696797,13.879371,-3.2168841,-10.329475,18.63109,-14.573551,-18.903671,12.622237,-1.3404977
204,-3.6181185245513916,-72.03776550292969,77.66000366210938,3.737690356665758,-1.554152838946967,89.39269387412212,-21.140776,-10.858734,-4.4132543,31.282087,-0.8758144,0.55735886,1.4292141,-1.2132348,-0.2539969,66.33594,-16.505327,9.845482,6.7840033,-2.117959,13.346127,19.406683,15.355359,-16.069225,39.64776,-22.666887,1.366598,14.236151,-2.5361857,-10.074955,19.260777,-16.478333,-18.625174,12.030116,-0.9426607
205,-3.6238510608673096,-72.9894790649414,78.10678100585938,3.4984569224110027,-1.3046292434350284,89.3818215582945,-21.127127,-10.4604645,-4.746785,28.715948,2.2284017,0.059110556,1.7981468,-0.2278647,0.078868024,63.566654,-14.867969,10.20661,7.063759,-1.8149912,12.968559,20.65003,14.866056,-15.472625,39.085297,-23.213497,1.1492366,14.625495,-1.8973186,-9.835201,19.936857,-18.24184,-18.219069,11.607806,-0.5146255
206,-3.6279332637786865,-73.96912384033203,78.53298950195312,3.234740147792334,-1.0545286804362042,89.41376204580925,-21.110092,-10.040992,-5.149287,26.058142,5.6013665,-0.49154642,2.120233,0.69270986,0.32279572,60.651543,-13.270677,10.4190035,7.30696,-1.4866474,12.611432,21.795246,14.3271675,-14.871368,38.60869,-23.727943,1.0515764,15.1175165,-1.2802883,-9.607359,20.656342,-19.88014,-17.651644,11.288257,-0.06726459
207,-3.6534628868103027,-74.95430755615234,78.9335708618164,2.9479795148122583,-0.8218249386229177,89.46933204898383,-21.05917,-9.589547,-5.592652,23.366514,8.985624,-1.2653918,2.4070787,1.5402603,0.48237717,57.67281,-11.667497,10.362032,7.5217814,-1.1352949,12.2872505,22.823685,13.751071,-14.288569,38.237038,-23.956617,1.1050575,15.684596,-0.69226116,-9.398343,21.376528,-21.422508,-17.175413,11.0404215,0.49820507
208,-3.6747519969940186,-75.96939849853516,79.29386901855469,2.6322228202754747,-0.6263907226082066,89.52766560595224,-20.925549,-9.0947485,-6.064574,20.668518,12.135641,-2.4383795,2.669271,2.3089838,0.55826026,54.714924,-10.014522,9.910867,7.722365,-0.7546964,12.011369,23.720428,13.157725,-13.75101,37.983555,-23.649668,1.3477511,16.296305,-0.13296497,-9.2201605,22.049828,-22.907423,-17.038021,10.830019,1.2791638
209,-3.7010059356689453,-76.98912048339844,79.59502410888672,2.2206901666702454,-0.4764115050428377,89.58949543069488,-20.578583,-8.481398,-6.673048,17.585331,15.324094,-4.347924,2.9142466,3.0441377,0.46470007,51.640694,-8.058585,8.899309,7.9296513,-0.2791679,11.787294,24.49378,12.552463,-13.238085,37.85897,-22.44407,1.9158825,17.026693,0.42645448,-9.077833,22.650223,-24.381777,-17.340076,10.6897335,2.4214396
210,-3.71555757522583,-78.02317810058594,79.83981323242188,1.700723665233684,-0.3717289016572818,89.65295090613161,-20.052206,-7.7339916,-7.457837,14.196856,18.56775,-6.8376093,3.144639,3.7661273,0.18592723,48.458412,-5.9087334,7.4211674,8.146022,0.30666077,11.614993,25.151321,11.934858,-12.75011,37.845726,-20.583559,2.7707598,17.842857,0.98783845,-8.973231,23.200382,-25.831247,-17.935453,10.61029,3.8332326
211,-3.7242863178253174,-79.05574798583984,80.00028991699219,1.1811139546024731,-0.3108689180686642,89.70277233451118,-19.568977,-6.9712005,-8.228004,11.24145,21.247862,-9.305308,3.3506827,4.408518,-0.1501343,45.477318,-4.0743713,5.754403,8.351317,0.9033947,11.502295,25.680792,11.324385,-12.346175,37.911278,-18.725555,3.6740696,18.56613,1.5137248,-8.913259,23.724741,-27.202414,-18.693922,10.494814,5.251202
212,-3.7379283905029297,-80.1033706665039,80.11759185791016,0.825345732139836,-0.2742451776493856,89.74056653527514,-19.3884,-6.391682,-8.696916,9.48888,22.770157,-11.100189,3.4895017,4.859278,-0.373646,43.03315,-3.0672257,4.203165,8.51579,1.3505944,11.450903,26.071583,10.756567,-12.0873785,38.020077,-17.522276,4.3627114,19.049656,1.9720843,-8.904971,24.24285,-28.455044,-19.478062,10.257457,6.406863
213,-3.7528514862060547,-81.1677017211914,80.13896942138672,0.7100904737396123,-0.22690168255068238,89.77377742520154,-19.649376,-6.0908794,-8.702096,9.192297,22.855547,-12.019288,3.518712,5.0530267,-0.41132194,41.23934,-3.158772,2.7149603,8.64713,1.5633266,11.440701,26.328062,10.263535,-12.015119,38.147385,-17.226076,4.744667,19.277952,2.356993,-8.953046,24.762255,-29.606194,-20.34748,9.844374,7.2676377
214,-3.79116153717041,-82.25834655761719,80.1290512084961,0.7711460461722701,-0.175055088209074,89.81281706300486,-20.235722,-5.9911113,-8.352521,9.98404,21.85663,-12.385219,3.436151,5.0455136,-0.32861507,39.936806,-4.04428,1.1968999,8.761053,1.5980114,11.472967,26.457912,9.8532715,-12.098938,38.308613,-17.469244,4.956565,19.333277,2.7016277,-9.056428,25.256514,-30.691587,-21.334248,9.311863,7.9550524
215,-3.8349404335021973,-83.34800720214844,80.09366607666016,0.9756970028114494,-0.15574980965389534,89.8684513162362,-21.029078,-6.0493417,-7.75595,11.705139,20.135931,-12.325947,3.2549062,4.8864603,-0.14844029,39.04047,-5.348832,-0.10560035,8.832393,1.4932299,11.577866,26.456001,9.521459,-12.287829,38.529526,-17.96674,5.070422,19.230537,3.027238,-9.209587,25.698477,-31.686317,-22.26307,8.754336,8.433971
216,-3.9118967056274414,-84.43451690673828,80.01406860351562,1.273407751009386,-0.21210249922533672,89.94444550151941,-21.894247,-6.201746,-7.0318265,14.178043,18.058691,-11.971075,3.0049639,4.6269126,0.08655222,38.44673,-6.681306,-0.9626042,8.836879,1.3044704,11.7877,26.319225,9.256449,-12.527139,38.83524,-18.431051,5.1595707,18.984497,3.3495948,-9.405314,26.065643,-32.559002,-22.96506,8.270434,8.676895
217,-3.9875760078430176,-85.52651977539062,79.86577606201172,1.6693064617573323,-0.3968997955344111,90.04343280755027,-22.80773,-6.459609,-6.272635,17.521614,15.497459,-11.262615,2.7425404,4.2465053,0.4031327,38.13997,-7.9640746,-1.2095442,8.768935,1.0414871,12.156823,26.025957,9.049991,-12.824855,39.262524,-18.852137,5.2036014,18.538877,3.6513731,-9.644691,26.376846,-33.331596,-23.411518,7.911808,8.634942
218,-4.0363688468933105,-86.62174987792969,79.66484832763672,2.132639765808451,-0.6923427398586772,90.14174078301343,-23.793987,-6.746088,-5.453613,21.733295,12.329718,-10.179955,2.4751172,3.775611,0.8078291,38.114784,-9.35634,-1.0229157,8.656882,0.7330601,12.660225,25.590393,8.898827,-13.200102,39.784798,-19.359034,5.1811976,17.906477,3.9259346,-9.9305,26.63948,-34.00563,-23.695412,7.625501,8.344248
219,-4.100401401519775,-87.72010040283203,79.44550323486328,2.5647980382294553,-1.0341380847493913,90.20595378209816,-24.782194,-6.8797092,-4.5063252,26.446299,8.940688,-8.892131,2.1598914,3.328785,1.2182754,38.287357,-10.82545,-0.68842137,8.522992,0.4557927,13.210896,25.063726,8.796598,-13.613893,40.33167,-19.870667,5.1607127,17.207321,4.2056675,-10.253565,26.815521,-34.51874,-23.83097,7.3524346,7.906952
220,-4.164882659912109,-88.8104248046875,79.18718719482422,2.892745437967723,-1.3476581967366132,90.21440442631452,-25.71149,-6.7067146,-3.3363855,31.307379,5.7133865,-7.5472126,1.7339343,2.9968784,1.5583835,38.603428,-12.358311,-0.4856434,8.374759,0.25616866,13.714859,24.494492,8.737428,-14.022876,40.83926,-20.302904,5.2059402,16.562317,4.512541,-10.595246,26.869312,-34.79599,-23.83515,7.03135,7.425539
221,-4.226853847503662,-89.88753509521484,78.88599395751953,3.1322257876733577,-1.6297143397585319,90.1626923755462,-26.604578,-6.126714,-1.7338368,36.440746,2.5999544,-5.9980364,1.1828777,2.7725966,1.8398108,39.10752,-14.040167,-0.45668313,8.198071,0.11616265,14.166935,23.875465,8.720819,-14.440831,41.323067,-20.68383,5.309894,15.985885,4.8208027,-10.942247,26.795591,-34.796146,-23.662388,6.65918,6.908311
222,-4.288933277130127,-90.95667266845703,78.54768371582031,3.3104462703932334,-1.9147740082547404,90.06140362422262,-27.413548,-5.183805,0.12786588,41.8981,-0.556854,-4.1963687,0.53562546,2.6196096,2.0945776,39.823215,-15.857356,-0.46887794,7.9904604,0.016374977,14.608162,23.187548,8.747421,-14.878162,41.80872,-21.039549,5.444992,15.421094,5.1156554,-11.289669,26.615389,-34.54539,-23.327578,6.2596,6.3129325
223,-4.341540336608887,-92.01576232910156,78.1875228881836,3.4056484482688494,-2.1752336276896136,89.92202113713549,-28.031876,-4.013062,1.8399673,47.29869,-3.5455112,-2.433485,-0.21228512,2.5616834,2.2832913,40.662144,-17.647083,-0.53151387,7.763778,-0.02392108,15.007718,22.462507,8.812821,-15.283263,42.248657,-21.279549,5.6396456,14.882638,5.4277997,-11.628526,26.33487,-34.0496,-22.937609,5.8122454,5.664583
224,-4.360769271850586,-93.06916809082031,77.81512451171875,3.399834351307191,-2.380920929358094,89.75945475105394,-28.406664,-2.8126862,3.0623934,52.30067,-6.1312814,-1.0193151,-1.074589,2.6134508,2.3655596,41.547077,-19.252762,-0.6486758,7.5235476,0.008638801,15.331863,21.732874,8.909699,-15.601771,42.598076,-21.311625,5.920126,14.384622,5.7828674,-11.946467,25.96365,-33.311577,-22.60065,5.2993035,4.9875035
225,-4.3930864334106445,-94.11380004882812,77.44444274902344,3.279431562131783,-2.502506599070675,89.55629726406984,-28.596315,-1.6217966,3.8028686,56.94746,-8.186479,-0.061839342,-2.1101656,2.7835522,2.31653,42.510647,-20.667292,-0.8319676,7.28065,0.12062394,15.549444,21.00975,9.027438,-15.796031,42.841434,-21.02772,6.311793,13.914135,6.1721325,-12.232474,25.48647,-32.268826,-22.294212,4.674269,4.2975116
226,-4.415280342102051,-95.13273620605469,77.08184051513672,3.063300308035616,-2.560522510122864,89.31645081864829,-28.636715,-0.39101174,4.276004,61.42093,-9.853375,0.6101473,-3.3054724,3.0525033,2.1591136,43.588966,-21.969936,-1.0704968,7.0165277,0.29695883,15.679492,20.277266,9.164157,-15.894221,43.010685,-20.498205,6.7879767,13.466658,6.573232,-12.481384,24.915327,-30.917532,-21.985636,3.959244,3.5821729
227,-4.434500694274902,-96.13045501708984,76.71952056884766,2.784932973025831,-2.599251260948526,89.08828811338256,-28.480705,0.77581304,4.494418,65.61284,-11.2854395,1.0828671,-4.5616293,3.3836434,1.9239105,44.702335,-23.131735,-1.3313642,6.6942115,0.5136677,15.764274,19.528187,9.329779,-15.945053,43.13081,-19.901417,7.2992826,13.069026,6.994996,-12.690381,24.297356,-29.345585,-21.764713,3.2429442,2.8183024
228,-4.433986663818359,-97.09622955322266,76.36386108398438,2.480719880886499,-2.6618812224773523,88.91907030769347,-28.076506,1.7688942,4.4688993,69.38934,-12.627096,1.436341,-5.7728887,3.7353752,1.6451201,45.75536,-24.11351,-1.5813475,6.281304,0.7388386,15.847522,18.755281,9.541429,-16.000929,43.223595,-19.419546,7.8009405,12.750302,7.4491806,-12.859435,23.675323,-27.648138,-21.718456,2.6166673,1.9796735
229,-4.433236122131348,-98.06390380859375,76.0295639038086,2.138916933942334,-2.759622764989735,88.82002491289836,-27.419575,2.5459259,4.167354,72.764786,-13.87633,1.6377943,-6.9341707,4.121517,1.3057108,46.76445,-24.895323,-1.8272351,5.758398,0.9795781,15.936888,17.953943,9.812782,-16.086044,43.312756,-19.14834,8.270316,12.528789,7.916358,-12.9838085,23.063606,-25.738207,-21.7683,2.0713363,1.0249358
230,-4.433391571044922,-99.0115966796875,75.70233154296875,1.7520008928639677,-2.8681205828094667,88.7672484457401,-26.543903,3.1386495,3.6382375,75.80886,-14.967821,1.6429665,-8.096264,4.5451794,0.89481074,47.7653,-25.501333,-2.0787435,5.1522384,1.2374274,16.010921,17.133047,10.145865,-16.17745,43.37423,-18.981304,8.739155,12.385164,8.405532,-13.061141,22.435455,-23.606867,-21.902395,1.5725621,-0.0222718
231,-4.424442768096924,-99.95205688476562,75.39358520507812,1.3620457158180657,-2.9769638320378697,88.75531475769607,-25.460375,3.5583696,2.9981084,78.468666,-15.951479,1.5174325,-9.233557,4.9540095,0.456278,48.690987,-25.958302,-2.30864,4.4995832,1.4797505,16.070078,16.301794,10.538152,-16.261461,43.360012,-18.798223,9.245082,12.292445,8.980189,-13.095337,21.771366,-21.484266,-22.297756,1.181789,-1.0993408
232,-4.4140944480896,-100.88887023925781,75.1126937866211,1.00913179045898,-3.07588607295357,88.77848319216633,-24.18379,3.8275645,2.3523517,80.69058,-16.87765,1.3354344,-10.31919,5.2990494,0.035473906,49.474487,-26.29271,-2.4903119,3.8371656,1.6765838,16.11408,15.468026,10.985083,-16.324614,43.22317,-18.477144,9.825274,12.22171,9.700787,-13.09643,21.049965,-19.598616,-23.127295,0.967413,-2.145515
233,-4.403263092041016,-101.7966537475586,74.8663330078125,0.6933593713450777,-3.1627294135754984,88.83965854833338,-22.695702,3.9514678,1.6961372,82.47234,-17.782417,1.1103776,-11.358229,5.583961,-0.35644695,50.12453,-26.502403,-2.612659,3.1548173,1.8373641,16.145395,14.616677,11.48931,-16.367664,42.96622,-18.05866,10.532011,12.161631,10.575791,-13.065527,20.28279,-17.954361,-24.680147,1.0298243,-3.2482998
234,-4.403287410736084,-102.70862579345703,74.66072082519531,0.3966266300225585,-3.242724646671596,88.93973785595594,-21.0004,3.9269676,0.9905091,83.849236,-18.633245,0.8108428,-12.358859,5.82935,-0.74193025,50.666958,-26.57566,-2.6914914,2.4405563,1.9748069,16.161701,13.747613,12.051829,-16.403715,42.61325,-17.583519,11.332128,12.124353,11.576405,-13.000264,19.475542,-16.44987,-26.771214,1.3348526,-4.398187
235,-4.406745910644531,-103.62368774414062,74.48955535888672,0.13331020454623727,-3.315669181506008,89.0698562310829,-19.152985,3.7683158,0.27799213,84.8199,-19.371578,0.449092,-13.294073,6.0137787,-1.1239426,51.053116,-26.521671,-2.7408516,1.7285491,2.068652,16.155697,12.890634,12.661035,-16.437164,42.148487,-16.928225,12.133374,12.112954,12.712522,-12.90916,18.595789,-15.169646,-28.860619,1.7268277,-5.3949723
236,-4.424238204956055,-104.51058959960938,74.37393951416016,-0.08223388347283402,-3.381473061604307,89.22141758316292,-17.209393,3.4876485,-0.4031522,85.38098,-19.94008,0.037159294,-14.136685,6.116045,-1.5046842,51.232666,-26.348206,-2.7746673,1.0517527,2.1038299,16.121992,12.07091,13.298225,-16.471022,41.55934,-15.967911,12.843044,12.129445,14.000024,-12.809584,17.608585,-14.204045,-30.414473,2.0170279,-6.0563593
237,-4.416997909545898,-105.38719940185547,74.3056869506836,-0.24635522901296372,-3.451521910074971,89.40327581442502,-15.134892,3.0730107,-1.0757353,85.51988,-20.372185,-0.40473312,-14.853058,6.120675,-1.9124196,51.17853,-26.08585,-2.8053348,0.40539074,2.0897202,16.073498,11.275186,13.956029,-16.519142,40.846066,-14.535731,13.469484,12.203083,15.504974,-12.710379,16.441439,-13.649669,-31.320217,2.1128647,-6.2460227
238,-4.422207832336426,-106.27263641357422,74.2822265625,-0.3682066965612535,-3.5217699169348515,89.61609688702852,-12.921562,2.5339751,-1.7625566,85.24814,-20.683962,-0.87704456,-15.464047,6.0440407,-2.3347147,50.91938,-25.718857,-2.8234558,-0.22362931,2.0436718,16.009045,10.489471,14.632301,-16.582277,40.019493,-12.740866,14.0526285,12.315475,17.212059,-12.608272,15.12862,-13.45373,-31.848156,2.1047225,-6.0989676
239,-4.461451053619385,-107.1650619506836,74.3213882446289,-0.4520638491284903,-3.5691141211733215,89.83943012115687,-10.66837,1.9087985,-2.4305446,84.59896,-20.790709,-1.4028159,-16.02595,5.912376,-2.7132602,50.492058,-25.188404,-2.8101504,-0.82146895,1.9617903,15.902884,9.739234,15.312324,-16.631784,39.082825,-10.870069,14.543369,12.404812,19.010103,-12.504428,13.802534,-13.478231,-32.04449,2.0711734,-5.851364
240,-4.488795280456543,-108.04621124267578,74.42179870605469,-0.49794255775780555,-3.570357058449823,90.05300195540663,-8.474658,1.229619,-3.0482023,83.60523,-20.610445,-2.0101938,-16.595495,5.7523656,-2.989519,49.933453,-24.436022,-2.746063,-1.3793205,1.8400676,15.728605,9.048039,15.975845,-16.628925,38.04479,-9.206252,14.8878,12.419149,20.783064,-12.408292,12.600531,-13.580608,-31.958904,2.0962355,-5.7388268
