unveil-humanoid-operators/unveil-humanoid-operators.github.io/feature-analysis-animation/data/feature_matrix_instances/weight_ankle_rom_walking_A047_walk_arc_cw_loop_002__A047.csv
Frame,root_translateX,root_translateY,root_translateZ,root_rotateX,root_rotateY,root_rotateZ,left_hip_pitch_joint_dof,left_hip_roll_joint_dof,left_hip_yaw_joint_dof,left_knee_joint_dof,left_ankle_pitch_joint_dof,left_ankle_roll_joint_dof,right_hip_pitch_joint_dof,right_hip_roll_joint_dof,right_hip_yaw_joint_dof,right_knee_joint_dof,right_ankle_pitch_joint_dof,right_ankle_roll_joint_dof,waist_yaw_joint_dof,waist_roll_joint_dof,waist_pitch_joint_dof,left_shoulder_pitch_joint_dof,left_shoulder_roll_joint_dof,left_shoulder_yaw_joint_dof,left_elbow_joint_dof,left_wrist_roll_joint_dof,left_wrist_pitch_joint_dof,left_wrist_yaw_joint_dof,right_shoulder_pitch_joint_dof,right_shoulder_roll_joint_dof,right_shoulder_yaw_joint_dof,right_elbow_joint_dof,right_wrist_roll_joint_dof,right_wrist_pitch_joint_dof,right_wrist_yaw_joint_dof
0,-2.423001289367676,0.26322343945503235,78.13455200195312,0.3125921408334005,-4.284943929300298,-15.59189613776593,5.9679136,-1.5238343,11.359366,6.8985534,-8.552323,-0.9245792,-7.9666953,-16.036436,-4.3009763,18.774952,0.8898509,8.864939,-2.79324,-8.489015,11.580036,-0.3820964,25.126305,-30.630474,57.00197,2.5916123,-0.77861696,-4.4347196,-6.300902,-10.344221,21.647709,57.14721,-13.344585,9.7028675,3.4408886
1,-2.4468448162078857,0.2614218592643738,78.12882232666016,0.36429899284742834,-4.1542203640936695,-15.596782837825442,5.805815,-1.5761254,11.376896,6.8924017,-8.525592,-0.9150962,-8.1613245,-16.081602,-4.2800956,18.831581,0.81191134,8.786374,-2.8463597,-8.528449,11.555318,-0.361521,25.16351,-30.741825,56.87615,2.6845026,-0.75430256,-4.439709,-6.2747188,-10.29631,21.767439,56.98331,-13.343881,9.702526,3.5257545
2,-2.4649436473846436,0.2556036114692688,78.12370300292969,0.41422429307460823,-4.023748087097152,-15.600456273417763,5.643086,-1.6268036,11.39466,6.8870177,-8.498521,-0.90510565,-8.357133,-16.125072,-4.259103,18.889828,0.735873,8.706508,-2.89964,-8.571561,11.51815,-0.37146223,25.181591,-30.873755,56.803837,2.7768323,-0.73354733,-4.4386573,-6.2654014,-10.22284,21.889336,56.859497,-13.341524,9.703445,3.602512
3,-2.480158567428589,0.24830959737300873,78.11949920654297,0.46666003701365133,-3.8935117926389604,-15.6061331301224,5.4821024,-1.6796798,11.412299,6.8809166,-8.472663,-0.8964629,-8.549071,-16.170248,-4.2386355,18.942598,0.65664065,8.628964,-2.9506178,-8.631702,11.45883,-0.3971314,25.18066,-31.005552,56.78083,2.8681965,-0.7128356,-4.432904,-6.2989182,-10.0858555,22.007267,56.811584,-13.3591385,9.702917,3.6626716
4,-2.496105670928955,0.23801380395889282,78.11565399169922,0.5256092699718006,-3.763590157782577,-15.616838338387288,5.324556,-1.7384142,11.429844,6.8739276,-8.4503565,-0.8907656,-8.73039,-16.220093,-4.2197933,18.978603,0.571596,8.557779,-2.9872017,-8.673728,11.411701,-0.40796962,25.16548,-31.102959,56.72672,2.9613454,-0.6911049,-4.4365993,-6.2846875,-10.010094,22.113796,56.67559,-13.39013,9.698833,3.7376223
5,-2.508760929107666,0.2233632355928421,78.11186981201172,0.59254811089398,-3.630488214527,-15.63480025280621,5.1676702,-1.8040566,11.447233,6.864693,-8.4310055,-0.89175844,-8.907182,-16.276728,-4.1991153,19.001404,0.4805192,8.490095,-3.020094,-8.735346,11.324671,-0.43289754,25.10897,-31.180433,56.74319,3.0528123,-0.66840696,-4.4371295,-6.3170643,-9.856819,22.22291,56.6214,-13.467482,9.693289,3.7949104
6,-2.5249247550964355,0.21168559789657593,78.10377502441406,0.6633866751314712,-3.4954556795886775,-15.657460408227362,5.0109835,-1.8727546,11.464268,6.854905,-8.414453,-0.8974412,-9.080969,-16.333673,-4.1786184,19.015627,0.38427958,8.424978,-3.045208,-8.790733,11.233573,-0.45156288,25.034992,-31.230742,56.758884,3.1473577,-0.6444834,-4.442974,-6.3368917,-9.716031,22.326004,56.53984,-13.57046,9.685937,3.8586755
7,-2.532268762588501,0.19677656888961792,78.09492492675781,0.7376582996615857,-3.3651581588441988,-15.681734854240933,4.8613963,-1.9446647,11.480745,6.8460007,-8.401846,-0.90125495,-9.238252,-16.395983,-4.163047,19.013336,0.28116983,8.36982,-3.0597508,-8.841406,11.148041,-0.46605778,24.951523,-31.265835,56.766964,3.2357886,-0.6207483,-4.4517136,-6.340442,-9.593099,22.420547,56.43143,-13.668223,9.673745,3.9180043
8,-2.537219762802124,0.18197709321975708,78.0841293334961,0.8144955711062103,-3.2464011876073404,-15.704542415254837,4.726626,-2.0203052,11.496387,6.836887,-8.392724,-0.8967282,-9.365551,-16.463486,-4.158619,18.986025,0.16939753,8.331418,-3.0568156,-8.886604,11.090726,-0.46182844,24.888952,-31.292076,56.720264,3.3079019,-0.5967436,-4.4663124,-6.3094506,-9.516311,22.497873,56.26381,-13.728234,9.652966,3.9698308
9,-2.539883852005005,0.16370581090450287,78.07586669921875,0.8903426963469852,-3.1422564709665606,-15.728411496283234,4.6113405,-2.0952547,11.514466,6.828353,-8.389347,-0.8828848,-9.457707,-16.539326,-4.1881676,18.931522,0.07284376,8.309949,-3.0560846,-8.936479,11.014913,-0.49905473,24.757875,-31.307163,56.776634,3.3860986,-0.5785019,-4.471466,-6.3345585,-9.380518,22.57631,56.20238,-13.757792,9.622916,3.9710236
10,-2.544809103012085,0.1478632390499115,78.06584167480469,0.9668186796638991,-3.0484545758061388,-15.754098885135399,4.509676,-2.1711168,11.534075,6.8219976,-8.391955,-0.86295223,-9.523347,-16.62418,-4.2406964,18.856222,-0.016736021,8.30246,-3.0372562,-8.982196,10.952707,-0.5371756,24.620676,-31.31404,56.82578,3.457164,-0.56047684,-4.480005,-6.344078,-9.26246,22.635178,56.118793,-13.76578,9.584787,3.9538794
11,-2.549773693084717,0.13170470297336578,78.05209350585938,1.052204835786978,-2.961673308842909,-15.774898961461396,4.414312,-2.2578924,11.548506,6.8204684,-8.398588,-0.8367214,-9.566139,-16.70945,-4.2741857,18.75734,-0.14438373,8.310473,-3.008669,-9.031053,10.910438,-0.5541083,24.507223,-31.31315,56.820297,3.5069041,-0.5428545,-4.4904084,-6.3291025,-9.178551,22.686369,55.990337,-13.745422,9.541057,3.943682
12,-2.554486036300659,0.11528225243091583,78.03466796875,1.1538635761827625,-2.879141910570528,-15.784275168945008,4.3222795,-2.365709,11.551126,6.817072,-8.402068,-0.80412483,-9.58983,-16.793154,-4.2446427,18.633986,-0.35641843,8.335731,-2.9888442,-9.089119,10.855751,-0.6017517,24.347645,-31.316078,56.867573,3.5402956,-0.53191835,-4.4829216,-6.340349,-9.075478,22.74779,55.91285,-13.705357,9.496168,3.9440694
13,-2.559530019760132,0.09638069570064545,78.01282501220703,1.2750650556048293,-2.8022703293591444,-15.78318476489035,4.233975,-2.4981716,11.541033,6.814001,-8.402863,-0.7656481,-9.605722,-16.890799,-4.176293,18.51704,-0.692846,8.332723,-2.9692955,-9.158684,10.80899,-0.65069944,24.185755,-31.3222,56.89867,3.5325608,-0.5252643,-4.458187,-6.350052,-8.986008,22.81161,55.828247,-13.624663,9.450188,3.9765291
14,-2.5621485710144043,0.07495510578155518,77.98991394042969,1.4113660413589268,-2.7321656063003927,-15.774247419383997,4.152472,-2.6496706,11.521548,6.810669,-8.402919,-0.7211626,-9.6087675,-17.001015,-4.0799127,18.39844,-1.1206672,8.315218,-2.9486248,-9.236425,10.770092,-0.69849604,24.01998,-31.325264,56.91599,3.4944348,-0.52213866,-4.421505,-6.357748,-8.9070835,22.875946,55.737194,-13.508964,9.401719,4.0278287
15,-2.567108392715454,0.050628602504730225,77.96240997314453,1.5594839229918074,-2.664202553107822,-15.753197618164664,4.073586,-2.8164701,11.491632,6.8059144,-8.401451,-0.6693409,-9.577692,-17.084648,-3.8958662,18.213968,-1.5740566,8.3712435,-2.9289868,-9.3218355,10.732446,-0.7485597,23.851389,-31.3308,56.925667,3.4519181,-0.52199113,-4.384826,-6.365127,-8.837438,22.943542,55.653244,-13.390894,9.349469,4.0815296
16,-2.57047438621521,0.025264007970690727,77.93099212646484,1.716477268778669,-2.5943772581806064,-15.715798945713583,3.991529,-2.9945295,11.450328,6.802208,-8.399861,-0.60884,-9.490455,-17.105507,-3.5659907,17.899738,-1.9883777,8.587351,-2.911699,-9.413692,10.69101,-0.80334103,23.682272,-31.344355,56.93085,3.4309342,-0.5242468,-4.3604865,-6.3697214,-8.774434,23.01444,55.58326,-13.3041525,9.292254,4.122049
17,-2.5769906044006348,-0.002117755124345422,77.8973159790039,1.8846820779984585,-2.5222570270902747,-15.656332928299742,3.905392,-3.1871545,11.393448,6.797965,-8.392847,-0.5380511,-9.321195,-17.055925,-3.0521793,17.407778,-2.3937283,9.025716,-2.9014297,-9.516237,10.646058,-0.8637575,23.514652,-31.365913,56.932175,3.4405856,-0.5296141,-4.35028,-6.373255,-8.716935,23.089645,55.5339,-13.257691,9.219249,4.1360154
18,-2.580019474029541,-0.033669352531433105,77.8602066040039,2.067066815124491,-2.450481396249717,-15.578277264642294,3.815764,-3.3973842,11.3231535,6.7969184,-8.383425,-0.45758027,-9.085112,-16.963982,-2.3978205,16.781118,-2.8146803,9.620594,-2.8961895,-9.631667,10.600091,-0.9267666,23.349049,-31.39271,56.9253,3.465979,-0.537923,-4.3486614,-6.375958,-8.663599,23.16814,55.499165,-13.234097,9.134589,4.1346974
19,-2.574951648712158,-0.07078064978122711,77.82392120361328,2.2600499684728423,-2.3780498684228104,-15.491201549009405,3.7247286,-3.6198967,11.247014,6.799443,-8.381678,-0.3698748,-8.820746,-16.84763,-1.6649934,16.091152,-3.1785812,10.267831,-2.888578,-9.75633,10.549445,-0.9883655,23.186094,-31.425285,56.90849,3.4975448,-0.54724455,-4.356042,-6.379874,-8.614912,23.250061,55.477947,-13.226211,9.059084,4.1383147
20,-2.571298599243164,-0.1089484915137291,77.78679656982422,2.4590616632413114,-2.304196803470564,-15.405051083288095,3.6362393,-3.8486595,11.172736,6.8020344,-8.395446,-0.27757388,-8.565617,-16.720316,-0.91061646,15.40688,-3.4085147,10.867924,-2.8704796,-9.885265,10.49097,-1.044898,23.026247,-31.463968,56.87933,3.5261376,-0.5556513,-4.373057,-6.386398,-8.572363,23.336159,55.4677,-13.225967,9.013835,4.1673994
21,-2.5660510063171387,-0.15331733226776123,77.74368286132812,2.6716500928270146,-2.2264547388262375,-15.321271491920651,3.5482008,-4.0911436,11.103145,6.80461,-8.430457,-0.17704202,-8.317152,-16.551594,-0.07408347,14.700061,-3.4093423,11.446641,-2.8412154,-10.025727,10.418949,-1.0941408,22.870924,-31.511175,56.83596,3.5501382,-0.5621637,-4.4059916,-6.3954096,-8.535941,23.428116,55.46903,-13.235047,9.011603,4.2303853
22,-2.5565195083618164,-0.1987088918685913,77.69965362548828,2.8978072734700615,-2.146213803468511,-15.23526998943308,3.4598181,-4.348266,11.033937,6.8094172,-8.482057,-0.0683097,-8.054279,-16.35209,0.8555077,13.94549,-3.2505515,12.041429,-2.8043077,-10.177972,10.337294,-1.1373043,22.720657,-31.56535,56.77799,3.5747147,-0.56791496,-4.4527984,-6.4058094,-8.505115,23.52526,55.481655,-13.25608,9.038762,4.3155384
23,-2.543023109436035,-0.24582810699939728,77.65190887451172,3.1190154586825862,-2.0682139342972694,-15.146084020581577,3.377216,-4.6001816,10.961015,6.8130984,-8.538899,0.040084537,-7.792502,-16.175915,1.7440493,13.216274,-3.090123,12.573169,-2.7592564,-10.323997,10.257011,-1.1773881,22.573797,-31.623419,56.70724,3.5973263,-0.5741856,-4.501035,-6.4173136,-8.482038,23.62369,55.502083,-13.28336,9.07643,4.413172
24,-2.528350353240967,-0.28807738423347473,77.6025619506836,3.3162326893798895,-1.9969760885964292,-15.053529887264517,3.3034225,-4.826044,10.880586,6.8181615,-8.593143,0.13959046,-7.5560756,-16.07402,2.456249,12.596461,-3.0823345,12.963066,-2.704695,-10.443635,10.189529,-1.2188987,22.42682,-31.683538,56.626686,3.615458,-0.58244556,-4.5381966,-6.427554,-8.46959,23.719353,55.52359,-13.310253,9.105254,4.5138803
25,-2.510136842727661,-0.3317526876926422,77.55742645263672,3.4855516189788336,-1.9295080512081855,-14.959738230761056,3.2350426,-5.021254,10.791779,6.8250747,-8.645738,0.23256366,-7.3727612,-16.052517,2.9730093,12.131101,-3.3163815,13.1345005,-2.6364038,-10.533011,10.132346,-1.2663574,22.276941,-31.748316,56.538532,3.6326876,-0.5912712,-4.5622635,-6.43225,-8.470244,23.808859,55.536415,-13.338575,9.12449,4.6370425
26,-2.4895997047424316,-0.372755765914917,77.53921508789062,3.634775290790909,-1.864545934644471,-14.864487929009783,3.1712036,-5.1941404,10.696209,6.8345246,-8.701476,0.3218126,-7.2298093,-16.075893,3.3617887,11.773794,-3.6883447,13.153837,-2.5554578,-10.598648,10.081345,-1.3193951,22.123028,-31.819418,56.44454,3.6489055,-0.6007367,-4.5789604,-6.4318595,-8.484818,23.89448,55.544144,-13.370345,9.14273,4.7807693
27,-2.461709976196289,-0.4162358045578003,77.51136779785156,3.761980894131251,-1.8092203411033414,-14.76356216109735,3.1194105,-5.3431435,10.594752,6.8444695,-8.753334,0.3993295,-7.0882244,-16.133001,3.6140916,11.462294,-4.055683,13.158576,-2.4680784,-10.636492,10.04484,-1.3751959,21.963999,-31.891756,56.34711,3.6580138,-0.61456156,-4.587643,-6.433078,-8.514007,23.981794,55.562145,-13.3985195,9.156038,4.90371
28,-2.4355685710906982,-0.4506012499332428,77.47364807128906,3.8662670874852165,-1.7705214172640837,-14.652889945945578,3.086205,-5.4674625,10.488421,6.8537855,-8.794099,0.45716053,-6.9072237,-16.215937,3.7197285,11.132951,-4.275242,13.284733,-2.381092,-10.643648,10.030633,-1.4303302,21.798967,-31.960493,56.248436,3.6529698,-0.63626003,-4.587542,-6.4435525,-8.558779,24.077307,55.607464,-13.415555,9.160517,4.964331
29,-2.398179292678833,-0.4858919382095337,77.43871307373047,3.94812823964709,-1.7529898665062642,-14.529826867619276,3.07759,-5.568195,10.377633,6.859637,-8.8201685,0.490208,-6.6616554,-16.344671,3.619087,10.753564,-4.278671,13.610063,-2.289985,-10.619346,10.046135,-1.4954485,21.627993,-32.03342,56.14542,3.6261058,-0.6635866,-4.5830894,-6.461179,-8.620538,24.171818,55.6755,-13.421465,9.158321,4.9475923
30,-2.364302396774292,-0.5149997472763062,77.41667175292969,4.008134957032116,-1.7516281442421548,-14.397129885340313,3.0866485,-5.645201,10.262159,6.8649483,-8.835938,0.50365055,-6.376403,-16.516945,3.3363373,10.358806,-4.143894,14.049888,-2.1923828,-10.564333,10.085255,-1.5689566,21.450613,-32.110596,56.037945,3.5829797,-0.6956231,-4.5731354,-6.4808435,-8.699004,24.26422,55.756954,-13.420163,9.150551,4.877345
31,-2.3319339752197266,-0.5438017845153809,77.40577697753906,4.045349090373387,-1.7594972036148242,-14.259175289020835,3.1060119,-5.697431,10.141485,6.871908,-8.846249,0.50532997,-6.0972924,-16.683464,2.9876971,10.010606,-3.958988,14.491054,-2.1006744,-10.479752,10.134661,-1.6285087,21.265348,-32.17283,55.93472,3.5382724,-0.7385383,-4.5485754,-6.511645,-8.793507,24.377613,55.869167,-13.4069605,9.13166,4.76949
32,-2.3022286891937256,-0.5790775418281555,77.40275573730469,4.057792075002966,-1.7695945665442434,-14.11963818283484,3.1279886,-5.722564,10.015041,6.8824697,-8.855456,0.5027982,-5.8577924,-16.801256,2.6868608,9.749192,-3.817249,14.823211,-2.0284045,-10.364931,10.181912,-1.6497319,21.070074,-32.19808,55.842373,3.5083318,-0.7985479,-4.5003963,-6.5609326,-8.900904,24.535706,56.0265,-13.377543,9.0964365,4.6401973
33,-2.266561508178711,-0.607074499130249,77.40189361572266,4.033314129342901,-1.7850031089816196,-13.976943053347133,3.1539273,-5.7066827,9.877899,6.8999405,-8.860854,0.49437487,-5.664728,-16.847687,2.447367,9.594085,-3.735266,15.000033,-1.9869591,-10.206651,10.232079,-1.6225744,20.862947,-32.1768,55.76248,3.4887364,-0.8931195,-4.41085,-6.646577,-9.022156,24.762806,56.261456,-13.275003,9.019859,4.4616466
34,-2.2194252014160156,-0.6260650157928467,77.39997863769531,3.970680662869361,-1.8071143896827835,-13.832245066074943,3.185274,-5.646735,9.733784,6.9254303,-8.866021,0.47455224,-5.498541,-16.836334,2.2138987,9.516011,-3.6699355,15.000033,-1.966755,-10.003941,10.288875,-1.5609071,20.643927,-32.11881,55.692223,3.47495,-1.0138638,-4.2899084,-6.7594323,-9.156467,25.043015,56.556557,-13.120674,8.912412,4.23605
35,-2.1676042079925537,-0.6404958963394165,77.39935302734375,3.9001526625431744,-1.8284074162532995,-13.687475813489089,3.2195494,-5.5796847,9.590339,6.949211,-8.871029,0.4518188,-5.3534665,-16.813911,1.9950956,9.483075,-3.6295934,15.000033,-1.9552935,-9.789647,10.336451,-1.4763743,20.414135,-32.03368,55.635223,3.4827697,-1.1279111,-4.1694374,-6.8755374,-9.299215,25.342306,56.86397,-13.024584,8.82165,4.0228553
36,-2.1122167110443115,-0.6620655059814453,77.40247344970703,3.839945309112211,-1.8406407533480764,-13.55286015342106,3.2528174,-5.52296,9.461264,6.967723,-8.8826065,0.4289801,-5.2161293,-16.795961,1.800167,9.444811,-3.609829,15.000033,-1.9318295,-9.588229,10.358649,-1.3811398,20.176193,-31.932491,55.595676,3.5267098,-1.2023162,-4.0812874,-6.9711137,-9.443175,25.624054,57.137123,-13.098168,8.796673,3.880606
37,-2.0528781414031982,-0.6870255470275879,77.40858459472656,3.7932732987083444,-1.8416940126729517,-13.43617715969693,3.285092,-5.477584,9.357248,6.9789176,-8.901815,0.4034651,-5.0886273,-16.783913,1.6422496,9.399072,-3.6164877,15.000033,-1.8871374,-9.40561,10.348743,-1.2721114,19.9303,-31.808945,55.578842,3.6198976,-1.2248629,-4.0273085,-7.045876,-9.582346,25.89009,57.38142,-13.427912,8.86099,3.835519
38,-1.9905437231063843,-0.7024760842323303,77.40965270996094,3.751382241144513,-1.8360848946801331,-13.330076456359585,3.3186846,-5.436228,9.268462,6.985471,-8.926032,0.37515,-4.977424,-16.77179,1.5133625,9.371736,-3.65051,15.000033,-1.8337443,-9.232139,10.314861,-1.1449621,19.676418,-31.661442,55.581966,3.7508545,-1.2139692,-3.992629,-7.115003,-9.716171,26.155691,57.623955,-13.935743,8.9848385,3.8524883
39,-1.9219590425491333,-0.7211990356445312,77.41708374023438,3.714088504749177,-1.8257889238883251,-13.223098655346895,3.3519104,-5.4025903,9.178025,6.988143,-8.952951,0.3507633,-4.871283,-16.764927,1.3904854,9.3502035,-3.6989477,15.000033,-1.7813803,-9.067546,10.263984,-1.0107924,19.418592,-31.509413,55.59683,3.8956647,-1.1829027,-3.9838648,-7.1729054,-9.845955,26.39847,57.844505,-14.491689,9.137013,3.8980277
40,-1.8577449321746826,-0.7397906184196472,77.42587280273438,3.681520906821905,-1.8128231898437916,-13.10385399998806,3.3823009,-5.380793,9.069131,6.9885654,-8.980374,0.33695275,-4.758405,-16.770311,1.2503052,9.320304,-3.7477531,15.000033,-1.7371962,-8.911842,10.20491,-0.88010466,19.163322,-31.374191,55.611816,4.0299764,-1.1447927,-4.00808,-7.2123795,-9.974006,26.593927,58.018936,-14.96437,9.2866745,3.9380631
41,-1.785541296005249,-0.7551410794258118,77.43553161621094,3.653606903372471,-1.8031438161904696,-12.97193641749328,3.4165366,-5.3723974,8.938524,6.9854875,-9.005742,0.3395271,-4.631479,-16.788954,1.0892781,9.282655,-3.7968798,15.000033,-1.69903,-8.766033,10.144014,-0.7441801,18.91419,-31.250795,55.615673,4.1672835,-1.0931269,-4.072492,-7.229625,-10.102488,26.74013,58.13738,-15.351968,9.44614,3.9693289
42,-1.712196707725525,-0.7687285542488098,77.44537353515625,3.630599242121956,-1.7941463368426331,-12.832325919753128,3.4537086,-5.375076,8.794679,6.9782224,-9.030791,0.35357517,-4.496628,-16.816854,0.91818076,9.240137,-3.8507538,15.000033,-1.6631662,-8.630464,10.077225,-0.5980681,18.672234,-31.131964,55.61024,4.3133383,-1.0241191,-4.1724143,-7.2271295,-10.231855,26.847027,58.209183,-15.713382,9.625019,4.008821
43,-1.6334047317504883,-0.7816786766052246,77.45269012451172,3.611707994900389,-1.7741876022823613,-12.682128849316562,3.479009,-5.385745,8.638134,6.9695005,-9.058941,0.36930344,-4.362203,-16.854612,0.7358694,9.184681,-3.9050643,15.000033,-1.6337146,-8.503086,9.997843,-0.45812103,18.441063,-31.037071,55.604214,4.4294925,-0.9549387,-4.29659,-7.2075505,-10.3617935,26.908102,58.239437,-16.008465,9.788305,4.0514007
44,-1.559993028640747,-0.7941949367523193,77.45780181884766,3.596728848644918,-1.7315186202725414,-12.517978735045157,3.4769678,-5.401739,8.46962,6.9631042,-9.094389,0.37692216,-4.2397604,-16.895193,0.54129195,9.112339,-3.9566588,14.976929,-1.61306,-8.382947,9.899166,-0.34100783,18.225824,-30.987576,55.60565,4.476487,-0.90227383,-4.433847,-7.1736917,-10.491985,26.915709,58.233883,-16.19587,9.900986,4.0914183
45,-1.484554409980774,-0.8087067008018494,77.46022033691406,3.5882209907529847,-1.6565378430467244,-12.335693215981477,3.4366112,-5.4263496,8.285012,6.956964,-9.134968,0.37270367,-4.133483,-16.949558,0.33101025,9.012906,-4.0007553,14.991607,-1.6020011,-8.273679,9.771883,-0.24903405,18.030746,-30.98493,55.611378,4.4232025,-0.8666515,-4.600606,-7.1182003,-10.622347,26.853436,58.18101,-16.26355,9.952697,4.142377
46,-1.406877040863037,-0.8233353495597839,77.4598159790039,3.5854080516051976,-1.5576939814664077,-12.13799295820531,3.3678532,-5.4595265,8.0856085,6.951052,-9.179831,0.36174345,-4.0404196,-17.011469,0.1071316,8.897361,-4.042911,15.000033,-1.5980846,-8.175831,9.622962,-0.17106281,17.857126,-31.020227,55.613457,4.2963743,-0.8395887,-4.797027,-7.041534,-10.753107,26.729345,58.08094,-16.233093,9.962409,4.201814
47,-1.3298224210739136,-0.8383115530014038,77.45780944824219,3.5851857004543817,-1.4500501544553108,-11.932739348714971,3.289729,-5.497355,7.880021,6.9462667,-9.232798,0.34954068,-3.954152,-17.076075,-0.12207364,8.783999,-4.092057,15.000033,-1.59908,-8.083779,9.47007,-0.10395018,17.70504,-31.098564,55.61378,4.1428676,-0.82474405,-4.9870076,-6.955667,-10.883521,26.56973,57.954964,-16.11773,9.939464,4.24042
48,-1.247499704360962,-0.8561263680458069,77.4544906616211,3.5836892077076663,-1.348434966788012,-11.727709681026635,3.2203622,-5.534895,7.6769357,6.943742,-9.296811,0.34172365,-3.8695917,-17.141407,-0.34766465,8.69196,-4.156759,15.000033,-1.603287,-7.992072,9.329972,-0.044738002,17.573534,-31.224602,55.61629,4.0101075,-0.82617927,-5.1345716,-6.876267,-11.013595,26.403128,57.82881,-15.9294,9.89277,4.2283607
49,-1.1633923053741455,-0.8715969324111938,77.45149993896484,3.5812372020837544,-1.250859219590506,-11.523775570048665,3.1581228,-5.571656,7.477975,6.943885,-9.3731165,0.3421053,-3.7838755,-17.206558,-0.5709889,8.610036,-4.2327385,15.000033,-1.6100974,-7.9001985,9.201264,0.0027881116,17.462828,-31.415413,55.621765,3.8902588,-0.8512005,-5.2246146,-6.805827,-11.143263,26.22921,57.70179,-15.64042,9.815232,4.1539664
50,-1.0839221477508545,-0.8865655660629272,77.44728088378906,3.5789486558811907,-1.1510582144819288,-11.31707536517528,3.0952432,-5.6093526,7.2785573,6.945455,-9.459079,0.34706682,-3.7038977,-17.274672,-0.79449177,8.540496,-4.3209934,15.000033,-1.6206567,-7.8107767,9.076539,0.03771357,17.373,-31.663687,55.62972,3.7644658,-0.89591265,-5.2782726,-6.73788,-11.272695,26.037022,57.564667,-15.253398,9.70449,4.0347767
51,-0.99189692735672,-0.8935807943344116,77.44202423095703,3.576648669001509,-1.0590428520857014,-11.108515888413766,3.0422215,-5.6486945,7.0783315,6.9491167,-9.555654,0.35151434,-3.6324532,-17.342974,-1.0129176,8.511606,-4.4342585,15.000033,-1.6367941,-7.723179,8.964573,0.069377095,17.30154,-31.934244,55.639065,3.6655686,-0.94756234,-5.313868,-6.668211,-11.400086,25.833864,57.423023,-14.832742,9.576994,3.8854153
52,-0.9056298732757568,-0.9003551602363586,77.43507385253906,3.5725601976753194,-0.9844754665065605,-10.898406466250693,3.0100744,-5.6893344,6.876313,6.9527655,-9.661485,0.35004452,-3.571127,-17.411345,-1.2217977,8.549683,-4.5837264,15.000033,-1.6631175,-7.6361904,8.873032,0.10825926,17.244507,-32.188404,55.6502,3.6286693,-0.9935499,-5.3492675,-6.598339,-11.523348,25.631222,57.288403,-14.440711,9.449772,3.7191901
53,-0.8140127062797546,-0.9053604006767273,77.42794799804688,3.5617256408399895,-0.9340064173965632,-10.683844360170996,3.006561,-5.7255063,6.6714196,6.9584026,-9.783571,0.3364097,-3.495696,-17.474257,-1.4290702,8.625826,-4.7546353,15.000033,-1.7048675,-7.5445566,8.80531,0.15586497,17.20035,-32.42298,55.666374,3.6792433,-1.0383656,-5.3852515,-6.531153,-11.641347,25.438904,57.167313,-14.058533,9.318855,3.5203452
54,-0.719735860824585,-0.9077686071395874,77.42115783691406,3.5460465480612453,-0.9011130769349399,-10.46540538008077,3.0247068,-5.758812,6.464305,6.9647474,-9.919061,0.31504184,-3.4099922,-17.534964,-1.6349157,8.730982,-4.9432817,15.000033,-1.7606897,-7.4504657,8.755693,0.20719244,17.168953,-32.65342,55.68901,3.7947862,-1.0863676,-5.413189,-6.468808,-11.753948,25.2515,57.057053,-13.664493,9.177503,3.2876315
55,-0.6243562698364258,-0.9052807688713074,77.41117858886719,3.534780628132214,-0.8760597676131305,-10.249332309970745,3.0521152,-5.8003564,6.256836,6.9713655,-10.056702,0.29654276,-3.348455,-17.604883,-1.8263261,8.904249,-5.170201,15.000033,-1.8239304,-7.3627653,8.718745,0.2608921,17.14799,-32.871002,55.716496,3.9362757,-1.1249086,-5.436518,-6.4091573,-11.859196,25.056099,56.95329,-13.316074,9.039566,3.0557153
56,-0.5333247780799866,-0.9000218510627747,77.40038299560547,3.5374640162465605,-0.849501986547107,-10.041498689770659,3.0783143,-5.861386,6.050614,6.9753065,-10.184606,0.29144284,-3.344162,-17.695255,-1.990567,9.181163,-5.4539533,15.000033,-1.8892597,-7.2908816,8.687915,0.31558153,17.134018,-33.066013,55.749664,4.0651617,-1.1413689,-5.4585238,-6.3526816,-11.9549465,24.840685,56.8561,-13.071378,8.920451,2.858417
57,-0.4368860125541687,-0.8928918242454529,77.39190673828125,3.545169486402873,-0.8170691096006555,-9.842869759115802,3.0965195,-5.9301124,5.8430753,6.9795547,-10.30037,0.29853305,-3.3278263,-17.779348,-2.145719,9.412098,-5.7253866,14.8607645,-1.9558638,-7.2269135,8.658281,0.37194037,17.124172,-33.23714,55.791225,4.1945095,-1.1301266,-5.4787693,-6.2959027,-12.038488,24.590523,56.76606,-12.967599,8.814535,2.7044768
58,-0.34489694237709045,-0.88814377784729,77.38309478759766,3.55747321821499,-0.7845701154143719,-9.650489872187825,3.1144245,-6.006611,5.6344266,6.9840293,-10.410428,0.31390184,-3.30935,-17.867798,-2.290681,9.633748,-6.0017343,14.681048,-2.0575767,-7.176489,8.623323,0.45246804,17.120686,-33.351475,55.836956,4.3471675,-1.0990843,-5.496487,-6.2802925,-12.082945,24.35416,56.73117,-12.959982,8.718981,2.566234
59,-0.25561296939849854,-0.8789284229278564,77.37195587158203,3.576385053736804,-0.7534100496243645,-9.479937702839075,3.1366432,-6.0885906,5.4424906,6.9876904,-10.518925,0.33382553,-3.4182057,-17.956837,-2.3759234,10.093792,-6.394204,14.404596,-2.091943,-7.1293454,8.612223,0.48373216,17.118952,-33.514942,55.913956,4.4584537,-1.0548378,-5.509918,-6.219757,-12.148399,24.049433,56.64793,-13.013014,8.648168,2.4562037
60,-0.1692904233932495,-0.8687294125556946,77.359619140625,3.602527173870324,-0.7243320384141649,-9.349551253656363,3.1664736,-6.1700892,5.2876325,6.9900546,-10.630465,0.35338077,-3.7680721,-18.035995,-2.352902,11.004207,-6.9953327,13.960989,-2.128679,-7.098459,8.6071,0.5267172,17.122032,-33.620834,55.996143,4.5176487,-1.0059745,-5.524905,-6.2074714,-12.190944,23.812021,56.60438,-13.046002,8.622435,2.348233
61,-0.0855158120393753,-0.859406590461731,77.34494018554688,3.6434802019124173,-0.6934483004511266,-9.25999161040702,3.198236,-6.2606945,5.1686625,6.9917917,-10.741451,0.3752962,-4.3957033,-18.119112,-2.198737,12.430487,-7.8531156,13.320393,-2.1363866,-7.0915766,8.610356,0.55722994,17.129698,-33.700203,56.100533,4.481004,-0.9509764,-5.537082,-6.2253056,-12.219454,23.6157,56.5894,-13.049777,8.66249,2.2263074
62,-0.001677584950812161,-0.8522456288337708,77.32593536376953,3.6999557622739996,-0.6622858382925627,-9.20220461089236,3.233165,-6.363845,5.076656,6.9917727,-10.850742,0.40141797,-5.216135,-18.209778,-1.9396795,14.211002,-8.889905,12.519711,-2.1063695,-7.1052,8.627681,0.5679148,17.144146,-33.774704,56.224052,4.372135,-0.8864386,-5.546573,-6.24764,-12.243721,23.422188,56.57566,-13.060016,8.752792,2.1057801
63,0.08720820397138596,-0.8531656861305237,77.30818176269531,3.761025549029617,-0.6391822721425919,-9.18012047696016,3.283915,-6.4642,5.020651,6.990394,-10.967947,0.42544004,-6.139602,-18.282547,-1.6074741,16.177446,-9.996066,11.589333,-2.052915,-7.129534,8.663964,0.5713155,17.168346,-33.838966,56.351048,4.249303,-0.81723756,-5.5596633,-6.2794023,-12.262852,23.23873,56.55685,-13.089938,8.855912,2.022357
64,0.17881888151168823,-0.8537411689758301,77.28959655761719,3.8150094656896503,-0.6323529552716715,-9.1979319384631,3.3612816,-6.5449805,5.009799,6.991094,-11.104622,0.4408765,-7.0838485,-18.314411,-1.2362272,18.177986,-11.067013,10.561486,-1.9860592,-7.1527905,8.725202,0.5774548,17.205345,-33.890972,56.465477,4.170696,-0.7479284,-5.5826817,-6.3205605,-12.273631,23.066734,56.520878,-13.154137,8.933876,2.012747
65,0.2638712525367737,-0.856928825378418,77.26842498779297,3.8569869327808255,-0.6460562063901251,-9.26512243866485,3.4712453,-6.5990434,5.056294,6.9931164,-11.264947,0.44271362,-8.078066,-18.290213,-0.79809165,20.290781,-12.149996,9.312739,-1.9133122,-7.1666565,8.812192,0.58811635,17.23965,-33.909386,56.575226,4.1627207,-0.6747974,-5.6243973,-6.3854775,-12.274471,22.919111,56.479828,-13.289896,8.978314,2.1205225
66,0.3497028350830078,-0.8665995001792908,77.25167083740234,3.894399294897536,-0.6754851546594004,-9.376177204316301,3.6070638,-6.6368737,5.151519,6.9953327,-11.44442,0.43539006,-9.144775,-18.217505,-0.2850895,22.551832,-13.271574,7.867976,-1.7956016,-7.1890197,8.936508,0.6003046,17.317125,-33.93804,56.647327,4.176351,-0.5937958,-5.683066,-6.445093,-12.264487,22.741776,56.40751,-13.496028,9.005647,2.3213437
67,0.442629873752594,-0.8755706548690796,77.23390197753906,3.9315832664487247,-0.7143339621457826,-9.514047889330449,3.760757,-6.6659403,5.2745442,6.998943,-11.634019,0.4266257,-10.19259,-18.108284,0.22802441,24.747948,-14.301231,6.486012,-1.6857468,-7.217599,9.071828,0.6197025,17.402643,-33.947052,56.71792,4.2046,-0.5193789,-5.737437,-6.524889,-12.243716,22.604826,56.336937,-13.671221,9.024473,2.5267053
68,0.5409398078918457,-0.8938764929771423,77.21986389160156,3.9699077907993496,-0.7557044433591971,-9.661845959357292,3.9254103,-6.6905904,5.404096,7.0012584,-11.827695,0.4235719,-11.144029,-17.975845,0.6609745,26.694529,-15.118459,5.42685,-1.582122,-7.2586193,9.210159,0.6383983,17.50566,-33.967827,56.79245,4.219762,-0.46240932,-5.7692556,-6.6127205,-12.210299,22.49936,56.264236,-13.741882,9.040412,2.6572933
69,0.6377155184745789,-0.91136234998703,77.19993591308594,4.0131651784897375,-0.8066656493653704,-9.830076300813262,4.109117,-6.713014,5.54757,7.003201,-12.028087,0.42865443,-12.000924,-17.8322,0.9901877,28.411833,-15.707735,4.7723994,-1.4739853,-7.317046,9.3607025,0.6506267,17.624723,-34.002594,56.87429,4.2187066,-0.4286513,-5.776128,-6.7138643,-12.165688,22.430426,56.18958,-13.657647,9.060639,2.6803513
70,0.7459606528282166,-0.9429106712341309,77.18387603759766,4.05681322681867,-0.8674196328270847,-10.02329940561762,4.312128,-6.7278996,5.7121773,7.005435,-12.237746,0.43746448,-12.81437,-17.671225,1.2532171,30.011805,-16.141897,4.381833,-1.3581277,-7.386906,9.526124,0.6592389,17.760906,-34.04436,56.95698,4.2120914,-0.41093075,-5.7672896,-6.8275394,-12.110407,22.39077,56.11037,-13.470547,9.080091,2.642983
71,0.8543734550476074,-0.9771085977554321,77.17333221435547,4.0910808202573925,-0.9207692444838887,-10.215663852229929,4.513762,-6.728143,5.876406,7.0074525,-12.450037,0.44707832,-13.584393,-17.478806,1.4583911,31.453901,-16.436953,4.183632,-1.2601589,-7.4550605,9.682237,0.6719114,17.912169,-34.094658,57.042957,4.1989026,-0.40177768,-5.740067,-6.9402328,-12.044996,22.373661,56.02685,-13.256148,9.087414,2.5834646
72,0.9718683362007141,-1.021490216255188,77.1645278930664,4.106379222354058,-0.94988651132789,-10.381378930981178,4.6924434,-6.7073417,6.0191283,7.0106516,-12.659018,0.45482484,-14.312349,-17.241348,1.616262,32.69822,-16.605434,4.1084433,-1.2049912,-7.5085616,9.804713,0.6950977,18.074057,-34.15465,57.13717,4.179164,-0.39376205,-5.6919065,-7.038505,-11.969699,22.371962,55.939198,-13.089051,9.072061,2.540343
73,1.0985798835754395,-1.0700637102127075,77.15900421142578,4.101911714551392,-0.9477742902790038,-10.520336617513745,4.8410373,-6.663913,6.1427207,7.0150347,-12.866615,0.45794472,-14.992572,-16.941864,1.7382853,33.71387,-16.620525,4.2157288,-1.1969174,-7.5456185,9.8827095,0.7283462,18.244118,-34.234383,57.246014,4.1308546,-0.39070782,-5.6026278,-7.121406,-11.885372,22.393496,55.851395,-12.982594,9.021779,2.5160096
74,1.236485481262207,-1.1193575859069824,77.15386199951172,4.082039813263554,-0.9245470035866821,-10.643820641870208,4.972636,-6.601503,6.255729,7.0186625,-13.074454,0.45865822,-15.627902,-16.59096,1.8129554,34.529274,-16.486458,4.5232477,-1.2228304,-7.571896,9.930412,0.7659874,18.421474,-34.330475,57.369175,4.062374,-0.3949745,-5.4796686,-7.19404,-11.792061,22.438305,55.76112,-12.898417,8.945213,2.4927173
75,1.3856289386749268,-1.1683019399642944,77.15103912353516,4.047189382850546,-0.8889943767295647,-10.743751890665663,5.093702,-6.522665,6.346777,7.0231023,-13.276759,0.4619833,-16.226385,-16.220524,1.8185582,35.180523,-16.259436,4.8971305,-1.2824907,-7.5893087,9.959357,0.8044796,18.60373,-34.426487,57.506596,4.0156198,-0.39684644,-5.361413,-7.254713,-11.690982,22.487679,55.664337,-12.837842,8.864309,2.4784825
76,1.542535662651062,-1.2214806079864502,77.15087890625,3.9976080208910076,-0.850186472920208,-10.811327268652589,5.212238,-6.429956,6.404133,7.028762,-13.468332,0.47293645,-16.795927,-15.868561,1.7350315,35.703102,-15.991337,5.199045,-1.375307,-7.598543,9.98138,0.84012824,18.78723,-34.505665,57.658123,4.0332,-0.38656583,-5.2859087,-7.2976427,-11.582702,22.519154,55.552883,-12.805655,8.800412,2.4815245
77,1.7073442935943604,-1.2809813022613525,77.15750885009766,3.9280448670555645,-0.8080504401531201,-10.833669888297061,5.326779,-6.3178763,6.414771,7.0353303,-13.643719,0.49608797,-17.32457,-15.5374565,1.5412273,36.081387,-15.643345,5.4115047,-1.5136104,-7.5965395,9.993113,0.8703001,18.970078,-34.568523,57.84187,4.1473985,-0.3686409,-5.2677517,-7.3217864,-11.467322,22.535667,55.426968,-12.803141,8.7640705,2.5003645
78,1.8802599906921387,-1.342311978340149,77.163818359375,3.8402684304805383,-0.7586258970005896,-10.818800056837693,5.4342384,-6.187254,6.388142,7.0428205,-13.807054,0.5278755,-17.812258,-15.214719,1.2559222,36.300797,-15.202187,5.5991592,-1.693085,-7.583124,9.990211,0.8960498,19.15146,-34.622585,58.05461,4.3294067,-0.34611976,-5.2848177,-7.328264,-11.344519,22.544813,55.288578,-12.829102,8.74206,2.5318449
79,2.0555644035339355,-1.409090280532837,77.17063903808594,3.7470755168768166,-0.7049035435439636,-10.79029831342413,5.54078,-6.0522094,6.3465858,7.0501866,-13.966394,0.5613318,-18.277182,-14.910127,0.91548586,36.38712,-14.74981,5.743298,-1.8889832,-7.5667796,9.982338,0.9161975,19.32962,-34.663063,58.2692,4.527992,-0.30690733,-5.320383,-7.322103,-11.217244,22.53795,55.141266,-12.877591,8.721112,2.5812418
80,2.2427937984466553,-1.4802041053771973,77.17658996582031,3.6607318348127613,-0.6499503547552179,-10.771468078835609,5.6508646,-5.925572,6.3123474,7.0580716,-14.130007,0.58912265,-18.737627,-14.635176,0.55541384,36.36954,-14.369907,5.8250575,-2.076001,-7.5546412,9.979125,0.9299873,19.502007,-34.685345,58.45813,4.692912,-0.2387451,-5.3574505,-7.306711,-11.090746,22.50618,54.98599,-12.942836,8.687695,2.6541479
81,2.432002067565918,-1.5456937551498413,77.17826080322266,3.580479645070959,-0.5934065241411968,-10.766276584885519,5.7636666,-5.807333,6.288647,7.065957,-14.301412,0.6045712,-19.193783,-14.390393,0.17837462,36.239525,-14.1014185,5.8272686,-2.2509089,-7.5442457,9.981021,0.93571323,19.665554,-34.68798,58.621857,4.8078218,-0.12926453,-5.390152,-7.276918,-10.969133,22.449127,54.814163,-13.0527315,8.628176,2.7636464
82,2.6281185150146484,-1.614753007888794,77.1795883178711,3.5012202088898543,-0.5339739610515445,-10.762934072664384,5.8777523,-5.691764,6.2644367,7.0727262,-14.475229,0.61295956,-19.633696,-14.168551,-0.2342362,35.983585,-13.892326,5.7627535,-2.4250927,-7.5312734,9.984279,0.93176067,19.81885,-34.6747,58.775024,4.901153,0.011580511,-5.427873,-7.228489,-10.852785,22.36975,54.62211,-13.20035,8.552987,2.9036715
83,2.8325254917144775,-1.682937741279602,77.17705535888672,3.4283524915182677,-0.47367232154216954,-10.761216971425446,5.995618,-5.5832753,6.2406106,7.0808187,-14.648067,0.62493724,-20.05961,-13.975848,-0.6774312,35.626247,-13.691933,5.6586947,-2.5954947,-7.520908,9.991614,0.91691303,19.96282,-34.64957,58.912468,4.987916,0.16322403,-5.4766116,-7.1696653,-10.742777,22.26573,54.42376,-13.325817,8.484713,3.0511026
84,3.0365169048309326,-1.7562685012817383,77.1715316772461,3.367292724876398,-0.4145758484646629,-10.761248296439804,6.1213207,-5.486658,6.2181134,7.0895643,-14.815091,0.65137523,-20.47427,-13.814945,-1.1462085,35.192997,-13.449783,5.54197,-2.7581928,-7.517911,10.006911,0.8909266,20.099924,-34.617104,59.025417,5.082776,0.30496457,-5.542762,-7.1044264,-10.63824,22.131609,54.226936,-13.37172,8.44645,3.1836545
85,3.2539222240448,-1.8386460542678833,77.15746307373047,3.3201937571480857,-0.35757415539363546,-10.767287411640366,6.2577295,-5.4044137,6.2002687,7.0974045,-14.972617,0.7045163,-20.880367,-13.695528,-1.6518152,34.68322,-13.161673,5.396926,-2.9078748,-7.525172,10.034667,0.85430354,20.2314,-34.56722,59.108673,5.1982183,0.44183075,-5.640193,-7.034014,-10.538298,21.958479,54.021908,-13.314573,8.4573145,3.3056412
86,3.473248243331909,-1.916977047920227,77.14192199707031,3.2838907240190762,-0.30150789572092473,-10.777931404674767,6.401265,-5.333488,6.185656,7.106095,-15.124101,0.7755878,-21.273914,-13.609168,-2.1944866,34.084385,-12.8517475,5.2176666,-3.0479054,-7.540459,10.071793,0.8081977,20.357635,-34.501247,59.16558,5.3235536,0.58151805,-5.7618437,-6.9564395,-10.443365,21.751413,53.808475,-13.188724,8.50111,3.4256158
87,3.7026517391204834,-2.0005602836608887,77.12066650390625,3.2561479592855607,-0.24519116044506767,-10.78456423533205,6.5512033,-5.2714095,6.167251,7.11438,-15.274319,0.84399104,-21.647728,-13.5386505,-2.7514157,33.4044,-12.51093,5.045589,-3.1877017,-7.5602965,10.110943,0.75323296,20.480633,-34.44113,59.200813,5.437498,0.7067158,-5.8820086,-6.8714967,-10.353611,21.527311,53.609077,-13.0201,8.54785,3.5276814
88,3.9422483444213867,-2.0879766941070557,77.09651947021484,3.23433918458394,-0.18755022351523112,-10.778067226472997,6.704913,-5.21443,6.138023,7.122706,-15.427735,0.88892967,-21.996735,-13.466995,-3.2989464,32.652317,-12.129936,4.9214377,-3.336571,-7.581449,10.144631,0.6903137,20.603405,-34.40903,59.218777,5.5182195,0.80034584,-5.9750423,-6.778733,-10.269851,21.301651,53.44718,-12.837499,8.567368,3.5959718
89,4.185353755950928,-2.1784040927886963,77.06280517578125,3.2216430547367048,-0.13006583086963952,-10.760178613820957,6.8643446,-5.1662807,6.1002107,7.131415,-15.585381,0.90481305,-22.318102,-13.402162,-3.8459072,31.820637,-11.702937,4.846911,-3.496,-7.606835,10.172544,0.62131846,20.728903,-34.413506,59.21503,5.554372,0.85728496,-6.0355725,-6.677226,-10.19237,21.075115,53.325207,-12.619517,8.5473385,3.6199954
90,4.439542770385742,-2.2716503143310547,77.0234375,3.2182151823454523,-0.07300733901106433,-10.7340384965618,7.030173,-5.1273665,6.055967,7.139292,-15.74413,0.9027687,-22.613476,-13.345981,-4.4004326,30.90394,-11.233438,4.803593,-3.6612852,-7.637496,10.198839,0.5466943,20.857992,-34.442493,59.185436,5.558156,0.887124,-6.0771027,-6.5667853,-10.12108,20.839983,53.23059,-12.360738,8.505077,3.6107237
91,4.704808235168457,-2.3732454776763916,76.98379516601562,3.218404749180562,-0.012984643864051845,-10.692767968296822,7.198388,-5.090597,5.998324,7.1477084,-15.905276,0.88721585,-22.886114,-13.283811,-4.9331784,29.917421,-10.727072,4.802137,-3.8327236,-7.668381,10.222766,0.4665062,20.989819,-34.485645,59.133774,5.54533,0.89536893,-6.1019335,-6.449057,-10.056353,20.60093,53.16464,-12.110969,8.454645,3.5845082
92,4.979417324066162,-2.47601056098938,76.94229125976562,3.2168625450443864,0.052827770757344426,-10.630046945094291,7.3648305,-5.049654,5.9204917,7.156932,-16.069103,0.86294234,-23.140095,-13.198187,-5.4144244,28.876102,-10.189126,4.852344,-4.010675,-7.6947694,10.243454,0.37947094,21.1224,-34.533554,59.065678,5.5307107,0.8872948,-6.112198,-6.3266964,-9.999012,20.363676,53.12937,-11.918954,8.410732,3.5575218
93,5.262603282928467,-2.584084987640381,76.90103912353516,3.215039337633888,0.1280595002098055,-10.539182334731535,7.525479,-5.006393,5.8160415,7.1664295,-16.234163,0.8374565,-23.374243,-13.088108,-5.8319726,27.759722,-9.58747,4.9743896,-4.201429,-7.7172623,10.258403,0.28350046,21.254833,-34.584576,58.98254,5.5173163,0.8563461,-6.1051965,-6.197807,-9.949018,20.128359,53.118324,-11.801504,8.373058,3.5315735
94,5.555355548858643,-2.6989078521728516,76.85318756103516,3.2157955743351523,0.20976675788581614,-10.424665686830647,7.6833487,-4.964027,5.68963,7.176825,-16.400755,0.80647653,-23.586992,-12.964317,-6.200371,26.566603,-8.9282055,5.1563654,-4.403749,-7.7387815,10.268721,0.1795121,21.387089,-34.64349,58.883133,5.4973726,0.8023077,-6.080692,-6.063454,-9.907138,19.894184,53.13495,-11.729968,8.335192,3.498532
95,5.855797290802002,-2.8157150745391846,76.8019790649414,3.215656442147743,0.2905467536019274,-10.296104050158005,7.8488116,-4.9178886,5.550376,7.1872888,-16.572294,0.7567091,-23.77327,-12.828934,-6.53244,25.324083,-8.2711115,5.3602614,-4.6072626,-7.755317,10.279987,0.07040077,21.517504,-34.70797,58.767838,5.4725122,0.73987687,-6.044926,-5.9238915,-9.873199,19.661251,53.18825,-11.689199,8.302801,3.460271
96,6.173083782196045,-2.9338817596435547,76.74583435058594,3.210955504005718,0.36374080929892744,-10.163097715291784,8.031732,-4.8632684,5.407962,7.1968966,-16.752056,0.67469877,-23.934828,-12.683823,-6.840705,24.072596,-7.677105,5.5479527,-4.8016806,-7.7628264,10.297108,-0.04077434,21.643333,-34.775673,58.638912,5.4441423,0.6836679,-6.0038,-5.779882,-9.846789,19.429693,53.28831,-11.665089,8.281796,3.418523
97,6.4986252784729,-3.054497480392456,76.68965148925781,3.1995733387059753,0.42946000436547754,-10.022105842501073,8.230804,-4.79676,5.261526,7.2054152,-16.942095,0.5439205,-24.069181,-12.527293,-7.1285796,22.806028,-7.1824436,5.710878,-4.9876723,-7.7594786,10.3195505,-0.15763494,21.762337,-34.850132,58.4984,5.415677,0.63573825,-5.952708,-5.630575,-9.82847,19.198898,53.444073,-11.650475,8.27111,3.3728344
98,6.837007999420166,-3.184136390686035,76.62926483154297,3.185324758147032,0.49009303555010936,-9.868792746023502,8.442864,-4.722785,5.1063895,7.21392,-17.141123,0.3758894,-24.175703,-12.362943,-7.3891525,21.507889,-6.747009,5.86824,-5.170568,-7.748326,10.345409,-0.2823534,21.873655,-34.932407,58.348324,5.3851333,0.58861345,-5.8902173,-5.4750104,-9.818246,18.96833,53.647686,-11.654375,8.268922,3.3227324
99,7.176542282104492,-3.317868232727051,76.56315612792969,3.1724719806082793,0.5417493830953934,-9.71203428840471,8.6736355,-4.6475134,4.946281,7.2213273,-17.343512,0.19926423,-24.254292,-12.197923,-7.621855,20.194965,-6.3152337,6.0241594,-5.346843,-7.733176,10.376956,-0.40910324,21.976948,-35.013443,58.19034,5.348122,0.54311866,-5.8270416,-5.3172116,-9.815515,18.741146,53.88872,-11.684417,8.278491,3.2687058
100,7.532476425170898,-3.4512243270874023,76.49732208251953,3.1654858559619594,0.5809042890003012,-9.56120922014118,8.928743,-4.5769954,4.785177,7.2276826,-17.544706,0.042744737,-24.305838,-12.038229,-7.8253074,18.885864,-5.8326354,6.1833673,-5.513247,-7.718057,10.4161,-0.53174,22.072527,-35.083977,58.026356,5.299847,0.50008625,-5.7738605,-5.1623454,-9.819428,18.521053,54.157356,-11.747976,8.303546,3.2113214
101,7.8974151611328125,-3.5959150791168213,76.42640686035156,3.1681582086731437,0.6063844468815733,-9.41884984166814,9.2073555,-4.517137,4.6206627,7.2348747,-17.73719,-0.07121754,-24.336798,-11.884752,-7.9841347,17.584093,-5.2890034,6.3442574,-5.66971,-7.7073207,10.462436,-0.6537779,22.155104,-35.137535,57.86396,5.2406645,0.45926425,-5.731093,-5.015569,-9.829496,18.315151,54.462746,-11.840581,8.341571,3.139327
102,8.270098686218262,-3.7383005619049072,76.35069274902344,3.1781527379740133,0.6197195244351684,-9.279509160757753,9.5079775,-4.4640203,4.451025,7.241961,-17.925468,-0.16265322,-24.345493,-11.735744,-8.103486,16.282948,-4.7136683,6.5054893,-5.833697,-7.6967406,10.506889,-0.77889526,22.204712,-35.16461,57.723553,5.1801305,0.41862586,-5.6910295,-4.886314,-9.840334,18.13948,54.824684,-11.955865,8.393066,3.0514524
103,8.658806800842285,-3.8832943439483643,76.2734146118164,3.1882254849676546,0.6216754156915194,-9.14081334390923,9.8323,-4.406538,4.2814407,7.247521,-18.123814,-0.26712856,-24.318977,-11.590428,-8.214418,14.98346,-4.109043,6.6723647,-5.9609885,-7.6834025,10.571038,-0.90219045,22.279171,-35.221764,57.544224,5.096592,0.38300684,-5.662451,-4.7314057,-9.863291,17.922853,55.17789,-12.120133,8.461385,2.9823053
104,9.060920715332031,-4.030547142028809,76.19001770019531,3.1916677850884345,0.6131984604271454,-9.000146188437819,10.181772,-4.334214,4.1174207,7.25269,-18.349176,-0.41991723,-24.246424,-11.447801,-8.347805,13.6895685,-3.4787862,6.8505,-6.1188974,-7.6556044,10.625716,-1.0031464,22.325848,-35.24665,57.374454,5.013634,0.34750324,-5.640737,-4.600179,-9.882503,17.741837,55.573463,-12.322796,8.556711,2.9355335
105,9.474905967712402,-4.183058261871338,76.10033416748047,3.1867514505983054,0.5891185664186984,-8.861559700804374,10.563989,-4.245499,3.9636593,7.2560735,-18.609442,-0.63749087,-24.119743,-11.305603,-8.505197,12.388842,-2.7893808,7.055487,-6.2656517,-7.6116,10.69262,-1.0931339,22.37126,-35.283417,57.186268,4.9101977,0.31885037,-5.6307006,-4.463462,-9.906439,17.539036,55.98348,-12.583453,8.68311,2.9306695
106,9.900313377380371,-4.341405868530273,76.009765625,3.177298136715252,0.5513336653770595,-8.72443520071805,10.97546,-4.145613,3.8163893,7.257559,-18.894955,-0.8986867,-23.945564,-11.163767,-8.6723585,11.079795,-2.048041,7.2801437,-6.3838925,-7.5548887,10.780192,-1.1738222,22.435513,-35.347107,56.95626,4.780327,0.2976615,-5.6335464,-4.299718,-9.947769,17.298866,56.37973,-12.8980875,8.834575,2.9624603
107,10.337248802185059,-4.504100799560547,75.91364288330078,3.1633512637794823,0.5121416710453973,-8.579837316104696,11.398523,-4.033035,3.6700315,7.2595243,-19.192684,-1.1823629,-23.73027,-11.02187,-8.858391,9.770635,-1.3130785,7.4954057,-6.529401,-7.4891696,10.852742,-1.2334498,22.484066,-35.38155,56.729557,4.6585355,0.27173308,-5.6425414,-4.152138,-9.986902,17.0902,56.800182,-13.24673,9.002043,3.0064003
108,10.77637767791748,-4.664780139923096,75.8134765625,3.1441487897530624,0.4839615245578625,-8.419947527388251,11.816934,-3.906329,3.5196698,7.2622657,-19.489632,-1.467344,-23.481216,-10.879105,-9.072236,8.471251,-0.64404196,7.6716638,-6.688957,-7.4142604,10.903002,-1.2855685,22.523994,-35.405426,56.511166,4.555255,0.2330432,-5.656057,-4.000471,-10.0273075,16.895767,57.20489,-13.626795,9.172603,3.0571353
109,11.233637809753418,-4.835117816925049,75.71197509765625,3.1257804599364185,0.46588938484878334,-8.242524049007418,12.2334585,-3.7712772,3.3663235,7.2636247,-19.786062,-1.7607993,-23.153397,-10.739012,-9.335295,7.0790973,-0.036927618,7.815612,-6.878612,-7.3407145,10.919051,-1.3236251,22.548948,-35.40549,56.314144,4.483071,0.17274098,-5.678158,-3.8615856,-10.059272,16.738531,57.629753,-14.048214,9.34216,3.1166646
110,11.696771621704102,-5.004726409912109,75.60950469970703,3.1045551897630013,0.45412275726042556,-8.054060334462687,12.653838,-3.6247816,3.2145514,7.2659497,-20.090519,-2.0696912,-23.294024,-10.683215,-9.536991,6.7504845,-0.060106155,7.9366317,-7.0557866,-7.2568274,10.930253,-1.3581707,22.581028,-35.41637,56.099915,4.423307,0.101005025,-5.7122016,-3.6876924,-10.108315,16.561598,58.011757,-14.52497,9.516645,3.2023287
111,12.170023918151855,-5.178456783294678,75.5025863647461,3.0660883803200383,0.4574755934304241,-7.858545473466895,13.063787,-3.4521654,3.0634143,7.26923,-20.393194,-2.3728473,-23.524904,-10.627948,-9.728615,6.6950383,-0.2172591,8.010854,-7.2584953,-7.1555543,10.911995,-1.3781534,22.599508,-35.402462,55.901573,4.3679805,0.026828337,-5.7414474,-3.5361564,-10.143952,16.421705,58.399624,-15.0067,9.702054,3.2773075
112,12.653450965881348,-5.359407424926758,75.3982162475586,2.9943187162797247,0.48489192438806367,-7.6624871657463185,13.448805,-3.2368836,2.914909,7.2770233,-20.687014,-2.6493785,-23.720276,-10.522471,-9.911978,6.6530943,-0.29188445,8.013535,-7.423852,-6.9973283,10.903313,-1.4051781,22.633156,-35.413086,55.66397,4.2908854,-0.034667052,-5.7627206,-3.3345358,-10.22696,16.230703,58.6592,-15.481863,9.897881,3.353724
113,13.144050598144531,-5.539409637451172,75.29631042480469,2.8927643481469083,0.539612959533155,-7.4657020447032165,13.805974,-2.9841943,2.7638261,7.2877336,-20.976807,-2.8902566,-23.889692,-10.373688,-10.127863,6.623584,-0.32831648,7.94879,-7.619161,-6.8152995,10.858335,-1.4253026,22.64424,-35.390038,55.460667,4.1933455,-0.08196599,-5.7550197,-3.1786177,-10.27186,16.079462,58.919434,-15.945474,10.127997,3.386346
114,13.636148452758789,-5.714897632598877,75.19801330566406,2.76550672269137,0.6173702040809982,-7.2680735175245665,14.141638,-2.697329,2.614255,7.3018656,-21.264856,-3.1083724,-24.031586,-10.188138,-10.371738,6.6025295,-0.34364548,7.825881,-7.8178067,-6.6068463,10.7905855,-1.4456185,22.647924,-35.362896,55.271164,4.076071,-0.12049442,-5.729076,-3.0280519,-10.303846,15.939996,59.14434,-16.41128,10.384267,3.3966336
115,14.13676929473877,-5.898691177368164,75.11585998535156,2.5954403892211637,0.7161527829403594,-7.07609404277208,14.458905,-2.355972,2.4815328,7.3198996,-21.537998,-3.3163364,-24.127262,-9.9324465,-10.555197,6.592081,-0.22326677,7.627802,-7.956049,-6.3217716,10.741819,-1.4935086,22.647886,-35.36776,55.060898,3.966495,-0.15461896,-5.710608,-2.818158,-10.392737,15.722234,59.244476,-16.872505,10.626777,3.426119
116,14.634979248046875,-6.083152770996094,75.0423355102539,2.36596151325741,0.833781324258721,-6.895665594514312,14.760685,-1.9399962,2.380961,7.3420115,-21.782333,-3.5273728,-24.157478,-9.572323,-10.5905,6.590145,0.15162794,7.3391957,-8.110355,-5.976794,10.66342,-1.5152618,22.637661,-35.33948,54.864872,3.8892546,-0.18875492,-5.7026153,-2.644549,-10.459197,15.57421,59.359592,-17.246809,10.838991,3.4314916
117,15.14284610748291,-6.2684478759765625,74.9822769165039,2.04974859859516,0.9852339805001835,-6.724516630284481,15.030879,-1.4189198,2.3227627,7.3690615,-22.021801,-3.7419262,-24.113764,-9.052909,-10.388082,6.5981536,0.89099056,6.9073644,-8.254766,-5.53025,10.561528,-1.5270205,22.619267,-35.297657,54.66736,3.8696525,-0.2224774,-5.7254763,-2.4804237,-10.523136,15.448376,59.449314,-17.565393,11.023409,3.4300904
118,15.647314071655273,-6.455862522125244,74.92839050292969,1.665169604032201,1.161991081251889,-6.556756040727594,15.278384,-0.8143167,2.2928395,7.402693,-22.255981,-3.953984,-24.004913,-8.408084,-10.020923,6.6170363,1.9121339,6.3717647,-8.380882,-4.9754043,10.456874,-1.5485297,22.568233,-35.255432,54.473106,3.89055,-0.25606272,-5.7691035,-2.2814686,-10.644544,15.3204,59.44891,-17.8374,11.187241,3.438344
119,16.170021057128906,-6.641336441040039,74.86766815185547,1.2653319034344486,1.3264364526530288,-6.392153490379998,15.544036,-0.18512334,2.269966,7.4419074,-22.432121,-4.167082,-24.069529,-7.7793546,-9.611759,7.144295,2.7742858,5.848152,-8.507441,-4.3945737,10.362256,-1.5701535,22.490553,-35.198723,54.30901,3.913221,-0.29084364,-5.8023133,-2.084369,-10.778313,15.220474,59.422752,-18.01971,11.312472,3.4310632
120,16.713281631469727,-6.832643032073975,74.80216217041016,0.8980596105642528,1.445032846168595,-6.234956264572833,15.8627825,0.41549346,2.239122,7.489122,-22.498873,-4.3858705,-24.604885,-7.3100333,-9.280071,8.802063,2.9633842,5.433444,-8.626422,-3.8578837,10.302501,-1.5876632,22.403685,-35.125202,54.177906,3.9007316,-0.32696906,-5.7988553,-1.9013258,-10.89892,15.137471,59.39755,-18.085705,11.37735,3.3959692
121,17.258258819580078,-7.03990364074707,74.74699401855469,0.5709293389075895,1.5142177940135968,-6.069278113616616,16.238066,0.98281765,2.1930482,7.540385,-22.459145,-4.6048827,-25.001514,-6.939457,-9.145746,10.304377,3.1724436,5.154705,-8.744847,-3.3749216,10.280565,-1.6080292,22.32054,-35.05382,54.07123,3.8340206,-0.36003396,-5.752986,-1.7261574,-11.002254,15.055589,59.364613,-18.004354,11.359956,3.331265
122,17.80465316772461,-7.252737045288086,74.70928192138672,0.2578001545730994,1.5507136730457767,-5.8961484759185145,16.65109,1.544568,2.1404471,7.599597,-22.335447,-4.8246565,-25.3398,-6.635119,-9.1153755,11.83469,3.3782148,4.943558,-8.86188,-2.9064286,10.286343,-1.6329429,22.228603,-34.982437,53.98768,3.7359989,-0.39134586,-5.6790695,-1.5482894,-11.109701,14.977306,59.30521,-17.80144,11.276133,3.2461119
123,18.353172302246094,-7.478453159332275,74.68363952636719,-0.04985631945389444,1.5548235966530435,-5.746508759242317,17.049973,2.1057816,2.0912526,7.7826552,-22.167805,-5.0604606,-25.592194,-6.3539014,-9.170193,13.316526,3.5124633,4.741781,-8.962852,-2.4527924,10.320538,-1.6309708,22.134588,-34.872005,53.915348,3.6263556,-0.42856133,-5.581999,-1.3883659,-11.210045,14.932688,59.246395,-17.526323,11.161364,3.1390507
124,18.90871810913086,-7.705277919769287,74.66744995117188,-0.3642998504392951,1.5285005253190789,-5.651825788600475,16.998194,2.687782,2.0369697,9.019176,-22.426369,-5.3265877,-25.730497,-6.043232,-9.294432,14.665724,3.5116267,4.497854,-9.034541,-2.0051382,10.382483,-1.5746254,22.034908,-34.681595,53.84911,3.5265396,-0.47978592,-5.4663854,-1.2638242,-11.302683,14.954483,59.20954,-17.226837,11.05062,3.0102866
125,19.472217559814453,-7.939634323120117,74.6624526977539,-0.7091855875285871,1.4734365136217795,-5.618696179644842,16.892664,3.3079958,1.9900709,10.468359,-22.691174,-5.6600566,-25.746162,-5.6874604,-9.542103,15.879941,3.3138573,4.2081075,-9.079535,-1.5412463,10.4807625,-1.4583743,21.926811,-34.391285,53.790905,3.4441447,-0.55629456,-5.3131523,-1.1883787,-11.389197,15.061024,59.200047,-16.84613,10.941345,2.8402174
126,20.04322052001953,-8.17728042602539,74.66780853271484,-1.0819119023623305,1.392296236500662,-5.629419059982614,16.738575,3.965979,1.9438875,12.107199,-22.95124,-6.0444326,-25.66201,-5.311843,-9.903317,17.011108,2.9587123,3.8941002,-9.108458,-1.0597484,10.608654,-1.2948557,21.809631,-34.020515,53.741966,3.369547,-0.6508716,-5.1267843,-1.1527381,-11.470735,15.236645,59.207466,-16.380941,10.81793,2.635917
127,20.614620208740234,-8.416954040527344,74.67745208740234,-1.4536954784062508,1.2871457342448567,-5.6788262133461185,16.54769,4.619817,1.8965058,13.893427,-23.128983,-6.417277,-25.486786,-4.9160557,-10.26974,18.030636,2.5445457,3.5500376,-9.118295,-0.5853996,10.741624,-1.0887402,21.682936,-33.5924,53.701115,3.2952027,-0.74389625,-4.9471383,-1.1394999,-11.544612,15.459038,59.231033,-15.959908,10.696757,2.4358723
128,21.19854164123535,-8.662796974182129,74.69324493408203,-1.7941019926133133,1.1594635321070708,-5.761795566527248,16.331554,5.2256107,1.8458967,15.787164,-23.147207,-6.7157607,-25.231558,-4.495331,-10.535368,18.9098,2.1726372,3.1715195,-9.105186,-0.1458716,10.855235,-0.84362555,21.546518,-33.12935,53.667202,3.2151248,-0.8156606,-4.8137407,-1.1319008,-11.606746,15.704773,59.271915,-15.712206,10.595837,2.2769907
129,21.79384994506836,-8.911819458007812,74.72065734863281,-2.1098013940753804,0.9990120384372074,-5.891407188956031,16.143507,5.7875943,1.7905831,17.72904,-23.000595,-6.967171,-24.89525,-4.017223,-10.669145,19.640951,1.8930744,2.741102,-9.0596485,0.265196,10.950327,-0.5409079,21.39764,-32.61434,53.63194,3.1268601,-0.8661744,-4.7364316,-1.1279598,-11.654549,15.974117,59.344807,-15.69893,10.512885,2.1653242
130,22.39700698852539,-9.16123104095459,74.7583236694336,-2.411005288096929,0.8079995623392062,-6.066784077408091,15.964868,6.322795,1.7326202,19.747082,-22.71967,-7.189591,-24.476194,-3.48734,-10.726262,20.23894,1.6460913,2.2704809,-8.984023,0.65627736,11.0356455,-0.18825588,21.235008,-32.044666,53.60194,3.0340486,-0.90405315,-4.6938205,-1.1357926,-11.688494,16.27561,59.446445,-15.843582,10.44196,2.0809064
131,23.010128021240234,-9.416268348693848,74.81847381591797,-2.6734311127146393,0.6077296612906778,-6.262092152423699,15.710692,6.805939,1.6761553,21.908926,-22.26919,-7.3078732,-23.98675,-2.9571958,-10.731985,20.709013,1.3695614,1.7987254,-8.8907995,1.0048306,11.099473,0.17181443,21.061855,-31.467806,53.59678,2.9368474,-0.92260534,-4.67888,-1.1518353,-11.70693,16.598722,59.54937,-16.065811,10.39511,2.0218637
132,23.631362915039062,-9.681090354919434,74.90015411376953,-2.8750150728215185,0.42069410493364423,-6.450787715625932,15.29911,7.2134647,1.6270031,24.27329,-21.607388,-7.2495112,-23.438757,-2.4790165,-10.713013,21.058455,0.99800605,1.3646321,-8.790424,1.2889127,11.129879,0.49603775,20.884544,-30.93473,53.636536,2.8343394,-0.9149287,-4.6842265,-1.1724119,-11.70836,16.928608,59.62659,-16.287811,10.384087,1.9865533
133,24.25404167175293,-9.945547103881836,74.9990005493164,-2.996178733765076,0.24889215129422065,-6.629538842249965,14.709872,7.5141244,1.5833079,26.88102,-20.695328,-6.954668,-22.835741,-2.0714014,-10.658987,21.305687,0.46272555,0.96052784,-8.679491,1.484548,11.118214,0.7822162,20.706963,-30.446478,53.729065,2.7198396,-0.8686421,-4.716087,-1.1868526,-11.687434,17.266132,59.664623,-16.527056,10.427973,1.9821302
134,24.866588592529297,-10.215263366699219,75.11956787109375,-3.053868169302617,0.08307008914197538,-6.812143606025754,13.994455,7.731446,1.5553424,29.667746,-19.54927,-6.480175,-22.172289,-1.7043273,-10.558803,21.443102,-0.1861603,0.574958,-8.552062,1.6075732,11.071964,1.0520146,20.530283,-29.982353,53.860268,2.5946686,-0.79038125,-4.7755876,-1.2020706,-11.643634,17.615519,59.68301,-16.813374,10.51502,2.006675
135,25.47915267944336,-10.481914520263672,75.25167083740234,-3.0796560615923556,-0.07110599288131302,-6.99829147845346,13.166607,7.9221354,1.5641624,32.56318,-18.218767,-5.9291263,-21.448599,-1.3591897,-10.437693,21.440964,-0.83590996,0.24013908,-8.414627,1.6971998,11.004662,1.3008462,20.357136,-29.559837,54.012043,2.4701164,-0.70204824,-4.8475814,-1.2357479,-11.583281,17.965101,59.69553,-17.08768,10.610092,2.0461671
136,26.08991241455078,-10.746319770812988,75.39627075195312,-3.10437020160141,-0.20838317555836702,-7.188251782137128,12.239497,8.13917,1.6243358,35.50357,-16.759819,-5.403784,-20.666378,-1.0172572,-10.32215,21.27049,-1.3729303,-0.0143736005,-8.270293,1.7936772,10.93119,1.5221303,20.19017,-29.19935,54.165253,2.3564453,-0.6256558,-4.9176073,-1.3021412,-11.515363,18.302341,59.71186,-17.287428,10.67764,2.087458
137,26.69978141784668,-11.008905410766602,75.54827880859375,-3.1269995002188002,-0.32139750173440446,-7.380724043112174,11.189083,8.392054,1.7685556,38.51204,-15.071952,-4.9553103,-19.81302,-0.6747037,-10.223958,20.890179,-1.7665491,-0.17310324,-8.118848,1.897611,10.843363,1.7124604,20.031979,-28.919184,54.33116,2.2258186,-0.56661886,-4.979847,-1.3970209,-11.442609,18.62163,59.73931,-17.4023,10.707773,2.1160302
138,27.307483673095703,-11.2714204788208,75.70671844482422,-3.1311804423789407,-0.41514571158486324,-7.5774151635100715,10.013843,8.652498,1.9805439,41.616665,-13.16434,-4.522658,-18.893583,-0.34250015,-10.126675,20.328959,-2.0769653,-0.25520185,-7.9557614,1.9887924,10.738702,1.8774618,19.882906,-28.705624,54.509987,2.0822294,-0.5132214,-5.0432234,-1.5096543,-11.364297,18.927332,59.76398,-17.464027,10.719266,2.1439226
139,27.910429000854492,-11.52527141571045,75.86798858642578,-3.124078059718598,-0.5042408019563335,-7.782965174316834,8.760958,8.912362,2.196822,44.767166,-11.259811,-4.03977,-17.933754,-0.023123039,-10.015857,19.661303,-2.3262818,-0.28655377,-7.778464,2.0755064,10.640268,2.0221117,19.741589,-28.531542,54.66971,1.9817406,-0.46202993,-5.1155024,-1.6483812,-11.287728,19.226925,59.76685,-17.46976,10.720206,2.1976795
140,28.510242462158203,-11.771519660949707,76.03196716308594,-3.1137983221113203,-0.6031548657379427,-8.001954346672758,7.477706,9.162252,2.3561196,47.915306,-9.582255,-3.4404979,-16.961609,0.2815539,-9.877915,18.966228,-2.5388775,-0.2955794,-7.5858192,2.1687398,10.571582,2.1526828,19.604996,-28.367924,54.776535,1.9817157,-0.4097204,-5.2047014,-1.8194709,-11.22557,19.527918,59.72539,-17.41708,10.718661,2.304874
141,29.0982723236084,-12.005305290222168,76.19221496582031,-3.0904520722366433,-0.7173634357206091,-8.246320520104199,6.1166224,9.390368,2.442401,51.188435,-8.077875,-2.5980341,-15.976391,0.5632291,-9.698143,18.244917,-2.7075245,-0.28191447,-7.3715444,2.266493,10.540044,2.2688153,19.469479,-28.21203,54.82457,2.1251705,-0.35086417,-5.324635,-2.0262601,-11.186896,19.83364,59.627064,-17.308043,10.72893,2.4952998
142,29.683326721191406,-12.227890968322754,76.3455810546875,-3.053074157771595,-0.8385769002569609,-8.510197459518935,4.6718726,9.60335,2.4959407,54.566875,-6.6595592,-1.5836161,-14.970368,0.8247109,-9.489698,17.470459,-2.8278372,-0.24059615,-7.1398025,2.3687286,10.533638,2.3677044,19.333292,-28.076363,54.830734,2.3731935,-0.28962207,-5.4677906,-2.259094,-11.172495,20.14123,59.47716,-17.140879,10.743138,2.7492886
143,30.25270652770996,-12.431270599365234,76.48860168457031,-3.024106617334398,-0.9606459689002702,-8.771312589120742,3.2486513,9.812913,2.5276847,57.799038,-5.5173903,-0.6294417,-13.953906,1.0833831,-9.280012,16.663065,-2.9234564,-0.19145356,-6.903363,2.4893153,10.547042,2.4499915,19.196976,-27.955492,54.7962,2.6595984,-0.23698701,-5.609774,-2.5062644,-11.182422,20.449179,59.280533,-16.908731,10.736148,3.0201395
144,30.827367782592773,-12.631233215332031,76.61939239501953,-3.0257187191339896,-1.077661843370138,-9.007311828173316,1.9467592,10.023649,2.5348308,60.653675,-4.8589134,0.028322075,-12.943614,1.355358,-9.094923,15.854805,-3.0200577,-0.14986768,-6.675486,2.6414015,10.575167,2.519117,19.062935,-27.842316,54.719086,2.9184604,-0.2033844,-5.7263656,-2.7555592,-11.215654,20.755476,59.041004,-16.605469,10.682405,3.261258
145,31.389978408813477,-12.822212219238281,76.73223114013672,-3.0797895947478056,-1.193529445315122,-9.212334848006629,0.810447,10.261154,2.512804,63.102726,-4.868718,0.29818666,-11.929651,1.6597911,-8.949502,15.033703,-3.1088834,-0.11128104,-6.462247,2.84728,10.626043,2.5780883,18.933699,-27.738035,54.584885,3.1701872,-0.18840508,-5.818898,-3.0049148,-11.272908,21.054514,58.74048,-16.244104,10.568608,3.4813647
146,31.942119598388672,-13.007309913635254,76.8248062133789,-3.1683204561752154,-1.3098948160293251,-9.398292304456923,-0.2275217,10.5060215,2.454462,65.29067,-5.4151826,0.31471363,-10.909525,1.9828033,-8.825583,14.190677,-3.1814086,-0.06979765,-6.2556314,3.0922785,10.69904,2.6256797,18.810144,-27.645056,54.396828,3.4367642,-0.18737102,-5.8978214,-3.261381,-11.354742,21.350147,58.382687,-15.821613,10.410835,3.699281
147,32.49533462524414,-13.188261032104492,76.90937805175781,-3.2549580636873743,-1.4174596684482632,-9.569275437067116,-1.2331378,10.696429,2.3524683,67.2387,-6.2357006,0.17917259,-9.910679,2.291418,-8.699344,13.36403,-3.261651,-0.034522526,-6.0481997,3.3348048,10.776982,2.6600468,18.692192,-27.557514,54.178,3.654733,-0.20330897,-5.952849,-3.5238378,-11.456559,21.650911,58.00119,-15.312797,10.228417,3.8844478
148,33.043663024902344,-13.372373580932617,76.98980712890625,-3.304525203385144,-1.507074119316082,-9.72948755769599,-2.270622,10.770535,2.199109,68.958595,-7.061362,-0.009416784,-8.9564705,2.553143,-8.548588,12.585619,-3.3721316,-0.012577113,-5.8335223,3.5329623,10.842534,2.6787162,18.579424,-27.46912,53.95422,3.7602568,-0.23917401,-5.9732184,-3.7967253,-11.572777,21.967886,57.636997,-14.691796,10.039624,4.004756
149,33.5822639465332,-13.55488109588623,77.06510925292969,-3.307500049564781,-1.575951716899517,-9.87757698724217,-3.3520496,10.673928,1.9495382,70.43359,-7.9276714,-0.26218998,-8.062428,2.7548513,-8.364716,11.884083,-3.5274763,0.0008595556,-5.614311,3.6730719,10.892528,2.682898,18.472555,-27.37085,53.72327,3.7122862,-0.3006622,-5.9534583,-4.0836587,-11.699752,22.301764,57.28654,-13.899072,9.84546,4.0500836
150,34.126983642578125,-13.736200332641602,77.13753509521484,-3.284484307263056,-1.6290660837743314,-10.012246553660407,-4.4453516,10.459398,1.6297593,71.66501,-8.942315,-0.61368823,-7.20919,2.9160116,-8.162181,11.2297125,-3.7104142,0.012502762,-5.3935566,3.7784767,10.936397,2.674101,18.37246,-27.26725,53.474888,3.552924,-0.3845258,-5.900279,-4.385344,-11.835964,22.64877,56.936886,-12.967105,9.635985,4.0387
151,34.67253875732422,-13.916869163513184,77.20592498779297,-3.2478873270169464,-1.6694627977736152,-10.13804795582623,-5.5472646,10.225858,1.330059,72.68611,-9.940567,-1.004936,-6.3813004,3.0527685,-7.954926,10.598959,-3.90471,0.017986739,-5.1639824,3.8647487,10.975535,2.6510723,18.278246,-27.171944,53.222816,3.344779,-0.48025906,-5.82104,-4.702332,-11.9798565,23.01268,56.616787,-12.00813,9.412629,3.9801273
152,35.21666717529297,-14.097018241882324,77.27053833007812,-3.209502747213005,-1.6996116633745975,-10.259470142555395,-6.655979,10.070529,1.1338812,73.52798,-10.754859,-1.3809476,-5.565336,3.1813316,-7.756384,9.969864,-4.0949955,0.010786468,-4.9181323,3.946989,11.0102415,2.6115189,18.187466,-27.098068,52.98267,3.1512492,-0.5772989,-5.722523,-5.034748,-12.1299,23.396624,56.355625,-11.135338,9.177168,3.8829103
153,35.757957458496094,-14.278392791748047,77.33367156982422,-3.167606750399422,-1.7100337188899595,-10.37663620554332,-7.780802,10.025087,1.0726146,74.18012,-11.313303,-1.7672069,-4.7523346,3.3037524,-7.5674863,9.299938,-4.2563353,-0.014839584,-4.6446486,4.023284,11.031371,2.5414128,18.098974,-27.06166,52.765144,2.9580038,-0.6796678,-5.5863104,-5.3860064,-12.286482,23.812338,56.17022,-10.3233385,8.908096,3.7285607
154,36.298988342285156,-14.452391624450684,77.38997650146484,-3.117858931519472,-1.702883994253514,-10.487349757071147,-8.91936,10.039793,1.0941485,74.628845,-11.709131,-2.178417,-3.9529905,3.4126084,-7.382343,8.615748,-4.405122,-0.053299483,-4.349508,4.0882187,11.041477,2.4447155,18.012125,-27.052296,52.56248,2.7421143,-0.7912853,-5.415212,-5.754698,-12.449151,24.253666,56.04167,-9.530914,8.609879,3.519919
155,36.844970703125,-14.626723289489746,77.43636322021484,-3.067942667917203,-1.697418339331041,-10.592997478008586,-10.050652,10.085613,1.1535394,74.8953,-12.01932,-2.5469947,-3.1823144,3.509717,-7.2039685,8.000044,-4.5890245,-0.09650679,-4.053742,4.151132,11.057791,2.3436508,17.925169,-27.044624,52.36481,2.5527039,-0.9007141,-5.2474103,-6.136528,-12.615624,24.697721,55.9509,-8.847648,8.324724,3.2943232
156,37.383731842041016,-14.802044868469238,77.47700500488281,-3.024795075999995,-1.7131366944800344,-10.694331536161373,-11.154098,10.131916,1.2063725,75.00182,-12.322295,-2.8060956,-2.4565628,3.5961802,-7.0356665,7.53764,-4.856468,-0.13738668,-3.7777953,4.221603,11.097765,2.2600915,17.835577,-27.01346,52.162777,2.438974,-0.9962515,-5.120728,-6.5268326,-12.781024,25.123144,55.878166,-8.358938,8.09623,3.087138
157,37.929927825927734,-14.967052459716797,77.505859375,-2.9908466509022626,-1.7580424479874608,-10.78914165611456,-12.22745,10.183077,1.255785,74.95259,-12.620427,-2.9107935,-1.788477,3.6717613,-6.879441,7.279029,-5.237107,-0.17616472,-3.5275838,4.3020816,11.167431,2.1986163,17.741673,-26.951395,51.95548,2.4322898,-1.076732,-5.0466013,-6.9301586,-12.943201,25.533072,55.8329,-8.101739,7.9306912,2.8877473
158,38.47512435913086,-15.132078170776367,77.52972412109375,-2.961792686392992,-1.8207794916698266,-10.877525362858998,-13.278539,10.248123,1.3202608,74.73324,-12.877149,-2.9078758,-1.1644795,3.737215,-6.733689,7.1651607,-5.697049,-0.21717244,-3.293222,4.386885,11.256137,2.147164,17.643444,-26.871319,51.750385,2.5006497,-1.1474198,-5.003751,-7.3500113,-13.102287,25.937315,55.826004,-8.02549,7.8081284,2.6807559
159,39.02360916137695,-15.2941255569458,77.54596710205078,-2.9352118638598537,-1.892222487366207,-10.964769079826173,-14.3016205,10.303455,1.3792424,74.3378,-13.112654,-2.8687103,-0.56037235,3.7960606,-6.59563,7.1160245,-6.1901627,-0.25993386,-3.0712,4.4739075,11.356156,2.1016014,17.541422,-26.77894,51.551285,2.5982332,-1.2059747,-4.980841,-7.7796497,-13.256249,26.322716,55.841057,-8.08565,7.734154,2.4936488
160,39.574031829833984,-15.455625534057617,77.55284118652344,-2.9091694035610844,-1.9630676731960974,-11.056059281790317,-15.292316,10.327839,1.4126699,73.762276,-13.347549,-2.8627572,0.053280212,3.8517323,-6.4619937,7.041002,-6.666472,-0.30375627,-2.8573883,4.560504,11.45929,2.0577013,17.436855,-26.680655,51.36177,2.678541,-1.2500358,-4.966421,-8.2128525,-13.402188,26.674618,55.862507,-8.239142,7.714046,2.3542736
161,40.12064743041992,-15.610657691955566,77.54908752441406,-2.879351216303796,-2.034431129075423,-11.156469301087387,-16.245905,10.312804,1.4265344,72.992256,-13.609634,-2.9028718,0.67324704,3.8983529,-6.3351293,6.9461985,-7.127856,-0.34224316,-2.6497562,4.641594,11.566447,2.0201697,17.330067,-26.566626,51.17548,2.742309,-1.2727908,-4.96158,-8.654294,-13.537909,26.99628,55.889503,-8.5404825,7.7720695,2.2761593
162,40.66646194458008,-15.764670372009277,77.53748321533203,-2.847446987397583,-2.1103065773446135,-11.261841242450686,-17.163475,10.268744,1.4301964,72.03244,-13.880679,-2.954745,1.2681013,3.934082,-6.2172217,6.9115396,-7.619121,-0.3779581,-2.4512405,4.7186165,11.680721,1.9901301,17.221247,-26.43684,50.992245,2.8100083,-1.2774976,-4.9710073,-9.107234,-13.662913,27.29374,55.932644,-8.990592,7.8977337,2.2428544
163,41.21710205078125,-15.910395622253418,77.5196533203125,-2.82214057537404,-2.1848150504695356,-11.364256096184729,-18.047552,10.202461,1.4066465,70.901764,-14.109093,-3.0190778,1.8384303,3.9704728,-6.103303,6.928391,-8.130968,-0.42287344,-2.2637236,4.8004336,11.7975025,1.9566525,17.112139,-26.314417,50.826813,2.8635795,-1.2768159,-4.989206,-9.559904,-13.776909,27.552511,55.990505,-9.468906,8.04421,2.237029
164,41.769615173339844,-16.05318260192871,77.49507141113281,-2.811982317395434,-2.2527492888559837,-11.455601894125401,-18.90068,10.121101,1.337855,69.619385,-14.243626,-3.0958488,2.404896,4.020501,-5.986773,6.944589,-8.630585,-0.48872322,-2.0873513,4.895439,11.912049,1.9079611,17.005434,-26.224558,50.69352,2.8844829,-1.283135,-5.010409,-10.000699,-13.880957,27.756598,56.062355,-9.854441,8.16447,2.2401853
165,42.32595443725586,-16.19648551940918,77.46820831298828,-2.822944582802627,-2.316148452249857,-11.536391616429702,-19.72365,10.021811,1.2117182,68.17909,-14.285218,-3.1867967,2.9687333,4.0891585,-5.8603926,6.9591084,-9.108337,-0.5835824,-1.9205704,5.01072,12.029855,1.8425231,16.902288,-26.171907,50.58886,2.8562818,-1.2951415,-5.0379586,-10.42964,-13.975629,27.893017,56.151546,-10.137509,8.251505,2.2566946
166,42.88608932495117,-16.337438583374023,77.43055725097656,-2.8493749587264214,-2.3769904791926333,-11.61003808478721,-20.512243,9.902461,1.0400691,66.57216,-14.2566595,-3.290406,3.5300558,4.1692314,-5.7281184,6.974592,-9.570884,-0.6986582,-1.762257,5.1397977,12.151222,1.7652558,16.803013,-26.146109,50.506905,2.7913237,-1.3076091,-5.0732527,-10.8504925,-14.061843,27.969889,56.256493,-10.376569,8.328067,2.2931573
167,43.44621658325195,-16.47867202758789,77.38861083984375,-2.881895035192835,-2.4288790570829635,-11.672100705526725,-21.262587,9.770228,0.8410136,64.8145,-14.1407,-3.4015288,4.0872564,4.2521467,-5.6016483,6.989812,-10.035088,-0.819621,-1.6130795,5.2709813,12.264476,1.67757,16.70876,-26.147831,50.455044,2.7161589,-1.3269904,-5.1082754,-11.257019,-14.141218,28.00629,56.365414,-10.548381,8.392889,2.3336425
168,44.01282501220703,-16.615461349487305,77.3384017944336,-2.911424852971611,-2.4653724223436244,-11.71897371391419,-21.970856,9.631766,0.6337619,62.920063,-13.919113,-3.516102,4.6365466,4.3296266,-5.492574,7.0063434,-10.518582,-0.93215686,-1.474031,5.391242,12.357979,1.5829016,16.624294,-26.17775,50.43764,2.6558802,-1.3597383,-5.1350174,-11.643155,-14.213464,28.019608,56.46771,-10.63226,8.444461,2.3620567
169,44.588523864746094,-16.75239372253418,77.28235626220703,-2.937748848668326,-2.4866004877622725,-11.745485440777239,-22.636871,9.4817505,0.41216397,60.879337,-13.585482,-3.653322,5.18147,4.401973,-5.404462,7.021532,-11.026577,-1.037817,-1.347499,5.503174,12.432548,1.4732312,16.544388,-26.242245,50.464756,2.5956166,-1.4172242,-5.146235,-12.007956,-14.287107,28.007189,56.561348,-10.5988,8.476775,2.380538
170,45.16389465332031,-16.888465881347656,77.22039031982422,-2.964816036886428,-2.49532273353364,-11.755525032619293,-23.25891,9.316444,0.17170545,58.68379,-13.148355,-3.8096752,5.720362,4.471443,-5.3305917,7.039275,-11.551405,-1.1412416,-1.2321994,5.60989,12.494106,1.35333,16.473616,-26.338549,50.524887,2.528022,-1.4925096,-5.148598,-12.353868,-14.359603,27.96151,56.65012,-10.467218,8.492542,2.3954694
171,45.74985885620117,-17.028919219970703,77.15352630615234,-2.989770457151024,-2.4884834619285505,-11.75762672181197,-23.833296,9.145367,-0.06696916,56.352684,-12.615441,-3.9488328,6.249512,4.534472,-5.268008,7.056153,-12.084285,-1.2327766,-1.1262627,5.703063,12.537407,1.2415074,16.41981,-26.448635,50.600254,2.493452,-1.5652783,-5.1545014,-12.683505,-14.420613,27.901539,56.73417,-10.2839985,8.503914,2.396992
172,46.34467315673828,-17.16244888305664,77.0799789428711,-3.0098050538715757,-2.4629699408294066,-11.760573889742897,-24.35637,8.978618,-0.28322864,53.90253,-11.995092,-4.0340557,6.7638736,4.587566,-5.214221,7.072239,-12.618755,-1.3028888,-1.0138091,5.787148,12.555104,1.125076,16.364042,-26.572796,50.70768,2.534019,-1.6170385,-5.1717377,-12.976399,-14.48689,27.832716,56.789017,-10.094959,8.5237875,2.3792512
173,46.94529342651367,-17.29606819152832,77.0005111694336,-3.026454484726582,-2.413442155612696,-11.75895156929201,-24.838882,8.833301,-0.4534147,51.335102,-11.308776,-4.032431,7.257733,4.632399,-5.1821575,7.0862985,-13.153519,-1.352067,-0.89977,5.861356,12.54231,1.0051969,16.307606,-26.706785,50.847168,2.6880774,-1.642225,-5.213467,-13.2369,-14.555296,27.76096,56.822205,-9.889939,8.560082,2.3326864
174,47.558799743652344,-17.433700561523438,76.92076110839844,-3.040166313860088,-2.3427985191125806,-11.75109702463183,-25.277304,8.697564,-0.59176373,48.63868,-10.546417,-3.9731178,7.734699,4.669384,-5.1688724,7.099891,-13.69271,-1.3832052,-0.799506,5.9180636,12.5042925,0.9008856,16.267693,-26.839865,50.99837,2.9245753,-1.6505294,-5.2734785,-13.488254,-14.605044,27.693542,56.859043,-9.650592,8.603652,2.2602172
175,48.17784881591797,-17.56884002685547,76.83686828613281,-3.0469716625513,-2.2603300667692,-11.751001025058478,-25.649593,8.543576,-0.73733085,45.813404,-9.664301,-3.9088693,8.203901,4.6939464,-5.148747,7.1130323,-14.233089,-1.3916925,-0.70073354,5.9597225,12.447968,0.80994594,16.234383,-26.974504,51.165237,3.1835163,-1.6471435,-5.3286705,-13.717632,-14.646679,27.623571,56.879402,-9.412382,8.643412,2.1785736
176,48.80882263183594,-17.699569702148438,76.7456283569336,-3.0439652284666416,-2.175569020712869,-11.772522599762326,-25.9351,8.350507,-0.9338297,42.860054,-8.618178,-3.8888516,8.675887,4.703188,-5.0960207,7.124817,-14.772155,-1.3743616,-0.5750743,5.997448,12.378404,0.70551354,16.182419,-27.1344,51.375614,3.4021404,-1.6375352,-5.3524866,-13.893327,-14.709471,27.529446,56.844006,-9.209359,8.668567,2.1076555
177,49.4486198425293,-17.826000213623047,76.65074157714844,-3.021590444170617,-2.087841699282131,-11.812781830042416,-26.13734,8.110202,-1.189737,39.760223,-7.3482647,-3.8711734,9.148981,4.687088,-5.0077677,7.1377225,-15.314907,-1.3168781,-0.45962512,6.0104747,12.30056,0.6318084,16.135723,-27.284395,51.587612,3.5696323,-1.6200163,-5.33526,-14.051395,-14.765625,27.445473,56.778355,-9.036753,8.672567,2.0403934
178,50.0932502746582,-17.956010818481445,76.55230712890625,-2.985206092230622,-1.9934963602345444,-11.866960724271408,-26.26318,7.847746,-1.4878556,36.515945,-5.892975,-3.8421679,9.619714,4.6522183,-4.8972044,7.1498404,-15.859864,-1.2271428,-0.34544137,6.0031962,12.209257,0.5757327,16.09374,-27.43733,51.812637,3.7152257,-1.5925486,-5.2903376,-14.186654,-14.8159685,27.35976,56.68655,-8.883118,8.662276,1.9714258
179,50.745887756347656,-18.085744857788086,76.45504760742188,-2.9520748507560644,-1.8980350273889521,-11.946922195065472,-26.297388,7.593562,-1.8374474,33.155293,-4.3533974,-3.892209,10.089397,4.6173816,-4.761676,7.168417,-16.40171,-1.1362894,-0.23470993,5.98792,12.110033,0.55767006,16.065147,-27.560316,52.02916,3.8538573,-1.5570965,-5.245955,-14.316348,-14.848653,27.296154,56.593952,-8.752322,8.646744,1.9069543
180,51.40595245361328,-18.214685440063477,76.34561920166016,-2.940203788074705,-1.808028698230684,-12.065897616649082,-26.21748,7.3776746,-2.2492104,29.691315,-2.8237386,-4.1123724,10.567752,4.602717,-4.5955496,7.1863046,-16.92789,-1.0752515,-0.093427785,5.9921913,12.003166,0.5488428,16.025705,-27.663498,52.267166,3.9972565,-1.5173477,-5.2227583,-14.415062,-14.88809,27.237532,56.488094,-8.658378,8.635578,1.8597243
181,52.06882858276367,-18.34032440185547,76.23109436035156,-2.965130644005139,-1.724904578338905,-12.225035990022064,-25.957493,7.22197,-2.7347462,25.949444,-1.1494508,-4.6215177,11.056849,4.6281066,-4.4008536,7.2045875,-17.439266,-1.0674174,0.05832185,6.027677,11.890395,0.5781793,15.985371,-27.70999,52.503765,4.1678963,-1.4710879,-5.2367463,-14.506505,-14.919714,27.216423,56.39774,-8.609354,8.632019,1.824287
182,52.748924255371094,-18.465784072875977,76.11038208007812,-3.024031809957328,-1.6524350778353958,-12.426861944852426,-25.514006,7.1362724,-3.2959604,21.915438,0.6861711,-5.337466,11.561435,4.6906877,-4.16851,7.2202406,-17.937836,-1.0947412,0.22665678,6.0901017,11.774847,0.6429822,15.947917,-27.71644,52.74004,4.351273,-1.4175204,-5.2720594,-14.588846,-14.940488,27.221891,56.316967,-8.599112,8.630615,1.7977861
183,53.44091033935547,-18.59046745300293,75.98210906982422,-3.1095396392967367,-1.601784875910035,-12.688242855679242,-24.973625,7.1323805,-3.9207575,17.87565,2.3774948,-6.0498776,12.089633,4.7787123,-3.8748963,7.2337446,-18.419436,-1.1265382,0.42541414,6.171434,11.670641,0.73979783,15.914777,-27.694735,52.970943,4.516837,-1.3610047,-5.3140335,-14.66194,-14.953003,27.247519,56.22922,-8.598513,8.628674,1.7887675
184,54.14079284667969,-18.710535049438477,75.84334564208984,-3.2080544114941194,-1.5804710693750177,-13.021167341591568,-24.449724,7.204753,-4.5829425,14.165132,3.5965567,-6.5472775,12.645252,4.871629,-3.5018098,7.2445087,-18.878626,-1.1303312,0.6571853,6.261633,11.587378,0.8604699,15.872888,-27.647953,53.204037,4.6393094,-1.306986,-5.3467402,-14.730648,-14.963974,27.299082,56.12234,-8.572775,8.623724,1.8047186
185,54.84328842163086,-18.835391998291016,75.68985748291016,-3.3071149220238585,-1.5846850428029042,-13.425383680494747,-23.991282,7.3275332,-5.341125,10.849112,4.1782928,-6.713882,13.223398,4.9537854,-3.0527592,7.254118,-19.3252,-1.0906831,0.9308129,6.3419566,11.525516,1.0102564,15.840072,-27.58785,53.423412,4.694769,-1.25462,-5.363384,-14.790892,-14.9705305,27.364208,55.983574,-8.52227,8.616352,1.856374
186,55.55195236206055,-18.957332611083984,75.5403060913086,-3.411703083565873,-1.6093621601840036,-13.892182443106698,-23.52179,7.5101204,-6.173294,7.719862,4.348101,-6.6746144,13.821001,5.0319066,-2.5381498,7.262027,-19.757992,-1.026855,1.2296759,6.422996,11.477849,1.1901655,15.802361,-27.497202,53.639153,4.7085385,-1.2029276,-5.372838,-14.844393,-14.975713,27.456892,55.822433,-8.458936,8.608485,1.9361869
187,56.26324462890625,-19.082801818847656,75.39196014404297,-3.520657209005212,-1.649923642776323,-14.407395652392541,-23.76237,7.655752,-7.0302052,6.3674293,3.4896626,-6.576068,14.433529,5.1020193,-1.965478,7.2692266,-20.159252,-0.95439637,1.562726,6.4982057,11.438372,1.3849053,15.775201,-27.406706,53.852177,4.6948085,-1.1511446,-5.3848004,-14.87295,-14.977926,27.545042,55.63566,-8.38524,8.595043,2.0279942
188,56.97952651977539,-19.200742721557617,75.24784851074219,-3.636807150953661,-1.7043350749478117,-14.959238040454736,-24.445694,7.771574,-7.741298,6.303125,2.0791047,-6.5897126,15.0583315,5.165531,-1.3397887,7.275223,-20.509869,-0.8893225,1.8749998,6.5791235,11.406446,1.6112605,15.736663,-27.266357,54.062508,4.6965,-1.1030464,-5.4123554,-14.905416,-14.977887,27.682467,55.45305,-8.278432,8.573743,2.1101038
189,57.704017639160156,-19.312631607055664,75.10227966308594,-3.785711867115421,-1.772356092333507,-15.559926816941756,-24.982464,7.977698,-8.1474905,6.275577,0.69425297,-6.751236,15.696025,5.249881,-0.64001775,7.2803617,-20.81362,-0.840508,2.2246668,6.6847224,11.372149,1.8504839,15.706413,-27.125998,54.272217,4.704801,-1.0542903,-5.4659643,-14.905656,-14.974734,27.810272,55.253597,-8.143084,8.536393,2.1824303
190,58.4366569519043,-19.425249099731445,74.95105743408203,-3.952496428779925,-1.8458310933082667,-16.19973796247075,-25.413816,8.241355,-8.346073,6.3156543,-0.7507366,-6.9883204,16.3407,5.334766,0.11680282,7.285776,-21.081804,-0.7923948,2.5362928,6.8066387,11.336423,2.1383407,15.657009,-26.902767,54.47282,4.732975,-1.0087197,-5.540477,-14.925957,-14.961259,28.015432,55.068638,-7.9623346,8.489372,2.2463572
191,59.176116943359375,-19.543949127197266,74.79756164550781,-4.074357595246795,-1.9245224736175301,-16.84692239822359,-25.693184,8.47096,-8.439064,6.348931,-1.9732575,-7.328113,16.987478,5.3529797,0.88134813,7.2917457,-21.298826,-0.7328284,2.866055,6.868526,11.302729,2.4076586,15.623512,-26.724464,54.692886,4.7323465,-0.96516234,-5.6060514,-14.906477,-14.944983,28.180197,54.856014,-7.792715,8.440999,2.3131804
192,59.917415618896484,-19.67633819580078,74.65000915527344,-4.1040285337693065,-1.9995005775267198,-17.462673983497893,-25.80694,8.574628,-8.548184,6.3622,-2.725953,-7.7889285,17.623564,5.2511806,1.5958748,7.310843,-21.462732,-0.6461501,3.1819186,6.820609,11.278638,2.6370525,15.608769,-26.61411,54.944347,4.6883354,-0.92678,-5.6395836,-14.839734,-14.933378,28.291264,54.600746,-7.661686,8.403002,2.386367
193,60.65952682495117,-19.82320785522461,74.50340270996094,-4.029059048511748,-2.064265475327898,-18.04891904072241,-25.72017,8.557792,-8.638852,6.353015,-2.9836872,-8.466945,18.23692,5.0146403,2.2580159,7.3441496,-21.582304,-0.5196627,3.394452,6.6527023,11.277219,2.8808749,15.592336,-26.463892,55.200493,4.615568,-0.90093166,-5.637207,-14.802241,-14.908091,28.462591,54.350227,-7.548137,8.386989,2.4656591
194,61.38709259033203,-19.957427978515625,74.4068603515625,-3.8725420012938225,-2.1185785981192575,-18.61871783788818,-25.451256,8.458813,-8.673363,6.3287354,-2.8606818,-9.316365,18.83223,4.670424,2.8866553,7.381205,-21.653357,-0.36342415,3.5729773,6.3850374,11.283491,3.1071382,15.584442,-26.337269,55.482452,4.5045376,-0.8828062,-5.60707,-14.757929,-14.868537,28.624525,54.09324,-7.4579754,8.382176,2.551792
195,62.099178314208984,-20.080188751220703,74.34672546386719,-3.6367894101158154,-2.1634795760437147,-19.152312360401506,-25.063755,8.229952,-8.772265,6.2888303,-2.3233113,-10.137618,19.417353,4.2248282,3.4564986,7.4269123,-21.658585,-0.19429034,3.7202275,6.0228844,11.287444,3.311464,15.587075,-26.255198,55.792736,4.3806744,-0.86451524,-5.5618505,-14.673013,-14.827413,28.753439,53.814632,-7.387937,8.375105,2.6269996
196,62.822288513183594,-20.192930221557617,74.31819152832031,-3.317086746508886,-2.20149792809716,-19.632252334114373,-24.628866,7.8151813,-9.05122,6.25349,-1.3574905,-10.7348795,19.999569,3.6746216,3.9426668,7.491484,-21.584158,-0.027144343,3.8102891,5.5636344,11.281106,3.5087717,15.595853,-26.201012,56.12694,4.2790265,-0.8391333,-5.5160365,-14.550421,-14.784,28.871204,53.53318,-7.3196583,8.352618,2.6682127
197,63.54656219482422,-20.313215255737305,74.28688049316406,-2.8653555889824927,-2.2386024454757476,-20.04596618730793,-24.118923,7.118771,-9.625205,6.2066884,0.30931255,-10.976623,20.578175,2.958451,4.3223076,7.613196,-21.493053,0.16162139,3.8311677,4.9586864,11.273308,3.6973815,15.608054,-26.167723,56.48742,4.2127004,-0.80807894,-5.4783564,-14.3863,-14.740201,28.984852,53.225445,-7.255108,8.323522,2.6752143
198,64.29532623291016,-20.43893814086914,74.2573471069336,-2.2833534517693974,-2.277833809345195,-20.416857829343307,-23.502344,6.192841,-10.390935,6.1456404,2.5774453,-11.009217,20.633734,2.1236124,4.5986767,8.888937,-21.962143,0.37277108,3.7944982,4.213041,11.271614,3.8859425,15.624257,-26.149746,56.864197,4.164885,-0.7730823,-5.440511,-14.201764,-14.6924925,29.103107,52.91269,-7.194107,8.288579,2.6575356
199,65.05421447753906,-20.56179428100586,74.24486541748047,-1.6552699824971462,-2.3131911267310135,-20.79292653142968,-22.837181,5.221581,-11.133609,6.0889254,4.9064827,-11.046375,20.567383,1.2484831,4.860313,10.417207,-22.419659,0.55940694,3.7486074,3.4098256,11.256204,4.0714874,15.647263,-26.159218,57.266476,4.1215453,-0.7301872,-5.389536,-13.989973,-14.631036,29.210808,52.633514,-7.1338086,8.22997,2.6077807
200,65.82075500488281,-20.688373565673828,74.23304748535156,-1.0665754985218159,-2.3249279840049555,-21.217920042367233,-22.197123,4.3847194,-11.649391,6.058788,6.753446,-11.274892,20.267593,0.44808093,5.1626296,12.349791,-22.850338,0.6717225,3.7370472,2.6287374,11.1909485,4.265413,15.690579,-26.212868,57.688248,4.0636625,-0.67304647,-5.3115964,-13.773647,-14.517038,29.285883,52.4738,-7.079113,8.1229725,2.5169013
201,66.59422302246094,-20.806697845458984,74.23812103271484,-0.5235392530934639,-2.2866025591664196,-21.725509858055556,-21.611828,3.714126,-11.8865385,6.0617948,7.9756184,-11.773351,19.673649,-0.27201664,5.56153,14.758991,-23.31167,0.7143455,3.7997155,1.8891342,11.042599,4.4546146,15.731504,-26.333437,58.16298,3.9482265,-0.6135649,-5.1801376,-13.513759,-14.402267,29.334763,52.39302,-6.9872904,7.943043,2.3884773
202,67.348876953125,-20.930953979492188,74.26018524169922,0.022730167890181098,-2.204100487280016,-22.279307130315164,-21.04959,3.11224,-11.95265,6.0879393,8.870237,-12.411394,18.861141,-0.97730225,6.0175896,17.508757,-23.766335,0.7049691,3.894644,1.1320412,10.824319,4.6430974,15.778254,-26.505507,58.681213,3.7955663,-0.55046386,-5.0094037,-13.2324095,-14.2637205,29.367325,52.396812,-6.87417,7.7071586,2.2222242
203,68.10359954833984,-21.061580657958984,74.29729461669922,0.5541048035934236,-2.1056321107162805,-22.814295709599577,-20.494486,2.5722094,-11.89275,6.1281266,9.543168,-13.05705,17.931469,-1.6445428,6.432619,20.424883,-24.056437,0.61474377,3.9739165,0.38332972,10.587921,4.8047376,15.83011,-26.71423,59.213173,3.694743,-0.46200287,-4.8449526,-12.916927,-14.105509,29.3363,52.449684,-6.8144164,7.4635844,2.0258446
204,68.8477554321289,-21.202627182006836,74.34375762939453,1.049394739988471,-2.0239706427265918,-23.274658205844926,-19.929644,2.0869017,-11.747312,6.1731067,10.091614,-13.588907,16.968729,-2.2474697,6.7137394,23.383247,-24.040512,0.41413096,4.0023494,-0.33096567,10.384355,4.915676,15.892592,-26.949186,59.7284,3.731172,-0.32529813,-4.732183,-12.562914,-13.918521,29.190485,52.532177,-6.8862596,7.2599726,1.8050588
205,69.57040405273438,-21.35691261291504,74.40558624267578,1.4912841512865505,-1.9594891867790991,-23.6350472268667,-19.395021,1.6582772,-11.490813,6.2800226,10.498449,-14.039344,15.9747715,-2.7505772,6.826633,26.40962,-23.68712,0.06437775,3.9740963,-0.99792343,10.212866,4.960399,15.971659,-27.229204,60.250652,3.9290516,-0.13086678,-4.6684732,-12.148189,-13.688466,28.885586,52.645554,-7.121421,7.0828247,1.5197142
206,70.27983856201172,-21.52182388305664,74.48655700683594,1.886512028852476,-1.9036908312192076,-23.926447404707655,-19.287344,1.203173,-11.120181,7.3034587,10.265161,-14.450598,14.909132,-3.1768053,6.8174686,29.568321,-23.07664,-0.4193558,3.906423,-1.6271358,10.051105,4.9588714,16.069454,-27.5537,60.78145,4.239891,0.10840707,-4.6358337,-11.693546,-13.410469,28.457298,52.8111,-7.4772363,6.9160914,1.178561
207,70.96509552001953,-21.692638397216797,74.5806884765625,2.2440173969795714,-1.8791606797399119,-24.18630738611962,-19.104246,0.80918556,-10.68904,8.230187,9.917612,-14.741847,13.80373,-3.5793521,6.716747,32.782875,-22.233915,-0.97861314,3.804591,-2.2191288,9.921199,4.9444704,16.183737,-27.8774,61.25294,4.644979,0.38206893,-4.6576996,-11.254263,-13.095364,27.977951,53.030926,-7.9175572,6.804273,0.8614316
208,71.63827514648438,-21.860382080078125,74.69557189941406,2.5715182297433516,-1.908441418675765,-24.454400422313014,-18.79871,0.46009332,-10.265024,9.035072,9.456557,-14.826684,12.691148,-4.001568,6.556762,35.980717,-21.177221,-1.5441698,3.6754642,-2.769994,9.847603,4.9491725,16.309513,-28.153767,61.597416,5.1264544,0.67884874,-4.757217,-10.878247,-12.7651,27.522501,53.297775,-8.40131,6.790977,0.64986837
209,72.30939483642578,-22.009735107421875,74.82975006103516,2.8561880752870406,-2.020264962315662,-24.714104370145016,-18.369413,0.14627825,-9.877934,9.779443,8.798124,-14.615163,11.583028,-4.427745,6.294798,39.2004,-19.801895,-2.1876092,3.4949257,-3.26133,9.8633375,4.981421,16.441944,-28.35785,61.789253,5.7718034,1.0342666,-4.962326,-10.558454,-12.432205,27.087048,53.61423,-8.9663,6.8957367,0.5499914
210,72.96751403808594,-22.160451889038086,74.9673080444336,3.093607217098469,-2.197657497185797,-24.956709053264646,-17.837378,-0.13366738,-9.489578,10.455469,7.9710345,-14.175139,10.468114,-4.836467,5.918088,42.45446,-18.120275,-2.8976839,3.270856,-3.6912825,9.949421,5.024302,16.5797,-28.515917,61.86705,6.5640254,1.437962,-5.256403,-10.268769,-12.099338,26.64309,53.968315,-9.612946,7.092369,0.5270788
211,73.62017822265625,-22.306501388549805,75.11512756347656,3.3083559649453798,-2.393626477735855,-25.231462029564586,-17.202494,-0.3819329,-9.0680485,10.962839,7.134055,-13.656251,9.341519,-5.2563896,5.517158,45.644073,-16.340763,-3.4809823,3.0563352,-4.082767,10.054671,5.068298,16.722622,-28.660917,61.859478,7.326773,1.8113326,-5.5926285,-10.01622,-11.777835,26.222807,54.320614,-10.248516,7.3538594,0.6021975
212,74.25967407226562,-22.44205093383789,75.26895141601562,3.525815999443193,-2.5593627298200032,-25.58480162372804,-16.466846,-0.5909336,-8.582834,11.205235,6.43581,-13.213458,8.1884775,-5.7124004,5.198185,48.698704,-14.694672,-3.758288,2.9011302,-4.458713,10.129469,5.104611,16.870779,-28.823215,61.792835,7.8834887,2.0790806,-5.920871,-9.806052,-11.485809,25.862051,54.628128,-10.777087,7.652969,0.7955336
213,74.9073715209961,-22.56852149963379,75.43107604980469,3.7559026858200495,-2.6900278041646803,-26.04264930926495,-15.589489,-0.742905,-8.010258,11.108361,5.912465,-12.879144,6.982295,-6.1938496,5.059653,51.68662,-13.164811,-3.5935934,2.8326356,-4.8207836,10.175018,5.1338763,17.020363,-29.0069,61.652664,8.220542,2.2279267,-6.2574606,-9.6265,-11.239123,25.550446,54.857693,-11.191637,8.027898,1.1531562
214,75.53787231445312,-22.68912124633789,75.59076690673828,3.983929345278905,-2.8069345189992028,-26.572323686500457,-14.5879755,-0.8451708,-7.3768163,10.753539,5.475668,-12.5776415,5.7254076,-6.6752253,5.0376277,54.65891,-11.681744,-3.1106813,2.8204832,-5.152463,10.217044,5.153896,17.168884,-29.201855,61.432568,8.4195175,2.297494,-6.616596,-9.463106,-11.04336,25.273031,55.017944,-11.536973,8.476491,1.6545132
215,76.1549301147461,-22.810543060302734,75.74714660644531,4.19875012754518,-2.9003099632508302,-27.13265504547449,-13.546008,-0.9187363,-6.7245755,10.266944,5.086741,-12.305733,4.4404283,-7.1724744,4.9969153,57.528767,-10.405861,-2.5390687,2.8266919,-5.4506636,10.243054,5.152941,17.320084,-29.415167,61.16891,8.4453,2.2948427,-6.9435105,-9.316209,-10.898087,25.059853,55.128883,-11.793789,8.913686,2.2175643
216,76.77291107177734,-22.92402458190918,75.89915466308594,4.391316039399647,-2.9608636849870638,-27.68376122119956,-12.547199,-0.98548,-6.0927186,9.7693615,4.7120953,-12.056382,3.15062,-7.724282,4.795141,60.19799,-9.486438,-2.1224556,2.8117485,-5.7168593,10.239306,5.1238675,17.481598,-29.651005,60.8933,8.263362,2.2274697,-7.184609,-9.190694,-10.798942,24.94214,55.21611,-11.940678,9.255332,2.7580361
217,77.38514709472656,-23.037277221679688,76.0411148071289,4.57203655294056,-2.9783961719463954,-28.241652975256596,-11.6033945,-1.0536166,-5.459972,9.261479,4.355446,-11.816891,1.8473697,-8.407496,4.3828907,62.663403,-8.9892435,-1.8788091,2.7809942,-5.9633956,10.194745,5.072801,17.658897,-29.91069,60.590694,7.7740526,2.0842884,-7.332401,-9.105061,-10.744453,24.951681,55.292557,-11.937643,9.493784,3.2923455
218,77.98612976074219,-23.155208587646484,76.17089080810547,4.742073800221513,-2.9598902701907326,-28.81850658627687,-10.666678,-1.1115171,-4.8142004,8.673486,4.0379353,-11.595282,0.5197612,-9.203643,3.8393598,64.981674,-8.828158,-1.714307,2.7467248,-6.188878,10.118784,5.007149,17.852587,-30.189257,60.243042,7.0255027,1.8670003,-7.4167833,-9.053552,-10.73413,25.06648,55.34588,-11.80617,9.671737,3.8504071
219,78.568359375,-23.28113555908203,76.2968521118164,4.881451462121372,-2.9230821509287517,-29.367380820811466,-9.749236,-1.155183,-4.2065086,8.0552635,3.7403057,-11.411079,-0.805629,-10.019333,3.208564,67.125885,-8.921841,-1.7026017,2.6815176,-6.378594,10.028374,4.9207673,18.063175,-30.483553,59.87857,6.2043533,1.6010802,-7.440377,-9.005642,-10.761431,25.236889,55.364887,-11.613181,9.779957,4.3677773
220,79.13842010498047,-23.407520294189453,76.41978454589844,4.968198062269947,-2.886331556143402,-29.84448768046631,-8.85072,-1.1742134,-3.6859694,7.435252,3.4491496,-11.282819,-2.0976863,-10.749747,2.5312035,69.05342,-9.182869,-1.9081188,2.5611594,-6.5160956,9.939373,4.80653,18.291449,-30.791723,59.52783,5.496459,1.3118237,-7.4031453,-8.932681,-10.816655,25.411226,55.342518,-11.427711,9.807918,4.779834
221,79.70407104492188,-23.537891387939453,76.53829956054688,4.984982201680143,-2.848713314496657,-30.23576421546176,-7.9794507,-1.151427,-3.268355,6.818976,3.1585274,-11.23661,-3.365516,-11.375135,1.7766486,70.76466,-9.709216,-2.459306,2.3691466,-6.5865054,9.846671,4.6593623,18.541574,-31.127848,59.193367,4.9070606,0.98087037,-7.2984304,-8.843778,-10.894648,25.609098,55.290695,-11.235723,9.726642,5.0693407
222,80.27371215820312,-23.676889419555664,76.65213775634766,4.946948934416297,-2.803205362564779,-30.566497442393768,-7.294612,-1.1020663,-2.9196167,6.535556,2.6946766,-11.25334,-4.613665,-11.942846,0.93687844,72.27039,-10.5063505,-3.2706785,2.122464,-6.604145,9.7437105,4.486127,18.814825,-31.48817,58.858604,4.352564,0.6016134,-7.129271,-8.754513,-10.994709,25.846146,55.217155,-11.012338,9.549914,5.2701287
223,80.83846282958984,-23.8255672454834,76.76073455810547,4.883377159835314,-2.7590631617004853,-30.8500567458047,-6.7525783,-1.0491246,-2.621459,6.525017,2.097063,-11.28474,-5.8099113,-12.440493,0.07653968,73.54668,-11.346525,-4.0850945,1.8468696,-6.598351,9.644585,4.293544,19.105787,-31.846735,58.530067,3.8831613,0.2169648,-6.9066973,-8.642863,-11.111557,26.064165,55.105225,-10.807758,9.329745,5.3942947
224,81.40153503417969,-23.986360549926758,76.8624038696289,4.823632143228896,-2.725159162245706,-31.100012074408678,-6.209099,-1.0130392,-2.3582861,6.5129967,1.5183572,-11.282921,-6.9271135,-12.867492,-0.7444241,74.56966,-11.99648,-4.651224,1.5693673,-6.5991364,9.561596,4.0844765,19.40542,-32.17881,58.22178,3.5489724,-0.12926842,-6.639229,-8.4886875,-11.238705,26.203608,54.943527,-10.673827,9.118007,5.452342
225,81.94954681396484,-24.151283264160156,76.9534683227539,4.767011633843677,-2.696969047339208,-31.309335263344433,-5.6703925,-0.99483055,-2.1384072,6.498664,0.9625816,-11.241561,-7.9650364,-13.240188,-1.563709,75.321754,-12.387853,-4.925082,1.2899841,-6.6071587,9.488354,3.844668,19.709274,-32.49894,57.954304,3.36815,-0.4403452,-6.2916307,-8.2822,-11.372109,26.249569,54.717377,-10.647682,8.916781,5.4349947
226,82.5032730102539,-24.320287704467773,77.04277038574219,4.701837280962606,-2.6721549928346517,-31.474697816851343,-5.1412334,-0.982409,-1.9668244,6.4819813,0.42554036,-11.182217,-8.939597,-13.553723,-2.4018903,75.818596,-12.641135,-5.0297685,0.9981574,-6.610013,9.4195595,3.5717094,20.016619,-32.8162,57.725273,3.3135395,-0.7339974,-5.86822,-8.038732,-11.511307,26.232569,54.444637,-10.694633,8.701709,5.339102
227,83.05020904541016,-24.490827560424805,77.12599182128906,4.642516379162049,-2.6629234100392654,-31.615045688138004,-4.6038117,-0.98596776,-1.820155,6.467208,-0.099853255,-11.098766,-9.85227,-13.77745,-3.1785944,76.08577,-12.8044195,-4.9739842,0.7035447,-6.6180034,9.368199,3.2864552,20.323153,-33.096447,57.5162,3.3643615,-0.98752,-5.436153,-7.7715178,-11.654845,26.158827,54.15987,-10.764448,8.485627,5.1844287
228,83.59249114990234,-24.664796829223633,77.19988250732422,4.602164666638932,-2.6814109573250784,-31.749836794280057,-4.042139,-1.0145785,-1.6754823,6.461306,-0.62192756,-10.987583,-10.708071,-13.878679,-3.8107758,76.15091,-12.927686,-4.765908,0.41494012,-6.640093,9.346819,3.009212,20.622986,-33.304123,57.310932,3.4997087,-1.1785477,-5.0626597,-7.4964585,-11.800343,26.037075,53.9002,-10.804164,8.281003,4.9906554
229,84.13191986083984,-24.83890151977539,77.2680435180664,4.58468501176119,-2.739719457400165,-31.87688519337567,-3.4410539,-1.0744469,-1.5341451,6.4627833,-1.1436318,-10.846841,-11.492696,-13.823564,-4.2609997,75.98959,-12.99415,-4.365772,0.12565443,-6.6793017,9.3614025,2.7478957,20.91179,-33.4316,57.112698,3.7793431,-1.2967705,-4.744047,-7.2117743,-11.94653,25.871223,53.674458,-10.816874,8.067703,4.739853
230,84.67596435546875,-25.021080017089844,77.33275604248047,4.582978267523239,-2.8290291036535313,-31.98921424452701,-2.8113437,-1.158231,-1.4067587,6.468664,-1.6610676,-10.681099,-12.214624,-13.638545,-4.575816,75.59512,-12.990134,-3.7853146,-0.1672761,-6.729954,9.40274,2.489319,21.18866,-33.494816,56.934277,4.193363,-1.3543406,-4.450671,-6.9137945,-12.092931,25.65902,53.468052,-10.824812,7.8468084,4.4286194
231,85.22216796875,-25.205480575561523,77.3893814086914,4.5926735286418054,-2.929558506444369,-32.09848863145545,-2.174669,-1.2545668,-1.2837839,6.4792113,-2.1694498,-10.496921,-12.911444,-13.380182,-4.79855,75.02083,-12.969653,-3.111348,-0.4492511,-6.7875295,9.460484,2.2223084,21.453373,-33.494274,56.774418,4.614574,-1.3643383,-4.2115,-6.6130466,-12.23694,25.396572,53.281242,-10.806153,7.662963,4.0993834
232,85.76107025146484,-25.393537521362305,77.43592071533203,4.609940848951247,-3.0215211116269476,-32.21624626716661,-1.5509671,-1.3530073,-1.1557611,6.4901185,-2.661163,-10.300227,-13.617579,-13.106554,-4.9738183,74.3179,-12.982348,-2.429751,-0.70616716,-6.847649,9.524594,1.9369434,21.706385,-33.428844,56.63004,4.9173064,-1.3414686,-4.05566,-6.3205023,-12.37322,25.081173,53.113705,-10.736856,7.5600286,3.794252
233,86.28079986572266,-25.58804702758789,77.46823120117188,4.637289866942453,-3.1082253776645223,-32.344503403732695,-0.93862325,-1.4576384,-1.0240301,6.5037475,-3.133972,-10.078029,-14.335159,-12.767282,-5.049138,73.46809,-13.044782,-1.6985219,-0.92922306,-6.9140096,9.600461,1.6271706,21.947119,-33.280785,56.50216,5.0786586,-1.270805,-4.0072484,-6.0392485,-12.497828,24.69528,52.966892,-10.605894,7.5751514,3.518601
234,86.8045883178711,-25.783836364746094,77.49484252929688,4.676899562338018,-3.1980065915989924,-32.477524312100584,-0.3284761,-1.5726991,-0.8930417,6.520573,-3.588938,-9.831981,-15.044114,-12.362564,-5.020708,72.45184,-13.133249,-0.90232664,-1.127903,-6.9891343,9.690607,1.2990004,22.17552,-33.05618,56.39398,5.162516,-1.1520232,-4.0456576,-5.76495,-12.608843,24.245583,52.843765,-10.427088,7.675513,3.2510695
235,87.3252944946289,-25.985002517700195,77.51361083984375,4.720021105475516,-3.2780573176596683,-32.614091162393294,0.26940536,-1.6856983,-0.7577828,6.5380073,-4.036323,-9.589393,-15.747513,-12.010537,-5.01013,71.322365,-13.229534,-0.15718634,-1.3171418,-7.064478,9.778421,0.96211696,22.394098,-32.790356,56.305492,5.171536,-1.0217876,-4.131914,-5.5036955,-12.70643,23.768263,52.75511,-10.214654,7.801252,2.993039
236,87.83016967773438,-26.188173294067383,77.51776885986328,4.758673388519997,-3.3352024719318294,-32.753275982397454,0.84248877,-1.7847382,-0.6118133,6.554529,-4.4837775,-9.377377,-16.45045,-11.821627,-5.140381,70.1327,-13.308317,0.42826635,-1.5113692,-7.1313004,9.84773,0.6275934,22.606785,-32.518127,56.233574,5.1081305,-0.9164582,-4.227049,-5.2593703,-12.791242,23.299135,52.70822,-9.98316,7.8929424,2.7467048
237,88.33885192871094,-26.4043025970459,77.51473999023438,4.7895207150697905,-3.366436703944863,-32.892509411222136,1.3876373,-1.8663645,-0.45418948,6.568273,-4.9296103,-9.205039,-17.153309,-11.810985,-5.446914,68.88412,-13.345757,0.8497874,-1.7166882,-7.186943,9.89689,0.29775852,22.816317,-32.234486,56.174774,4.9514604,-0.83767045,-4.346007,-5.0356283,-12.8646345,22.83758,52.706974,-9.709573,7.9388537,2.5078351
238,88.84381866455078,-26.625152587890625,77.50828552246094,4.815786727863489,-3.378264676010765,-33.032857134842295,1.9090806,-1.9362936,-0.28734308,6.5837855,-5.3719444,-9.056753,-17.850655,-11.912457,-5.868315,67.55174,-13.3550415,1.1663141,-1.924649,-7.234372,9.934463,-0.02962543,23.023273,-31.923876,56.12644,4.7076263,-0.7679912,-4.501466,-4.8274794,-12.925599,22.367788,52.743088,-9.395009,7.9690757,2.277414
239,89.34542846679688,-26.846778869628906,77.4922866821289,4.8394800577770205,-3.370966311836603,-33.17906815166884,2.4107432,-1.9970992,-0.10984472,6.5986724,-5.8135233,-8.922428,-18.538103,-12.109222,-6.384284,66.14589,-13.362246,1.369669,-2.1294055,-7.277054,9.9572315,-0.3529216,23.229345,-31.608208,56.09052,4.416487,-0.7151527,-4.6504188,-4.6336274,-12.97509,21.905352,52.81616,-9.090884,7.987254,2.0644994
