unveil-humanoid-operators/unveil-humanoid-operators.github.io/feature-analysis-animation/data/feature_matrix_instances/weight_root_translate_peak_vel_walking_A036_walk_sideway_045_start_003__A036.csv
Frame,root_translateX,root_translateY,root_translateZ,root_rotateX,root_rotateY,root_rotateZ,left_hip_pitch_joint_dof,left_hip_roll_joint_dof,left_hip_yaw_joint_dof,left_knee_joint_dof,left_ankle_pitch_joint_dof,left_ankle_roll_joint_dof,right_hip_pitch_joint_dof,right_hip_roll_joint_dof,right_hip_yaw_joint_dof,right_knee_joint_dof,right_ankle_pitch_joint_dof,right_ankle_roll_joint_dof,waist_yaw_joint_dof,waist_roll_joint_dof,waist_pitch_joint_dof,left_shoulder_pitch_joint_dof,left_shoulder_roll_joint_dof,left_shoulder_yaw_joint_dof,left_elbow_joint_dof,left_wrist_roll_joint_dof,left_wrist_pitch_joint_dof,left_wrist_yaw_joint_dof,right_shoulder_pitch_joint_dof,right_shoulder_roll_joint_dof,right_shoulder_yaw_joint_dof,right_elbow_joint_dof,right_wrist_roll_joint_dof,right_wrist_pitch_joint_dof,right_wrist_yaw_joint_dof
0,-0.1495649516582489,1.8846772909164429,78.0028076171875,0.9470072706475468,1.0465973520995178,-88.62408345894143,-5.19549,3.2530456,3.4650698,16.71968,-13.5385065,-4.9465637,-3.1191268,-5.4561644,-5.200121,14.932545,-13.633268,5.669796,-3.2816339,0.015478755,5.9989047,-10.458911,17.182396,-39.598125,70.08957,5.8481674,-0.72678363,1.8259144,2.5262942,-16.025957,23.749424,56.647762,-10.262697,-2.0361912,-2.90946
1,-0.152424618601799,1.8953392505645752,78.00214385986328,0.9614125927665298,1.0660525216449328,-88.63656142499254,-5.20291,3.2403767,3.4791565,16.701626,-13.530982,-4.9399595,-3.1314907,-5.4744864,-5.2444625,14.85509,-13.625874,5.6664248,-3.24003,0.08374802,5.962913,-10.4489,17.186901,-39.688007,70.01895,5.745886,-0.73818487,1.750014,2.5462434,-16.04547,23.707705,56.66979,-10.331858,-2.031648,-2.945748
2,-0.16511410474777222,1.899612545967102,78.00475311279297,0.9769508045775807,1.0875372932401977,-88.65031521541385,-5.2118454,3.2263737,3.4949794,16.682108,-13.522182,-4.932511,-3.1460843,-5.4940786,-5.2895913,14.7740555,-13.617286,5.6633234,-3.146244,0.16221197,5.9263573,-10.472276,17.181591,-39.849922,69.956505,5.6137977,-0.74970967,1.6664406,2.6239612,-16.085512,23.60024,56.643753,-10.42111,-2.0277004,-2.9797835
3,-0.15689781308174133,1.8971396684646606,77.99613189697266,0.9902718965119031,1.1052407004029128,-88.66164478887083,-5.2182245,3.21483,3.5075147,16.665638,-13.515673,-4.926686,-3.1555567,-5.5107656,-5.333087,14.698093,-13.609598,5.659786,-3.0812254,0.22650659,5.895094,-10.488264,17.168514,-39.960636,69.91273,5.5180674,-0.7609452,1.5988276,2.671838,-16.116114,23.529459,56.63437,-10.485836,-2.0239873,-3.004682
4,-0.14976876974105835,1.8826313018798828,77.99163055419922,0.9983905275030754,1.113458227052678,-88.66695137966298,-5.219441,3.2089355,3.51196,16.659025,-13.515808,-4.924862,-3.1509962,-5.520686,-5.372262,14.63139,-13.6022215,5.655124,-3.0724337,0.25013483,5.883704,-10.49185,17.16519,-39.991215,69.895805,5.475756,-0.771146,1.5671753,2.668228,-16.122776,23.521328,56.641186,-10.501617,-2.0210397,-3.002698
5,-0.14812245965003967,1.8606297969818115,77.98748779296875,1.0003218876924984,1.1058037173326742,-88.66677793914438,-5.2087536,3.2096596,3.5073993,16.665184,-13.527263,-4.9283323,-3.1248763,-5.523102,-5.4043775,14.576486,-13.598402,5.6484127,-3.076166,0.21705654,5.9062757,-10.516844,17.159157,-39.996593,69.93573,5.486807,-0.77936816,1.5916803,2.6704373,-16.133924,23.534378,56.589684,-10.439363,-2.0173573,-2.9398646
6,-0.14990809559822083,1.8456027507781982,77.98103332519531,0.9974640105192513,1.0869308609142272,-88.66245573085978,-5.190091,3.215573,3.4959753,16.680887,-13.546645,-4.9356866,-3.082943,-5.5195165,-5.4318104,14.528862,-13.596133,5.6402106,-3.1257994,0.14309464,5.9547386,-10.536154,17.155672,-39.92291,70.00869,5.5615253,-0.78789604,1.6551423,2.6452186,-16.14137,23.602839,56.51763,-10.316623,-2.0105402,-2.838645
7,-0.16505733132362366,1.843165397644043,77.98212432861328,0.9907901684808476,1.0681647610139795,-88.65201859606817,-5.1754823,3.225643,3.4784567,16.701078,-13.566008,-4.9449267,-3.0398853,-5.5105863,-5.4585924,14.490095,-13.591864,5.6321883,-3.2158287,0.06676839,6.003978,-10.532398,17.158615,-39.795124,70.07214,5.657395,-0.79411274,1.7274324,2.5864024,-16.143854,23.716248,56.470364,-10.178451,-2.007763,-2.7431824
8,-0.17651548981666565,1.8467886447906494,77.9846420288086,0.9808201801309188,1.0611579659478838,-88.63343616167627,-5.1772723,3.2399685,3.4552267,16.720112,-13.576646,-4.9543715,-3.0106034,-5.495844,-5.4890127,14.461145,-13.581072,5.625922,-3.28094,0.020405777,6.031932,-10.525444,17.165808,-39.70311,70.10249,5.722888,-0.79541725,1.7774924,2.5522177,-16.141346,23.78932,56.43766,-10.083996,-2.0155413,-2.6903682
9,-0.19318467378616333,1.8540290594100952,77.9903335571289,0.9644477992809029,1.0732673483032573,-88.59720499388285,-5.2083316,3.262342,3.4180963,16.740145,-13.573109,-4.9651246,-3.0015783,-5.4703026,-5.5308857,14.446836,-13.559446,5.621548,-3.3203638,0.023436502,6.0261235,-10.510968,17.173807,-39.653385,70.08637,5.7468305,-0.78912723,1.7976038,2.555361,-16.135685,23.810083,56.424484,-10.045303,-2.044076,-2.7030694
10,-0.21682998538017273,1.8580149412155151,78.0046615600586,0.9423704077180143,1.0969977639992756,-88.54737577815045,-5.259622,3.2917795,3.3694766,16.76458,-13.5619955,-4.977716,-3.0034966,-5.43562,-5.5797434,14.443517,-13.529179,5.618309,-3.3421543,0.05515361,5.999453,-10.501322,17.177458,-39.6412,70.05412,5.7384243,-0.7778156,1.8050592,2.5879002,-16.131376,23.797281,56.41671,-10.033923,-2.0872808,-2.7549245
11,-0.22725072503089905,1.8561601638793945,78.0086898803711,0.9210646549955521,1.121345819764109,-88.50201078359845,-5.308257,3.3201993,3.3255258,16.784147,-13.549537,-4.9890275,-3.0086367,-5.4018464,-5.621923,14.443636,-13.499398,5.616394,-3.349931,0.09312965,5.97205,-10.494007,17.183363,-39.64382,70.013855,5.720812,-0.76636255,1.80474,2.62461,-16.122995,23.765469,56.413937,-10.047274,-2.1272717,-2.8127253
12,-0.2324308305978775,1.849656581878662,78.00716400146484,0.9075705776174037,1.13536040322761,-88.47949729514895,-5.331665,3.3390472,3.3030987,16.791119,-13.5433855,-4.995857,-3.0101333,-5.379951,-5.643012,14.440155,-13.478524,5.6163406,-3.345665,0.11804834,5.9571476,-10.488053,17.185873,-39.645615,69.984276,5.712563,-0.7593393,1.8036947,2.643024,-16.118708,23.74522,56.41716,-10.066541,-2.1468692,-2.8448064
13,-0.22565102577209473,1.8383219242095947,77.99755859375,0.9034007861086978,1.1317168700335551,-88.49330125195107,-5.3149104,3.3463466,3.3134944,16.780987,-13.54944,-4.9961367,-3.0019155,-5.373331,-5.63153,14.426545,-13.466493,5.619508,-3.3272176,0.12604527,5.964951,-10.485259,17.187288,-39.648952,69.969696,5.7098484,-0.75912356,1.8021865,2.6307688,-16.117575,23.738382,56.427135,-10.108673,-2.1308,-2.8288796
14,-0.21255338191986084,1.8270469903945923,77.99250793457031,0.9053645245075905,1.1176979381093584,-88.5308931477681,-5.2715807,3.3461072,3.345841,16.75567,-13.560967,-4.9918838,-2.989792,-5.376204,-5.597537,14.409637,-13.459868,5.625302,-3.2970524,0.127284,5.9847455,-10.479652,17.187336,-39.649757,69.9578,5.713634,-0.7626115,1.797219,2.598999,-16.119598,23.741127,56.44604,-10.168669,-2.0921166,-2.7872972
15,-0.20610330998897552,1.8220605850219727,77.99091339111328,0.9111731315926906,1.104310844883578,-88.57072250364577,-5.227609,3.3410928,3.3815494,16.728937,-13.57168,-4.986489,-2.978041,-5.384047,-5.5607343,14.389281,-13.45735,5.630896,-3.2743273,0.12866345,6.004951,-10.470369,17.185802,-39.644386,69.946236,5.717322,-0.76866007,1.7911075,2.5569055,-16.12845,23.756836,56.472923,-10.21796,-2.054003,-2.7515075
16,-0.2078731805086136,1.8222354650497437,77.99454498291016,0.9186393586161725,1.1028438701403889,-88.59146643534584,-5.2062674,3.3343048,3.4023926,16.708302,-13.572002,-4.983327,-2.9716525,-5.392021,-5.5406666,14.366077,-13.456943,5.6333055,-3.259711,0.12689707,6.012549,-10.464117,17.183392,-39.63371,69.93839,5.728807,-0.77493185,1.7843499,2.537702,-16.138474,23.769718,56.489407,-10.235382,-2.038216,-2.756171
17,-0.2178078591823578,1.8274240493774414,77.99913024902344,0.9311512458117598,1.121679564415984,-88.58237394724334,-5.223981,3.3214889,3.4009814,16.700108,-13.554971,-4.9824643,-2.976355,-5.403453,-5.5465064,14.338849,-13.462101,5.631321,-3.2531345,0.11740266,5.999693,-10.462603,17.18221,-39.62355,69.9316,5.7519407,-0.7815076,1.7770782,2.5501173,-16.141579,23.770271,56.497955,-10.193161,-2.062553,-2.8324885
18,-0.22279170155525208,1.8243229389190674,78.00526428222656,0.948588679195379,1.1530746993749013,-88.55638938594765,-5.2640224,3.302984,3.3879676,16.696987,-13.526087,-4.982422,-2.9880679,-5.4191647,-5.566426,14.307301,-13.472267,5.626588,-3.257244,0.10319519,5.9760365,-10.464851,17.181236,-39.610268,69.92766,5.7806983,-0.78990865,1.7684139,2.5762029,-16.14292,23.768774,56.50512,-10.113388,-2.1116362,-2.9560196
19,-0.241254061460495,1.8203788995742798,78.00944519042969,0.9634549049501997,1.1839703803882597,-88.52798665398791,-5.3037167,3.2874205,3.3717792,16.693277,-13.498634,-4.9840493,-2.9975061,-5.4315076,-5.5889993,14.275677,-13.480914,5.6209273,-3.2608292,0.087910965,5.951661,-10.469309,17.18031,-39.593067,69.92905,5.8113403,-0.7980649,1.758381,2.609837,-16.142672,23.766396,56.505974,-10.046716,-2.158493,-3.0751534
20,-0.24723589420318604,1.8097857236862183,78.01187896728516,0.9686232635477555,1.2000312991392053,-88.51230332870138,-5.3187613,3.2836056,3.3616722,16.683292,-13.485373,-4.98808,-2.9938326,-5.4328365,-5.6019163,14.2478285,-13.482451,5.61617,-3.2618842,0.08094672,5.938899,-10.475144,17.179577,-39.58221,69.93831,5.815021,-0.804291,1.7500863,2.6167352,-16.142265,23.769182,56.521545,-10.043418,-2.1757894,-3.1312091
21,-0.2583175003528595,1.8025305271148682,78.00186157226562,0.9569333262074345,1.1924382012140884,-88.51660707361596,-5.293599,3.3001087,3.3605065,16.661877,-13.497118,-4.996433,-2.9700105,-5.4151583,-5.5986047,14.228857,-13.47393,5.610088,-3.2531006,0.08893211,5.9428844,-10.480005,17.178732,-39.583237,69.956665,5.774706,-0.8093157,1.742417,2.5900846,-16.145277,23.784388,56.555702,-10.140633,-2.147374,-3.0954041
22,-0.24634434282779694,1.7954667806625366,77.99583435058594,0.9341377261383204,1.1703924774497052,-88.53211504267425,-5.241161,3.3300614,3.3635423,16.627556,-13.523176,-5.0081725,-2.933034,-5.384565,-5.5865602,14.215059,-13.458945,5.6027503,-3.2395358,0.1101809,5.9562674,-10.479702,17.175577,-39.58616,69.97755,5.709468,-0.81332666,1.7352699,2.5520735,-16.163614,23.812004,56.589237,-10.297234,-2.0900545,-3.000598
23,-0.2335691601037979,1.7940202951431274,77.99531555175781,0.9113533693802325,1.1474805699276032,-88.54820523469624,-5.191546,3.3598385,3.367157,16.600874,-13.549883,-5.0196624,-2.8951356,-5.354333,-5.5753284,14.199683,-13.441665,5.5988307,-3.224358,0.13151616,5.971974,-10.486703,17.173265,-39.60357,70.00189,5.6375933,-0.81437004,1.7308308,2.5130775,-16.184336,23.831999,56.61807,-10.454547,-2.029383,-2.8895202
24,-0.23302505910396576,1.7941412925720215,77.99418640136719,0.8998041220175935,1.1375081074905593,-88.5544590318953,-5.16712,3.375632,3.3680344,16.58639,-13.559821,-5.0275507,-2.866882,-5.3375635,-5.5745664,14.172039,-13.424315,5.6031566,-3.2138813,0.14236416,5.980563,-10.4916725,17.170553,-39.609013,70.01563,5.6152024,-0.80838466,1.7316777,2.4894586,-16.207548,23.838116,56.62887,-10.540988,-1.9891524,-2.8057098
25,-0.2466716319322586,1.7938388586044312,78.00090789794922,0.9055953111042577,1.1479898230106262,-88.54781013954324,-5.1827607,3.369926,3.3669991,16.592579,-13.543095,-5.0295467,-2.8499,-5.3413215,-5.591124,14.112731,-13.398781,5.624954,-3.213347,0.13796782,5.980292,-10.502725,17.168173,-39.613853,70.02027,5.6507416,-0.79045993,1.7441875,2.490571,-16.235874,23.82306,56.604595,-10.513735,-1.9755454,-2.7554998
26,-0.25037840008735657,1.7888048887252808,78.00814056396484,0.9223974396483977,1.170427040778604,-88.5338926845759,-5.2212596,3.3504994,3.3657622,16.609411,-13.508464,-5.0278873,-2.8452709,-5.358824,-5.617417,14.046328,-13.371073,5.659028,-3.2285051,0.11483108,5.9640656,-10.51058,17.1682,-39.61424,70.02902,5.722908,-0.7637254,1.7659786,2.4787338,-16.240881,23.812447,56.60193,-10.4172125,-1.9774148,-2.7261856
27,-0.2586151361465454,1.786361813545227,78.010498046875,0.9403359930367077,1.194059961001209,-88.51532860963299,-5.263942,3.329431,3.3601747,16.62947,-13.474246,-5.026092,-2.8404074,-5.37724,-5.645583,13.981084,-13.348823,5.6884003,-3.2357268,0.09272293,5.9538445,-10.524173,17.169014,-39.6134,70.03035,5.8053603,-0.7384617,1.784017,2.4741054,-16.251045,23.780647,56.589016,-10.321612,-1.9877433,-2.7053359
28,-0.2677999436855316,1.7804248332977295,78.02262878417969,0.9517309484855334,1.2078627449598685,-88.49623381196943,-5.2901797,3.316498,3.3484042,16.642113,-13.455033,-5.027388,-2.8297591,-5.3873925,-5.664712,13.940348,-13.345953,5.6964145,-3.2397218,0.073717624,5.9448385,-10.538715,17.170462,-39.620415,70.03721,5.8461595,-0.7233004,1.7908732,2.4756348,-16.257586,23.76273,56.58002,-10.288865,-1.9929763,-2.7039742
29,-0.2853921055793762,1.7779618501663208,78.0380630493164,0.9538404818507431,1.2080681275794096,-88.47132272570228,-5.286086,3.3142798,3.323097,16.627361,-13.456737,-5.0340166,-2.807894,-5.3848653,-5.6720204,13.936597,-13.377487,5.66932,-3.2374637,0.06149791,5.934378,-10.547712,17.172699,-39.628433,70.04718,5.8384094,-0.7241517,1.77838,2.4845653,-16.265244,23.758257,56.58505,-10.358374,-1.9955982,-2.7290604
30,-0.29372093081474304,1.7785871028900146,78.03065490722656,0.9515412738966252,1.2007174059742431,-88.44117977749548,-5.2697535,3.317785,3.287752,16.606108,-13.471668,-5.043658,-2.7801104,-5.3757763,-5.67262,13.957348,-13.433334,5.619155,-3.2362485,0.0530834,5.922128,-10.554845,17.177841,-39.647175,70.05814,5.787121,-0.73497605,1.7539755,2.502439,-16.27796,23.769772,56.59124,-10.482848,-1.9979378,-2.7771215
31,-0.29603055119514465,1.7755810022354126,78.0103530883789,0.9464330281489808,1.190795122847503,-88.41542066965778,-5.249504,3.3244002,3.2552998,16.58516,-13.49009,-5.0532513,-2.7538724,-5.3643794,-5.670772,13.980826,-13.485393,5.5676994,-3.2367008,0.04902288,5.914079,-10.560704,17.183298,-39.66076,70.06754,5.7303925,-0.7500297,1.7279245,2.5095334,-16.28937,23.787617,56.60562,-10.605533,-2.0005748,-2.8276312
32,-0.284806489944458,1.7737189531326294,77.9957275390625,0.9406058560711446,1.183547740911035,-88.40409885159109,-5.2358346,3.3313546,3.2388132,16.57498,-13.502349,-5.0596633,-2.7380977,-5.355559,-5.6705227,13.98733,-13.506757,5.5369177,-3.2323208,0.047763307,5.9135933,-10.5639,17.188265,-39.668613,70.06766,5.696708,-0.76078016,1.7122514,2.5043986,-16.300566,23.803879,56.615345,-10.660787,-1.9999783,-2.8620892
33,-0.27287667989730835,1.7705917358398438,77.99667358398438,0.9338043398420351,1.179053437755795,-88.41694527152599,-5.230183,3.338485,3.2476547,16.582327,-13.507028,-5.060626,-2.736822,-5.350824,-5.6708665,13.963182,-13.4797325,5.5369124,-3.2224827,0.05789895,5.9332366,-10.566789,17.19594,-39.66902,70.04845,5.690299,-0.77114075,1.7090846,2.4796648,-16.325602,23.814041,56.6086,-10.615865,-1.9975777,-2.8694403
34,-0.26139894127845764,1.7688924074172974,78.00018310546875,0.9253201320486336,1.1749932944514916,-88.44624335361618,-5.227486,3.3469481,3.2730348,16.600153,-13.508634,-5.058296,-2.7445536,-5.347657,-5.6703634,13.921858,-13.422583,5.5546064,-3.204061,0.074896194,5.965557,-10.572987,17.199446,-39.662804,70.0238,5.7042904,-0.7826524,1.713416,2.4410453,-16.35193,23.81605,56.59694,-10.514078,-1.993579,-2.8632495
35,-0.25909149646759033,1.768104910850525,78.0042724609375,0.9159381830209868,1.172567730498643,-88.47596163557472,-5.2268963,3.3568645,3.300254,16.617302,-13.506971,-5.0562344,-2.7556381,-5.343672,-5.6724763,13.882511,-13.359961,5.5768666,-3.1853201,0.09353056,5.997453,-10.582667,17.200115,-39.659782,70.00227,5.7186565,-0.79033375,1.7203405,2.4013917,-16.379303,23.815758,56.5856,-10.399088,-1.9901042,-2.8486326
36,-0.26287612318992615,1.763800859451294,78.01099395751953,0.9064168379765266,1.1730422796683324,-88.48997770506054,-5.2282567,3.3678489,3.3148117,16.624073,-13.50192,-5.058062,-2.7650647,-5.3366156,-5.6806874,13.866648,-13.318403,5.590553,-3.1712275,0.109950036,6.018742,-10.588739,17.19914,-39.65142,69.982124,5.7344327,-0.7885824,1.7232723,2.3779142,-16.408363,23.81397,56.57211,-10.314593,-1.9893173,-2.82909
37,-0.2998611330986023,1.7537752389907837,78.0196762084961,0.8955699712412245,1.1792634328552125,-88.47940369208322,-5.2339964,3.3826075,3.311093,16.614086,-13.489041,-5.0663195,-2.774357,-5.3231444,-5.700403,13.890238,-13.305977,5.5920506,-3.165126,0.12014101,6.020951,-10.589302,17.19815,-39.635647,69.963806,5.752718,-0.7681788,1.7205917,2.371983,-16.432487,23.809057,56.565346,-10.27183,-1.9925227,-2.797697
38,-0.3075973689556122,1.7526381015777588,78.02688598632812,0.8834581165571058,1.1898181802085568,-88.45434748118126,-5.242532,3.4000814,3.2976518,16.59202,-13.469151,-5.0785866,-2.7853289,-5.3056293,-5.728192,13.9386835,-13.308424,5.588409,-3.1616352,0.121901155,6.007678,-10.589253,17.198143,-39.62265,69.95272,5.7698646,-0.7344968,1.7161402,2.3693209,-16.440464,23.802832,56.57671,-10.247467,-1.9986966,-2.7582376
39,-0.2998669743537903,1.763427972793579,78.030517578125,0.8729475966332384,1.1992084356791992,-88.42728559976076,-5.248962,3.4154315,3.280488,16.568039,-13.451257,-5.090939,-2.7918575,-5.2894382,-5.7546053,13.98459,-13.316763,5.582332,-3.1611116,0.12376394,5.9964633,-10.5861025,17.198713,-39.601955,69.94006,5.7905755,-0.7038978,1.710248,2.3696055,-16.451965,23.796158,56.58592,-10.240215,-2.0061126,-2.723886
40,-0.28717875480651855,1.7715811729431152,78.02828216552734,0.8667727590153425,1.2021897716883447,-88.41038720349434,-5.246635,3.423737,3.2658305,16.548988,-13.443617,-5.099548,-2.7873564,-5.2797995,-5.770238,13.999431,-13.321639,5.576482,-3.1588528,0.123203374,5.99285,-10.58825,17.199203,-39.596302,69.9402,5.7947702,-0.69284356,1.70648,2.363694,-16.456745,23.796755,56.60032,-10.24575,-2.0128956,-2.7158625
41,-0.27756598591804504,1.77194344997406,78.02520751953125,0.8663612662359154,1.1929742986073621,-88.4100182107,-5.226992,3.4224179,3.2529712,16.535343,-13.4547415,-5.104092,-2.7639525,-5.278784,-5.768689,13.9662485,-13.32214,5.5693765,-3.1553786,0.12558998,6.005935,-10.591147,17.200193,-39.5923,69.951454,5.7842703,-0.7159515,1.7033665,2.3489747,-16.471392,23.810736,56.618496,-10.272969,-2.0228293,-2.7512746
42,-0.26994410157203674,1.769418478012085,78.01918029785156,0.8694535521104038,1.1758269284532734,-88.41811756233963,-5.196367,3.4150317,3.238659,16.52529,-13.47897,-5.106429,-2.7244647,-5.28272,-5.757107,13.898269,-13.320398,5.560255,-3.1507504,0.12716146,6.0268025,-10.593215,17.200388,-39.595566,69.97137,5.760319,-0.7596229,1.7023501,2.3359454,-16.484509,23.835094,56.63491,-10.31828,-2.0321968,-2.8182933
43,-0.26554593443870544,1.7651677131652832,78.01264953613281,0.875706113900245,1.160710739747046,-88.42740155726987,-5.168281,3.403485,3.2282026,16.515944,-13.499294,-5.1057644,-2.6887386,-5.291034,-5.74313,13.831463,-13.320231,5.55326,-3.1444592,0.1243766,6.046585,-10.601451,17.200293,-39.605988,69.99739,5.738529,-0.80285686,1.701432,2.3171911,-16.491524,23.852383,56.65758,-10.367117,-2.0404713,-2.881521
44,-0.27542197704315186,1.757513165473938,78.00345611572266,0.8841230016394628,1.1577896470923124,-88.43000954438715,-5.158847,3.3903704,3.2258394,16.508907,-13.501094,-5.101388,-2.674714,-5.302659,-5.7353034,13.797472,-13.323532,5.5526376,-3.1428638,0.118990436,6.0538263,-10.60802,17.200077,-39.621502,70.012886,5.731388,-0.8224466,1.7018915,2.2999518,-16.500309,23.867762,56.670498,-10.384209,-2.041652,-2.9072883
45,-0.28286856412887573,1.7496429681777954,78.01102447509766,0.8993980699978638,1.176644825527728,-88.42148626690425,-5.1803136,3.3708663,3.238659,16.502645,-13.468109,-5.0895205,-2.694645,-5.3234367,-5.736919,13.811098,-13.333582,5.563145,-3.13949,0.10811753,6.041878,-10.614528,17.199476,-39.649105,70.006966,5.7556906,-0.80245805,1.704218,2.2973814,-16.522251,23.86573,56.654373,-10.354062,-2.0320227,-2.870382
46,-0.2788955569267273,1.7525514364242554,78.02229309082031,0.9208723006629104,1.2096324266348304,-88.40679656722837,-5.2215753,3.3449612,3.2626,16.496778,-13.412155,-5.0716395,-2.7373202,-5.352521,-5.7428317,13.854447,-13.348979,5.581428,-3.13751,0.08827957,6.018901,-10.619909,17.199703,-39.670856,69.98835,5.8155146,-0.75766045,1.7070295,2.2921736,-16.534935,23.846544,56.634197,-10.308136,-2.0154731,-2.7955847
47,-0.275875449180603,1.7538819313049316,78.0372543334961,0.9377275518846636,1.2404356153608085,-88.39202288948557,-5.2621202,3.3243499,3.284287,16.494078,-13.3604555,-5.055284,-2.7790089,-5.3762927,-5.7503185,13.900342,-13.359694,5.599149,-3.1370823,0.07175837,5.9985456,-10.625557,17.20048,-39.69237,69.970505,5.8690305,-0.71348524,1.7092603,2.2820978,-16.544977,23.827084,56.617313,-10.256254,-1.9986464,-2.7164218
48,-0.27540645003318787,1.7600798606872559,78.03839111328125,0.9395749311284892,1.2528188732454435,-88.38359069885601,-5.2803364,3.320503,3.2907336,16.494785,-13.339155,-5.0478334,-2.7967381,-5.381321,-5.756249,13.922917,-13.356205,5.6080384,-3.1289546,0.07061667,5.9991646,-10.636527,17.201847,-39.717102,69.96236,5.8841467,-0.6944007,1.7086109,2.2812593,-16.557528,23.806726,56.590122,-10.217777,-1.9871414,-2.6641996
49,-0.2754158675670624,1.7697923183441162,78.03506469726562,0.9151746787770864,1.2330664407966723,-88.38554752197032,-5.2599645,3.3457055,3.2723842,16.501625,-13.367756,-5.0552354,-2.7716815,-5.353986,-5.759068,13.905322,-13.3262,5.603125,-3.1238458,0.09523077,6.0327806,-10.646175,17.202595,-39.72706,69.970665,5.8427553,-0.71612537,1.7024398,2.270256,-16.56426,23.80231,56.57462,-10.194142,-1.984379,-2.6544938
50,-0.2906486988067627,1.7670072317123413,78.02928924560547,0.872862405356354,1.1929973043468147,-88.39361272444805,-5.21604,3.3910413,3.2381783,16.513485,-13.428196,-5.0721254,-2.720845,-5.304447,-5.7606654,13.865744,-13.278372,5.5897355,-3.1159213,0.14103152,6.0907044,-10.655729,17.20378,-39.731915,69.98277,5.7640505,-0.76227236,1.6919932,2.2647865,-16.57957,23.80206,56.547413,-10.172103,-1.9861884,-2.6649375
51,-0.2846698760986328,1.7625877857208252,78.01631927490234,0.8315425975294809,1.1544780720704546,-88.40171815558347,-5.1732125,3.4350116,3.2028449,16.523525,-13.48909,-5.08925,-2.671622,-5.256191,-5.7634144,13.823736,-13.231492,5.5750523,-3.1134424,0.1843206,6.1449294,-10.664761,17.20465,-39.731865,70.00001,5.684847,-0.8108204,1.683766,2.252955,-16.589176,23.809715,56.52976,-10.158809,-1.9897615,-2.68385
52,-0.25596484541893005,1.7606507539749146,78.01168823242188,0.8103510662584236,1.1394906246472747,-88.40350551965025,-5.1565742,3.4561534,3.181226,16.525581,-13.519172,-5.097287,-2.651118,-5.2324266,-5.7696514,13.797605,-13.203211,5.566253,-3.113257,0.2075813,6.1729126,-10.673424,17.206055,-39.735016,70.01184,5.6412516,-0.8393084,1.6831088,2.2438328,-16.598455,23.818567,56.51348,-10.154574,-1.992875,-2.6939688
53,-0.2372562438249588,1.7601923942565918,78.00807189941406,0.8193029375187904,1.1637246004756165,-88.39397880749456,-5.183749,3.4431038,3.1777432,16.514235,-13.500985,-5.091294,-2.6764078,-5.2452507,-5.785705,13.792325,-13.200909,5.56444,-3.115055,0.1985307,6.1577435,-10.681167,17.206995,-39.740135,70.015274,5.6617694,-0.83630306,1.6966597,2.2413278,-16.601011,23.821589,56.498028,-10.17117,-1.9938416,-2.6923504
54,-0.23613852262496948,1.7593456506729126,78.00667572021484,0.8468974224195172,1.2124071271957908,-88.37747991448151,-5.237952,3.4087706,3.184617,16.49373,-13.453863,-5.077006,-2.7308137,-5.280829,-5.808132,13.799177,-13.214669,5.5661798,-3.1155596,0.16943154,6.115765,-10.693318,17.210659,-39.759468,70.01664,5.7085657,-0.81663704,1.7190589,2.2478251,-16.60527,23.823406,56.47757,-10.198746,-1.99487,-2.686067
55,-0.2522971034049988,1.7583906650543213,78.02122497558594,0.8786534577024994,1.2610073307358538,-88.36237006026228,-5.2908683,3.3699594,3.1972325,16.471352,-13.40196,-5.061386,-2.7872653,-5.321324,-5.8257694,13.8131895,-13.235518,5.571298,-3.1136951,0.13611494,6.0728273,-10.704314,17.213741,-39.7767,70.01563,5.7603626,-0.7922402,1.7405152,2.2555008,-16.606627,23.82334,56.4582,-10.229313,-1.9960488,-2.677973
56,-0.27379700541496277,1.7672744989395142,78.03630065917969,0.9003155060605998,1.2849997663442998,-88.3564687058892,-5.3143296,3.3439822,3.2105045,16.453938,-13.369442,-5.0514746,-2.816287,-5.3486075,-5.8281813,13.824207,-13.251537,5.5797296,-3.106666,0.115320824,6.0542164,-10.712378,17.216873,-39.788223,70.01467,5.7864895,-0.77718914,1.75082,2.2559175,-16.607014,23.825775,56.446568,-10.246312,-1.9988208,-2.6699216
57,-0.2901969850063324,1.7748000621795654,78.03975677490234,0.9093560596258256,1.2708479944518702,-88.36673141885404,-5.2897387,3.3341017,3.2285166,16.4402,-13.363885,-5.048804,-2.808552,-5.3593264,-5.8020635,13.842927,-13.265607,5.5974975,-3.0848973,0.10799699,6.0713153,-10.715522,17.219059,-39.793346,70.012184,5.7698355,-0.77292025,1.7441202,2.2553945,-16.607391,23.831911,56.436825,-10.233987,-2.0022712,-2.659704
58,-0.2915302515029907,1.7796987295150757,78.03743743896484,0.9115096766438048,1.2333439742096235,-88.38686997863087,-5.2365346,3.3330514,3.2512045,16.429787,-13.373186,-5.0500126,-2.7766185,-5.3609495,-5.757648,13.864758,-13.279491,5.622356,-3.0604043,0.11028487,6.1105347,-10.714171,17.22122,-39.789165,70.00832,5.7298265,-0.77427936,1.7270272,2.2465467,-16.60872,23.845692,56.43492,-10.205943,-2.0067086,-2.6468647
59,-0.2777964770793915,1.7818037271499634,78.04171752929688,0.9110690277145875,1.1933365698235459,-88.40732778435662,-5.180558,3.3352497,3.2715065,16.420887,-13.386542,-5.053491,-2.7406776,-5.3592625,-5.7146673,13.88245,-13.291598,5.64302,-3.037864,0.11678544,6.1532636,-10.712594,17.221992,-39.783962,70.00567,5.6866226,-0.77904576,1.7079446,2.237084,-16.609673,23.859352,56.433384,-10.181104,-2.0116334,-2.637953
60,-0.2428291141986847,1.77934992313385,78.01922607421875,0.9113515854439043,1.1715284230456058,-88.41908982779343,-5.14712,3.335956,3.2826524,16.410479,-13.392566,-5.0578666,-2.7203271,-5.3589087,-5.69264,13.887837,-13.300409,5.6478806,-3.0366373,0.12064794,6.1781483,-10.707842,17.22416,-39.772373,70.00799,5.6616607,-0.78648114,1.6950265,2.225157,-16.611404,23.892538,56.43149,-10.169343,-2.015088,-2.644104
61,-0.23052945733070374,1.7700139284133911,78.00994110107422,0.913455523214277,1.1777032618797014,-88.41712441654299,-5.14894,3.3336146,3.279195,16.399675,-13.3896885,-5.064118,-2.7214165,-5.3615603,-5.7043858,13.868493,-13.304278,5.6250744,-3.041938,0.11770961,6.180063,-10.713226,17.22736,-39.775166,70.02025,5.6665506,-0.7982369,1.6899008,2.2308109,-16.61062,23.912268,56.410645,-10.199621,-2.0164995,-2.6670165
62,-0.23316392302513123,1.767486572265625,78.009521484375,0.9154116569692526,1.1995435252478062,-88.40674363840391,-5.1695642,3.3305857,3.2657938,16.38678,-13.381778,-5.072564,-2.733268,-5.364468,-5.7371974,13.8321905,-13.304662,5.583659,-3.0579088,0.108982235,6.1652904,-10.725335,17.23521,-39.79922,70.04478,5.669614,-0.8154979,1.6891457,2.244804,-16.605217,23.938482,56.382122,-10.248972,-2.0150654,-2.7053766
63,-0.2537916600704193,1.7653616666793823,78.01331329345703,0.9163662447966971,1.2242094797849712,-88.39577508417246,-5.1946645,3.3287427,3.2513356,16.375238,-13.372457,-5.080656,-2.7502449,-5.3661895,-5.771557,13.799759,-13.302739,5.5436044,-3.066381,0.10041132,6.1493673,-10.734249,17.24455,-39.81594,70.06109,5.68961,-0.8300502,1.6890802,2.2638905,-16.5958,23.951916,56.352554,-10.300726,-2.016437,-2.746552
64,-0.2591091990470886,1.7680425643920898,78.01929473876953,0.9157133201944119,1.2389160618174648,-88.39125679736976,-5.207395,3.3296812,3.2443933,16.362598,-13.362179,-5.085878,-2.762551,-5.3648643,-5.788712,13.783924,-13.295896,5.524935,-3.0670922,0.09631774,6.14137,-10.740342,17.256699,-39.830097,70.06809,5.6948056,-0.83750397,1.6878772,2.2758818,-16.58156,23.960796,56.3379,-10.329404,-2.0236018,-2.7830298
65,-0.28174176812171936,1.7750823497772217,78.03470611572266,0.9108329559604871,1.2390685398275345,-88.39559855576088,-5.2039814,3.3363705,3.2479477,16.351488,-13.350117,-5.086283,-2.7712374,-5.357482,-5.7797074,13.800078,-13.281782,5.539104,-3.0531845,0.10440581,6.1461,-10.735342,17.265,-39.814022,70.05588,5.7076755,-0.83223826,1.6844319,2.2856998,-16.568476,23.95992,56.33672,-10.322711,-2.0428329,-2.8208985
66,-0.27195513248443604,1.7862614393234253,78.04070281982422,0.9028838239015411,1.2317611715331063,-88.40477238410193,-5.1920357,3.3469932,3.2571945,16.339756,-13.335108,-5.083586,-2.7788863,-5.3458095,-5.7560415,13.834946,-13.260973,5.57347,-3.0364628,0.12054429,6.1572475,-10.721573,17.27241,-39.774937,70.03062,5.725781,-0.818895,1.6801068,2.2877424,-16.5513,23.957737,56.351345,-10.295502,-2.0704637,-2.8630056
67,-0.25845998525619507,1.7881238460540771,78.04310607910156,0.8959573466846784,1.2221864374127471,-88.41641086171221,-5.1766357,3.3566427,3.268733,16.327911,-13.322141,-5.0809183,-2.7842488,-5.3350754,-5.729138,13.869586,-13.2413025,5.611593,-3.016903,0.13788871,6.1704135,-10.712036,17.275242,-39.74235,70.01046,5.735269,-0.80673534,1.676869,2.293474,-16.54081,23.953712,56.358425,-10.259344,-2.0944104,-2.8893714
68,-0.25948968529701233,1.7874072790145874,78.03768920898438,0.8940960461022376,1.215444543708839,-88.42793288073538,-5.16245,3.3610787,3.278916,16.315096,-13.315418,-5.0815067,-2.7857814,-5.3299627,-5.710728,13.885783,-13.230962,5.6368594,-2.999275,0.14649412,6.1802926,-10.709937,17.275848,-39.731026,70.0047,5.7329407,-0.80395985,1.675877,2.3007123,-16.537766,23.951721,56.351734,-10.227623,-2.1033254,-2.8820908
69,-0.2605358064174652,1.7807202339172363,78.02999114990234,0.9006221352937597,1.2101176073402296,-88.44308315990949,-5.1434236,3.3559663,3.2905078,16.297071,-13.320563,-5.0873775,-2.7779775,-5.335362,-5.702143,13.870694,-13.235332,5.6440315,-2.9930158,0.13910843,6.193008,-10.712156,17.276827,-39.72311,70.01356,5.729082,-0.81754017,1.6737729,2.2976308,-16.535069,23.952183,56.332817,-10.2174225,-2.0893862,-2.8229115
70,-0.27300673723220825,1.7734007835388184,78.02247619628906,0.9126790961076435,1.2039279248070938,-88.46154433310633,-5.11904,3.3446875,3.3041396,16.275253,-13.33327,-5.096497,-2.7622225,-5.347177,-5.697835,13.835606,-13.248172,5.6421447,-2.9958649,0.119262114,6.2096705,-10.721592,17.280558,-39.721634,70.036804,5.7148647,-0.84329975,1.6707507,2.2819571,-16.530603,23.958845,56.30874,-10.214606,-2.0584903,-2.7250087
71,-0.26191192865371704,1.7754679918289185,78.01549530029297,0.925263018938412,1.2017203588747414,-88.47564512631384,-5.101773,3.3330963,3.313856,16.256062,-13.343764,-5.1055484,-2.7507586,-5.359256,-5.6983495,13.802075,-13.262817,5.636509,-3.0011196,0.097685486,6.2203193,-10.729505,17.286104,-39.72945,70.05907,5.6962223,-0.86702484,1.671593,2.264881,-16.526793,23.96801,56.28771,-10.206073,-2.0268764,-2.622401
72,-0.25669777393341064,1.7814725637435913,78.0135498046875,0.9334207158767016,1.2081807426337867,-88.47836483049213,-5.103821,3.3269534,3.3143773,16.245749,-13.34169,-5.1111526,-2.7524812,-5.3651786,-5.703814,13.783776,-13.267725,5.6324425,-3.0064414,0.0852088,6.2196026,-10.732332,17.288462,-39.732,70.07093,5.6921716,-0.8755357,1.6802466,2.2621481,-16.525314,23.969658,56.26506,-10.19123,-2.006685,-2.5463026
73,-0.2611273229122162,1.7878215312957764,78.01952362060547,0.934959699290482,1.231258455673387,-88.46207605912564,-5.140756,3.3289742,3.3005288,16.2508,-13.31769,-5.1103687,-2.778574,-5.361833,-5.718802,13.79049,-13.25572,5.6327477,-3.0151315,0.082367785,6.199831,-10.730427,17.291552,-39.729336,70.06957,5.7066374,-0.8602072,1.703923,2.2730207,-16.522076,23.965054,56.244305,-10.155749,-2.003474,-2.5053406
74,-0.27495384216308594,1.7957696914672852,78.03153228759766,0.9328320083976901,1.2668292595481376,-88.4326808242316,-5.2031937,3.335339,3.2765749,16.267342,-13.279939,-5.1056466,-2.822262,-5.3533344,-5.7414746,13.812907,-13.234102,5.6341934,-3.02728,0.08020935,6.16688,-10.723781,17.302097,-39.72235,70.05554,5.7355766,-0.82830286,1.7373488,2.2901185,-16.506687,23.946308,56.22835,-10.120337,-2.0092294,-2.4837372
75,-0.2828984558582306,1.8022130727767944,78.0403823852539,0.9302788455195706,1.298858916928136,-88.40236919508536,-5.2605963,3.3429153,3.2507865,16.281233,-13.242201,-5.1018677,-2.8638406,-5.3437214,-5.7630706,13.84074,-13.216492,5.632704,-3.039738,0.076773584,6.1354446,-10.714667,17.313856,-39.71377,70.03936,5.7645216,-0.796868,1.7672458,2.301049,-16.483833,23.931053,56.22674,-10.089836,-2.01861,-2.473972
76,-0.3093792498111725,1.801040530204773,78.04485321044922,0.9300684422429748,1.3123520503481372,-88.38288912284861,-5.2837753,3.347971,3.2315378,16.279123,-13.218558,-5.103834,-2.8845775,-5.3372893,-5.7746606,13.863248,-13.216448,5.6243954,-3.049511,0.07008651,6.12213,-10.709494,17.321733,-39.708622,70.03172,5.776068,-0.7829473,1.7798421,2.310592,-16.466984,23.92844,56.22401,-10.076995,-2.0229201,-2.46646
77,-0.32535263895988464,1.7960853576660156,78.04129791259766,0.9340384755402826,1.2943958754841969,-88.38208422407058,-5.251007,3.3483083,3.2240326,16.254152,-13.220137,-5.112123,-2.8699327,-5.336529,-5.7685637,13.878506,-13.244622,5.6080637,-3.0557268,0.05456092,6.140044,-10.707061,17.3318,-39.710724,70.032135,5.758352,-0.79562443,1.7626578,2.3106608,-16.448763,23.945232,56.22772,-10.0902405,-2.019864,-2.46122
78,-0.33859899640083313,1.7872506380081177,78.03949737548828,0.9401665627384405,1.256095771918359,-88.3918605266659,-5.1832957,3.3463492,3.222798,16.215998,-13.23771,-5.1243873,-2.8333783,-5.338669,-5.751286,13.891867,-13.291392,5.5859222,-3.057743,0.03865445,6.180084,-10.710465,17.337881,-39.718212,70.03924,5.7225432,-0.8250227,1.7260882,2.315549,-16.440529,23.968102,56.222427,-10.122433,-2.0132585,-2.4590867
79,-0.33896923065185547,1.7843468189239502,78.02851867675781,0.9463747574841714,1.218125706034735,-88.4011974509814,-5.1138296,3.3451157,3.220236,16.172655,-13.253026,-5.141023,-2.7988098,-5.34019,-5.735219,13.906977,-13.341548,5.5588384,-3.0631561,0.019987067,6.217406,-10.712134,17.347736,-39.7308,70.04524,5.6753035,-0.85714257,1.6896801,2.3148634,-16.430384,24.002922,56.226505,-10.158317,-2.0061312,-2.4638157
80,-0.3310205936431885,1.7859796285629272,78.01112365722656,0.9503576315815441,1.2009478135552583,-88.39920313414788,-5.077614,3.3481646,3.2085197,16.136396,-13.250414,-5.1623554,-2.7908938,-5.336892,-5.732701,13.928804,-13.380835,5.527672,-3.0641932,0.0062913867,6.2374573,-10.714864,17.356142,-39.734833,70.04255,5.649225,-0.878281,1.6717267,2.322887,-16.422167,24.020649,56.22372,-10.196324,-2.0022333,-2.4698892
81,-0.34477248787879944,1.7857710123062134,78.01212310791016,0.9516393998572067,1.2163877878796667,-88.3764954096376,-5.0918903,3.35481,3.180153,16.107502,-13.219197,-5.191082,-2.8187134,-5.328101,-5.7527633,13.949951,-13.401512,5.4943132,-3.071092,0.0030912634,6.2269764,-10.718734,17.357426,-39.73663,70.03135,5.6344967,-0.8845261,1.6826081,2.3297472,-16.420727,24.023302,56.226692,-10.218637,-2.0036364,-2.4763963
82,-0.3804885149002075,1.7938902378082275,78.02381896972656,0.9555711136016882,1.2581885817563596,-88.33836627733515,-5.140247,3.358152,3.1395328,16.072561,-13.164235,-5.2252865,-2.880853,-5.322181,-5.788121,13.981627,-13.417482,5.4586124,-3.0781403,-0.0134272585,6.184828,-10.720019,17.373892,-39.751877,70.01082,5.616792,-0.8821205,1.711494,2.348909,-16.397871,24.019115,56.23267,-10.241763,-2.0080523,-2.4941003
83,-0.3974948525428772,1.8049776554107666,78.0230484008789,0.9553410099561898,1.2969009108318326,-88.30442319620535,-5.189742,3.3696477,3.102185,16.047728,-13.111094,-5.261056,-2.945858,-5.30881,-5.8223686,14.024494,-13.432745,5.4156094,-3.0762658,-0.02776328,6.1490073,-10.725016,17.393066,-39.767277,69.98845,5.604211,-0.8759894,1.7427992,2.353748,-16.36953,24.00903,56.25407,-10.283351,-2.0132582,-2.5144787
84,-0.42179301381111145,1.8115772008895874,78.03377532958984,0.9505728977185259,1.3135325275477316,-88.28997535117199,-5.2156534,3.3919802,3.0810452,16.037668,-13.077075,-5.2930093,-3.0017707,-5.287007,-5.8411717,14.096662,-13.459361,5.361618,-3.0638855,-0.03620857,6.1361947,-10.732945,17.405262,-39.775227,69.97561,5.596821,-0.87079144,1.7655504,2.3489861,-16.353678,24.016184,56.278145,-10.355941,-2.0153506,-2.539767
85,-0.4310903549194336,1.8176028728485107,78.04158782958984,0.9403500285921839,1.2934700940147175,-88.30699053157653,-5.195031,3.4266288,3.0893476,16.039316,-13.069659,-5.3169136,-3.0371683,-5.2577267,-5.836308,14.2082815,-13.499015,5.3031864,-3.035372,-0.039953604,6.1603866,-10.737354,17.415462,-39.77548,69.96649,5.596958,-0.8653415,1.774275,2.3273757,-16.34419,24.042562,56.314713,-10.490761,-2.0138535,-2.5803387
86,-0.4427207112312317,1.8212605714797974,78.03837585449219,0.9262577391731105,1.2511770334626755,-88.34381675465876,-5.146893,3.4706116,3.1164927,16.04895,-13.077007,-5.336348,-3.0581288,-5.2220163,-5.8179007,14.33946,-13.54429,5.2400126,-3.012244,-0.041829184,6.2043953,-10.727264,17.434355,-39.765266,69.95002,5.5930605,-0.858098,1.7767224,2.275351,-16.334639,24.104944,56.37906,-10.663094,-2.0098517,-2.6361628
87,-0.4627011716365814,1.822830319404602,78.02356719970703,0.9093376237046737,1.2087898275330868,-88.38248374853282,-5.109204,3.5226295,3.1412342,16.078302,-13.092034,-5.3581467,-3.0923817,-5.177979,-5.795586,14.495584,-13.600559,5.157478,-2.9830654,-0.043380223,6.252477,-10.71559,17.458143,-39.737522,69.92742,5.6040974,-0.8505049,1.7762138,2.219952,-16.330797,24.175241,56.43875,-10.827235,-2.0046418,-2.6837132
88,-0.5038915872573853,1.8295344114303589,78.0205078125,0.891095013526657,1.1883915537116079,-88.40474638211445,-5.119287,3.5810282,3.14205,16.137093,-13.106528,-5.3890066,-3.1656594,-5.1239576,-5.7797217,14.678907,-13.673603,5.0409856,-2.9430568,-0.04775029,6.2833514,-10.721608,17.483562,-39.7117,69.91088,5.6171618,-0.8448914,1.7779953,2.1759346,-16.331472,24.237177,56.479538,-10.93379,-1.9999087,-2.7033072
89,-0.5386496186256409,1.839764952659607,78.01341247558594,0.8724652935905125,1.200026936313712,-88.40346497090101,-5.1893115,3.64471,3.1091964,16.222967,-13.114817,-5.431246,-3.2957144,-5.0585175,-5.7678065,14.906276,-13.774467,4.874609,-2.89352,-0.057889197,6.283212,-10.740003,17.515232,-39.678032,69.892075,5.6464696,-0.8391118,1.7772684,2.149807,-16.332287,24.288424,56.49947,-10.950595,-1.9974599,-2.6844752
90,-0.5896520614624023,1.8589566946029663,78.0033187866211,0.8524927336781831,1.2304981724111743,-88.3892335982934,-5.298127,3.7144606,3.0554585,16.331114,-13.121833,-5.4811206,-3.4654078,-4.983217,-5.7559757,15.172204,-13.898384,4.6697755,-2.8339694,-0.07381751,6.265992,-10.763229,17.555843,-39.63295,69.866196,5.693545,-0.83249074,1.7729009,2.13125,-16.33193,24.334948,56.50881,-10.910865,-1.9963347,-2.640053
91,-0.654606819152832,1.8772097826004028,78.00927734375,0.8302313772056332,1.267291356970176,-88.36989006781955,-5.433384,3.791498,2.9930005,16.468674,-13.135652,-5.536052,-3.6457098,-4.900562,-5.7525606,15.440103,-14.023826,4.4530187,-2.7650628,-0.09232957,6.2509065,-10.801768,17.599289,-39.595245,69.84889,5.728518,-0.8295624,1.7762642,2.1066582,-16.33193,24.381517,56.513508,-10.86309,-1.9935921,-2.585588
92,-0.7383594512939453,1.8950968980789185,78.00735473632812,0.8042950704397693,1.2978473894956435,-88.35331886261572,-5.5821266,3.8774354,2.934027,16.641603,-13.164081,-5.593521,-3.810186,-4.8128953,-5.7659144,15.678109,-14.131153,4.251211,-2.6915455,-0.11030985,6.2597866,-10.848915,17.648216,-39.560295,69.83483,5.7407885,-0.83350915,1.796929,2.0595732,-16.335304,24.437626,56.51825,-10.853356,-1.9864606,-2.5364728
93,-0.7970269918441772,1.922813057899475,78.00389099121094,0.7803253104060139,1.319934063286105,-88.35240488584746,-5.733859,3.968773,2.8953104,16.84102,-13.206173,-5.6533375,-3.961814,-4.724745,-5.7861485,15.889775,-14.223933,4.066354,-2.6206698,-0.14324036,6.302989,-10.886246,17.724909,-39.51058,69.80128,5.7229037,-0.8471375,1.8417172,1.976148,-16.347237,24.523432,56.5157,-10.899102,-1.9721321,-2.484084
94,-0.8748725056648254,1.9562922716140747,77.98986053466797,0.7567232884609769,1.339833554943862,-88.35948108422134,-5.8958464,4.066364,2.8658128,17.062923,-13.258421,-5.7166066,-4.1118507,-4.6333814,-5.8129225,16.088964,-14.309862,3.886036,-2.5423827,-0.18465982,6.3664985,-10.931139,17.809841,-39.4593,69.76996,5.6829443,-0.86858577,1.9052069,1.8731108,-16.3669,24.622229,56.50319,-10.9741955,-1.9528856,-2.4237742
95,-0.9659461975097656,1.992721676826477,77.97610473632812,0.7218843549423203,1.3578870911859893,-88.35106533411916,-6.088088,4.1771755,2.815656,17.334002,-13.324984,-5.782535,-4.2447333,-4.5304646,-5.8692474,16.254984,-14.372268,3.71573,-2.4607952,-0.20532896,6.443883,-10.989261,17.897768,-39.424038,69.73642,5.6265965,-0.89208466,1.9722627,1.768075,-16.39481,24.714773,56.486958,-11.054414,-1.9331658,-2.376162
96,-1.0440523624420166,2.034987688064575,77.96348571777344,0.6639719519126881,1.3744496144618679,-88.30393140187475,-6.329684,4.3083196,2.7148786,17.678417,-13.4117,-5.8506827,-4.3449426,-4.407403,-5.9780607,16.366972,-14.394107,3.5609536,-2.377191,-0.17478451,6.5307283,-11.060809,17.982716,-39.409218,69.68859,5.5756707,-0.91110843,2.0270996,1.6812463,-16.430204,24.779716,56.467495,-11.113475,-1.9174744,-2.3610501
97,-1.14923095703125,2.078556537628174,77.94880676269531,0.5768220769002965,1.3827683083506357,-88.21922073776683,-6.610675,4.468402,2.5613272,18.093388,-13.5214,-5.920433,-4.397375,-4.2554336,-6.147296,16.409477,-14.363295,3.4200063,-2.280422,-0.075885616,6.6282706,-11.157895,18.060757,-39.441265,69.632576,5.511261,-0.9286586,2.0586066,1.6215857,-16.473177,24.801764,56.449562,-11.146119,-1.9061544,-2.39834
98,-1.2290114164352417,2.1321606636047363,77.93748474121094,0.46745676783178963,1.3850913786456902,-88.10687716930202,-6.927416,4.6509295,2.3683498,18.571692,-13.649976,-5.9925113,-4.4136367,-4.080813,-6.3642564,16.394625,-14.290055,3.2913353,-2.1703386,0.07332572,6.7373605,-11.277022,18.128996,-39.500748,69.574524,5.4431005,-0.94640005,2.0777884,1.5802429,-16.523846,24.79128,56.42902,-11.1663685,-1.8971338,-2.4723053
99,-1.3024858236312866,2.189406633377075,77.92467498779297,0.3432578479167133,1.395451672277448,-87.956608817271,-7.297196,4.8399887,2.1298833,19.108166,-13.790407,-6.068909,-4.4210873,-3.8971093,-6.620738,16.347834,-14.192761,3.1801524,-2.0694082,0.2502883,6.8499484,-11.417514,18.186092,-39.57822,69.52538,5.3750596,-0.9581631,2.1043978,1.5448991,-16.584242,24.770441,56.403088,-11.177881,-1.8907894,-2.5506217
100,-1.413546085357666,2.254413366317749,77.91436004638672,0.21186929038014957,1.4278498636171384,-87.75827881771455,-7.7360888,5.018796,1.8403703,19.695154,-13.93307,-6.1516533,-4.447587,-3.71902,-6.9083495,16.296938,-14.091453,3.091742,-1.9987777,0.4300728,6.9577575,-11.564223,18.226053,-39.62519,69.48714,5.3530746,-0.9562002,2.1571798,1.5027499,-16.651861,24.759823,56.371223,-11.186072,-1.8877492,-2.6015399
101,-1.51947820186615,2.3180763721466064,77.9072494506836,0.0768689393667517,1.493810188433652,-87.5026563328165,-8.252548,5.182769,1.4960697,20.31909,-14.069139,-6.2432218,-4.5013437,-3.5500667,-7.2293673,16.235462,-13.9786215,3.0326574,-1.966898,0.60800403,7.055906,-11.71962,18.254728,-39.64256,69.460724,5.385042,-0.9312603,2.2416096,1.4601046,-16.735159,24.761415,56.32115,-11.200453,-1.8879764,-2.6126716
102,-1.651164174079895,2.379579544067383,77.89676666259766,-0.06598657147654532,1.5835806989570929,-87.1976325835883,-8.835425,5.3383493,1.1008542,20.985994,-14.205058,-6.34262,-4.568678,-3.3831658,-7.5864863,16.15618,-13.849927,2.998558,-1.9634936,0.7953576,7.149039,-11.885209,18.269913,-39.637558,69.444725,5.4611745,-0.8894219,2.347519,1.418191,-16.83055,24.767027,56.261246,-11.2164755,-1.8912957,-2.603011
103,-1.7446465492248535,2.4675076007843018,77.8768310546875,-0.2193077291577778,1.6794209137775904,-86.85819958738783,-9.473614,5.485413,0.6604407,21.721516,-14.355894,-6.4466534,-4.6397567,-3.2162693,-7.972254,16.073751,-13.72243,2.9783812,-1.9809618,1.0001843,7.2516885,-12.055802,18.27008,-39.624847,69.42837,5.54041,-0.8480606,2.4692008,1.3735555,-16.945856,24.78362,56.188133,-11.2081375,-1.8972478,-2.5815656
104,-1.7900116443634033,2.568608045578003,77.84481048583984,-0.3866243276232108,1.7636227253964736,-86.49926349380316,-10.156279,5.6236362,0.18059444,22.552357,-14.537724,-6.5520105,-4.707169,-3.0472565,-8.379195,16.008354,-13.616572,2.9606786,-2.0122557,1.2283,7.376438,-12.226162,18.251831,-39.615845,69.404076,5.586209,-0.8242776,2.6014624,1.3182895,-17.084057,24.817886,56.106804,-11.152097,-1.9055636,-2.558893
105,-1.8422925472259521,2.6736788749694824,77.79975128173828,-0.5785336105409334,1.8293301387155392,-86.11863731765806,-10.891382,5.760297,-0.34995973,23.500868,-14.762989,-6.6721916,-4.758476,-2.8646214,-8.813046,15.94874,-13.530493,2.9462452,-2.0583425,1.4954457,7.538977,-12.398779,18.211102,-39.591198,69.372154,5.5849376,-0.8307821,2.7452316,1.2562616,-17.252459,24.87241,56.001083,-11.010863,-1.9175578,-2.5300105
106,-1.9119905233383179,2.771289587020874,77.74755096435547,-0.7901241818621215,1.887341347482855,-85.71047037757847,-11.68116,5.8900323,-0.9296162,24.547998,-15.020816,-6.804874,-4.802846,-2.6729574,-9.274902,15.892638,-13.457499,2.9396982,-2.1219923,1.7951697,7.7292156,-12.576465,18.146105,-39.548985,69.338844,5.5616074,-0.8559883,2.90292,1.1928524,-17.453712,24.942728,55.86978,-10.806354,-1.9326952,-2.4910603
107,-1.983410358428955,2.8714072704315186,77.69837188720703,-1.001045500750147,1.9460350670040987,-85.28391186907945,-12.504674,5.9945946,-1.5330282,25.656078,-15.290279,-6.923841,-4.8592157,-2.4933465,-9.751154,15.86386,-13.404998,2.9356399,-2.1981044,2.10361,7.9224033,-12.754756,18.058823,-39.532684,69.30118,5.5310383,-0.88107365,3.0712333,1.1303546,-17.684443,25.023298,55.728664,-10.603284,-1.9476824,-2.4521537
108,-2.0486998558044434,2.9788715839385986,77.65523529052734,-1.191916446004109,2.0134133287111524,-84.8482745808229,-13.337955,6.0569067,-2.1343803,26.783558,-15.549773,-7.0041428,-4.947872,-2.3471606,-10.228381,15.890856,-13.38339,2.92846,-2.2790787,2.3951492,8.094103,-12.918313,17.951178,-39.55986,69.24639,5.5365496,-0.8860077,3.2457774,1.0700177,-17.936758,25.105192,55.59517,-10.468704,-1.9597361,-2.4238553
109,-2.098863124847412,3.094820022583008,77.61451721191406,-1.360103970487966,2.103313645175637,-84.39407472163333,-14.217726,6.035605,-2.8020911,27.909803,-15.762491,-7.0353775,-5.0873537,-2.2401078,-10.714055,15.982654,-13.3989525,2.9101388,-2.3688035,2.6710882,8.233791,-13.074964,17.82444,-39.652683,69.17085,5.5627723,-0.8609697,3.4324853,1.0088482,-18.20692,25.18278,55.468487,-10.423673,-1.9732063,-2.404041
110,-2.1512138843536377,3.2120018005371094,77.57316589355469,-1.5153450701658138,2.2072860137241403,-83.92045003973001,-15.136988,5.9485035,-3.5220075,29.054907,-15.94802,-7.0376744,-5.2574964,-2.1605494,-11.2120285,16.11574,-13.444791,2.885409,-2.4669738,2.9401112,8.355584,-13.224487,17.67766,-39.78657,69.07834,5.6076317,-0.81735027,3.6307526,0.94459045,-18.494917,25.259075,55.346115,-10.433445,-1.9883064,-2.3895187
111,-2.2160744667053223,3.3199262619018555,77.53119659423828,-1.6569303313592925,2.2996670804484953,-83.44936858755065,-16.01829,5.872679,-4.1475263,30.258976,-16.17091,-7.0276504,-5.43579,-2.1056724,-11.703158,16.301485,-13.514708,2.8675761,-2.5643973,3.191793,8.469822,-13.359728,17.514317,-39.96453,68.9842,5.6708565,-0.7690282,3.8288407,0.8771927,-18.795885,25.345984,55.2461,-10.479678,-1.9959348,-2.3899312
112,-2.2477831840515137,3.430769681930542,77.48226165771484,-1.784730365980656,2.3546831515396773,-83.00278912440747,-16.786695,5.8917704,-4.5352497,31.559399,-16.494963,-7.0155864,-5.593194,-2.0712824,-12.168463,16.53535,-13.599011,2.8702092,-2.6519012,3.4128184,8.585359,-13.475483,17.341833,-40.19838,68.905556,5.743979,-0.7297537,4.014893,0.8016958,-19.103745,25.456186,55.194157,-10.544515,-1.9869653,-2.4158957
113,-2.289501428604126,3.5390892028808594,77.43061828613281,-1.9051425890696905,2.3693626598384356,-82.57458421316787,-17.433506,6.0444217,-4.616103,32.96045,-16.96802,-7.0198755,-5.7150326,-2.0491889,-12.61843,16.795097,-13.689433,2.9075472,-2.7373931,3.6033745,8.703101,-13.572673,17.166359,-40.525185,68.84328,5.804621,-0.70802563,4.2135587,0.7095562,-19.413355,25.626854,55.205276,-10.641313,-1.9532839,-2.5097566
114,-2.3325209617614746,3.625302791595459,77.375,-2.017484993087064,2.355927021537999,-82.15696880334681,-17.997429,6.293172,-4.4819794,34.444744,-17.546597,-7.022151,-5.82151,-2.0436838,-13.058136,17.09523,-13.792521,2.9685962,-2.823749,3.7660308,8.818209,-13.646634,16.989737,-40.923767,68.78237,5.866255,-0.6942294,4.4210525,0.5988727,-19.723005,25.842884,55.27162,-10.774819,-1.9015583,-2.6539018
115,-2.367952823638916,3.7014174461364746,77.32926940917969,-2.1101997766495275,2.311032146471597,-81.76917004895706,-18.476076,6.609247,-4.2331862,36.020744,-18.159546,-6.9742184,-5.9214263,-2.0660017,-13.461087,17.456068,-13.919195,3.0295756,-2.8946977,3.8945398,8.931945,-13.69094,16.814753,-41.336384,68.71912,5.953776,-0.67630804,4.583262,0.48014286,-20.02963,26.038956,55.37606,-10.912149,-1.8454671,-2.7677302
116,-2.3935322761535645,3.7830536365509033,77.29856872558594,-2.171608291101567,2.230795399199499,-81.43096536921952,-18.864588,6.9604473,-3.9688241,37.692173,-18.734245,-6.829525,-6.02559,-2.127505,-13.801013,17.902483,-14.081184,3.06673,-2.9326394,3.9821336,9.046885,-13.687857,16.6425,-41.675404,68.63905,6.1244516,-0.64070696,4.6450567,0.36663935,-20.32959,26.146008,55.499027,-11.022745,-1.799447,-2.7707167
117,-2.4233973026275635,3.8625576496124268,77.26934814453125,-2.1926500692181685,2.10430667418182,-81.14755529345769,-19.151415,7.360382,-3.6642187,39.489254,-19.272465,-6.5400777,-6.130971,-2.2392116,-14.069196,18.455915,-14.28714,3.0673246,-2.9337378,4.016023,9.168556,-13.637707,16.47702,-41.96745,68.53734,6.398684,-0.5864968,4.586771,0.23509595,-20.627028,26.162092,55.66908,-11.100418,-1.7687905,-2.577278
118,-2.433056592941284,3.9309046268463135,77.23690032958984,-2.18169401905395,1.9354934463697657,-80.9092242864145,-19.335178,7.8272505,-3.2881277,41.38986,-19.804142,-6.137044,-6.2295628,-2.3906407,-14.280059,19.091393,-14.525802,3.046717,-2.9061153,4.003203,9.295523,-13.545957,16.320807,-42.241505,68.41632,6.7451544,-0.520571,4.4386597,0.089042395,-20.924072,26.117294,55.882957,-11.1613455,-1.7458194,-2.2512872
119,-2.4396798610687256,3.998922109603882,77.21063232421875,-2.1538542258598556,1.7427700412977774,-80.71266283860471,-19.425016,8.328163,-2.92541,43.313553,-20.293493,-5.696393,-6.3234496,-2.5607686,-14.4407625,19.76163,-14.776543,3.0231085,-2.8531647,3.9671273,9.4179945,-13.41184,16.172508,-42.431404,68.284065,7.123535,-0.44256297,4.2213016,-0.025008809,-21.211433,25.996395,56.08255,-11.206341,-1.725073,-1.9376652
120,-2.442497491836548,4.060020923614502,77.18079376220703,-2.1237385739706443,1.5451848470411707,-80.55442464076982,-19.434673,8.824125,-2.6570344,45.185707,-20.704237,-5.298669,-6.4160595,-2.729037,-14.558979,20.421122,-15.02007,3.0142558,-2.7808974,3.9302366,9.523062,-13.2479725,16.03198,-42.501854,68.16206,7.459439,-0.35285842,3.9568095,-0.06929503,-21.474373,25.78891,56.22202,-11.235334,-1.7011082,-1.7827924
121,-2.4320521354675293,4.110004901885986,77.144775390625,-2.0899376265084753,1.3349447133848669,-80.44124523496208,-19.352877,9.313856,-2.4830942,47.02457,-21.025663,-4.9506845,-6.494791,-2.8937137,-14.624061,21.056402,-15.256565,3.024713,-2.6851387,3.889822,9.6117115,-13.040625,15.897904,-42.431904,68.04633,7.7625036,-0.24381469,3.625872,-0.03423906,-21.698366,25.47977,56.30715,-11.271284,-1.6666371,-1.8705968
122,-2.4268383979797363,4.162286281585693,77.11555480957031,-2.0458640128155428,1.1059572292477535,-80.37270071131772,-19.175804,9.8110285,-2.3629217,48.855267,-21.275307,-4.6172466,-6.5624127,-3.0646157,-14.636008,21.692698,-15.495029,3.0450327,-2.5665493,3.8330476,9.68716,-12.788286,15.769935,-42.240345,67.931946,8.066711,-0.11851422,3.2250242,0.04786086,-21.87924,25.082762,56.375275,-11.307877,-1.6265023,-2.1107938
123,-2.408651351928711,4.215052127838135,77.0796890258789,-1.997885402041817,0.8802921307680026,-80.33405223036573,-18.932226,10.294551,-2.313632,50.61828,-21.458971,-4.3188953,-6.6477947,-3.2399194,-14.618297,22.345104,-15.730345,3.0719082,-2.4377465,3.765756,9.738465,-12.523284,15.651276,-41.95618,67.84047,8.329927,0.008290633,2.8005774,0.15177073,-22.022623,24.629068,56.428753,-11.302791,-1.5939865,-2.3883643
124,-2.379760265350342,4.2565813064575195,77.03787994384766,-1.952884674646585,0.6803492388517197,-80.31025437119625,-18.65586,10.743458,-2.3539422,52.260494,-21.5858,-4.075904,-6.780593,-3.4185414,-14.594473,23.029793,-15.957899,3.1021552,-2.3112884,3.6950612,9.756753,-12.271067,15.546276,-41.595554,67.78397,8.52217,0.12343631,2.3982747,0.25848886,-22.139805,24.147964,56.459064,-11.21337,-1.5824865,-2.5872917
125,-2.347951650619507,4.301070690155029,76.99226379394531,-1.915192473980588,0.509282241437895,-80.30598642611204,-18.354692,11.157854,-2.499253,53.800278,-21.636618,-3.8971503,-6.9724965,-3.5973716,-14.568784,23.76718,-16.175364,3.1358232,-2.1834245,3.626102,9.738745,-12.025185,15.458059,-41.130993,67.75591,8.686925,0.2457359,2.0146115,0.37474748,-22.237394,23.620947,56.4496,-11.02598,-1.5980742,-2.6917906
126,-2.304800510406494,4.367818832397461,76.94712829589844,-1.8795012677293188,0.35635835364341106,-80.32595973019549,-18.014069,11.544309,-2.7337005,55.258625,-21.614264,-3.7729983,-7.207117,-3.7789094,-14.528681,24.543781,-16.385672,3.174348,-2.0538406,3.549742,9.690476,-11.763207,15.396576,-40.555954,67.734474,8.827772,0.37654355,1.6289331,0.5014935,-22.302895,23.046953,56.412724,-10.763409,-1.6329931,-2.7597287
127,-2.24357533454895,4.44753360748291,76.89840698242188,-1.838875015541766,0.22338957517785965,-80.35582683739511,-17.637344,11.893661,-3.0312788,56.593266,-21.563475,-3.695499,-7.4729805,-3.9702034,-14.473002,25.327955,-16.594236,3.2164965,-1.9316583,3.4685457,9.62119,-11.513645,15.349046,-39.936047,67.7364,8.841638,0.4752179,1.2643195,0.6432683,-22.358906,22.46243,56.341522,-10.4348,-1.6791644,-2.7770529
128,-2.1858959197998047,4.523528575897217,76.85523986816406,-1.786369407889685,0.11214264661033133,-80.3808456791879,-17.22612,12.196207,-3.3656483,57.759457,-21.532585,-3.6567047,-7.756316,-4.177804,-14.400913,26.083439,-16.806074,3.2610836,-1.8309925,3.3786218,9.537057,-11.2983465,15.3160305,-39.341717,67.77215,8.615964,0.50280803,0.94409144,0.7892497,-22.414623,21.915833,56.249134,-10.047593,-1.7284191,-2.7335227
129,-2.122523069381714,4.611998081207275,76.8039779663086,-1.7136750776769607,0.03192805709493943,-80.40081108560217,-16.783442,12.43385,-3.7490368,58.750233,-21.529518,-3.6668134,-8.071832,-4.411007,-14.301707,26.817995,-17.033583,3.306971,-1.7500005,3.2648354,9.418198,-11.110758,15.304718,-38.764595,67.84756,8.001736,0.4215888,0.6525353,0.93256354,-22.453285,21.412819,56.147087,-9.540154,-1.7834523,-2.601019
130,-2.042189121246338,4.685052871704102,76.7534408569336,-1.626873046613181,-0.021027957048318887,-80.42221551833863,-16.309467,12.615754,-4.188337,59.59277,-21.532818,-3.727581,-8.417956,-4.6624937,-14.179277,27.538385,-17.268179,3.3550642,-1.6835617,3.1426532,9.278661,-10.941698,15.311579,-38.162502,67.94374,7.10802,0.26398283,0.3801536,1.0981052,-22.498877,20.916185,55.993374,-8.932883,-1.8446673,-2.3859375
131,-1.958481788635254,4.759056091308594,76.69880676269531,-1.539116418879926,-0.06420877068308686,-80.44016136571486,-15.802957,12.773603,-4.648475,60.294,-21.540798,-3.8172793,-8.776547,-4.9209614,-14.052119,28.248856,-17.495222,3.407265,-1.6384407,3.017285,9.133305,-10.804907,15.332287,-37.606037,68.07535,6.173123,0.097491786,0.17004943,1.2539014,-22.531824,20.464743,55.847385,-8.342232,-1.9030863,-2.1588888
132,-1.8678877353668213,4.856067180633545,76.63932800292969,-1.464528291272178,-0.11529920422908213,-80.45018480501508,-15.263058,12.939193,-5.094961,60.86115,-21.551632,-3.9138906,-9.127078,-5.1744246,-13.939044,28.948713,-17.697285,3.4649806,-1.6228354,2.9042869,9.014279,-10.709496,15.362367,-37.12876,68.23464,5.467308,-0.014063248,0.063634366,1.3896794,-22.556961,20.072727,55.7259,-7.897319,-1.9519546,-1.9811405
133,-1.7722057104110718,4.957348823547363,76.57279205322266,-1.4055264619540555,-0.18007294863954817,-80.4599156203326,-14.684375,13.11138,-5.528533,61.301914,-21.572462,-4.00749,-9.477641,-5.4238167,-13.835751,29.659866,-17.874851,3.5267456,-1.643024,2.8150556,8.961526,-10.638366,15.440301,-36.690475,68.36181,5.0766535,-0.054812666,0.07377859,1.5120798,-22.605583,19.719492,55.58144,-7.663291,-1.9899544,-1.843682
134,-1.6813395023345947,5.0536956787109375,76.50575256347656,-1.3552493080283659,-0.2485924357130682,-80.46875760530423,-14.069852,13.276672,-5.963969,61.61272,-21.602184,-4.1110897,-9.833458,-5.674004,-13.734847,30.371927,-18.033138,3.5913222,-1.6869015,2.7344227,8.925071,-10.608287,15.530714,-36.31732,68.52648,4.8383346,-0.061407905,0.18716931,1.6090332,-22.643106,19.426338,55.46331,-7.549539,-2.0218632,-1.7329112
135,-1.5539106130599976,5.181794166564941,76.43958282470703,-1.3132049568855546,-0.31559424347419707,-80.45993601305206,-13.431128,13.44985,-6.3865576,61.782036,-21.62781,-4.2360716,-10.180049,-5.9228597,-13.651375,31.060423,-18.176847,3.6608257,-1.7591602,2.6556807,8.894617,-10.608108,15.635786,-36.03052,68.70781,4.706697,-0.047150094,0.37334242,1.7035054,-22.668406,19.186245,55.35962,-7.4957457,-2.0507953,-1.6607527
136,-1.413129210472107,5.33948278427124,76.38080596923828,-1.2809146812004808,-0.3756550311061395,-80.41657642224581,-12.779819,13.6453705,-6.7819195,61.798183,-21.635681,-4.3937697,-10.500226,-6.1673255,-13.600869,31.695915,-18.307503,3.7375605,-1.8626904,2.570752,8.853225,-10.61964,15.757376,-35.853474,68.882675,4.637946,-0.023818692,0.60302305,1.8181335,-22.67512,19.00145,55.26582,-7.4331527,-2.0795312,-1.6415901
137,-1.3258241415023804,5.460145473480225,76.32551574707031,-1.2631176996292734,-0.4262643411081637,-80.31152601242428,-12.121393,13.881384,-7.1670194,61.646667,-21.63076,-4.596517,-10.779887,-6.4020743,-13.614394,32.266827,-18.425388,3.8187687,-2.0113842,2.475932,8.791753,-10.651312,15.901762,-35.820637,69.059906,4.6118917,0.009309107,0.889977,1.9720484,-22.653961,18.877594,55.17267,-7.350264,-2.1097984,-1.6984228
138,-1.2324756383895874,5.571887493133545,76.26920318603516,-1.259199218511624,-0.4705537014655028,-80.16129171665325,-11.449361,14.146078,-7.5421047,61.33741,-21.616951,-4.8346457,-11.030284,-6.630761,-13.675271,32.788803,-18.528627,3.9039087,-2.198443,2.3731627,8.720139,-10.706181,16.070765,-35.907883,69.242615,4.65835,0.058488335,1.2419832,2.1464815,-22.602505,18.810345,55.08939,-7.2842207,-2.140325,-1.8184823
139,-1.100928544998169,5.712031364440918,76.20763397216797,-1.2542942212399364,-0.5118443501928183,-80.0141934554181,-10.7594,14.40772,-7.868188,60.89866,-21.581394,-5.086295,-11.27798,-6.864924,-13.726715,33.284122,-18.622143,3.999543,-2.3975122,2.2619426,8.648629,-10.767551,16.257565,-36.0666,69.41057,4.7910624,0.119210005,1.6219848,2.3011923,-22.531136,18.792858,55.045498,-7.2370067,-2.1690097,-1.9628795
140,-0.963323175907135,5.871536731719971,76.14112091064453,-1.2361804121535676,-0.5534476396933937,-79.91839205050245,-10.047001,14.633934,-8.107204,60.359936,-21.51183,-5.329688,-11.549856,-7.115112,-13.711961,33.77396,-18.710321,4.1128945,-2.5820076,2.1460776,8.588463,-10.81793,16.448902,-36.240784,69.54468,5.031029,0.18693712,1.993222,2.4033983,-22.457638,18.814852,55.061832,-7.210433,-2.1932628,-2.0911162
141,-0.7867282032966614,6.044981479644775,76.07307434082031,-1.2001513990145227,-0.6007951261303811,-79.89222860190651,-9.298442,14.834021,-8.231088,59.717762,-21.411871,-5.5378914,-11.843892,-7.3784814,-13.610454,34.251003,-18.798054,4.244,-2.7466948,2.0316434,8.5503645,-10.864912,16.634594,-36.44214,69.65878,5.46285,0.27963707,2.3860943,2.4340594,-22.398737,18.900375,55.147038,-7.194881,-2.2129564,-2.2033207
142,-0.5991372466087341,6.213938236236572,76.00248718261719,-1.154974571584457,-0.6504933922719438,-79.90807550500996,-8.520345,15.017305,-8.266744,58.961502,-21.286263,-5.7296324,-12.149066,-7.6497703,-13.454431,34.70796,-18.881874,4.390609,-2.9052918,1.9231502,8.527005,-10.916039,16.810394,-36.68279,69.76183,6.057253,0.3957023,2.8067389,2.4241502,-22.357765,19.04477,55.275093,-7.188282,-2.228498,-2.3145425
143,-0.415420264005661,6.403548240661621,75.93504333496094,-1.1006462821821623,-0.6928245483641183,-79.94558421850422,-7.7379994,15.149946,-8.259473,58.108734,-21.124033,-5.9504595,-12.476096,-7.934649,-13.266002,35.158375,-18.949593,4.556862,-3.0591846,1.8217119,8.501238,-10.96738,16.974133,-36.939495,69.83983,6.631806,0.49733773,3.18426,2.4151747,-22.330124,19.195366,55.416588,-7.2044287,-2.2380505,-2.4067118
144,-0.23123978078365326,6.596420764923096,75.86775207519531,-1.039658652550837,-0.7179641977248139,-79.98442353200345,-6.976298,15.200097,-8.255959,57.174706,-20.915533,-6.245115,-12.837749,-8.239616,-13.066616,35.621696,-18.991995,4.7467885,-3.2088826,1.7271628,8.456214,-11.011209,17.124584,-37.181217,69.87436,7.0140905,0.54348963,3.4486806,2.4480367,-22.305658,19.299032,55.54301,-7.2575374,-2.239901,-2.4623764
145,-0.040499262511730194,6.782299995422363,75.80183410644531,-0.9638013318090535,-0.7194038429398747,-80.02594210001593,-6.2393875,15.14183,-8.27698,56.151096,-20.621344,-6.6123466,-13.244399,-8.572643,-12.849581,36.10876,-19.004807,4.971584,-3.3503408,1.6355379,8.377884,-11.03988,17.255806,-37.40979,69.86247,7.1079416,0.4995949,3.5540795,2.5319495,-22.280794,19.35024,55.658653,-7.385154,-2.234012,-2.4568262
146,0.20750290155410767,6.986281871795654,75.73387145996094,-0.8769256990617722,-0.7035458808788211,-80.07881489515493,-5.515338,14.998912,-8.29981,55.032787,-20.261562,-7.030375,-13.687107,-8.927369,-12.6066475,36.607933,-18.994537,5.226662,-3.4822412,1.5444975,8.278375,-11.059153,17.378237,-37.647633,69.80943,7.0153246,0.39336497,3.5468345,2.6455808,-22.253592,19.370375,55.777103,-7.5720677,-2.2218225,-2.4068234
147,0.44222497940063477,7.211442947387695,75.67112731933594,-0.7907333562292735,-0.6799982928772947,-80.1327738278014,-4.8079605,14.813804,-8.30612,53.845272,-19.910894,-7.5119185,-14.146426,-9.28799,-12.35741,37.09712,-18.964176,5.4921165,-3.6112518,1.4622767,8.17586,-11.088702,17.486437,-37.870144,69.734856,6.886799,0.2754294,3.4993725,2.777814,-22.221544,19.355673,55.89279,-7.747249,-2.2024624,-2.3579648
148,0.702114462852478,7.446262359619141,75.59912109375,-0.7212578052021572,-0.6584485956778985,-80.17810254208798,-4.1213183,14.628875,-8.275448,52.61438,-19.643444,-8.070092,-14.603015,-9.639153,-12.122442,37.554497,-18.915987,5.747279,-3.747508,1.4006577,8.086761,-11.155538,17.566675,-38.0599,69.67111,6.863178,0.19503431,3.4861255,2.916846,-22.186762,19.306122,56.0009,-7.8396993,-2.1744204,-2.355985
149,0.9486618638038635,7.6922430992126465,75.52017211914062,-0.6740154026082952,-0.6406282909105032,-80.21370053344086,-3.4507737,14.442666,-8.213698,51.30753,-19.437414,-8.770037,-15.056671,-9.977167,-11.911587,37.9767,-18.851383,5.9823713,-3.886287,1.3596268,8.022994,-11.263648,17.636503,-38.21647,69.60123,6.997802,0.16783787,3.5053945,3.0604634,-22.14067,19.208048,56.09384,-7.8111057,-2.1313539,-2.4235578
150,1.2204216718673706,7.946938991546631,75.44184875488281,-0.6406557854974542,-0.6216434998561213,-80.24428619307213,-2.796186,14.238643,-8.128828,49.920017,-19.267546,-9.581478,-15.515887,-10.310332,-11.712475,38.37449,-18.76849,6.2096605,-4.0210314,1.3281456,7.9736767,-11.39407,17.706743,-38.34707,69.50663,7.214211,0.16797727,3.5232992,3.2128386,-22.07436,19.061085,56.18094,-7.710413,-2.0766065,-2.534224
151,1.5043102502822876,8.24739933013916,75.36061096191406,-0.6136831623534451,-0.6010259419098015,-80.2684911910932,-2.1678216,14.035337,-7.9989834,48.518658,-19.199217,-10.375153,-15.976711,-10.642271,-11.512346,38.750496,-18.667496,6.4407454,-4.1507893,1.2892793,7.925503,-11.534829,17.792725,-38.48317,69.38811,7.425484,0.18329945,3.5622032,3.3724878,-21.970669,18.873304,56.282684,-7.602562,-2.0245156,-2.6604807
152,1.7826708555221558,8.548215866088867,75.27497100830078,-0.5864337494285273,-0.5782253167673881,-80.28518484699325,-1.5757878,13.850801,-7.8002777,47.17081,-19.294268,-11.023699,-16.433495,-10.97523,-11.298717,39.103504,-18.54582,6.6869645,-4.291931,1.2481127,7.8654723,-11.662061,17.871244,-38.594284,69.25455,7.592185,0.20091107,3.6468735,3.545903,-21.857931,18.675074,56.396587,-7.5348134,-1.9867346,-2.768903
153,2.0620715618133545,8.795694351196289,75.1844253540039,-0.5599144512818688,-0.5503632489759976,-80.28526514007733,-1.0203001,13.693667,-7.5222826,45.867447,-19.59001,-11.501381,-16.886705,-11.309527,-11.072627,39.441975,-18.411009,6.9525723,-4.443818,1.2034189,7.782004,-11.772316,17.945114,-38.69937,69.103226,7.6837916,0.22300972,3.7961226,3.7577183,-21.733253,18.444397,56.514343,-7.5477657,-1.9668256,-2.8538857
154,2.3568649291992188,9.081748962402344,75.10299682617188,-0.5362052916155857,-0.5186202099093518,-80.27216640688255,-0.4976529,13.551977,-7.1764965,44.58244,-20.0439,-11.874437,-17.339779,-11.643644,-10.839147,39.764797,-18.261976,7.230578,-4.602609,1.1585051,7.684758,-11.8766,18.015568,-38.797207,68.93406,7.7335434,0.25422174,3.9932587,3.9990897,-21.594591,18.180477,56.63442,-7.6021333,-1.9578068,-2.9307227
155,2.6670050621032715,9.407757759094238,75.02423858642578,-0.5130838485524819,-0.48867739089712203,-80.26386029721915,-0.010782738,13.410159,-6.771759,43.3556,-20.595434,-12.15596,-17.791208,-11.977538,-10.591569,40.05547,-18.083046,7.5153174,-4.7540374,1.1124374,7.5952373,-11.987672,18.083206,-38.883526,68.75152,7.763603,0.2865953,4.207543,4.245699,-21.447252,17.903406,56.75651,-7.645914,-1.9571402,-2.9969504
156,2.981642246246338,9.758111953735352,74.94775390625,-0.4876217355761331,-0.46628608265132404,-80.27814319595869,0.43669555,13.252393,-6.318036,42.227993,-21.18527,-12.359309,-18.241026,-12.310957,-10.323117,40.299282,-17.859482,7.8011503,-4.884929,1.0659604,7.5360255,-12.118621,18.14845,-38.95641,68.55885,7.79197,0.31194445,4.408216,4.4742217,-21.300705,17.634972,56.876595,-7.6246424,-1.9622332,-3.0493941
157,3.3394570350646973,10.115028381347656,74.87179565429688,-0.4635887833932812,-0.4511718209722263,-80.32147927625965,0.84426886,13.080865,-5.804728,41.213985,-21.828218,-12.4761715,-18.69931,-12.64296,-10.0379,40.50739,-17.591608,8.082248,-4.9902787,1.026788,7.5137334,-12.279756,18.21241,-39.024994,68.352844,7.8085785,0.32391036,4.5915337,4.6824374,-21.164143,17.372787,56.985752,-7.498026,-1.9754927,-3.0766904
158,3.6928389072418213,10.480627059936523,74.79400634765625,-0.44069351940589846,-0.4409071388068073,-80.38376657631152,1.2129637,12.898663,-5.232526,40.291973,-22.545746,-12.505858,-19.164227,-12.972943,-9.736988,40.683434,-17.285852,8.362378,-5.07994,0.99691325,7.5187263,-12.456958,18.27228,-39.077534,68.126396,7.8150096,0.32799459,4.771954,4.8873625,-21.04241,17.109333,57.07748,-7.299889,-1.9969419,-3.0812702
159,4.037896156311035,10.857658386230469,74.71660614013672,-0.41125938370559995,-0.43788158051857157,-80.45804474660925,1.5417551,12.691742,-4.628353,39.44978,-23.289318,-12.473666,-19.616734,-13.302266,-9.409005,40.801044,-16.93642,8.650996,-5.1608505,0.96441334,7.546412,-12.642813,18.32907,-39.11837,67.890755,7.8112855,0.33312055,4.947088,5.0902643,-20.930014,16.856838,57.16034,-7.0899267,-2.0208488,-3.0826395
160,4.389559268951416,11.247869491577148,74.64704132080078,-0.3672292621691655,-0.44450537063555823,-80.53750405232964,1.8301877,12.446372,-4.018719,38.673313,-24.009407,-12.405072,-20.037565,-13.632401,-9.042493,40.83338,-16.537569,8.958106,-5.238423,0.9129286,7.5926657,-12.819504,18.386448,-39.130405,67.64761,7.8214283,0.34985688,5.113442,5.290338,-20.809889,16.624626,57.246708,-6.93227,-2.0417454,-3.1016867
161,4.775124549865723,11.660901069641113,74.58198547363281,-0.3067574001639309,-0.46795107734705543,-80.61504638418727,2.0863972,12.166667,-3.3855705,37.966267,-24.726889,-12.309477,-20.417965,-13.9623785,-8.625589,40.784706,-16.10664,9.28892,-5.3204165,0.83694434,7.6626205,-12.991024,18.44564,-39.10795,67.395134,7.8375306,0.38376772,5.2710524,5.48218,-20.677595,16.422495,57.34709,-6.841954,-2.059753,-3.1554425
162,5.154176235198975,12.07734203338623,74.52558135986328,-0.23398206482838682,-0.5047708456554973,-80.69601055299513,2.3081393,11.856099,-2.7242203,37.332546,-25.456474,-12.174002,-20.769464,-14.291376,-8.166773,40.664486,-15.639957,9.637696,-5.4030185,0.7426759,7.755748,-13.160464,18.505291,-39.051975,67.13196,7.8597264,0.4288416,5.421305,5.6642594,-20.538097,16.244658,57.457138,-6.786561,-2.0774224,-3.229801
163,5.5490827560424805,12.514281272888184,74.48567199707031,-0.1494969204546192,-0.5414486380276707,-80.79261820172532,2.4794235,11.502063,-2.080403,36.76088,-26.141567,-11.992107,-21.104605,-14.620709,-7.684245,40.457935,-15.102694,9.998129,-5.481522,0.63738793,7.8567467,-13.321778,18.564915,-38.988163,66.87501,7.8825264,0.4754178,5.56447,5.8311563,-20.392626,16.092196,57.57696,-6.7517104,-2.0925357,-3.3015537
164,5.952088356018066,12.962295532226562,74.46109771728516,-0.05456915997560652,-0.5643390838276509,-80.91703634099822,2.5869465,11.09275,-1.4983752,36.237885,-26.72487,-11.758448,-21.435148,-14.95205,-7.195472,40.14919,-14.459431,10.364171,-5.5518064,0.5286645,7.949176,-13.477126,18.6244,-38.961643,66.64747,7.880061,0.51433253,5.7016625,5.977644,-20.2457,15.965792,57.70763,-6.7235956,-2.1027834,-3.3474586
165,6.373823642730713,13.421199798583984,74.45181274414062,0.05581099125024046,-0.5669472737918204,-81.06865647250136,2.6178076,10.609079,-1.0061487,35.77604,-27.189623,-11.466314,-21.765491,-15.297939,-6.710929,39.737003,-13.7168665,10.733151,-5.613189,0.4141838,8.023624,-13.624726,18.680962,-38.97836,66.452354,7.8552465,0.54117465,5.8366385,6.1058135,-20.099682,15.864155,57.85222,-6.690393,-2.1072154,-3.352462
166,6.798264980316162,13.894067764282227,74.45862579345703,0.18088069366598816,-0.557356002381008,-81.24247692674463,2.5888195,10.063074,-0.571496,35.372395,-27.566452,-11.1232395,-22.088148,-15.652887,-6.217225,39.22728,-12.887762,11.109213,-5.6662617,0.29262784,8.0900345,-13.771299,18.733997,-39.030056,66.28359,7.8058367,0.5621338,5.968301,6.219742,-19.955086,15.785168,58.007454,-6.6620207,-2.1069176,-3.3315337
167,7.2514238357543945,14.369741439819336,74.47998809814453,0.30857541996813836,-0.5437802459507054,-81.44310872727138,2.524687,9.488797,-0.14993785,35.001938,-27.87637,-10.74403,-22.399971,-15.992175,-5.6959248,38.623173,-11.9516535,11.496628,-5.7089777,0.17345919,8.16526,-13.911005,18.782589,-39.088547,66.139206,7.7510715,0.5773357,6.089065,6.3186927,-19.81073,15.728001,58.159462,-6.656435,-2.1032863,-3.3051643
168,7.707892417907715,14.854809761047363,74.513427734375,0.4298063382651846,-0.5345454585863808,-81.67522508275506,2.4465575,8.920495,0.3017772,34.642223,-28.14049,-10.342331,-22.696884,-16.292347,-5.1280684,37.927017,-10.888088,11.900396,-5.7397847,0.06562448,8.265625,-14.038454,18.826494,-39.12714,66.01844,7.708056,0.5870789,6.191302,6.4014206,-19.665094,15.69194,58.2953,-6.6922746,-2.0974796,-3.2941995
169,8.17620849609375,15.355012893676758,74.5592269897461,0.5450114094864887,-0.5355149819704971,-81.92492931038139,2.336618,8.355103,0.77694094,34.31813,-28.359642,-9.906012,-22.971241,-16.565468,-4.504705,37.137634,-9.674718,12.349035,-5.774942,-0.034268968,8.411273,-14.169455,18.866669,-39.148014,65.93253,7.677874,0.5827225,6.2777095,6.4574947,-19.516983,15.679258,58.413326,-6.7865386,-2.0867405,-3.3177733
170,8.656604766845703,15.87658405303955,74.61138916015625,0.6575959885273146,-0.54059112012707,-82.19486180532091,2.1906655,7.779455,1.2602472,34.034473,-28.52726,-9.431859,-23.226221,-16.82002,-3.8320851,36.25659,-8.3312435,12.833329,-5.8098993,-0.12932958,8.588178,-14.300459,18.903599,-39.161594,65.87774,7.6529937,0.5670617,6.3506536,6.4890647,-19.366545,15.690633,58.521763,-6.9248815,-2.0712285,-3.3607605
171,9.136866569519043,16.414779663085938,74.67475891113281,0.7618207240152647,-0.5412126865436312,-82.51530240574601,2.0508745,7.2133923,1.7802037,33.72869,-28.64538,-8.946485,-23.470678,-17.02468,-3.1168466,35.285404,-6.897222,13.301214,-5.812408,-0.20917533,8.761123,-14.403587,18.937994,-39.168316,65.836205,7.6219306,0.5570389,6.402841,6.5146565,-19.21521,15.723028,58.621944,-7.0801153,-2.0573137,-3.3920684
172,9.619834899902344,16.95584487915039,74.7514877319336,0.8498743131542866,-0.5280011810340827,-82.91618058683676,1.9551005,6.677091,2.3634508,33.341236,-28.716146,-8.476559,-23.713942,-17.151272,-2.3680804,34.227863,-5.4122972,13.699732,-5.75079,-0.2623141,8.895321,-14.451926,18.971338,-39.171192,65.78974,7.570109,0.5695193,6.4270325,6.5519195,-19.065256,15.775284,58.71545,-7.222846,-2.0513148,-3.3805819
173,10.124710083007812,17.511445999145508,74.8382339477539,0.9163576741219396,-0.4956803993045812,-83.43016702844041,1.9119244,6.1778855,3.0342124,32.845066,-28.719223,-8.022014,-23.959743,-17.183628,-1.5747335,33.01406,-3.717933,14.105357,-5.5981536,-0.2773639,8.991018,-14.43677,19.000324,-39.166573,65.72828,7.493143,0.61917484,6.434905,6.5894594,-18.921541,15.853056,58.81013,-7.343946,-2.0585518,-3.3235219
174,10.609177589416504,18.047128677368164,74.92911529541016,0.965915607407183,-0.4498279682823554,-84.03293124214036,1.895975,5.707395,3.77082,32.27603,-28.657837,-7.569357,-24.198347,-17.142332,-0.73399806,31.663902,-1.84935,14.518973,-5.3784027,-0.25910515,9.063625,-14.37826,19.02504,-39.165993,65.6667,7.385421,0.6930464,6.4263554,6.62547,-18.784472,15.955641,58.899307,-7.458052,-2.074373,-3.23466
175,11.072020530700684,18.55897331237793,75.02449035644531,1.0055418778945688,-0.3983984512013768,-84.66977953375601,1.8903971,5.2602777,4.5306826,31.678104,-28.574116,-7.1256766,-24.428314,-17.06535,0.12333979,30.33028,-0.13962632,14.76853,-5.1345387,-0.22723573,9.1028595,-14.270674,19.050825,-39.14543,65.607185,7.2841864,0.7686558,6.3745155,6.6899943,-18.649279,16.068005,58.96526,-7.575428,-2.090933,-3.108825
176,11.547097206115723,19.072612762451172,75.10404968261719,1.0419179702316306,-0.348762708480241,-85.28590553176605,1.8847213,4.8291306,5.2720594,31.086632,-28.506514,-6.6984363,-24.648457,-16.992107,0.9531204,29.162806,1.0849667,14.674026,-4.9107146,-0.20369431,9.098287,-14.111603,19.089222,-39.095135,65.5519,7.210275,0.8230995,6.2522836,6.8091326,-18.50934,16.17849,58.993637,-7.705353,-2.1003947,-2.9417784
177,11.995524406433105,19.583446502685547,75.17303466796875,1.066127677258282,-0.29362583120322433,-85.87323174399862,1.8897115,4.4263306,5.9882126,30.474117,-28.466671,-6.3053823,-24.854143,-16.858635,1.8601485,28.093447,1.7671764,14.096881,-4.7196846,-0.18829532,9.027681,-13.866804,19.150038,-38.997875,65.4791,7.1930676,0.8528988,6.026331,7.0005484,-18.359243,16.312897,58.973427,-7.8572197,-2.0974598,-2.7219052
178,12.443448066711426,20.074840545654297,75.2170639038086,1.0768903652316835,-0.2310565931711845,-86.4595352657328,1.9048843,4.052103,6.700157,29.833776,-28.432837,-5.936486,-25.061367,-16.67529,2.821949,27.105658,2.0718262,13.147862,-4.5404353,-0.17521483,8.903028,-13.5439825,19.238909,-38.867958,65.3842,7.203386,0.869728,5.718878,7.2393255,-18.199278,16.47296,58.92076,-8.023953,-2.0878255,-2.4564772
179,12.891915321350098,20.499469757080078,75.2572021484375,1.0977977782713166,-0.1767654476022681,-87.04385275374021,1.9066201,3.6757648,7.4097543,29.232552,-28.39501,-5.5593348,-25.296211,-16.567993,3.5994835,26.405876,2.004285,12.028093,-4.364581,-0.17862312,8.768084,-13.186759,19.356993,-38.706333,65.28023,7.214011,0.8752152,5.38402,7.495668,-18.02838,16.60403,58.853176,-8.193871,-2.0805502,-2.1673565
180,13.303962707519531,20.932010650634766,75.29737091064453,1.1561221534032737,-0.147536508426226,-87.62386092634857,1.8746618,3.26318,8.119345,28.73704,-28.345232,-5.1429873,-25.574503,-16.656876,3.9554136,26.174519,1.5696412,10.955669,-4.1819496,-0.21432479,8.666029,-12.849597,19.503483,-38.53492,65.191925,7.1810174,0.8705145,5.076797,7.7401814,-17.846735,16.648878,58.789616,-8.355671,-2.084389,-1.8771043
181,13.743821144104004,21.390857696533203,75.31448364257812,1.2732577966753305,-0.1533835648806291,-88.22493641531081,1.8392977,2.785501,8.863997,28.331257,-28.283518,-4.668575,-25.893213,-16.988277,3.8429725,26.40046,0.6112501,9.954322,-3.9700387,-0.29737493,8.607703,-12.5375395,19.67903,-38.35182,65.09606,7.0861554,0.860395,4.77614,7.970301,-17.649817,16.569118,58.722828,-8.494177,-2.1061964,-1.5635655
182,14.164087295532227,21.860010147094727,75.31785583496094,1.4304944613087838,-0.18417450731792878,-88.83861746898441,1.8060007,2.2640965,9.631301,27.990032,-28.217394,-4.1574597,-26.230995,-17.485302,3.3999915,26.975471,-0.8297749,8.944181,-3.7379663,-0.41763186,8.571346,-12.228285,19.883625,-38.15794,64.99363,6.949513,0.84324884,4.4647584,8.20005,-17.43686,16.399519,58.648815,-8.62081,-2.1400135,-1.2246511
183,14.561113357543945,22.33169174194336,75.31831359863281,1.5967921817327297,-0.22817920961733046,-89.41122759642634,1.7217662,1.7399542,10.353122,27.761002,-28.146744,-3.6382124,-26.563726,-18.104502,2.6588998,27.916693,-2.4459558,7.982113,-3.5263286,-0.55034053,8.5528755,-11.931956,20.111868,-37.971333,64.94258,6.7898583,0.81036085,4.202694,8.432394,-17.209913,16.194384,58.580597,-8.763623,-2.1749022,-0.91034955
184,14.967386245727539,22.791767120361328,75.32908630371094,1.7384870865875448,-0.2743199439397889,-89.8885357086951,1.5305569,1.2538131,10.96224,27.694239,-28.070225,-3.1369865,-26.866291,-18.80968,1.6377213,29.247879,-3.9192064,7.0997405,-3.3749084,-0.6737035,8.546855,-11.659534,20.353481,-37.803967,65.004425,6.6343718,0.75228417,4.050534,8.671619,-16.974144,16.005117,58.531822,-8.951715,-2.2002115,-0.67074925
185,15.365837097167969,23.255247116088867,75.34453582763672,1.863496763841382,-0.3153053357675987,-90.24539360993985,1.176982,0.80578995,11.43619,27.85997,-27.982956,-2.6527064,-27.137196,-19.634226,0.2675438,31.004553,-5.1573396,6.333132,-3.3017807,-0.7922464,8.549901,-11.444306,20.603588,-37.690907,65.23222,6.4451094,0.6425693,4.045074,8.923397,-16.732006,15.822428,58.50071,-9.202264,-2.2172515,-0.52835625
186,15.759244918823242,23.71752166748047,75.3520278930664,1.98487251037209,-0.3603432312910667,-90.51295512412308,0.7068531,0.37768686,11.813431,28.215664,-27.889706,-2.16756,-27.362593,-20.610449,-1.4432032,33.16167,-6.3249717,5.6347275,-3.2823672,-0.91500026,8.56484,-11.276874,20.859678,-37.617905,65.59105,6.2238345,0.49293756,4.147869,9.187677,-16.482193,15.624119,58.47996,-9.4963875,-2.229978,-0.45294723
187,16.11834716796875,24.160905838012695,75.35404205322266,2.0885979140152378,-0.42443374564798897,-90.72079688945759,0.21226817,-0.018815478,12.118059,28.642332,-27.799313,-1.6864595,-27.492899,-21.706663,-3.369474,35.64416,-7.4893975,4.900202,-3.2943633,-1.02904,8.594114,-11.111421,21.11517,-37.532387,66.01906,6.045991,0.35069767,4.307882,9.456232,-16.23052,15.444412,58.478493,-9.807634,-2.2311685,-0.4165699
188,16.488862991333008,24.588285446166992,75.3647232055664,2.1594607656187987,-0.522189074509427,-90.89821867058023,-0.2171909,-0.37350562,12.372946,29.02064,-27.718863,-1.2169869,-27.484148,-22.88067,-5.3827124,38.38043,-8.722762,4.0282187,-3.3199847,-1.1178331,8.641005,-10.901291,21.362217,-37.381596,66.45388,5.981472,0.26348418,4.4745903,9.72076,-15.985814,15.324398,58.50255,-10.104575,-2.2135324,-0.39017245
189,16.850631713867188,25.00469970703125,75.37982177734375,2.1857376865362057,-0.6696062380137852,-91.02435076829234,-0.56510866,-0.67620075,12.544312,29.337082,-27.64933,-0.75928533,-27.294333,-24.192478,-7.5789876,41.452484,-10.078595,2.9581301,-3.3783956,-1.1704401,8.721414,-10.644455,21.594896,-37.15999,66.91502,6.084475,0.24921174,4.672242,9.983446,-15.754255,15.291367,58.560726,-10.393504,-2.168927,-0.38526773
190,17.177837371826172,25.429227828979492,75.39530944824219,2.1784165182421247,-0.8566250488873501,-91.09152046089095,-0.8773972,-0.9376971,12.631913,29.647654,-27.58244,-0.31240883,-26.906761,-25.64662,-9.989801,44.8516,-11.515067,1.7403021,-3.4759064,-1.1950791,8.830862,-10.358671,21.81031,-36.87547,67.42583,6.3195662,0.27927622,4.9153795,10.248983,-15.536745,15.321785,58.643078,-10.682242,-2.1027358,-0.40937752
191,17.504743576049805,25.825998306274414,75.405517578125,2.158079851150292,-1.0579334115857268,-91.15002318276342,-1.156005,-1.1788988,12.708181,29.929102,-27.507048,0.115001634,-26.338823,-27.119322,-12.382285,48.368793,-12.957963,0.4487158,-3.5733967,-1.2033477,8.938704,-10.038596,22.00944,-36.530567,67.93276,6.588314,0.33772686,5.1400337,10.514914,-15.338446,15.374273,58.728485,-10.947809,-2.028194,-0.42831808
192,17.840164184570312,26.21045684814453,75.41383361816406,2.1470312636781066,-1.247272394164183,-91.25097697895409,-1.4042003,-1.4190495,12.845884,30.161123,-27.415373,0.5155333,-25.648184,-28.475552,-14.518628,51.807816,-14.329126,-0.8361322,-3.6323383,-1.2051346,9.015771,-9.664822,22.192492,-36.09782,68.37285,6.8200307,0.4035518,5.2815447,10.780423,-15.163689,15.409451,58.790627,-11.166239,-1.9591361,-0.4064119
193,18.159870147705078,26.602563858032227,75.41935729980469,2.1449423609529386,-1.432965529357877,-91.39938038098943,-1.5982087,-1.6592956,13.059186,30.328527,-27.302996,0.8754243,-24.844406,-29.760506,-16.421278,55.226704,-15.639527,-2.174505,-3.6491125,-1.1947266,9.067581,-9.220798,22.357857,-35.5362,68.723755,7.030621,0.48659715,5.3166833,11.061834,-15.013607,15.383236,58.80448,-11.3329735,-1.8916193,-0.32662967
194,18.483366012573242,26.972415924072266,75.42044830322266,2.1430332543166712,-1.6237981072069245,-91.57093437971473,-1.744936,-1.890195,13.310237,30.44724,-27.17616,1.2028444,-23.908442,-31.012886,-18.185705,58.699593,-16.929022,-3.5880544,-3.6415596,-1.1682928,9.106371,-8.710928,22.502296,-34.853134,69.01261,7.264523,0.5921565,5.2805634,11.357018,-14.888017,15.326925,58.784985,-11.459934,-1.8212181,-0.2090072
195,18.81022071838379,27.336301803588867,75.41738891601562,2.145756450706455,-1.7928066709182695,-91.7743516235067,-1.8929332,-2.113187,13.594739,30.538368,-27.042603,1.523313,-22.905327,-32.090958,-19.675268,62.062756,-18.143967,-4.920433,-3.604684,-1.1370606,9.108474,-8.171619,22.629915,-34.157246,69.27255,7.429152,0.69112337,5.199265,11.632119,-14.794443,15.317972,58.773643,-11.546149,-1.7605008,-0.07548561
196,19.130090713500977,27.681482315063477,75.4094009399414,2.1577122151090595,-1.911838947227616,-92.01943953877934,-2.0943031,-2.3279228,13.909977,30.629244,-26.912868,1.8618128,-21.928438,-32.838177,-20.754032,65.154755,-19.215887,-6.001808,-3.531344,-1.1120781,9.050738,-7.6315465,22.747047,-33.541397,69.52699,7.4477754,0.75559306,5.0983853,11.855344,-14.742864,15.432678,58.809128,-11.58964,-1.7223805,0.052838396
197,19.445343017578125,28.034055709838867,75.40339660644531,2.1729719523391475,-1.9685391076450374,-92.31669419485434,-2.3700173,-2.523353,14.267347,30.737755,-26.796442,2.232662,-21.050291,-33.18359,-21.342312,67.97131,-20.101307,-6.7857556,-3.4126906,-1.0894514,8.915777,-7.086694,22.857096,-33.021088,69.76828,7.2523646,0.78064233,4.983664,12.012658,-14.747703,15.736408,58.910305,-11.539698,-1.7198609,0.18690647
198,19.751157760620117,28.384315490722656,75.3963394165039,2.1895123347948435,-1.9779808427836023,-92.65914159622956,-2.6925316,-2.7004359,14.665219,30.848179,-26.686766,2.6197271,-20.258644,-33.201454,-21.528267,70.59431,-20.823286,-7.3421507,-3.2592943,-1.0603409,8.719967,-6.5184164,22.959549,-32.547993,69.978,6.89486,0.781206,4.8411183,12.124735,-14.809218,16.178267,59.04648,-11.410228,-1.7426187,0.33557355
199,20.053991317749023,28.741422653198242,75.39738464355469,2.218711721692329,-1.952644661072937,-93.03008960981511,-3.0392594,-2.8769803,15.081503,30.92882,-26.564882,3.0021615,-19.525925,-32.952847,-21.431465,72.99523,-21.403427,-7.6675887,-3.087202,-1.0325397,8.489745,-5.933217,23.05414,-32.10371,70.16499,6.5020976,0.7595812,4.66643,12.211466,-14.911545,16.65143,59.186543,-11.301115,-1.7691846,0.4723686
200,20.333154678344727,29.104509353637695,75.39088439941406,2.2685466885968824,-1.9054149139482315,-93.41270245212878,-3.3865216,-3.0727112,15.49415,30.94731,-26.411705,3.35951,-18.816313,-32.49583,-21.173685,75.14254,-21.867746,-7.7628374,-2.9059834,-1.0181146,8.251197,-5.339342,23.13892,-31.662632,70.34079,6.2148523,0.7184653,4.455476,12.294104,-15.028712,17.043093,59.303387,-11.316182,-1.778229,0.56810665
201,20.61931610107422,29.458717346191406,75.385009765625,2.351528818732475,-1.8297888800176518,-93.81474726622857,-3.729457,-3.3035445,15.902592,30.875496,-26.217485,3.6803455,-18.155119,-31.809856,-20.727413,77.040474,-22.221403,-7.611937,-2.7029207,-1.0317107,7.9977756,-4.749064,23.21407,-31.243937,70.52557,6.028027,0.6301643,4.167625,12.367843,-15.143838,17.336117,59.40662,-11.538009,-1.7627448,0.60869133
202,20.89360809326172,29.802143096923828,75.37742614746094,2.4581061198253664,-1.721276463940567,-94.24157097021249,-4.0783544,-3.5562494,16.317522,30.732773,-25.991547,3.977472,-17.552603,-30.866467,-20.063232,78.70877,-22.45497,-7.2069054,-2.4694812,-1.0697404,7.717296,-4.1666255,23.280773,-30.867641,70.72069,5.875382,0.50310254,3.8191538,12.419288,-15.256003,17.579115,59.519596,-11.899191,-1.7346785,0.60709196
203,21.15291976928711,30.151453018188477,75.37049865722656,2.5699942806238263,-1.5963069072058849,-94.67212780522928,-4.440834,-3.8030496,16.734007,30.577513,-25.754072,4.2652025,-16.942833,-29.71523,-19.302105,80.12951,-22.57636,-6.573925,-2.223862,-1.1152405,7.427697,-3.5880134,23.338577,-30.508663,70.90964,5.805091,0.3919597,3.4920886,12.458001,-15.363047,17.7602,59.63336,-12.277437,-1.701322,0.5749645
204,21.408735275268555,30.499666213989258,75.36361694335938,2.6643025937742046,-1.4719620845490233,-95.08564210205442,-4.8205123,-4.018721,17.146448,30.458393,-25.51969,4.5600204,-16.266495,-28.410355,-18.550556,81.282295,-22.589994,-5.7380643,-1.9844172,-1.1512905,7.1464243,-3.0117455,23.386766,-30.14678,71.078125,5.861459,0.35084206,3.2686067,12.494418,-15.462475,17.867065,59.738724,-12.550654,-1.6699452,0.523819
205,21.660476684570312,30.844467163085938,75.35457611083984,2.736842258425209,-1.3492618705499364,-95.47933241157132,-5.222563,-4.189943,17.553186,30.389883,-25.291636,4.8636756,-15.507005,-26.918493,-17.802359,82.1393,-22.469137,-4.6405544,-1.755599,-1.1701305,6.872619,-2.4346745,23.426315,-29.781942,71.21635,6.1243467,0.42211094,3.1870706,12.537453,-15.550088,17.864902,59.830856,-12.726753,-1.6392269,0.43998834
206,21.912607192993164,31.18721580505371,75.34806060791016,2.798026281838095,-1.220694615204498,-95.86313516016382,-5.642385,-4.333342,17.956669,30.343582,-25.061108,5.169452,-14.692035,-25.223658,-17.012012,82.71523,-22.241186,-3.2900944,-1.5267714,-1.1835204,6.598622,-1.8595783,23.457977,-29.422588,71.33465,6.5496063,0.5674354,3.197411,12.5781,-15.6247225,17.770353,59.918594,-12.857588,-1.6061854,0.322046
207,22.14581298828125,31.530025482177734,75.34014892578125,2.8567057332515255,-1.091045643819487,-96.23493860544362,-6.0739546,-4.465045,18.359108,30.31553,-24.83101,5.4781156,-13.836389,-23.416855,-16.220398,83.05985,-21.982454,-1.8216968,-1.2961652,-1.2039558,6.3303227,-1.3061405,23.482393,-29.090187,71.462326,6.9654694,0.7182271,3.2519007,12.59965,-15.69048,17.647785,60.015026,-12.889636,-1.575977,0.19914994
208,22.38102912902832,31.87191390991211,75.33369445800781,2.9254126498007658,-0.9650205766581443,-96.59243911157657,-6.5059695,-4.6068654,18.760818,30.288116,-24.597252,5.793338,-12.956612,-21.590809,-15.464179,83.21851,-21.756618,-0.37076527,-1.06464,-1.243015,6.074956,-0.78929335,23.501606,-28.801523,71.62358,7.2022095,0.8052376,3.3042986,12.585658,-15.757357,17.56471,60.130005,-12.7671,-1.5540955,0.10112944
209,22.62726402282715,32.21748352050781,75.32110595703125,3.0093893665944016,-0.8430603445201248,-96.92716963642815,-6.941445,-4.7637553,19.161034,30.268242,-24.359741,6.117768,-12.050666,-19.757507,-14.740922,83.19291,-21.576473,1.0258257,-0.84983253,-1.3087144,5.838134,-0.297297,23.522976,-28.551077,71.80845,7.194639,0.8047686,3.3693764,12.526976,-15.848234,17.578327,60.26534,-12.38518,-1.5468119,0.041692067
210,22.874391555786133,32.57063293457031,75.3029556274414,3.105765945568501,-0.7234389740056231,-97.24198960077007,-7.3799405,-4.9313946,19.558796,30.250525,-24.11464,6.4511375,-11.111363,-17.884462,-14.0231285,82.96055,-21.411684,2.4309607,-0.6477371,-1.3922938,5.616771,0.1768101,23.544767,-28.32736,72.00351,7.043344,0.7552219,3.4622185,12.438105,-15.959959,17.640835,60.40866,-11.801109,-1.550143,0.0051821116
211,23.10485076904297,32.92499923706055,75.28358459472656,3.202271430756943,-0.6072412189449764,-97.55259657913895,-7.820251,-5.0961833,19.959122,30.236757,-23.870575,6.784662,-10.148319,-15.999604,-13.316436,82.53016,-21.256552,3.8489156,-0.44754046,-1.4736131,5.411437,0.63473964,23.56318,-28.121626,72.20058,6.8196464,0.67983824,3.5361497,12.3370695,-16.08107,17.68157,60.531075,-11.1949215,-1.5537592,-0.016746653
212,23.340030670166016,33.271278381347656,75.26072692871094,3.2904619666635186,-0.49526515046066755,-97.8748063101574,-8.259675,-5.2449594,20.365852,30.22559,-23.634346,7.1096725,-9.1717615,-14.1305275,-12.62427,81.910835,-21.103733,5.286094,-0.23712772,-1.5341903,5.220884,1.073914,23.574158,-27.933928,72.39708,6.587916,0.6023049,3.5451632,12.239447,-16.197102,17.629221,60.609245,-10.747328,-1.547091,-0.0341589
213,23.594955444335938,33.62208938598633,75.23332214355469,3.373245587738733,-0.3906493636654976,-98.21958687634823,-8.686672,-5.3844748,20.78725,30.200108,-23.403921,7.422687,-8.179642,-12.254646,-11.90618,81.0847,-20.939238,6.775686,-0.008571877,-1.5708885,5.049018,1.5022053,23.57407,-27.753689,72.58368,6.336265,0.51263916,3.4545279,12.156642,-16.307312,17.427538,60.625916,-10.508551,-1.5250753,-0.039941978
214,23.832822799682617,33.987815856933594,75.20042419433594,3.4558601529968223,-0.29180242813687823,-98.5763713619767,-9.10664,-5.51826,21.21857,30.166527,-23.176596,7.7285175,-7.1646256,-10.381026,-11.16045,80.05408,-20.774351,8.292724,0.23802301,-1.5979314,4.8912334,1.9048975,23.561626,-27.596848,72.78112,6.03844,0.40440178,3.297838,12.074466,-16.404406,17.119812,60.60993,-10.38556,-1.4938558,-0.035869423
215,24.083576202392578,34.360755920410156,75.16975402832031,3.5283329484782793,-0.19338328659564114,-98.92821828278605,-9.540027,-5.634058,21.645582,30.15111,-22.953814,8.031916,-6.1325483,-8.582338,-10.449706,78.85796,-20.62975,9.758543,0.48793763,-1.6205378,4.736777,2.2721646,23.54418,-27.467667,73.004234,5.754163,0.3066993,3.129538,11.967618,-16.478943,16.799166,60.597443,-10.339815,-1.459793,-0.041809525
216,24.341873168945312,34.72972106933594,75.1342544555664,3.5792221288789534,-0.08965902156655989,-99.2585815904187,-10.009763,-5.714028,22.053886,30.185942,-22.740896,8.33737,-5.094077,-6.9265013,-9.8389435,77.53215,-20.51541,11.098046,0.7345306,-1.6228077,4.5861926,2.6039135,23.518612,-27.34581,73.24177,5.571277,0.24834865,2.9993298,11.853825,-16.568062,16.537235,60.563038,-10.329008,-1.429598,-0.060498036
217,24.588579177856445,35.10817337036133,75.0988540649414,3.5986989761906547,0.028348542677427924,-99.5627428010781,-10.5383625,-5.7414613,22.43954,30.298748,-22.54734,8.649617,-4.049794,-5.3930836,-9.330909,76.03898,-20.413618,12.351552,0.96055293,-1.5996137,4.428979,2.9049144,23.48762,-27.227495,73.50006,5.5340185,0.2462542,2.918932,11.716468,-16.666292,16.364492,60.515854,-10.369537,-1.4037042,-0.104108855
218,24.828733444213867,35.503299713134766,75.06036376953125,3.596316489301213,0.15526403201425854,-99.85079011177555,-11.108596,-5.7301126,22.8108,30.466341,-22.368,8.965345,-3.0005057,-3.9614377,-8.887107,74.37547,-20.311016,13.536691,1.1733162,-1.5583307,4.270273,3.1783555,23.455408,-27.120914,73.77369,5.5867724,0.28167367,2.8615744,11.555253,-16.766384,16.239561,60.45771,-10.473751,-1.3789784,-0.16525175
219,25.055191040039062,35.895748138427734,75.02267456054688,3.583539633612851,0.27538869556653656,-100.12768945998327,-11.683618,-5.7008862,23.170465,30.648098,-22.187485,9.276842,-1.956629,-2.6913886,-8.5174055,72.61876,-20.219395,14.552769,1.3821045,-1.5130191,4.122912,3.43394,23.42089,-26.999825,74.048035,5.674791,0.32582778,2.8233862,11.37474,-16.87103,16.167103,60.398643,-10.5854025,-1.3557712,-0.2304261
220,25.30916404724121,36.290218353271484,74.98368835449219,3.56829303410491,0.3734198481228158,-100.39973046370093,-12.232187,-5.6690493,23.520613,30.813065,-21.993738,9.572846,-0.9272085,-1.647062,-8.301529,70.84519,-20.141186,15.000033,1.5920355,-1.47815,3.9977856,3.678446,23.386019,-26.860094,74.30493,5.7182508,0.35804927,2.8018174,11.172121,-16.982079,16.157219,60.357933,-10.648019,-1.3345469,-0.28840524
221,25.52103614807129,36.68794250488281,74.93949890136719,3.512448962058037,0.44725053731513603,-100.6724891711975,-12.776832,-5.5760694,23.850525,31.027489,-21.824276,9.836241,0.1053163,-0.79955286,-8.261291,69.022865,-20.08342,15.000033,1.8106284,-1.4128151,3.8989513,3.910911,23.34819,-26.681297,74.5493,5.703635,0.36723867,2.7996473,10.945234,-17.113832,16.241972,60.33353,-10.635622,-1.3180109,-0.32641652
222,25.79060173034668,37.10023880004883,74.89257049560547,3.4520088352668346,0.4980216559966355,-100.93119686036056,-13.297117,-5.4853363,24.163872,31.231144,-21.647413,10.087181,1.1419468,-0.13245985,-8.293039,67.139366,-20.044506,15.000033,2.0218458,-1.3471334,3.826236,4.128099,23.309528,-26.48124,74.785675,5.6592603,0.36767393,2.81713,10.693991,-17.262012,16.409258,60.318287,-10.580949,-1.3051325,-0.35362682
223,26.04888343811035,37.52180480957031,74.84579467773438,3.4172666342334557,0.5359847702866711,-101.18339686841064,-13.781012,-5.436481,24.479939,31.367468,-21.429163,10.347528,2.1282735,0.37117636,-8.323171,65.264114,-19.975334,15.000033,2.2229476,-1.3043709,3.7678719,4.3522797,23.26623,-26.251827,74.98576,5.623454,0.368505,2.8459113,10.434049,-17.420174,16.603601,60.29843,-10.511061,-1.2908466,-0.38422433
224,26.297542572021484,37.921722412109375,74.80389404296875,3.402500967342245,0.5796861138505957,-101.44832488844575,-14.253253,-5.416896,24.81627,31.447237,-21.169022,10.631646,3.0011458,0.7655651,-8.281098,63.45311,-19.81332,15.000033,2.4240677,-1.2734535,3.7020166,4.5946813,23.214394,-26.011583,75.133156,5.6106076,0.37836036,2.879644,10.176493,-17.579948,16.769863,60.267365,-10.453094,-1.2698681,-0.4340307
225,26.553621292114258,38.3427734375,74.76181030273438,3.419736892339675,0.6311028475801829,-101.72294282457648,-14.705667,-5.445529,25.178164,31.455708,-20.86493,10.950884,3.7656977,0.9996372,-8.210733,61.72193,-19.601492,15.000033,2.626517,-1.2665644,3.6151676,4.8636374,23.149828,-25.753136,75.2245,5.654407,0.40840536,2.9280493,9.934501,-17.73387,16.89312,60.227623,-10.422112,-1.2378372,-0.51916474
226,26.823810577392578,38.768898010253906,74.71949005126953,3.464917254782808,0.6817303033575443,-102.0005186443374,-15.131829,-5.5190845,25.55758,31.397282,-20.521223,11.294665,4.4460583,1.0699,-8.147664,60.0435,-19.356125,15.000033,2.8288004,-1.2834911,3.519756,5.141771,23.072687,-25.485142,75.28002,5.727357,0.45073292,2.9925723,9.696244,-17.881647,17.00053,60.188114,-10.403076,-1.1985494,-0.62927186
227,27.122726440429688,39.151065826416016,74.67797088623047,3.5115267926837226,0.7341467535452209,-102.29661302718887,-15.553561,-5.5909233,25.953169,31.304005,-20.143257,11.643845,5.0102363,1.0959889,-7.995121,58.406086,-18.972996,15.000033,3.0423288,-1.29823,3.433367,5.409931,22.98525,-25.219831,75.30852,5.7848334,0.4863613,3.052215,9.441244,-18.026482,17.09378,60.146473,-10.3801155,-1.159047,-0.7401225
228,27.40708351135254,39.57920455932617,74.64006805419922,3.532799284441816,0.7912227875004147,-102.62686730838782,-15.993283,-5.6120195,26.362665,31.208738,-19.736462,11.979333,5.426106,1.1945368,-7.6488657,56.798943,-18.346806,15.000033,3.2801332,-1.2839657,3.3734438,5.651459,22.89011,-24.963684,75.31575,5.788492,0.49609482,3.0854661,9.151575,-18.17255,17.173773,60.096947,-10.336517,-1.1266918,-0.8267549
229,27.690404891967773,40.04638671875,74.61140441894531,3.4828615056473207,0.8685302113184814,-103.0095624079769,-16.496792,-5.503522,26.774813,31.18128,-19.327847,12.289012,5.650405,1.4300897,-7.099838,55.150715,-17.209383,15.000033,3.558082,-1.197367,3.3295014,5.862629,22.79015,-24.717865,75.29475,5.709603,0.4693259,3.0801136,8.81684,-18.322641,17.241308,60.040188,-10.268444,-1.1017321,-0.8750513
230,27.982494354248047,40.500186920166016,74.58133697509766,3.4021306258985744,0.9559350240122327,-103.42740621750752,-17.025425,-5.3382545,27.195984,31.157726,-18.89341,12.589628,5.714245,1.7150493,-6.397508,53.497314,-15.702972,15.000033,3.8605597,-1.0781072,3.300922,6.053975,22.685919,-24.478786,75.24165,5.5741086,0.41825807,3.0489373,8.450132,-18.477406,17.294985,59.975327,-10.184595,-1.080975,-0.8999632
231,28.29703140258789,40.99664306640625,74.55891418457031,3.327456942413925,1.0334766192189886,-103.86226524691118,-17.54062,-5.1739044,27.638046,31.101892,-18.424837,12.8893175,5.686828,2.00927,-5.5250535,51.957645,-14.307512,15.000033,4.1725535,-0.9559098,3.3020153,6.2277822,22.575474,-24.257193,75.169716,5.413868,0.3577068,3.0081708,8.067663,-18.635191,17.337044,59.894535,-10.084113,-1.0660466,-0.9193178
232,28.598224639892578,41.48271560668945,74.53341674804688,3.2752643064098104,1.0852836630465024,-104.30166352253848,-18.02808,-5.0307574,28.10814,31.024937,-17.933498,13.186978,5.6349397,2.2945611,-4.56588,50.6397,-13.492049,14.42026,4.4852552,-0.84804595,3.3425035,6.387209,22.455078,-24.051208,75.092926,5.275638,0.3030524,2.974585,7.684566,-18.796272,17.3669,59.794266,-9.9679,-1.0588405,-0.95211005
233,28.902915954589844,41.97808837890625,74.49478149414062,3.2527611973258006,1.1029994425593206,-104.76102650634128,-18.470984,-4.905114,28.628647,30.919664,-17.4205,13.475101,5.5295696,2.606668,-3.4551878,49.636013,-13.430113,12.724961,4.809471,-0.75623554,3.4338386,6.530745,22.319395,-23.871513,75.01454,5.174378,0.2604109,2.9672935,7.301534,-18.96012,17.383333,59.67467,-9.826568,-1.0606872,-1.0135006
234,29.234909057617188,42.496559143066406,74.44757843017578,3.246302934114582,1.0975550194953336,-105.24088961483724,-18.883284,-4.782964,29.18666,30.787714,-16.881248,13.755525,5.338262,2.9627578,-2.1669028,48.896015,-13.862562,10.357297,5.148122,-0.6663567,3.565488,6.658287,22.166021,-23.697882,74.92901,5.1053095,0.2213323,2.9732175,6.911754,-19.127453,17.38527,59.539864,-9.663622,-1.0703615,-1.0905393
235,29.57443618774414,43.016197204589844,74.39090728759766,3.247882080975979,1.0803287261849785,-105.70510108381596,-19.296206,-4.669261,29.737955,30.653921,-16.3189,14.038389,5.1233053,3.3028145,-0.89988464,48.314106,-14.605935,7.8653245,5.46684,-0.57703274,3.719001,6.754269,22.002867,-23.568907,74.85531,4.9891515,0.1763384,2.9636042,6.515135,-19.298548,17.38396,59.389626,-9.496616,-1.0855442,-1.1583389
236,29.91883087158203,43.57792282104492,74.33245086669922,3.251995257046738,1.0623752550187313,-106.11801296967307,-19.733103,-4.5758796,30.238913,30.523428,-15.725567,14.334673,4.9581056,3.5428686,0.14028779,47.752804,-15.473306,5.805717,5.737981,-0.49405637,3.8774853,6.8173637,21.840462,-23.48112,74.79595,4.792174,0.11765402,2.906251,6.1170926,-19.47269,17.382639,59.21971,-9.344593,-1.1040034,-1.1917534
237,30.271997451782227,44.13905715942383,74.27042388916016,3.285235028769472,1.0390092480409245,-106.49170347792398,-20.178768,-4.5265684,30.720755,30.375923,-15.107985,14.660748,4.8761663,3.6074722,0.9267685,47.204735,-16.50993,4.329778,5.964043,-0.44835505,4.050026,6.857627,21.686272,-23.434141,74.74295,4.399944,0.026273694,2.7528253,5.709284,-19.650274,17.37422,59.02613,-9.214524,-1.1282579,-1.1591072
238,30.61607551574707,44.70677185058594,74.19730377197266,3.3381054760290483,1.0047132657178364,-106.84430332542216,-20.62669,-4.4984145,31.195532,30.221672,-14.470654,15.000033,4.842501,3.5614426,1.5746348,46.70878,-17.776207,3.1444278,6.163684,-0.42676336,4.245644,6.8794656,21.541557,-23.42305,74.68714,3.8705297,-0.0858748,2.5305376,5.2942457,-19.83008,17.357601,58.808807,-9.095933,-1.1583811,-1.0813526
