unveil-humanoid-operators/unveil-humanoid-operators.github.io/feature-analysis-animation/data/feature_matrix_instances/weight_ankle_rom_walking_A072_walk_arc_cw_start_002__A072.csv
Frame,root_translateX,root_translateY,root_translateZ,root_rotateX,root_rotateY,root_rotateZ,left_hip_pitch_joint_dof,left_hip_roll_joint_dof,left_hip_yaw_joint_dof,left_knee_joint_dof,left_ankle_pitch_joint_dof,left_ankle_roll_joint_dof,right_hip_pitch_joint_dof,right_hip_roll_joint_dof,right_hip_yaw_joint_dof,right_knee_joint_dof,right_ankle_pitch_joint_dof,right_ankle_roll_joint_dof,waist_yaw_joint_dof,waist_roll_joint_dof,waist_pitch_joint_dof,left_shoulder_pitch_joint_dof,left_shoulder_roll_joint_dof,left_shoulder_yaw_joint_dof,left_elbow_joint_dof,left_wrist_roll_joint_dof,left_wrist_pitch_joint_dof,left_wrist_yaw_joint_dof,right_shoulder_pitch_joint_dof,right_shoulder_roll_joint_dof,right_shoulder_yaw_joint_dof,right_elbow_joint_dof,right_wrist_roll_joint_dof,right_wrist_pitch_joint_dof,right_wrist_yaw_joint_dof
0,-1.7375627756118774,-1.0520753860473633,78.86360168457031,0.34534158134446646,-3.421083481189704,86.68082205988706,8.268886,4.7035513,29.129656,7.489286,-12.445464,-3.029571,3.2205226,-11.819039,-17.72656,9.761322,-7.0334945,8.885191,0.24424523,-1.395457,12.992703,-4.9306593,16.509003,-33.65948,61.904972,5.132774,5.061019,-7.6800656,-7.375225,-15.336739,27.513851,66.1121,16.810585,10.0516,7.163625
1,-1.8263304233551025,-1.0043834447860718,78.85631561279297,0.32880807231740306,-3.346591103648261,86.54251517695815,8.2701645,4.647601,29.253183,7.4710875,-12.531684,-2.9902408,3.119142,-11.850604,-17.572592,9.761401,-6.995818,8.922011,0.21419476,-1.3861217,12.981545,-4.920249,16.542229,-33.663162,61.899227,5.154915,5.0497146,-7.7068224,-7.4357796,-15.353313,27.488125,66.1312,16.8321,10.038971,7.1829133
2,-1.9180914163589478,-0.9508068561553955,78.84893798828125,0.3117325953040798,-3.271492914892988,86.40534384079714,8.2690325,4.592421,29.374992,7.4548326,-12.6180725,-2.9498203,3.0190213,-11.881543,-17.420338,9.757141,-6.955714,8.961035,0.18881756,-1.3750522,12.969828,-4.9147778,16.576365,-33.671417,61.898567,5.176429,5.0354233,-7.733881,-7.492696,-15.373896,27.45889,66.14705,16.854303,10.026701,7.2041836
3,-2.013031482696533,-0.8941692113876343,78.84124755859375,0.2937367253931037,-3.198710704874076,86.26698204524817,8.273756,4.5371714,29.498594,7.433223,-12.703227,-2.9118133,2.9240637,-11.910174,-17.267624,9.748755,-6.9139805,8.995091,0.15292946,-1.3643563,12.944011,-4.917393,16.586386,-33.675285,61.935566,5.201675,5.024811,-7.7545943,-7.547544,-15.380846,27.445272,66.17859,16.878397,10.011884,7.21447
4,-2.10127854347229,-0.835934579372406,78.83356475830078,0.2774063836167816,-3.126522921778546,86.12176060102492,8.289121,4.477273,29.631264,7.3957353,-12.783298,-2.8791652,2.818715,-11.941352,-17.105589,9.764252,-6.884224,9.016928,0.14310808,-1.3545474,12.960874,-4.9036274,16.663464,-33.693455,61.8805,5.2185802,5.023866,-7.791139,-7.5825667,-15.432099,27.365986,66.14726,16.877134,10.000074,7.2448735
5,-2.1876118183135986,-0.7808998823165894,78.81830596923828,0.2933603299292657,-3.048034316208483,85.9624957710863,8.323085,4.3691297,29.782902,7.304835,-12.841162,-2.8491604,2.4705298,-12.079571,-16.875847,10.286836,-7.1203737,9.042369,0.122044414,-1.3812063,12.949185,-4.9018517,16.711777,-33.696453,61.8819,5.2485123,5.034307,-7.8259716,-7.627374,-15.4596405,27.3044,66.15518,16.869139,9.978112,7.2648425
6,-2.27803897857666,-0.7173237204551697,78.80230712890625,0.30901451243501715,-2.973591088451016,85.79976579073603,8.342581,4.276071,29.937359,7.2650814,-12.928843,-2.8257182,2.1411688,-12.209729,-16.645552,10.780366,-7.34309,9.063542,0.09946041,-1.4092602,12.942218,-4.902563,16.763245,-33.69733,61.88724,5.2843747,5.0542917,-7.863667,-7.6725874,-15.4839325,27.22949,66.16905,16.84794,9.950836,7.284502
7,-2.364739179611206,-0.6560716032981873,78.7845458984375,0.3291298065613168,-2.8999205935903927,85.63430937014095,8.350256,4.186347,30.094625,7.2616243,-13.037008,-2.8043847,1.775974,-12.353328,-16.401627,11.352156,-7.6037455,9.061899,0.08186926,-1.4488324,12.94325,-4.8931518,16.845451,-33.70438,61.863033,5.309302,5.0752835,-7.902935,-7.7067003,-15.513872,27.135511,66.1632,16.820366,9.926351,7.3026414
8,-2.448500394821167,-0.596799910068512,78.76786804199219,0.35881802282181413,-2.8255202772527785,85.4676817767133,8.360555,4.0858164,30.254452,7.254375,-13.142098,-2.7812216,1.3591261,-12.516082,-16.140081,12.03085,-7.917838,9.0182705,0.062294785,-1.5014625,12.940399,-4.8817554,16.934555,-33.71054,61.838352,5.320826,5.086219,-7.933738,-7.744846,-15.536144,27.038708,66.16151,16.797739,9.909225,7.310762
9,-2.5316953659057617,-0.5297862887382507,78.74874114990234,0.4011366921614584,-2.747041786690531,85.30172732831008,8.369107,3.9703538,30.414852,7.2441564,-13.243893,-2.757479,0.8814054,-12.701782,-15.850658,12.825778,-8.297083,8.93971,0.040953945,-1.5697007,12.925795,-4.8793645,17.01737,-33.72468,61.83451,5.310215,5.080028,-7.9476237,-7.790054,-15.549119,26.938812,66.17197,16.777596,9.903932,7.304752
10,-2.612306833267212,-0.4586702585220337,78.72817993164062,0.4532132419367209,-2.666459279673163,85.13552280880005,8.378194,3.8438835,30.57668,7.2307053,-13.343322,-2.7344773,0.35587612,-12.904043,-15.538377,13.714479,-8.728266,8.832219,0.02211982,-1.6535102,12.909926,-4.8724756,17.119059,-33.74776,61.819016,5.2805142,5.0646877,-7.9530993,-7.8327904,-15.557066,26.826435,66.17696,16.755684,9.907226,7.2899623
11,-2.6919357776641846,-0.3859764337539673,78.70553588867188,0.5083230299405052,-2.5897595711483286,84.96618349484032,8.395151,3.7127779,30.74327,7.215005,-13.442432,-2.7082963,-0.21708098,-13.120206,-15.216903,14.71257,-9.201095,8.675408,-0.0044981437,-1.7349358,12.88528,-4.8888993,17.182508,-33.75843,61.85472,5.2558737,5.045607,-7.9531016,-7.8876214,-15.558914,26.721561,66.20777,16.742365,9.909443,7.2677493
12,-2.7687768936157227,-0.323893278837204,78.67980194091797,0.5674387247196434,-2.521792094485433,84.79067383113744,8.427468,3.580172,30.917786,7.196858,-13.543017,-2.6748796,-0.83840615,-13.350556,-14.898732,15.838039,-9.706678,8.448825,-0.0073709325,-1.8286971,12.883206,-4.8895006,17.30131,-33.776546,61.830536,5.230661,5.0389113,-7.9714603,-7.9207225,-15.558335,26.573153,66.20892,16.72556,9.904719,7.2508216
13,-2.845733165740967,-0.24815747141838074,78.65196990966797,0.6322990115904747,-2.4634748289168185,84.60753954810501,8.475806,3.440424,31.10311,7.1759186,-13.646496,-2.6275918,-1.5157712,-13.599306,-14.564556,17.106756,-10.262545,8.1451025,-0.011768553,-1.9280976,12.890994,-4.883617,17.4287,-33.76806,61.790627,5.2257304,5.0473676,-8.006846,-7.9567156,-15.553912,26.418043,66.216034,16.718266,9.89011,7.235295
14,-2.916487693786621,-0.16924577951431274,78.62490844726562,0.7037365063287614,-2.4119932159964,84.41878815761397,8.536496,3.2932377,31.29659,7.152775,-13.752101,-2.5704114,-2.2437406,-13.863465,-14.213474,18.498386,-10.862991,7.7754483,-0.012695564,-2.0348635,12.906184,-4.877306,17.564825,-33.74664,61.741608,5.230676,5.064857,-8.052515,-7.991004,-15.545745,26.248602,66.22437,16.715385,9.8699465,7.21928
15,-2.9880454540252686,-0.08906462788581848,78.59888458251953,0.7728528491087664,-2.3677179917721234,84.22629044144098,8.610042,3.1507437,31.493584,7.1268663,-13.855898,-2.5150716,-3.0000308,-14.131006,-13.885943,19.969131,-11.461698,7.347296,-0.01196098,-2.1394029,12.92821,-4.8753476,17.705374,-33.721096,61.695374,5.2327094,5.080599,-8.102802,-8.023694,-15.534385,26.074203,66.23124,16.719667,9.845111,7.2027903
16,-3.0585696697235107,-0.009917323477566242,78.57235717773438,0.8300061555482747,-2.3309804140307055,84.0318413334021,8.696279,3.0251665,31.68938,7.0994987,-13.955453,-2.4731476,-3.7661507,-14.392948,-13.623076,21.48501,-12.013945,6.8680067,-0.011638513,-2.2339747,12.957507,-4.878688,17.852602,-33.699406,61.656826,5.218261,5.084145,-8.152752,-8.053852,-15.519746,25.902319,66.23199,16.73198,9.81619,7.1861587
17,-3.1266753673553467,0.07903966307640076,78.54615783691406,0.87578378150974,-2.30174669800909,83.82946969071968,8.793981,2.9167714,31.887642,7.074599,-14.049762,-2.4436834,-4.565545,-14.662171,-13.433217,23.114859,-12.518529,6.2956038,-0.0061613075,-2.3194048,12.995329,-4.889535,18.008957,-33.681644,61.624557,5.1853294,5.067013,-8.21035,-8.083491,-15.50227,25.734667,66.224495,16.761415,9.778318,7.1693316
18,-3.1876797676086426,0.17443114519119263,78.52404022216797,0.9160853971683848,-2.27972514914746,83.6201800214839,8.904428,2.8176167,32.089664,7.0470114,-14.138388,-2.4215052,-5.3959646,-14.940805,-13.295126,24.846498,-12.992414,5.6404457,0.0037116716,-2.4008996,13.041328,-4.904421,18.175482,-33.663147,61.5932,5.141406,5.036898,-8.275455,-8.112109,-15.482368,25.567495,66.210754,16.804777,9.732856,7.152409
19,-3.245967149734497,0.2552260160446167,78.50166320800781,0.9450719944334982,-2.265025371357515,83.41665230076424,9.02703,2.73236,32.286366,7.0172215,-14.226686,-2.4121094,-6.2033615,-15.203577,-13.206928,26.530495,-13.424096,4.98937,0.0055170152,-2.475154,13.093637,-4.917895,18.351437,-33.648064,61.563408,5.0832915,5.0076003,-8.331271,-8.135453,-15.458792,25.399296,66.19228,16.843136,9.689942,7.1354027
20,-3.298480749130249,0.3545260727405548,78.48747253417969,0.9581475108936868,-2.2574595258695553,83.23119062963877,9.160539,2.6664524,32.46948,6.9860635,-14.320231,-2.421292,-6.9384246,-15.42585,-13.167364,28.028267,-13.807605,4.4304543,-0.012382914,-2.5388272,13.149634,-4.924021,18.534456,-33.638042,61.536434,5.011602,4.992916,-8.360296,-8.151676,-15.429758,25.231562,66.173744,16.860601,9.659013,7.1185627
21,-3.3465113639831543,0.47450563311576843,78.46739959716797,0.9545908791910096,-2.2590329735045853,83.06496116687696,9.309543,2.6191137,32.63975,6.9499955,-14.421665,-2.456939,-7.597352,-15.611528,-13.183657,29.354635,-14.147789,3.9765542,-0.052682057,-2.5917282,13.208767,-4.922784,18.723354,-33.640015,61.51485,4.906192,4.9985266,-8.345285,-8.162624,-15.393989,25.06713,66.159515,16.84558,9.645536,7.099539
22,-3.390780448913574,0.5877342820167542,78.44841766357422,0.9357824992296013,-2.2689538032196137,82.91200173209107,9.470735,2.5901651,32.80096,6.9140496,-14.5294285,-2.5140214,-8.207997,-15.772259,-13.255798,30.577871,-14.450857,3.5858214,-0.108926706,-2.634775,13.271509,-4.9183664,18.917885,-33.651638,61.499935,4.7731705,5.0160275,-8.299482,-8.1684065,-15.350667,24.902895,66.14707,16.807655,9.643299,7.0789022
23,-3.4345016479492188,0.7088131904602051,78.43468475341797,0.9025129101356364,-2.2832705457358333,82.77332852462244,9.643012,2.5782838,32.9497,6.8696656,-14.6343355,-2.57878,-8.768656,-15.894324,-13.371992,31.639524,-14.714245,3.264739,-0.1793124,-2.6679938,13.33624,-4.9115424,19.116833,-33.66109,61.49245,4.6525693,5.03867,-8.250587,-8.168998,-15.300562,24.736702,66.13568,16.766567,9.644209,7.0601587
24,-3.4714584350585938,0.8229730725288391,78.4228515625,0.8570077810972413,-2.2981443036022124,82.64995417043254,9.817451,2.5848246,33.082253,6.8267956,-14.731227,-2.6370482,-9.282107,-15.968039,-13.517896,32.490524,-14.935174,3.0199761,-0.26196823,-2.6930208,13.4018955,-4.9040895,19.318422,-33.656982,61.493958,4.5832014,5.0596704,-8.226839,-8.161775,-15.244561,24.563303,66.12129,16.739105,9.640423,7.0472536
25,-3.504633903503418,0.9556808471679688,78.41719055175781,0.7947930343585816,-2.3172368770755174,82.5449575046831,9.998928,2.6120121,33.19375,6.781336,-14.815844,-2.6805565,-9.733457,-15.98757,-13.699696,33.09998,-15.13602,2.8700633,-0.35916293,-2.7075648,13.471433,-4.896194,19.521103,-33.62988,61.509308,4.5943217,5.0761323,-8.235858,-8.145329,-15.183112,24.379644,66.10425,16.72858,9.630223,7.0460377
26,-3.533128261566162,1.095585584640503,78.41471099853516,0.7180359369449001,-2.3410743426766554,82.4566664890119,10.189531,2.6580904,33.287514,6.732429,-14.892704,-2.7182806,-10.12969,-15.96182,-13.921767,33.505142,-15.312144,2.8060942,-0.47096142,-2.711774,13.544395,-4.888522,19.724571,-33.588352,61.538116,4.658403,5.09202,-8.262416,-8.120637,-15.11605,24.189316,66.08529,16.726915,9.61776,7.0527887
27,-3.5555660724639893,1.243260383605957,78.41722106933594,0.6309539841048144,-2.361640705267507,82.37931349801913,10.381716,2.7171643,33.37277,6.6777163,-14.964571,-2.761933,-10.50062,-15.899245,-14.169584,33.746796,-15.420296,2.7928193,-0.59209836,-2.709182,13.614113,-4.8818116,19.928808,-33.5465,61.573273,4.7319775,5.110454,-8.300455,-8.089891,-15.044527,23.99803,66.06305,16.733799,9.604279,7.057275
28,-3.57161021232605,1.3962194919586182,78.41714477539062,0.5377233163313871,-2.370772399840294,82.30711183671059,10.567761,2.7846093,33.458332,6.6145782,-15.033864,-2.8234482,-10.874266,-15.807152,-14.429316,33.86165,-15.414574,2.794818,-0.71748656,-2.701944,13.674488,-4.880092,20.13425,-33.52334,61.6093,4.7664523,5.134429,-8.343771,-8.0545845,-14.969846,23.812338,66.03438,16.750399,9.590779,7.049163
29,-3.5858094692230225,1.5560188293457031,78.41688537597656,0.43908110382857435,-2.3670609390566666,82.24239957573987,10.746887,2.8606522,33.54386,6.5410566,-15.0994,-2.9054492,-11.247507,-15.686408,-14.707864,33.834408,-15.295155,2.8093772,-0.8473986,-2.6890628,13.724784,-4.882377,20.34079,-33.520054,61.64367,4.754482,5.1695886,-8.401968,-8.012611,-14.893326,23.631441,65.99449,16.788372,9.579594,7.0186586
30,-3.592477321624756,1.7155892848968506,78.4134750366211,0.33276001585533455,-2.354564867641208,82.18711870124137,10.924254,2.9463243,33.62548,6.4558434,-15.159006,-3.0015454,-11.607078,-15.5340605,-15.009494,33.649937,-15.080717,2.852653,-0.98378015,-2.668983,13.76854,-4.8904204,20.548431,-33.53238,61.68128,4.715682,5.2125545,-8.474712,-7.9609976,-14.814581,23.450346,65.94246,16.841423,9.569933,6.9739203
31,-3.595191717147827,1.878845453262329,78.41373443603516,0.22083113228940493,-2.3333136136918076,82.13460496336693,11.099473,3.0395641,33.70701,6.36296,-15.217138,-3.1100092,-11.96773,-15.353139,-15.316339,33.351513,-14.756363,2.918446,-1.122512,-2.6453917,13.805181,-4.9006276,20.75671,-33.55448,61.720215,4.6609836,5.2538548,-8.540487,-7.9060197,-14.734772,23.275223,65.88941,16.89105,9.5573225,6.9311213
32,-3.592933416366577,2.046860456466675,78.40934753417969,0.10516748614364058,-2.3032724141339527,82.07835373350328,11.273138,3.1385648,33.79219,6.2639227,-15.276783,-3.2293637,-12.344718,-15.1459675,-15.610962,32.98392,-14.307994,3.0006235,-1.2602315,-2.6202936,13.834352,-4.9116254,20.965275,-33.583206,61.759605,4.5981174,5.2837963,-8.578121,-7.851786,-14.654768,23.11084,65.84294,16.917528,9.538398,6.906576
33,-3.5828542709350586,2.221226930618286,78.4002685546875,-0.01775295082176157,-2.26104738478996,82.0157365731013,11.446293,3.2443693,33.883244,6.148607,-15.334052,-3.3630784,-12.738316,-14.905716,-15.895586,32.52985,-13.698083,3.112577,-1.3990306,-2.5911553,13.850837,-4.9198284,21.174229,-33.6224,61.80164,4.517233,5.297953,-8.567594,-7.7993364,-14.575003,22.957067,65.80531,16.905657,9.509282,6.911296
34,-3.5709097385406494,2.4070825576782227,78.39032745361328,-0.1383466675040321,-2.2092044393067085,81.94888205082708,11.578705,3.3762183,33.976974,6.1254573,-15.445555,-3.5105877,-13.142956,-14.642864,-16.170517,31.97819,-12.946714,3.2546318,-1.5377707,-2.5665216,13.858223,-4.9289746,21.384085,-33.674133,61.84715,4.416282,5.301871,-8.525199,-7.74634,-14.495307,22.813044,65.771545,16.871038,9.472774,6.934341
35,-3.5541083812713623,2.586033821105957,78.3801498413086,-0.2544437497481366,-2.153111134026556,81.88189946944223,11.705697,3.5098364,34.071102,6.1168146,-15.567641,-3.664622,-13.556719,-14.365441,-16.430168,31.363,-12.11726,3.397001,-1.6730677,-2.5473862,13.865005,-4.9421654,21.593716,-33.725582,61.889385,4.320692,5.3011746,-8.4835615,-7.6905637,-14.41609,22.67723,65.738815,16.832952,9.4357815,6.958935
36,-3.537184715270996,2.7752182483673096,78.36964416503906,-0.3599683334831913,-2.0989166011277716,81.8183284568631,11.837838,3.6333458,34.1631,6.1072125,-15.688184,-3.8179083,-13.980103,-14.087021,-16.666462,30.72487,-11.276264,3.5108588,-1.8006498,-2.5392194,13.8804,-4.963502,21.801422,-33.76392,61.92253,4.2558093,5.301623,-8.475451,-7.631282,-14.338637,22.55124,65.70579,16.813986,9.405119,6.9680657
37,-3.517751693725586,2.9663913249969482,78.3565673828125,-0.45192293366598846,-2.052069418129077,81.75845213719396,11.979978,3.743266,34.25297,6.0967607,-15.806229,-3.9716187,-14.412662,-13.808215,-16.869999,30.06449,-10.394284,3.5971825,-1.9168397,-2.545234,13.91181,-4.995861,22.0055,-33.779964,61.94655,4.2381225,5.3022957,-8.519531,-7.5649104,-14.263187,22.435785,65.66553,16.828817,9.382877,6.955198
38,-3.494107723236084,3.1669132709503174,78.3437728881836,-0.5324511096928676,-2.0074937535608184,81.70075963738478,12.128605,3.844534,34.34178,6.0844283,-15.923033,-4.128673,-14.852932,-13.522189,-17.048855,29.362083,-9.450901,3.6685054,-2.0255456,-2.5611684,13.951933,-5.037761,22.205772,-33.783035,61.966232,4.2498493,5.300993,-8.594929,-7.493981,-14.19033,22.331663,65.62224,16.863165,9.365255,6.929759
39,-3.46331787109375,3.3731393814086914,78.32716369628906,-0.6077050905518134,-1.9570053639871126,81.64553430347674,12.2742605,3.9411187,34.428547,6.0735183,-16.042269,-4.284257,-15.302579,-13.233351,-17.219854,28.631605,-8.525964,3.7130725,-2.1326725,-2.5813832,13.989766,-5.083722,22.402245,-33.783695,61.979256,4.2707543,5.301166,-8.67499,-7.4218264,-14.119905,22.235804,65.58443,16.894154,9.350681,6.9003034
40,-3.425367832183838,3.583261489868164,78.30956268310547,-0.6801146170289454,-1.8922036638697035,81.5929941546506,12.409066,4.0362453,34.511967,6.0613446,-16.163109,-4.4336267,-15.759074,-12.944543,-17.401733,27.87897,-7.699772,3.718809,-2.2440472,-2.6006646,14.014457,-5.128459,22.595072,-33.79372,61.983307,4.2796254,5.306586,-8.733006,-7.352905,-14.051466,22.146921,65.561325,16.900215,9.337487,6.8749905
41,-3.381960391998291,3.793691396713257,78.28907012939453,-0.7490062210090022,-1.8070679772225835,81.54426491409806,12.525716,4.129285,34.590893,6.051806,-16.288841,-4.569953,-16.230392,-12.657853,-17.603807,27.110018,-6.9984164,3.6653116,-2.3606875,-2.618841,14.018344,-5.1705294,22.78446,-33.818653,61.97718,4.2769513,5.321047,-8.761484,-7.285811,-13.984542,22.069565,65.55501,16.862757,9.32363,6.856639
42,-3.334726333618164,4.012681007385254,78.26510620117188,-0.8125080936686395,-1.7073214771533782,81.49927988328525,12.629661,4.219351,34.665955,6.043125,-16.41635,-4.697824,-16.712238,-12.36956,-17.817095,26.315838,-6.3759813,3.5644774,-2.4799385,-2.6389408,14.008495,-5.215146,22.970652,-33.855015,61.964592,4.2686377,5.341543,-8.774511,-7.219838,-13.919726,22.002008,65.56212,16.796242,9.310452,6.8403993
43,-3.2862868309020996,4.236147880554199,78.240478515625,-0.8722361162396198,-1.6027477723091696,81.45586937300125,12.734042,4.306537,34.73829,6.0331755,-16.546593,-4.828752,-17.187952,-12.074905,-18.031487,25.489668,-5.805118,3.452866,-2.6007316,-2.6593432,13.997822,-5.259087,23.152477,-33.88905,61.942627,4.2545786,5.3622775,-8.778656,-7.1561522,-13.855876,21.933064,65.57834,16.732002,9.301624,6.823724
44,-3.2357466220855713,4.464799880981445,78.21595001220703,-0.9309269659645544,-1.5032346306538014,81.4121459005274,12.849871,4.3923187,34.808838,6.0219946,-16.679913,-4.9745684,-17.64119,-11.769724,-18.236004,24.62544,-5.2585464,3.3671527,-2.722675,-2.6792228,13.998315,-5.301953,23.328457,-33.91004,61.911945,4.2312036,5.377222,-8.779992,-7.0975823,-13.791684,21.85121,65.602264,16.699768,9.300753,6.8036427
45,-3.182033061981201,4.691348552703857,78.18427276611328,-0.9880107948485806,-1.4122115607280281,81.36372646705415,12.982289,4.476604,34.8802,6.0081434,-16.815882,-5.1420145,-18.065428,-11.450597,-18.434872,23.712788,-4.746568,3.311474,-2.8447638,-2.6982899,14.013522,-5.341913,23.49757,-33.91434,61.872726,4.196467,5.383583,-8.771238,-7.04774,-13.726943,21.752493,65.63624,16.716383,9.309844,6.7760205
46,-3.1245343685150146,4.927992343902588,78.1502914428711,-1.0426920732717686,-1.3248542030395265,81.31372902486255,13.124927,4.557539,34.950146,5.993563,-16.955791,-5.3234982,-18.466839,-11.119431,-18.631943,22.75235,-4.2750325,3.2689753,-2.968191,-2.7178106,14.037123,-5.3805156,23.659657,-33.907597,61.825897,4.1533275,5.3848395,-8.7519455,-7.004047,-13.661168,21.643353,65.68026,16.763163,9.32682,6.7435627
47,-3.066051483154297,5.173593521118164,78.11442565917969,-1.092860036204388,-1.2374913378578072,81.27221306699525,13.270227,4.6359143,35.01217,5.9789743,-17.097391,-5.5094395,-18.84757,-10.779007,-18.815075,21.751217,-3.8078115,3.2442071,-3.0972507,-2.7398314,14.064944,-5.423333,23.815,-33.896698,61.776558,4.1017604,5.3845215,-8.738575,-6.9632344,-13.5949,21.528437,65.73479,16.815443,9.3475065,6.712452
48,-3.0002710819244385,5.42459774017334,78.0822982788086,-1.1370056073261416,-1.1466605937155459,81.2488081168941,13.412837,4.7107067,35.06051,5.964012,-17.239647,-5.6900682,-19.207722,-10.433232,-18.972197,20.713034,-3.3072357,3.2414048,-3.2351067,-2.766228,14.093555,-5.474466,23.963848,-33.88568,61.72703,4.044774,5.3863373,-8.747437,-6.919564,-13.528134,21.410942,65.79709,16.847973,9.368276,6.689248
49,-2.92615008354187,5.67755126953125,78.04376220703125,-1.172349972793849,-1.0530792300593774,81.24635632644039,13.551515,4.7815413,35.09371,5.9504733,-17.382542,-5.8641796,-19.54443,-10.082873,-19.102627,19.629238,-2.76256,3.2649179,-3.3816714,-2.7996757,14.124891,-5.537541,24.106249,-33.871174,61.678246,3.9784446,5.3916664,-8.792219,-6.8746524,-13.461116,21.29314,65.87199,16.856823,9.392075,6.677265
50,-2.850555419921875,5.932504177093506,78.00428771972656,-1.2004165785442251,-0.9589254369434342,81.26090441551202,13.691015,4.8462667,35.113815,5.936864,-17.527412,-6.0360103,-19.856047,-9.728151,-19.21131,18.498049,-2.192351,3.3116333,-3.5366254,-2.8397937,14.16051,-5.610028,24.242363,-33.85326,61.628857,3.901808,5.398447,-8.861182,-6.830021,-13.393576,21.173183,65.95836,16.854898,9.419678,6.6728344
51,-2.772397518157959,6.1993489265441895,77.96296691894531,-1.22194906581005,-0.8621530293508702,81.29159103995686,13.82978,4.905569,35.119152,5.921415,-17.672853,-6.2044463,-20.147884,-9.372565,-19.29419,17.338333,-1.605737,3.3737798,-3.7035422,-2.8845577,14.195288,-5.6847415,24.372463,-33.839146,61.578045,3.8252852,5.4052215,-8.932634,-6.782203,-13.326374,21.04792,66.047935,16.841354,9.443803,6.670552
52,-2.6922097206115723,6.47346305847168,77.92250061035156,-1.2354191388864222,-0.7604469481453332,81.33696744460694,13.965146,4.9602585,35.108643,5.908322,-17.821648,-6.3682227,-20.428005,-9.021507,-19.345852,16.174738,-1.0139213,3.4436686,-3.8851237,-2.932015,14.224384,-5.7598248,24.497477,-33.843586,61.528095,3.7516077,5.41027,-8.984978,-6.7273974,-13.260785,20.914753,66.13166,16.816017,9.457516,6.6654205
53,-2.603731870651245,6.747069358825684,77.88090515136719,-1.2439588473746381,-0.6478757993419436,81.39766824125131,14.090361,5.011138,35.081078,5.894809,-17.971596,-6.5264606,-20.703583,-8.672347,-19.357433,15.001271,-0.39682367,3.521623,-4.083091,-2.980251,14.243082,-5.8345723,24.618414,-33.870136,61.47811,3.6727612,5.4116955,-9.009237,-6.66239,-13.196886,20.767918,66.206184,16.772104,9.454555,6.657091
54,-2.5092341899871826,7.036793231964111,77.82970428466797,-1.2443546968170784,-0.5279050211195738,81.4755723027098,14.208712,5.0570316,35.03593,5.8807554,-18.122211,-6.6797647,-20.968706,-8.326907,-19.333721,13.811722,0.24290216,3.6110373,-4.299354,-3.0244102,14.253471,-5.91955,24.714373,-33.90908,61.445934,3.594349,5.409387,-9.01598,-6.5868964,-13.145969,20.61655,66.273415,16.716251,9.441283,6.6485734
55,-2.412302255630493,7.333134651184082,77.77497863769531,-1.2336262098629458,-0.4131199099655791,81.56981516573236,14.337234,5.092454,34.974083,5.8664193,-18.277777,-6.8289847,-21.20802,-7.9951057,-19.290623,12.623563,0.86073536,3.708161,-4.526612,-3.0736673,14.267332,-6.006706,24.80157,-33.960743,61.414387,3.5328095,5.408116,-9.017746,-6.5022106,-13.098779,20.45972,66.33218,16.656769,9.427549,6.6391764
56,-2.315084934234619,7.63472843170166,77.7083969116211,-1.210440215160769,-0.31543991018971324,81.67956578031482,14.491661,5.114491,34.896793,5.8499546,-18.438654,-6.975448,-21.407299,-7.685348,-19.24467,11.454316,1.4120715,3.8087733,-4.75903,-3.1350782,14.294591,-6.087696,24.891405,-34.02107,61.369923,3.5083096,5.4122367,-9.026891,-6.4119215,-13.049203,20.300016,66.384254,16.603014,9.423059,6.6281695
57,-2.2147746086120605,7.9452009201049805,77.63597869873047,-1.1735189628706304,-0.23909239521444772,81.80443503718499,14.678175,5.122032,34.804016,5.8319845,-18.606533,-7.113572,-21.560291,-7.394831,-19.182373,10.2921915,1.8883295,3.9162028,-4.9997687,-3.213161,14.340452,-6.155366,24.99075,-34.083447,61.30353,3.5485415,5.4266076,-9.0493555,-6.321692,-12.992511,20.141047,66.431656,16.560728,9.434941,6.615394
58,-2.1110262870788574,8.2578706741333,77.56805419921875,-1.1257308492110754,-0.17681558740023548,81.94448228793631,14.886582,5.1193767,34.695908,5.813214,-18.780037,-7.2449365,-21.672186,-7.1198697,-19.101538,9.124314,2.3170717,4.0298243,-5.2627296,-3.2912722,14.394452,-6.2206354,25.063435,-34.136852,61.24631,3.6444557,5.4454856,-9.074488,-6.229607,-12.948638,19.99924,66.47225,16.531807,9.458199,6.601144
59,-2.009589910507202,8.580260276794434,77.4887466430664,-1.0691791354067863,-0.12308313565764922,82.09816662370856,15.110045,5.109078,34.574547,5.7944407,-18.959808,-7.381298,-21.742226,-6.865073,-19.034298,7.95555,2.7116675,4.1397905,-5.5308514,-3.3710017,14.451541,-6.2861886,25.124949,-34.199993,61.189907,3.740567,5.4623713,-9.097172,-6.1278887,-12.909677,19.858564,66.50567,16.504248,9.480201,6.584636
60,-1.9018337726593018,8.914743423461914,77.41215515136719,-1.0079842259765208,-0.07158323807336807,82.26281062684183,15.340783,5.0964084,34.443363,5.774924,-19.144423,-7.534953,-21.778511,-6.63353,-19.012682,6.807961,3.0819402,4.2365475,-5.8005915,-3.4475722,14.503638,-6.353089,25.178453,-34.279037,61.135696,3.7830756,5.469323,-9.110444,-6.017055,-12.876899,19.7247,66.537415,16.474749,9.488361,6.564487
61,-1.7950406074523926,9.262451171875,77.33147430419922,-0.9426123211083262,-0.020533119732865892,82.4396516834875,15.573015,5.084297,34.30135,5.7579894,-19.334352,-7.7161307,-22.227959,-6.579509,-18.984653,6.665427,2.902953,4.323677,-6.080035,-3.5162785,14.550218,-6.421062,25.215921,-34.368217,61.08804,3.753625,5.462071,-9.107265,-5.8967137,-12.8568125,19.6105,66.562386,16.445112,9.477628,6.534685
62,-1.6843750476837158,9.620184898376465,77.2423324584961,-0.8733456661206256,0.027844810011717302,82.62749932292277,15.811846,5.0719404,34.149952,5.74266,-19.53023,-7.9165177,-22.689335,-6.5580573,-18.98518,6.6323404,2.6402106,4.4010386,-6.36663,-3.5790932,14.59418,-6.4863257,25.242113,-34.46602,61.040047,3.6819332,5.4457374,-9.093492,-5.7698784,-12.8462305,19.509325,66.5835,16.416237,9.4547615,6.4982553
63,-1.5695228576660156,9.9911470413208,77.14891052246094,-0.8029624240043521,0.0740402422592913,82.81926241169758,16.062332,5.06137,33.9967,5.7256393,-19.730211,-8.121277,-23.111042,-6.5480437,-19.027426,6.608557,2.365227,4.468066,-6.6446953,-3.6348946,14.633789,-6.552503,25.259895,-34.57564,60.991768,3.5931983,5.425574,-9.079458,-5.6284676,-12.843117,19.405443,66.59701,16.387999,9.428442,6.466459
64,-1.4526633024215698,10.368364334106445,77.048095703125,-0.7337056024824791,0.11828897598377973,83.00844039116043,16.325893,5.055783,33.847942,5.712983,-19.938086,-8.315233,-23.483309,-6.5434656,-19.120281,6.5897193,2.0980484,4.525268,-6.9077783,-3.6813083,14.664417,-6.6103644,25.270182,-34.687195,60.936634,3.5188503,5.406905,-9.07521,-5.4772654,-12.847594,19.291624,66.6153,16.361597,9.406436,6.4509444
65,-1.33349609375,10.75696086883545,76.94400024414062,-0.6647662990017195,0.16135468312074353,83.19589275055735,16.60464,5.0523705,33.701847,5.699854,-20.15268,-8.48614,-23.804201,-6.5495515,-19.295124,6.5779395,1.8423598,4.5831127,-7.188903,-3.720686,14.679932,-6.6300135,25.270292,-34.753757,60.866844,3.4758396,5.386223,-9.086123,-5.3433537,-12.854928,19.210804,66.66324,16.351759,9.385459,6.4556665
66,-1.2106438875198364,11.15085220336914,76.83838653564453,-0.5954459822329534,0.20356995667888042,83.3825334053864,16.895046,5.0521355,33.557613,5.689238,-20.374804,-8.645081,-24.078526,-6.564555,-19.53675,6.5717616,1.5898228,4.6388335,-7.4429736,-3.7508302,14.689153,-6.6571064,25.26221,-34.84248,60.79899,3.4316103,5.3631434,-9.106265,-5.1865396,-12.8718605,19.103569,66.702614,16.338467,9.364183,6.4788923
67,-1.0863454341888428,11.562034606933594,76.71839141845703,-0.5303525809475144,0.24506434031129384,83.56347856013953,17.198145,5.0606074,33.423573,5.679057,-20.600927,-8.81179,-24.310965,-6.5723615,-19.784395,6.5710187,1.3377512,4.673005,-7.694048,-3.7689033,14.688896,-6.662164,25.246475,-34.914146,60.714703,3.4021254,5.344429,-9.127193,-5.0349407,-12.893664,19.007547,66.75617,16.330336,9.348668,6.504803
68,-0.953220784664154,11.981233596801758,76.59463500976562,-0.4741236208410565,0.28583668826384545,83.73372575946117,17.515017,5.083544,33.308258,5.667635,-20.827522,-9.006024,-24.506268,-6.5569406,-19.97759,6.574826,1.0840858,4.6659765,-7.88822,-3.7455509,14.689561,-6.715834,25.182322,-35.03949,60.660725,3.376643,5.33444,-9.137733,-4.8244486,-12.965082,18.856974,66.75304,16.311039,9.353949,6.533791
69,-0.8230019211769104,12.410663604736328,76.47203826904297,-0.4286165941869224,0.3256979693553855,83.89025077638941,17.8472,5.1221166,33.21793,5.655335,-21.06092,-9.231711,-24.66734,-6.5191956,-20.125929,6.584554,0.8120577,4.6036034,-8.1153755,-3.7144265,14.677167,-6.6986423,25.12525,-35.088314,60.553413,3.3915486,5.3455896,-9.138891,-4.670639,-13.018612,18.773565,66.809364,16.310392,9.377758,6.544107
70,-0.6885284185409546,12.848560333251953,76.34562683105469,-0.39160594911885677,0.365009529917559,84.03564422103673,18.19329,5.1744127,33.148273,5.643686,-21.300554,-9.479157,-24.791227,-6.465151,-20.25225,6.599956,0.52782553,4.4996104,-8.316859,-3.6461673,14.658492,-6.698437,25.016216,-35.14355,60.46726,3.4306026,5.368377,-9.130603,-4.490601,-13.111416,18.680105,66.84276,16.314917,9.422758,6.5566034
71,-0.5544379353523254,13.291252136230469,76.21479034423828,-0.3600058656564504,0.40554230937245805,84.17241055660645,18.550499,5.2378106,33.09241,5.631299,-21.533405,-9.747426,-24.875704,-6.386276,-20.314474,6.61843,0.2633892,4.3743534,-8.516915,-3.566479,14.628322,-6.6796103,24.900875,-35.183994,60.371593,3.473894,5.388535,-9.1198845,-4.321849,-13.2020445,18.59675,66.89752,16.313398,9.467008,6.560744
72,-0.4110593795776367,13.757771492004395,76.08606719970703,-0.33089792994437717,0.4489174810411253,84.30370637633001,18.913994,5.3115506,33.04278,5.6193385,-21.746326,-10.035572,-24.91837,-6.2748923,-20.271563,6.638783,0.04992053,4.247798,-8.707597,-3.4753067,14.58677,-6.6522703,24.77683,-35.2199,60.27678,3.5102642,5.389517,-9.110675,-4.1488347,-13.295094,18.504618,66.95975,16.292082,9.49538,6.556974
73,-0.261620432138443,14.228862762451172,75.9517822265625,-0.2908321595253721,0.491276979463559,84.43394075050134,19.288128,5.3781347,32.991497,5.60556,-21.944773,-10.347047,-24.914606,-6.1455245,-20.096004,6.657979,-0.12845534,4.161666,-8.894646,-3.3895142,14.532541,-6.608371,24.6559,-35.253754,60.175594,3.524799,5.360649,-9.104159,-3.9736292,-13.382973,18.411413,67.0384,16.238958,9.49957,6.5385995
74,-0.10587619245052338,14.707276344299316,75.8067398071289,-0.24575995495147596,0.5333824039782485,84.56042983615143,19.672323,5.445134,32.94509,5.5918255,-22.132742,-10.6813545,-24.868473,-5.997489,-19.815248,6.6800675,-0.28072402,4.092536,-9.080747,-3.3138778,14.467628,-6.5277467,24.560106,-35.27108,60.039825,3.5299373,5.3146324,-9.100922,-3.8098562,-13.452044,18.323107,67.14423,16.161049,9.487188,6.506284
75,0.055575642734766006,15.19653034210205,75.66004943847656,-0.22247256595347503,0.5829215662039219,84.67349147015508,20.06032,5.542649,32.91929,5.5808096,-22.297672,-11.030108,-24.784098,-5.799093,-19.469069,6.7046595,-0.36157665,3.9633482,-9.236816,-3.1836388,14.395625,-6.4831514,24.405453,-35.306637,59.948696,3.5408244,5.2631326,-9.093842,-3.6138935,-13.562309,18.201982,67.21625,16.081835,9.476627,6.480919
76,0.21307535469532013,15.70410442352295,75.51431274414062,-0.2460740251569547,0.6474482576177243,84.76357863299582,20.446804,5.699864,32.92948,5.5724173,-22.424501,-11.38528,-24.66802,-5.519732,-19.095688,6.732905,-0.3240733,3.69722,-9.370507,-3.0018954,14.320472,-6.4370704,24.25087,-35.339436,59.846584,3.5640445,5.2267785,-9.088829,-3.4280567,-13.668761,18.05497,67.28668,16.020277,9.471579,6.46488
77,0.37526100873947144,16.217479705810547,75.3726806640625,-0.31855167521807093,0.7270665195514385,84.83607721549753,20.833643,5.9188895,32.990692,5.5647607,-22.52771,-11.740612,-24.494137,-5.1541104,-18.703474,6.7746763,-0.28724128,3.2928717,-9.485546,-2.7642646,14.241337,-6.389814,24.09223,-35.375313,59.729645,3.6128385,5.2153273,-9.093875,-3.2481172,-13.775956,17.872314,67.353325,15.980803,9.47275,6.468131
78,0.5398436188697815,16.741579055786133,75.23399353027344,-0.42643816417315716,0.8162473366728777,84.89499211576057,21.224522,6.1839643,33.09029,5.5618396,-22.612036,-12.101155,-24.267147,-4.7181926,-18.270664,6.826279,-0.22698955,2.7872105,-9.587611,-2.489069,14.160051,-6.3278346,23.94248,-35.40641,59.585823,3.6787124,5.218863,-9.107398,-3.0772057,-13.875393,17.664896,67.42397,15.952017,9.475017,6.4818234
79,0.7296189069747925,17.240936279296875,75.14095306396484,-0.5642674492265485,0.9087705930396902,84.92403761197887,21.578611,6.517809,33.200603,5.680215,-22.703192,-12.476239,-24.034908,-4.221553,-17.784266,6.8735385,0.109016426,2.1641603,-9.651643,-2.1780248,14.088125,-6.2742996,23.789463,-35.43773,59.4442,3.739152,5.2221227,-9.11207,-2.9059317,-13.975826,17.431044,67.48168,15.92925,9.482502,6.493868
80,0.9280266165733337,17.752559661865234,75.0625228881836,-0.737048521178354,1.002233241988675,84.9147653197034,21.899202,6.9242177,33.29244,5.912755,-22.760712,-12.874592,-24.344486,-3.831596,-17.216232,8.003921,0.3968895,1.4128213,-9.669461,-1.8316902,14.035277,-6.229546,23.646023,-35.46062,59.30595,3.771068,5.2117047,-9.093477,-2.7391617,-14.068102,17.177269,67.522934,15.905085,9.497119,6.4895563
81,1.135515809059143,18.269420623779297,74.99357604980469,-0.9796996396894185,1.1094303362082731,84.87657309756491,22.200422,7.4276886,33.351494,6.183796,-22.754023,-13.318554,-25.003061,-3.4347415,-16.581348,9.683714,1.2356044,0.43020427,-9.635987,-1.4041195,14.001417,-6.22452,23.501938,-35.510647,59.18331,3.7540104,5.179914,-9.043735,-2.5646737,-14.160858,16.879957,67.528725,15.870212,9.527802,6.4647856
82,1.348041296005249,18.804779052734375,74.92987060546875,-1.2704865201269697,1.2227012838664963,84.81924752567227,22.499853,7.9968996,33.386806,6.4690623,-22.682846,-13.793722,-25.721079,-2.9746585,-15.93829,11.369492,2.7030988,-0.74142104,-9.567679,-0.92265,13.983911,-6.2420297,23.364624,-35.578342,59.063114,3.702907,5.135896,-8.973277,-2.3862615,-14.249454,16.54583,67.51091,15.8294735,9.570123,6.4268413
83,1.5614409446716309,19.35400390625,74.87327575683594,-1.5434390956273623,1.314237102380483,84.7411790043966,22.839878,8.538473,33.406155,6.7355127,-22.50334,-14.254062,-26.433838,-2.5314646,-15.362604,13.090054,4.2298856,-1.9127064,-9.479949,-0.4660313,13.984332,-6.2392635,23.230494,-35.600235,58.946167,3.6580012,5.08893,-8.890629,-2.2092903,-14.3308735,16.213493,67.48835,15.8014765,9.610073,6.3821816
84,1.7875218391418457,19.9146785736084,74.82942199707031,-1.7319109646466586,1.3582315215893597,84.63584734191552,23.254786,8.962572,33.42012,6.9692926,-22.17731,-14.653057,-27.072908,-2.1771135,-14.884534,14.86931,5.2372727,-2.9027703,-9.388051,-0.11442015,14.001282,-6.173598,23.095276,-35.511112,58.837505,3.6573603,5.048191,-8.803794,-2.0473964,-14.402734,15.92764,67.48835,15.80605,9.632433,6.336137
85,2.0228846073150635,20.489089965820312,74.789794921875,-1.8300669589796215,1.3528520024652706,84.49617351623911,23.756813,9.259003,33.443848,7.161432,-21.710133,-14.999525,-27.693226,-1.9367617,-14.481448,16.863577,5.555025,-3.7206545,-9.29375,0.12553293,14.033831,-6.025338,22.954199,-35.26839,58.728996,3.7321749,5.014437,-8.710175,-1.9072756,-14.46569,15.701211,67.51928,15.869255,9.626875,6.283853
86,2.266191244125366,21.066267013549805,74.75979614257812,-1.8661773084125248,1.3131916024704173,84.32780224204744,24.309036,9.419051,33.394333,7.292742,-21.104753,-15.000033,-28.31499,-1.792011,-14.11448,19.034914,5.468524,-4.461947,-9.194153,0.29235616,14.080156,-5.820372,22.807644,-34.910595,58.62495,3.8552766,4.9831514,-8.606733,-1.7885046,-14.521574,15.516773,67.57478,15.974661,9.60147,6.22374
87,2.513425350189209,21.646121978759766,74.74275207519531,-1.8219053168495947,1.2579691653640939,84.14623995577269,24.876492,9.485427,33.31762,7.4262466,-20.357746,-15.000033,-28.864904,-1.7461029,-13.764071,21.181635,5.0589066,-5.0610037,-9.101818,0.36534205,14.115578,-5.577351,22.65862,-34.486973,58.539562,3.9874933,4.956374,-8.5003,-1.6875095,-14.566615,15.36954,67.64469,16.07908,9.574482,6.1656427
88,2.7789223194122314,22.221086502075195,74.75458526611328,-1.7249892083155387,1.17137967245339,83.9351639937652,25.471039,9.496549,33.2373,7.5808306,-19.449684,-15.000033,-29.190813,-1.7095107,-13.427184,22.999231,4.46177,-5.44332,-8.99557,0.36497527,14.157382,-5.3144493,22.512413,-34.046997,58.48703,4.0884686,4.936113,-8.39784,-1.6049508,-14.594003,15.2521515,67.729355,16.135315,9.559985,6.11955
89,3.050560235977173,22.80146026611328,74.77938842773438,-1.5971944870695152,1.0500735085236665,83.68036891054972,26.107916,9.472623,33.154896,7.752277,-18.394335,-15.000033,-29.245071,-1.633389,-13.138311,24.408772,3.5953922,-5.490542,-8.864874,0.31116578,14.215028,-5.0124245,22.368385,-33.557323,58.455433,4.1538653,4.9237933,-8.290221,-1.5491158,-14.59833,15.160553,67.843346,16.125164,9.557442,6.0876403
90,3.3267128467559814,23.393234252929688,74.81791687011719,-1.4474376729856873,0.9010006672995495,83.3829701097976,26.387533,9.682053,33.008762,8.918637,-17.70906,-15.000033,-29.109285,-1.5311834,-12.901642,25.565823,2.4345078,-5.2669,-8.711513,0.2149147,14.284324,-4.670125,22.225481,-33.006893,58.44124,4.2028685,4.91851,-8.177207,-1.5212189,-14.579461,15.098923,67.98726,16.074451,9.559618,6.0637956
91,3.6183576583862305,23.996267318725586,74.88060760498047,-1.2849697794916846,0.7326415700977637,83.06129950763787,26.369154,10.090772,32.82696,10.870599,-17.241568,-15.000033,-28.83643,-1.4040565,-12.685623,26.521633,1.2015895,-4.967253,-8.542991,0.08528894,14.353078,-4.3312187,22.090645,-32.481716,58.470097,4.228453,4.9185557,-8.079088,-1.5090666,-14.540557,15.071701,68.1381,16.003822,9.570827,6.0460215
92,3.9287283420562744,24.61154556274414,74.9655990600586,-1.1223197124168292,0.5551531625191541,82.73960191805244,26.188179,10.621542,32.643623,13.206758,-16.730625,-15.000033,-28.46849,-1.2505101,-12.457423,27.302462,0.129571,-4.7859435,-8.369029,-0.0644555,14.408497,-4.0399623,21.975302,-32.073822,58.56522,4.220522,4.9225373,-8.015957,-1.4959878,-14.485598,15.078704,68.26823,15.933328,9.595893,6.0331936
93,4.253035545349121,25.23080062866211,75.07066345214844,-0.9639786430719764,0.3820803573955276,82.44564389501149,25.81634,11.300701,32.404957,15.949768,-16.119074,-15.000033,-28.000835,-1.0750482,-12.232096,27.874853,-0.7203895,-4.765394,-8.208491,-0.23442024,14.431509,-3.7944865,21.887697,-31.794127,58.740646,4.145331,4.928443,-7.9873295,-1.4689149,-14.412102,15.128938,68.37808,15.865766,9.641081,6.021817
94,4.578838348388672,25.84828758239746,75.18910217285156,-0.7561491100727625,0.247063622790633,82.20115527875168,25.259928,11.971086,32.0365,18.894012,-15.339195,-14.692573,-27.49223,-0.9544432,-12.015032,28.298954,-1.4972128,-4.7926946,-8.07445,-0.4594694,14.399893,-3.5676346,21.846142,-31.6186,58.941635,4.005792,4.939261,-7.9894547,-1.4041263,-14.345556,15.192831,68.43063,15.787954,9.70755,6.0252213
95,4.909761905670166,26.463735580444336,75.31277465820312,-0.5612623714404422,0.1202171325950074,81.9586540721208,24.584225,12.685064,31.666983,22.006416,-14.495854,-14.123296,-26.914944,-0.8015439,-11.807389,28.565872,-2.2003005,-4.861042,-7.9749465,-0.6942766,14.338702,-3.3695054,21.80999,-31.500326,59.203415,3.893199,4.9567747,-8.021807,-1.4047563,-14.228649,15.315164,68.52746,15.707875,9.771432,6.0244045
96,5.242617607116699,27.07158088684082,75.44287109375,-0.3938854488154186,-0.009797742183056523,81.68557141221703,23.844135,13.453742,31.391981,25.230293,-13.680372,-13.482836,-26.295141,-0.59482986,-11.583886,28.736574,-2.8607552,-4.9513526,-7.8364377,-0.8863219,14.299878,-3.2201812,21.804605,-31.512472,59.435154,3.8428931,4.9875445,-8.102053,-1.3939589,-14.149716,15.403061,68.53088,15.621605,9.836613,6.057765
97,5.571504592895508,27.67344093322754,75.58394622802734,-0.23843996222241454,-0.1550442354953411,81.371607963813,23.067638,14.282241,31.27356,28.59409,-12.830577,-12.850249,-25.62488,-0.34321445,-11.31948,28.82145,-3.4896262,-5.076456,-7.665796,-1.0639911,14.280244,-3.1281033,21.82073,-31.665367,59.672348,3.8817825,5.0412507,-8.264355,-1.4047703,-14.070865,15.468678,68.48492,15.50794,9.906666,6.121428
98,5.901308536529541,28.273414611816406,75.7300033569336,-0.08349808075314816,-0.31393403410356313,81.0247879432324,22.247318,15.181557,31.260725,32.1207,-11.937454,-12.156626,-24.891777,-0.06059979,-11.015401,28.80123,-4.074963,-5.2387857,-7.4672627,-1.2314616,14.278321,-3.0861962,21.85269,-31.942682,59.919975,3.975947,5.111175,-8.493949,-1.4147978,-14.01667,15.52253,68.36963,15.375711,9.987359,6.216694
99,6.224216461181641,28.86554527282715,75.8711166381836,0.05449603464099974,-0.47660523369516733,80.64176115204287,21.377954,16.13807,31.264587,35.72548,-11.170204,-11.215259,-24.117046,0.25992042,-10.682878,28.691772,-4.612938,-5.4003363,-7.2213674,-1.3856523,14.287661,-3.0867624,21.91118,-32.311115,60.157238,4.105114,5.1789513,-8.716637,-1.4385504,-13.96517,15.566879,68.21266,15.264507,10.050968,6.321231
100,6.540633678436279,29.457172393798828,76.01139068603516,0.15671569312725483,-0.6311590211286808,80.2223498313154,20.444439,17.123083,31.196924,39.315784,-10.689392,-9.862644,-23.32385,0.62625986,-10.338018,28.508795,-5.098965,-5.5241985,-6.9594555,-1.5060036,14.310219,-3.0813284,21.996365,-32.66429,60.328175,4.2738194,5.224285,-8.863584,-1.5070586,-13.939023,15.653138,68.02836,15.22835,10.075906,6.4212537
101,6.844747066497803,30.047603607177734,76.14787292480469,0.2148937348592484,-0.7854583033758534,79.74781127490574,19.436834,18.231056,31.178545,43.06775,-10.554987,-7.762305,-22.498732,1.05551,-9.974481,28.235144,-5.5214095,-5.600289,-6.6946297,-1.5728699,14.35627,-3.0683765,22.080809,-32.987328,60.439507,4.51473,5.2363,-8.904349,-1.6377164,-13.960572,15.820492,67.81284,15.310464,10.053984,6.5240417
102,7.144370079040527,30.626436233520508,76.27543640136719,0.24107959048008665,-0.942337661561388,79.22403349145992,18.369816,19.437572,31.206009,46.950542,-10.6810465,-5.095946,-21.633495,1.536127,-9.584221,27.866768,-5.8848205,-5.648556,-6.415515,-1.5989702,14.418771,-3.0759401,22.157112,-33.323196,60.529926,4.8212776,5.2267475,-8.87802,-1.820863,-14.015162,16.04125,67.57457,15.474122,9.995121,6.633783
103,7.4388556480407715,31.20537757873535,76.39102172851562,0.2506837147684587,-1.081645994257525,78.68903883341389,17.223433,20.496275,30.98969,50.59189,-10.993969,-2.5273128,-20.767662,2.0296006,-9.181102,27.452282,-6.2157297,-5.67693,-6.1296816,-1.5936737,14.484609,-3.0628045,22.272396,-33.641605,60.527786,5.1305113,5.210763,-8.825734,-1.9940515,-14.134602,16.284248,67.25327,15.671655,9.925284,6.7466607
104,7.73300313949585,31.781280517578125,76.49468994140625,0.26214146175384645,-1.183795931818691,78.18092594197529,15.947312,21.13501,30.23659,53.657436,-11.4067545,-0.7539046,-19.943892,2.4942386,-8.778924,27.044413,-6.5416594,-5.693015,-5.877001,-1.5861102,14.509746,-3.0421383,22.380875,-33.873684,60.507004,5.414891,5.1968837,-8.772277,-2.1871195,-14.276052,16.551731,66.926476,15.842664,9.853505,6.8296742
105,8.017667770385742,32.350887298583984,76.58760070800781,0.2753581152044031,-1.2327088274318805,77.71110378910343,14.466799,21.168024,28.72604,56.074738,-12.006479,-0.113263436,-19.197096,2.9225228,-8.3841715,26.674667,-6.8701644,-5.709776,-5.664282,-1.5772456,14.470458,-3.018466,22.482407,-34.03168,60.473713,5.6911902,5.1893134,-8.7243,-2.399089,-14.43793,16.855621,66.59734,15.98292,9.774621,6.8765707
106,8.29708194732666,32.929351806640625,76.67754364013672,0.28624848345812126,-1.2441099204340902,77.25824523224229,12.816474,20.71999,26.683132,58.080505,-12.820762,-0.22565281,-18.498537,3.3311322,-7.9870877,26.314795,-7.191213,-5.7193613,-5.477023,-1.5631391,14.387929,-2.996799,22.578196,-34.13672,60.424774,5.971682,5.181709,-8.664748,-2.6365106,-14.620945,17.198027,66.259315,16.117708,9.682917,6.8977036
107,8.574431419372559,33.50741958618164,76.77191162109375,0.30555003455890145,-1.245205603273333,76.81171557676987,11.111957,19.999662,24.489065,59.799088,-13.665103,-0.70976716,-17.805744,3.7157905,-7.580192,25.946688,-7.5088234,-5.6989737,-5.2962484,-1.5585741,14.29662,-2.9724216,22.666348,-34.16511,60.36041,6.205287,5.1698895,-8.589051,-2.8900557,-14.818705,17.544775,65.91137,16.239601,9.591772,6.8967514
108,8.856918334960938,34.079734802246094,76.87073516845703,0.34389010075072746,-1.2612818754577388,76.36228102328252,9.449687,19.237637,22.49105,61.32468,-14.326927,-1.1810957,-17.075058,4.0717754,-7.15708,25.545753,-7.824566,-5.62662,-5.1047,-1.5783755,14.228433,-2.9426444,22.744,-34.09513,60.28505,6.33877,5.149526,-8.492088,-3.151511,-15.020977,17.860216,65.55603,16.338997,9.514232,6.876673
109,9.14152717590332,34.645816802978516,76.96888732910156,0.40925376416490644,-1.294029382420072,75.92401381250247,7.8048687,18.417166,20.646215,62.640667,-14.710752,-1.6424583,-16.296444,4.386198,-6.728101,25.100552,-8.143914,-5.492249,-4.908457,-1.6375488,14.186065,-2.9129913,22.810272,-33.916103,60.206688,6.338813,5.1119795,-8.356929,-3.4229524,-15.221746,18.140781,65.19108,16.402388,9.453577,6.8307285
110,9.424684524536133,35.213531494140625,77.06177520751953,0.49287856679924635,-1.3313183818550811,75.49672584665156,6.158451,17.455225,18.821959,63.708813,-14.950787,-2.2579796,-15.491772,4.6666017,-6.2957373,24.623232,-8.464551,-5.312152,-4.7134414,-1.7257211,14.152988,-2.8830729,22.865837,-33.64088,60.125122,6.2416506,5.061712,-8.190915,-3.7120218,-15.421443,18.402746,64.82419,16.43679,9.401697,6.7578735
111,9.709035873413086,35.778438568115234,77.15640258789062,0.5810614605671787,-1.3759621968921263,75.05127412471747,4.5766745,16.502245,17.186768,64.57597,-15.142653,-2.8842454,-14.668105,4.9379916,-5.842601,24.127842,-8.777537,-5.1030545,-4.5030937,-1.8190914,14.13067,-2.8445525,22.909872,-33.286533,60.034527,6.0946684,5.013477,-8.02539,-4.01895,-15.620046,18.642075,64.47284,16.465862,9.354416,6.6693554
112,9.996395111083984,36.34416198730469,77.24449157714844,0.6599783288942251,-1.430371521029223,74.55830801279306,3.110697,15.7173605,15.897968,65.2835,-15.3698,-3.3719008,-13.829942,5.224814,-5.3500395,23.622522,-9.070303,-4.8802147,-4.259445,-1.8931142,14.120081,-2.79022,22.940006,-32.87091,59.929436,5.946333,4.9828286,-7.8912406,-4.3441057,-15.817207,18.85471,64.15635,16.515047,9.306392,6.5767617
113,10.276870727539062,36.91928482055664,77.32371520996094,0.7246159156562522,-1.4946473576205885,74.00994211136438,1.7586792,15.164153,15.007211,65.82834,-15.635496,-3.6830964,-12.97746,5.5351615,-4.814697,23.105377,-9.338557,-4.635136,-3.9742827,-1.9398948,14.121718,-2.7167616,22.95059,-32.364002,59.81077,5.796269,4.9767246,-7.7965426,-4.685658,-16.013474,19.026747,63.876057,16.590563,9.253301,6.4703956
114,10.55264949798584,37.4959602355957,77.39021301269531,0.7822038444205366,-1.5670381007473868,73.42205144243049,0.4813422,14.772756,14.408333,66.18505,-15.888964,-3.8858993,-12.104201,5.8547335,-4.245817,22.564728,-9.585039,-4.3638597,-3.6584733,-1.9712783,14.133472,-2.632667,22.939575,-31.769691,59.686054,5.6225595,4.9858627,-7.724568,-5.044184,-16.209465,19.165377,63.624596,16.679556,9.198415,6.3487
115,10.830477714538574,38.06432342529297,77.44622802734375,0.8387209569150662,-1.646528117624022,72.80152492688016,-0.7341384,14.502538,14.0192585,66.3652,-16.133446,-3.988385,-11.221598,6.172265,-3.6430664,22.026035,-9.825165,-4.0871215,-3.3216305,-1.9937451,14.151447,-2.547334,22.91203,-31.155746,59.55877,5.4423075,5.0011177,-7.668497,-5.420183,-16.404585,19.294878,63.40272,16.775331,9.151213,6.2341976
116,11.108430862426758,38.630531311035156,77.49459075927734,0.8997331574113904,-1.7322711860300373,72.15514032321485,-1.8972011,14.309564,13.760325,66.38103,-16.373178,-4.000939,-10.342507,6.4768863,-3.0068188,21.518932,-10.075547,-3.8251662,-2.9716387,-2.0140116,14.173146,-2.46825,22.877295,-30.591286,59.427853,5.2726426,5.013979,-7.6220365,-5.8120556,-16.596527,19.434889,63.210186,16.86813,9.119735,6.1499615
117,11.386561393737793,39.20500946044922,77.53974914550781,0.9688431192484943,-1.8283356778466402,71.47452009897572,-2.9877214,14.23161,13.69278,66.22166,-16.621662,-3.892405,-9.461433,6.7679935,-2.3270454,21.043941,-10.338178,-3.5722573,-2.5988572,-2.0374439,14.200081,-2.3901813,22.841085,-30.07595,59.287434,5.107756,5.027312,-7.5932727,-6.218726,-16.783188,19.580873,63.04644,16.945509,9.118413,6.1035852
118,11.660937309265137,39.786617279052734,77.58081817626953,1.0430165436239018,-1.9332018951127965,70.75943304443939,-4.0098658,14.276194,13.828843,65.88278,-16.87305,-3.671232,-8.575854,7.048535,-1.607201,20.591497,-10.606656,-3.320018,-2.2018695,-2.0611522,14.234157,-2.3079708,22.80437,-29.579687,59.132183,4.940744,5.0446477,-7.5833426,-6.6416097,-16.963535,19.723516,62.91211,17.014713,9.138078,6.0827017
119,11.93783950805664,40.36513137817383,77.61942291259766,1.1164525912954173,-2.0376777006826727,70.02911837242311,-5.0061293,14.351863,14.018912,65.38546,-17.102709,-3.406805,-7.7000346,7.315791,-0.86755764,20.1693,-10.881323,-3.0850816,-1.8012598,-2.079583,14.272303,-2.2294354,22.771097,-29.128912,58.96381,4.7847414,5.057829,-7.5747256,-7.0810375,-17.137981,19.87756,62.801907,17.098152,9.157047,6.0780883
120,12.212474822998047,40.94715881347656,77.65213775634766,1.1828370663497734,-2.1330101141639886,69.30290103265379,-6.019713,14.367825,14.112724,64.750565,-17.282469,-3.1663353,-6.84448,7.5680523,-0.12935892,19.77726,-11.158608,-2.8845613,-1.4165337,-2.0871065,14.311528,-2.164823,22.746891,-28.754528,58.785427,4.649222,5.05879,-7.549697,-7.5372643,-17.308691,20.057005,62.71032,17.217999,9.154152,6.0809126
121,12.489194869995117,41.529808044433594,77.68154907226562,1.2385810152033303,-2.219182822676408,68.58134508637472,-7.057995,14.316024,14.0948515,63.972,-17.419346,-2.9451287,-6.0102534,7.808714,0.6057441,19.415058,-11.434633,-2.7228684,-1.0481272,-2.0810447,14.354246,-2.1145606,22.736217,-28.468533,58.589737,4.525496,5.044508,-7.498399,-8.012595,-17.47642,20.268072,62.638863,17.397915,9.115533,6.0964293
122,12.759469032287598,42.115234375,77.7018814086914,1.287252020936747,-2.3003747742413956,67.85578901413417,-8.096501,14.236588,14.038386,63.0392,-17.522686,-2.7158651,-5.1913095,8.038844,1.3473312,19.081171,-11.711193,-2.5912664,-0.6870506,-2.0651338,14.402211,-2.0731263,22.740444,-28.256289,58.374004,4.4079213,5.019732,-7.432654,-8.505064,-17.64059,20.500992,62.586483,17.619587,9.055578,6.1275597
123,13.027792930603027,42.69754409790039,77.71704864501953,1.331973187004678,-2.374601237961104,67.13159743660495,-9.134038,14.113966,13.924094,61.970665,-17.567959,-2.5085,-4.3930387,8.25561,2.090634,18.784378,-11.997949,-2.4868917,-0.33654764,-2.0419471,14.452079,-2.0330656,22.75853,-28.097061,58.140522,4.32461,4.988094,-7.368002,-9.004596,-17.79983,20.74441,62.539646,17.844086,8.995243,6.1619844
124,13.298182487487793,43.28402328491211,77.72029113769531,1.3760648011700576,-2.439754035645731,66.41420404752496,-10.167632,13.934031,13.733266,60.783504,-17.530449,-2.351926,-3.6216936,8.456229,2.8312426,18.534513,-12.305162,-2.4062736,-0.0005452319,-2.0138683,14.499746,-1.9905351,22.788458,-27.973814,57.89624,4.299279,4.9529777,-7.3196077,-9.502883,-17.953032,20.988441,62.487682,18.032715,8.954727,6.1873994
125,13.564713478088379,43.8797607421875,77.71443939208984,1.4202485879751194,-2.491734062313386,65.69972671485877,-11.204078,13.685029,13.452323,59.467926,-17.40419,-2.2507813,-2.8845837,8.640852,3.57514,18.33762,-12.631088,-2.3511517,0.32217237,-1.9810798,14.53826,-1.9438173,22.830402,-27.88948,57.638638,4.3645034,4.911428,-7.2957616,-10.002007,-18.1001,21.23725,62.431156,18.170324,8.942362,6.196301
126,13.833218574523926,44.476844787597656,77.69876861572266,1.4623377681216037,-2.5331007185028884,64.98708159878723,-12.236955,13.376743,13.094908,58.016476,-17.20138,-2.1888695,-2.1792924,8.811916,4.3217363,18.19307,-12.973159,-2.320848,0.63221085,-1.9422166,14.571506,-1.8979001,22.885202,-27.853441,57.36875,4.4955697,4.8628497,-7.2866087,-10.5057745,-18.241056,21.493816,62.375977,18.27845,8.946128,6.1963944
127,14.101338386535645,45.06975555419922,77.6796875,1.4997779879818947,-2.5719900239774756,64.28549771243077,-13.246911,13.0282,12.680831,56.45164,-16.923603,-2.1644068,-1.4845049,8.967679,5.0577583,18.074064,-13.3315,-2.3076258,0.9265861,-1.8967505,14.611845,-1.8512725,22.949343,-27.847471,57.091526,4.6439915,4.8149304,-7.280348,-11.006415,-18.374262,21.746304,62.31667,18.375555,8.956104,6.1977644
128,14.369421005249023,45.66557693481445,77.65400695800781,1.5303724357902724,-2.616470661056791,63.60427045908841,-14.215038,12.658597,12.229983,54.795506,-16.573957,-2.1757367,-0.78732586,9.10833,5.768226,17.97122,-13.709556,-2.3049445,1.2010655,-1.8433416,14.670868,-1.8087866,23.017843,-27.85971,56.81912,4.7538767,4.7746296,-7.264599,-11.497901,-18.497547,21.98391,62.250633,18.479435,8.962234,6.2099476
129,14.637051582336426,46.25629806518555,77.62245178222656,1.5581189364614265,-2.6694478951631977,62.947009707470606,-15.141897,12.262962,11.737798,53.048164,-16.14483,-2.2232103,-0.08516416,9.226287,6.4442115,17.882217,-14.116917,-2.3060646,1.4541315,-1.7841653,14.754846,-1.7798654,23.088463,-27.900953,56.55378,4.812093,4.7468657,-7.231402,-11.985458,-18.609747,22.197666,62.18428,18.59015,8.96364,6.241075
130,14.90464973449707,46.85628890991211,77.5857162475586,1.5826786151534293,-2.7267634557698552,62.30812890530359,-16.030512,11.834465,11.196444,51.194794,-15.636659,-2.3063757,0.61485213,9.325925,7.0947003,17.813162,-14.547981,-2.3169398,1.6913675,-1.7204666,14.847467,-1.7779181,23.146673,-27.981638,56.32263,4.8501444,4.726052,-7.183948,-12.484587,-18.692327,22.394192,62.148026,18.695917,8.961412,6.2797117
131,15.171417236328125,47.46407699584961,77.54434967041016,1.595121272276362,-2.785885189354087,61.68360762714927,-16.872122,11.391975,10.618252,49.24275,-15.061036,-2.4223182,1.3146,9.424414,7.7325644,17.759293,-14.984556,-2.3502817,1.904897,-1.6406254,14.955744,-1.7529814,23.220499,-28.056023,56.069107,4.873799,4.705841,-7.1427417,-12.955845,-18.788713,22.594072,62.070843,18.811333,8.961438,6.3208737
132,15.433362007141113,48.069602966308594,77.49467468261719,1.586733596080785,-2.844740298397252,61.06920696126134,-17.659681,10.955918,10.014074,47.200706,-14.430389,-2.5674264,2.0115387,9.538855,8.370629,17.72576,-15.408402,-2.418125,2.1050403,-1.5413864,15.060494,-1.7114635,23.289217,-28.1072,55.83468,4.90062,4.678087,-7.1138,-13.395427,-18.874695,22.794085,61.971485,18.926128,8.958231,6.346677
133,15.703588485717773,48.68117141723633,77.4390640258789,1.556340661130488,-2.904241427948631,60.4635752028878,-18.402596,10.52699,9.359357,45.07386,-13.74129,-2.719777,2.7025492,9.67378,9.019256,17.720491,-15.813677,-2.5232275,2.2846103,-1.4215424,15.15852,-1.6511976,23.346918,-28.126076,55.627964,4.922843,4.6377606,-7.0960374,-13.808866,-18.946573,23.006535,61.853485,19.042217,8.948697,6.342746
134,15.978585243225098,49.30792999267578,77.37699890136719,1.5079981372614542,-2.965895161573955,59.869069256370516,-19.098389,10.100815,8.653589,42.854485,-12.989298,-2.8858132,3.390672,9.8204365,9.670074,17.738098,-16.209087,-2.6587038,2.4487665,-1.2838635,15.2501335,-1.5945636,23.384579,-28.137653,55.467407,4.9367113,4.589311,-7.081554,-14.206034,-18.99423,23.218885,61.736683,19.154305,8.932382,6.3177967
135,16.259721755981445,49.934059143066406,77.30110931396484,1.439582842439416,-3.028311949707448,59.286149533887084,-19.721087,9.693474,7.942386,40.52505,-12.182266,-3.1039958,4.084052,9.976513,10.309182,17.760878,-16.600103,-2.8216164,2.5914252,-1.1247815,15.340178,-1.5192575,23.41665,-28.127274,55.318584,4.9618964,4.5399833,-7.0785394,-14.584157,-19.0353,23.44359,61.610783,19.274141,8.91665,6.295983
136,16.547521591186523,50.56734085083008,77.21393585205078,1.3488234785521236,-3.0906437189699165,58.71541544362242,-20.244375,9.322397,7.2705073,38.064133,-11.32641,-3.4130077,4.7928605,10.139418,10.923096,17.766369,-16.989742,-3.0094311,2.730803,-0.9441804,15.423459,-1.4500308,23.438414,-28.121077,55.20387,5.0104303,4.4967527,-7.087756,-14.938707,-19.063955,23.656551,61.49196,19.39108,8.904903,6.2986484
137,16.838090896606445,51.208717346191406,77.11763000488281,1.2355162209104866,-3.1549634915643194,58.154074709676145,-20.660898,8.993774,6.610265,35.449295,-10.41044,-3.8363502,5.5132823,10.3082695,11.509433,17.765242,-17.387833,-3.232681,2.8521435,-0.73827726,15.5058,-1.3634316,23.456453,-28.105824,55.098087,5.0921364,4.461697,-7.114403,-15.278581,-19.087852,23.878237,61.377598,19.518679,8.899315,6.3366036
138,17.128625869750977,51.85222625732422,77.01148986816406,1.0983030690070568,-3.2226140547842617,57.6016436254905,-20.97863,8.70824,5.9453034,32.682858,-9.429766,-4.3465185,6.246846,10.486901,12.077625,17.75664,-17.785357,-3.4893775,2.9497561,-0.5065049,15.589235,-1.254589,23.472803,-28.072191,54.997684,5.1956763,4.430939,-7.157084,-15.60524,-19.108791,24.116114,61.262047,19.65668,8.897924,6.396593
139,17.42635726928711,52.500152587890625,76.89482879638672,0.9320958040195401,-3.291852119364646,57.060940726368436,-21.191792,8.478402,5.337199,29.77078,-8.39608,-4.9056835,7.0049024,10.683199,12.631676,17.715832,-18.165098,-3.7587533,3.0668302,-0.24847077,15.66588,-1.1696496,23.479467,-28.055416,54.94257,5.3075995,4.403111,-7.207194,-15.887202,-19.119095,24.318611,61.136936,19.782393,8.899508,6.4669785
140,17.728883743286133,53.1569709777832,76.77461242675781,0.729643742875433,-3.3613317053114633,56.53425920757659,-21.29882,8.319882,4.8476553,26.724808,-7.324358,-5.475894,7.8009534,10.904728,13.176309,17.613499,-18.507448,-4.019728,3.1618133,0.042454917,15.7316475,-1.0564622,23.47947,-27.9857,54.89398,5.428089,4.3757243,-7.265229,-16.155083,-19.126947,24.567953,61.013107,19.929647,8.904445,6.530197
141,18.039684295654297,53.82146072387695,76.64926147460938,0.48306728483473177,-3.4331762726570996,56.024296101382454,-21.299164,8.254311,4.455689,23.522736,-6.203035,-6.016018,8.648834,11.1613865,13.718608,17.423891,-18.802164,-4.266938,3.2495368,0.37303,15.789618,-0.932108,23.467995,-27.869865,54.868412,5.5706515,4.3430796,-7.3412867,-16.3931,-19.12914,24.831985,60.87634,20.096394,8.916143,6.585561
142,18.362022399902344,54.49656295776367,76.51354217529297,0.18767222991989074,-3.512484617329021,55.52324547759687,-21.180548,8.2922125,4.139302,20.1428,-5.020554,-6.5542264,9.550368,11.454668,14.263701,17.15363,-19.052511,-4.5124364,3.3372304,0.7506108,15.842058,-0.80520207,23.44174,-27.726463,54.874653,5.7305923,4.308004,-7.431773,-16.603704,-19.124897,25.105255,60.734966,20.276188,8.933161,6.6398573
143,18.6861629486084,55.18032455444336,76.36137390136719,-0.16169894121555406,-3.603986256950922,55.014923601753615,-20.920294,8.436328,3.9603527,16.59357,-3.7840044,-7.1594524,10.505576,11.786508,14.816759,16.81726,-19.25636,-4.7626433,3.4355876,1.1851025,15.8888855,-0.6739511,23.398834,-27.564075,54.90751,5.881264,4.2808757,-7.513599,-16.794464,-19.116941,25.401527,60.60718,20.445982,8.949339,6.694375
144,19.025243759155273,55.87599182128906,76.1894760131836,-0.5764998370971592,-3.7152036125958223,54.47931804384684,-20.485369,8.691406,3.983697,12.865136,-2.4929607,-7.9048157,11.520796,12.16555,15.388009,16.423677,-19.407309,-5.0255966,3.5638225,1.6910568,15.933244,-0.53225875,23.345675,-27.393923,54.9518,5.995971,4.2734127,-7.5650897,-16.967283,-19.114101,25.728619,60.50453,20.581285,8.958723,6.7522383
145,19.363805770874023,56.58634948730469,75.99949645996094,-1.1001629181000145,-3.857270955897207,53.90390041812141,-19.747364,9.103232,4.2627597,8.662361,-0.9877936,-8.905202,12.642385,12.631003,15.992327,15.903632,-19.471315,-5.3122144,3.7208803,2.3179278,15.976873,-0.3623008,23.275509,-27.194544,54.998245,6.070256,4.2951837,-7.576001,-17.127958,-19.121538,26.121977,60.429386,20.682291,8.95774,6.8166785
146,19.708572387695312,57.31581497192383,75.79122161865234,-1.7270894082068762,-4.034874810523778,53.28713574194333,-19.953724,9.758784,4.5684514,6.60354,-0.6538664,-10.08885,13.870258,13.17665,16.647055,15.266469,-19.451126,-5.617409,3.9613273,3.0499928,16.024862,-0.1967817,23.221968,-27.028572,55.051167,6.0949802,4.3412347,-7.560979,-17.232422,-19.13777,26.501602,60.347736,20.742493,8.9509535,6.891278
147,20.056318283081055,58.050804138183594,75.57606506347656,-2.361711750746988,-4.23044533947655,52.645460334491375,-20.93966,10.535823,4.8749576,6.400956,-1.3489288,-11.250651,15.118011,13.707412,17.3388,14.649759,-19.414465,-5.9196305,4.1566143,3.8100138,16.080572,0.030194007,23.127481,-26.764149,55.093967,6.1288443,4.388945,-7.5363183,-17.36825,-19.166616,26.987694,60.30506,20.809347,8.946052,6.9595246
148,20.41224479675293,58.788944244384766,75.35955047607422,-2.909079520599733,-4.415637399934757,52.005036392182504,-21.842035,11.245303,5.2974033,6.2905717,-2.1521254,-12.18748,16.267756,14.138238,18.026733,14.240044,-19.459923,-6.1971874,4.371697,4.481859,16.13248,0.22021808,23.026932,-26.532925,55.175392,6.1466217,4.4246635,-7.5113535,-17.467995,-19.192566,27.411638,60.266483,20.83678,8.948131,7.0202637
149,20.76787567138672,59.546077728271484,75.136474609375,-3.344815974890856,-4.57819061735915,51.36697367319158,-22.708607,11.85152,5.9366302,6.315336,-3.212052,-12.868331,17.27488,14.45234,18.685633,14.128569,-19.659285,-6.443103,4.650743,5.0217557,16.176428,0.3582023,22.97278,-26.394054,55.27526,6.121759,4.446616,-7.490738,-17.499786,-19.20446,27.70745,60.20871,20.787294,8.957162,7.07765
150,21.128446578979492,60.29890060424805,74.93292999267578,-3.7034574766695116,-4.737488307072951,50.73055425546751,-23.46808,12.417386,6.7900734,6.33394,-4.4045815,-13.389235,18.25421,14.666612,19.332521,14.069721,-19.862555,-6.6699085,4.844595,5.495957,16.225882,0.5589176,22.883791,-26.16215,55.364094,6.1035185,4.457545,-7.469193,-17.58186,-19.216633,28.111061,60.207745,20.739922,8.970325,7.1216645
151,21.498172760009766,61.04853820800781,74.74950408935547,-3.986742635855597,-4.87455761723033,50.126297008887434,-24.096096,12.927479,7.660227,6.3717422,-5.4833846,-13.737637,19.148054,14.798778,19.936699,14.12915,-20.080658,-6.8771515,5.03346,5.8842587,16.265364,0.72698236,22.798653,-25.94844,55.479717,6.077108,4.4657626,-7.445715,-17.626484,-19.21893,28.442987,60.210266,20.669397,8.98599,7.1576457
152,21.87100601196289,61.77993392944336,74.57859802246094,-4.175219184150937,-4.975777217379643,49.583334800034436,-24.514606,13.302825,8.377288,6.3619757,-6.157929,-13.913011,19.895535,14.847328,20.464193,14.394979,-20.339567,-7.061658,5.188531,6.1608176,16.29442,0.8635565,22.722824,-25.731276,55.61032,6.0590887,4.4755,-7.424177,-17.63257,-19.211617,28.693937,60.20746,20.615618,9.001736,7.1783843
153,22.238178253173828,62.50657272338867,74.42092895507812,-4.301342115312983,-5.033967829825257,49.110123189344506,-24.741343,13.5497,8.946169,6.366869,-6.3513527,-13.940493,20.495651,14.854341,20.918156,14.8495865,-20.629257,-7.231265,5.2802505,6.3578,16.318985,0.97839326,22.643074,-25.457365,55.74782,6.061238,4.486635,-7.4061394,-17.629442,-19.19209,28.887596,60.214466,20.597683,9.016101,7.1770325
154,22.607114791870117,63.22938919067383,74.27102661132812,-4.3690827835063875,-5.05531774814138,48.68751243414947,-24.800383,13.668509,9.450992,6.375779,-6.2080126,-13.824236,20.977032,14.818394,21.311922,15.457694,-20.942522,-7.384706,5.305738,6.486195,16.335566,1.0784153,22.538603,-25.120518,55.91011,6.084776,4.4956956,-7.387896,-17.639664,-19.148676,29.056095,60.261383,20.596695,9.029244,7.155747
155,22.979419708251953,63.95549011230469,74.13925170898438,-4.362556006963651,-5.04224354491827,48.2970063265171,-24.718489,13.636095,9.799232,6.374882,-5.8481627,-13.548306,21.35083,14.717836,21.646322,16.214247,-21.266626,-7.5122285,5.384556,6.5214324,16.313694,1.1319706,22.490664,-24.902819,56.084267,6.071252,4.5090632,-7.370777,-17.534718,-19.121048,29.091894,60.252243,20.59076,9.046804,7.1314807
156,23.35594367980957,64.68402099609375,74.01740264892578,-4.271553701767105,-4.998122309602583,47.91879778153667,-24.531904,13.442678,9.892639,6.37056,-5.401659,-13.100139,21.630013,14.536377,21.924944,17.112942,-21.586802,-7.603869,5.3764596,6.466003,16.259,1.2506974,22.408886,-24.604103,56.256695,6.1302586,4.5194774,-7.3584757,-17.447712,-19.059929,29.165432,60.292496,20.574902,9.071316,7.1062675
157,23.744888305664062,65.42024230957031,73.90252685546875,-4.107290917446266,-4.91553581261058,47.5638356923509,-24.204199,13.088971,9.59498,6.3621936,-4.983818,-12.423215,21.833817,14.283628,22.138454,18.112026,-21.900074,-7.6621485,5.3434944,6.3349,16.117393,1.386126,22.31753,-24.372133,56.479767,6.2154703,4.5227647,-7.342119,-17.316095,-18.966833,29.213287,60.386307,20.544502,9.101758,7.0790796
158,24.13852882385254,66.16228485107422,73.80044555664062,-3.850840881099277,-4.792092763188978,47.23742598457223,-23.761414,12.586391,8.989677,6.4133124,-4.533443,-11.538134,21.943468,13.944783,22.283583,19.236467,-22.218958,-7.6855545,5.289591,6.096997,15.899426,1.5026792,22.20935,-24.196688,56.780495,6.3186975,4.5226154,-7.3160157,-17.15587,-18.812029,29.21555,60.551815,20.491352,9.133773,7.039577
159,24.557010650634766,66.9221420288086,73.6939697265625,-3.4382864616703865,-4.626108698309898,46.910340751536935,-23.290642,11.9079685,8.332254,6.521538,-3.8660955,-10.542733,21.895132,13.457113,22.369429,20.64149,-22.615435,-7.6529617,5.2645473,5.6819305,15.65397,1.6075736,22.136007,-24.06827,57.073666,6.4104605,4.5308666,-7.2944036,-16.93968,-18.658567,29.159937,60.69215,20.445528,9.165505,7.004221
160,24.97011947631836,67.6810531616211,73.63756561279297,-2.860643723218719,-4.4502526157887,46.54138326152463,-22.81686,11.084631,7.873128,6.602974,-2.7482738,-9.555062,21.754765,12.791244,22.456978,22.212095,-22.97667,-7.555939,5.283609,5.0883474,15.432287,1.7087828,22.08739,-23.949156,57.335262,6.4718437,4.5584435,-7.280147,-16.714138,-18.514782,29.094322,60.824852,20.434122,9.1884365,6.98217
161,25.387304306030273,68.43851470947266,73.61148834228516,-2.04760908173756,-4.258907333892449,46.10196004850492,-22.343876,10.039525,7.6469274,6.640305,-0.90250677,-8.502512,21.526533,11.8537655,22.559374,23.940643,-23.345545,-7.3889027,5.356461,4.2432947,15.242219,1.8046322,22.045582,-23.81895,57.569263,6.5214334,4.618519,-7.261687,-16.535906,-18.34864,29.056648,61.00758,20.480825,9.192282,6.9814115
162,25.806034088134766,69.20567321777344,73.6150894165039,-1.0449115376506923,-4.052121164169666,45.60768676361919,-21.827467,8.81596,7.5577073,6.642854,1.4929904,-7.3514175,21.253834,10.693848,22.682917,25.767126,-23.693277,-7.1535354,5.4783635,3.198928,15.081156,1.9030123,22.015564,-23.691921,57.772038,6.565783,4.701887,-7.2442408,-16.353891,-18.191721,29.023159,61.187817,20.573332,9.188711,6.9989777
163,26.237293243408203,69.98723602294922,73.61925506591797,-0.005259744663362625,-3.8560265509580227,45.09321175671689,-22.350164,7.732742,7.4964294,8.934853,2.7331984,-6.263504,21.001413,9.494187,22.851786,27.60288,-23.86677,-6.847911,5.62322,2.111015,14.94042,2.0011725,21.996738,-23.584454,57.981014,6.5701666,4.785147,-7.241884,-16.141613,-18.03684,28.963463,61.374744,20.663996,9.185194,7.012493
164,26.68284797668457,70.7885971069336,73.62521362304688,0.9154135644676493,-3.694133725876844,44.59822626873775,-22.769522,6.823687,7.650729,11.12929,3.601764,-5.404661,20.801018,8.450641,23.07438,29.398205,-23.73112,-6.475253,5.7590322,1.1370671,14.8017435,2.0992055,21.992548,-23.512093,58.228622,6.49949,4.8446684,-7.2693443,-15.868334,-17.872065,28.84291,61.572178,20.702244,9.188818,6.999033
165,27.14008140563965,71.60901641845703,73.63601684570312,1.6929045942037129,-3.5617973014046678,44.12776894826937,-23.14774,6.134573,8.034766,13.359399,3.9630024,-4.8880224,20.640123,7.60676,23.377481,31.187582,-23.315287,-6.130241,5.8832536,0.29400954,14.631999,2.2068388,22.011658,-23.487423,58.526554,6.288,4.8667035,-7.334651,-15.521454,-17.686934,28.669987,61.792492,20.691093,9.19735,6.9473724
166,27.61097526550293,72.42237854003906,73.64732360839844,2.405394361830933,-3.4433736089352274,43.67237571908251,-23.502905,5.5923753,8.599491,15.65684,4.035717,-4.579572,20.480036,6.8672123,23.735725,33.01158,-22.68458,-5.7804523,5.999998,-0.5002545,14.440455,2.3234043,22.056252,-23.498072,58.85364,5.9721627,4.8665786,-7.429004,-15.125759,-17.477892,28.457329,62.03876,20.650198,9.206845,6.870303
167,28.094234466552734,73.22394561767578,73.663330078125,3.045041005287301,-3.3502192405546083,43.24957908972637,-23.790043,5.18084,9.213251,17.920557,3.845377,-4.3041706,20.301058,6.2326393,24.081427,34.85991,-21.773916,-5.2412353,6.0872283,-1.22889,14.268184,2.4303124,22.117424,-23.522896,59.19625,5.669602,4.8646646,-7.539725,-14.708596,-17.246147,28.179232,62.30396,20.55618,9.221233,6.7808347
168,28.573440551757812,73.99607849121094,73.68757629394531,3.596314393205599,-3.298792932961181,42.87380869219392,-23.946041,4.856378,9.750977,19.98961,3.4471607,-3.9199765,20.091566,5.7214384,24.358124,36.729065,-20.526936,-4.327245,6.1280384,-1.8624514,14.158164,2.5033906,22.179203,-23.54496,59.54905,5.496553,4.880529,-7.6525946,-14.2936735,-16.998402,27.807047,62.579803,20.382095,9.244903,6.6926017
169,29.05185317993164,74.75835418701172,73.71928405761719,4.028577646325905,-3.312777638229833,42.56789520773652,-23.974411,4.59531,10.165629,21.866896,2.790749,-3.3906174,19.850513,5.4195957,24.572138,38.712925,-18.88049,-3.0419438,6.109182,-2.3612404,14.128715,2.5404787,22.222664,-23.550367,59.93329,5.500468,4.9150085,-7.760228,-13.860062,-16.73563,27.2865,62.858383,20.074554,9.283841,6.5997524
170,29.519811630249023,75.50022888183594,73.76985931396484,4.35467595454606,-3.3809154391531138,42.32135023312887,-23.904896,4.3797917,10.519513,23.599382,1.8899342,-2.8269773,19.576935,5.3326316,24.766903,40.831123,-16.922108,-1.4534225,6.041398,-2.7391431,14.151045,2.5346258,22.24449,-23.562485,60.368008,5.6101704,4.9575973,-7.86768,-13.405311,-16.458426,26.646795,63.14602,19.662863,9.335523,6.4974666
171,29.972684860229492,76.23631286621094,73.83980560302734,4.623090866406899,-3.467018822741308,42.0969404399536,-23.710814,4.1677947,10.856744,25.08085,0.89644873,-2.3123946,19.25276,5.365806,24.95178,42.997726,-14.821462,0.5207715,5.9490623,-3.0477676,14.200734,2.4800677,22.25406,-23.592861,60.817818,5.792824,5.0118732,-7.98205,-12.975722,-16.177202,25.98231,63.45192,19.247944,9.388517,6.4024835
172,30.420631408691406,76.9726333618164,73.92489624023438,4.885297659185443,-3.5329781179885953,41.858163376767266,-23.368822,3.9372456,11.221324,26.221548,-0.056210954,-1.9214582,18.851278,5.413952,25.136856,45.144306,-12.748246,2.947877,5.8533506,-3.3433087,14.255813,2.373378,22.268606,-23.653439,61.239574,6.00934,5.081789,-8.112228,-12.607384,-15.907424,25.388885,63.76828,18.931156,9.435973,6.3303714
173,30.862083435058594,77.69805145263672,74.02509307861328,5.149780148103259,-3.5778969022464393,41.590487381231775,-22.84343,3.6946292,11.634868,26.97912,-0.9934897,-1.6907697,18.391203,5.5036173,25.419394,47.29975,-10.559784,6.147789,5.76172,-3.632626,14.3272,2.2193642,22.296633,-23.737741,61.609695,6.2957263,5.185237,-8.286064,-12.295323,-15.661358,24.862364,64.07564,18.730198,9.482139,6.2828264
174,31.297943115234375,78.40695190429688,74.1393814086914,5.387953199582194,-3.6199080251454614,41.32017372987931,-22.164543,3.4523728,12.062647,27.42868,-1.9797093,-1.575154,17.871555,5.7341886,25.802376,49.57493,-8.288015,9.994654,5.6584344,-3.8868136,14.427119,2.0304232,22.33688,-23.834114,61.933666,6.6633315,5.3148527,-8.494563,-12.013471,-15.441711,24.359365,64.36456,18.596823,9.529947,6.2542415
175,31.728607177734375,79.0996322631836,74.268310546875,5.601093461069053,-3.6464138150406264,41.0690172631771,-21.4019,3.203443,12.469638,27.649254,-2.9321334,-1.5235084,17.224586,6.038682,26.10641,51.968674,-6.290296,13.849401,5.529755,-4.1156173,14.533549,1.795672,22.39633,-23.969294,62.231407,7.007733,5.434226,-8.689366,-11.766437,-15.247678,23.92064,64.64365,18.53397,9.57033,6.248795
176,32.18068313598633,79.7635269165039,74.40269470214844,5.74380225375508,-3.659924584464943,40.86819689960053,-20.652674,3.007575,12.771691,27.810356,-3.8140888,-1.5111228,16.298256,6.160347,25.506668,54.38423,-4.7745037,15.000033,5.355927,-4.301664,14.628467,1.5136476,22.485987,-24.162926,62.510395,7.229024,5.5116243,-8.822873,-11.562826,-15.07506,23.590513,64.927124,18.546272,9.593136,6.2704988
177,32.646724700927734,80.3873519897461,74.54292297363281,5.611075999634033,-3.7040389049888067,40.776614919814904,-20.054342,3.0766876,12.788966,28.23378,-4.7607713,-1.5714899,15.145889,6.182539,24.079239,56.622383,-3.549584,15.000033,5.071622,-4.236144,14.742032,1.166967,22.619274,-24.441824,62.778965,7.2760677,5.53195,-8.878929,-11.420432,-14.919465,23.400091,65.239235,18.692995,9.583499,6.339215
178,33.103797912597656,80.99794006347656,74.68678283691406,5.534371917271232,-3.6752582739149697,40.68542813913288,-19.407457,3.0619173,12.862273,28.352995,-5.5552425,-1.6429882,13.701226,5.9066467,22.421131,58.94108,-2.6497612,15.000033,4.786173,-4.2429123,14.818491,0.77115417,22.796923,-24.78431,63.01612,7.2118974,5.516128,-8.886502,-11.329733,-14.779176,23.318777,65.566154,18.952366,9.550547,6.446777
179,33.551025390625,81.60523986816406,74.8465576171875,5.5270329406186764,-3.5901768092522564,40.56642233823766,-18.686823,2.9566474,13.017068,28.180227,-6.198601,-1.7033482,12.029437,5.392368,20.77353,61.27734,-2.1667593,15.000033,4.521641,-4.3211226,14.862467,0.36697522,23.009623,-25.145718,63.198753,7.094567,5.4845133,-8.864059,-11.263429,-14.653001,23.30296,65.871445,19.20609,9.519533,6.554349
180,33.98123550415039,82.21869659423828,75.02129364013672,5.6040013574390155,-3.473626763831122,40.400534207080625,-17.859518,2.7453692,13.268754,27.724382,-6.690242,-1.7296512,10.214287,4.72835,19.375278,63.547844,-2.220694,15.000033,4.290863,-4.4686685,14.884597,-0.0039886283,23.242056,-25.475664,63.306644,6.98863,5.45752,-8.828824,-11.193408,-14.54028,23.309158,66.11902,19.335703,9.515625,6.623023
181,34.393898010253906,82.83905029296875,75.20781707763672,5.827298302716883,-3.319876226151117,40.18115797751387,-16.87782,2.3383985,13.647961,26.870916,-6.970941,-1.6939975,8.2479925,3.908678,18.3803,65.783295,-3.1405993,15.000033,4.094162,-4.7386565,14.87827,-0.3380583,23.487429,-25.781412,63.341236,6.90247,5.4349966,-8.771307,-11.121904,-14.441622,23.353905,66.30678,19.30553,9.554797,6.63667
182,34.78555679321289,83.4651870727539,75.40428924560547,6.1807763159606655,-3.133690809600888,39.938390314121676,-15.744504,1.730192,14.111924,25.605488,-7.03787,-1.6100296,6.1514807,2.923921,17.682201,67.96626,-4.8025336,15.000033,3.905008,-5.1214786,14.847432,-0.6619974,23.746332,-26.086939,63.32283,6.8026075,5.4074135,-8.685228,-11.062639,-14.358097,23.454363,66.45728,19.181423,9.620473,6.6171722
183,35.17193603515625,84.09098052978516,75.60223388671875,6.555223764017601,-2.956143117267112,39.70534580511514,-14.515318,1.0474032,14.565311,24.120039,-6.982257,-1.5190946,4.0377603,1.8702046,17.09528,69.9434,-6.636359,15.000033,3.6996746,-5.5130405,14.819619,-0.97048223,24.012045,-26.35207,63.252792,6.7073026,5.381341,-8.592236,-11.001712,-14.289447,23.564621,66.56778,18.994963,9.688378,6.583798
184,35.57907485961914,84.71080017089844,75.80513000488281,6.687438751088974,-2.851393147224365,39.517349073774895,-13.365146,0.63951755,14.8411875,22.93211,-7.062573,-1.501174,2.0446718,0.98125863,16.320202,71.49566,-7.9971848,15.000033,3.4485407,-5.6534424,14.837971,-1.2712991,24.275711,-26.549139,63.145233,6.620931,5.362873,-8.51208,-10.928499,-14.23555,23.640923,66.63791,18.778212,9.73366,6.5545735
185,36.00522232055664,85.31735229492188,76.01264190673828,6.575736561531975,-2.822737989465445,39.36459516114049,-12.284735,0.53481555,14.962894,22.054207,-7.2875624,-1.5707749,0.11152248,0.006637803,14.861462,72.60924,-8.703254,13.593663,3.1620154,-5.5532045,14.906189,-1.5666585,24.528353,-26.655403,63.010254,6.5571237,5.3556633,-8.455123,-10.842102,-14.199169,23.682863,66.66469,18.485792,9.748975,6.5283594
186,36.42922592163086,85.91603088378906,76.2125473022461,6.394302627921257,-2.8290568217692864,39.22673628994127,-11.166919,0.49950808,15.044876,21.163002,-7.49565,-1.6677841,-1.7696345,-1.0379772,13.206924,73.42234,-9.157503,11.802489,2.856953,-5.3731136,14.99813,-1.8598578,24.768475,-26.69388,62.850098,6.5088515,5.355555,-8.407083,-10.7467785,-14.182022,23.710743,66.6502,18.119045,9.748115,6.497114
187,36.858253479003906,86.51402282714844,76.40209197998047,6.189962767943333,-2.8525236035903525,39.10552407818255,-10.024145,0.4804482,15.106911,20.238983,-7.675607,-1.7783746,-3.5567036,-2.0339024,11.592907,73.97071,-9.549469,10.096456,2.5375495,-5.1622763,15.10018,-2.1502237,24.999989,-26.692564,62.65761,6.465184,5.356718,-8.351978,-10.63774,-14.180597,23.70835,66.59966,17.780083,9.737517,6.4684496
188,37.292972564697266,87.09940338134766,76.58673095703125,6.002901522093185,-2.8752034650182647,39.0025870230568,-8.872117,0.43557146,15.162618,19.27251,-7.821006,-1.8930836,-5.236062,-2.904685,10.136047,74.28311,-10.047493,8.545696,2.2083764,-4.9694357,15.197199,-2.443145,25.231754,-26.690807,62.42871,6.4033527,5.353664,-8.273857,-10.5131645,-14.189689,23.657999,66.52254,17.568792,9.723068,6.4498143
189,37.732330322265625,87.67961883544922,76.76191711425781,5.837668079646724,-2.9011011916826543,38.922140620045596,-7.6971993,0.35592663,15.209578,18.240355,-7.9184494,-2.0064886,-6.8119297,-3.6148472,8.859635,74.347534,-10.686634,7.129917,1.8661745,-4.802555,15.2931185,-2.730189,25.468542,-26.683187,62.15175,6.327385,5.3507423,-8.154916,-10.369398,-14.204003,23.54544,66.41471,17.53173,9.703921,6.4426827
190,38.175994873046875,88.2607421875,76.92678833007812,5.673102781474865,-2.9360100600583703,38.861440741870624,-6.4982224,0.26688966,15.241452,17.160448,-7.9793468,-2.1205525,-8.3008995,-4.1890845,7.6926794,74.15106,-11.358963,5.836603,1.5116132,-4.638623,15.392835,-3.009974,25.711723,-26.65693,61.827232,6.2425423,5.350824,-8.009006,-10.21025,-14.221959,23.380915,66.27624,17.607374,9.676689,6.443018
191,38.62763214111328,88.83030700683594,77.075439453125,5.509192993035794,-2.965354470015444,38.8117988644626,-5.3110538,0.17927666,15.265216,16.08395,-8.033138,-2.2392275,-9.716275,-4.644476,6.6193237,73.722404,-12.009973,4.7509985,1.1571232,-4.478843,15.482808,-3.2891078,25.964237,-26.625397,61.46552,6.1435924,5.34016,-7.8690176,-10.043297,-14.244935,23.184204,66.12005,17.736635,9.644531,6.450058
192,39.08534240722656,89.39702606201172,77.21163940429688,5.3458635144864655,-2.974268025431524,38.76473880741733,-4.1728396,0.1034297,15.288536,15.061723,-8.109167,-2.3702848,-11.069989,-5.000181,5.6223464,73.08884,-12.5845175,3.9545543,0.81702685,-4.3226624,15.550784,-3.573579,26.228851,-26.60164,61.073494,6.027283,5.306099,-7.767895,-9.87106,-14.273968,22.97221,65.951645,17.859798,9.610589,6.4640093
193,39.54639434814453,89.960693359375,77.32962799072266,5.179034039186033,-2.957693556049232,38.72105898932499,-3.0929797,0.045985036,15.309542,14.099737,-8.20833,-2.527649,-12.359757,-5.2390566,4.708915,72.21809,-13.07832,3.5527654,0.49166116,-4.166616,15.589599,-3.8605833,26.507551,-26.583153,60.645027,5.886736,5.240844,-7.720187,-9.690767,-14.311222,22.738447,65.76921,17.973293,9.572623,6.4949417
194,40.01209259033203,90.52088165283203,77.42975616455078,5.009409970036489,-2.923399493052158,38.684515687422675,-2.0523136,0.0013834166,15.326001,13.172595,-8.316665,-2.7065303,-13.589241,-5.3643165,3.8762393,71.10174,-13.501267,3.4655304,0.17502457,-4.0103507,15.608072,-4.148406,26.800932,-26.56667,60.17606,5.7234664,5.152743,-7.7072945,-9.499024,-14.356052,22.477486,65.56545,18.105726,9.530316,6.540252
195,40.483848571777344,91.07988739013672,77.51241302490234,4.844509432567993,-2.8761391898228177,38.6510669451071,-1.0434997,-0.03881248,15.345298,12.278852,-8.438446,-2.8887675,-14.775235,-5.426223,3.095387,69.8041,-13.825036,3.5010278,-0.12999068,-3.8604095,15.614742,-4.4390554,27.108814,-26.557724,59.675434,5.5520663,5.0539823,-7.712032,-9.303629,-14.407812,22.207571,65.35001,18.241993,9.489615,6.579683
196,40.952720642089844,91.62601470947266,77.57941436767578,4.6913523894459095,-2.820605203964522,38.6161291293197,-0.05617979,-0.083302155,15.374161,11.410742,-8.576622,-3.0558314,-15.932226,-5.471549,2.3391852,68.39138,-14.025522,3.469386,-0.42043537,-3.7223606,15.618516,-4.7345204,27.43003,-26.561443,59.15229,5.387467,4.956053,-7.7170377,-9.112395,-14.464459,21.9473,65.131775,18.367615,9.456123,6.5930905
197,41.427284240722656,92.1679916381836,77.63166046142578,4.552452309799614,-2.7525165039313015,38.57528317660445,0.90255076,-0.13304299,15.421687,10.57227,-8.730332,-3.2036479,-17.075253,-5.482077,1.6360675,66.868324,-14.068033,3.3319767,-0.693005,-3.5975766,15.615544,-5.043487,27.767035,-26.590403,58.606003,5.230611,4.8573303,-7.7228107,-8.932248,-14.527458,21.703611,64.91229,18.478355,9.439367,6.571498
198,41.906246185302734,92.70842742919922,77.66706085205078,4.4237027444649115,-2.670809110402719,38.53196331622352,1.8330818,-0.18477446,15.482189,9.757688,-8.895139,-3.3435278,-18.19443,-5.447598,0.99017096,65.20254,-13.975432,3.1811566,-0.9500718,-3.4824827,15.602651,-5.3589334,28.11994,-26.635265,58.02908,5.077572,4.7533097,-7.737308,-8.756741,-14.596927,21.465305,64.68636,18.581896,9.433581,6.527136
199,42.39256286621094,93.2490234375,77.68986511230469,4.303881114852927,-2.5847523792786684,38.49443464074594,2.7394156,-0.23811479,15.539532,8.983062,-9.08063,-3.478919,-19.264015,-5.4237022,0.34001362,63.407593,-13.814587,3.0304763,-1.1998798,-3.3785326,15.587418,-5.670861,28.483639,-26.680662,57.43367,4.922112,4.651266,-7.7527013,-8.58128,-14.669299,21.229376,64.46303,18.6818,9.42059,6.4695983
200,42.88597869873047,93.78780364990234,77.69877624511719,4.191790604162603,-2.5035910694514296,38.470791654133556,3.6330585,-0.29412913,15.577994,8.24871,-9.288279,-3.613607,-20.2549,-5.4604163,-0.37969512,61.494205,-13.649707,2.895939,-1.451881,-3.28663,15.576254,-5.972865,28.850363,-26.712671,56.83829,4.7571034,4.558266,-7.760617,-8.403044,-14.738593,20.993923,64.25365,18.781471,9.383209,6.407419
201,43.38932418823242,94.31690216064453,77.69454956054688,4.08649862706974,-2.429929291147658,38.46233474198657,4.5167503,-0.35271582,15.5921545,7.5533233,-9.519575,-3.755047,-21.155024,-5.5720987,-1.2004514,59.44807,-13.507461,2.7961414,-1.7111365,-3.2060235,15.568319,-6.2675056,29.216703,-26.735252,56.247215,4.5696287,4.47815,-7.7627783,-8.229385,-14.801248,20.760796,64.073074,18.894669,9.299826,6.336873
202,43.90332794189453,94.84044647216797,77.67847442626953,3.988965326465829,-2.358480358435664,38.46542632184742,5.2707157,-0.37953117,15.5912485,7.1467586,-9.904717,-3.902037,-21.976671,-5.723738,-2.0867763,57.264885,-13.348844,2.72283,-1.9730315,-3.1364965,15.558256,-6.5606,29.582565,-26.75455,55.65927,4.367494,4.406096,-7.7610316,-8.061262,-14.857013,20.530245,63.91538,19.013124,9.186117,6.2538095
203,44.41264343261719,95.35530090332031,77.65065002441406,3.9014894810938396,-2.286974636323249,38.48045580635574,5.8509803,-0.36240652,15.581587,7.1237164,-10.489177,-4.043571,-22.727137,-5.8896465,-3.0029533,54.96906,-13.140165,2.653505,-2.2317915,-3.0802605,15.546218,-6.85263,29.944162,-26.760408,55.085682,4.1740327,4.3364553,-7.7468376,-7.8949795,-14.905267,20.302305,63.77842,19.112423,9.0718355,6.169152
204,44.9356689453125,95.86760711669922,77.60869598388672,3.8263877946184413,-2.213377361015828,38.5073767249241,6.4276314,-0.35177815,15.568778,7.1059194,-11.0680485,-4.1663256,-23.41618,-6.048183,-3.9108567,52.585804,-12.850853,2.562675,-2.4822876,-3.0393298,15.531842,-7.144209,30.295658,-26.741693,54.539623,4.0132627,4.2633357,-7.711238,-7.7259407,-14.945155,20.075142,63.65996,19.165216,8.986692,6.093859
205,45.46635437011719,96.37714385986328,77.55595397949219,3.7682811068166684,-2.1364545998683178,38.55042012286917,6.9977555,-0.35150424,15.552436,7.0947285,-11.637738,-4.2580667,-24.047415,-6.2116084,-4.8181167,50.115227,-12.487783,2.4251242,-2.7240734,-3.0180447,15.511967,-7.4436507,30.634514,-26.700306,54.030926,3.8891428,4.1796465,-7.6430054,-7.554073,-14.97802,19.855814,63.560284,19.155102,8.940013,6.024327
206,46.00221633911133,96.89179992675781,77.4905776977539,3.725477002390022,-2.057895230309393,38.60763866879482,7.5642753,-0.36063012,15.530179,7.088315,-12.201245,-4.329093,-24.61433,-6.3840113,-5.7388053,47.5435,-12.063194,2.2608714,-2.9592683,-3.0136034,15.487331,-7.750754,30.960026,-26.640947,53.55495,3.7907352,4.0900884,-7.549217,-7.3805857,-15.003763,19.642414,63.479965,19.099695,8.915585,5.956803
207,46.5445671081543,97.39012908935547,77.41670227050781,3.6920857833219425,-1.9796174306411536,38.6707834951094,8.131187,-0.3721066,15.5051775,7.086082,-12.764483,-4.4018264,-25.116789,-6.535486,-6.642291,44.87917,-11.546555,2.1077037,-3.1867654,-3.0189607,15.46211,-8.053731,31.268518,-26.557178,53.106247,3.7206557,4.006031,-7.447671,-7.2092533,-15.021282,19.422031,63.42585,19.02369,8.903965,5.9008527
208,47.092193603515625,97.88384246826172,77.32989501953125,3.66167052689257,-1.903756288525507,38.73187743690261,8.704412,-0.37951732,15.479986,7.0838695,-13.331467,-4.4983244,-25.553278,-6.6374416,-7.49723,42.124947,-10.904303,2.0017173,-3.4068816,-3.0263155,15.440605,-8.347708,31.555107,-26.447573,52.686165,3.6765637,3.9391253,-7.3558297,-7.0418844,-15.027906,19.182016,63.39941,18.951855,8.898159,5.8649817
209,47.64749526977539,98.37631225585938,77.2369155883789,3.6332935606824783,-1.8308794340486212,38.79202270444792,9.28189,-0.38024667,15.454453,7.0835304,-13.900927,-4.628638,-25.91884,-6.6760116,-8.276595,39.246704,-10.087335,1.9653027,-3.6205246,-3.0342202,15.426898,-8.635689,31.814812,-26.300272,52.299473,3.6750355,3.8947682,-7.273632,-6.8842754,-15.020263,18.90748,63.41225,18.88418,8.897274,5.857001
210,48.20875549316406,98.86186981201172,77.13340759277344,3.6122968287377724,-1.760725173787807,38.85609443130441,9.863064,-0.37994215,15.4265585,7.085553,-14.470969,-4.7797704,-26.211607,-6.6738534,-9.000535,36.241257,-9.120094,1.9709464,-3.8265522,-3.0486486,15.41604,-8.908849,32.045067,-26.108688,51.939686,3.7264,3.8661366,-7.1926966,-6.7325587,-14.997458,18.606928,63.460686,18.809109,8.905246,5.869649
211,48.78110122680664,99.3443603515625,77.01766204833984,3.601120705013404,-1.694622588124931,38.92227234039694,10.452772,-0.38401836,15.395801,7.0880713,-15.04665,-4.938868,-26.435652,-6.655054,-9.70972,33.15478,-8.07754,1.9812148,-4.027242,-3.072243,15.400354,-9.182948,32.249454,-25.913126,51.62343,3.782845,3.8453288,-7.1172137,-6.5852013,-14.963885,18.308592,63.540672,18.735407,8.9150715,5.891055
212,49.36362075805664,99.82445526123047,76.89120483398438,3.6024853360111333,-1.6339346466756155,38.98940329541136,11.057472,-0.3980453,15.360297,7.088013,-15.632848,-5.0932946,-26.592688,-6.6391606,-10.44847,30.03123,-7.0338244,1.9617733,-4.221028,-3.10852,15.372375,-9.450206,32.431698,-25.734879,51.345394,3.81687,3.8249693,-7.0523252,-6.4312963,-14.926265,18.035501,63.63443,18.671257,8.924587,5.9089513
213,49.9512939453125,100.30455780029297,76.75105285644531,3.6194007507524533,-1.5798179828091237,39.05396850933127,11.678859,-0.42477956,15.321789,7.085361,-16.237709,-5.242202,-26.675634,-6.6240935,-11.23836,26.844112,-5.9593883,1.9002857,-4.4039702,-3.161835,15.332517,-9.713232,32.59361,-25.574848,51.10917,3.8200376,3.8043954,-6.9988427,-6.2676597,-14.887573,17.788937,63.74213,18.621632,8.932226,5.9263144
214,50.55189895629883,100.78555297851562,76.59577941894531,3.65623657337336,-1.5349546060397357,39.12322422596921,12.316067,-0.46686095,15.27395,7.0826654,-16.853586,-5.3913355,-26.677282,-6.6021185,-12.055865,23.566492,-4.822227,1.8204877,-4.5794935,-3.2367606,15.28629,-9.942929,32.732117,-25.396671,50.88733,3.8341584,3.7875967,-6.955704,-6.0932865,-14.846996,17.553936,63.86402,18.581457,8.941015,5.9488378
215,51.160709381103516,101.2654037475586,76.42523956298828,3.714995102018009,-1.5041076964997986,39.21504034769951,12.972684,-0.5276723,15.200809,7.0793056,-17.471338,-5.5378265,-26.595665,-6.580064,-12.881969,20.231215,-3.693121,1.7440233,-4.771447,-3.3285196,15.236869,-10.178567,32.84386,-25.243628,50.71005,3.8293333,3.7723162,-6.9220643,-5.911832,-14.810881,17.342022,63.992645,18.546677,8.952022,5.967148
216,51.77888870239258,101.74683380126953,76.23440551757812,3.799278228092719,-1.4931228833545862,39.3481402704342,13.652361,-0.61185586,15.084573,7.075314,-18.080055,-5.6774664,-26.4359,-6.5711555,-13.695457,16.888369,-2.6441154,1.6918771,-4.9980707,-3.4300025,15.179253,-10.4157505,32.901546,-25.118586,50.58284,3.8273876,3.756015,-6.894767,-5.7174063,-14.791923,17.166073,64.12054,18.520353,8.966855,5.972155
217,52.40254211425781,102.2330551147461,76.02949523925781,3.9214762683963174,-1.5073281804360499,39.53049446751048,14.359256,-0.73403287,14.914737,7.0730176,-18.685722,-5.802629,-26.185526,-6.584006,-14.519634,13.504264,-1.6986997,1.6727608,-5.255934,-3.57727,15.142233,-10.616364,32.988728,-25.00832,50.41668,3.80089,3.7451713,-6.896511,-5.503923,-14.7696495,16.993162,64.21846,18.47785,8.986497,5.965782
218,53.04204177856445,102.72468566894531,75.80691528320312,4.08676468872391,-1.5505981375453426,39.76431699652262,15.097482,-0.8979523,14.685625,7.06998,-19.29018,-5.914338,-25.81567,-6.619138,-15.363224,10.009516,-0.78451306,1.6784298,-5.5688643,-3.7568493,15.08915,-10.816573,33.02024,-24.922617,50.318542,3.765233,3.73436,-6.9058127,-5.2809954,-14.76251,16.888065,64.33065,18.464558,9.00882,5.941227
219,53.688514709472656,103.21875,75.57168579101562,4.281547309086149,-1.6201476830706782,40.04851466811214,15.860028,-1.0814795,14.399811,7.0705533,-19.881422,-6.0237975,-25.508528,-6.721172,-16.156189,6.8291717,-0.057406664,1.7023414,-5.9124036,-3.9718926,15.070887,-10.973872,33.075172,-24.839619,50.16622,3.734197,3.7256796,-6.9315104,-5.0431366,-14.756686,16.75106,64.41162,18.418213,9.03649,5.9237676
220,54.34278869628906,103.71377563476562,75.3334732055664,4.478581141828972,-1.704919164138014,40.369442499059424,16.635174,-1.2487433,14.075813,7.075935,-20.447113,-6.14475,-26.499641,-7.243366,-16.690966,6.691844,-0.8869464,1.7458731,-6.299259,-4.188286,15.049348,-11.1118355,33.115604,-24.79282,50.033134,3.7047691,3.7126064,-6.944215,-4.814013,-14.7559805,16.65036,64.50673,18.38459,9.065903,5.909883
221,55.0032958984375,104.20614624023438,75.09398651123047,4.655228583880521,-1.793382132902599,40.71192988023087,17.413326,-1.374278,13.736943,7.0866694,-21.001953,-6.279216,-27.448477,-7.7427626,-17.063705,6.572634,-1.6694069,1.7742068,-6.7004046,-4.3849683,15.036886,-11.223271,33.161907,-24.778315,49.879215,3.68756,3.6958966,-6.9460373,-4.5907965,-14.760806,16.552658,64.599525,18.333498,9.102274,5.9133387
222,55.67310333251953,104.6966323852539,74.85228729248047,4.811251271075534,-1.8809242871766712,41.065548633857226,18.19214,-1.4594097,13.39253,7.10256,-21.547928,-6.424501,-28.355154,-8.202294,-17.317238,6.4549356,-2.4292839,1.7945696,-7.110611,-4.558663,15.021105,-11.305599,33.200256,-24.786772,49.717575,3.680069,3.6772013,-6.9403358,-4.3734145,-14.770357,16.476639,64.69629,18.278023,9.14353,5.9239326
223,56.354671478271484,105.1850814819336,74.60928344726562,4.92614921817152,-1.9502859428711738,41.39544275441005,18.963175,-1.4756236,13.077659,7.1256094,-22.06003,-6.599642,-29.212683,-8.596173,-17.55322,6.421888,-3.2042103,1.8327862,-7.4908867,-4.684204,14.999484,-11.368799,33.237755,-24.823954,49.552753,3.6624975,3.6553411,-6.930966,-4.153209,-14.787973,16.394142,64.7808,18.224464,9.182089,5.934788
224,57.046348571777344,105.67078399658203,74.37054443359375,5.037210842769852,-2.0203463634283025,41.721528774676,19.740011,-1.4675708,12.758842,7.1505804,-22.499617,-6.7994,-29.92984,-8.991168,-17.882086,6.450157,-3.9711597,1.9359522,-7.880643,-4.8013353,14.964342,-11.386376,33.252914,-24.854048,49.402763,3.6514812,3.6281648,-6.920342,-3.947742,-14.800282,16.322279,64.88681,18.19596,9.207298,5.928314
225,57.74590301513672,106.1573486328125,74.12813568115234,5.177483493258192,-2.116588033166025,42.077471847826764,20.541746,-1.4767447,12.405786,7.1744313,-22.86597,-7.010237,-30.450064,-9.4558735,-18.38616,6.4757648,-4.773703,2.1796322,-8.260212,-4.9459095,14.956373,-11.402184,33.269775,-24.935837,49.247364,3.6248841,3.5961478,-6.9183407,-3.6887476,-14.82568,16.191889,64.92978,18.183514,9.222162,5.913794
226,58.44941711425781,106.64298248291016,73.882568359375,5.336087255099161,-2.2298452201472183,42.45661176174828,21.35926,-1.4915621,12.027178,7.19906,-23.171486,-7.231248,-30.808973,-9.958387,-18.993513,6.490512,-5.580006,2.5271518,-8.663682,-5.1083884,14.950023,-11.384138,33.27685,-25.03171,49.096153,3.59699,3.5577462,-6.918321,-3.4354842,-14.852498,16.065544,64.9816,18.19512,9.225456,5.8882117
227,59.15465545654297,107.1293716430664,73.64389038085938,5.4913906382385225,-2.3360294575932135,42.81958575288753,22.176134,-1.485914,11.643719,7.221696,-23.402304,-7.475455,-31.012571,-10.417441,-19.58255,6.4903483,-6.2237267,2.8495688,-9.019142,-5.259338,14.934672,-11.357938,33.27192,-25.173534,48.961292,3.5635328,3.5200663,-6.915876,-3.1212158,-14.8914385,15.881012,64.97709,18.196325,9.231771,5.8641486
228,59.867332458496094,107.61792755126953,73.40911102294922,5.628187253255261,-2.4101598226485934,43.12866334775781,22.970993,-1.4431977,11.274792,7.2451167,-23.541382,-7.753994,-31.086693,-10.767535,-20.02119,6.5089474,-6.5635533,3.0098898,-9.343384,-5.3831263,14.869053,-11.255052,33.251064,-25.292303,48.836388,3.5426495,3.487801,-6.9048467,-2.809748,-14.920411,15.687341,64.998215,18.179028,9.241131,5.8360376
229,60.59083938598633,108.09597778320312,73.1849136352539,5.77185527601477,-2.4569795797111404,43.38796042281715,23.753675,-1.3962892,10.900466,7.2651615,-23.607956,-8.072203,-30.972273,-11.037475,-20.294386,6.521959,-6.602802,3.010229,-9.616287,-5.4990907,14.745669,-11.10391,33.21016,-25.436344,48.73906,3.522969,3.4620278,-6.88081,-2.4589386,-14.944933,15.442999,65.019135,18.110994,9.257371,5.8073354
230,61.324798583984375,108.56461334228516,72.97117614746094,5.916882716652914,-2.4840855783567513,43.61036271697855,24.527807,-1.3436832,10.524267,7.282612,-23.60256,-8.422818,-30.689272,-11.256024,-20.464191,6.5441523,-6.419739,2.8948367,-9.843057,-5.6052895,14.576158,-10.898853,33.14442,-25.594454,48.658257,3.5218415,3.439925,-6.846702,-2.0746105,-14.961935,15.153798,65.040825,18.010225,9.275947,5.7753525
231,62.06934356689453,109.04519653320312,72.7730484008789,5.972426540008998,-2.4727002508547504,43.76149404395327,25.271406,-1.1850557,10.218686,7.306916,-23.485811,-8.807593,-30.306469,-11.292049,-20.535542,6.524313,-5.919125,2.5823586,-9.961706,-5.600066,14.38673,-10.730346,33.011906,-25.802874,48.670982,3.53387,3.419629,-6.7994776,-1.6589817,-14.975283,14.791607,65.05011,17.90055,9.297677,5.7447996
232,62.83234405517578,109.54679107666016,72.58181762695312,5.882718156111824,-2.4005844108986296,43.819352984847875,25.962395,-0.8612333,10.037465,7.3417783,-23.217438,-9.22328,-29.950089,-11.063158,-20.488081,6.519268,-5.054959,2.0064538,-10.000489,-5.4401298,14.19233,-10.529921,32.840427,-25.957153,48.723564,3.575024,3.4022982,-6.750396,-1.284887,-14.977326,14.432204,65.07863,17.834146,9.320654,5.712586
233,63.605220794677734,110.06681823730469,72.4268569946289,5.5317425329003065,-2.216564708600946,43.73556193543576,26.559935,-0.2445227,10.093757,7.40251,-22.836496,-9.724361,-29.677204,-10.410831,-20.354958,6.611483,-3.7810726,1.0318651,-9.89722,-5.000942,13.994948,-10.31932,32.648163,-26.077816,48.798817,3.6270373,3.390272,-6.698924,-0.9512039,-14.969515,14.047063,65.104294,17.81113,9.347952,5.6817513
234,64.36669921875,110.52459716796875,72.36942291259766,5.014975791251176,-1.9740721286249254,43.57667529323849,27.110859,0.55357957,10.280158,7.4889383,-22.352015,-10.29016,-29.362698,-9.469834,-20.161228,6.67632,-2.0791569,-0.23349966,-9.704101,-4.383431,13.793674,-10.093151,32.416313,-26.183092,48.90873,3.709376,3.3827364,-6.6437244,-0.623096,-14.950439,13.621717,65.12589,17.811975,9.380153,5.652147
235,65.14215087890625,110.96754455566406,72.3436508178711,4.431330542904097,-1.742795709318605,43.37453815195577,27.678194,1.4143642,10.490481,7.607063,-21.704124,-10.8578415,-29.029055,-8.387938,-19.873882,6.736157,-0.09826191,-1.5316783,-9.479911,-3.703498,13.616902,-9.833482,32.153477,-26.253567,49.065292,3.8074696,3.377768,-6.5909185,-0.30969673,-14.923988,13.202204,65.16072,17.83717,9.412712,5.626543
236,65.95494842529297,111.40999603271484,72.32964324951172,3.8854414979854397,-1.5831251889191151,43.160152802594524,28.30986,2.2177553,10.616852,7.7594137,-20.828272,-11.361211,-29.182436,-7.49877,-19.375826,7.89497,1.4236943,-2.6165178,-9.274126,-3.078995,13.483988,-9.5081415,31.857473,-26.256527,49.27043,3.9292164,3.3733945,-6.54577,-0.014785965,-14.895583,12.828135,65.2231,17.889042,9.441436,5.6084642
237,66.7918701171875,111.86888122558594,72.31103515625,3.346901117620728,-1.4762986698792824,42.97049477262771,28.204018,3.1616836,10.567931,9.622004,-20.63268,-11.818856,-30.095465,-6.8458924,-18.577332,10.648519,2.3714535,-3.4702084,-9.120688,-2.4692771,13.374727,-9.128193,31.530222,-26.218937,49.525143,4.064606,3.3662708,-6.5228915,0.2741901,-14.877803,12.505326,65.30124,17.99071,9.464373,5.5995383
238,67.62467956542969,112.33538055419922,72.31525421142578,2.773793808821691,-1.3970373918843644,42.80289197517849,27.93226,4.1835275,10.394453,11.900275,-20.453579,-12.25828,-30.910143,-6.064907,-17.672522,13.130623,3.7489476,-4.202941,-9.005592,-1.8269407,13.279755,-8.671246,31.16735,-26.120611,49.797447,4.240342,3.3589132,-6.517269,0.5630569,-14.872077,12.212537,65.38459,18.135706,9.48541,5.6006026
239,68.46788787841797,112.81420135498047,72.32743835449219,2.243717249691519,-1.379558783710516,42.60955134387259,27.646055,5.1428504,10.153336,14.314628,-20.062817,-12.625015,-31.568316,-5.259293,-16.803068,15.409809,5.1556325,-4.781169,-8.904497,-1.2455258,13.229694,-8.164195,30.7669,-25.94302,50.133236,4.4230013,3.3567536,-6.5008087,0.81715155,-14.87093,11.959158,65.4989,18.277227,9.507272,5.6072607
240,69.30735778808594,113.30377197265625,72.34605407714844,1.8352791047460946,-1.4561093237146234,42.333217469049295,27.347479,5.9235115,9.910169,16.909376,-19.405067,-12.867741,-32.005466,-4.536521,-16.090124,17.539038,6.1960683,-5.1972475,-8.778885,-0.8234107,13.250004,-7.572457,30.32291,-25.61733,50.528362,4.63166,3.3658168,-6.44632,1.0026529,-14.860182,11.747828,65.674095,18.366413,9.531916,5.614976
241,70.13397216796875,113.77495574951172,72.37535858154297,1.5870444109119373,-1.6612014833546855,41.9002052639652,27.089176,6.4579344,9.733573,19.701796,-18.39268,-12.880826,-32.20516,-3.931086,-15.511448,19.602251,6.769133,-5.353965,-8.581703,-0.60865086,13.371536,-6.8356442,29.816185,-25.036186,50.975727,4.9089384,3.3744779,-6.3251843,1.0837214,-14.831272,11.603544,65.96596,18.412127,9.545844,5.620359
242,70.95320892333984,114.2278060913086,72.42662048339844,1.442659302617738,-1.9562739739964388,41.34352394017368,26.841696,6.825101,9.607518,22.657652,-17.068993,-12.738776,-32.24531,-3.4085498,-14.983527,21.64677,7.026219,-5.3265753,-8.335826,-0.52772886,13.562378,-5.991988,29.241774,-24.255022,51.48068,5.242489,3.3842316,-6.157717,1.0745893,-14.788541,11.522759,66.354645,18.433794,9.5506,5.622931
