unveil-humanoid-operators/unveil-humanoid-operators.github.io/feature-analysis-animation/data/feature_matrix_instances/weight_ankle_peak_vel_jogging_A225_jog_ff_start_180_R_003__A225.csv
Frame,root_translateX,root_translateY,root_translateZ,root_rotateX,root_rotateY,root_rotateZ,left_hip_pitch_joint_dof,left_hip_roll_joint_dof,left_hip_yaw_joint_dof,left_knee_joint_dof,left_ankle_pitch_joint_dof,left_ankle_roll_joint_dof,right_hip_pitch_joint_dof,right_hip_roll_joint_dof,right_hip_yaw_joint_dof,right_knee_joint_dof,right_ankle_pitch_joint_dof,right_ankle_roll_joint_dof,waist_yaw_joint_dof,waist_roll_joint_dof,waist_pitch_joint_dof,left_shoulder_pitch_joint_dof,left_shoulder_roll_joint_dof,left_shoulder_yaw_joint_dof,left_elbow_joint_dof,left_wrist_roll_joint_dof,left_wrist_pitch_joint_dof,left_wrist_yaw_joint_dof,right_shoulder_pitch_joint_dof,right_shoulder_roll_joint_dof,right_shoulder_yaw_joint_dof,right_elbow_joint_dof,right_wrist_roll_joint_dof,right_wrist_pitch_joint_dof,right_wrist_yaw_joint_dof
0,0.08785467594861984,1.8405520915985107,76.99019622802734,0.21407629080004542,2.7680111944190675,-93.65406864069043,-10.001028,6.8249555,7.269502,25.205547,-15.986464,-5.6741934,-12.986577,-7.8145003,-6.5768986,27.385143,-16.97131,5.798802,-2.5802102,-1.0692949,13.683905,4.2442455,20.693388,-34.325768,51.506435,4.8756266,1.3212413,7.615909,-3.008323,-17.193073,36.468998,53.589626,-1.8754516,4.8232317,-14.077464
1,0.08426506072282791,1.8427351713180542,76.99067687988281,0.2058475999648514,2.7745032506335607,-93.64726612359586,-10.025873,6.8341246,7.2555337,25.22718,-15.986734,-5.6750464,-12.985156,-7.8040295,-6.5868897,27.361885,-16.953426,5.794723,-2.603152,-1.0641164,13.695142,4.2597065,20.700237,-34.326397,51.482113,4.8953943,1.3338474,7.619019,-3.0042613,-17.192902,36.433235,53.52658,-1.9074984,4.8751073,-14.078374
2,0.08253461122512817,1.8442174196243286,76.99118041992188,0.19760915088785386,2.780608933083072,-93.64055701657911,-10.049521,6.843228,7.2416434,25.246952,-15.985613,-5.6757374,-12.983151,-7.793448,-6.5965734,27.337858,-16.934822,5.790557,-2.6139007,-1.0580648,13.709179,4.262113,20.704718,-34.3391,51.466667,4.917941,1.3480409,7.6207047,-2.9906714,-17.190329,36.374104,53.455914,-1.9530876,4.930133,-14.076179
3,0.0804784968495369,1.8499428033828735,76.99254608154297,0.18926715978499561,2.787146211505822,-93.63413623579223,-10.074404,6.852706,7.228313,25.26914,-15.98688,-5.676765,-12.983037,-7.7830634,-6.606274,27.317102,-16.91862,5.7865515,-2.624598,-1.0513471,13.719588,4.263551,20.705503,-34.353065,51.453682,4.933685,1.3597991,7.6258664,-2.9806614,-17.18644,36.324375,53.394493,-1.9882627,4.9781184,-14.076137
4,0.08087611198425293,1.858997106552124,76.99458312988281,0.1808684456938741,2.794292397147152,-93.6289498115654,-10.095411,6.8626323,7.2179017,25.283863,-15.986159,-5.6787853,-12.981749,-7.772563,-6.6161613,27.29352,-16.90232,5.7830033,-2.6235535,-1.0444714,13.726551,4.2596726,20.703281,-34.373657,51.438244,4.9353538,1.3671613,7.6373873,-2.9728055,-17.181204,36.279602,53.347687,-2.008832,5.008263,-14.077948
5,0.08048543334007263,1.8647938966751099,76.99662017822266,0.1717986290772602,2.802112897100202,-93.62466484737254,-10.112959,6.8741264,7.2110877,25.29328,-15.985999,-5.682254,-12.978972,-7.7618675,-6.627467,27.26752,-16.88727,5.77965,-2.6229057,-1.0372279,13.728706,4.265762,20.699533,-34.38783,51.407764,4.9203877,1.3686006,7.6569242,-2.9722102,-17.177357,36.257427,53.316162,-2.0065634,5.016065,-14.080926
6,0.076971136033535,1.8664151430130005,76.9982681274414,0.1624913644360074,2.810409631029827,-93.6212083596601,-10.12818,6.886751,7.206943,25.299343,-15.986425,-5.6867294,-12.975069,-7.7509503,-6.639668,27.239895,-16.873268,5.7763815,-2.6186838,-1.030256,13.728038,4.2742147,20.694283,-34.400085,51.369995,4.893717,1.3653238,7.681529,-2.9734898,-17.173891,36.244778,53.29302,-1.9913684,5.007544,-14.084183
7,0.07719426602125168,1.864546537399292,76.99888610839844,0.15361628398879634,2.819478090009621,-93.61922594387995,-10.141942,6.89871,7.2042336,25.301107,-15.985084,-5.691473,-12.972844,-7.740368,-6.650308,27.21251,-16.859299,5.7739863,-2.6096437,-1.0233592,13.726578,4.281514,20.68919,-34.411934,51.325943,4.8600326,1.359888,7.7088966,-2.9788134,-17.17144,36.243153,53.279964,-1.9605688,4.9895825,-14.092233
8,0.0778999850153923,1.8687224388122559,76.99864959716797,0.14609084343662798,2.8295624179214762,-93.61897569816955,-10.157315,6.9081326,7.2014675,25.30203,-15.981793,-5.6956477,-12.975192,-7.7306056,-6.657268,27.188818,-16.84556,5.7731805,-2.5958264,-1.0163612,13.7222185,4.281161,20.679031,-34.430435,51.28621,4.8214755,1.3547353,7.7393484,-2.9937978,-17.167978,36.26096,53.28625,-1.9066963,4.969237,-14.112363
9,0.07694585621356964,1.8735548257827759,76.99898529052734,0.14046707946565565,2.842002762665771,-93.62054929467936,-10.173541,6.913444,7.1972404,25.296883,-15.972564,-5.699526,-12.982669,-7.721816,-6.6599617,27.165901,-16.829987,5.7756524,-2.5841763,-1.0099912,13.715387,4.277421,20.663122,-34.444508,51.245705,4.77186,1.3456702,7.7747226,-3.026349,-17.164495,36.319904,53.318336,-1.8115697,4.943525,-14.151167
10,0.07707905769348145,1.878059983253479,76.99887084960938,0.13636377758387175,2.8561291112137295,-93.62341473752078,-10.192747,6.9160833,7.192312,25.292559,-15.962368,-5.7032576,-12.9961605,-7.714356,-6.659218,27.148867,-16.81628,5.780622,-2.5688572,-1.0051658,13.709637,4.2743726,20.651152,-34.45548,51.19274,4.7129745,1.3332565,7.8129725,-3.0695984,-17.16363,36.401344,53.365887,-1.6880746,4.909928,-14.201328
11,0.07707962393760681,1.8816733360290527,76.99988555908203,0.1326119443391374,2.8696922251805392,-93.62855935821574,-10.210242,6.918803,7.189738,25.286089,-15.951606,-5.7063074,-13.010683,-7.706692,-6.6560555,27.132748,-16.802176,5.7846894,-2.5709178,-1.0005348,13.701329,4.2825904,20.631433,-34.446003,51.13617,4.6670165,1.3248825,7.8481855,-3.1260827,-17.163103,36.51295,53.424118,-1.5539842,4.8779955,-14.25653
12,0.07719925791025162,1.8881115913391113,77.00105285644531,0.1288996234482662,2.8802090019065374,-93.6364550550968,-10.223658,6.923909,7.1923747,25.28082,-15.944285,-5.7080283,-13.024494,-7.698205,-6.650965,27.120134,-16.789152,5.7845564,-2.5699453,-0.99647737,13.699016,4.2894073,20.613764,-34.432873,51.07697,4.6531987,1.3285315,7.869109,-3.168309,-17.162354,36.588135,53.460396,-1.4590521,4.8557043,-14.299953
13,0.07731970399618149,1.8927286863327026,77.00210571289062,0.12430566877378109,2.886962866428891,-93.64885076968038,-10.232192,6.933851,7.2030745,25.277748,-15.942499,-5.7080317,-13.039343,-7.6875176,-6.6427646,27.114925,-16.778584,5.7778263,-2.5718093,-0.99259037,13.701226,4.2983594,20.593761,-34.407238,51.015892,4.690243,1.3521626,7.8646874,-3.1986027,-17.160053,36.626217,53.4751,-1.4136821,4.845774,-14.329366
14,0.07853490114212036,1.899014949798584,77.00260162353516,0.11946902638118563,2.891302896773353,-93.66495638034394,-10.238653,6.946709,7.219421,25.278131,-15.94532,-5.706755,-13.0552,-7.675607,-6.631595,27.11438,-16.769264,5.766786,-2.567019,-0.98974484,13.7084055,4.3074555,20.580708,-34.382683,50.945168,4.7575736,1.390573,7.842595,-3.214675,-17.15746,36.63172,53.469917,-1.400955,4.843473,-14.35049
15,0.07648607343435287,1.9086861610412598,77.00372314453125,0.11525011437118961,2.8937762905123283,-93.68128884531254,-10.24224,6.9589777,7.2369733,25.27719,-15.948139,-5.704654,-13.070209,-7.6646433,-6.619827,27.11582,-16.760817,5.7550974,-2.5661001,-0.9879077,13.716831,4.315823,20.564734,-34.35394,50.880135,4.8321157,1.4287627,7.824207,-3.230882,-17.153133,36.63207,53.46404,-1.3992974,4.8462777,-14.3681965
16,0.07640276849269867,1.9162371158599854,77.00450134277344,0.11311719746399583,2.894952601105458,-93.69437407405509,-10.244446,6.9671955,7.250791,25.27443,-15.948805,-5.7022324,-13.083117,-7.657294,-6.6095653,27.118196,-16.753935,5.7464147,-2.5632563,-0.98822373,13.725723,4.320996,20.551668,-34.336636,50.822517,4.881422,1.4541327,7.8315473,-3.2439883,-17.148813,36.63536,53.45888,-1.3903565,4.85205,-14.386894
17,0.07670550793409348,1.9220458269119263,77.0044174194336,0.1136077585518784,2.894470379342036,-93.70436785603864,-10.243642,6.970147,7.2610245,25.267685,-15.946234,-5.6989694,-13.092476,-7.654102,-6.6000366,27.119614,-16.74806,5.7412853,-2.561541,-0.99102294,13.733642,4.321996,20.535902,-34.328407,50.779232,4.899539,1.4613922,7.875703,-3.2587922,-17.14239,36.649334,53.461864,-1.3677735,4.863484,-14.410286
18,0.07830409705638885,1.9253445863723755,77.00392150878906,0.1161259571890011,2.8922098641690908,-93.71275394633274,-10.239948,6.96977,7.2697096,25.258785,-15.942175,-5.6948833,-13.100057,-7.653886,-6.5904007,27.122843,-16.744116,5.737959,-2.5585155,-0.996051,13.7420025,4.3202543,20.520885,-34.32916,50.743458,4.899887,1.4586599,7.9436293,-3.270836,-17.13461,36.66432,53.465374,-1.3405069,4.8806562,-14.435237
19,0.07783770561218262,1.9322048425674438,77.00491333007812,0.11923367820945184,2.8890529838683228,-93.71807102291653,-10.236541,6.967474,7.2752748,25.249617,-15.936784,-5.690983,-13.106113,-7.6556306,-6.5833874,27.126354,-16.740437,5.7363997,-2.5542848,-1.0032338,13.755475,4.3202634,20.51778,-34.332527,50.70131,4.891064,1.450732,8.017444,-3.2752974,-17.132744,36.670662,53.45675,-1.3214787,4.897463,-14.454149
20,0.07730979472398758,1.9429413080215454,77.00475311279297,0.12100073890874352,2.8860319355080533,-93.71910004890083,-10.237132,6.9647613,7.276072,25.244915,-15.9319515,-5.6884594,-13.111413,-7.658215,-6.581718,27.13015,-16.736462,5.736658,-2.559734,-1.0080553,13.765204,4.318253,20.511,-34.337917,50.67225,4.8767447,1.4412792,8.086761,-3.2851827,-17.128044,36.685417,53.45804,-1.3091626,4.907042,-14.465712
21,0.07749512046575546,1.957087755203247,77.00540161132812,0.12077325717066531,2.8827969686757884,-93.71348982037603,-10.242521,6.9618626,7.2695594,25.244226,-15.925799,-5.688332,-13.115053,-7.6614842,-6.588593,27.133472,-16.731192,5.7395315,-2.5741386,-1.0112138,13.778111,4.312601,20.506409,-34.339233,50.650105,4.8619394,1.4275066,8.148165,-3.2958345,-17.124556,36.695755,53.45832,-1.3162534,4.9058285,-14.464508
22,0.08024239540100098,1.9647886753082275,77.00526428222656,0.11934807016662743,2.879061323443787,-93.7026796497882,-10.250441,6.958171,7.2574487,25.24491,-15.91811,-5.6897645,-13.116758,-7.6659036,-6.6017494,27.136173,-16.725039,5.7447515,-2.5983977,-1.0132788,13.791132,4.304831,20.49994,-34.33813,50.638535,4.842206,1.408038,8.209711,-3.3108425,-17.11916,36.709435,53.464725,-1.3349189,4.897766,-14.455149
23,0.08763290196657181,1.9687650203704834,77.00460052490234,0.11813630322323244,2.8756046924803096,-93.690766558094,-10.260196,6.953541,7.2440677,25.248459,-15.911659,-5.691051,-13.119168,-7.67147,-6.615614,27.140715,-16.720406,5.7507095,-2.6239884,-1.0159819,13.803217,4.29514,20.4943,-34.337284,50.633587,4.8209643,1.3908532,8.265569,-3.324297,-17.114138,36.72209,53.470448,-1.3586733,4.88864,-14.440151
24,0.08654150366783142,1.978600025177002,77.0040054321289,0.11865389457129254,2.8732593162731344,-93.68151701466827,-10.268119,6.948278,7.234273,25.249998,-15.906665,-5.690545,-13.123872,-7.677579,-6.624946,27.147284,-16.718384,5.7557335,-2.6480677,-1.0198183,13.809918,4.2835803,20.486729,-34.33808,50.638714,4.798639,1.3821882,8.310497,-3.3369174,-17.106607,36.73794,53.479652,-1.3776231,4.8825397,-14.422792
25,0.08735846728086472,1.9843031167984009,77.0032958984375,0.12176363693723606,2.8724877646280915,-93.6759725323717,-10.274583,6.941477,7.2293954,25.250235,-15.904117,-5.6864815,-13.131192,-7.6848955,-6.6276903,27.155,-16.719748,5.759748,-2.663708,-1.0266869,13.814219,4.2716627,20.483997,-34.343708,50.64446,4.7755313,1.3870966,8.34109,-3.3363109,-17.103619,36.746876,53.47309,-1.395125,4.8827314,-14.399876
26,0.08864923566579819,1.9860491752624512,77.00254821777344,0.1265122818818342,2.872778378341462,-93.67205905136919,-10.279615,6.933379,7.226887,25.248539,-15.902623,-5.6802216,-13.141018,-7.693468,-6.626853,27.16594,-16.724726,5.7635527,-2.676816,-1.0349149,13.81382,4.2564225,20.480616,-34.355453,50.6602,4.7481785,1.4006506,8.362255,-3.3308363,-17.099747,36.758377,53.463646,-1.4087213,4.885747,-14.372898
27,0.08902889490127563,1.9921270608901978,77.0014877319336,0.13141014493304984,2.873379185622809,-93.66937914632805,-10.285084,6.925827,7.2256474,25.248539,-15.902966,-5.674677,-13.151556,-7.7016797,-6.6244855,27.177418,-16.729969,5.7666473,-2.6861742,-1.0431668,13.810197,4.2377415,20.47613,-34.371326,50.684174,4.7200685,1.4179448,8.377243,-3.3232293,-17.094677,36.768112,53.458076,-1.4225928,4.8897347,-14.345889
28,0.09191511571407318,1.9990040063858032,77.00043487548828,0.13463851906184646,2.8733833411014924,-93.66795953551399,-10.289054,6.9204087,7.2252026,25.247698,-15.902712,-5.672875,-13.16107,-7.7077537,-6.622614,27.188011,-16.73271,5.768547,-2.694612,-1.0496924,13.810543,4.225168,20.474285,-34.37862,50.698235,4.7008066,1.4349617,8.386492,-3.3151646,-17.092411,36.772934,53.452515,-1.4415125,4.8935575,-14.320359
29,0.09245171397924423,2.0040011405944824,76.99989318847656,0.13491722834077402,2.8725375739005012,-93.66812177303916,-10.294499,6.91905,7.2246375,25.252447,-15.905533,-5.6775956,-13.169614,-7.7103686,-6.6218166,27.198256,-16.73261,5.7682695,-2.6992311,-1.0518374,13.813249,4.2176023,20.473818,-34.38097,50.706406,4.6903214,1.4504125,8.389732,-3.308913,-17.09165,36.77495,53.453762,-1.4584682,4.897251,-14.301408
30,0.09495007246732712,2.007128953933716,76.99873352050781,0.13425460983927456,2.872230710262478,-93.66974342732864,-10.300868,6.919579,7.2250624,25.258862,-15.909409,-5.686527,-13.180459,-7.711699,-6.620569,27.211666,-16.732367,5.766441,-2.6992774,-1.0575473,13.811057,4.196605,20.471937,-34.39032,50.731937,4.675139,1.4710404,8.386522,-3.2931657,-17.08887,36.77746,53.452057,-1.4768398,4.9034,-14.283738
31,0.09920816868543625,2.0099058151245117,76.99689483642578,0.1331623669297746,2.871082586523853,-93.6720139055417,-10.306399,6.920521,7.226097,25.26621,-15.9142475,-5.695088,-13.189925,-7.712213,-6.618874,27.224081,-16.731333,5.764712,-2.6979764,-1.0597605,13.810277,4.182915,20.469357,-34.397953,50.749977,4.665868,1.4898272,8.383028,-3.2813008,-17.084806,36.77545,53.459625,-1.4995803,4.908013,-14.268603
32,0.09959343820810318,2.0182926654815674,76.99687194824219,0.13324701727017677,2.8693097897607496,-93.67429392557618,-10.311648,6.919894,7.2276692,25.275103,-15.920116,-5.6987076,-13.199337,-7.7143745,-6.6156454,27.238298,-16.73249,5.764922,-2.7007754,-1.0634258,13.810702,4.1756554,20.468138,-34.402023,50.762535,4.6578693,1.5039402,8.38283,-3.2722487,-17.082764,36.77556,53.47067,-1.528308,4.9099536,-14.25291
33,0.10116752237081528,2.023789882659912,76.99534606933594,0.13543410888362709,2.86727826835238,-93.67573845021786,-10.316456,6.9161,7.229391,25.28376,-15.925808,-5.69465,-13.209471,-7.7191224,-6.610773,27.255058,-16.73668,5.7685757,-2.7072494,-1.0676692,13.8097515,4.1752605,20.467176,-34.409035,50.769405,4.6475534,1.5138869,8.391016,-3.2664669,-17.080988,36.777573,53.490704,-1.5645792,4.9081793,-14.239367
34,0.10596559196710587,2.0260729789733887,76.9936752319336,0.13849341701095844,2.8649425637706574,-93.6771806100598,-10.321449,6.910892,7.231466,25.293875,-15.932558,-5.6858997,-13.219705,-7.7250667,-6.6046453,27.273212,-16.742422,5.7743645,-2.7163718,-1.0726742,13.809833,4.180005,20.466934,-34.41329,50.77123,4.6390347,1.5204647,8.402111,-3.263934,-17.0805,36.780464,53.51642,-1.6058913,4.903779,-14.227126
35,0.10873568058013916,2.0291190147399902,76.99163818359375,0.14195074499150548,2.861401898735932,-93.67921319913559,-10.325177,6.9054255,7.2343087,25.305342,-15.940465,-5.6762047,-13.229812,-7.7313094,-6.5973167,27.293638,-16.749916,5.779898,-2.726865,-1.0771859,13.808887,4.190631,20.466742,-34.419662,50.76909,4.6301417,1.5258768,8.415452,-3.2603078,-17.07971,36.785076,53.54371,-1.6519749,4.899321,-14.21441
36,0.11352436989545822,2.0339279174804688,76.98955535888672,0.14460828111585672,2.8555803522333054,-93.68281338582169,-10.325644,6.9014726,7.23871,25.316496,-15.949241,-5.669406,-13.2376175,-7.7363014,-6.589067,27.314255,-16.7576,5.7827573,-2.7361312,-1.0815502,13.809351,4.203449,20.466873,-34.42465,50.765884,4.6241326,1.5315965,8.4267,-3.2533393,-17.078875,36.787296,53.566772,-1.7042729,4.8974934,-14.198876
37,0.11524810642004013,2.0338850021362305,76.9877700805664,0.1456062030877117,2.8459837919589375,-93.68821661397962,-10.323687,6.9004016,7.2438855,25.333158,-15.962853,-5.667131,-13.244972,-7.7394886,-6.579671,27.34153,-16.769451,5.780553,-2.7440002,-1.0854783,13.813401,4.217743,20.467293,-34.426075,50.760227,4.6273646,1.5411075,8.42852,-3.2422101,-17.078238,36.785305,53.58444,-1.7735989,4.900845,-14.177943
38,0.12208350002765656,2.0353870391845703,76.98490905761719,0.14594243240535978,2.83367301734393,-93.69501022646566,-10.318404,6.9006615,7.2502975,25.35002,-15.977744,-5.667178,-13.24952,-7.7415743,-6.56937,27.369192,-16.781923,5.775235,-2.750814,-1.0886325,13.819112,4.2395496,20.468775,-34.42466,50.746098,4.639015,1.5534626,8.425302,-3.2236936,-17.077145,36.775723,53.59546,-1.8614106,4.907762,-14.152322
39,0.1246686801314354,2.041783094406128,76.981689453125,0.14659429522365533,2.82108615979011,-93.7030338305654,-10.312753,6.900714,7.258095,25.367975,-15.993382,-5.667369,-13.254792,-7.743795,-6.5576406,27.398298,-16.794939,5.770513,-2.7554996,-1.0928757,13.826506,4.258222,20.470009,-34.42288,50.73662,4.647032,1.5605056,8.428116,-3.2065794,-17.076534,36.766224,53.604534,-1.9392836,4.912962,-14.126474
40,0.12729412317276,2.0472958087921143,76.98004150390625,0.14881588530375034,2.8113702903038824,-93.71197950233913,-10.309749,6.8987374,7.26791,25.386154,-16.007935,-5.665433,-13.26362,-7.748128,-6.544,27.42755,-16.807062,5.7703247,-2.7543592,-1.0989102,13.8328905,4.2777705,20.472824,-34.422005,50.729042,4.6453333,1.5568153,8.449913,-3.1887033,-17.075996,36.74876,53.61044,-1.992946,4.9117837,-14.101851
41,0.134741872549057,2.0483787059783936,76.97840881347656,0.1539705200599146,2.805829239045578,-93.72219055809195,-10.310549,6.89324,7.280861,25.403793,-16.020575,-5.6601715,-13.277597,-7.755799,-6.5274944,27.455973,-16.817518,5.777378,-2.7497504,-1.1081462,13.836614,4.291821,20.475021,-34.424934,50.732998,4.6197214,1.5348948,8.502449,-3.1777077,-17.076208,36.7354,53.616383,-2.000997,4.9005823,-14.077535
42,0.1381022036075592,2.0503532886505127,76.97551727294922,0.1608871505710195,2.802889885744394,-93.7339385567299,-10.314502,6.8857327,7.296404,25.423294,-16.033283,-5.652993,-13.296066,-7.7655125,-6.5084763,27.486073,-16.827934,5.788986,-2.735711,-1.1185428,13.8393755,4.302305,20.47847,-34.436306,50.74121,4.5785823,1.501117,8.577308,-3.162553,-17.077827,36.71156,53.61479,-1.9852353,4.8829646,-14.051343
43,0.14508865773677826,2.0495245456695557,76.97222900390625,0.1678968609900673,2.8003053503405804,-93.74593550383628,-10.318454,6.8781095,7.312119,25.442936,-16.045805,-5.64552,-13.31454,-7.7752147,-6.4888887,27.516043,-16.83785,5.801079,-2.7137067,-1.1286892,13.842192,4.306851,20.483322,-34.45594,50.755886,4.5340214,1.4647449,8.654828,-3.1416867,-17.083008,36.682808,53.608078,-1.9565938,4.8638973,-14.031432
44,0.15041381120681763,2.057413339614868,76.97046661376953,0.17291901792659062,2.7960007265551883,-93.75717514768294,-10.321118,6.8725963,7.3251915,25.46424,-16.058928,-5.6394715,-13.3287525,-7.782598,-6.470871,27.543617,-16.846523,5.809495,-2.7035482,-1.1367428,13.844128,4.3195844,20.484505,-34.46046,50.7708,4.5062323,1.4354331,8.715158,-3.131069,-17.085325,36.67459,53.61583,-1.923786,4.8479023,-14.026479
45,0.15199288725852966,2.062225818634033,76.96847534179688,0.17578213222808373,2.789812489386032,-93.76623108190435,-10.324843,6.8691278,7.332931,25.491152,-16.074793,-5.6362686,-13.341065,-7.787819,-6.4549656,27.575508,-16.857244,5.8126106,-2.6916537,-1.1413387,13.846482,4.332013,20.485928,-34.46467,50.78778,4.50051,1.4141873,8.750029,-3.1172004,-17.090227,36.669083,53.62883,-1.8889897,4.8327255,-14.041904
46,0.15919463336467743,2.063115358352661,76.96515655517578,0.17726707029687677,2.782684837619502,-93.77438392321721,-10.326343,6.866445,7.338279,25.515514,-16.088497,-5.634825,-13.350041,-7.791543,-6.440481,27.605156,-16.866388,5.8128314,-2.6809263,-1.1444639,13.849135,4.3455825,20.486485,-34.464203,50.807007,4.5090046,1.3965828,8.77066,-3.1026216,-17.094954,36.669945,53.644928,-1.8456059,4.8175173,-14.073255
47,0.16435685753822327,2.058964490890503,76.96253204345703,0.17747459149756997,2.774246174593968,-93.78355957775445,-10.327486,6.865909,7.343841,25.544004,-16.106861,-5.632532,-13.357656,-7.793253,-6.4254065,27.635597,-16.87649,5.8118863,-2.6713552,-1.1460685,13.852515,4.36092,20.486399,-34.46136,50.826626,4.518013,1.384547,8.78793,-3.0904744,-17.09967,36.675774,53.663643,-1.8055311,4.807724,-14.107003
48,0.17169825732707977,2.057494878768921,76.9592056274414,0.1765015189347746,2.7643878407607243,-93.79615835901294,-10.327267,6.8687396,7.353611,25.577072,-16.127647,-5.626875,-13.361788,-7.7922745,-6.408385,27.660618,-16.8847,5.811705,-2.663055,-1.1468694,13.856601,4.381294,20.485884,-34.4572,50.841995,4.515043,1.3810763,8.81406,-3.0797606,-17.10471,36.686134,53.679733,-1.7810794,4.810244,-14.131816
49,0.1758107841014862,2.0574700832366943,76.95698547363281,0.17385818973781156,2.7516424570966205,-93.81426076437324,-10.323723,6.876393,7.370403,25.615736,-16.153578,-5.615519,-13.361324,-7.787221,-6.387548,27.680279,-16.89143,5.812195,-2.6606758,-1.1454403,13.863472,4.411586,20.483652,-34.445374,50.848145,4.489589,1.3905799,8.85453,-3.0728316,-17.11714,36.714333,53.6887,-1.772666,4.8316903,-14.145418
50,0.18254517018795013,2.0538675785064697,76.95433044433594,0.16989236574335143,2.736575841217785,-93.83646624322674,-10.316833,6.887581,7.3919797,25.657957,-16.18328,-5.600342,-13.357494,-7.7790165,-6.363962,27.696394,-16.897154,5.812536,-2.6502404,-1.1435148,13.872296,4.437496,20.481512,-34.440582,50.85696,4.448631,1.4104807,8.902356,-3.067093,-17.124586,36.73704,53.70174,-1.7851701,4.8657784,-14.152899
51,0.1871107965707779,2.0516412258148193,76.95243072509766,0.16494278572608173,2.721663457574539,-93.85867936243338,-10.310788,6.900007,7.41327,25.701897,-16.214352,-5.585223,-13.351592,-7.7695346,-6.3411436,27.7086,-16.901596,5.8134036,-2.642748,-1.1406057,13.879968,4.4660196,20.478788,-34.435043,50.865616,4.41113,1.4318913,8.94892,-3.0631697,-17.131065,36.759995,53.714844,-1.8019618,4.902174,-14.154689
52,0.19269657135009766,2.0496087074279785,76.95120239257812,0.1591032364112584,2.709456573057008,-93.87737207467656,-10.308784,6.911249,7.4293485,25.744724,-16.243979,-5.5740447,-13.345797,-7.760983,-6.3223763,27.717554,-16.90505,5.815329,-2.6407273,-1.1366462,13.884712,4.495225,20.475449,-34.42931,50.877087,4.3947573,1.4457012,8.984977,-3.0577161,-17.136423,36.773285,53.724037,-1.8149291,4.929784,-14.14969
53,0.20070870220661163,2.047543525695801,76.94854736328125,0.15197465134052338,2.701060169371092,-93.89048004527875,-10.312864,6.9207845,7.437748,25.786074,-16.271772,-5.568176,-13.339207,-7.7534323,-6.3100634,27.720293,-16.906355,5.8178573,-2.6446345,-1.1326182,13.886262,4.5206904,20.474241,-34.42764,50.895756,4.404834,1.4465173,9.007794,-3.0517466,-17.137665,36.772095,53.73108,-1.8200822,4.945912,-14.132419
54,0.20563286542892456,2.0459258556365967,76.94613647460938,0.14288432711535,2.6952965534532543,-93.9004221693502,-10.321687,6.930612,7.4411073,25.82844,-16.299467,-5.5655546,-13.331619,-7.7453375,-6.30217,27.717798,-16.905836,5.820781,-2.6570358,-1.1252409,13.882511,4.5566554,20.472296,-34.42443,50.9109,4.435181,1.440601,9.024795,-3.0430095,-17.138994,36.763634,53.733997,-1.825178,4.9575033,-14.10406
55,0.21502892673015594,2.0420517921447754,76.944091796875,0.13396650187371734,2.6901875765783694,-93.90975984260314,-10.330996,6.939557,7.4436774,25.869759,-16.326622,-5.5644603,-13.323835,-7.737872,-6.2947364,27.713465,-16.904713,5.8253636,-2.6658542,-1.1169258,13.880405,4.5884757,20.467281,-34.420025,50.927734,4.4784327,1.4354373,9.033654,-3.0306373,-17.141867,36.74095,53.730946,-1.8367517,4.9638586,-14.074993
56,0.21918925642967224,2.039012908935547,76.94221496582031,0.12663307573337598,2.68425623890348,-93.92147188396049,-10.335534,6.9468613,7.449753,25.905422,-16.351156,-5.563204,-13.31598,-7.7313757,-6.284154,27.70907,-16.903282,5.8327794,-2.6698005,-1.1111645,13.878201,4.6157207,20.46331,-34.417606,50.944695,4.515217,1.4382913,9.036136,-3.0186996,-17.143463,36.72501,53.728374,-1.8462253,4.965305,-14.061526
57,0.22518713772296906,2.0355591773986816,76.94060516357422,0.12126752231851001,2.6769741830609903,-93.9366854068688,-10.333238,6.9523396,7.4609885,25.933163,-16.372255,-5.5626626,-13.3088045,-7.725408,-6.268855,27.705715,-16.90214,5.844796,-2.665705,-1.1074699,13.878146,4.640809,20.458202,-34.411316,50.95713,4.5563073,1.455511,9.028178,-3.0059779,-17.145248,36.710587,53.724274,-1.8610253,4.961921,-14.068303
58,0.23609402775764465,2.031325340270996,76.93888854980469,0.11702689208362596,2.669226290589793,-93.95384499779294,-10.327508,6.956404,7.474764,25.956211,-16.390978,-5.5632954,-13.301363,-7.720054,-6.251018,27.70129,-16.900164,5.860346,-2.6594572,-1.1050624,13.878776,4.664636,20.450659,-34.399532,50.968876,4.605362,1.480944,9.0104475,-2.9938202,-17.147688,36.698097,53.718796,-1.8792158,4.9536967,-14.087791
59,0.24436625838279724,2.0286624431610107,76.93733215332031,0.11343438798924027,2.661451828938348,-93.97127861670216,-10.320049,6.959422,7.48964,25.976912,-16.408873,-5.5628333,-13.294891,-7.715785,-6.2324,27.69889,-16.899422,5.876116,-2.6527143,-1.104159,13.878146,4.6893907,20.445879,-34.390125,50.97701,4.643738,1.5063492,8.991557,-2.9824436,-17.149025,36.69088,53.713573,-1.8918052,4.9408116,-14.112292
60,0.25233736634254456,2.0257644653320312,76.93607330322266,0.11048473499210898,2.653997493556011,-93.98757071704433,-10.313754,6.961531,7.5038314,25.999186,-16.427841,-5.5590568,-13.288913,-7.713235,-6.2148957,27.698164,-16.899601,5.8888803,-2.6484935,-1.1025912,13.877061,4.7100177,20.437319,-34.380116,50.98899,4.664622,1.522009,8.978012,-2.9683037,-17.15115,36.682407,53.703056,-1.8995754,4.923916,-14.13003
61,0.2622944116592407,2.020292282104492,76.93435668945312,0.10833152141280324,2.646781792371837,-94.00178965980407,-10.30893,6.962373,7.516546,26.023699,-16.447866,-5.5494747,-13.282158,-7.713363,-6.1996603,27.697674,-16.900217,5.89793,-2.646876,-1.1027863,13.873184,4.729321,20.43445,-34.378326,51.000206,4.648428,1.5242418,8.972227,-2.9514446,-17.1514,36.675354,53.68974,-1.896282,4.9001513,-14.139077
62,0.271251380443573,2.0143465995788574,76.93354797363281,0.10688711125819399,2.639886587692534,-94.01499641714173,-10.304607,6.9620633,7.5287976,26.04858,-16.46814,-5.535935,-13.276198,-7.7154684,-6.1853495,27.699913,-16.902622,5.9049406,-2.6404238,-1.1026907,13.867062,4.7425475,20.428493,-34.382557,51.01663,4.613618,1.5186774,8.970212,-2.9205868,-17.151274,36.654526,53.6641,-1.8959025,4.870985,-14.142569
63,0.27935898303985596,2.011119842529297,76.93244934082031,0.10574686879915067,2.6331649228964946,-94.02815719031975,-10.299364,6.961305,7.5416837,26.071499,-16.488247,-5.5226445,-13.270918,-7.7179,-6.1706996,27.702978,-16.905369,5.9101634,-2.6337767,-1.1029795,13.861736,4.7533865,20.423763,-34.3914,51.031776,4.5708666,1.5099744,8.971432,-2.896728,-17.150682,36.641758,53.643326,-1.8855824,4.840376,-14.147402
64,0.28772231936454773,2.008986473083496,76.92967987060547,0.10438287920639727,2.6270279587494203,-94.04310179760444,-10.292863,6.961337,7.5565753,26.090973,-16.508415,-5.5138793,-13.267725,-7.718816,-6.153871,27.707645,-16.908686,5.9137797,-2.6208618,-1.1032379,13.857459,4.7556906,20.418985,-34.407925,51.05324,4.5389023,1.5024844,8.975424,-2.8804102,-17.150248,36.639282,53.62853,-1.8672742,4.8136153,-14.158564
65,0.29510414600372314,2.0071496963500977,76.92800903320312,0.10135734309658277,2.6227280947643092,-94.06001287550592,-10.285958,6.9639535,7.573449,26.105562,-16.529253,-5.513052,-13.267334,-7.7163033,-6.135279,27.712193,-16.911772,5.9141636,-2.6051211,-1.1021402,13.853085,4.7532554,20.413328,-34.431118,51.07776,4.522651,1.4983181,8.982831,-2.8817577,-17.151447,36.66962,53.62829,-1.8150932,4.787965,-14.188404
66,0.30291831493377686,2.003160238265991,76.92668151855469,0.0976064081430252,2.6196973937277725,-94.07795579738092,-10.279019,6.967762,7.591859,26.11741,-16.55106,-5.517044,-13.269726,-7.7120547,-6.115404,27.718742,-16.915777,5.911816,-2.593571,-1.1007704,13.849643,4.7541127,20.408146,-34.45047,51.09713,4.516549,1.4947361,8.992431,-2.8988693,-17.15477,36.72916,53.637398,-1.7374498,4.762256,-14.230162
67,0.31098827719688416,1.9983166456222534,76.92530822753906,0.09495343842846993,2.6155912020224457,-94.0967672942289,-10.269077,6.9701996,7.611482,26.126226,-16.570953,-5.520681,-13.272077,-7.70877,-6.093729,27.727226,-16.920506,5.9099436,-2.5909188,-1.1007627,13.847487,4.7615767,20.4028,-34.460827,51.112514,4.512935,1.4890848,9.004838,-2.9214163,-17.159634,36.796864,53.645683,-1.6710782,4.7439194,-14.264329
68,0.3193735182285309,1.992401123046875,76.92337036132812,0.0959327796304409,2.607808452919599,-94.11667614365632,-10.254082,6.9686046,7.632571,26.134495,-16.587606,-5.518769,-13.272196,-7.7091146,-6.069046,27.738615,-16.92643,5.9117603,-2.5876627,-1.1047314,13.851442,4.7684174,20.39965,-34.46566,51.126404,4.5063896,1.4790605,9.017989,-2.9312239,-17.16245,36.82776,53.637703,-1.6663114,4.7393827,-14.267522
69,0.32737022638320923,1.9865187406539917,76.92222595214844,0.10134864199371521,2.5960607242930966,-94.13952508250023,-10.233226,6.9629884,7.6571674,26.141388,-16.597898,-5.508334,-13.269828,-7.7130666,-6.039837,27.750742,-16.929487,5.919629,-2.5909138,-1.1132642,13.858046,4.780312,20.39833,-34.46276,51.140446,4.484259,1.4606127,9.035945,-2.932169,-17.162703,36.82669,53.616184,-1.7455618,4.7551003,-14.222327
70,0.3377549350261688,1.9817465543746948,76.92174530029297,0.11049131903866745,2.581214469587674,-94.16486369680375,-10.207933,6.9538345,7.6849,26.147974,-16.604555,-5.4925365,-13.267179,-7.7203135,-6.006348,27.76714,-16.932598,5.9314976,-2.592532,-1.1258366,13.871488,4.7909665,20.394657,-34.449886,51.156578,4.463984,1.4351269,9.05697,-2.9205542,-17.159655,36.7819,53.57605,-1.9021672,4.787522,-14.137054
71,0.344163179397583,1.9787983894348145,76.92278289794922,0.1211127138239544,2.56385316008953,-94.18824377374061,-10.177608,6.9413776,7.7109237,26.150139,-16.609724,-5.4758263,-13.2609625,-7.7301116,-5.973135,27.784775,-16.93961,5.9434986,-2.594145,-1.1396018,13.885008,4.7985744,20.392725,-34.444588,51.17441,4.442093,1.4112325,9.077904,-2.9058886,-17.15462,36.734276,53.537106,-2.0548391,4.822394,-14.056823
72,0.3517124652862549,1.975163459777832,76.92244720458984,0.13215726552258678,2.5442672365758243,-94.20477282807256,-10.14468,6.924641,7.7297425,26.150648,-16.619375,-5.462288,-13.251802,-7.743417,-5.9437323,27.809528,-16.959322,5.9520035,-2.5955918,-1.1523412,13.897585,4.804071,20.391575,-34.450794,51.18935,4.432286,1.3963231,9.095467,-2.8916705,-17.148037,36.7008,53.50766,-2.144907,4.848998,-14.017914
73,0.35934388637542725,1.968101978302002,76.92343139648438,0.14044649011561955,2.5227487893124634,-94.20936450277486,-10.106723,6.904378,7.7362423,26.139118,-16.624458,-5.454416,-13.230746,-7.758524,-5.925107,27.82564,-16.982965,5.954778,-2.6051686,-1.1614956,13.912866,4.8081303,20.391426,-34.463894,51.198727,4.448577,1.3924773,9.104653,-2.885088,-17.14337,36.70205,53.492283,-2.1401045,4.862872,-14.043879
74,0.3707725405693054,1.959161639213562,76.92403411865234,0.1487928862610509,2.499206668241803,-94.20609429348286,-10.063708,6.879383,7.73507,26.118109,-16.62561,-5.4492717,-13.202639,-7.7769837,-5.9123917,27.83935,-17.011475,5.9543595,-2.6122515,-1.1694541,13.919931,4.804149,20.39145,-34.507633,51.218246,4.4647517,1.3964922,9.116359,-2.8764646,-17.135586,36.72783,53.493443,-2.0680213,4.8713007,-14.117731
75,0.38305285573005676,1.9501099586486816,76.92218017578125,0.16072973725748324,2.472802986923049,-94.20377670756434,-10.015902,6.850274,7.735345,26.098743,-16.636675,-5.4440393,-13.177835,-7.799635,-5.8947935,27.86994,-17.05733,5.9538383,-2.6254454,-1.1803598,13.927345,4.809037,20.391512,-34.539368,51.228394,4.4848247,1.4040891,9.125141,-2.8686678,-17.128738,36.75483,53.4939,-1.9837519,4.87799,-14.193311
76,0.3951777219772339,1.9376076459884644,76.91583251953125,0.18090186500603142,2.442811636233753,-94.21198500544695,-9.964311,6.8157744,7.746723,26.094645,-16.673214,-5.4354935,-13.170884,-7.8288827,-5.859599,27.94402,-17.137043,5.9564157,-2.6389763,-1.199231,13.931847,4.8251944,20.391506,-34.55144,51.23009,4.490669,1.4119788,9.134315,-2.8552895,-17.124958,36.760765,53.484238,-1.9315343,4.887434,-14.233179
77,0.4067468047142029,1.9214001893997192,76.90387725830078,0.21278347366846223,2.409747698181631,-94.23350725897309,-9.908085,6.7727904,7.771915,26.104168,-16.737045,-5.421322,-13.185955,-7.86667,-5.799783,28.06581,-17.255821,5.9652104,-2.648504,-1.2303075,13.926573,4.852712,20.391705,-34.55254,51.2266,4.4672747,1.4243125,9.147118,-2.8289838,-17.113445,36.721645,53.463467,-1.938011,4.902387,-14.2138
78,0.4218704402446747,1.8964720964431763,76.88959503173828,0.25316497966960116,2.3736741413086,-94.26337030938618,-9.847642,6.7228527,7.8054776,26.123875,-16.821712,-5.403739,-13.2175045,-7.911606,-5.72285,28.226562,-17.407095,5.9777646,-2.6540847,-1.2698777,13.91971,4.8852906,20.392555,-34.5402,51.216938,4.43184,1.4407121,9.158557,-2.7926962,-17.099224,36.64199,53.43098,-1.9829601,4.9197073,-14.156336
79,0.4276983439922333,1.882451057434082,76.8707504272461,0.2972012648329709,2.3334157868371297,-94.29910520365105,-9.780637,6.671823,7.8464737,26.151197,-16.923,-5.3866625,-13.253869,-7.9604006,-5.6397333,28.410797,-17.576975,5.989067,-2.6509976,-1.3127824,13.91143,4.9186807,20.393957,-34.527344,51.206993,4.3923893,1.4536419,9.171128,-2.7544584,-17.08625,36.565994,53.401924,-2.0196655,4.9354663,-14.103181
80,0.4347698390483856,1.8649790287017822,76.84917449951172,0.34041656483652677,2.2877341711407055,-94.33841988822218,-9.704409,6.625184,7.8939214,26.182161,-17.035402,-5.3739204,-13.284245,-8.009874,-5.561269,28.604424,-17.752676,5.994128,-2.635985,-1.3540314,13.903849,4.9478593,20.395107,-34.522087,51.202362,4.359294,1.4553386,9.186094,-2.725017,-17.079296,36.5361,53.3928,-2.0047245,4.945827,-14.095418
81,0.44411149621009827,1.8395719528198242,76.82421112060547,0.386520878896689,2.235687704007224,-94.38446976240192,-9.613924,6.5810657,7.955715,26.21188,-17.16045,-5.365444,-13.314087,-8.064873,-5.486223,28.820877,-17.941257,5.9899597,-2.5921946,-1.3979099,13.899806,4.9594564,20.397516,-34.534546,51.209694,4.334142,1.4378033,9.204151,-2.7083092,-17.0737,36.55808,53.417297,-1.920545,4.9454083,-14.15539
82,0.4544638991355896,1.813490629196167,76.79998016357422,0.4361997310001519,2.178340772957551,-94.43732822233224,-9.5119095,6.5373273,8.029566,26.242252,-17.299309,-5.3595467,-13.345749,-8.125267,-5.410227,29.060677,-18.145405,5.9798203,-2.5445812,-1.4470669,13.891202,4.9789014,20.403555,-34.54753,51.214428,4.3062096,1.4073752,9.226976,-2.7141294,-17.066866,36.647858,53.47968,-1.7737557,4.9376564,-14.263578
83,0.46343016624450684,1.7842116355895996,76.7757797241211,0.4808399252929526,2.1167472905560314,-94.48980414123162,-9.407725,6.4994664,8.100112,26.28462,-17.448545,-5.357471,-13.365795,-8.180194,-5.3391266,29.294321,-18.347832,5.9679523,-2.4929175,-1.4899561,13.885972,4.998479,20.407862,-34.557495,51.220615,4.289597,1.3771023,9.247236,-2.7129939,-17.064968,36.735497,53.534187,-1.6246989,4.9309793,-14.376562
84,0.4697541296482086,1.7513082027435303,76.75318145751953,0.5115069189561383,2.0521810307887596,-94.53464178807612,-9.311091,6.472834,8.151658,26.34995,-17.605124,-5.3605676,-13.360628,-8.219433,-5.278708,29.492622,-18.531015,5.958611,-2.4605606,-1.5197413,13.880985,5.0369573,20.411064,-34.548714,51.219444,4.2894998,1.3602935,9.261247,-2.7016988,-17.06412,36.8025,53.566544,-1.5079033,4.9336085,-14.460823
85,0.4788886308670044,1.7115453481674194,76.73088073730469,0.5253805225809801,1.9885520832971018,-94.57291592901959,-9.2268915,6.459982,8.180523,26.438248,-17.767504,-5.37294,-13.33053,-8.237753,-5.2283125,29.64419,-18.687044,5.9517765,-2.431216,-1.5297769,13.875898,5.076603,20.410929,-34.5402,51.22078,4.313639,1.3634146,9.263882,-2.6703777,-17.06368,36.810673,53.568577,-1.4460033,4.9513607,-14.504
86,0.4894622266292572,1.6652960777282715,76.71012115478516,0.5272913613055981,1.9242480197115115,-94.6075603471922,-9.14977,6.457957,8.195036,26.545029,-17.937674,-5.3927493,-13.2824745,-8.24184,-5.1852345,29.767311,-18.826967,5.945615,-2.4196906,-1.5288757,13.864937,5.139231,20.408888,-34.510838,51.21371,4.3615456,1.3784039,9.258979,-2.6308858,-17.06272,36.81357,53.55587,-1.4057732,4.9799495,-14.53034
87,0.49880561232566833,1.6178030967712402,76.6911849975586,0.5204240369065488,1.8512108629493431,-94.633676320246,-9.07123,6.4642615,8.197208,26.672182,-18.116678,-5.4122386,-13.208769,-8.238633,-5.1535897,29.87096,-18.958967,5.9416366,-2.419555,-1.519777,13.8623295,5.21034,20.402807,-34.46733,51.205555,4.4129944,1.3973323,9.2549515,-2.5866559,-17.061031,36.800243,53.532413,-1.3833946,5.007854,-14.540987
88,0.5042904615402222,1.5713231563568115,76.67607879638672,0.5074005343918669,1.7618327437314512,-94.64639075173625,-8.984325,6.4763126,8.189405,26.82363,-18.306301,-5.423624,-13.10443,-8.234641,-5.136839,29.966736,-19.092325,5.9412255,-2.426679,-1.5069288,13.871471,5.2871575,20.394426,-34.424526,51.20009,4.4392185,1.4132886,9.264447,-2.5276477,-17.059328,36.776974,53.494488,-1.3647507,5.0251093,-14.544242
89,0.5172973275184631,1.5081348419189453,76.65257263183594,0.4893696612250412,1.6492425563826534,-94.63979244536593,-8.881658,6.491311,8.168661,26.999537,-18.507761,-5.4251647,-12.95819,-8.233383,-5.139231,30.053757,-19.229738,5.944332,-2.4511435,-1.4916885,13.898091,5.378084,20.382004,-34.36762,51.194263,4.441887,1.4247879,9.296365,-2.454163,-17.05776,36.746735,53.446156,-1.36041,5.0241466,-14.5352
90,0.5338269472122192,1.4409693479537964,76.6313705444336,0.4644264087632825,1.5191538121680004,-94.6180362984016,-8.768174,6.5111794,8.1352625,27.197163,-18.719326,-5.420782,-12.776336,-8.230496,-5.157695,30.127327,-19.366232,5.950365,-2.49142,-1.4714663,13.937061,5.4822555,20.364992,-34.29708,51.187717,4.4312243,1.4356257,9.343182,-2.3677862,-17.056326,36.708706,53.38589,-1.3706738,5.0122724,-14.513183
91,0.5450436472892761,1.3797173500061035,76.61797332763672,0.43177329482904697,1.3826288335646693,-94.59117639094207,-8.656435,6.540252,8.095514,27.417084,-18.939379,-5.411369,-12.577805,-8.221685,-5.185434,30.191032,-19.498425,5.9599905,-2.5376995,-1.4460901,13.981444,5.592762,20.346537,-34.226204,51.179634,4.4052835,1.4457952,9.3881235,-2.2767804,-17.055334,36.6665,53.310654,-1.3725185,5.0010157,-14.487908
92,0.5532987713813782,1.3179879188537598,76.5983657836914,0.3904575130248012,1.250702747731295,-94.56964302040899,-8.557796,6.583181,8.05601,27.658195,-19.165524,-5.3977375,-12.380044,-8.202389,-5.215918,30.246439,-19.621775,5.9737635,-2.5852625,-1.4130286,14.024608,5.6973877,20.316002,-34.15833,51.181,4.369997,1.454124,9.414015,-2.1930263,-17.055935,36.62744,53.22025,-1.3427005,5.0020437,-14.467783
93,0.5601978302001953,1.2546995878219604,76.574462890625,0.33579824139415,1.1216557501914772,-94.55440774678002,-8.47376,6.647529,8.015643,27.926529,-19.399225,-5.3805175,-12.177182,-8.165784,-5.2529206,30.2842,-19.73075,5.993277,-2.6259904,-1.3720001,14.068066,5.8054585,20.296352,-34.11177,51.17051,4.3122625,1.465244,9.416091,-2.109717,-17.05678,36.584045,53.099747,-1.2490194,5.023903,-14.46092
94,0.5697634816169739,1.1861735582351685,76.54911804199219,0.26927603207071177,0.9910401464761507,-94.54050050418226,-8.398719,6.7287607,7.971835,28.22102,-19.641428,-5.359129,-11.963064,-8.11546,-5.2982383,30.305746,-19.828703,6.01765,-2.6686711,-1.3210015,14.114916,5.910137,20.266924,-34.068645,51.167534,4.2439737,1.476764,9.403027,-2.0264933,-17.06111,36.53484,52.955585,-1.1158355,5.0588155,-14.458743
95,0.5816354155540466,1.1163427829742432,76.52327728271484,0.2011485843813812,0.8663065291396927,-94.52919861215284,-8.332564,6.8116302,7.9294605,28.526112,-19.886639,-5.332657,-11.757195,-8.064098,-5.3416886,30.334,-19.927296,6.0437555,-2.7078369,-1.2701865,14.160434,6.017457,20.243029,-34.033195,51.155834,4.1587353,1.4842027,9.379763,-1.9432092,-17.066067,36.4877,52.802135,-0.993574,5.0929093,-14.453334
96,0.5991709232330322,1.0374586582183838,76.49626159667969,0.14127075660808908,0.7547843941420099,-94.52154650208199,-8.274779,6.8816304,7.8934298,28.825945,-20.129435,-5.300184,-11.579224,-8.024103,-5.3732686,30.391052,-20.037827,6.0685425,-2.7408686,-1.2262913,14.2000265,6.121831,20.219671,-33.99891,51.13973,4.061938,1.4815737,9.350641,-1.8623395,-17.072693,36.446182,52.656067,-0.93938786,5.112615,-14.434231
97,0.6164010763168335,0.9607250690460205,76.46752166748047,0.0939076471655754,0.6565522799982758,-94.51696400460432,-8.225386,6.932728,7.8639183,29.120735,-20.370811,-5.2605104,-11.435099,-8.002244,-5.389774,30.490284,-20.166336,6.0904665,-2.7693205,-1.1925447,14.233076,6.2268577,20.198204,-33.964935,51.11264,3.9501004,1.464905,9.307393,-1.7821243,-17.07985,36.410866,52.521194,-0.99116135,5.110335,-14.397435
98,0.64101642370224,0.8753347992897034,76.43763732910156,0.053127439908995024,0.5683126460975675,-94.51519846664775,-8.184698,6.9738216,7.838503,29.417542,-20.612988,-5.21441,-11.313903,-7.9910007,-5.396915,30.616896,-20.305721,6.1114016,-2.795135,-1.1645324,14.261634,6.333051,20.177376,-33.93181,51.077774,3.8238525,1.4379083,9.250651,-1.7034159,-17.087875,36.3802,52.390087,-1.112083,5.0946527,-14.348748
99,0.6648580431938171,0.7841203212738037,76.40444946289062,0.014111450300478065,0.4924067703283258,-94.51784726773234,-8.153682,7.0122757,7.8176804,29.712591,-20.853176,-5.163837,-11.210683,-7.981989,-5.3973684,30.752586,-20.447933,6.1335955,-2.8143382,-1.139205,14.285486,6.436655,20.160065,-33.901253,51.040707,3.6889129,1.407655,9.198492,-1.6300524,-17.095215,36.356148,52.261703,-1.2433912,5.075498,-14.29352
100,0.6834374070167542,0.6991324424743652,76.37075805664062,-0.028645991781199087,0.431065431649677,-94.52659963823757,-8.136499,7.056702,7.801725,30.008995,-21.092016,-5.110813,-11.119246,-7.9668417,-5.39427,30.877993,-20.584476,6.1593914,-2.8249958,-1.1125507,14.304714,6.5248194,20.137945,-33.868732,51.02389,3.557279,1.3781888,9.167915,-1.5633684,-17.107288,36.340393,52.12898,-1.3281633,5.0643754,-14.235445
101,0.705083429813385,0.6151787638664246,76.33850860595703,-0.07796813789179778,0.3902597856236923,-94.53868155109858,-8.142632,7.1098323,7.786592,30.309713,-21.32612,-5.050047,-11.040936,-7.941882,-5.3923197,30.983074,-20.709808,6.18927,-2.8267689,-1.079954,14.310568,6.5956073,20.112122,-33.841652,51.029972,3.4130073,1.3480345,9.163574,-1.5031974,-17.125462,36.337273,51.99438,-1.3328148,5.0595484,-14.166928
102,0.7314268946647644,0.5203958749771118,76.30816650390625,-0.1304378042319294,0.36698197644448394,-94.55429035037409,-8.167852,7.1670775,7.773447,30.614262,-21.557178,-4.9823685,-10.979424,-7.9126177,-5.388302,31.082867,-20.831087,6.222128,-2.8156505,-1.0503953,14.306131,6.6610756,20.10201,-33.82397,51.036224,3.2520342,1.3163736,9.174827,-1.4533404,-17.133495,36.337765,51.8707,-1.2988126,5.055687,-14.089497
103,0.7609032988548279,0.42292457818984985,76.27774810791016,-0.18173665095039507,0.3502170375877791,-94.57967414991461,-8.190901,7.224263,7.7709055,30.908796,-21.788216,-4.919033,-10.927406,-7.8823795,-5.3744016,31.184122,-20.953247,6.257478,-2.802562,-1.0214012,14.308146,6.7236934,20.082132,-33.792583,51.047512,3.113225,1.2889901,9.202076,-1.4092718,-17.154076,36.351906,51.73442,-1.2610173,5.060906,-14.020211
104,0.7845075130462646,0.32381999492645264,76.24027252197266,-0.226782075734894,0.3289362643354505,-94.62147000829782,-8.19075,7.276962,7.7880297,31.180342,-22.02238,-4.871276,-10.88109,-7.855804,-5.3418856,31.300125,-21.084896,6.2949004,-2.7747738,-1.0022267,14.329968,6.7919827,20.067759,-33.758316,51.043766,3.0148787,1.2755057,9.245953,-1.3757507,-17.169409,36.364536,51.597126,-1.2654467,5.0789895,-13.979363
105,0.8102014660835266,0.23377950489521027,76.20175170898438,-0.265694532862414,0.29933685335239024,-94.68657472839922,-8.156973,7.3276057,7.832181,31.421047,-22.261833,-4.848451,-10.8383665,-7.830183,-5.285514,31.430756,-21.225983,6.335262,-2.7433782,-0.9898138,14.379381,6.8717375,20.042976,-33.701447,51.02808,2.979713,1.2790176,9.325497,-1.3526982,-17.195736,36.387844,51.43967,-1.3353845,5.1235805,-13.973725
106,0.8437118530273438,0.13258159160614014,76.16606140136719,-0.30031533375670166,0.26760137379008453,-94.76983481364276,-8.102397,7.3772717,7.8973613,31.639568,-22.504408,-4.8425174,-10.802239,-7.804861,-5.2106185,31.571693,-21.373621,6.3784933,-2.6947563,-0.98601246,14.445755,6.954235,20.02252,-33.645027,51.002846,2.981808,1.2961193,9.434857,-1.3409425,-17.21542,36.40664,51.281895,-1.450352,5.1860085,-13.993123
107,0.8804009556770325,0.02856215089559555,76.13090515136719,-0.3290222108752209,0.2375949377158257,-94.85905618654489,-8.040865,7.4197526,7.971405,31.847528,-22.74733,-4.838531,-10.773796,-7.7856545,-5.1259093,31.723742,-21.528557,6.422684,-2.6401353,-0.98954535,14.522166,7.0372295,20.0029,-33.579704,50.97143,3.0075436,1.3192208,9.534553,-1.3396318,-17.233076,36.434635,51.128986,-1.5616239,5.245919,-14.028459
108,0.9094253182411194,-0.07686138153076172,76.09811401367188,-0.35062680340870217,0.21323781080598117,-94.9420630143371,-7.9860573,7.4491587,8.041917,32.055687,-22.987343,-4.821579,-10.75405,-7.778363,-5.0399523,31.887901,-21.691525,6.4659357,-2.598378,-0.9978432,14.601159,7.1188297,19.97161,-33.486794,50.942757,3.0472283,1.3401419,9.585437,-1.3533975,-17.263348,36.49829,50.98707,-1.6148534,5.283304,-14.071186
109,0.9474164843559265,-0.18334800004959106,76.05608367919922,-0.3608108766984735,0.18890376583468232,-95.018299286165,-7.930254,7.460003,8.1096525,32.26156,-23.222448,-4.7873225,-10.739031,-7.7874055,-4.948914,32.070385,-21.86647,6.5065036,-2.547083,-1.0170857,14.687341,7.191528,19.942879,-33.381588,50.912796,3.110188,1.3641803,9.555777,-1.3780804,-17.294792,36.590015,50.869827,-1.5808032,5.28054,-14.134085
110,0.9865783452987671,-0.2935521900653839,76.01815032958984,-0.36186850958366595,0.16473564056339265,-95.09331569139604,-7.8704915,7.4568686,8.17982,32.462334,-23.455545,-4.743838,-10.729487,-7.8087993,-4.850218,32.268066,-22.051338,6.5458064,-2.4913723,-1.0471033,14.783013,7.265132,19.917818,-33.258305,50.87352,3.2005253,1.3931085,9.4727545,-1.4172493,-17.326643,36.70891,50.770718,-1.4908494,5.2525506,-14.216981
111,1.018928050994873,-0.3971771001815796,75.98072814941406,-0.36037830496117185,0.15346973540563233,-95.16404538332209,-7.8252783,7.44785,8.246638,32.663765,-23.68778,-4.694788,-10.733689,-7.836863,-4.753957,32.469685,-22.239126,6.58679,-2.428389,-1.0817628,14.875369,7.3312154,19.90352,-33.150635,50.829906,3.2681508,1.4170678,9.38909,-1.4603738,-17.34832,36.809025,50.677578,-1.4107587,5.223869,-14.290847
112,1.0609629154205322,-0.51176518201828,75.94371032714844,-0.3638504393595757,0.16781676986865954,-95.22729591199072,-7.815516,7.4414873,8.3041725,32.876877,-23.923012,-4.643729,-10.760033,-7.8647285,-4.670702,32.663845,-22.42264,6.6321716,-2.3946726,-1.1130753,14.953723,7.408909,19.892107,-33.041286,50.77396,3.2795143,1.4248719,9.354767,-1.5101608,-17.370163,36.893402,50.567116,-1.3897673,5.221808,-14.327912
113,1.1051067113876343,-0.6229727268218994,75.90470123291016,-0.3724473373308217,0.21690012275023143,-95.27955820949697,-7.854846,7.4373217,8.3483515,33.105965,-24.162634,-4.590991,-10.8171835,-7.8937864,-4.6050158,32.848976,-22.60157,6.6851416,-2.379122,-1.1396697,15.007129,7.4836884,19.887564,-32.962334,50.717026,3.175769,1.404033,9.404207,-1.5573201,-17.385975,36.930676,50.441185,-1.4632118,5.259382,-14.314934
114,1.1448109149932861,-0.7369495034217834,75.86627197265625,-0.383244319681226,0.2920333141553884,-95.32341101237593,-7.9295335,7.4314647,8.383153,33.345127,-24.40464,-4.534794,-10.898316,-7.926015,-4.5510073,33.030125,-22.778976,6.7433224,-2.3729382,-1.1651111,15.043488,7.5533614,19.88879,-32.9069,50.66014,2.992798,1.3633358,9.503965,-1.6043382,-17.394646,36.934464,50.30933,-1.5968142,5.3203425,-14.269028
115,1.1869603395462036,-0.8574770092964172,75.82568359375,-0.3976109506880194,0.3791770476109998,-95.3645909523454,-8.018093,7.4278045,8.415037,33.586357,-24.646177,-4.475675,-10.987655,-7.957072,-4.502873,33.20478,-22.952394,6.8016367,-2.3676317,-1.1877557,15.076754,7.616147,19.892117,-32.86569,50.603786,2.8171778,1.3248167,9.606434,-1.6502585,-17.398277,36.918224,50.163364,-1.7487988,5.386032,-14.206695
116,1.2330268621444702,-0.9830835461616516,75.77861785888672,-0.41705220791489156,0.464206548445676,-95.40849369042188,-8.098368,7.429827,8.4506235,33.821068,-24.884233,-4.414227,-11.0679,-7.9825706,-4.455052,33.367214,-23.11752,6.854837,-2.3594108,-1.2093333,15.130851,7.684609,19.903893,-32.805393,50.523552,2.7493076,1.3116722,9.657794,-1.6963533,-17.40289,36.884872,49.98541,-1.8900595,5.437804,-14.138291
117,1.2856576442718506,-1.1060878038406372,75.74005126953125,-0.4424545505403204,0.5461746221796642,-95.46118853978706,-8.170491,7.441564,8.495732,34.05372,-25.120033,-4.3475723,-11.145079,-7.9990892,-4.4012394,33.52544,-23.273645,6.897674,-2.3344626,-1.2277367,15.200892,7.745765,19.920662,-32.749325,50.43345,2.8295467,1.3406844,9.632667,-1.727578,-17.404945,36.814816,49.760166,-2.0242107,5.4719706,-14.053825
118,1.3306688070297241,-1.2220546007156372,75.7005844116211,-0.47268928927574116,0.631577807230033,-95.51816399530811,-8.242533,7.459751,8.545997,34.283577,-25.352592,-4.276442,-11.223164,-8.010025,-4.3460817,33.67541,-23.420649,6.934229,-2.2966928,-1.2438449,15.282164,7.8006,19.945662,-32.69982,50.331436,3.004278,1.3962406,9.560849,-1.7463843,-17.404129,36.70357,49.494976,-2.1686392,5.4976983,-13.949161
119,1.3757332563400269,-1.3523976802825928,75.66104888916016,-0.5072077786838411,0.7179565101898403,-95.56944868520375,-8.311028,7.4782524,8.590614,34.5057,-25.58292,-4.2067018,-11.289738,-8.020701,-4.2994423,33.81017,-23.56407,6.9731913,-2.2526395,-1.2567524,15.373546,7.850117,19.979483,-32.66147,50.222775,3.1910803,1.4529924,9.4887905,-1.7694161,-17.401527,36.59722,49.228153,-2.2899883,5.5164723,-13.85995
120,1.4322872161865234,-1.4879177808761597,75.62450408935547,-0.5452687885283661,0.8028898017478754,-95.6049819871392,-8.372998,7.490827,8.619112,34.716644,-25.812387,-4.1442375,-11.3310995,-8.036497,-4.2715273,33.91903,-23.707327,7.0232434,-2.2174053,-1.2623862,15.471428,7.8889494,20.004856,-32.63084,50.13021,3.3120928,1.4842931,9.464225,-1.8167915,-17.400011,36.553276,49.000744,-2.3491855,5.5302963,-13.822957
121,1.4954769611358643,-1.6314040422439575,75.59451293945312,-0.5874859350844499,0.8784100849561464,-95.6221053080509,-8.4169445,7.4956636,8.628778,34.91062,-26.041475,-4.09349,-11.333736,-8.059254,-4.2665725,33.997852,-23.85388,7.0885115,-2.1965923,-1.2681594,15.594215,7.952878,20.062908,-32.597527,49.994736,3.3223133,1.4793171,9.506307,-1.899315,-17.402164,36.592876,48.81774,-2.315547,5.538455,-13.858578
122,1.553295612335205,-1.787171483039856,75.55358123779297,-0.6342539755735059,0.9483228175094813,-95.62603335255086,-8.449085,7.496805,8.624742,35.092842,-26.270418,-4.0504394,-11.307242,-8.085544,-4.279106,34.050316,-23.999619,7.163735,-2.177414,-1.2622719,15.726757,7.986462,20.098204,-32.582863,49.899117,3.27392,1.4490087,9.594102,-2.0024567,-17.406874,36.682613,48.67166,-2.214014,5.5402956,-13.944853
123,1.6139885187149048,-1.9340065717697144,75.51143646240234,-0.6833366736053693,1.027688414867932,-95.61929574497185,-8.488419,7.4941115,8.61026,35.26825,-26.495693,-4.0080605,-11.276893,-8.114809,-4.3031936,34.088108,-24.142878,7.243632,-2.1816943,-1.2613682,15.86464,8.06516,20.165302,-32.536613,49.742805,3.2304971,1.4194775,9.684242,-2.1208954,-17.417957,36.82044,48.52151,-2.0949612,5.5392675,-14.050029
124,1.6685572862625122,-2.063880681991577,75.48352813720703,-0.7330266266537528,1.1312785830028698,-95.60421383171047,-8.554618,7.4884634,8.587798,35.44371,-26.71531,-3.9593682,-11.265996,-8.145809,-4.3332124,34.119312,-24.279491,7.3230124,-2.1760921,-1.2569447,15.9855,8.137172,20.229187,-32.493298,49.585888,3.2514272,1.4114991,9.7487955,-2.2193682,-17.428644,36.930363,48.345028,-2.0345266,5.5378466,-14.13768
125,1.7220960855484009,-2.208747625350952,75.4494400024414,-0.7829188959800915,1.2664599369517064,-95.57680684852129,-8.660597,7.478687,8.552914,35.624554,-26.92734,-3.9023392,-11.284591,-8.1795845,-4.3713036,34.14815,-24.40959,7.4006276,-2.1671007,-1.2490675,16.080828,8.200851,20.284567,-32.45144,49.43723,3.3620572,1.4332207,9.777901,-2.3006377,-17.436705,37.024246,48.14498,-2.03745,5.5390954,-14.214813
126,1.7905666828155518,-2.382171630859375,75.41737365722656,-0.8338744773126724,1.424221801021169,-95.53739559486493,-8.7935705,7.464617,8.506065,35.806416,-27.133747,-3.8407516,-11.3182535,-8.21649,-4.419233,34.168613,-24.534334,7.4792523,-2.164418,-1.2427853,16.163979,8.279642,20.353498,-32.399033,49.26368,3.52579,1.4730617,9.786673,-2.3796585,-17.444904,37.12783,47.931194,-2.0703568,5.5407224,-14.294859
127,1.8410652875900269,-2.5242083072662354,75.38774871826172,-0.8859066829250786,1.5947539349348936,-95.49481952449688,-8.934123,7.448454,8.456864,35.980152,-27.336561,-3.7761536,-11.356452,-8.254011,-4.4707227,34.17756,-24.6536,7.559671,-2.1542768,-1.2327023,16.241047,8.359614,20.41907,-32.34032,49.08152,3.7172832,1.5205921,9.787228,-2.4462712,-17.450315,37.206707,47.700027,-2.1432464,5.5381613,-14.353932
128,1.9226746559143066,-2.7128190994262695,75.35175323486328,-0.9390430035155304,1.7683527648247166,-95.4576195480708,-9.063443,7.4324913,8.414993,36.13742,-27.538488,-3.7100675,-11.3876295,-8.290144,-4.519565,34.17062,-24.766556,7.6426706,-2.133555,-1.2185057,16.321512,8.449461,20.481379,-32.264545,48.877285,3.9106724,1.5664399,9.788657,-2.4978085,-17.452806,37.240753,47.44545,-2.2618723,5.526909,-14.369266
129,1.9819918870925903,-2.8952534198760986,75.31865692138672,-0.996431102767397,1.93445151392265,-95.42978888177171,-9.168468,7.4216585,8.384081,36.27601,-27.739355,-3.6427808,-11.398924,-8.319981,-4.5640707,34.14017,-24.867725,7.7280684,-2.0999188,-1.1973761,16.419336,8.547176,20.539568,-32.16592,48.655033,4.1096377,1.6089512,9.788341,-2.5278218,-17.45241,37.2022,47.155083,-2.4653044,5.4892616,-14.314884
130,2.0526626110076904,-3.0680840015411377,75.28990936279297,-1.0572345613883989,2.100860586342978,-95.40612526881314,-9.26169,7.4131455,8.358659,36.39999,-27.938007,-3.5734093,-11.399179,-8.345834,-4.6076665,34.089985,-24.95908,7.815383,-2.0550637,-1.1667913,16.522652,8.636839,20.578918,-32.05571,48.439598,4.325575,1.6519272,9.785329,-2.539609,-17.45007,37.109562,46.839626,-2.7372954,5.4327645,-14.210187
131,2.132819175720215,-3.2525432109832764,75.26435089111328,-1.1148370253619706,2.2854560587783497,-95.38176332244832,-9.363629,7.398054,8.334611,36.51116,-28.135223,-3.5021784,-11.411569,-8.377351,-4.6513333,34.03493,-25.05205,7.9052367,-2.0033543,-1.1391411,16.613003,8.750887,20.630875,-31.932085,48.17765,4.5410485,1.697213,9.783088,-2.5449808,-17.445778,37.01008,46.512558,-3.0023015,5.390722,-14.09826
132,2.204329013824463,-3.4458723068237305,75.2364730834961,-1.1629941792749396,2.5060342923715617,-95.35190829603887,-9.494924,7.367349,8.307834,36.61192,-28.332058,-3.429195,-11.459449,-8.423512,-4.6961465,33.990036,-25.158134,7.9981837,-1.9470997,-1.1180664,16.6628,8.888981,20.688877,-31.808008,47.869778,4.739682,1.7445095,9.791802,-2.5568209,-17.439579,36.953476,46.201046,-3.1824052,5.3973765,-14.023784
133,2.281137466430664,-3.6599371433258057,75.20311737060547,-1.1997726569948308,2.779862350477324,-95.31683315927985,-9.673588,7.3189197,8.27821,36.701912,-28.529613,-3.354813,-11.562652,-8.486174,-4.740649,33.9593,-25.280092,8.094902,-1.8874398,-1.104838,16.649342,9.055775,20.750685,-31.68239,47.519657,4.900175,1.7934979,9.816539,-2.5836933,-17.430914,36.96933,45.91522,-3.2316082,5.485816,-14.006485
134,2.363349199295044,-3.886693239212036,75.17855834960938,-1.2287228204355338,3.0932079933653873,-95.27872379798322,-9.8842325,7.257276,8.247786,36.780067,-28.727068,-3.2788944,-11.704501,-8.560332,-4.7849207,33.934772,-25.411915,8.1950445,-1.8250611,-1.0974066,16.591759,9.250313,20.817476,-31.548069,47.127422,5.0374703,1.8442914,9.851404,-2.6197786,-17.418407,37.02975,45.642303,-3.1977332,5.630063,-14.020627
135,2.4327073097229004,-4.101534366607666,75.14324188232422,-1.251032924188476,3.41743036718731,-95.23478066366371,-10.09735,7.1838226,8.215501,36.847046,-28.92225,-3.2009456,-11.851597,-8.645557,-4.832504,33.91238,-25.5507,8.297857,-1.7614241,-1.0951345,16.526567,9.465139,20.889719,-31.405226,46.685776,5.191685,1.8975611,9.889112,-2.6539767,-17.40258,37.09295,45.374397,-3.149845,5.776032,-14.040903
136,2.4976532459259033,-4.3198466300964355,75.09727478027344,-1.2680929327630563,3.7239884389436475,-95.18244736924193,-10.28268,7.0999985,8.180394,36.901997,-29.112665,-3.1204255,-11.97094,-8.741585,-4.886715,33.88787,-25.693714,8.4026375,-1.6968224,-1.0970312,16.490213,9.691527,20.967056,-31.254822,46.18806,5.403547,1.9540987,9.922397,-2.6759286,-17.38603,37.11746,45.1026,-3.1549013,5.869655,-14.041574
137,2.5753707885742188,-4.547741413116455,75.06377410888672,-1.281116056211757,4.006791476473592,-95.12214371901437,-10.433021,7.0067797,8.143307,36.94053,-29.294666,-3.0374277,-12.051978,-8.847223,-4.948488,33.849903,-25.83326,8.511558,-1.6324205,-1.1010033,16.494343,9.931741,21.048712,-31.094278,45.626373,5.7098413,2.017972,9.94013,-2.6779718,-17.371204,37.08237,44.819065,-3.2443974,5.88927,-14.010125
138,2.6539406776428223,-4.777791500091553,75.03317260742188,-1.2891541689939545,4.280567796786329,-95.05482332909452,-10.5634365,6.9031425,8.104492,36.963337,-29.469969,-2.952155,-12.112414,-8.963102,-5.016082,33.803535,-25.973188,8.62412,-1.5654172,-1.1073849,16.519257,10.186531,21.134861,-30.926815,45.007282,6.079553,2.087573,9.949294,-2.6645174,-17.359873,37.010395,44.52672,-3.3784628,5.8661103,-13.961847
139,2.732222557067871,-5.01415491104126,75.00123596191406,-1.2902319716723807,4.548055483185468,-94.97854713126758,-10.680728,6.788332,8.061416,36.98243,-29.64666,-2.8642652,-12.162857,-9.091255,-5.08909,33.77076,-26.127901,8.735446,-1.4909997,-1.1175596,16.554983,10.446401,21.226627,-30.761585,44.34496,6.451976,2.1547894,9.969407,-2.6401453,-17.35285,36.92451,44.228138,-3.5166004,5.825856,-13.911872
140,2.816905975341797,-5.2675089836120605,74.95604705810547,-1.282399083724964,4.8119311193743926,-94.89131240764743,-10.791226,6.6615534,8.011627,37.008015,-29.831224,-2.7733462,-12.211517,-9.233882,-5.1675577,33.76935,-26.309647,8.840969,-1.4041438,-1.1333759,16.59185,10.701642,21.32562,-30.60795,43.65292,6.7658195,2.2117724,10.020371,-2.6086195,-17.350283,36.84689,43.926586,-3.6203518,5.7942348,-13.875439
141,2.9017937183380127,-5.533718585968018,74.9059829711914,-1.269750717140555,5.071781294467059,-94.79808524191525,-10.895066,6.5294113,7.9579015,37.042805,-30.025663,-2.6781664,-12.259995,-9.383295,-5.247333,33.797203,-26.51917,8.932132,-1.2951838,-1.151609,16.630983,10.948431,21.4337,-30.4702,42.93625,6.980561,2.246079,10.127883,-2.5791326,-17.352736,36.79005,43.630913,-3.6608522,5.766196,-13.855389
142,2.9747872352600098,-5.798730850219727,74.86605834960938,-1.2516832842354975,5.326535477511051,-94.69803451469134,-10.989311,6.3899517,7.900405,37.080784,-30.226297,-2.5791924,-12.304361,-9.541321,-5.329738,33.84751,-26.750862,9.014169,-1.1702275,-1.1728543,16.676888,11.194169,21.551266,-30.341656,42.184147,7.136366,2.265762,10.274542,-2.54652,-17.360363,36.739853,43.335934,-3.6661315,5.7321033,-13.843835
143,3.0521600246429443,-6.057450294494629,74.81414031982422,-1.2194923430706726,5.57784172550401,-94.58037911753448,-11.074524,6.2297535,7.832652,37.119175,-30.43044,-2.4790406,-12.344236,-9.723401,-5.4232707,33.9286,-27.005688,9.103274,-1.0471022,-1.2042844,16.724009,11.446346,21.677563,-30.215117,41.38795,7.2944813,2.29353,10.4156475,-2.4975803,-17.3728,36.682663,43.02717,-3.676257,5.7105637,-13.840438
144,3.1308181285858154,-6.330653190612793,74.75200653076172,-1.1644990769086887,5.827249328720498,-94.4341251094639,-11.152961,6.0356774,7.748116,37.158142,-30.637846,-2.3803544,-12.382022,-9.945469,-5.5360603,34.054245,-27.287567,9.215273,-0.9439798,-1.2536957,16.766151,11.711551,21.811018,-30.083282,40.539948,7.5158696,2.3522985,10.506377,-2.4198341,-17.389977,36.60387,42.692184,-3.7338216,5.7202044,-13.844754
145,3.2138354778289795,-6.638517379760742,74.68029022216797,-1.0887077967999161,6.078850340689235,-94.25537358342424,-11.224843,5.807939,7.643012,37.189552,-30.850798,-2.277917,-12.408561,-10.208977,-5.6776257,34.202057,-27.59777,9.355333,-0.8650801,-1.3177029,16.796036,11.995869,21.95144,-29.951468,39.63824,7.861603,2.4573693,10.524769,-2.3087485,-17.410606,36.496483,42.326965,-3.8832197,5.7927217,-13.842856
146,3.293599843978882,-6.939657211303711,74.61273956298828,-0.9947606471468128,6.330301936443611,-94.04995681397483,-11.28912,5.5524673,7.521385,37.216892,-31.069305,-2.1722775,-12.426579,-10.50661,-5.841376,34.375336,-27.935097,9.514643,-0.80044836,-1.3942381,16.818447,12.29373,22.099236,-29.821852,38.687748,8.284439,2.593068,10.497442,-2.1719851,-17.434744,36.36849,41.940117,-4.091536,5.9092956,-13.839385
147,3.372529983520508,-7.244229316711426,74.5323715209961,-0.875683147388297,6.573620807635489,-93.82174785248422,-11.343621,5.2637706,7.3887367,37.251286,-31.28457,-2.0744622,-12.451365,-10.841823,-6.011763,34.617477,-28.294409,9.688204,-0.7472203,-1.491829,16.845972,12.594399,22.252975,-29.68285,37.69091,8.683074,2.7358544,10.452985,-2.0141542,-17.464785,36.229294,41.53426,-4.282919,6.01278,-13.861474
148,3.4499871730804443,-7.556326866149902,74.4476547241211,-0.7244427022578674,6.800664375604706,-93.57461446791477,-11.385163,4.9367123,7.2507143,37.30226,-31.486883,-1.9954869,-12.499775,-11.218264,-6.1724124,34.972965,-28.671125,9.870785,-0.70283973,-1.6189849,16.89142,12.886399,22.410133,-29.522522,36.651974,8.956129,2.8624961,10.420814,-1.8403839,-17.505257,36.090084,41.111324,-4.3794227,6.0462804,-13.93713
149,3.525146961212158,-7.875007629394531,74.3514404296875,-0.532304141880632,7.006231868328022,-93.31193683529997,-11.394939,4.559725,7.1155486,37.346024,-31.676445,-1.9420035,-12.557928,-11.643188,-6.3075857,35.414574,-29.077948,10.069047,-0.66337043,-1.7833303,16.958118,13.180921,22.568386,-29.330616,35.560497,9.053361,2.9697328,10.415071,-1.6428163,-17.560043,35.94937,40.66514,-4.3240705,5.976499,-14.100878
150,3.602468252182007,-8.204233169555664,74.25253295898438,-0.30527284563512264,7.195122647549404,-93.03060797240012,-11.379169,4.1392136,6.9777966,37.3839,-31.856035,-1.9069817,-12.62372,-12.114784,-6.428552,35.93021,-29.51136,10.282513,-0.6318526,-1.9774209,17.039677,13.4787035,22.727274,-29.115128,34.419254,9.037318,3.068928,10.418759,-1.4195745,-17.630697,35.803314,40.191624,-4.1695967,5.8397536,-14.328815
151,3.682500123977661,-8.535208702087402,74.14232635498047,-0.05780185688316348,7.374287897111787,-92.72479705401845,-11.377736,3.6967423,6.822819,37.474182,-32.026417,-1.8808148,-12.733383,-12.62417,-6.5570116,36.58959,-29.94262,10.493627,-0.6153457,-2.187123,17.134693,13.751537,22.88703,-28.89201,33.251205,8.975316,3.159524,10.414802,-1.1804427,-17.717648,35.656384,39.694496,-4.005452,5.683379,-14.559899
152,3.765366315841675,-8.883281707763672,74.01983642578125,0.19560620324131664,7.550772936270072,-92.38877852229577,-11.428043,3.2529378,6.6368976,37.67148,-32.186157,-1.853911,-12.922129,-13.164319,-6.7130084,37.463543,-30.344503,10.68302,-0.62090087,-2.3984296,17.2415,13.970828,23.047815,-28.678082,32.079937,8.93435,3.2406964,10.385915,-0.93514353,-17.819733,35.512985,39.177197,-3.9206073,5.5558825,-14.734428
153,3.8436100482940674,-9.221907615661621,73.89801788330078,0.46344530491951574,7.72998197698956,-92.02405426869908,-11.531446,2.7980618,6.427024,37.965614,-32.32966,-1.8205943,-13.182829,-13.7545185,-6.9046745,38.5324,-30.735327,10.859154,-0.6425716,-2.6202753,17.350327,14.136574,23.210281,-28.475546,30.903154,8.918277,3.3089747,10.311873,-0.69249666,-17.938112,35.391247,38.659557,-3.9529061,5.4670935,-14.847562
154,3.9075143337249756,-9.541512489318848,73.77190399169922,0.7501522733477987,7.906280514159846,-91.63243925402007,-11.66971,2.324952,6.1982803,38.33483,-32.459476,-1.787223,-13.502826,-14.397802,-7.1138453,39.77174,-31.121994,11.0212345,-0.67869675,-2.8565638,17.464943,14.261687,23.37417,-28.276695,29.710775,8.895917,3.3658674,10.207015,-0.44438037,-18.072859,35.283356,38.13211,-4.0489383,5.3925877,-14.927656
155,3.975393533706665,-9.888259887695312,73.63407135009766,1.0372984761825983,8.070444614274933,-91.20867675389113,-11.853175,1.8557522,5.935307,38.818676,-32.586033,-1.7618715,-13.905136,-15.063165,-7.318724,41.24116,-31.459126,11.13213,-0.74185777,-3.087722,17.602936,14.333918,23.538292,-28.08393,28.51778,8.88215,3.4183195,10.1063175,-0.17722872,-18.220526,35.15292,37.560818,-4.1646814,5.329929,-14.965061
156,4.050089359283447,-10.216209411621094,73.49474334716797,1.3068522446960344,8.213073392764533,-90.7475376816762,-12.091834,1.4118392,5.623188,39.456123,-32.719513,-1.7528688,-14.410577,-15.718254,-7.4977794,42.998604,-31.701843,11.153427,-0.8433516,-3.294556,17.78141,14.3378725,23.700844,-27.902107,27.342712,8.891215,3.4731588,10.045185,0.12152029,-18.375736,34.96244,36.91409,-4.255521,5.276173,-14.949765
157,4.119540214538574,-10.516165733337402,73.3517074584961,1.5633083260448113,8.33848757005472,-90.22869206735785,-12.425028,0.9775012,5.2365484,40.300514,-32.849606,-1.7628349,-15.029173,-16.377443,-7.6535187,45.08557,-31.834366,11.138468,-0.9935546,-3.4787738,18.001547,14.252144,23.861845,-27.744713,26.205917,8.902618,3.5173361,10.044073,0.4487068,-18.535006,34.692375,36.17648,-4.327945,5.2619677,-14.854288
158,4.179280757904053,-10.838418006896973,73.19625854492188,1.814742197259241,8.44882828412262,-89.66109189066522,-12.832938,0.54393494,4.793351,41.313923,-32.974167,-1.7883561,-15.74455,-17.057703,-7.7869215,47.458412,-31.88384,11.07418,-1.1813468,-3.6506066,18.253952,14.084927,24.021566,-27.610046,25.097958,8.915712,3.5521991,10.081197,0.80060565,-18.697388,34.362316,35.369728,-4.4007316,5.2781234,-14.691907
159,4.221266746520996,-11.171891212463379,73.02547454833984,2.0479320452243037,8.532411924502332,-89.08377191898461,-13.236532,0.1419139,4.3432417,42.396397,-33.115353,-1.8296646,-16.534262,-17.729206,-7.880373,50.04465,-31.87141,10.827806,-1.3881787,-3.8045378,18.540575,13.869951,24.17718,-27.475521,23.989134,8.976422,3.6063247,10.127669,1.1878917,-18.860046,33.995224,34.518387,-4.4481926,5.2620683,-14.514298
160,4.261016845703125,-11.510505676269531,72.85176086425781,2.2489433050749756,8.578507903634973,-88.53616424043437,-13.557543,-0.19716421,3.9353602,43.446354,-33.297333,-1.8877963,-17.37591,-18.358187,-7.920242,52.771114,-31.816803,10.271421,-1.5975859,-3.9344957,18.863043,13.642015,24.324205,-27.316679,22.850677,9.1315565,3.7080746,10.154248,1.6174207,-19.019072,33.61679,33.65089,-4.444141,5.1515946,-14.373743
161,4.316344261169434,-11.808137893676758,72.67391204833984,2.405977659635787,8.577677529074712,-88.01440136758217,-13.783827,-0.46289897,3.5734584,44.45826,-33.533966,-1.970296,-18.273294,-18.934116,-7.9134164,55.696472,-31.689863,9.307103,-1.8195632,-4.028179,19.233738,13.413334,24.457874,-27.112778,21.674643,9.405447,3.8750534,10.142284,2.077504,-19.172928,33.22276,32.77371,-4.426289,4.8865986,-14.244055
162,4.351931571960449,-12.167823791503906,72.49114990234375,2.5285535228965723,8.53862294477677,-87.5024746889734,-13.951921,-0.67766774,3.2369215,45.47328,-33.810448,-2.077192,-19.228872,-19.480198,-7.873916,58.825123,-31.492321,8.02302,-2.062308,-4.0937877,19.646704,13.165043,24.576984,-26.877983,20.480795,9.771723,4.087661,10.109783,2.5632503,-19.320581,32.80781,31.879887,-4.3927946,4.5147796,-14.111257
163,4.365414142608643,-12.549983024597168,72.30098724365234,2.633360780620919,8.477706763934892,-87.02175890130242,-14.058693,-0.8567564,2.9363008,46.460373,-34.0975,-2.19711,-20.213688,-20.00321,-7.8056054,61.992603,-31.29256,6.580945,-2.306431,-4.1536064,20.075037,12.884709,24.68408,-26.642656,19.279728,10.199548,4.320663,10.082604,3.0898275,-19.458263,32.39665,30.983335,-4.260002,4.135311,-14.045139
164,4.3704142570495605,-12.932523727416992,72.11986541748047,2.73691529061329,8.4116004313502,-86.59377423973292,-14.102377,-1.0120125,2.6804585,47.39176,-34.3713,-2.3174007,-21.20341,-20.50147,-7.707511,65.043205,-31.158672,5.1489177,-2.53246,-4.229402,20.491745,12.5619755,24.78362,-26.435747,18.081429,10.657166,4.547401,10.087436,3.6719406,-19.578915,32.014957,30.09777,-3.9444678,3.8469365,-14.114888
165,4.3872857093811035,-13.329103469848633,71.93710327148438,2.8389545812341868,8.322754603704027,-86.22806167719929,-14.0628,-1.1363623,2.4731555,48.276665,-34.637367,-2.440206,-22.176897,-21.006575,-7.6227946,68.02802,-31.102003,3.6135614,-2.7231922,-4.3264065,20.91285,12.204572,24.879824,-26.25203,16.87765,11.151967,4.770188,10.099754,4.3144374,-19.676497,31.680727,29.20751,-3.3792915,3.7236605,-14.324914
166,4.362881660461426,-13.737127304077148,71.74219512939453,2.930850188395581,8.210029260479526,-85.91222893642728,-13.94789,-1.2274934,2.3101704,49.125164,-34.907516,-2.5701652,-23.152216,-21.502771,-7.5417953,71.00302,-31.08624,1.9439541,-2.8939912,-4.4340525,21.343878,11.8209,24.973671,-26.077793,15.661455,11.694837,4.99995,10.115234,5.002918,-19.748453,31.379517,28.32111,-2.6252794,3.6931214,-14.644095
167,4.37809944152832,-14.194917678833008,71.57342529296875,3.0161303002293174,8.11492823408362,-85.63512088305144,-13.798827,-1.2979724,2.1844673,49.90927,-35.156685,-2.6974936,-24.16994,-21.89965,-7.3825746,73.82866,-31.09938,0.44565025,-3.07236,-4.5482674,21.741274,11.400747,25.0643,-25.930159,14.442422,12.259149,5.226848,10.191264,5.721376,-19.793673,31.087744,27.490894,-1.7926323,3.6326828,-15.086495
168,4.380707263946533,-14.629006385803223,71.40283203125,3.0978419096040195,8.079061854366268,-85.3862269347903,-13.660041,-1.3559928,2.086767,50.60776,-35.3668,-2.811217,-25.273815,-22.09067,-7.0661025,76.368805,-31.122797,-0.5614976,-3.2852774,-4.6631007,22.059982,10.928948,25.145851,-25.827538,13.236524,12.818725,5.44212,10.385909,6.45487,-19.81003,30.781336,26.769442,-0.992528,3.4204462,-15.663472
169,4.3750176429748535,-15.075933456420898,71.24087524414062,3.1859224684523597,8.124074577470916,-85.15540148163224,-13.574602,-1.4009519,2.0204778,51.2523,-35.53125,-2.9016833,-26.496126,-21.997728,-6.522101,78.616974,-31.185078,-0.9020584,-3.5377126,-4.7809405,22.281105,10.376233,25.22499,-25.808573,12.071392,13.341577,5.65037,10.778768,7.2094846,-19.793371,30.460224,26.165455,-0.19394793,2.9675741,-16.439875
170,4.361602306365967,-15.553142547607422,71.0932388305664,3.2746619600703553,8.224833933538738,-84.95171578617153,-13.510667,-1.4226578,1.9854418,51.84675,-35.665405,-2.9760084,-27.806898,-21.662416,-5.8257074,80.65082,-31.286608,-0.748854,-3.8161848,-4.9015064,22.427284,9.75676,25.296207,-25.851582,10.9370575,13.849962,5.857196,11.318464,7.982456,-19.73877,30.139963,25.664448,0.6344437,2.3506021,-17.383675
171,4.35263204574585,-16.057878494262695,70.96058654785156,3.3427119656379873,8.35273598365665,-84.79314517327866,-13.402181,-1.4127591,1.9649503,52.329372,-35.771862,-3.0464897,-29.15641,-21.175991,-5.112435,82.45454,-31.366962,-0.31011224,-4.107229,-5.0117006,22.52375,9.119572,25.35454,-25.896563,9.776738,14.391177,6.0557566,11.868711,8.773515,-19.652952,29.798485,25.249428,1.3798853,1.7024628,-18.358704
172,4.344770431518555,-16.57405662536621,70.85063171386719,3.370436025691592,8.478963274185674,-84.69771481984644,-13.182882,-1.3654667,1.9429958,52.639442,-35.854042,-3.1244845,-30.501455,-20.642868,-4.5055594,84.008995,-31.358793,0.19388257,-4.3982964,-5.0992265,22.597412,8.512421,25.393812,-25.883635,8.535715,15.014972,6.237167,12.29215,9.586857,-19.550747,29.413145,24.894682,1.9395809,1.1637374,-19.235113
173,4.329810619354248,-17.12262535095215,70.7619857788086,3.3434773866132823,8.603602559746422,-84.66724543487202,-12.858995,-1.2661506,1.9032643,52.797768,-35.931137,-3.2086275,-31.854506,-20.032324,-3.9861848,85.29764,-31.216679,0.8119247,-4.695955,-5.142423,22.64888,7.91965,25.40981,-25.814007,7.227396,15.787727,6.405613,12.544547,10.44226,-19.437008,28.950584,24.61186,2.2430298,0.761907,-20.02772
174,4.313292980194092,-17.686038970947266,70.69010162353516,3.2756288765606114,8.739015857691545,-84.6930217241101,-12.457983,-1.1201316,1.8570498,52.826683,-35.995033,-3.2924066,-33.232048,-19.317535,-3.5031765,86.33635,-30.994837,1.6222643,-5.004149,-5.1505866,22.668072,7.3193445,25.402124,-25.714516,5.8780007,16.667585,6.561387,12.701091,11.339223,-19.312784,28.430294,24.395105,2.3657365,0.43357834,-20.794132
175,4.315372943878174,-18.27191162109375,70.64095306396484,3.1886774729573895,8.874889858431201,-84.77691237139538,-11.944557,-0.95308805,1.8297994,52.665836,-36.011135,-3.3786416,-34.60623,-18.609694,-3.1184268,87.15158,-30.753775,2.437997,-5.3075466,-5.159029,22.667788,6.754922,25.371086,-25.562216,4.4461045,17.543707,6.6882615,12.803403,12.258101,-19.193361,27.906984,24.18225,2.4320066,0.18489332,-21.471008
176,4.301008701324463,-18.90308952331543,70.61537170410156,3.105892030035677,9.001352717577793,-84.92050694235006,-11.283319,-0.7916018,1.8479699,52.254417,-35.9486,-3.4703631,-35.952984,-18.024904,-2.8879788,87.76884,-30.543938,3.068608,-5.5941486,-5.2040086,22.662668,6.274728,25.318342,-25.32955,2.8820632,18.304617,6.770373,12.893506,13.183935,-19.105116,27.43775,23.900448,2.5688531,0.019217879,-21.993637
177,4.279853343963623,-19.536897659301758,70.62499237060547,3.035120993561594,9.11432264717126,-85.13912774533931,-10.451962,-0.6434738,1.9268326,51.55858,-35.833374,-3.5730035,-37.302853,-17.605612,-2.8063183,88.20189,-30.366278,3.4430392,-5.8544683,-5.2996755,22.665369,5.9066167,25.246338,-24.98734,1.1268665,18.949476,6.795438,12.975096,14.12949,-19.069078,27.042704,23.534603,2.884349,-0.018018084,-22.357716
178,4.252986907958984,-20.18008804321289,70.64921569824219,2.9636056292902806,9.219137926848731,-85.42632066213534,-9.471736,-0.49622864,2.0493853,50.61345,-35.670982,-3.6845489,-38.65954,-17.295692,-2.8410733,88.431984,-30.188665,3.6604207,-6.0992246,-5.4183927,22.667057,5.6079063,25.13596,-24.559286,-0.7661133,19.533207,6.7721214,13.028888,15.11351,-19.085798,26.683216,23.100487,3.293008,0.056671083,-22.59279
179,4.245778560638428,-20.889156341552734,70.71733856201172,2.884925911603733,9.319869277783535,-85.75160154586544,-8.379148,-0.34697294,2.19403,49.471287,-35.394962,-3.7977934,-39.960667,-17.070753,-3.0052114,88.43601,-30.008438,3.7852962,-6.354656,-5.54687,22.657948,5.371671,25.007708,-24.078457,-2.7487223,20.009659,6.719305,13.065611,16.136534,-19.168018,26.34532,22.541594,3.6393867,0.15756391,-22.68669
180,4.222670555114746,-21.629098892211914,70.82650756835938,2.791252854437008,9.420695546445069,-86.08491901557854,-7.207291,-0.1914091,2.339692,48.17719,-34.94207,-3.9060915,-41.142048,-16.90447,-3.3133712,88.18973,-29.82387,3.8839827,-6.642231,-5.668149,22.63014,5.1863837,24.880203,-23.582333,-4.7714562,20.333132,6.6554713,13.094107,17.205584,-19.32562,26.005547,21.79628,3.764693,0.19917776,-22.622746
181,4.186354160308838,-22.396608352661133,70.96493530273438,2.69061814976043,9.512507823221005,-86.443838471464,-5.8983893,-0.04215754,2.5063908,46.63649,-34.31433,-4.0079293,-42.202156,-16.824957,-3.779277,87.68702,-29.637743,3.983379,-6.947966,-5.8012757,22.601427,5.0858135,24.759298,-23.045162,-6.9051366,20.462627,6.5637956,13.10052,18.345697,-19.571589,25.625475,20.816843,3.63494,0.14674616,-22.283422
182,4.136164665222168,-23.17233657836914,71.1328353881836,2.5832219524685156,9.59637462376414,-86.83596880324063,-4.45568,0.09917266,2.6976132,44.857624,-33.538322,-4.110163,-43.164677,-16.835014,-4.3940554,86.93904,-29.450277,4.04534,-7.2652097,-5.9457507,22.575378,5.072175,24.645014,-22.458761,-9.169902,20.425905,6.4419312,13.088285,19.564758,-19.91038,25.220562,19.619905,3.335751,0.049677722,-21.712276
183,4.095248699188232,-23.995853424072266,71.33019256591797,2.4515308151181077,9.6914379601959,-87.21681455492278,-3.007367,0.2589828,2.8702967,43.047295,-32.592224,-4.2176495,-44.00567,-16.86352,-5.1381345,85.9474,-29.255154,4.040725,-7.626752,-6.059352,22.521976,5.0995297,24.552652,-21.883402,-11.450617,20.284336,6.3305154,13.088941,20.836353,-20.332615,24.849712,18.248669,2.8844166,-0.05090076,-21.134695
184,4.054216384887695,-24.84778594970703,71.55233001708984,2.278786080400657,9.81702481344266,-87.54193879390111,-1.6852394,0.46655327,2.9802704,41.418327,-31.454908,-4.3299494,-44.703915,-16.842716,-5.9897566,84.71487,-29.04889,3.9391713,-8.064094,-6.1029353,22.4108,5.1262994,24.507862,-21.378305,-13.637379,20.096148,6.2700677,13.133004,22.123947,-20.817232,24.572096,16.759819,2.294213,-0.113426186,-20.776918
185,3.9757776260375977,-25.753089904785156,71.80986022949219,2.053197872943455,9.976822925371843,-87.7878274931785,-0.4881279,0.74002,3.0060155,39.964123,-30.099323,-4.4331565,-45.24719,-16.813717,-7.0121818,83.243004,-28.861471,3.6451924,-8.603171,-6.068102,22.226902,5.155557,24.533892,-20.960562,-15.738324,19.886799,6.3098483,13.225227,23.41635,-21.35958,24.446466,15.149737,1.4126818,-0.13777445,-20.817913
186,3.9075124263763428,-26.675315856933594,72.07611846923828,1.7871326745194978,10.160873558775643,-87.98357415661948,0.6344918,1.0624646,2.9763367,38.60261,-28.54905,-4.5275517,-45.644375,-16.78752,-8.196239,81.52983,-28.689945,3.20878,-9.220213,-5.9826326,21.993298,5.2305675,24.638119,-20.588413,-17.833368,19.613785,6.4167504,13.351822,24.719805,-21.958277,24.42777,13.407836,0.28032774,-0.13818097,-21.097017
187,3.814091205596924,-27.596176147460938,72.35433959960938,1.4996763319925757,10.3683817385213,-88.16402154712925,1.6282204,1.4147577,2.922753,37.430225,-26.856165,-4.633049,-45.912544,-16.653358,-9.402464,79.56787,-28.474062,2.8149664,-9.870909,-5.8644533,21.734953,5.3694806,24.819378,-20.23547,-19.912355,19.236593,6.5048733,13.515813,26.016596,-22.587523,24.418814,11.592028,-0.80203754,-0.09909503,-21.330568
188,3.7083234786987305,-28.540271759033203,72.65231323242188,1.2109452318525038,10.597690864482603,-88.36291888647882,2.4447052,1.776585,2.873322,36.535976,-25.067434,-4.7706714,-46.07343,-16.307112,-10.484541,77.34074,-28.14944,2.6434205,-10.505876,-5.7338805,21.47224,5.576566,25.071444,-19.884367,-21.945663,18.717386,6.490494,13.718872,27.2848,-23.206469,24.318827,9.776367,-1.540217,-0.016842078,-21.236547
189,3.586902379989624,-29.5128231048584,72.95943450927734,0.9158867540152928,10.87156740622534,-88.5777824265203,3.04092,2.157309,2.8211489,35.94826,-23.143663,-4.949768,-46.138504,-15.732901,-11.463259,74.77635,-27.670362,2.7300959,-11.134168,-5.5889034,21.184792,5.827764,25.397663,-19.544388,-23.903967,18.0182,6.3579664,14.010927,28.507433,-23.782192,24.102957,7.972384,-1.8058467,0.12255656,-20.694828
190,3.457103967666626,-30.477083206176758,73.26789855957031,0.6090975673331063,11.182409824363617,-88.79367731256686,3.4586387,2.5604506,2.7486906,35.611313,-21.072699,-5.1627226,-46.097946,-14.989628,-12.381344,71.892075,-27.07794,2.9741528,-11.763165,-5.427595,20.866745,6.1141872,25.802187,-19.230774,-25.791279,17.170885,6.1478353,14.372435,29.683922,-24.305944,23.820091,6.178647,-1.7869003,0.30999467,-19.87289
191,3.323367118835449,-31.471487045288086,73.56727600097656,0.30885088428890656,11.483415039006568,-89.02531370807604,3.776396,2.9560087,2.6673892,35.489967,-18.941164,-5.404404,-45.94561,-14.089474,-13.121498,68.811264,-26.434742,3.3451312,-12.349289,-5.269656,20.557526,6.4645247,26.272102,-18.92891,-27.625637,16.243423,5.861757,14.699604,30.814442,-24.770613,23.488636,4.447439,-1.6568029,0.50974804,-18.923416
192,3.1902682781219482,-32.49288558959961,73.86515045166016,0.033002189574167486,11.727280576368507,-89.28616296714145,4.070198,3.3142807,2.590508,35.54963,-16.833612,-5.6618967,-45.670597,-13.043257,-13.572058,65.65748,-25.801025,3.813821,-12.84731,-5.132811,20.293945,6.894796,26.783438,-18.630161,-29.412119,15.307403,5.504877,14.8870945,31.897514,-25.173975,23.124268,2.8360186,-1.5884328,0.68155926,-17.997066
193,3.033010482788086,-33.5377082824707,74.13912200927734,-0.22430500601595427,11.919126283468616,-89.5756784210667,4.3369308,3.6498613,2.50601,35.771152,-14.702904,-5.9109545,-45.249016,-11.78146,-13.68162,62.311558,-25.150919,4.4482036,-13.258735,-5.0049343,20.06509,7.3801093,27.321127,-18.337576,-31.112438,14.297876,5.0462775,14.874827,32.963737,-25.505741,22.714062,1.354868,-1.5548514,0.8102769,-17.082514
194,2.8881354331970215,-34.604835510253906,74.39389038085938,-0.466081149914067,12.076335149489402,-89.88461687427065,4.5481205,3.9660077,2.4080524,36.165737,-12.518758,-6.163375,-44.67206,-10.338566,-13.503038,58.737473,-24.4637,5.223471,-13.601046,-4.882589,19.85371,7.8939285,27.881664,-18.063673,-32.702827,13.210943,4.499128,14.719933,33.996746,-25.762045,22.25504,-0.012759275,-1.4911127,0.9201817,-16.117744
195,2.746429920196533,-35.673614501953125,74.62016296386719,-0.671326135211306,12.17207400692524,-90.21385452330445,4.7360225,4.220952,2.321406,36.75002,-10.39082,-6.447652,-43.954994,-8.873189,-13.096047,55.199024,-23.80741,5.9774475,-13.857956,-4.7929726,19.68588,8.453127,28.454542,-17.810068,-34.21457,12.208359,3.9345298,14.497793,34.929676,-25.95647,21.782566,-1.2561257,-1.5087128,1.0211415,-15.175945
196,2.611804246902466,-36.76544189453125,74.80613708496094,-0.821447455803742,12.180699902976174,-90.56594957833934,4.9273114,4.3798265,2.2716136,37.551773,-8.43544,-6.7840366,-43.12899,-7.5300064,-12.534124,51.981094,-23.250227,6.5620475,-14.015717,-4.759779,19.587534,9.0788,29.02502,-17.57382,-35.68087,11.454584,3.418866,14.288405,35.703033,-26.11663,21.331915,-2.3778067,-1.7167889,1.12352,-14.329392
197,2.4782865047454834,-37.83628463745117,74.94679260253906,-0.9142030017598496,12.091991798477384,-90.95003971318323,5.1431355,4.453127,2.2633893,38.574364,-6.645694,-7.158896,-42.186157,-6.2966137,-11.78846,49.07666,-22.807367,6.9516473,-14.072511,-4.7837744,19.567457,9.770447,29.584919,-17.35727,-37.11666,11.044596,2.966403,14.097255,36.32967,-26.264746,20.905563,-3.3804078,-2.1821053,1.2128575,-13.594446
198,2.346989154815674,-38.93775939941406,75.0414047241211,-0.9601301139281965,11.922364948436464,-91.36342365234137,5.358128,4.474197,2.2832994,39.819763,-4.974679,-7.540421,-41.114117,-5.11091,-10.842958,46.3744,-22.444418,7.2307963,-14.039991,-4.847735,19.609728,10.515697,30.130548,-17.157225,-38.496716,10.876292,2.5402966,13.888909,36.842762,-26.408434,20.487263,-4.2805552,-2.8265333,1.2859462,-12.93296
199,2.2118654251098633,-40.05110549926758,75.08419799804688,-0.9669544168958876,11.689257218040648,-91.7941575351104,5.5283575,4.4509387,2.3310645,41.317024,-3.4803748,-7.9255958,-39.955418,-4.0231075,-9.804414,44.015846,-22.148558,7.427442,-13.924354,-4.939392,19.701868,11.320593,30.651432,-16.961279,-39.79314,10.820752,2.1274147,13.68372,37.21049,-26.553215,20.089989,-5.097259,-3.5404797,1.3686868,-12.336285
200,2.084958553314209,-41.164581298828125,75.07225036621094,-0.9433790232867629,11.410927101499748,-92.23113934480544,5.6129436,4.3836308,2.4075403,43.089676,-2.2209117,-8.325424,-38.762604,-3.0778139,-8.782101,42.149548,-21.914793,7.570507,-13.730899,-5.0452843,19.83041,12.187922,31.133718,-16.758465,-40.977173,10.750519,1.715344,13.498493,37.398415,-26.705631,19.726547,-5.8451343,-4.2168956,1.4896053,-11.795242
201,1.9582523107528687,-42.27042770385742,75.00102996826172,-0.8643357899232806,11.071898609416804,-92.69023627903988,5.638021,4.260005,2.588094,45.165195,-1.2093015,-8.786708,-37.47454,-2.2800207,-7.720212,40.74184,-21.659803,7.8168797,-13.447491,-5.1906543,19.998863,13.125064,31.570452,-16.54315,-42.064228,10.702814,1.3034706,13.30842,37.3975,-26.87307,19.399807,-6.531705,-4.900904,1.6804106,-11.298425
202,1.8349028825759888,-43.36305236816406,74.88109588623047,-0.7373548486530552,10.672360832957466,-93.17513459674713,5.6094465,4.109458,2.84775,47.546463,-0.42725125,-9.279129,-36.107227,-1.606667,-6.5929856,39.761303,-21.423248,8.110003,-13.074831,-5.3648224,20.20977,14.119871,31.959194,-16.326899,-43.05045,10.725074,0.8966082,13.111898,37.226486,-27.061005,19.105799,-7.1474786,-5.624312,1.9195046,-10.852525
203,1.7206462621688843,-44.44318389892578,74.69123840332031,-0.6220431299577305,10.25320349202633,-93.65522380986695,5.4597316,3.9720335,3.0401824,50.20773,0.114146665,-9.725836,-34.83656,-1.0463482,-5.561864,39.36093,-21.38481,8.154769,-12.638833,-5.498005,20.44684,15.141323,32.29071,-16.127136,-43.874912,10.705807,0.49162403,12.958607,36.894913,-27.269686,18.848417,-7.6823726,-6.258807,2.1587946,-10.477559
204,1.6122546195983887,-45.522891998291016,74.4684066772461,-0.5770345991190987,9.852867024724448,-94.09682362825157,5.1269975,3.8607812,3.0227544,53.106346,0.4094041,-10.072236,-33.834682,-0.5766534,-4.7921414,39.68433,-21.722418,7.653197,-12.165905,-5.521684,20.69193,16.150503,32.55191,-15.966425,-44.46787,10.536917,0.08599811,12.895094,36.41098,-27.497011,18.628231,-8.123012,-6.6764297,2.3522122,-10.195764
205,1.5146372318267822,-46.60490417480469,74.1844711303711,-0.5772571689680254,9.468972416728656,-94.491915610324,4.604516,3.6752136,2.7632728,56.277878,0.5101664,-10.349066,-33.24331,-0.23613647,-4.337715,41.069214,-22.564445,6.255169,-11.64577,-5.4494452,20.93391,17.12524,32.736633,-15.871602,-44.81414,10.129024,-0.3622938,12.956577,35.806274,-27.73874,18.419193,-8.501158,-6.8040113,2.4870377,-9.9756155
206,1.4092774391174316,-47.67295837402344,73.8656997680664,-0.5938488974931827,9.07932911314032,-94.85142663337163,3.9409091,3.3910332,2.3448565,59.709003,0.40247983,-10.607451,-32.922573,-0.009179242,-4.0965414,43.301773,-23.774149,4.20466,-11.072423,-5.3131366,21.181974,18.068756,32.843727,-15.840836,-44.930687,9.565471,-0.8394426,13.103595,35.07304,-27.99397,18.225115,-8.812431,-6.7242174,2.591759,-9.819261
207,1.3139352798461914,-48.74345779418945,73.50911712646484,-0.6867018336457326,8.693996096149688,-95.1714393353097,3.1515071,3.1269321,1.8005782,63.28863,-0.011048135,-10.834114,-32.630646,0.21920314,-4.0057073,45.71597,-25.137167,2.0963485,-10.480531,-5.0674443,21.445808,18.98618,32.866364,-15.84848,-44.80033,8.997501,-1.2640003,13.2709675,34.15517,-28.267813,18.094193,-8.988316,-6.542173,2.6819234,-9.800402
208,1.2188873291015625,-49.784664154052734,73.13218688964844,-0.9276628562307878,8.32740218843794,-95.45288754401967,2.2450516,3.023852,1.1598969,66.91277,-0.83139366,-11.006784,-32.15031,0.5635618,-4.019198,47.689312,-26.457808,0.5292445,-9.906237,-4.654873,21.730124,19.88733,32.792515,-15.861856,-44.409042,8.573155,-1.5532207,13.395962,32.990547,-28.568125,18.082273,-8.959873,-6.360289,2.7720544,-9.993871
209,1.1324187517166138,-50.82706069946289,72.75112915039062,-1.4182000922105094,7.96871719662407,-95.71850665159914,1.2380654,3.1246154,0.33652696,70.665504,-2.2741437,-11.122587,-31.451094,1.1198549,-4.2012553,49.14137,-27.736368,-0.3155341,-9.347768,-3.983496,22.069092,20.824743,32.601997,-15.83749,-43.820114,8.314213,-1.6699334,13.440946,31.546047,-28.903751,18.200602,-8.707583,-6.1225886,2.8538938,-10.462746
210,1.0538188219070435,-51.869140625,72.36748504638672,-2.0954042343515615,7.6151650969162725,-95.9603056371704,0.13784689,3.313659,-0.63847506,74.56253,-4.228774,-11.211008,-30.655178,1.8101612,-4.5546556,50.39447,-29.065496,-0.76328516,-8.804883,-3.1036885,22.436249,21.783113,32.287632,-15.794111,-43.018745,8.147141,-1.6644008,13.441867,29.84994,-29.274868,18.43747,-8.273595,-5.795152,2.9211316,-11.157388
211,0.9993581175804138,-52.930580139160156,72.00226593017578,-2.792588351739148,7.2973315432692445,-96.13651916534505,-1.0788026,3.5402684,-1.5794418,78.408676,-6.305661,-11.276868,-29.787802,2.4838972,-4.957715,51.454952,-30.406065,-0.9746417,-8.305198,-2.1663425,22.75069,22.666233,31.863613,-15.799458,-41.86624,8.077158,-1.5833488,13.4510355,27.93588,-29.670776,18.804562,-7.6839247,-5.5148005,2.9929318,-11.981288
212,0.930023193359375,-53.99482727050781,71.65498352050781,-3.3443027298096535,7.048564386849037,-96.20710617348726,-2.455792,3.786208,-2.325619,82.01279,-8.1095705,-11.314122,-28.869947,2.9890945,-5.2925615,52.32966,-31.713127,-1.1106526,-7.8674564,-1.3265486,22.94048,23.3833,31.358736,-15.920894,-40.232136,8.107977,-1.4732202,13.524803,25.841171,-30.07285,19.30467,-6.964033,-5.422389,3.0930655,-12.8356695
213,0.8517404198646545,-55.0687141418457,71.33338928222656,-3.733145250267412,6.88886249141124,-96.13801781642955,-4.0475583,4.10191,-2.897417,85.4078,-9.528239,-11.346272,-27.908642,3.2883604,-5.567326,53.029415,-33.01414,-1.1595345,-7.498973,-0.60389054,22.986517,23.889755,30.774696,-16.184805,-37.95257,8.036816,-1.3727891,13.653291,23.5057,-30.470503,19.979013,-5.9972754,-5.6955657,3.2608366,-13.767894
214,0.791205644607544,-56.164222717285156,71.06037139892578,-4.042987912213274,6.800634395382001,-95.96040003928073,-5.8317575,4.5051217,-3.387751,88.67914,-10.773235,-11.352937,-26.894876,3.4654121,-5.8491874,53.550957,-34.32385,-1.0573639,-7.1786523,0.07874714,22.935328,24.256235,30.107964,-16.546276,-35.155052,7.926775,-1.2502799,13.818259,20.948034,-30.84893,20.79615,-4.8345833,-6.2105665,3.4821918,-14.80501
215,0.7507818937301636,-57.276092529296875,70.83988952636719,-4.259259344705875,6.759966663044107,-95.7340213466819,-7.755535,4.954002,-3.7512746,91.71091,-11.920819,-11.245329,-25.818735,3.544898,-6.10173,53.87482,-35.568134,-0.8859136,-6.869931,0.70478785,22.81865,24.560694,29.3989,-16.974096,-32.154984,8.180185,-1.0427542,14.072423,18.32281,-31.181772,21.64057,-3.7347264,-6.666677,3.6952055,-15.813084
216,0.7149527072906494,-58.382415771484375,70.67733764648438,-4.369205049422526,6.7412138688602266,-95.51950499584572,-9.767867,5.4048347,-3.9396298,94.386215,-13.0473385,-10.942589,-24.670486,3.5485642,-6.281216,53.98299,-36.67308,-0.7235729,-6.521661,1.2551912,22.666666,24.86936,28.718185,-17.45628,-29.263496,9.192052,-0.67913586,14.481094,15.783127,-31.438662,22.3918,-2.9371722,-6.769636,3.8238292,-16.65606
217,0.6774896383285522,-59.498130798339844,70.56754302978516,-4.341587737321924,6.747578428884469,-95.29514249362232,-11.918548,5.859254,-3.9392393,96.71079,-14.155347,-10.374978,-23.44592,3.42953,-6.3867407,53.875435,-37.64426,-0.56453025,-6.11335,1.7038987,22.461985,25.082203,28.118805,-18.109818,-26.285273,11.294459,0.05091659,15.289699,13.28415,-31.609667,23.067589,-2.3863254,-6.4052258,3.8302,-17.327028
218,0.6203727126121521,-60.624671936035156,70.51383972167969,-4.1940697252826675,6.787317677277732,-95.0421446542946,-14.220931,6.3478723,-3.7857487,98.73496,-15.203653,-9.597414,-22.147663,3.1867445,-6.440503,53.560047,-38.51393,-0.37192956,-5.6411567,2.0595522,22.201838,25.2058,27.614069,-18.921833,-23.16691,14.17168,1.0911918,16.381374,10.792665,-31.689495,23.678387,-1.9885454,-5.7546353,3.7480388,-17.883629
219,0.5592668056488037,-61.75736618041992,70.4993896484375,-3.986865866881789,6.8414299019518445,-94.82576513870774,-16.569635,6.8684335,-3.4882166,100.40769,-16.20169,-8.716214,-20.778278,2.9071696,-6.4252796,53.03686,-39.24272,-0.17470886,-5.0849185,2.347425,21.932236,25.459047,27.221703,-19.687069,-20.4273,17.259775,2.0820637,17.299921,8.437327,-31.661293,24.124931,-1.876675,-4.971058,3.6050527,-18.286306
220,0.4902222156524658,-62.90180206298828,70.5360107421875,-3.7796828546908507,6.892032718778958,-94.71183862545419,-18.857107,7.4170094,-3.0697298,101.675415,-17.15625,-7.8584824,-19.341017,2.6777768,-6.3190727,52.306942,-39.795055,-0.0026087016,-4.43113,2.5860639,21.698463,26.07543,26.971455,-20.189976,-18.604664,20.016033,2.605142,17.635824,6.32617,-31.506063,24.33139,-2.1660647,-4.2069554,3.4331973,-18.496862
221,0.4260537624359131,-64.0569839477539,70.6136245727539,-3.5969930946989654,6.921546521044939,-94.74319707552905,-21.074177,8.062924,-2.4863176,102.539276,-18.101925,-7.0054774,-17.810568,2.5449274,-6.088799,51.328686,-40.188183,0.13472688,-3.66509,2.7793384,21.53365,27.234743,26.89974,-20.303814,-17.998095,22.745213,2.4230065,17.169813,4.476134,-31.190105,24.242626,-2.9436982,-3.4602213,3.2020128,-18.457205
222,0.37091588973999023,-65.23255920410156,70.72052764892578,-3.4028338436430308,6.942890055539727,-94.8780980052057,-23.262545,8.790319,-1.7402412,103.020004,-19.022738,-6.119308,-16.193861,2.445376,-5.7488832,50.114983,-40.432514,0.2603394,-2.801704,2.8936162,21.406647,28.822136,27.0252,-20.142748,-18.317791,25.568222,1.7389166,16.203947,2.7659693,-30.702013,23.958744,-4.060355,-2.6641626,2.911155,-18.20829
223,0.3247697651386261,-66.40887451171875,70.86711883544922,-3.1657061889160163,6.985203868545337,-95.05476555335348,-25.394272,9.466075,-0.9108457,103.095146,-19.849815,-5.2930756,-14.545882,2.3028328,-5.3490553,48.757557,-40.485813,0.389686,-1.8791037,2.8967643,21.268085,30.629057,27.338097,-19.847908,-19.213137,27.6841,0.80274683,15.1156435,1.1151842,-30.070326,23.637524,-5.3025393,-1.8749301,2.6397905,-17.8633
224,0.27787941694259644,-67.60924530029297,71.04932403564453,-2.855237418156254,7.077357015087634,-95.21057517609876,-27.44552,9.956694,-0.07065464,102.73966,-20.509876,-4.6164494,-12.920202,2.0461154,-4.9430027,47.344604,-40.308666,0.53350884,-0.94111794,2.7680147,21.071798,32.432446,27.808577,-19.567043,-20.3177,28.320433,-0.07798534,14.232464,-0.5174598,-29.35342,23.419472,-6.500293,-1.1474084,2.466052,-17.53302
225,0.22989876568317413,-68.84098052978516,71.27286529541016,-2.44678299748363,7.234077006894905,-95.34223924462857,-29.433554,10.236095,0.8157204,101.92255,-20.990059,-4.1075015,-11.293984,1.6498232,-4.5207367,45.806984,-39.91221,0.6770568,-0.005067557,2.5020223,20.81528,34.21969,28.427267,-19.312738,-21.694674,26.821411,-0.89573795,13.493945,-2.0821424,-28.577715,23.285414,-7.7202682,-0.45790142,2.4564214,-17.217718
226,0.18744155764579773,-70.09554290771484,71.53545379638672,-1.9619242750281023,7.437623879105796,-95.47770958622553,-31.35122,10.377605,1.7880354,100.657745,-21.33013,-3.7237067,-9.656037,1.1528643,-4.0672927,44.13501,-39.317486,0.8204282,0.94915664,2.1215959,20.52853,36.08979,29.187023,-19.017937,-23.476038,23.748066,-1.7339108,12.708858,-3.5393775,-27.745617,23.178411,-9.062361,0.22028509,2.5568848,-16.876053
227,0.13710440695285797,-71.3718032836914,71.84196472167969,-1.4417454857195506,7.66842285661761,-95.60060997011604,-33.14562,10.394066,2.7776592,98.985344,-21.53239,-3.4608793,-8.074252,0.5879321,-3.6278236,42.50272,-38.48816,0.9882094,1.9245875,1.6547885,20.213497,37.97575,30.044573,-18.704664,-25.386166,20.191675,-2.4241736,12.019768,-4.935034,-26.902302,23.16895,-10.420666,0.8395027,2.6631691,-16.546562
228,0.09040655940771103,-72.67736053466797,72.1770248413086,-0.9279205691506359,7.906915062750162,-95.69489271113083,-34.768864,10.2967415,3.7122324,96.94886,-21.600767,-3.3081925,-6.6129603,-0.008515669,-3.2427704,41.08477,-37.39003,1.2010717,2.9148777,1.1417029,19.873623,39.788227,30.926853,-18.394417,-27.127533,17.263832,-2.854679,11.61999,-6.304113,-26.123148,23.31872,-11.711935,1.3639191,2.6718214,-16.263802
229,0.05633743852376938,-74.00731658935547,72.53478240966797,-0.413270597304369,8.159032152770084,-95.76887568379601,-36.22752,10.05037,4.5785866,94.518814,-21.50285,-3.2955265,-5.266718,-0.64158994,-2.8984492,39.879395,-35.985245,1.4794035,3.9319544,0.5956783,19.503878,41.471077,31.784298,-18.119396,-28.611889,15.162978,-2.9974613,11.675408,-7.672089,-25.483938,23.678978,-12.965181,1.8509446,2.5460649,-16.099335
230,0.01706582121551037,-75.34494018554688,72.91356658935547,0.11557206643747717,8.43176949372723,-95.82583576964754,-37.536167,9.66544,5.4066634,91.67933,-21.254112,-3.4138122,-4.0060115,-1.3166888,-2.5750654,38.811832,-34.30533,1.8027197,4.953856,0.025807422,19.117792,43.039085,32.597168,-17.867619,-29.95634,13.355046,-2.955816,12.065373,-8.962806,-25.009588,24.203907,-14.293824,2.3263516,2.346706,-16.018166
231,-0.00396918086335063,-76.69816589355469,73.30462646484375,0.6274597343606264,8.706996749844311,-95.8429006731713,-38.663982,9.215781,6.1841273,88.48997,-20.924501,-3.5947642,-2.852371,-1.9957631,-2.3005757,37.9421,-32.412727,2.1316628,5.927459,-0.53492916,18.740929,44.503433,33.33365,-17.599571,-31.1652,11.855458,-2.8334215,12.570707,-10.067206,-24.69046,24.803993,-15.729256,2.6991267,2.1150897,-15.889357
232,-0.01733124628663063,-78.0657958984375,73.69425201416016,1.0917668371502804,8.965912322335294,-95.79775845581462,-39.579582,8.767787,6.9027853,85.00742,-20.581297,-3.7735367,-1.8237797,-2.6415048,-2.1048133,37.32541,-30.36381,2.4318027,6.797484,-1.0587227,18.391136,45.8704,33.955364,-17.278904,-32.2318,10.684654,-2.7183506,12.963639,-10.897518,-24.496408,25.393856,-17.271887,2.8700387,1.8947217,-15.581058
233,-0.0222887322306633,-79.4595947265625,74.08940887451172,1.5102721990521415,9.217132408495642,-95.7009278248016,-40.272175,8.339159,7.5989513,81.16875,-20.229233,-3.9294534,-0.94956136,-3.2663167,-2.0014925,37.00083,-28.101854,2.692056,7.556256,-1.5580397,18.051287,47.15987,34.425682,-16.889256,-33.127018,9.917706,-2.620999,13.232336,-11.511518,-24.42122,26.010435,-18.878511,2.7441337,1.6784558,-15.032072
234,-0.02350626140832901,-80.87566375732422,74.4730453491211,1.8947017624887474,9.46522934227754,-95.55841011189418,-40.752827,7.8826647,8.263383,76.95771,-19.833876,-4.09985,-0.19728614,-3.8724158,-1.9726787,36.916603,-25.612312,2.9571474,8.211738,-2.0378227,17.710855,48.344154,34.73217,-16.463642,-33.835503,9.533489,-2.4936829,13.472914,-11.968924,-24.46931,26.70449,-20.525654,2.3939784,1.4461042,-14.31986
235,-0.027702314779162407,-82.315673828125,74.83724975585938,2.231405830672123,9.684681038012023,-95.3420467802021,-41.025593,7.365441,8.820792,72.49493,-19.402802,-4.3051367,0.50659883,-4.408232,-1.9997642,36.987988,-23.012358,3.2684152,8.738556,-2.4670713,17.39457,49.36212,34.886932,-16.039684,-34.374107,9.411289,-2.3290915,13.618083,-12.189211,-24.618464,27.407234,-22.232155,1.9574772,1.2215261,-13.518371
236,-0.029186133295297623,-83.77327728271484,75.17324829101562,2.5097089064479507,9.84948949589061,-95.02846606225468,-41.092823,6.764136,9.195861,67.884415,-18.92917,-4.559294,1.2258947,-4.8258653,-2.0554805,37.1294,-20.41224,3.644661,9.123538,-2.824112,17.127209,50.163795,34.92472,-15.647148,-34.77115,9.425815,-2.120492,13.605547,-12.093743,-24.832548,28.040222,-24.00782,1.5658306,1.0316904,-12.696783
237,-0.03648661449551582,-85.24993133544922,75.4892349243164,2.732420135648282,9.970017977401216,-94.58234939459165,-40.91885,6.068287,9.395997,62.936836,-18.36358,-4.8716235,1.9652076,-5.127147,-2.1382916,37.281948,-17.710724,4.1051345,9.350123,-3.1179621,16.898811,50.74552,34.867798,-15.2705145,-35.036015,9.625704,-1.8332412,13.380938,-11.633173,-25.084433,28.550758,-25.866505,1.1645103,0.884763,-11.805616
238,-0.04949033632874489,-86.73677825927734,75.77410888671875,2.900555252801902,10.05152085396573,-94.0318081656034,-40.496204,5.3035736,9.442275,57.62618,-17.705547,-5.2218385,2.6916437,-5.322387,-2.2459605,37.49934,-14.884703,4.6303873,9.442444,-3.3612237,16.697824,51.142082,34.72569,-14.897735,-35.170044,10.044282,-1.4814547,12.993084,-10.877735,-25.369896,28.981314,-27.769745,0.70092404,0.76199925,-10.822399
239,-0.0767085999250412,-88.22823333740234,76.02408599853516,2.9927667334265147,10.061824142871211,-93.44526217891502,-39.88703,4.5163465,9.267279,52.330826,-17.03613,-5.5723705,3.406445,-5.3785686,-2.3601854,37.872192,-12.163785,5.1518464,9.447153,-3.5310671,16.547958,51.373833,34.522766,-14.556427,-35.201473,10.531951,-1.132241,12.536892,-9.918066,-25.687407,29.390135,-29.662031,0.3099304,0.65694284,-9.858496
240,-0.09735917299985886,-89.71819305419922,76.22075653076172,2.9881152499321346,9.971266428552743,-92.88962708127002,-39.172523,3.758024,8.806355,47.464993,-16.450901,-5.8841367,4.1043286,-5.2762113,-2.4720373,38.504635,-9.783845,5.5857663,9.415594,-3.608545,16.47251,51.46568,34.293453,-14.272536,-35.16067,10.933752,-0.84877545,12.113859,-8.837332,-26.038452,29.83045,-31.493872,0.12540907,0.5691974,-9.024987
