unveil-humanoid-operators/unveil-humanoid-operators.github.io/feature-analysis-animation/data/feature_matrix_instances/weight_ankle_peak_vel_jogging_A047_jog_ff_stop_180_R_003__A047.csv
Frame,root_translateX,root_translateY,root_translateZ,root_rotateX,root_rotateY,root_rotateZ,left_hip_pitch_joint_dof,left_hip_roll_joint_dof,left_hip_yaw_joint_dof,left_knee_joint_dof,left_ankle_pitch_joint_dof,left_ankle_roll_joint_dof,right_hip_pitch_joint_dof,right_hip_roll_joint_dof,right_hip_yaw_joint_dof,right_knee_joint_dof,right_ankle_pitch_joint_dof,right_ankle_roll_joint_dof,waist_yaw_joint_dof,waist_roll_joint_dof,waist_pitch_joint_dof,left_shoulder_pitch_joint_dof,left_shoulder_roll_joint_dof,left_shoulder_yaw_joint_dof,left_elbow_joint_dof,left_wrist_roll_joint_dof,left_wrist_pitch_joint_dof,left_wrist_yaw_joint_dof,right_shoulder_pitch_joint_dof,right_shoulder_roll_joint_dof,right_shoulder_yaw_joint_dof,right_elbow_joint_dof,right_wrist_roll_joint_dof,right_wrist_pitch_joint_dof,right_wrist_yaw_joint_dof
0,0.009542576037347317,2.1112301349639893,77.6494140625,-0.6651566358411264,-0.29667685965188956,-89.3789775446478,1.8518767,10.311217,3.0961525,12.093585,-12.732237,-10.032491,4.735886,-9.045239,-17.399261,6.871593,-9.667661,10.1730585,-5.3953776,3.1344817,6.5384502,0.07351024,17.079834,-32.81347,55.83937,-2.7179713,-0.5073105,-3.737487,-10.645577,-11.437795,38.39879,63.827206,-0.8102742,8.252412,-1.7679477
1,0.013344637118279934,2.1126980781555176,77.64331817626953,-0.7086384062369793,-0.2966806633355899,-89.37072523532925,1.7038136,10.363152,3.0483766,12.392804,-12.890154,-10.008751,4.7392383,-8.998274,-17.411077,6.8706174,-9.679919,10.151953,-5.3659563,3.167769,6.5646615,0.073129185,17.088512,-32.783405,55.808285,-2.7100973,-0.48962784,-3.740059,-10.625261,-11.433053,38.36881,63.81198,-0.80000824,8.255678,-1.7796603
2,0.018063826486468315,2.115384340286255,77.63575744628906,-0.7530972297162853,-0.29709774536999056,-89.3624530167087,1.5559434,10.416533,3.0001028,12.692811,-13.04853,-9.985834,4.7433186,-8.949906,-17.423414,6.870425,-9.692114,10.130794,-5.3358893,3.202908,6.5912237,0.06944451,17.09437,-32.752956,55.781746,-2.7000215,-0.4712603,-3.7433615,-10.603191,-11.429338,38.335033,63.79386,-0.79121006,8.258553,-1.7942078
3,0.02295776456594467,2.119765281677246,77.62999725341797,-0.7961150385834189,-0.2967726820638357,-89.35429072834165,1.4081962,10.467095,2.9523087,12.990071,-13.205567,-9.961129,4.7462683,-8.903946,-17.434536,6.869941,-9.705707,10.109709,-5.304386,3.2365491,6.6196394,0.06414515,17.098677,-32.720093,55.754364,-2.688082,-0.45495215,-3.7463183,-10.583218,-11.426327,38.29933,63.777462,-0.78597575,8.262449,-1.8006318
4,0.03253229707479477,2.1220152378082275,77.62281036376953,-0.834995610278374,-0.2938700063642436,-89.34647700199645,1.2582936,10.510819,2.9054887,13.285193,-13.362188,-9.932135,4.7452064,-8.8635025,-17.442606,6.870197,-9.723554,10.08866,-5.2703247,3.2675364,6.648204,0.0577492,17.101278,-32.68743,55.72547,-2.680017,-0.44413817,-3.7454703,-10.56598,-11.424418,38.27203,63.76523,-0.7741705,8.269571,-1.7901613
5,0.04302286356687546,2.1265358924865723,77.6158447265625,-0.8696997180774715,-0.29091120065231113,-89.34074839613322,1.1093313,10.546852,2.861058,13.577157,-13.516891,-9.900191,4.742317,-8.828747,-17.445057,6.869795,-9.746333,10.0650625,-5.2359467,3.2936277,6.6841955,0.051429648,17.104122,-32.640694,55.690998,-2.668876,-0.44120628,-3.7412424,-10.554913,-11.423405,38.249428,63.757313,-0.7737744,8.280276,-1.7557626
6,0.05252857878804207,2.132261037826538,77.60791015625,-0.9015699740542378,-0.2880035337131046,-89.33614883631054,0.96090865,10.576901,2.817974,13.867474,-13.670887,-9.866147,4.737638,-8.798235,-17.443785,6.870349,-9.773402,10.039764,-5.198819,3.318926,6.7200956,0.04601459,17.104855,-32.60121,55.6542,-2.6650507,-0.44307142,-3.7299836,-10.545115,-11.424092,38.24027,63.753727,-0.77050096,8.293883,-1.706767
7,0.0671643316745758,2.141058921813965,77.59832000732422,-0.9318068233040692,-0.279590984083913,-89.3298224615187,0.8100627,10.601063,2.775428,14.149501,-13.821431,-9.827017,4.7270966,-8.772823,-17.442883,6.8716025,-9.8028145,10.017898,-5.159676,3.341494,6.7508516,0.038558923,17.10475,-32.567734,55.618603,-2.6680384,-0.44750834,-3.7181122,-10.536545,-11.425225,38.235847,63.754322,-0.7489658,8.309701,-1.649797
8,0.08138863742351532,2.1474826335906982,77.58965301513672,-0.9590478335693523,-0.25987807224139914,-89.31786920465792,0.6478854,10.621179,2.7300735,14.42721,-13.971504,-9.779775,4.7077923,-8.751335,-17.447985,6.8716764,-9.832343,10.004322,-5.1344037,3.363956,6.77999,0.036864374,17.103783,-32.509617,55.572765,-2.6615891,-0.45102954,-3.7170382,-10.543784,-11.428657,38.238705,63.76045,-0.6944705,8.327556,-1.5869294
9,0.09947298467159271,2.148322343826294,77.58281707763672,-0.9812364583578309,-0.22492131219203096,-89.29823269317835,0.4785156,10.633118,2.6836777,14.681264,-14.111023,-9.724022,4.6754737,-8.738602,-17.462034,6.8713794,-9.860908,10.002857,-5.1393695,3.3888028,6.8007064,0.05742313,17.10095,-32.423996,55.504204,-2.6477132,-0.4534714,-3.7280178,-10.5715,-11.435095,38.26687,63.780678,-0.5870951,8.340896,-1.5119897
10,0.11933010816574097,2.148054838180542,77.578857421875,-1.0005911254949398,-0.1779164707330139,-89.2738848975897,0.30327725,10.63859,2.6372302,14.917918,-14.242848,-9.661255,4.632271,-8.732395,-17.481218,6.871434,-9.890269,10.009787,-5.1362314,3.4103038,6.805154,0.06860317,17.097439,-32.363575,55.44394,-2.6500692,-0.4566666,-3.7418792,-10.599672,-11.439759,38.289425,63.81429,-0.44184795,8.350651,-1.4279044
11,0.14092670381069183,2.1434967517852783,77.57340240478516,-1.020014706694122,-0.1271760266487822,-89.24663484810179,0.118936196,10.643183,2.586796,15.165445,-14.382084,-9.590684,4.5873456,-8.72632,-17.502234,6.870576,-9.921751,10.019847,-5.129091,3.4308867,6.8094034,0.07719169,17.093481,-32.30814,55.383907,-2.6553636,-0.45862877,-3.7545207,-10.63259,-11.443808,38.3202,63.84601,-0.27453893,8.373086,-1.3524137
12,0.15724559128284454,2.1448123455047607,77.56768035888672,-1.045175152429117,-0.08052592060998487,-89.21899802436828,-0.07883876,10.652279,2.5289512,15.453916,-14.543615,-9.511502,4.548431,-8.714732,-17.520908,6.8694425,-9.957993,10.028028,-5.1244974,3.4527833,6.8244443,0.087165564,17.086712,-32.239872,55.325916,-2.657881,-0.45895267,-3.7610302,-10.669204,-11.450572,38.388416,63.856262,-0.08952064,8.42458,-1.3066387
13,0.1747286319732666,2.1433207988739014,77.55912017822266,-1.078672050876267,-0.04007005928347267,-89.19585533155447,-0.28418988,10.668916,2.4663389,15.779208,-14.731966,-9.424303,4.5150137,-8.693772,-17.531507,6.870035,-9.999067,10.029443,-5.0799556,3.4682055,6.8481717,0.069547206,17.082098,-32.205425,55.291824,-2.6736138,-0.4555794,-3.7544267,-10.689507,-11.456753,38.46504,63.8322,0.10527777,8.521035,-1.3155308
14,0.19782501459121704,2.14018177986145,77.5467758178711,-1.112143022927017,-0.0015315011102169194,-89.17435961688548,-0.5049608,10.686599,2.3984852,16.145742,-14.945908,-9.329332,4.485106,-8.670762,-17.537922,6.8692,-10.042985,10.028338,-5.025947,3.4783158,6.8781056,0.04853389,17.077997,-32.17354,55.2617,-2.6936376,-0.4496445,-3.740269,-10.709986,-11.465467,38.572365,63.78856,0.3238789,8.651009,-1.3627757
15,0.22061102092266083,2.137814521789551,77.53211212158203,-1.1467319007876817,0.03638603612291559,-89.14670741130261,-0.7362481,10.701138,2.32307,16.53525,-15.170269,-9.225165,4.458464,-8.650068,-17.548182,6.869655,-10.09305,10.032352,-4.9732633,3.4880428,6.913107,0.026427837,17.07452,-32.14454,55.229816,-2.7139382,-0.4437358,-3.7249684,-10.731419,-11.47646,38.682674,63.73317,0.5512173,8.783673,-1.4034029
16,0.25054115056991577,2.133765935897827,77.51870727539062,-1.1794268722055183,0.07501772347383873,-89.10461297376365,-0.9726267,10.706512,2.2375069,16.928534,-15.389478,-9.110513,4.437919,-8.637714,-17.571335,6.8695984,-10.150848,10.049157,-4.928584,3.4987206,6.9507747,0.0037225997,17.072643,-32.126915,55.19135,-2.73243,-0.44023407,-3.7133448,-10.76051,-11.485381,38.760635,63.684563,0.7705722,8.888465,-1.3925215
17,0.2819414436817169,2.130305051803589,77.50582122802734,-1.2094833258990074,0.11352086045653184,-89.04391631430941,-1.225551,10.70416,2.1373901,17.346285,-15.608839,-8.980841,4.4120865,-8.636841,-17.60809,6.896059,-10.229245,10.075717,-4.915646,3.5169325,6.9933953,-0.0085960915,17.070549,-32.10428,55.138073,-2.7489207,-0.4405665,-3.7077436,-10.802003,-11.497148,38.81268,63.646286,0.99166316,8.952266,-1.3024596
18,0.31604987382888794,2.1212432384490967,77.49059295654297,-1.2388143697051424,0.15166849765285023,-88.96950687432104,-1.4909666,10.6954975,2.0256047,17.784313,-15.830692,-8.837824,4.3874803,-8.643254,-17.655033,6.9316893,-10.318177,10.109743,-4.911233,3.5370548,7.039968,-0.020872708,17.069206,-32.091805,55.07802,-2.7653313,-0.44227728,-3.703847,-10.850015,-11.507154,38.83402,63.61332,1.212296,8.993109,-1.1617299
19,0.3603150546550751,2.0985169410705566,77.47303771972656,-1.2659365583992825,0.19091694484411928,-88.88649797265366,-1.7559688,10.679181,1.9071705,18.221048,-16.053116,-8.691072,4.3704824,-8.655747,-17.711948,6.96353,-10.415785,10.159367,-4.912081,3.5563252,7.0898447,-0.028693557,17.068462,-32.079773,55.010414,-2.7758446,-0.44526023,-3.7008486,-10.903478,-11.516758,38.859734,63.571533,1.4282768,9.0310755,-1.0129759
20,0.4000144600868225,2.080690383911133,77.45539093017578,-1.2895514354170408,0.23290359441317887,-88.80152098666407,-2.0090945,10.653863,1.7882305,18.638418,-16.27664,-8.550591,4.359954,-8.676378,-17.776283,6.9921536,-10.526497,10.233024,-4.9021554,3.5703783,7.1367497,-0.036095582,17.06778,-32.070896,54.944637,-2.7777343,-0.44885525,-3.6984615,-10.955114,-11.530489,38.911575,63.51135,1.6265124,9.082192,-0.89772147
21,0.4432430565357208,2.0543575286865234,77.43585205078125,-1.3083251566193546,0.2783911936952911,-88.71253138931202,-2.2484043,10.616298,1.6671865,19.03089,-16.500866,-8.421283,4.3583107,-8.707548,-17.852324,7.015932,-10.653477,10.342238,-4.886718,3.5774295,7.1800456,-0.039223917,17.066856,-32.06171,54.87824,-2.7627218,-0.45402697,-3.696391,-11.001438,-11.5511875,39.004486,63.4235,1.8268719,9.158443,-0.8313
22,0.49039894342422485,2.02362322807312,77.41609954833984,-1.3219743136468955,0.3262777982385445,-88.6173956366786,-2.478097,10.5680485,1.5424997,19.405428,-16.72583,-8.297239,4.3639207,-8.748133,-17.939573,7.0369463,-10.794503,10.479479,-4.8657794,3.5783286,7.2214193,-0.042122457,17.06591,-32.057697,54.812805,-2.735627,-0.4606783,-3.6945653,-11.046531,-11.572285,39.114933,63.32018,2.02319,9.247335,-0.7898833
23,0.5469879508018494,1.9843792915344238,77.3963394165039,-1.3364842819176457,0.37582573808191844,-88.52174587736305,-2.7032974,10.515454,1.417894,19.777245,-16.95325,-8.172064,4.3742795,-8.792105,-18.030739,7.0569777,-10.943805,10.624125,-4.839326,3.579898,7.2630982,-0.039929945,17.064316,-32.051266,54.743004,-2.7092807,-0.46673572,-3.692946,-11.096806,-11.5954685,39.246708,63.205883,2.1881988,9.333399,-0.7587461
24,0.60164475440979,1.946545958518982,77.37860870361328,-1.35359300225656,0.42610863991268233,-88.43100824814324,-2.921794,10.4636345,1.2987784,20.14584,-17.18291,-8.039373,4.388491,-8.834406,-18.11813,7.0729303,-11.097239,10.756083,-4.802063,3.5865211,7.3068786,-0.032144424,17.061508,-32.04076,54.666992,-2.6973622,-0.4700274,-3.690823,-11.157865,-11.619495,39.393826,63.087067,2.2891994,9.40097,-0.72260416
25,0.6571596264839172,1.9005126953125,77.3597183227539,-1.374405397895321,0.4749425250370568,-88.34683618677441,-3.1341896,10.413046,1.1851,20.519234,-17.41625,-7.895822,4.409178,-8.875282,-18.200867,7.0854373,-11.255261,10.879971,-4.760986,3.6001036,7.358024,-0.012327576,17.055946,-32.01418,54.576378,-2.7051764,-0.46762946,-3.688987,-11.227714,-11.651796,39.572105,62.95144,2.2937422,9.446151,-0.66946733
26,0.7172858119010925,1.8498597145080566,77.34163665771484,-1.3971249518626307,0.5234421508181527,-88.2663893420215,-3.3395512,10.361255,1.0747855,20.89143,-17.652847,-7.7453666,4.43603,-8.917399,-18.282423,7.0944505,-11.41934,11.003359,-4.696248,3.6129172,7.410075,0.00094826816,17.05049,-32.001396,54.487957,-2.7305653,-0.46099404,-3.6858084,-11.305924,-11.67658,39.750835,62.815792,2.2169216,9.474953,-0.6093331
27,0.79327392578125,1.7913931608200073,77.3201675415039,-1.422953345386863,0.5760370149376466,-88.1880831383013,-3.5445282,10.309823,0.9677065,21.263388,-17.891083,-7.592051,4.462158,-8.958435,-18.361895,7.1031733,-11.585845,11.110321,-4.6363897,3.6348433,7.4611344,0.030323481,17.041008,-31.969238,54.39072,-2.7537968,-0.45651776,-3.6828356,-11.394934,-11.707485,39.959747,62.671932,2.1364245,9.494599,-0.5623184
28,0.8737592697143555,1.7348031997680664,77.29712677001953,-1.4550206422277994,0.6370059992456277,-88.11063746833504,-3.7563465,10.260553,0.8634207,21.638372,-18.13114,-7.439986,4.480555,-8.996475,-18.437798,7.114063,-11.749951,11.1847105,-4.573255,3.669041,7.504867,0.06821347,17.024199,-31.928179,54.29692,-2.7626324,-0.45979315,-3.6788867,-11.492007,-11.744992,40.175213,62.525433,2.1100895,9.50982,-0.5463094
29,0.9588307738304138,1.6709824800491333,77.27548217773438,-1.5006682623382985,0.7105210490312459,-88.03184283416435,-3.9887106,10.223227,0.7592445,22.029137,-18.373951,-7.2883124,4.4853597,-9.020975,-18.509962,7.1272383,-11.91168,11.206228,-4.4856544,3.7161803,7.5327573,0.098412685,17.00757,-31.909979,54.220566,-2.762728,-0.472093,-3.6716871,-11.596882,-11.771045,40.377422,62.39083,2.1491256,9.5190935,-0.57670766
30,1.0392698049545288,1.6012755632400513,77.25904083251953,-1.5565927173382914,0.7934183591957704,-87.95326832370401,-4.233001,10.193686,0.65628564,22.428268,-18.618343,-7.135462,4.480921,-9.036849,-18.57864,7.142904,-12.073794,11.188807,-4.406114,3.7802703,7.551992,0.14305304,16.981129,-31.871365,54.1468,-2.748569,-0.49146667,-3.663564,-11.716056,-11.802197,40.615345,62.25585,2.2351165,9.522143,-0.6416228
31,1.1402828693389893,1.5268926620483398,77.23931884765625,-1.6089428494105271,0.8784764487570556,-87.87824264438869,-4.4656105,10.153298,0.55935967,22.814177,-18.864056,-6.984273,4.478726,-9.062655,-18.643942,7.158042,-12.234059,11.16749,-4.3305435,3.8522577,7.570508,0.19592759,16.933033,-31.810017,54.07916,-2.7216465,-0.51652366,-3.6545558,-11.842696,-11.847201,40.860786,62.113075,2.3462582,9.520588,-0.71502423
32,1.2452170848846436,1.4455077648162842,77.21733093261719,-1.6438419260195865,0.9583036237615408,-87.81022940392283,-4.659853,10.082942,0.47405395,23.15979,-19.107645,-6.837889,4.4897513,-9.118707,-18.705925,7.171239,-12.390865,11.177167,-4.219967,3.9016228,7.593657,0.2523141,16.89837,-31.771519,53.99536,-2.7048516,-0.54133284,-3.6444478,-11.971476,-11.875219,41.030865,61.98035,2.4387302,9.511767,-0.7709367
33,1.388432502746582,1.3211687803268433,77.19830322265625,-1.654541419480453,1.0284920243256492,-87.75724603003353,-4.798515,9.972509,0.40719947,23.450087,-19.350695,-6.700823,4.517458,-9.2155285,-18.758772,7.1825414,-12.545164,11.233407,-4.1224685,3.945707,7.630232,0.33024356,16.828846,-31.681728,53.9089,-2.6712205,-0.5761744,-3.6340878,-12.1129465,-11.925462,41.199787,61.841854,2.5527997,9.497507,-0.8001632
34,1.5146124362945557,1.2263717651367188,77.17498779296875,-1.6489919500413057,1.0936411893348488,-87.71527430007394,-4.899254,9.833615,0.3541617,23.702875,-19.59446,-6.570203,4.5560045,-9.341498,-18.804544,7.1929007,-12.6976595,11.315546,-3.9977593,3.977883,7.6721506,0.40901786,16.75198,-31.598667,53.821976,-2.6377676,-0.6175051,-3.6215756,-12.256596,-11.977926,41.31935,61.704193,2.6731694,9.47529,-0.81523496
35,1.6318119764328003,1.1284350156784058,77.15084838867188,-1.6380179137560473,1.1605541911810493,-87.66869583684581,-4.9892006,9.6819315,0.3026716,23.94145,-19.836493,-6.438106,4.601305,-9.480194,-18.855856,7.20129,-12.845129,11.404327,-3.8711748,4.00798,7.711724,0.49367788,16.668537,-31.51267,53.728756,-2.6034667,-0.653304,-3.6089087,-12.400557,-12.032373,41.4151,61.558346,2.779681,9.452123,-0.83151406
36,1.7608542442321777,1.0378865003585815,77.12349700927734,-1.632255615128103,1.2359856807749834,-87.60234670193438,-5.0972247,9.532671,0.24033481,24.19296,-20.076456,-6.2964478,4.6496058,-9.61594,-18.925201,7.204553,-12.982472,11.481033,-3.7560625,4.0431924,7.7399487,0.581002,16.581385,-31.428188,53.628708,-2.570302,-0.6713526,-3.5971954,-12.538112,-12.08642,41.49553,61.39555,2.8457842,9.434012,-0.86339164
37,1.8894580602645874,0.9241592884063721,77.10161590576172,-1.6347421826845003,1.3225053626711072,-87.51147738833951,-5.2361116,9.391831,0.16733453,24.470598,-20.311768,-6.136277,4.693423,-9.745749,-19.015574,7.2126894,-13.111394,11.545852,-3.6602073,4.0864,7.7561226,0.6746207,16.492748,-31.340483,53.51278,-2.5381985,-0.6619566,-3.5866072,-12.672932,-12.136198,41.563015,61.215508,2.8498273,9.425978,-0.90257734
38,2.032858371734619,0.7959908843040466,77.07962036132812,-1.639527152859824,1.4161768930809584,-87.40440345080074,-5.38832,9.250427,0.08919459,24.757244,-20.543001,-5.964066,4.7416754,-9.876286,-19.121122,7.2143927,-13.228683,11.607191,-3.576903,4.1321063,7.764428,0.7782697,16.403221,-31.246515,53.38096,-2.5054018,-0.6334551,-3.5770643,-12.80936,-12.180397,41.613598,61.026337,2.8091729,9.4234085,-0.9458044
39,2.1857964992523193,0.6662774085998535,77.0524673461914,-1.6440678066335193,1.5143037733999858,-87.28554720805239,-5.537684,9.101299,0.001733292,25.035103,-20.775276,-5.7950807,4.795544,-10.01183,-19.237661,7.215616,-13.343789,11.657919,-3.4953601,4.1758695,7.763885,0.8852986,16.313515,-31.158693,53.2474,-2.4760494,-0.6010581,-3.5687134,-12.940973,-12.220645,41.64793,60.828754,2.76296,9.418077,-1.014982
40,2.3474056720733643,0.527249813079834,77.02007293701172,-1.645734648052349,1.6141288248993124,-87.15900175996076,-5.6697793,8.937355,-0.09953891,25.290062,-21.015179,-5.644537,4.859017,-10.15627,-19.361715,7.2190742,-13.465468,11.691259,-3.4038644,4.213426,7.7538505,0.9889345,16.224028,-31.089808,53.12603,-2.4535332,-0.5797826,-3.5618315,-13.058687,-12.2607565,41.664013,60.619415,2.7477968,9.402261,-1.1319313
41,2.508488893508911,0.3916061818599701,76.98667907714844,-1.6478621141797878,1.7167501967188148,-87.0242860986557,-5.782524,8.760262,-0.2209679,25.518217,-21.265871,-5.524702,4.932672,-10.304589,-19.49341,7.2214594,-13.593784,11.699949,-3.2928038,4.24588,7.730002,1.0848508,16.134619,-31.047102,53.024483,-2.4402952,-0.57607603,-3.5594108,-13.154928,-12.305681,41.660282,60.38927,2.7883406,9.376049,-1.3228776
42,2.6723618507385254,0.24941465258598328,76.95380401611328,-1.650288925906005,1.8230035728782958,-86.87963515264555,-5.8834085,8.572491,-0.35836104,25.728338,-21.523872,-5.4247932,5.015232,-10.456845,-19.634413,7.2224007,-13.725352,11.6897955,-3.168834,4.2752357,7.6947618,1.176206,16.04514,-31.024302,52.934193,-2.4344652,-0.58112746,-3.5603223,-13.231488,-12.35737,41.635365,60.135094,2.8585353,9.343214,-1.5689142
43,2.8512790203094482,0.08069212734699249,76.92086791992188,-1.6451782860970483,1.9296082301357225,-86.72731345654901,-5.969534,8.368473,-0.50051844,25.92015,-21.78347,-5.325495,5.1062884,-10.623577,-19.783167,7.2267365,-13.859896,11.673051,-3.0455844,4.298416,7.657242,1.2689999,15.955883,-31.011993,52.84292,-2.4312305,-0.5870346,-3.558612,-13.2985525,-12.415276,41.59425,59.86904,2.926302,9.300516,-1.8238873
44,3.030855894088745,-0.1062258705496788,76.88801574707031,-1.6245924434557033,2.033138612269554,-86.56978653177401,-6.0375133,8.142501,-0.6362117,26.092733,-22.03907,-5.2074857,5.2065945,-10.814934,-19.938522,7.239793,-13.99871,11.661509,-2.937385,4.3120327,7.6265726,1.3698081,15.867594,-31.000679,52.738205,-2.4263656,-0.58581483,-3.5485673,-13.368009,-12.476777,41.54258,59.605534,2.9594295,9.245444,-2.0419922
45,3.2171599864959717,-0.28151336312294006,76.85305786132812,-1.588932558945003,2.1288842918333692,-86.41055968316253,-6.0785704,7.8979473,-0.75738055,26.241264,-22.286545,-5.068089,5.321895,-11.029478,-20.098078,7.258439,-14.14817,11.661047,-2.8515031,4.3196993,7.609821,1.4867886,15.780813,-30.98608,52.60861,-2.4251547,-0.5750579,-3.523784,-13.448424,-12.53852,41.48134,59.35253,2.9380665,9.176046,-2.199965
46,3.4038562774658203,-0.4590536952018738,76.81478118896484,-1.5412790244098982,2.2197501796233836,-86.24734918854375,-6.0964093,7.635925,-0.8718578,26.366827,-22.529478,-4.9167433,5.450258,-11.263462,-20.26334,7.2807765,-14.305133,11.664401,-2.7804742,4.3208327,7.600441,1.6160494,15.695768,-30.972502,52.462093,-2.4276345,-0.559017,-3.4892187,-13.535236,-12.59926,41.409904,59.105545,2.8839338,9.094215,-2.3263805
47,3.5994832515716553,-0.6469723582267761,76.7727279663086,-1.4772962655513533,2.313938089067447,-86.07358241354639,-6.106899,7.347134,-0.9919446,26.478273,-22.773746,-4.7523346,5.58313,-11.523118,-20.440157,7.3109317,-14.455214,11.663932,-2.7162921,4.30564,7.5871725,1.7445902,15.613043,-30.963432,52.31677,-2.4216132,-0.5399322,-3.4556823,-13.6172495,-12.659238,41.32783,58.858597,2.8243542,9.002921,-2.4530838
48,3.799168109893799,-0.8457971811294556,76.72640228271484,-1.3914482224689064,2.4198125883597514,-85.882771728245,-6.12437,7.0210214,-1.129203,26.581419,-23.023478,-4.573504,5.701516,-11.820005,-20.6319,7.3732433,-14.59408,11.652144,-2.6501446,4.2633514,7.5587754,1.8599374,15.533265,-30.962223,52.189606,-2.3947022,-0.5200734,-3.4341395,-13.684323,-12.71992,41.23733,58.604515,2.7901533,8.905156,-2.6117644
49,4.004162311553955,-1.050126314163208,76.67618560791016,-1.2854129401781946,2.538285139185024,-85.67128607029797,-6.1455584,6.658608,-1.2856642,26.670841,-23.27909,-4.3844132,5.8166637,-12.149527,-20.844759,7.446355,-14.715295,11.6184435,-2.5773776,4.193427,7.5099487,1.9607872,15.455765,-30.969913,52.089443,-2.328348,-0.49360466,-3.4250972,-13.729309,-12.783735,41.138985,58.33698,2.7991052,8.798921,-2.811081
50,4.213644981384277,-1.251435399055481,76.623779296875,-1.158064633762779,2.665551371598824,-85.44405276667266,-6.164123,6.2615833,-1.4540302,26.744038,-23.53761,-4.184063,5.682756,-12.60621,-21.019445,8.080035,-15.114968,11.570675,-2.5021803,4.0978956,7.446917,2.053232,15.380278,-30.984598,52.005768,-2.233718,-0.46161163,-3.4235132,-13.7580805,-12.8518715,41.03149,58.059486,2.831517,8.683416,-3.033835
51,4.42987060546875,-1.463761806488037,76.5650405883789,-0.9975877232042453,2.803282475767907,-85.20656956230336,-6.1883135,5.816459,-1.630221,26.81027,-23.798433,-3.962494,5.4027343,-13.162631,-21.168245,9.029217,-15.647265,11.526888,-2.4283185,3.9682658,7.375508,2.1337266,15.309563,-31.007063,51.92754,-2.145337,-0.43622676,-3.4321835,-13.7773075,-12.9220705,40.913063,57.775352,2.86251,8.56427,-3.272388
52,4.644588470458984,-1.6764518022537231,76.49882507324219,-0.789928532759445,2.95346045847973,-84.9651707841179,-6.2248373,5.307774,-1.8088712,26.87489,-24.058727,-3.7095726,4.9801335,-13.830991,-21.281763,10.26634,-16.281395,11.505224,-2.3600743,3.792219,7.3004994,2.200961,15.248754,-31.037119,51.841602,-2.0976295,-0.42954767,-3.4539022,-13.7990675,-12.990993,40.783993,57.495472,2.8674285,8.446396,-3.5195045
53,4.86429500579834,-1.9015716314315796,76.42317962646484,-0.5190254628621971,3.1234441388967076,-84.71128203610375,-6.2780614,4.712864,-1.9925082,26.92967,-24.310036,-3.4206276,4.405209,-14.640937,-21.358585,11.796847,-17.02083,11.5411625,-2.3059008,3.5555124,7.21196,2.2630062,15.201801,-31.071226,51.73941,-2.1074128,-0.45233607,-3.5025973,-13.82645,-13.055616,40.64526,57.228073,2.8516228,8.334622,-3.7800748
54,5.084071159362793,-2.1106460094451904,76.3339614868164,-0.18878374349388363,3.3102299655559833,-84.4457132517176,-6.3380427,4.0382204,-2.1790977,26.965597,-24.553793,-3.100613,3.7017012,-15.578826,-21.398632,13.572608,-17.845173,11.613526,-2.2619896,3.2585664,7.109747,2.3230517,15.171521,-31.107914,51.622925,-2.154373,-0.49510437,-3.5732062,-13.856998,-13.111795,40.497517,56.97081,2.8237252,8.224826,-4.056301
55,5.304980278015137,-2.3142197132110596,76.23362731933594,0.18535049824086103,3.5009077618398505,-84.18843323468697,-6.396281,3.3101075,-2.356839,26.999338,-24.802216,-2.7534263,2.8851035,-16.604263,-21.385757,15.567855,-18.738834,11.654104,-2.2168887,2.9098465,7.013107,2.3757067,15.160075,-31.146683,51.49388,-2.2157927,-0.5396081,-3.6404574,-13.900662,-13.150453,40.347378,56.72467,2.769053,8.109623,-4.3375206
56,5.528866291046143,-2.522608518600464,76.12088775634766,0.5871260496716371,3.6829840881745737,-83.95972544179297,-6.4414344,2.5557084,-2.5141802,27.04004,-25.068995,-2.3830917,1.954368,-17.687449,-21.29714,17.791695,-19.696615,11.592688,-2.1411898,2.5212977,6.942605,2.3975167,15.163857,-31.20755,51.367687,-2.2731116,-0.5680836,-3.6768866,-13.94334,-13.183876,40.17812,56.46139,2.666431,7.982861,-4.6101336
57,5.74859619140625,-2.733820676803589,75.99908447265625,1.0304761194282495,3.861927663456799,-83.75843881473905,-6.476547,1.7521813,-2.6595044,27.081951,-25.358788,-1.9759139,0.91452694,-18.845278,-21.134418,20.215715,-20.736992,11.477206,-2.0325394,2.0775857,6.894086,2.3926682,15.188096,-31.300413,51.230217,-2.3192134,-0.5682563,-3.6666083,-13.985705,-13.21059,39.985245,56.183315,2.500556,7.84594,-4.8623066
58,5.954720973968506,-2.9498085975646973,75.87010192871094,1.5150098222612498,4.040726538627074,-83.57464176604388,-6.504962,0.8984595,-2.798759,27.12553,-25.66709,-1.5356299,-0.23913392,-20.086514,-20.892513,22.83498,-21.8543,11.31188,-1.923446,1.5860801,6.8593087,2.3755915,15.21926,-31.391148,51.08607,-2.3572772,-0.5533378,-3.6276345,-14.04783,-13.218977,39.801643,55.917698,2.2921355,7.7015553,-5.1067276
59,6.150862216949463,-3.157208204269409,75.73285675048828,2.006257893141806,4.204454204924814,-83.41675840422982,-6.5134754,0.04954256,-2.9146583,27.179989,-25.98677,-1.0911324,-1.5028727,-21.353617,-20.543325,25.649145,-22.992336,10.962999,-1.7763205,1.0710628,6.860084,2.3261852,15.277239,-31.507158,50.948593,-2.4105115,-0.53931475,-3.5821838,-14.107557,-13.217578,39.587936,55.634872,2.054374,7.544979,-5.3593116
60,6.350312232971191,-3.37326717376709,75.59117126464844,2.474241132464034,4.338869202441177,-83.29439372673303,-6.4911056,-0.74378544,-2.9878147,27.255444,-26.310352,-0.6701445,-2.864882,-22.583242,-20.06307,28.645761,-24.091106,10.301769,-1.6061323,0.55764204,6.9192457,2.2648482,15.378485,-31.609802,50.804443,-2.485004,-0.5429409,-3.5583675,-14.174589,-13.199336,39.373108,55.326645,1.8199881,7.372336,-5.6422415
61,6.548530578613281,-3.5930492877960205,75.44368743896484,2.924703733283235,4.428975447048331,-83.23040967902145,-6.4276085,-1.483708,-2.9933589,27.364107,-26.643255,-0.2577042,-4.3625364,-23.786,-19.407217,31.938797,-25.15979,9.208266,-1.4114455,0.041911013,7.0560675,2.1889834,15.502915,-31.651924,50.664726,-2.5562363,-0.577087,-3.5793478,-14.266949,-13.163415,39.181526,54.996277,1.5625799,7.202907,-5.933921
62,6.71698522567749,-3.8273508548736572,75.30056762695312,3.371667449011431,4.487185431581706,-83.21330857874055,-6.331658,-2.194625,-2.9490626,27.495667,-26.986595,0.15435474,-5.9822807,-24.96951,-18.592234,35.462326,-26.210438,7.7794905,-1.188867,-0.48855972,7.255337,2.0955553,15.652575,-31.661621,50.526226,-2.6287076,-0.62969023,-3.6256526,-14.377281,-13.108617,38.996494,54.649746,1.2769276,7.0323215,-6.2326145
63,6.854086399078369,-4.015166759490967,75.15167236328125,3.7956447758546186,4.540079041453497,-83.201248131605,-6.2219005,-2.8581991,-2.8983793,27.626043,-27.325468,0.52835804,-7.641255,-26.05888,-17.699587,38.96603,-27.191183,6.21719,-0.9751662,-1.0057825,7.4784217,1.987663,15.827303,-31.683413,50.4028,-2.7365124,-0.68488854,-3.6597586,-14.496403,-13.033428,38.82548,54.30588,1.0390993,6.821442,-6.5927835
64,7.000631332397461,-4.248707294464111,75.01174926757812,4.175579013465191,4.613810292171918,-83.15201596496475,-6.119002,-3.4544334,-2.8831325,27.733221,-27.644407,0.8260126,-9.261287,-26.994753,-16.81856,42.23162,-28.064198,4.7243834,-0.80856067,-1.4805093,7.685056,1.8675781,16.024755,-31.761543,50.309364,-2.9129906,-0.72698957,-3.6440027,-14.613465,-12.935446,38.673634,53.98215,0.9224927,6.5307612,-7.0687127
65,7.138721466064453,-4.5111613273620605,74.8758773803711,4.50843841292069,4.710091541568316,-83.06517684778917,-6.032431,-3.9793346,-2.898456,27.827333,-27.94576,1.0413713,-10.84943,-27.80112,-15.985349,45.34132,-28.853971,3.2189128,-0.6934254,-1.9098047,7.870365,1.7285899,16.24503,-31.923319,50.243965,-3.2077923,-0.7521437,-3.5425937,-14.733588,-12.812332,38.529934,53.67824,0.99042755,6.1451707,-7.6637664
66,7.266419410705566,-4.773716926574707,74.74655151367188,4.802847184959131,4.816667480597086,-82.95954179379537,-5.95336,-4.4415574,-2.925517,27.917286,-28.234995,1.1934577,-12.441836,-28.499544,-15.159959,48.39389,-29.581892,1.6382853,-0.61048204,-2.307044,8.051603,1.5689011,16.487806,-32.143215,50.20315,-3.5899482,-0.76960593,-3.383792,-14.859678,-12.664096,38.391865,53.388702,1.1835198,5.684227,-8.35073
67,7.3776679039001465,-5.057673931121826,74.62273406982422,5.054356608393149,4.937928411101576,-82.82255269184813,-5.87783,-4.840159,-2.9839163,27.984972,-28.50408,1.2812274,-14.003547,-29.035515,-14.330146,51.217133,-30.207493,0.22374682,-0.56537277,-2.6666453,8.220549,1.3970729,16.747904,-32.384357,50.203045,-3.972349,-0.7830117,-3.2255762,-14.981087,-12.49272,38.283623,53.12523,1.3946117,5.160736,-9.138427
68,7.473484992980957,-5.356431484222412,74.50875091552734,5.258413595379615,5.078254688838115,-82.641728321587,-5.801797,-5.1734767,-3.0933454,28.012468,-28.744656,1.303608,-15.49958,-29.35293,-13.490221,53.645382,-30.685467,-0.77404624,-0.5645279,-2.9811482,8.368628,1.2204701,17.016964,-32.608448,50.263317,-4.2671814,-0.7950764,-3.125597,-15.087535,-12.301419,38.23114,52.90017,1.5160171,4.590018,-10.037781
69,7.571730136871338,-5.673852443695068,74.4095458984375,5.406722716154343,5.2508291140678836,-82.40877005848454,-5.737134,-5.4329267,-3.2608924,27.989088,-28.948942,1.2463015,-16.920788,-29.401955,-12.639264,55.62872,-31.003658,-1.2107363,-0.6165992,-3.2366152,8.482431,1.0341973,17.289541,-32.810696,50.41038,-4.4735575,-0.81746066,-3.1105468,-15.177216,-12.091714,38.24397,52.728714,1.5403563,3.9783719,-11.052764
70,7.643872261047363,-6.006453990936279,74.32323455810547,5.504069355925375,5.449317686082375,-82.13247503804043,-5.68317,-5.6213994,-3.4736772,27.928423,-29.124266,1.1149079,-18.278585,-29.225107,-11.806025,57.27898,-31.188175,-1.2293785,-0.7178032,-3.438383,8.5687065,0.83276844,17.563858,-33.0077,50.63421,-4.629097,-0.8450403,-3.145214,-15.25556,-11.863819,38.310196,52.600784,1.5135094,3.3187916,-12.178309
71,7.688997745513916,-6.3560686111450195,74.25113677978516,5.564231547850407,5.64904018403739,-81.8258636205766,-5.61392,-5.753569,-3.7218711,27.843412,-29.28352,0.93773574,-19.570318,-28.908873,-11.025729,58.66926,-31.247816,-1.0103582,-0.85429037,-3.6073859,8.649661,0.6227518,17.83685,-33.192806,50.899883,-4.7028522,-0.85451394,-3.1945815,-15.321785,-11.619454,38.42333,52.48901,1.4078734,2.6100569,-13.414288
72,7.808114528656006,-6.707018852233887,74.17530059814453,5.60130262892365,5.8253907876136015,-81.50185300160487,-5.5024867,-5.8448477,-3.9965074,27.745901,-29.438835,0.743411,-20.792694,-28.53765,-10.327366,59.861385,-31.189463,-0.74083257,-1.0132153,-3.7649665,8.7471075,0.41141534,18.104868,-33.35797,51.172955,-4.6630497,-0.82303715,-3.223361,-15.377178,-11.361913,38.579525,52.36818,1.1967887,1.8518354,-14.762058
73,7.891942024230957,-7.085981369018555,74.10572052001953,5.6160990094048575,5.9727494001642505,-81.16401834726332,-5.3261666,-5.893812,-4.295479,27.607006,-29.58104,0.5233516,-21.932714,-28.101362,-9.699291,60.831192,-30.972187,-0.39884382,-1.1961452,-3.9137418,8.8629465,0.20332024,18.36606,-33.509964,51.46255,-4.4496636,-0.73215634,-3.2243123,-15.4163475,-11.0919695,38.797684,52.24997,0.8530275,1.0120151,-16.236212
74,7.938705921173096,-7.489102363586426,74.0433578491211,5.602360282985732,6.1043681801631395,-80.80588139236801,-5.103737,-5.8942246,-4.623564,27.430565,-29.709095,0.2694661,-22.99469,-27.568707,-9.131065,61.557533,-30.61014,0.08967011,-1.4078877,-4.042731,8.986631,-0.0073136,18.619555,-33.65002,51.783936,-4.095825,-0.5984945,-3.2159402,-15.438853,-10.809519,39.0741,52.140476,0.3896495,0.10966179,-17.836674
75,7.981373310089111,-7.9025983810424805,73.98853302001953,5.563905001921907,6.2235512072357855,-80.42400827629056,-4.8718,-5.8538585,-4.980137,27.278637,-29.84521,0.0069904053,-24.001942,-27.009047,-8.65104,62.103027,-30.181303,0.6153572,-1.6402428,-4.1539683,9.12104,-0.23127556,18.863676,-33.76338,52.113636,-3.7107317,-0.45181555,-3.2021625,-15.452759,-10.519112,39.37002,52.00659,-0.15909225,-0.7788221,-19.54196
76,8.003763198852539,-8.3024263381958,73.92764282226562,5.5045820432618875,6.333562832575874,-80.01517515662887,-4.668792,-5.7819376,-5.3640976,27.21772,-30.013338,-0.2392243,-24.980558,-26.490076,-8.28572,62.531395,-29.760506,1.0657092,-1.8827896,-4.248693,9.270541,-0.48007092,19.096087,-33.83657,52.427284,-3.4029984,-0.32180837,-3.1858792,-15.45958,-10.227341,39.641853,51.805397,-0.75603855,-1.5788449,-21.328829
77,8.023752212524414,-8.712382316589355,73.864501953125,5.419418215138744,6.429034609250723,-79.56953559058678,-4.4848766,-5.671914,-5.7843447,27.23958,-30.205587,-0.46149847,-25.907656,-26.011133,-8.054427,62.816216,-29.320652,1.4380739,-2.1346414,-4.3240223,9.440671,-0.761496,19.312647,-33.872704,52.749096,-3.1690874,-0.2076819,-3.154469,-15.449375,-9.939879,39.90264,51.528248,-1.4221277,-2.282501,-23.29313
78,8.046921730041504,-9.14808177947998,73.802490234375,5.308304649093501,6.510775937193528,-79.09202906050479,-4.3079605,-5.522773,-6.237773,27.320148,-30.41472,-0.6741229,-26.780903,-25.547258,-7.934098,62.93516,-28.834322,1.7787834,-2.398293,-4.379321,9.628843,-1.0718656,19.511654,-33.87932,53.086494,-2.9613051,-0.096691534,-3.1104302,-15.417705,-9.658861,40.164238,51.18717,-2.1679077,-2.9156282,-25.415266
79,8.05620002746582,-9.618760108947754,73.73527526855469,5.183700483526626,6.591239041182036,-78.60048250421275,-4.165073,-5.351407,-6.7071385,27.485159,-30.657356,-0.8858961,-27.656002,-25.129536,-7.890649,62.957947,-28.373201,2.0474248,-2.6688063,-4.419965,9.826808,-1.4054176,19.696571,-33.85204,53.389114,-2.824649,-0.0010972846,-3.0784545,-15.381134,-9.387207,40.38668,50.77666,-2.9261675,-3.4640925,-27.493973
80,8.060826301574707,-10.080475807189941,73.65326690673828,5.0578767940436835,6.682552698010885,-78.11281605244844,-4.082772,-5.1752687,-7.174519,27.761269,-30.949331,-1.1062194,-28.587175,-24.789188,-7.893029,62.95396,-28.009321,2.2036211,-2.9403553,-4.452238,10.027061,-1.7557582,19.875156,-33.788086,53.602764,-2.8057916,0.06723299,-3.0831149,-15.355352,-9.129083,40.527126,50.289436,-3.6264434,-3.9236832,-29.324965
81,8.066009521484375,-10.538837432861328,73.56130981445312,4.928121293637878,6.7886287812665715,-77.62184699577661,-4.0797873,-4.9956045,-7.646046,28.173584,-31.299286,-1.338799,-29.572672,-24.543234,-7.967801,62.917828,-27.787642,2.2045462,-3.2182796,-4.471923,10.23144,-2.1140404,20.0541,-33.67537,53.701668,-2.951688,0.10568766,-3.1293538,-15.331066,-8.885694,40.563705,49.704933,-4.270844,-4.2845826,-30.876541
82,8.059475898742676,-10.988073348999023,73.45549011230469,4.789597694578524,6.903009164526677,-77.12192492497368,-4.1367655,-4.8057246,-8.127838,28.700016,-31.695969,-1.5785692,-30.586401,-24.371077,-8.121981,62.8179,-27.66004,2.0804384,-3.5021775,-4.4791803,10.445022,-2.482162,20.235817,-33.52039,53.709225,-3.2278516,0.121439345,-3.2049828,-15.30035,-8.657672,40.51903,49.024544,-4.8819375,-4.5604405,-32.24668
83,8.039510726928711,-11.43494701385498,73.3270492553711,4.651825543954224,7.021669444651536,-76.63341110700505,-4.2234387,-4.610618,-8.601292,29.297958,-32.130802,-1.822924,-31.649725,-24.247038,-8.292987,62.690655,-27.561016,1.9012245,-3.77767,-4.486149,10.665012,-2.8682961,20.421366,-33.346985,53.644806,-3.557036,0.116723,-3.3093963,-15.284024,-8.450965,40.422054,48.274723,-5.4133615,-4.790481,-33.424896
84,8.035146713256836,-11.904983520507812,73.18656921386719,4.524238943412969,7.140117669183953,-76.17670749063252,-4.3091154,-4.4164314,-9.048635,29.925943,-32.59611,-2.0664003,-32.78272,-24.14501,-8.418944,62.56957,-27.423214,1.7364987,-4.029344,-4.5036106,10.88883,-3.2826328,20.61059,-33.181175,53.52915,-3.8628213,0.0935312,-3.4415817,-15.297845,-8.275124,40.299088,47.47627,-5.823551,-5.0147815,-34.40016
85,8.02115535736084,-12.397061347961426,73.03441619873047,4.414999199277019,7.263094375075843,-75.76810971550049,-4.3971405,-4.230876,-9.451741,30.583061,-33.09915,-2.3114421,-34.019157,-24.07293,-8.483677,62.476837,-27.25164,1.5580659,-4.2334414,-4.5441933,11.114546,-3.7244532,20.802143,-33.04151,53.3633,-4.17933,0.05648814,-3.5677178,-15.322904,-8.135219,40.148598,46.610847,-6.074844,-5.239469,-35.141197
86,7.999894618988037,-12.871657371520996,72.86612701416016,4.316727855439184,7.390410180837297,-75.39301070519032,-4.4967966,-4.049903,-9.823458,31.285448,-33.63995,-2.5599854,-35.336113,-24.036303,-8.522179,62.38596,-27.073572,1.3437287,-4.402599,-4.596583,11.344556,-4.1913886,20.995193,-32.91244,53.13875,-4.5288224,0.0034941453,-3.6996562,-15.351261,-8.034211,39.957222,45.664604,-6.196567,-5.452436,-35.66071
87,7.973887920379639,-13.358855247497559,72.68389892578125,4.2152055478914345,7.510772958866872,-75.0252967342419,-4.5917797,-3.8619955,-10.192422,32.027466,-34.20593,-2.8063517,-36.679787,-24.008915,-8.540063,62.27172,-26.858118,1.1721243,-4.5766726,-4.635365,11.583333,-4.69048,21.190733,-32.768467,52.860683,-4.8183155,-0.07394807,-3.9054136,-15.416098,-7.980828,39.738583,44.66203,-6.2417517,-5.665017,-36.012722
88,7.935208320617676,-13.82124137878418,72.490478515625,4.0962645648979334,7.61310568795867,-74.638971593127,-4.6667604,-3.654781,-10.588343,32.80459,-34.78543,-3.0445747,-37.99514,-23.964071,-8.542598,62.10576,-26.571096,1.1219916,-4.7966547,-4.635619,11.83636,-5.2266173,21.391212,-32.58191,52.531662,-4.9546585,-0.18432252,-4.2530828,-15.548607,-7.9875216,39.50816,43.62362,-6.263486,-5.8864026,-36.25176
89,7.900463104248047,-14.306266784667969,72.28614807128906,3.95740120666477,7.699876034064871,-74.22467495702317,-4.7222967,-3.43302,-11.028809,33.620247,-35.378834,-3.2671683,-39.2754,-23.902567,-8.520985,61.879654,-26.193283,1.2326237,-5.075961,-4.587083,12.102407,-5.7803016,21.595997,-32.348454,52.16029,-4.876895,-0.3454124,-4.7982984,-15.715615,-8.060876,39.266968,42.518494,-6.2647367,-6.1265235,-36.340225
90,7.871199607849121,-14.853496551513672,72.08731842041016,3.8048833076617594,7.775427946123096,-73.79700514249156,-4.76524,-3.1998417,-11.495049,34.475998,-35.990253,-3.4795737,-40.547966,-23.834112,-8.472532,61.60755,-25.745111,1.4564104,-5.392095,-4.502848,12.381125,-6.351905,21.805914,-32.07889,51.74027,-4.647381,-0.5503419,-5.4913116,-15.907227,-8.204756,39.01237,41.336414,-6.2175326,-6.377539,-36.26437
91,7.858386039733887,-15.427605628967285,71.8812255859375,3.637650488302352,7.832048684902124,-73.36582863947656,-4.7840557,-2.9389324,-11.962477,35.350525,-36.608955,-3.6954305,-41.812096,-23.762236,-8.407024,61.297077,-25.254221,1.7436897,-5.731752,-4.3936157,12.680208,-6.9748683,22.028833,-31.768038,51.24719,-4.3561106,-0.77011985,-6.2430835,-16.183857,-8.4288,38.75165,40.120625,-6.1324024,-6.620712,-36.11463
92,7.834158897399902,-15.985666275024414,71.66732788085938,3.4543758984587076,7.862061910860202,-72.9408519830724,-4.7680855,-2.6338508,-12.4057665,36.225136,-37.22782,-3.928409,-43.066387,-23.68957,-8.335992,60.956253,-24.748343,2.0443575,-6.0829654,-4.271597,13.008221,-7.6781287,22.276728,-31.410099,50.648205,-4.091444,-0.9723433,-6.9664836,-16.60827,-8.746599,38.496677,38.911396,-6.0169315,-6.8373,-35.9811
93,7.791597366333008,-16.538686752319336,71.44109344482422,3.261668793021305,7.870807558666788,-72.53922509058539,-4.7319736,-2.2924798,-12.793757,37.128662,-37.840023,-4.1756315,-44.33911,-23.600704,-8.230631,60.58736,-24.20077,2.3780792,-6.4163914,-4.1522202,13.375964,-8.463115,22.553137,-30.98074,49.952824,-3.8857226,-1.1788963,-7.7164383,-17.171288,-9.161859,38.23606,37.69877,-5.830025,-7.0382867,-35.903183
94,7.740440845489502,-17.104812622070312,71.21111297607422,3.056868618621596,7.860106479516168,-72.15077144951348,-4.673896,-1.9187306,-13.14698,38.058136,-38.453598,-4.432875,-45.622005,-23.501574,-8.09188,60.18586,-23.609947,2.7618005,-6.7475977,-4.025737,13.777249,-9.3108425,22.859858,-30.491783,49.16276,-3.690513,-1.3960394,-8.515091,-17.842588,-9.67537,37.976315,36.45606,-5.5793567,-7.2272696,-35.8252
95,7.668854236602783,-17.666812896728516,70.97137451171875,2.825381192349561,7.817277236458305,-71.74424056563659,-4.5569506,-1.4905465,-13.5164995,38.943375,-39.06923,-4.711274,-46.85951,-23.426983,-7.975935,59.747078,-23.0383,3.1403148,-7.132235,-3.8697934,14.195594,-10.220088,23.209621,-29.997301,48.228767,-3.472181,-1.5652479,-9.228498,-18.651049,-10.299941,37.75809,35.19029,-5.345472,-7.374117,-35.693977
96,7.620736122131348,-18.267410278320312,70.73490905761719,2.5523992526538004,7.730190951307356,-71.28825467695914,-4.3453326,-0.98609775,-13.95299,39.7165,-39.692665,-5.0204773,-47.996807,-23.41209,-7.9420404,59.267666,-22.547226,3.4564261,-7.6254225,-3.6641726,14.617362,-11.1878805,23.621908,-29.55553,47.09212,-3.1977272,-1.6267437,-9.723957,-19.620586,-11.056036,37.625977,33.895336,-5.2060356,-7.4477506,-35.455147
97,7.546228408813477,-18.868667602539062,70.4983901977539,2.224580170577913,7.583863828699381,-70.76261548371194,-4.052551,-0.3996942,-14.492065,40.435387,-40.343994,-5.3761024,-49.022102,-23.467117,-8.012058,58.75922,-22.168056,3.7005289,-8.2549715,-3.4053237,15.065231,-12.210599,24.109734,-29.189615,45.709427,-2.832542,-1.5501001,-9.937594,-20.762121,-11.955058,37.555096,32.526424,-5.179671,-7.478198,-35.02595
98,7.477204322814941,-19.480953216552734,70.25807189941406,1.8517299817696347,7.3903585298552725,-70.18752239873889,-3.6878583,0.25856724,-15.095091,41.10833,-41.014664,-5.7676277,-49.96473,-23.574963,-8.153195,58.219948,-21.86261,3.8993301,-8.986062,-3.111629,15.542003,-13.282929,24.673948,-28.87704,44.098858,-2.4062977,-1.3671484,-9.95486,-22.050644,-12.998971,37.551292,31.073456,-5.217583,-7.4681063,-34.453045
99,7.400920867919922,-20.108444213867188,70.02801513671875,1.45367136834022,7.178651142519735,-69.59203105801662,-3.211307,0.9904839,-15.700717,41.592266,-41.666756,-6.1636086,-50.83429,-23.73071,-8.340045,57.62898,-21.585262,4.050522,-9.780168,-2.793013,16.005941,-14.402298,25.31595,-28.610722,42.29234,-1.9846115,-1.1116829,-9.868324,-23.448034,-14.192203,37.70832,29.570534,-5.3035116,-7.345079,-33.877094
100,7.316397666931152,-20.77113151550293,69.80485534667969,1.0513674446837533,6.976543588965033,-69.00561497756011,-2.5858438,1.7993569,-16.249693,41.746693,-42.25623,-6.5308485,-51.637295,-23.925259,-8.548954,56.961132,-21.288816,4.1520457,-10.598031,-2.4556596,16.417187,-15.560898,26.038221,-28.3788,40.315304,-1.6297759,-0.819093,-9.769003,-24.918655,-15.539415,38.12275,28.047136,-5.4187856,-7.037156,-33.43968
101,7.239307403564453,-21.470502853393555,69.59013366699219,0.6311230039280161,6.752747091799062,-68.42723144728032,-1.7919681,2.7090917,-16.740828,41.592884,-42.83801,-6.8588877,-52.35831,-24.137632,-8.745293,56.22505,-20.97855,4.2020693,-11.454463,-2.0837612,16.805553,-16.776405,26.852537,-28.198156,38.12897,-1.3966537,-0.4786952,-9.616538,-26.543806,-17.047968,38.862606,26.489092,-5.559188,-6.448029,-33.2515
102,7.165048122406006,-22.179903030395508,69.39616394042969,0.18761393050171254,6.505788650432059,-67.84361798192573,-0.85529274,3.7146041,-17.196243,41.190666,-43.413776,-7.160328,-52.99892,-24.377329,-8.953338,55.42888,-20.673027,4.2021117,-12.361264,-1.6821164,17.184906,-18.033485,27.762325,-28.074364,35.710052,-1.2415682,-0.075882085,-9.386249,-28.314507,-18.711311,39.89729,24.857187,-5.722927,-5.64142,-33.208546
103,7.099575519561768,-22.927518844604492,69.22718811035156,-0.24292656064040935,6.3065527966482575,-67.26792897063498,0.18869607,4.77629,-17.59557,40.46114,-43.862167,-7.4374037,-53.589813,-24.675797,-9.238463,54.545944,-20.34382,4.1562486,-13.269408,-1.28263,17.488802,-19.286875,28.752352,-27.980373,33.122204,-1.0766658,0.35702652,-9.190263,-30.056406,-20.506748,41.1516,23.145168,-5.9094644,-4.783579,-33.1326
104,7.037129878997803,-23.735084533691406,69.08726501464844,-0.6221193543186202,6.224909778714315,-66.71432309145763,1.3006532,5.8530245,-17.922428,39.330444,-44.06769,-7.6952662,-54.162567,-25.061295,-9.665993,53.55027,-19.96328,4.0694594,-14.130236,-0.9129193,17.644405,-20.504131,29.796968,-27.885813,30.451723,-0.8102322,0.78555846,-9.138358,-31.610144,-22.407763,42.532784,21.377197,-6.12789,-4.0432243,-32.849995
105,6.979977130889893,-24.597171783447266,68.98199462890625,-0.923707981151186,6.273195476231785,-66.19010969662071,2.5148957,6.929606,-18.163273,37.68122,-44.04569,-7.920702,-54.74667,-25.563456,-10.228412,52.43795,-19.546152,3.9156735,-14.936687,-0.5884289,17.612745,-21.72267,30.886395,-27.778996,27.723934,-0.36968264,1.2103574,-9.300321,-33.032715,-24.414932,44.0658,19.618616,-6.3295455,-3.4697874,-32.28344
106,6.933747291564941,-25.511821746826172,68.90556335449219,-1.1698780196141292,6.41409242039304,-65.6879938137497,3.8330324,8.02494,-18.32489,35.59213,-43.84579,-8.12225,-55.31492,-26.153147,-10.904049,51.220444,-19.100098,3.7052763,-15.704479,-0.28537315,17.433867,-22.967873,32.021122,-27.69175,24.91927,0.18408518,1.6415874,-9.60284,-34.391483,-26.529392,45.77655,17.839563,-6.5375724,-2.9755979,-31.540016
107,6.884068489074707,-26.467918395996094,68.86512756347656,-1.393635724646815,6.642304252853329,-65.20079053720919,5.1697936,9.149119,-18.426216,33.27717,-43.39581,-8.338876,-55.80867,-26.772907,-11.738795,49.8899,-18.585455,3.498559,-16.423885,0.027048906,17.150854,-24.171503,33.18303,-27.636545,22.04894,0.7581778,2.0595603,-9.937471,-35.57036,-28.724386,47.55088,15.971086,-6.8607044,-2.529039,-30.724955
108,6.828511714935303,-27.47284507751465,68.85345458984375,-1.6282383352158636,6.953145052396731,-64.72106609646877,6.439818,10.313859,-18.492723,30.951319,-42.622482,-8.602514,-56.171314,-27.369986,-12.776614,48.445255,-17.959309,3.3548028,-17.089079,0.3783288,16.801697,-25.273376,34.341305,-27.62268,19.142828,1.2587305,2.4463868,-10.191247,-36.445724,-30.959753,49.25349,13.977371,-7.4223704,-2.10256,-29.942741
109,6.778881072998047,-28.523019790649414,68.86628723144531,-1.889724273966447,7.368021988159205,-64.24696152838943,7.6764064,11.566323,-18.533094,28.498158,-41.495678,-8.932978,-56.376534,-27.962488,-14.1252165,46.834225,-17.14739,3.275105,-17.703852,0.795301,16.35287,-26.319881,35.476723,-27.654894,16.248405,1.6785468,2.8251815,-10.34132,-37.00634,-33.221043,50.867817,11.944536,-8.491903,-1.6818471,-29.19131
110,6.749184608459473,-29.615774154663086,68.89479064941406,-2.154238544202074,7.879752828414491,-63.78432919957375,8.90543,12.875975,-18.535284,25.874855,-40.063107,-9.307729,-56.449253,-28.553926,-15.737177,45.07431,-16.1898,3.236174,-18.271568,1.2576339,15.792003,-27.369394,36.58324,-27.742676,13.391086,2.0550768,3.1948593,-10.439579,-37.33033,-35.510826,52.435078,9.924002,-9.93441,-1.300245,-28.423025
111,6.703535556793213,-30.75349998474121,68.94471740722656,-2.395948480064666,8.440844887557562,-63.33668942249385,10.033845,14.146194,-18.508255,23.398903,-38.378605,-9.685108,-56.408596,-29.075148,-17.418938,43.2559,-15.213344,3.2587876,-18.791647,1.7246624,15.1814995,-28.282143,37.644085,-27.849169,10.496362,2.400364,3.5042362,-10.48093,-37.39035,-37.81189,53.881603,7.8322186,-11.290111,-0.9913888,-27.68051
112,6.650625228881836,-31.910429000854492,69.01361846923828,-2.5893207769825057,9.003805501494755,-62.90646026125931,10.96175,15.285242,-18.471424,21.401585,-36.49553,-10.021841,-56.2821,-29.468143,-18.968014,41.468693,-14.344588,3.3617055,-19.26751,2.1577203,14.581066,-28.993471,38.64154,-27.963213,7.5607424,2.6895452,3.7008984,-10.459189,-37.16429,-40.09395,55.13532,5.603352,-12.0984335,-0.77354074,-27.013588
113,6.616646766662598,-33.09465789794922,69.09674072265625,-2.7437169110531783,9.588800795378283,-62.478166062160234,11.666434,16.324537,-18.419964,19.89576,-34.366695,-10.376948,-56.06546,-29.73076,-20.395943,39.651,-13.619231,3.5695872,-19.73056,2.5812578,13.968578,-29.69715,39.569008,-28.156599,4.777214,2.8629365,3.7556634,-10.323595,-36.675438,-42.334137,56.253227,3.2840903,-12.15617,-0.63319653,-26.511488
114,6.564629077911377,-34.32423400878906,69.19391632080078,-2.864526060270311,10.207309220054382,-62.05425171682075,12.199227,17.297836,-18.36591,18.743372,-31.992895,-10.756546,-55.751114,-29.892973,-21.780514,37.774918,-12.963043,3.865421,-20.164335,3.0121312,13.307354,-30.176327,40.417526,-28.331171,1.9478078,3.0308614,3.7029057,-10.088213,-35.90938,-44.52383,57.223263,0.9567857,-11.743,-0.55263585,-26.129776
115,6.515004634857178,-35.584678649902344,69.3050537109375,-2.925038914363429,10.802052650031447,-61.6621892466133,12.568483,18.123318,-18.348364,18.035513,-29.484116,-11.048041,-55.369488,-29.959066,-23.014019,35.984383,-12.342484,4.201532,-20.548964,3.3952122,12.67274,-30.459291,41.176716,-28.463608,-0.92193294,3.1289918,3.5779965,-9.847577,-34.87995,-46.64516,57.928574,-1.3837085,-11.096478,-0.5363905,-25.723053
116,6.460176467895508,-36.87593460083008,69.43553161621094,-2.901128767192299,11.31807741316839,-61.33010316584874,12.780631,18.71974,-18.392946,17.849379,-26.939577,-11.142071,-54.95935,-29.939138,-23.986206,34.439907,-11.733909,4.5273404,-20.849371,3.676111,12.127488,-30.493952,41.828323,-28.515013,-3.8888717,3.1312199,3.4157453,-9.692578,-33.56668,-48.6758,58.22896,-3.752892,-10.462152,-0.5920536,-25.137882
117,6.385770320892334,-38.196067810058594,69.5894546508789,-2.7759365896879844,11.760836211238159,-61.05503855820749,12.74968,19.02092,-18.55028,18.328262,-24.302658,-10.912021,-54.552673,-29.831863,-24.62694,33.16653,-11.09768,4.8665447,-21.057167,3.835962,11.654715,-30.261755,42.358067,-28.461014,-6.991536,3.0586214,3.2126694,-9.684028,-31.891787,-50.588696,58.048306,-6.159425,-9.752479,-0.7629423,-24.305887
118,6.303675651550293,-39.55973815917969,69.7540283203125,-2.572764875092109,12.161759917041218,-60.818740702323026,12.50349,19.101103,-18.76178,19.333475,-21.503944,-10.485049,-54.133125,-29.650043,-25.010708,32.097477,-10.467343,5.2288313,-21.19345,3.9222414,11.217324,-29.799267,42.76141,-28.330225,-10.173001,2.9194186,2.9526582,-9.759478,-29.861603,-52.365295,57.45548,-8.56713,-8.875815,-1.0236802,-23.30951
119,6.209171772003174,-40.94282531738281,69.92097473144531,-2.3290490870699814,12.505172811966544,-60.63042570796503,12.199631,19.074717,-18.906544,20.564648,-18.637419,-10.106037,-53.67029,-29.423008,-25.243753,31.26605,-9.9338045,5.54166,-21.262974,3.979206,10.850333,-29.138617,43.03397,-28.165352,-13.3440895,2.6693609,2.6492908,-9.8269005,-27.599249,-53.994602,56.542538,-10.924933,-8.065473,-1.286164,-22.222729
120,6.109617233276367,-42.34173583984375,70.08544921875,-2.0798668878367215,12.770246349158112,-60.504946074793764,11.994124,19.04218,-18.895102,21.754911,-15.825798,-9.989332,-53.13169,-29.172958,-25.427904,30.702993,-9.585478,5.7337284,-21.257145,4.0442243,10.586189,-28.206709,43.17246,-27.985722,-16.505024,2.3104587,2.3176277,-9.795485,-25.20951,-55.47288,55.3952,-13.190107,-7.5716944,-1.4721774,-21.12298
121,6.006068229675293,-43.748497009277344,70.23703002929688,-1.8192423232241814,12.945970630982751,-60.44015416361102,11.898363,18.990314,-18.772894,22.884277,-12.9649935,-10.193052,-52.48565,-28.894209,-25.557444,30.436403,-9.536526,5.7682633,-21.200308,4.1026893,10.458399,-27.314335,43.16639,-27.887148,-19.411013,1.6208081,1.9353594,-9.623568,-22.74332,-56.77765,54.013744,-15.373668,-7.478151,-1.5598495,-19.94781
122,5.896335601806641,-45.165916442871094,70.36975860595703,-1.5331765741081425,13.044209451587104,-60.43390580701909,11.841043,18.862843,-18.588999,24.084244,-10.03677,-10.584601,-51.760212,-28.578506,-25.58383,30.448978,-9.712641,5.689047,-21.070395,4.1426005,10.414592,-26.074495,43.005035,-27.770594,-22.391941,0.82117677,1.5011017,-9.370331,-19.996016,-57.883816,52.317997,-17.529861,-7.714535,-1.6050138,-18.68353
123,5.783999919891357,-46.58449172973633,70.480712890625,-1.2459778609014927,13.077780441681849,-60.504033060954576,11.842327,18.695963,-18.275572,25.351213,-7.3223996,-11.059055,-51.0077,-28.23981,-25.546963,30.696634,-9.915937,5.544923,-20.866365,4.1934357,10.450667,-24.839844,42.703632,-27.74344,-25.133394,-0.0346314,1.055649,-9.0981,-17.291506,-58.79154,50.57184,-19.486914,-8.024547,-1.650348,-17.494528
124,5.685607433319092,-48.00981903076172,70.56562805175781,-0.9830939542786653,13.059716788619296,-60.66707599693986,11.906607,18.539167,-17.759153,26.709595,-5.1105165,-11.490103,-50.278423,-27.89109,-25.491282,31.13362,-9.947909,5.385332,-20.581076,4.2861047,10.541575,-23.567434,42.280624,-27.803144,-27.629025,-0.7328851,0.64522976,-8.867641,-14.84526,-59.51156,48.996254,-21.1131,-8.226242,-1.7279233,-16.546171
125,5.601975917816162,-49.44464111328125,70.61589813232422,-0.7413113128114311,13.008553177445775,-60.93607377701763,12.058368,18.452406,-16.96912,28.13343,-3.4903214,-11.933792,-49.482784,-27.51505,-25.513382,31.618662,-9.624607,5.2358403,-20.226875,4.4281883,10.659834,-22.21473,41.745003,-27.937485,-29.891054,-1.3039702,0.29168257,-8.688107,-12.714326,-60.04535,47.674747,-22.40112,-8.378173,-1.8514006,-15.897628
126,5.530106067657471,-50.87812042236328,70.63662719726562,-0.5110266100341967,12.910801517474871,-61.299415770581994,12.262194,18.424011,-15.9715,29.683577,-2.3278756,-12.374657,-48.621075,-27.109192,-25.564049,32.210075,-9.09125,5.0655794,-19.838493,4.6005397,10.815902,-20.749067,41.10083,-28.12177,-31.95332,-1.8228732,-0.031271536,-8.536583,-10.665428,-60.379383,46.499058,-23.489265,-8.675119,-1.9977069,-15.463691
127,5.442476749420166,-52.25416946411133,70.6654281616211,-0.30721839984503924,12.730886796328937,-61.73445204847252,12.432171,18.40555,-14.887312,31.511448,-1.5773628,-12.582233,-47.872925,-26.70867,-25.475657,33.15302,-8.63796,4.8415303,-19.400784,4.7834816,11.066106,-19.331093,40.368618,-28.409521,-33.733696,-2.2082682,-0.34480307,-8.417885,-8.982977,-60.52431,45.567123,-24.218105,-8.822238,-2.1364,-15.179309
128,5.3541035652160645,-53.59647750854492,70.6867446899414,-0.14203815725693755,12.430531175103596,-62.217596387478146,12.505573,18.342709,-13.829129,33.72153,-1.1895732,-12.344388,-47.4107,-26.345545,-25.086472,34.68258,-8.547469,4.535391,-18.940847,4.962792,11.464296,-18.082922,39.578518,-28.790106,-35.14643,-2.3952117,-0.6696624,-8.340723,-7.6888247,-60.494183,44.89689,-24.570835,-8.701638,-2.2341144,-14.989447
129,5.2790446281433105,-54.95236587524414,70.66259002685547,0.049575235034920846,11.940399262323139,-62.69389633669817,12.478644,18.207445,-12.773162,36.42526,-1.163346,-11.480554,-47.39046,-26.121267,-24.204912,37.13565,-9.03266,4.105651,-18.498556,5.0762367,12.06728,-17.00334,38.756496,-29.265509,-36.21835,-2.3342285,-1.0013878,-8.330918,-6.736699,-60.294563,44.432903,-24.592003,-8.272724,-2.2520967,-14.863032
130,5.187298774719238,-56.30331039428711,70.58001708984375,0.2594131725404452,11.294202313064131,-63.188681224042384,12.396855,18.071445,-11.691632,39.524345,-1.5489162,-10.131786,-47.65719,-25.953583,-22.981031,40.244495,-9.862672,3.596485,-18.055485,5.1421375,12.847846,-16.021027,37.911617,-29.826187,-37.006123,-2.080762,-1.3304191,-8.367423,-6.09891,-59.932713,44.1638,-24.306816,-7.623681,-2.2174563,-14.831979
131,5.071091175079346,-57.59922790527344,70.44850158691406,0.36684296602246524,10.610655125517534,-63.80063813443597,12.28495,17.98037,-10.680282,42.775093,-2.3505511,-8.612423,-47.928986,-25.61379,-21.762545,43.363113,-10.669589,3.103947,-17.546795,5.274305,13.734128,-15.129579,37.04718,-30.424564,-37.494144,-1.722493,-1.6695526,-8.388269,-5.8696933,-59.435818,44.17389,-23.650936,-6.789749,-2.1945276,-14.935369
132,4.957334041595459,-58.82905197143555,70.28592681884766,0.2497565921382341,10.01078148086217,-64.62927784371614,12.157244,17.92899,-9.819632,45.94946,-3.5444102,-7.2718167,-47.947834,-24.915226,-20.887037,45.89763,-11.1171,2.7093582,-16.924612,5.5963097,14.646437,-14.282055,36.16191,-30.982313,-37.68563,-1.3384897,-2.0316315,-8.336119,-6.077983,-58.839092,44.53026,-22.596619,-5.850316,-2.2505553,-15.219137
133,4.884330749511719,-60.014122009277344,70.10223388671875,-0.18210957857896515,9.490467136787014,-65.762711199655,12.07996,17.859863,-9.120162,49.05226,-5.265747,-6.1511045,-47.62912,-23.760002,-20.461697,47.6713,-10.913165,2.4412854,-16.128578,6.2000327,15.646142,-13.465818,35.25533,-31.462198,-37.60461,-0.88962585,-2.435253,-8.204168,-6.9748006,-58.184635,45.313667,-21.059206,-4.506081,-2.410347,-15.745923
134,4.844769477844238,-61.17741012573242,69.90412139892578,-0.8380680057176569,8.988027469911902,-67.12487867247037,12.022517,17.708746,-8.534672,52.19761,-7.4628615,-5.134746,-47.1454,-22.281971,-20.282423,49.034172,-10.318662,2.2513745,-15.236044,7.02734,16.744835,-12.6459,34.330364,-31.851076,-37.287888,-0.35008752,-2.8687272,-8.022927,-8.351954,-57.479664,46.407482,-19.168158,-2.8661819,-2.6500137,-16.487122
135,4.794790744781494,-62.32722854614258,69.70135498046875,-1.5730373991554232,8.540525287548967,-68.57048743380118,11.84375,17.460773,-8.031761,55.333355,-9.818374,-4.334215,-46.63193,-20.667171,-20.210926,50.209805,-9.844917,2.0879438,-14.323206,7.9598293,17.80025,-11.857445,33.393456,-32.192646,-36.712643,0.1643255,-3.297483,-7.785703,-10.001407,-56.709057,47.691994,-16.957571,-1.3026259,-2.9570725,-17.331537
136,4.721054553985596,-63.47130584716797,69.49958038330078,-2.2471260721667448,8.194374092378656,-69.95845054841033,11.403142,17.145037,-7.5776086,58.404137,-12.022891,-3.845736,-46.212738,-19.102327,-20.116226,51.430435,-10.007962,1.893183,-13.4507675,8.860183,18.673323,-11.138287,32.450863,-32.543697,-35.848595,0.5423349,-3.6872778,-7.4860177,-11.727157,-55.84336,49.059933,-14.437991,-0.18797193,-3.3028016,-18.167133
137,4.642692565917969,-64.62588500976562,69.2896957397461,-2.8814279762556168,7.9729254996739325,-71.31285831529566,10.702438,16.807234,-7.1139574,61.40962,-14.059439,-3.7733984,-45.923008,-17.570715,-19.982397,52.781612,-11.092178,1.6286986,-12.592884,9.71492,19.340899,-10.499436,31.500845,-32.927673,-34.610634,0.7167409,-4.029832,-7.0806084,-13.551573,-54.867607,50.58368,-11.456869,0.31590375,-3.6408205,-19.033348
138,4.586058616638184,-65.78531646728516,69.07428741455078,-3.53827390448766,7.846668797036864,-72.69288593209309,9.799202,16.435772,-6.644527,64.385666,-16.082174,-4.033355,-45.700336,-15.998078,-19.85823,54.14745,-12.784327,1.3242065,-11.711785,10.576256,19.87141,-9.925635,30.541409,-33.317413,-33.039013,0.76227474,-4.3444114,-6.587078,-15.547354,-53.771736,52.256516,-8.045548,0.4437587,-3.9859564,-19.968714
139,4.53066349029541,-66.9554443359375,68.87078094482422,-4.143028647419167,7.7943184205832425,-74.01255312278211,8.638184,15.999016,-6.2396393,67.32521,-18.031513,-4.4338026,-45.511063,-14.486726,-19.720762,55.46207,-14.700627,1.0232925,-10.840603,11.387716,20.26284,-9.430777,29.58303,-33.70003,-31.27035,0.7686938,-4.6377535,-6.087754,-17.514385,-52.540573,53.824627,-4.514061,0.36213487,-4.3924437,-20.850903
140,4.454766750335693,-68.12435150146484,68.6927719116211,-4.6201093757702365,7.7996522618009685,-75.18501377701529,7.1693897,15.459442,-5.9781704,70.2093,-19.839428,-4.786446,-45.31435,-13.143163,-19.557247,56.653828,-16.457516,0.77014476,-9.990238,12.093187,20.51743,-9.052629,28.645674,-34.08711,-29.431484,0.8206187,-4.9148517,-5.6568437,-19.26808,-51.169823,55.023064,-1.1559417,0.25282896,-4.9220867,-21.54741
141,4.360389709472656,-69.30957794189453,68.5463638305664,-4.931666793658723,7.925151917953654,-76.16608799224291,5.2964106,14.765197,-5.916529,73.06169,-21.46143,-5.0784855,-45.14796,-12.035472,-19.375504,57.70986,-18.004894,0.5751448,-9.14831,12.663774,20.579344,-8.811265,27.739058,-34.507122,-27.443033,0.93494815,-5.168248,-5.286725,-20.72742,-49.661537,55.767414,2.1189232,0.061858073,-5.691454,-22.02207
142,4.254283428192139,-70.49029541015625,68.43447875976562,-5.129597969734624,8.165224638264817,-77.01172536711748,3.0845187,13.949216,-5.9849415,75.87235,-22.933044,-5.400998,-45.010357,-11.098613,-19.181667,58.666813,-19.53266,0.41639644,-8.288768,13.117644,20.469944,-8.687106,26.86743,-34.958237,-25.276873,1.0645658,-5.3975554,-4.9384108,-21.991798,-48.029716,56.183334,5.4139686,-0.27937603,-6.6327333,-22.343197
143,4.147599220275879,-71.658935546875,68.34669494628906,-5.268994355022254,8.40288147903706,-77.78129794141236,0.72271705,13.097303,-6.0884714,78.56812,-24.301825,-5.718326,-44.79651,-10.243371,-18.970362,59.51897,-21.018051,0.28611568,-7.4183817,13.476578,20.312382,-8.638403,26.048473,-35.393745,-23.160622,1.202136,-5.6173763,-4.6377597,-23.18044,-46.302254,56.352577,8.465949,-0.6055538,-7.5400343,-22.53159
144,4.043651103973389,-72.80853271484375,68.27718353271484,-5.401923388105999,8.519166236427603,-78.53344200705945,-1.606813,12.300671,-6.1444974,81.074135,-25.613564,-5.9938655,-44.40406,-9.380449,-18.73307,60.262775,-22.43821,0.1757863,-6.556947,13.773214,20.233105,-8.610642,25.310535,-35.755505,-21.345446,1.336447,-5.842895,-4.408852,-24.35652,-44.519627,56.32138,10.967068,-0.7840314,-8.210196,-22.602642
145,3.9395861625671387,-73.93878936767578,68.2334213256836,-5.508724649124945,8.470591261658932,-79.28439619839745,-3.856665,11.540372,-6.124195,83.3714,-26.875576,-6.2282906,-43.801228,-8.502032,-18.430449,60.901283,-23.78416,0.08125559,-5.699017,13.996292,20.286123,-8.594715,24.681864,-36.02264,-19.90116,1.5289048,-6.099706,-4.2667756,-25.517513,-42.712578,56.00767,12.775443,-0.72840375,-8.582795,-22.500935
146,3.838136672973633,-75.05632781982422,68.20421600341797,-5.5701593518062,8.326194880373393,-80.0013683001631,-6.123209,10.78566,-6.0782213,85.4918,-28.058607,-6.435497,-43.04165,-7.656168,-18.075914,61.43394,-25.06908,0.008659855,-4.848006,14.146361,20.413645,-8.589396,24.17625,-36.212326,-18.748346,1.755385,-6.371294,-4.192009,-26.651085,-40.9027,55.41959,14.041033,-0.52724326,-8.769809,-22.238129
147,3.762108087539673,-76.17403411865234,68.1888427734375,-5.637619363420227,8.133783058289415,-80.66908561589192,-8.45051,10.110033,-6.057057,87.444725,-29.145088,-6.5965343,-42.152077,-6.832397,-17.738407,61.845577,-26.298439,-0.03664282,-4.0391855,14.279724,20.57552,-8.555969,23.79612,-36.32272,-17.904121,1.8793851,-6.6139607,-4.1605496,-27.837946,-39.116653,54.754635,14.907425,-0.281349,-8.8258295,-21.92947
148,3.6921310424804688,-77.29207611083984,68.19039154052734,-5.76344997227059,7.939767677425665,-81.27224194617102,-10.881235,9.582099,-6.115506,89.23234,-30.120098,-6.693395,-41.16138,-6.0154414,-17.490316,62.121094,-27.477314,-0.05127797,-3.3153603,14.450669,20.730938,-8.451717,23.536333,-36.342552,-17.385698,1.7665111,-6.783209,-4.1536636,-29.154535,-37.377743,54.218964,15.515306,-0.085305676,-8.805856,-21.691721
149,3.623809576034546,-78.37776947021484,68.19381713867188,-5.981653716003436,7.735145090751508,-81.80265646613893,-13.4408045,9.232891,-6.2938824,90.876076,-30.984144,-6.731617,-40.0528,-5.180349,-17.37359,62.24834,-28.606606,-0.026203645,-2.6997144,14.69532,20.892859,-8.2663355,23.397676,-36.25345,-17.266962,1.3458496,-6.8618884,-4.1997433,-30.601412,-35.69297,53.822163,15.763029,0.08504855,-8.67627,-21.544693
150,3.5458743572235107,-79.47118377685547,68.20581817626953,-6.260027434410511,7.500595675334379,-82.27093344068389,-16.103704,9.011466,-6.5679936,92.36488,-31.740475,-6.7175064,-38.82139,-4.333026,-17.343393,62.23597,-29.682634,0.031170651,-2.1813507,14.986597,21.076643,-8.0029745,23.382166,-36.04959,-17.534042,0.6995282,-6.8739696,-4.3033824,-32.09349,-34.06397,53.46078,15.575725,0.22494178,-8.421811,-21.432856
151,3.4726064205169678,-80.56863403320312,68.22541809082031,-6.547262396080575,7.268422847631156,-82.68547779132177,-18.8394,8.854209,-6.8961105,93.639786,-32.36677,-6.632766,-37.513157,-3.5086746,-17.343237,62.095943,-30.700493,0.09849743,-1.7208598,15.272333,21.25034,-7.678167,23.481062,-35.7668,-18.054644,-0.07357617,-6.835601,-4.4082723,-33.816322,-32.50504,53.263428,15.268814,0.41761938,-8.125868,-21.357489
152,3.412273406982422,-81.67221069335938,68.25868225097656,-6.795941227713864,7.070937542834728,-83.05726201282503,-21.615826,8.705614,-7.23101,94.64665,-32.84455,-6.4595037,-36.172672,-2.740647,-17.319355,61.84212,-31.656603,0.15354353,-1.3249499,15.511055,21.379318,-7.2622557,23.673004,-35.39347,-18.70506,-0.876309,-6.76979,-4.463797,-35.521942,-31.023178,53.192562,14.908101,0.3964128,-7.8716235,-21.324389
153,3.351012706756592,-82.78839874267578,68.31916046142578,-7.038420750346124,6.901997731402707,-83.35942916693155,-24.466242,8.574166,-7.6363134,95.398026,-33.159374,-6.1797037,-34.776516,-2.0104547,-17.319622,61.468407,-32.55155,0.16055837,-1.0000938,15.735092,21.477491,-6.7954483,23.947243,-34.957157,-19.449278,-1.778861,-6.6808286,-4.448875,-37.39359,-29.628502,53.35539,14.597493,0.24899976,-7.669036,-21.367214
154,3.2993338108062744,-83.91251373291016,68.39985656738281,-7.288403802157271,6.748715376136336,-83.59804339584572,-27.39636,8.471804,-8.112703,95.91158,-33.3225,-5.8065996,-33.314205,-1.302089,-17.353912,60.969975,-33.385487,0.13826098,-0.7469358,15.95948,21.557459,-6.2744074,24.298157,-34.44396,-20.343575,-2.7999175,-6.5596113,-4.3951406,-39.363567,-28.318672,53.698765,14.194085,-0.0014855502,-7.476083,-21.472332
155,3.26015567779541,-85.03986358642578,68.49525451660156,-7.4671597592132875,6.634323267914534,-83.83210937752196,-30.319475,8.359322,-8.509354,96.1247,-33.352234,-5.371169,-31.840666,-0.6647743,-17.31812,60.3653,-34.16021,0.14625457,-0.4957364,16.102188,21.584055,-5.676355,24.70835,-33.84824,-21.373611,-3.7561104,-6.405249,-4.324445,-41.327293,-27.090973,54.139584,13.69977,-0.29368237,-7.299485,-21.567682
156,3.2349743843078613,-86.1855239868164,68.61217498779297,-7.497269032079259,6.582190801592595,-84.12314195899022,-33.148293,8.215095,-8.669769,95.983315,-33.27398,-4.905927,-30.412573,-0.15256424,-17.11151,59.678112,-34.879185,0.24423696,-0.17241131,16.081188,21.519459,-4.9905734,25.151188,-33.16866,-22.507105,-4.4639835,-6.2161098,-4.259354,-43.235966,-25.948896,54.614536,13.148298,-0.5250096,-7.1474504,-21.580507
157,3.2280001640319824,-87.36083221435547,68.76148223876953,-7.352647595895243,6.629636299352706,-84.47929372347629,-35.93014,8.038778,-8.555871,95.46,-33.080204,-4.400968,-29.077442,0.20358121,-16.712732,58.93628,-35.56144,0.46551183,0.2432125,15.870961,21.32423,-4.2234464,25.602877,-32.39925,-23.728548,-4.829828,-5.964305,-4.19848,-45.11538,-24.901842,55.14282,12.536869,-0.68459827,-7.0369344,-21.476368
158,3.2429206371307373,-88.54924774169922,68.935546875,-7.077200074144959,6.755260586420708,-84.87168498180398,-38.671783,7.85741,-8.230795,94.58061,-32.772274,-3.8502996,-27.789646,0.42906505,-16.181948,58.12406,-36.206867,0.76898926,0.7197904,15.517222,21.0265,-3.40177,26.051193,-31.555977,-25.019785,-4.9624834,-5.660217,-4.135156,-46.975975,-23.953806,55.75276,11.844404,-0.81350875,-6.95837,-21.299084
159,3.247178792953491,-89.7755126953125,69.15362548828125,-6.698080027805402,6.896451818049544,-85.30563923452249,-41.227,7.703086,-7.6973515,93.37562,-32.390423,-3.2945757,-26.46683,0.5484007,-15.54148,57.20403,-36.782898,1.1016104,1.2543734,15.044469,20.687527,-2.5456362,26.485813,-30.672739,-26.348139,-4.9813366,-5.3586106,-4.0840964,-48.735035,-23.100145,56.386314,11.075986,-0.90603584,-6.880719,-21.093649
160,3.2711825370788574,-91.02400970458984,69.39910888671875,-6.241286178188136,6.991192147453191,-85.78651180034166,-43.45763,7.608921,-6.9733596,91.88055,-31.972216,-2.7734427,-25.026224,0.585926,-14.811687,56.135284,-37.258087,1.4133216,1.8534441,14.478707,20.366121,-1.6878933,26.898443,-29.793892,-27.668894,-5.0053577,-5.1143055,-4.057191,-50.322666,-22.329058,56.981743,10.259485,-0.9577012,-6.772589,-20.90458
161,3.3055691719055176,-92.29459381103516,69.6719970703125,-5.6874701319903584,7.04259251793874,-86.35406966358359,-45.36078,7.626728,-6.009864,90.07183,-31.530516,-2.2816927,-23.504011,0.5276169,-13.9430275,54.970154,-37.65631,1.6911868,2.54376,13.794727,20.054209,-0.82673866,27.281092,-28.904655,-28.97422,-4.9926815,-4.9460335,-4.0624266,-51.74654,-21.648033,57.57468,9.395732,-0.9371845,-6.629535,-20.746151
162,3.34363055229187,-93.5839614868164,69.97528076171875,-5.030988390371186,7.08285827845696,-86.99213111072419,-46.99407,7.7338324,-4.824297,87.94429,-31.050676,-1.8104545,-21.925749,0.35567507,-12.946088,53.71251,-37.987053,1.9605372,3.327158,12.98998,19.73101,0.021982523,27.628271,-28.012033,-30.261723,-4.902049,-4.8229423,-4.0926075,-53.045082,-21.056337,58.18028,8.491562,-0.85846984,-6.4653683,-20.595194
163,3.376777410507202,-94.90068817138672,70.30897521972656,-4.31632470739025,7.092051794206091,-87.62258438262224,-48.323696,7.844094,-3.544066,85.56549,-30.523865,-1.3895787,-20.196556,0.08540492,-11.931144,52.251007,-38.196346,2.2333694,4.1152015,12.118602,19.422998,0.8634449,27.93529,-27.143324,-31.5164,-4.8504715,-4.726725,-4.1333857,-54.16946,-20.54455,58.748333,7.5375514,-0.7825956,-6.281768,-20.432222
164,3.4158661365509033,-96.24943542480469,70.6749496459961,-3.58859223059845,7.046909633788303,-88.16815089221487,-49.324333,7.867399,-2.298726,83.00191,-29.93719,-1.044292,-18.220707,-0.2666336,-11.009561,50.46952,-38.22605,2.524513,4.8042846,11.236151,19.147802,1.720189,28.197203,-26.311161,-32.73173,-4.9560294,-4.6391473,-4.169094,-55.04024,-20.1072,59.235626,6.501269,-0.7940467,-6.081838,-20.23503
165,3.466536521911621,-97.62781524658203,71.06548309326172,-2.8492206165231106,6.930798529572127,-88.63327858747806,-49.979725,7.804265,-1.1001265,80.23352,-29.28508,-0.76159066,-15.962561,-0.70903987,-10.184877,48.31257,-38.122383,2.861812,5.4110727,10.348406,18.920403,2.5727458,28.410559,-25.52623,-33.90304,-5.2854896,-4.5526943,-4.203895,-55.72072,-19.731571,59.63072,5.4337087,-0.89976704,-5.8602567,-19.992805
166,3.5254883766174316,-99.04729461669922,71.48728942871094,-2.0779676583070605,6.759125547798815,-89.05174297892252,-50.317364,7.6857467,0.10237912,77.23764,-28.571535,-0.52894926,-13.481316,-1.2542144,-9.418946,45.852585,-37.894302,3.2350242,5.958344,9.432066,18.719137,3.4279695,28.572424,-24.76875,-35.03213,-5.763503,-4.4779763,-4.2425876,-56.201313,-19.420025,59.97125,4.3219614,-1.0844723,-5.619399,-19.715746
167,3.5852789878845215,-100.50548553466797,71.93596649169922,-1.2910019073347507,6.552331933707034,-89.3901025900455,-50.382694,7.4681387,1.2673649,74.07243,-27.796577,-0.3766425,-10.816447,-1.8790902,-8.762894,43.149277,-37.431202,3.6095943,6.4348936,8.50796,18.51418,4.2594094,28.685827,-24.079882,-36.0819,-6.2886615,-4.421533,-4.273414,-56.45233,-19.168787,60.24691,3.1804242,-1.3027215,-5.369929,-19.419851
168,3.6458353996276855,-102.00106811523438,72.4002685546875,-0.506331299338816,6.32936324020563,-89.61414219639761,-50.222176,7.1075773,2.3525698,70.79453,-26.958527,-0.33553246,-8.006338,-2.5529325,-8.2647915,40.264687,-36.62358,3.9548385,6.83573,7.596565,18.275541,5.0314913,28.758213,-23.50951,-37.015568,-6.758693,-4.389987,-4.2838116,-56.46238,-18.967495,60.441658,2.042669,-1.4979906,-5.122057,-19.121498
169,3.7123196125030518,-103.53898620605469,72.8686752319336,0.2928106229738831,6.069596773578272,-89.68270894350056,-49.786118,6.552726,3.3633473,67.336,-26.024698,-0.44522566,-4.904258,-3.2820928,-7.966745,36.968426,-35.436184,4.3037453,7.1248765,6.680728,18.004164,5.7441983,28.793901,-23.069134,-37.82465,-7.1650143,-4.389823,-4.2662663,-56.173073,-18.813595,60.527554,0.8939545,-1.7317423,-4.869983,-18.800516
170,3.776007890701294,-105.10948944091797,73.33728790283203,1.1019484521788745,5.764675960410594,-89.62566325556391,-49.076138,5.834293,4.296067,63.68173,-24.998318,-0.6740197,-1.539592,-4.053521,-7.850799,33.30413,-33.924515,4.676924,7.3235207,5.7626867,17.709103,6.4002976,28.795717,-22.743464,-38.5241,-7.554258,-4.41571,-4.228733,-55.632256,-18.704596,60.51511,-0.25248727,-2.0001597,-4.6118846,-18.455267
171,3.8447763919830322,-106.71257019042969,73.79834747314453,1.8663250718985847,5.451320930857997,-89.51420442047663,-48.213615,5.0379224,5.095455,59.97072,-23.934793,-0.9486768,1.7783132,-4.798677,-7.855294,29.766956,-32.128025,5.0127497,7.47025,4.894415,17.367577,7.0138474,28.767529,-22.50157,-39.126747,-7.9136505,-4.4581265,-4.18074,-54.89884,-18.638136,60.460854,-1.397756,-2.2027743,-4.3636413,-18.128922
172,3.947722911834717,-108.34054565429688,74.23992156982422,2.54361523489974,5.167475283001939,-89.41362797062382,-47.31015,4.2441187,5.723387,56.331577,-22.881548,-1.1974902,4.7329593,-5.4715586,-7.899097,26.871113,-30.093616,5.231903,7.601821,4.115854,16.962255,7.597921,28.716429,-22.315426,-39.647923,-8.230781,-4.50743,-4.130148,-54.039112,-18.61132,60.41959,-2.534521,-2.2329183,-4.139912,-17.866371
173,4.065640449523926,-109.99088287353516,74.65887451171875,3.1662864883999937,4.9125592984065145,-89.30832981389517,-46.34835,3.3862083,6.1528435,52.732014,-21.792002,-1.4298279,7.3183722,-6.1044207,-7.951961,24.683752,-27.76884,5.319096,7.7098045,3.399553,16.483086,8.162527,28.643997,-22.18329,-40.09353,-8.544424,-4.5622535,-4.0818324,-53.033882,-18.612734,60.401745,-3.650073,-2.033957,-3.94325,-17.697826
174,4.1751275062561035,-111.63652038574219,75.0558090209961,3.7369660300515504,4.6617676075319014,-89.1685826801938,-45.270702,2.4572995,6.396172,49.11348,-20.65392,-1.6720532,9.673037,-6.6980696,-8.041287,22.98259,-25.170435,5.2961683,7.768996,2.7401881,15.94546,8.708638,28.559807,-22.115103,-40.465214,-8.848516,-4.628039,-4.0256686,-51.860622,-18.639858,60.37503,-4.7481356,-1.6737853,-3.76586,-17.594582
175,4.292233943939209,-113.28025817871094,75.43963623046875,4.164624062551598,4.421908112261257,-89.03837848336953,-44.133816,1.6310275,6.488163,45.5843,-19.577301,-1.8834726,11.699666,-7.1675124,-8.164413,21.84438,-22.438755,5.132174,7.7834363,2.2236414,15.377004,9.238776,28.451675,-22.076588,-40.772835,-9.061842,-4.702619,-3.9686518,-50.604465,-18.692007,60.351303,-5.825065,-1.2243673,-3.6056678,-17.518908
176,4.416077613830566,-114.91167449951172,75.80992126464844,4.366829447912766,4.207510762583919,-88.9643787106148,-43.00901,1.0750791,6.485634,42.269062,-18.671972,-2.027739,13.30979,-7.4378204,-8.323416,21.317057,-19.694857,4.8045545,7.76135,1.9252646,14.799273,9.765169,28.310331,-22.031864,-41.02805,-9.102286,-4.784324,-3.914391,-49.347115,-18.764277,60.346085,-6.8781366,-0.758863,-3.4602425,-17.430222
177,4.558887958526611,-116.53436279296875,76.16401672363281,4.300194600389971,4.041674512217944,-88.9733610800555,-41.931118,0.8590707,6.402651,39.194572,-18.012045,-2.0730612,14.424503,-7.4763417,-8.560237,21.477692,-16.818487,4.247043,7.722221,1.8946403,14.192031,10.302658,28.121794,-21.966843,-41.24242,-8.942095,-4.879853,-3.864006,-48.105648,-18.851929,60.388474,-7.905346,-0.21436927,-3.329636,-17.342838
178,4.7056427001953125,-118.14250946044922,76.49425506591797,4.033908057112392,3.923084836423521,-89.04295599108401,-40.8733,0.8799263,6.2510557,36.30015,-17.523563,-2.0551317,15.119777,-7.358993,-8.8744955,22.227163,-13.756544,3.5046546,7.668213,2.0669277,13.542667,10.84123,27.882353,-21.900469,-41.40063,-8.623744,-4.986583,-3.8189993,-46.84106,-18.949495,60.468555,-8.898539,0.42236555,-3.2146676,-17.269888
179,4.858254909515381,-119.73662567138672,76.80175018310547,3.655414745557516,3.8329108250403587,-89.14746420134486,-39.82309,1.0421861,6.089473,33.589924,-17.103506,-2.0375981,15.53975,-7.169959,-9.199064,23.342175,-10.7179575,2.7278047,7.5881248,2.3439386,12.882827,11.345191,27.59828,-21.847672,-41.467922,-8.175093,-5.0879188,-3.7846105,-45.55279,-19.05161,60.545628,-9.8404455,1.003893,-3.115971,-17.168798
180,5.001959800720215,-121.31114959716797,77.08099365234375,3.244789496639295,3.7474833866358526,-89.25678092558259,-38.76367,1.2542384,5.9595304,31.072206,-16.64883,-2.0784419,15.835097,-6.9727116,-9.449053,24.602629,-7.9236774,2.0601416,7.464742,2.6339784,12.24887,11.78544,27.282494,-21.823042,-41.41991,-7.6226573,-5.168055,-3.764286,-44.23689,-19.152447,60.57421,-10.718533,1.3800781,-3.0339837,-16.996449
181,5.140591144561768,-122.88489532470703,77.32942962646484,2.7751771139817345,3.688022341210812,-89.38515432799652,-37.712753,1.5649986,5.894832,28.749525,-16.131016,-2.196429,15.980301,-6.7415195,-9.591265,25.99381,-5.3202863,1.549632,7.295339,2.9583685,11.624868,12.194771,26.936201,-21.8115,-41.27325,-6.9006524,-5.2239056,-3.7504075,-42.895172,-19.247295,60.55678,-11.541177,1.4881836,-2.9762542,-16.72454
182,5.272890090942383,-124.4466552734375,77.53899383544922,2.219397080114664,3.6591445641648055,-89.53968853702759,-36.687214,1.9972352,5.8675156,26.632622,-15.611001,-2.3598015,15.931267,-6.440135,-9.671486,27.578178,-2.7972517,1.1347811,7.0869393,3.350748,10.998488,12.583322,26.55853,-21.805103,-41.03919,-6.020986,-5.2640586,-3.741748,-41.533394,-19.333931,60.512135,-12.309846,1.4214107,-2.9413505,-16.379906
183,5.382956027984619,-126.00199127197266,77.71498107910156,1.651617084967564,3.6101074562581337,-89.67454338513745,-35.662224,2.4295526,5.8092203,24.751694,-15.126133,-2.5414639,15.8061,-6.1077123,-9.70835,29.282103,-0.52075446,0.7784618,6.8355856,3.741357,10.415253,12.883156,26.167662,-21.83449,-40.69212,-5.127887,-5.2909946,-3.750443,-40.1392,-19.407856,60.421387,-13.005224,1.2427005,-2.9167032,-16.002056
184,5.475140571594238,-127.54986572265625,77.85121154785156,1.1493455322489412,3.4928574919578153,-89.74256419500412,-34.61386,2.7441423,5.6478148,23.14369,-14.717841,-2.7084029,15.712865,-5.797076,-9.721283,31.061398,1.3199327,0.42411247,6.5232205,4.0515203,9.91813,13.045642,25.793154,-21.918816,-40.218784,-4.368703,-5.3085938,-3.783769,-38.718876,-19.472837,60.26057,-13.618827,1.043548,-2.8885844,-15.62764
185,5.538653373718262,-129.09767150878906,77.95191192626953,0.7160170779154358,3.296060955192583,-89.71448257560053,-33.53897,2.9311879,5.3570857,21.850565,-14.404248,-2.8462746,15.647066,-5.525833,-9.744965,33.004475,2.689737,-0.018512491,6.1561236,4.2611156,9.523592,13.04515,25.45879,-22.08675,-39.598694,-3.7879052,-5.2978563,-3.8438442,-37.18468,-19.514172,59.997334,-14.163271,0.69128126,-2.8571439,-15.232793
186,5.591419696807861,-130.63845825195312,78.01017761230469,0.32004790984119624,3.0480053269933363,-89.61379446636029,-32.45723,3.0464878,4.9689507,20.861399,-14.172933,-2.964637,15.548529,-5.2794995,-9.758286,35.142715,3.6558099,-0.5136655,5.674171,4.3935213,9.192987,12.990352,25.16556,-22.264261,-38.88847,-3.3138995,-5.2661037,-3.9155235,-35.72498,-19.566462,59.649178,-14.628495,0.37702203,-2.8298311,-14.794208
187,5.63267707824707,-132.158935546875,78.01200103759766,-0.020410215093754673,2.7606203004564565,-89.47372402521928,-31.379961,3.0777056,4.4922495,20.136307,-14.020287,-3.0653882,15.434196,-5.052231,-9.689663,37.364826,4.1764355,-0.92517275,5.1723523,4.4531994,8.938643,12.815084,24.927166,-22.499388,-38.11369,-2.9093575,-5.252567,-3.9933116,-34.178802,-19.613136,59.24934,-15.066694,0.03193593,-2.8038223,-14.400879
188,5.669634819030762,-133.6691436767578,77.94770812988281,-0.2856338529873348,2.4449210770904304,-89.32995014420162,-30.315096,3.0118792,3.9387372,19.628372,-13.939088,-3.153421,15.323606,-4.8196774,-9.465417,39.551117,4.214076,-1.0976503,4.654465,4.436341,8.747822,12.549984,24.753204,-22.761368,-37.334698,-2.5431237,-5.2982526,-4.062643,-32.652367,-19.662382,58.836235,-15.466309,-0.12847939,-2.7723172,-14.11808
189,5.702423095703125,-135.16973876953125,77.82466125488281,-0.48617417735166024,2.078337799306851,-89.1801856963262,-29.222593,2.8594494,3.2813041,19.324419,-14.006989,-3.2300217,15.255444,-4.4760737,-8.992227,41.68224,3.6014125,-0.9639138,4.1312895,4.3442593,8.636472,12.1851635,24.655956,-23.059278,-36.54741,-2.2273595,-5.432962,-4.133849,-31.099455,-19.715025,58.40002,-15.849262,-0.09286137,-2.7155786,-13.970075
190,5.7343339920043945,-136.66041564941406,77.65544891357422,-0.6285333244838397,1.6625916986848022,-89.00979548291554,-28.112148,2.6201956,2.5216057,19.25609,-14.203742,-3.292313,15.195721,-4.042673,-8.341099,43.857536,2.3828344,-0.6052734,3.583637,4.169885,8.601418,11.732891,24.63898,-23.3916,-35.745495,-1.976887,-5.629094,-4.204242,-29.538029,-19.77709,57.921345,-16.211262,0.09514125,-2.6416616,-13.916095
191,5.768374919891357,-138.1439971923828,77.43128204345703,-0.6888967862574932,1.2434561919405724,-88.83848324682354,-27.059256,2.2674038,1.7135515,19.425274,-14.368222,-3.3438628,15.065182,-3.6809967,-7.686924,46.114483,0.8513865,-0.08547009,3.0189965,3.9066956,8.616362,11.2059,24.695648,-23.750683,-34.9614,-1.7601142,-5.8405848,-4.24581,-28.006052,-19.853739,57.427975,-16.538351,0.39507413,-2.5857677,-13.938156
192,5.8070068359375,-139.62498474121094,77.14441680908203,-0.6424299316614394,0.8670076195357878,-88.68684251752063,-26.141043,1.7742646,0.91126716,19.834986,-14.335064,-3.3927367,14.792968,-3.5638084,-7.192877,48.46908,-0.6857625,0.53481305,2.4404144,3.5511823,8.652633,10.61836,24.81221,-24.12498,-34.224888,-1.5431652,-6.0211134,-4.2333903,-26.54831,-19.949335,56.953728,-16.814964,0.7707714,-2.5829754,-14.017617
193,5.843247890472412,-141.101806640625,76.80034637451172,-0.4713065221685966,0.5322040187741578,-88.54626517455739,-25.228884,1.106381,0.038990766,20.229824,-13.963464,-3.5456107,14.424845,-3.7402968,-6.9104605,50.879456,-2.1855373,1.3474202,1.8368815,3.090911,8.706342,9.9609785,24.982239,-24.524963,-33.53359,-1.2879179,-6.1642966,-4.1522393,-25.153435,-20.066038,56.50855,-17.041704,1.3114767,-2.6704397,-14.186043
194,5.877993583679199,-142.57423400878906,76.40570068359375,-0.19254110010949546,0.21716714194819922,-88.41301290149394,-24.320583,0.2840956,-0.9045759,20.679695,-13.368854,-3.7726812,13.98632,-4.1316967,-6.7581844,53.34982,-3.8040912,2.338544,1.2120587,2.5338826,8.787206,9.22358,25.203264,-24.954958,-32.86685,-1.0199546,-6.292215,-4.02074,-23.804459,-20.205412,56.076836,-17.227182,2.0042179,-2.8227465,-14.439861
195,5.971958160400391,-143.9646453857422,76.03877258300781,0.16544917141008814,-0.0653008309221868,-88.31757666506415,-23.686533,-0.63540787,-1.7445437,21.680447,-12.76299,-3.8805892,13.387177,-4.718329,-6.670859,55.940617,-5.5109406,3.298645,0.59105253,1.9138128,8.889986,8.420767,25.463785,-25.390865,-32.232006,-0.7995073,-6.4012394,-3.8657293,-22.540825,-20.370186,55.654438,-17.353346,2.6634705,-2.9791524,-14.708185
196,6.101848125457764,-145.312255859375,75.64705657958984,0.5642096289776187,-0.30603622414169696,-88.29467331578374,-23.583527,-1.579085,-2.2957666,23.700449,-12.343308,-3.6704812,12.541906,-5.462263,-6.562255,58.70071,-7.2627497,4.0230083,0.001712975,1.2773156,9.015003,7.567266,25.746912,-25.806675,-31.634268,-0.6858046,-6.487874,-3.7169964,-21.399393,-20.562986,55.240604,-17.403034,3.0989084,-3.0751555,-14.923388
197,6.232938289642334,-146.65635681152344,75.19469451904297,0.977404789659292,-0.4950911780866846,-88.39182569393442,-24.295826,-2.5022643,-2.493272,27.26148,-11.964156,-2.9277015,11.414908,-6.3671746,-6.382938,61.687458,-9.035421,4.4890337,-0.539638,0.6677267,9.160312,6.670771,26.031483,-26.180077,-31.091095,-0.6873359,-6.556365,-3.5690706,-20.443178,-20.792381,54.86097,-17.354939,3.2543929,-3.0830648,-15.062108
198,6.379741668701172,-147.97203063964844,74.67892456054688,1.3884691208258357,-0.6495672399633758,-88.59146953572584,-25.563187,-3.3498864,-2.4324868,31.886541,-11.544826,-1.7638907,10.078182,-7.3985186,-6.1490464,64.82548,-10.828707,4.7889986,-1.0418469,0.10036199,9.335554,5.716637,26.309877,-26.527502,-30.578901,-0.7696362,-6.606547,-3.4167137,-19.638742,-21.063635,54.510944,-17.221792,3.2371821,-3.0375774,-15.163873
199,6.535516738891602,-149.23052978515625,74.09288787841797,1.8067030783701263,-0.7931325974052212,-88.82202570134262,-26.866032,-4.082027,-2.1787016,36.616325,-11.413989,-0.48220828,8.595166,-8.488702,-5.8674474,67.97032,-12.643336,4.901553,-1.5173624,-0.4540414,9.552222,4.6803355,26.592493,-26.887867,-30.04268,-0.9310764,-6.6291213,-3.2873113,-18.871046,-21.369621,54.1402,-17.027369,3.093741,-2.9671993,-15.256267
200,6.683858394622803,-150.46923828125,73.48606872558594,2.277277559790455,-0.9414488210398665,-89.00219937075386,-27.736048,-4.761458,-1.808255,40.600967,-11.940716,0.5470276,7.014172,-9.614562,-5.551223,70.99485,-14.490237,4.8136616,-1.984527,-1.068867,9.812026,3.538942,26.901365,-27.305672,-29.430588,-1.1738287,-6.6152153,-3.2037926,-18.031551,-21.693712,53.692574,-16.793106,2.8764546,-2.901319,-15.365995
201,6.8129353523254395,-151.71287536621094,72.91816711425781,2.885828391683709,-1.1063635264734661,-89.08746889809481,-28.10373,-5.521104,-1.2710661,43.75935,-13.444636,1.1722176,5.326412,-10.857042,-5.1578493,73.96249,-16.444283,4.4564214,-2.4534583,-1.8466989,10.1421175,2.227301,27.261654,-27.822445,-28.713604,-1.5916959,-6.5407443,-3.168875,-17.089165,-22.019964,53.13578,-16.489038,2.5180697,-2.8305807,-15.508857
202,6.923905849456787,-152.94131469726562,72.36588287353516,3.6086418493853327,-1.2694784075273156,-89.12192510577657,-28.24325,-6.3391256,-0.5715097,46.579124,-15.692999,1.5770319,3.496841,-12.211856,-4.6681213,76.910034,-18.474247,3.8691132,-2.9131002,-2.7578537,10.524345,0.7771036,27.675085,-28.4191,-27.94171,-2.1626132,-6.4182067,-3.1604753,-16.110535,-22.343449,52.49493,-16.105125,2.0185616,-2.7447605,-15.664528
203,7.022497177124023,-154.15591430664062,71.83139038085938,4.325480759074806,-1.4019825189288333,-89.15537700155329,-28.208006,-7.1051955,0.14333662,49.08367,-18.217964,1.8503784,1.5268271,-13.546229,-4.1428943,79.68004,-20.435818,3.1931121,-3.3576345,-3.675221,10.893328,-0.6854829,28.122349,-29.042315,-27.190336,-2.7116458,-6.2936244,-3.1701667,-15.120316,-22.66051,51.810246,-15.70092,1.5165066,-2.6732075,-15.807966
204,7.106344223022461,-155.36343383789062,71.3276138305664,4.915003414339998,-1.4758855741469354,-89.2378295271638,-28.039682,-7.705976,0.7380234,51.27063,-20.541866,2.0912323,-0.5820142,-14.737775,-3.6590278,82.11947,-22.189487,2.561992,-3.7875519,-4.4582953,11.185499,-2.0343397,28.574915,-29.625374,-26.516619,-3.0607448,-6.2125807,-3.197402,-14.149241,-22.968624,51.130394,-15.325671,1.1551086,-2.6455665,-15.915772
205,7.196347236633301,-156.58653259277344,70.87218475341797,5.367285999140712,-1.455024305356879,-89.35175846634198,-27.759045,-8.159543,1.2006938,53.095043,-22.589628,2.306901,-2.893791,-15.829994,-3.2468114,84.24191,-23.724083,1.9638238,-4.2242303,-5.081035,11.359216,-3.2610455,29.016148,-30.166697,-25.881111,-3.112479,-6.209509,-3.2404623,-13.172687,-23.262238,50.4519,-14.93542,0.96775794,-2.6755602,-15.995421
206,7.277022838592529,-157.80979919433594,70.47062683105469,5.741666556774674,-1.3644859619899872,-89.47809986204591,-27.342796,-8.53416,1.6148738,54.56671,-24.59111,2.4502263,-5.3994107,-16.86678,-2.8670616,86.11664,-25.108871,1.3331751,-4.671877,-5.604028,11.4541445,-4.4333215,29.44278,-30.690712,-25.24522,-2.9746773,-6.252297,-3.3078485,-12.192857,-23.53587,49.765965,-14.505359,0.88016844,-2.7454975,-16.056301
207,7.348385334014893,-159.0379638671875,70.1378173828125,6.009801412095771,-1.2682459644798536,-89.6686777438662,-26.752441,-8.779635,1.9881023,55.753654,-26.522512,2.5443993,-7.976899,-17.730764,-2.5169282,87.66763,-26.319056,0.7214133,-5.102683,-6.0093775,11.531004,-5.521362,29.849049,-31.16051,-24.67905,-2.7667887,-6.2867565,-3.4179893,-11.279528,-23.789087,49.118988,-14.112331,0.8728864,-2.8379765,-16.078987
208,7.418280601501465,-160.25672912597656,69.86688995361328,6.144812136638118,-1.2309740175884127,-89.97454156854933,-25.946127,-8.8403635,2.322009,56.72354,-28.36174,2.6097429,-10.49744,-18.312502,-2.2064464,88.82402,-27.328754,0.18442832,-5.4925714,-6.281965,11.652072,-6.486292,30.230368,-31.529972,-24.257421,-2.605646,-6.25845,-3.5916867,-10.503874,-24.023613,48.563766,-13.8337345,0.9257827,-2.935671,-16.045622
209,7.48872184753418,-161.4740447998047,69.65589904785156,6.110882608872173,-1.280913814956891,-90.46714566796828,-24.869411,-8.639635,2.6413457,57.47891,-30.12823,2.6455169,-12.964492,-18.551746,-1.9319336,89.56477,-28.10276,-0.27178934,-5.80415,-6.384562,11.847802,-7.2997727,30.581139,-31.751093,-23.996464,-2.4723556,-6.136562,-3.8755724,-9.924218,-24.240608,48.13989,-13.677189,1.0805296,-3.0460353,-15.930034
210,7.551619529724121,-162.7008514404297,69.5016098022461,5.933456282921892,-1.384454863129191,-91.09999893907373,-23.549755,-8.226136,2.9472208,57.985413,-31.826027,2.6429663,-15.412775,-18.518291,-1.7340046,89.92324,-28.658974,-0.6708835,-6.0666656,-6.3351965,12.082394,-7.9821463,30.903902,-31.847399,-23.849333,-2.3170283,-5.956107,-4.2493157,-9.49765,-24.438427,47.822727,-13.593106,1.3324367,-3.173383,-15.750196
211,7.588326930999756,-163.94064331054688,69.39886474609375,5.673080681141395,-1.512976541330808,-91.74750672320529,-22.06834,-7.7255173,3.1998866,58.250637,-33.405537,2.6068528,-17.761164,-18.30447,-1.6842432,89.91717,-29.052454,-0.99724394,-6.349238,-6.206194,12.318882,-8.578842,31.211115,-31.889332,-23.795595,-2.2145402,-5.760195,-4.629588,-9.137856,-24.616465,47.560444,-13.586072,1.5921377,-3.295777,-15.553839
212,7.58897590637207,-165.20127868652344,69.34904479980469,5.387522689203465,-1.634797188640898,-92.283959424695,-20.511309,-7.2598,3.353507,58.287888,-34.82023,2.542011,-19.934158,-18.009983,-1.8408548,89.564514,-29.33981,-1.2366188,-6.7167225,-6.0716424,12.520946,-9.148872,31.521332,-31.95296,-23.808819,-2.2515373,-5.5907316,-4.930456,-8.751663,-24.775537,47.294838,-13.669323,1.7690908,-3.3926613,-15.388379
213,7.5705766677856445,-166.46763610839844,69.3416976928711,5.065189629393115,-1.7883974913142893,-92.69934654629385,-18.829798,-6.815798,3.3943717,58.092148,-36.081852,2.4293122,-21.862782,-17.628603,-2.24857,88.82055,-29.527527,-1.3495921,-7.170906,-5.935674,12.729372,-9.69181,31.849007,-32.055313,-23.911085,-2.489632,-5.4548655,-5.1237864,-8.347018,-24.919558,47.0314,-13.874119,1.8046557,-3.4598148,-15.279058
214,7.543758869171143,-167.7346954345703,69.37394714355469,4.683452174693601,-1.9755028422435295,-93.05152854068653,-17.004301,-6.333593,3.3519516,57.66137,-37.21005,2.2710822,-23.595966,-17.13529,-2.8704336,87.6872,-29.588747,-1.3495367,-7.6785827,-5.770207,12.95188,-10.187019,32.198685,-32.161476,-24.111673,-2.8802207,-5.3304877,-5.251531,-7.955498,-25.051636,46.785633,-14.196297,1.7582378,-3.5086415,-15.1953535
215,7.511958599090576,-169.00514221191406,69.44145202636719,4.28583612355201,-2.1054289053993887,-93.31807759917959,-15.167112,-5.864112,3.23455,57.01412,-38.164024,2.1061516,-25.245718,-16.603197,-3.6259377,86.25627,-29.528717,-1.3005373,-8.250263,-5.599207,13.101602,-10.619547,32.570335,-32.26968,-24.408955,-3.3175328,-5.21546,-5.333218,-7.520032,-25.172281,46.515587,-14.596242,1.7153736,-3.5423458,-15.100636
216,7.476374626159668,-170.2930450439453,69.54057312011719,3.9109825353631082,-2.0864315569648504,-93.47742090872725,-13.452104,-5.4611835,3.044188,56.172874,-38.90629,1.9745907,-26.92297,-16.1027,-4.435273,84.6188,-29.353651,-1.2679329,-8.89091,-5.4422874,13.091057,-10.993503,32.959267,-32.386444,-24.780107,-3.7006633,-5.1080203,-5.387376,-6.981049,-25.28097,46.17257,-15.034778,1.7645041,-3.5637891,-14.957518
217,7.414018154144287,-171.59518432617188,69.6666030883789,3.569501299025312,-1.8600379894663428,-93.4901967712641,-11.925573,-5.1523747,2.7440693,55.116833,-39.454098,1.9055877,-28.704426,-15.651758,-5.299676,82.78494,-29.055918,-1.255267,-9.629906,-5.2999163,12.860983,-11.32304,33.365017,-32.526638,-25.231293,-3.9881985,-5.0101414,-5.3990884,-6.304356,-25.375692,45.73848,-15.537607,1.9322466,-3.5757198,-14.780006
218,7.340663909912109,-172.91082763671875,69.82552337646484,3.2390090319687115,-1.4841456990118123,-93.38030003785369,-10.50898,-4.899472,2.3372943,53.848682,-39.820404,1.8726286,-30.51042,-15.220418,-6.2497945,80.70088,-28.639332,-1.2308466,-10.45065,-5.153311,12.471733,-11.611867,33.787357,-32.68825,-25.76313,-4.2408333,-4.922774,-5.3640366,-5.523632,-25.456642,45.23549,-16.118895,2.171545,-3.5754828,-14.579378
219,7.251571178436279,-174.2342529296875,70.0230712890625,2.916845912020107,-1.0414682419432064,-93.22191649923714,-9.118834,-4.6593847,1.8842669,52.427174,-39.965965,1.832159,-32.219757,-14.798987,-7.252609,78.372734,-28.121336,-1.2088261,-11.288791,-4.9911695,12.01409,-11.839551,34.217747,-32.849884,-26.351088,-4.503482,-4.841907,-5.3184266,-4.6755137,-25.526817,44.67674,-16.724985,2.4553332,-3.5568197,-14.314626
220,7.158998489379883,-175.575439453125,70.2527084350586,2.5953984031842676,-0.6154175266841128,-93.08905135566,-7.670964,-4.3913155,1.4492918,50.90739,-39.84905,1.7403042,-33.71356,-14.368293,-8.275057,75.805,-27.520369,-1.2009041,-12.079254,-4.807195,11.577568,-11.973986,34.64145,-32.99052,-26.977924,-4.8098726,-4.7635126,-5.2992544,-3.7944064,-25.591187,44.07553,-17.304832,2.756341,-3.5131161,-13.944767
221,7.06633186340332,-176.92835998535156,70.50997161865234,2.267218472325732,-0.18796077972315856,-92.9956313392546,-6.1774597,-4.0866957,1.029779,49.279884,-39.47537,1.5830485,-35.01788,-13.912608,-9.316057,72.97813,-26.812443,-1.2445168,-12.809438,-4.590606,11.147603,-12.014264,35.04686,-33.105434,-27.635595,-5.1832175,-4.6878858,-5.328042,-2.871326,-25.652992,43.428642,-17.8584,3.1091914,-3.4428563,-13.472384
222,6.962911605834961,-178.30787658691406,70.79632568359375,1.9395648758215058,0.27233879329592464,-92.90481726136643,-4.672219,-3.7668533,0.5977891,47.52337,-38.86243,1.3840187,-36.173935,-13.433739,-10.390701,69.888245,-25.996239,-1.318285,-13.508629,-4.343966,10.688778,-11.988431,35.4305,-33.20921,-28.318737,-5.599527,-4.616289,-5.3836017,-1.8870904,-25.713037,42.729256,-18.415451,3.515546,-3.3468995,-12.915904
223,6.86423397064209,-179.71519470214844,71.11614227294922,1.623030673478857,0.7014724173354656,-92.81357141142745,-3.1098654,-3.4372718,0.1819,45.686577,-37.98501,1.1560433,-37.091366,-12.935076,-11.487419,66.56584,-25.123634,-1.347199,-14.174912,-4.087764,10.258403,-11.907234,35.789505,-33.309395,-29.005865,-6.020811,-4.5460916,-5.4384956,-0.85637116,-25.771915,41.984707,-18.969746,3.896603,-3.2229693,-12.259049
224,6.7518463134765625,-181.13897705078125,71.46613311767578,1.33016604646454,1.0351663939832794,-92.71821468817058,-1.4445527,-3.1045716,-0.18964206,43.818783,-36.820892,0.912654,-37.68424,-12.423432,-12.587377,63.038605,-24.243769,-1.2613188,-14.808744,-3.8459725,9.911888,-11.783856,36.12227,-33.41197,-29.677204,-6.412328,-4.475006,-5.4661794,0.19879077,-25.830729,41.204037,-19.508804,4.1759543,-3.070131,-11.485227
225,6.649082183837891,-182.57679748535156,71.83414459228516,1.0536960445451704,1.2490091260977199,-92.63459737516189,0.38508186,-2.7570684,-0.49503052,41.870373,-35.3479,0.6377717,-37.91038,-11.873672,-13.672614,59.239246,-23.369946,-1.0669816,-15.39816,-3.6184983,9.677498,-11.619657,36.426674,-33.51265,-30.326488,-6.8118,-4.40154,-5.453786,1.2832375,-25.8888,40.36512,-20.029947,4.302303,-2.8895206,-10.523071
226,6.541539669036865,-184.03933715820312,72.2166748046875,0.7942461370712108,1.3781137878257963,-92.55763925798492,2.3384252,-2.4040067,-0.75658643,39.8405,-33.588047,0.3326393,-37.82457,-11.284967,-14.743302,55.162136,-22.466387,-0.7968302,-15.945834,-3.403001,9.520113,-11.41121,36.700966,-33.61309,-30.963736,-7.22057,-4.32751,-5.4179697,2.4077258,-25.945742,39.46854,-20.541407,4.326262,-2.6834123,-9.403145
227,6.435608863830566,-185.52210998535156,72.60631561279297,0.5759555791904957,1.4472285162012308,-92.45276372172867,4.312324,-2.0839753,-1.01388,37.848366,-31.575058,0.03761165,-37.491085,-10.705067,-15.802326,50.92235,-21.503778,-0.42131507,-16.476807,-3.2207127,9.399808,-11.177887,36.945885,-33.72682,-31.574661,-7.559386,-4.255389,-5.376546,3.5641856,-26.002127,38.558887,-21.052118,4.319093,-2.4538002,-8.2624855
228,6.326415538787842,-187.02476501464844,73.00005340576172,0.42393268859252475,1.4811571508786232,-92.28643917164169,6.202721,-1.8328035,-1.3066974,36.020237,-29.346497,-0.20904766,-36.97938,-10.1857395,-16.853752,46.646732,-20.455774,0.0887588,-17.016197,-3.0920868,9.276147,-10.930286,37.1637,-33.863876,-32.153526,-7.746106,-4.187375,-5.3479753,4.738525,-26.058987,37.682487,-21.563065,4.353649,-2.1999698,-7.238763
229,6.209840774536133,-188.54660034179688,73.38615417480469,0.3514354751053397,1.4536167801368431,-92.05277540352779,8.071585,-1.6632487,-1.6274672,34.293846,-26.83723,-0.3950276,-36.230694,-9.727621,-17.893805,42.244484,-19.269804,0.7715515,-17.572697,-3.0388465,9.164788,-10.6590605,37.35739,-34.023438,-32.702934,-7.750337,-4.122142,-5.330277,5.9440694,-26.114857,36.837276,-22.080914,4.415226,-1.9031451,-6.3528814
230,6.091763496398926,-190.08438110351562,73.76222229003906,0.3540981306029124,1.3568163217412703,-91.76544752757935,9.949599,-1.5661807,-1.9682906,32.63849,-24.053759,-0.5486765,-35.224754,-9.3111725,-18.910166,37.658573,-17.957973,1.5971564,-18.136847,-3.058642,9.077823,-10.364612,37.52871,-34.197983,-33.224,-7.6238327,-4.0587373,-5.3169518,7.179641,-26.168232,36.00375,-22.600784,4.4758487,-1.570028,-5.537301
231,5.977212429046631,-191.63534545898438,74.12283325195312,0.4297535430502107,1.2439560638693603,-91.41620961075654,11.69483,-1.5442588,-2.373553,31.197536,-21.115171,-0.69063354,-34.087006,-8.962592,-19.899555,33.064423,-16.589624,2.4917862,-18.711714,-3.1334767,8.968164,-10.0432005,37.67714,-34.386936,-33.73005,-7.3878226,-3.9999545,-5.319572,8.4082155,-26.222878,35.202557,-23.109352,4.5881233,-1.2347358,-4.797158
232,5.862611293792725,-193.19859313964844,74.4623031616211,0.5727635390021255,1.1701946131155079,-90.99573338896684,13.163617,-1.5961115,-2.8900476,30.111778,-18.135464,-0.8439353,-32.95067,-8.7139015,-20.867891,28.658884,-15.244541,3.3829548,-19.302628,-3.238224,8.788616,-9.717712,37.801395,-34.588467,-34.21195,-7.082263,-3.9486206,-5.350603,9.594054,-26.28592,34.455524,-23.593485,4.8064775,-0.9300409,-4.139023
233,5.752549648284912,-194.77584838867188,74.78329467773438,0.8005274869064901,1.1499894714124126,-90.47982491145973,14.31294,-1.7384795,-3.519126,29.408478,-15.014607,-0.98849916,-31.810099,-8.600384,-21.878155,24.400963,-13.894404,4.3255854,-19.934647,-3.3792493,8.514168,-9.381363,37.899834,-34.806396,-34.66737,-6.66474,-3.91124,-5.4197636,10.74641,-26.36543,33.76443,-24.056107,5.183072,-0.6619663,-3.5862868
234,5.638615131378174,-196.36474609375,75.07951354980469,1.1272113509996429,1.146294673883987,-89.86898884930909,15.238095,-1.9872991,-4.254017,28.990145,-11.711055,-1.1334187,-30.606564,-8.624297,-22.913643,20.224606,-12.518398,5.3347716,-20.60888,-3.579503,8.172199,-9.028926,37.97278,-35.040253,-35.099422,-6.1335325,-3.884602,-5.5196934,11.8871565,-26.46556,33.11495,-24.510242,5.678442,-0.4114589,-3.1304195
235,5.526017189025879,-197.95742797851562,75.3503189086914,1.5242138322028311,1.1459152982772496,-89.19814848228717,15.997772,-2.3231535,-5.1246324,28.8064,-8.429924,-1.3428347,-29.416052,-8.762666,-23.87315,16.338314,-11.228034,6.2765145,-21.286974,-3.8179138,7.793432,-8.666394,38.021526,-35.28212,-35.52221,-5.575793,-3.857011,-5.636448,12.9968405,-26.586863,32.50602,-24.96302,6.210224,-0.1744989,-2.7290578
236,5.414602756500244,-199.55873107910156,75.59291076660156,1.9374567860015965,1.1483653038615333,-88.51663630592385,16.628134,-2.7015285,-6.149907,28.83526,-5.393568,-1.680449,-28.314692,-8.959791,-24.662745,12.935195,-10.130943,7.0129805,-21.918186,-4.0463023,7.408158,-8.305452,38.0476,-35.521404,-35.947983,-5.0840797,-3.8166738,-5.755706,14.046071,-26.726948,31.940613,-25.410183,6.6953297,0.051921684,-2.3388493
237,5.309277534484863,-201.1563262939453,75.8118896484375,2.32428916104125,1.1961857830104323,-87.82934639366701,17.0783,-3.0827696,-7.360832,29.103891,-2.6572895,-2.1851912,-27.348078,-9.1840925,-25.320793,10.046577,-9.258399,7.482933,-22.494396,-4.2070017,6.990971,-7.9436803,38.05066,-35.763836,-36.38147,-4.680155,-3.7521505,-5.882766,15.04182,-26.884136,31.418568,-25.844234,7.1201286,0.2620715,-1.9503177
238,5.193063735961914,-202.7588348388672,76.0090560913086,2.677351395332516,1.2983327428012086,-87.13687951080176,17.324142,-3.4671586,-8.721719,29.637785,-0.121484496,-2.8358457,-26.524736,-9.436646,-25.887922,7.6701584,-8.603033,7.7597494,-23.01719,-4.28773,6.536045,-7.578451,38.028725,-36.012936,-36.812943,-4.315162,-3.673349,-6.020943,15.984578,-27.059362,30.940065,-26.258541,7.52597,0.45508566,-1.5843673
