unveil-humanoid-operators/unveil-humanoid-operators.github.io/feature-analysis-animation/data/feature_matrix_instances/weight_ankle_peak_vel_gesture_A259_rubbing_hands_002__A259.csv
Frame,root_translateX,root_translateY,root_translateZ,root_rotateX,root_rotateY,root_rotateZ,left_hip_pitch_joint_dof,left_hip_roll_joint_dof,left_hip_yaw_joint_dof,left_knee_joint_dof,left_ankle_pitch_joint_dof,left_ankle_roll_joint_dof,right_hip_pitch_joint_dof,right_hip_roll_joint_dof,right_hip_yaw_joint_dof,right_knee_joint_dof,right_ankle_pitch_joint_dof,right_ankle_roll_joint_dof,waist_yaw_joint_dof,waist_roll_joint_dof,waist_pitch_joint_dof,left_shoulder_pitch_joint_dof,left_shoulder_roll_joint_dof,left_shoulder_yaw_joint_dof,left_elbow_joint_dof,left_wrist_roll_joint_dof,left_wrist_pitch_joint_dof,left_wrist_yaw_joint_dof,right_shoulder_pitch_joint_dof,right_shoulder_roll_joint_dof,right_shoulder_yaw_joint_dof,right_elbow_joint_dof,right_wrist_roll_joint_dof,right_wrist_pitch_joint_dof,right_wrist_yaw_joint_dof
0,-0.06475161761045456,1.2964847087860107,78.09622955322266,0.39522907081583547,2.3755050244751232,-92.90172585190452,-1.9695957,8.165125,24.419643,12.369029,-12.056734,-6.3849416,-4.496763,-6.798316,-15.342064,11.143967,-9.151231,4.726788,-2.3792171,-0.8955133,7.235258,1.0729383,26.068542,-34.211067,52.6585,13.6894045,2.1475687,-1.2843928,-4.738095,-24.929441,50.764244,56.037075,-3.0912745,-2.160954,-1.8271327
1,-0.06418474018573761,1.2967547178268433,78.0938720703125,0.395311168734071,2.3785393352354416,-92.88660484370928,-1.9861286,8.16493,24.404785,12.387138,-12.060826,-6.377984,-4.493903,-6.8025413,-15.361589,11.138735,-9.148112,4.7332788,-2.3751097,-0.88660234,7.29178,0.8108248,26.105373,-34.198956,52.682236,13.607409,2.1505675,-1.2283367,-4.984164,-24.963476,50.86427,55.975723,-3.131641,-2.148587,-1.8637261
2,-0.06324096024036407,1.2969233989715576,78.09490203857422,0.3956177776522012,2.381254380108104,-92.87101120805818,-2.0034378,8.165298,24.389442,12.407549,-12.065595,-6.370704,-4.49019,-6.806919,-15.381751,11.133134,-9.145,4.740262,-2.3810246,-0.879885,7.3493752,0.56833273,26.150724,-34.175785,52.69443,13.52576,2.1540575,-1.1723562,-5.2251697,-24.99855,50.96944,55.910553,-3.1777284,-2.1316216,-1.8978678
3,-0.06223871186375618,1.2970679998397827,78.09491729736328,0.39579546510618935,2.3846452345114186,-92.856288119375,-2.0192163,8.164687,24.374895,12.422823,-12.068504,-6.3642097,-4.4884315,-6.8111506,-15.400473,11.128633,-9.142103,4.746249,-2.3914084,-0.8755386,7.4131575,0.3356254,26.219513,-34.135338,52.66824,13.444368,2.156581,-1.12394,-5.480434,-25.044575,51.083694,55.828285,-3.2129378,-2.1228268,-1.9364362
4,-0.0617685429751873,1.2989952564239502,78.09480285644531,0.3956307142669656,2.389657627437649,-92.8439352781816,-2.032,8.162719,24.362558,12.427545,-12.068298,-6.3598385,-4.4894037,-6.8145604,-15.415755,11.124136,-9.139016,4.7497296,-2.3892148,-0.86673224,7.466903,0.05959054,26.270525,-34.09956,52.656723,13.369288,2.1555002,-1.0814387,-5.7461376,-25.075035,51.169754,55.75456,-3.2665036,-2.1372433,-1.9880537
5,-0.06008905544877052,1.2997827529907227,78.09510040283203,0.39444073888664266,2.39656454335514,-92.83444452876917,-2.0387251,8.158531,24.352356,12.414487,-12.063767,-6.3589234,-4.496028,-6.816968,-15.426751,11.124567,-9.138345,4.749638,-2.4020643,-0.8611699,7.5287633,-0.1941988,26.370447,-34.016846,52.558617,13.30203,2.1582446,-1.0727348,-6.0301785,-25.128723,51.260365,55.63999,-3.332245,-2.1848943,-2.0563352
6,-0.05805258825421333,1.2999746799468994,78.09574890136719,0.3926417746896999,2.404722087692343,-92.82698741126778,-2.0406578,8.152614,24.343994,12.387719,-12.055535,-6.3604074,-4.5060043,-6.8184757,-15.434854,11.127276,-9.138612,4.74694,-2.4067094,-0.85493606,7.5891604,-0.46449172,26.48011,-33.929184,52.438984,13.240647,2.1633136,-1.0828559,-6.322804,-25.183584,51.335064,55.5174,-3.4118128,-2.2571893,-2.1366394
7,-0.05405205488204956,1.3013041019439697,78.09630584716797,0.39139307621845654,2.414281679450189,-92.82097474518258,-2.0442157,8.146113,24.337114,12.360628,-12.045772,-6.362091,-4.5183167,-6.8201003,-15.440173,11.1293745,-9.137936,4.7433248,-2.4087853,-0.8497341,7.651608,-0.7498987,26.600176,-33.831047,52.297745,13.175879,2.157024,-1.0813998,-6.6372733,-25.240643,51.40547,55.379417,-3.4717493,-2.3332264,-2.2218757
8,-0.05362188071012497,1.3052397966384888,78.09666442871094,0.3920602574106467,2.4253529650803705,-92.81588856198168,-2.0524905,8.139002,24.332176,12.339835,-12.033123,-6.3617144,-4.5312457,-6.8231273,-15.443371,11.126581,-9.133377,4.7405276,-2.4106758,-0.8479935,7.7161965,-1.0449163,26.730648,-33.718006,52.134037,13.102225,2.1256828,-1.0378991,-6.964274,-25.301373,51.4576,55.207523,-3.5035632,-2.392261,-2.304351
9,-0.052573833614587784,1.3112388849258423,78.09872436523438,0.3961059870917164,2.4389256746714976,-92.81244853816547,-2.0687866,8.130888,24.330769,12.329923,-12.016584,-6.3578486,-4.545534,-6.8284144,-15.442415,11.117169,-9.123701,4.7388177,-2.4116871,-0.850119,7.7826433,-1.351947,26.87188,-33.594917,51.953148,13.024632,2.059775,-0.94750047,-7.304458,-25.367794,51.49011,54.99912,-3.495048,-2.4258177,-2.3735495
10,-0.05331741273403168,1.317031741142273,78.09896087646484,0.4022131220231169,2.4546032029173865,-92.81062440341087,-2.090438,8.121817,24.33204,12.326273,-11.997074,-6.351984,-4.5618415,-6.8353634,-15.437776,11.104052,-9.111086,4.737406,-2.4081542,-0.8544127,7.852835,-1.6726718,27.024328,-33.463387,51.751038,12.945361,1.9683676,-0.8255871,-7.6736674,-25.440176,51.522068,54.768505,-3.4368813,-2.4457922,-2.435934
11,-0.05490148440003395,1.319923996925354,78.10267639160156,0.4084388664938553,2.4704782261753055,-92.80875197918411,-2.1132083,8.113186,24.332975,12.323406,-11.976712,-6.3461976,-4.5777764,-6.841768,-15.4334345,11.0881,-9.095855,4.7361155,-2.4057307,-0.8609686,7.925431,-2.0027843,27.187292,-33.312355,51.521095,12.849081,1.865856,-0.6720477,-8.049305,-25.51896,51.534924,54.502235,-3.3730733,-2.462421,-2.509942
12,-0.05071362107992172,1.3271933794021606,78.1039047241211,0.4126027192737225,2.4846690712477195,-92.8052411588506,-2.133439,8.10657,24.330488,12.316464,-11.957631,-6.34267,-4.591708,-6.845166,-15.433242,11.072355,-9.0801115,4.734663,-2.4035976,-0.8685085,8.002055,-2.3386204,27.359936,-33.133312,51.252354,12.724026,1.7666391,-0.48656973,-8.431559,-25.603777,51.531685,54.199436,-3.316178,-2.4857006,-2.613652
13,-0.05888492614030838,1.3395453691482544,78.10431671142578,0.4147003026362056,2.495624043442048,-92.79971129648116,-2.1472485,8.10078,24.322458,12.300047,-11.938858,-6.3427453,-4.6010017,-6.8456054,-15.438642,11.055561,-9.063224,4.733725,-2.400488,-0.87817436,8.084873,-2.680606,27.541998,-32.919262,50.94345,12.558582,1.6665875,-0.25678554,-8.825299,-25.693838,51.518642,53.86265,-3.257051,-2.5213013,-2.7642884
14,-0.05984355881810188,1.3467808961868286,78.10420989990234,0.41540556456768357,2.5047173227538955,-92.7929800015279,-2.1572344,8.095608,24.311157,12.277398,-11.919115,-6.3450637,-4.6075387,-6.843988,-15.44746,11.037292,-9.044724,4.7330956,-2.3984213,-0.8899475,8.171602,-3.029882,27.733774,-32.676067,50.600655,12.361903,1.5601697,0.012535291,-9.225964,-25.78914,51.49049,53.48992,-3.1967485,-2.563002,-2.94803
15,-0.05736909061670303,1.3452996015548706,78.1060791015625,0.41442235584993364,2.5143712536819476,-92.78525927842404,-2.170924,8.09394,24.299223,12.259872,-11.903,-6.3475003,-4.614912,-6.840053,-15.458292,11.0187025,-9.025404,4.731682,-2.3970585,-0.90143764,8.26095,-3.3888803,27.934942,-32.4172,50.22446,12.152115,1.4596338,0.2969824,-9.647705,-25.890072,51.45773,53.093456,-3.1321392,-2.602868,-3.1364765
16,-0.05621369928121567,1.352755069732666,78.10769653320312,0.41041809369076854,2.5271003201809097,-92.77695296830477,-2.194852,8.098097,24.289295,12.255983,-11.892996,-6.347907,-4.625647,-6.8327127,-15.469833,10.9974375,-9.003495,4.7283154,-2.3994048,-0.9098822,8.349965,-3.7607174,28.144238,-32.155846,49.818913,11.9449415,1.3775091,0.5720744,-10.087026,-25.99674,51.41643,52.672462,-3.0782347,-2.6329448,-3.301301
17,-0.05652793496847153,1.3665797710418701,78.10890197753906,0.4012600900329683,2.5452612572478133,-92.76766279890421,-2.2356355,8.112815,24.28279,12.274248,-11.894463,-6.345748,-4.6461787,-6.820582,-15.482513,10.980614,-8.981897,4.721292,-2.4032757,-0.9123588,8.438749,-4.15289,28.361086,-31.899887,49.392582,11.731251,1.3201756,0.8425086,-10.561648,-26.109198,51.381187,52.24063,-3.022748,-2.6452959,-3.4269347
18,-0.06043374910950661,1.381763219833374,78.10847473144531,0.3882415000917725,2.5668748141356894,-92.75729199820084,-2.2864952,8.1346,24.277977,12.304396,-11.902601,-6.342103,-4.670876,-6.803627,-15.496898,10.961464,-8.957338,4.7116156,-2.4101956,-0.91088796,8.5271635,-4.5647545,28.584774,-31.642574,48.946297,11.5043545,1.2797593,1.1177342,-11.056809,-26.227436,51.340622,51.78658,-2.974346,-2.6459858,-3.5311327
19,-0.06213689222931862,1.3927245140075684,78.1103515625,0.37550562237728996,2.5882821865845993,-92.74689628706538,-2.3399885,8.156803,24.273283,12.3405485,-11.912021,-6.3374276,-4.6953025,-6.787417,-15.511193,10.942058,-8.933093,4.702572,-2.4184852,-0.909985,8.615224,-4.984424,28.81433,-31.376463,48.46335,11.29076,1.2479953,1.381023,-11.562667,-26.352087,51.287434,51.303986,-2.9320593,-2.6479127,-3.6352262
20,-0.060015883296728134,1.4044965505599976,78.11066436767578,0.3675023846484186,2.605657548096432,-92.73718667894006,-2.3872435,8.172352,24.267162,12.3746195,-11.916923,-6.3321047,-4.7139277,-6.777138,-15.523375,10.922415,-8.911417,4.6973696,-2.4249601,-0.9132559,8.706258,-5.407587,29.048294,-31.09882,47.930725,11.1133,1.2169398,1.6156397,-12.080242,-26.481987,51.22358,50.79031,-2.8807354,-2.6637244,-3.7606542
21,-0.052959345281124115,1.4083292484283447,78.11143493652344,0.36680281056340347,2.617197739962192,-92.72718843039412,-2.4230423,8.176171,24.257883,12.400795,-11.912541,-6.3265224,-4.7225494,-6.7763906,-15.533521,10.900671,-8.893335,4.698588,-2.4332292,-0.92355424,8.79693,-5.826915,29.284811,-30.802773,47.352448,10.972242,1.2013023,1.7986963,-12.595398,-26.61863,51.140305,50.242756,-2.8222625,-2.6943564,-3.9081905
22,-0.05280183255672455,1.4150896072387695,78.11320495605469,0.3704519453472461,2.6252245021087326,-92.71695019136818,-2.452982,8.173014,24.246794,12.424191,-11.902806,-6.3204217,-4.72367,-6.7810855,-15.542817,10.874434,-8.875935,4.7039547,-2.4413223,-0.9371455,8.889166,-6.2537613,29.523405,-30.49612,46.737003,10.855162,1.200343,1.9455256,-13.122644,-26.761684,51.04857,49.66798,-2.7491286,-2.7335443,-4.067851
23,-0.053777337074279785,1.420941948890686,78.11373901367188,0.3750730814320132,2.632028747675767,-92.7086159451467,-2.4843864,8.170599,24.23655,12.454128,-11.895404,-6.313,-4.7278132,-6.787404,-15.549717,10.855661,-8.8621435,4.709404,-2.4483929,-0.95114255,8.9811,-6.685558,29.765635,-30.181183,46.069237,10.775031,1.1826193,2.0962527,-13.656137,-26.910892,50.939495,49.056248,-2.696435,-2.784503,-4.2450237
24,-0.053797218948602676,1.4365159273147583,78.11554718017578,0.37677962024110795,2.6400983043148045,-92.70477594837226,-2.5232246,8.176044,24.23008,12.4971075,-11.896409,-6.303503,-4.741169,-6.7900114,-15.553496,10.846827,-8.849693,4.7108464,-2.4516814,-0.9626513,9.074116,-7.1266255,30.014296,-29.864786,45.335983,10.7413,1.1167431,2.2904818,-14.199317,-27.064947,50.811314,48.401886,-2.6876335,-2.8503747,-4.4450717
25,-0.05460043251514435,1.4486747980117798,78.1165542602539,0.374767532923765,2.650860904387611,-92.70803050257466,-2.5737703,8.192775,24.230267,12.558588,-11.908671,-6.2904253,-4.7696223,-6.7873793,-15.551971,10.852776,-8.83931,4.7058125,-2.4482727,-0.97222185,9.168052,-7.574852,30.272161,-29.542295,44.53304,10.759619,0.9928611,2.5207386,-14.7516165,-27.222069,50.657364,47.70806,-2.7465842,-2.9330566,-4.671398
26,-0.05490498244762421,1.4646598100662231,78.11354064941406,0.3710871936736692,2.662784788546058,-92.71648193884005,-2.6319766,8.216594,24.234797,12.634335,-11.929227,-6.274595,-4.8089232,-6.7826095,-15.5462265,10.872029,-8.832362,4.6969733,-2.440571,-0.9820982,9.262407,-8.027511,30.54027,-29.212431,43.665268,10.823139,0.8288437,2.7713788,-15.313043,-27.381964,50.481678,46.97779,-2.854547,-3.030164,-4.920561
27,-0.05840924382209778,1.4788693189620972,78.11243438720703,0.3660909119921474,2.673594113538092,-92.72537369294305,-2.6913548,8.242911,24.238787,12.714875,-11.952935,-6.258896,-4.8483596,-6.7764893,-15.540234,10.89291,-8.825161,4.6879025,-2.43357,-0.99129766,9.357218,-8.48562,30.818068,-28.88538,42.730556,10.924259,0.63495547,3.0703797,-15.884682,-27.545206,50.294827,46.202927,-2.973735,-3.1383784,-5.1876116
28,-0.05567609518766403,1.4982212781906128,78.11201477050781,0.360158065898483,2.681056066465528,-92.72994288626043,-2.7462041,8.267316,24.237247,12.7926,-11.976512,-6.2460837,-4.8797684,-6.7709026,-15.537546,10.909759,-8.816914,4.6820993,-2.4316852,-0.99881434,9.453073,-8.955153,31.10352,-28.573984,41.73093,11.054504,0.42150208,3.445863,-16.47218,-27.713072,50.110104,45.37799,-3.0634985,-3.2544389,-5.467556
29,-0.05611848831176758,1.5024622678756714,78.11405944824219,0.3527173092096868,2.684534509003275,-92.72747897035819,-2.795112,8.289156,24.226477,12.864889,-11.999073,-6.237799,-4.8991437,-6.7654295,-15.54035,10.918235,-8.805516,4.6815033,-2.4377735,-1.0015424,9.547491,-9.430439,31.39525,-28.284338,40.660408,11.239602,0.1809517,3.9230552,-17.067186,-27.887232,49.927334,44.499283,-3.1241367,-3.3810725,-5.757786
30,-0.05031154677271843,1.5201200246810913,78.11214447021484,0.34374277763367767,2.6852367504517782,-92.72104729675405,-2.8418822,8.310777,24.209986,12.937806,-12.023477,-6.2322483,-4.9116673,-6.759602,-15.546401,10.923278,-8.7924595,4.683925,-2.4478335,-1.0003531,9.641393,-9.916931,31.692572,-28.01228,39.52492,11.474495,-0.08731429,4.481837,-17.674501,-28.068264,49.743507,43.573112,-3.170255,-3.518554,-6.06099
31,-0.04684983566403389,1.5412789583206177,78.11028289794922,0.33490410749029353,2.683634559863961,-92.71435193486903,-2.885518,8.331555,24.193317,13.00958,-12.047619,-6.227102,-4.9208455,-6.7540145,-15.552633,10.926779,-8.779437,4.686747,-2.458385,-0.99955237,9.734909,-10.418909,31.994007,-27.7467,38.3339,11.710151,-0.36337903,5.0818996,-18.292488,-28.255964,49.554173,42.59002,-3.1989079,-3.6608527,-6.3801146
32,-0.044709738343954086,1.5504013299942017,78.1083984375,0.3282219033083489,2.6802662642786186,-92.7113749343358,-2.9278176,8.351778,24.181515,13.083582,-12.071601,-6.220178,-4.931039,-6.7497115,-15.555635,10.93298,-8.769203,4.6873746,-2.4649878,-1.002934,9.828428,-10.940535,32.298088,-27.476702,37.095787,11.897312,-0.6286175,5.682492,-18.922213,-28.448843,49.356052,41.542984,-3.203951,-3.8018074,-6.717966
33,-0.04521976783871651,1.5605137348175049,78.10887145996094,0.325061018168777,2.6731609446888993,-92.71383259411293,-2.9672523,8.370779,24.17705,13.161918,-12.096323,-6.2110596,-4.942872,-6.748188,-15.553332,10.94631,-8.765454,4.685002,-2.4645078,-1.0122111,9.924417,-11.490853,32.605247,-27.203823,35.812916,12.033905,-0.8841782,6.277056,-19.571087,-28.644995,49.147774,40.43427,-3.1733055,-3.9317665,-7.064913
34,-0.044162049889564514,1.5715525150299072,78.10916137695312,0.3241502466083241,2.6628527428097595,-92.71960372711449,-3.0035908,8.388787,24.176691,13.242558,-12.121532,-6.200871,-4.953579,-6.7483554,-15.547873,10.961701,-8.764763,4.6810637,-2.4598105,-1.0249898,10.020568,-12.063386,32.915817,-26.93256,34.47978,12.142941,-1.1383871,6.885495,-20.2364,-28.843529,48.93178,39.26828,-3.11336,-4.0568743,-7.4226975
35,-0.041284505277872086,1.5892829895019531,78.10697174072266,0.3232464692232727,2.65307254837616,-92.7259143976256,-3.040242,8.406862,24.177706,13.322531,-12.145712,-6.1897135,-4.964058,-6.7479625,-15.542666,10.974358,-8.762207,4.676361,-2.4565642,-1.0396427,10.111848,-12.648913,33.22715,-26.659672,33.101753,12.2092085,-1.3847739,7.506446,-20.91479,-29.045193,48.717426,38.048515,-3.0412128,-4.1950655,-7.8112354
36,-0.03847593069076538,1.6124377250671387,78.10485076904297,0.32032106417780104,2.647931459593307,-92.7304053744215,-3.0802197,8.426211,24.1775,13.3979025,-12.166471,-6.1776037,-4.976483,-6.744944,-15.540815,10.981359,-8.753895,4.6717772,-2.4567106,-1.0528828,10.1967,-13.242095,33.534603,-26.383337,31.683626,12.218014,-1.6172174,8.138742,-21.612167,-29.248333,48.51513,36.784424,-2.9667227,-4.3634934,-8.250645
37,-0.03504103794693947,1.6219489574432373,78.10686492919922,0.31427528204935173,2.650304965079645,-92.73107100120635,-3.1275132,8.447985,24.174397,13.469874,-12.184223,-6.163277,-4.991552,-6.738434,-15.545472,10.979102,-8.736573,4.667369,-2.4645813,-1.0625741,10.268587,-13.840238,33.83463,-26.104204,30.230118,12.170788,-1.8387403,8.800751,-22.326612,-29.45341,48.332756,35.47983,-2.8991,-4.5841913,-8.753047
38,-0.038796085864305496,1.6424504518508911,78.10437774658203,0.3063829431467815,2.657408282419839,-92.72970623756115,-3.1790097,8.471305,24.1701,13.538873,-12.199382,-6.1471686,-5.00828,-6.729334,-15.554175,10.970442,-8.713266,4.6626844,-2.4767857,-1.0690733,10.330012,-14.449539,34.126194,-25.824232,28.741184,12.074366,-2.0525918,9.486994,-23.057096,-29.659641,48.16337,34.13057,-2.8297853,-4.8421836,-9.305573
39,-0.03440156206488609,1.65348482131958,78.1055679321289,0.29824038934446573,2.664685446749019,-92.72930454107471,-3.2288613,8.49407,24.166985,13.603835,-12.212019,-6.1317654,-5.023882,-6.7194514,-15.561974,10.958011,-8.687355,4.6580567,-2.4890912,-1.0756197,10.387209,-15.074865,34.408695,-25.54196,27.217453,11.92161,-2.2527356,10.160763,-23.80663,-29.865604,47.99954,32.735394,-2.7503633,-5.0999565,-9.890817
40,-0.0355277843773365,1.6710731983184814,78.10639953613281,0.2917859020951755,2.6677188996859544,-92.73314988154533,-3.2711387,8.515179,24.167269,13.663808,-12.223163,-6.1196766,-5.038812,-6.710378,-15.563302,10.950412,-8.665302,4.653714,-2.497507,-1.0849413,10.446786,-15.720875,34.68172,-25.255632,25.659058,11.70495,-2.433675,10.7852335,-24.576492,-30.068775,47.832325,31.291048,-2.6517506,-5.3201222,-10.491486
41,-0.03504178300499916,1.685223937034607,78.10664367675781,0.2881066540179354,2.663599431863024,-92.74233307125681,-3.300987,8.532435,24.172089,13.71542,-12.230004,-6.1121683,-5.0470157,-6.702305,-15.556307,10.940937,-8.6445675,4.6499014,-2.5012596,-1.0997283,10.508545,-16.389973,34.94643,-24.965042,24.062971,11.382981,-2.591152,11.341996,-25.370657,-30.26892,47.666973,29.794481,-2.5256166,-5.485528,-11.106536
42,-0.0346653126180172,1.7059005498886108,78.10480499267578,0.2860147532877837,2.6552604174762084,-92.75504424530762,-3.3239567,8.547759,24.179873,13.762735,-12.234641,-6.1076617,-5.0522695,-6.6946,-15.543941,10.931919,-8.625164,4.6464086,-2.5015914,-1.117831,10.570153,-17.08059,35.20286,-24.672377,22.429142,10.971407,-2.7304413,11.853331,-26.188284,-30.464514,47.50476,28.249477,-2.3777504,-5.61868,-11.744342
43,-0.034186672419309616,1.7239298820495605,78.1055679321289,0.283652212797023,2.6469538910907513,-92.77019651209584,-3.3445075,8.563031,24.189562,13.8059635,-12.238577,-6.104484,-5.058112,-6.686002,-15.529042,10.922251,-8.605217,4.6427145,-2.5022864,-1.1367018,10.627753,-17.783339,35.44903,-24.37677,20.764301,10.549371,-2.8586967,12.344585,-27.020111,-30.654673,47.33807,26.66257,-2.2208567,-5.74332,-12.40087
44,-0.036138929426670074,1.7404553890228271,78.107177734375,0.2792018319169611,2.6428974512307946,-92.78649524742292,-3.3677654,8.579924,24.199837,13.845348,-12.243799,-6.10089,-5.0687227,-6.675207,-15.514598,10.911957,-8.583207,4.6383047,-2.5035553,-1.1524659,10.680462,-18.493326,35.681187,-24.079706,19.07444,10.196478,-2.98213,12.841287,-27.858114,-30.836134,47.15447,25.042469,-2.0682297,-5.882381,-13.072578
45,-0.03165752440690994,1.7587553262710571,78.10710906982422,0.27062532080019686,2.6441918973051175,-92.80408696174851,-3.3949404,8.6007595,24.209614,13.880758,-12.252448,-6.0971456,-5.083876,-6.6592793,-15.501637,10.897625,-8.556778,4.6322927,-2.50529,-1.1630633,10.727179,-19.21049,35.894905,-23.775911,17.356373,9.934908,-3.1034946,13.340435,-28.70333,-31.00698,46.952362,23.390162,-1.9153675,-6.0512986,-13.7739315
46,-0.03136693686246872,1.776788592338562,78.10684204101562,0.2593788970435522,2.6486312153216254,-92.82355215420041,-3.4234595,8.624055,24.219774,13.91194,-12.26306,-6.093966,-5.1026897,-6.6401243,-15.4883995,10.882424,-8.528445,4.6251884,-2.506613,-1.1698195,10.76689,-19.940125,36.08901,-23.46884,15.612642,9.722773,-3.2180557,13.832875,-29.559763,-31.16657,46.738335,21.70548,-1.7581509,-6.2349863,-14.502217
47,-0.028579918667674065,1.7913768291473389,78.11072540283203,0.2490643784309946,2.655184316276243,-92.84401784027949,-3.4534085,8.646107,24.231804,13.942383,-12.272839,-6.0901246,-5.1246333,-6.622211,-15.473977,10.868274,-8.500046,4.6185637,-2.508392,-1.1752082,10.798852,-20.688683,36.264797,-23.173985,13.861804,9.542747,-3.3204021,14.335144,-30.424332,-31.313591,46.513126,19.99419,-1.6105143,-6.4102974,-15.228399
48,-0.02814885787665844,1.8069353103637695,78.11018371582031,0.24275196780060046,2.6629616298892658,-92.86493153034998,-3.4844837,8.663133,24.24761,13.974223,-12.278194,-6.0845585,-5.1501746,-6.610109,-15.456843,10.859401,-8.474685,4.613957,-2.5105712,-1.1821202,10.821915,-21.460217,36.42513,-22.90741,12.119714,9.3771,-3.4053123,14.863843,-31.293497,-31.446585,46.276634,18.262642,-1.485244,-6.5538926,-15.922642
49,-0.02107289992272854,1.8199622631072998,78.11200714111328,0.24236144629285175,2.6726823484322524,-92.8858795473597,-3.5184648,8.673572,24.268293,14.009523,-12.277005,-6.0768127,-5.1801453,-6.606041,-15.436782,10.855997,-8.452651,4.6127033,-2.5116012,-1.1916796,10.835943,-22.257233,36.571823,-22.675694,10.375431,9.225121,-3.4705355,15.437238,-32.164875,-31.561848,46.017994,16.502464,-1.3914983,-6.660447,-16.572504
50,-0.016351021826267242,1.8323695659637451,78.11326599121094,0.24580835689040878,2.684486292798189,-92.9072809661533,-3.5546098,8.679375,24.292768,14.046736,-12.271908,-6.0674443,-5.2147245,-6.6076293,-15.414157,10.857409,-8.432969,4.6136694,-2.5132024,-1.2043141,10.84012,-23.076963,36.704475,-22.470913,8.625697,9.093602,-3.5186574,16.042894,-33.043877,-31.659079,45.74289,14.716701,-1.3180547,-6.741979,-17.195528
51,-0.016646821051836014,1.845077395439148,78.11637878417969,0.2506137113859419,2.696514709695338,-92.92951960680315,-3.590045,8.6831,24.318861,14.082635,-12.265028,-6.0572085,-5.250932,-6.6112366,-15.390031,10.861876,-8.415022,4.614724,-2.5172484,-1.2189841,10.835745,-23.91624,36.82283,-22.287243,6.8947296,8.976789,-3.5522156,16.650555,-33.93801,-31.74113,45.469757,12.927815,-1.248031,-6.799903,-17.808395
52,-0.0144158024340868,1.8652032613754272,78.11329650878906,0.2542302810370678,2.7072284566149363,-92.9532324965638,-3.6234338,8.68848,24.344187,14.117901,-12.261064,-6.0467496,-5.2867117,-6.6132293,-15.36524,10.868101,-8.397721,4.613719,-2.5026324,-1.2295167,10.843064,-24.79497,36.923313,-22.132282,5.197745,8.8673725,-3.5735154,17.228691,-34.81796,-31.790754,45.17468,11.152609,-1.2228436,-6.831904,-18.431093
53,-0.010039515793323517,1.8818001747131348,78.11317443847656,0.25686143716506094,2.7150515895132474,-92.97878532475086,-3.6519594,8.694279,24.368689,14.150017,-12.259268,-6.0361166,-5.3231535,-6.615027,-15.339001,10.88246,-8.384837,4.609582,-2.498909,-1.2438537,10.83824,-25.69174,37.006393,-21.990852,3.5483267,8.765368,-3.5774574,17.776018,-35.742928,-31.822779,44.91855,9.405929,-1.1809765,-6.838206,-19.083017
54,-0.007676013745367527,1.896620750427246,78.11360931396484,0.2594788925524192,2.721327864849993,-93.0057957318197,-3.6776545,8.699807,24.393175,14.180273,-12.25839,-6.0249424,-5.3602247,-6.617177,-15.311584,10.901241,-8.37422,4.603624,-2.493618,-1.2573353,10.834049,-26.619347,37.070305,-21.869297,1.9287931,8.673061,-3.5646,18.305477,-36.682587,-31.831566,44.66723,7.6655293,-1.1594884,-6.81673,-19.752224
55,-0.005679297260940075,1.9089274406433105,78.11204528808594,0.26124912025724845,2.7280070538074566,-93.03345846389782,-3.702671,8.706318,24.41801,14.208662,-12.257808,-6.01354,-5.396565,-6.6177564,-15.28378,10.917585,-8.3622,4.597279,-2.4864147,-1.2622454,10.821947,-27.570364,37.100952,-21.769846,0.36287948,8.599299,-3.5474362,18.813013,-37.633545,-31.818287,44.427975,5.9605417,-1.1315056,-6.77827,-20.400454
56,0.0010477891191840172,1.9249601364135742,78.11396789550781,0.261610353835024,2.7372058056693844,-93.0612327220609,-3.7288182,8.714446,24.443577,14.233844,-12.2564945,-6.002287,-5.431239,-6.6148744,-15.256668,10.923702,-8.343786,4.5918975,-2.47261,-1.273044,10.807127,-28.548792,37.126556,-21.70622,-1.1411045,8.535821,-3.534832,19.299517,-38.570763,-31.78053,44.169254,4.293248,-1.0849272,-6.7347984,-20.976885
57,0.002416331321001053,1.940752387046814,78.11613464355469,0.25984874515454864,2.75049069062671,-93.08916767710515,-3.7587993,8.725855,24.47033,14.257951,-12.255212,-5.9903555,-5.4638844,-6.6071134,-15.23049,10.9147,-8.315949,4.5880337,-2.4556277,-1.284066,10.784596,-29.55791,37.13655,-21.676619,-2.575956,8.490278,-3.5212038,19.762812,-39.5086,-31.707987,43.90128,2.6790001,-0.9947406,-6.69249,-21.477856
58,0.005486436188220978,1.9566065073013306,78.11810302734375,0.25618101422730555,2.7664402547804197,-93.11750242849192,-3.7908006,8.739883,24.497911,14.280164,-12.253738,-5.977895,-5.496203,-6.5957675,-15.204781,10.8975315,-8.282658,4.584827,-2.4370666,-1.2909572,10.755479,-30.58853,37.124203,-21.671255,-3.9556286,8.463979,-3.50425,20.202114,-40.4542,-31.60575,43.633083,1.109739,-0.87548304,-6.644637,-21.926563
59,0.008080792613327503,1.9696096181869507,78.12113189697266,0.2522840952175394,2.78239435942117,-93.14570402330654,-3.8201053,8.7531395,24.525515,14.296849,-12.250745,-5.96658,-5.52565,-6.5831676,-15.179401,10.875029,-8.24717,4.5817537,-2.4189248,-1.2965184,10.721541,-31.642004,37.09002,-21.695225,-5.262647,8.447644,-3.5001664,20.62237,-41.40319,-31.473835,43.3737,-0.4026836,-0.7672064,-6.58354,-22.326824
60,0.011114714667201042,1.9825849533081055,78.12348175048828,0.24958546356213374,2.795902672688647,-93.17355791267666,-3.8422718,8.762877,24.552675,14.305351,-12.24536,-5.9581695,-5.5519485,-6.572221,-15.154135,10.854449,-8.2150135,4.578176,-2.407467,-1.3021655,10.680376,-32.69628,37.03654,-21.742596,-6.4947367,8.43519,-3.5254543,21.027264,-42.390812,-31.318916,43.14763,-1.8225787,-0.6770975,-6.5015187,-22.68184
61,0.013498022221028805,1.9944278001785278,78.12425231933594,0.24803268545587623,2.8065732535226644,-93.20083821516899,-3.8559191,8.768522,24.57876,14.3035965,-12.237399,-5.9540157,-5.575349,-6.5631247,-15.129194,10.837676,-8.187676,4.573875,-2.3959908,-1.305329,10.641964,-33.762585,36.961517,-21.808348,-7.654022,8.419318,-3.5966177,21.414827,-43.336475,-31.132599,42.926853,-3.2035513,-0.7020525,-6.385826,-22.97743
62,0.01717875897884369,2.005382537841797,78.12515258789062,0.247198512277979,2.8156817955997857,-93.22786677365335,-3.8633893,8.771103,24.604303,14.293206,-12.226902,-5.9528475,-5.5961018,-6.554825,-15.104469,10.82116,-8.162333,4.569228,-2.3891296,-1.3080031,10.600646,-34.844326,36.864544,-21.894518,-8.736928,8.406447,-3.700817,21.784172,-44.28703,-30.9156,42.72242,-4.52135,-0.77909267,-6.2443576,-23.214506
63,0.01979323849081993,2.0146732330322266,78.12425231933594,0.24684713065411823,2.8230303526145346,-93.25433527983807,-3.866205,8.7718,24.629864,14.277784,-12.214963,-5.952559,-5.6138053,-6.5470586,-15.080005,10.803963,-8.138091,4.5644164,-2.3797245,-1.3081323,10.55671,-35.92516,36.748714,-22.014166,-9.757275,8.405616,-3.8109431,22.13864,-45.19832,-30.666708,42.52985,-5.794934,-0.8898264,-6.0954413,-23.430923
64,0.02207253873348236,2.0245206356048584,78.12659454345703,0.2471914229938847,2.828670115742647,-93.2802194609456,-3.8671048,8.772031,24.655561,14.262349,-12.202397,-5.951158,-5.6316104,-6.5407944,-15.055172,10.792079,-8.117856,4.5597143,-2.3693535,-1.3084677,10.508172,-36.99803,36.620113,-22.18162,-10.714563,8.424656,-3.898475,22.482086,-46.177658,-30.394657,42.373337,-6.946766,-0.90428305,-5.95879,-23.661066
65,0.024344980716705322,2.0340898036956787,78.12661743164062,0.2483192460370277,2.832494391425398,-93.30585971914877,-3.8641682,8.770834,24.68324,14.24353,-12.187858,-5.948041,-5.6481786,-6.5357027,-15.029333,10.781934,-8.09998,4.5548315,-2.3518171,-1.3075488,10.4617605,-38.069267,36.48101,-22.407131,-11.611213,8.448856,-3.96462,22.822565,-47.096996,-30.095345,42.222263,-8.071983,-0.8832969,-5.83154,-23.902315
66,0.02757343463599682,2.044351816177368,78.13107299804688,0.2501864950380706,2.8347723449473285,-93.331411874086,-3.8575895,8.768154,24.711851,14.221228,-12.171763,-5.9443216,-5.664637,-6.5321836,-15.002754,10.776635,-8.086296,4.549728,-2.3394341,-1.3104261,10.422889,-39.218906,36.327374,-22.697973,-12.374459,8.460225,-4.020717,23.15766,-48.044346,-29.769604,42.09095,-9.122837,-0.8007943,-5.70673,-24.138756
67,0.0281692948192358,2.0545010566711426,78.13117980957031,0.2522726337433111,2.835235719629989,-93.35541938795545,-3.8495917,8.765304,24.738916,14.200099,-12.156138,-5.940348,-5.6785917,-6.529079,-14.977373,10.771645,-8.073226,4.545079,-2.3225098,-1.3111663,10.379127,-40.320786,36.160667,-23.013262,-13.11215,8.510595,-4.057615,23.470158,-48.91463,-29.42066,41.976128,-10.146174,-0.76887995,-5.594099,-24.392807
68,0.03005920723080635,2.063117504119873,78.13334655761719,0.2539961574932782,2.8339648847167176,-93.3765678272531,-3.8432763,8.763782,24.761364,14.185153,-12.143171,-5.936484,-5.6900363,-6.5262136,-14.955163,10.767929,-8.060227,4.54149,-2.3098712,-1.3113123,10.336862,-41.415913,35.980663,-23.344986,-13.782879,8.613427,-4.0656962,23.745127,-49.809692,-29.054514,41.903694,-11.067808,-0.7672174,-5.5033007,-24.687424
69,0.03119160234928131,2.072435140609741,78.13373565673828,0.2551495472521106,2.8299645514916936,-93.39413851135637,-3.837359,8.763906,24.777569,14.17608,-12.133259,-5.9330907,-5.6952524,-6.522535,-14.937243,10.760794,-8.04469,4.5395646,-2.2986398,-1.3093361,10.298634,-42.51054,35.78736,-23.68813,-14.385138,8.791436,-4.033025,23.959139,-50.70921,-28.674055,41.88099,-11.895729,-0.8195027,-5.451464,-25.065939
70,0.033793218433856964,2.08048939704895,78.13484954833984,0.2559066215647055,2.823560493805956,-93.40891456437606,-3.8310792,8.764933,24.789524,14.170762,-12.125255,-5.929844,-5.6969495,-6.518935,-14.922236,10.754625,-8.029376,4.5388494,-2.2852318,-1.3043902,10.261407,-43.54806,35.581963,-24.038546,-14.970111,9.043479,-3.9673097,24.12532,-51.582165,-28.281113,41.89548,-12.659457,-0.9176098,-5.426763,-25.50379
71,0.03513138368725777,2.0871381759643555,78.13517761230469,0.2568737202824187,2.8168758611049265,-93.42206682790363,-3.8270695,8.766455,24.799452,14.170705,-12.119013,-5.926177,-5.6986194,-6.5162864,-14.908808,10.75021,-8.014809,4.538341,-2.2825418,-1.2989575,10.230777,-44.643085,35.362206,-24.42208,-15.433035,9.288937,-3.8898582,24.283888,-52.452,-27.875105,41.934086,-13.3644705,-1.0432181,-5.397299,-25.923141
72,0.033142998814582825,2.0968823432922363,78.13538360595703,0.258387329463646,2.8118569377470974,-93.43477295162535,-3.82614,8.767543,24.810354,14.174064,-12.112741,-5.9214964,-5.703321,-6.51509,-14.895631,10.748957,-8.001861,4.536921,-2.2875423,-1.2932745,10.199263,-45.71047,35.1254,-24.829962,-15.842372,9.5127,-3.8204699,24.475195,-53.324577,-27.45759,41.977673,-14.010478,-1.1850675,-5.330304,-26.243675
73,0.036094482988119125,2.1051154136657715,78.1368637084961,0.2611353851920283,2.809090109200076,-93.44657575665677,-3.8298366,8.76788,24.822456,14.182303,-12.1066475,-5.9157996,-5.712904,-6.516641,-14.882595,10.753161,-7.9920526,4.5340652,-2.298644,-1.2873905,10.165231,-46.705395,34.869755,-25.255375,-16.2306,9.75251,-3.7671201,24.702957,-54.193523,-27.029697,42.015907,-14.598282,-1.3453848,-5.217854,-26.421524
74,0.04043256491422653,2.1117188930511475,78.13858032226562,0.2646009562405954,2.807541225111633,-93.45717037588597,-3.83744,8.768027,24.834528,14.196292,-12.101617,-5.909333,-5.724976,-6.5200725,-14.870459,10.760433,-7.9839306,4.5304265,-2.3166614,-1.2806062,10.131885,-47.697292,34.595623,-25.707052,-16.53807,9.994549,-3.718401,24.9474,-55.05271,-26.592987,42.05942,-15.132239,-1.5309552,-5.0773506,-26.50598
75,0.04179370403289795,2.1195075511932373,78.14111328125,0.26782331340670046,2.8065888795890994,-93.46751385932072,-3.8466265,8.768654,24.846437,14.212729,-12.09681,-5.901991,-5.738129,-6.5238047,-14.85882,10.769082,-7.9761972,4.5268645,-2.3300605,-1.272429,10.103961,-48.64035,34.300373,-26.180748,-16.82972,10.205537,-3.6628425,25.21528,-55.960793,-26.144098,42.110054,-15.5703,-1.7083126,-4.9150553,-26.558748
76,0.041198041290044785,2.1278152465820312,78.14269256591797,0.27004825502204083,2.8054151338653135,-93.47845244500715,-3.857577,8.771248,24.85774,14.233648,-12.094049,-5.8936543,-5.751999,-6.526542,-14.84702,10.779523,-7.968438,4.524134,-2.3584697,-1.2576094,10.070773,-49.536655,33.98722,-26.660345,-17.099699,10.323336,-3.591523,25.510378,-56.824234,-25.692886,42.187634,-16.000685,-1.9199796,-4.7367,-26.636383
77,0.04243643954396248,2.134955406188965,78.14407348632812,0.2703815859627756,2.8033531259092594,-93.48886848167503,-3.8698158,8.776667,24.8665,14.259412,-12.092876,-5.8840957,-5.7634625,-6.5273976,-14.8375,10.787684,-7.958349,4.5227666,-2.3930106,-1.2378094,10.0391655,-50.38089,33.656757,-27.1421,-17.356396,10.337763,-3.503576,25.848404,-57.686066,-25.24302,42.306576,-16.393194,-2.1507814,-4.528678,-26.755976
78,0.04457222297787666,2.14145827293396,78.1447525024414,0.2694567762783387,2.8010593001484168,-93.4987354788935,-3.884418,8.784171,24.873493,14.29092,-12.093754,-5.8733582,-5.7747474,-6.5276136,-14.829523,10.797209,-7.9483223,4.5222626,-2.4258118,-1.2144651,10.013349,-51.199883,33.30942,-27.636753,-17.579363,10.266264,-3.4046001,26.221603,-58.573746,-24.791395,42.451965,-16.719292,-2.3861609,-4.2925854,-26.887325
79,0.04805401712656021,2.148664712905884,78.14752960205078,0.2684470282162529,2.7997243499191624,-93.510758592633,-3.8992548,8.7919655,24.882702,14.321642,-12.094443,-5.8620987,-5.786886,-6.526803,-14.819092,10.804175,-7.9362235,4.5218844,-2.4580975,-1.1858664,9.991098,-51.95225,32.94521,-28.149553,-17.819777,10.137479,-3.2934306,26.602762,-59.479004,-24.336117,42.58502,-16.984932,-2.6067863,-4.056927,-27.019361
80,0.05315826088190079,2.1572587490081787,78.14847564697266,0.2682290817663964,2.800541092830944,-93.52751043924769,-3.914618,8.798746,24.89822,14.349777,-12.095051,-5.850891,-5.80381,-6.5261173,-14.801861,10.811534,-7.923924,4.521134,-2.4896266,-1.1506224,9.970833,-52.635612,32.566246,-28.691631,-18.094412,9.959731,-3.1690886,26.963673,-60.402405,-23.877096,42.667454,-17.188139,-2.7897847,-3.8503773,-27.141865
81,0.05747903510928154,2.1686131954193115,78.15005493164062,0.2690622391487837,2.803236825478504,-93.54956509489853,-3.9286695,8.803823,24.9213,14.371706,-12.093801,-5.8398304,-5.824723,-6.5249724,-14.776159,10.81713,-7.910666,4.5190806,-2.516505,-1.1111121,9.955653,-53.24401,32.17127,-29.257586,-18.412361,9.712059,-3.0151181,27.309343,-61.38277,-23.413565,42.697533,-17.29831,-2.9239147,-3.690749,-27.257778
82,0.06610091030597687,2.1760218143463135,78.14969635009766,0.2706649188701804,2.8074145893469935,-93.57553782230742,-3.9427495,8.808032,24.949657,14.391194,-12.092181,-5.828538,-5.848199,-6.523446,-14.7444105,10.820312,-7.8959074,4.516368,-2.538933,-1.0674531,9.944617,-53.79892,31.761202,-29.846235,-18.747517,9.386935,-2.8387532,27.650715,-62.40775,-22.945395,42.690468,-17.321795,-3.0244064,-3.559654,-27.370611
83,0.06924743950366974,2.1866226196289062,78.15218353271484,0.27236471929971035,2.814035053239665,-93.60541497876484,-3.9576278,8.812134,24.982235,14.409028,-12.090707,-5.817221,-5.8761873,-6.5217924,-14.708564,10.824661,-7.880696,4.514326,-2.55919,-1.0168151,9.935127,-54.280514,31.338837,-30.476002,-19.118397,9.051864,-2.6722045,27.97183,-63.435562,-22.471563,42.63272,-17.29637,-3.0934289,-3.4317641,-27.472649
84,0.07399264723062515,2.194277286529541,78.15302276611328,0.27397655444523195,2.8239889877231605,-93.63888024598346,-3.9741967,8.816832,25.017813,14.426873,-12.089862,-5.805993,-5.9071965,-6.5196104,-14.67087,10.826381,-7.861998,4.514314,-2.57354,-0.9573325,9.924844,-54.712345,30.911219,-31.171421,-19.514719,8.746633,-2.547523,28.25557,-64.428116,-21.990067,42.503242,-17.249058,-3.1305864,-3.2818606,-27.556124
85,0.0806938111782074,2.201054573059082,78.15433502197266,0.27520862833929927,2.8371320079142093,-93.67712060887756,-3.9918125,8.822571,25.057459,14.444543,-12.089669,-5.794611,-5.9436975,-6.5172215,-14.629933,10.829984,-7.8409114,4.5172,-2.5818055,-0.889406,9.917221,-55.07461,30.481108,-31.956156,-19.963564,8.496077,-2.4690113,28.478014,-65.40598,-21.495977,42.293312,-17.162298,-3.1568515,-3.0812528,-27.575495
86,0.08646655082702637,2.2094850540161133,78.15524291992188,0.27634398223647316,2.853154289887793,-93.72002399333792,-4.0106926,8.828714,25.101204,14.462544,-12.090331,-5.7830725,-5.984481,-6.5146704,-14.585407,10.833272,-7.817274,4.5221367,-2.5859013,-0.8143921,9.91099,-55.376213,30.050629,-32.812386,-20.452547,8.263644,-2.420242,28.65483,-66.38021,-20.98839,42.013054,-17.02763,-3.167921,-2.851057,-27.548754
87,0.09441828727722168,2.2157299518585205,78.1573486328125,0.2775004657580821,2.872637422314083,-93.76502443967489,-4.031502,8.834991,25.147001,14.479136,-12.091106,-5.7719855,-6.0278287,-6.51141,-14.53994,10.833906,-7.791858,4.527726,-2.589864,-0.7335961,9.903003,-55.610157,29.621723,-33.701233,-20.965464,8.049785,-2.400524,28.830275,-67.32725,-20.470942,41.68016,-16.868187,-3.1150296,-2.6405892,-27.56438
88,0.10314983129501343,2.2232463359832764,78.1590576171875,0.2783789267610026,2.8962620890967266,-93.80972631069656,-4.0547304,8.840066,25.193201,14.49205,-12.091231,-5.761832,-6.071502,-6.507526,-14.496449,10.828082,-7.7646813,4.532779,-2.591879,-0.6482981,9.889242,-55.81215,29.200928,-34.58387,-21.459284,7.822154,-2.4102905,29.04669,-68.21801,-19.951334,41.306747,-16.71033,-2.9486737,-2.4991033,-27.711943
89,0.11206161230802536,2.2282090187072754,78.1614761352539,0.2792803284075993,2.925810186948786,-93.85644003175072,-4.0803323,8.843704,25.242382,14.498517,-12.09034,-5.753192,-6.117025,-6.5024157,-14.453791,10.813915,-7.73447,4.5371723,-2.5923939,-0.5547218,9.873626,-55.963993,28.794006,-35.516384,-21.954988,7.4624963,-2.5175598,29.358395,-69.07136,-19.43353,40.89536,-16.552876,-2.602151,-2.4599066,-28.07705
90,0.12109709531068802,2.2309763431549072,78.16168975830078,0.28017512864858357,2.960404080511125,-93.90549628218852,-4.107807,8.846116,25.294565,14.499557,-12.088386,-5.7456217,-6.164456,-6.496201,-14.411106,10.792621,-7.7010713,4.54147,-2.5911279,-0.4544477,9.857631,-56.06926,28.40408,-36.49751,-22.461044,7.013745,-2.7010562,29.727789,-69.890755,-18.920452,40.43832,-16.390574,-2.1197658,-2.4931123,-28.591263
91,0.12900114059448242,2.231769561767578,78.1640625,0.2808382595748583,2.9967361144683524,-93.95143402573939,-4.1382003,8.848578,25.343708,14.501963,-12.086619,-5.738212,-6.211178,-6.4900117,-14.371328,10.769016,-7.6681256,4.545437,-2.5933425,-0.35565144,9.83858,-56.12716,28.028446,-37.400555,-22.968792,6.7371902,-2.8236046,30.06362,-70.633286,-18.417913,39.93901,-16.25258,-1.6145977,-2.5516539,-29.115671
92,0.13599132001399994,2.2342166900634766,78.16437530517578,0.2811264741739309,3.0315951543021917,-93.98898336416316,-4.173227,8.852312,25.383392,14.513137,-12.0865755,-5.7300067,-6.2542825,-6.4849577,-14.33754,10.74725,-7.638924,4.5487885,-2.5988164,-0.26533696,9.810589,-56.174088,27.668003,-38.092796,-23.444817,6.8580294,-2.7454002,30.272602,-71.25233,-17.934248,39.40175,-16.168146,-1.1995312,-2.5841372,-29.512419
93,0.1420506238937378,2.235947370529175,78.16480255126953,0.28103858366487117,3.065505057510013,-94.01802729660479,-4.2137065,8.857764,25.413708,14.533448,-12.087173,-5.72056,-6.2940354,-6.4806,-14.308666,10.725957,-7.6123524,4.551448,-2.6089983,-0.18191515,9.773786,-56.170677,27.322315,-38.52823,-23.924921,7.6323175,-2.355215,30.331581,-71.73915,-17.472694,38.78008,-16.141932,-0.8842713,-2.5685947,-29.75873
94,0.14814171195030212,2.2361485958099365,78.16564178466797,0.28053676675554945,3.0997014871248485,-94.04092863424546,-4.2588787,8.864247,25.437292,14.559793,-12.088256,-5.7104316,-6.3312974,-6.476608,-14.283919,10.703518,-7.5876412,4.5535564,-2.6217973,-0.102540374,9.730758,-56.124405,26.99402,-38.78011,-24.409376,8.86675,-1.7523289,30.278336,-72.11598,-17.034142,38.089417,-16.165997,-0.61457753,-2.5328395,-29.925093
95,0.1521615982055664,2.2362589836120605,78.16675567626953,0.2796232294750606,3.1320657081905936,-94.05610522450998,-4.308823,8.872468,25.452168,14.597871,-12.092904,-5.7002397,-6.3644857,-6.4737983,-14.266061,10.682585,-7.5662723,4.5551386,-2.6379766,-0.03193791,9.68254,-56.098118,26.687782,-38.893974,-24.846518,10.14506,-1.112703,30.119825,-72.382614,-16.624348,37.429703,-16.250849,-0.40490288,-2.4978924,-30.01392
96,0.1570391207933426,2.2357187271118164,78.16826629638672,0.27847770494395735,3.1604215222031793,-94.06204622242429,-4.355443,8.87926,25.457788,14.634366,-12.098961,-5.690705,-6.392368,-6.4729605,-14.257937,10.667759,-7.551608,4.556138,-2.669048,0.027361127,9.635957,-56.09146,26.401754,-38.919132,-25.225515,11.107345,-0.6097765,29.880682,-72.5395,-16.248901,36.907948,-16.413147,-0.2664386,-2.484782,-30.029072
97,0.16050849854946136,2.2338716983795166,78.16896057128906,0.2767501256933461,3.1845205534574323,-94.05725394186311,-4.403117,8.886754,25.452137,14.680108,-12.11012,-5.681547,-6.413065,-6.4742265,-14.261068,10.655925,-7.5424724,4.556207,-2.7075875,0.07171154,9.588755,-56.151592,26.138008,-38.81252,-25.509455,11.5748205,-0.30306298,29.490345,-72.56314,-15.913657,36.51762,-16.670101,-0.20188549,-2.5146308,-29.950497
98,0.16304300725460052,2.231914758682251,78.16824340820312,0.27471223433168723,3.2054123102332674,-94.04287848206447,-4.4521675,8.8944845,25.436451,14.732964,-12.1243,-5.672569,-6.427939,-6.477045,-14.273542,10.647248,-7.538837,4.5553923,-2.7549703,0.10398661,9.541817,-56.2334,25.895306,-38.569645,-25.73709,11.795353,-0.095306635,28.969986,-72.45359,-15.620232,36.21714,-17.023293,-0.20171274,-2.5702934,-29.784452
99,0.16603949666023254,2.229907274246216,78.16757202148438,0.27241306852626085,3.222859387640608,-94.02133196488805,-4.4990306,8.901565,25.41317,14.785768,-12.139372,-5.664504,-6.4378667,-6.4813213,-14.293881,10.642492,-7.539692,4.5545974,-2.805003,0.12842402,9.493563,-56.35252,25.678102,-38.284573,-25.910957,11.908625,0.076914616,28.4798,-72.2393,-15.370015,36.04564,-17.439405,-0.2646451,-2.6158638,-29.570988
100,0.16748520731925964,2.2264552116394043,78.16645812988281,0.27016476635951864,3.236551211216492,-93.99496026609667,-4.5404706,8.907083,25.38482,14.832569,-12.154001,-5.6581764,-6.443497,-6.486874,-14.320559,10.6425085,-7.544465,4.5546055,-2.8562253,0.14914274,9.444069,-56.504852,25.490923,-38.05261,-26.045822,12.069627,0.27577734,28.180195,-71.951584,-15.164373,36.04524,-17.88945,-0.38850075,-2.6157339,-29.35003
101,0.1684596985578537,2.222867965698242,78.16305541992188,0.26794834075980595,3.2462971240645992,-93.96242941499699,-4.5757194,8.909925,25.349987,14.870906,-12.167885,-5.653996,-6.4446044,-6.494105,-14.356065,10.648679,-7.5535903,4.556007,-2.9041953,0.16406561,9.388698,-56.736958,25.341711,-37.90192,-26.10726,12.314349,0.5351098,28.145346,-71.58209,-15.007917,36.25925,-18.374004,-0.6203592,-2.5406773,-29.110003
102,0.1674407422542572,2.2195141315460205,78.16366577148438,0.26584582629002573,3.2523767418995,-93.92329200332082,-4.6059394,8.91023,25.308027,14.90255,-12.180833,-5.6514955,-6.440705,-6.5032744,-14.400248,10.659369,-7.5669,4.5582633,-2.9623666,0.17234497,9.3356905,-56.971737,25.2232,-37.79121,-26.14442,12.616836,0.81906414,28.284298,-71.12424,-14.899823,36.661102,-18.914291,-0.9421514,-2.4174552,-28.8377
103,0.16513527929782867,2.213766098022461,78.16326904296875,0.2637448521788951,3.2548293131728836,-93.88051018470809,-4.6322722,8.910828,25.262804,14.933028,-12.194252,-5.6501117,-6.4337125,-6.5128436,-14.447306,10.675818,-7.5849895,4.5603952,-3.0119233,0.17629474,9.282972,-57.247242,25.139818,-37.6774,-26.148203,12.826336,1.079189,28.494104,-70.594124,-14.839488,37.163994,-19.483833,-1.2637191,-2.293053,-28.567226
104,0.16144391894340515,2.207956075668335,78.16180419921875,0.26142917221835127,3.2538719876695557,-93.83749794057167,-4.654873,8.913174,25.217873,14.964318,-12.207496,-5.649244,-6.423672,-6.520733,-14.491584,10.693813,-7.605868,4.5613585,-3.0525885,0.17910682,9.237383,-57.5109,25.090584,-37.530945,-26.173647,12.8765,1.2675328,28.67978,-70.01297,-14.822056,37.68744,-20.06942,-1.4913114,-2.2134926,-28.334938
105,0.1542087346315384,2.203634023666382,78.16160583496094,0.2586885361578957,3.247411575795463,-93.79092809640049,-4.673461,8.9187565,25.170576,14.999925,-12.221952,-5.6484694,-6.408053,-6.5267773,-14.534487,10.715832,-7.632799,4.5608454,-3.0846796,0.17826779,9.200492,-57.77212,25.078596,-37.36176,-26.207144,12.713071,1.3208693,28.883991,-69.37765,-14.843775,38.23064,-20.657879,-1.5680251,-2.2014494,-28.160011
106,0.1485220342874527,2.19734787940979,78.16073608398438,0.25526494924048604,3.2360547834131452,-93.74042997683414,-4.6879134,8.92632,25.120203,15.037117,-12.237148,-5.6481843,-6.3862762,-6.531261,-14.578314,10.739302,-7.6633334,4.55941,-3.1113193,0.17623176,9.168925,-58.044174,25.106497,-37.174103,-26.237085,12.385216,1.2797227,29.13387,-68.6844,-14.906248,38.83353,-21.2577,-1.5545125,-2.2279396,-28.0218
107,0.1415797770023346,2.192248821258545,78.15567779541016,0.2528952004803807,3.2240051684119604,-93.69357282689033,-4.699312,8.933764,25.073643,15.071911,-12.251484,-5.649165,-6.367916,-6.536189,-14.617572,10.769565,-7.6971807,4.5574045,-3.136277,0.17359138,9.143555,-58.27453,25.16572,-36.95193,-26.31374,12.002334,1.2544172,29.319094,-67.96245,-15.003159,39.469795,-21.870808,-1.534502,-2.2621014,-27.890696
108,0.13479842245578766,2.187918186187744,78.15353393554688,0.25208255552417724,3.215549294437291,-93.65818727198227,-4.708753,8.9391775,25.03781,15.1001,-12.26294,-5.652184,-6.3609776,-6.5421877,-14.647217,10.807784,-7.73102,4.5551248,-3.1464617,0.17330879,9.116639,-58.492344,25.251387,-36.660244,-26.429577,11.596879,1.3549348,29.321167,-67.2355,-15.129399,40.108627,-22.489462,-1.5958178,-2.2731004,-27.737854
109,0.12909409403800964,2.1823036670684814,78.1497802734375,0.25365119753058746,3.212093692499344,-93.63443177441712,-4.717979,8.942273,25.01227,15.122267,-12.271773,-5.659045,-6.369445,-6.5502973,-14.667395,10.858942,-7.767284,4.552353,-3.1449924,0.17728275,9.084904,-58.674957,25.356005,-36.26462,-26.613482,11.167944,1.6791505,29.009382,-66.48897,-15.282043,40.7529,-23.120274,-1.7383974,-2.2645457,-27.530233
110,0.12175391614437103,2.1778533458709717,78.1496353149414,0.25693018017616565,3.211284059738073,-93.61888707262318,-4.724933,8.943674,24.994385,15.137807,-12.277397,-5.668816,-6.3865805,-6.559268,-14.680415,10.916922,-7.804467,4.5490766,-3.140502,0.18588787,9.053277,-58.796417,25.471441,-35.79623,-26.863344,10.730841,2.1496155,28.482635,-65.72679,-15.457016,41.420383,-23.757063,-1.9243088,-2.2494678,-27.292511
111,0.11572010070085526,2.176452398300171,78.14842224121094,0.2614420167404157,3.2115631023164988,-93.6133510842815,-4.7291436,8.944416,24.986563,15.150691,-12.282813,-5.678111,-6.411366,-6.5688663,-14.683953,10.9812,-7.841449,4.545784,-3.1183474,0.19656543,9.020132,-58.947826,25.603943,-35.306644,-27.092741,10.2751255,2.6111655,27.962416,-64.98567,-15.651255,42.091232,-24.371,-2.1857042,-2.2120085,-27.077576
112,0.11028850823640823,2.1723504066467285,78.14714813232422,0.2671641412129545,3.2112743434240842,-93.61940807101942,-4.7278733,8.944417,24.991919,15.159844,-12.288253,-5.6835127,-6.441942,-6.5789304,-14.675497,11.0507145,-7.877485,4.542978,-3.0996315,0.2102349,9.000117,-59.041134,25.743029,-34.874325,-27.334324,9.946736,2.9069355,27.680044,-64.32132,-15.854402,42.769165,-24.948652,-2.5491111,-2.1362858,-26.941597
113,0.1075749397277832,2.1703250408172607,78.14651489257812,0.2745316857387708,3.210175833668682,-93.6375054358948,-4.720661,8.943495,25.011929,15.165784,-12.294124,-5.6836047,-6.4792194,-6.590018,-14.653924,11.128066,-7.9129734,4.5409956,-3.0847342,0.22193591,8.989889,-59.104855,25.880085,-34.494717,-27.545256,9.709633,2.9680653,27.735126,-63.726208,-16.061129,43.495136,-25.48547,-3.0953796,-1.981952,-26.909267
114,0.10729970037937164,2.169149160385132,78.14411163330078,0.2832726014195457,3.2090164353922686,-93.66679890505087,-4.7081394,8.941474,25.04482,15.167691,-12.2997465,-5.680329,-6.523443,-6.6020737,-14.620827,11.212537,-7.9481735,4.539546,-3.06585,0.2329701,8.983864,-59.160835,26.012175,-34.138466,-27.72402,9.52324,2.884394,27.98944,-63.186317,-16.268522,44.25532,-25.97898,-3.7865717,-1.7687383,-26.945251
115,0.10598916560411453,2.1682043075561523,78.14225769042969,0.29278163016757247,3.2079714512804016,-93.70708849952817,-4.692276,8.939525,25.088444,15.167968,-12.306134,-5.675518,-6.571667,-6.6131306,-14.577456,11.296723,-7.980415,4.5381308,-3.040415,0.25210518,8.984459,-59.179947,26.139475,-33.8365,-27.912838,9.464099,2.7355316,28.31186,-62.73021,-16.470116,44.962013,-26.420958,-4.475008,-1.5703293,-27.014162
116,0.1070973128080368,2.167010545730591,78.14175415039062,0.30154626100458687,3.207170490785754,-93.75832400261437,-4.6741514,8.938804,25.140947,15.167132,-12.313569,-5.6709847,-6.6218657,-6.6221256,-14.525206,11.375117,-8.008326,4.5363674,-3.0000813,0.28562304,8.99369,-59.15746,26.2659,-33.619972,-28.136324,9.586993,2.6024494,28.57246,-62.387074,-16.657408,45.52018,-26.796661,-5.013081,-1.4616191,-27.08234
117,0.10916098207235336,2.169076681137085,78.1393051147461,0.30987735060819416,3.20626201453303,-93.82313303875823,-4.65157,8.938733,25.203745,15.162853,-12.322326,-5.6669607,-6.673674,-6.62828,-14.46318,11.446546,-8.031553,4.533128,-2.9515028,0.33700845,9.0178585,-59.026234,26.385935,-33.4996,-28.436584,10.070855,2.4757366,28.752464,-62.17471,-16.8215,45.928043,-27.090853,-5.3513026,-1.509044,-27.176311
118,0.11257318407297134,2.17455792427063,78.13876342773438,0.31804778787502075,3.205182155203752,-93.90049813069743,-4.62482,8.939153,25.277319,15.155523,-12.331735,-5.662594,-6.728897,-6.6325912,-14.391008,11.515877,-8.051927,4.5290637,-2.8918917,0.4008636,9.050448,-58.83923,26.499882,-33.455666,-28.763973,10.809393,2.324203,28.915823,-62.073315,-16.958914,46.2234,-27.304592,-5.5737886,-1.6569004,-27.302294
119,0.12229267507791519,2.177985429763794,78.13550567626953,0.3262360357768326,3.204946510818793,-93.9855211175412,-4.59778,8.940323,25.358028,15.149089,-12.341863,-5.6580048,-6.7849145,-6.635091,-14.3112545,11.577411,-8.066398,4.5260305,-2.8319917,0.47446612,9.086852,-58.609024,26.608404,-33.493736,-29.126926,11.56804,2.1979113,29.066494,-62.06621,-17.06766,46.395844,-27.463314,-5.729106,-1.7982894,-27.398706
120,0.13038137555122375,2.1824686527252197,78.13507080078125,0.33416810276637793,3.2065138894863208,-94.07318996199302,-4.5748467,8.942745,25.442087,15.147453,-12.3520975,-5.653303,-6.837393,-6.6347976,-14.2267685,11.622838,-8.070795,4.525809,-2.7843666,0.5550609,9.124715,-58.329205,26.708761,-33.6252,-29.549763,12.131164,2.1462204,29.20824,-62.137157,-17.146494,46.4322,-27.596321,-5.86412,-1.8266674,-27.40422
121,0.13786426186561584,2.1896798610687256,78.13504028320312,0.34209710378848474,3.2092132759206717,-94.16418967224575,-4.5552373,8.946731,25.530651,15.151896,-12.3628235,-5.6488037,-6.885316,-6.6310515,-14.1352005,11.649518,-8.06333,4.5300035,-2.7527108,0.64229774,9.166363,-57.979424,26.796593,-33.87795,-30.061699,12.417829,2.193001,29.35164,-62.29917,-17.192225,46.309166,-27.715115,-5.9951506,-1.6845894,-27.271406
122,0.14823338389396667,2.19504451751709,78.13300323486328,0.3499210798612248,3.2128657644210223,-94.26059360772547,-4.537832,8.952443,25.624752,15.1610775,-12.374434,-5.6443896,-6.930951,-6.624237,-14.036127,11.662676,-8.046863,4.5372024,-2.7250881,0.73670095,9.2097,-57.596558,26.873182,-34.237625,-30.621168,12.533045,2.3067021,29.489124,-62.5511,-17.204561,46.03528,-27.79897,-6.097637,-1.4391936,-27.041859
123,0.15869073569774628,2.2047336101531982,78.1336441040039,0.3577089206075183,3.2189399843207536,-94.35897898481372,-4.524221,8.958255,25.721533,15.172344,-12.385666,-5.6393275,-6.977213,-6.6167107,-13.934862,11.668267,-8.025252,4.544905,-2.7077749,0.8385588,9.253455,-57.16215,26.934616,-34.66829,-31.212778,12.627306,2.4545002,29.60154,-62.874073,-17.186132,45.663677,-27.830477,-6.1524067,-1.1704663,-26.7896
124,0.17111463844776154,2.2120485305786133,78.13250732421875,0.3659213974860232,3.2291453585227146,-94.45623462074502,-4.5155506,8.962471,25.817944,15.18292,-12.395441,-5.63295,-7.0269723,-6.610461,-13.836637,11.672195,-8.002538,4.550544,-2.6967618,0.94752747,9.293313,-56.706467,26.980003,-35.125523,-31.78756,12.807514,2.6031756,29.666245,-63.24727,-17.142036,45.241253,-27.785522,-6.139091,-0.9578219,-26.589613
125,0.1864159107208252,2.2206313610076904,78.13198852539062,0.37458178733919895,3.2437352190098654,-94.55529793941189,-4.51258,8.965452,25.917358,15.194563,-12.404213,-5.6249447,-7.0835867,-6.606121,-13.739609,11.679161,-7.980538,4.5522633,-2.6925704,1.0683652,9.329722,-56.21375,27.008976,-35.62117,-32.35842,13.063052,2.7617729,29.70554,-63.677227,-17.075418,44.7639,-27.66986,-6.0204864,-0.8127269,-26.466526
126,0.19689707458019257,2.2273716926574707,78.1327133178711,0.38369981507308654,3.262078599476034,-94.65682310924073,-4.5137568,8.96749,26.02009,15.206811,-12.412093,-5.615675,-7.144568,-6.6025357,-13.642251,11.684808,-7.9567327,4.5517707,-2.6991885,1.200664,9.36778,-55.64933,27.016954,-36.181095,-32.96092,13.380089,2.9420571,29.722971,-64.17761,-16.985209,44.213642,-27.490292,-5.8156304,-0.695623,-26.381187
127,0.2127988487482071,2.23473858833313,78.13443756103516,0.392840131366873,3.2836539165648477,-94.75320189121442,-4.520246,8.968411,26.118202,15.21835,-12.418402,-5.605566,-7.205816,-6.5995736,-13.549327,11.685318,-7.930814,4.5520205,-2.7065666,1.3350626,9.398266,-55.114853,27.010107,-36.74939,-33.507984,13.7576475,3.1127596,29.65947,-64.714386,-16.878433,43.615627,-27.24102,-5.5957947,-0.60955006,-26.30746
128,0.22380280494689941,2.2456841468811035,78.13493347167969,0.40147550589560493,3.3083568030271695,-94.83718972953274,-4.532522,8.96735,26.20349,15.226045,-12.421592,-5.594878,-7.262386,-6.5969877,-13.465975,11.675254,-7.901503,4.5558295,-2.72238,1.4655532,9.42225,-54.60977,26.991045,-37.287365,-33.985485,14.283475,3.2430487,29.461845,-65.26391,-16.762556,43.00545,-26.922169,-5.4281654,-0.557446,-26.22254
129,0.23134653270244598,2.254812717437744,78.13636779785156,0.4094012840045048,3.3382651294143204,-94.90812326885639,-4.5520225,8.965054,26.274761,15.227907,-12.42096,-5.583007,-7.313351,-6.593115,-13.390904,11.647362,-7.8651185,4.566066,-2.7483757,1.5942419,9.438701,-54.113964,26.962168,-37.793472,-34.403397,15.067549,3.322445,29.051111,-65.8346,-16.643082,42.355846,-26.531446,-5.3259034,-0.5347828,-26.076653
130,0.2410859316587448,2.265148162841797,78.13623809814453,0.41683417136392215,3.3727940862780783,-94.96945447005183,-4.578847,8.961589,26.335775,15.227351,-12.418385,-5.569889,-7.360699,-6.588624,-13.322459,11.605475,-7.8228116,4.580505,-2.7812972,1.7225974,9.449561,-53.62891,26.92557,-38.285,-34.770596,16.035429,3.36104,28.477999,-66.432335,-16.523516,41.660015,-26.078127,-5.253889,-0.5418423,-25.897255
131,0.2519479990005493,2.2754783630371094,78.13581085205078,0.4246856172647888,3.4075027297644547,-95.01985072246705,-4.6078672,8.955445,26.387033,15.222999,-12.412058,-5.557265,-7.4057884,-6.586676,-13.264455,11.564538,-7.7830634,4.594367,-2.8220015,1.8447403,9.460097,-53.183277,26.88136,-38.749268,-35.076725,16.99929,3.3627243,27.885212,-67.027725,-16.407993,40.988205,-25.582094,-5.206754,-0.5890441,-25.777477
132,0.2644684612751007,2.282748222351074,78.13561248779297,0.43404577492849167,3.4380329197969304,-95.05811839518395,-4.6342297,8.9446125,26.429008,15.213863,-12.4008255,-5.5466113,-7.4498878,-6.590902,-13.220734,11.539515,-7.753884,4.602898,-2.8645072,1.9552037,9.472146,-52.84014,26.833622,-39.16038,-35.29016,17.733912,3.3388145,27.411621,-67.588036,-16.300697,40.40845,-25.060211,-5.1797748,-0.6867591,-25.810362
133,0.2734943628311157,2.2913362979888916,78.13495635986328,0.44592151029194066,3.4646049572284516,-95.08381883258104,-4.6590796,8.928026,26.46336,15.201786,-12.383335,-5.537529,-7.496916,-6.60379,-13.193008,11.537344,-7.738103,4.603457,-2.913921,2.055517,9.489948,-52.582073,26.785769,-39.538807,-35.42795,18.233557,3.2871184,27.085833,-68.12387,-16.203283,39.93354,-24.49238,-5.1790385,-0.87183595,-26.091484
134,0.2806684374809265,2.3003733158111572,78.1359634399414,0.4596264309854387,3.4891296937380862,-95.0977599241625,-4.6840878,8.906791,26.489288,15.185979,-12.360381,-5.529453,-7.5448,-6.622949,-13.179157,11.54933,-7.731638,4.599026,-2.968192,2.1477907,9.511392,-52.396713,26.740374,-39.88221,-35.496006,18.583815,3.2078803,26.836658,-68.64306,-16.116158,39.52724,-23.881126,-5.2054048,-1.1271636,-26.548714
135,0.28552621603012085,2.3085930347442627,78.13738250732422,0.47359383158642615,3.5095892520596212,-95.09996954161151,-4.7057643,8.882652,26.50368,15.163875,-12.334326,-5.523831,-7.586194,-6.6444936,-13.17649,11.564729,-7.72971,4.593398,-3.032734,2.2305324,9.53592,-52.250946,26.692528,-40.15499,-35.51379,18.795618,3.1228,26.658112,-69.10959,-16.040373,39.199577,-23.289433,-5.2431536,-1.3822454,-27.023783
136,0.2900148630142212,2.319465398788452,78.13951110839844,0.48564303191683406,3.5239601878877505,-95.09043922945192,-4.7203903,8.857688,26.503338,15.132419,-12.307718,-5.522115,-7.6150656,-6.664835,-13.182558,11.576556,-7.7295804,4.5904,-3.0963514,2.3015895,9.555276,-52.193214,26.642649,-40.29659,-35.448524,18.796692,3.0514436,26.538074,-69.4802,-15.979392,38.950024,-22.772614,-5.2765336,-1.5668252,-27.357788
137,0.29275643825531006,2.3300864696502686,78.1400375366211,0.4954943824141526,3.530266974520573,-95.06794273648967,-4.724978,8.831272,26.485237,15.087478,-12.281455,-5.526062,-7.627873,-6.6833067,-13.197608,11.581845,-7.729748,4.591498,-3.164897,2.3615327,9.573935,-52.209373,26.587606,-40.283325,-35.306225,18.53273,2.9880161,26.49114,-69.755226,-15.936084,38.7822,-22.336376,-5.3394504,-1.6661406,-27.506975
138,0.2927820682525635,2.338167190551758,78.14014434814453,0.5036980466616299,3.529940496825021,-95.03272760537618,-4.7218623,8.802927,26.451853,15.031542,-12.25417,-5.5344586,-7.6288805,-6.701757,-13.222676,11.585881,-7.7325993,4.59449,-3.2389212,2.4118533,9.592888,-52.292015,26.526756,-40.14614,-35.091232,18.044638,2.925848,26.51574,-69.94692,-15.911463,38.693264,-21.957321,-5.426118,-1.7162083,-27.557215
139,0.29004359245300293,2.3464152812957764,78.14079284667969,0.5117477095117513,3.526535606751883,-94.98776233503031,-4.7159576,8.773958,26.408165,14.97155,-12.224092,-5.544248,-7.621124,-6.720049,-13.256665,11.586652,-7.737451,4.597714,-3.3078668,2.4504898,9.606582,-52.438957,26.46207,-39.928936,-34.815792,17.465324,2.8839018,26.580929,-70.04645,-15.902313,38.68116,-21.649746,-5.457667,-1.7236241,-27.544748
140,0.28480207920074463,2.3566393852233887,78.1410140991211,0.52117631012693,3.523479651382434,-94.93576639468083,-4.7135053,8.745836,26.359417,14.917737,-12.191367,-5.552329,-7.6097116,-6.738985,-13.298069,11.586111,-7.745334,4.5997157,-3.367402,2.4760814,9.611479,-52.62337,26.394705,-39.68079,-34.504868,16.951408,2.881972,26.657703,-70.045395,-15.901905,38.743767,-21.42716,-5.3552556,-1.6948724,-27.506126
141,0.2767063081264496,2.3637607097625732,78.1415786743164,0.5332450305814332,3.5218277550451274,-94.87386383580103,-4.715831,8.71651,26.304007,14.8691435,-12.152619,-5.556876,-7.5928288,-6.7596726,-13.348904,11.579257,-7.7550836,4.6015773,-3.4203682,2.4864042,9.603458,-52.853336,26.324863,-39.39507,-34.149628,16.546606,2.949236,26.732277,-69.93723,-15.904937,38.895325,-21.299477,-5.050656,-1.6000532,-27.428934
142,0.2651475965976715,2.368464231491089,78.14425659179688,0.5469192585571084,3.5196418176245077,-94.80176920362267,-4.7201896,8.686214,26.240149,14.822353,-12.109125,-5.5598783,-7.5690427,-6.7817497,-13.409165,11.56779,-7.767055,4.603693,-3.4697106,2.482981,9.584965,-53.13767,26.25297,-39.05118,-33.741535,16.167282,3.066789,26.823015,-69.73183,-15.909313,39.13205,-21.25142,-4.602999,-1.4454672,-27.301191
143,0.2503514587879181,2.3740220069885254,78.14501953125,0.5599403575471831,3.515992544452708,-94.7262349655475,-4.7238503,8.658868,26.172783,14.778393,-12.0659,-5.5639567,-7.542226,-6.8019514,-13.47464,11.558537,-7.7823796,4.603047,-3.5086162,2.4698846,9.559507,-53.471405,26.18323,-38.671005,-33.2902,15.756685,3.1827016,26.947931,-69.44559,-15.914845,39.426952,-21.252499,-4.1251082,-1.2924455,-27.158789
144,0.2340075820684433,2.3768255710601807,78.14653015136719,0.5697710599599574,3.5098928403396736,-94.65392443975522,-4.7241845,8.638932,26.107002,14.738758,-12.027784,-5.571776,-7.5148315,-6.816891,-13.541404,11.555699,-7.800867,4.5967126,-3.5346467,2.4510045,9.532996,-53.824547,26.118746,-38.283524,-32.82354,15.282047,3.245115,27.127172,-69.093094,-15.922804,39.753674,-21.282446,-3.7282488,-1.2032796,-27.036022
145,0.21317130327224731,2.3783388137817383,78.14832305908203,0.5758899272363551,3.501073347146989,-94.58475782552394,-4.72138,8.62762,26.042707,14.70498,-11.996253,-5.583708,-7.4882503,-6.826488,-13.611514,11.5637865,-7.8242397,4.582289,-3.5399432,2.424171,9.505136,-54.231014,26.06435,-37.887844,-32.311108,14.69143,3.2208614,27.413246,-68.66166,-15.935477,40.127975,-21.336863,-3.436803,-1.2011933,-26.945805
146,0.19686155021190643,2.3740100860595703,78.14745330810547,0.5796112186412619,3.4900616142036816,-94.51571877217215,-4.716241,8.622363,25.977674,14.675149,-11.968266,-5.598425,-7.460255,-6.8322644,-13.686019,11.578205,-7.851432,4.561887,-3.5358849,2.388849,9.477332,-54.655933,26.018232,-37.480038,-31.77702,14.051641,3.1420593,27.781652,-68.15168,-15.952803,40.560116,-21.433832,-3.1916723,-1.25124,-26.868286
147,0.17219194769859314,2.371779441833496,78.14937591552734,0.5812635101783648,3.4770927116278156,-94.44942184069768,-4.7089677,8.622707,25.91356,14.649381,-11.943832,-5.6160936,-7.4308534,-6.833407,-13.759336,11.595191,-7.8807573,4.539263,-3.5176024,2.3455198,9.445905,-55.111217,25.98643,-37.055984,-31.238152,13.369388,3.0544102,28.128641,-67.58956,-15.975152,40.997818,-21.559847,-2.983016,-1.3290154,-26.785055
148,0.14477993547916412,2.3716351985931396,78.14952850341797,0.5814720330839409,3.4624280829972323,-94.38846230201482,-4.6984954,8.627278,25.852274,14.62513,-11.921971,-5.636725,-7.3987975,-6.829622,-13.825961,11.609207,-7.9097266,4.5183268,-3.4948177,2.2993822,9.413712,-55.535892,25.967781,-36.62091,-30.757355,12.716905,3.0067797,28.3538,-67.00733,-16.002539,41.402588,-21.709654,-2.7981436,-1.4098312,-26.68096
149,0.11540599167346954,2.3715925216674805,78.14877319335938,0.5801719217959951,3.4454597144952714,-94.33157703937525,-4.68579,8.636758,25.79148,14.604736,-11.904306,-5.6609287,-7.3656063,-6.821146,-13.886147,11.625225,-7.9414716,4.500324,-3.4656467,2.249431,9.38106,-55.932266,25.964458,-36.166573,-30.349834,12.078377,3.0157492,28.388515,-66.39272,-16.035276,41.751007,-21.889215,-2.6007879,-1.509873,-26.550043
150,0.08742363750934601,2.369131326675415,78.14873504638672,0.5772226814504465,3.4263286935928465,-94.27813074455068,-4.670088,8.650894,25.731476,14.586623,-11.889581,-5.6884255,-7.329673,-6.8081317,-13.9422865,11.640469,-7.9739065,4.4831457,-3.4278324,2.1916692,9.347329,-56.319088,25.97824,-35.698456,-29.987606,11.434143,3.0579724,28.303383,-65.73521,-16.072292,42.06711,-22.101973,-2.4078958,-1.6347018,-26.399652
151,0.05683711916208267,2.3648273944854736,78.1474838256836,0.5730019303445258,3.4062266908705894,-94.23118086924305,-4.651181,8.669202,25.676794,14.56917,-11.876208,-5.7182174,-7.291739,-6.789945,-13.991931,11.651792,-8.004948,4.465501,-3.3858004,2.1301355,9.313362,-56.67404,26.006254,-35.233982,-29.66826,10.833795,3.1224718,28.205143,-65.07075,-16.112862,42.383472,-22.336138,-2.2869816,-1.7439084,-26.237305
152,0.02365724742412567,2.362523317337036,78.1451644897461,0.5680758645759668,3.386409385594284,-94.1937713216398,-4.6299453,8.691509,25.632238,14.553678,-11.864145,-5.7492237,-7.2527547,-6.7665577,-14.032468,11.655181,-8.031106,4.4460964,-3.338899,2.0665717,9.277512,-57.00002,26.045424,-34.789555,-29.368528,10.306499,3.1957219,28.199266,-64.43395,-16.156298,42.72783,-22.5769,-2.306751,-1.7974566,-26.069653
153,-0.009393571875989437,2.355664014816284,78.14471435546875,0.5629957190861958,3.3674787730911886,-94.16614782574342,-4.605477,8.717209,25.599016,14.536483,-11.850989,-5.782704,-7.212187,-6.7373743,-14.062009,11.647783,-8.051884,4.425208,-3.2859008,2.0007248,9.234241,-57.307667,26.092869,-34.35344,-29.076899,9.837917,3.3080747,28.319374,-63.80632,-16.203249,43.12232,-22.838093,-2.542316,-1.7596648,-25.869242
154,-0.045653607696294785,2.3509538173675537,78.14424133300781,0.5572603105076389,3.3487866404548403,-94.14702223506728,-4.5779138,8.746439,25.574633,14.518805,-11.837865,-5.8186765,-7.169294,-6.702719,-14.082431,11.631093,-8.068312,4.4033093,-3.226362,1.93227,9.185869,-57.59328,26.146858,-33.922665,-28.805079,9.4202585,3.4540267,28.507187,-63.180347,-16.252823,43.54707,-23.119322,-2.9388652,-1.6618016,-25.642237
155,-0.07960876822471619,2.3427927494049072,78.1436538696289,0.5503272822762373,3.32922528785498,-94.13651039117144,-4.5483484,8.78042,25.558178,14.506049,-11.827946,-5.8544116,-7.1264715,-6.663814,-14.096403,11.612312,-8.08208,4.3795853,-3.159294,1.8621389,9.13951,-57.856827,26.209358,-33.522408,-28.54928,9.074528,3.5649903,28.727716,-62.602493,-16.303715,43.96701,-23.387589,-3.3704257,-1.5630809,-25.444763
156,-0.11208134144544601,2.337754249572754,78.14541625976562,0.5418518064803839,3.3079350503762464,-94.13501065819672,-4.517697,8.819584,25.54862,14.502704,-11.82403,-5.887032,-7.0871596,-6.6224647,-14.106764,11.600488,-8.096283,4.3530188,-3.0964117,1.792335,9.106841,-58.038143,26.276134,-33.186985,-28.344465,8.8752775,3.5743508,28.949373,-62.12145,-16.352783,44.35377,-23.617945,-3.709005,-1.5212566,-25.334301
157,-0.14601635932922363,2.332534074783325,78.14501190185547,0.5303185474821306,3.2841808539482598,-94.14302773159956,-4.4874988,8.867592,25.545214,14.515558,-11.829893,-5.915331,-7.0506253,-6.5769486,-14.116491,11.596681,-8.110479,4.321192,-3.0318801,1.7195944,9.0887785,-58.16528,26.346802,-32.910656,-28.1548,8.852671,3.4203746,29.174099,-61.738792,-16.400127,44.722935,-23.799986,-3.9401994,-1.5678726,-25.357412
158,-0.1810247004032135,2.3273825645446777,78.14533996582031,0.5164610301331737,3.2585594307886665,-94.16015789270303,-4.456146,8.922606,25.54869,14.538711,-11.8423395,-5.9410477,-7.0156145,-6.526962,-14.123364,11.596846,-8.124005,4.285237,-2.9630196,1.6441239,9.079611,-58.252712,26.421589,-32.68042,-27.976427,8.967198,3.1547525,29.415373,-61.43025,-16.445871,45.08009,-23.950434,-4.1258197,-1.6656293,-25.473417
159,-0.21730521321296692,2.3206443786621094,78.1439208984375,0.503088722677439,3.2322030932711385,-94.18552938479793,-4.422156,8.978256,25.560184,14.5636635,-11.856326,-5.965512,-6.983588,-6.4767194,-14.122393,11.599456,-8.136607,4.250062,-2.896773,1.5706413,9.077437,-58.26619,26.49701,-32.514915,-27.864618,9.150556,2.8802495,29.656126,-61.208786,-16.486147,45.379337,-24.071028,-4.253083,-1.76829,-25.607895
160,-0.24836750328540802,2.3147220611572266,78.14315795898438,0.49294424031590645,3.2061165265948355,-94.21822522442882,-4.384087,9.02834,25.580399,14.582238,-11.867004,-5.9902678,-6.953665,-6.429454,-14.108858,11.599121,-8.146718,4.220374,-2.835178,1.5027887,9.0773945,-58.198555,26.56986,-32.431175,-27.851784,9.312839,2.698571,29.87653,-61.08135,-16.516161,45.569195,-24.163734,-4.310329,-1.8300515,-25.68506
161,-0.27654582262039185,2.309544086456299,78.14363098144531,0.4874228649633767,3.1788870713020887,-94.25962647039286,-4.3348174,9.068211,25.612007,14.581994,-11.86992,-6.0157046,-6.92574,-6.3871536,-14.078799,11.598183,-8.156102,4.1988063,-2.7722566,1.4402866,9.080061,-58.05342,26.638376,-32.440804,-27.949669,9.45141,2.6472723,30.075401,-61.056767,-16.530218,45.62106,-24.221977,-4.262464,-1.8483955,-25.68165
162,-0.30607500672340393,2.3082361221313477,78.14405822753906,0.48510275778506995,3.150560566033656,-94.30962941647192,-4.2818017,9.104223,25.653051,14.581048,-11.871413,-6.0410233,-6.8999977,-6.3478193,-14.035553,11.597691,-8.164476,4.1823716,-2.7073693,1.3806278,9.084676,-57.84872,26.70239,-32.532413,-28.1253,9.596482,2.6684093,30.26083,-61.126953,-16.527365,45.565292,-24.241072,-4.12777,-1.8445292,-25.637302
163,-0.3322346806526184,2.305844306945801,78.14259338378906,0.48357979910923654,3.1242668792000257,-94.36525573850908,-4.2298956,9.13929,25.70006,14.580467,-11.872946,-6.0657945,-6.8784046,-6.3092,-13.985702,11.596316,-8.170769,4.167495,-2.6507652,1.3242626,9.089508,-57.57718,26.757631,-32.694736,-28.362064,9.728576,2.7204287,30.427996,-61.285385,-16.507944,45.435913,-24.223303,-3.9711533,-1.808879,-25.573107
164,-0.35641050338745117,2.3035049438476562,78.1412124633789,0.4803212465757448,3.1029802709348893,-94.4231564219635,-4.186112,9.17805,25.74927,14.587407,-11.878183,-6.0897684,-6.863715,-6.268659,-13.935612,11.594882,-8.175157,4.150497,-2.6045692,1.27142,9.088336,-57.278507,26.803534,-32.909748,-28.606936,9.788558,2.7606635,30.56896,-61.517494,-16.47604,45.261093,-24.171415,-3.8594751,-1.7318348,-25.509361
165,-0.37762829661369324,2.301405429840088,78.14071655273438,0.4746619067059934,3.0884864298177086,-94.48812556435924,-4.1518407,9.222419,25.805199,14.604084,-11.888326,-6.112904,-6.8606486,-6.2252836,-13.8822,11.596246,-8.177108,4.1302004,-2.5722346,1.2243886,9.081824,-56.909138,26.834135,-33.18904,-28.896412,9.7389555,2.79562,30.67312,-61.83965,-16.432186,45.042675,-24.087593,-3.8363168,-1.5843384,-25.432629
166,-0.40050390362739563,2.299081802368164,78.13993072509766,0.46809632591526057,3.078750777616568,-94.55986824366573,-4.123985,9.270046,25.867939,14.628102,-11.902196,-6.135297,-6.8658543,-6.1804233,-13.823559,11.598037,-8.176331,4.1086187,-2.5450046,1.1822119,9.069637,-56.49808,26.849737,-33.535187,-29.216125,9.596546,2.840934,30.744951,-62.249165,-16.377068,44.763813,-23.966928,-3.8587456,-1.3804766,-25.33819
167,-0.42138031125068665,2.2985925674438477,78.14108276367188,0.46088384053845094,3.071567913907096,-94.62835732929378,-4.1011043,9.3176985,25.92734,14.653872,-11.916435,-6.156909,-6.8717594,-6.135527,-13.768381,11.596348,-8.1740465,4.0869956,-2.5324922,1.1421448,9.058151,-56.0431,26.847122,-33.938988,-29.550299,9.51291,2.8702867,30.81001,-62.72099,-16.312477,44.44145,-23.816265,-3.8578362,-1.1755276,-25.261993
168,-0.44342371821403503,2.297025442123413,78.1397705078125,0.45345061293834416,3.0645466813085256,-94.68317264825167,-4.0849195,9.363804,25.972996,14.68292,-11.929607,-6.1775947,-6.8697176,-6.09256,-13.725456,11.58506,-8.170083,4.0667076,-2.5316932,1.1006607,9.048544,-55.60545,26.829762,-34.38025,-29.842403,9.582262,2.8565676,30.888699,-63.22574,-16.2428,44.085575,-23.63079,-3.7657657,-1.0247207,-25.24025
169,-0.4667377471923828,2.2965424060821533,78.13862609863281,0.4459907302396685,3.057500222549264,-94.72279550772184,-4.072002,9.406312,26.003283,14.706373,-11.939703,-6.1969786,-6.8575706,-6.050941,-13.695938,11.561237,-8.164608,4.0477934,-2.547278,1.0576688,9.043859,-55.16538,26.798164,-34.870483,-30.100878,9.826932,2.777403,31.021034,-63.77337,-16.171795,43.695763,-23.41155,-3.5344062,-0.95366436,-25.30204
170,-0.48903170228004456,2.2954461574554443,78.13804626464844,0.4385194298700379,3.051596678982423,-94.75243412776126,-4.064619,9.447403,26.023079,14.731042,-11.94914,-6.2152042,-6.8396754,-6.0106,-13.675391,11.528433,-8.1575575,4.029764,-2.5755794,1.0142995,9.041755,-54.715046,26.752537,-35.414604,-30.340805,10.1877575,2.6529899,31.184126,-64.37032,-16.101858,43.265266,-23.164665,-3.2098198,-0.9299171,-25.422003
171,-0.5093523263931274,2.2952754497528076,78.1373519897461,0.4300805046622977,3.0463755263743884,-94.77169961455063,-4.061497,9.486923,26.033339,14.7547035,-11.95736,-6.2331758,-6.817277,-5.971263,-13.664796,11.489525,-8.148403,4.012506,-2.6155112,0.9711806,9.042534,-54.26007,26.691484,-35.992085,-30.564272,10.69832,2.5210013,31.31032,-64.989784,-16.03355,42.805824,-22.898031,-2.8628855,-0.92108554,-25.555498
172,-0.5328933000564575,2.2963130474090576,78.135986328125,0.4200838624225762,3.0414378872538155,-94.78034226687095,-4.0602593,9.523991,26.035156,14.772305,-11.961815,-6.2518854,-6.791203,-5.9332027,-13.664702,11.44644,-8.136378,3.9960403,-2.6565816,0.92857826,9.040772,-53.86505,26.621296,-36.567307,-30.734476,11.333635,2.4169133,31.326845,-65.598236,-15.968492,42.323208,-22.61562,-2.5663137,-0.89388496,-25.657366
173,-0.5545339584350586,2.2972333431243896,78.13365173339844,0.4077661701829467,3.0374722603853765,-94.77771745371548,-4.0619826,9.559137,26.029078,14.78426,-11.963348,-6.2724824,-6.759973,-5.8948164,-13.67555,11.394042,-8.117866,3.9810362,-2.7019265,0.8875651,9.036008,-53.52396,26.548355,-37.14194,-30.857576,12.177348,2.3546429,31.16847,-66.20421,-15.907462,41.80273,-22.316605,-2.331393,-0.82145625,-25.697247
174,-0.5757486820220947,2.2986409664154053,78.1344985961914,0.3936721369480733,3.034504896963378,-94.76430978806067,-4.0669017,9.592578,26.014404,14.791233,-11.96189,-6.2942147,-6.724051,-5.8568125,-13.697007,11.334675,-8.095467,3.967214,-2.7590294,0.8477378,9.032799,-53.194828,26.472366,-37.731087,-30.96031,13.2217455,2.3094194,30.890814,-66.82325,-15.85001,41.249607,-22.000147,-2.1214108,-0.7272269,-25.705986
175,-0.5962012410163879,2.3007001876831055,78.13636016845703,0.3794362721821862,3.0309428006504437,-94.74103230358409,-4.074331,9.623227,25.99029,14.796901,-11.958888,-6.3148503,-6.6856575,-5.8218045,-13.728317,11.275919,-8.073879,3.9534278,-2.8195302,0.80677015,9.031369,-52.911987,26.394054,-38.310314,-31.027885,14.275315,2.2601976,30.599987,-67.426994,-15.796533,40.696342,-21.672157,-1.9378818,-0.6528947,-25.729784
176,-0.6124100685119629,2.3013856410980225,78.13814544677734,0.36652974144287864,3.0253259085480675,-94.70906326223401,-4.083425,9.649817,25.955688,14.804189,-11.955424,-6.3321195,-6.6474366,-5.792898,-13.769067,11.227002,-8.058633,3.9384708,-2.8787553,0.7635827,9.03331,-52.69099,26.313461,-38.855476,-31.055527,15.161691,2.1912708,30.403154,-67.98645,-15.747113,40.176636,-21.342316,-1.7817825,-0.64045423,-25.815363
177,-0.630221962928772,2.3042216300964355,78.13981628417969,0.3555793200659122,3.0160775014280707,-94.66617961147905,-4.095002,9.672289,25.907156,14.816781,-11.952401,-6.3448634,-6.609323,-5.7717724,-13.822606,11.193044,-8.052867,3.9213989,-2.9390526,0.71893644,9.04219,-52.531467,26.232271,-39.39286,-31.04099,15.867828,2.0890987,30.356544,-68.5096,-15.700618,39.689934,-20.993557,-1.655161,-0.7284345,-26.008682
178,-0.6462824940681458,2.3073363304138184,78.139404296875,0.34568157225957674,3.0043137719106188,-94.61257701095826,-4.108446,9.690889,25.846586,14.830655,-11.948139,-6.3544903,-6.568987,-5.756398,-13.888148,11.165889,-8.05205,3.9030793,-3.003568,0.67343104,9.057306,-52.415237,26.150244,-39.92469,-30.994478,16.484743,1.9686662,30.394835,-69.00846,-15.655838,39.222313,-20.625118,-1.5571986,-0.88547975,-26.273546
179,-0.6616801619529724,2.309900999069214,78.13836669921875,0.33622202951815744,2.9928759480530718,-94.5531835411154,-4.122869,9.705825,25.78009,14.841056,-11.942134,-6.362575,-6.5307264,-5.7447853,-13.958561,11.145042,-8.054768,3.8849683,-3.069058,0.6269675,9.071953,-52.334038,26.06431,-40.38696,-30.932327,16.986258,1.8586745,30.44014,-69.457634,-15.61334,38.791016,-20.277985,-1.4836252,-1.0486889,-26.533699
180,-0.6754416227340698,2.313145160675049,78.14006805419922,0.3268794858885411,2.9845146144780292,-94.49267905722536,-4.1384788,9.717811,25.71368,14.845682,-11.934779,-6.3706646,-6.4962444,-5.7345033,-14.0268345,11.124636,-8.0571375,3.8685424,-3.1275563,0.5799138,9.077122,-52.307526,25.974627,-40.70706,-30.850811,17.316568,1.785675,30.411423,-69.82945,-15.575305,38.411842,-19.990885,-1.430081,-1.154919,-26.713306
181,-0.6874192357063293,2.316274404525757,78.13935852050781,0.31664155537100325,2.979276732679668,-94.42990052448883,-4.1549125,9.726672,25.646492,14.84295,-11.9262085,-6.379162,-6.4674215,-5.7256155,-14.093427,11.109656,-8.06184,3.8534498,-3.180194,0.53354836,9.071978,-52.339207,25.882574,-40.8505,-30.754482,17.431166,1.7628514,30.274084,-70.126274,-15.542841,38.082634,-19.765072,-1.4305598,-1.1736627,-26.782188
182,-0.6990931034088135,2.3196146488189697,78.13867950439453,0.3063321408296878,2.9759838570085497,-94.36319515374313,-4.172627,9.732071,25.575916,14.835068,-11.91615,-6.38723,-6.442622,-5.719351,-14.161117,11.099601,-8.068673,3.8391325,-3.2353303,0.4889875,9.062313,-52.397408,25.787485,-40.861027,-30.658155,17.387083,1.7741299,30.075233,-70.35769,-15.514733,37.79959,-19.58911,-1.4742274,-1.1428144,-26.78525
183,-0.7093213796615601,2.322833776473999,78.13750457763672,0.29684057941537256,2.975359986134211,-94.29651384322193,-4.1907787,9.734453,25.506477,14.8214855,-11.903814,-6.3946195,-6.4199023,-5.714373,-14.227034,11.087484,-8.07448,3.8268216,-3.279619,0.443611,9.046359,-52.509872,25.692713,-40.77622,-30.538044,17.223682,1.8010418,29.853672,-70.51306,-15.489374,37.572357,-19.4609,-1.4913152,-1.1018701,-26.758703
184,-0.719661295413971,2.322665214538574,78.13661193847656,0.2897342183398998,2.978168899031172,-94.233774847296,-4.2098536,9.734261,25.442165,14.804008,-11.889386,-6.400999,-6.3985066,-5.710329,-14.288062,11.067805,-8.07688,3.817761,-3.3086274,0.39578605,9.025559,-52.66332,25.599583,-40.640503,-30.400549,17.01838,1.8251823,29.650478,-70.58174,-15.463761,37.413433,-19.386274,-1.4105464,-1.0901933,-26.73978
185,-0.7298001646995544,2.324794292449951,78.13793182373047,0.2855741647567209,2.9859898453097804,-94.17420205811456,-4.2298107,9.729756,25.38301,14.776164,-11.8711815,-6.4059186,-6.378517,-5.707149,-14.343791,11.036547,-8.074982,3.8131573,-3.315284,0.3423463,8.995876,-52.89666,25.512482,-40.432335,-30.225716,16.717302,1.8334243,29.44974,-70.55454,-15.437035,37.318825,-19.362751,-1.1529348,-1.1275334,-26.736746
186,-0.7407452464103699,2.327535390853882,78.13928985595703,0.2839072268998347,2.9979893327438845,-94.1163242609016,-4.2534738,9.722384,25.326687,14.7464285,-11.850551,-6.4095416,-6.360079,-5.705396,-14.395673,10.996865,-8.069688,3.812114,-3.3133223,0.2853787,8.962571,-53.155907,25.427696,-40.149708,-30.048525,16.349924,1.8399365,29.241903,-70.44437,-15.406334,37.288975,-19.39222,-0.7752263,-1.18978,-26.73113
187,-0.749504804611206,2.3293960094451904,78.14089965820312,0.28335890613176923,3.01117877549043,-94.06295067524466,-4.2757053,9.713834,25.27564,14.715324,-11.829333,-6.412933,-6.343471,-5.704416,-14.443341,10.956743,-8.0632925,3.8125277,-3.2963018,0.22890097,8.923161,-53.472435,25.350866,-39.823868,-29.837793,15.937274,1.8632874,29.065407,-70.258606,-15.37266,37.326508,-19.465103,-0.4158535,-1.2505838,-26.714699
188,-0.7566646337509155,2.331266164779663,78.1417465209961,0.28228151052076234,3.022689155994591,-94.01714112605539,-4.2930446,9.706516,25.231743,14.686311,-11.808876,-6.417228,-6.3281207,-5.7032156,-14.486361,10.921256,-8.055909,3.8123236,-3.268014,0.1770393,8.881604,-53.817173,25.285322,-39.500584,-29.600399,15.558612,1.9220943,28.963692,-70.00981,-15.337138,37.43959,-19.580679,-0.21088983,-1.2834595,-26.681683
189,-0.7613325715065002,2.3293380737304688,78.1429672241211,0.2812245634097416,3.0325899345817677,-93.98097866326265,-4.305983,9.701214,25.196629,14.662385,-11.78923,-6.4221544,-6.3163958,-5.7021523,-14.523712,10.894715,-8.047728,3.8107932,-3.2301884,0.13103233,8.838756,-54.16976,25.229233,-39.197857,-29.347511,15.277952,2.062941,28.96084,-69.68696,-15.299812,37.65201,-19.75931,-0.20840727,-1.2657382,-26.623798
190,-0.7661895155906677,2.3273251056671143,78.14497375488281,0.28047533869290125,3.042192452946792,-93.95249511595634,-4.3155837,9.696312,25.168999,14.640367,-11.769554,-6.4272623,-6.3066564,-5.7012806,-14.556129,10.870661,-8.037161,3.8090618,-3.17264,0.0852452,8.790306,-54.586308,25.190208,-38.886097,-29.053133,15.003413,2.2609642,29.029966,-69.281654,-15.265892,37.94389,-19.995646,-0.33283207,-1.2169043,-26.545042
191,-0.7705910801887512,2.3247230052948,78.14679718017578,0.27970493065947993,3.050202025382466,-93.92821585407938,-4.320094,9.6912155,25.146206,14.6164875,-11.750843,-6.4334717,-6.2956934,-5.700285,-14.5848675,10.847242,-8.026832,3.8079567,-3.113212,0.04574351,8.742997,-55.007874,25.162125,-38.55274,-28.752151,14.715512,2.427128,29.139153,-68.83445,-15.229976,38.29158,-20.252378,-0.53081816,-1.174012,-26.463951
192,-0.7763152718544006,2.32222056388855,78.146484375,0.27833706630277516,3.0552776081744217,-93.90458576096239,-4.317021,9.685044,25.125984,14.586029,-11.733934,-6.44166,-6.278786,-5.6984673,-14.611597,10.81979,-8.017886,3.8081625,-3.0559332,0.004023157,8.700851,-55.42582,25.150549,-38.200886,-28.452217,14.356065,2.4751265,29.26319,-68.36251,-15.199454,38.642776,-20.513817,-0.7481022,-1.1740255,-26.391249
193,-0.781374454498291,2.317929744720459,78.14775085449219,0.27607429306685444,3.0562325071740224,-93.88085543268289,-4.301471,9.676575,25.1091,14.541629,-11.717773,-6.4536877,-6.251604,-5.694558,-14.636374,10.78271,-8.009593,3.8106327,-3.0010357,-0.037304875,8.665647,-55.852665,25.15879,-37.818695,-28.129704,13.868101,2.3218238,29.445942,-67.865814,-15.174004,39.010353,-20.771965,-1.0318246,-1.2335454,-26.351807
194,-0.7856370210647583,2.311187982559204,78.1474380493164,0.2734750921541126,3.0540345333277603,-93.85879206422686,-4.276061,9.666738,25.096416,14.487565,-11.702265,-6.4686146,-6.217732,-5.689581,-14.65851,10.740118,-8.001459,3.8147676,-2.9443247,-0.080223136,8.635568,-56.294315,25.189402,-37.4165,-27.788282,13.293349,2.0327415,29.684725,-67.33008,-15.156593,39.405426,-21.04493,-1.3892407,-1.330836,-26.33047
195,-0.7848595976829529,2.3048079013824463,78.14733123779297,0.2706996261604873,3.050653789623131,-93.83888166889204,-4.248983,9.656824,25.085443,14.435626,-11.688928,-6.482813,-6.1828527,-5.684843,-14.678223,10.698339,-7.9944587,3.818937,-2.888122,-0.12029957,8.608347,-56.722054,25.241306,-36.993942,-27.482233,12.713072,1.7417805,29.871046,-66.77315,-15.147441,39.80362,-21.331526,-1.7086278,-1.4444114,-26.29025
196,-0.7844282984733582,2.2983665466308594,78.14697265625,0.2688328839289263,3.048056461773754,-93.82141131982655,-4.2303977,9.648913,25.073544,14.401663,-11.68175,-6.492664,-6.15587,-5.682912,-14.695419,10.670033,-7.9921756,3.821566,-2.8346963,-0.15426368,8.581513,-57.108047,25.310514,-36.553387,-27.2596,12.208569,1.5857617,29.90022,-66.213295,-15.146053,40.179653,-21.6253,-1.8781523,-1.553312,-26.192347
197,-0.7856453061103821,2.2903103828430176,78.14998626708984,0.2683729001304051,3.0464105221821614,-93.80770678915128,-4.2214313,9.6426,25.060778,14.387695,-11.679449,-6.496686,-6.1392355,-5.684847,-14.708817,10.659115,-7.995808,3.8213344,-2.7770739,-0.18134883,8.552029,-57.458397,25.395994,-36.076683,-27.137548,11.811995,1.6334077,29.665415,-65.64016,-15.153254,40.508926,-21.932829,-1.7755053,-1.6676213,-25.9995
198,-0.7830406427383423,2.283639907836914,78.14925384521484,0.2688359988746169,3.0447856075495334,-93.79720212480719,-4.217769,9.637443,25.04828,14.387581,-11.68172,-6.496986,-6.1281796,-5.6890097,-14.718869,10.658053,-8.002665,3.8193612,-2.7104661,-0.20427062,8.519479,-57.811817,25.501534,-35.56562,-27.068298,11.452106,1.8037502,29.249413,-65.04519,-15.171051,40.807045,-22.25453,-1.4914236,-1.7919741,-25.739902
199,-0.780616819858551,2.2772417068481445,78.14741516113281,0.26889857299167963,3.043467595722404,-93.78741834453749,-4.217278,9.6335335,25.035528,14.395024,-11.687802,-6.4953623,-6.1197534,-5.6941524,-14.72832,10.662568,-8.012176,3.8178356,-2.6600795,-0.22212417,8.492946,-58.089676,25.615522,-35.06658,-27.071428,11.145079,2.010447,28.839476,-64.45726,-15.196535,41.12089,-22.582579,-1.2305161,-1.8983583,-25.47495
200,-0.7772876620292664,2.2693324089050293,78.1478500366211,0.267135571724891,3.0427852544533525,-93.77595159468801,-4.2189918,9.631814,25.021698,14.406364,-11.697973,-6.4936666,-6.110148,-5.6981835,-14.739665,10.66519,-8.020985,3.8188925,-2.6172006,-0.23864415,8.466217,-58.385765,25.738777,-34.601913,-27.048687,10.752656,2.162833,28.611052,-63.892345,-15.230255,41.477345,-22.890818,-1.2040404,-1.9607489,-25.2637
201,-0.7726291418075562,2.2590534687042236,78.147216796875,0.2617475666013601,3.043083664195747,-93.76162544202757,-4.223279,9.634261,25.005804,14.421655,-11.714238,-6.4925556,-6.09863,-5.6995993,-14.754423,10.664685,-8.028923,3.823295,-2.5957456,-0.25185722,8.443168,-58.64879,25.860657,-34.18751,-27.022812,10.283225,2.2494788,28.649738,-63.345917,-15.270346,41.911655,-23.19111,-1.5056418,-1.9523375,-25.104528
202,-0.7630654573440552,2.250849723815918,78.1465835571289,0.2543189367007865,3.0441104991604693,-93.74596525578109,-4.231045,9.63986,24.98851,14.443491,-11.736144,-6.490947,-6.086627,-5.699787,-14.770865,10.664122,-8.037447,3.829879,-2.5914457,-0.26087326,8.42249,-58.87014,25.973307,-33.808247,-27.01292,9.787968,2.3111653,28.84673,-62.813408,-15.315845,42.399464,-23.484022,-2.0115855,-1.8950796,-24.9709
203,-0.7597876191139221,2.240813732147217,78.1473388671875,0.24715708785336013,3.0451864606714754,-93.73029831868023,-4.2398205,9.644763,24.971626,14.468371,-11.75949,-6.4881997,-6.075589,-5.701627,-14.7871895,10.665677,-8.046595,3.837793,-2.5897298,-0.26839653,8.402597,-59.093483,26.07966,-33.456753,-26.992388,9.290247,2.3376753,29.094053,-62.317776,-15.366624,42.886024,-23.747372,-2.6038268,-1.8368896,-24.888273
204,-0.7552543878555298,2.2318477630615234,78.14435577392578,0.24314609126374043,3.0456931686328375,-93.71609075226401,-4.2464542,9.644235,24.957418,14.49076,-11.778724,-6.4836307,-6.066498,-5.7083516,-14.801595,10.670787,-8.056678,3.8462625,-2.6014857,-0.27497837,8.392739,-59.233692,26.171585,-33.142803,-27.025824,8.925832,2.323177,29.292221,-61.894974,-15.417899,43.333977,-23.967085,-3.159819,-1.8247114,-24.88511
205,-0.746799886226654,2.2221593856811523,78.1436538696289,0.243222364910709,3.0454918706053795,-93.7037284679813,-4.2518387,9.637665,24.946234,14.513513,-11.7937,-6.477088,-6.0599704,-5.72154,-14.814051,10.680898,-8.068084,3.8549352,-2.6161883,-0.28466794,8.388674,-59.346443,26.249823,-32.843082,-27.070404,8.653468,2.2359052,29.41113,-61.532455,-15.469522,43.74986,-24.128092,-3.7046573,-1.8798528,-24.99793
206,-0.734933078289032,2.2134182453155518,78.14397430419922,0.24589658128554961,3.044883332267926,-93.69240023372484,-4.2553816,9.62624,24.937284,14.534429,-11.805194,-6.468916,-6.0550895,-5.7394133,-14.825473,10.694632,-8.080579,3.8642998,-2.6432166,-0.2948547,8.391815,-59.396244,26.308512,-32.568645,-27.14573,8.476924,2.090655,29.507864,-61.224617,-15.51983,44.155876,-24.243065,-4.283289,-1.9721583,-25.203627
207,-0.7187151312828064,2.203482151031494,78.14330291748047,0.2500149042366974,3.0439125023388924,-93.68183666389223,-4.2584863,9.612386,24.929451,14.555531,-11.816122,-6.459191,-6.050871,-5.759518,-14.835016,10.709233,-8.0929575,3.874792,-2.673088,-0.30124423,8.396997,-59.419495,26.35172,-32.348408,-27.23319,8.376538,1.9492623,29.597025,-60.98778,-15.567099,44.499752,-24.322727,-4.8112144,-2.07153,-25.43604
208,-0.7120350003242493,2.194561719894409,78.1422348022461,0.2543626704566327,3.0425384302326766,-93.67177048391983,-4.260281,9.59719,24.922516,14.57308,-11.826937,-6.448068,-6.045245,-5.7797055,-14.841845,10.720615,-8.103734,3.886901,-2.7158294,-0.29912424,8.407253,-59.354916,26.373728,-32.22709,-27.379,8.419164,1.8752909,29.701633,-60.8461,-15.604931,44.739407,-24.390894,-5.2007,-2.1499867,-25.628956
209,-0.7032074332237244,2.1855592727661133,78.1424560546875,0.2586736773243578,3.0401981555313973,-93.66091377379841,-4.260515,9.580548,24.914509,14.58707,-11.839071,-6.4351344,-6.036259,-5.799536,-14.847348,10.727442,-8.113266,3.901321,-2.759167,-0.2903168,8.416469,-59.266,26.378628,-32.21914,-27.53963,8.6197605,1.9002328,29.823353,-60.806103,-15.623541,44.845295,-24.436089,-5.40692,-2.2197077,-25.77415
210,-0.6895890235900879,2.1771976947784424,78.14228057861328,0.2637381634627947,3.0370513455349086,-93.6496325739769,-4.259475,9.561786,24.906397,14.598743,-11.851846,-6.4204326,-6.025542,-5.8202796,-14.851394,10.731258,-8.121513,3.9177456,-2.8173547,-0.26567858,8.432302,-59.088318,26.373419,-32.286076,-27.767307,8.984519,1.9858618,29.949743,-60.86115,-15.637004,44.86885,-24.462431,-5.48152,-2.2894595,-25.911959
211,-0.6732269525527954,2.1689844131469727,78.14300537109375,0.2693600732615488,3.0344375913088055,-93.64098030599186,-4.258137,9.542152,24.9011,14.609752,-11.863553,-6.404786,-6.0159483,-5.8417172,-14.851316,10.734627,-8.128456,3.9346766,-2.879092,-0.23933285,8.448981,-58.876324,26.356924,-32.421997,-28.012495,9.355813,2.0903513,30.081493,-60.99,-15.643932,44.806778,-24.466534,-5.4908605,-2.3293867,-26.018839
212,-0.6580506563186646,2.161871910095215,78.1415786743164,0.2756716965829713,3.033465992156706,-93.63751377300837,-4.25791,9.522991,24.901548,14.623328,-11.873574,-6.3889647,-6.0128794,-5.8642125,-14.843978,10.743506,-8.135017,3.9508238,-2.9429913,-0.22056125,8.46456,-58.62782,26.310213,-32.627068,-28.25813,9.631733,2.1716127,30.2213,-61.175236,-15.644508,44.66707,-24.448792,-5.500136,-2.3090212,-26.075659
213,-0.6425387859344482,2.1547975540161133,78.14283752441406,0.2823035421887735,3.0342239678677463,-93.64133490563901,-4.2593007,9.505,24.909277,14.642427,-11.882201,-6.3722486,-6.016933,-5.887692,-14.825546,10.758227,-8.140519,3.9659512,-3.0080106,-0.19619566,8.476132,-58.364105,26.246367,-32.87042,-28.500204,9.702839,2.2161787,30.373795,-61.437206,-15.636944,44.457523,-24.389473,-5.5421433,-2.2004766,-26.068808
214,-0.6262746453285217,2.15054988861084,78.14202880859375,0.28964421173357,3.0361910028810395,-93.65054929297868,-4.262045,9.487747,24.922531,14.6659355,-11.890097,-6.3545594,-6.0265718,-5.912263,-14.798402,10.777781,-8.145386,3.9806404,-3.0847638,-0.16750273,8.489993,-58.02837,26.160446,-33.17774,-28.779686,9.703217,2.247895,30.542046,-61.781345,-15.61935,44.175343,-24.300463,-5.575682,-2.0270302,-26.010962
215,-0.6066288948059082,2.1413440704345703,78.14447784423828,0.2977963866696575,3.039692203668809,-93.66201621348397,-4.2648077,9.469533,24.938955,14.687185,-11.895995,-6.337488,-6.0382457,-5.9373236,-14.77023,10.796508,-8.148691,3.9951558,-3.1565185,-0.14102815,8.499157,-57.70299,26.060207,-33.526165,-29.030338,9.656025,2.2717166,30.688995,-62.173656,-15.595077,43.83123,-24.17843,-5.562967,-1.832348,-25.934103
216,-0.5888174772262573,2.132889747619629,78.1471939086914,0.30660711331172547,3.045029608415609,-93.67251409524819,-4.264012,9.447981,24.956978,14.694871,-11.896307,-6.3226175,-6.0480657,-5.9622483,-14.748934,10.8076935,-8.148762,4.0096474,-3.2328508,-0.119799,8.508217,-57.340725,25.944605,-33.91008,-29.277676,9.695442,2.2953045,30.786703,-62.588646,-15.565887,43.45135,-24.036678,-5.462031,-1.6602433,-25.873398
217,-0.570540726184845,2.1269772052764893,78.14769744873047,0.3170611193028352,3.052254286439096,-93.68175591459824,-4.2584496,9.421758,24.977764,14.685727,-11.888892,-6.310537,-6.055341,-5.9880443,-14.737855,10.8110485,-8.146068,4.0237823,-3.308917,-0.10614849,8.515899,-56.965168,25.817427,-34.323486,-29.508348,9.782855,2.323388,30.821842,-63.030895,-15.534164,43.030045,-23.873552,-5.249342,-1.528942,-25.85071
218,-0.5542166233062744,2.119142770767212,78.15050506591797,0.32890551760756626,3.0612305080877493,-93.69133780032234,-4.2494855,9.391919,25.001823,14.664735,-11.875854,-6.3003254,-6.061563,-6.01476,-14.732411,10.807846,-8.140209,4.0376377,-3.3883667,-0.09719481,8.523864,-56.55762,25.679113,-34.7751,-29.739134,9.897183,2.3514526,30.813713,-63.51234,-15.500559,42.561638,-23.687887,-4.9501305,-1.4130085,-25.84463
219,-0.5410897731781006,2.1112749576568604,78.15223693847656,0.34017702277629364,3.0720323762299953,-93.70089541113364,-4.241114,9.362322,25.025396,14.640196,-11.862071,-6.291481,-6.0679836,-6.039753,-14.7284,10.800768,-8.132197,4.0517964,-3.4660614,-0.09079788,8.529567,-56.141422,25.53227,-35.26192,-29.946888,10.082842,2.3711562,30.772907,-64.0126,-15.465868,42.05875,-23.483166,-4.599332,-1.2900871,-25.823086
220,-0.5258293747901917,2.102069139480591,78.1561279296875,0.349131111358849,3.0845857871452105,-93.70985218060966,-4.2341228,9.3351,25.044952,14.613515,-11.849284,-6.283443,-6.072794,-6.0599995,-14.721386,10.785715,-8.119556,4.0669694,-3.5340254,-0.08521001,8.527794,-55.76164,25.385147,-35.7724,-30.096462,10.359318,2.3737102,30.708447,-64.50812,-15.433034,41.533424,-23.259764,-4.2325997,-1.1373898,-25.753672
221,-0.5104616284370422,2.0928382873535156,78.15887451171875,0.3557497219671099,3.1001604956020143,-93.71930290007914,-4.228332,9.309852,25.059778,14.582038,-11.836827,-6.276168,-6.076847,-6.0749626,-14.708475,10.760165,-8.099892,4.0844855,-3.593259,-0.0796781,8.517153,-55.406693,25.244425,-36.304012,-30.194946,10.741455,2.3506422,30.599382,-64.99977,-15.404037,40.968407,-23.029938,-3.8258593,-0.9163464,-25.580643
222,-0.49686384201049805,2.0849521160125732,78.15979766845703,0.36086409699446614,3.118310832407335,-93.72900498110143,-4.2226987,9.28531,25.071615,14.544394,-11.82342,-6.269903,-6.080114,-6.08589,-14.69254,10.725753,-8.074667,4.103525,-3.6480443,-0.075570844,8.500556,-55.06316,25.113605,-36.858086,-30.259243,11.2058735,2.3078396,30.449587,-65.49826,-15.380345,40.366135,-22.790958,-3.3716927,-0.6485107,-25.338032
223,-0.4842759668827057,2.076552152633667,78.16148376464844,0.3638649427883982,3.136713388485672,-93.73714783582172,-4.220758,9.264648,25.080814,14.512867,-11.813965,-6.264629,-6.0817165,-6.093779,-14.678204,10.687736,-8.048143,4.1218143,-3.7008069,-0.07359501,8.4852495,-54.736233,24.992228,-37.43671,-30.291365,11.7493105,2.2590473,30.30846,-65.99439,-15.361094,39.76537,-22.528355,-2.928789,-0.40263626,-25.129267
224,-0.47207310795783997,2.069108724594116,78.1638412475586,0.3642959432280266,3.1528543260846336,-93.74162851567851,-4.2234464,9.250188,25.088146,14.493814,-11.810433,-6.2603164,-6.0796833,-6.098793,-14.670287,10.650075,-8.024367,4.136886,-3.749796,-0.07452952,8.475004,-54.456364,24.881037,-38.034977,-30.27547,12.344374,2.2185965,30.222633,-66.47731,-15.3453,39.204597,-22.224268,-2.5552356,-0.24927975,-25.05529
225,-0.4606511890888214,2.062682628631592,78.16474151611328,0.36147608165882644,3.166460946093448,-93.74107576372026,-4.23285,9.243886,25.094425,14.491201,-11.814648,-6.2579646,-6.073427,-6.1003685,-14.671386,10.612234,-8.003977,4.1475935,-3.7947273,-0.076570205,8.470321,-54.237488,24.785019,-38.69374,-30.191174,13.074175,2.2008803,30.21789,-66.95817,-15.331132,38.68403,-21.8551,-2.281257,-0.21256052,-25.170828
226,-0.45126551389694214,2.0567071437835693,78.1652603149414,0.3555704738158428,3.1787547983244693,-93.73701061258329,-4.248103,9.244251,25.09891,14.501312,-11.825224,-6.257235,-6.0635614,-6.098369,-14.678665,10.571851,-7.9845376,4.1553526,-3.841842,-0.0795898,8.471136,-54.039616,24.702534,-39.404747,-30.0684,13.942216,2.196495,30.266684,-67.44215,-15.316907,38.19081,-21.43712,-2.0698826,-0.25478402,-25.411217
227,-0.4423668682575226,2.0506062507629395,78.1636734008789,0.3486358609553776,3.1895035157698146,-93.73118987527737,-4.265945,9.247974,25.100279,14.519965,-11.840298,-6.2561502,-6.0536284,-6.095518,-14.687982,10.536907,-7.9689493,4.161858,-3.8875432,-0.087130986,8.476048,-53.865158,24.628077,-40.075626,-29.9258,14.749494,2.1829612,30.330868,-67.90053,-15.302947,37.733635,-21.003109,-1.8800901,-0.35409433,-25.698355
228,-0.43404096364974976,2.0461068153381348,78.16413116455078,0.3416636758847546,3.1985417874196793,-93.72564074263934,-4.2841077,9.252464,25.097101,14.544681,-11.858305,-6.2527432,-6.0468693,-6.0943093,-14.6952505,10.514004,-7.959127,4.168796,-3.9222786,-0.101830594,8.4796095,-53.75042,24.560408,-40.60145,-29.764095,15.259172,2.1356368,30.36884,-68.299644,-15.292701,37.319496,-20.588007,-1.671368,-0.4881998,-25.953814
229,-0.4249407947063446,2.0395548343658447,78.16380310058594,0.335479845299233,3.2056361319064575,-93.71983795885066,-4.300975,9.255592,25.085947,14.571939,-11.878069,-6.2459116,-6.0442405,-6.0960355,-14.69912,10.506197,-7.956504,4.176533,-3.9550674,-0.12072743,8.487712,-53.642143,24.493114,-40.974663,-29.616055,15.430972,2.0227106,30.38447,-68.64956,-15.286314,36.95014,-20.188265,-1.4193584,-0.69117343,-26.19155
230,-0.4179260730743408,2.0339255332946777,78.16357421875,0.3291879391175236,3.210983131598997,-93.71312893417924,-4.319045,9.2598295,25.068619,14.6060705,-11.90166,-6.2369127,-6.0444946,-6.0994177,-14.701723,10.510407,-7.9599285,4.184224,-3.979617,-0.1432962,8.497226,-53.576508,24.428612,-41.234646,-29.446661,15.349591,1.8645489,30.39069,-68.95768,-15.283866,36.618412,-19.78726,-1.1521275,-0.9615861,-26.441086
231,-0.41118353605270386,2.0272181034088135,78.16287994384766,0.32244059035729944,3.2148541960324306,-93.70674523014434,-4.3409896,9.267969,25.050728,14.654078,-11.930175,-6.227174,-6.045282,-6.102542,-14.704946,10.519891,-7.9663324,4.191705,-3.9968343,-0.17203732,8.506862,-53.54857,24.365526,-41.388016,-29.27034,15.136217,1.717051,30.372467,-69.202156,-15.283579,36.33902,-19.41456,-0.8997143,-1.2236834,-26.651398
232,-0.40206828713417053,2.0162532329559326,78.16020965576172,0.3145252353312298,3.217500633337267,-93.7019584097857,-4.362737,9.28005,25.039116,14.70744,-11.961157,-6.2181273,-6.0445914,-6.1029077,-14.710594,10.528607,-7.972698,4.198623,-4.005058,-0.20882149,8.513453,-53.5694,24.302721,-41.436657,-29.091072,14.897152,1.6359453,30.313644,-69.36231,-15.28225,36.126904,-19.096848,-0.6920258,-1.4009883,-26.772512
233,-0.39431214332580566,2.0072503089904785,78.15912628173828,0.3061312340692198,3.2193230052663604,-93.6988257565913,-4.390341,9.298693,25.036419,14.779717,-11.998214,-6.2098465,-6.0441566,-6.101433,-14.720604,10.538041,-7.9795814,4.2050347,-4.004468,-0.25717485,8.515373,-53.65193,24.239355,-41.350773,-28.911612,14.608335,1.6386309,30.181963,-69.43001,-15.277319,35.97947,-18.837524,-0.568649,-1.446489,-26.776262
234,-0.3897874355316162,2.000816583633423,78.1558609008789,0.2969140709194602,3.2200543960207746,-93.69668017216178,-4.4212856,9.322404,25.038958,14.865484,-12.039562,-6.201626,-6.0429015,-6.0981283,-14.733575,10.548249,-7.98724,4.2109876,-3.9916904,-0.31513497,8.511347,-53.814224,24.17949,-41.131493,-28.711763,14.203071,1.6951076,29.993624,-69.4177,-15.268698,35.89123,-18.618841,-0.503802,-1.4090009,-26.69428
235,-0.38499513268470764,1.9949408769607544,78.15316772460938,0.2863748742177892,3.2190063341271333,-93.69591849395992,-4.4528494,9.349709,25.042194,14.9581375,-12.084837,-6.193895,-6.0400147,-6.092753,-14.746175,10.558614,-7.9950056,4.216598,-3.971434,-0.37551978,8.506606,-54.005226,24.122223,-40.84509,-28.505198,13.793921,1.7902393,29.810577,-69.33576,-15.253188,35.86795,-18.440027,-0.42716956,-1.355927,-26.568247
236,-0.38041582703590393,1.9901998043060303,78.15157318115234,0.27408937637404907,3.215301038712539,-93.69649064717801,-4.4813137,9.378998,25.041702,15.049424,-12.1326475,-6.1870418,-6.0328946,-6.0846105,-14.755105,10.565929,-8.00156,4.2219796,-3.9417076,-0.43260494,8.501518,-54.214813,24.06782,-40.548912,-28.277954,13.453501,1.9070822,29.691984,-69.19171,-15.229233,35.913406,-18.298477,-0.2695227,-1.3543568,-26.437954
237,-0.37610337138175964,1.9842183589935303,78.1493148803711,0.258427753672543,3.208293889682144,-93.69839348160463,-4.5074525,9.412136,25.034096,15.142032,-12.18554,-6.181112,-6.020751,-6.072306,-14.75989,10.5701,-8.006243,4.2272468,-3.8974466,-0.48578197,8.496266,-54.456264,24.014874,-40.248215,-28.022074,13.202911,2.0727646,29.626781,-68.97772,-15.194814,36.029568,-18.198715,0.05051994,-1.4213524,-26.317152
238,-0.3710603415966034,1.9802305698394775,78.14643096923828,0.2400332487250767,3.1984395705870217,-93.70139892195934,-4.5325465,9.449243,25.02252,15.238476,-12.243152,-6.1759276,-6.0048823,-6.056336,-14.76219,10.572596,-8.010231,4.2322726,-3.8370776,-0.5387923,8.488194,-54.754135,23.964705,-39.91212,-27.730463,12.981163,2.284834,29.591356,-68.69207,-15.150209,36.21122,-18.137459,0.47357386,-1.5207063,-26.182169
