unveil-humanoid-operators/unveil-humanoid-operators.github.io/feature-analysis-animation/data/feature_matrix_instances/weight_ankle_peak_vel_jogging_A266_jog_arc_cw_start_R_003__A266.csv
Frame,root_translateX,root_translateY,root_translateZ,root_rotateX,root_rotateY,root_rotateZ,left_hip_pitch_joint_dof,left_hip_roll_joint_dof,left_hip_yaw_joint_dof,left_knee_joint_dof,left_ankle_pitch_joint_dof,left_ankle_roll_joint_dof,right_hip_pitch_joint_dof,right_hip_roll_joint_dof,right_hip_yaw_joint_dof,right_knee_joint_dof,right_ankle_pitch_joint_dof,right_ankle_roll_joint_dof,waist_yaw_joint_dof,waist_roll_joint_dof,waist_pitch_joint_dof,left_shoulder_pitch_joint_dof,left_shoulder_roll_joint_dof,left_shoulder_yaw_joint_dof,left_elbow_joint_dof,left_wrist_roll_joint_dof,left_wrist_pitch_joint_dof,left_wrist_yaw_joint_dof,right_shoulder_pitch_joint_dof,right_shoulder_roll_joint_dof,right_shoulder_yaw_joint_dof,right_elbow_joint_dof,right_wrist_roll_joint_dof,right_wrist_pitch_joint_dof,right_wrist_yaw_joint_dof
0,-0.7330928444862366,1.0372519493103027,78.27543640136719,-0.21421364838510204,2.367553363385877,-46.22301735178204,-0.85874534,5.2556124,23.692896,9.018688,-11.097244,-3.614953,-3.6555226,-4.4469824,-16.835627,9.69727,-8.782416,3.462211,-1.7969434,-1.0187912,2.6010356,4.374036,27.708458,-35.844643,47.57661,20.974232,8.1351595,-7.7160277,3.0986593,-24.079884,44.93468,47.840813,-13.4059515,1.5299606,-0.820329
1,-0.7143019437789917,1.0201809406280518,78.26177978515625,-0.2371572274853345,2.359956321852246,-46.19901808593027,-0.865042,5.3009295,23.662537,9.130359,-11.314048,-3.8642383,-3.5301337,-4.413112,-16.88708,9.564803,-8.949857,3.7767541,-1.8016348,-0.9960043,2.5999122,4.428176,27.747587,-35.8269,47.502453,20.973137,8.13322,-7.7208796,3.08557,-24.12141,44.98807,47.849155,-13.3411455,1.5277762,-0.8146379
2,-0.6956769227981567,1.0041234493255615,78.24626922607422,-0.2586200440737297,2.3524505813010603,-46.175489740376634,-0.8649255,5.3424764,23.635338,9.227074,-11.524303,-4.1223874,-3.4030883,-4.3806686,-16.938248,9.427422,-9.114577,4.099364,-1.8270905,-0.9723609,2.5868304,4.492844,27.773783,-35.794086,47.442387,20.976131,8.12989,-7.7253113,3.177856,-24.148386,44.956165,47.795113,-13.407041,1.5280697,-0.80877495
3,-0.6756407022476196,0.9834752678871155,78.2288589477539,-0.2808228866295694,2.345410997556116,-46.15158732785875,-0.881213,5.392085,23.606995,9.362081,-11.75161,-4.362741,-3.2837865,-4.350783,-16.99212,9.308894,-9.286112,4.406767,-1.8325043,-0.9481095,2.5757873,4.5354333,27.789171,-35.778873,47.398846,20.977846,8.128549,-7.7268305,3.1917157,-24.16645,44.97897,47.80983,-13.382782,1.5258229,-0.8048425
4,-0.6530695557594299,0.9602404236793518,78.21234130859375,-0.30623095808758355,2.339035105268811,-46.12634011316243,-0.93568665,5.4611063,23.572763,9.587555,-12.018645,-4.5583997,-3.1807046,-4.3239694,-17.050926,9.231145,-9.473241,4.675153,-1.8414778,-0.91853267,2.5568461,4.5901313,27.793625,-35.74806,47.356285,20.979774,8.130801,-7.7264276,3.2562368,-24.172192,44.958427,47.80722,-13.399925,1.5240551,-0.80327976
5,-0.6285590529441833,0.9366015195846558,78.1964111328125,-0.3358222439737129,2.334469937309548,-46.099235608184465,-1.0458276,5.5576057,23.52996,9.940547,-12.3432,-4.693995,-3.1010761,-4.3003697,-17.113794,9.20681,-9.678091,4.899349,-1.8598421,-0.88057643,2.537887,4.6775846,27.797396,-35.675667,47.28635,20.994814,8.136293,-7.72696,3.415597,-24.176256,44.846447,47.742306,-13.499789,1.5230058,-0.8026148
6,-0.6010624766349792,0.9101982116699219,78.18124389648438,-0.36869755846956326,2.3311734082274778,-46.07077364404231,-1.19534,5.673934,23.480555,10.383272,-12.707953,-4.7866187,-3.0387237,-4.278581,-17.179691,9.221486,-9.896451,5.091309,-1.8440522,-0.84044564,2.5238726,4.7355356,27.797783,-35.634792,47.227173,21.000813,8.146664,-7.7225485,3.4778163,-24.178173,44.800583,47.75838,-13.464599,1.5188279,-0.8069474
7,-0.5719579458236694,0.883122444152832,78.16654205322266,-0.40475116856466714,2.327023640602762,-46.041571579728384,-1.3584388,5.799843,23.426697,10.863321,-13.086535,-4.857903,-2.980547,-4.2567964,-17.251143,9.2555065,-10.127204,5.253188,-1.82466,-0.7975499,2.5132864,4.801626,27.796026,-35.577557,47.158077,21.009886,8.158094,-7.72156,3.5334892,-24.179815,44.75793,47.780037,-13.419568,1.5133346,-0.80623186
8,-0.5401214957237244,0.852252185344696,78.1527328491211,-0.4436459065914378,2.3196506653845184,-46.01175326152645,-1.5025828,5.922101,23.37148,11.311805,-13.448519,-4.9297566,-2.912616,-4.23253,-17.33094,9.2869625,-10.367918,5.3870196,-1.8164359,-0.7541879,2.4866207,4.8960896,27.792418,-35.510662,47.08166,21.008055,8.171807,-7.722845,3.6513417,-24.178524,44.70016,47.766483,-13.437698,1.5106672,-0.7999675
9,-0.5037268996238708,0.8188274502754211,78.13896179199219,-0.4855483594627367,2.3080110761926367,-45.98160493686968,-1.6278093,6.0408883,23.314602,11.73037,-13.794956,-5.0086994,-2.835634,-4.2074823,-17.423363,9.321427,-10.623626,5.4849925,-1.8026617,-0.7114576,2.4747083,5.0072017,27.784552,-35.396217,46.981346,21.033714,8.183874,-7.7392974,3.7473836,-24.17688,44.644047,47.75887,-13.463007,1.5074997,-0.76947534
10,-0.46527934074401855,0.782978892326355,78.1262435913086,-0.5307618249329003,2.2938443375584323,-45.95083005009978,-1.7468752,6.1614127,23.254742,12.144137,-14.137265,-5.0829024,-2.7552624,-4.1815157,-17.52541,9.365595,-10.893308,5.5487933,-1.8007821,-0.6677213,2.451525,5.1427526,27.773127,-35.26275,46.873737,21.052837,8.198437,-7.758654,3.8752425,-24.173538,44.59288,47.73389,-13.517885,1.5081142,-0.73257184
11,-0.4270336925983429,0.7484604716300964,78.11105346679688,-0.578154304606829,2.277697094542905,-45.91945039469103,-1.8570175,6.2815065,23.193218,12.547926,-14.468865,-5.1464434,-2.6653981,-4.1520133,-17.628407,9.402133,-11.166454,5.595082,-1.7938884,-0.62189305,2.4291341,5.2850184,27.757784,-35.12561,46.761677,21.068537,8.21254,-7.7803755,3.9648542,-24.169975,44.581833,47.741394,-13.538996,1.5034711,-0.693842
12,-0.38389337062835693,0.7103351950645447,78.09508514404297,-0.6264885387050517,2.2604627226495486,-45.88777800616492,-1.954085,6.3979225,23.13203,12.932477,-14.781538,-5.1934924,-2.5623915,-4.116956,-17.72374,9.417868,-11.434539,5.64053,-1.7827705,-0.5738587,2.4043841,5.428428,27.741327,-35.001957,46.6532,21.067644,8.2241335,-7.801725,4.0667863,-24.16567,44.566406,47.75104,-13.581524,1.4888126,-0.6618021
13,-0.3327891230583191,0.6668922305107117,78.08056640625,-0.6768054814693899,2.24010117088285,-45.856166647181624,-2.0341127,6.510589,23.071957,13.294967,-15.073856,-5.220964,-2.4378297,-4.072592,-17.80926,9.3994465,-11.700172,5.6861606,-1.7587572,-0.5216241,2.3845782,5.5643206,27.722734,-34.89605,46.54729,21.044827,8.233786,-7.826381,4.1350503,-24.16252,44.580666,47.79561,-13.618555,1.4545183,-0.6372718
14,-0.279215544462204,0.6223350167274475,78.06385803222656,-0.7295154298700014,2.2170505136922047,-45.82466326612827,-2.100031,6.620701,23.011753,13.639179,-15.349169,-5.2325573,-2.2966907,-4.020661,-17.889238,9.358194,-11.967082,5.7239413,-1.7463177,-0.46446836,2.3570828,5.729451,27.701199,-34.774258,46.42967,21.01319,8.2418,-7.8554506,4.308852,-24.156227,44.519093,47.777687,-13.793208,1.4094408,-0.6151637
15,-0.2239595651626587,0.5752271413803101,78.04827117919922,-0.7821944168188069,2.1951474759149967,-45.791800984461055,-2.158199,6.7272897,22.950367,13.968781,-15.608495,-5.232476,-2.1511617,-3.9666872,-17.965637,9.309326,-12.223056,5.7569475,-1.7018769,-0.41027868,2.3357086,5.861885,27.683023,-34.697853,46.328037,20.96793,8.247338,-7.8791623,4.382285,-24.153404,44.530273,47.834686,-13.83326,1.3623838,-0.59600455
16,-0.16408860683441162,0.525172233581543,78.033447265625,-0.8330303303942157,2.178377186234796,-45.75657936280527,-2.2173796,6.8311043,22.88645,14.292595,-15.854056,-5.2250032,-2.0128284,-3.9156098,-18.040152,9.266703,-12.454821,5.7883186,-1.676013,-0.35663292,2.3045526,6.0202546,27.65971,-34.605076,46.227627,20.942616,8.246706,-7.892344,4.47306,-24.148703,44.535053,47.879227,-13.843999,1.3324084,-0.57994884
17,-0.1009308472275734,0.46767309308052063,78.01705169677734,-0.8820351909027782,2.167765474518591,-45.71870138948297,-2.27364,6.9303427,22.82013,14.598521,-16.080715,-5.211151,-1.8808024,-3.8673294,-18.113617,9.226105,-12.653928,5.8209915,-1.6619076,-0.30462062,2.2608283,6.1917324,27.633099,-34.516045,46.138615,20.934664,8.236143,-7.890381,4.596289,-24.139702,44.512173,47.903526,-13.795831,1.3251661,-0.5697796
18,-0.03405949845910072,0.4076828360557556,78.00296783447266,-0.9298802068048199,2.1613156359221275,-45.67908392967741,-2.327762,7.0263977,22.751621,14.894439,-16.291079,-5.188658,-1.7501115,-3.8197298,-18.18473,9.182193,-12.828732,5.8526196,-1.6394988,-0.25651333,2.209918,6.363193,27.61096,-34.449615,46.05673,20.930813,8.219369,-7.877335,4.722195,-24.128956,44.48389,47.929703,-13.676122,1.3315015,-0.56500226
19,0.03346513956785202,0.3445565104484558,77.98758697509766,-0.9761736694020667,2.1579864632221604,-45.63712369816367,-2.3808477,7.119068,22.680971,15.185135,-16.49054,-5.157047,-1.6259714,-3.7750633,-18.253096,9.149781,-12.993251,5.8787007,-1.6016736,-0.21178733,2.1615055,6.523062,27.586536,-34.40051,45.986362,20.92995,8.20233,-7.8580484,4.752813,-24.116056,44.52784,48.029217,-13.463361,1.3407625,-0.5584153
20,0.10340763628482819,0.27682968974113464,77.97186279296875,-1.0210661153282528,2.1572207257798492,-45.592450397169905,-2.435653,7.2094417,22.607527,15.479028,-16.686424,-5.1158924,-1.514641,-3.7348547,-18.318436,9.145167,-13.162123,5.8945837,-1.577868,-0.17077522,2.103435,6.7107573,27.569347,-34.33733,45.90714,20.919996,8.192285,-7.83938,4.896931,-24.102577,44.488857,48.051964,-13.44754,1.3504575,-0.5413188
21,0.1815641075372696,0.2048993706703186,77.95448303222656,-1.0648722504117558,2.158795415154901,-45.54513481165484,-2.4908085,7.297587,22.531515,15.774321,-16.878227,-5.061644,-1.4196935,-3.7000055,-18.379667,9.177853,-13.340838,5.896261,-1.5620452,-0.12982914,2.0402498,6.9065843,27.543123,-34.260654,45.83764,20.91388,8.189666,-7.824116,5.0921493,-24.073874,44.395603,48.06384,-13.630886,1.3511066,-0.5062674
22,0.2586745321750641,0.132719486951828,77.93699645996094,-1.107168882236133,2.1635155571591738,-45.49557457470585,-2.5492764,7.3845224,22.452944,16.075489,-17.064089,-4.995675,-1.3368411,-3.669532,-18.436808,9.235454,-13.5197735,5.887148,-1.494766,-0.095003925,1.9878517,7.064286,27.527775,-34.24133,45.77528,20.895672,8.194958,-7.8039055,5.0920935,-24.05615,44.45813,48.216885,-13.65124,1.3455756,-0.4635004
23,0.3402564525604248,0.06090709939599037,77.91972351074219,-1.1480964534052718,2.1702286464402487,-45.443104393737606,-2.6054218,7.4672585,22.371237,16.370008,-17.244062,-4.9248285,-1.261299,-3.6430457,-18.492805,9.310097,-13.696737,5.873962,-1.4843576,-0.061909225,1.9190446,7.2860947,27.5094,-34.155937,45.7019,20.880049,8.199672,-7.784805,5.3053555,-24.027153,44.360603,48.218563,-13.94486,1.3489816,-0.41623652
24,0.4198243021965027,-0.015137509442865849,77.90213012695312,-1.1869328310001994,2.1776347131827736,-45.38712495610479,-2.6559494,7.5437813,22.28622,16.65022,-17.418968,-4.8560743,-1.190967,-3.621753,-18.54994,9.398602,-13.870186,5.863408,-1.4460471,-0.038878143,1.865259,7.485899,27.494349,-34.084297,45.643925,20.855762,8.201337,-7.762669,5.4461675,-24.000605,44.29875,48.25137,-14.123837,1.3593187,-0.36887574
25,0.5008669495582581,-0.09173313528299332,77.88400268554688,-1.222398490065518,2.1837493970367388,-45.32741324858855,-2.6970387,7.611727,22.197973,16.91145,-17.587273,-4.7916207,-1.1202425,-3.6055338,-18.60875,9.493551,-14.036608,5.857366,-1.3792961,-0.029202143,1.8371407,7.6609764,27.477983,-34.01217,45.60306,20.835283,8.19929,-7.739422,5.3834434,-23.971073,44.38241,48.40614,-14.058655,1.383526,-0.32283702
26,0.5859600305557251,-0.17248639464378357,77.86515808105469,-1.2554394486798794,2.189629614967474,-45.2642110814524,-2.7318273,7.6734943,22.106491,17.16025,-17.75001,-4.72766,-1.0536131,-3.594511,-18.668053,9.601892,-14.197749,5.8522387,-1.3971514,-0.024357488,1.7854145,7.9313765,27.458784,-33.840183,45.544174,20.819881,8.193977,-7.719672,5.693382,-23.932302,44.183376,48.283188,-14.4056635,1.4305546,-0.2732408
27,0.6744349002838135,-0.2510995864868164,77.84455108642578,-1.2866531176584688,2.199246550244063,-45.198314859879176,-2.7651074,7.7298093,22.012346,17.398626,-17.908066,-4.6618156,-0.98971313,-3.5866086,-18.727737,9.712977,-14.355274,5.846581,-1.3490272,-0.027347045,1.7604045,8.1348915,27.437174,-33.721733,45.515663,20.794302,8.185998,-7.693026,5.7176385,-23.882793,44.17287,48.359257,-14.429416,1.4654765,-0.2259507
28,0.7676753997802734,-0.33527836203575134,77.82624816894531,-1.3168408229924375,2.216715267368141,-45.13052176416313,-2.8016026,7.781231,21.916275,17.628633,-18.06258,-4.5915985,-0.9271974,-3.5793047,-18.788155,9.813599,-14.508443,5.839142,-1.3184723,-0.027861048,1.7265749,8.358687,27.412642,-33.592728,45.48824,20.744814,8.173617,-7.655637,5.721401,-23.823362,44.19117,48.446495,-14.406369,1.481918,-0.19100088
29,0.8649158477783203,-0.4192957580089569,77.8077621459961,-1.3455920572674922,2.241873218141322,-45.06154621479562,-2.8422925,7.8275356,21.81823,17.85292,-18.21406,-4.5123196,-0.86454135,-3.572213,-18.846886,9.900382,-14.660499,5.8338485,-1.2910725,-0.022881048,1.6860851,8.596954,27.390871,-33.46818,45.458878,20.652481,8.154248,-7.6013126,5.803851,-23.773415,44.137115,48.458626,-14.406683,1.468242,-0.15927231
30,0.962655246257782,-0.5076358318328857,77.78694915771484,-1.3730378821085456,2.2731858864096206,-44.99089609311535,-2.8849885,7.868327,21.717815,18.069613,-18.3617,-4.4266496,-0.8023783,-3.566212,-18.904549,9.978548,-14.8095875,5.829933,-1.2530361,-0.015245228,1.6469629,8.833532,27.37714,-33.363026,45.42944,20.518803,8.130159,-7.5334396,5.9064865,-23.748873,44.065773,48.42478,-14.360366,1.4352077,-0.1296371
31,1.060015320777893,-0.5958685278892517,77.76716613769531,-1.3995112964150271,2.311951610540117,-44.917226327273475,-2.929951,7.9055467,21.615286,18.277418,-18.50714,-4.343031,-0.74608773,-3.5622857,-18.966064,10.058218,-14.953565,5.819263,-1.2199316,-0.008076835,1.6091869,9.082133,27.35958,-33.24064,45.394775,20.399109,8.103258,-7.4693103,5.997941,-23.719227,44.00064,48.38952,-14.301044,1.4004422,-0.10885982
32,1.1608595848083496,-0.6861245632171631,77.7479248046875,-1.4258843717904786,2.3597571514487643,-44.83916867447389,-2.9758022,7.9401374,21.510984,18.469538,-18.648859,-4.2699995,-0.6990232,-3.5604494,-19.036005,10.144152,-15.087388,5.7936697,-1.1893038,-0.004686093,1.567723,9.326215,27.34017,-33.11952,45.363487,20.309584,8.078652,-7.420608,6.0801916,-23.683546,43.95944,48.35738,-14.247499,1.3840449,-0.10571519
33,1.2635524272918701,-0.7808851599693298,77.72923278808594,-1.4522781929003952,2.417085151621675,-44.75603552212973,-3.0206354,7.9716234,21.404716,18.642359,-18.787739,-4.2142262,-0.6633028,-3.5616593,-19.118,10.242238,-15.2117815,5.745114,-1.1661549,-0.0066682235,1.5165747,9.578039,27.32519,-32.99603,45.32845,20.25554,8.05923,-7.390175,6.253528,-23.650707,43.87106,48.25067,-14.289124,1.399524,-0.13387991
34,1.3701915740966797,-0.8782350420951843,77.70958709716797,-1.4779645484510133,2.4829865685574424,-44.66854686629342,-3.0650332,7.9992747,21.296597,18.7984,-18.92324,-4.1697326,-0.63690007,-3.5657003,-19.208673,10.348123,-15.328319,5.6799445,-1.1284224,-0.013406462,1.4682797,9.817096,27.314043,-32.8861,45.29457,20.224195,8.042308,-7.3703184,6.360894,-23.618233,43.84588,48.18157,-14.253731,1.4305646,-0.18645144
35,1.4840136766433716,-0.9771315455436707,77.68890380859375,-1.5025728469064379,2.557397408234492,-44.57790556070889,-3.1148677,8.024454,21.186928,18.949345,-19.056551,-4.12588,-0.6172848,-3.5713189,-19.30238,10.454703,-15.43649,5.6112366,-1.0765928,-0.024664478,1.4326923,10.042155,27.30793,-32.78385,45.251385,20.21411,8.024241,-7.3616953,6.2384033,-23.57935,44.013214,48.26983,-14.000216,1.4584366,-0.23884812
36,1.5957245826721191,-1.0734891891479492,77.66682434082031,-1.5260183506021916,2.640062976280068,-44.48493932870404,-3.1758971,8.049022,21.075766,19.107424,-19.189287,-4.0719285,-0.602529,-3.5771694,-19.393524,10.555323,-15.535581,5.5522265,-1.0432163,-0.03621632,1.3867394,10.284111,27.305756,-32.67317,45.195282,20.209831,8.001155,-7.367977,6.3253293,-23.54806,44.00474,48.196312,-13.995047,1.4747667,-0.2517755
37,1.7130300998687744,-1.1731535196304321,77.64408874511719,-1.5475504732765837,2.732444681725424,-44.389712438010605,-3.2495754,8.071207,20.96252,19.27054,-19.316206,-4.0050206,-0.5905204,-3.5833018,-19.481281,10.641094,-15.615786,5.509228,-1.0366482,-0.050262176,1.3247696,10.564091,27.306002,-32.53327,45.11447,20.2305,7.9702396,-7.402087,6.6433253,-23.505213,43.794823,47.954903,-14.29135,1.4718845,-0.20216262
38,1.8289611339569092,-1.2770732641220093,77.62300109863281,-1.567296295758017,2.834146293644669,-44.29170766285905,-3.332971,8.090745,20.84739,19.433945,-19.438562,-3.9309068,-0.58273077,-3.59016,-19.56859,10.717144,-15.679831,5.4742074,-0.9774293,-0.06743175,1.2793332,10.781656,27.312286,-32.45782,45.046013,20.25498,7.936174,-7.4523535,6.7312813,-23.479359,43.754498,47.86111,-14.355146,1.4503415,-0.11641994
39,1.9478833675384521,-1.389262080192566,77.60025787353516,-1.5870876509711638,2.9424092581535417,-44.191469446804774,-3.4253395,8.111943,20.731445,19.606318,-19.56678,-3.8518252,-0.58328444,-3.5976026,-19.654903,10.80124,-15.749125,5.4389696,-0.910541,-0.08562857,1.2462542,10.991208,27.325514,-32.387875,44.96336,20.285416,7.900588,-7.500564,6.715498,-23.457376,43.797367,47.831017,-14.323504,1.4235209,-0.03150281
40,2.0707812309265137,-1.4995269775390625,77.5748291015625,-1.6085855133458302,3.054061653234422,-44.08903502873189,-3.5266414,8.13928,20.615316,19.797626,-19.712416,-3.7699995,-0.5930778,-3.6043718,-19.740335,10.90385,-15.840173,5.3951683,-0.8726071,-0.10116419,1.2123859,11.229215,27.34143,-32.29252,44.86133,20.309607,7.866278,-7.5254054,6.8277016,-23.433197,43.752316,47.70859,-14.424237,1.4065471,0.017494833
41,2.194180727005005,-1.6085121631622314,77.5490951538086,-1.6325420027416835,3.170546243978698,-43.98499256205349,-3.638232,8.174143,20.50153,20.008738,-19.877443,-3.6802914,-0.61285615,-3.6091402,-19.823061,11.022941,-15.955121,5.3435254,-0.80838186,-0.117175035,1.199595,11.432003,27.372381,-32.238026,44.75627,20.316364,7.8430963,-7.517566,6.7596436,-23.407969,43.853153,47.717327,-14.32725,1.3946302,0.013296369
42,2.3179004192352295,-1.724283218383789,77.52226257324219,-1.6583284070107638,3.292799344115252,-43.879065406004166,-3.7606013,8.214902,20.388443,20.236986,-20.057531,-3.5833778,-0.64017564,-3.6118994,-19.90393,11.150075,-16.083256,5.287567,-0.754597,-0.12501936,1.1793245,11.6271,27.387602,-32.194454,44.669952,20.31749,7.825432,-7.4868593,6.8449044,-23.393751,43.84486,47.615852,-14.378698,1.3905686,-0.018089177
43,2.443716526031494,-1.8397204875946045,77.49170684814453,-1.6844141397037828,3.417057144677283,-43.77047632485739,-3.8885086,8.257945,20.272259,20.477528,-20.248196,-3.4904141,-0.67827564,-3.6176043,-19.985533,11.304638,-16.233166,5.222935,-0.70299864,-0.14205562,1.1809295,11.841842,27.433157,-32.128845,44.532516,20.31182,7.799215,-7.4483023,6.8240695,-23.364511,43.909363,47.584538,-14.332148,1.3853645,-0.06503706
44,2.5726492404937744,-1.9517751932144165,77.4593505859375,-1.7111632085491402,3.539851096172981,-43.65906237577358,-4.0208774,8.303127,20.148376,20.734678,-20.450342,-3.4125507,-0.72883004,-3.6292434,-20.070744,11.501365,-16.411264,5.145337,-0.6544193,-0.16009256,1.1913494,12.049006,27.472185,-32.04678,44.396328,20.287483,7.747952,-7.4005094,6.8782916,-23.338581,43.90213,47.4832,-14.333614,1.3830043,-0.10900969
45,2.703259229660034,-2.0677199363708496,77.42350769042969,-1.7389719446883125,3.660617818103113,-43.5447735132432,-4.1545043,8.348023,20.014864,21.001135,-20.65944,-3.3483248,-0.7895021,-3.6461651,-20.160978,11.736969,-16.61753,5.049996,-0.5959916,-0.18097566,1.2252362,12.246508,27.510635,-31.941818,44.250534,20.24617,7.6570606,-7.3428335,6.853756,-23.318754,43.936836,47.414913,-14.206804,1.3767104,-0.15333755
46,2.8346669673919678,-2.1862075328826904,77.3837890625,-1.7679160318302267,3.7810567277595446,-43.427832437563524,-4.292951,8.39449,19.873928,21.28177,-20.879297,-3.293303,-0.86003137,-3.6673212,-20.254055,12.00479,-16.848576,4.9404173,-0.555308,-0.20420825,1.2707666,12.4633465,27.552061,-31.79501,44.083324,20.192728,7.537711,-7.276494,6.900252,-23.29681,43.90592,47.278664,-14.130719,1.3714699,-0.20289215
47,2.972043037414551,-2.3145172595977783,77.343505859375,-1.7958611151757833,3.9013898013685835,-43.30791165055324,-4.4352193,8.4429245,19.729866,21.577501,-21.11083,-3.2539885,-0.945706,-3.6959429,-20.347984,12.318082,-17.107359,4.824469,-0.5049842,-0.22768757,1.3265771,12.65526,27.585276,-31.658667,43.920174,20.12616,7.4156537,-7.2006874,6.9283514,-23.281357,43.881866,47.146774,-14.034045,1.3710961,-0.2498908
48,3.1093506813049316,-2.434415817260742,77.30000305175781,-1.820199253669594,4.021759038088263,-43.18453196083205,-4.58091,8.493588,19.587132,21.89045,-21.356325,-3.23695,-1.0510881,-3.7360237,-20.440336,12.68733,-17.395103,4.710255,-0.46524918,-0.26027346,1.3916382,12.848946,27.635235,-31.518156,43.722878,20.048285,7.31504,-7.1260614,6.9456716,-23.262691,43.8712,47.015953,-13.979317,1.3815947,-0.28690732
49,3.247021198272705,-2.5652072429656982,77.25414276123047,-1.8420297352452808,4.142561758539922,-43.05825906605911,-4.7257166,8.547192,19.448181,22.211132,-21.61197,-3.246694,-1.1664854,-3.7826605,-20.530268,13.090761,-17.706886,4.6032524,-0.4176451,-0.29534307,1.4616015,13.01225,27.68549,-31.411703,43.52297,19.941635,7.2426066,-7.036919,6.954977,-23.246805,43.869778,46.892094,-13.976994,1.404253,-0.30845723
50,3.390449285507202,-2.6994996070861816,77.20162200927734,-1.8615868362479417,4.263595378764159,-42.92902510575625,-4.871813,8.60311,19.310394,22.542908,-21.87867,-3.2788048,-1.2934934,-3.8368006,-20.618614,13.531923,-18.04451,4.4980173,-0.37046018,-0.33394185,1.5388191,13.162134,27.739254,-31.31639,43.310463,19.812737,7.184871,-6.9365683,6.9717417,-23.231396,43.86258,46.759384,-14.024854,1.4364043,-0.3197435
51,3.5337681770324707,-2.8378467559814453,77.14453887939453,-1.8763190288733491,4.384191807270478,-42.795782097614925,-5.0265794,8.6598,19.170784,22.903591,-22.164042,-3.3264687,-1.4542524,-3.9106681,-20.705713,14.06103,-18.41905,4.3855333,-0.3247677,-0.38116714,1.6235851,13.301092,27.798634,-31.220036,43.081783,19.690067,7.138483,-6.8478165,6.987892,-23.216496,43.852455,46.619,-14.082867,1.4774084,-0.32799265
52,3.678368330001831,-2.979161024093628,77.08185577392578,-1.8827028354060966,4.503780632388833,-42.65747769422762,-5.1981125,8.71476,19.026142,23.312586,-22.475826,-3.38269,-1.6701951,-4.017107,-20.791649,14.727413,-18.843294,4.256622,-0.28485712,-0.44459507,1.7180324,13.432664,27.872887,-31.109715,42.82869,19.59545,7.1004267,-6.7945414,6.999896,-23.201075,43.840508,46.46544,-14.116266,1.5265869,-0.34049237
53,3.8245718479156494,-3.1268863677978516,77.00973510742188,-1.8867047219717004,4.620943453415506,-42.51115646375701,-5.3877788,8.774687,18.870905,23.774168,-22.814764,-3.4508584,-1.9334632,-4.147224,-20.878227,15.518288,-19.312183,4.1002364,-0.24847229,-0.5130501,1.8207258,13.541284,27.94069,-30.996212,42.58441,19.536507,7.0703063,-6.7827272,7.0093246,-23.190493,43.82314,46.303246,-14.088445,1.5881946,-0.36588863
54,3.974102735519409,-3.268958568572998,76.93006896972656,-1.8857859156994181,4.736526499071294,-42.35850173096251,-5.589626,8.835339,18.709398,24.274376,-23.174967,-3.5326068,-2.2362103,-4.3006673,-20.962873,16.414429,-19.822187,3.9232967,-0.21817352,-0.5909816,1.9329152,13.643618,28.01427,-30.872412,42.325596,19.501713,7.0496693,-6.8018036,7.0206723,-23.182642,43.801258,46.125935,-14.030473,1.6612368,-0.39801845
55,4.127028942108154,-3.418682098388672,76.8382568359375,-1.8643883431045871,4.853023005459064,-42.2048792684356,-5.805915,8.879948,18.552664,24.81587,-23.561338,-3.6183317,-2.6021156,-4.505301,-21.039694,17.458244,-20.383547,3.7453208,-0.18923557,-0.6916131,2.0488284,13.72217,28.085028,-30.74089,42.05419,19.488953,7.038533,-6.8377357,7.03777,-23.179758,43.771614,45.929005,-14.006069,1.7380873,-0.42132974
56,4.280360221862793,-3.5727195739746094,76.73323059082031,-1.8054996529835372,4.972647750727623,-42.055907918970604,-6.027504,8.886917,18.414732,25.377813,-23.9674,-3.6982758,-3.05598,-4.789374,-21.099144,18.695292,-21.009253,3.5835829,-0.16100782,-0.83345425,2.1668868,13.7726555,28.16198,-30.595331,41.750904,19.49194,7.0367637,-6.879907,7.058116,-23.183662,43.73942,45.704742,-14.07217,1.8109975,-0.42011663
57,4.4280686378479,-3.72050142288208,76.61355590820312,-1.7041134630392656,5.099877841427482,-41.90976680503861,-6.267448,8.852786,18.295462,25.976185,-24.398617,-3.7727427,-3.6178071,-5.1612015,-21.13326,20.155619,-21.714762,3.4121923,-0.13165286,-1.021872,2.2829041,13.798322,28.243025,-30.43226,41.415565,19.514719,7.0459056,-6.937839,7.0817757,-23.195839,43.697083,45.451855,-14.2613945,1.8728719,-0.37819704
58,4.585137844085693,-3.8860912322998047,76.48158264160156,-1.5650390072660785,5.231974415261539,-41.76444599330859,-6.5215564,8.7821865,18.191412,26.606937,-24.85299,-3.8441682,-4.2655215,-5.60818,-21.143925,21.798437,-22.484058,3.2315466,-0.10223137,-1.2518363,2.3991027,13.810593,28.328876,-30.249126,41.045704,19.562992,7.065508,-7.014268,7.116908,-23.216642,43.640186,45.16711,-14.543262,1.9295292,-0.3073802
59,4.741948127746582,-4.043157577514648,76.33390808105469,-1.3886315433525045,5.360948215652898,-41.62527483641152,-6.772019,8.673319,18.106874,27.255693,-25.324532,-3.909351,-4.9633274,-6.126804,-21.140076,23.567854,-23.283262,3.1001575,-0.07312153,-1.5218467,2.5236816,13.782815,28.42174,-30.063828,40.651196,19.619658,7.0924673,-7.0850444,7.150123,-23.247309,43.59528,44.857372,-14.855756,1.9921272,-0.23434997
60,4.901381015777588,-4.208118438720703,76.17578125,-1.1769726627417765,5.47895457726541,-41.49745114218205,-7.002247,8.527247,18.045612,27.91102,-25.808483,-3.9638338,-5.6751747,-6.7119217,-21.13313,25.409443,-24.081322,3.0769503,-0.042889103,-1.828664,2.6636946,13.702244,28.524174,-29.886967,40.230686,19.677856,7.1241016,-7.1262245,7.1638145,-23.290672,43.591167,44.535744,-15.13299,2.0720513,-0.18594849
61,5.063277244567871,-4.373030185699463,76.00341033935547,-0.912830640566443,5.5862573569061515,-41.3836546869851,-7.2065363,8.321405,18.015503,28.56225,-26.301485,-3.9969902,-6.3796635,-7.3816743,-21.143293,27.28976,-24.906841,3.2179086,-0.00751883,-2.1919296,2.8168945,13.588193,28.638002,-29.703928,39.767235,19.75395,7.1582046,-7.1366115,7.159129,-23.348307,43.63974,44.1927,-15.372143,2.1808105,-0.16808261
62,5.223144054412842,-4.542747497558594,75.82061004638672,-0.6041766753517797,5.686114900771525,-41.2801833003548,-7.3980436,8.067443,18.010403,29.225672,-26.810452,-4.015094,-7.0983596,-8.129644,-21.160028,29.244123,-25.765606,3.4784908,0.028476378,-2.6040182,2.9824662,13.429764,28.764063,-29.520164,39.27408,19.836615,7.1967,-7.1277776,7.141708,-23.420778,43.727306,43.82459,-15.602345,2.3097055,-0.16674453
63,5.385209560394287,-4.705331802368164,75.62576293945312,-0.2888233026919263,5.775255116408657,-41.18338331816119,-7.582757,7.8123555,18.015253,29.9166,-27.33923,-4.036109,-7.8642607,-8.914396,-21.146925,31.330889,-26.586557,3.766849,0.06004648,-3.0207906,3.1658192,13.213277,28.901247,-29.354462,38.758377,19.908169,7.2432446,-7.0953994,7.112075,-23.508236,43.835743,43.446648,-15.807948,2.440442,-0.17820731
64,5.553552150726318,-4.872961044311523,75.42147827148438,-0.0022142222947184073,5.850068001695955,-41.089481031212095,-7.7681785,7.6014786,18.014673,30.655113,-27.894604,-4.077653,-8.708444,-9.693984,-21.068005,33.604443,-27.296593,3.9952826,0.08145273,-3.4001675,3.3735068,12.906642,29.047314,-29.236326,38.24333,19.939238,7.3012958,-7.034654,7.0674396,-23.610416,43.94907,43.074417,-15.971121,2.5546045,-0.19911735
65,5.724296569824219,-5.039341926574707,75.2129135131836,0.25715514717402327,5.901492856622315,-40.999558444649495,-7.9458303,7.4335103,18.013388,31.449963,-28.480537,-4.142314,-9.610448,-10.457414,-20.914083,36.053505,-27.919544,4.170908,0.100008525,-3.743291,3.6146955,12.481159,29.200327,-29.186052,37.757595,19.889595,7.3694286,-6.9342875,7.012296,-23.728785,44.06523,42.689716,-16.090595,2.6499393,-0.22038713
66,5.889711380004883,-5.210688591003418,74.99783325195312,0.5054507246479242,5.934048658719719,-40.91522063483227,-8.115999,7.2880874,18.017092,32.29124,-29.094223,-4.2212563,-10.558445,-11.217466,-20.70647,38.64698,-28.475515,4.338778,0.12035972,-4.068262,3.8825188,11.964277,29.358614,-29.185362,37.278675,19.791342,7.4465938,-6.799462,6.9439607,-23.86476,44.19232,42.294132,-16.169226,2.7352438,-0.24654938
67,6.060685634613037,-5.386256217956543,74.77922058105469,0.7279489581959214,5.965051851003379,-40.83287057140877,-8.289045,7.178498,18.013893,33.151646,-29.720924,-4.3153186,-11.591281,-11.960339,-20.449581,41.39138,-28.87431,4.4632506,0.123164594,-4.358766,4.1607347,11.364309,29.521305,-29.226265,36.79098,19.691708,7.536216,-6.649709,6.8662686,-24.014887,44.31865,41.918934,-16.218937,2.8091202,-0.2945442
68,6.233121871948242,-5.56773042678833,74.56133270263672,0.9101985623644465,6.011973752869173,-40.74932939706588,-8.475636,7.1179376,17.992214,34.003883,-30.345785,-4.4253807,-12.74907,-12.675626,-20.145296,44.29737,-29.027138,4.5065036,0.09062653,-4.59949,4.4340487,10.675103,29.688812,-29.310034,36.28989,19.63067,7.6424117,-6.504024,6.765837,-24.173292,44.443356,41.60899,-16.236406,2.8696132,-0.38206124
69,6.4028449058532715,-5.747119903564453,74.34797668457031,1.0416796578496839,6.078606865106357,-40.6641044099225,-8.690266,7.11837,17.946377,34.866875,-30.978123,-4.557,-14.07086,-13.35302,-19.760876,47.447197,-28.877817,4.4333577,0.02230391,-4.777075,4.6964884,9.919115,29.860191,-29.433487,35.74549,19.653631,7.7779765,-6.3655376,6.639568,-24.335213,44.56979,41.3829,-16.218824,2.9051042,-0.52277434
70,6.570065975189209,-5.935537815093994,74.13750457763672,1.1320082912036804,6.156132736697908,-40.57896106846119,-8.921917,7.1693983,17.883953,35.74332,-31.620478,-4.708286,-15.523496,-13.992676,-19.309624,50.79955,-28.477343,4.281576,-0.078347474,-4.903785,4.958568,9.050982,30.035936,-29.616915,35.20323,19.701828,7.937084,-6.2244477,6.4820743,-24.498585,44.705235,41.223984,-16.164305,2.9199028,-0.7053347
71,6.744983196258545,-6.13093900680542,73.93701171875,1.1966109962589406,6.243011154573842,-40.493780927158134,-9.145645,7.251218,17.81346,36.58746,-32.24993,-4.8692155,-17.042694,-14.607976,-18.858099,54.192284,-27.901857,4.1137567,-0.20679176,-5.000715,5.2178354,8.12933,30.214897,-29.814648,34.634567,19.762913,8.096249,-6.082244,6.311015,-24.660536,44.82567,41.11748,-16.092098,2.9358516,-0.90859556
72,6.918676853179932,-6.338068008422852,73.73912811279297,1.2508206164341515,6.337388398681909,-40.40816987492472,-9.337139,7.344431,17.742893,37.354424,-32.84487,-5.029446,-18.566416,-15.219959,-18.468618,57.47173,-27.237835,3.9840808,-0.36673668,-5.0895076,5.475348,7.161721,30.398142,-30.003735,34.053738,19.791779,8.231758,-5.940356,6.1414485,-24.817602,44.911232,41.04442,-16.024563,2.9752276,-1.111902
73,7.1001877784729,-6.558072566986084,73.55050659179688,1.3036632568541706,6.438549449364929,-40.32085873799625,-9.493003,7.439002,17.674658,38.041176,-33.40485,-5.180293,-20.119951,-15.854736,-18.1161,60.719738,-26.37528,3.9399586,-0.56112766,-5.182674,5.730077,6.151482,30.587774,-30.18285,33.447666,19.783537,8.341864,-5.7966504,5.967107,-24.965858,44.968025,41.024708,-15.964422,3.0440106,-1.3106333
74,7.269044399261475,-6.779589653015137,73.37390899658203,1.3444745389747632,6.547663057319965,-40.23210062401614,-9.624767,7.5468764,17.603771,38.667522,-33.940586,-5.328925,-21.724941,-16.500439,-17.776388,63.989025,-25.319,3.9333682,-0.7885999,-5.266764,5.9816546,5.094273,30.784737,-30.36286,32.813152,19.757935,8.437597,-5.6516614,5.776849,-25.10373,45.00664,41.067364,-15.898019,3.1300488,-1.5162244
75,7.440580368041992,-7.011388778686523,73.20726776123047,1.3603300117717947,6.6650704870140665,-40.14446664958721,-9.729596,7.6808853,17.528591,39.222225,-34.441895,-5.489192,-23.321243,-17.131592,-17.50993,67.10027,-24.33014,3.8684144,-1.0439229,-5.325284,6.2311425,3.9935076,30.987968,-30.536346,32.17524,19.713533,8.514221,-5.5101852,5.592259,-25.232405,45.003407,41.129566,-15.833165,3.2285728,-1.7311553
76,7.610832691192627,-7.260613918304443,73.04999542236328,1.3386627846232013,6.791372931802986,-40.06062240556499,-9.804056,7.85449,17.447054,39.694073,-34.895744,-5.6748624,-24.84775,-17.728205,-17.382391,69.87345,-23.668924,3.6489668,-1.317033,-5.340431,6.4775486,2.891091,31.19517,-30.678823,31.527048,19.672138,8.567155,-5.377446,5.437812,-25.356014,44.93241,41.16788,-15.774244,3.3346913,-1.9574717
77,7.788691520690918,-7.524697303771973,72.91171264648438,1.279130112733862,6.921577226753261,-39.97455107262744,-9.852959,8.074015,17.351772,40.102604,-35.31234,-5.8919983,-26.292788,-18.307049,-17.408031,72.32169,-23.492695,3.1854198,-1.6105096,-5.3122663,6.7267256,1.758656,31.408432,-30.80328,30.879759,19.63252,8.584163,-5.261461,5.315186,-25.47769,44.788113,41.18143,-15.7207,3.450973,-2.210554
78,7.963846683502197,-7.794523239135742,72.79686737060547,1.1879015424089148,7.057094373017404,-39.88724706590115,-9.875485,8.331864,17.245474,40.446625,-35.69349,-6.131681,-27.68794,-18.882013,-17.552916,74.52985,-23.636076,2.5456424,-1.9262226,-5.249043,6.9781437,0.59030575,31.628529,-30.915855,30.228765,19.587536,8.571416,-5.1571608,5.2210994,-25.598963,44.578114,41.18244,-15.673795,3.5788162,-2.4838428
79,8.143953323364258,-8.078396797180176,72.70716857910156,1.0618983786596552,7.208320689256906,-39.812223969758115,-9.860446,8.622381,17.141981,40.684376,-36.018803,-6.386343,-29.04215,-19.430641,-17.810347,76.42959,-23.87535,1.8672594,-2.2578247,-5.144255,7.2241497,-0.5594252,31.849781,-30.988604,29.563927,19.538212,8.551376,-5.0496926,5.157465,-25.723494,44.311428,41.152065,-15.627373,3.711555,-2.7466938
80,8.337579727172852,-8.373050689697266,72.64592742919922,0.8977094411068232,7.3853618220773205,-39.76264544142644,-9.7967825,8.940055,17.053616,40.774357,-36.269245,-6.6473637,-30.361729,-19.934904,-18.179907,77.950615,-23.987814,1.2862918,-2.5995533,-4.9901304,7.4552913,-1.620777,32.06377,-30.985924,28.866291,19.495743,8.54644,-4.9238863,5.1231637,-25.858269,43.999374,41.07607,-15.574297,3.842878,-2.968311
81,8.54144287109375,-8.688522338867188,72.6136703491211,0.6866909193562022,7.591961683486206,-39.73538768069411,-9.699604,9.295827,16.968533,40.73159,-36.44762,-6.917682,-31.647373,-20.43325,-18.718092,79.08964,-23.924625,0.8142322,-2.9627676,-4.77567,7.6741447,-2.6174593,32.26486,-30.906317,28.155552,19.464037,8.553792,-4.767854,5.128545,-26.008194,43.62501,40.93057,-15.535331,3.9820735,-3.1432102
82,8.75280475616455,-9.004936218261719,72.61022186279297,0.4326692358743041,7.821855357011058,-39.72586804928398,-9.570108,9.690669,16.88451,40.572235,-36.56304,-7.200491,-32.891907,-20.926167,-19.412344,79.8828,-23.805439,0.3841626,-3.3458338,-4.5049195,7.8851004,-3.571419,32.45225,-30.765282,27.43669,19.442356,8.564439,-4.5915027,5.1685615,-26.1769,43.19333,40.729248,-15.499175,4.129319,-3.286387
83,8.970372200012207,-9.329461097717285,72.63436889648438,0.1515450162064934,8.070116256139071,-39.74455517731484,-9.3722105,10.100915,16.82666,40.246597,-36.594746,-7.4867067,-34.09149,-21.337328,-20.165049,80.31453,-23.651726,0.015772566,-3.7342699,-4.1924553,8.084436,-4.4418755,32.624603,-30.560064,26.698124,19.413715,8.590076,-4.4132013,5.2497888,-26.366385,42.729893,40.482136,-15.443427,4.265039,-3.3976352
84,9.207196235656738,-9.681498527526855,72.68905639648438,-0.14098708807938157,8.33154032554028,-39.8018991873127,-9.07165,10.503224,16.821508,39.709057,-36.52379,-7.76796,-35.24755,-21.587019,-20.87641,80.36569,-23.483568,-0.2674426,-4.112977,-3.853564,8.268243,-5.186509,32.781155,-30.286211,25.924097,19.36218,8.643783,-4.251991,5.348911,-26.579403,42.28227,40.221237,-15.319164,4.3690605,-3.4776604
85,9.45085334777832,-10.042749404907227,72.7723159790039,-0.4503411334807909,8.610974188347788,-39.90396161204898,-8.674656,10.901062,16.875689,38.95817,-36.359814,-8.042395,-36.387077,-21.63896,-21.526121,80.00791,-23.29812,-0.44202134,-4.4844084,-3.4827778,8.435877,-5.801654,32.91887,-29.920639,25.10621,19.290411,8.738149,-4.103337,5.465558,-26.818657,41.852386,39.93801,-15.110145,4.4371123,-3.517108
86,9.708930969238281,-10.418194770812988,72.8890151977539,-0.7825276736102398,8.908388381874449,-40.04445571548008,-8.195662,11.301793,16.977026,38.014854,-36.10768,-8.316269,-37.500237,-21.535955,-22.16972,79.25027,-23.086237,-0.5204784,-4.8571925,-3.0743024,8.589899,-6.303666,33.036945,-29.46779,24.252153,19.206724,8.863554,-3.960686,5.613436,-27.085135,41.4181,39.616478,-14.845752,4.4800463,-3.5186665
87,9.979777336120605,-10.801347732543945,73.03482055664062,-1.1223433578245383,9.21201655691499,-40.21568703847655,-7.6103587,11.685416,17.125078,36.86129,-35.73725,-8.594311,-38.540157,-21.31605,-22.81528,78.13941,-22.849749,-0.53127074,-5.2269626,-2.6432397,8.733788,-6.6968904,33.138943,-28.970324,23.383558,19.093433,8.997659,-3.83838,5.7871747,-27.375048,40.992176,39.27433,-14.542344,4.5002193,-3.500975
88,10.268060684204102,-11.210204124450684,73.20630645751953,-1.454527816192039,9.510540291321524,-40.4094049301402,-6.8951225,12.031512,17.319016,35.478497,-35.21792,-8.881516,-39.455616,-21.013733,-23.473255,76.71475,-22.595922,-0.5041209,-5.5917,-2.2058408,8.868395,-6.979271,33.231373,-28.467625,22.516558,18.933443,9.120077,-3.7519178,6.003567,-27.679129,40.571674,38.918762,-14.241042,4.4998784,-3.4829183
89,10.566433906555176,-11.639423370361328,73.40351104736328,-1.7767810655519234,9.807046285412493,-40.63286750591294,-6.012821,12.317101,17.581629,33.776196,-34.534622,-9.184077,-40.25153,-20.615032,-24.140833,74.94231,-22.314009,-0.40849096,-5.951961,-1.7626983,8.993271,-7.1517496,33.314865,-27.948801,21.655855,18.697191,9.231519,-3.7073267,6.260548,-27.991323,40.159313,38.556137,-13.93069,4.46711,-3.479389
90,10.879076957702637,-12.082084655761719,73.62210845947266,-2.097375472196021,10.105049559217322,-40.887051054049984,-4.984561,12.548625,17.90921,31.781343,-33.698853,-9.503862,-40.943542,-20.10048,-24.816145,72.80388,-22.00277,-0.23846841,-6.30409,-1.3078682,9.108432,-7.2040863,33.389233,-27.398497,20.779541,18.407274,9.341851,-3.6952627,6.5098286,-28.31131,39.780552,38.218727,-13.564488,4.403688,-3.4779634
91,11.195399284362793,-12.546366691589355,73.85132598876953,-2.4168552918328725,10.394003926923316,-41.15388449436436,-3.8771205,12.7515545,18.257597,29.658018,-32.724506,-9.835608,-41.497692,-19.495989,-25.513079,70.36886,-21.678818,-0.06066571,-6.6582522,-0.85031855,9.215006,-7.1583,33.461937,-26.853683,19.907806,18.099585,9.442446,-3.7087843,6.8220096,-28.629082,39.384815,37.853905,-13.244,4.335376,-3.4550457
92,11.515064239501953,-13.038017272949219,74.09313201904297,-2.7340394435404742,10.663611098246408,-41.41630605510616,-2.7579584,12.95726,18.582111,27.575645,-31.625755,-10.170162,-41.886406,-18.82466,-26.238567,67.70804,-21.355185,0.06280518,-7.0141597,-0.40329823,9.317637,-7.071498,33.54405,-26.3746,19.083227,17.797842,9.5256195,-3.7394345,7.20874,-28.933134,38.956223,37.45485,-13.019524,4.286246,-3.388348
93,11.835474967956543,-13.556766510009766,74.3360595703125,-3.0593931738455775,10.914664882277652,-41.68376577175371,-1.5835732,13.169064,18.887028,25.445383,-30.360653,-10.501222,-42.089813,-18.070038,-27.03208,64.75581,-21.047802,0.082397506,-7.3522515,0.042155024,9.420769,-6.9002366,33.642677,-25.955458,18.261456,17.489782,9.592063,-3.7836552,7.571033,-29.217382,38.544666,37.1039,-12.814134,4.258173,-3.258329
94,12.156731605529785,-14.090256690979004,74.57763671875,-3.3885432000797016,11.150746761349213,-41.96003907600381,-0.3422383,13.367777,19.188196,23.22357,-28.937342,-10.833443,-42.123596,-17.211967,-27.875801,61.485462,-20.739523,0.049930733,-7.682955,0.48261526,9.5290575,-6.694341,33.759716,-25.590733,17.483765,17.140692,9.64561,-3.8461075,7.869429,-29.478876,38.181717,36.825447,-12.5899725,4.238811,-3.0838678
95,12.48194408416748,-14.645923614501953,74.81364440917969,-3.695465275135199,11.365705347204916,-42.21903589222954,0.8537593,13.55998,19.453808,21.153582,-27.45115,-11.164963,-42.01015,-16.276627,-28.691444,58.023846,-20.395264,0.046537854,-8.024165,0.8886545,9.623485,-6.4066954,33.89888,-25.27119,16.714611,16.842161,9.6841955,-3.9311652,8.264791,-29.708876,37.783264,36.50888,-12.477973,4.230733,-2.8979845
96,12.79262924194336,-15.219169616699219,75.03453063964844,-3.9508101631151753,11.553441488696272,-42.434317213578105,1.8948963,13.757314,19.650282,19.483418,-26.00382,-11.488919,-41.77737,-15.302724,-29.394205,54.507248,-19.981401,0.14674827,-8.370165,1.2293925,9.699657,-6.0504436,34.064445,-25.025322,15.947442,16.669378,9.706284,-4.040246,8.709723,-29.905363,37.394096,36.192745,-12.432577,4.2329283,-2.735768
97,13.111050605773926,-15.820630073547363,75.2393569946289,-4.150153207169449,11.71111687443946,-42.58921848037173,2.756806,13.98229,19.76591,18.282408,-24.593706,-11.811295,-41.40539,-14.283189,-29.978638,50.869244,-19.478567,0.37284267,-8.741891,1.4945905,9.7718315,-5.7155185,34.265488,-24.888649,15.2528715,16.6346,9.707431,-4.176943,9.195781,-30.06393,37.022243,35.87737,-12.503445,4.2506943,-2.6048791
98,13.42965030670166,-16.445390701293945,75.42215728759766,-4.2986753211489095,11.839864440464774,-42.697867715664394,3.5007052,14.223532,19.812613,17.425373,-23.184013,-12.125729,-40.879284,-13.21047,-30.471989,47.04925,-18.898031,0.67892575,-9.13134,1.6903883,9.840462,-5.378423,34.50485,-24.844688,14.615614,16.693745,9.689686,-4.338711,9.713371,-30.181105,36.66353,35.572342,-12.670474,4.2812004,-2.4876513
99,13.75693416595459,-17.085704803466797,75.58393859863281,-4.383213355812045,11.940727876828285,-42.78078207398975,4.142861,14.447707,19.79127,16.878326,-21.823694,-12.408047,-40.236443,-12.133582,-30.841162,43.208958,-18.253439,1.0328268,-9.511132,1.8101599,9.881774,-4.9452343,34.773872,-24.849684,13.9670315,16.810385,9.659712,-4.5196757,10.264916,-30.25859,36.31901,35.282925,-12.838088,4.3128877,-2.3819892
100,14.097285270690918,-17.746919631958008,75.7202377319336,-4.392908247657209,12.015529726074472,-42.85969272847639,4.6987514,14.622637,19.70624,16.604946,-20.560036,-12.635824,-39.517574,-11.101763,-31.05748,39.5194,-17.56632,1.403289,-9.862678,1.8501915,9.878259,-4.436461,35.057842,-24.895653,13.340042,16.906246,9.623684,-4.713692,10.842956,-30.304626,35.99751,35.01269,-12.909621,4.334918,-2.2866714
101,14.449710845947266,-18.430524826049805,75.83487701416016,-4.319453814658795,12.067369141349591,-42.92705365288687,5.165707,14.739874,19.545464,16.600636,-19.392723,-12.819277,-38.73093,-10.118883,-31.0842,35.96571,-16.79403,1.8075044,-10.200055,1.8056276,9.833536,-4.0279756,35.351437,-25.058413,12.881467,16.919878,9.575458,-4.921076,11.453187,-30.327227,35.702164,34.753693,-12.853055,4.349323,-2.2191346
102,14.812885284423828,-19.12871742248535,75.9229965209961,-4.16767717164998,12.092883281798557,-42.97215928162949,5.5524273,14.808435,19.314465,16.854889,-18.289795,-12.971785,-37.84693,-9.176562,-30.94608,32.477062,-15.941948,2.2500196,-10.506897,1.6875002,9.737671,-3.4409082,35.64907,-25.254675,12.349477,17.001368,9.5149145,-5.1441436,12.127874,-30.325882,35.405083,34.499832,-12.722898,4.3610525,-2.171827
103,15.200217247009277,-19.85509490966797,75.97933197021484,-3.950606379306174,12.087766198342171,-43.015276104738035,5.873903,14.83176,19.044909,17.351858,-17.25579,-13.074057,-36.869938,-8.307007,-30.710152,29.178816,-15.119495,2.6846526,-10.793732,1.501887,9.609749,-2.8924894,35.944195,-25.509958,11.949519,17.0309,9.453542,-5.379788,12.809294,-30.307938,35.13993,34.253994,-12.545798,4.3643174,-2.1126716
104,15.592182159423828,-20.591373443603516,76.00682830810547,-3.6871021739880363,12.050185862925446,-43.08064636834989,6.1367335,14.822652,18.769962,18.088736,-16.299587,-13.102773,-35.8142,-7.5339947,-30.448425,26.206831,-14.438974,3.0684066,-11.050832,1.2662739,9.438988,-2.2930849,36.21932,-25.75091,11.638437,17.013042,9.40455,-5.624854,13.614689,-30.273104,34.831184,33.91215,-12.457313,4.3553004,-2.004821
105,15.992753028869629,-21.343027114868164,76.00425720214844,-3.3369022157261314,11.982735909106767,-43.16345492995262,6.366229,14.727337,18.482016,19.013332,-15.422331,-13.0451975,-34.60806,-6.8671756,-30.153128,23.46789,-13.9914875,3.5683763,-11.245621,0.9461643,9.216332,-1.7782339,36.46787,-26.070324,11.519519,16.875341,9.368616,-5.8734202,14.146627,-30.248878,34.735565,33.789803,-12.0889015,4.32965,-1.8518467
106,16.40127944946289,-22.11095428466797,75.96987915039062,-2.9113413438407187,11.889769197652404,-43.259908735481844,6.5480433,14.564724,18.177456,20.140244,-14.614632,-12.915384,-33.2851,-6.2972374,-29.803755,20.956936,-13.703889,4.155812,-11.412425,0.5600251,8.907935,-0.9780475,36.681488,-26.31607,11.311919,16.780817,9.339422,-6.1338325,14.887228,-30.218168,34.572983,33.535007,-11.786325,4.297348,-1.6615796
107,16.82244873046875,-22.887840270996094,75.90181732177734,-2.527557068540408,11.781458603728355,-43.40556131908289,6.620959,14.484621,17.90162,21.568064,-13.871671,-12.731527,-32.043594,-5.7948747,-29.454622,18.973656,-13.465322,4.482626,-11.519884,0.21800955,8.603411,-0.31237966,36.85817,-26.598732,11.30674,16.635134,9.320198,-6.4069886,15.551669,-30.193079,34.44832,33.30497,-11.50323,4.2523456,-1.4328856
108,17.264799118041992,-23.665267944335938,75.80474853515625,-2.323919617230161,11.6726615470887,-43.639763064608516,6.5191646,14.660662,17.698914,23.396862,-13.188634,-12.515688,-31.095226,-5.307548,-29.16239,17.840065,-13.185676,4.186711,-11.548992,0.07013683,8.3450575,0.28735024,36.94541,-26.826279,11.439078,16.555641,9.3114805,-6.7007957,16.13034,-30.176813,34.321674,33.07949,-11.387342,4.1934237,-1.1620393
109,17.689409255981445,-24.41657257080078,75.73725128173828,-2.4013998967456636,11.590782774559633,-43.981031985286116,6.208771,15.216332,17.592121,25.659092,-12.58095,-12.258796,-30.54931,-4.785278,-29.005339,17.80074,-12.773762,2.8514998,-11.392753,0.20913155,8.135726,0.80952334,37.003956,-27.092587,11.643647,16.536055,9.315232,-7.0236163,16.488794,-30.169487,34.22761,32.973373,-11.318283,4.100509,-0.80046064
110,18.114200592041016,-25.158029556274414,75.65632629394531,-2.6886964835951566,11.520152992323823,-44.404454113219494,5.7495565,16.06038,17.543472,28.255896,-12.022006,-11.954653,-30.28825,-4.248118,-28.978765,18.649097,-12.300442,0.76958936,-11.187886,0.5704613,7.928757,1.3769653,36.991997,-27.27734,11.926775,16.579948,9.323561,-7.384114,17.043598,-30.157286,34.00333,32.6725,-11.575757,3.9879875,-0.36717173
111,18.54466438293457,-25.90235137939453,75.54973602294922,-3.053477034568558,11.409358821625487,-44.88287762117259,5.2192125,17.02995,17.506899,31.0903,-11.447152,-11.628061,-30.173388,-3.7492063,-28.986113,20.01119,-11.916128,-1.3591142,-10.841154,1.0244575,7.801985,1.7875799,36.897663,-27.516495,12.354168,16.661444,9.353701,-7.721438,17.142569,-30.172092,33.95537,32.675274,-11.641426,3.8671927,0.05249091
112,18.972488403320312,-26.650100708007812,75.4086685180664,-3.366524075201483,11.215196236126252,-45.397909178276976,4.668757,17.9711,17.446714,34.114983,-10.81075,-11.303823,-30.067892,-3.3236384,-28.876467,21.506727,-11.789695,-2.8405085,-10.484226,1.4300057,7.768727,2.2867837,36.72474,-27.590519,12.772746,16.838287,9.414241,-8.003373,17.271126,-30.198898,33.837666,32.56864,-11.906637,3.7712922,0.37771937
113,19.388267517089844,-27.38385772705078,75.24069213867188,-3.58914081241348,10.912312435861194,-45.94933335281962,4.104658,18.85588,17.346146,37.39433,-10.050671,-11.031229,-29.99458,-3.009699,-28.549206,23.212261,-12.035977,-3.367021,-10.109182,1.7527696,7.85616,2.7920742,36.475986,-27.51721,13.236248,17.10446,9.506645,-8.253209,17.542948,-30.229893,33.549522,32.24831,-12.473864,3.6960158,0.62310326
114,19.794265747070312,-28.1036434173584,75.07389831542969,-3.775908002316436,10.527064354267916,-46.5449392554284,3.50176,19.748604,17.225119,40.935932,-9.213331,-10.774693,-30.001436,-2.7874525,-28.07607,25.265707,-12.546608,-3.3498096,-9.615837,2.061592,8.072397,3.1977491,36.1554,-27.418583,13.766416,17.443863,9.627033,-8.476206,17.140884,-30.305483,33.544426,32.370388,-12.730518,3.6219647,0.80898553
115,20.197978973388672,-28.80672836303711,74.90550231933594,-3.9584774453449185,10.103838372344706,-47.18796491599455,2.842367,20.668434,17.111782,44.64358,-8.438437,-10.428588,-30.006994,-2.5782523,-27.54468,27.396614,-13.173538,-3.1783426,-9.12716,2.368882,8.333575,3.6793199,35.763733,-27.187103,14.317264,17.817377,9.773176,-8.61646,16.92462,-30.397003,33.427788,32.265118,-13.258099,3.577566,0.8996301
116,20.609054565429688,-29.5106143951416,74.73023223876953,-4.1699833762910465,9.684851563331389,-47.88072798246891,2.112328,21.645779,17.032839,48.42413,-7.867074,-9.876667,-29.922388,-2.289108,-27.046057,29.311201,-13.7540865,-3.2372055,-8.595343,2.6982064,8.618179,4.181519,35.316837,-26.914692,14.90066,18.153492,9.9501295,-8.6021385,16.457388,-30.521978,33.475212,32.292526,-13.6820135,3.5748298,0.8433531
117,21.02249526977539,-30.199146270751953,74.56388854980469,-4.460873034417129,9.256761319530355,-48.66558307375577,1.3290048,22.824581,17.081772,52.40082,-7.5114865,-8.966093,-29.714603,-1.8349266,-26.607065,30.930094,-14.199754,-3.6464183,-8.015273,3.0877564,8.96,4.7461267,34.812893,-26.531498,15.505927,18.351215,10.147101,-8.374887,15.773662,-30.688168,33.693077,32.407265,-14.054312,3.6275294,0.59239113
118,21.440614700317383,-30.878751754760742,74.38786315917969,-4.804396392540589,8.802501477347395,-49.52891201358162,0.4989677,24.193869,17.203327,56.592323,-7.33217,-7.7565894,-29.435068,-1.262597,-26.184866,32.39987,-14.600275,-4.1900644,-7.389787,3.5267954,9.364714,5.403535,34.25063,-26.020527,16.096043,18.487772,10.366857,-7.9851227,14.895672,-30.894665,34.04546,32.580532,-14.399954,3.726516,0.18543054
119,21.861818313598633,-31.555526733398438,74.1971435546875,-5.120187453562811,8.361477794193233,-50.388548076368096,-0.4246783,25.523375,17.197529,60.764576,-7.389899,-6.4814844,-29.120956,-0.6777798,-25.763533,33.761257,-15.057259,-4.750002,-6.771663,3.9489079,9.74915,6.1263623,33.653404,-25.47564,16.668499,18.73601,10.633363,-7.532305,13.894739,-31.123917,34.483772,32.773514,-14.705276,3.8566499,-0.2954997
120,22.272480010986328,-32.239105224609375,74.00436401367188,-5.32135371573132,7.977917372179153,-51.16379057092175,-1.5054332,26.522898,16.874231,64.68591,-7.7251935,-5.423031,-28.81503,-0.20410942,-25.317305,35.07474,-15.688765,-5.211981,-6.22367,4.265849,10.041221,6.7086296,33.06682,-25.056095,17.36697,19.17712,10.972657,-7.114888,12.856839,-31.348925,34.946175,32.935448,-14.986141,4.0011573,-0.7699623
121,22.667861938476562,-32.942222595214844,73.83373260498047,-5.364345188534458,7.657730175069473,-51.8158260160457,-2.7769291,27.036228,16.155067,68.38797,-8.4588995,-4.6861515,-28.527145,0.08453733,-24.837837,36.408012,-16.606968,-5.5682297,-5.741527,4.4085975,10.21949,7.303675,32.515396,-24.728289,18.073923,19.894272,11.437018,-6.71143,11.791426,-31.540882,35.43953,33.097015,-15.242989,4.16074,-1.2464889
122,23.055511474609375,-33.65773391723633,73.6816635131836,-5.299103479984152,7.384653859057451,-52.3948131359711,-4.2141247,27.181051,15.16367,71.99429,-9.533884,-4.158709,-28.24241,0.25718805,-24.333065,37.729374,-17.733755,-5.8771973,-5.269797,4.416179,10.314339,8.169544,31.995483,-24.367062,18.564882,20.914152,12.004344,-6.290778,10.672951,-31.683937,35.964046,33.28699,-15.477568,4.3403974,-1.7581967
123,23.437774658203125,-34.371131896972656,73.54795837402344,-5.178852018345851,7.171932567129469,-52.95406268394423,-5.798768,27.057436,14.030349,75.40848,-10.702397,-3.8163905,-27.963045,0.39451098,-23.799845,38.949192,-18.906025,-6.124571,-4.85239,4.3561044,10.374695,8.538623,31.551134,-24.239067,19.43845,21.878128,12.586758,-5.9298115,9.446804,-31.78539,36.51022,33.47632,-15.695792,4.5299363,-2.266087
124,23.823577880859375,-35.08332824707031,73.42678833007812,-5.057807214428664,7.031018233200699,-53.54693035672299,-7.512306,26.781694,12.883695,78.51884,-11.7105,-3.623115,-27.692001,0.5731417,-23.236345,39.982956,-19.964403,-6.294627,-4.360749,4.31116,10.349041,9.128992,31.166842,-24.154871,20.006865,23.158558,13.104108,-5.7082076,8.282831,-31.84274,36.894062,33.573387,-15.922672,4.715224,-2.715521
125,24.210830688476562,-35.790924072265625,73.30756378173828,-4.939894667358921,6.9858921146707145,-54.19414919929103,-9.402627,26.307348,11.707668,81.33614,-12.488895,-3.6131542,-27.46263,0.797801,-22.631647,40.8399,-20.908823,-6.37545,-3.8003814,4.290497,10.220458,9.715007,30.855925,-24.216208,20.468374,24.807182,13.554087,-5.6439304,7.1169376,-31.865778,37.154633,33.630875,-16.176025,4.8863354,-3.0945766
126,24.602134704589844,-36.472957611083984,73.21441650390625,-4.802941307346198,7.024091055699237,-54.86533659444248,-11.450206,25.582666,10.48536,83.91114,-13.169568,-3.803468,-27.26446,1.0223666,-21.990267,41.565178,-21.818111,-6.378795,-3.1854424,4.2511353,9.996366,10.353207,30.617943,-24.386036,20.80102,26.789255,13.970877,-5.7007337,5.9585223,-31.856476,37.31554,33.647305,-16.451616,5.0511847,-3.4264238
127,25.00227928161621,-37.16023635864258,73.15404510498047,-4.663559997837273,7.102007192819029,-55.53774219504793,-13.545994,24.74323,9.320659,86.17654,-13.794653,-4.117715,-27.033026,1.2525537,-21.335526,42.122387,-22.646309,-6.3241053,-2.550822,4.1988163,9.743982,10.999722,30.449743,-24.61644,21.017603,28.766811,14.314233,-5.868051,4.8338175,-31.818031,37.365723,33.548508,-16.680765,5.2253275,-3.7228596
128,25.40593147277832,-37.831520080566406,73.13726806640625,-4.538770384174913,7.175379087034463,-56.18853875313426,-15.592826,23.94121,8.296089,88.061066,-14.400896,-4.4680257,-26.7018,1.4987247,-20.691906,42.47001,-23.34537,-6.2320642,-1.9336578,4.142066,9.527863,11.644108,30.351784,-24.845388,21.100561,30.410374,14.545418,-6.1301565,3.8260362,-31.759916,37.25868,33.21248,-16.830791,5.4242487,-3.9948802
129,25.803800582885742,-38.49256134033203,73.14326477050781,-4.454163056545779,7.248643141960455,-56.82599640876284,-17.619286,23.208479,7.3752713,89.553986,-14.995294,-4.8997364,-26.266148,1.7920942,-20.06629,42.580795,-23.895283,-6.0978427,-1.3152121,4.1207385,9.350177,12.262456,30.313232,-25.10365,21.042892,31.70521,14.631368,-6.536051,2.8102696,-31.683846,37.027794,32.70568,-16.838917,5.6685767,-4.247511
130,26.20769691467285,-39.15142822265625,73.17658996582031,-4.396697279477327,7.338161571640273,-57.458667792348606,-19.663969,22.487974,6.523325,90.68703,-15.554532,-5.424747,-25.754135,2.1188717,-19.44618,42.481102,-24.324743,-5.9171276,-0.69423646,4.119144,9.175687,12.907971,30.339897,-25.38622,20.825853,32.812366,14.5945425,-7.07066,1.8880994,-31.590244,36.628506,31.978765,-16.809315,5.9450774,-4.473039
131,26.61590576171875,-39.79676818847656,73.24790954589844,-4.3253191761881595,7.418816144550215,-58.06525847811858,-21.653055,21.809916,5.8090534,91.44321,-16.05962,-5.8974457,-25.148748,2.4249196,-18.827261,42.20698,-24.657438,-5.712025,-0.08713048,4.085368,9.02852,13.57831,30.419594,-25.6464,20.489998,33.66501,14.490512,-7.61052,1.0474786,-31.486385,36.132717,31.088848,-16.652409,6.215453,-4.6694865
132,27.017112731933594,-40.443931579589844,73.35993194580078,-4.198156209259377,7.4666816684033614,-58.623645388915456,-23.514456,21.204037,5.29868,91.80381,-16.487036,-6.174653,-24.433205,2.6546476,-18.205395,41.793446,-24.915703,-5.5031447,0.46527442,3.9697275,8.943125,14.06509,30.540594,-25.907383,20.257666,34.0894,14.379662,-8.031043,0.26379922,-31.375692,35.62758,30.09308,-16.28511,6.4418797,-4.8378463
133,27.427213668823242,-41.08972930908203,73.50743103027344,-4.003644050546746,7.47096796592545,-59.11858612193737,-25.25794,20.648336,4.980242,91.74652,-16.822336,-6.2384105,-23.583847,2.789372,-17.580492,41.227192,-25.100906,-5.290213,0.9690451,3.7667446,8.924644,14.612663,30.677137,-26.07366,19.919579,34.113712,14.263024,-8.3044195,-0.4396367,-31.256378,35.06873,28.970772,-15.596277,6.610873,-4.9773674
134,27.840105056762695,-41.72338104248047,73.69017028808594,-3.7638609292672767,7.446692331825749,-59.56512004139429,-26.911903,20.143448,4.822246,91.278244,-17.074785,-6.1586747,-22.614954,2.8560174,-16.953281,40.496185,-25.20304,-5.0649877,1.4271007,3.5094876,8.955807,15.209321,30.822794,-26.167515,19.479364,33.801792,14.118436,-8.495968,-1.0560281,-31.127934,34.437084,27.697844,-14.668276,6.745634,-5.0906587
135,28.2540225982666,-42.35186004638672,73.9079818725586,-3.4844219716496463,7.410152360015992,-59.98475221731394,-28.428268,19.744846,4.8655424,90.41954,-17.256521,-5.9291644,-21.568642,2.8634856,-16.320894,39.641327,-25.229473,-4.83276,1.844697,3.199047,9.018051,15.638962,30.98132,-26.268707,19.150501,33.244316,13.973744,-8.6254015,-1.6301802,-30.998348,33.833267,26.35872,-13.678237,6.858434,-5.1801753
136,28.663665771484375,-42.98417282104492,74.14246368408203,-3.169760971573891,7.3778525814369385,-60.398347824638456,-29.757465,19.502657,5.1542454,89.19003,-17.382648,-5.547118,-20.486076,2.8202217,-15.679921,38.699707,-25.185259,-4.596229,2.2567303,2.8364642,9.071907,16.072275,31.139883,-26.318445,18.819492,32.7361,13.855227,-8.718018,-2.150815,-30.876892,33.320312,25.015062,-12.815501,6.964126,-5.2444882
137,29.07427215576172,-43.61103057861328,74.3946533203125,-2.8040650106153455,7.347300701813435,-60.805585399154324,-30.887064,19.41369,5.7335005,87.57195,-17.486616,-4.990695,-19.35345,2.7142026,-15.020694,37.637665,-25.07758,-4.3527284,2.6535206,2.4037285,9.124733,16.488413,31.293507,-26.319565,18.5232,32.247208,13.762137,-8.765533,-2.625807,-30.770205,32.920143,23.643639,-12.034522,7.0763903,-5.2706184
138,29.493078231811523,-44.25263977050781,74.66903686523438,-2.387042361109148,7.313979134760915,-61.196233184160704,-31.82421,19.428106,6.5911746,85.55631,-17.567894,-4.2931366,-18.164001,2.5372891,-14.348519,36.45338,-24.90208,-4.096166,3.0225244,1.9065057,9.19079,16.853426,31.43966,-26.281889,18.27294,31.678501,13.68168,-8.759805,-3.045128,-30.679981,32.59391,22.212486,-11.266229,7.186258,-5.2629385
139,29.906618118286133,-44.89933395385742,74.949951171875,-1.9464027952648395,7.291500862646688,-61.57594390574166,-32.55005,19.523123,7.686373,83.178795,-17.590708,-3.5357406,-16.973143,2.3052962,-13.6818,35.23746,-24.649986,-3.8236442,3.3736715,1.3803341,9.2489195,17.1928,31.57107,-26.19446,18.028393,31.150757,13.620224,-8.723142,-3.3962746,-30.609829,32.336216,20.784115,-10.661469,7.2707076,-5.247287
140,30.336132049560547,-45.54435729980469,75.24396514892578,-1.5119708092202566,7.292997590519222,-61.950839048197274,-33.05114,19.680317,8.974609,80.472084,-17.513428,-2.7942853,-15.832745,2.0380793,-13.038258,34.07709,-24.310886,-3.534691,3.712188,0.8627374,9.277944,17.528624,31.67711,-26.044146,17.7542,30.78331,13.584447,-8.677734,-3.6662323,-30.562674,32.144485,19.419794,-10.373689,7.3061037,-5.249088
141,30.774206161499023,-46.19374465942383,75.54206848144531,-1.0747221423835713,7.327609677033874,-62.31580395305922,-33.291897,20.009903,10.615907,77.39844,-17.314898,-1.9875911,-14.724132,1.7300037,-12.420979,32.91956,-23.87,-3.232576,4.043647,0.35229412,9.2625675,17.815845,31.725536,-25.853706,17.499886,30.66402,13.591188,-8.612677,-3.8513026,-30.54824,32.03271,18.121,-10.533922,7.260769,-5.277708
142,31.216642379760742,-46.85378646850586,75.84466552734375,-0.6212320177592107,7.387801579364503,-62.66753923876531,-33.26377,20.417774,12.620125,73.951096,-17.037199,-1.1526705,-13.638582,1.3711653,-11.821556,31.75125,-23.339931,-2.9138393,4.3480096,-0.18433739,9.230284,18.123302,31.767817,-25.56957,17.190683,30.716352,13.626595,-8.532585,-3.9652162,-30.559792,32.00163,16.84608,-11.0310755,7.1539383,-5.3161983
143,31.665510177612305,-47.511810302734375,76.13838958740234,-0.1784347253452389,7.460274549755196,-63.01472740373889,-33.026646,20.623264,14.671436,70.19886,-16.705229,-0.5146424,-12.633459,0.98259693,-11.2401705,30.710188,-22.749542,-2.572333,4.6463475,-0.6998232,9.173367,18.361992,31.76785,-25.278805,16.922623,30.784145,13.672667,-8.438144,-3.9912891,-30.587618,32.00403,15.641822,-11.654645,7.042356,-5.3564234
144,32.11635971069336,-48.17037582397461,76.42634582519531,0.22106897349858362,7.530439384983024,-63.3686689456082,-32.6778,20.413366,16.398989,66.20293,-16.318117,-0.25174528,-11.760313,0.5933569,-10.675586,29.93067,-22.126986,-2.2059655,4.888422,-1.1598581,9.120443,18.623976,31.73412,-24.893593,16.611385,30.744797,13.690718,-8.363266,-3.964599,-30.64885,32.057674,14.518401,-12.17382,6.98333,-5.389599
145,32.57986068725586,-48.842529296875,76.7018051147461,0.575471801820616,7.596970844335339,-63.73168332930885,-32.22171,19.800266,17.732166,61.83471,-15.870732,-0.33681887,-11.009321,0.21105969,-10.125965,29.399208,-21.451395,-1.8213172,5.121617,-1.5645812,9.062187,18.846706,31.66218,-24.4649,16.30732,30.56737,13.6823,-8.29971,-3.8562794,-30.723394,32.12212,13.4884205,-12.633686,7.0057564,-5.4033217
146,33.041019439697266,-49.51426315307617,76.95671081542969,0.8943368450645338,7.6642022884413175,-64.1010384930011,-31.633877,18.934523,18.8047,57.08256,-15.341359,-0.6502311,-10.350716,-0.16720799,-9.588218,29.051699,-20.714834,-1.4200479,5.336752,-1.9278035,8.995988,19.039291,31.552502,-23.979597,16.004944,30.32289,13.659467,-8.241637,-3.6774364,-30.811085,32.220592,12.543419,-13.119497,7.074394,-5.405309
147,33.52546310424805,-50.185447692871094,77.19093322753906,1.1588700568347519,7.723904962918459,-64.4830820708807,-30.97744,17.875004,19.52249,52.18318,-14.703481,-1.1872299,-9.79542,-0.5209798,-9.057791,28.930794,-19.957586,-0.99318606,5.5206347,-2.2224257,8.917875,19.202682,31.41222,-23.479097,15.710975,29.998814,13.628082,-8.186037,-3.4448533,-30.910152,32.350582,11.709573,-13.492045,7.14635,-5.409604
148,34.015254974365234,-50.869083404541016,77.39005279541016,1.3488064772083228,7.767715718820419,-64.88419151128467,-30.3095,16.685839,19.796612,47.37971,-13.932192,-1.9426024,-9.353532,-0.8279699,-8.531334,29.078669,-19.21981,-0.5302986,5.665336,-2.4211407,8.824378,19.332212,31.253069,-23.01137,15.433108,29.579062,13.594636,-8.129293,-3.1775734,-31.018923,32.505634,11.016234,-13.607897,7.1786294,-5.4306116
149,34.507511138916016,-51.551204681396484,77.55439758300781,1.4440137466466065,7.799644134913458,-65.31469499215387,-29.623962,15.292865,19.411795,42.49842,-12.915224,-3.0483856,-8.989717,-1.0538323,-8.008993,29.42597,-18.499737,0.011345806,5.7851663,-2.5030046,8.7037,19.44806,31.07798,-22.570862,15.157176,29.059536,13.560934,-8.074309,-2.8486938,-31.137133,32.67843,10.460065,-13.36712,7.155034,-5.4929204
150,35.01217269897461,-52.24367904663086,77.68594360351562,1.4468583842293241,7.815012723793085,-65.7758803946417,-28.836517,13.796632,18.44241,37.448097,-11.72088,-4.390678,-8.691472,-1.1932104,-7.489917,29.954271,-17.773064,0.6183598,5.8888974,-2.4761705,8.566551,19.53686,30.887783,-22.14223,14.886374,28.442476,13.524151,-8.0221195,-2.4638295,-31.265793,32.872074,10.03276,-12.862744,7.0991535,-5.5814295
151,35.526214599609375,-52.93516540527344,77.78533935546875,1.3775703537027946,7.794675965793544,-66.25735131124765,-27.928492,12.466092,17.267645,32.63676,-10.582808,-5.6454506,-8.5041,-1.2719556,-6.9753795,30.775698,-17.041094,1.2207553,5.9590473,-2.3618865,8.438266,19.583065,30.694605,-21.747301,14.6206455,27.736235,13.483268,-7.9669685,-2.0557182,-31.40378,33.082245,9.732593,-12.26278,7.0283546,-5.650493
152,36.02873992919922,-53.6242790222168,77.84558868408203,1.2691309986688832,7.7256912038947885,-66.74130674673148,-26.952673,11.482933,16.301756,28.523645,-9.710614,-6.5480914,-8.483728,-1.3317503,-6.468595,32.0105,-16.305399,1.751418,5.9721103,-2.196908,8.342067,19.540863,30.519424,-21.418522,14.384328,26.933012,13.43731,-7.90294,-1.6648637,-31.548792,33.306114,9.562638,-11.7309885,6.960757,-5.6547246
153,36.52973175048828,-54.31481170654297,77.87646484375,1.1294008612834383,7.616568545749891,-67.2221410035833,-25.959742,10.834598,15.653712,25.22494,-9.231259,-7.1240344,-8.663231,-1.3773922,-5.9813633,33.71678,-15.598764,2.1780224,5.92703,-1.9890565,8.275353,19.425882,30.37084,-21.155983,14.162965,25.975279,13.391218,-7.813671,-1.2835444,-31.695726,33.53834,9.531046,-11.2719145,6.894543,-5.5826144
154,37.03702926635742,-54.998661041259766,77.87130737304688,0.9542828959737697,7.475818874257992,-67.701619722757,-24.971989,10.380514,15.13391,22.55949,-9.013669,-7.5342927,-9.010197,-1.3909792,-5.5173993,35.81457,-14.905077,2.5590925,5.829287,-1.7364463,8.225418,19.236343,30.25205,-20.951906,13.9613905,24.871305,13.3429365,-7.707813,-0.90064865,-31.842125,33.781136,9.637936,-10.810038,6.822694,-5.457866
155,37.54350662231445,-55.6786003112793,77.82321166992188,0.7817882747249637,7.2993857742491075,-68.1638882567789,-24.056252,10.0532875,14.720554,20.597752,-8.887592,-7.735216,-9.50142,-1.4097723,-5.064042,38.23971,-14.160646,2.9652877,5.6687074,-1.4813654,8.191293,19.009815,30.176504,-20.7987,13.73338,23.757555,13.282547,-7.6193523,-0.5184382,-31.98607,34.024925,9.852084,-10.39683,6.7559395,-5.2893867
156,38.03921127319336,-56.36936569213867,77.74101257324219,0.6530737405746823,7.08406179097631,-68.59319976573522,-23.2762,9.794223,14.384789,19.41802,-8.695401,-7.6638875,-10.11668,-1.4772502,-4.600885,40.938927,-13.308198,3.4633849,5.427591,-1.2731923,8.177432,18.678436,30.170149,-20.718203,13.523132,22.720165,13.201195,-7.581016,-0.15349825,-32.127064,34.26847,10.14572,-10.079877,6.7043324,-5.086723
157,38.53763961791992,-57.06602478027344,77.61302947998047,0.5759854998520657,6.841354628610557,-68.97484635816306,-22.674177,9.5791025,14.11694,19.137774,-8.170752,-7.193394,-10.9174595,-1.5937198,-4.0969677,44.012287,-12.272638,3.9921224,5.0876427,-1.1205436,8.168022,18.245735,30.250319,-20.727997,13.33207,21.74653,13.09106,-7.618199,0.20568132,-32.26165,34.510494,10.515758,-9.895407,6.6776867,-4.8264737
158,39.03130340576172,-57.75948715209961,77.44782257080078,0.5421993199909413,6.570137526258489,-69.31936639899695,-22.226082,9.422312,13.950482,19.709938,-7.4812107,-6.398939,-11.887616,-1.7379376,-3.5571246,47.442684,-11.102856,4.557668,4.677371,-1.0171077,8.162106,17.864603,30.413816,-20.784388,13.022317,20.845818,12.961745,-7.7110176,0.5783454,-32.38632,34.736843,10.971342,-9.810748,6.667095,-4.5117006
159,39.508785247802734,-58.448387145996094,77.28363037109375,0.5567932986714637,6.24644508010444,-69.6519862127913,-21.877188,9.337078,13.906348,20.941288,-7.105413,-5.511203,-12.892753,-1.9175975,-3.009248,51.01953,-9.937757,5.3096323,4.2220726,-0.976766,8.202908,17.329111,30.673176,-20.915676,12.750013,19.975311,12.828211,-7.8191743,0.93584996,-32.500816,34.9532,11.495063,-9.768929,6.6550794,-4.1942763
160,39.986167907714844,-59.154396057128906,77.05915832519531,0.6267402738714472,5.849853963630014,-69.99558045519399,-21.577852,9.331101,13.980372,22.644735,-7.5321383,-4.752601,-13.815265,-2.1556473,-2.4843683,54.570396,-8.935452,6.3801556,3.7689507,-1.0159994,8.322352,16.635141,31.036541,-21.102793,12.485331,19.181795,12.705892,-7.9038024,1.288848,-32.605694,35.13454,12.053729,-9.721432,6.6241145,-3.9240932
161,40.42784118652344,-59.84064865112305,76.8049087524414,0.7500531162705681,5.315596272798888,-70.38227060296266,-21.356533,9.463305,14.199158,25.11716,-9.16651,-4.1068053,-14.583893,-2.457171,-1.9366072,58.15332,-8.044384,8.0869665,3.3358307,-1.1334902,8.579583,15.829079,31.50819,-21.331429,12.155999,18.505028,12.567828,-7.9949784,1.600196,-32.706997,35.295616,12.6569,-9.653221,6.553445,-3.6799853
162,40.85990905761719,-60.519676208496094,76.50030517578125,0.9093870366955864,4.672103788044555,-70.79739677435104,-21.197096,9.71452,14.531874,28.295446,-11.635185,-3.482564,-15.282059,-2.7934494,-1.3642503,61.875248,-7.24278,10.243778,2.9112985,-1.3087423,8.938718,15.002861,32.084026,-21.589293,11.696172,17.952599,12.416694,-8.101742,1.8879837,-32.80617,35.434,13.310686,-9.586888,6.4578366,-3.4461946
163,41.303340911865234,-61.217403411865234,76.15185546875,1.1133630463611552,4.0488456372924775,-71.18348770905826,-21.014435,9.946579,14.894369,31.49368,-14.289801,-2.9790163,-16.031233,-3.2047973,-0.87316847,65.61867,-6.7184296,12.208035,2.4757404,-1.5579209,9.286364,14.052884,32.762646,-21.908134,11.236443,17.454756,12.308228,-8.150313,2.2398403,-32.89314,35.509106,13.973577,-9.535632,6.3727145,-3.2821763
164,41.738616943359375,-61.911468505859375,75.77413177490234,1.381131358287739,3.5768563340996917,-71.47942469648154,-20.751028,10.0157995,15.224539,34.072033,-16.500761,-2.6921425,-16.951458,-3.7738693,-0.56758463,69.23305,-6.6262813,13.326452,2.0197434,-1.9085535,9.500599,12.979932,33.537563,-22.298136,10.81129,16.990017,12.298469,-8.0660715,2.7545495,-32.949738,35.466846,14.6088705,-9.515021,6.332551,-3.2454658
165,42.13219451904297,-62.618934631347656,75.41532135009766,1.7842894411037855,3.289020207512979,-71.63007345898369,-20.405006,9.816002,15.533682,35.891754,-18.129745,-2.7064064,-18.094122,-4.6304884,-0.43561816,72.78678,-7.1038384,13.296009,1.5107539,-2.4512167,9.536594,11.6979475,34.430355,-22.828785,10.460333,16.503511,12.437851,-7.779281,3.4292922,-32.95492,35.289253,15.2399235,-9.496368,6.374542,-3.3645144
166,42.48476791381836,-63.353694915771484,75.09579467773438,2.3032358159483994,3.1190924187094202,-71.6762263995564,-20.031506,9.437379,15.862695,37.32603,-19.525703,-2.9463274,-19.3941,-5.7512507,-0.40477002,76.3089,-8.021679,12.483473,0.96316785,-3.1662607,9.446532,10.225418,35.441437,-23.497807,10.142363,16.01549,12.682903,-7.3412156,4.27279,-32.89764,34.977566,15.85381,-9.517152,6.4696608,-3.6025746
167,42.83797073364258,-64.10371398925781,74.82757568359375,2.8182149439104913,3.0479306414665546,-71.69967055466076,-19.65505,9.034612,16.199886,38.501007,-20.787964,-3.2682939,-20.797806,-6.9909034,-0.49200165,79.58457,-9.12496,11.237824,0.4350614,-3.9036293,9.269541,8.682637,36.51745,-24.207916,9.812475,15.61609,12.94985,-6.859375,5.1512666,-32.790356,34.617744,16.544754,-9.54942,6.551968,-3.920967
168,43.1785774230957,-64.83171844482422,74.57841491699219,3.2070052223511207,3.0562430591496836,-71.78248647388948,-19.289274,8.760595,16.53125,39.528587,-22.007448,-3.52877,-22.250723,-8.201341,-0.7384742,82.40453,-10.157092,9.91071,-0.043779176,-4.496281,9.046498,7.222566,37.57496,-24.813663,9.444328,15.418653,13.155846,-6.4476357,6.0806036,-32.655598,34.258717,17.279207,-9.667049,6.5596604,-4.283081
169,43.5353889465332,-65.55032348632812,74.35871887207031,3.435271452578777,3.173084229437454,-71.95889450174458,-18.951893,8.670168,16.867693,40.420578,-23.210129,-3.7015913,-23.793888,-9.403667,-1.2025403,84.76054,-11.115997,8.467968,-0.4586082,-4.8699427,8.752106,5.81332,38.566048,-25.336946,9.151245,15.526372,13.2792225,-6.1028166,7.038907,-32.515625,33.92947,18.14235,-9.911109,6.4453745,-4.749115
170,43.891056060791016,-66.2799072265625,74.1675796508789,3.5658573533581484,3.395321381504076,-72.17925964738357,-18.627369,8.677641,17.21148,41.124386,-24.34794,-3.8559258,-25.431978,-10.650721,-1.8456748,86.76105,-12.138468,6.7722206,-0.8445468,-5.0947714,8.379894,4.3760366,39.48076,-25.827225,8.963527,15.881286,13.365,-5.778422,7.9943047,-32.382854,33.628193,19.13857,-10.218943,6.2576766,-5.3184586
171,44.252079010009766,-67.00483703613281,74.00785064697266,3.6204661083400818,3.6554140629967353,-72.40077319886464,-18.270369,8.728996,17.530592,41.647923,-25.394062,-3.9927998,-27.049969,-11.847914,-2.6017475,88.361916,-13.154023,5.0150423,-1.247773,-5.215755,8.001548,3.0105772,40.295776,-26.159498,8.743371,16.361666,13.428743,-5.525586,8.968126,-32.267338,33.35257,20.09054,-10.521324,6.0765767,-5.8631516
172,44.61100387573242,-67.7461166381836,73.88605499267578,3.622045384595075,3.8867327149039155,-72.58144367847505,-17.83716,8.774964,17.790056,41.999886,-26.320724,-4.117185,-28.539902,-12.902638,-3.4150653,89.51729,-14.073421,3.387144,-1.7271997,-5.277897,7.6844907,1.8399615,40.98614,-26.18334,8.348183,16.852211,13.4825735,-5.3979726,9.978708,-32.17868,33.11191,20.820305,-10.751401,5.979718,-6.255628
173,44.9801139831543,-68.47907257080078,73.7998275756836,3.547862450242325,4.087887218043324,-72.69143737761779,-17.360184,8.835642,17.940287,42.226482,-27.142345,-4.222006,-29.904697,-13.809528,-4.3482485,90.218735,-14.8684845,1.8657138,-2.3251994,-5.2537913,7.4360924,0.89345306,41.529243,-25.814484,7.757328,17.517834,13.528966,-5.485267,10.918045,-32.13483,32.971157,21.380804,-10.83713,6.016264,-6.493782
174,45.345523834228516,-69.20281982421875,73.75952911376953,3.393327346720579,4.288488824735437,-72.7604484735653,-16.847164,8.94022,18.005993,42.31124,-27.865871,-4.313445,-31.182364,-14.602604,-5.4334784,90.490234,-15.580799,0.3877045,-3.0191748,-5.120509,7.223839,0.12112538,41.92131,-25.118126,7.062996,18.367403,13.553608,-5.737603,11.87105,-32.143143,32.892365,21.778732,-10.861887,6.135818,-6.636527
175,45.67437744140625,-69.91062927246094,73.75344848632812,3.210434684618246,4.469779669642805,-72.83454352443991,-16.21938,9.048112,18.066399,42.167645,-28.45165,-4.415931,-32.33105,-15.252662,-6.569881,90.33193,-16.206944,-0.9203277,-3.7241814,-4.936135,7.0729437,-0.5424494,42.17537,-24.227118,6.3062606,19.038754,13.549678,-5.9913487,12.811414,-32.20037,32.85122,22.038242,-10.784812,6.2605,-6.6481543
176,45.99224090576172,-70.61103820800781,73.79608154296875,3.0515076220277577,4.612964372322711,-72.95989164573447,-15.396276,9.113693,18.201817,41.70812,-28.860416,-4.5544977,-33.315575,-15.729396,-7.6533647,89.74306,-16.738646,-1.9343046,-4.3556943,-4.764509,7.002259,-1.1513019,42.31552,-23.271744,5.5144024,19.16698,13.518632,-6.0817018,13.730979,-32.292084,32.81636,22.172132,-10.581154,6.312913,-6.492009
177,46.28725814819336,-71.32077026367188,73.88729858398438,2.937713000348345,4.699128886028339,-73.15124559145552,-14.323295,9.108262,18.439423,40.870556,-29.071974,-4.7370005,-34.130478,-16.020966,-8.6620655,88.692665,-17.154955,-2.5845592,-4.8716497,-4.647892,7.042838,-1.7266202,42.34853,-22.231697,4.6605225,18.535385,13.453748,-5.972917,14.632951,-32.404152,32.765358,22.158203,-10.143597,6.266324,-6.0825853
178,46.57283020019531,-72.03642272949219,74.02277374267578,2.8390843967447625,4.7432533698217165,-73.38330576660796,-13.0533695,9.055805,18.733469,39.71002,-29.10809,-4.9516983,-34.797337,-16.14094,-9.658686,87.18542,-17.45323,-2.9465117,-5.3141165,-4.556462,7.170294,-2.2571616,42.2716,-21.076077,3.7492318,17.369925,13.358254,-5.746937,15.533332,-32.530872,32.707935,21.998533,-9.52901,6.168422,-5.461841
179,46.84910202026367,-72.77847290039062,74.19654083251953,2.731529363459252,4.777347768743592,-73.6420167241892,-11.666126,8.985099,19.056469,38.313213,-28.991867,-5.185489,-35.32369,-16.094957,-10.662179,85.269936,-17.652292,-3.1153455,-5.71846,-4.4451885,7.3207903,-2.7398317,42.103004,-19.920336,2.8398192,15.971428,13.250813,-5.416589,16.399073,-32.67042,32.67848,21.779417,-8.93438,6.049816,-4.785247
180,47.12294387817383,-73.51939392089844,74.39688873291016,2.5914811375529423,4.833266083950937,-73.9131900604671,-10.24415,8.927831,19.381922,36.773895,-28.750238,-5.4258776,-35.717117,-15.887977,-11.68921,82.9948,-17.773434,-3.185276,-6.1114016,-4.2702937,7.4344068,-3.1756463,41.872097,-18.889105,1.9862514,14.63482,13.152228,-4.991802,17.202692,-32.8207,32.701607,21.582975,-8.556374,5.9332833,-4.2092767
181,47.377830505371094,-74.25977325439453,74.60742950439453,2.410895313303794,4.91288923861119,-74.20579909807812,-8.752646,8.879136,19.729706,35.009598,-28.37412,-5.6695046,-35.97776,-15.496047,-12.740203,80.314606,-17.822538,-3.1336856,-6.4811687,-4.0254455,7.5134783,-3.5554876,41.59076,-17.984804,1.1745044,13.291335,13.069707,-4.4145527,17.943047,-32.97873,32.78124,21.410757,-8.446572,5.797716,-3.7460613
182,47.6281852722168,-75.00457763671875,74.83345031738281,2.2037658291719717,5.001013544833742,-74.52270521956655,-7.1662297,8.819899,20.104595,33.00281,-27.8534,-5.9245887,-36.101295,-14.920645,-13.802167,77.21068,-17.782066,-2.9257376,-6.8159475,-3.7391744,7.5868106,-3.8773794,41.26059,-17.151394,0.37027144,11.826417,12.983346,-3.6982954,18.63322,-33.1402,32.90173,21.225435,-8.500885,5.6351137,-3.3226123
183,47.8709602355957,-75.77115631103516,75.071044921875,1.979340718085073,5.103572475338785,-74.8416458961975,-5.5746236,8.763227,20.461798,30.931839,-27.205885,-6.1967735,-36.08366,-14.2024355,-14.87144,73.75696,-17.645872,-2.637415,-7.141169,-3.4197114,7.63743,-4.1382413,40.902306,-16.418343,-0.4178877,10.464716,12.882566,-2.9598782,19.280247,-33.300385,33.047993,21.039824,-8.693145,5.482878,-2.968063
184,48.10331344604492,-76.55972290039062,75.31507873535156,1.7477270520200712,5.2268261279428625,-75.14032730649042,-4.070691,8.726253,20.756752,28.980446,-26.45148,-6.491239,-35.923306,-13.382171,-15.9432335,70.02572,-17.408098,-2.3440835,-7.476788,-3.0787914,7.6502476,-4.33909,40.54559,-15.823034,-1.1831963,9.423916,12.768006,-2.3143213,19.889374,-33.45207,33.202007,20.868563,-8.994794,5.3786774,-2.7105358
185,48.32162094116211,-77.35957336425781,75.55996704101562,1.4952686493325908,5.378454130784386,-75.41811628568405,-2.6417298,8.718845,20.97965,27.094864,-25.553486,-6.8263607,-35.618088,-12.4327755,-17.01378,65.93836,-17.052559,-2.1389587,-7.827175,-2.7063234,7.6204166,-4.445072,40.209743,-15.369108,-1.9682745,8.785554,12.662822,-1.7527281,20.45193,-33.589394,33.3826,20.722467,-9.516504,5.3374577,-2.573856
186,48.52946090698242,-78.16743469238281,75.79759216308594,1.2243969128914785,5.552096384241492,-75.68452468076987,-1.2528487,8.727424,21.152967,25.20952,-24.512522,-7.194144,-35.162937,-11.3396015,-18.074627,61.461803,-16.580381,-1.9594815,-8.182293,-2.3108988,7.5614724,-4.4384456,39.89918,-15.0257225,-2.7939782,8.415396,12.568759,-1.2246156,20.960356,-33.70868,33.59374,20.597221,-10.236176,5.3364825,-2.536973
187,48.73447036743164,-78.99624633789062,76.02333068847656,0.9704362153016476,5.732901143386626,-75.93260548268893,0.035021555,8.73921,21.28001,23.500309,-23.409203,-7.554907,-34.556164,-10.168577,-19.1133,56.735115,-16.00967,-1.6546577,-8.5416155,-1.9320141,7.4863377,-4.3556876,39.620407,-14.780812,-3.6097274,8.204736,12.458075,-0.7827408,21.4327,-33.8023,33.791447,20.470316,-10.928836,5.3584723,-2.559957
188,48.930320739746094,-79.82789611816406,76.2313232421875,0.7723807056895765,5.905497303158737,-76.1541480106552,1.1690049,8.741606,21.363821,22.13675,-22.3284,-7.865086,-33.79801,-8.991014,-20.116827,51.890194,-15.352224,-1.076263,-8.898422,-1.6125257,7.4063416,-4.2349634,39.38113,-14.630485,-4.365854,8.046189,12.301424,-0.47954157,21.886599,-33.861374,33.92776,20.325626,-11.367696,5.384718,-2.603094
189,49.11592483520508,-80.6773910522461,76.419677734375,0.6452355806605974,6.070216741217804,-76.33731622409498,2.1558952,8.724553,21.407381,21.119736,-21.262114,-8.110599,-32.826103,-7.787686,-21.108435,46.711536,-14.521274,-0.076587,-9.263639,-1.3667021,7.3197803,-4.0583844,39.194294,-14.585745,-5.0926137,7.9729204,12.086937,-0.34943762,22.330772,-33.8777,33.991165,20.165068,-11.500194,5.4152465,-2.6768289
190,49.29191589355469,-81.54193115234375,76.5837173461914,0.5849382086130379,6.2269835444583155,-76.48198656614004,3.0322256,8.679298,21.402811,20.361128,-20.17281,-8.305907,-31.63069,-6.540016,-22.064009,41.122143,-13.496363,1.2184873,-9.642949,-1.1947896,7.2271814,-3.8445404,39.064804,-14.655218,-5.7765627,8.008366,11.833677,-0.3564072,22.747702,-33.848,34.010036,20.001894,-11.44572,5.4578276,-2.795589
191,49.46075439453125,-82.413818359375,76.72708892822266,0.6031693847196268,6.359892869019499,-76.59772119140105,3.780364,8.599916,21.337133,19.923815,-19.108757,-8.449343,-30.300653,-5.3313284,-22.91088,35.497005,-12.396289,2.5510871,-10.016208,-1.115162,7.136629,-3.600939,38.982273,-14.807645,-6.3771157,8.051828,11.557697,-0.4478282,23.1351,-33.769302,33.98613,19.825428,-11.2393,5.5051823,-2.9265802
192,49.61784744262695,-83.29308319091797,76.84286499023438,0.7043179460174198,6.457041240525781,-76.69797259694246,4.3769197,8.489538,21.20159,19.876688,-18.121233,-8.542287,-28.954315,-4.25379,-23.593613,30.294588,-11.376634,3.6704116,-10.356635,-1.1355778,7.051288,-3.2994323,38.926838,-15.002428,-6.884975,8.017916,11.275295,-0.5728775,23.49505,-33.641438,33.916817,19.626041,-10.917546,5.550607,-3.0367775
193,49.77116394042969,-84.18324279785156,76.93507385253906,0.9089051618546776,6.518094545002519,-76.77236978404325,4.8445454,8.31685,20.985418,20.175795,-17.225235,-8.602258,-27.579493,-3.3221455,-24.100891,25.490717,-10.455833,4.721627,-10.67647,-1.2762682,6.96402,-2.9890323,38.890816,-15.262198,-7.243603,7.8570776,10.964782,-0.73943406,23.836143,-33.46188,33.798317,19.398993,-10.401337,5.6048117,-3.1322327
194,49.918304443359375,-85.0814208984375,76.9868392944336,1.2330931823388815,6.5430342987092605,-76.81089699420222,5.2067976,8.053883,20.698961,20.769949,-16.376476,-8.622074,-26.140226,-2.5390656,-24.468504,20.942188,-9.58304,5.773029,-10.986834,-1.5486064,6.8708158,-2.6591625,38.87534,-15.599555,-7.4789057,7.633472,10.626733,-0.9704314,24.160841,-33.229584,33.629326,19.150547,-9.702967,5.667254,-3.2268293
195,50.06560516357422,-85.97884368896484,77.01319122314453,1.6202323400260108,6.540295358107248,-76.85216426499036,5.3980784,7.7832117,20.380922,21.775085,-15.561379,-8.579019,-24.792307,-1.9395156,-24.740824,17.067709,-8.87681,6.4619045,-11.243898,-1.8890172,6.775618,-2.1978924,38.86693,-15.953902,-7.6981597,7.4372654,10.309227,-1.2371122,24.441456,-32.95102,33.421204,18.89469,-8.98847,5.714883,-3.2983847
196,50.214881896972656,-86.87542724609375,77.00725555419922,1.9504044574489643,6.537681992435504,-76.95519926495139,5.3100967,7.6733174,20.080843,23.369064,-14.795607,-8.463033,-23.714703,-1.4820019,-24.979473,14.301141,-8.462481,6.419884,-11.414682,-2.169329,6.6926417,-1.8790054,38.852055,-16.36056,-7.6568995,7.2551446,10.054868,-1.5153093,24.62073,-32.64646,33.207386,18.646849,-8.425405,5.7252665,-3.3255496
197,50.365478515625,-87.7654800415039,76.98046875,2.108707282856668,6.585632899106706,-77.15928932868091,4.8280387,7.87531,19.825459,25.715073,-14.138775,-8.264533,-23.034407,-1.1127231,-25.314346,12.989997,-8.517726,5.3697505,-11.451582,-2.2567062,6.5927505,-1.6304055,38.810448,-16.813553,-7.403595,7.090705,9.858124,-1.8028842,24.71127,-32.325943,32.962418,18.405437,-8.050433,5.6882057,-3.281071
198,50.51113510131836,-88.64146423339844,76.95545196533203,2.0941374147135368,6.680551928571483,-77.44727376768229,4.0103216,8.37046,19.588373,28.691895,-13.562862,-8.0173855,-22.691185,-0.7844281,-25.710949,12.923161,-8.996849,3.5570886,-11.358164,-2.1462178,6.471647,-1.242107,38.727043,-17.26954,-7.1269484,6.994966,9.701371,-2.1099484,24.750082,-31.991108,32.66578,18.151754,-7.777705,5.6181846,-3.181196
199,50.66002655029297,-89.52889251708984,76.90145111083984,1.9575851952634418,6.767900403446341,-77.79339238619689,3.0121596,9.070263,19.33537,32.04678,-12.95682,-7.7749414,-22.564724,-0.4578392,-25.980873,13.656134,-9.667377,1.3912904,-11.173782,-1.901186,6.383673,-0.89954793,38.603096,-17.751272,-6.695749,6.979367,9.607216,-2.4287512,24.693583,-31.658058,32.365124,17.896519,-7.5732183,5.5297847,-3.0697832
200,50.831485748291016,-90.41859436035156,76.79931640625,1.7670281677028454,6.791063671660278,-78.17297333131643,1.9788835,9.869625,19.040089,35.558968,-12.225316,-7.5880795,-22.526289,-0.10139443,-25.934237,14.718898,-10.256444,-0.7170917,-10.926556,-1.6014256,6.376489,-0.6171869,38.44123,-18.237082,-6.134058,7.099691,9.599692,-2.746805,24.53,-31.344057,32.092422,17.62879,-7.4076786,5.437509,-2.9892478
201,51.006805419921875,-91.30284118652344,76.66663360595703,1.532777729842978,6.741148337826468,-78.58035931573038,0.9059586,10.758042,18.687956,39.269505,-11.272442,-7.4923515,-22.629301,0.2930689,-25.400764,16.181072,-10.584903,-2.902199,-10.615692,-1.2493801,6.4486628,-0.30373582,38.24063,-18.700895,-5.5258265,7.421152,9.690347,-3.0817258,24.294537,-31.057825,31.82841,17.31803,-7.31661,5.3267636,-2.9321268
202,51.16773986816406,-92.17656707763672,76.52853393554688,1.2639723230127928,6.632254412639454,-79.01466414093596,-0.23536937,11.708303,18.278173,43.203407,-10.144567,-7.4637766,-22.89159,0.68256724,-24.540773,18.187063,-10.772263,-5.292189,-10.245655,-0.8488808,6.5812674,0.056338917,38.000343,-19.145473,-4.867015,7.907886,9.862809,-3.4352372,23.989971,-30.803944,31.56666,16.962835,-7.294703,5.1968083,-2.8818586
203,51.33795166015625,-93.06007385253906,76.3691635131836,1.0121005025372225,6.451925358260068,-79.46893672779781,-1.3761326,12.6323395,17.823463,47.20209,-9.001756,-7.4524207,-23.166452,1.0258749,-23.633472,20.44494,-11.042261,-7.4716997,-9.840168,-0.46552214,6.7906265,0.41043043,37.723095,-19.567513,-4.114485,8.484383,10.098866,-3.769924,23.554256,-30.595325,31.356667,16.602398,-7.251613,5.0824466,-2.8668015
204,51.50575637817383,-93.9350814819336,76.17658233642578,0.7946115237412551,6.197208708957482,-79.94762219788221,-2.473035,13.509631,17.343195,51.162872,-8.030796,-7.3912716,-23.30998,1.2973018,-22.92365,22.672382,-11.665969,-9.044838,-9.418988,-0.12901928,7.091635,0.73597753,37.411724,-19.947147,-3.2481756,9.078363,10.381928,-4.047299,22.951477,-30.447094,31.241253,16.25108,-7.113206,5.0186925,-2.9146664
205,51.67524719238281,-94.78907775878906,75.9686279296875,0.5791493829851521,5.8133767166443215,-80.45789280040212,-3.5296617,14.415624,16.781195,55.25973,-7.202464,-7.2674575,-23.294632,1.4701012,-22.480837,24.995409,-12.882055,-9.819102,-8.973607,0.19587475,7.554505,1.1299828,37.060177,-20.234575,-2.3558755,9.705387,10.701824,-4.2492676,22.21096,-30.371462,31.199677,15.837495,-6.876428,5.033623,-3.0291026
206,51.84071731567383,-95.64237976074219,75.74031066894531,0.35177793613124175,5.32629590433479,-81.00338937050823,-4.584797,15.379306,16.146309,59.529816,-6.4705577,-7.0934577,-23.201597,1.5457268,-22.142374,27.53185,-14.528374,-10.047264,-8.501171,0.53887314,8.154081,1.4695276,36.67055,-20.475664,-1.3324082,10.352798,11.068675,-4.4015946,21.239475,-30.380327,31.264845,15.440627,-6.5126967,5.1009536,-3.1979902
207,52.02478790283203,-96.49144744873047,75.50335693359375,0.13534226229943025,4.85845046241935,-81.59063863689775,-5.6587815,16.35886,15.558647,63.69418,-6.0093093,-6.826219,-23.06753,1.5700741,-21.803041,30.00532,-16.303463,-10.007847,-8.009076,0.8794159,8.731722,1.967146,36.24145,-20.633451,-0.3451902,11.099653,11.500403,-4.5264497,20.167187,-30.46222,31.421436,15.048769,-6.0983143,5.176503,-3.4188583
208,52.21951675415039,-97.3410415649414,75.2816162109375,-0.04310558284384391,4.530014711576202,-82.22158991326472,-6.7756476,17.308064,15.135886,67.4888,-5.996825,-6.422871,-22.923391,1.632486,-21.37415,32.103554,-17.884192,-9.968431,-7.5167823,1.1814562,9.148584,2.5111012,35.787666,-20.761557,0.7150197,11.90932,12.0123205,-4.6500406,18.945879,-30.606493,31.726387,14.784152,-5.6257153,5.2141314,-3.692948
209,52.411155700683594,-98.20353698730469,75.07954406738281,-0.17929974337131674,4.38245288637878,-82.93848346623354,-7.901638,18.286385,15.011117,70.90831,-6.6480036,-5.7924204,-22.790325,1.7980568,-20.83386,33.737633,-19.19806,-9.92774,-6.995671,1.4199227,9.360793,3.2505138,35.302246,-20.810314,1.7785301,12.685993,12.662158,-4.7194357,17.517332,-30.809732,32.267258,14.70785,-5.0338507,5.2172594,-4.062829
210,52.60841751098633,-99.08356475830078,74.90312957763672,-0.29511144081760243,4.3499601639838055,-83.7291977807409,-9.04081,19.32,15.072334,74.10234,-7.833419,-4.976182,-22.653414,2.0428865,-20.254423,35.073334,-20.408852,-9.762759,-6.4547715,1.6191139,9.453526,4.082759,34.78707,-20.792316,2.9105577,13.436175,13.423181,-4.74673,15.830414,-31.066748,33.03897,14.8033905,-4.3021727,5.201062,-4.517162
211,52.78458023071289,-99.958984375,74.74625396728516,-0.39206706307845257,4.390367256235874,-84.5147736096218,-10.269171,20.280418,15.089043,77.00926,-9.189271,-4.141922,-22.471645,2.3339756,-19.677284,36.142727,-21.530243,-9.556769,-5.922821,1.7967469,9.45266,5.0622687,34.260788,-20.730955,3.9452229,14.482578,14.188091,-4.850444,14.138428,-31.340263,33.820747,14.889386,-3.627715,5.141406,-4.9666424
212,52.93368148803711,-100.85481262207031,74.61908721923828,-0.4699310948303466,4.461538924649867,-85.2157187821614,-11.671941,21.030169,14.849614,79.55816,-10.335059,-3.4567397,-22.201946,2.624228,-19.132294,36.97648,-22.571703,-9.394683,-5.42325,1.9636683,9.391545,6.028164,33.764553,-20.72485,4.894435,16.070118,14.845892,-5.1495295,12.613728,-31.586536,34.410385,14.863711,-3.178874,5.0168304,-5.321199
213,53.05850601196289,-101.75177001953125,74.51737213134766,-0.5278628682351122,4.568756155147915,-85.7888211259893,-13.32646,21.516272,14.277808,81.76409,-11.175743,-2.9381096,-21.825485,2.8909864,-18.63606,37.559845,-23.55792,-9.315723,-4.9568124,2.104819,9.243233,6.983419,33.33236,-20.823086,5.759682,18.544096,15.387099,-5.7551003,11.3072605,-31.770384,34.75869,14.770576,-3.1125162,4.7716727,-5.542399
214,53.15666198730469,-102.65877532958984,74.44307708740234,-0.5660167509452575,4.729563388254636,-86.28376801163539,-15.177006,21.79262,13.510912,83.65365,-11.896526,-2.5170093,-21.367615,3.1514494,-18.16262,37.88799,-24.477165,-9.275581,-4.484579,2.1979449,9.000368,7.9888954,32.974335,-20.994392,6.5289893,21.67681,15.838423,-6.58159,10.086751,-31.882277,34.965015,14.707248,-3.2970932,4.4342766,-5.68117
215,53.2493896484375,-103.5634536743164,74.40178680419922,-0.585576205055006,4.919439839749646,-86.7603536108217,-17.10801,21.88905,12.672467,85.167465,-12.531015,-2.2225807,-20.849792,3.4094827,-17.673525,38.010357,-25.284994,-9.22845,-4.007487,2.2421463,8.709349,9.017442,32.689415,-21.178373,7.182962,24.849691,16.154299,-7.4424744,9.270143,-31.912872,34.905754,14.328115,-3.7289112,4.1142793,-5.7786913
216,53.33419418334961,-104.45178985595703,74.39103698730469,-0.5875063746511422,5.114409477533318,-87.2787569937301,-19.00499,21.848513,11.883515,86.24941,-13.116186,-2.0809119,-20.293722,3.6674447,-17.131388,37.975975,-25.937004,-9.124478,-3.4179263,2.2535913,8.459442,10.025396,32.477093,-21.391405,7.6252246,27.47535,16.328548,-8.130891,7.990752,-31.903934,34.853935,14.2060585,-3.658119,3.9092577,-5.877848
217,53.42875671386719,-105.31892395019531,74.41058349609375,-0.5858381456779039,5.332285210754089,-87.8594894907291,-20.912184,21.655931,11.120233,86.89398,-13.666569,-2.149845,-19.73256,3.941522,-16.523674,37.795273,-26.417522,-8.94348,-2.7667568,2.2486963,8.203268,11.388585,32.31348,-21.481508,7.5562286,29.646496,16.333624,-8.60738,7.1444383,-31.838173,34.45181,13.590831,-3.6662414,3.8962078,-5.968145
218,53.516937255859375,-106.16976928710938,74.4657974243164,-0.577278334873703,5.5771797747227145,-88.46991129391701,-22.854338,21.30696,10.348947,87.12507,-14.159704,-2.3951411,-19.142178,4.2179356,-15.868153,37.441956,-26.751036,-8.708802,-2.1054778,2.2200897,7.9667773,12.266772,32.23413,-21.701347,7.735362,31.292435,16.198992,-8.952682,6.37354,-31.731207,33.871677,12.775853,-3.6528614,4.003131,-6.0384674
219,53.59675979614258,-107.00819396972656,74.54749298095703,-0.5380506109402531,5.804178106629166,-89.09035321509145,-24.691744,20.869911,9.664695,86.928604,-14.576509,-2.70785,-18.455526,4.4581175,-15.173131,36.905712,-26.951273,-8.437337,-1.381786,2.1391304,7.750798,13.384226,32.200363,-21.842827,7.555421,32.573757,16.025866,-9.188028,5.734728,-31.588343,33.145138,11.837875,-3.4519258,4.1293874,-6.1100173
220,53.698890686035156,-107.84648895263672,74.67790985107422,-0.44406674135001434,5.970293350027865,-89.7002196028666,-26.289875,20.414526,9.159756,86.29064,-14.897868,-2.9801955,-17.60874,4.623773,-14.449239,36.179867,-27.036274,-8.1491,-0.6543482,1.981082,7.6038194,14.466169,32.193584,-21.922,7.3097987,33.235966,15.903568,-9.3384905,5.126179,-31.429342,32.429653,10.909535,-2.8680446,4.1752844,-6.2153683
221,53.79052734375,-108.68282318115234,74.84864044189453,-0.28543297239902793,6.057978310137439,-90.31176676775719,-27.612429,19.92421,8.853569,85.16173,-15.122636,-3.2443957,-16.551344,4.712028,-13.676477,35.19902,-26.992582,-7.8484964,0.08451344,1.7468177,7.5490713,15.507621,32.193813,-21.92835,6.986642,33.088924,15.866223,-9.396607,4.6033525,-31.26131,31.69595,9.930705,-1.7164091,4.11742,-6.385167
222,53.88778305053711,-109.53084564208984,75.05986785888672,-0.07578913161127449,6.094232906426768,-90.92979645017358,-28.72578,19.384298,8.697872,83.55923,-15.262857,-3.53716,-15.3301935,4.73487,-12.856618,33.99303,-26.821991,-7.529467,0.84716415,1.461199,7.5613084,16.617977,32.19021,-21.854977,6.482536,32.31698,15.864675,-9.358018,4.1587057,-31.088772,30.9041,8.881174,-0.12412591,4.0052757,-6.5957603
223,53.99916076660156,-110.40007781982422,75.3118667602539,0.1751367168734053,6.103855017846986,-91.5213947994826,-29.653896,18.852945,8.683579,81.566734,-15.312857,-3.7678738,-14.029217,4.679659,-12.032934,32.69443,-26.561668,-7.197319,1.5678935,1.1330425,7.6179657,17.496754,32.191788,-21.780624,6.1265435,31.134064,15.861316,-9.248997,3.7573287,-30.924892,30.145697,7.818862,1.5412736,3.85168,-6.79636
224,54.094947814941406,-111.2523422241211,75.57754516601562,0.45855534781018253,6.110960724619698,-92.05305719508733,-30.421408,18.376453,8.806589,79.26748,-15.26662,-3.8519046,-12.736396,4.5351768,-11.251221,31.437836,-26.248392,-6.850868,2.2335386,0.76938236,7.670616,18.461275,32.18574,-21.630573,5.7003565,30.02178,15.821611,-9.103026,3.390396,-30.783804,29.472473,6.8171525,2.931444,3.6736598,-6.933485
225,54.19723892211914,-112.11798095703125,75.84536743164062,0.8013004549100877,6.103950684300141,-92.50327114207319,-31.0081,17.916477,9.102706,76.633995,-15.127999,-3.7598891,-11.419681,4.2719164,-10.511788,30.181734,-25.88526,-6.4799533,2.8056052,0.3436555,7.737969,19.360014,32.174446,-21.421202,5.349402,28.851923,15.720035,-8.905835,3.0429564,-30.678303,28.920908,5.8729696,4.049252,3.4550886,-6.9989467
226,54.30595779418945,-112.98847198486328,76.11177062988281,1.2011208518797305,6.077448722764285,-92.89257478087686,-31.401352,17.435251,9.576051,73.630714,-14.900835,-3.561033,-10.06305,3.900475,-9.799621,28.88979,-25.458576,-6.081551,3.3138437,-0.1327398,7.829861,20.259222,32.151527,-21.145006,4.9833508,27.519382,15.577327,-8.648503,2.7547693,-30.622503,28.445442,4.927789,5.05857,3.1970508,-7.0216675
227,54.4107666015625,-113.86213684082031,76.37154388427734,1.603309963783201,6.063285760830171,-93.25005206639719,-31.635645,16.976315,10.176604,70.319374,-14.587108,-3.322968,-8.771582,3.4801054,-9.13493,27.690857,-24.97152,-5.666746,3.7784302,-0.6104606,7.9169865,21.128178,32.11704,-20.82727,4.6305313,26.257385,15.424607,-8.377366,2.5108538,-30.595253,28.027586,4.0102773,5.831299,2.9453144,-6.998377
228,54.515380859375,-114.74079132080078,76.6215591430664,1.951461905679771,6.093009336307557,-93.6048064348826,-31.750217,16.589186,10.852026,66.75827,-14.184721,-3.1083374,-7.642563,3.0743837,-8.534155,26.709534,-24.4273,-5.250138,4.212668,-1.032822,7.959303,21.940044,32.06811,-20.506086,4.3230844,25.28838,15.301322,-8.126083,2.2968385,-30.596811,27.67445,3.1469402,6.2529483,2.7444642,-6.943633
229,54.6276969909668,-115.63482666015625,76.86760711669922,2.2304513496717053,6.174363532680416,-93.95321520060382,-31.729666,16.352968,11.695745,62.87276,-13.679281,-2.8315196,-6.662797,2.7068517,-8.0092,25.908821,-23.787334,-4.8405657,4.6002917,-1.3824726,7.955201,22.742985,31.975178,-20.131765,4.0219827,24.741388,15.212038,-7.9144754,2.1108623,-30.646627,27.38604,2.3123007,6.2035284,2.623347,-6.8376446
230,54.752296447753906,-116.54338836669922,77.11226654052734,2.4719126808689444,6.290300961705063,-94.28232172614534,-31.553038,16.168682,12.724233,58.641445,-13.074365,-2.5278878,-5.791328,2.3454857,-7.5449367,25.246979,-23.063496,-4.4297204,4.9515104,-1.6887048,7.9074693,23.479898,31.85232,-19.75551,3.7771652,24.449932,15.148235,-7.7038417,1.970207,-30.73881,27.162373,1.5120254,5.777603,2.5502028,-6.693168
231,54.861427307128906,-117.43248748779297,77.3337631225586,2.685610335208193,6.433447162211302,-94.60876645777478,-31.258585,15.859637,13.741957,54.189827,-12.373272,-2.410646,-5.0605702,1.9799452,-7.1130056,24.80165,-22.319292,-4.010009,5.268312,-1.9597507,7.8298125,24.155226,31.698591,-19.38364,3.5855336,24.310045,15.101575,-7.495112,1.869263,-30.869102,26.997076,0.7646707,5.1769905,2.484369,-6.537331
232,54.971153259277344,-118.31549072265625,77.53760528564453,2.8782545776825916,6.595476066671725,-94.95154287753157,-30.887606,15.305629,14.522115,49.63565,-11.569359,-2.6524699,-4.5050178,1.6042353,-6.6850066,24.65743,-21.617172,-3.573401,5.558855,-2.1999283,7.7310286,24.74853,31.515568,-19.04209,3.4685087,24.205793,15.066102,-7.2830753,1.8046072,-31.029308,26.887901,0.09608621,4.6017523,2.3862734,-6.402245
233,55.08821487426758,-119.21244812011719,77.7213134765625,3.046258802702603,6.791497993662762,-95.31995692371972,-30.424885,14.485406,14.9352,44.77079,-10.56693,-3.3540158,-4.125537,1.2246491,-6.2577686,24.781342,-20.950708,-3.10274,5.8373857,-2.4109285,7.6012917,25.260017,31.299982,-18.720346,3.43808,24.18312,15.045615,-7.0739975,1.7763364,-31.2162,26.83963,-0.49070665,4.016982,2.2390687,-6.2972326
234,55.2091178894043,-120.12510681152344,77.87848663330078,3.176336241429738,7.014654626899263,-95.7106707684471,-29.825874,13.524086,15.086357,39.54161,-9.368835,-4.3582907,-3.887892,0.86310273,-5.8387146,25.125635,-20.284992,-2.6048632,6.1013894,-2.5806918,7.442956,25.695776,31.050983,-18.408539,3.4841478,24.278065,15.042956,-6.8679514,1.7816749,-31.4292,26.853537,-1.002954,3.3432794,2.065848,-6.2054977
235,55.328922271728516,-121.039794921875,78.0206298828125,3.2595938560761843,7.222910182602541,-96.12436418937183,-29.10449,12.55807,15.089629,34.328773,-8.118521,-5.430778,-3.7652094,0.53801465,-5.4164777,25.73271,-19.63044,-2.1068625,6.337554,-2.6939907,7.2839003,26.04704,30.778921,-18.134014,3.5909522,24.360344,15.049392,-6.650367,1.8109835,-31.662857,26.919207,-1.4262507,2.713203,1.8883227,-6.1183014
236,55.449092864990234,-121.96125793457031,78.13043975830078,3.2935675140157397,7.377158388755873,-96.55742204115433,-28.310766,11.706887,15.074862,29.577389,-6.9836583,-6.3505487,-3.7380822,0.26026946,-4.9835567,26.651905,-18.999653,-1.6353415,6.5331073,-2.743068,7.1498632,26.306322,30.501587,-17.926317,3.73772,24.29721,15.0561285,-6.405556,1.8597705,-31.907494,27.020626,-1.7493368,2.2585945,1.7283585,-6.025375
237,55.56576156616211,-122.8921890258789,78.2017822265625,3.2866297452061213,7.482294473861267,-97.01425100464296,-27.481926,10.950452,14.977161,25.318838,-6.0182195,-7.0762944,-3.8025885,0.02706667,-4.538237,27.876347,-18.432194,-1.178139,6.695976,-2.742041,7.0373282,26.472244,30.2294,-17.797129,3.9418697,24.040577,15.072148,-6.0938797,1.931642,-32.15564,27.157038,-1.9626417,2.003556,1.5843852,-5.9224057
238,55.68065643310547,-123.83113098144531,78.24397277832031,3.2267540294833648,7.55128435330057,-97.49842404386673,-26.608217,10.29345,14.753984,21.399315,-5.163025,-7.7010813,-3.961098,-0.14604993,-4.0881815,29.376608,-17.902695,-0.7232564,6.837922,-2.6835794,6.93689,26.552603,29.96554,-17.729555,4.1979775,23.660135,15.098028,-5.7346807,2.0244942,-32.405556,27.330849,-2.0682373,1.880659,1.447328,-5.81282
239,55.78950500488281,-124.765869140625,78.24870300292969,3.1035621699444014,7.567162712304151,-97.99200393928548,-25.72832,9.8281765,14.589159,18.0634,-4.4446955,-8.234319,-4.219387,-0.24924365,-3.6470118,31.176516,-17.33583,-0.2936032,6.9396396,-2.5505986,6.856826,26.559301,29.720047,-17.708761,4.4482536,23.199903,15.111015,-5.400885,2.138171,-32.654465,27.527893,-2.0823605,1.8776616,1.3279227,-5.697678
240,55.901123046875,-125.69622802734375,78.22106170654297,2.9317691560254935,7.521682581974664,-98.4665255082204,-24.904947,9.588408,14.678484,15.57879,-3.8859775,-8.701484,-4.6008,-0.3022373,-3.2291214,33.319107,-16.663548,0.09272142,6.972284,-2.3521585,6.800818,26.48215,29.509031,-17.724665,4.652287,22.694534,15.090076,-5.1656585,2.273406,-32.897915,27.7328,-2.0225425,1.9831986,1.2363724,-5.578895
