unveil-humanoid-operators/unveil-humanoid-operators.github.io/feature-analysis-animation/data/feature_matrix_instances/weight_root_translate_peak_vel_walking_A255_walk_ff_stop_315_R_002__A255.csv
Frame,root_translateX,root_translateY,root_translateZ,root_rotateX,root_rotateY,root_rotateZ,left_hip_pitch_joint_dof,left_hip_roll_joint_dof,left_hip_yaw_joint_dof,left_knee_joint_dof,left_ankle_pitch_joint_dof,left_ankle_roll_joint_dof,right_hip_pitch_joint_dof,right_hip_roll_joint_dof,right_hip_yaw_joint_dof,right_knee_joint_dof,right_ankle_pitch_joint_dof,right_ankle_roll_joint_dof,waist_yaw_joint_dof,waist_roll_joint_dof,waist_pitch_joint_dof,left_shoulder_pitch_joint_dof,left_shoulder_roll_joint_dof,left_shoulder_yaw_joint_dof,left_elbow_joint_dof,left_wrist_roll_joint_dof,left_wrist_pitch_joint_dof,left_wrist_yaw_joint_dof,right_shoulder_pitch_joint_dof,right_shoulder_roll_joint_dof,right_shoulder_yaw_joint_dof,right_elbow_joint_dof,right_wrist_roll_joint_dof,right_wrist_pitch_joint_dof,right_wrist_yaw_joint_dof
0,-1.602048397064209,-0.21133330464363098,74.76834106445312,0.7414205713273857,3.9903520768580134,2.7135064668945206,-11.3703375,4.4513354,29.105972,36.695404,-29.054907,3.8574,-35.76297,-15.445243,-20.00381,58.548897,-16.677198,7.0767837,-2.2395499,-5.4128094,8.781366,1.4459146,32.83009,-37.670883,53.637802,19.37282,0.016506229,-0.14612247,2.0630424,-25.617676,49.33268,53.776237,-13.128462,2.6193833,-9.052946
1,-1.8269195556640625,-0.3856252431869507,74.82030487060547,0.6481276708516213,4.029633259129182,2.676865664003991,-11.70462,4.776654,29.049192,36.884727,-28.860188,3.875301,-35.349026,-16.044176,-19.816374,59.063503,-17.195284,6.7468643,-2.1797242,-5.3501525,8.723462,1.6537937,32.883568,-37.619293,53.65327,19.288393,0.053401805,-0.15479352,2.0486457,-25.66477,49.180225,53.726593,-13.180451,2.661932,-9.091217
2,-2.0343358516693115,-0.582944929599762,74.86738586425781,0.5564337196857317,4.067455257127569,2.6399042370421655,-12.0350485,5.0967636,28.99192,37.065876,-28.660088,3.8980079,-34.940918,-16.661222,-19.641735,59.58611,-17.728077,6.396433,-2.1180656,-5.2896786,8.666354,1.8453788,32.933002,-37.58776,53.68473,19.181368,0.09299002,-0.16154066,2.0310829,-25.709497,49.03276,53.68188,-13.230936,2.702568,-9.122335
3,-2.242649555206299,-0.7703426480293274,74.90862274169922,0.46191341238571426,4.106629969363212,2.6047820152801777,-12.3720455,5.423358,28.929026,37.25753,-28.467388,3.912362,-34.519447,-17.246279,-19.44119,60.07756,-18.228546,6.0917487,-2.0532293,-5.2248154,8.608268,2.0401945,32.982956,-37.545414,53.709396,19.10336,0.12714438,-0.17055044,2.0146627,-25.754583,48.876083,53.637177,-13.275775,2.7465208,-9.16797
4,-2.4521067142486572,-0.9593254923820496,74.94361114501953,0.3601032945911216,4.149513715592137,2.5735511157781232,-12.726813,5.768595,28.855272,37.48059,-28.2957,3.9051394,-34.065815,-17.75011,-19.177227,60.499584,-18.64937,5.8985667,-1.9987038,-5.146799,8.538254,2.2103288,33.008995,-37.498905,53.770077,19.069826,0.14702375,-0.18063812,1.9715607,-25.77558,48.727936,53.635757,-13.3007765,2.7987344,-9.254051
5,-2.656609296798706,-1.154404640197754,74.9754867553711,0.244340142560099,4.196630588187497,2.552457722957858,-13.105729,6.142346,28.76242,37.746147,-28.150253,3.8673527,-33.5708,-18.15221,-18.838919,60.843212,-18.973345,5.856664,-1.943542,-5.052796,8.475409,2.3375714,33.048996,-37.47492,53.840904,19.076271,0.14681074,-0.19926229,1.9271404,-25.800308,48.544724,53.628902,-13.317286,2.8642714,-9.40074
6,-2.867347002029419,-1.3583042621612549,75.00135040283203,0.11888673551372139,4.246639918305938,2.538312705929079,-13.503171,6.536028,28.654654,38.04261,-28.024235,3.8079834,-33.046074,-18.482542,-18.448126,61.130573,-19.22803,5.922922,-1.8760142,-4.951031,8.416935,2.4677384,33.118263,-37.448383,53.879425,19.132698,0.1332395,-0.22647057,1.8955654,-25.833279,48.328148,53.603737,-13.323065,2.939525,-9.589892
7,-3.0747339725494385,-1.5565026998519897,75.02379608154297,-0.005114555792888865,4.300010810208254,2.5192167461008856,-13.907633,6.932448,28.545626,38.348602,-27.907572,3.740845,-32.502136,-18.766327,-18.016598,61.369015,-19.431707,6.038649,-1.815592,-4.846027,8.350603,2.5882866,33.171436,-37.40336,53.934986,19.205622,0.1144559,-0.2542968,1.832187,-25.85191,48.13772,53.6114,-13.302408,3.01517,-9.7822
8,-3.28411602973938,-1.7611926794052124,75.0426254272461,-0.11546654080698035,4.356839473460617,2.4832999613975915,-14.306848,7.3140273,28.449823,38.641384,-27.789875,3.679643,-31.950178,-19.029037,-17.555014,61.56434,-19.602383,6.145376,-1.7351677,-4.7547464,8.287945,2.6972127,33.241867,-37.352142,53.972847,19.247828,0.100829944,-0.28635758,1.757516,-25.872963,47.951477,53.615173,-13.262141,3.0813167,-9.930742
9,-3.4928653240203857,-1.9597148895263672,75.05433654785156,-0.2109166246468892,4.418364190791768,2.426462218542256,-14.70095,7.678768,28.370932,38.920826,-27.67314,3.6293242,-31.39574,-19.254675,-17.0311,61.71299,-19.72533,6.255497,-1.6465511,-4.6689,8.214996,2.783431,33.2773,-37.281517,54.045696,19.266258,0.091966815,-0.31836864,1.6370851,-25.883184,47.809917,53.660133,-13.163236,3.1422935,-10.022985
10,-3.7007060050964355,-2.1584906578063965,75.0648193359375,-0.29687901381778375,4.483717822369044,2.3551311982116934,-15.09562,8.035461,28.301647,39.19843,-27.561802,3.5820882,-30.831451,-19.437614,-16.450354,61.8137,-19.798027,6.390769,-1.5386087,-4.5881095,8.141263,2.8684964,33.30931,-37.18459,54.10821,19.290125,0.08475948,-0.35510284,1.5044999,-25.892902,47.666218,53.710888,-13.03573,3.2009175,-10.080309
11,-3.9131646156311035,-2.375558614730835,75.07311248779297,-0.37344180962176937,4.551219799479728,2.274069655817543,-15.4861965,8.384031,28.239416,39.467854,-27.449682,3.5323446,-30.25103,-19.619844,-15.880621,61.87949,-19.857357,6.506726,-1.4241651,-4.518926,8.07633,2.9511838,33.368824,-37.075817,54.13873,19.29644,0.07991096,-0.39385727,1.3617814,-25.913109,47.534893,53.744205,-12.908622,3.2458572,-10.118969
12,-4.121181011199951,-2.5754387378692627,75.07862091064453,-0.44112054821131125,4.618953165207132,2.187831291353479,-15.869001,8.725227,28.181242,39.724834,-27.331148,3.474367,-29.649757,-19.843042,-15.3902445,61.923187,-19.939543,6.5589023,-1.3033042,-4.4533243,7.9955435,2.992095,33.397697,-36.99779,54.216263,19.290628,0.07827578,-0.41668317,1.2029706,-25.923946,47.45339,53.800915,-12.791935,3.2663422,-10.162779
13,-4.324378967285156,-2.7879045009613037,75.0842056274414,-0.5001309029270697,4.690872718916971,2.092477127495581,-16.248133,9.062741,28.128117,39.974266,-27.207859,3.406104,-29.03167,-20.119383,-14.996298,61.961075,-20.049074,6.5240307,-1.1687558,-4.3956084,7.9064574,3.0205355,33.425426,-36.924,54.29317,19.287003,0.08175826,-0.42751035,1.0383666,-25.935175,47.4025,53.859684,-12.695821,3.2487233,-10.21459
14,-4.533024311065674,-2.9964792728424072,75.08409881591797,-0.5503699244705521,4.766461348158881,1.9873887609826766,-16.622492,9.394572,28.081373,40.21414,-27.08058,3.3305042,-28.398579,-20.426687,-14.6624155,61.98138,-20.16782,6.429914,-1.0283027,-4.346139,7.8135386,3.0291188,33.45755,-36.8593,54.371006,19.265217,0.09008997,-0.43039334,0.859009,-25.948828,47.386272,53.919716,-12.605307,3.203047,-10.264443
15,-4.733922481536865,-3.221133232116699,75.08158874511719,-0.5898020448916926,4.837059443562169,1.8820573720238756,-16.98569,9.7153635,28.038136,40.442364,-26.94921,3.2493615,-27.744497,-20.7559,-14.374802,61.95928,-20.300413,6.309021,-0.8861016,-4.306279,7.7242646,3.0364027,33.493427,-36.78871,54.432274,19.24549,0.10140521,-0.42666832,0.6738971,-25.964888,47.395348,53.970726,-12.540032,3.15241,-10.305039
16,-4.944740295410156,-3.4422199726104736,75.0776138305664,-0.616656457767244,4.893941455620118,1.7859076025509493,-17.329649,10.018771,27.99649,40.65276,-26.811092,3.1646256,-27.061071,-21.097334,-14.121107,61.867516,-20.450472,6.193644,-0.7614867,-4.2813196,7.656339,3.0593739,33.55494,-36.694458,54.446518,19.224962,0.11191272,-0.42220548,0.48167163,-25.993256,47.434147,53.98841,-12.515631,3.119997,-10.327473
17,-5.155474662780762,-3.6634035110473633,75.07244110107422,-0.6300482068416241,4.9330041477658035,1.7020705171718962,-17.649277,10.302179,27.9568,40.841476,-26.66583,3.0772054,-26.336882,-21.460886,-13.914634,61.705605,-20.620838,6.0778923,-0.63961434,-4.268251,7.607523,3.0496335,33.613422,-36.621716,54.465492,19.190245,0.123507224,-0.41242623,0.28943145,-26.023024,47.49319,53.986683,-12.570139,3.1155105,-10.320157
18,-5.365900993347168,-3.8907289505004883,75.06531524658203,-0.631045753930134,4.959491316508555,1.6252897651036273,-17.949972,10.569444,27.920412,41.012688,-26.514809,2.9861283,-25.5781,-21.846252,-13.757818,61.485176,-20.809057,5.950011,-0.520133,-4.265594,7.5728445,3.0167222,33.67037,-36.559345,54.48356,19.146133,0.13648334,-0.39690167,0.085749626,-26.055624,47.5868,53.973206,-12.672202,3.1252277,-10.290671
19,-5.57510232925415,-4.124609470367432,75.05933380126953,-0.6229246228907498,4.9788212734847175,1.552496582516581,-18.238234,10.825116,27.885956,41.170597,-26.357203,2.890667,-24.803497,-22.22738,-13.6229315,61.19709,-21.00826,5.833022,-0.4048392,-4.267766,7.5453935,2.9778664,33.723316,-36.492687,54.49121,19.109251,0.1482554,-0.37457043,-0.11543333,-26.089325,47.682076,53.943436,-12.783575,3.1373029,-10.261829
20,-5.785099983215332,-4.3469743728637695,75.05230712890625,-0.6091825840966624,4.996183183500134,1.4803497327486352,-18.520323,11.074008,27.851858,41.319843,-26.192713,2.7900143,-24.030994,-22.579208,-13.482152,60.831642,-21.211477,5.7496204,-0.29672256,-4.2692094,7.5218067,2.925182,33.772316,-36.43284,54.49478,19.069704,0.15607402,-0.34405467,-0.3170475,-26.123552,47.76581,53.89864,-12.844765,3.1396248,-10.256909
21,-6.000154972076416,-4.572894096374512,75.0429458618164,-0.5889756061696431,5.011032303284212,1.4107021581653727,-18.794939,11.313235,27.817572,41.4584,-26.020245,2.683792,-23.254156,-22.902086,-13.33904,60.384502,-21.4295,5.7148256,-0.1952433,-4.2700047,7.5031214,2.8784208,33.822037,-36.361588,54.472454,19.048935,0.15965834,-0.30654868,-0.51218206,-26.16245,47.828136,53.828545,-12.835699,3.128062,-10.284672
22,-6.20989465713501,-4.81131649017334,75.03436279296875,-0.5608602978374574,5.0212658133062105,1.344324270509062,-19.059752,11.541516,27.784231,41.58483,-25.840488,2.572502,-22.466333,-23.208284,-13.205155,59.86136,-21.661358,5.7135253,-0.09678977,-4.2720504,7.490147,2.8246334,33.867428,-36.289314,54.4379,19.039478,0.16024272,-0.26167813,-0.7025484,-26.202862,47.877846,53.73814,-12.787635,3.1091835,-10.331958
23,-6.420967102050781,-5.052789211273193,75.02365112304688,-0.5278017492091363,5.030004885217521,1.276409601533183,-19.319445,11.766093,27.752886,41.70446,-25.65486,2.4565728,-21.688154,-23.4839,-13.062892,59.270744,-21.884745,5.721659,-0.0005073565,-4.2745495,7.4782643,2.7625303,33.90541,-36.217674,54.401237,19.030853,0.15776618,-0.2080809,-0.893735,-26.241655,47.92216,53.641617,-12.72629,3.0877166,-10.388456
24,-6.6300482749938965,-5.288326263427734,75.0123291015625,-0.4929588505431482,5.040231201033385,1.2022161396638569,-19.581179,11.995922,27.72357,41.826733,-25.467285,2.3362765,-20.940374,-23.717419,-12.894163,58.622158,-22.077694,5.714992,0.108870804,-4.27646,7.4575896,2.6590626,33.91845,-36.18013,54.406178,19.005173,0.15217176,-0.14241952,-1.0840244,-26.25685,47.947906,53.570156,-12.689164,3.0672905,-10.444751
25,-6.8443803787231445,-5.532250881195068,75.0032958984375,-0.454077907481246,5.0527948442998,1.123267383232743,-19.843565,12.226156,27.695883,41.946075,-25.275,2.2100992,-20.226873,-23.902296,-12.681215,57.91515,-22.229002,5.689914,0.18184553,-4.281847,7.4428234,2.634008,33.9573,-36.052967,54.328453,19.002712,0.14188904,-0.0652417,-1.290418,-26.307007,48.015137,53.461235,-12.653481,3.050249,-10.494484
26,-7.054220199584961,-5.779924392700195,74.99034118652344,-0.4102621064169923,5.065891165988227,1.041055046152308,-20.10422,12.454788,27.669947,42.06108,-25.077963,2.0782177,-19.536974,-24.046692,-12.436532,57.147152,-22.353128,5.656722,0.2901682,-4.291692,7.4164624,2.5289502,33.96736,-36.00503,54.317226,18.975353,0.12798764,0.03088119,-1.4836434,-26.321577,48.03894,53.382465,-12.638554,3.030014,-10.5476885
27,-7.272419452667236,-6.030631065368652,74.9738998413086,-0.3678296095741413,5.079529427839142,0.9512482303325319,-20.366457,12.693233,27.646126,42.182186,-24.880764,1.9436978,-18.87087,-24.1596,-12.187231,56.32522,-22.46745,5.61233,0.35174504,-4.2946634,7.4019465,2.5082517,33.99707,-35.85804,54.22752,18.964401,0.112288944,0.11900668,-1.6989588,-26.369461,48.107555,53.27042,-12.61281,3.0160377,-10.601757
28,-7.48739767074585,-6.279409885406494,74.95537567138672,-0.3322847569847896,5.09359071899694,0.8488283327330343,-20.632921,12.952131,27.625933,42.317917,-24.686893,1.8097271,-18.229263,-24.251488,-11.95931,55.45561,-22.590586,5.5545893,0.45401433,-4.289946,7.378272,2.4213424,34.006134,-35.791225,54.202366,18.908587,0.09747757,0.19087155,-1.8850783,-26.38645,48.120247,53.185463,-12.611097,3.0074565,-10.663407
29,-7.699687957763672,-6.539383411407471,74.9385986328125,-0.3035748127801251,5.108854520337854,0.7305142869948799,-20.904415,13.233196,27.613651,42.471695,-24.49819,1.6789565,-17.616976,-24.319315,-11.747613,54.53293,-22.727299,5.475075,0.5241209,-4.2690806,7.370191,2.4075532,34.026764,-35.6328,54.111336,18.850298,0.08095398,0.22854078,-2.086198,-26.434341,48.15916,53.07633,-12.61094,3.0136068,-10.739375
30,-7.9215593338012695,-6.798830032348633,74.91448974609375,-0.2789747239503117,5.125165974352039,0.5993737513138772,-21.179691,13.530808,27.607395,42.63803,-24.312206,1.5492681,-17.03248,-24.36043,-11.540515,53.556858,-22.869726,5.3771234,0.62062,-4.241461,7.356634,2.3657057,34.035706,-35.50851,54.045708,18.761927,0.062997736,0.24917813,-2.2655773,-26.467052,48.160713,52.9802,-12.632875,3.027862,-10.829358
31,-8.139815330505371,-7.0647687911987305,74.88844299316406,-0.26178975364718127,5.140838557612676,0.46049159957719915,-21.459875,13.847116,27.597376,42.81759,-24.128584,1.4172244,-16.469439,-24.379711,-11.356399,52.545734,-23.010138,5.2775054,0.7236326,-4.2062306,7.3395443,2.313183,34.037346,-35.403233,53.999187,18.665865,0.048010796,0.26510578,-2.4410083,-26.488121,48.150055,52.894493,-12.6496525,3.0415168,-10.908732
32,-8.362113952636719,-7.339580535888672,74.8624038696289,-0.2556444574777359,5.153810194573103,0.31957497982668626,-21.744429,14.182648,27.573246,43.00651,-23.944407,1.2794064,-15.919937,-24.38289,-11.214963,51.5147,-23.139172,5.1948447,0.81299317,-4.161644,7.323932,2.2637906,34.03593,-35.30487,53.965805,18.582527,0.040383413,0.2887232,-2.6193337,-26.507866,48.139748,52.801952,-12.644438,3.0469713,-10.951857
33,-8.583714485168457,-7.622130870819092,74.83507537841797,-0.2636585139118721,5.1664887422292685,0.17715325784587305,-22.04145,14.541899,27.530394,43.212234,-23.763258,1.1361519,-15.385905,-24.367645,-11.122944,50.454163,-23.264565,5.12646,0.8923647,-4.1062756,7.3032093,2.2201917,34.032024,-35.21852,53.94708,18.51217,0.04427966,0.32906404,-2.7904294,-26.523436,48.1076,52.696465,-12.616971,3.0413198,-10.937283
34,-8.807589530944824,-7.911500930786133,74.80513763427734,-0.28371890829206386,5.178393072838051,0.030677508623949544,-22.347593,14.922591,27.474195,43.431824,-23.58378,0.98917186,-14.868915,-24.330025,-11.070039,49.35818,-23.386787,5.0677385,0.9638692,-4.0394588,7.2847414,2.1954215,34.0245,-35.11918,53.923756,18.464588,0.057126973,0.37683985,-2.9611173,-26.541023,48.05841,52.57923,-12.573942,3.0301862,-10.881022
35,-9.025837898254395,-8.201889991760254,74.77628326416016,-0.3101109838490153,5.185378992185675,-0.1200979184027468,-22.65156,15.317851,27.410389,43.655464,-23.401747,0.83678967,-14.367002,-24.27152,-11.0486555,48.250263,-23.48738,5.0354943,1.0399952,-3.9685242,7.261734,2.1478226,34.017902,-35.0665,53.930607,18.405546,0.07191895,0.42021593,-3.12157,-26.550514,48.01774,52.46943,-12.516834,3.0140939,-10.823731
36,-9.251944541931152,-8.497675895690918,74.74666595458984,-0.33862476412718195,5.1814280900820044,-0.27442030379490323,-22.940441,15.721577,27.343504,43.873627,-23.21286,0.6770466,-13.874725,-24.195911,-11.05273,47.154774,-23.548464,5.0472527,1.1187822,-3.893547,7.2513833,2.0989873,34.00912,-35.023823,53.93889,18.377472,0.084698826,0.4467848,-3.275596,-26.560156,48.000767,52.362083,-12.465292,2.9981766,-10.795737
37,-9.473472595214844,-8.80487060546875,74.71354675292969,-0.38085392750921127,5.163805955782016,-0.43483347940500855,-23.213629,16.147654,27.267962,44.09183,-23.019575,0.5072028,-13.4098215,-24.099813,-11.092161,46.10992,-23.569868,4.9498577,1.2081943,-3.803613,7.2467756,2.0405068,34.003193,-35.020473,53.959045,18.367434,0.0935424,0.449631,-3.421375,-26.566162,48.02224,52.273125,-12.4062395,2.9764214,-10.812401
38,-9.695436477661133,-9.109773635864258,74.68254852294922,-0.43570511421545466,5.135365592567022,-0.600895959910449,-23.477226,16.595043,27.182844,44.312584,-22.823097,0.32885772,-12.968102,-23.97983,-11.167396,45.09212,-23.560963,4.7902646,1.296663,-3.6980047,7.247903,1.9822762,33.9949,-35.035458,53.987988,18.37952,0.101891786,0.43697965,-3.565632,-26.573017,48.079834,52.192444,-12.335467,2.9504528,-10.853484
39,-9.917496681213379,-9.427629470825195,74.65214538574219,-0.4764245827143794,5.1020296105766505,-0.7670823071086832,-23.730188,17.032413,27.101505,44.52181,-22.616674,0.14735916,-12.51242,-23.836172,-11.259138,44.02213,-23.506542,4.88436,1.3756578,-3.6066625,7.2447352,1.9232479,33.98356,-35.06292,54.03129,18.394474,0.10889027,0.42009702,-3.7101834,-26.5794,48.177235,52.119415,-12.248194,2.9292865,-10.908936
40,-10.142773628234863,-9.751991271972656,74.6175537109375,-0.47495963672824953,5.068064905730443,-0.9298234793030535,-23.968224,17.427362,27.040493,44.703953,-22.39374,-0.0319664,-12.0035095,-23.672178,-11.345642,42.81615,-23.381472,5.546821,1.445137,-3.5589433,7.240438,1.8631229,33.96528,-35.084835,54.07755,18.413488,0.11967284,0.40719134,-3.8428953,-26.584015,48.28742,52.037994,-12.175679,2.9227679,-10.96593
41,-10.36715030670166,-10.086331367492676,74.57270812988281,-0.40789551378811517,5.034884634563066,-1.0876373994764028,-24.18863,17.757673,27.013472,44.860058,-22.15632,-0.20523329,-11.375149,-23.489357,-11.412088,41.322773,-23.082422,7.151602,1.5276287,-3.5880296,7.2422266,1.8003765,33.957695,-35.10151,54.108532,18.45664,0.13562095,0.39335716,-3.9412618,-26.583849,48.36842,51.92919,-12.134448,2.9385204,-11.028201
42,-10.600268363952637,-10.435370445251465,74.5139389038086,-0.29305489679551405,5.0005405656769595,-1.242468848777228,-24.392258,18.042036,27.011395,44.994896,-21.906284,-0.37535584,-10.663816,-23.283424,-11.474624,39.617386,-22.627337,9.431968,1.6097535,-3.670695,7.2455153,1.7387526,33.955162,-35.117702,54.13636,18.515371,0.15402576,0.3769917,-4.0210347,-26.581743,48.451996,51.80696,-12.103781,2.969697,-11.100417
43,-10.832775115966797,-10.787212371826172,74.45834350585938,-0.1649380666048136,4.963901509554785,-1.3959240311943044,-24.58013,18.310936,27.016598,45.100143,-21.636856,-0.54723305,-9.984271,-23.054432,-11.557924,37.958054,-22.18533,11.7395525,1.659428,-3.7652752,7.2388244,1.697967,33.950794,-35.12274,54.1642,18.553997,0.17284861,0.36641777,-4.1237473,-26.569233,48.606308,51.71205,-12.054979,3.0034862,-11.172035
44,-11.069204330444336,-11.142958641052246,74.41057586669922,-0.05971063992854671,4.923025792386576,-1.5487241050411154,-24.755468,18.596418,27.008373,45.16988,-21.341925,-0.726209,-9.452661,-22.809565,-11.689017,36.614628,-21.953796,13.429877,1.7145398,-3.8323681,7.2498956,1.6556113,33.94928,-35.11824,54.17504,18.578318,0.18855676,0.36305943,-4.226464,-26.551914,48.726326,51.630642,-12.042559,3.020008,-11.211141
45,-11.304647445678711,-11.49467658996582,74.37675476074219,0.026211047507591845,4.877752974955152,-1.7059164981509018,-24.916048,18.898018,26.994394,45.20513,-21.021307,-0.91165185,-9.105842,-22.571072,-11.904165,35.681976,-22.070774,14.274991,1.7785391,-3.874562,7.2718525,1.6019537,33.949635,-35.124134,54.18006,18.571318,0.20485112,0.36589745,-4.3225846,-26.536703,48.819176,51.560207,-12.065713,3.0069969,-11.200612
46,-11.547379493713379,-11.85113525390625,74.34480285644531,0.1064145693800758,4.828976656094185,-1.8650525377001501,-25.06335,19.203106,26.979448,45.21073,-20.67845,-1.1015885,-8.885144,-22.334719,-12.177728,35.02351,-22.426682,14.6364765,1.847854,-3.9062436,7.304461,1.5364815,33.950764,-35.13926,54.1813,18.541405,0.22170337,0.37368062,-4.415093,-26.527065,48.894,51.497364,-12.115175,2.9748342,-11.154861
47,-11.799020767211914,-12.207417488098145,74.31535339355469,0.15785632432588614,4.776275440566579,-2.016710176449836,-25.206264,19.527372,26.938372,45.184185,-20.311472,-1.2993779,-8.753953,-22.06476,-12.447545,34.543037,-22.84504,14.757381,1.883282,-3.904836,7.334262,1.495824,33.948895,-35.1312,54.176315,18.48838,0.23132774,0.39462486,-4.5371976,-26.491438,49.017395,51.4765,-12.156316,2.9488287,-11.116285
48,-12.055419921875,-12.577229499816895,74.2982177734375,0.15786722820423757,4.718890998411151,-2.1510931361299126,-25.353872,19.886312,26.844213,45.12203,-19.917479,-1.5096309,-8.674443,-21.72577,-12.653349,34.144936,-23.146515,14.882141,1.914074,-3.8451133,7.3883853,1.4497504,33.942604,-35.10629,54.160786,18.430655,0.22484031,0.43176654,-4.648007,-26.462471,49.10759,51.437893,-12.211169,2.9501448,-11.106009
49,-12.315807342529297,-12.94135570526123,74.30010986328125,0.09547086752142907,4.651157226492958,-2.2648061327071325,-25.5065,20.286245,26.684322,45.022266,-19.490725,-1.7390261,-8.637898,-21.289434,-12.765838,33.80872,-23.277643,15.000033,1.9153999,-3.7127097,7.467105,1.3977764,33.92773,-35.06086,54.14671,18.345707,0.1901752,0.4845972,-4.7655725,-26.43261,49.1998,51.391487,-12.27494,3.0014071,-11.146186
50,-12.585517883300781,-13.301952362060547,74.3119125366211,-0.02441801185922763,4.576917992761996,-2.3666078013550034,-25.669329,20.729342,26.468788,44.893734,-19.036053,-1.9853365,-8.663273,-20.769548,-12.819916,33.579994,-23.334057,15.000033,1.9125826,-3.5155532,7.564934,1.3398919,33.91046,-35.006706,54.12523,18.242376,0.13540247,0.5503316,-4.8739715,-26.413494,49.2762,51.32766,-12.3487425,3.0853076,-11.214961
51,-12.850132942199707,-13.674704551696777,74.33138275146484,-0.17314733055524176,4.503614600120851,-2.453715005043172,-25.837488,21.183537,26.220785,44.724987,-18.558136,-2.2320268,-8.751498,-20.228071,-12.858347,33.47755,-23.368069,15.000033,1.8643619,-3.2771337,7.665445,1.313264,33.864723,-34.899292,54.10368,18.148712,0.08031223,0.63919747,-5.0161524,-26.37881,49.39188,51.299088,-12.406603,3.1663413,-11.29033
52,-13.121320724487305,-14.048567771911621,74.35691833496094,-0.33136427354026815,4.44142406091701,-2.5276457835204873,-26.012314,21.631292,25.959057,44.51335,-18.06477,-2.4657025,-8.909821,-19.701576,-12.91568,33.5148,-23.429363,15.000033,1.8124354,-3.027551,7.765354,1.2873329,33.81201,-34.79895,54.08116,18.055914,0.04720083,0.7547924,-5.1366234,-26.350323,49.485905,51.25959,-12.448016,3.2099576,-11.34444
53,-13.401894569396973,-14.430368423461914,74.39111328125,-0.5466793989260053,4.400406213004249,-2.600433179977828,-26.234152,22.132868,25.644308,44.2893,-17.543459,-2.662893,-9.1652,-19.108315,-12.99386,33.705845,-23.50957,14.804523,1.7527348,-2.7182925,7.8569326,1.2769083,33.74567,-34.678574,54.05253,17.958612,0.04360171,0.92071694,-5.2553954,-26.327757,49.58078,51.220745,-12.446769,3.1978958,-11.370201
54,-13.681814193725586,-14.821754455566406,74.43394470214844,-0.8077446861096935,4.371885376944335,-2.6656780669161537,-26.487202,22.669218,25.281849,44.038506,-16.992445,-2.8374004,-9.511054,-18.450996,-13.072504,34.043015,-23.590382,14.376962,1.6839412,-2.3618693,7.9513464,1.2766807,33.676033,-34.54533,54.012108,17.850422,0.05759526,1.1250736,-5.366261,-26.314976,49.66851,51.171432,-12.417704,3.1518126,-11.380795
55,-13.968043327331543,-15.216361999511719,74.47686004638672,-1.0653987728031458,4.35065858863008,-2.7210746964824826,-26.727757,23.189207,24.926088,43.734947,-16.45022,-3.0467587,-9.904634,-17.798689,-13.150482,34.457592,-23.679255,13.871397,1.5970339,-2.0039032,8.040083,1.3007079,33.582706,-34.390648,53.970062,17.780014,0.079680406,1.327441,-5.471088,-26.306282,49.763306,51.125004,-12.388036,3.0965424,-11.383647
56,-14.261433601379395,-15.607444763183594,74.52012634277344,-1.2715106009176915,4.3323794843223125,-2.7647860627740295,-26.907969,23.644156,24.633173,43.349407,-15.952423,-3.3496263,-10.305371,-17.205637,-13.219454,34.883812,-23.787672,13.351225,1.5092548,-1.7020612,8.121527,1.3451402,33.485535,-34.247875,53.917194,17.76861,0.10234734,1.4822142,-5.5388064,-26.300665,49.83419,51.06464,-12.400968,3.055974,-11.384637
57,-14.546478271484375,-16.006412506103516,74.56338500976562,-1.4062311631718474,4.319282847907262,-2.8014805569237584,-27.002691,24.015532,24.429071,42.857113,-15.485428,-3.7784126,-10.72608,-16.692352,-13.260831,35.343636,-23.930727,12.808196,1.4190934,-1.4778318,8.192033,1.4316901,33.384857,-34.099846,53.84143,17.8538,0.131341,1.5913988,-5.5668597,-26.295248,49.881554,50.993668,-12.486574,3.0365503,-11.394702
58,-14.823558807373047,-16.40702247619629,74.60420989990234,-1.4973234218756293,4.312915196884171,-2.8304553046225873,-27.03666,24.332897,24.281536,42.27855,-15.038194,-4.296859,-11.178991,-16.22877,-13.284235,35.860214,-24.100632,12.215732,1.3244948,-1.30154,8.254286,1.5578437,33.280704,-33.93942,53.74097,18.01345,0.16889629,1.6731895,-5.568703,-26.288845,49.915737,50.91813,-12.61333,3.025156,-11.40766
59,-15.095954895019531,-16.816715240478516,74.6468505859375,-1.5674442809718676,4.307527486849456,-2.8421347752954813,-27.038206,24.621128,24.161602,41.657433,-14.653661,-4.8597894,-11.62291,-15.790564,-13.322787,36.372555,-24.277115,11.609604,1.2317541,-1.1582526,8.317264,1.6968231,33.20667,-33.80522,53.606884,18.172842,0.20200327,1.7040075,-5.537652,-26.282507,49.91965,50.823338,-12.744423,3.016275,-11.404206
60,-15.378318786621094,-17.2259464263916,74.6837158203125,-1.6405463737416903,4.297510592400155,-2.8266705569494186,-27.036987,24.905895,24.037771,41.035885,-14.372022,-5.422353,-12.014331,-15.3513155,-13.409298,36.81317,-24.43602,11.024979,1.111785,-1.0068066,8.378343,1.8119806,33.103737,-33.694298,53.504627,18.296413,0.21451862,1.6729463,-5.513702,-26.271181,49.938156,50.74373,-12.821263,3.0059023,-11.366301
61,-15.658974647521973,-17.64073944091797,74.72142791748047,-1.7147642419328901,4.273280331068117,-2.783532665796432,-27.016514,25.191313,23.919495,40.412186,-14.219896,-5.995301,-12.343803,-14.911186,-13.544352,37.181377,-24.582684,10.454921,0.991072,-0.86404556,8.453072,1.8883411,33.01891,-33.658348,53.407036,18.327888,0.20221029,1.5478901,-5.469508,-26.257044,49.92721,50.647003,-12.838512,2.9915824,-11.2668295
62,-15.938374519348145,-18.060388565063477,74.75569915771484,-1.7804097919411337,4.240436171081728,-2.7173300739168647,-26.966702,25.467388,23.82003,39.76709,-14.1710005,-6.5935345,-12.6324215,-14.4810095,-13.711983,37.505264,-24.726294,9.885503,0.8662149,-0.740884,8.537865,1.9639465,32.959427,-33.659836,53.285236,18.313808,0.17314842,1.3444854,-5.4064755,-26.241695,49.894424,50.533905,-12.818108,2.9761105,-11.122897
63,-16.218814849853516,-18.47501564025879,74.7886962890625,-1.8476548730461544,4.216564031693839,-2.6260950772201386,-26.92815,25.738098,23.717577,39.121246,-14.190423,-7.1781006,-12.891113,-14.056366,-13.919668,37.77562,-24.855906,9.343579,0.7260134,-0.62578976,8.616217,2.0536788,32.941753,-33.67519,53.126442,18.282877,0.13497075,1.1067132,-5.3270335,-26.23393,49.8634,50.40776,-12.772335,2.9614363,-10.981744
64,-16.49921989440918,-18.895389556884766,74.81985473632812,-1.9267901217769299,4.218889490025504,-2.5078547845134143,-26.941954,26.00642,23.588617,38.494034,-14.24154,-7.7112603,-13.1303835,-13.632197,-14.175442,37.98027,-24.957214,8.856457,0.5961787,-0.49446025,8.657281,2.090367,32.909332,-33.737774,53.019966,18.280884,0.09359874,0.889927,-5.2187037,-26.214312,49.809357,50.313324,-12.736368,2.9468062,-10.888106
65,-16.77952766418457,-19.308040618896484,74.84554290771484,-2.0218186323060214,4.252764394309575,-2.3559616568069597,-27.02435,26.273933,23.422558,37.893093,-14.326963,-8.184033,-13.348922,-13.207131,-14.492313,38.109753,-25.026386,8.436039,0.4586169,-0.3462332,8.6518545,2.1011977,32.884174,-33.841904,52.935036,18.320078,0.043094907,0.6777497,-5.0820146,-26.188648,49.755543,50.244812,-12.704327,2.9349833,-10.871424
66,-17.053943634033203,-19.72754669189453,74.86807250976562,-2.1264680117157937,4.308796356189107,-2.1736954660063694,-27.151457,26.539045,23.233452,37.30643,-14.461059,-8.616277,-13.543843,-12.783524,-14.861574,38.169758,-25.067919,8.066684,0.31554118,-0.19014683,8.615951,2.0772645,32.8704,-33.99698,52.871822,18.368975,-0.017791515,0.4531343,-4.9254575,-26.15583,49.70029,50.195713,-12.661922,2.9244916,-10.901412
67,-17.317134857177734,-20.142581939697266,74.89048767089844,-2.2358368522857863,4.38209893849199,-1.973534488928105,-27.30766,26.797253,23.033777,36.727047,-14.625927,-9.014619,-13.728961,-12.365448,-15.258478,38.183064,-25.086063,7.735526,0.17463762,-0.03050102,8.560011,2.0360487,32.864418,-34.16401,52.825554,18.414791,-0.07377411,0.25929394,-4.749653,-26.115261,49.636024,50.16615,-12.62011,2.91253,-10.939443
68,-17.572420120239258,-20.562938690185547,74.9126968383789,-2.345104422493967,4.4680752463403195,-1.7677528307407657,-27.475725,27.04278,22.835295,36.14265,-14.800046,-9.386461,-13.915479,-11.955047,-15.658251,38.168274,-25.083113,7.4284825,0.017091997,0.1346585,8.503135,2.0370398,32.8619,-34.249073,52.757816,18.466282,-0.10965381,0.1382108,-4.579927,-26.094084,49.601437,50.1386,-12.559332,2.8987446,-10.946052
69,-17.83454704284668,-20.963821411132812,74.93366241455078,-2.455715520888926,4.574491841756943,-1.553171220745974,-27.667837,27.26391,22.619219,35.536003,-14.978894,-9.739723,-14.106494,-11.550616,-16.065275,38.112892,-25.051788,7.15533,-0.116849445,0.3017435,8.427035,1.9952757,32.85343,-34.33787,52.746643,18.491373,-0.11708058,0.11804387,-4.394858,-26.066813,49.552338,50.132153,-12.488099,2.880486,-10.911722
70,-18.08846664428711,-21.36322784423828,74.95228576660156,-2.569084280903354,4.700780208178327,-1.3250749845805154,-27.887909,27.465437,22.3858,34.916695,-15.171794,-10.069497,-14.295877,-11.151643,-16.48896,38.01148,-24.992737,6.9188495,-0.2520871,0.47631735,8.333122,1.9375826,32.835407,-34.408993,52.768566,18.511772,-0.10451811,0.17204687,-4.2097044,-26.037996,49.51463,50.149185,-12.400497,2.8610823,-10.85672
71,-18.34011459350586,-21.75814437866211,74.96853637695312,-2.680377640193508,4.8295318763388755,-1.095296093146948,-28.106934,27.666935,22.179678,34.31672,-15.380479,-10.364828,-14.484146,-10.764638,-16.91176,37.89909,-24.922964,6.6960998,-0.38995785,0.65452665,8.241555,1.9130738,32.81847,-34.426865,52.768696,18.53392,-0.085694626,0.26077655,-4.0160065,-26.022339,49.489014,50.177017,-12.3078375,2.8377805,-10.789226
72,-18.5955810546875,-22.133953094482422,74.98377990722656,-2.7850246775714367,4.943537789505795,-0.8753784692553251,-28.297432,27.887306,22.043688,33.767765,-15.6058855,-10.6154995,-14.669008,-10.393886,-17.31543,37.806866,-24.857798,6.462804,-0.5004457,0.8376759,8.15591,1.8719556,32.755722,-34.441307,52.803764,18.545778,-0.07440133,0.35555264,-3.8166053,-25.991293,49.454205,50.271366,-12.225375,2.8049119,-10.718839
73,-18.841896057128906,-22.497142791748047,74.9959716796875,-2.889209419293419,5.043733661656166,-0.6652229977902566,-28.464548,28.122189,21.951258,33.23585,-15.873413,-10.803716,-14.8502035,-10.033638,-17.703218,37.73699,-24.797754,6.2151313,-0.60814935,1.0329084,8.087359,1.8782818,32.67548,-34.38376,52.81005,18.55422,-0.0796778,0.45350966,-3.605277,-25.973299,49.413975,50.393536,-12.14057,2.7534626,-10.644335
74,-19.082178115844727,-22.85519027709961,75.00558471679688,-2.9932001173443505,5.1375465806045595,-0.459563555479759,-28.61981,28.361853,21.892097,32.71649,-16.1727,-10.942643,-15.026632,-9.682892,-18.082403,37.67271,-24.734993,5.9647055,-0.70676255,1.2389369,8.027574,1.9089515,32.576122,-34.276173,52.807716,18.56052,-0.09253297,0.57062715,-3.3850608,-25.969992,49.371418,50.542294,-12.044884,2.6883214,-10.5614395
75,-19.319581985473633,-23.199979782104492,75.00972747802734,-3.0825841141950843,5.217915265559681,-0.26181182769336403,-28.749218,28.620457,21.933691,32.296013,-16.456034,-11.068109,-15.20097,-9.355915,-18.441826,37.6288,-24.678898,5.7117696,-0.7912554,1.4365709,7.9800444,1.9415915,32.460785,-34.164314,52.801834,18.555593,-0.098913714,0.68968827,-3.1576717,-25.980312,49.348194,50.714382,-11.964266,2.6308086,-10.47434
76,-19.540908813476562,-23.5340633392334,75.01045989990234,-3.1433933660826483,5.277733362571206,-0.07529414599972896,-28.839977,28.913996,22.140894,32.064186,-16.676878,-11.213429,-15.374208,-9.065547,-18.76982,37.615837,-24.636423,5.455578,-0.854783,1.6054138,7.946132,1.9696954,32.33547,-34.08153,52.78418,18.543123,-0.08452922,0.79300046,-2.9257705,-26.001873,49.36525,50.91197,-11.925007,2.601846,-10.387275
77,-19.76532554626465,-23.862524032592773,75.01202392578125,-3.171233438906086,5.314687895949452,0.09999554331957344,-28.879906,29.269958,22.587463,32.00524,-16.822403,-11.409097,-15.552184,-8.818771,-19.061745,37.649544,-24.615742,5.1960173,-0.89464486,1.7379019,7.928758,1.9918839,32.203377,-34.03213,52.746708,18.501919,-0.03217726,0.88713753,-2.6982057,-26.032444,49.440945,51.14686,-11.934733,2.6132333,-10.314474
78,-19.988906860351562,-24.176109313964844,75.0210952758789,-3.173903235229393,5.332745109106092,0.2656732668259399,-28.874756,29.673807,23.221886,32.085606,-16.91694,-11.627534,-15.732585,-8.607925,-19.3247,37.721626,-24.611698,4.933513,-0.9146368,1.8441619,7.9253798,2.0169544,32.06462,-33.996483,52.689804,18.439667,0.046222143,0.9772789,-2.4727414,-26.070757,49.55983,51.418274,-11.9791155,2.6513057,-10.249626
79,-20.211572647094727,-24.49764633178711,75.02938842773438,-3.1564084764161753,5.334496916590991,0.421094852365642,-28.848429,30.084862,23.911911,32.388313,-16.980774,-11.810845,-15.903559,-8.422522,-19.563953,37.803,-24.60978,4.6673756,-0.914799,1.930208,7.9308686,2.051729,31.921768,-33.974422,52.61661,18.40257,0.12115587,1.043526,-2.2517269,-26.11587,49.71084,51.716404,-12.027467,2.6985745,-10.166351
80,-20.428062438964844,-24.80628204345703,75.04144287109375,-3.1236778576920554,5.3224275888581,0.5652221736838893,-28.821447,30.46391,24.527569,32.98756,-17.03266,-11.901579,-16.05372,-8.252388,-19.78531,37.865875,-24.59578,4.397584,-0.9033248,2.0022435,7.9438896,2.0619664,31.780107,-34.003784,52.563133,18.392323,0.16299734,1.0663203,-2.0217671,-26.165653,49.86419,52.01652,-12.077174,2.7382598,-10.0382395
81,-20.63599395751953,-25.11277198791504,75.06050109863281,-3.073071308212631,5.292601942868381,0.6967603932936626,-28.788849,30.822495,25.092186,33.935925,-17.053694,-11.89731,-16.17962,-8.100709,-19.986637,37.910473,-24.567863,4.1203694,-0.8659555,2.056596,7.969392,2.0543,31.643476,-34.091236,52.517086,18.435463,0.1569931,1.0339648,-1.8003865,-26.219515,50.040028,52.34068,-12.057415,2.7604122,-9.862495
82,-20.841276168823242,-25.409317016601562,75.07984161376953,-3.004277908986648,5.243890251165202,0.8154781005239747,-28.733467,31.177097,25.658522,35.17232,-17.038906,-11.821442,-16.28674,-7.969099,-20.165398,37.950474,-24.533434,3.8366928,-0.8054482,2.0913427,8.007901,2.0356452,31.512861,-34.22593,52.470375,18.510706,0.12118056,0.9587235,-1.5776563,-26.276808,50.232624,52.68667,-12.009253,2.776055,-9.651917
83,-21.05030059814453,-25.702634811401367,75.10360717773438,-2.926230956397191,5.183381747672778,0.9219458892834684,-28.660076,31.49189,26.139793,36.59736,-17.027414,-11.6605215,-16.375011,-7.845981,-20.327566,37.972813,-24.490652,3.5541866,-0.7302444,2.115076,8.048793,2.0223944,31.38692,-34.374363,52.418125,18.613577,0.07576624,0.8558629,-1.3584263,-26.338142,50.438824,53.03405,-12.000194,2.7976549,-9.403453
84,-21.250743865966797,-25.981786727905273,75.13374328613281,-2.846952833547642,5.118689966856582,1.0171296872718452,-28.577116,31.725817,26.449665,38.109108,-17.055223,-11.404531,-16.445057,-7.7204313,-20.479036,37.964912,-24.437075,3.2806067,-0.6517061,2.1360526,8.082232,2.0194566,31.26384,-34.512375,52.364895,18.728865,0.040724624,0.7413998,-1.1540967,-26.405853,50.662537,53.36581,-12.093053,2.8370233,-9.1143
85,-21.44535255432129,-26.262470245361328,75.16392517089844,-2.7658061995099543,5.046016822387082,1.103354513496969,-28.5069,31.84542,26.514374,39.730633,-17.152586,-11.004576,-16.489256,-7.594009,-20.621944,37.92269,-24.373098,3.0190034,-0.5695859,2.1541312,8.107711,2.0436118,31.142092,-34.625366,52.299816,18.88783,0.016473167,0.59604883,-0.9539495,-26.481571,50.90199,53.678036,-12.351571,2.9031303,-8.7574215
86,-21.629112243652344,-26.53402328491211,75.19583129882812,-2.679958263620249,4.9627876878821215,1.1791417902652956,-28.439314,31.864807,26.402592,41.48476,-17.280167,-10.49297,-16.510576,-7.4704995,-20.752632,37.855045,-24.30021,2.7648048,-0.48733914,2.1671324,8.135009,2.0392807,31.024422,-34.772144,52.261387,19.03684,-0.0067988103,0.42046437,-0.76575065,-26.566372,51.166096,53.9795,-12.723902,2.9859214,-8.343034
87,-21.818750381469727,-26.798009872436523,75.2281723022461,-2.591904580605122,4.879490678080004,1.2405499043693715,-28.337313,31.816338,26.239895,43.2769,-17.376047,-9.97986,-16.524908,-7.3455257,-20.86845,37.767254,-24.217566,2.5148752,-0.4005676,2.1776419,8.155491,2.0423236,30.908451,-34.91008,52.220497,19.179083,-0.022781927,0.25632522,-0.58804667,-26.660032,51.433018,54.257225,-13.123364,3.06918,-7.922145
88,-21.993637084960938,-27.059783935546875,75.26724243164062,-2.5051096712942775,4.806710786114419,1.2841860958849427,-28.166557,31.743532,26.146006,45.024666,-17.389475,-9.568845,-16.549181,-7.214154,-20.967102,37.66647,-24.125841,2.2661152,-0.3161861,2.1897063,8.164317,2.0528173,30.79272,-35.027134,52.176876,19.277565,-0.025505006,0.1462998,-0.4222241,-26.761133,51.683228,54.495056,-13.471066,3.1390023,-7.5467677
89,-22.1716251373291,-27.316423416137695,75.3003921508789,-2.416693708140991,4.747167478000936,1.3024244046630167,-27.90851,31.648834,26.141514,46.714355,-17.28226,-9.316649,-16.585459,-7.0766635,-21.041443,37.547443,-24.019958,2.02223,-0.21445495,2.2021005,8.150622,2.1677454,30.66963,-35.03106,52.057846,19.421198,-0.0075274007,0.1070646,-0.26889744,-26.868927,51.926247,54.69679,-13.74683,3.2044888,-7.2202053
90,-22.338943481445312,-27.564044952392578,75.3414306640625,-2.3253878365230927,4.695669124066135,1.2997984334115242,-27.587704,31.51111,26.165115,48.39167,-17.094479,-9.159135,-16.626736,-6.9363527,-21.095097,37.41092,-23.90262,1.7835141,-0.11991046,2.2142317,8.12713,2.2680645,30.543901,-35.03445,51.958015,19.503122,0.025431871,0.11634856,-0.13503373,-26.983566,52.17241,54.867275,-14.007944,3.2702477,-6.919115
91,-22.511388778686523,-27.818042755126953,75.38005065917969,-2.237001646003983,4.651184292635969,1.29097200341464,-27.22956,31.34626,26.211342,50.063477,-16.896235,-9.011955,-16.672432,-6.790805,-21.14206,37.265163,-23.78229,1.541646,-0.03281588,2.2280056,8.0957155,2.365185,30.417604,-35.029945,51.86269,19.559511,0.06285967,0.15057251,-0.018560076,-27.104124,52.405163,55.008995,-14.217978,3.3146737,-6.653423
92,-22.68423080444336,-28.0600643157959,75.41436004638672,-2.1574312989688527,4.612439622576855,1.2904648956204754,-26.85812,31.173054,26.275574,51.736477,-16.75619,-8.788276,-16.721884,-6.63744,-21.196676,37.119144,-23.667948,1.2883793,0.02196475,2.2457705,8.068275,2.3627546,30.300364,-35.10596,51.84103,19.50643,0.093404956,0.18823904,0.08278242,-27.22898,52.601612,55.11564,-14.3716345,3.3174403,-6.4337683
93,-22.859590530395508,-28.310161590576172,75.44528198242188,-2.0891516819185063,4.579897989941011,1.2985731004499113,-26.490236,30.9952,26.328554,53.437828,-16.692375,-8.440447,-16.773619,-6.4709334,-21.26027,36.9662,-23.559786,1.0198103,0.07987439,2.2665563,8.026675,2.4601521,30.186073,-35.07584,51.733875,19.552553,0.1235454,0.22021338,0.19930753,-27.356333,52.732758,55.18232,-14.454274,3.2556868,-6.257015
94,-23.02638053894043,-28.55007553100586,75.47562408447266,-2.0287888722361402,4.5541185595801705,1.3086967915518066,-26.110287,30.807184,26.380264,55.159817,-16.668413,-8.019433,-16.82893,-6.293973,-21.326046,36.806065,-23.45479,0.7410882,0.12098524,2.2895663,7.9801383,2.5588317,30.080015,-35.028957,51.620266,19.579752,0.15549836,0.260211,0.30384383,-27.48653,52.83421,55.21598,-14.475231,3.147287,-6.120504
95,-23.179950714111328,-28.794971466064453,75.5017318725586,-1.9731197383755952,4.5327928294449675,1.324906561357896,-25.688095,30.61431,26.485168,56.84814,-16.672981,-7.583931,-16.888113,-6.11528,-21.396395,36.650963,-23.354565,0.45705035,0.14630862,2.312379,7.929454,2.6769106,29.98318,-34.967735,51.491005,19.612326,0.17593932,0.30824795,0.40875283,-27.617085,52.888813,55.214783,-14.457834,3.0304518,-6.030118
96,-23.347501754760742,-29.04235076904297,75.5231704711914,-1.9189446866003277,4.513748624684346,1.3512324089504903,-25.197638,30.425447,26.69436,58.45842,-16.695986,-7.1911345,-16.953007,-5.9439425,-21.473135,36.516254,-23.262007,0.17256592,0.14894444,2.3328118,7.8806767,2.780965,29.898937,-34.939842,51.377274,19.621687,0.17091629,0.3655204,0.5062117,-27.745237,52.901337,55.185383,-14.411005,2.9430091,-5.9926696
97,-23.514137268066406,-29.27031898498535,75.54508972167969,-1.8654980937399863,4.4963140484708575,1.3893823639453393,-24.627441,30.25595,27.028294,60.000504,-16.731518,-6.844035,-17.020195,-5.7805266,-21.556837,36.399384,-23.17442,-0.11438404,0.12558477,2.3502529,7.8324814,2.8744307,29.829348,-34.94764,51.27546,19.598028,0.12222593,0.444976,0.6077958,-27.867977,52.85494,55.116238,-14.345709,2.8969395,-6.0226345
98,-23.66938018798828,-29.515296936035156,75.55948638916016,-1.8146589655255654,4.481516316659475,1.4367442915328046,-23.990995,30.103176,27.45404,61.4973,-16.791628,-6.509399,-17.090637,-5.6213512,-21.64703,36.2973,-23.093494,-0.40481275,0.084246,2.3650117,7.7825203,2.9741616,29.774487,-34.968826,51.16863,19.561327,0.04219254,0.5414321,0.7044333,-27.984243,52.763268,55.01646,-14.240797,2.8708389,-6.112514
99,-23.81971549987793,-29.750728607177734,75.56925964355469,-1.766966549185614,4.469754681583195,1.4912767115417478,-23.3026,29.945105,27.936897,62.92009,-16.891054,-6.193446,-17.168682,-5.46529,-21.74257,36.212772,-23.0223,-0.6943727,0.031443126,2.3765078,7.732222,3.0843997,29.732834,-34.99562,51.056957,19.540766,-0.03710071,0.62857383,0.7921212,-28.09297,52.632874,54.905483,-14.107084,2.8531425,-6.235384
100,-23.967031478881836,-29.984331130981445,75.57707977294922,-1.723265018303746,4.4614142767887595,1.5508391712385174,-22.577486,29.75845,28.444416,64.240135,-17.044533,-5.9035163,-17.261696,-5.3140254,-21.842787,36.156002,-22.967373,-0.97793865,-0.036431763,2.38402,7.685322,3.1671557,29.703856,-35.05492,50.975384,19.522066,-0.08410487,0.6808583,0.8828649,-28.187756,52.446693,54.791958,-13.988854,2.8329427,-6.3647614
101,-24.117002487182617,-30.227697372436523,75.57357788085938,-1.6803513789714901,4.459287730150773,1.6158901548318279,-21.809174,29.550756,28.996576,65.46295,-17.254986,-5.6407185,-17.37295,-5.1699767,-21.944126,36.126667,-22.932764,-1.2552031,-0.10588638,2.3848493,7.6359487,3.2523851,29.681961,-35.126328,50.90083,19.548935,-0.0828703,0.69302464,0.9697503,-28.276218,52.21255,54.681843,-13.856327,2.8029783,-6.50147
102,-24.27239227294922,-30.458131790161133,75.56684875488281,-1.6387533320779444,4.4622168262889454,1.6871761509926668,-20.993828,29.330145,29.597605,66.601746,-17.516476,-5.4004216,-17.49847,-5.032093,-22.04774,36.121204,-22.914688,-1.5286494,-0.2106108,2.3765695,7.5842824,3.340889,29.672457,-35.19989,50.841072,19.58647,-0.053424403,0.67777604,1.0317775,-28.32724,51.949364,54.59794,-13.722754,2.7699661,-6.6600575
103,-24.41937255859375,-30.689603805541992,75.55382537841797,-1.604820003516939,4.465036231078154,1.7636035415021083,-20.155592,29.071688,30.190262,67.64063,-17.82997,-5.18463,-17.632397,-4.895231,-22.16109,36.140194,-22.905622,-1.7975074,-0.31702992,2.3715765,7.5394435,3.3884864,29.669134,-35.315556,50.819275,19.618229,-0.0155208,0.63954324,1.0833592,-28.370054,51.65284,54.516186,-13.574552,2.744123,-6.825685
104,-24.56760597229004,-30.91033172607422,75.5367431640625,-1.5850073773043245,4.4624912528314695,1.8440725909915117,-19.320885,28.749382,30.718105,68.56202,-18.194035,-4.9969335,-17.76829,-4.754465,-22.291534,36.182808,-22.896849,-2.0611117,-0.3871132,2.381143,7.5035048,3.3974028,29.66964,-35.48004,50.82275,19.664492,0.011569466,0.58134073,1.1976162,-28.428715,51.250034,54.381935,-13.465316,2.7366111,-6.9824514
105,-24.7154483795166,-31.144973754882812,75.5144271850586,-1.5797568883602948,4.450825412792814,1.931425386689978,-18.479988,28.372293,31.197334,69.37583,-18.637724,-4.814877,-17.905123,-4.61356,-22.444122,36.2584,-22.88943,-2.3186595,-0.51902276,2.4018052,7.485928,3.4316125,29.673677,-35.595688,50.83962,19.723747,0.0149933435,0.49113342,1.22741,-28.455751,50.910973,54.303146,-13.3207245,2.7591972,-7.1375303
106,-24.8651123046875,-31.37091636657715,75.48345947265625,-1.5861844241676988,4.43386192783125,2.0253756000996312,-17.62851,27.947008,31.645538,70.085976,-19.150383,-4.6466255,-18.04593,-4.473968,-22.613747,36.362965,-22.885471,-2.5708048,-0.60796386,2.4308217,7.480472,3.4044619,29.685858,-35.78697,50.8994,19.78404,0.009861847,0.37344614,1.2885674,-28.484793,50.4777,54.199284,-13.17941,2.8021963,-7.289963
107,-25.019315719604492,-31.58926010131836,75.4513168334961,-1.604437508750547,4.417784703973028,2.1200948059864007,-16.80549,27.443878,32.01076,70.66975,-19.67131,-4.542073,-18.19415,-4.3286037,-22.792816,36.480568,-22.880043,-2.8188617,-0.7184371,2.4699702,7.4780073,3.3615298,29.703299,-35.983498,50.976917,19.841032,0.008317047,0.24763288,1.3462161,-28.50129,50.037376,54.097477,-13.05308,2.8460586,-7.4402714
108,-25.171476364135742,-31.805583953857422,75.41504669189453,-1.6348147990563637,4.408985583127271,2.2096680454404676,-16.049593,26.834475,32.243324,71.10533,-20.140284,-4.5506344,-18.3512,-4.169536,-22.974148,36.59138,-22.866575,-3.0642593,-0.8253755,2.520485,7.472676,3.2747703,29.726652,-36.212006,51.070396,19.88389,0.025055848,0.13493642,1.3641558,-28.506975,49.657745,54.0269,-12.875426,2.867957,-7.585833
109,-25.322528839111328,-32.02639389038086,75.37467193603516,-1.6803224585631227,4.410247205685533,2.291121168823795,-15.357196,26.140423,32.36875,71.406395,-20.5655,-4.617883,-18.522879,-3.9932058,-23.156525,36.697678,-22.841858,-3.3052144,-0.92583996,2.586912,7.454545,3.2057319,29.752237,-36.419495,51.1386,19.977669,0.07039688,0.03207945,1.3837862,-28.501701,49.29376,53.96863,-12.678597,2.8572645,-7.7293987
110,-25.48274040222168,-32.239898681640625,75.33524322509766,-1.740087770158716,4.417773553810855,2.368066259387063,-14.713859,25.36931,32.403557,71.57932,-20.970655,-4.7391686,-18.70665,-3.8038564,-23.34413,36.805496,-22.808537,-3.541616,-1.0153551,2.6671064,7.432458,3.1197467,29.782755,-36.640793,51.20832,20.093266,0.13479263,-0.068625316,1.3818878,-28.487032,48.956013,53.931408,-12.436633,2.8264227,-7.871211
111,-25.637222290039062,-32.45916748046875,75.29338073730469,-1.8087792026142324,4.42827978929068,2.444433521784434,-14.13929,24.472792,32.29021,71.59111,-21.321602,-5.0366764,-18.891579,-3.6056213,-23.536804,36.905006,-22.77062,-3.7771666,-1.105866,2.7538092,7.411974,2.9860532,29.81952,-36.895527,51.29842,20.178713,0.20227273,-0.15617245,1.3564463,-28.463617,48.655865,53.909946,-12.185967,2.7911024,-8.002725
112,-25.791358947753906,-32.6794548034668,75.24853515625,-1.8820642444727835,4.437992472499669,2.5241637492530593,-13.651636,23.405958,31.973394,71.41228,-21.589806,-5.6312723,-19.066853,-3.4007487,-23.734806,36.985043,-22.731682,-4.0158753,-1.1949776,2.8420663,7.392963,2.842141,29.860355,-37.14369,51.374302,20.256247,0.25730315,-0.22046113,1.315905,-28.431684,48.397434,53.894833,-11.955983,2.7673128,-8.114769
113,-25.950660705566406,-32.903419494628906,75.1963119506836,-1.9638573780048958,4.44656597648808,2.6104930945367326,-13.249215,22.146347,31.427511,71.020584,-21.776379,-6.6047087,-19.224815,-3.1836207,-23.943964,37.033722,-22.692793,-4.2597013,-1.3104727,2.9389946,7.3797894,2.6635246,29.898619,-37.394974,51.466133,20.294006,0.29064694,-0.25848037,1.2590171,-28.399458,48.18671,53.878265,-11.766734,2.7611132,-8.200411
114,-26.114410400390625,-33.11908721923828,75.148193359375,-2.0555280940098175,4.4553937263804,2.7001924068890495,-12.909194,20.727766,30.69921,70.43871,-21.915384,-7.866857,-19.371588,-2.953417,-24.162271,37.057133,-22.650856,-4.506395,-1.4097724,3.0441155,7.3629923,2.5147624,29.935652,-37.60694,51.517776,20.383837,0.3137419,-0.27689117,1.2011884,-28.364506,47.998993,53.86362,-11.586063,2.7630239,-8.264812
115,-26.271665573120117,-33.335350036621094,75.10226440429688,-2.1485541478438464,4.463138510038627,2.7874887744254013,-12.616518,19.188082,29.840149,69.7035,-22.029448,-9.280536,-19.517048,-2.720559,-24.377892,37.074802,-22.604582,-4.7539644,-1.4656515,3.139089,7.3411245,2.3516948,29.996126,-37.84424,51.538803,20.468557,0.33926067,-0.27779266,1.1849495,-28.299461,47.766792,53.840935,-11.474296,2.767083,-8.320155
116,-26.424631118774414,-33.549922943115234,75.0543441772461,-2.2356914935111276,4.468771722338028,2.8672011923262173,-12.360281,17.565487,28.896244,68.851906,-22.134481,-10.711086,-19.671288,-2.4954112,-24.581478,37.10635,-22.55293,-4.9994116,-1.5363673,3.2286863,7.325262,2.2013924,30.053087,-38.03967,51.526493,20.544712,0.3751767,-0.26020578,1.1128962,-28.236471,47.63691,53.836567,-11.346542,2.7712026,-8.377522
117,-26.587635040283203,-33.768592834472656,75.00586700439453,-2.3141768972459187,4.472788060928877,2.939393072779624,-12.168201,15.773457,27.766048,67.84272,-22.234169,-12.22044,-19.839931,-2.2825963,-24.768137,37.160942,-22.494793,-5.2417827,-1.6044927,3.3062806,7.3142195,1.9805462,30.118711,-38.29165,51.528698,20.537144,0.4357518,-0.21819001,1.0425153,-28.163998,47.531677,53.821846,-11.269826,2.7731392,-8.4372635
118,-26.745996475219727,-33.97930908203125,74.95718383789062,-2.390156500068961,4.474553712466108,3.005445857082277,-12.013749,13.834822,26.468214,66.6774,-22.347265,-13.833211,-20.01468,-2.0731797,-24.94451,37.22428,-22.429672,-5.4826937,-1.663035,3.380083,7.3055487,1.7425734,30.185316,-38.546345,51.511745,20.51139,0.5119251,-0.15379378,0.96781766,-28.088741,47.46121,53.80081,-11.219453,2.7755713,-8.49362
119,-26.913726806640625,-34.18436813354492,74.91353607177734,-2.4227323121340967,4.495359067731128,3.093442838810864,-11.845223,11.87906,25.279793,65.41568,-22.454338,-15.000033,-20.23714,-1.9385309,-25.114641,37.34474,-22.382715,-5.7105765,-1.725577,3.4227629,7.268277,1.6576618,30.22283,-38.62408,51.371983,20.64925,0.5804899,-0.078026414,0.903895,-28.040928,47.42589,53.75394,-11.175292,2.7825682,-8.545669
120,-27.091697692871094,-34.36688995361328,74.86957550048828,-2.2923829077193085,4.5920865177241375,3.2791685767828653,-11.671218,9.914543,24.488733,64.06504,-22.462994,-15.000033,-20.628008,-2.079441,-25.273964,37.67673,-22.426752,-5.89559,-1.9001529,3.3079803,7.171783,1.3857185,30.296604,-38.874435,51.342396,20.540604,0.61686164,0.0018033826,0.804626,-27.955639,47.425243,53.727577,-11.17681,2.7939138,-8.604221
121,-27.270751953125,-34.56285858154297,74.82317352294922,-2.204573135906582,4.66096602235414,3.4233651874156568,-11.405009,8.202698,23.87299,62.72282,-22.408432,-15.000033,-20.96147,-2.1404605,-25.42747,37.93274,-22.442036,-6.0954037,-2.0273898,3.2293198,7.092237,1.2421117,30.36515,-38.97869,51.201775,20.536764,0.6119264,0.08368444,0.71151316,-27.870422,47.447384,53.693302,-11.226198,2.816864,-8.676071
122,-27.44935417175293,-34.750694274902344,74.7780990600586,-2.14459721363866,4.711332291959169,3.5384109894618865,-11.086286,6.645955,23.349482,61.3458,-22.29413,-15.000033,-21.257763,-2.1484313,-25.575865,38.13816,-22.43634,-6.3052483,-2.1382165,3.174458,7.0330505,1.0895566,30.434546,-39.06691,51.048138,20.495333,0.57826436,0.1740976,0.5941337,-27.78698,47.52484,53.659397,-11.301604,2.8486698,-8.757237
123,-27.628246307373047,-34.943626403808594,74.73178100585938,-2.122201175408991,4.739877212835538,3.62648661543323,-10.706258,5.334686,22.975655,60.007935,-22.18476,-15.000033,-21.509176,-2.0894191,-25.726,38.283566,-22.404198,-6.5267634,-2.2203891,3.1476655,6.9891877,1.0162051,30.501219,-39.060497,50.8293,20.508472,0.5304981,0.2632609,0.48620662,-27.703083,47.61265,53.60755,-11.389191,2.878821,-8.821541
124,-27.800819396972656,-35.1515007019043,74.68179321289062,-2.146120398921615,4.7444409498669655,3.6907235954915003,-10.260288,4.356328,22.81531,58.785004,-22.143879,-15.000033,-21.709246,-1.9510614,-25.884798,38.35844,-22.339233,-6.761283,-2.3042767,3.153706,6.9790525,0.8394599,30.573215,-39.131065,50.69013,20.376501,0.480423,0.3467565,0.35709584,-27.619053,47.72989,53.540485,-11.447023,2.8967009,-8.846075
125,-27.975658416748047,-35.36249542236328,74.63214874267578,-2.2176172523238376,4.72213054809528,3.727531224382761,-9.721117,3.7790499,22.968222,57.6939,-22.16888,-15.000033,-21.85848,-1.7310299,-26.048466,38.367294,-22.241928,-7.0142756,-2.3441565,3.1922555,6.982973,0.8244829,30.638416,-39.029827,50.4314,20.37592,0.42886695,0.41495898,0.24497052,-27.53337,47.842514,53.447495,-11.460658,2.896506,-8.802584
126,-28.160493850708008,-35.581119537353516,74.5838623046875,-2.326223314516185,4.679201821707113,3.741239191372011,-9.11092,3.5254915,23.391775,56.694668,-22.223673,-15.000033,-21.9654,-1.4450023,-26.215897,38.3169,-22.116468,-7.2818546,-2.3853047,3.257492,7.0140047,0.7554786,30.705677,-38.95329,50.21014,20.274118,0.36778674,0.47699183,0.115450405,-27.44755,47.987743,53.337097,-11.4547205,2.8854978,-8.712931
127,-28.33949851989746,-35.811527252197266,74.5335922241211,-2.462685277601106,4.624131103084567,3.745435806165802,-8.497535,3.4700263,23.938095,55.786045,-22.328049,-15.000033,-22.037552,-1.1085184,-26.395773,38.20953,-21.966003,-7.5512195,-2.4203308,3.3376858,7.058496,0.6645447,30.775618,-38.885674,50.012707,20.136086,0.3064105,0.5386824,-0.014515507,-27.358395,48.140434,53.21504,-11.44166,2.8698921,-8.619778
128,-28.520484924316406,-36.051937103271484,74.4857406616211,-2.619520611333963,4.565048922179396,3.752827831868646,-7.9493947,3.4976833,24.454016,54.968693,-22.501951,-15.000033,-22.081882,-0.7344413,-26.59681,38.04505,-21.79237,-7.809829,-2.4688323,3.4235187,7.1150746,0.4530723,30.855371,-38.928215,49.92382,19.88178,0.25224376,0.60826474,-0.15100482,-27.261936,48.297024,53.092793,-11.438722,2.8563447,-8.567269
129,-28.70958137512207,-36.303340911865234,74.4363021850586,-2.7980966392018574,4.502463436697136,3.7667256294254496,-7.47744,3.6007352,24.908674,54.251404,-22.760029,-15.000033,-22.091173,-0.31915247,-26.82263,37.808853,-21.58913,-8.045919,-2.498029,3.512311,7.160648,0.35508624,30.937042,-38.873226,49.77357,19.746187,0.21425737,0.6904308,-0.24928498,-27.151466,48.41694,52.96465,-11.473745,2.8442128,-8.569474
130,-28.892677307128906,-36.56005096435547,74.3873062133789,-3.00031501689885,4.430666164587704,3.7794788885484123,-7.043761,3.8403082,25.392267,53.63926,-23.09309,-15.000033,-22.062632,0.14227957,-27.065542,37.50334,-21.356256,-8.26827,-2.5295618,3.6079047,7.2151504,0.23334119,31.026768,-38.836166,49.65675,19.574064,0.18479249,0.78161204,-0.35897142,-27.026548,48.55251,52.84623,-11.510768,2.8304987,-8.604055
131,-29.079288482666016,-36.83361053466797,74.33685302734375,-3.220913713050703,4.348474510095712,3.786694150035817,-6.6442766,4.209887,25.926668,53.129635,-23.485653,-15.000033,-22.009232,0.640686,-27.317984,37.155117,-21.105934,-8.496021,-2.5595064,3.7061718,7.282949,0.06852696,31.126158,-38.83455,49.587585,19.374277,0.15352361,0.86580026,-0.46639127,-26.886549,48.674297,52.729015,-11.549321,2.8175573,-8.6529
132,-29.266023635864258,-37.10702133178711,74.28307342529297,-3.455130265643272,4.25467440668647,3.7841066026885675,-6.274144,4.7009473,26.53152,52.717037,-23.921478,-15.000033,-21.944458,1.1665002,-27.572626,36.7923,-20.850578,-8.748271,-2.5661287,3.803613,7.3583026,-0.025614385,31.230885,-38.764816,49.48276,19.292795,0.11114305,0.9245382,-0.5507201,-26.731504,48.75166,52.606644,-11.57301,2.8072166,-8.696546
133,-29.459651947021484,-37.38762664794922,74.22317504882812,-3.709610298842665,4.14478085859798,3.7690727533806356,-5.9228697,5.3663135,27.270514,52.412918,-24.388405,-15.000033,-21.861246,1.7302101,-27.830854,36.408306,-20.58839,-9.033624,-2.575398,3.906421,7.460221,-0.21556807,31.348589,-38.77098,49.468685,19.163872,0.040957283,0.9507161,-0.62749,-26.562365,48.79205,52.478344,-11.596618,2.8015606,-8.739618
134,-29.667877197265625,-37.65468215942383,74.16010284423828,-3.8153229009980243,4.11652739996898,3.858606690456663,-5.711545,5.859512,28.150505,52.07415,-24.798944,-13.895458,-21.965723,2.0222297,-28.097591,36.27149,-20.43429,-9.295615,-2.6645422,3.8660889,7.480767,-0.34612858,31.473753,-38.720284,49.426884,19.137804,-0.045742054,0.95263493,-0.686796,-26.378426,48.7953,52.349186,-11.604747,2.7982523,-8.787769
135,-29.88322639465332,-37.92323684692383,74.09417724609375,-3.891352965865938,4.103823157067941,3.965831362654826,-5.56576,6.3297715,29.010794,51.795235,-25.25941,-12.54893,-22.111517,2.2646422,-28.365873,36.180088,-20.2982,-9.559726,-2.782103,3.7883208,7.496273,-0.5609872,31.610994,-38.74378,49.458313,19.052992,-0.12308818,0.9463883,-0.7424593,-26.182632,48.778927,52.212368,-11.606024,2.7960274,-8.8303995
136,-30.104652404785156,-38.19841003417969,74.02832794189453,-3.9507046794857357,4.096898834308841,4.073980129800631,-5.4810905,6.728876,29.724255,51.57882,-25.806334,-11.148367,-22.278145,2.4867682,-28.62785,36.10468,-20.165728,-9.822384,-2.8845205,3.6849794,7.502684,-0.7139448,31.752253,-38.719925,49.447533,19.05537,-0.16226524,0.94387937,-0.775904,-25.978142,48.732784,52.061687,-11.582632,2.7921746,-8.853582
137,-30.332813262939453,-38.476036071777344,73.95836639404297,-4.000889385332479,4.099170353443783,4.181930822503986,-5.4982634,7.0593405,30.249449,51.478714,-26.465504,-9.567724,-22.464714,2.7020476,-28.889038,36.03119,-20.0324,-10.088107,-2.992483,3.564262,7.5094204,-0.9195427,31.900734,-38.7506,49.479076,19.041737,-0.14558817,0.9497463,-0.80251175,-25.767153,48.662273,51.88619,-11.533286,2.7949524,-8.849168
138,-30.572420120239258,-38.757198333740234,73.88841247558594,-4.043193073088697,4.1085208130582584,4.291061136483916,-5.6060677,7.3614016,30.64471,51.48859,-27.212471,-7.8248386,-22.669521,2.9087799,-29.15178,35.96501,-19.901533,-10.359065,-3.098513,3.4264503,7.514875,-1.1564169,32.054935,-38.81545,49.54003,19.036695,-0.09114899,0.95658493,-0.81454533,-25.55081,48.559174,51.68844,-11.464167,2.8024988,-8.82507
139,-30.81480598449707,-39.043609619140625,73.81709289550781,-4.0603453409933135,4.118459581303795,4.40265095269029,-5.7361965,7.6012197,30.942532,51.49195,-27.990606,-6.1770205,-22.893898,3.0805864,-29.402248,35.92936,-19.77809,-10.624271,-3.194328,3.2576888,7.515441,-1.3533646,32.209694,-38.84525,49.57853,19.07942,-0.027265016,0.96296215,-0.8105127,-25.333412,48.44847,51.487232,-11.370427,2.7992136,-8.795041
140,-31.056209564208984,-39.32921600341797,73.74819946289062,-4.034693167084388,4.122866482432572,4.518320775120911,-5.8167915,7.7452292,31.180382,51.368233,-28.748941,-4.886342,-23.140265,3.1891854,-29.627098,35.95192,-19.670147,-10.872006,-3.297962,3.0453265,7.5220222,-1.6007094,32.364906,-38.91349,49.66177,19.043951,0.01622733,0.9696946,-0.8111632,-25.122252,48.376972,51.30178,-11.247153,2.7699614,-8.7742815
141,-31.303714752197266,-39.61570739746094,73.67671203613281,-3.9680939803117856,4.120272983590166,4.640569444307313,-5.8276963,7.7877336,31.342121,51.076824,-29.498707,-4.1082525,-23.403578,3.2383454,-29.828032,36.025482,-19.580006,-11.108175,-3.3906837,2.7896028,7.5223074,-1.7801743,32.514175,-38.911507,49.7055,19.04346,0.028505066,0.96326154,-0.7979957,-24.92217,48.337303,51.12821,-11.05749,2.6961703,-8.770983
142,-31.5616455078125,-39.8883056640625,73.60755920410156,-3.8686346950194195,4.113631558855701,4.7676942642227464,-5.804605,7.7483053,31.421907,50.67633,-30.259123,-3.6772661,-23.683727,3.2409809,-30.010015,36.139317,-19.503166,-11.336329,-3.4945815,2.4993312,7.52709,-2.0100138,32.661278,-38.945652,49.79702,18.97281,0.025135232,0.94965315,-0.7826581,-24.736101,48.32871,50.953682,-10.817826,2.5915647,-8.776086
143,-31.82680892944336,-40.154781341552734,73.54472351074219,-3.727108381129133,4.103040224283973,4.895553100139635,-5.758598,7.629765,31.473879,50.19336,-30.987843,-3.3771694,-23.991701,3.178012,-30.16643,36.321327,-19.439604,-11.541046,-3.5913868,2.1705184,7.5334754,-2.2195773,32.800705,-38.956512,49.880142,18.91899,0.020792246,0.95216995,-0.75849587,-24.565958,48.337967,50.780975,-10.587685,2.4875839,-8.773614
144,-32.08818054199219,-40.420047760009766,73.48854064941406,-3.5344975509356713,4.088236560265658,5.019329455859493,-5.699181,7.431699,31.551151,49.649982,-31.645874,-2.9937086,-24.335512,3.0343883,-30.287563,36.589664,-19.383398,-11.707551,-3.6856186,1.8001955,7.547688,-2.4306552,32.92914,-38.964153,49.96974,18.86986,0.029019717,0.99547845,-0.7367379,-24.414001,48.37057,50.61629,-10.427999,2.4161735,-8.749382
145,-32.3592414855957,-40.6817512512207,73.43860626220703,-3.280685608075932,4.071924092734353,5.140100390565826,-5.6259255,7.1318545,31.654774,49.029644,-32.22514,-2.5023472,-24.721016,2.7953265,-30.371815,36.95698,-19.343079,-11.835301,-3.7792616,1.3792309,7.5657754,-2.6461973,33.04287,-38.97406,50.078106,18.827967,0.05443811,1.103023,-0.71082485,-24.281088,48.42191,50.451458,-10.366702,2.3922927,-8.685418
146,-32.63254928588867,-40.93960189819336,73.38898468017578,-2.973026525698259,4.0530219828947915,5.259617175591475,-5.532828,6.7344117,31.76199,48.323174,-32.746616,-2.0112133,-25.14143,2.473,-30.421827,37.408474,-19.316721,-11.930533,-3.8693054,0.91305673,7.585534,-2.8580892,33.139748,-38.97583,50.199284,18.799398,0.089215815,1.2566289,-0.67975515,-24.16803,48.49401,50.286686,-10.362722,2.3969245,-8.59422
147,-32.91080093383789,-41.183719635009766,73.34272003173828,-2.627575942666585,4.026273733119495,5.374980094336739,-5.422587,6.2748237,31.886114,47.563442,-33.21422,-1.5046874,-25.5878,2.0911877,-30.435728,37.92604,-19.285488,-11.987482,-3.9498184,0.41982356,7.6132083,-3.0538428,33.218494,-38.951317,50.30836,18.793636,0.12884392,1.4181648,-0.6415218,-24.07668,48.58048,50.130608,-10.397501,2.4112182,-8.50699
148,-33.195556640625,-41.420345306396484,73.29528045654297,-2.260686894453442,3.9865752948954833,5.483290463784744,-5.2994814,5.789478,32.0398,46.78707,-33.633713,-0.96696776,-26.052979,1.6727899,-30.412033,38.494713,-19.232327,-12.000441,-4.0148087,-0.08220662,7.6575994,-3.2335026,33.27911,-38.89387,50.3882,18.8084,0.16859277,1.5496097,-0.60707337,-24.009926,48.6886,49.99589,-10.435249,2.4164066,-8.45505
149,-33.485633850097656,-41.65402603149414,73.25149536132812,-1.8569167565387024,3.9313983136639017,5.586064853841742,-5.1567817,5.2584715,32.241623,45.986893,-33.998642,-0.37441745,-26.543922,1.2013943,-30.331072,39.132774,-19.177876,-11.970757,-4.063533,-0.6068049,7.722866,-3.4149444,33.31757,-38.810345,50.44842,18.838121,0.21541291,1.6456187,-0.56867766,-23.974607,48.81964,49.87391,-10.476023,2.4060361,-8.466613
150,-33.7781867980957,-41.890987396240234,73.21123504638672,-1.413999802564159,3.8638668663015925,5.684108239901462,-4.99182,4.666983,32.48027,45.143883,-34.31089,0.25290173,-27.059729,0.67461735,-30.198051,39.836197,-19.12088,-11.8993225,-4.0822043,-1.1578789,7.8024907,-3.5945153,33.330627,-38.708748,50.493595,18.896973,0.26946855,1.7256395,-0.5140642,-23.970123,48.955624,49.757416,-10.533213,2.3902164,-8.51719
151,-34.07548522949219,-42.12394332885742,73.17391204833984,-0.9685706054638609,3.787140851472599,5.7731907382085526,-4.815631,4.0624433,32.725784,44.278404,-34.58821,0.86817956,-27.586197,0.13517871,-30.05017,40.56403,-19.015486,-11.780703,-4.103964,-1.7002274,7.897697,-3.7551448,33.333973,-38.578865,50.515743,18.952139,0.31458753,1.7863895,-0.4756375,-23.983536,49.120728,49.666763,-10.604507,2.376866,-8.562985
152,-34.3861083984375,-42.35494613647461,73.13578033447266,-0.5571248231037417,3.7043116487997176,5.849311828225783,-4.641266,3.4951718,32.948265,43.413246,-34.843315,1.4280055,-28.106453,-0.3742011,-29.925768,41.27136,-18.813833,-11.609606,-4.1141124,-2.1994286,8.004615,-3.9015622,33.328884,-38.445744,50.51844,18.991611,0.33554474,1.8266913,-0.43858424,-24.011005,49.274807,49.598095,-10.706737,2.3730173,-8.555892
153,-34.694881439208984,-42.58903121948242,73.10865020751953,-0.1815953899278211,3.611562539245144,5.907551491670873,-4.4607253,2.968417,33.152405,42.539845,-35.078007,1.9266373,-28.611412,-0.8506489,-29.843834,41.9548,-18.51939,-11.411771,-4.1295733,-2.6474988,8.128375,-3.987726,33.310528,-38.249363,50.47134,19.04654,0.3190266,1.8340815,-0.4077077,-24.076134,49.440914,49.530952,-10.844153,2.3833227,-8.463836
154,-35.00597381591797,-42.81686782836914,73.08394622802734,0.17492989307060378,3.5089185298172256,5.951240331203761,-4.2718806,2.4608815,33.351112,41.652775,-35.28413,2.3867867,-29.112186,-1.3146223,-29.780773,42.637318,-18.15355,-11.181498,-4.110271,-3.069527,8.268013,-4.0788994,33.283596,-38.06864,50.409542,19.088245,0.2776082,1.8140924,-0.36197487,-24.15748,49.576527,49.476036,-11.024765,2.4003565,-8.316985
155,-35.32485580444336,-43.04705047607422,73.06331634521484,0.5020168252842331,3.4057396475858184,5.988372203075037,-4.097781,1.9905081,33.52601,40.782246,-35.4642,2.8111618,-29.622324,-1.7555375,-29.711403,43.31139,-17.694647,-10.864622,-4.08047,-3.4518118,8.41604,-4.1538587,33.248737,-37.88772,50.326824,19.118938,0.23019554,1.7900484,-0.31979162,-24.252619,49.708385,49.445663,-11.210349,2.4215996,-8.164888
156,-35.64101028442383,-43.28110122680664,73.04814147949219,0.7893808545652721,3.3116625329714937,6.027033851617158,-3.9634523,1.5774877,33.65914,39.963013,-35.624535,3.2033422,-30.155905,-2.161547,-29.608953,43.97036,-17.122896,-10.403264,-4.053255,-3.7829027,8.5664425,-4.228781,33.208668,-37.73259,50.24039,19.113165,0.19602562,1.7857519,-0.29438037,-24.357704,49.849426,49.45139,-11.365063,2.4443011,-8.056531
157,-35.96587371826172,-43.5130729675293,73.04084014892578,1.0179004886445269,3.2260423524094164,6.070786055068638,-3.8692353,1.2441021,33.73255,39.192837,-35.78328,3.5643156,-30.699083,-2.522942,-29.526865,44.608936,-16.453423,-9.816205,-4.030613,-4.043079,8.721598,-4.3118544,33.164513,-37.60781,50.14643,19.052559,0.18558244,1.796861,-0.29064992,-24.47034,50.00974,49.5027,-11.484975,2.46442,-8.002274
158,-36.292076110839844,-43.742881774902344,73.03807830810547,1.1980943536770685,3.145180484632307,6.114693294492137,-3.8066814,0.9784524,33.761654,38.46296,-35.93372,3.8951468,-31.251467,-2.8440645,-29.455524,45.231693,-15.695318,-9.114954,-4.0082216,-4.2442846,8.883583,-4.3986135,33.11658,-37.50576,50.043007,18.946747,0.18677896,1.8142418,-0.30589965,-24.588797,50.183765,49.59639,-11.586557,2.4846356,-7.977418
159,-36.62144088745117,-43.97880172729492,73.03704071044922,1.3641524175914357,3.073192924385014,6.153784707939445,-3.7860308,0.7494783,33.77855,37.797188,-36.03926,4.1998773,-31.846415,-3.1273847,-29.270132,45.841183,-14.821628,-8.224645,-3.9840171,-4.423202,9.043646,-4.466814,33.065987,-37.41665,49.933437,18.834888,0.18528733,1.8538021,-0.33379638,-24.709356,50.350765,49.723305,-11.670496,2.5123239,-7.977531
160,-36.954925537109375,-44.212406158447266,73.04670715332031,1.5499640718119192,3.0145654036006344,6.182764142719334,-3.8169935,0.5261169,33.815216,37.218876,-36.063488,4.4824524,-32.51643,-3.367835,-28.841923,46.437393,-13.808498,-7.066448,-3.957746,-4.616874,9.193863,-4.5089297,33.014957,-37.34477,49.832577,18.74057,0.16681385,1.9314368,-0.36950338,-24.827328,50.490078,49.875732,-11.739962,2.5548306,-7.998587
161,-37.288631439208984,-44.452003479003906,73.06021881103516,1.7579459958991104,2.974458985455951,6.203819289465417,-3.916379,0.3101874,33.876198,36.748287,-35.99469,4.758115,-33.30672,-3.54879,-28.12738,47.071228,-12.648871,-5.6633463,-3.9388106,-4.82816,9.336907,-4.560501,32.96612,-37.320873,49.766502,18.627996,0.119023256,2.0747116,-0.426119,-24.938148,50.603405,50.057777,-11.78391,2.6181152,-8.045086
162,-37.6235466003418,-44.684417724609375,73.08263397216797,1.9708457534779011,2.949776393681234,6.21750486710805,-4.0756125,0.11970043,33.947014,36.37233,-35.854378,5.022173,-34.1848,-3.6507325,-27.18446,47.71713,-11.378613,-4.0173335,-3.9162688,-5.039321,9.471264,-4.5742583,32.918934,-37.302784,49.690445,18.5341,0.052382205,2.2667022,-0.49576873,-25.039013,50.69179,50.27645,-11.807271,2.6965015,-8.117187
163,-37.96147537231445,-44.91117477416992,73.11346435546875,2.1919506538748568,2.931460835874584,6.216416507306807,-4.2694316,-0.048732296,34.031063,36.073788,-35.660664,5.247365,-35.06899,-3.6627634,-26.033325,48.271408,-10.051134,-2.0203009,-3.8847651,-5.2561083,9.596801,-4.569816,32.87435,-37.308266,49.625084,18.44926,-0.01347048,2.4580455,-0.56782186,-25.129814,50.75696,50.5277,-11.834509,2.7805645,-8.206075
164,-38.29526138305664,-45.136512756347656,73.15049743652344,2.4249603028920634,2.9106680257649407,6.192988012953415,-4.4692736,-0.20231807,34.130787,35.826187,-35.42887,5.406869,-35.875965,-3.5788279,-24.692198,48.633564,-8.7216625,0.42753327,-3.829865,-5.4839664,9.71032,-4.5290217,32.831554,-37.32618,49.562244,18.400501,-0.058465537,2.599315,-0.61799294,-25.211725,50.788876,50.80176,-11.89432,2.8609688,-8.301983
165,-38.62159729003906,-45.363990783691406,73.18871307373047,2.685130776837255,2.887993797983996,6.144549911629848,-4.684667,-0.34808156,34.24808,35.65021,-35.143524,5.480435,-36.60673,-3.3546712,-23.041275,48.758034,-7.352103,3.5729203,-3.7465909,-5.739057,9.81088,-4.449412,32.790237,-37.360043,49.501297,18.39364,-0.07118638,2.6935596,-0.6458174,-25.286606,50.786877,51.111805,-12.008147,2.9327471,-8.404946
166,-38.94633865356445,-45.584102630615234,73.22511291503906,2.962818527283702,2.867817742043744,6.074330654277712,-4.9263577,-0.4755027,34.38055,35.554237,-34.804142,5.487808,-37.28536,-2.9805045,-21.101435,48.722546,-6.0082445,7.296245,-3.6414053,-6.009902,9.901006,-4.3386574,32.750416,-37.41327,49.44528,18.41552,-0.064110845,2.7619066,-0.6564847,-25.354486,50.751194,51.452534,-12.160029,3.00211,-8.518991
167,-39.25173568725586,-45.80575180053711,73.2633056640625,3.225675580677541,2.8454358379309763,5.985385417660784,-5.1666574,-0.56855047,34.522686,35.491005,-34.445805,5.461429,-37.865856,-2.5432656,-19.10663,48.6145,-4.864431,11.137707,-3.5197213,-6.2634377,9.982811,-4.1969676,32.71185,-37.47534,49.3941,18.462883,-0.052862283,2.7820477,-0.6436827,-25.416174,50.678978,51.796177,-12.318412,3.0758393,-8.640045
168,-39.541587829589844,-46.01307678222656,73.30119323730469,3.44519598606343,2.8164396639131124,5.881406581361001,-5.377017,-0.61588925,34.669758,35.409557,-34.103844,5.432976,-38.319447,-2.152778,-17.312464,48.512028,-4.0179615,14.611891,-3.3831565,-6.469181,10.054887,-3.9867053,32.673725,-37.503685,49.31996,18.567379,-0.053123385,2.731165,-0.5928035,-25.472387,50.561394,52.111156,-12.454356,3.1605294,-8.763815
169,-39.82994842529297,-46.28028106689453,73.33170318603516,3.3886297179720564,2.863334228849156,5.578455804267663,-5.7864237,-0.13080089,34.92476,35.78496,-34.008152,5.313482,-38.5367,-1.612016,-16.558882,47.982487,-3.1111176,15.000033,-3.0783055,-6.4251933,10.06311,-3.772616,32.64881,-37.55212,49.272106,18.670437,-0.07115396,2.5765266,-0.5072566,-25.517836,50.406734,52.395206,-12.556579,3.2678094,-8.911033
170,-40.10734939575195,-46.5580940246582,73.36357879638672,3.2196676206381563,2.9239925876878488,5.202883313664871,-6.237047,0.557461,35.20829,36.31213,-33.99021,5.1508665,-38.609474,-1.0032234,-16.036457,47.234325,-2.2146952,15.000033,-2.6903257,-6.273537,10.041095,-3.43745,32.62846,-37.52865,49.16236,18.889545,-0.09757872,2.3384705,-0.37682188,-25.544958,50.19521,52.671112,-12.644255,3.389482,-9.075791
171,-40.38931655883789,-46.817562103271484,73.41214752197266,3.0692292088166484,2.9619530010954658,4.866130863510332,-6.6129737,1.1714077,35.454624,36.70824,-33.910336,5.0007467,-38.63691,-0.6535258,-15.670241,46.699047,-1.6145862,15.000033,-2.3707333,-6.1293826,10.031356,-3.1740217,32.61492,-37.58685,49.13065,19.007383,-0.1286311,2.0755818,-0.25865516,-25.56956,49.985268,52.9311,-12.715826,3.507897,-9.219577
172,-40.667049407958984,-47.06399917602539,73.48863983154297,2.9791978648801574,2.9827389627219616,4.601551850529779,-6.896042,1.6136755,35.650063,36.87056,-33.712437,4.888673,-38.710377,-0.78450817,-15.553921,46.688713,-1.5048019,15.000033,-2.12656,-6.0311317,10.014944,-2.831594,32.603703,-37.601753,49.0638,19.14623,-0.15695979,1.8431083,-0.15827568,-25.58664,49.79257,53.18087,-12.75788,3.6034577,-9.303103
173,-40.94319152832031,-47.26978302001953,73.57830810546875,2.9873009458530877,2.982452785752504,4.427857379605439,-7.054899,1.7982999,35.79437,36.70607,-33.353935,4.8336906,-38.875652,-1.577515,-15.770406,47.399914,-2.0358596,15.000033,-1.9574779,-6.0011125,10.015228,-2.5440004,32.582424,-37.692085,49.043217,19.19999,-0.18383132,1.6503073,-0.049104255,-25.630085,49.55403,53.371124,-12.799429,3.6753676,-9.295395
174,-41.203399658203125,-47.44160842895508,73.6777114868164,3.0706707850445913,2.95743085388523,4.325769652388673,-7.104335,1.7820735,35.89977,36.2854,-32.873234,4.8191977,-39.06586,-2.880235,-16.222359,48.602222,-3.0484586,15.000033,-1.8810071,-6.024153,10.016589,-2.2129042,32.553696,-37.768658,49.02126,19.23647,-0.21108966,1.4705524,0.048252475,-25.685947,49.33453,53.53547,-12.810388,3.7340045,-9.228962
175,-41.44950866699219,-47.600074768066406,73.78602600097656,3.1784714513750787,2.913510031070453,4.2705375567115995,-7.096674,1.683943,35.97194,35.752693,-32.337357,4.8173976,-39.205917,-4.414178,-16.744955,49.97103,-4.2744503,15.000033,-1.8799005,-6.0615034,10.032932,-2.0189543,32.52608,-37.97287,49.129578,19.12474,-0.23719172,1.3044329,0.12037315,-25.754501,49.14957,53.67096,-12.794925,3.7740529,-9.137744
176,-41.69622802734375,-47.761383056640625,73.89957427978516,3.2555992616307234,2.866620338289845,4.228126472785707,-7.09779,1.6345279,36.02373,35.26255,-31.817802,4.7999773,-39.24889,-5.881901,-17.184805,51.191128,-5.427521,15.000033,-1.8672812,-6.074611,10.034554,-1.6612113,32.493202,-38.02388,49.149155,19.20237,-0.25759795,1.1462837,0.21373108,-25.823858,48.97161,53.777004,-12.752552,3.789207,-9.053523
177,-41.93525314331055,-47.933868408203125,74.01583862304688,3.2906385597305943,2.8215036689652435,4.192731935023637,-7.11384,1.6542689,36.05822,34.823902,-31.316528,4.7606354,-39.187595,-7.261897,-17.549295,52.22016,-6.4686394,15.000033,-1.8875219,-6.052437,10.030726,-1.3836887,32.469063,-38.13527,49.266453,19.223452,-0.2739683,0.99047065,0.2743656,-25.89316,48.85743,53.86908,-12.64187,3.767721,-8.978425
178,-42.17467498779297,-48.09922790527344,74.13211059570312,3.3126900044242933,2.766701511102506,4.183943206208183,-7.110335,1.6768512,36.06596,34.36507,-30.801659,4.7138534,-39.040447,-8.699144,-17.913078,53.21431,-7.5461063,15.000033,-1.9451951,-6.019563,10.027861,-1.1389065,32.453068,-38.278034,49.437916,19.22018,-0.28671306,0.83923393,0.31885126,-25.960505,48.777992,53.94163,-12.480994,3.7156444,-8.896661
179,-42.40361022949219,-48.27071762084961,74.24401092529297,3.3246054053057645,2.705969316794581,4.19462666223651,-7.1060205,1.7123402,36.05135,33.924847,-30.294312,4.662604,-38.831398,-10.125012,-18.225674,54.16402,-8.629927,15.000033,-2.0181174,-5.982937,10.022477,-0.8465491,32.442387,-38.372147,49.596264,19.267597,-0.29504576,0.70898086,0.36492187,-26.021154,48.71138,53.99581,-12.343402,3.6561306,-8.821283
180,-42.627689361572266,-48.45102310180664,74.35382843017578,3.329245019900502,2.645540401031749,4.215847714544211,-7.122735,1.7713597,36.021122,33.542877,-29.816025,4.610052,-38.591614,-11.467473,-18.432392,55.059723,-9.683696,15.000033,-2.1038249,-5.951874,10.0150795,-0.5385323,32.43881,-38.434166,49.760056,19.326208,-0.2989046,0.6179245,0.389483,-26.059689,48.67273,54.061558,-12.28574,3.6111562,-8.76821
181,-42.852943420410156,-48.64827346801758,74.45465087890625,3.250364371409842,2.6295573658938536,4.1847490608762135,-7.2514586,2.0075083,36.009533,33.361305,-29.42937,4.525898,-38.33677,-12.6120205,-18.640455,55.806103,-10.651116,14.616737,-2.1285431,-5.851032,9.97587,-0.21967883,32.43819,-38.47105,49.930325,19.406605,-0.29748678,0.5908135,0.43189728,-26.114286,48.640827,54.080265,-12.370366,3.5867076,-8.736449
182,-43.07525634765625,-48.85837173461914,74.55072784423828,3.085149501642929,2.6597939330960525,4.100128076355208,-7.491568,2.4258573,36.01527,33.370174,-29.12433,4.4087925,-38.05696,-13.602327,-18.981855,56.41745,-11.54978,13.380232,-2.1147175,-5.684241,9.898451,0.088887796,32.442177,-38.500034,50.134663,19.479643,-0.29139334,0.61181784,0.45294493,-26.148653,48.643814,54.10245,-12.547214,3.5694616,-8.722871
183,-43.29448318481445,-49.07759094238281,74.64034271240234,2.918395218521125,2.692512771166061,4.021391646832542,-7.7495008,2.856635,36.009056,33.422295,-28.841045,4.302633,-37.761375,-14.52683,-19.229927,57.01655,-12.426421,12.209923,-2.1031604,-5.5218115,9.81434,0.4060807,32.449142,-38.507988,50.343937,19.557135,-0.2820246,0.63929844,0.47972262,-26.173609,48.63783,54.11345,-12.741615,3.5594316,-8.7250595
184,-43.516780853271484,-49.29020309448242,74.72013854980469,2.7618239205746944,2.7226340765612096,3.9459570476556824,-8.019192,3.2858853,35.99446,33.51831,-28.583525,4.225585,-37.44991,-15.412024,-19.414532,57.64687,-13.274625,11.144532,-2.092326,-5.372023,9.726732,0.725191,32.460308,-38.5002,50.550007,19.619251,-0.27101508,0.6314167,0.5202395,-26.192791,48.59925,54.111053,-12.871734,3.5569284,-8.741816
185,-43.726478576660156,-49.511375427246094,74.79231262207031,2.617898129797639,2.7477823346236674,3.8767887953245803,-8.298666,3.7094097,35.968807,33.659126,-28.352621,4.1910534,-37.11881,-16.28384,-19.56435,58.325085,-14.090215,10.173187,-2.0796223,-5.2402134,9.64239,1.0531474,32.492207,-38.471725,50.734913,19.654848,-0.2559567,0.5742296,0.59693265,-26.218544,48.496845,54.06589,-12.93079,3.5606654,-8.774054
186,-43.9257926940918,-49.725799560546875,74.85775756835938,2.480449125361666,2.771041790013512,3.814107786818162,-8.592293,4.1345925,35.93144,33.844112,-28.146454,4.1868687,-36.77011,-17.125103,-19.658865,59.02467,-14.87277,9.279397,-2.0676992,-5.1215057,9.554511,1.3804199,32.53367,-38.431797,50.922314,19.668545,-0.23677266,0.49234796,0.68875265,-26.232468,48.36102,54.00597,-12.951587,3.5707457,-8.823621
187,-44.126487731933594,-49.94137954711914,74.91349029541016,2.3490817677973386,2.795363047580935,3.751330817177599,-8.899202,4.562575,35.88992,34.065502,-27.96129,4.1932397,-36.41208,-17.899586,-19.654057,59.72408,-15.621467,8.493428,-2.052172,-5.0112085,9.463952,1.6906472,32.58271,-38.398853,51.11633,19.663805,-0.2190686,0.39494914,0.7848172,-26.235216,48.204937,53.943596,-12.947401,3.589378,-8.884061
188,-44.327510833740234,-50.16677474975586,74.96442413330078,2.2231307272175576,2.8235925471297487,3.6814512843010685,-9.21867,4.9952974,35.85161,34.31635,-27.793797,4.189963,-36.053345,-18.570074,-19.506046,60.401745,-16.333529,7.845832,-2.0227454,-4.904639,9.369024,1.9928967,32.63717,-38.370327,51.302216,19.669514,-0.20828752,0.29098314,0.88399273,-26.229025,48.03245,53.8872,-12.935756,3.61892,-8.948495
189,-44.52183151245117,-50.38994598388672,75.00881958007812,2.104088855279356,2.856918686842172,3.603004894817726,-9.550526,5.4312353,35.817837,34.59684,-27.644112,4.1745334,-35.696285,-19.125063,-19.198328,61.060432,-17.024689,7.3512855,-1.9741831,-4.8036876,9.271115,2.282733,32.70734,-38.360466,51.473473,19.674974,-0.20777746,0.16952309,0.98829633,-26.212978,47.830273,53.83009,-12.912001,3.6704082,-9.018619
190,-44.71532440185547,-50.61082077026367,75.0439453125,1.9912027952037386,2.8937082288748304,3.519450733071266,-9.895721,5.8710904,35.78436,34.911026,-27.514153,4.1569176,-35.337082,-19.586344,-18.758879,61.70932,-17.6864,6.989448,-1.9219033,-4.7042165,9.166374,2.550578,32.768147,-38.362015,51.661663,19.673738,-0.2148356,0.033255514,1.0930384,-26.192287,47.613083,53.774025,-12.867128,3.7399147,-9.097284
191,-44.90489959716797,-50.84130096435547,75.0699234008789,1.881716310867056,2.932993903336114,3.4312729321773885,-10.252203,6.317306,35.750504,35.252422,-27.400486,4.1354733,-34.975525,-19.966291,-18.210396,62.339092,-18.280098,6.7385707,-1.8457776,-4.6137996,9.063906,2.8001487,32.855377,-38.38077,51.83401,19.668995,-0.22244848,-0.10011151,1.2044342,-26.158041,47.37956,53.72281,-12.816854,3.803992,-9.177769
192,-45.09601974487305,-51.06909942626953,75.09187316894531,1.7719735203182707,2.9737972652437263,3.3389849711850728,-10.61926,6.7741947,35.714836,35.618675,-27.301508,4.1079917,-34.610516,-20.276272,-17.576738,62.94075,-18.767908,6.5769877,-1.7696223,-4.5234127,8.962051,3.02861,32.940147,-38.39253,52.01679,19.672832,-0.22643596,-0.20456454,1.2826256,-26.120876,47.209644,53.704243,-12.737069,3.8417134,-9.255428
193,-45.28974151611328,-51.299293518066406,75.10893249511719,1.6597330347793973,3.016329991419902,3.2403143292160994,-10.997918,7.2469864,35.677505,36.015297,-27.221909,4.0752764,-34.25056,-20.480453,-16.810081,63.51611,-19.12204,6.5393076,-1.6877879,-4.431367,8.859067,3.250449,33.025013,-38.39227,52.201435,19.707088,-0.2227115,-0.26364496,1.3402765,-26.079897,47.092678,53.71697,-12.626036,3.838374,-9.335407
194,-45.482017517089844,-51.528472900390625,75.11915588378906,1.5468068929572742,3.0607667050031133,3.1357473963457245,-11.387756,7.7325764,35.637943,36.44135,-27.160574,4.037473,-33.889782,-20.584711,-15.920069,64.070984,-19.36964,6.6235776,-1.6010951,-4.340503,8.755691,3.451404,33.11323,-38.39662,52.39533,19.749556,-0.2149867,-0.29306394,1.3716718,-26.034645,47.022583,53.7596,-12.477691,3.8081534,-9.418624
195,-45.67226028442383,-51.76156234741211,75.12390899658203,1.4362345055995305,3.1069717458500774,3.029824097003547,-11.784699,8.22304,35.59589,36.883152,-27.107113,3.99025,-33.50504,-20.662645,-15.014705,64.59829,-19.553831,6.753639,-1.5091916,-4.2510953,8.655059,3.627734,33.200016,-38.391182,52.59155,19.789568,-0.20932125,-0.31936067,1.3867251,-25.986794,46.986,53.81453,-12.330674,3.7737155,-9.491068
196,-45.8602409362793,-51.99740982055664,75.12602233886719,1.3317253662796373,3.1544538352041886,2.927358174619216,-12.182324,8.7067175,35.55007,37.319542,-27.046621,3.9308295,-33.076923,-20.790571,-14.199273,65.0897,-19.715708,6.85225,-1.4090998,-4.165923,8.558584,3.797848,33.28462,-38.342003,52.765556,19.836966,-0.21157062,-0.369756,1.3929387,-25.937136,46.9696,53.871292,-12.222516,3.7571652,-9.539057
197,-46.051334381103516,-52.232139587402344,75.12484741210938,1.2314245296839619,3.2046238084188112,2.82578921630548,-12.584734,9.18989,35.501835,37.761314,-26.983156,3.8554468,-32.607285,-20.969976,-13.474277,65.55645,-19.847464,6.9260335,-1.2990907,-4.081412,8.469256,3.9388952,33.36497,-38.257477,52.93169,19.877493,-0.23111355,-0.46738768,1.3864927,-25.88767,46.9782,53.92741,-12.156489,3.7687893,-9.557894
198,-46.23979187011719,-52.47444534301758,75.11625671386719,1.1345864426374173,3.257087598815863,2.7239920633542525,-12.992248,9.674631,35.450813,38.212246,-26.920982,3.7659864,-32.10487,-21.168068,-12.7920885,65.99787,-19.932808,7.00694,-1.17942,-3.9988463,8.38411,4.0697274,33.44492,-38.132793,53.080387,19.928375,-0.26209503,-0.59310997,1.3676746,-25.836805,47.01235,53.990204,-12.118141,3.795136,-9.555345
199,-46.43071746826172,-52.718406677246094,75.1107177734375,1.0462450456167471,3.309138101323667,2.6285614484167623,-13.395959,10.1464615,35.394985,38.649475,-26.850832,3.6671624,-31.565256,-21.411398,-12.18276,66.39016,-20.0008,7.0546265,-1.063558,-3.9251635,8.303864,4.1852913,33.527573,-37.992058,53.21611,19.961262,-0.28830773,-0.70878845,1.3368542,-25.782743,47.072598,54.053444,-12.104749,3.824251,-9.536185
200,-46.62598419189453,-52.95719909667969,75.10218048095703,0.9712466827419324,3.358212320894264,2.5463939779011824,-13.788022,10.591451,35.332485,39.052372,-26.76431,3.5646272,-30.985268,-21.726961,-11.6766615,66.71076,-20.080803,7.02874,-0.957855,-3.8656123,8.2264805,4.2913027,33.60793,-37.84801,53.339825,19.9685,-0.29360127,-0.7753777,1.3068862,-25.728487,47.145817,54.106487,-12.121684,3.8442395,-9.504869
201,-46.81292724609375,-53.19886016845703,75.08979034423828,0.9110340106045614,3.402977123600421,2.479287021201382,-14.167895,11.007778,35.26272,39.420097,-26.6616,3.4568574,-30.358631,-22.143797,-11.304363,66.974144,-20.168541,6.905658,-0.8640042,-3.822376,8.151505,4.3833885,33.68552,-37.705246,53.456932,19.93628,-0.26575762,-0.7783047,1.2760632,-25.674944,47.238014,54.151043,-12.17969,3.8526,-9.448916
202,-47.00178146362305,-53.44739532470703,75.0758056640625,0.8629678820130435,3.445131651706886,2.4237153892423144,-14.539946,11.402141,35.1873,39.763145,-26.546932,3.3423994,-29.690208,-22.6415,-11.042351,67.18617,-20.252825,6.7110496,-0.77081734,-3.7881658,8.079073,4.4478254,33.74865,-37.56595,53.58062,19.87713,-0.21633403,-0.7377556,1.2527077,-25.630264,47.34181,54.17954,-12.274861,3.8558965,-9.369483
203,-47.19258117675781,-53.700096130371094,75.06507110595703,0.8273176599425269,3.485895784036284,2.3783940010767948,-14.902388,11.771706,35.10804,40.075718,-26.416853,3.2275214,-28.99353,-23.171364,-10.839838,67.30996,-20.352198,6.478854,-0.6933512,-3.768619,8.011938,4.522352,33.821613,-37.403587,53.67,19.81115,-0.16370569,-0.6734163,1.2134218,-25.57725,47.47045,54.209583,-12.37547,3.8541534,-9.294841
204,-47.38188552856445,-53.95140075683594,75.05489349365234,0.8038120614194051,3.5264650129576443,2.3420313835267463,-15.256543,12.117041,35.027077,40.35844,-26.271746,3.1175876,-28.283306,-23.683525,-10.645522,67.31207,-20.487062,6.243205,-0.6125181,-3.7540202,7.951017,4.5584197,33.87925,-37.269413,53.76661,19.740149,-0.12718233,-0.59724706,1.178688,-25.535078,47.595654,54.219025,-12.451755,3.8488886,-9.249363
205,-47.5686149597168,-54.201053619384766,75.04545593261719,0.7923079467480623,3.566149937837929,2.3169339414459045,-15.596582,12.431947,34.944557,40.59829,-26.105026,3.017308,-27.55463,-24.18092,-10.460516,67.18697,-20.668245,5.986628,-0.5329695,-3.7439973,7.8995366,4.5719523,33.926025,-37.14664,53.854523,19.67652,-0.11176492,-0.50103736,1.1438371,-25.501125,47.72643,54.21031,-12.484553,3.8394558,-9.253834
206,-47.75807571411133,-54.455013275146484,75.03360748291016,0.7931117165634098,3.60454602834143,2.3028072804663227,-15.92578,12.72027,34.860413,40.80379,-25.92121,2.9223526,-26.80349,-24.68124,-10.308224,66.95295,-20.884584,5.7008877,-0.4692492,-3.7446084,7.8569627,4.5843253,33.9775,-37.012943,53.9154,19.610441,-0.10740535,-0.38289267,1.0896934,-25.463968,47.886406,54.199654,-12.486496,3.825272,-9.291278
207,-47.94993209838867,-54.70778274536133,75.02642822265625,0.8038374041492297,3.64443565779968,2.294179342858518,-16.248297,12.989212,34.774467,40.98251,-25.723429,2.8263986,-26.040346,-25.162666,-10.172211,66.60607,-21.1175,5.434752,-0.41107336,-3.7547944,7.8155107,4.594503,34.02976,-36.874714,53.954464,19.54654,-0.10977786,-0.26623613,1.0302664,-25.42559,48.048286,54.18073,-12.495117,3.8084092,-9.328641
208,-48.14042663574219,-54.96430206298828,75.01924133300781,0.8220853746025358,3.6882364644927566,2.285520377709713,-16.571838,13.249204,34.686054,41.15035,-25.51925,2.7226484,-25.275745,-25.60384,-10.0355625,66.14325,-21.348978,5.2362714,-0.33785957,-3.7674391,7.76638,4.5796914,34.061325,-36.755486,53.999153,19.490808,-0.11479949,-0.17176738,0.9946694,-25.401945,48.172565,54.13331,-12.547537,3.7915275,-9.331744
209,-48.32789611816406,-55.22495651245117,75.00752258300781,0.8527609502878254,3.738282447930413,2.2781285869720476,-16.894201,13.490501,34.59582,41.29576,-25.304977,2.6058307,-24.507662,-26.000687,-9.881078,65.549446,-21.587791,5.1238146,-0.270185,-3.7926605,7.7057037,4.567746,34.084988,-36.62342,54.027317,19.451113,-0.121567406,-0.109497935,0.9635642,-25.383165,48.28293,54.068935,-12.666372,3.7721255,-9.279229
210,-48.511932373046875,-55.49017333984375,74.99418640136719,0.8950346379711377,3.7926765636684623,2.274051755912755,-17.213308,13.712622,34.503845,41.417114,-25.079409,2.4805882,-23.731886,-26.361147,-9.722928,64.8321,-21.839092,5.069522,-0.22218086,-3.8302155,7.63891,4.581627,34.108917,-36.45327,54.01797,19.431767,-0.13204724,-0.06748708,0.91875356,-25.362501,48.404533,53.999454,-12.823402,3.749777,-9.193693
211,-48.69997024536133,-55.76028060913086,74.97833251953125,0.9383114560071493,3.8481473141807165,2.2684444740014666,-17.534727,13.937182,34.409092,41.539215,-24.851011,2.3551474,-22.954899,-26.69099,-9.589469,64.021835,-22.078169,5.051564,-0.184414,-3.8693562,7.5738144,4.605175,34.135868,-36.271782,53.981888,19.408426,-0.14667413,-0.038190752,0.85609245,-25.338049,48.534283,53.93137,-12.969521,3.7293382,-9.110698
212,-48.89331817626953,-56.026222229003906,74.96089172363281,0.971873972297463,3.901286974272912,2.256734730317657,-17.861725,14.182932,34.309727,41.678883,-24.6231,2.2389014,-22.180527,-26.99217,-9.510474,63.14429,-22.277477,5.048124,-0.11353052,-3.8914237,7.5154862,4.57809,34.147247,-36.154156,53.96534,19.355036,-0.1655397,-0.010260412,0.81503135,-25.32692,48.62061,53.84058,-13.069083,3.7166307,-9.062756
213,-49.085201263427734,-56.29621124267578,74.94471740722656,0.995623460018796,3.951425251872178,2.2380603943235107,-18.196678,14.450893,34.206104,41.843082,-24.397987,2.1407459,-21.409986,-27.266493,-9.490696,62.20248,-22.437101,5.051144,-0.04822585,-3.8978944,7.468588,4.5525856,34.15484,-36.03936,53.92587,19.2707,-0.19164847,0.011475738,0.75713176,-25.319065,48.710495,53.741913,-13.094762,3.7163348,-9.071876
214,-49.27644348144531,-56.57938003540039,74.92477416992188,1.0147837452554926,4.000141598707744,2.2147244329766957,-18.537073,14.731375,34.09911,42.020473,-24.172598,2.054336,-20.639576,-27.512346,-9.514987,61.18408,-22.569221,5.071766,0.0053578955,-3.8962548,7.428427,4.54363,34.161316,-35.90831,53.854145,19.173306,-0.22407678,0.023866754,0.6767555,-25.312336,48.81325,53.642193,-13.069622,3.7245708,-9.116209
215,-49.46681213378906,-56.8662109375,74.90347290039062,1.0255238568251324,4.048230465804422,2.1865629615166244,-18.881994,15.029341,33.987484,42.20698,-23.94547,1.965472,-19.86942,-27.723505,-9.582297,60.097614,-22.668875,5.116576,0.07661799,-3.8847775,7.391631,4.503071,34.163284,-35.820072,53.79318,19.062616,-0.25708264,0.03522824,0.60665464,-25.309998,48.888775,53.53438,-13.026942,3.7341762,-9.165508
216,-49.65972137451172,-57.158077239990234,74.88134765625,1.0240464803854747,4.095978448092967,2.1533744546358777,-19.23082,15.351143,33.870323,42.401024,-23.717463,1.8593712,-19.099876,-27.895555,-9.691239,58.952118,-22.731438,5.1935678,0.14282806,-3.8612661,7.35468,4.4659896,34.162354,-35.736637,53.732967,18.971743,-0.2854674,0.05249132,0.5296552,-25.30919,48.966457,53.436512,-12.980635,3.7388055,-9.19165
217,-49.854034423828125,-57.45516586303711,74.853759765625,1.0071404658618877,4.143452124791653,2.114292979265028,-19.58615,15.70363,33.747154,42.6089,-23.491488,1.731105,-18.321768,-28.033579,-9.865751,57.73431,-22.763378,5.3044205,0.22361474,-3.8242223,7.316849,4.412057,34.15984,-35.684635,53.68611,18.898994,-0.31028202,0.07790529,0.46408203,-25.309156,49.016846,53.343803,-12.939513,3.7382956,-9.181167
218,-50.05242919921875,-57.756996154785156,74.826904296875,0.9770341323035259,4.190546551201961,2.0696455168682113,-19.947498,16.08163,33.618046,42.828003,-23.26547,1.5891155,-17.53624,-28.13692,-10.098407,56.44214,-22.765116,5.445915,0.27767518,-3.7722104,7.2781553,4.392805,34.149975,-35.596375,53.62211,18.854824,-0.33427012,0.10733311,0.3728356,-25.308947,49.096157,53.268047,-12.8789015,3.7367744,-9.153227
219,-50.24372482299805,-58.06678009033203,74.80099487304688,0.9394669470715932,4.237407369930549,2.0206333355753894,-20.31204,16.47392,33.48218,43.04814,-23.035168,1.4386734,-16.76731,-28.187044,-10.336773,55.10739,-22.7205,5.6182923,0.3471006,-3.714049,7.2408276,4.343856,34.13952,-35.55182,53.573627,18.808243,-0.35239613,0.1390778,0.28945795,-25.308702,49.153553,53.194447,-12.821101,3.7301261,-9.121509
220,-50.433753967285156,-58.389251708984375,74.77519226074219,0.8999678898587757,4.284245252053404,1.9686637029209797,-20.675787,16.868567,33.339092,43.25705,-22.795147,1.2849094,-16.035755,-28.169683,-10.528856,53.756798,-22.615068,5.822074,0.41540074,-3.6542552,7.203819,4.280881,34.126354,-35.53015,53.53406,18.76372,-0.36095044,0.17143072,0.20164345,-25.308783,49.214558,53.12678,-12.769131,3.7164607,-9.102443
221,-50.62528991699219,-58.71267318725586,74.74636840820312,0.8534582165747755,4.333147613905905,1.9146808855958473,-21.043001,17.267984,33.183456,43.454536,-22.544737,1.130158,-15.358917,-28.085573,-10.677762,52.403046,-22.404638,5.957741,0.47831124,-3.58523,7.164037,4.2172585,34.109947,-35.52706,53.49331,18.731348,-0.35376006,0.20635752,0.1020199,-25.308956,49.29035,53.074936,-12.714024,3.6852698,-9.100861
222,-50.8221549987793,-59.0372200012207,74.71857452392578,0.7992326226855294,4.383171311658293,1.8575718383396265,-21.414408,17.676468,33.016914,43.646614,-22.286747,0.9713335,-14.722433,-27.941042,-10.802987,51.029335,-22.11105,6.058529,0.5405222,-3.50803,7.124796,4.146662,34.093678,-35.545517,53.452175,18.707327,-0.33443105,0.24324071,-0.00058580673,-25.309187,49.36466,53.03027,-12.662735,3.6413286,-9.107763
223,-51.02171325683594,-59.365028381347656,74.69189453125,0.7485534583218009,4.430896592408179,1.7963310882103156,-21.781178,18.085407,32.849373,43.828537,-22.020737,0.80550563,-14.099301,-27.72799,-10.878019,49.61562,-21.815968,6.3237257,0.59558076,-3.4325833,7.0800896,4.0606136,34.054424,-35.57254,53.443233,18.687466,-0.31532472,0.2823235,-0.11608433,-25.307505,49.461273,52.998604,-12.606662,3.6043017,-9.12093
224,-51.219581604003906,-59.7065315246582,74.6651840209961,0.7148176140811253,4.47203175039285,1.7296256890767332,-22.131868,18.48428,32.69263,43.994152,-21.745556,0.6298342,-13.459931,-27.436935,-10.876028,48.135605,-21.59615,6.9523315,0.6787601,-3.3878748,7.056304,3.9740791,34.04719,-35.587902,53.402122,18.67709,-0.3048895,0.30879804,-0.2113104,-25.30751,49.50464,52.932537,-12.588283,3.5916958,-9.128893
225,-51.415748596191406,-60.05840301513672,74.63162994384766,0.7068224299155501,4.506043235703352,1.6572014394741792,-22.464006,18.867657,32.553688,44.147064,-21.465616,0.4477217,-12.766822,-27.034477,-10.718367,46.48973,-21.42935,8.178535,0.75352937,-3.3747864,7.0192137,3.8920863,34.020817,-35.585846,53.39116,18.678482,-0.30750895,0.33261076,-0.3210779,-25.305141,49.599358,52.87142,-12.556314,3.62344,-9.143267
226,-51.61787796020508,-60.41546630859375,74.5945053100586,0.7175541653858493,4.534435968728602,1.5799005074086725,-22.781475,19.23869,32.426132,44.28576,-21.178299,0.2599489,-12.0377445,-26.539278,-10.4470825,44.706814,-21.276815,9.833698,0.8326378,-3.3864455,6.9905887,3.8135693,33.992237,-35.558075,53.378475,18.706287,-0.31795153,0.34977427,-0.42998374,-25.29994,49.678364,52.7989,-12.552024,3.6825309,-9.156159
227,-51.82687759399414,-60.78448486328125,74.5522689819336,0.7343975523300426,4.558439210614353,1.4979844537456652,-23.086802,19.606777,32.30298,44.405563,-20.87814,0.05874501,-11.33068,-26.02699,-10.21585,42.961975,-21.195412,11.51602,0.9239501,-3.4101963,6.9728,3.7243202,33.975273,-35.536644,53.36104,18.719612,-0.33212873,0.36212674,-0.53297794,-25.295788,49.7413,52.71369,-12.556088,3.7436914,-9.17001
228,-52.032325744628906,-61.16386795043945,74.51020050048828,0.7430191634079198,4.578934266970891,1.4122250520509625,-23.383453,19.981146,32.173264,44.499397,-20.55757,-0.16362238,-10.706254,-25.563427,-10.179163,41.43108,-21.24156,12.827999,0.99469393,-3.4208455,6.957579,3.6514297,33.94198,-35.4853,53.345314,18.71653,-0.34828654,0.37685207,-0.6629545,-25.285978,49.84078,52.653145,-12.538647,3.7820275,-9.189008
229,-52.2468376159668,-61.54236602783203,74.47203826904297,0.744966711909717,4.596406643284608,1.3210981814840155,-23.674051,20.362297,32.036594,44.57209,-20.213045,-0.41274774,-10.183986,-25.165508,-10.405441,40.173023,-21.473274,13.661717,1.0825039,-3.4254975,6.952545,3.5672565,33.917892,-35.446323,53.317852,18.676003,-0.36480078,0.3822625,-0.77936083,-25.278093,49.92013,52.584614,-12.523832,3.7905269,-9.212039
230,-52.45611572265625,-61.932003021240234,74.44094848632812,0.7451422216180518,4.61018667953387,1.2246901937634236,-23.956707,20.747107,31.897532,44.625336,-19.849266,-0.6834267,-9.73358,-24.79341,-10.804538,39.094753,-21.848888,14.235876,1.1703919,-3.429008,6.9542437,3.4775982,33.89495,-35.40626,53.289394,18.606668,-0.38370532,0.38125247,-0.89960724,-25.270193,50.00485,52.517803,-12.506813,3.7830021,-9.239428
231,-52.678184509277344,-62.322265625,74.40901947021484,0.7343727112305954,4.619811771641059,1.1257974140641112,-24.231945,21.140072,31.750427,44.653862,-19.472261,-0.9670669,-9.344691,-24.421553,-11.287696,38.14799,-22.278263,14.644337,1.2774912,-3.4251513,6.971435,3.3750715,33.887115,-35.384007,53.253296,18.514816,-0.40388238,0.38763055,-1.0025105,-25.267998,50.050396,52.431015,-12.494171,3.762829,-9.264106
232,-52.904850006103516,-62.71776580810547,74.37481689453125,0.7027607923085781,4.624808222891423,1.0273565293519198,-24.498453,21.547468,31.589668,44.650715,-19.087337,-1.2573942,-9.005755,-24.029491,-11.765955,37.285103,-22.671566,14.979258,1.3516796,-3.398091,6.9985886,3.2999778,33.86991,-35.323433,53.219303,18.42219,-0.4269611,0.42128718,-1.1438868,-25.265297,50.131214,52.3638,-12.447669,3.7346363,-9.286292
233,-53.1421012878418,-63.11788558959961,74.34342956542969,0.6256764271280482,4.635952640468668,0.9117841106833396,-24.780102,22.012386,31.408596,44.638973,-18.699158,-1.5597628,-8.721742,-23.557718,-12.255954,36.47528,-23.029709,15.000033,1.3944149,-3.3222103,7.0267024,3.2597084,33.822205,-35.19631,53.19625,18.338306,-0.45690778,0.4924516,-1.3277897,-25.262135,50.242447,52.31579,-12.367153,3.690491,-9.298477
234,-53.381526947021484,-63.52414321899414,74.3199691772461,0.5442316490946764,4.643067053975763,0.7951669356655546,-25.04967,22.475119,31.225943,44.59401,-18.299545,-1.868389,-8.485181,-23.104355,-12.793071,35.767754,-23.405119,15.000033,1.4628519,-3.2459314,7.0707154,3.189361,33.787777,-35.107746,53.183964,18.220766,-0.49075723,0.58674294,-1.4925587,-25.264866,50.301064,52.2472,-12.276599,3.6293967,-9.3014145
235,-53.617034912109375,-63.931358337402344,74.31092071533203,0.44995132448503844,4.6368599040919944,0.6911042997157248,-25.299124,22.931728,31.025959,44.50551,-17.890001,-2.183174,-8.301645,-22.64371,-13.301426,35.181698,-23.753876,15.000033,1.5190686,-3.154657,7.136265,3.1233368,33.759247,-35.019817,53.168606,18.102633,-0.52165043,0.6929374,-1.6600713,-25.270441,50.349503,52.177795,-12.193761,3.5709672,-9.307591
236,-53.854103088378906,-64.33697509765625,74.32427215576172,0.31624364313545994,4.6124691616704165,0.6063680840518682,-25.533785,23.405527,30.784353,44.3783,-17.47748,-2.5077996,-8.179058,-22.122385,-13.704719,34.72504,-24.024948,15.000033,1.5277532,-3.009697,7.226999,3.0779235,33.709126,-34.898357,53.158367,18.016052,-0.5434472,0.8022003,-1.8544767,-25.283735,50.432346,52.121937,-12.135057,3.53499,-9.328121
237,-54.095069885253906,-64.74466705322266,74.34135437011719,0.13003699366077787,4.555905412308547,0.5441525366425328,-25.743553,23.903925,30.484957,44.20874,-17.054258,-2.8443794,-8.117976,-21.519949,-13.959435,34.416164,-24.195337,15.000033,1.5072538,-2.7974527,7.354841,3.0210211,33.637154,-34.7803,53.173336,17.956436,-0.55496925,0.9176287,-2.0571363,-25.306763,50.527695,52.069866,-12.114843,3.5246766,-9.368973
238,-54.34580612182617,-65.15204620361328,74.3606948852539,-0.09227977890037121,4.4738430161339044,0.501110046345855,-25.931284,24.413456,30.143867,43.996017,-16.620108,-3.1905835,-8.114928,-20.870771,-14.116517,34.250492,-24.299656,15.000033,1.4688469,-2.5373242,7.514462,2.9420319,33.54745,-34.67957,53.21765,17.906256,-0.5593768,1.0435989,-2.2624474,-25.340458,50.621098,52.017033,-12.120202,3.5302606,-9.422937
