unveil-humanoid-operators/unveil-humanoid-operators.github.io/feature-analysis-animation/data/feature_matrix_instances/weight_ankle_peak_vel_gesture_A029_clap_enthusiastic_003__A029.csv
Frame,root_translateX,root_translateY,root_translateZ,root_rotateX,root_rotateY,root_rotateZ,left_hip_pitch_joint_dof,left_hip_roll_joint_dof,left_hip_yaw_joint_dof,left_knee_joint_dof,left_ankle_pitch_joint_dof,left_ankle_roll_joint_dof,right_hip_pitch_joint_dof,right_hip_roll_joint_dof,right_hip_yaw_joint_dof,right_knee_joint_dof,right_ankle_pitch_joint_dof,right_ankle_roll_joint_dof,waist_yaw_joint_dof,waist_roll_joint_dof,waist_pitch_joint_dof,left_shoulder_pitch_joint_dof,left_shoulder_roll_joint_dof,left_shoulder_yaw_joint_dof,left_elbow_joint_dof,left_wrist_roll_joint_dof,left_wrist_pitch_joint_dof,left_wrist_yaw_joint_dof,right_shoulder_pitch_joint_dof,right_shoulder_roll_joint_dof,right_shoulder_yaw_joint_dof,right_elbow_joint_dof,right_wrist_roll_joint_dof,right_wrist_pitch_joint_dof,right_wrist_yaw_joint_dof
0,-0.0052115218713879585,2.010829210281372,78.50345611572266,-0.010033245041251712,-1.3007349549198495,-93.66339605963537,4.4259953,4.5750976,11.383805,7.247621,-9.4361725,-4.9028306,2.385261,-3.0690145,-10.128372,7.5242615,-10.204008,2.7030356,-2.279277,0.8538709,6.584391,-2.6447515,15.007955,-55.280067,53.226402,-10.786298,5.4215026,18.090736,-6.388433,-9.157519,52.52595,63.8559,11.64292,1.1929168,-11.744912
1,-0.0072865718975663185,2.0019898414611816,78.50476837158203,-0.0025187814846519404,-1.2865153594705339,-93.62860093572915,4.410073,4.5604057,11.363972,7.243758,-9.428042,-4.894698,2.382925,-3.0853438,-10.15583,7.5287952,-10.22061,2.7000146,-2.353811,0.84715587,6.563905,-2.5739598,15.030469,-55.18822,53.188217,-10.805534,5.416021,18.100916,-6.3061047,-9.1473675,52.152275,63.8254,11.64942,1.1215829,-11.679956
2,-0.005927902180701494,1.9930723905563354,78.50614929199219,0.005646610736537825,-1.2736402940548,-93.59560027814888,4.395575,4.5457153,11.346561,7.241559,-9.4211235,-4.885977,2.3815563,-3.1017528,-10.180979,7.533986,-10.237709,2.6962872,-2.399255,0.83904874,6.546082,-2.523654,15.05169,-55.14714,53.15891,-10.819691,5.416164,18.119293,-6.2090855,-9.146262,51.762318,63.777153,11.640092,1.0541676,-11.617918
3,-0.007006880361586809,1.9845657348632812,78.50653076171875,0.012382356608883146,-1.2581960742808644,-93.55917462905644,4.3778257,4.531261,11.324251,7.2372947,-9.412627,-4.8784075,2.3784602,-3.1179433,-10.210758,7.5369835,-10.252881,2.6939611,-2.4323158,0.8307241,6.5288105,-2.4759226,15.073928,-55.08537,53.131413,-10.862471,5.4051356,18.123676,-6.101632,-9.155788,51.307568,63.714684,11.631133,0.98142993,-11.543427
4,-0.00804909598082304,1.974855899810791,78.50553131103516,0.01665824555705521,-1.235925032666783,-93.51413058581535,4.3496575,4.5189548,11.289182,7.231552,-9.402197,-4.8739004,2.3744223,-3.1315792,-10.252735,7.5279164,-10.260248,2.694814,-2.457025,0.82424074,6.512725,-2.4203079,15.102589,-54.945663,53.098473,-10.971517,5.366415,18.092054,-5.976161,-9.185943,50.71908,63.62484,11.630457,0.89532155,-11.439301
5,-0.008849904872477055,1.9688612222671509,78.50541687011719,0.017003050097615865,-1.205277874716011,-93.45868512556324,4.3096814,4.5102286,11.237723,7.2231054,-9.390264,-4.8742743,2.365626,-3.1419678,-10.310335,7.5108666,-10.261498,2.6991866,-2.51533,0.82404906,6.489396,-2.3345897,15.122654,-54.6883,53.074203,-11.116877,5.2836494,18.03184,-5.848719,-9.221902,50.06161,63.538944,11.661367,0.77409697,-11.323313
6,-0.010970749892294407,1.966450572013855,78.50686645507812,0.014156194740263008,-1.1685688458810772,-93.39558033587525,4.2609873,4.504182,11.174471,7.213289,-9.377417,-4.8781652,2.354725,-3.1497228,-10.379268,7.4855137,-10.2569895,2.7060976,-2.555742,0.8265178,6.4673333,-2.2478213,15.146606,-54.392036,53.051598,-11.30103,5.1709194,17.9507,-5.6935053,-9.283241,49.292244,63.42012,11.694123,0.6304355,-11.192591
7,-0.010151741094887257,1.9603526592254639,78.50812530517578,0.012707911353037685,-1.1277086164169179,-93.32700718682169,4.2065396,4.4968305,11.10456,7.199895,-9.360334,-4.8823347,2.340331,-3.1585238,-10.454232,7.4578996,-10.249574,2.7158213,-2.6077616,0.82889146,6.4493384,-2.1500757,15.169945,-53.986153,53.019096,-11.563579,5.05252,17.822512,-5.536396,-9.358727,48.41968,63.277077,11.741535,0.5020028,-11.017652
8,-0.01412501186132431,1.9557563066482544,78.50968170166016,0.011837716181996838,-1.0847475033018257,-93.25482763194977,4.1456723,4.4857078,11.032704,7.1898212,-9.340824,-4.88352,2.3250606,-3.1701903,-10.530395,7.425966,-10.237317,2.7284052,-2.660751,0.8267243,6.444407,-2.0504832,15.197578,-53.44345,52.96148,-11.952138,4.9545608,17.621683,-5.381808,-9.453072,47.39176,63.092052,11.792881,0.42799208,-10.763958
9,-0.016913849860429764,1.9531875848770142,78.50999450683594,0.015701055228058508,-1.038894040843375,-93.17645037743534,4.081704,4.467951,10.957511,7.1754465,-9.314142,-4.8815594,2.3067648,-3.187392,-10.609012,7.3960247,-10.224156,2.7464182,-2.722418,0.81718445,6.4515033,-1.9293971,15.230269,-52.73755,52.86614,-12.460628,4.885657,17.329136,-5.2198887,-9.563115,46.189217,62.869934,11.8075285,0.40218392,-10.412769
10,-0.015878282487392426,1.9476652145385742,78.51487731933594,0.021484857228003716,-0.9895861886144686,-93.09188867958761,4.0110745,4.446306,10.877082,7.1623793,-9.284467,-4.8780165,2.287566,-3.207715,-10.692026,7.362447,-10.207607,2.7689385,-2.7899652,0.8027534,6.468535,-1.7892649,15.269097,-51.894417,52.739017,-13.070878,4.8344684,16.962193,-5.0468445,-9.688945,44.834373,62.612762,11.800926,0.409337,-9.984852
11,-0.012438689358532429,1.9479403495788574,78.51697540283203,0.027496774590507568,-0.9388280153446771,-93.00700263640985,3.9373865,4.4225664,10.796863,7.1457405,-9.249788,-4.8720994,2.2623074,-3.2298481,-10.774397,7.3310685,-10.1883955,2.7911325,-2.8540394,0.7865094,6.4996963,-1.6645653,15.31786,-50.947655,52.593277,-13.811484,4.7976437,16.54995,-4.884245,-9.831278,43.360603,62.309864,11.853703,0.47557387,-9.507237
12,-0.008359817788004875,1.957015872001648,78.51895904541016,0.03367992080178494,-0.888722453029678,-92.92777807458232,3.85769,4.4002576,10.721567,7.133281,-9.214602,-4.8632345,2.2299426,-3.2512028,-10.851484,7.3012133,-10.165002,2.8081992,-2.905426,0.77195865,6.549368,-1.5878733,15.382608,-49.929085,52.439796,-14.709546,4.7719145,16.121372,-4.754935,-9.991575,41.801395,61.951145,12.046656,0.6281453,-9.0072775
13,-0.0039035435765981674,1.9715189933776855,78.52279663085938,0.03837145531013653,-0.8421345147953461,-92.85953260572175,3.7782035,4.380835,10.655992,7.1201386,-9.179677,-4.851972,2.189488,-3.2702627,-10.918427,7.276503,-10.137961,2.8188555,-2.9382253,0.7591251,6.62116,-1.5662764,15.470249,-48.85257,52.287556,-15.82006,4.744989,15.620543,-4.6644893,-10.17071,40.15968,61.541073,12.450841,0.9129494,-8.455209
14,9.734451305121183e-05,1.9949449300765991,78.52716064453125,0.04240031885953416,-0.7972016562966087,-92.79785693746062,3.6948564,4.363187,10.596427,7.110703,-9.145677,-4.8376365,2.1422102,-3.288665,-10.978934,7.2550435,-10.107423,2.8256378,-2.9586236,0.7461896,6.7130146,-1.5773698,15.584174,-47.698715,52.119278,-17.113266,4.7294827,15.052879,-4.5990176,-10.369421,38.418594,61.08078,13.003294,1.3070246,-7.8510723
15,0.002686662832275033,2.0224156379699707,78.53048706054688,0.04743999166428932,-0.7486570969156096,-92.73392794037593,3.6029131,4.3429527,10.53511,7.1013637,-9.105266,-4.820454,2.086496,-3.3094337,-11.040931,7.2354255,-10.074397,2.8295784,-2.9760623,0.7336109,6.8205867,-1.6107088,15.724587,-46.449684,51.90821,-18.48943,4.7542458,14.539302,-4.5536823,-10.589748,36.58266,60.555355,13.587398,1.7332556,-7.266212
16,0.009519878774881363,2.049374580383301,78.53619384765625,0.056487078908192524,-0.6912900687215777,-92.65897667409102,3.497046,4.316311,10.46507,7.088124,-9.049938,-4.7980647,2.0202441,-3.3363903,-11.112258,7.2162566,-10.039145,2.8318007,-3.000232,0.72151935,6.939326,-1.6567016,15.889126,-45.08649,51.630043,-19.848547,4.8403463,14.202348,-4.5220923,-10.834175,34.655605,59.947044,14.088518,2.1111677,-6.7689815
17,0.01573803834617138,2.0874104499816895,78.5413818359375,0.06808197524840252,-0.6262138758871262,-92.56887692952937,3.3745477,4.281576,10.383426,7.078711,-8.978802,-4.7684712,1.9445182,-3.3718295,-11.1957445,7.2007837,-10.004105,2.8303878,-3.037891,0.70788515,7.068007,-1.7110488,16.076216,-43.61314,51.30711,-21.083223,5.002676,14.032324,-4.508176,-11.107887,32.644886,59.2861,14.48521,2.4288094,-6.2889934
18,0.025947820395231247,2.1220641136169434,78.5509262084961,0.08285943857296563,-0.5553056341699975,-92.46886995406483,3.2393851,4.2404943,10.294578,7.0711427,-8.895569,-4.732464,1.8601183,-3.4138787,-11.286817,7.1877294,-9.967574,2.8256085,-3.0822756,0.6935579,7.2095475,-1.7778627,16.285799,-42.0357,50.942657,-22.273897,5.219977,13.980451,-4.50658,-11.412507,30.54509,58.56167,14.837016,2.7256668,-5.8170724
19,0.03419618308544159,2.156994581222534,78.56058502197266,0.09923777198368999,-0.4748757055353311,-92.36447384234361,3.0901506,4.1964355,10.201308,7.059708,-8.804727,-4.6944804,1.7642425,-3.4582148,-11.382563,7.1702776,-9.925404,2.8214228,-3.122575,0.6849381,7.365536,-1.8596153,16.516228,-40.33852,50.484226,-23.604218,5.4520364,14.110565,-4.49687,-11.739851,28.340263,57.69483,15.157123,2.9945953,-5.510962
20,0.04452701658010483,2.192861318588257,78.57059478759766,0.11371210021029783,-0.3811414300380373,-92.26111509940395,2.9278505,4.152229,10.106579,7.034983,-8.70972,-4.658774,1.6553158,-3.500206,-11.480164,7.1396093,-9.872422,2.821909,-3.1494157,0.6877466,7.5356536,-1.956237,16.76497,-38.504696,49.88062,-25.259941,5.654497,14.486382,-4.465614,-12.074237,26.01396,56.617867,15.459653,3.226432,-5.528537
21,0.055744003504514694,2.2402825355529785,78.57625579833984,0.125861606584861,-0.27055799430435307,-92.1614503720334,2.7484393,4.109911,10.011423,6.9963627,-8.613711,-4.6270895,1.5313368,-3.5373993,-11.579005,7.0883946,-9.80477,2.8290954,-3.1616397,0.70292836,7.7122707,-2.0591362,17.034107,-36.499977,49.14594,-27.356651,5.785863,15.0935955,-4.422289,-12.407603,23.514343,55.367157,15.729336,3.4151394,-5.8763094
22,0.06578248739242554,2.308227300643921,78.5851821899414,0.13749389570787493,-0.14615096244642775,-92.06215441397775,2.553842,4.0676727,9.914149,6.946978,-8.513914,-4.5970182,1.3933634,-3.5725894,-11.680609,7.024371,-9.726855,2.8405075,-3.164946,0.72586316,7.8934946,-2.1595645,17.324196,-34.34224,48.29639,-29.775833,5.856421,15.907993,-4.3776875,-12.735669,20.864315,53.976864,15.968386,3.5633056,-6.48007
23,0.07357539236545563,2.3605690002441406,78.59415435791016,0.14868094106391244,-0.013988108081690633,-91.95947974522228,2.3464127,4.024756,9.812952,6.896428,-8.409597,-4.566653,1.2336425,-3.610188,-11.784604,6.9828467,-9.656668,2.8532255,-3.1628244,0.7545731,8.085855,-2.2586052,17.625694,-32.089176,47.289818,-32.354763,5.891181,16.979372,-4.3324003,-13.040642,18.160126,52.389313,16.218754,3.6724784,-7.3776917
24,0.08611961454153061,2.4065499305725098,78.603515625,0.1598156778774552,0.11978563067026154,-91.8495069517876,2.113102,3.983725,9.704906,6.8899713,-8.320227,-4.534149,1.0544091,-3.6523995,-11.891831,6.977629,-9.600542,2.864732,-3.1611888,0.78469086,8.290322,-2.3675182,17.921785,-29.796177,46.102722,-34.932976,5.9132686,18.362139,-4.3062277,-13.298101,15.501359,50.56853,16.521894,3.7410038,-8.610921
25,0.09243443608283997,2.468784809112549,78.61275482177734,0.17025320867244342,0.25512469427509205,-91.72814086244632,1.8735765,3.9394195,9.589024,6.883071,-8.220394,-4.498682,0.8740596,-3.6971312,-12.00449,6.971857,-9.538721,2.874233,-3.1658661,0.80894464,8.494881,-2.4831219,18.20239,-27.42272,44.744843,-37.643158,5.8702564,20.163633,-4.324339,-13.500962,12.883634,48.534492,16.994152,3.7758305,-10.330024
26,0.10457782447338104,2.520347833633423,78.6226806640625,0.18026850980894601,0.394472860536243,-91.5984896096601,1.6256205,3.8935206,9.466671,6.874859,-8.112648,-4.4614325,0.6886457,-3.7427483,-12.122266,6.9652567,-9.471498,2.883518,-3.1759274,0.8278845,8.688724,-2.6112957,18.4639,-24.956964,43.253784,-40.5099,5.7168727,22.324646,-4.395079,-13.649291,10.267427,46.328114,17.576056,3.760629,-12.472533
27,0.12444547563791275,2.5844509601593018,78.6331558227539,0.19113617449067663,0.5355742306350829,-91.46749658921729,1.3720425,3.8471768,9.342524,6.8672633,-7.9986486,-4.423325,0.49825338,-3.7887557,-12.240723,6.959098,-9.40031,2.8915398,-3.185898,0.8432971,8.870588,-2.7948194,18.696257,-22.500332,41.667507,-43.21473,5.515626,24.657759,-4.529822,-13.727054,7.698737,43.961777,18.040787,3.669372,-14.764793
28,0.13461840152740479,2.664764165878296,78.64482879638672,0.20163612664517716,0.6759601354507155,-91.3423756004415,1.1175227,3.8030403,9.221003,6.8584986,-7.8780704,-4.385365,0.303721,-3.8329086,-12.355709,6.9522505,-9.324902,2.8969913,-3.1894734,0.8585019,9.037888,-3.092995,18.88754,-20.155855,40.04319,-45.4456,5.3690615,26.984484,-4.751227,-13.709259,5.2218466,41.461105,18.156235,3.4957216,-16.937489
29,0.14652006328105927,2.7433393001556396,78.65621185302734,0.21254605230648957,0.8139159883151397,-91.23164977263177,0.86506784,3.761777,9.109226,6.8506236,-7.751898,-4.3479853,0.10426732,-3.8747034,-12.459885,6.945353,-9.244659,2.8992994,-3.1776154,0.8753213,9.180966,-3.5417862,19.039707,-17.93065,38.41588,-47.08211,5.394462,29.412893,-5.0520825,-13.584259,2.7945995,38.81134,17.805277,3.2362843,-19.025282
30,0.1542881429195404,2.822106122970581,78.66675567626953,0.22355701362655123,0.9509104599976083,-91.12932330816994,0.61298484,3.7224722,9.00279,6.8410773,-7.6184115,-4.310623,-0.0996997,-3.914502,-12.557702,6.938456,-9.160023,2.8990617,-3.1495054,0.88854057,9.295414,-4.1369176,19.164637,-15.78676,36.78433,-48.311764,5.534882,32.002907,-5.4416685,-13.363801,0.399282,36.017536,17.110607,2.9232323,-21.149881
31,0.1615324467420578,2.896104097366333,78.68020629882812,0.23237496003489935,1.0894139068202124,-91.02045858919973,0.353876,3.6848207,8.888589,6.8311095,-7.4786863,-4.272768,-0.30694273,-3.9521987,-12.662745,6.9300036,-9.071699,2.8969736,-3.1137652,0.89130557,9.3889065,-4.879165,19.265696,-13.754895,35.150505,-49.28037,5.663245,34.500793,-5.961515,-13.064339,-1.8789139,33.126335,16.205503,2.6080666,-23.173372
32,0.17246364057064056,2.9943339824676514,78.689208984375,0.23350232428837928,1.232231118486404,-90.8898528761382,0.065326676,3.6537967,8.751572,6.8520226,-7.3487334,-4.234249,-0.5187061,-3.9854677,-12.789362,6.9223986,-8.982062,2.8936658,-3.0808232,0.8820093,9.470432,-5.7727046,19.337202,-11.864828,33.520878,-50.1206,5.6482005,36.64416,-6.6385965,-12.704091,-3.9511003,30.174572,15.229187,2.327776,-24.953596
33,0.18633101880550385,3.0938127040863037,78.70026397705078,0.22948858766254868,1.3811323574995504,-90.7324231463068,-0.245286,3.622715,8.587167,6.8766932,-7.2124777,-4.192437,-0.73604083,-4.017772,-12.9425125,6.9143057,-8.889817,2.8913593,-3.0571816,0.86801165,9.5430155,-6.8336997,19.373606,-10.1017,31.892057,-50.890392,5.4742584,38.445656,-7.4447546,-12.284348,-5.827039,27.079296,14.218176,2.060911,-26.457235
34,0.19187651574611664,3.1928200721740723,78.71063232421875,0.22322681278345327,1.5340518149292846,-90.5567032436907,-0.6567218,3.6027837,8.398431,7.0857544,-7.1662426,-4.1480956,-0.9585423,-4.05109,-13.113573,6.905799,-8.794182,2.8892293,-3.035525,0.8522946,9.60271,-8.0672655,19.380653,-8.455842,30.269258,-51.50152,5.2267623,40.015396,-8.352969,-11.810392,-7.547663,23.824993,13.099688,1.7970229,-27.760605
35,0.19509175419807434,3.2947096824645996,78.7209701538086,0.2142205807954421,1.6875679387305182,-90.36943799473846,-1.1135846,3.5896382,8.196747,7.3798766,-7.1596303,-4.104813,-1.1806669,-4.0821357,-13.2955065,6.8973002,-8.698864,2.8833048,-3.0064888,0.82549065,9.652007,-9.458656,19.365654,-6.9640646,28.667774,-51.86545,4.9269605,41.23094,-9.379215,-11.308798,-9.064439,20.536558,11.857037,1.5809418,-28.876734
36,0.20559203624725342,3.397972583770752,78.72735595703125,0.20109332469069324,1.8382175460875987,-90.17721954319336,-1.5654707,3.5811155,7.993055,7.6709747,-7.15333,-4.0665145,-1.3977563,-4.1079645,-13.481072,6.8896365,-8.606739,2.8695872,-2.9647112,0.78293633,9.694152,-10.982881,19.331345,-5.6571903,27.094362,-51.897446,4.5993614,41.968742,-10.543792,-10.813869,-10.320335,17.343613,10.483382,1.4591058,-29.81219
37,0.20625334978103638,3.4898664951324463,78.73548126220703,0.18284827130203013,1.9824152836499056,-89.97880937631719,-2.0163376,3.5804715,7.7873554,7.9762955,-7.155348,-4.035414,-1.604965,-4.126492,-13.671529,6.882369,-8.518834,2.8423522,-2.9126284,0.7301073,9.732866,-12.63352,19.264097,-4.516289,25.527697,-51.555714,4.237619,42.076912,-11.861787,-10.33514,-11.286548,14.244479,8.950391,1.4502323,-30.545506
38,0.20493756234645844,3.598263740539551,78.74040222167969,0.16008001854716394,2.1229427229598494,-89.7717245297959,-2.474103,3.5857182,7.575538,8.300758,-7.165939,-4.0092096,-1.8063296,-4.1399727,-13.869632,6.875309,-8.433252,2.805383,-2.8569787,0.6771753,9.763845,-14.415677,19.156832,-3.5231676,23.967358,-50.89894,3.8353534,41.662704,-13.318208,-9.868188,-11.991882,11.186307,7.2844954,1.5191375,-31.071638
39,0.20875206589698792,3.7039108276367188,78.7458267211914,0.1350451005057738,2.265955859151185,-89.56044200687332,-2.9383953,3.5921957,7.35941,8.632244,-7.17858,-3.985006,-2.008497,-4.1510406,-14.071003,6.867903,-8.348921,2.7689154,-2.7991767,0.62390995,9.780652,-16.31372,19.022865,-2.7131398,22.442194,-49.99934,3.4158158,40.98999,-14.89673,-9.424728,-12.462938,8.235258,5.5644364,1.6279349,-31.417648
40,0.207145556807518,3.7995383739471436,78.74920654296875,0.11065845117421251,2.4174515645105177,-89.34948616091272,-3.4109597,3.5951228,7.1409726,8.963451,-7.1890025,-3.9598374,-2.2187603,-4.163444,-14.270991,6.8613553,-8.265821,2.7432914,-2.7411532,0.5670334,9.778432,-18.307827,18.881777,-2.1247175,20.974394,-48.934547,3.0105505,40.320038,-16.593023,-9.02294,-12.724322,5.47139,3.8746078,1.738044,-31.610825
41,0.2053171843290329,3.895869493484497,78.7533187866211,0.08817748962640636,2.58671776306429,-89.13706138392351,-3.9038315,3.5917757,6.91768,9.295484,-7.193811,-3.932969,-2.4475582,-4.1789613,-14.468537,6.853682,-8.180769,2.734635,-2.6922526,0.5001498,9.749289,-20.384722,18.730104,-1.7713877,19.545788,-47.745975,2.561244,39.62382,-18.448751,-8.659241,-12.767127,2.9231448,2.2630389,1.8461533,-31.593355
42,0.20440328121185303,3.9936165809631348,78.75531005859375,0.0663235657898438,2.7677721525208154,-88.92172192190169,-4.4134407,3.5850234,6.689542,9.634168,-7.1974645,-3.9061027,-2.6878057,-4.1954665,-14.666094,6.845623,-8.09554,2.736277,-2.6521544,0.42459175,9.699825,-22.541595,18.55244,-1.6255777,18.137989,-46.39977,2.0644648,38.79851,-20.46914,-8.320589,-12.584034,0.56554306,0.68575996,1.9541633,-31.370651
43,0.20513328909873962,4.091098308563232,78.7546157836914,0.043110072109794985,2.9437696181972766,-88.70850120014954,-4.9139957,3.578491,6.462344,9.970888,-7.2033186,-3.879742,-2.920783,-4.2097154,-14.864378,6.8381915,-8.012991,2.7392592,-2.6091015,0.3508928,9.647975,-24.775686,18.348278,-1.6643507,16.778242,-44.854263,1.6437529,37.98234,-22.601377,-8.008185,-12.199304,-1.5902033,-0.9062663,2.0366817,-31.068377
44,0.20595763623714447,4.1795878410339355,78.7550277709961,0.016629738010701233,3.097669538311289,-88.50259291538329,-5.3792095,3.5761204,6.241857,10.296811,-7.2147737,-3.854344,-3.1270494,-4.218186,-15.064292,6.831216,-7.9357367,2.7347624,-2.5516,0.2883959,9.611283,-27.083021,18.122242,-1.8663718,15.491889,-43.06407,1.4296781,37.30613,-24.803284,-7.730544,-11.634539,-3.5197208,-2.5563295,2.0750213,-30.812563
45,0.20388302206993103,4.265522003173828,78.75471496582031,-0.015559460678615666,3.2216692224001586,-88.3035383774174,-5.801721,3.580714,6.0269146,10.613215,-7.2345376,-3.828865,-3.298053,-4.2187166,-15.271778,6.8248315,-7.8649454,2.7196143,-2.4765337,0.2491705,9.599925,-29.478907,17.86348,-2.2342346,14.281911,-40.83373,1.5379168,36.81028,-27.123074,-7.475173,-10.915133,-5.19715,-4.264217,2.0415895,-30.604229
46,0.19632349908351898,4.348384857177734,78.75506591796875,-0.05204354471313292,3.326213745043824,-88.10912022122946,-6.1959143,3.5901318,5.8151855,10.923766,-7.2603116,-3.8034823,-3.4456978,-4.2131186,-15.484634,6.8196125,-7.7993703,2.6987205,-2.3894694,0.22781302,9.606707,-31.949728,17.55527,-2.768632,13.123658,-38.248524,1.8731372,36.400707,-29.574175,-7.2243233,-10.024013,-6.6344013,-6.003701,1.9532048,-30.3931
47,0.19568713009357452,4.433669567108154,78.7537841796875,-0.0904783398315317,3.421827523219999,-87.92192078759264,-6.5699024,3.6018057,5.610175,11.224166,-7.2878704,-3.780478,-3.5815935,-4.203831,-15.691737,6.814938,-7.736956,2.6755593,-2.2984548,0.20809734,9.622834,-34.439922,17.193447,-3.4407265,11.993142,-35.678787,2.2577126,36.012226,-32.07824,-6.9842734,-8.909557,-7.84705,-7.772519,1.8640755,-30.226894
48,0.1950439065694809,4.516026973724365,78.7544937133789,-0.12847401401806055,3.5188452684982763,-87.74451846933276,-6.931159,3.6133637,5.4154816,11.509467,-7.312482,-3.7620745,-3.717066,-4.193394,-15.8818655,6.8102303,-7.6755066,2.6534374,-2.2096934,0.18014269,9.639022,-36.900322,16.78577,-4.224852,10.873377,-33.511757,2.5153277,35.59654,-34.563835,-6.7699237,-7.511048,-8.844661,-9.568518,1.8331075,-30.153368
49,0.1938355565071106,4.588197708129883,78.75493621826172,-0.16704959135654368,3.6212473401913763,-87.57835582825207,-7.286984,3.6265903,5.232552,11.783772,-7.334191,-3.7500045,-3.85869,-4.1803555,-16.05009,6.805854,-7.6119576,2.6310945,-2.142476,0.13131426,9.658973,-39.307747,16.32229,-5.0923643,9.738722,-31.890684,2.5780547,35.17127,-37.0912,-6.5920844,-5.793503,-9.5739,-11.406581,1.8710015,-30.323439
50,0.18246208131313324,4.6540985107421875,78.75547790527344,-0.20738218659267038,3.723028343477742,-87.42187182676201,-7.631853,3.6424978,5.05914,12.048311,-7.3554106,-3.7425947,-3.9985385,-4.163758,-16.20321,6.800995,-7.54812,2.6076024,-2.072958,0.089075245,9.693359,-41.68775,15.790495,-6.0607204,8.59225,-30.616539,2.5546255,34.75698,-39.670124,-6.421773,-3.7877052,-10.064284,-13.284229,1.9657712,-30.674456
51,0.18375913798809052,4.7191643714904785,78.75366973876953,-0.24582696938593132,3.820162187437144,-87.27278863702976,-7.9551105,3.6561744,4.89381,12.295178,-7.3753138,-3.7368171,-4.129209,-4.148312,-16.34677,6.7970815,-7.4902925,2.5864182,-1.9851199,0.064589255,9.741444,-44.026943,15.192047,-7.153251,7.433869,-29.50653,2.534045,34.328384,-42.216953,-6.238589,-1.5311805,-10.376372,-15.120052,2.1198175,-30.91322
52,0.18691188097000122,4.775817394256592,78.749755859375,-0.2793536612872281,3.9086801099180057,-87.1288185105756,-8.242882,3.6625013,4.7353306,12.50977,-7.389805,-3.7296612,-4.242252,-4.138617,-16.486443,6.7933974,-7.4437413,2.5711932,-1.8704304,0.065334015,9.79841,-46.31394,14.545584,-8.39417,6.269509,-28.390625,2.6023233,33.85563,-44.65758,-6.0427017,0.93669635,-10.556289,-16.81205,2.3141294,-30.743553
53,0.1879757195711136,4.819317817687988,78.74747467041016,-0.3072930439926266,3.9857891920706785,-86.98671112611811,-8.495374,3.6596322,4.580093,12.697998,-7.4006844,-3.7207851,-4.3330946,-4.136682,-16.6257,6.789994,-7.411921,2.5633843,-1.7141832,0.10593499,9.874535,-48.55585,13.847739,-9.817538,5.088709,-27.186853,2.830652,33.32701,-46.970715,-5.81142,3.6566381,-10.631441,-18.289474,2.4971366,-30.076365
54,0.18950778245925903,4.854691505432129,78.74494934082031,-0.3309927268718642,4.054254977279474,-86.84859998849547,-8.712752,3.650099,4.4303803,12.851453,-7.4051113,-3.7116032,-4.407451,-4.1399436,-16.760715,6.788508,-7.3922887,2.5609102,-1.5272961,0.1713396,9.970363,-50.74526,13.091746,-11.401353,3.8801913,-25.997469,3.1558452,32.756577,-49.174282,-5.5301805,6.6431127,-10.58597,-19.623667,2.6716273,-29.068762
55,0.18911927938461304,4.880809783935547,78.7449722290039,-0.3510351150377998,4.118393417065733,-86.72020403261543,-8.902443,3.637145,4.2924895,12.979414,-7.40662,-3.701346,-4.470998,-4.1462975,-16.886282,6.7859354,-7.3781843,2.5622795,-1.3261317,0.23490022,10.070218,-52.857117,12.293772,-13.094543,2.64585,-24.946203,3.4623435,32.15401,-51.24588,-5.2078223,9.826539,-10.416245,-20.959778,2.8929317,-27.802008
56,0.19157016277313232,4.897328853607178,78.74383544921875,-0.3670578509711707,4.182235536614423,-86.60735762296052,-9.068064,3.6230621,4.1731277,13.083201,-7.406743,-3.6894147,-4.529746,-4.154073,-16.99705,6.7839885,-7.3670306,2.56596,-1.1286838,0.26726437,10.161645,-54.87127,11.479383,-14.850362,1.3880625,-24.166838,3.6386008,31.534803,-53.187653,-4.864148,13.138332,-10.11232,-22.444809,3.2163427,-26.355925
57,0.1939825713634491,4.900720119476318,78.74546813964844,-0.3778130349272731,4.250086759221506,-86.51168787867113,-9.211821,3.6069121,4.0741243,13.160808,-7.4043336,-3.6730816,-4.588191,-4.1646113,-17.091227,6.783017,-7.357277,2.5739849,-0.9458756,0.2556372,10.24724,-56.912956,10.666658,-16.984085,0.07020831,-23.617682,3.7264242,30.987635,-55.1024,-4.5158434,16.93672,-9.472598,-23.990843,3.697264,-24.32427
58,0.19837303459644318,4.89693546295166,78.74537658691406,-0.3834049584260461,4.318549478279879,-86.43009483376905,-9.330196,3.5878055,3.9921315,13.210102,-7.398188,-3.6536021,-4.640897,-4.1780324,-17.171822,6.780278,-7.3498955,2.5864286,-0.77086794,0.2105258,10.340573,-58.93699,9.849336,-19.420233,-1.3224279,-23.273434,3.768379,30.4832,-56.951946,-4.157177,21.14806,-8.606985,-25.567991,4.2620277,-21.803406
59,0.20736046135425568,4.88854455947876,78.7469711303711,-0.3873074212498131,4.3805820488295355,-86.36097196112947,-9.422163,3.5698056,3.9251072,13.240139,-7.3928156,-3.6360753,-4.6841297,-4.1914725,-17.240574,6.78025,-7.34852,2.5985703,-0.5991041,0.13841882,10.432335,-60.702496,9.029941,-21.523792,-2.7001503,-23.275019,3.6568174,29.858952,-58.587162,-3.790502,25.036236,-7.8998528,-27.419662,4.7871604,-19.61773
60,0.21012702584266663,4.869921684265137,78.74845123291016,-0.39258199747941125,4.428969386983201,-86.30290674928987,-9.486819,3.5568144,3.8711324,13.259794,-7.3928094,-3.625678,-4.7104406,-4.2007117,-17.299564,6.779163,-7.3522716,2.605575,-0.42811748,0.05109483,10.504191,-61.998695,8.230179,-22.658031,-3.93427,-23.752398,3.2890837,28.946198,-59.906303,-3.4356222,27.856539,-7.662787,-29.777143,5.188042,-18.587654
61,0.2133914977312088,4.844349384307861,78.751220703125,-0.4000759524989332,4.462812611801679,-86.26384877250621,-9.515566,3.5526931,3.8392398,13.259207,-7.39628,-3.626382,-4.721247,-4.2027383,-17.341217,6.780007,-7.363095,2.601879,-0.27524188,-0.04889475,10.548804,-62.694862,7.4695654,-22.371323,-4.9631605,-25.191898,2.4736238,27.405333,-60.935925,-3.1258695,29.332027,-7.954347,-33.287903,5.663304,-19.65794
62,0.21883165836334229,4.818066120147705,78.75242614746094,-0.4081541937489878,4.485218883880482,-86.2419828989284,-9.511701,3.5541012,3.827367,13.237673,-7.4017663,-3.6345074,-4.7187486,-4.200635,-17.367083,6.7813735,-7.3791866,2.591625,-0.13913925,-0.15399437,10.562247,-62.957,6.7645946,-21.097155,-5.8511066,-27.388508,1.3843744,25.386204,-61.762104,-2.8783393,29.904554,-8.551735,-37.623516,6.3822083,-22.12848
63,0.22513484954833984,4.78848123550415,78.75511169433594,-0.41616186597884425,4.496113597058673,-86.22032179965736,-9.493269,3.5557551,3.816399,13.221928,-7.416837,-3.6439562,-4.6987987,-4.198458,-17.393192,6.7823167,-7.4012566,2.5840445,0.012052864,-0.2424829,10.542489,-63.009487,6.148059,-19.534071,-6.6742105,-29.415226,0.41019827,23.488592,-62.376564,-2.693132,29.897099,-9.344028,-41.550617,7.0631895,-24.378471
64,0.23340855538845062,4.757487773895264,78.75520324707031,-0.42395441138576434,4.495506223801998,-86.1821635757481,-9.477656,3.5515287,3.7874606,13.23605,-7.447554,-3.6485665,-4.6588116,-4.2015967,-17.435205,6.7832265,-7.4302173,2.588587,0.207677,-0.30339578,10.502072,-63.060436,5.658314,-18.391386,-7.5160108,-30.316626,-0.16186374,22.36689,-62.789856,-2.5589094,29.612892,-10.215703,-43.88621,7.134158,-24.85572
65,0.24121780693531036,4.720789909362793,78.75286102294922,-0.42981648846575493,4.479185827053753,-86.12620531963933,-9.462737,3.5389497,3.740074,13.285461,-7.497389,-3.6469293,-4.593445,-4.2124925,-17.492968,6.7846236,-7.4675026,2.610575,0.4599257,-0.337982,10.452853,-63.125034,5.33498,-17.862463,-8.466652,-29.84685,-0.26012716,22.452991,-62.945087,-2.4657552,28.937765,-11.250588,-43.96688,6.088275,-22.619186
66,0.24995207786560059,4.676713943481445,78.74925994873047,-0.43438182075357273,4.448368363460558,-86.06048180326997,-9.440506,3.521182,3.6829898,13.355974,-7.561627,-3.6422405,-4.505063,-4.227956,-17.559614,6.785725,-7.512208,2.644108,0.7330006,-0.36432412,10.392612,-63.064404,5.193079,-17.585758,-9.50245,-28.51764,-0.06314098,23.335247,-62.859818,-2.4188943,27.777407,-12.490167,-42.45351,4.348109,-18.656275
67,0.2617877125740051,4.635901927947998,78.74300384521484,-0.43985003182032023,4.411726472656785,-85.98165999995983,-9.421391,3.5010648,3.6109245,13.44519,-7.6355233,-3.6353984,-4.404584,-4.24472,-17.640617,6.7873616,-7.5626693,2.6815214,0.982444,-0.39397234,10.315874,-62.87197,5.2195153,-17.423237,-10.505093,-26.498251,0.30040348,24.411245,-62.663654,-2.4246051,26.469446,-13.752944,-40.244656,2.6178071,-14.377318
68,0.27394065260887146,4.600712776184082,78.74108123779297,-0.449435754987974,4.377846574990855,-85.88686375535777,-9.416882,3.4818537,3.5184722,13.552446,-7.7152634,-3.627442,-4.302525,-4.2592053,-17.741478,6.787584,-7.6146812,2.7148771,1.1799678,-0.44245276,10.221894,-62.558983,5.3883715,-17.253517,-11.346322,-23.941906,0.66941017,25.09061,-62.493557,-2.4978056,25.321636,-14.835364,-38.38692,1.3925532,-11.262333
69,0.282803475856781,4.562712669372559,78.73312377929688,-0.4624634297486066,4.345390914017932,-85.76947236083183,-9.424699,3.4617743,3.39841,13.675445,-7.8002815,-3.6186767,-4.1962395,-4.2730045,-17.872627,6.7899485,-7.6727514,2.744115,1.3157278,-0.49527076,10.096718,-62.107857,5.6946144,-17.058172,-11.960822,-20.307676,1.0796286,25.1319,-62.36891,-2.661604,24.433418,-15.661787,-36.979923,0.6870231,-9.599622
70,0.2942158281803131,4.520035743713379,78.72634887695312,-0.4784846048589776,4.310979318085635,-85.63308310755845,-9.441309,3.4404557,3.2553585,13.816823,-7.8930774,-3.6086414,-4.08067,-4.286406,-18.02827,6.791424,-7.735899,2.7727165,1.4149814,-0.5484469,9.948225,-61.534264,6.13822,-16.896711,-12.41668,-15.691206,1.5614727,24.85096,-62.204388,-2.9217067,23.632782,-16.365334,-35.574566,0.23012616,-8.647223
71,0.3009262681007385,4.469077110290527,78.72105407714844,-0.49800183834553596,4.280759492670414,-85.48951405436088,-9.474142,3.4213836,3.1023831,13.978215,-7.9922695,-3.5968833,-3.968682,-4.296769,-18.189053,6.793248,-7.79877,2.798594,1.4861153,-0.59641516,9.809025,-60.88452,6.6871467,-16.702291,-12.80506,-11.200782,1.9382039,24.514336,-62.01157,-3.2605305,22.87472,-17.00497,-34.468925,-0.088975646,-8.403278
72,0.3051340579986572,4.424919128417969,78.71748352050781,-0.5212012492430064,4.260948499302313,-85.35043111794613,-9.529339,3.4077232,2.952572,14.159041,-8.095463,-3.5829694,-3.8706043,-4.3011193,-18.335812,6.793805,-7.8560934,2.8198435,1.5395555,-0.63206095,9.704553,-60.213154,7.2918763,-16.402952,-13.1951,-7.945901,2.0850282,24.42153,-61.81443,-3.6436799,22.10969,-17.61895,-33.965115,-0.3757826,-8.866503
73,0.3112431764602661,4.37882137298584,78.71463012695312,-0.5490694356867177,4.25949376384959,-85.2207472654653,-9.619637,3.401972,2.809167,14.367669,-8.204446,-3.5644522,-3.7972648,-4.2976384,-18.45859,6.7947445,-7.907356,2.8337991,1.5872626,-0.64179265,9.617278,-59.529625,7.9388957,-15.986211,-13.529444,-6.0719075,1.920153,24.593637,-61.645092,-4.065353,21.308475,-18.156088,-34.474228,-0.65259594,-10.179466
74,0.3179173469543457,4.341360569000244,78.71223449707031,-0.5810550945067798,4.271046835614908,-85.09352171952233,-9.737056,3.4017515,2.6651998,14.599655,-8.318911,-3.5424047,-3.740143,-4.2885494,-18.56925,6.795372,-7.9543447,2.8423417,1.6251862,-0.63343686,9.532755,-58.825977,8.626336,-15.482529,-13.7623415,-5.022109,1.5408474,24.911537,-61.487106,-4.528371,20.495539,-18.597345,-35.741695,-0.8393663,-12.30281
75,0.33059197664260864,4.303651332855225,78.70796966552734,-0.6166773351295978,4.281844451531124,-84.9632057065824,-9.864262,3.4043047,2.5181186,14.849392,-8.439499,-3.521832,-3.6826584,-4.275547,-18.681269,6.796306,-7.9996786,2.8497245,1.6439656,-0.6299358,9.476261,-58.13871,9.307817,-14.884722,-13.957952,-4.8427143,1.1187527,25.461388,-61.308643,-4.9977546,19.70006,-18.998102,-37.07288,-0.89379996,-14.954345
76,0.34226328134536743,4.269123077392578,78.70113372802734,-0.6556234047336735,4.278247330183537,-84.82410885891582,-9.984421,3.407083,2.3652027,15.11184,-8.567081,-3.5076241,-3.6083188,-4.260506,-18.808187,6.796106,-8.043264,2.8602004,1.6373332,-0.6519335,9.469277,-57.52499,9.908341,-14.184716,-14.150278,-5.5701623,0.81709135,26.319695,-61.100334,-5.4145784,18.941305,-19.379402,-37.780846,-0.8392427,-17.849466
77,0.3530780076980591,4.235957622528076,78.69335174560547,-0.6991247988446632,4.255664524687093,-84.67205701965847,-10.095652,3.41064,2.2045538,15.392234,-8.704805,-3.5035505,-3.5116346,-4.2429695,-18.957273,6.795772,-8.085973,2.8746552,1.60443,-0.7051651,9.502062,-57.035316,10.380737,-13.310377,-14.258988,-7.6547384,0.6161623,27.625607,-60.870056,-5.742417,18.112835,-19.697859,-37.652695,-0.7520064,-21.188683
78,0.3618580102920532,4.200479030609131,78.68476867675781,-0.74708617689316,4.221968822200802,-84.51074153071681,-10.208497,3.4160063,2.0378292,15.695636,-8.85341,-3.5062473,-3.4016771,-4.22192,-19.120071,6.7959957,-8.128094,2.8907223,1.5544925,-0.7756815,9.556249,-56.675613,10.715866,-12.289693,-14.224734,-10.901431,0.3728879,29.278923,-60.6483,-5.9781,17.227852,-19.903362,-37.07733,-0.6567355,-25.028296
79,0.37443801760673523,4.172920227050781,78.67603302001953,-0.7982600344787815,4.1819945785334856,-84.34703256690126,-10.320328,3.4226022,1.8676867,16.008055,-9.006745,-3.510051,-3.2854629,-4.198398,-19.286781,6.7954016,-8.167961,2.9084313,1.4986254,-0.85275877,9.638174,-56.441517,10.89441,-11.26572,-14.109741,-14.38148,0.10086037,31.002424,-60.476788,-6.113692,16.489563,-19.98667,-36.274677,-0.540913,-28.87128
80,0.3890272080898285,4.146753787994385,78.66803741455078,-0.8504409701905363,4.140727232211785,-84.1873229024231,-10.430329,3.4290402,1.6968902,16.318731,-9.159587,-3.509191,-3.1699936,-4.173796,-19.447374,6.795528,-8.207112,2.9276102,1.4499638,-0.9258135,9.748577,-56.327496,10.893362,-10.379838,-13.97707,-17.171753,-0.10550454,32.53157,-60.39721,-6.141579,16.097134,-19.931986,-35.462013,-0.35410023,-32.21992
81,0.4024829864501953,4.119526386260986,78.6570816040039,-0.9060338420858092,4.097232863199916,-84.0273148016604,-10.538778,3.4359486,1.518053,16.627258,-9.3124,-3.5021834,-3.053388,-4.146307,-19.604269,6.795651,-8.24446,2.9480073,1.4049091,-0.99609476,9.898047,-56.34452,10.666821,-9.4988785,-13.8246975,-19.373201,-0.23727994,33.91232,-60.409992,-6.047053,16.050205,-19.779285,-34.602104,0.0303942,-35.30834
82,0.4136240482330322,4.090798854827881,78.64617919921875,-0.9653067933779266,4.049657931011389,-83.86560285050227,-10.649183,3.443858,1.3320513,16.945534,-9.469316,-3.492042,-2.9333751,-4.115833,-19.761087,6.7957683,-8.280244,2.969719,1.3674668,-1.0626765,10.072436,-56.520134,10.205297,-8.602571,-13.590939,-21.349844,-0.31394395,35.24609,-60.50519,-5.833625,16.257006,-19.501356,-33.603333,0.53309333,-38.286438
83,0.4322047233581543,4.0716352462768555,78.63526916503906,-1.0236419436440434,4.001492455706505,-83.71298502050527,-10.753949,3.4517028,1.1549364,17.255722,-9.623582,-3.4798293,-2.8155274,-4.0857043,-19.91,6.795322,-8.314571,2.9933352,1.3645958,-1.1140546,10.239845,-56.83656,9.568533,-8.005475,-13.285049,-22.604076,-0.20427711,36.380043,-60.700005,-5.532454,16.779858,-19.002981,-32.61917,0.95245796,-40.526955
84,0.4515601694583893,4.052934169769287,78.62708282470703,-1.0767137261550745,3.956106871715491,-83.58039138997299,-10.844404,3.4587994,1.0027832,17.537819,-9.769389,-3.466844,-2.706251,-4.0594144,-20.0429,6.7946744,-8.347955,3.0193553,1.4143788,-1.1446254,10.378161,-57.234535,8.856526,-8.026926,-12.962261,-22.660477,0.24114993,37.171207,-60.999092,-5.1869407,17.683285,-18.21891,-31.811823,1.1209927,-41.39558
85,0.47489088773727417,4.0368547439575195,78.61732482910156,-1.1217476004725981,3.9079868306193473,-83.47204621828458,-10.915192,3.4637616,0.8818325,17.796772,-9.908232,-3.451171,-2.6000516,-4.039513,-20.157488,6.7947416,-8.383217,3.050245,1.5186913,-1.1652733,10.505796,-57.70197,8.118171,-8.999125,-12.667784,-20.654043,1.3187444,37.63776,-61.379196,-4.7988696,19.154348,-17.127993,-31.117815,0.9640882,-40.23882
86,0.49392250180244446,4.018515586853027,78.6080322265625,-1.1615128343288386,3.8570843495420415,-83.38185126542932,-10.968372,3.4673154,0.7830766,18.032774,-10.039896,-3.4329453,-2.495467,-4.023514,-20.258184,6.7942433,-8.418563,3.084904,1.6519686,-1.189878,10.640219,-58.217216,7.3506303,-10.680874,-12.414303,-17.114809,2.8914127,37.779583,-61.792793,-4.3572965,21.111084,-15.837732,-30.465572,0.6321051,-37.554718
87,0.5134443640708923,4.001742839813232,78.59951782226562,-1.1979638702557647,3.8152115625711422,-83.30470395734112,-11.021665,3.4707372,0.6996779,18.251362,-10.1630945,-3.4158387,-2.4056695,-4.0099373,-20.346577,6.79314,-8.449982,3.1187959,1.789151,-1.2191268,10.761956,-58.721195,6.5850077,-12.526619,-12.200372,-13.661957,4.420286,37.491245,-62.2281,-3.8915794,23.216398,-14.45806,-30.009108,0.2852355,-34.442883
88,0.5349572896957397,3.98305606842041,78.5925064086914,-1.233602301798266,3.7942337289822814,-83.23547878603475,-11.089793,3.4753935,0.6247627,18.451433,-10.273129,-3.4035146,-2.3440254,-3.996092,-20.424788,6.792513,-8.47441,3.14732,1.9124038,-1.2556481,10.859357,-59.18136,5.875685,-13.99113,-12.024873,-11.936544,5.3673506,36.808483,-62.697826,-3.4515355,25.123625,-13.091948,-29.915684,0.05159409,-32.013046
89,0.5573103427886963,3.967369794845581,78.58489990234375,-1.2676700585217817,3.802236140078363,-83.1752761084989,-11.178536,3.4816458,0.56088245,18.626392,-10.365934,-3.3996494,-2.3195696,-3.9825964,-20.49043,6.7919,-8.490153,3.1680188,2.0137508,-1.3080178,10.950136,-59.634624,5.258786,-14.995691,-11.928353,-12.737781,5.5533276,35.496475,-63.279068,-3.0654297,26.980656,-11.618771,-30.370934,-0.0860147,-30.862389
90,0.579605221748352,3.948251962661743,78.57695770263672,-1.2991269091224096,3.8312292817789295,-83.12579814436141,-11.278803,3.4887888,0.5102807,18.77742,-10.444245,-3.4012635,-2.323856,-3.9706013,-20.543352,6.7910347,-8.498516,3.1837745,2.0991611,-1.3733939,11.043643,-60.070793,4.7408032,-15.810574,-11.941412,-15.105539,5.3430295,33.65966,-63.931797,-2.7276382,28.904133,-10.065495,-31.22944,-0.19521856,-30.31067
91,0.5971880555152893,3.9355337619781494,78.57078552246094,-1.3291014671798085,3.86882031237761,-83.083763869872,-11.38406,3.495652,0.46588242,18.91763,-10.514683,-3.4022274,-2.341328,-3.9595497,-20.588778,6.790109,-8.502718,3.198241,2.1764421,-1.4384941,11.117265,-60.403225,4.334296,-16.417835,-12.030481,-18.038036,5.009432,31.90847,-64.52501,-2.4409676,30.485693,-8.730786,-32.17479,-0.24145505,-29.542131
92,0.6166212558746338,3.9222583770751953,78.56665802001953,-1.3591491273546301,3.9029487321216427,-83.0452831931473,-11.48664,3.5021865,0.42033255,19.05802,-10.583022,-3.3964655,-2.3566983,-3.9482868,-20.631912,6.788654,-8.505208,3.2148862,2.2528439,-1.4901168,11.151341,-60.5486,4.0523434,-16.800657,-12.156638,-20.514559,4.7076015,30.874704,-64.93134,-2.2147782,31.314981,-7.91228,-32.891846,-0.20516239,-27.734474
93,0.6390421390533447,3.9138078689575195,78.56011199951172,-1.3904523646900737,3.9313424395058756,-83.0151397596599,-11.588527,3.5099616,0.3738661,19.20783,-10.652867,-3.3812342,-2.3693109,-3.9352748,-20.669554,6.787178,-8.504868,3.2356763,2.328432,-1.5268197,11.1351595,-60.40289,3.9079669,-16.882324,-12.391199,-22.82462,4.263438,30.905941,-65.07916,-2.0631905,31.11553,-7.8382835,-33.4586,0.07127995,-24.219776
94,0.6599391102790833,3.9084906578063965,78.55479431152344,-1.4222166082644012,3.960192769861216,-82.99348931359964,-11.691923,3.5189066,0.32963854,19.35847,-10.720188,-3.360178,-2.3863287,-3.9213562,-20.700394,6.7854447,-8.500981,3.2584214,2.3980427,-1.5582608,11.083834,-60.028835,3.9040673,-16.706144,-12.740645,-25.31506,3.5955245,31.588486,-65.04427,-1.9980394,30.15987,-8.324765,-34.02116,0.5062507,-19.568882
95,0.6803786754608154,3.9026670455932617,78.54942321777344,-1.4520581344629684,3.989908575575323,-82.9696129857716,-11.791842,3.524831,0.28478262,19.496374,-10.780114,-3.3368254,-2.4049003,-3.90996,-20.732738,6.7838354,-8.496294,3.280346,2.4599648,-1.5890906,11.016647,-59.597176,4.035713,-16.43074,-13.06398,-27.055868,2.956113,32.454445,-64.91553,-2.0279825,28.866222,-9.0498085,-34.32664,0.80021966,-14.830696
96,0.6995097994804382,3.8989055156707764,78.54348754882812,-1.4777794481317579,4.020841082726834,-82.93322530662189,-11.882809,3.5235434,0.2365281,19.608212,-10.828282,-3.314632,-2.4216378,-3.904163,-20.774971,6.7808533,-8.492839,3.2987175,2.5202012,-1.6237919,10.951233,-59.288185,4.2910476,-16.216908,-13.204258,-27.138327,2.6559196,33.072556,-64.77878,-2.1551905,27.645935,-9.6838255,-34.066525,0.70799446,-11.057988
97,0.7224109768867493,3.8948991298675537,78.53828430175781,-1.4994040468325727,4.051336139651342,-82.87527400853162,-11.96449,3.513323,0.18052271,19.693657,-10.864132,-3.2934048,-2.4348636,-3.9059083,-20.834917,6.781114,-8.494251,3.3117042,2.5877225,-1.653867,10.8799715,-59.174488,4.682636,-16.144226,-13.065874,-24.760677,2.9487324,33.311256,-64.66057,-2.3983362,26.56381,-10.108139,-32.861732,0.01472975,-8.325342
98,0.7357910871505737,3.890404462814331,78.53838348388672,-1.517800795356199,4.08161862939513,-82.80354931768653,-12.039579,3.4964097,0.11946326,19.759487,-10.890239,-3.2716267,-2.444276,-3.912373,-20.906351,6.779378,-8.496378,3.3211937,2.6621563,-1.683013,10.798115,-59.15076,5.2134385,-16.121677,-12.752913,-20.592628,3.6298687,33.38185,-64.486404,-2.7656536,25.419212,-10.535291,-30.925377,-1.0236557,-6.1071143
99,0.7511204481124878,3.885549783706665,78.5367202758789,-1.532256096175682,4.115128272302384,-82.73216748575302,-12.106117,3.4754188,0.061218034,19.799908,-10.90479,-3.2508144,-2.4582486,-3.9232113,-20.976105,6.7784677,-8.498481,3.3297863,2.7362278,-1.7259,10.723999,-59.139362,5.8415427,-16.04412,-12.392229,-15.946486,4.3423843,33.399815,-64.226746,-3.2254667,24.22313,-11.087874,-28.849894,-1.9855555,-4.5692873
100,0.7728416323661804,3.8828954696655273,78.5362777709961,-1.541960567931887,4.155419505552435,-82.67520695120845,-12.164038,3.4526587,0.013500197,19.812939,-10.907794,-3.2324073,-2.4833806,-3.9370701,-21.030869,6.778216,-8.498521,3.3400884,2.804998,-1.7903854,10.671092,-59.075737,6.5027633,-15.791313,-12.090551,-12.135137,4.748683,33.547688,-63.88318,-3.7190144,22.979425,-11.8373575,-27.272615,-2.5062425,-3.9301512
101,0.7936570048332214,3.8778634071350098,78.5361557006836,-1.5460317115321658,4.207218578800659,-82.63787343184657,-12.212305,3.42826,-0.021743668,19.787924,-10.895593,-3.217346,-2.5248492,-3.953522,-21.065657,6.7757945,-8.495031,3.352686,2.8764815,-1.8668357,10.615686,-58.966763,7.178204,-15.311538,-11.74481,-8.998138,4.7208962,33.873474,-63.4822,-4.218473,21.63378,-12.769214,-26.554998,-2.4598184,-4.3331347
102,0.8114599585533142,3.8725404739379883,78.53710174560547,-1.545029777876642,4.267441808467024,-82.61210866444371,-12.252381,3.4012032,-0.04872459,19.73136,-10.870203,-3.2047017,-2.5794246,-3.9735613,-21.088081,6.775702,-8.491549,3.3662863,2.950211,-1.9485209,10.550532,-58.857655,7.8694224,-14.661309,-11.304607,-5.9857755,4.4658313,34.30945,-63.05062,-4.716612,20.194548,-13.792749,-26.320803,-2.1019473,-5.6495056
103,0.8301137089729309,3.862785577774048,78.54075622558594,-1.5418565564068951,4.327944022656679,-82.59239953927717,-12.28553,3.3734274,-0.06921043,19.662113,-10.838714,-3.1932352,-2.6352456,-3.9953096,-21.103992,6.7735186,-8.484447,3.3803852,3.0087006,-2.042297,10.509331,-58.74922,8.527427,-13.872313,-10.943483,-3.816479,4.160371,34.891468,-62.611164,-5.1712112,18.756693,-14.836172,-26.107182,-1.6530764,-7.7155385
104,0.8477290868759155,3.856186866760254,78.54280090332031,-1.5387535877514282,4.3805670274021935,-82.57334989259724,-12.313604,3.3463006,-0.08496338,19.600122,-10.808676,-3.1817927,-2.6836166,-4.018476,-21.119205,6.7736745,-8.476084,3.3945801,3.037396,-2.1492796,10.518496,-58.66469,9.073738,-12.967279,-10.799842,-3.1998847,3.9645464,35.625828,-62.211853,-5.5184536,17.411945,-15.788767,-25.472343,-1.3542341,-10.374454
105,0.8689535856246948,3.849579095840454,78.54592895507812,-1.5356228711504134,4.424344002749176,-82.55278433922376,-12.336346,3.3197877,-0.09556402,19.546179,-10.778913,-3.1717496,-2.7214837,-4.0430093,-21.13552,6.772061,-8.463449,3.406892,3.034275,-2.2690275,10.574675,-58.618504,9.444576,-11.79708,-10.914038,-4.9847717,3.845299,36.669373,-61.88318,-5.7028847,16.033335,-16.610773,-24.113697,-1.3222972,-14.049865
106,0.888716995716095,3.8422794342041016,78.5488052368164,-1.532103601804279,4.463379763458722,-82.53385274263331,-12.355175,3.2942283,-0.100926965,19.495216,-10.748602,-3.1633506,-2.754999,-4.0686283,-21.14991,6.771341,-8.448705,3.4179997,3.0073612,-2.3925297,10.650919,-58.64985,9.63069,-10.386581,-11.130909,-8.537377,3.6633768,37.944588,-61.64321,-5.7161403,14.6155405,-17.28371,-22.370113,-1.5089025,-18.667688
107,0.9129083752632141,3.8376617431640625,78.55194091796875,-1.52948462795945,4.497213943015518,-82.51887881221455,-12.371397,3.26984,-0.10232509,19.452389,-10.722688,-3.153329,-2.7841277,-4.094053,-21.161156,6.771073,-8.432033,3.4318058,2.9594018,-2.5116973,10.738888,-58.81059,9.647901,-9.02474,-11.297644,-12.3464155,3.4618776,39.101814,-61.512146,-5.5834937,13.439848,-17.747866,-20.7764,-1.8550278,-23.31758
108,0.9323723316192627,3.8395161628723145,78.5567855834961,-1.5292834477334594,4.525355788853338,-82.51008583994705,-12.386489,3.2474828,-0.10128771,19.423517,-10.706343,-3.1385,-2.8083136,-4.1174016,-21.167915,6.7696986,-8.413187,3.4522605,2.897141,-2.6214683,10.829592,-59.129265,9.5280695,-8.006358,-11.29514,-14.915467,3.3830824,39.81204,-61.484425,-5.353403,12.787765,-17.973848,-19.831366,-2.1771994,-27.101328
109,0.9585666656494141,3.841647148132324,78.56005859375,-1.5316417209165343,4.546395333459726,-82.50841303964212,-12.39873,3.2260246,-0.09729135,19.407248,-10.698914,-3.1161113,-2.8273776,-4.1396933,-21.170265,6.7693653,-8.391282,3.4823577,2.815352,-2.7291176,10.937122,-59.598904,9.270488,-7.2752714,-11.109882,-15.850874,3.5107324,39.99463,-61.54376,-5.0543747,12.70197,-18.03189,-19.702187,-2.3092062,-30.169214
110,0.986309826374054,3.835763692855835,78.56304931640625,-1.5351343728588889,4.560889400612795,-82.51240133029268,-12.407393,3.204983,-0.08968549,19.400774,-10.697859,-3.0883715,-2.8404877,-4.161426,-21.168678,6.7677436,-8.365648,3.5195377,2.7227824,-2.835734,11.063831,-60.204445,8.869178,-6.724448,-10.818331,-15.959655,3.794297,39.83096,-61.669884,-4.6942315,13.044457,-17.951323,-20.081348,-2.2960236,-32.884747
111,1.0154764652252197,3.8325555324554443,78.56513214111328,-1.5409231456791856,4.571454597290709,-82.52140752483136,-12.415472,3.1868649,-0.0797483,19.405693,-10.704812,-3.0596585,-2.8500047,-4.180722,-21.162878,6.7658696,-8.340917,3.5589345,2.6453445,-2.929948,11.184239,-60.931812,8.3643675,-6.575688,-10.459592,-15.570024,4.214875,39.402317,-61.84994,-4.2976723,13.817558,-17.657482,-20.721184,-2.2336974,-34.687447
112,1.0477995872497559,3.831820487976074,78.56365203857422,-1.549179510219859,4.580735770907997,-82.53432072051483,-12.426939,3.1736178,-0.06871953,19.4258,-10.722582,-3.0341814,-2.8582625,-4.196239,-21.152643,6.7655406,-8.32264,3.5956678,2.6029954,-3.0052404,11.281691,-61.747734,7.8192863,-7.0559826,-10.095371,-15.02635,4.7494173,38.799183,-62.06882,-3.8955085,15.025978,-17.081585,-21.373573,-2.2578545,-35.015575
113,1.0770747661590576,3.8277876377105713,78.56321716308594,-1.5608053342191242,4.586782789493865,-82.55092505058364,-12.441502,3.1663513,-0.056920838,19.465462,-10.75476,-3.0129588,-2.8616757,-4.2064514,-21.137545,6.7652855,-8.314124,3.6294453,2.6030686,-3.0616329,11.3706255,-62.71496,7.264348,-8.576992,-9.721323,-14.068227,5.48104,38.13807,-62.325546,-3.4911246,16.949999,-16.096325,-21.685183,-2.5806274,-32.806705
114,1.108026146888733,3.82308030128479,78.55989074707031,-1.5749331446672368,4.588758187545307,-82.57193384950683,-12.455886,3.1634314,-0.04348089,19.518797,-10.797621,-2.9937022,-2.860424,-4.213128,-21.118067,6.7646375,-8.311355,3.662565,2.617465,-3.1121778,11.467727,-63.78289,6.6889467,-10.908367,-9.356455,-12.653816,6.374605,37.33598,-62.582184,-3.0773823,19.511072,-14.825576,-21.840185,-3.091952,-28.66682
115,1.1418821811676025,3.81773042678833,78.55491638183594,-1.5902193252541612,4.591458149614497,-82.59726940856837,-12.473141,3.1634696,-0.028127959,19.58052,-10.845384,-2.976039,-2.8596911,-4.2171764,-21.094069,6.7627435,-8.308269,3.6938913,2.6173027,-3.164754,11.559472,-64.76188,6.0963936,-13.308391,-9.089338,-11.449736,7.240288,36.201805,-62.799843,-2.6700497,22.164099,-13.555388,-22.436596,-3.4973583,-24.551836
116,1.1723629236221313,3.8071765899658203,78.55267333984375,-1.6048972418055454,4.599557854553809,-82.62729822645125,-12.494636,3.1644695,-0.010341236,19.640776,-10.889908,-2.9594357,-2.8659244,-4.220717,-21.065601,6.7622957,-8.30099,3.7223718,2.5888677,-3.2276661,11.633176,-65.50313,5.5056343,-15.039502,-8.98256,-11.120796,7.909508,34.567078,-62.99675,-2.2954092,24.341618,-12.5266695,-24.127136,-3.5440397,-22.411888
117,1.2056947946548462,3.792048692703247,78.55193328857422,-1.6171306228502444,4.614464383249293,-82.67208082929325,-12.515415,3.1669347,0.018923437,19.691132,-10.927104,-2.9432456,-2.8829145,-4.2246017,-21.0219,6.761931,-8.2844,3.747009,2.5226288,-3.320346,11.690577,-65.954895,4.9166574,-15.8539095,-9.072789,-12.326199,8.379696,31.94499,-63.26385,-1.9660776,26.11153,-11.670315,-28.000263,-2.7612002,-23.602419
118,1.2369372844696045,3.77691650390625,78.55290985107422,-1.628133973161552,4.633423047378054,-82.72794304730694,-12.536714,3.1715837,0.05631766,19.739376,-10.962384,-2.9278715,-2.9058554,-4.227362,-20.966898,6.7608094,-8.262246,3.7686357,2.4356833,-3.4339247,11.725681,-66.213905,4.3288593,-16.164667,-9.306551,-14.545409,8.844334,28.583345,-63.558662,-1.6729252,27.709627,-10.909457,-33.369537,-1.1491724,-26.705568
119,1.2620782852172852,3.7663769721984863,78.55180358886719,-1.6421757617398878,4.654802255722343,-82.77523740910776,-12.568714,3.1773734,0.08384363,19.799755,-11.001023,-2.914492,-2.9293785,-4.2276173,-20.921314,6.7603126,-8.241029,3.7890186,2.3595703,-3.5359144,11.727644,-66.38437,3.7761562,-16.23479,-9.602624,-16.683136,9.349919,25.434242,-63.739365,-1.4127887,28.792088,-10.452046,-38.282463,0.56763977,-29.573986
120,1.2836304903030396,3.756579875946045,78.55423736572266,-1.6630070204769,4.6777169717685005,-82.79390847555459,-12.62304,3.1832044,0.0835012,19.887974,-11.0488205,-2.9043984,-2.9477081,-4.223471,-20.906057,6.7588367,-8.225608,3.8099024,2.3179536,-3.5882428,11.705287,-66.56478,3.3064845,-16.324055,-9.904617,-17.667011,9.766449,23.436815,-63.702446,-1.189557,29.00244,-10.483531,-40.96767,1.1701685,-30.30521
121,1.307572841644287,3.74591064453125,78.55487823486328,-1.6928279266100068,4.705933221723413,-82.77713211821629,-12.708558,3.189835,0.048204046,20.00813,-11.105196,-2.9000673,-2.9638503,-4.212814,-20.930286,6.756144,-8.216597,3.8300283,2.3230639,-3.5733287,11.673332,-66.74971,2.9607124,-16.538033,-10.269496,-17.023685,9.9166,23.174902,-63.344105,-1.0036566,27.95167,-11.254155,-40.333183,-0.26441693,-27.815935
122,1.3288511037826538,3.738558292388916,78.54898834228516,-1.728900193531939,4.738532690390608,-82.73598094554495,-12.817694,3.1973364,-0.011640349,20.152704,-11.168177,-2.900163,-2.9800963,-4.1979723,-20.981472,6.754063,-8.211932,3.8492353,2.3501406,-3.5330994,11.628624,-66.887,2.7437992,-16.751108,-10.721366,-15.419301,9.870854,24.03971,-62.7386,-0.8529196,25.918077,-12.64073,-37.390232,-2.8350875,-23.254559
123,1.3495404720306396,3.7345805168151855,78.54185485839844,-1.7674827950056884,4.7677364457678175,-82.67808027424617,-12.932568,3.2028635,-0.087193266,20.311657,-11.237208,-2.9001594,-2.9870431,-4.1818347,-21.048546,6.7517295,-8.212598,3.8702316,2.3599367,-3.5057113,11.558322,-67.00117,2.6456301,-16.857124,-11.163028,-13.505679,9.790502,25.155182,-62.05921,-0.74387014,23.555956,-14.255362,-33.77061,-5.271131,-18.310677
124,1.3708164691925049,3.7280831336975098,78.53137969970703,-1.8045228746539828,4.786171572522623,-82.61089619450227,-13.03613,3.203711,-0.16965684,20.475718,-11.312188,-2.8956828,-2.9771433,-4.1684394,-21.11973,6.7495685,-8.219357,3.8959336,2.3142595,-3.508458,11.460593,-67.11143,2.6519804,-16.73287,-11.519854,-11.936085,9.777923,25.63468,-61.498863,-0.69932336,21.514452,-15.6722765,-31.412285,-6.7445426,-14.934975
125,1.3894343376159668,3.7153706550598145,78.51918029785156,-1.8407819875435172,4.791176294755005,-82.52321246432759,-13.131563,3.197191,-0.26998615,20.653412,-11.396076,-2.8856342,-2.9437323,-4.1582212,-21.203451,6.747649,-8.235325,3.9309154,2.194295,-3.528507,11.324908,-67.21317,2.7805593,-16.301113,-11.777836,-10.695602,9.85481,24.972944,-61.107746,-0.76462364,19.942112,-16.75732,-31.16135,-7.2664714,-13.724999
126,1.4075392484664917,3.7067766189575195,78.50782775878906,-1.8777357321085604,4.7870710313079075,-82.41543710573842,-13.225525,3.1851912,-0.38841268,20.846556,-11.488389,-2.872338,-2.893462,-4.149837,-21.301947,6.74677,-8.258939,3.9723408,2.026555,-3.5479403,11.165291,-67.278145,3.0445473,-15.637547,-12.012178,-9.5025625,9.941437,23.728441,-60.75476,-0.9528711,18.519283,-17.771824,-31.964003,-7.3286653,-13.689251
127,1.4279227256774902,3.6876883506774902,78.5001449584961,-1.9124664939611347,4.777215744736829,-82.31271472101953,-13.304669,3.1722143,-0.49969363,21.030134,-11.580087,-2.856353,-2.8350697,-4.142883,-21.39504,6.7448225,-8.284738,4.0121183,1.8427881,-3.5657833,11.018947,-67.30215,3.406394,-14.83501,-12.274104,-8.609788,9.967188,22.608774,-60.40845,-1.2297461,17.179443,-18.809408,-33.029057,-7.1274333,-14.491533
128,1.454242467880249,3.6709227561950684,78.49391174316406,-1.9418980250623243,4.764947811650205,-82.24000173380585,-13.35556,3.1631308,-0.5788519,21.179226,-11.662643,-2.838312,-2.780066,-4.1375356,-21.46239,6.7440786,-8.308503,4.0419984,1.6732068,-3.5808442,10.914837,-67.31025,3.800174,-13.972395,-12.568298,-8.259564,9.890432,22.317608,-60.06533,-1.5317914,15.848073,-19.918596,-33.56711,-6.862227,-15.795232
129,1.4786313772201538,3.6456220149993896,78.49066925048828,-1.9666293844357459,4.753164874110534,-82.20164863496265,-13.378229,3.159436,-0.6218009,21.290386,-11.735127,-2.816571,-2.7313204,-4.1330266,-21.502998,6.7437696,-8.33048,4.057178,1.5292463,-3.5950809,10.844318,-67.36164,4.1931853,-13.0316515,-12.849969,-8.677085,9.679351,23.205832,-59.731735,-1.82608,14.418857,-21.122486,-33.398544,-6.5733337,-17.666712
130,1.5054147243499756,3.6213512420654297,78.48495483398438,-1.987786815993754,4.739385074686315,-82.18507976618909,-13.379489,3.159118,-0.64130265,21.377283,-11.8025055,-2.791509,-2.6842194,-4.1296916,-21.52623,6.745098,-8.352721,4.0629697,1.3980149,-3.6099796,10.785952,-67.45616,4.582221,-11.977753,-13.076762,-9.647115,9.351697,24.832275,-59.42737,-2.1134892,12.943119,-22.344557,-32.93827,-6.1789665,-20.22541
131,1.5279810428619385,3.5905306339263916,78.48294067382812,-2.00441301910265,4.718978265268683,-82.19014418843317,-13.35664,3.1608605,-0.63749915,21.442347,-11.865449,-2.7664845,-2.6340454,-4.128214,-21.52758,6.746405,-8.37298,4.065912,1.2734061,-3.6226544,10.747104,-67.54797,4.936408,-10.854618,-13.242204,-10.751718,8.956786,26.711763,-59.191216,-2.3737628,11.58211,-23.463917,-32.29817,-5.723158,-23.226778
132,1.5546742677688599,3.5642974376678467,78.48112487792969,-2.015867895136068,4.687368180631513,-82.21643812528622,-13.307837,3.1640625,-0.61098635,21.489677,-11.925627,-2.7449257,-2.5775626,-4.1289415,-21.502987,6.747523,-8.388581,4.072409,1.1497434,-3.6309855,10.729669,-67.61091,5.208708,-9.701184,-13.312311,-11.575801,8.5816965,28.36506,-59.074577,-2.5764282,10.489206,-24.345816,-31.598793,-5.237789,-26.428295
133,1.5811492204666138,3.535999059677124,78.47827911376953,-2.0201830069691487,4.64183505936071,-82.26454068553221,-13.229797,3.1672387,-0.5606423,21.517794,-11.98269,-2.7289717,-2.5131238,-4.133408,-21.448502,6.749605,-8.399072,4.0829396,1.0266423,-3.6366537,10.730826,-67.65243,5.3581114,-8.329733,-13.220908,-12.161689,8.196108,29.773592,-59.10235,-2.6973116,9.583891,-25.004461,-30.71903,-4.669196,-30.278166
134,1.606674075126648,3.5046768188476562,78.47950744628906,-2.0187704179569304,4.585731510365007,-82.33435883107678,-13.123958,3.1718674,-0.486931,21.524036,-12.035334,-2.7165754,-2.4432442,-4.1401734,-21.36748,6.751678,-8.404957,4.094294,0.91946167,-3.6542542,10.739679,-67.71823,5.3765044,-6.809055,-12.953238,-12.651455,7.7765193,31.162184,-59.237503,-2.7326465,8.799949,-25.48842,-29.639967,-4.0726237,-34.735256
135,1.6348557472229004,3.4770753383636475,78.47933197021484,-2.0143682614921623,4.522233839873247,-82.4248958182193,-12.999347,3.1790745,-0.391774,21.518555,-12.087703,-2.7043574,-2.370255,-4.148409,-21.265915,6.7534847,-8.407791,4.108089,0.81641525,-3.6499312,10.755787,-67.841774,5.294697,-5.43782,-12.584571,-12.829018,7.4738617,32.37655,-59.50642,-2.7249377,8.3713455,-25.65784,-28.650667,-3.564391,-38.832176
136,1.666221022605896,3.4486186504364014,78.4796142578125,-2.008542538833379,4.455857187207036,-82.53500361296557,-12.862985,3.1897378,-0.2766585,21.505474,-12.1405,-2.6890836,-2.2983727,-4.1582785,-21.148914,6.7563243,-8.409952,4.1261687,0.7462085,-3.6483548,10.763821,-68.020996,5.1200743,-4.6623755,-12.19246,-12.454296,7.429139,33.32952,-59.860035,-2.688499,8.466098,-25.441523,-28.084562,-3.20006,-41.56972
137,1.7018516063690186,3.4181342124938965,78.4798812866211,-2.000756997679817,4.382333018844986,-82.66965183663982,-12.707059,3.2041142,-0.13614167,21.481047,-12.193204,-2.6698766,-2.2230976,-4.1700306,-21.012926,6.7581553,-8.409841,4.1503053,0.7129123,-3.651832,10.772239,-68.21931,4.881125,-4.559784,-11.812057,-11.134362,7.8149695,34.06847,-60.295696,-2.6359038,9.156584,-24.81225,-28.092377,-2.94234,-42.71568
138,1.7380528450012207,3.3810384273529053,78.48207092285156,-1.989968707349354,4.301219010806314,-82.82765350181391,-12.529764,3.2212813,0.028851464,21.441885,-12.2440605,-2.6485698,-2.1439075,-4.1837654,-20.856283,6.759752,-8.407702,4.179324,0.707862,-3.6550598,10.7869835,-68.427536,4.574141,-4.9290338,-11.420571,-9.119433,8.527047,34.611485,-60.8164,-2.56068,10.339098,-23.83905,-28.488607,-2.7321756,-42.79346
139,1.770328402519226,3.348492383956909,78.48405456542969,-1.9783086190963868,4.221745069236728,-82.99896467823784,-12.348801,3.2410235,0.20679934,21.398375,-12.295871,-2.62586,-2.0701978,-4.198036,-20.689596,6.7618876,-8.4042225,4.2098327,0.71993315,-3.6583416,10.805659,-68.6803,4.2111926,-5.7579517,-11.0289755,-7.1726885,9.273972,34.831112,-61.434097,-2.4694374,11.935677,-22.552982,-29.083288,-2.5693102,-41.949127
140,1.8030364513397217,3.3200793266296387,78.48570251464844,-1.9680177322356898,4.153070496598053,-83.17368914071919,-12.1806,3.2631464,0.3862007,21.358988,-12.350465,-2.6024256,-2.0092673,-4.2100964,-20.523075,6.7640247,-8.400987,4.2382374,0.73818797,-3.6636786,10.828801,-69.011536,3.8126216,-7.038196,-10.655296,-6.0644274,9.747904,34.639538,-62.15781,-2.3755748,13.86742,-20.996786,-29.6776,-2.4569016,-40.32959
141,1.8361657857894897,3.2858834266662598,78.48849487304688,-1.9601315129657637,4.0995818253401834,-83.3540079345653,-12.032007,3.288894,0.56705076,21.329382,-12.412341,-2.5765789,-1.9662858,-4.2196264,-20.356691,6.764722,-8.396351,4.264877,0.75297123,-3.6780531,10.875374,-69.49932,3.3611035,-9.182548,-10.309313,-6.1690216,9.810533,34.00126,-63.07511,-2.264567,16.488789,-18.947742,-30.232496,-2.4250631,-37.145714
142,1.870596170425415,3.2511816024780273,78.48918151855469,-1.9536159511635154,4.055916228335415,-83.54349353781474,-11.893193,3.318019,0.75441927,21.303019,-12.4785595,-2.5485735,-1.9362588,-4.2271686,-20.186106,6.7655754,-8.391353,4.291154,0.77648616,-3.6965861,10.945676,-70.06787,2.847357,-12.070599,-10.008896,-7.027538,9.648188,32.982735,-64.09776,-2.1246417,19.73786,-16.51168,-30.844633,-2.5024374,-32.592968
143,1.905379056930542,3.213498115539551,78.48910522460938,-1.9467276503266828,4.016064049045477,-83.7346748295284,-11.756882,3.3481681,0.94452035,21.273758,-12.542236,-2.5219462,-1.9112555,-4.2338037,-20.01436,6.766838,-8.386491,4.3157516,0.8222997,-3.7074726,11.007733,-70.56602,2.3220208,-14.87562,-9.742612,-8.166894,9.443613,31.666115,-65.03454,-1.988138,22.892899,-14.170961,-31.508774,-2.6536047,-28.312037
144,1.9368029832839966,3.1792898178100586,78.48796081542969,-1.9382349849892508,3.9738339291157687,-83.91995854726471,-11.617757,3.3772933,1.1334163,21.237938,-12.597335,-2.500306,-1.8826971,-4.240063,-19.84452,6.7674375,-8.381659,4.33715,0.897083,-3.7049198,11.031939,-70.88874,1.8626407,-16.762676,-9.470941,-9.12289,9.364576,30.140165,-65.76444,-1.9074229,25.211054,-12.356111,-32.221912,-2.7977133,-25.941177
145,1.9667912721633911,3.1468472480773926,78.49092102050781,-1.9255225522227675,3.9274887632998556,-84.10570496328815,-11.467517,3.4055424,1.3308975,21.185009,-12.637189,-2.4852092,-1.8513907,-4.2475734,-19.66852,6.7695284,-8.376393,4.354185,0.9926289,-3.6893537,11.011401,-70.92929,1.5177356,-17.329214,-9.251548,-9.988349,9.473855,27.976389,-66.32296,-1.9243625,26.560753,-11.127057,-33.13636,-2.822387,-26.873133
146,1.9895352125167847,3.1139373779296875,78.49258422851562,-1.9098299463364197,3.880178675325488,-84.29310722866268,-11.311489,3.433182,1.5356164,21.120775,-12.666956,-2.4744186,-1.8202676,-4.2560697,-19.48747,6.7712173,-8.3697195,4.3680553,1.0973805,-3.6607003,10.964683,-70.752045,1.2896445,-17.079865,-9.129109,-10.951048,9.70567,25.281431,-66.771194,-2.0383492,27.328728,-10.276925,-34.19172,-2.7207973,-29.917122
147,2.0099334716796875,3.082247734069824,78.49327087402344,-1.8957565561234617,3.8331636437769423,-84.46699381907005,-11.161415,3.459599,1.7267522,21.060057,-12.695503,-2.466131,-1.786555,-4.2625523,-19.318708,6.7730575,-8.365728,4.3800673,1.2099242,-3.6197312,10.902968,-70.5334,1.1860943,-16.546204,-9.018443,-11.688063,9.971892,22.955666,-67.05992,-2.234605,27.532648,-9.812386,-35.080547,-2.6090765,-32.81319
148,2.0309643745422363,3.0495214462280273,78.4951171875,-1.8875046618785756,3.787849656143532,-84.61183226030568,-11.029437,3.4836252,1.8834745,21.019058,-12.732904,-2.4585087,-1.747816,-4.265179,-19.179363,6.774885,-8.367433,4.3916993,1.329951,-3.5769985,10.842001,-70.475945,1.2092316,-16.26466,-8.80193,-11.892862,10.133822,21.898573,-67.15761,-2.4855087,27.176188,-9.725165,-35.516422,-2.6991274,-33.307045
149,2.050021171569824,3.0152742862701416,78.49420166015625,-1.8883289260598632,3.7430154797069406,-84.72258073406569,-10.920411,3.5066507,1.9983284,21.007946,-12.785364,-2.4508953,-1.7009687,-4.261244,-19.074839,6.7753677,-8.376259,4.401956,1.4718496,-3.5379367,10.786731,-70.68652,1.3755888,-16.436054,-8.419083,-11.274226,10.133922,22.760828,-66.99099,-2.7734928,25.973192,-10.168632,-35.210613,-3.187906,-29.947075
150,2.067532777786255,2.9893529415130615,78.4889907836914,-1.8953072588208832,3.6983812794312287,-84.80789057230952,-10.827034,3.5289934,2.0830781,21.015518,-12.846271,-2.4443734,-1.6494988,-4.253137,-18.995583,6.777223,-8.391259,4.410496,1.6239293,-3.5135965,10.727062,-71.039604,1.6924642,-16.775745,-7.935109,-10.072334,10.061688,24.93598,-66.577644,-3.1027675,24.004452,-11.122946,-34.332794,-3.8700376,-24.178059
151,2.084355592727661,2.96844744682312,78.48432159423828,-1.9031642544267424,3.656803730245794,-84.87263010122432,-10.744061,3.5477328,2.1457565,21.027021,-12.905866,-2.4394927,-1.5967139,-4.244891,-18.93624,6.7790394,-8.408875,4.419562,1.7497877,-3.5141475,10.659407,-71.407074,2.1367986,-17.076283,-7.4109793,-8.784265,9.968832,27.42505,-66.03736,-3.4737713,21.819271,-12.290486,-33.345562,-4.4319496,-18.15223
152,2.0959653854370117,2.944608449935913,78.4821548461914,-1.9074853678115313,3.621240997490975,-84.92180455190186,-10.667805,3.5605674,2.1941195,21.029957,-12.955617,-2.4369311,-1.5460285,-4.2400303,-18.891531,6.7798877,-8.425783,4.4312897,1.8161933,-3.5332997,10.583809,-71.66307,2.6731045,-17.111832,-6.9096,-7.9026327,9.837957,29.218678,-65.54475,-3.8857598,19.970184,-13.303695,-32.799934,-4.7250047,-14.050705
153,2.10445499420166,2.916555643081665,78.48007202148438,-1.9077686243489838,3.593417049835366,-84.94307561522045,-10.605356,3.564148,2.215763,21.029346,-12.995689,-2.438196,-1.4961685,-4.2400384,-18.873098,6.7807064,-8.443436,4.4500375,1.8067931,-3.5607088,10.485882,-71.784225,3.3012211,-16.786427,-6.3964524,-7.403403,9.616051,29.901354,-65.17078,-4.355998,18.586983,-14.026319,-33.14497,-4.7770653,-12.432856
154,2.1078782081604004,2.889127016067505,78.48075866699219,-1.906462430795134,3.5714588036410904,-84.93841472361585,-10.555806,3.5609717,2.2112205,21.028383,-13.029296,-2.4424486,-1.4454108,-4.2425323,-18.879482,6.7798753,-8.461664,4.473341,1.7447934,-3.5893574,10.372141,-71.82575,4.030125,-16.217884,-5.8635445,-7.0724726,9.307623,30.053783,-64.824005,-4.8873963,17.392405,-14.648711,-34.016457,-4.696158,-12.149609
155,2.108135938644409,2.865295648574829,78.47604370117188,-1.902988448393465,3.553155488703196,-84.93393257503396,-10.504597,3.5562835,2.208166,21.014545,-13.05455,-2.4465978,-1.4006582,-4.246821,-18.885523,6.781861,-8.480425,4.493529,1.6558964,-3.6148334,10.271787,-71.79043,4.825054,-15.489437,-5.3908267,-7.108855,8.93843,30.158224,-64.478386,-5.445921,16.313276,-15.23993,-34.768875,-4.5374928,-12.789689
156,2.112793445587158,2.8383285999298096,78.47468566894531,-1.896653932579407,3.5362842969682604,-84.9558192853089,-10.437093,3.5554833,2.2342126,20.974432,-13.069114,-2.4475803,-1.3644613,-4.2509546,-18.866327,6.781961,-8.494841,4.502721,1.5650417,-3.6324544,10.2083845,-71.704155,5.627252,-14.672914,-5.0237336,-7.693656,8.534453,30.687178,-64.129456,-5.975092,15.275848,-15.838694,-34.76541,-4.372118,-13.947567
157,2.1151955127716064,2.8083243370056152,78.47693634033203,-1.8871240444531614,3.522498688193348,-85.01117572719681,-10.349527,3.5603225,2.2981963,20.901308,-13.070356,-2.444252,-1.3414624,-4.254944,-18.816055,6.7840033,-8.509226,4.494283,1.4781559,-3.6462648,10.175209,-71.599045,6.4116335,-13.730564,-4.7438498,-9.116041,8.006226,31.84876,-63.792202,-6.4505887,14.241173,-16.438097,-33.629005,-4.276665,-15.741538
158,2.1218338012695312,2.778111219406128,78.48065948486328,-1.8751071039999345,3.5123932562707583,-85.0860315914178,-10.250391,3.568037,2.384718,20.804335,-13.060747,-2.438363,-1.3278575,-4.258883,-18.747896,6.786155,-8.523042,4.473856,1.3817985,-3.6588113,10.156622,-71.47258,7.176743,-12.6355915,-4.4941607,-11.164819,7.3306084,33.339993,-63.487076,-6.8760085,13.244723,-16.984835,-31.782976,-4.261608,-18.310429
159,2.1292617321014404,2.7556920051574707,78.48373413085938,-1.8611732576679936,3.5023252421369064,-85.17460077520842,-10.142756,3.577297,2.485116,20.693682,-13.0452385,-2.4314523,-1.3190757,-4.2630653,-18.665085,6.787853,-8.53111,4.452005,1.2762784,-3.6647246,10.161071,-71.32419,7.8870096,-11.474458,-4.2411623,-13.272659,6.651645,34.87651,-63.231205,-7.228394,12.32213,-17.432632,-29.798084,-4.2964234,-21.280958
160,2.13535475730896,2.7325356006622314,78.49214935302734,-1.8467998678098678,3.488637199489737,-85.27113047952736,-10.029256,3.5872664,2.5904922,20.578014,-13.028044,-2.425112,-1.3113683,-4.2668796,-18.571005,6.7900105,-8.529175,4.4391885,1.1647686,-3.664331,10.187516,-71.18311,8.48683,-10.334137,-3.9127882,-14.879539,6.159824,36.198498,-63.046562,-7.4729495,11.500836,-17.72077,-28.240957,-4.2795744,-24.281546
161,2.1425020694732666,2.711010456085205,78.49913024902344,-1.8316476150444743,3.4713469904586245,-85.37552917733397,-9.909013,3.5974567,2.6995125,20.455109,-13.008796,-2.4182842,-1.3037524,-4.270208,-18.463125,6.78973,-8.511074,4.439909,1.0584906,-3.66025,10.228091,-71.089005,8.925873,-9.076838,-3.4022915,-15.880746,5.9312825,37.295933,-62.91284,-7.575499,10.655173,-17.869883,-27.232695,-4.1298857,-27.515947
162,2.146813154220581,2.6909854412078857,78.50740051269531,-1.8157029553359236,3.4523464174689114,-85.49026685652635,-9.78186,3.608496,2.8164833,20.322695,-12.98617,-2.4107423,-1.29928,-4.273253,-18.340784,6.7894244,-8.481919,4.4479504,0.96276784,-3.6570091,10.27134,-71.06852,9.19432,-7.711155,-2.7089791,-16.544052,5.879911,38.29657,-62.83379,-7.537531,9.801544,-17.8753,-26.488848,-3.9018128,-31.077837
163,2.1509196758270264,2.6711621284484863,78.51720428466797,-1.8000759731289988,3.4303197111462946,-85.61378971036284,-9.651086,3.62186,2.940777,20.190613,-12.963742,-2.405558,-1.2957652,-4.2751694,-18.210579,6.790658,-8.450273,4.457861,0.87746716,-3.6573403,10.313402,-71.1231,9.312122,-6.549524,-1.93891,-16.886223,5.98184,39.164062,-62.84968,-7.3907614,9.177096,-17.667784,-25.956259,-3.626682,-34.43704
164,2.1574594974517822,2.653836727142334,78.524658203125,-1.7851619841551205,3.404159779179499,-85.74410975296286,-9.519136,3.637887,3.0723104,20.066677,-12.944134,-2.4054992,-1.2899004,-4.2755337,-18.079023,6.7910614,-8.422333,4.4644675,0.8022001,-3.6626725,10.356995,-71.22931,9.317872,-5.9067855,-1.2330068,-16.93352,6.210232,39.86203,-62.994347,-7.1836467,9.018966,-17.190355,-25.580946,-3.332992,-37.06416
165,2.1652467250823975,2.631096601486206,78.53103637695312,-1.7709944131268183,3.368018423356007,-85.88106659722837,-9.378378,3.6557698,3.2109802,19.949291,-12.926334,-2.4134414,-1.273448,-4.275015,-17.948898,6.7909784,-8.402613,4.4679985,0.73727477,-3.6711743,10.418193,-71.364525,9.223512,-5.816681,-0.64113563,-16.56751,6.649918,40.47143,-63.273132,-6.936148,9.397536,-16.453892,-25.425785,-2.918574,-39.061054
166,2.1731748580932617,2.6181864738464355,78.53611755371094,-1.7569947616041504,3.324290081670182,-86.0254714186396,-9.228978,3.6750612,3.3571434,19.832937,-12.90829,-2.4271474,-1.2514529,-4.274158,-17.816229,6.791222,-8.385568,4.470907,0.6869411,-3.6795278,10.49826,-71.52689,9.026186,-6.131614,-0.120329104,-15.834503,7.2950687,40.978107,-63.654423,-6.647229,10.187287,-15.505579,-25.473255,-2.373132,-40.635727
167,2.175384283065796,2.607311964035034,78.53882598876953,-1.7445429661236378,3.283870769470166,-86.1774800302873,-9.087367,3.6987019,3.5104156,19.725086,-12.893414,-2.4418085,-1.2361367,-4.2697377,-17.678278,6.791489,-8.368326,4.47109,0.6529655,-3.684914,10.580367,-71.71199,8.749904,-6.894149,0.32437858,-15.004234,7.970606,41.208885,-64.126396,-6.3376575,11.334442,-14.33643,-25.564472,-1.8759218,-41.422142
168,2.1805098056793213,2.59736704826355,78.54138946533203,-1.7350498378441213,3.257630887384584,-86.33696993293655,-8.970228,3.7294116,3.6704812,19.633978,-12.885459,-2.4526033,-1.2418493,-4.259469,-17.532064,6.7915025,-8.345499,4.4665246,0.6360344,-3.6846223,10.652389,-71.91108,8.432076,-8.14975,0.67462003,-14.353898,8.494099,41.003986,-64.67626,-6.03745,12.789505,-12.948794,-25.543386,-1.6134859,-41.059563
169,2.184328317642212,2.5907742977142334,78.54368591308594,-1.7292583014083995,3.2512966012152376,-86.50718585693721,-8.886106,3.7690728,3.8415525,19.562988,-12.885938,-2.4571753,-1.27607,-4.242345,-17.374342,6.7914305,-8.317427,4.45607,0.6384326,-3.6737378,10.725592,-72.142395,8.074927,-10.263242,0.8512243,-13.799377,8.862493,40.277756,-65.35595,-5.745139,14.76691,-11.206939,-25.268631,-1.756101,-38.660053
170,2.189009189605713,2.5830774307250977,78.5478515625,-1.7262386924050537,3.2580438203955295,-86.68704069280471,-8.82433,3.8157969,4.022372,19.506453,-12.89213,-2.4584215,-1.3304825,-4.2201343,-17.207373,6.791067,-8.2853565,4.44111,0.6622813,-3.65223,10.807946,-72.36898,7.6747084,-13.104458,0.85428476,-13.250905,9.145323,39.13742,-66.109344,-5.4505553,17.22821,-9.197442,-24.83138,-2.140126,-34.67587
171,2.1938345432281494,2.579655408859253,78.55232238769531,-1.7259324749736513,3.2696471154234654,-86.87028151539614,-8.77175,3.8675416,4.204516,19.458279,-12.9017105,-2.4592695,-1.3920906,-4.192707,-17.036844,6.790462,-8.24988,4.4227962,0.69867915,-3.6262078,10.883356,-72.53841,7.26973,-15.961955,0.8217463,-12.987426,9.277618,37.72003,-66.811005,-5.1803575,19.74813,-7.2151756,-24.445211,-2.4733326,-30.776917
172,2.195624828338623,2.5718319416046143,78.55640411376953,-1.7275859844343309,3.277650983250422,-87.05083104577497,-8.714315,3.921444,4.379915,19.41012,-12.911279,-2.4627008,-1.4475337,-4.161001,-16.868212,6.7898765,-8.212404,4.4023504,0.73316735,-3.60566,10.942018,-72.631744,6.91236,-18.117336,0.90609956,-13.309604,9.215688,36.161663,-67.388824,-4.9775863,21.890898,-5.5242276,-24.358772,-2.5099387,-28.642036
173,2.1917927265167236,2.558924913406372,78.55899047851562,-1.7281234748170275,3.279887173859549,-87.23406321047703,-8.65103,3.976848,4.552864,19.370834,-12.92755,-2.4694006,-1.4985616,-4.127165,-16.69529,6.7965436,-8.172746,4.3785615,0.74743223,-3.6020515,10.993677,-72.645454,6.629774,-19.336952,1.1686417,-14.5502,8.907299,34.23452,-67.924324,-4.8766193,23.74427,-4.0737524,-24.708746,-2.0868216,-29.615887
174,2.185779094696045,2.551151752471924,78.56027221679688,-1.7307748094615871,3.280495244924768,-87.42058227796488,-8.590174,4.0375185,4.724368,19.344986,-12.951851,-2.478309,-1.5551522,-4.0897794,-16.518124,6.820056,-8.137505,4.3509226,0.7479157,-3.6014395,11.045215,-72.580574,6.4216976,-20.014038,1.4875404,-16.5012,8.45816,31.94134,-68.44208,-4.8755484,25.485882,-2.7735488,-25.30272,-1.3537652,-32.505623
175,2.178842544555664,2.543020248413086,78.56341552734375,-1.7344291175048936,3.2809076284823866,-87.59770042146639,-8.534953,4.097799,4.8850756,19.326452,-12.977111,-2.4887414,-1.6085553,-4.0510826,-16.349323,6.8425107,-8.104094,4.322358,0.75650233,-3.5936668,11.084633,-72.44427,6.294186,-20.37889,1.7582012,-18.641052,8.032488,29.772688,-68.80471,-4.957889,26.797998,-1.8059618,-25.948753,-0.58235264,-35.171024
176,2.171980142593384,2.533820629119873,78.56607818603516,-1.7380572741420472,3.282262128537512,-87.7523080114396,-8.495206,4.153141,5.024392,19.323158,-13.004251,-2.5006363,-1.6578903,-4.0156727,-16.201677,6.8641,-8.079613,4.2954035,0.79025924,-3.5707254,11.102037,-72.250114,6.252477,-20.661968,1.8875927,-20.432453,7.7185836,28.234072,-68.87953,-5.099104,27.356998,-1.3361697,-26.536041,-0.09913852,-35.482132
177,2.163181781768799,2.5307536125183105,78.56473541259766,-1.741445303951802,3.285411999006725,-87.8830655816386,-8.47428,4.20283,5.141103,19.33786,-13.0332985,-2.5140958,-1.7048762,-3.9846473,-16.075808,6.8861976,-8.067249,4.269402,0.8592137,-3.5321643,11.088739,-71.97029,6.307365,-20.909437,1.8077431,-21.921778,7.419666,27.669668,-68.55104,-5.285006,26.87339,-1.537775,-27.14749,-0.011190956,-32.230244
178,2.1544079780578613,2.5300850868225098,78.55925750732422,-1.745266141867403,3.2896933711473286,-87.99617075640879,-8.466742,4.2493057,5.2402415,19.365818,-13.063971,-2.5291283,-1.7497847,-3.9554324,-15.965841,6.9088926,-8.062924,4.2432976,0.9434986,-3.49227,11.051609,-71.609924,6.461816,-21.012577,1.5890288,-23.323477,7.076218,27.743456,-67.90522,-5.5199122,25.575066,-2.2924492,-27.817719,-0.19821869,-26.745598
179,2.1417477130889893,2.5303454399108887,78.5549545288086,-1.749319463778653,3.293966400260117,-88.08984779500562,-8.469609,4.2929325,5.3205376,19.404873,-13.096068,-2.5455322,-1.7894936,-3.9273527,-15.8748255,6.930534,-8.062135,4.2196546,1.016937,-3.4598987,11.007498,-71.23307,6.705091,-20.961027,1.3438375,-24.35248,6.8044,27.950426,-67.115974,-5.8055906,23.919529,-3.3127651,-28.37995,-0.6394636,-20.744198
180,2.124241590499878,2.526451349258423,78.54814147949219,-1.7518030378381915,3.2971240132504454,-88.16233830049617,-8.4787,4.3324795,5.3814454,19.450567,-13.128601,-2.562919,-1.821266,-3.9007037,-15.805371,6.950804,-8.06563,4.201027,1.0570085,-3.4383757,10.970275,-70.903275,7.018949,-20.738691,1.1863929,-24.726875,6.74475,27.791328,-66.38009,-6.1405296,22.369158,-4.2746525,-28.688662,-1.2541875,-15.9389305
181,2.1057212352752686,2.5226919651031494,78.54248046875,-1.7524169644509358,3.29541881522284,-88.20310070055868,-8.493884,4.366249,5.4127297,19.507746,-13.164187,-2.5811925,-1.8353384,-3.876398,-15.769043,6.964279,-8.071673,4.19188,1.0538104,-3.419279,10.937315,-70.63903,7.4044394,-20.31387,1.1861724,-23.964617,7.0635896,26.969389,-65.752914,-6.534491,20.9729,-5.081641,-28.702621,-2.1725283,-12.440234
182,2.0792903900146484,2.524493932723999,78.53571319580078,-1.7518514314522133,3.2907143731646444,-88.21642106949555,-8.5171385,4.395042,5.4181485,19.576752,-13.202356,-2.6004615,-1.8419143,-3.855534,-15.760428,6.985267,-8.087941,4.1894746,1.0233078,-3.397855,10.904603,-70.39488,7.865828,-19.69938,1.2594985,-22.338802,7.6180534,25.793299,-65.12386,-6.986705,19.517542,-5.910479,-28.46835,-3.3442535,-9.4351
183,2.053532361984253,2.5246334075927734,78.53014373779297,-1.7515558801605549,3.2897269215006797,-88.22265173798992,-8.547773,4.4238973,5.417146,19.64777,-13.238469,-2.6211207,-1.8483535,-3.8327498,-15.758376,7.000051,-8.100516,4.1854916,0.98244643,-3.3769636,10.880825,-70.14338,8.381072,-18.939922,1.2997162,-20.7129,8.117627,24.686262,-64.47187,-7.466104,18.063753,-6.789745,-28.058628,-4.407381,-7.2293315
184,2.0251119136810303,2.5209386348724365,78.525634765625,-1.7527150425256668,3.2993291002697385,-88.24214411932086,-8.585145,4.458077,5.429264,19.711473,-13.268339,-2.643496,-1.8717599,-3.8054628,-15.741041,7.0159054,-8.106839,4.171717,0.9444024,-3.3576965,10.868289,-69.871086,8.9165745,-18.068876,1.2223195,-19.964828,8.323736,24.095932,-63.802597,-7.922455,16.673065,-7.715746,-27.593649,-5.0156274,-6.1516685
185,1.9993374347686768,2.5192666053771973,78.52489471435547,-1.7569829883926704,3.325838347181527,-88.27570308903181,-8.639644,4.499251,5.4554276,19.773157,-13.291769,-2.6668074,-1.9201597,-3.7720072,-15.70629,7.033004,-8.104425,4.1454215,0.90295756,-3.3453696,10.845032,-69.59437,9.474994,-17.081944,1.0353835,-20.482767,8.1351385,24.116085,-63.14064,-8.338054,15.36973,-8.65484,-27.194778,-5.0256653,-6.48196
186,1.9691098928451538,2.519742965698242,78.52239990234375,-1.7629800475190718,3.3641989857966554,-88.31393310436258,-8.708462,4.5449867,5.4865537,19.836395,-13.311312,-2.6912568,-1.9836266,-3.7339554,-15.664606,7.049122,-8.096053,4.111008,0.84329116,-3.336784,10.809805,-69.31051,10.064984,-15.957328,0.786979,-21.74181,7.6995463,24.513792,-62.508774,-8.711157,14.120339,-9.5778265,-26.804577,-4.660557,-7.986961
187,1.9409185647964478,2.520207405090332,78.51795959472656,-1.7689193309125344,3.4040074565542575,-88.36218214648618,-8.772046,4.5932245,5.5270767,19.888931,-13.326411,-2.7185364,-2.0524597,-3.693812,-15.612881,7.06628,-8.0849905,4.071172,0.76671046,-3.321685,10.791194,-69.00155,10.64414,-14.697395,0.48455676,-23.251518,7.169134,25.258348,-61.92507,-9.0026455,12.895215,-10.464565,-26.284288,-4.1323776,-10.238681
188,1.916144847869873,2.5239319801330566,78.51487731933594,-1.7724053366051031,3.4349526761816542,-88.42570412713096,-8.812341,4.6424527,5.5813026,19.922255,-13.338423,-2.750317,-2.1148984,-3.6539469,-15.548146,7.082807,-8.072596,4.0286775,0.67806894,-3.2942379,10.810423,-68.68676,11.136388,-13.302635,0.18678527,-24.51149,6.7026887,26.33175,-61.422405,-9.152872,11.659074,-11.271682,-25.517662,-3.6587796,-12.809705
189,1.8880454301834106,2.528249502182007,78.51081848144531,-1.7753257644433131,3.4534866690528134,-88.50791108915571,-8.824777,4.695738,5.651103,19.936127,-13.348666,-2.7923179,-2.170009,-3.6117048,-15.468248,7.1012187,-8.060349,3.9792051,0.5881507,-3.256067,10.864976,-68.422676,11.482659,-11.627765,-0.016860135,-25.663301,6.291738,27.883825,-61.002792,-9.114371,10.269556,-11.980641,-24.34295,-3.301991,-15.7992525
190,1.857455849647522,2.5309677124023438,78.50894165039062,-1.7780307439524903,3.465476498273177,-88.60541093635175,-8.820138,4.7531123,5.733861,19.936811,-13.357645,-2.8420024,-2.2493858,-3.574365,-15.373488,7.1786695,-8.077492,3.9232206,0.49717942,-3.215653,10.929068,-68.24597,11.67132,-9.721386,-0.090419434,-26.83874,5.845749,29.866528,-60.676346,-8.885884,8.776714,-12.570089,-22.887405,-3.004429,-19.362152
191,1.8279823064804077,2.5303308963775635,78.5091323852539,-1.7769552277206853,3.4751853141428453,-88.71295940322517,-8.802727,4.808378,5.8270154,19.923222,-13.36267,-2.888574,-2.404584,-3.561225,-15.264133,7.424345,-8.181517,3.8704374,0.40049273,-3.17963,10.990632,-68.163,11.703504,-7.879617,-0.0456068,-27.543001,5.4424596,31.98587,-60.47163,-8.49283,7.4294877,-13.002603,-21.482393,-2.7720604,-23.153826
192,1.7999159097671509,2.527750015258789,78.5109634399414,-1.768331868405389,3.486569378695575,-88.82550409964314,-8.775003,4.8550534,5.9281425,19.890835,-13.359774,-2.9213364,-2.5611985,-3.556312,-15.148642,7.670938,-8.284314,3.8298936,0.29918522,-3.1552126,11.040098,-68.17036,11.590658,-6.4023647,0.087273374,-27.300451,5.205384,33.961327,-60.39085,-7.9793944,6.4716296,-13.266854,-20.447847,-2.553999,-26.832829
193,1.7696341276168823,2.524360418319702,78.51139831542969,-1.748910393678603,3.501034691716399,-88.94568506720402,-8.735256,4.8892846,6.041158,19.834208,-13.345311,-2.9299276,-2.7218041,-3.5631073,-15.023325,7.919743,-8.384098,3.806482,0.20574391,-3.1410964,11.086881,-68.283714,11.316755,-5.2182055,0.36144805,-25.681772,5.2084746,35.865273,-60.42143,-7.3564515,5.895307,-13.414165,-19.844072,-2.223215,-30.815096
194,1.740912914276123,2.515382766723633,78.51292419433594,-1.7213172635540863,3.5163121030533504,-89.07486239161192,-8.682477,4.914902,6.165939,19.755844,-13.321746,-2.9226139,-2.8847477,-3.5779562,-14.887884,8.170297,-8.481661,3.7946413,0.13216567,-3.1309435,11.132114,-68.510376,10.875236,-4.2206893,0.7690532,-23.052544,5.4613853,37.796627,-60.528442,-6.630218,5.588839,-13.465525,-19.48433,-1.803189,-35.1229
195,1.71295964717865,2.506514310836792,78.5164794921875,-1.6908740711093007,3.5309671762086485,-89.20608990154955,-8.620597,4.9370065,6.2939515,19.66559,-13.295233,-2.916379,-3.0449328,-3.5951002,-14.750951,8.418764,-8.57892,3.7874596,0.07505695,-3.1247475,11.160383,-68.80121,10.310328,-3.658922,1.1564862,-20.149876,5.9589653,39.513065,-60.69038,-5.853765,5.6487017,-13.37001,-19.325129,-1.4262109,-38.81773
196,1.6840745210647583,2.4969348907470703,78.51946258544922,-1.662464224679652,3.5433332833808393,-89.33233669454545,-8.55498,4.9607553,6.416608,19.575321,-13.272727,-2.928088,-3.1950147,-3.608288,-14.621295,8.65742,-8.676555,3.7780228,0.026027892,-3.1218903,11.167811,-69.08199,9.690544,-3.786365,1.341777,-17.725641,6.6227064,40.78718,-60.89781,-5.099388,6.1711087,-13.080502,-19.33045,-1.2296304,-40.96252
197,1.6524934768676758,2.482926368713379,78.5211181640625,-1.6370031864262855,3.5503877826860726,-89.45401619331552,-8.478221,4.9870563,6.53346,19.478235,-13.253757,-2.9655945,-3.329108,-3.6157448,-14.499651,8.8808365,-8.771551,3.7674963,-0.016072404,-3.1185765,11.169722,-69.2912,9.039366,-4.7884927,1.1781551,-15.786434,7.6013446,41.626778,-61.15666,-4.3931804,7.269503,-12.551166,-19.523314,-1.3036666,-41.124886
198,1.6216768026351929,2.470308303833008,78.52131652832031,-1.612146415232553,3.5535376006916297,-89.57407067401698,-8.390342,5.013389,6.6484637,19.371685,-13.235557,-3.0186784,-3.4520478,-3.6207497,-14.381946,9.094801,-8.865236,3.7585542,-0.04881155,-3.1116366,11.177154,-69.43744,8.347065,-6.497242,0.75453126,-14.01899,8.836331,42.119324,-61.46641,-3.725396,8.870505,-11.826407,-19.891676,-1.5468416,-39.87951
199,1.5884608030319214,2.4550178050994873,78.52033996582031,-1.5872503375653282,3.5578324307792086,-89.68929513740568,-8.304562,5.039265,6.759632,19.267757,-13.2186365,-3.0772994,-3.5703874,-3.6246562,-14.269856,9.301824,-8.959835,3.746776,-0.07646549,-3.1013591,11.183514,-69.56166,7.637169,-8.633138,0.25361997,-12.685234,9.891549,42.20278,-61.823734,-3.1124337,10.790823,-10.9781885,-20.355469,-1.8187726,-37.8035
200,1.5550261735916138,2.440375566482544,78.51585388183594,-1.5621441485846146,3.5683941165977657,-89.79640441953978,-8.233665,5.064607,6.8650007,19.17845,-13.203452,-3.1313858,-3.687321,-3.627715,-14.165254,9.498867,-9.0558815,3.7276258,-0.10609665,-3.08951,11.186654,-69.72887,6.9476423,-10.915876,-0.13218705,-12.067112,10.33398,41.845104,-62.235397,-2.581416,12.847367,-10.081717,-20.834282,-1.9695626,-35.473736
201,1.5227419137954712,2.4198391437530518,78.51277160644531,-1.5344824504230423,3.590662493300306,-89.90188928695727,-8.179665,5.0883107,6.9730864,19.098324,-13.186055,-3.1803696,-3.813308,-3.6324482,-14.060248,9.691431,-9.157569,3.697919,-0.14758137,-3.0805943,11.206589,-70.01202,6.2815046,-13.664623,-0.34278688,-12.548541,9.766642,41.103996,-62.819454,-2.1337175,15.394779,-8.975873,-21.06498,-1.9976629,-32.494614
202,1.4898244142532349,2.3993113040924072,78.51121520996094,-1.5052420489480605,3.6204770169916114,-90.00499211790418,-8.136556,5.110975,7.0818295,19.024883,-13.168153,-3.2289248,-3.9403722,-3.6371958,-13.956828,9.87329,-9.260696,3.6606808,-0.19712436,-3.0645006,11.242255,-70.33749,5.632845,-16.90095,-0.503241,-13.906917,8.5313225,39.975906,-63.52191,-1.757118,18.414968,-7.6998467,-21.164095,-1.9640703,-28.745157
203,1.4515085220336914,2.3753113746643066,78.50979614257812,-1.4784926424300444,3.6481008740584944,-90.0917446939182,-8.102194,5.134368,7.1737704,18.969015,-13.155877,-3.2746742,-4.0545373,-3.6394098,-13.870722,10.044489,-9.361886,3.6206467,-0.24544364,-3.031298,11.261254,-70.59556,5.031419,-19.889982,-0.6732984,-15.523117,7.311053,38.35708,-64.12985,-1.465671,21.153728,-6.603998,-21.642511,-1.8428558,-25.211855
204,1.414453387260437,2.3543126583099365,78.50892639160156,-1.4584092612327135,3.663700330127951,-90.1480861198592,-8.074428,5.160568,7.231301,18.94139,-13.154893,-3.3153,-4.138742,-3.6354601,-13.817992,10.1991,-9.455002,3.5824673,-0.28861055,-2.9813673,11.234324,-70.70116,4.520386,-21.893143,-0.904561,-16.76183,6.7685466,36.187263,-64.45903,-1.2898201,22.846771,-6.0266604,-23.007494,-1.6518064,-22.870125
205,1.379744052886963,2.334934949874878,78.50653839111328,-1.4456444776777253,3.663977936097904,-90.16821459070238,-8.050724,5.1884093,7.2476473,18.943356,-13.166147,-3.3461063,-4.1838756,-3.6254144,-13.806973,10.330919,-9.534271,3.5487642,-0.3359389,-2.9205475,11.145099,-70.58649,4.128626,-22.530926,-1.2358088,-17.404966,7.2175593,33.063156,-64.43208,-1.2659632,23.181818,-6.1332693,-26.069517,-1.2290877,-22.543964
206,1.3326188325881958,2.3094656467437744,78.50405883789062,-1.4380288534992098,3.6543689695309736,-90.16027727569706,-8.032761,5.2174525,7.2328286,18.969688,-13.186995,-3.3696682,-4.1986,-3.6105022,-13.827952,10.440288,-9.601905,3.5166042,-0.38851684,-2.855309,11.012452,-70.31144,3.854936,-22.266218,-1.659761,-17.745007,8.263817,29.1492,-64.14146,-1.3990167,22.61008,-6.753869,-30.326517,-0.54519546,-23.484327
207,1.2867319583892822,2.284132242202759,78.50291442871094,-1.4358296911631463,3.638155180857532,-90.13127888437046,-8.023839,5.250296,7.1946964,19.01845,-13.215986,-3.3944948,-4.19758,-3.5906281,-13.86934,10.54268,-9.670521,3.4823833,-0.4314904,-2.7904842,10.8656645,-69.99931,3.7002778,-21.626192,-2.1482246,-17.926888,9.464203,25.267231,-63.666176,-1.6685147,21.49833,-7.71565,-34.3176,0.08404583,-24.3342
208,1.2419557571411133,2.262104034423828,78.50086212158203,-1.4388824679667656,3.6188848885723424,-90.08821608707856,-8.027291,5.289171,7.141275,19.087826,-13.252197,-3.4291005,-4.1942787,-3.565567,-13.919696,10.649371,-9.750099,3.4426012,-0.45435953,-2.7276535,10.740031,-69.78176,3.6632607,-21.132023,-2.6617093,-18.183334,10.387219,22.25332,-63.124146,-2.0348175,20.198925,-8.805418,-36.614452,0.14539972,-23.814232
209,1.194023609161377,2.2471237182617188,78.49591064453125,-1.4511198319906784,3.595297249357188,-90.01848927864165,-8.050607,5.336132,7.059837,19.188412,-13.298842,-3.478607,-4.1841493,-3.5329037,-13.989201,10.758888,-9.845463,3.3949,-0.4641888,-2.6652102,10.640927,-69.70914,3.766114,-20.922043,-3.1976383,-18.665281,10.962191,20.344522,-62.52456,-2.4789066,18.618906,-10.033914,-36.484257,-0.7669724,-21.021292
210,1.140787959098816,2.2324628829956055,78.48719024658203,-1.4713097465422902,3.566285592703654,-89.9232087033315,-8.08942,5.3893876,6.9511185,19.316605,-13.354611,-3.5376167,-4.162812,-3.4937088,-14.079488,10.866919,-9.950698,3.341545,-0.4728845,-2.6112442,10.551855,-69.69511,4.022482,-20.729296,-3.7853572,-19.261847,11.397744,19.095287,-61.794193,-2.9947581,16.62767,-11.50831,-34.720776,-2.2020466,-16.793264
211,1.0850857496261597,2.219238758087158,78.47587585449219,-1.4912469875041703,3.5357631403699625,-89.82984860987904,-8.12961,5.44483,6.8433795,19.449963,-13.413116,-3.5986936,-4.1452284,-3.4534907,-14.165869,10.982988,-10.060935,3.2862544,-0.48213583,-2.5706084,10.473757,-69.68048,4.4041486,-20.446331,-4.4068265,-19.859589,11.691405,18.318224,-60.988182,-3.5489085,14.521039,-13.091203,-32.28323,-3.5072587,-12.544429
212,1.0311288833618164,2.210533618927002,78.46484375,-1.5027637387440695,3.50780409229091,-89.76593043574196,-8.157697,5.4981356,6.764815,19.566734,-13.467648,-3.6543136,-4.1491923,-3.418554,-14.223672,11.122569,-10.175134,3.2326577,-0.4964019,-2.5374334,10.404713,-69.61289,4.866491,-19.94746,-5.036837,-20.326626,11.840161,17.821188,-60.218285,-4.1012573,12.589607,-14.577353,-30.278887,-4.2735324,-9.7789135
213,0.9764532446861267,2.204190731048584,78.45195770263672,-1.5043652753882735,3.483834947774362,-89.73253574135312,-8.176762,5.5486794,6.7158575,19.670862,-13.52171,-3.700747,-4.176299,-3.3903263,-14.251778,11.285915,-10.293502,3.1821802,-0.5256936,-2.5113127,10.324555,-69.49465,5.408913,-19.165422,-5.6352553,-20.587976,11.796758,17.526619,-59.539486,-4.6496,10.866487,-15.866385,-29.04672,-4.5364876,-8.869499
214,0.9164972901344299,2.1906559467315674,78.44168853759766,-1.5000298648280734,3.461643473999193,-89.71706727457524,-8.19253,5.5985136,6.683835,19.772263,-13.577825,-3.7425547,-4.219581,-3.3660715,-14.261484,11.469169,-10.418523,3.1327138,-0.5726322,-2.4876304,10.23541,-69.34404,6.041735,-18.163353,-6.219689,-20.721897,11.570335,17.538017,-58.918518,-5.194659,9.215276,-17.03847,-28.04516,-4.5496225,-9.048376
215,0.8546873927116394,2.1779584884643555,78.43122863769531,-1.490637601810075,3.439895880962116,-89.72659709996529,-8.194536,5.648834,6.6770773,19.85515,-13.626455,-3.7848508,-4.2829175,-3.3450725,-14.246648,11.679391,-10.548251,3.0822535,-0.63601184,-2.4533906,10.165739,-69.15263,6.7183895,-16.998281,-6.8109994,-20.811626,11.244619,17.935722,-58.376987,-5.695513,7.665,-18.10964,-27.108442,-4.405677,-10.138733
216,0.7941092252731323,2.1668803691864014,78.4229736328125,-1.4765474398292837,3.417371616899358,-89.76807606557452,-8.17436,5.7008677,6.7037964,19.908546,-13.660879,-3.8327203,-4.3628516,-3.324883,-14.201679,11.906558,-10.675899,3.029034,-0.7141147,-2.4029589,10.135876,-68.9533,7.3577337,-15.719724,-7.373847,-20.924051,10.904728,18.796429,-57.948578,-6.0893474,6.2387085,-19.077389,-26.078178,-4.191345,-11.95958
217,0.7348620295524597,2.15285325050354,78.41834259033203,-1.4571303316872286,3.3940757379040027,-89.85078494534895,-8.125518,5.7554216,6.773387,19.922693,-13.674575,-3.8888214,-4.469983,-3.3062775,-14.117536,12.167066,-10.803866,2.972428,-0.79467547,-2.3514009,10.139567,-68.82626,7.90461,-14.215334,-7.8103704,-21.253046,10.507293,20.332901,-57.62081,-6.339282,4.8253217,-19.956856,-24.831785,-3.9195554,-14.744966
218,0.6749765276908875,2.143833875656128,78.4147720336914,-1.4321578121413419,3.3708900726116195,-89.9685693356385,-8.05502,5.8114867,6.879062,19.908175,-13.673952,-3.9499836,-4.6018777,-3.2895775,-13.99981,12.458325,-10.934095,2.9134583,-0.87426025,-2.311321,10.155231,-68.80341,8.348425,-12.502086,-8.064759,-21.657944,10.0204115,22.429344,-57.379898,-6.453434,3.431173,-20.730103,-23.490114,-3.6099734,-18.490978
219,0.6187573075294495,2.1352038383483887,78.41297912597656,-1.4034693471356523,3.347600801856507,-90.10524678943906,-7.9729786,5.868183,7.0047994,19.87882,-13.668252,-4.0127378,-4.746627,-3.274316,-13.864258,12.766079,-11.06694,2.8529723,-0.9577856,-2.2748241,10.18158,-68.86335,8.672259,-10.826731,-8.150144,-21.718061,9.569497,24.680092,-57.252186,-6.440427,2.2551072,-21.357576,-22.271597,-3.324672,-22.657825
220,0.5571523904800415,2.125255823135376,78.41080474853516,-1.3728707718327398,3.3243434738079376,-90.24466655202573,-7.888876,5.924457,7.1345763,19.847687,-13.666341,-4.073527,-4.8916955,-3.2599235,-13.726572,13.07528,-11.202411,2.7917616,-1.048781,-2.2359614,10.21511,-68.98851,8.857602,-9.437132,-8.078,-21.030539,9.313114,26.691587,-57.26456,-6.310297,1.4958384,-21.797316,-21.400698,-3.0708416,-26.708776
221,0.49454396963119507,2.116413116455078,78.40675354003906,-1.3398861926247412,3.300236586584817,-90.38718746601837,-7.79887,5.9799814,7.269883,19.809626,-13.668453,-4.1311035,-5.0363307,-3.2466269,-13.586394,13.387265,-11.341076,2.7293246,-1.1400386,-2.186663,10.2619,-69.19367,8.86453,-8.2325115,-7.779672,-19.15428,9.345353,28.487188,-57.428406,-6.0499244,1.1499664,-22.092537,-20.906073,-2.7439165,-31.076109
222,0.43376997113227844,2.1132612228393555,78.40035247802734,-1.3037577758724452,3.2755481505416744,-90.53982861142049,-7.700501,6.035291,7.417332,19.76153,-13.670893,-4.1875587,-5.1867557,-3.2347414,-13.436803,13.708981,-11.482904,2.6657486,-1.2149681,-2.1346486,10.315294,-69.519775,8.683551,-7.141568,-7.2384386,-16.410238,9.6333,30.224405,-57.69353,-5.6651955,1.121704,-22.273144,-20.666895,-2.3301258,-35.859444
223,0.37585726380348206,2.1054675579071045,78.39398956298828,-1.266005325246857,3.252400041456317,-90.69660512054529,-7.60252,6.0897694,7.568968,19.712852,-13.673506,-4.2440667,-5.339097,-3.2224493,-13.284046,14.029224,-11.625053,2.6022098,-1.2673994,-2.0919714,10.3581705,-69.94164,8.3645315,-6.455884,-6.600932,-13.561233,10.105975,31.716637,-58.011955,-5.206532,1.4697566,-22.27447,-20.69225,-1.9273205,-40.019756
224,0.3058967888355255,2.0949182510375977,78.38484954833984,-1.2279268670861427,3.2323054336379777,-90.85136580119733,-7.516744,6.1435766,7.7163043,19.679657,-13.679572,-4.3019004,-5.4906983,-3.2088783,-13.134166,14.339931,-11.766354,2.5399501,-1.3016608,-2.066495,10.3827915,-70.39127,7.9896913,-6.465901,-6.0585914,-11.387259,10.628006,32.801178,-58.368546,-4.7413225,2.2587485,-22.009418,-21.001112,-1.6386527,-42.52035
225,0.24161913990974426,2.089050054550171,78.37554931640625,-1.1899584107446637,3.215858883503346,-91.00296749131893,-7.446674,6.195742,7.857373,19.66552,-13.687903,-4.36048,-5.6420426,-3.1939976,-12.987997,14.639926,-11.906445,2.4776254,-1.3215625,-2.0474327,10.40126,-70.81953,7.6031666,-7.323606,-5.7156343,-9.995895,11.271696,33.443905,-58.793594,-4.288227,3.5800889,-21.403135,-21.664463,-1.5910302,-42.953896
226,0.17919905483722687,2.0878002643585205,78.36534118652344,-1.1513129381797553,3.2018508861492543,-91.15448916812865,-7.3857937,6.246818,7.9964027,19.662615,-13.697417,-4.4193697,-5.7932696,-3.1779373,-12.842671,14.931886,-12.045182,2.4152017,-1.3379357,-2.0291011,10.428855,-71.221794,7.200329,-8.8483715,-5.512553,-9.036483,12.025402,33.741077,-59.29476,-3.8286436,5.388151,-20.516626,-22.637068,-1.7020403,-41.937397
227,0.11450193077325821,2.0810959339141846,78.35486602783203,-1.1121220229623845,3.1891884077581283,-91.30624575007411,-7.3278465,6.2982316,8.134949,19.66384,-13.709228,-4.480003,-5.941707,-3.1598861,-12.698677,15.215294,-12.182908,2.3557832,-1.3661702,-2.0251043,10.463357,-71.5961,6.788702,-10.830671,-5.387927,-8.597849,12.603929,33.754856,-59.845985,-3.3742898,7.543497,-19.443893,-23.77658,-1.7792884,-39.972454
228,0.04415343329310417,2.0731635093688965,78.34406280517578,-1.0721789344592638,3.1764403716769998,-91.45841491062615,-7.2654247,6.351605,8.274547,19.660112,-13.723278,-4.5438604,-6.086451,-3.1394908,-12.556353,15.492996,-12.320271,2.302427,-1.417674,-2.0443845,10.504087,-71.94295,6.3801622,-13.062353,-5.2847385,-8.778404,12.729441,33.55232,-60.441944,-2.9559703,9.906984,-18.269339,-24.946926,-1.6102549,-37.55419
229,-0.028338152915239334,2.0639660358428955,78.33403015136719,-1.0306006590080412,3.1649359428291177,-91.61419386106891,-7.197385,6.4063344,8.417707,19.648577,-13.740697,-4.6124325,-6.223937,-3.1159754,-12.414898,15.751942,-12.454336,2.2625756,-1.4993523,-2.091052,10.569443,-72.313965,5.9628663,-15.9366665,-5.1879396,-10.003526,12.132142,33.126583,-61.20642,-2.5868692,12.836848,-16.793001,-26.082975,-1.0162705,-34.087177
230,-0.10028243064880371,2.0512797832489014,78.32262420654297,-0.988048779970535,3.1549400003585877,-91.77254493501044,-7.1275268,6.462182,8.562822,19.634571,-13.7613535,-4.6845875,-6.3595157,-3.090479,-12.27427,16.003695,-12.588017,2.2322798,-1.5907245,-2.1421976,10.659512,-72.654976,5.5315747,-19.422115,-5.16341,-12.097722,11.043032,32.427673,-62.086628,-2.2609544,16.294844,-15.059347,-27.31294,-0.20297469,-29.539463
231,-0.17274923622608185,2.042177438735962,78.31259155273438,-0.9464364442360325,3.143041915625267,-91.92696650779922,-7.0554576,6.520575,8.705439,19.621134,-13.783158,-4.757809,-6.489179,-3.0618153,-12.136962,16.252064,-12.721906,2.197441,-1.6683929,-2.1772752,10.741885,-72.85656,5.118081,-22.662586,-5.2358994,-14.261961,9.935474,31.478256,-62.86423,-1.9935831,19.528612,-13.4731455,-28.751509,0.5106356,-25.258362
232,-0.2476688176393509,2.0354905128479004,78.30184173583984,-0.9081743511254704,3.1256662616222592,-92.07089552485796,-6.9828963,6.5828176,8.841046,19.615591,-13.806513,-4.829361,-6.608766,-3.0291352,-12.005312,16.501244,-12.858652,2.1441298,-1.7206893,-2.1912801,10.78476,-72.85431,4.7640386,-24.795048,-5.395416,-15.700479,9.258243,30.352102,-63.35435,-1.8126166,21.768538,-12.420453,-30.437607,0.859555,-22.595892
233,-0.3289017379283905,2.02127742767334,78.2889404296875,-0.8724672968027343,3.0993328387763035,-92.20994887214597,-6.89909,6.6497116,8.978933,19.609621,-13.82858,-4.8960176,-6.7187657,-2.9918883,-11.870522,16.761591,-13.000321,2.06171,-1.754892,-2.1918223,10.774178,-72.56446,4.4938636,-25.426163,-5.719277,-16.242826,9.18556,28.791306,-63.51667,-1.749387,22.778706,-12.054008,-32.767002,0.90767753,-22.647797
234,-0.4075588583946228,2.012805700302124,78.27799987792969,-0.8383779706577137,3.066523159743058,-92.34507401763304,-6.805548,6.7200456,9.118255,19.600386,-13.84892,-4.959929,-6.819181,-2.9508672,-11.734331,17.02474,-13.144328,1.9599999,-1.7820728,-2.1840973,10.727354,-72.04996,4.3044195,-25.069975,-6.1977587,-16.293785,9.445082,26.863138,-63.450603,-1.8076133,22.987293,-12.165516,-35.5616,0.8892542,-24.454813
235,-0.48444080352783203,2.0069289207458496,78.2659683227539,-0.8079960881854102,3.0332972232977227,-92.46329494542347,-6.7247524,6.792737,9.238749,19.608109,-13.874113,-5.0268817,-6.91225,-2.9068763,-11.615034,17.280691,-13.287298,1.8552192,-1.8013141,-2.1684406,10.662815,-71.48082,4.1925006,-24.23011,-6.6855617,-15.924864,9.780521,25.154976,-63.19486,-1.969834,22.609789,-12.599085,-37.976536,0.735568,-26.282785
236,-0.5647352337837219,2.00169038772583,78.25283813476562,-0.7833189467006173,3.0059121958017747,-92.55178019668033,-6.6787953,6.867116,9.320146,19.651651,-13.910168,-5.102596,-7.0015564,-2.8613033,-11.530935,17.521921,-13.42703,1.7636288,-1.8103447,-2.1474688,10.6041,-71.04658,4.1495266,-23.409475,-7.0148864,-15.2265005,9.945398,24.259264,-62.81836,-2.2024174,21.846142,-13.166083,-39.16883,0.19236287,-26.401272
237,-0.6536261439323425,1.9983580112457275,78.23468780517578,-0.7678097190499017,2.988086055256928,-92.60139890305952,-6.68211,6.945069,9.348871,19.745132,-13.962918,-5.192855,-7.087247,-2.8128378,-11.493869,17.741333,-13.560388,1.6916502,-1.8045301,-2.1207168,10.554675,-70.80979,4.178044,-22.697538,-7.131989,-13.911705,9.90201,24.508516,-62.294308,-2.4826083,20.490564,-13.901867,-38.52605,-1.1549386,-23.585754
238,-0.7389762997627258,1.9991662502288818,78.21366882324219,-0.7596512980532691,2.9758588441383482,-92.62104078775157,-6.719308,7.0264797,9.3384285,19.87351,-14.026729,-5.2931714,-7.1677814,-2.7614508,-11.491748,17.944992,-13.689962,1.6298243,-1.7872167,-2.0990453,10.500171,-70.6691,4.2801776,-21.852695,-7.1165876,-12.035912,9.797967,25.536173,-61.583694,-2.8044276,18.510412,-14.891589,-36.510685,-2.9647603,-18.936863
