unveil-humanoid-operators/unveil-humanoid-operators.github.io/feature-analysis-animation/data/feature_matrix_instances/weight_ankle_rom_walking_A147_walk_ff_start_270_002__A147.csv
Frame,root_translateX,root_translateY,root_translateZ,root_rotateX,root_rotateY,root_rotateZ,left_hip_pitch_joint_dof,left_hip_roll_joint_dof,left_hip_yaw_joint_dof,left_knee_joint_dof,left_ankle_pitch_joint_dof,left_ankle_roll_joint_dof,right_hip_pitch_joint_dof,right_hip_roll_joint_dof,right_hip_yaw_joint_dof,right_knee_joint_dof,right_ankle_pitch_joint_dof,right_ankle_roll_joint_dof,waist_yaw_joint_dof,waist_roll_joint_dof,waist_pitch_joint_dof,left_shoulder_pitch_joint_dof,left_shoulder_roll_joint_dof,left_shoulder_yaw_joint_dof,left_elbow_joint_dof,left_wrist_roll_joint_dof,left_wrist_pitch_joint_dof,left_wrist_yaw_joint_dof,right_shoulder_pitch_joint_dof,right_shoulder_roll_joint_dof,right_shoulder_yaw_joint_dof,right_elbow_joint_dof,right_wrist_roll_joint_dof,right_wrist_pitch_joint_dof,right_wrist_yaw_joint_dof
0,2.3982954025268555,0.023062828928232193,78.19175720214844,-0.9576205240562242,-0.37294945865398355,-176.800043211292,2.7777586,4.001207,12.304976,7.055348,-8.803612,-4.518662,2.1681669,-1.382564,-11.466947,7.573971,-10.571928,0.98135364,-0.30304286,-0.5430431,7.1387844,-7.7617917,17.88501,-33.960537,59.352898,-12.355687,0.6890338,-4.242699,-15.766306,-16.259935,51.904724,59.297157,16.678156,10.767143,-4.9973383
1,2.4033944606781006,0.02306610904633999,78.19129943847656,-0.9596830693243467,-0.37043083059087367,-176.7994095139404,2.7728233,4.0045733,12.305915,7.0506086,-8.796788,-4.522227,2.165814,-1.3785253,-11.467526,7.5659,-10.563824,0.9891214,-0.29893675,-0.54391456,7.149854,-7.765292,17.886515,-33.958363,59.348343,-12.420951,0.67112976,-4.2287793,-15.765105,-16.258886,51.907433,59.307747,16.678633,10.72224,-5.02291
2,2.4043450355529785,0.02673698216676712,78.19068145751953,-0.9618493328100991,-0.3675528453239222,-176.7990614493061,2.7666345,4.0084214,12.307356,7.047392,-8.790523,-4.5261807,2.1651194,-1.3738045,-11.467908,7.5534983,-10.553425,0.9988753,-0.29651397,-0.5461092,7.172761,-7.7830453,17.891272,-33.954742,59.349854,-12.50043,0.64558226,-4.212671,-15.786212,-16.25624,51.930996,59.333965,16.704018,10.660236,-5.057727
3,2.4066162109375,0.02908613532781601,78.19129943847656,-0.9638361884045523,-0.3650085199522029,-176.79941611493695,2.7615588,4.0119343,12.309093,7.0442877,-8.784932,-4.5294194,2.1627865,-1.369506,-11.467543,7.5452514,-10.545029,1.0044479,-0.30071786,-0.54922223,7.1902823,-7.790304,17.90018,-33.94605,59.345776,-12.574958,0.6264582,-4.2025414,-15.810869,-16.251375,51.971935,59.358746,16.736485,10.610694,-5.087105
4,2.41270112991333,0.030607162043452263,78.19280242919922,-0.9651130446317875,-0.3627202986863431,-176.80056272428132,2.756828,4.0148544,12.310598,7.0440106,-8.781321,-4.530597,2.1570559,-1.3666192,-11.466771,7.546029,-10.541436,1.0000418,-0.2936236,-0.5516034,7.201855,-7.794204,17.901848,-33.94476,59.34169,-12.635024,0.6204171,-4.20166,-15.816077,-16.250723,51.979897,59.372257,16.734411,10.581842,-5.1006923
5,2.4105443954467773,0.03310418501496315,78.19258880615234,-0.9657514477500747,-0.36116529770670314,-176.80490715825093,2.7513924,4.01825,12.313233,7.051725,-8.782552,-4.528212,2.144863,-1.3647401,-11.463029,7.562681,-10.545058,0.9764547,-0.30057582,-0.5501192,7.2198076,-7.8012843,17.909721,-33.94405,59.335606,-12.733322,0.6315969,-4.2229376,-15.845973,-16.247236,52.030563,59.403397,16.741062,10.565198,-5.108582
6,2.4138009548187256,0.03445172682404518,78.19324493408203,-0.9658672781336896,-0.3603600082879419,-176.80996122140783,2.7470472,4.020941,12.315397,7.0624537,-8.786053,-4.523067,2.1280875,-1.3642769,-11.458901,7.5913963,-10.554606,0.9396711,-0.30494213,-0.54908943,7.230285,-7.8019214,17.913786,-33.94505,59.330906,-12.83065,0.6574255,-4.2587233,-15.845811,-16.245197,52.047756,59.41464,16.697851,10.571084,-5.1039023
7,2.4221510887145996,0.03350093215703964,78.1927261352539,-0.9657714863196208,-0.3592806018079476,-176.81653856773767,2.7434976,4.023607,12.319107,7.0716796,-8.789405,-4.518594,2.1123052,-1.363701,-11.453256,7.616901,-10.562742,0.9048684,-0.30080423,-0.5496629,7.2417946,-7.8081446,17.9158,-33.949657,59.329308,-12.9009495,0.6829001,-4.2912655,-15.849298,-16.24438,52.058144,59.426735,16.661058,10.579621,-5.0905905
8,2.421751022338867,0.034873612225055695,78.19417572021484,-0.9657322709082078,-0.3558207543150821,-176.82507506546148,2.740854,4.0257993,12.326473,7.072731,-8.789122,-4.517755,2.0986707,-1.3623829,-11.445541,7.6319857,-10.567129,0.8875213,-0.28878817,-0.5524087,7.252921,-7.820388,17.923023,-33.966408,59.324867,-12.931128,0.6964596,-4.3034644,-15.889825,-16.24156,52.106033,59.463875,16.69792,10.573414,-5.0731435
9,2.4241034984588623,0.03715124726295471,78.1969985961914,-0.9662968811489357,-0.34995071506354675,-176.83626919650084,2.7388601,4.0287867,12.338638,7.065375,-8.785372,-4.5231357,2.093858,-1.358247,-11.435102,7.621358,-10.560114,0.89633584,-0.27844346,-0.5553939,7.2579217,-7.8265424,17.924902,-33.966385,59.31993,-12.861735,0.6890656,-4.283117,-15.898349,-16.241127,52.110626,59.477627,16.713942,10.550683,-5.045996
10,2.4268887042999268,0.03931872919201851,78.19597625732422,-0.9672443076731798,-0.34217733985579063,-176.8499266921854,2.7392712,4.031564,12.354867,7.047815,-8.776864,-4.532491,2.0930064,-1.3526112,-11.422217,7.5969124,-10.547271,0.9216235,-0.27291352,-0.55806583,7.258515,-7.828429,17.926548,-33.961105,59.312935,-12.733407,0.6692551,-4.2411427,-15.896641,-16.241074,52.106487,59.48449,16.732986,10.517022,-5.0121
11,2.4260244369506836,0.04033931344747543,78.19454956054688,-0.9679263209750095,-0.33394142324297904,-176.8637765217579,2.7385526,4.0341754,12.371476,7.03183,-8.769967,-4.542048,2.0926216,-1.3473191,-11.408956,7.5702553,-10.533953,0.95074564,-0.2552989,-0.563796,7.2631392,-7.8355575,17.929493,-33.955395,59.304714,-12.59093,0.6481794,-4.199498,-15.913986,-16.24181,52.10479,59.500717,16.779911,10.481313,-4.973816
12,2.41851806640625,0.03884231671690941,78.19525146484375,-0.9681303742454634,-0.32691500707820464,-176.87539192656183,2.7379494,4.0357966,12.385056,7.019002,-8.765223,-4.547963,2.0914218,-1.3433932,-11.397611,7.5499816,-10.523727,0.9709984,-0.25653055,-0.56492734,7.263319,-7.831029,17.931095,-33.945442,59.29539,-12.510997,0.63411045,-4.1750684,-15.905918,-16.242458,52.09552,59.501656,16.789783,10.449166,-4.946134
13,2.417433738708496,0.03800361230969429,78.1938247680664,-0.9676098489441031,-0.3210698783707035,-176.88417296756285,2.7357068,4.0363326,12.394334,7.01271,-8.765142,-4.548561,2.0865624,-1.3416578,-11.388617,7.5419655,-10.519692,0.97895247,-0.24197277,-0.56798637,7.27345,-7.8385153,17.934393,-33.940437,59.28791,-12.507396,0.631828,-4.1817746,-15.934566,-16.24466,52.10249,59.5225,16.836754,10.422306,-4.9202147
14,2.4162278175354004,0.03517825901508331,78.19392395019531,-0.9665117730828454,-0.3160651045296606,-176.89106005526935,2.7334821,4.0358143,12.401145,7.008561,-8.767279,-4.545956,2.080985,-1.3414546,-11.381017,7.538801,-10.518431,0.98141897,-0.2444737,-0.5657261,7.2782764,-7.8345294,17.939499,-33.935307,59.277233,-12.568309,0.6343069,-4.2030177,-15.952,-16.248676,52.120533,59.537457,16.875435,10.395409,-4.9023776
15,2.4140734672546387,0.03620308265089989,78.19403839111328,-0.9653474231568356,-0.31077135268482725,-176.89715413100976,2.7302086,4.0348473,12.407005,7.006998,-8.770459,-4.5426745,2.074507,-1.3417251,-11.374224,7.537973,-10.518425,0.9810048,-0.24691637,-0.56484914,7.2786975,-7.827661,17.942188,-33.93112,59.27044,-12.62969,0.63910824,-4.2272778,-15.959618,-16.251406,52.131435,59.548195,16.902803,10.37252,-4.890624
16,2.4159324169158936,0.03632336109876633,78.19253540039062,-0.9642320213163522,-0.30459546740892984,-176.90348297320833,2.7276778,4.0337667,12.413817,7.0028334,-8.77043,-4.541302,2.066926,-1.3419951,-11.367369,7.537935,-10.518566,0.98033816,-0.24500053,-0.56802154,7.278336,-7.8233356,17.944548,-33.927753,59.269012,-12.641573,0.6430751,-4.2427216,-15.972181,-16.254517,52.144653,59.56132,16.932102,10.356124,-4.8849945
17,2.4175469875335693,0.038004472851753235,78.1924819946289,-0.962872929984048,-0.2975400910890121,-176.9096609372222,2.7255526,4.0319977,12.421447,6.9973993,-8.766624,-4.542793,2.0603623,-1.3423018,-11.361104,7.5344315,-10.516933,0.98119843,-0.24475133,-0.57400495,7.273455,-7.8193827,17.94534,-33.925663,59.273075,-12.572568,0.64633614,-4.242178,-15.974557,-16.255795,52.148174,59.57047,16.942312,10.347199,-4.889661
18,2.413951873779297,0.037231314927339554,78.19403839111328,-0.9611660754771159,-0.2874193857712256,-176.91730932239247,2.7221029,4.0294795,12.431387,6.989069,-8.758899,-4.5458684,2.048757,-1.3432504,-11.353494,7.5341935,-10.516498,0.98164177,-0.24674153,-0.58350664,7.267104,-7.803104,17.948183,-33.901585,59.267693,-12.423259,0.6507809,-4.2368464,-15.989771,-16.26218,52.17415,59.58169,16.971483,10.340977,-4.903283
19,2.41239595413208,0.037365447729825974,78.19457244873047,-0.9601357147398746,-0.27878788268438753,-176.9233802544368,2.719146,4.0277843,12.439548,6.9834375,-8.75283,-4.548928,2.039017,-1.3436017,-11.347359,7.5344744,-10.516008,0.97925454,-0.2542568,-0.59164506,7.260988,-7.7855186,17.949745,-33.882454,59.266697,-12.301879,0.65494984,-4.2301693,-15.993642,-16.266748,52.18453,59.58597,16.973227,10.342972,-4.9189286
20,2.4088196754455566,0.03434203565120697,78.19548034667969,-0.9608094910884661,-0.27207602795283775,-176.92788062235897,2.7161763,4.028795,12.445407,6.981973,-8.751015,-4.550731,2.0299258,-1.3424532,-11.342448,7.5393705,-10.517333,0.9714015,-0.261567,-0.59752154,7.2590213,-7.7686634,17.950241,-33.87398,59.27119,-12.272675,0.657464,-4.229831,-15.995894,-16.269539,52.18485,59.588936,16.962164,10.352022,-4.9309607
21,2.4075632095336914,0.036187104880809784,78.1958999633789,-0.9638678955500812,-0.26841802836877937,-176.9296406668771,2.7139223,4.033351,12.447918,6.9850807,-8.754556,-4.5501904,2.0226583,-1.338955,-11.339227,7.5495334,-10.520504,0.9541208,-0.27392814,-0.59823495,7.268142,-7.751716,17.950338,-33.87402,59.27916,-12.389363,0.6595315,-4.2429523,-16.007095,-16.27147,52.183277,59.590405,16.941721,10.374414,-4.938174
22,2.404529333114624,0.032235562801361084,78.19445037841797,-0.9683415432030111,-0.26676635720777275,-176.9293404816933,2.7112908,4.0404477,12.447866,6.9940476,-8.763502,-4.5482507,2.0153506,-1.3340633,-11.33747,7.5654306,-10.525657,0.9299607,-0.2892816,-0.5932026,7.28214,-7.7315354,17.950548,-33.89032,59.28709,-12.612708,0.66104835,-4.26082,-16.015142,-16.275747,52.1679,59.58688,16.897758,10.4093,-4.9425554
23,2.400181770324707,0.03167451173067093,78.19567108154297,-0.9737804018555533,-0.26563218903056957,-176.9290479075138,2.7093766,4.048366,12.447213,7.002617,-8.772781,-4.546437,2.0090547,-1.3284585,-11.336071,7.5810547,-10.530551,0.9057234,-0.3085064,-0.58999115,7.2955627,-7.708405,17.950283,-33.89837,59.29745,-12.835533,0.66054887,-4.278829,-16.02049,-16.27716,52.156696,59.58109,16.856453,10.442136,-4.947151
24,2.40175461769104,0.0348527655005455,78.19541931152344,-0.9790766890179372,-0.26318647372509524,-176.93009810231501,2.708601,4.0548778,12.447165,7.0065684,-8.779316,-4.5461884,2.0041916,-1.3228042,-11.334824,7.591055,-10.533518,0.8883531,-0.29766345,-0.59032816,7.304542,-7.703668,17.949078,-33.942963,59.314186,-12.991465,0.65560365,-4.2824764,-16.014807,-16.284397,52.117188,59.57169,16.825996,10.464129,-4.945411
25,2.3982467651367188,0.032534051686525345,78.19510650634766,-0.9844687039722921,-0.2592758512539396,-176.93334875059273,2.7086573,4.060011,12.447557,7.0071855,-8.783416,-4.5491285,2.0020812,-1.3167719,-11.333784,7.59243,-10.532672,0.87988085,-0.31026545,-0.5922404,7.30735,-7.6855154,17.94867,-33.944794,59.323925,-13.016106,0.6444181,-4.274958,-16.010674,-16.285147,52.110226,59.564648,16.822174,10.464849,-4.944505
26,2.3926470279693604,0.027279971167445183,78.19591522216797,-0.9909822032245739,-0.25398079373945204,-176.93706050137666,2.708977,4.0651755,12.4470825,7.004785,-8.78602,-4.554117,2.0008,-1.3097291,-11.333893,7.5895786,-10.530199,0.876473,-0.30378583,-0.5963103,7.3074074,-7.6628394,17.946825,-33.95417,59.32636,-12.96734,0.6230925,-4.252785,-16.023594,-16.288492,52.09999,59.567383,16.852663,10.459176,-4.9313817
27,2.3857743740081787,0.02673991583287716,78.1952896118164,-0.9965342152895695,-0.2488412804743211,-176.94217375966375,2.7097044,4.069202,12.448378,7.002113,-8.788467,-4.55825,2.0003502,-1.303859,-11.332651,7.585372,-10.527708,0.87644285,-0.30584824,-0.60044795,7.306088,-7.642594,17.945576,-33.95705,59.329376,-12.901806,0.60542065,-4.2308083,-16.022787,-16.290226,52.093517,59.56285,16.870794,10.448459,-4.923897
28,2.3825623989105225,0.02611321397125721,78.19438934326172,-0.9998026470077147,-0.24428367594789208,-176.94795351516424,2.7117033,4.0712743,12.452723,6.999087,-8.792228,-4.55831,2.0002835,-1.3002144,-11.3293,7.580923,-10.526325,0.87793255,-0.3087225,-0.60333437,7.306362,-7.622343,17.94346,-33.961372,59.32623,-12.861306,0.5966096,-4.2154255,-16.01967,-16.292992,52.085907,59.55858,16.869654,10.444026,-4.9213963
29,2.377178907394409,0.02243361994624138,78.19295501708984,-0.9992946672707756,-0.24167472734329112,-176.95442113604628,2.7146595,4.07043,12.461596,6.998931,-8.799315,-4.551635,2.0012257,-1.3009338,-11.323078,7.5790386,-10.52897,0.882154,-0.30159688,-0.60587573,7.3144174,-7.621199,17.939516,-33.989105,59.324615,-12.867871,0.5984979,-4.207291,-16.035355,-16.29942,52.096123,59.567116,16.875494,10.446614,-4.925695
30,2.3725497722625732,0.02239830419421196,78.19303894042969,-0.9962313506306039,-0.24037990657507288,-176.9613870494147,2.7184563,4.0672956,12.473394,7.0007877,-8.808893,-4.540461,2.0041654,-1.3045499,-11.315213,7.5764613,-10.53336,0.88959587,-0.31437907,-0.60771906,7.3215013,-7.612401,17.93836,-34.001553,59.316563,-12.887996,0.60643893,-4.206199,-16.027216,-16.301397,52.09726,59.563072,16.831913,10.450929,-4.936605
31,2.3663737773895264,0.017720185220241547,78.19221496582031,-0.9931905004611137,-0.2376397587145261,-176.96972942442773,2.7213104,4.064412,12.486493,7.0012617,-8.817362,-4.5294714,2.004656,-1.3080045,-11.305406,7.5739374,-10.536999,0.89705926,-0.29674286,-0.609634,7.328529,-7.6220255,17.934694,-34.054966,59.312252,-12.929404,0.62145525,-4.2021236,-16.044445,-16.309904,52.121117,59.57624,16.839405,10.459481,-4.9511065
32,2.3634557723999023,0.01777823641896248,78.19196319580078,-0.9919111710954721,-0.231403121434709,-176.97902999366588,2.7208533,4.063232,12.497936,6.999076,-8.821967,-4.523336,1.9999834,-1.3089775,-11.294867,7.5720897,-10.538542,0.9015986,-0.287972,-0.61566937,7.3355203,-7.622587,17.932577,-34.06588,59.305805,-12.94191,0.64001215,-4.2091694,-16.051643,-16.314194,52.127975,59.577587,16.823923,10.471956,-4.9638443
33,2.3614327907562256,0.01678965426981449,78.19329833984375,-0.9936191998609155,-0.22005755562817866,-176.99133940902004,2.7159576,4.06537,12.50812,6.9932404,-8.821349,-4.5245748,1.9886923,-1.3053309,-11.281317,7.56858,-10.535472,0.90134597,-0.26862654,-0.6196781,7.338645,-7.622103,17.929365,-34.065376,59.29431,-12.951631,0.6719789,-4.22195,-16.055416,-16.318897,52.130787,59.572475,16.817883,10.49462,-4.982715
34,2.364164113998413,0.01717662252485752,78.19403076171875,-0.9967613897830758,-0.20530001187989635,-177.00451239055425,2.7073865,4.0689354,12.5166645,6.9850383,-8.816698,-4.530131,1.9720819,-1.2997905,-11.266641,7.5653987,-10.529986,0.89845455,-0.25489327,-0.6232423,7.341128,-7.6154037,17.922577,-34.029408,59.280445,-12.940258,0.7114637,-4.2455053,-16.045889,-16.326496,52.118748,59.549274,16.788002,10.524878,-5.001384
35,2.359431266784668,0.014995899982750416,78.19319915771484,-1.0004945532595688,-0.18919939225038068,-177.01920128638295,2.6985636,4.073082,12.526514,6.9747014,-8.811012,-4.5368156,1.9544992,-1.2931595,-11.250823,7.560394,-10.522738,0.8950758,-0.23425853,-0.6294196,7.34318,-7.6097727,17.918943,-34.00083,59.26636,-12.929083,0.75064075,-4.266819,-16.04383,-16.329777,52.11169,59.534378,16.774609,10.553852,-5.0213885
36,2.355546236038208,0.013261934742331505,78.19255828857422,-1.003978609452385,-0.1741426076749007,-177.0359357790197,2.6901329,4.0772743,12.540115,6.967429,-8.808851,-4.5412855,1.9376456,-1.2872435,-11.234097,7.5555677,-10.515522,0.89350575,-0.22185801,-0.6328099,7.358833,-7.6105447,17.909616,-33.959393,59.25511,-12.907375,0.7807321,-4.2820487,-16.07343,-16.338232,52.129044,59.529945,16.7945,10.576851,-5.0382514
37,2.352663040161133,0.009693138301372528,78.19226837158203,-1.007310819054737,-0.16089319059469803,-177.05393564861208,2.684665,4.0813084,12.557522,6.9603066,-8.810064,-4.542659,1.9225183,-1.2821294,-11.217568,7.5525026,-10.509697,0.89246243,-0.21571407,-0.6391578,7.3672953,-7.6030793,17.906185,-33.952732,59.248707,-12.908449,0.79227644,-4.2756205,-16.076618,-16.341179,52.135765,59.51808,16.80514,10.588979,-5.062315
38,2.3500077724456787,0.007606055587530136,78.19200134277344,-1.0107579435106855,-0.14779106770450212,-177.07404228365158,2.680163,4.0858397,12.578329,6.9529943,-8.812728,-4.5426664,1.9073095,-1.2770284,-11.199906,7.55008,-10.503716,0.8913503,-0.20946558,-0.64610714,7.3801427,-7.597909,17.903072,-33.954353,59.245773,-12.910816,0.7936607,-4.2583284,-16.087078,-16.343952,52.148975,59.50856,16.833973,10.595266,-5.088551
39,2.3430631160736084,0.0016569134313613176,78.19316101074219,-1.0134792324375481,-0.13429831849668947,-177.09565376503807,2.6754892,4.089349,12.601658,6.945319,-8.8157015,-4.542081,1.892569,-1.2727164,-11.18131,7.5439587,-10.495893,0.8935617,-0.20045635,-0.65419805,7.3939443,-7.5986695,17.90027,-33.963146,59.245167,-12.914175,0.7972858,-4.241747,-16.10659,-16.346619,52.168694,59.5064,16.877087,10.598759,-5.111541
40,2.3414931297302246,-0.002259606495499611,78.19307708740234,-1.0153562487938224,-0.11913763208873301,-177.11856481868233,2.6704526,4.0909243,12.627012,6.933449,-8.81525,-4.541608,1.877128,-1.2697023,-11.161301,7.5334873,-10.486576,0.90249205,-0.20368753,-0.65456575,7.398185,-7.6012554,17.889956,-33.97195,59.250168,-12.927995,0.8149094,-4.234858,-16.112562,-16.355215,52.201447,59.49782,16.91314,10.60123,-5.131414
41,2.340550422668457,-0.006929626222699881,78.19354248046875,-1.0151233495403293,-0.10150118021974465,-177.14349156828735,2.6583848,4.090623,12.654953,6.9297967,-8.817832,-4.5418563,1.8615097,-1.2688987,-11.140074,7.514847,-10.474423,0.92226064,-0.19029288,-0.6614216,7.4087543,-7.622397,17.882477,-33.96677,59.24975,-12.9185,0.86538756,-4.26126,-16.13901,-16.361229,52.220177,59.501778,16.952572,10.610403,-5.1353
42,2.3400704860687256,-0.0092069823294878,78.19464111328125,-1.013592022868372,-0.08217183253150198,-177.17043272287555,2.642521,4.0889783,12.685731,6.928806,-8.820729,-4.5423155,1.8453279,-1.2696997,-11.11762,7.4904675,-10.459996,0.94999987,-0.18093225,-0.6685414,7.4165015,-7.6447,17.877617,-33.95079,59.24274,-12.903781,0.93734115,-4.3066144,-16.152044,-16.364985,52.219425,59.500042,16.963821,10.621672,-5.1315536
43,2.335580348968506,-0.013716141693294048,78.19445037841797,-1.011794332999745,-0.06281255849625049,-177.19697127360035,2.626535,4.0867095,12.716442,6.927804,-8.823444,-4.5421915,1.8300084,-1.2707304,-11.094359,7.464009,-10.444706,0.97846234,-0.16893753,-0.67744786,7.4230413,-7.664669,17.875877,-33.941853,59.234047,-12.886225,1.0020396,-4.34425,-16.167631,-16.366436,52.21864,59.50375,16.976841,10.6270485,-5.1198645
44,2.3337063789367676,-0.019258562475442886,78.19417572021484,-1.0103282463475984,-0.045544426061492754,-177.2211759424556,2.61213,4.0851684,12.744668,6.9278708,-8.826376,-4.5406423,1.8136636,-1.2720599,-11.070507,7.4459395,-10.4328985,1.0008284,-0.16457891,-0.68542093,7.435422,-7.6805387,17.874422,-33.93539,59.22964,-12.865771,1.0326847,-4.351161,-16.184114,-16.367767,52.21747,59.50621,16.981985,10.618195,-5.1000676
45,2.3284125328063965,-0.02554655447602272,78.19447326660156,-1.0094673565175267,-0.03108449423253367,-177.24215518076133,2.6016574,4.08421,12.76951,6.927122,-8.829483,-4.536809,1.798483,-1.272621,-11.044989,7.4339066,-10.424134,1.0163457,-0.16574329,-0.6939706,7.454194,-7.6857023,17.872622,-33.93714,59.22956,-12.837572,1.0096247,-4.3029647,-16.203747,-16.369608,52.21867,59.509857,16.97853,10.588099,-5.064444
46,2.3289406299591064,-0.02664031647145748,78.19320678710938,-1.008688211901597,-0.01854790572409256,-177.26102962618944,2.592756,4.0836473,12.792265,6.926367,-8.832214,-4.531372,1.783619,-1.2732878,-11.017991,7.426192,-10.417765,1.028474,-0.17506446,-0.70230335,7.470304,-7.678965,17.871376,-33.94734,59.233086,-12.809162,0.9513783,-4.2178564,-16.213203,-16.37111,52.21854,59.51111,16.958315,10.542647,-5.0175495
47,2.3328309059143066,-0.03343123570084572,78.19365692138672,-1.0084991448523652,-0.0059986920477477605,-177.27895789215285,2.5833511,4.083334,12.813946,6.926519,-8.834947,-4.5257225,1.7670454,-1.2740287,-10.991718,7.423026,-10.412151,1.0357327,-0.17129464,-0.7092892,7.490387,-7.682189,17.86913,-33.977596,59.24085,-12.784956,0.8861477,-4.1305866,-16.237951,-16.374195,52.223804,59.522655,16.96838,10.49257,-4.9708867
48,2.330273389816284,-0.040709711611270905,78.19332122802734,-1.0100255283589832,0.007509253839162803,-177.2960539475388,2.5721505,4.0838165,12.834437,6.9264574,-8.836404,-4.5214014,1.7470632,-1.2743664,-10.969486,7.423605,-10.404851,1.0368495,-0.17508237,-0.710494,7.5073886,-7.6865954,17.86701,-33.996464,59.24579,-12.762407,0.8445664,-4.0833726,-16.248692,-16.377285,52.217323,59.52364,16.976723,10.450631,-4.942
49,2.337489366531372,-0.04659317061305046,78.19340515136719,-1.0134648526033632,0.02103021272531892,-177.3114163724308,2.5600495,4.083995,12.851801,6.926968,-8.83691,-4.5181284,1.7238399,-1.2750049,-10.953001,7.4320674,-10.39665,1.0281243,-0.1682014,-0.70616525,7.531901,-7.716975,17.864822,-34.01484,59.256138,-12.735419,0.83610636,-4.0961456,-16.27227,-16.380766,52.205135,59.52832,17.024313,10.420345,-4.933019
50,2.338550329208374,-0.05693929269909859,78.19486999511719,-1.0183424168750186,0.0344590948398747,-177.32434297647774,2.5473757,4.0842323,12.865801,6.9263997,-8.835471,-4.5152154,1.6969339,-1.2760141,-10.940941,7.44846,-10.388622,1.0113435,-0.17072387,-0.69427705,7.55636,-7.743859,17.863821,-34.019566,59.258102,-12.701172,0.8453671,-4.1449475,-16.29759,-16.382706,52.194435,59.533592,17.085852,10.395753,-4.9376774
51,2.335845470428467,-0.06669361144304276,78.19573211669922,-1.0242578735433516,0.04969940033853227,-177.3393992099594,2.5329852,4.085992,12.88308,6.92611,-8.833892,-4.513869,1.6690501,-1.2756811,-10.92863,7.461738,-10.378264,0.9934374,-0.17863183,-0.6823854,7.58201,-7.7740245,17.861591,-34.014244,59.26324,-12.676067,0.8599273,-4.20381,-16.294624,-16.386578,52.149277,59.514893,17.107836,10.372592,-4.9494457
52,2.3325371742248535,-0.07730533927679062,78.197021484375,-1.030124939765877,0.0694564043755261,-177.3605502470448,2.514817,4.0903997,12.909757,6.9263563,-8.832817,-4.5148845,1.6372647,-1.2735258,-10.91124,7.468289,-10.365705,0.98102677,-0.18309765,-0.6764766,7.6046743,-7.798298,17.85993,-34.01123,59.266212,-12.677104,0.8689828,-4.242819,-16.29599,-16.390596,52.1116,59.49731,17.13056,10.346109,-4.9617934
53,2.324479341506958,-0.09116528183221817,78.19849395751953,-1.0357687294340419,0.09218228878629556,-177.3843495705245,2.4960644,4.096108,12.943139,6.924915,-8.831463,-4.5153656,1.6052182,-1.2708951,-10.893477,7.4670706,-10.350206,0.9721828,-0.1775524,-0.68311167,7.6229577,-7.8116674,17.859539,-34.01432,59.26403,-12.714448,0.87144494,-4.2535224,-16.320745,-16.392254,52.10902,59.49395,17.187883,10.313444,-4.9741306
54,2.318701982498169,-0.09897119551897049,78.2001953125,-1.0410337064227457,0.11862377485186426,-177.41336568879652,2.4746282,4.1028585,12.984732,6.9246297,-8.831187,-4.5159416,1.5655209,-1.2688484,-10.872683,7.470916,-10.336742,0.96456736,-0.17043668,-0.69265574,7.650849,-7.8369484,17.858889,-34.018845,59.264305,-12.794175,0.8711426,-4.2527146,-16.356121,-16.394922,52.10958,59.493217,17.2491,10.271336,-4.993676
55,2.331249475479126,-0.10622420907020569,78.20063018798828,-1.0477256568197417,0.1487907351659685,-177.44869182680233,2.4491298,4.1144724,13.034549,6.9239235,-8.830137,-4.5227585,1.5280403,-1.2616246,-10.845386,7.4564734,-10.31707,0.96449,-0.17102545,-0.7031895,7.6647415,-7.8445444,17.858362,-34.017902,59.263477,-12.8685665,0.8692017,-4.2462564,-16.370333,-16.397879,52.107468,59.47801,17.287338,10.235603,-5.012985
56,2.351477861404419,-0.1086333766579628,78.20307922363281,-1.056065087474526,0.18822357633023287,-177.50337759144494,2.4138823,4.1350446,13.105029,6.9220505,-8.827836,-4.5424504,1.4811383,-1.245581,-10.795828,7.4276066,-10.294032,0.9778331,-0.15026692,-0.7155158,7.6854777,-7.873342,17.85842,-34.017395,59.27382,-12.905893,0.8642201,-4.2433615,-16.413689,-16.399475,52.11042,59.46922,17.347517,10.209899,-5.028477
57,2.3604917526245117,-0.11164724081754684,78.20375061035156,-1.0700072890415697,0.23823814846670488,-177.56954185814357,2.3662474,4.169168,13.190193,6.918382,-8.823465,-4.5821047,1.429208,-1.2153927,-10.727651,7.377183,-10.264771,0.99790573,-0.12760675,-0.7243176,7.7096696,-7.9197574,17.859434,-34.008884,59.29783,-12.879569,0.8564796,-4.2469153,-16.47816,-16.402105,52.11747,59.459103,17.414425,10.201586,-5.034811
58,2.36686110496521,-0.11477205157279968,78.20350646972656,-1.0866832927393186,0.29673082047452665,-177.6460382933403,2.3085735,4.212396,13.288844,6.915325,-8.819073,-4.63671,1.3724562,-1.1763341,-10.644142,7.310788,-10.231053,1.0242028,-0.11897106,-0.7318444,7.7267485,-7.9536138,17.863485,-33.971733,59.3197,-12.805638,0.84692276,-4.25441,-16.522974,-16.405275,52.107494,59.424213,17.442167,10.206223,-5.036324
59,2.383693218231201,-0.11558271944522858,78.2033462524414,-1.097051572375713,0.3575786732239446,-177.7435299401298,2.2497597,4.2534046,13.407742,6.911069,-8.814232,-4.6937404,1.2880805,-1.1449745,-10.542348,7.284224,-10.223889,1.0735248,-0.08187055,-0.74772364,7.7498875,-8.000085,17.867392,-33.95064,59.34543,-12.733979,0.83533436,-4.2595687,-16.596184,-16.405909,52.110237,59.406986,17.497276,10.213375,-5.039242
60,2.4023308753967285,-0.10700210928916931,78.20079040527344,-1.077087073975521,0.4152677255658045,-177.87520135289702,2.1974304,4.2651916,13.558353,6.9047666,-8.808154,-4.739179,0.97630155,-1.1871724,-10.410455,7.7333684,-10.4747305,1.1652677,-0.02119861,-0.7923424,7.791463,-8.061873,17.874584,-33.928516,59.373436,-12.706042,0.819743,-4.2666006,-16.689297,-16.404799,52.1184,59.396893,17.551802,10.213846,-5.0506477
61,2.4402058124542236,-0.09995932877063751,78.19146728515625,-1.0393563777714607,0.4705712547344305,-178.04327992689306,2.1490326,4.2620077,13.741175,6.8985476,-8.802303,-4.772714,0.6048643,-1.2532979,-10.254266,8.290037,-10.795985,1.2940514,0.0638003,-0.8515959,7.849152,-8.133708,17.8829,-33.911568,59.399822,-12.747263,0.79561317,-4.2728066,-16.788198,-16.402433,52.12101,59.389244,17.59397,10.197839,-5.071862
62,2.470425605773926,-0.09042863547801971,78.18145751953125,-0.9880312058882992,0.5253409419328856,-178.24140371860926,2.1025362,4.2486534,13.951034,6.8915234,-8.795644,-4.801874,0.18030842,-1.3367571,-10.076304,8.941642,-11.182435,1.454138,0.16648778,-0.9284889,7.932483,-8.215625,17.910969,-33.889458,59.410717,-12.830461,0.76677597,-4.2836895,-16.91751,-16.391153,52.124527,59.392864,17.63643,10.172439,-5.0967503
63,2.4958338737487793,-0.08195091038942337,78.17192840576172,-0.9244430685763513,0.5713058803454097,-178.4609535942323,2.0685806,4.22386,14.178228,6.88442,-8.78924,-4.8241196,-0.27747518,-1.4396206,-9.8850975,9.673234,-11.609716,1.6578501,0.28593647,-1.0127766,8.019795,-8.305152,17.927055,-33.877872,59.43799,-12.9252,0.73951036,-4.2910256,-17.028204,-16.384008,52.116344,59.385876,17.650448,10.154083,-5.1330686
64,2.543116569519043,-0.05899767950177193,78.15896606445312,-0.8466322293757906,0.6001998827111077,-178.6937758513781,2.0576746,4.1832457,14.41383,6.876725,-8.782475,-4.836257,-0.741267,-1.5655096,-9.688605,10.456619,-12.050606,1.9176848,0.40739843,-1.1261945,8.1317835,-8.362755,17.995327,-33.855156,59.40992,-12.998957,0.73045456,-4.3037577,-17.173048,-16.34574,52.12595,59.40291,17.660713,10.156616,-5.181001
65,2.588608741760254,-0.043271780014038086,78.1409912109375,-0.7409464439105817,0.610520470027226,-178.94597549280044,2.0730987,4.109208,14.662599,6.8697863,-8.776844,-4.8318124,-1.2122979,-1.7242063,-9.464456,11.295905,-12.51775,2.2733104,0.53190535,-1.263365,8.252415,-8.409651,18.056221,-33.819218,59.383907,-13.039246,0.73877823,-4.314932,-17.314383,-16.302555,52.14917,59.4194,17.641273,10.198804,-5.2573967
66,2.6297004222869873,-0.028278347104787827,78.12477111816406,-0.6151110550850378,0.6065317741880497,-179.2190096254167,2.10985,4.0123267,14.926331,6.861991,-8.771128,-4.8142104,-1.7040554,-1.9065862,-9.219499,12.208007,-13.024597,2.7072139,0.6760834,-1.4150481,8.388363,-8.469796,18.102388,-33.786564,59.37373,-13.063165,0.7575742,-4.3239136,-17.481335,-16.263222,52.203396,59.449333,17.639,10.268282,-5.3542647
67,2.661006450653076,-0.01007103081792593,78.10724639892578,-0.4980663148872219,0.5896276167398594,-179.49825634817552,2.1631854,3.9289317,15.191256,6.8554816,-8.765848,-4.7957463,-2.2098057,-2.09109,-9.002947,13.18278,-13.540237,3.1458256,0.79605937,-1.5625834,8.531165,-8.498758,18.174736,-33.7304,59.33997,-13.075928,0.7829958,-4.3371983,-17.61696,-16.19299,52.22494,59.47132,17.555304,10.335247,-5.447268
68,2.704073190689087,0.010813983157277107,78.09005737304688,-0.41538074160624655,0.5611414488478265,-179.76929983159366,2.222674,3.8927202,15.444632,6.865278,-8.768736,-4.7879224,-2.714048,-2.260197,-8.861222,14.189578,-14.025769,3.5154698,0.91400015,-1.6751757,8.687102,-8.546396,18.251791,-33.696026,59.325737,-13.087905,0.8042811,-4.352122,-17.772913,-16.115467,52.263172,59.50735,17.498522,10.372139,-5.5086594
69,2.7530722618103027,0.043794237077236176,78.076171875,-0.36816713338072715,0.5158747275225475,179.96301042940806,2.2968938,3.9057539,15.691424,6.8868146,-8.779127,-4.791214,-3.2195714,-2.38788,-8.739021,15.228123,-14.453989,3.836982,1.0436437,-1.7539055,8.871437,-8.62197,18.33868,-33.69115,59.32676,-13.12032,0.82019407,-4.3772807,-18.035227,-16.029398,52.40848,59.61268,17.57549,10.367827,-5.5254736
70,2.79040789604187,0.07603845000267029,78.06571960449219,-0.3415120026761093,0.45480904289739305,179.69345723912568,2.3890808,3.948504,15.93692,6.9118986,-8.792606,-4.7996464,-3.7261462,-2.4923918,-8.632523,16.297623,-14.843903,4.1372194,1.1448789,-1.8118672,9.054918,-8.679603,18.437017,-33.67359,59.332695,-13.161959,0.83560044,-4.412831,-18.171326,-15.935836,52.426266,59.641815,17.45614,10.342481,-5.5156345
71,2.8107216358184814,0.11184584349393845,78.0661849975586,-0.33737695224233183,0.3890710865061303,179.43585107655738,2.483018,4.0220137,16.168867,6.941798,-8.8051195,-4.8152285,-4.2338314,-2.6311653,-8.660054,17.409002,-15.236264,4.3480587,1.2405518,-1.8466909,9.245142,-8.745772,18.54598,-33.671467,59.343502,-13.17105,0.8506919,-4.4387536,-18.330729,-15.837365,52.466015,59.677532,17.384758,10.302794,-5.4934387
72,2.8321120738983154,0.15838392078876495,78.06586456298828,-0.3575716021727044,0.32986351063170327,179.20411932327343,2.5626698,4.1260033,16.37554,6.976868,-8.812534,-4.839833,-4.7395325,-2.8669274,-8.937323,18.568941,-15.66817,4.397856,1.3102206,-1.8532819,9.425495,-8.814439,18.662926,-33.678314,59.36031,-13.10749,0.8653232,-4.4381123,-18.48432,-15.734889,52.501472,59.69535,17.346369,10.258942,-5.475594
73,2.8656959533691406,0.20444968342781067,78.07074737548828,-0.4055768301326601,0.27888767224516353,178.9976472795476,2.6246355,4.2651343,16.557936,7.0181713,-8.812105,-4.874958,-5.2428265,-3.2244368,-9.5148325,19.798773,-16.163841,4.2364907,1.3528464,-1.8274684,9.594695,-8.889809,18.78706,-33.698265,59.385555,-12.911222,0.88012165,-4.3928432,-18.634384,-15.6296215,52.535236,59.694527,17.360008,10.206036,-5.4568458
74,2.8989975452423096,0.25935497879981995,78.06947326660156,-0.47748197957907146,0.23099673115722566,178.8105645727232,2.5621285,4.4710135,16.7124,7.317964,-8.943248,-4.919895,-5.736619,-3.6805527,-10.316971,21.079752,-16.696114,3.90572,1.3743669,-1.7743906,9.757995,-8.970534,18.918072,-33.72899,59.41839,-12.618634,0.8951256,-4.3169327,-18.77962,-15.5220375,52.566494,59.677048,17.407892,10.141743,-5.431625
75,2.91015887260437,0.3159094452857971,78.07772064208984,-0.5632069747216254,0.1868562320537903,178.64845281750002,2.3963196,4.723956,16.834072,7.8283844,-9.179717,-4.9711747,-6.2070208,-4.2277727,-11.268991,22.359653,-17.225374,3.47175,1.3757857,-1.7045668,9.912413,-9.052343,19.053293,-33.764362,59.459698,-12.335592,0.9090797,-4.2401795,-18.912851,-15.412907,52.58658,59.64005,17.460182,10.079369,-5.415464
76,2.927666664123535,0.36697831749916077,78.08187866210938,-0.6536018076471939,0.1473025251360114,178.51680242743745,2.209571,4.9858966,16.923622,8.365993,-9.426265,-5.025285,-6.6422777,-4.852436,-12.299623,23.587387,-17.710032,3.0030944,1.3580397,-1.6265103,10.055384,-9.137476,19.18911,-33.806072,59.51587,-12.176189,0.9197279,-4.1919403,-19.027409,-15.303347,52.58733,59.581047,17.486738,10.032428,-5.424275
77,2.9426047801971436,0.4273758828639984,78.08418273925781,-0.7537569085107338,0.11384044377022408,178.42371628782925,1.9920594,5.2630982,16.972616,8.94545,-9.688558,-5.084892,-7.027918,-5.571469,-13.472847,24.758379,-18.162706,2.5001807,1.3171172,-1.5360836,10.185294,-9.232258,19.322302,-33.86165,59.602448,-12.207671,0.9283886,-4.189532,-19.118196,-15.194018,52.563328,59.493572,17.483702,10.008334,-5.46951
78,2.970001220703125,0.5031757354736328,78.08697509765625,-0.8672526734687988,0.08572310897468717,178.36421524475202,1.7434448,5.5606203,16.985474,9.569467,-9.968047,-5.15117,-7.3652163,-6.3861475,-14.800003,25.896778,-18.601625,1.9311407,1.2500596,-1.4283606,10.300039,-9.331837,19.45127,-33.924736,59.715622,-12.355961,0.9351868,-4.2140303,-19.151407,-15.0850525,52.47862,59.356747,17.41201,9.999984,-5.540757
79,2.983520269393921,0.5661464333534241,78.08836364746094,-0.9823988344175346,0.0601741231793433,178.323957557247,1.4902117,5.859197,16.977106,10.194297,-10.246367,-5.218818,-7.672049,-7.2541666,-16.133423,26.993597,-18.988565,1.3189081,1.1794975,-1.3131775,10.408476,-9.437103,19.575232,-33.99059,59.83244,-12.520509,0.9356426,-4.2390246,-19.215107,-14.980067,52.427197,59.23395,17.386246,9.994502,-5.6190157
80,2.9821314811706543,0.6367141604423523,78.09053802490234,-1.0868191788382264,0.03387793114248113,178.28870667292907,1.2559595,6.14071,16.962624,10.783149,-10.50906,-5.2822556,-7.9714236,-8.131301,-17.326023,28.036655,-19.281796,0.6874217,1.1101133,-1.198864,10.511073,-9.53335,19.694187,-34.03888,59.926662,-12.601658,0.92510575,-4.239716,-19.299284,-14.880953,52.40185,59.12426,17.381908,9.982391,-5.686992
81,2.9767117500305176,0.7075479626655579,78.08837127685547,-1.1793868502351061,0.006815959645457807,178.26061034071415,1.0404743,6.4023523,16.9397,11.334727,-10.754023,-5.3375635,-8.280985,-9.030427,-18.379374,29.061409,-19.477074,0.00067618274,1.026486,-1.0836599,10.600261,-9.60466,19.808231,-34.05577,59.989986,-12.550148,0.8950146,-4.200453,-19.32829,-14.789073,52.314114,58.979645,17.275534,9.970392,-5.7414703
82,2.9688656330108643,0.7773098349571228,78.08397674560547,-1.2652002173572492,-0.01950926296600035,178.24532571117632,0.83368117,6.651663,16.903023,11.865542,-10.988483,-5.3885694,-8.58608,-9.965692,-19.361107,30.059822,-19.5922,-0.738409,0.93701,-0.9655078,10.681816,-9.666739,19.917372,-34.058983,60.03674,-12.426188,0.8503204,-4.1370716,-19.35567,-14.706499,52.22352,58.827324,17.15899,9.96002,-5.790867
83,2.9830987453460693,0.853643536567688,78.0744857788086,-1.3417211618102782,-0.04681830814689284,178.23381020777126,0.6431794,6.8876224,16.862482,12.3671875,-11.211744,-5.4408817,-8.874836,-10.893585,-20.224098,30.969032,-19.61389,-1.4456013,0.8596216,-0.8371405,10.756009,-9.754339,19.983013,-34.056614,60.112717,-12.287881,0.8028664,-4.0713205,-19.390545,-14.662171,52.17098,58.666813,17.08691,9.941022,-5.8375154
84,2.986997127532959,0.948235034942627,78.06302642822266,-1.405272122338505,-0.07666786332771101,178.21677354138671,0.4819139,7.106891,16.829206,12.819883,-11.416911,-5.500073,-9.141219,-11.770301,-20.9189,31.731031,-19.529654,-2.0360024,0.7929247,-0.72886676,10.826847,-9.8190975,20.077951,-34.03911,60.14549,-12.2098,0.77624434,-4.034817,-19.391615,-14.605023,52.093365,58.498608,16.975206,9.898929,-5.88276
85,2.9831645488739014,1.0414761304855347,78.0450668334961,-1.4607915981124768,-0.11116460610708755,178.19395677291104,0.34579262,7.3178325,16.8006,13.238082,-11.614154,-5.568679,-9.398251,-12.586209,-21.4296,32.35474,-19.291006,-2.5135174,0.74036896,-0.6311746,10.899776,-9.877235,20.185902,-34.004414,60.153915,-12.208498,0.78091055,-4.039112,-19.416716,-14.550433,52.075268,58.349854,16.907234,9.819703,-5.9272933
86,2.9827539920806885,1.1387583017349243,78.0257339477539,-1.5091964918248535,-0.14884053180287388,178.16932348767764,0.23192737,7.5199594,16.773298,13.623138,-11.801721,-5.6434045,-9.651982,-13.35962,-21.784397,32.86445,-18.915894,-2.9116406,0.70421654,-0.52182215,10.958859,-9.973919,20.236027,-33.96499,60.22062,-12.241811,0.79722095,-4.063461,-19.395618,-14.530584,52.052986,58.170456,16.813047,9.717274,-5.9713607
87,2.9676990509033203,1.2404921054840088,78.0129623413086,-1.54070537939676,-0.18602009318241663,178.1403710157813,0.1405741,7.7009053,16.75493,13.9651,-11.970589,-5.7212152,-9.89144,-14.0886965,-21.997166,33.233795,-18.497065,-3.189261,0.67769504,-0.42745885,11.016948,-10.043399,20.30724,-33.908886,60.232445,-12.296112,0.81720895,-4.0946736,-19.375648,-14.510017,52.034985,57.997906,16.74259,9.610782,-6.0130835
88,2.9430999755859375,1.3421978950500488,77.99235534667969,-1.547953575878078,-0.21838196839466348,178.1041503862417,0.069053695,7.852172,16.752773,14.259544,-12.114412,-5.799252,-10.103252,-14.767804,-22.082378,33.43253,-18.12645,-3.3061826,0.6703167,-0.34907886,11.062511,-10.1271715,20.362196,-33.856747,60.252968,-12.354621,0.81141824,-4.114248,-19.364847,-14.497748,52.032616,57.84452,16.754072,9.522438,-6.0542326
89,2.9250686168670654,1.448948621749878,77.97056579589844,-1.5227868208249247,-0.24490282340710126,178.06186157691965,0.018936379,7.961959,16.76674,14.496597,-12.226074,-5.8717837,-10.281594,-15.396019,-22.023636,33.427868,-17.831882,-3.2069745,0.65727687,-0.303421,11.103247,-10.155726,20.458044,-33.76796,60.1814,-12.42956,0.7778629,-4.1273184,-19.335693,-14.478436,51.99964,57.67941,16.818995,9.454609,-6.096254
90,2.8989334106445312,1.5700042247772217,77.94709777832031,-1.4727847999838646,-0.2673618238179036,178.0142500201555,-0.016413217,8.042517,16.792557,14.696832,-12.317005,-5.941959,-10.43735,-15.972352,-21.818146,33.24499,-17.56511,-2.9278324,0.67776865,-0.27364856,11.132526,-10.218354,20.523853,-33.696445,60.134186,-12.528541,0.7189126,-4.13475,-19.353474,-14.466003,52.011734,57.557278,17.036198,9.394387,-6.1375575
91,2.8766722679138184,1.6965495347976685,77.92171478271484,-1.4097529129467214,-0.2872384866608977,177.95802914478583,-0.03168783,8.110306,16.834316,14.859289,-12.392651,-6.0198383,-10.581889,-16.496382,-21.499115,32.942654,-17.305984,-2.5663803,0.6880312,-0.2495072,11.150779,-10.240948,20.606112,-33.59683,60.043427,-12.609968,0.6592796,-4.133115,-19.304287,-14.448844,51.974316,57.415436,17.149593,9.349561,-6.1768365
92,2.8649704456329346,1.817237377166748,77.89480590820312,-1.346172390206016,-0.30544364701382926,177.89000812639128,-0.029697355,8.184313,16.894663,15.000326,-12.462286,-6.115564,-10.726462,-16.96716,-21.100607,32.57985,-17.033564,-2.2200086,0.71453434,-0.22593282,11.170434,-10.241807,20.718279,-33.502018,59.91676,-12.639696,0.617413,-4.113448,-19.30867,-14.424108,52.009827,57.34628,17.252699,9.319901,-6.208119
93,2.8496124744415283,1.9415212869644165,77.85871887207031,-1.2807031895419914,-0.323872090530772,177.80542554532047,-0.0010075492,8.262951,16.983341,15.111015,-12.5237665,-6.2311807,-10.87912,-17.377821,-20.592268,32.161037,-16.757639,-1.9083588,0.7705297,-0.18133225,11.165062,-10.278605,20.770382,-33.437527,59.86588,-12.584698,0.58950543,-4.0539393,-19.246548,-14.410431,52.016975,57.297382,17.175228,9.31592,-6.2379394
94,2.7894985675811768,2.089860677719116,77.8427734375,-1.2077011329592917,-0.3413834660624043,177.70780442317763,0.051735442,8.337471,17.095573,15.188822,-12.573793,-6.361465,-11.030463,-17.732517,-19.969435,31.658014,-16.488207,-1.5831723,0.8404624,-0.1351526,11.159768,-10.2911005,20.835121,-33.37245,59.775257,-12.47417,0.5773865,-3.9669437,-19.236425,-14.392983,52.094604,57.31928,17.088348,9.331093,-6.2644415
95,2.745194911956787,2.2392020225524902,77.81793212890625,-1.1367549654038713,-0.35428462080864825,177.60458918751613,0.10576821,8.421451,17.212994,15.263749,-12.623989,-6.5060472,-11.168712,-18.042221,-19.303247,31.083647,-16.196182,-1.239342,0.91025245,-0.08252591,11.149565,-10.285835,20.913761,-33.29396,59.667233,-12.34645,0.56942517,-3.8815548,-19.247604,-14.368349,52.213276,57.38537,17.006508,9.353277,-6.2795205
96,2.7171034812927246,2.3894522190093994,77.78550720214844,-1.0765874562835065,-0.35941863392771906,177.50396484403927,0.13870795,8.526972,17.316687,15.365905,-12.686249,-6.664408,-11.282621,-18.319216,-18.665396,30.45196,-15.85393,-0.8703755,0.96068966,-0.016891101,11.135408,-10.249404,21.022202,-33.192314,59.525894,-12.250402,0.5611011,-3.8233685,-19.250471,-14.325735,52.32668,57.47312,16.921688,9.371625,-6.2733464
97,2.683642864227295,2.5508387088775635,77.75543212890625,-1.0354772076907828,-0.3539733187386014,177.40657190205042,0.13891678,8.665913,17.40192,15.513961,-12.770282,-6.843297,-11.372027,-18.554056,-18.06109,29.750872,-15.434061,-0.4707286,1.0244175,0.080570385,11.109988,-10.230813,21.113152,-33.099297,59.41013,-12.182096,0.5391343,-3.7895133,-19.266712,-14.281056,52.44226,57.60737,16.895718,9.3868065,-6.242347
98,2.635310411453247,2.7139241695404053,77.72813415527344,-1.007308799307581,-0.34028979572412343,177.30848672068203,0.12095228,8.828918,17.47902,15.687253,-12.867575,-7.0408883,-11.440731,-18.74384,-17.457039,28.976458,-14.957291,-0.045155566,1.1044608,0.21048091,11.066935,-10.242733,21.164984,-33.02364,59.344757,-12.124448,0.50725067,-3.7661345,-19.238905,-14.250379,52.51622,57.749,16.838177,9.406294,-6.19201
99,2.5751733779907227,2.87978458404541,77.701904296875,-0.9793228228159907,-0.32309535169920184,177.2112324762847,0.09817951,8.998326,17.55045,15.864215,-12.965617,-7.2438726,-11.48774,-18.91074,-16.865665,28.159893,-14.469391,0.39826337,1.1725504,0.34065312,11.029413,-10.23216,21.241734,-32.928734,59.25018,-12.085308,0.4867469,-3.7616577,-19.301565,-14.19808,52.696926,57.97006,16.892666,9.419228,-6.1234446
100,2.547356367111206,3.058770179748535,77.6675796508789,-0.9398012358318647,-0.3069114160676249,177.1162690744689,0.08419345,9.157384,17.61871,16.022919,-13.051502,-7.4387097,-11.509136,-19.072783,-16.302412,27.325031,-14.012225,0.8511337,1.2357651,0.46113202,10.989031,-10.226041,21.315485,-32.840008,59.173813,-12.077811,0.48993036,-3.7752805,-19.326988,-14.1400585,52.857094,58.17638,16.896717,9.424911,-6.036359
101,2.5017383098602295,3.251662492752075,77.6358642578125,-0.8849613969236514,-0.29313655430487195,177.0227319514178,0.079749756,9.301798,17.68408,16.164982,-13.126487,-7.6169124,-11.498385,-19.231974,-15.757625,26.450258,-13.568585,1.3455944,1.3203341,0.5723926,10.951659,-10.262208,21.366266,-32.784508,59.144382,-12.125535,0.5317259,-3.8183038,-19.363117,-14.098318,53.049213,58.392376,16.960974,9.414898,-5.9178815
102,2.452854871749878,3.4365501403808594,77.60131072998047,-0.8215179943595379,-0.27939940320168843,176.93027131544815,0.080876194,9.439896,17.745537,16.294405,-13.192782,-7.7871146,-11.457678,-19.377195,-15.229125,25.526903,-13.122587,1.8746188,1.4135469,0.6790014,10.916914,-10.316073,21.409462,-32.738537,59.135296,-12.210651,0.60144717,-3.887683,-19.424898,-14.06251,53.287266,58.633884,17.088102,9.393564,-5.772314
103,2.4014580249786377,3.6414082050323486,77.56539916992188,-0.7532766322379939,-0.2643506992162923,176.84143202368642,0.08399296,9.577966,17.8017,16.414745,-13.25074,-7.9616814,-11.400905,-19.516115,-14.7424755,24.61031,-12.722397,2.372297,1.4893333,0.7862677,10.880408,-10.36146,21.45538,-32.691555,59.13154,-12.301631,0.67091614,-3.955872,-19.480465,-14.023564,53.54146,58.86855,17.17711,9.376634,-5.6243234
104,2.3676841259002686,3.844733476638794,77.52385711669922,-0.6841556317232342,-0.24703789082266686,176.75863910228483,0.08803391,9.720988,17.852064,16.52419,-13.297779,-8.152915,-11.34169,-19.651869,-14.325433,23.752094,-12.413499,2.7723808,1.5472515,0.8917608,10.847269,-10.384375,21.520514,-32.645267,59.112873,-12.35674,0.71291816,-3.9950871,-19.613594,-13.967566,53.892353,59.138725,17.292793,9.375006,-5.495293
105,2.316305637359619,4.060117721557617,77.48735809326172,-0.6077097635421367,-0.22902927522430072,176.68413561330914,0.101677805,9.858157,17.897823,16.609196,-13.329641,-8.363397,-11.284371,-19.794678,-13.966834,22.961746,-12.230511,3.0485692,1.6130592,0.994133,10.806298,-10.428302,21.573217,-32.65015,59.138466,-12.371682,0.708836,-3.9894211,-19.682533,-13.923302,54.174835,59.35113,17.261097,9.393306,-5.385582
106,2.2639636993408203,4.275964260101318,77.451904296875,-0.5245004488183383,-0.21002111932251002,176.61607084271995,0.12101243,9.9913645,17.93862,16.677462,-13.35033,-8.58686,-11.224499,-19.937792,-13.6600685,22.216324,-12.141847,3.2401092,1.6786561,1.0914551,10.767616,-10.476492,21.631546,-32.684174,59.17623,-12.365987,0.67814505,-3.9565103,-19.81153,-13.876675,54.54029,59.59049,17.271797,9.420154,-5.28603
107,2.2210335731506348,4.523402214050293,77.41431427001953,-0.4500873004668333,-0.1869759690759786,176.55038827435155,0.13139434,10.144362,17.972511,16.75128,-13.365673,-8.822415,-11.159832,-20.060535,-13.439716,21.517223,-12.091835,3.380753,1.7529553,1.2001792,10.726733,-10.545285,21.681137,-32.740307,59.239273,-12.349152,0.6411295,-3.9142613,-19.93694,-13.840015,54.89156,59.802402,17.21402,9.467072,-5.1958184
108,2.1889290809631348,4.770475387573242,77.37479400634766,-0.39996931137732633,-0.15595858902158996,176.4830028565343,0.1150842,10.341596,17.996677,16.85801,-13.384467,-9.069462,-11.085196,-20.141895,-13.341195,20.85941,-12.024394,3.504836,1.7837114,1.3273342,10.68285,-10.561029,21.765558,-32.740707,59.25164,-12.32965,0.62244046,-3.8854003,-20.091194,-13.775489,55.281548,60.0095,17.084253,9.538155,-5.1232224
109,2.158883571624756,5.023892879486084,77.33499908447266,-0.36927964107437133,-0.11846725792470239,176.40997502624776,0.082144916,10.57562,18.016819,16.985662,-13.404275,-9.326677,-10.99861,-20.199709,-13.3978405,20.24109,-11.955671,3.6025472,1.8318812,1.4686912,10.637276,-10.590885,21.858133,-32.747524,59.2655,-12.304874,0.6295952,-3.8720725,-20.260872,-13.706099,55.652176,60.190514,16.813269,9.671486,-5.0772424
110,2.1448376178741455,5.2854323387146,77.2950210571289,-0.3535791501949854,-0.07573017884455549,176.3344610371522,0.036186192,10.839332,18.031599,17.128742,-13.423888,-9.59495,-10.900549,-20.232933,-13.584889,19.660027,-11.903641,3.664609,1.9083618,1.63134,10.584289,-10.668856,21.921951,-32.792473,59.330566,-12.276274,0.646047,-3.8599203,-20.42196,-13.66367,55.99828,60.326256,16.42913,9.853899,-5.0516877
111,2.1015005111694336,5.566612243652344,77.26485443115234,-0.36576656632439225,-0.024926697616844684,176.26338786100564,-0.04517595,11.152961,18.028503,17.314896,-13.446978,-9.876732,-10.7935295,-20.196873,-13.848213,19.123583,-11.811634,3.725174,1.9452903,1.8148365,10.533552,-10.701934,22.016468,-32.78762,59.35039,-12.246015,0.6664329,-3.852806,-20.590254,-13.602922,56.341946,60.444813,16.03172,10.01357,-5.0159802
112,2.054288148880005,5.859974384307861,77.2426986694336,-0.41857430190399764,0.03606884930191051,176.20387367987038,-0.18149994,11.535575,17.99483,17.566887,-13.478195,-10.174581,-10.681541,-20.05287,-14.131122,18.645353,-11.625935,3.8155339,1.9934561,2.0335865,10.488221,-10.768133,22.099747,-32.80159,59.391224,-12.237926,0.6756942,-3.8399816,-20.79475,-13.556881,56.68375,60.559944,15.830703,10.082355,-4.9307847
113,2.0366733074188232,6.163597583770752,77.21903228759766,-0.5178709118942306,0.10548123910692535,176.15800561751868,-0.3770957,11.995645,17.929094,17.8988,-13.5244875,-10.488221,-10.538738,-19.792648,-14.478906,18.226736,-11.305107,3.9765022,2.0414565,2.2942457,10.451298,-10.858427,22.171137,-32.82986,59.453297,-12.254576,0.6612885,-3.8126414,-21.041973,-13.526703,57.043194,60.677326,15.93614,10.004344,-4.763753
114,2.02264666557312,6.4765095710754395,77.20237731933594,-0.6550251327647308,0.1829369197182825,176.12212340536007,-0.6196658,12.519551,17.836016,18.29104,-13.579922,-10.817134,-10.372778,-19.43955,-14.8981905,17.863203,-10.887421,4.1772623,2.0613642,2.5843465,10.42792,-10.924627,22.269413,-32.831474,59.48036,-12.286691,0.63584673,-3.7807288,-21.358467,-13.493822,57.46796,60.80669,16.2761,9.828547,-4.543546
115,2.041703462600708,6.801680564880371,77.17445373535156,-0.8217391788258405,0.2721040999094741,176.0944656587476,-0.90338564,13.093503,17.71209,18.717115,-13.627871,-11.163566,-10.2361355,-19.001003,-15.275775,17.55665,-10.438645,4.3406134,2.0772011,2.9004333,10.399274,-11.000675,22.360909,-32.818157,59.510902,-12.324751,0.6175534,-3.7577,-21.622875,-13.470836,57.78589,60.879486,16.517607,9.647927,-4.324716
116,2.010788917541504,7.139895915985107,77.15007781982422,-1.0095838339034675,0.3773184289972686,176.07316085648338,-1.233379,13.707409,17.551376,19.17262,-13.657578,-11.529702,-10.183246,-18.483063,-15.500577,17.312141,-10.027113,4.3905706,2.1197174,3.2366445,10.362653,-11.1265745,22.423067,-32.80019,59.56814,-12.357384,0.62502515,-3.757444,-21.901396,-13.460474,58.057022,60.932106,16.614532,9.547906,-4.162666
117,2.010892868041992,7.492434024810791,77.12493133544922,-1.2286793085853975,0.4984507853425724,176.05523052386226,-1.6159773,14.3774395,17.347488,19.675968,-13.682304,-11.921286,-10.224543,-17.860088,-15.523728,17.132242,-9.665945,4.29403,2.1110394,3.5967267,10.335048,-11.184477,22.537722,-32.656185,59.51317,-12.375609,0.694573,-3.8164413,-22.220613,-13.439954,58.354908,60.95991,16.466433,9.569027,-4.0842047
118,2.0323824882507324,7.859858989715576,77.10175323486328,-1.4790196076735698,0.6333867746558126,176.0420505414338,-2.0470629,15.101377,17.102411,20.22193,-13.701903,-12.336582,-10.332483,-17.141651,-15.412347,17.018972,-9.323344,4.0965853,2.1127458,3.9781342,10.306002,-11.259268,22.659203,-32.482983,59.441795,-12.393261,0.80303246,-3.9128354,-22.55015,-13.415938,58.602364,60.965717,16.153196,9.658295,-4.050609
119,2.0529870986938477,8.238801002502441,77.09315490722656,-1.7386598428932323,0.7842930860381061,176.03898103750217,-2.5048225,15.838508,16.825779,20.748346,-13.678416,-12.766548,-10.49357,-16.38218,-15.236942,16.955555,-8.989364,3.8417132,2.1273668,4.369339,10.266111,-11.3693075,22.749744,-32.324696,59.404255,-12.412122,0.8974355,-3.9933634,-22.879522,-13.398735,58.79222,60.95854,15.817727,9.760731,-4.0430617
120,2.0683233737945557,8.647228240966797,77.079345703125,-1.9841628681435557,0.9537814699007906,176.05124372749046,-2.9674256,16.5484,16.528147,21.19253,-13.573422,-13.201969,-10.698213,-15.638737,-15.0645275,16.927036,-8.654947,3.572974,2.0985916,4.7370987,10.235443,-11.411757,22.87917,-32.125385,59.295013,-12.419358,0.9360931,-4.02026,-23.23861,-13.373996,58.972683,60.94406,15.613977,9.820581,-4.0451035
121,2.118922472000122,9.053995132446289,77.0662841796875,-2.2220862958141225,1.152845953854196,176.0735255717415,-3.4541895,17.242163,16.206127,21.56923,-13.3908205,-13.6390295,-10.986745,-14.887018,-14.840149,16.944698,-8.269925,3.2652073,2.0777588,5.096229,10.188749,-11.45938,22.9883,-31.965317,59.208344,-12.427214,0.87898076,-3.9520152,-23.604582,-13.356752,59.087784,60.919827,15.5807295,9.820184,-4.051302
122,2.1266634464263916,9.46403980255127,77.07148742675781,-2.459994401368369,1.376887775262834,176.1050693986098,-3.9686522,17.934526,15.853618,21.903055,-13.14844,-14.084471,-11.351945,-14.110213,-14.554861,17.010584,-7.851715,2.9108448,2.0449328,5.4518533,10.13727,-11.485652,23.101955,-31.798784,59.102325,-12.430633,0.761673,-3.8248284,-23.98679,-13.343959,59.164326,60.878567,15.644593,9.7904,-4.072332
123,2.170825958251953,9.898945808410645,77.0726318359375,-2.678512431005774,1.6041835449494102,176.15826064515034,-4.4636126,18.591887,15.47993,22.146421,-12.82927,-14.544904,-11.714103,-13.375191,-14.343299,17.095627,-7.494896,2.5785198,2.0106835,5.7876225,10.088118,-11.539,23.18942,-31.653816,59.023697,-12.433372,0.63247895,-3.683094,-24.361618,-13.33912,59.18965,60.831444,15.743422,9.748662,-4.1082597
124,2.2160913944244385,10.340611457824707,77.08155059814453,-2.849357822120845,1.8166541663833289,176.24923787187765,-4.895119,19.167534,15.094632,22.249592,-12.414803,-15.000033,-12.006331,-12.76253,-14.33217,17.192533,-7.3084702,2.3348422,1.953459,6.0707827,10.061099,-11.616317,23.272003,-31.519972,58.949688,-12.442759,0.5446499,-3.5782855,-24.72165,-13.337403,59.177753,60.781258,15.821654,9.712564,-4.1606545
125,2.260711193084717,10.79122543334961,77.10028076171875,-2.887670888951099,2.0344396219578837,176.40597742244964,-5.2584558,19.497183,14.705343,22.12216,-11.847765,-15.000033,-12.305786,-12.428567,-14.565189,17.45607,-7.4251437,2.2200267,1.8339508,6.210592,10.057258,-11.683699,23.397486,-31.367933,58.816833,-12.453647,0.5242524,-3.5339134,-25.077787,-13.33393,59.125324,60.71908,15.862565,9.683681,-4.224502
126,2.2935872077941895,11.241924285888672,77.12266540527344,-2.885433922934992,2.2418894230663424,176.59022901631417,-5.571291,19.770329,14.312055,21.890228,-11.198817,-15.000033,-12.567671,-12.205806,-14.977863,17.771727,-7.7252994,2.1718712,1.7045379,6.307819,10.070346,-11.7877245,23.50706,-31.237537,58.705036,-12.471106,0.5351302,-3.514539,-25.4255,-13.329783,59.022434,60.662636,15.89589,9.653176,-4.3006916
127,2.338125467300415,11.715155601501465,77.14591217041016,-2.857732747745036,2.443862387318959,176.8143788571591,-5.835231,19.99761,13.911013,21.532469,-10.473014,-15.000033,-12.784227,-12.038666,-15.481728,18.073206,-8.095247,2.1720784,1.5500371,6.3634076,10.098573,-11.872555,23.64908,-31.109854,58.550995,-12.497678,0.5582532,-3.5070722,-25.759434,-13.323223,58.88863,60.59309,15.934163,9.622989,-4.3995647
128,2.391242504119873,12.20055103302002,77.17305755615234,-2.8201138863298847,2.6453008353090928,177.09060856602636,-6.0531807,20.19067,13.497366,21.031328,-9.676488,-15.000033,-12.941107,-11.8681965,-15.991363,18.278004,-8.416822,2.203014,1.3750676,6.400392,10.118697,-11.956837,23.785864,-31.00904,58.403454,-12.53798,0.5649323,-3.4875941,-26.062897,-13.31744,58.73858,60.5167,15.991999,9.594698,-4.532224
129,2.437328815460205,12.697127342224121,77.19629669189453,-2.7696580311863332,2.8450589576138983,177.42580275203792,-6.2179604,20.34319,13.064606,20.364996,-8.805729,-15.000033,-13.028972,-11.691681,-16.492193,18.367996,-8.67602,2.2868948,1.1747661,6.4162865,10.13016,-12.03633,23.914455,-30.943172,58.26893,-12.609839,0.5442764,-3.4445238,-26.330143,-13.313021,58.572365,60.43115,16.078154,9.567567,-4.7240105
130,2.4775943756103516,13.189826965332031,77.2283935546875,-2.700529613229965,3.0406477261555973,177.81187277996102,-6.32757,20.457277,12.616564,19.54809,-7.859959,-15.000033,-13.055929,-11.533237,-17.028044,18.380753,-8.927813,2.4241173,0.95325553,6.412524,10.136082,-12.12874,24.017181,-30.90677,58.16477,-12.700512,0.5087711,-3.3885942,-26.567078,-13.310537,58.38632,60.34338,16.18528,9.541286,-4.9620156
131,2.506453275680542,13.69332218170166,77.2657699584961,-2.622678377766763,3.234708250844285,178.2386685478145,-6.3906083,20.552212,12.163578,18.606031,-6.8396616,-15.000033,-13.03881,-11.376967,-17.59982,18.324684,-9.155638,2.5646908,0.71869826,6.3991184,10.134506,-12.24322,24.09912,-30.891428,58.08159,-12.78192,0.47187313,-3.3364227,-26.78108,-13.311706,58.18603,60.254635,16.29967,9.517316,-5.198738
132,2.531968355178833,14.223088264465332,77.30316925048828,-2.545174522649694,3.4300003576195484,178.69593328973428,-6.419767,20.643896,11.716522,17.566944,-5.743871,-15.000033,-12.9959345,-11.208388,-18.206934,18.21452,-9.345659,2.659033,0.49102655,6.3710895,10.13007,-12.370543,24.201763,-30.889782,57.969425,-12.823991,0.45191854,-3.3081594,-26.970585,-13.32278,57.95123,60.14387,16.398714,9.498397,-5.3848243
133,2.5647172927856445,14.754234313964844,77.34649658203125,-2.4661261808063646,3.6253132436242743,179.19113377394265,-6.4210176,20.71752,11.241282,16.41676,-4.545308,-15.000033,-12.904975,-11.022677,-18.863234,18.01377,-9.476159,2.7136567,0.24429323,6.349075,10.118064,-12.543008,24.264906,-30.884853,57.897743,-12.797897,0.44415787,-3.309151,-27.143417,-13.336566,57.71028,60.028637,16.499397,9.491172,-5.5075283
134,2.5868403911590576,15.286672592163086,77.40048217773438,-2.3819296127814136,3.819056674629857,179.7259573487739,-6.390531,20.769548,10.743794,15.150216,-3.2499263,-15.000033,-12.763815,-10.825735,-19.563963,17.729221,-9.561197,2.749252,0.020916643,6.2936616,10.111923,-12.747413,24.372469,-30.934792,57.79808,-12.752421,0.4519125,-3.334986,-27.270391,-13.378218,57.383358,59.855923,16.577011,9.494314,-5.585643
135,2.6048495769500732,15.828498840332031,77.45117950439453,-2.304542500001877,4.013801241987067,-179.71764812953688,-6.3230553,20.831825,10.297306,13.78875,-1.8969454,-15.000033,-12.607238,-10.610974,-20.28521,17.412987,-9.627232,2.7377374,-0.21887879,6.2565236,10.092586,-12.946269,24.452507,-30.96254,57.68897,-12.679667,0.46612462,-3.3659835,-27.387777,-13.43098,57.097168,59.69143,16.661304,9.493625,-5.645431
136,2.632162094116211,16.366533279418945,77.50711059570312,-2.2453915480840037,4.21265757738935,-179.15785830113543,-6.2111955,20.929028,9.976513,12.344747,-0.5222554,-15.000033,-12.476807,-10.376723,-21.00182,17.127842,-9.706565,2.6500933,-0.4569369,6.246862,10.046559,-13.114258,24.522673,-30.976624,57.535706,-12.61732,0.48822612,-3.3884864,-27.418173,-13.521895,56.790344,59.48416,16.64176,9.478669,-5.7033825
137,2.649637460708618,16.894147872924805,77.55719757080078,-2.2159372120442904,4.4293728865680295,-178.58168581965342,-6.054968,21.043053,9.674586,10.703457,1.0026265,-15.000033,-12.385944,-10.116142,-21.72707,16.881933,-9.806273,2.4619784,-0.6702605,6.2884564,9.973259,-13.294853,24.558966,-31.002895,57.35388,-12.542005,0.5321759,-3.4046292,-27.58436,-13.638224,56.69861,59.382393,16.834085,9.434124,-5.7646346
138,2.6620993614196777,17.41956329345703,77.60531616210938,-2.2124784677550213,4.657309689859115,-177.98609466242277,-5.8481236,21.156149,9.401243,8.859811,2.675198,-15.000033,-12.3103485,-9.826387,-22.46952,16.64282,-9.910319,2.1932838,-0.90299195,6.3787417,9.860373,-13.462249,24.56039,-31.015219,57.162373,-12.454951,0.5925987,-3.4219213,-27.641743,-13.78359,56.565834,59.235878,16.896122,9.373499,-5.8221784
139,2.6710827350616455,17.93225860595703,77.6491928100586,-2.2230616055211945,4.871640925730145,-177.40258200456782,-5.5754833,21.286352,9.407301,6.990477,4.2717123,-15.000033,-12.233905,-9.5129595,-23.197727,16.40563,-10.011226,1.8807843,-1.115471,6.4914618,9.748575,-13.619922,24.525385,-31.006475,56.960228,-12.380099,0.6363646,-3.4203742,-27.688305,-13.960924,56.48128,59.09458,16.955965,9.314529,-5.864777
140,2.6944267749786377,18.435718536376953,77.67355346679688,-2.2310352769383868,5.049210743306275,-176.86056533404573,-5.750158,21.525684,9.747214,6.33702,5.00198,-15.000033,-12.14456,-9.188498,-23.879282,16.170784,-10.103493,1.5623783,-1.2946866,6.598305,9.670165,-13.745976,24.451994,-30.941309,56.739536,-12.336267,0.6303461,-3.38172,-27.748491,-14.168902,56.468014,58.967716,17.03002,9.275744,-5.88393
141,2.724930763244629,18.938644409179688,77.69047546386719,-2.226479610714675,5.1994409062649165,-176.3510794891577,-6.013264,21.837284,10.788493,6.175219,5.2587442,-15.000033,-12.077465,-8.882398,-24.512833,15.987235,-10.204354,1.2369804,-1.4527253,6.6904893,9.623835,-13.833608,24.337324,-30.807081,56.496822,-12.343275,0.5370538,-3.2797718,-27.841799,-14.407188,56.542854,58.855217,17.112974,9.272764,-5.877657
142,2.7605271339416504,19.42338752746582,77.72184753417969,-2.2109040396189377,5.331444692497651,-175.86129762449627,-6.2068133,22.175995,12.403958,6.1113377,5.318129,-15.000033,-12.043104,-8.599508,-25.109138,15.871488,-10.323874,0.890246,-1.5933752,6.771721,9.594664,-13.892072,24.181118,-30.616123,56.234947,-12.377739,0.38318843,-3.1311839,-27.959406,-14.674362,56.6973,58.75782,17.207888,9.291804,-5.8515487
143,2.7837131023406982,19.910688400268555,77.76322937011719,-2.1964809511119556,5.4218589504757135,-175.4172393521746,-6.2195196,22.5214,14.2396145,6.038252,5.172383,-15.000033,-11.953967,-8.280884,-25.663082,15.687224,-10.410339,0.535773,-1.6951923,6.8464622,9.590378,-13.939167,23.989012,-30.395697,55.96936,-12.423057,0.2318622,-2.982223,-28.069118,-14.965712,56.90552,58.68098,17.324287,9.308126,-5.8070292
144,2.8095531463623047,20.4173641204834,77.79386138916016,-2.1919452884787876,5.440765459509546,-175.0482583529617,-6.0203614,22.8724,15.910462,6.026363,4.677854,-15.000033,-11.740048,-7.883743,-26.157568,15.352845,-10.438625,0.19197395,-1.7292011,6.9119024,9.626993,-13.992119,23.770922,-30.172987,55.70987,-12.460308,0.14660986,-2.8786612,-28.158827,-15.273159,57.15577,58.64325,17.493969,9.2967615,-5.7458506
145,2.8232970237731934,20.936307907104492,77.82335662841797,-2.206691883665285,5.3485126170158575,-174.80014611551283,-5.5450497,23.273497,17.289919,6.1247582,3.5543559,-15.000033,-11.326077,-7.355637,-26.555893,14.771974,-10.368929,-0.13978067,-1.6547986,6.9636846,9.746333,-14.0600815,23.534756,-29.927736,55.438828,-12.478359,0.17551397,-2.8492446,-28.241076,-15.590147,57.462685,58.652367,17.791826,9.227277,-5.656589
146,2.8202826976776123,21.475801467895508,77.85645294189453,-2.2415595764452774,5.156803852396837,-174.6539661234247,-5.0785894,23.809027,18.51732,6.866053,1.6334149,-15.000033,-10.748106,-6.7194414,-26.865677,14.0022745,-10.221891,-0.4671204,-1.4966146,7.009247,9.940768,-14.121557,23.282793,-29.647825,55.146297,-12.490172,0.27569008,-2.8654644,-28.318787,-15.914634,57.825375,58.702877,18.17033,9.120953,-5.5406775
147,2.8180949687957764,21.99850082397461,77.89100646972656,-2.3441395777272107,4.915792245423292,-174.54093330472355,-5.723029,24.807133,19.308372,10.259563,-1.7016425,-15.000033,-10.081377,-5.979704,-27.161627,13.135872,-10.034758,-0.7903416,-1.3212987,7.1200123,10.1514845,-14.151184,23.013056,-29.378035,54.85403,-12.517147,0.3758181,-2.8878226,-28.377201,-16.243988,58.220516,58.80066,18.499924,9.030741,-5.417563
148,2.799992322921753,22.48955535888672,77.9187240600586,-2.4557818953244857,4.681192273603179,-174.3928834104142,-5.946345,25.659872,20.457329,12.929195,-4.244609,-15.000033,-9.442346,-5.2638707,-27.478302,12.333862,-9.876278,-1.1011195,-1.1845155,7.2508225,10.314827,-14.128415,22.721666,-29.1637,54.58732,-12.567763,0.40186295,-2.8743029,-28.397057,-16.57324,58.613327,58.94741,18.651638,9.007262,-5.31252
149,2.783057451248169,22.969261169433594,77.93780517578125,-2.501946029879716,4.477225857960041,-174.18479819081517,-5.7536154,26.236586,22.106815,14.842371,-5.8485107,-15.000033,-8.912539,-4.696437,-27.813616,11.73379,-9.809181,-1.3848289,-1.1014383,7.321766,10.404593,-14.03518,22.402393,-28.998775,54.360504,-12.661227,0.29402557,-2.7887588,-28.367298,-16.89822,59.016895,59.15249,18.558723,9.065683,-5.2502756
150,2.7789478302001953,23.44630241394043,77.95278930664062,-2.4688482238685943,4.30182320406521,-173.9273522103722,-5.3445983,26.556534,24.05241,16.409052,-6.9534893,-14.755187,-8.498137,-4.292175,-28.156115,11.34613,-9.83959,-1.6377382,-1.0618936,7.3178883,10.429739,-13.898245,22.05455,-28.874487,54.168983,-12.789855,0.10296134,-2.6596487,-28.304136,-17.215757,59.44154,59.420307,18.305069,9.176538,-5.21374
151,2.758972406387329,23.909446716308594,77.95803833007812,-2.410810984058198,4.132780385873161,-173.64782127483494,-4.8608446,26.758373,26.009983,17.931822,-7.8480396,-14.44008,-8.119784,-3.9430974,-28.500486,11.0342,-9.905982,-1.8798479,-1.0465436,7.293663,10.414264,-13.751341,21.687565,-28.81778,54.003063,-12.906252,-0.08013189,-2.5422688,-28.202454,-17.523388,59.82419,59.72729,17.959251,9.321478,-5.169526
152,2.7472522258758545,24.360912322998047,77.96340942382812,-2.353818195714378,3.9612500995306514,-173.3582502378618,-4.411975,26.921555,27.71343,19.599154,-8.761007,-14.036925,-7.741844,-3.597255,-28.840479,10.732639,-9.977876,-2.1220126,-1.0481489,7.2782903,10.36985,-13.630426,21.317722,-28.863552,53.851925,-12.973103,-0.16321757,-2.4913414,-28.05713,-17.821362,60.09911,60.048485,17.589197,9.482123,-5.0842643
153,2.7168514728546143,24.818471908569336,77.96343994140625,-2.2957779655379467,3.791417872200341,-173.0673390092142,-4.0161753,27.062788,29.1474,21.464588,-9.714301,-13.490945,-7.366439,-3.2545059,-29.16504,10.43462,-10.054937,-2.3549438,-1.0570189,7.2698293,10.289096,-13.538724,20.958458,-29.032589,53.697838,-12.967128,-0.08963898,-2.5395699,-27.862999,-18.110004,60.259968,60.38484,17.162947,9.692501,-4.9211035
154,2.687013864517212,25.26315689086914,77.95864868164062,-2.238903430049721,3.6171187527252178,-172.7761400033992,-3.619201,27.172077,30.434498,23.452188,-10.610926,-12.939865,-6.983267,-2.9095068,-29.477783,10.132229,-10.133477,-2.5809927,-1.070975,7.2618065,10.17974,-13.45027,20.613426,-29.303955,53.537205,-12.917962,0.08242601,-2.6531491,-27.624132,-18.38949,60.334423,60.742878,16.660534,9.948204,-4.705368
155,2.6693060398101807,25.710186004638672,77.95189666748047,-2.186855833554375,3.433439453982847,-172.4644642372433,-3.2271695,27.215712,31.509344,25.472372,-11.460396,-12.407276,-6.5917892,-2.5654397,-29.800766,9.839696,-10.213078,-2.8189561,-1.1132908,7.2528477,10.059057,-13.351891,20.28239,-29.644508,53.37609,-12.863331,0.27310792,-2.7870693,-27.340115,-18.661987,60.301975,61.096836,16.161734,10.173787,-4.4988236
156,2.6304640769958496,26.148832321166992,77.94801330566406,-2.1434876848852547,3.2357732912417054,-172.11206344709802,-2.853363,27.165644,32.303123,27.448936,-12.279095,-11.917339,-6.1962166,-2.227867,-30.156319,9.584163,-10.301354,-3.0873578,-1.2046354,7.2419605,9.943661,-13.232119,19.962013,-30.020718,53.221794,-12.836397,0.40267658,-2.8956344,-27.013617,-18.931953,60.14389,61.42218,15.750946,10.295704,-4.3652105
157,2.599759101867676,26.590984344482422,77.94244384765625,-2.112843300015874,3.0196401692389983,-171.70730375186034,-2.5131557,27.027855,32.759064,29.404163,-13.07351,-11.470766,-5.7839847,-1.8919668,-30.554197,9.354626,-10.393046,-3.3989534,-1.3573908,7.2323127,9.836501,-13.084889,19.64974,-30.437561,53.0753,-12.881338,0.44346994,-2.961838,-26.636663,-19.203396,59.871098,61.733383,15.437002,10.250227,-4.30195
158,2.558089256286621,27.029767990112305,77.9311294555664,-2.0922865523122294,2.788717168083379,-171.26252110619757,-2.2063143,26.819077,32.923775,31.37787,-13.841707,-11.058821,-5.3569756,-1.5570098,-30.98134,9.142584,-10.487572,-3.7404735,-1.5560856,7.223729,9.730005,-12.917556,19.345022,-30.907154,52.93293,-12.964689,0.4402504,-3.011789,-26.210861,-19.476812,59.48994,62.03189,15.185934,10.092893,-4.2835703
159,2.527790069580078,27.462514877319336,77.9124526977539,-2.0756881198685373,2.55037372217151,-170.793514383435,-1.9246498,26.527824,32.883408,33.323982,-14.582688,-10.692121,-4.934338,-1.2319782,-31.426565,8.961851,-10.590281,-4.091703,-1.7852256,7.211716,9.620951,-12.747331,19.049114,-31.417034,52.805977,-13.021623,0.42094186,-3.0640204,-25.733541,-19.753738,58.9594,62.262962,14.99514,9.9308195,-4.339953
160,2.4829814434051514,27.889785766601562,77.8955078125,-2.0569479483733684,2.3120349867496586,-170.3160378247443,-1.6586021,26.13861,32.725346,35.19076,-15.294978,-10.381772,-4.5320034,-0.9230822,-31.878977,8.81793,-10.7015,-4.432985,-2.0257485,7.1915526,9.509286,-12.592254,18.764185,-31.955193,52.701984,-12.984804,0.41369122,-3.137159,-25.209692,-20.035465,58.244045,62.37457,14.873278,9.871342,-4.4998093
161,2.4382317066192627,28.306480407714844,77.88056182861328,-2.0329600900902296,2.0703874949902996,-169.82766086602405,-1.4127163,25.650385,32.455437,37.004128,-15.991642,-10.099049,-4.1457944,-0.63476706,-32.34253,8.710629,-10.81748,-4.7623143,-2.2773144,7.1608267,9.399873,-12.4657345,18.494267,-32.542572,52.619534,-12.821987,0.43263516,-3.242738,-24.629587,-20.32179,57.296104,62.335846,14.801161,9.989714,-4.8088784
162,2.4144842624664307,28.733604431152344,77.85359954833984,-2.0085696909151176,1.8233968003477519,-169.32201645595774,-1.194112,25.071383,32.03484,38.789223,-16.673117,-9.851932,-3.7751725,-0.36592567,-32.821526,8.65025,-10.945877,-5.0894046,-2.545675,7.1216626,9.292739,-12.356336,18.239998,-33.18129,52.552586,-12.575361,0.46060616,-3.3689828,-23.988935,-20.613895,56.141785,62.172764,14.781999,10.213495,-5.23824
163,2.377413511276245,29.163047790527344,77.817138671875,-1.9888548005867455,1.5797034199866857,-168.8089888090402,-0.99335116,24.39544,31.48893,40.48324,-17.314224,-9.706919,-3.4225764,-0.10243715,-33.305355,8.612958,-11.080332,-5.4130197,-2.8229,7.077161,9.179422,-12.243632,17.997051,-33.82806,52.50209,-12.288685,0.47850984,-3.499197,-23.294216,-20.913776,54.8543,61.911762,14.853453,10.427863,-5.7054715
164,2.3353826999664307,29.578283309936523,77.7803726196289,-1.9775482564121232,1.3483356191492661,-168.2985413697893,-0.80086094,23.614483,30.845396,42.022835,-17.89135,-9.730578,-3.100161,0.16293961,-33.782894,8.596772,-11.225484,-5.7317348,-3.1047904,7.031449,9.050291,-12.107454,17.758953,-34.436897,52.47274,-12.006089,0.4671319,-3.6165953,-22.554039,-21.223772,53.51105,61.583538,15.050231,10.516911,-6.128114
165,2.2979736328125,29.999372482299805,77.73548126220703,-1.9788007419933238,1.135767788227323,-167.79330123561985,-0.6222012,22.730112,30.107492,43.415447,-18.430023,-9.937313,-2.8193212,0.4362743,-34.247665,8.606221,-11.381316,-6.054041,-3.394903,6.990565,8.89629,-11.939322,17.521091,-35.00395,52.474304,-11.722165,0.40333617,-3.7139797,-21.759203,-21.545412,52.089573,61.189598,15.398555,10.410819,-6.489484
166,2.2618415355682373,30.41250991821289,77.69021606445312,-1.9892579439722604,0.9362235075007108,-167.28772202307056,-0.45678183,21.743439,29.271553,44.69156,-18.938839,-10.294885,-2.569362,0.71356356,-34.707058,8.635517,-11.542255,-6.3783903,-3.6941826,6.9534893,8.724349,-11.755211,17.282597,-35.5506,52.507225,-11.418519,0.3028413,-3.8006027,-20.900455,-21.877275,50.561543,60.709103,15.871952,10.182931,-6.8294406
167,2.2316083908081055,30.8156795501709,77.63912963867188,-2.000710628991009,0.7405598415095815,-166.78024552270372,-0.28758395,20.64564,28.354778,45.824184,-19.37214,-10.799738,-2.336237,0.9820217,-35.169796,8.684435,-11.71408,-6.687959,-3.9970765,6.9125743,8.548097,-11.563506,17.042587,-36.05969,52.557022,-11.111993,0.2050076,-3.884369,-19.997173,-22.217026,49.0035,60.150665,16.427586,9.932348,-7.1501813
168,2.203030586242676,31.225467681884766,77.58547973632812,-2.005663518331641,0.539607426985703,-166.26942407875325,-0.09609683,19.427921,27.37262,46.78113,-19.682707,-11.448895,-2.1058433,1.2297428,-35.644928,8.752372,-11.901559,-6.966181,-4.3033466,6.8622584,8.381811,-11.371807,16.801403,-36.510857,52.608715,-10.822607,0.14922278,-3.9740198,-19.073914,-22.558422,47.49765,59.526463,17.025547,9.758315,-7.456739
169,2.1828558444976807,31.628332138061523,77.5297622680664,-2.005265110648451,0.32487225412490217,-165.7366942690388,0.1294641,18.070839,26.293722,47.546944,-19.849266,-12.274457,-1.8501697,1.4614837,-36.15521,8.809571,-12.100123,-7.196071,-4.6336737,6.8021297,8.228371,-11.166721,16.557543,-36.878063,52.652855,-10.517541,0.15287416,-4.083523,-18.13206,-22.895645,46.029285,58.819237,17.729166,9.704646,-7.751675
170,2.1572680473327637,32.038063049316406,77.47280883789062,-2.00298235412806,0.10349272493201989,-165.18877708882567,0.3856811,16.583826,25.12598,48.13978,-19.911264,-13.268192,-1.5832094,1.6840373,-36.68927,8.859177,-12.304317,-7.390944,-4.9858613,6.736116,8.079344,-10.950839,16.311613,-37.177845,52.70198,-10.202519,0.19213842,-4.2046685,-17.167324,-23.224663,44.5731,58.039993,18.538206,9.711313,-8.033487
171,2.0972740650177,32.42239761352539,77.4210205078125,-1.9952427198207114,-0.11060775700420286,-164.6620258019363,0.66295546,15.004036,23.937138,48.579556,-19.911722,-14.366513,-1.3601933,1.8822485,-37.20573,8.972151,-12.5314865,-7.5791736,-5.329375,6.6634955,7.9320965,-10.735189,16.06656,-37.43269,52.758717,-9.932228,0.24608602,-4.3141227,-16.20206,-23.542313,43.195614,57.249695,19.312399,9.722193,-8.30238
172,2.085798501968384,32.804290771484375,77.36681365966797,-1.9323182714691838,-0.267965567072267,-164.14912609341602,0.89060533,13.271059,22.814121,48.851364,-19.860147,-15.000033,-1.3495095,1.9038016,-37.698624,9.427459,-12.895236,-7.7729454,-5.6761227,6.547842,7.7492127,-10.532558,15.827313,-37.665493,52.826237,-9.768668,0.2937052,-4.3877044,-15.266365,-23.845068,41.97011,56.515167,19.912138,9.681031,-8.558635
173,2.1033217906951904,33.17979431152344,77.31354522705078,-1.7812651096430638,-0.3513938421426914,-163.6445278067888,1.060136,11.305956,21.759596,48.896023,-19.722454,-15.000033,-1.6258388,1.6568089,-38.168182,10.373843,-13.46157,-7.968794,-6.035928,6.360567,7.5107293,-10.336412,15.596905,-37.872154,52.90163,-9.757857,0.33356264,-4.4139423,-14.3717985,-24.130482,40.92269,55.86489,20.299404,9.549986,-8.802443
174,2.128570556640625,33.564796447753906,77.2576675415039,-1.6024425588969047,-0.4200766904896375,-163.19066840677658,1.2613475,9.229843,20.724276,48.755795,-19.531221,-15.000033,-1.99733,1.3297445,-38.582615,11.483575,-14.085709,-8.174317,-6.3726788,6.146152,7.2677035,-10.138264,15.377716,-38.039436,52.981476,-9.857692,0.37645632,-4.408499,-13.509944,-24.395374,40.01725,55.2685,20.547949,9.367926,-9.034231
175,2.1473910808563232,33.93924331665039,77.19422912597656,-1.4072453803085014,-0.48181679506135816,-162.78122434651846,1.4852414,7.1318994,19.73915,48.50506,-19.331127,-15.000033,-2.4355478,0.9508579,-38.944405,12.708829,-14.747904,-8.39149,-6.69113,5.911819,7.030596,-9.94473,15.172834,-38.17399,53.06356,-9.992046,0.41990834,-4.3861656,-12.697531,-24.638866,39.240746,54.71883,20.688616,9.193141,-9.254589
176,2.184624433517456,34.316471099853516,77.12423706054688,-1.2112319986350202,-0.5425368541687289,-162.4073922552289,1.715044,5.106335,18.832071,48.222282,-19.15756,-15.000033,-2.8972185,0.5671014,-39.26029,13.957339,-15.404287,-8.622826,-6.998083,5.6708164,6.8100452,-9.763877,14.985617,-38.284443,53.145317,-10.088008,0.4613017,-4.3619766,-11.944829,-24.859566,38.577507,54.201477,20.75185,9.083715,-9.464159
177,2.227250814437866,34.6944465637207,77.04907989501953,-1.0126904723863766,-0.6019550115986645,-162.07363053927824,1.9404715,3.1322072,17.964087,47.91062,-19.042307,-15.000033,-3.3808858,0.1809094,-39.524647,15.222983,-16.060371,-8.876163,-7.2891073,5.4211955,6.6043706,-9.587432,14.81667,-38.349773,53.217556,-10.108888,0.50363094,-4.3320956,-11.252959,-25.058247,38.038628,53.714314,20.71417,9.065164,-9.680075
178,2.2812209129333496,35.085514068603516,76.9656982421875,-0.8085296916811661,-0.6559519798192491,-161.77984438120257,2.166093,1.1798124,17.119982,47.527794,-18.945248,-15.000033,-3.900031,-0.21717873,-39.738686,16.52522,-16.72008,-9.148532,-7.5664473,5.1606073,6.4087653,-9.415406,14.667132,-38.37435,53.28331,-10.102144,0.5471189,-4.2910705,-10.621131,-25.235939,37.630444,53.26691,20.571043,9.103552,-9.897412
179,2.331411838531494,35.47870635986328,76.87873840332031,-0.6148598463519894,-0.7029662196698485,-161.5078387899826,2.3861623,-0.6646489,16.365187,47.099037,-18.794891,-15.000033,-4.436745,-0.5956051,-39.924057,17.811047,-17.348534,-9.427423,-7.8476787,4.9030647,6.226604,-9.258816,14.5406065,-38.396065,53.352966,-10.109454,0.58572197,-4.251278,-10.049232,-25.39302,37.324314,52.857433,20.375118,9.167333,-10.083333
180,2.4047279357910156,35.87025833129883,76.78213500976562,-0.44777981000311384,-0.7409457757822864,-161.2400138728857,2.5949948,-2.3141923,15.769691,46.64744,-18.515999,-15.000033,-4.9723363,-0.922209,-40.1029,19.023619,-17.907482,-9.700221,-8.148291,4.661404,6.0599546,-9.132521,14.442668,-38.460297,53.439022,-10.179089,0.6130717,-4.2250166,-9.528725,-25.530645,37.08537,52.477936,20.173513,9.224304,-10.204577
181,2.4913487434387207,36.2689208984375,76.6739273071289,-0.30187062550865545,-0.7634883464508031,-160.97270446890298,2.7935143,-3.76165,15.390841,46.171494,-18.102795,-15.000033,-5.524998,-1.2135695,-40.279644,20.193151,-18.418968,-9.961899,-8.4713955,4.430697,5.9007497,-9.028345,14.376249,-38.574593,53.53863,-10.356962,0.62556,-4.2155933,-9.067749,-25.652798,36.935966,52.13192,19.964277,9.272091,-10.246642
182,2.602860450744629,36.67973327636719,76.5638198852539,-0.17372065167325457,-0.7715313089633445,-160.71348588624141,2.975908,-5.044221,15.176401,45.66282,-17.583378,-15.000033,-6.1020913,-1.4782894,-40.44598,21.340418,-18.894226,-10.219747,-8.812768,4.2067475,5.7487593,-8.936825,14.344558,-38.714706,53.640434,-10.607062,0.62768424,-4.216841,-8.668301,-25.753885,36.885296,51.824326,19.723217,9.324601,-10.229449
183,2.704151153564453,37.09049987792969,76.45425415039062,-0.0802693424194866,-0.7735919961864209,-160.4604474596876,3.1308258,-6.144142,15.035919,45.12621,-16.933784,-15.000033,-6.672903,-1.678325,-40.607002,22.40704,-19.289465,-10.478834,-9.177483,4.0025234,5.618264,-8.876998,14.345094,-38.875652,53.75447,-10.852022,0.6251027,-4.226902,-8.339127,-25.813204,36.89422,51.577393,19.47719,9.373252,-10.172054
184,2.828141927719116,37.52748489379883,76.34414672851562,-0.03773234573274303,-0.7781694014367259,-160.21236780342176,3.2492983,-7.0462794,14.87861,44.563713,-16.133646,-15.000033,-7.2114816,-1.7800882,-40.768456,23.346306,-19.566332,-10.743532,-9.518961,3.8387842,5.537749,-8.886479,14.382822,-39.112564,53.869034,-11.03141,0.62383455,-4.2399793,-7.979748,-25.8986,36.839386,51.275528,19.24603,9.419841,-10.086226
185,2.957392930984497,37.96210479736328,76.23957061767578,-0.024992054346053765,-0.7729023017407005,-159.94415227015924,3.3149872,-7.825367,14.676799,43.91397,-14.984942,-15.000033,-7.7526536,-1.8371148,-40.938477,24.21992,-19.747803,-11.000964,-9.900674,3.6928384,5.4855814,-8.964254,14.45069,-39.390526,54.005787,-11.105825,0.6222538,-4.2660575,-7.66384,-25.949522,36.775566,51.00095,19.028292,9.45541,-9.963829
186,3.1039860248565674,38.40892028808594,76.13214111328125,-0.039992560221786086,-0.7571694692012461,-159.66462501983733,3.3372784,-8.464306,14.484945,43.195965,-13.561062,-15.000033,-8.302215,-1.8524367,-41.11392,25.0389,-19.84803,-11.251695,-10.290692,3.5572805,5.463632,-9.098099,14.570559,-39.737476,54.136177,-11.128993,0.6202446,-4.3026533,-7.3617587,-25.98536,36.68961,50.72019,18.807816,9.485408,-9.798214
187,3.2635881900787354,38.871299743652344,76.02372741699219,-0.12561269189775848,-0.756591895134111,-159.424026683396,3.334802,-8.815521,14.333476,42.550285,-12.247557,-15.000033,-8.794618,-1.7206713,-41.28475,25.690262,-19.818827,-11.519563,-10.655134,3.4710274,5.497723,-9.260044,14.733079,-40.10975,54.253098,-11.118861,0.6209198,-4.3371973,-7.092673,-25.99824,36.603092,50.472523,18.609669,9.510811,-9.623842
188,3.4185752868652344,39.36571502685547,75.93363952636719,-0.32452387165216956,-0.7971120056640401,-159.2723195197091,3.3174324,-8.737136,14.248868,42.129368,-11.438979,-15.000033,-9.16763,-1.3389539,-41.442745,26.069677,-19.616598,-11.827976,-10.9461155,3.4715323,5.6145086,-9.431232,14.925127,-40.47903,54.355465,-11.09526,0.62721884,-4.3553777,-6.849583,-25.987045,36.512077,50.274223,18.45047,9.5345955,-9.474011
189,3.567826747894287,39.87669372558594,75.85086059570312,-0.6929887666548857,-0.9073234296231631,-159.23328584816312,3.2403307,-8.027684,14.265747,42.123894,-11.276136,-15.000033,-9.329462,-0.5703718,-41.591125,26.001463,-19.17727,-12.202706,-11.136682,3.604972,5.849814,-9.617887,15.141377,-40.866074,54.45158,-11.050712,0.6428724,-4.344351,-6.6339803,-25.953701,36.419224,50.134914,18.35359,9.546417,-9.334036
190,3.717039108276367,40.4161376953125,75.76261901855469,-1.1968688584670728,-1.07370147974824,-159.2806430924036,3.0977452,-6.7967353,14.395733,42.471092,-11.600657,-15.000033,-9.326379,0.50564516,-41.728596,25.572927,-18.531967,-12.621908,-11.251555,3.8409064,6.1857038,-9.8323965,15.379758,-41.278114,54.550453,-10.977299,0.6646057,-4.31408,-6.443398,-25.899952,36.32227,50.04227,18.30111,9.548942,-9.194071
191,3.877436637878418,40.951175689697266,75.6835708618164,-1.7091575926942866,-1.2444816723011654,-159.37094235865783,2.962023,-5.4082856,14.637531,42.897,-12.324579,-15.000033,-9.349673,1.5886438,-41.84818,25.169106,-17.825636,-13.029715,-11.333229,4.071769,6.5517607,-10.067652,15.637142,-41.670853,54.6459,-10.897365,0.6852462,-4.2844405,-6.281492,-25.824898,36.21529,49.990204,18.260513,9.564302,-9.093999
192,4.106935977935791,41.44212341308594,75.59075164794922,-1.733790725570022,-1.2159048326860347,-159.2669960575407,2.8415043,-4.8601136,15.358948,42.696293,-13.028713,-11.546231,-10.103473,1.5041703,-41.992706,26.21132,-17.657331,-13.273152,-11.596863,3.8868525,6.6746182,-10.315511,15.909364,-41.999294,54.731968,-10.8342495,0.697374,-4.274783,-6.1490016,-25.7264,36.091606,49.970932,18.195837,9.613408,-9.074512
193,4.347144603729248,41.93183898925781,75.4919204711914,-1.7842960090231632,-1.1635173105380667,-159.2270399199554,2.842315,-4.4452863,15.99292,42.3146,-14.235995,-8.711233,-10.933099,1.4389665,-42.11902,27.321445,-17.443295,-13.516558,-11.814509,3.7242043,6.810227,-10.5853405,16.198832,-42.2576,54.81659,-10.770488,0.6967218,-4.2972727,-6.043922,-25.5982,35.937447,49.98951,18.09987,9.707438,-9.1701355
194,4.604149341583252,42.419761657714844,75.39130401611328,-1.8498597959607563,-1.0943487485564192,-159.23944358226856,2.9200492,-4.0884886,16.578897,41.82472,-15.898641,-6.1664896,-11.824571,1.379704,-42.231018,28.486544,-17.180927,-13.756491,-11.994644,3.5709314,6.960592,-10.876802,16.506443,-42.466972,54.900654,-10.7002945,0.68789923,-4.3390975,-5.9706373,-25.438282,35.76215,50.053288,17.991562,9.832983,-9.351474
195,4.869218349456787,42.914180755615234,75.29663848876953,-1.8840663303775287,-1.0242298759958557,-159.30731789314692,3.0656838,-3.8258479,17.146025,41.17827,-17.661634,-3.9291294,-12.7858095,1.2399291,-42.302284,29.782007,-16.841677,-13.914551,-12.135889,3.3818896,7.122783,-11.168213,16.82807,-42.62018,54.977608,-10.66362,0.6763735,-4.3843822,-5.93829,-25.24998,35.598415,50.15927,17.874973,9.976336,-9.564191
196,5.150235652923584,43.404239654541016,75.20618438720703,-1.8405862215947295,-0.9694695961398525,-159.43397801702258,3.2756672,-3.6803396,17.749125,40.325294,-19.16972,-2.010799,-13.820822,0.9396312,-42.303574,31.271927,-16.392073,-13.909569,-12.237656,3.1134598,7.2940054,-11.436858,17.15612,-42.706165,55.041794,-10.697035,0.6674539,-4.4171977,-5.9552226,-25.040129,35.479992,50.301453,17.754654,10.123718,-9.753801
197,5.440906047821045,43.87711715698242,75.13422393798828,-1.6916942668755754,-0.9288923581160567,-159.6321659125078,3.5853245,-3.6654537,18.478346,39.18016,-20.331161,-0.45369914,-14.938347,0.44801113,-42.24832,32.99447,-15.857931,-13.745488,-12.289437,2.7373228,7.4680157,-11.681279,17.485823,-42.715847,55.094776,-10.842522,0.66873324,-4.442234,-6.0211945,-24.81218,35.407295,50.472187,17.654701,10.277172,-9.898233
198,5.743947982788086,44.357810974121094,75.0735092163086,-1.4692694251817102,-0.8951297982592235,-159.89551230985188,3.9984865,-3.7613602,19.299698,37.767105,-21.309187,0.75762624,-16.129234,-0.17387937,-42.13717,34.889782,-15.239575,-13.44762,-12.294839,2.2868624,7.6495423,-11.915906,17.815865,-42.657154,55.14533,-11.069696,0.6748054,-4.464803,-6.1297436,-24.566582,35.364616,50.67271,17.566965,10.442716,-10.028943
199,6.059863090515137,44.824310302734375,75.02601623535156,-1.217815388970845,-0.8741273804387583,-160.19954194429474,4.4598136,-3.9330375,20.09466,36.209026,-22.136238,1.7028795,-17.37047,-0.858813,-41.917065,36.864582,-14.46164,-12.960996,-12.272998,1.811969,7.850705,-12.13828,18.142092,-42.538612,55.19921,-11.3007145,0.6715813,-4.469748,-6.277139,-24.30787,35.360924,50.908615,17.44633,10.6123495,-10.171673
200,6.387974262237549,45.28535842895508,74.99059295654297,-0.9823333061011281,-0.8722510241844588,-160.51971904320706,4.9070206,-4.1387463,20.740984,34.639793,-22.850111,2.4652581,-18.645555,-1.5361805,-41.53456,38.833996,-13.454931,-12.226058,-12.242751,1.3644818,8.083813,-12.3474655,18.458164,-42.368225,55.26245,-11.457316,0.64477557,-4.4420996,-6.4640017,-24.042356,35.40896,51.18689,17.252787,10.778606,-10.351958
201,6.732842922210693,45.72878646850586,74.97036743164062,-0.7613789539567748,-0.8869629259382114,-160.85035670640664,5.3301883,-4.392607,21.17351,33.027706,-23.42446,3.0069482,-19.968494,-2.2391832,-41.06279,40.854824,-12.175558,-11.185885,-12.206094,0.9467728,8.356871,-12.556517,18.758196,-42.14131,55.342472,-11.506072,0.5722462,-4.357823,-6.696362,-23.775274,35.523663,51.51452,16.971077,10.937572,-10.604748
202,7.078505992889404,46.171566009521484,74.95994567871094,-0.5425600178328993,-0.914745606526209,-161.20477202140688,5.7622447,-4.695686,21.477198,31.310411,-23.831625,3.3020654,-21.350561,-2.952147,-40.48343,42.93311,-10.680217,-9.85902,-12.151357,0.54561466,8.662578,-12.765553,19.03916,-41.85593,55.441532,-11.491806,0.46720845,-4.231346,-6.971396,-23.508318,35.695625,51.883503,16.628567,11.095699,-10.906244
203,7.408865451812744,46.598575592041016,74.95630645751953,-0.3524347740996289,-0.9610936910493316,-161.58899440595076,6.196745,-4.97993,21.752064,29.598011,-24.122795,3.4591887,-22.779278,-3.5241318,-39.60625,44.916046,-9.058177,-8.287142,-12.076728,0.18689494,8.988677,-12.951816,19.299232,-41.5234,55.55752,-11.453273,0.36801574,-4.105154,-7.261892,-23.242071,35.893024,52.267258,16.238731,11.261462,-11.193651
204,7.744570255279541,47.01793670654297,74.96802520751953,-0.21370927886473332,-1.0322192661885552,-162.00967173020956,6.622262,-5.17805,22.096413,28.014002,-24.360353,3.592508,-24.238129,-3.7991824,-38.249287,46.65023,-7.4012675,-6.5052996,-11.98015,-0.10717969,9.32185,-13.098746,19.538185,-41.163357,55.69186,-11.438332,0.31283632,-4.022121,-7.536723,-22.977463,36.080738,52.63721,15.810048,11.442381,-11.404026
205,8.082242012023926,47.432674407958984,74.98294830322266,-0.13604911251556148,-1.1395356343353205,-162.4831123466964,7.0354247,-5.260086,22.547466,26.604712,-24.555735,3.730518,-25.777336,-3.694202,-36.264538,48.17464,-5.6942177,-4.525859,-11.845452,-0.32381845,9.679638,-13.209284,19.753923,-40.76905,55.8484,-11.457817,0.32137802,-4.0157027,-7.798508,-22.714216,36.243946,52.998825,15.302162,11.65795,-11.535178
206,8.393595695495605,47.83077621459961,75.00606536865234,-0.10716376997883832,-1.2773757852279717,-163.00382046639447,7.4323254,-5.2527823,23.05453,25.324728,-24.687193,3.8220143,-27.37076,-3.232704,-33.779774,49.541595,-3.9526072,-2.2693694,-11.674168,-0.4743493,10.062816,-13.294532,19.944727,-40.339104,56.028847,-11.489872,0.36999267,-4.055702,-8.059312,-22.452374,36.402946,53.36239,14.726131,11.897763,-11.614292
207,8.690083503723145,48.23196029663086,75.03462219238281,-0.11257742443614699,-1.4276956479887002,-163.5439339923855,7.800564,-5.1771574,23.58081,24.16345,-24.772232,3.8653734,-28.87558,-2.4530077,-31.03591,50.637215,-2.3212268,0.33471158,-11.491496,-0.57894033,10.433528,-13.340978,20.111626,-39.889126,56.22335,-11.518823,0.43153453,-4.0893636,-8.304775,-22.194826,36.574654,53.709835,14.167441,12.1229725,-11.623809
208,8.979531288146973,48.635189056396484,75.0751953125,-0.13657555938140115,-1.5728716618599896,-164.07413413921043,8.129039,-5.0569077,24.086887,23.107977,-24.826492,3.8588862,-30.154379,-1.4489858,-28.27553,51.36289,-0.94082433,3.309574,-11.320901,-0.6588535,10.757681,-13.335468,20.257294,-39.435883,56.416817,-11.527646,0.47926655,-4.063878,-8.53673,-21.945883,36.784622,54.031837,13.728361,12.294686,-11.547594
209,9.255059242248535,49.03003692626953,75.11714935302734,-0.1764223639604914,-1.7142658785170408,-164.59483617055227,8.411202,-4.8858438,24.568867,22.180714,-24.851208,3.8007166,-31.168207,-0.11798464,-25.330572,51.547672,0.28037423,7.0351706,-11.161476,-0.7185616,11.034253,-13.269541,20.382986,-38.984062,56.601994,-11.488691,0.5039448,-3.93746,-8.808123,-21.709782,37.081764,54.360565,13.511258,12.402862,-11.335356
210,9.518965721130371,49.421356201171875,75.16629028320312,-0.2369990300544114,-1.8635373940433746,-165.1151166703477,8.6578665,-4.6534595,25.040977,21.382515,-24.841211,3.700137,-31.933155,1.5005336,-22.157202,51.337646,1.2691771,11.330694,-11.025076,-0.750309,11.271105,-13.133929,20.48937,-38.508915,56.783714,-11.418527,0.52103764,-3.7490335,-8.989957,-21.485933,37.357994,54.60053,13.328089,12.469353,-11.0114565
211,9.776180267333984,49.819419860839844,75.22565460205078,-0.3133684787038251,-2.0142240356716887,-165.61967020787066,8.8744755,-4.3760386,25.491549,20.677471,-24.797613,3.5692067,-32.44161,2.9899237,-19.308058,51.097958,1.78412,15.000033,-10.8808,-0.75980836,11.495106,-12.982011,20.577501,-38.04229,56.960506,-11.366297,0.5400015,-3.5614748,-9.27697,-21.276539,37.746136,54.908157,13.313525,12.496682,-10.675412
212,10.01413631439209,50.249664306640625,75.29502868652344,-0.5341870938520455,-2.1085680383959184,-166.25220730733272,8.856091,-3.778028,26.06661,20.438946,-24.935331,3.3487642,-32.6744,3.9021542,-18.033012,50.96947,1.9187387,15.000033,-10.602505,-0.6242076,11.66522,-12.811124,20.653847,-37.56602,57.13539,-11.37498,0.56960726,-3.4430387,-9.514325,-21.07495,38.12424,55.175755,13.249507,12.4932375,-10.426379
213,10.23733139038086,50.65848159790039,75.37590789794922,-0.7021615302328689,-2.2254728813877285,-166.78406563561578,8.92148,-3.2917874,26.534136,20.069052,-24.941168,3.152326,-32.881943,4.328058,-17.003551,51.314335,1.4271942,15.000033,-10.401166,-0.5305026,11.820972,-12.617543,20.71681,-37.05697,57.30466,-11.48269,0.61981994,-3.4360905,-9.676603,-20.882936,38.47017,55.392902,13.057555,12.457351,-10.284802
214,10.450493812561035,51.03725814819336,75.46243286132812,-0.7980312660304372,-2.363586371982256,-167.20983365952893,9.078505,-2.9458487,26.887234,19.53455,-24.789093,2.9827914,-33.043842,4.3719635,-16.105642,51.944607,0.46551722,15.000033,-10.278453,-0.49952665,11.966152,-12.40631,20.76365,-36.532417,57.465786,-11.65671,0.68377084,-3.4955904,-9.873444,-20.704727,38.872383,55.63396,12.895707,12.385471,-10.200057
215,10.671751976013184,51.414878845214844,75.55722045898438,-0.8477870185272024,-2.496779415153333,-167.56607503274265,9.276611,-2.6932514,27.171652,18.885775,-24.53212,2.8263838,-33.13652,4.0675316,-15.428287,52.70194,-0.69645256,15.000033,-10.211489,-0.5038739,12.082416,-12.176409,20.796839,-36.02663,57.609978,-11.841974,0.74672365,-3.5558133,-10.064065,-20.539467,39.27688,55.853355,12.774383,12.282755,-10.160118
216,10.879711151123047,51.781982421875,75.65425872802734,-0.8804365093227702,-2.604152134905004,-167.88511898451546,9.470961,-2.4826493,27.42879,18.176435,-24.22474,2.667028,-33.128216,3.4440417,-15.066314,53.435394,-1.8082569,15.000033,-10.170256,-0.51582193,12.161173,-11.933364,20.820713,-35.58287,57.72568,-11.98226,0.7939481,-3.5506017,-10.245589,-20.387098,39.65414,56.034996,12.744338,12.153577,-10.152402
217,11.081949234008789,52.13969802856445,75.75714874267578,-0.8964858058678664,-2.6861380039360707,-168.1550073094277,9.662941,-2.319484,27.645065,17.398989,-23.863794,2.5041652,-32.983566,2.3871126,-15.160661,54.15725,-2.918306,15.000033,-10.163088,-0.5380935,12.2027,-11.671764,20.836866,-35.21661,57.804897,-12.050905,0.8205548,-3.424495,-10.416679,-20.249739,40.008854,56.171356,12.881134,11.972095,-10.184878
218,11.269665718078613,52.4892692565918,75.85617065429688,-0.8899533340091945,-2.756210995697764,-168.36533705694728,9.873554,-2.2140174,27.804977,16.541788,-23.432602,2.3431835,-32.710526,0.91044176,-15.638015,54.91686,-4.140344,15.000033,-10.197262,-0.576936,12.21657,-11.391354,20.844944,-34.90572,57.852722,-12.081463,0.8349747,-3.2256625,-10.575428,-20.128271,40.34832,56.267204,13.135362,11.74504,-10.259066
219,11.46141242980957,52.85145568847656,75.95842742919922,-0.96502257594081,-2.781108928044086,-168.65516761609328,9.943596,-1.9264945,28.052956,15.947403,-23.115324,2.1325116,-32.326042,-0.6878822,-16.526316,55.512794,-5.2401733,14.247314,-10.1556,-0.5258135,12.177752,-11.08903,20.850868,-34.624718,57.880604,-12.108092,0.84140533,-3.0446415,-10.602563,-20.017298,40.552788,56.24153,13.244231,11.527935,-10.354428
220,11.64725399017334,53.24138259887695,76.06037902832031,-1.0405152931150974,-2.7832840150623444,-168.9506392743399,9.994536,-1.6253018,28.320702,15.35615,-22.78115,1.9085076,-31.901943,-2.2990186,-17.512688,55.982388,-6.142749,12.694237,-10.081126,-0.4683224,12.124938,-10.8100395,20.858423,-34.391476,57.8901,-12.169446,0.84519863,-2.9667974,-10.739688,-19.916174,40.795265,56.2816,13.337899,11.368201,-10.450805
221,11.828428268432617,53.62922668457031,76.15866088867188,-1.1127957012956824,-2.7572033278007795,-169.25210457386396,10.043783,-1.3309207,28.619783,14.720695,-22.412647,1.6817375,-31.480764,-3.8496053,-18.359715,56.338524,-6.7990346,11.118374,-9.992303,-0.4018053,12.0365305,-10.527664,20.871122,-34.164986,57.86999,-12.279252,0.8519106,-3.0489597,-10.889848,-19.816975,40.98599,56.32098,13.227066,11.298674,-10.558454
222,12.004288673400879,53.998172760009766,76.2569580078125,-1.1827204449131459,-2.7051739899756275,-169.55073384956845,10.087652,-1.0436338,28.934673,14.050432,-22.009516,1.4503616,-31.028194,-5.44595,-19.224272,56.61344,-7.31108,9.433986,-9.893482,-0.32996798,11.916238,-10.237512,20.89072,-33.958584,57.815876,-12.415075,0.85849184,-3.2332892,-11.070965,-19.718113,41.15064,56.371136,13.012431,11.285258,-10.683605
223,12.170419692993164,54.3795051574707,76.36308288574219,-1.245897884182684,-2.638819635336599,-169.8440957087815,10.113352,-0.76086867,29.243296,13.393857,-21.592415,1.2094746,-30.55053,-7.036129,-20.053255,56.78922,-7.738643,7.739369,-9.807588,-0.26210204,11.770529,-9.93317,20.919243,-33.790028,57.74233,-12.557851,0.85706896,-3.440473,-11.146644,-19.621367,41.192883,56.32567,12.64773,11.287574,-10.801418
224,12.341732025146484,54.770809173583984,76.46148681640625,-1.2985989059856944,-2.5692117424753667,-170.1301990410887,10.113167,-0.48172963,29.523624,12.786278,-21.18061,0.95472676,-30.057745,-8.565518,-20.788225,56.845856,-8.129899,6.1371517,-9.707356,-0.20307873,11.637247,-9.652858,20.95442,-33.715088,57.663685,-12.684831,0.83883905,-3.5878704,-11.257814,-19.540756,41.244114,56.2771,12.405814,11.259888,-10.886844
225,12.517974853515625,55.155147552490234,76.55421447753906,-1.3358948457809166,-2.4964074251458523,-170.40785297316128,10.079481,-0.20703349,29.767975,12.242987,-20.7676,0.6918953,-29.558287,-10.039818,-21.420673,56.78366,-8.448571,4.637337,-9.611789,-0.16150899,11.512097,-9.3789425,21.004053,-33.73635,57.57473,-12.812614,0.79250306,-3.654073,-11.362142,-19.46573,41.265095,56.18761,12.237837,11.18802,-10.920089
226,12.68310260772705,55.55125427246094,76.64360046386719,-1.3613689236828808,-2.4148912547924075,-170.67872150016436,10.0206,0.06378657,29.98777,11.738956,-20.347898,0.42184737,-29.053997,-11.482997,-21.987387,56.615406,-8.678295,3.1873255,-9.50048,-0.1292898,11.394679,-9.123354,21.064127,-33.848656,57.471203,-12.944531,0.7252687,-3.6814704,-11.524056,-19.405815,41.301655,56.1043,12.175382,11.095439,-10.917985
227,12.847894668579102,55.94181442260742,76.73077392578125,-1.3823091509448744,-2.327225188349766,-170.94566340172557,9.937437,0.34239787,30.190018,11.286359,-19.94617,0.13272421,-28.546997,-12.864599,-22.488644,56.337337,-8.887499,1.8018898,-9.387588,-0.08852295,11.276845,-8.8917675,21.108152,-34.008564,57.379604,-13.03491,0.65435797,-3.6887164,-11.66706,-19.378536,41.32475,55.98613,12.158104,10.99804,-10.91396
228,13.011999130249023,56.33515548706055,76.8099136352539,-1.4055762971219243,-2.2360632788323773,-171.21144252762522,9.830026,0.63989294,30.382063,10.898003,-19.587318,-0.18794209,-28.038727,-14.151069,-22.920053,55.944042,-9.142603,0.4995725,-9.250153,-0.05414295,11.161852,-8.668414,21.194595,-34.22156,57.25161,-13.066089,0.6058979,-3.6951783,-11.792954,-19.34527,41.3272,55.87154,12.192432,10.904579,-10.941565
229,13.165725708007812,56.722007751464844,76.88624572753906,-1.4359900423285987,-2.140748678202308,-171.4820868726891,9.698468,0.9623021,30.562634,10.575278,-19.277197,-0.54987943,-27.533442,-15.334979,-23.270864,55.439835,-9.457571,-0.75571513,-9.095719,-0.0040734964,11.056554,-8.470843,21.289822,-34.469482,57.103058,-12.973692,0.5847391,-3.6977293,-11.974882,-19.328295,41.389122,55.79976,12.406618,10.8196125,-11.020215
230,13.31663990020752,57.119197845458984,76.9593276977539,-1.4696491088571648,-2.040005820952123,-171.7549601929475,9.542828,1.3026903,30.729313,10.30986,-19.001059,-0.9443346,-27.034344,-16.430334,-23.54397,54.82585,-9.791503,-1.9578736,-8.931861,0.053827733,10.951105,-8.289115,21.395456,-34.76239,56.93881,-12.794588,0.5793297,-3.689015,-12.144722,-19.327469,41.447914,55.714268,12.707123,10.7364855,-11.128123
231,13.462235450744629,57.5080680847168,77.02552032470703,-1.5010294631314633,-1.934668962917985,-172.02064619259997,9.361008,1.6548617,30.888521,10.1053505,-18.75598,-1.3560424,-26.541058,-17.43511,-23.75132,54.09657,-10.1219015,-3.0228047,-8.757809,0.113559775,10.852459,-8.121015,21.507784,-35.076157,56.769226,-12.604123,0.579584,-3.680992,-12.337872,-19.339483,41.530003,55.65272,13.037483,10.652938,-11.237767
232,13.618328094482422,57.909236907958984,77.08483123779297,-1.5250502767988787,-1.826225547053647,-172.2694570952465,9.155783,2.010848,31.046818,9.956048,-18.536583,-1.7695851,-26.047377,-18.347937,-23.90685,53.238453,-10.421978,-3.8681617,-8.589179,0.16906744,10.7573185,-7.9538503,21.620527,-35.375755,56.611076,-12.479903,0.5747424,-3.686077,-12.526947,-19.35912,41.620777,55.61041,13.27198,10.56768,-11.322652
233,13.76988697052002,58.31036376953125,77.14103698730469,-1.5409769620733373,-1.7101612315178636,-172.49564560037732,8.909802,2.3774,31.204319,9.892154,-18.354904,-2.185919,-25.543633,-19.182245,-24.033096,52.236263,-10.68353,-4.470052,-8.434611,0.22340463,10.65651,-7.7963862,21.710491,-35.65827,56.48927,-12.450311,0.5562748,-3.7028532,-12.72309,-19.377684,41.734432,55.615837,13.384258,10.467237,-11.3832855
234,13.909760475158691,58.69722366333008,77.19066619873047,-1.551218690932592,-1.5873886748598176,-172.70543729891477,8.631836,2.754437,31.35783,9.897619,-18.20674,-2.6116018,-25.032143,-19.93685,-24.115946,51.09862,-10.908103,-4.8767524,-8.276978,0.27041999,10.560571,-7.639357,21.820412,-35.950794,56.3548,-12.48207,0.5348781,-3.7276106,-12.933487,-19.400465,41.865074,55.653732,13.440625,10.35694,-11.430735
235,14.052290916442871,59.094970703125,77.23660278320312,-1.5540735633520113,-1.4671135340665993,-172.9069833232489,8.339943,3.137063,31.508064,9.957133,-18.083143,-3.0402336,-24.529251,-20.59577,-24.110207,49.85859,-11.085978,-5.117766,-8.129578,0.32410875,10.463309,-7.5096173,21.877546,-36.20969,56.29314,-12.503954,0.51226336,-3.762622,-13.159746,-19.414427,42.012722,55.734547,13.450968,10.2623825,-11.459128
236,14.191201210021973,59.496273040771484,77.27583312988281,-1.5473504518506,-1.3578827425626268,-173.10817678349576,8.06218,3.5134218,31.657154,10.027844,-17.965805,-3.4637842,-24.049656,-21.145243,-23.969492,48.54819,-11.208985,-5.226263,-7.952394,0.36183372,10.386728,-7.368142,21.98291,-36.476833,56.20143,-12.515654,0.50746286,-3.811017,-13.368445,-19.44195,42.141956,55.78732,13.459589,10.2104645,-11.462651
237,14.314807891845703,59.89495086669922,77.30945587158203,-1.5325721230177725,-1.2649193136355739,-173.30889558150153,7.807098,3.883799,31.80489,10.105766,-17.856995,-3.8907757,-23.581451,-21.581976,-23.686853,47.154797,-11.265022,-5.195834,-7.7727556,0.40545505,10.328762,-7.2466483,22.051271,-36.696922,56.16662,-12.4446,0.5192006,-3.8826337,-13.597143,-19.46665,42.281364,55.85989,13.442704,10.226307,-11.441731
