unveil-humanoid-operators/unveil-humanoid-operators.github.io/feature-analysis-animation/data/feature_matrix_instances/weight_root_translate_peak_vel_walking_A267_walk_ff_loop_180_R_002__A267.csv
Frame,root_translateX,root_translateY,root_translateZ,root_rotateX,root_rotateY,root_rotateZ,left_hip_pitch_joint_dof,left_hip_roll_joint_dof,left_hip_yaw_joint_dof,left_knee_joint_dof,left_ankle_pitch_joint_dof,left_ankle_roll_joint_dof,right_hip_pitch_joint_dof,right_hip_roll_joint_dof,right_hip_yaw_joint_dof,right_knee_joint_dof,right_ankle_pitch_joint_dof,right_ankle_roll_joint_dof,waist_yaw_joint_dof,waist_roll_joint_dof,waist_pitch_joint_dof,left_shoulder_pitch_joint_dof,left_shoulder_roll_joint_dof,left_shoulder_yaw_joint_dof,left_elbow_joint_dof,left_wrist_roll_joint_dof,left_wrist_pitch_joint_dof,left_wrist_yaw_joint_dof,right_shoulder_pitch_joint_dof,right_shoulder_roll_joint_dof,right_shoulder_yaw_joint_dof,right_elbow_joint_dof,right_wrist_roll_joint_dof,right_wrist_pitch_joint_dof,right_wrist_yaw_joint_dof
0,0.6745677590370178,1.5030484199523926,75.6842041015625,-5.129171671483841,0.9031250304768362,-95.07869860470174,-26.230171,14.584578,23.585526,6.427518,-5.8561587,-8.101984,14.043505,4.9655423,-14.78634,7.5231524,-19.517534,2.7161322,6.3501215,5.687406,11.021375,2.0422175,24.512798,-43.303722,59.82226,13.323487,-1.3918972,-5.8864665,-28.588015,-28.987621,51.33772,50.8116,0.83155626,1.0230093,-5.0361643
1,0.6915957927703857,0.8336949348449707,75.5952377319336,-4.933486383176051,1.0737507632650374,-95.08008245650976,-26.066917,14.131768,23.424887,6.411356,-5.0916076,-7.4535246,14.410102,4.6236362,-14.784427,7.600832,-19.50337,3.0118725,6.1775985,5.289627,11.047474,1.8343129,24.574362,-43.576912,59.944817,13.667081,-1.3297217,-6.1217046,-28.495646,-28.996958,51.13649,50.572487,0.83429134,1.0387993,-5.1338425
2,0.7388260960578918,0.18547439575195312,75.55816650390625,-4.748133531752447,1.2447963035266245,-95.08508900494046,-25.925598,13.700266,23.248842,6.423875,-4.3704042,-6.8308296,14.773461,4.2960668,-14.784714,7.6812935,-19.507994,3.3042152,6.0334845,4.896536,11.059357,1.5955905,24.627295,-43.889484,60.11524,14.004089,-1.2688298,-6.3658457,-28.418303,-28.970327,50.90828,50.386566,0.82597524,1.0488703,-5.231783
3,0.7902212142944336,-0.46724048256874084,75.52555084228516,-4.490176086135263,1.4307067154424231,-95.06093395195067,-25.811615,13.204005,23.10622,6.5240297,-3.643796,-6.1404314,15.125058,3.8770316,-14.826162,7.77832,-19.488989,3.6189256,5.8766365,4.4205823,11.055038,1.3299419,24.685036,-44.241196,60.296074,14.312544,-1.2137642,-6.5863748,-28.31442,-28.89704,50.65192,50.24323,0.79606855,1.0540844,-5.328191
4,0.8323947787284851,-1.1419634819030762,75.47828674316406,-4.149108368535711,1.6110797753076254,-95.02545616099745,-25.62151,12.634405,23.062431,6.595339,-2.7619014,-5.306861,15.123502,3.2491844,-14.909138,8.689977,-19.806532,3.9633796,5.6834435,3.8661473,11.050603,1.0605404,24.735163,-44.592,60.458714,14.58498,-1.173196,-6.7502556,-28.168835,-28.787586,50.42143,50.132465,0.75324315,1.0556655,-5.4143353
5,0.874906063079834,-1.8257474899291992,75.44354248046875,-3.6727812135933795,1.7949666473526025,-94.96484388588439,-25.360786,11.943765,23.157104,6.666128,-1.7037938,-4.1959224,14.691135,2.332881,-15.041546,10.581047,-20.561028,4.3495884,5.4618845,3.1709023,11.043709,0.76041937,24.788815,-44.991135,60.61393,14.810579,-1.1493183,-6.8444414,-27.962866,-28.624437,50.176186,50.056847,0.6744963,1.0564774,-5.487769
6,0.9229995012283325,-2.5115180015563965,75.43477630615234,-3.088496378860046,1.9748439500625417,-94.90002590190977,-25.04184,11.167928,23.37641,6.740967,-0.52495134,-2.8846416,14.2480755,1.2744535,-15.169033,12.53959,-21.2912,4.7649817,5.223999,2.3660932,11.0402975,0.44604763,24.843033,-45.411537,60.758568,15.004938,-1.1375477,-6.8888416,-27.720568,-28.426691,49.936817,50.00304,0.57594,1.0575552,-5.551378
7,0.9860734343528748,-3.209111213684082,75.43254852294922,-2.45938576621354,2.1256995219759665,-94.87583517989435,-24.652624,10.386602,23.693857,6.814647,0.7204207,-1.6058074,13.823651,0.14315103,-15.239036,14.540015,-21.939014,5.196187,5.0182614,1.5214474,11.0385895,0.1408947,24.897877,-45.82688,60.877426,15.158653,-1.1323208,-6.8988647,-27.432741,-28.200043,49.714817,49.98635,0.47430217,1.0494215,-5.6053543
8,1.06977117061615,-3.9371025562286377,75.42465209960938,-1.8492693229321906,2.228628222057355,-94.92771644824873,-24.884909,9.988464,23.944128,8.476282,1.1438818,-0.605244,13.435937,-0.9890701,-15.212053,16.565914,-22.449093,5.6296535,4.876531,0.70886177,11.035757,-0.12987365,24.950312,-46.20365,60.956,15.262337,-1.1286342,-6.8896384,-27.097372,-27.952665,49.53282,50.022602,0.38984936,1.0230435,-5.6509533
9,1.1578235626220703,-4.687015533447266,75.40431213378906,-1.2598098883020148,2.2767574061908133,-95.09164713056838,-24.957209,9.653084,24.292149,9.980432,1.7657268,-0.03137845,13.118111,-2.1151555,-15.059099,18.562305,-22.834915,6.088361,4.8295107,-0.06804673,11.02959,-0.35126534,24.996702,-46.533516,60.98308,15.297927,-1.1239402,-6.8598604,-26.70194,-27.691032,49.391132,50.102497,0.3242865,0.97027344,-5.6931577
10,1.2539222240447998,-5.452014923095703,75.39071655273438,-0.6583090735758951,2.287242829260165,-95.33362175213225,-24.799314,9.293691,24.750694,11.139201,2.6765475,0.27777192,12.841752,-3.2691262,-14.815275,20.55925,-23.120443,6.5733137,4.8476,-0.84556544,11.022086,-0.54130983,25.036638,-46.83259,60.971817,15.2786255,-1.1216472,-6.8029876,-26.246748,-27.417898,49.278393,50.212578,0.26898536,0.8984553,-5.7301283
11,1.3548731803894043,-6.209038734436035,75.39165496826172,-0.05851033829879697,2.279208504810231,-95.58212833379822,-24.560703,8.930481,25.227804,12.208043,3.526919,0.5553716,12.539198,-4.436819,-14.540471,22.649523,-23.257442,7.0383024,4.867945,-1.61143,11.013068,-0.72946,25.07198,-47.113644,60.94684,15.231885,-1.1254671,-6.72584,-25.750706,-27.135393,49.20175,50.365593,0.2286394,0.82137465,-5.752655
12,1.461249828338623,-6.963253021240234,75.4046630859375,0.5206498661102502,2.2672027542886983,-95.77064263933973,-24.373129,8.585691,25.643963,13.408311,3.985431,1.0262322,12.154958,-5.595734,-14.286391,24.909306,-23.188128,7.4360332,4.8333254,-2.3472488,11.0022,-0.93849283,25.105743,-47.38081,60.92712,15.193038,-1.1389109,-6.6357746,-25.23179,-26.844051,49.166878,50.572697,0.20832264,0.75295734,-5.7514706
13,1.571718454360962,-7.716881275177002,75.42194366455078,1.0800707811135244,2.2681704664305213,-95.88149758585172,-24.307203,8.272555,25.982885,14.846061,3.9448507,1.7891946,11.702088,-6.733719,-14.073505,27.303871,-22.919765,7.7864656,4.7289286,-3.0618289,10.965969,-1.1701428,25.141453,-47.643658,60.922462,15.170013,-1.1647488,-6.5221987,-24.67668,-26.542355,49.170414,50.829643,0.22353329,0.6906546,-5.7356367
14,1.6817291975021362,-8.473281860351562,75.45063781738281,1.6185283587005408,2.268002449771104,-95.95030887421147,-24.290588,7.9677157,26.27583,16.385635,3.6029058,2.697215,11.207807,-7.849771,-13.869223,29.798737,-22.466633,8.104637,4.58585,-3.7513368,10.909641,-1.4088691,25.17966,-47.89328,60.915504,15.148206,-1.2001178,-6.3858976,-24.080252,-26.23049,49.208897,51.131813,0.26549378,0.6291056,-5.7062035
15,1.793813705444336,-9.23526668548584,75.48576354980469,2.1185381489668793,2.234683237689881,-95.99130206581692,-24.210333,7.6318736,26.52381,17.828762,3.0973022,3.6136496,10.647423,-8.939567,-13.644575,32.44797,-21.778015,8.340856,4.414817,-4.3834443,10.874586,-1.6634021,25.219254,-48.12373,60.892887,15.109133,-1.2409451,-6.250811,-23.489006,-25.913939,49.30567,51.50168,0.31778204,0.5775629,-5.641953
16,1.914170742034912,-10.005560874938965,75.52922821044922,2.570227117767937,2.1393318303017077,-96.01733066672826,-23.956978,7.237281,26.728836,19.003658,2.5363095,4.412489,9.993488,-10.006273,-13.373537,35.305927,-20.798979,8.452163,4.2210107,-4.9328027,10.8988495,-1.9380381,25.25713,-48.323734,60.84087,15.0369215,-1.2834014,-6.1411223,-22.905466,-25.599419,49.43946,51.93326,0.31231892,0.5461862,-5.521671
17,2.0446529388427734,-10.763833045959473,75.58509063720703,2.969093892000041,1.9620593830481228,-96.00191728125736,-23.50377,6.779196,26.844866,19.911184,1.8502679,5.0915613,9.250687,-11.046688,-13.080236,38.426537,-19.42559,8.451063,3.9872963,-5.3917685,11.007047,-2.2478201,25.291456,-48.502197,60.764748,14.902759,-1.3348349,-6.0575414,-22.33869,-25.294106,49.623882,52.448456,0.2910289,0.52720875,-5.3512816
18,2.1867547035217285,-11.512502670288086,75.65990447998047,3.3254425236529426,1.7258858167828746,-95.94465132007566,-22.914444,6.284506,26.870415,20.655495,0.98694766,5.7111936,8.431578,-12.053184,-12.777657,41.75139,-17.702791,8.376796,3.7139797,-5.779732,11.16935,-2.583047,25.320972,-48.65519,60.669548,14.730798,-1.3946273,-5.989344,-21.761803,-25.001495,49.842857,53.025993,0.25055444,0.5192209,-5.1384716
19,2.3354508876800537,-12.261359214782715,75.74991607666016,3.652066268455224,1.466947905880673,-95.89659098748889,-22.21416,5.779725,26.8784,21.227243,0.07266023,6.241815,7.513461,-13.029849,-12.420727,45.17813,-15.8029585,8.218225,3.4400945,-6.114225,11.349458,-2.9405532,25.345161,-48.790806,60.556377,14.552276,-1.4472251,-5.942118,-21.191177,-24.72454,50.10304,53.63393,0.14671654,0.5401189,-4.865663
20,2.4948153495788574,-13.01086711883545,75.84327697753906,3.962937834989086,1.221051785246467,-95.90904656349488,-21.42866,5.2804847,26.950445,21.607622,-0.7559046,6.6574326,6.46675,-13.992349,-11.959923,48.620705,-13.9055195,7.942993,3.204061,-6.411675,11.512,-3.3097801,25.363478,-48.90508,60.421898,14.41029,-1.4769382,-5.9213367,-20.647781,-24.46669,50.41509,54.24549,-0.06313387,0.60695565,-4.514522
21,2.660219669342041,-13.758280754089355,75.94662475585938,4.266963199335994,0.9870578542691321,-95.99466366442103,-20.529747,4.760509,27.117805,21.739872,-1.4635507,6.93909,5.2447357,-14.964501,-11.3176,52.167095,-12.023624,7.4930673,3.0128486,-6.670761,11.658179,-3.6854136,25.372663,-48.99998,60.261074,14.315292,-1.4721085,-5.937249,-20.131208,-24.233013,50.79224,54.874546,-0.43964157,0.7293281,-4.0649667
22,2.827627658843994,-14.513797760009766,76.05294799804688,4.554936265830269,0.7500837808253744,-96.12505100538816,-19.51402,4.218046,27.332989,21.644686,-2.1166515,7.101714,3.866068,-15.938725,-10.542865,55.832638,-10.070535,6.884174,2.8457263,-6.8821936,11.804854,-4.0744367,25.371103,-49.074387,60.079254,14.248527,-1.4436586,-5.9837275,-19.627466,-24.026272,51.223442,55.523766,-0.943411,0.8932046,-3.5305097
23,2.9897515773773193,-15.251825332641602,76.16014862060547,4.817407648047005,0.5244515007716657,-96.29151639817609,-18.453047,3.6965652,27.570995,21.433111,-2.73419,7.1767178,2.3839304,-16.903667,-9.767493,59.45975,-8.095241,6.1682644,2.7003675,-7.052694,11.941536,-4.4885845,25.363712,-49.130222,59.889473,14.1951475,-1.4094224,-6.0412345,-19.14106,-23.845064,51.685463,56.15387,-1.4695526,1.0809877,-2.943221
24,3.1519062519073486,-15.980185508728027,76.259765625,5.040209479727774,0.3237994112547422,-96.48303722696349,-17.416569,3.2378078,27.80753,21.209707,-3.3326468,7.199654,0.8587642,-17.859787,-9.12744,62.888535,-6.152028,5.386369,2.5720696,-7.187387,12.058334,-4.938496,25.3606,-49.170315,59.699436,14.138255,-1.3870828,-6.0909805,-18.681564,-23.684895,52.158142,56.72792,-1.9109744,1.2776668,-2.3358464
25,3.3073642253875732,-16.70361328125,76.35700988769531,5.226589383829381,0.14769864635286709,-96.71884792913428,-16.399576,2.8431666,28.068933,20.971209,-3.9135773,7.164443,-0.7617854,-18.816582,-8.568306,66.18522,-4.1286035,4.4674015,2.4780319,-7.2887197,12.161092,-5.4238534,25.36985,-49.185173,59.493828,14.100375,-1.3800627,-6.1463294,-18.260067,-23.541859,52.65069,57.237965,-2.250125,1.5055434,-1.6923898
26,3.4565680027008057,-17.417530059814453,76.4578857421875,5.383744852413416,-0.011342066553450695,-96.99427470736363,-15.369421,2.4771066,28.364645,20.658,-4.4607115,7.0641003,-2.494247,-19.817835,-8.057376,69.417145,-2.0503778,3.3620486,2.4103322,-7.3578773,12.255317,-5.9335494,25.39523,-49.1733,59.261627,14.081721,-1.3788404,-6.2123036,-17.871346,-23.414062,53.168056,57.705444,-2.544912,1.7645439,-1.0034037
27,3.587801456451416,-18.12191390991211,76.55697631835938,5.509427189954639,-0.15155117004987392,-97.25840266396666,-14.36118,2.1317446,28.64089,20.305777,-4.9721923,6.934258,-4.223445,-20.922703,-7.759938,72.4497,-0.19395967,2.1442716,2.3238616,-7.3967376,12.3313055,-6.462029,25.441183,-49.151505,59.015244,14.031718,-1.38179,-6.257506,-17.504852,-23.299107,53.68943,58.13821,-2.7935,2.0084333,-0.31239074
28,3.7023417949676514,-18.809171676635742,76.65006256103516,5.596730956193599,-0.2708743758244466,-97.46707510275401,-13.394827,1.8077627,28.845503,19.939117,-5.447229,6.805112,-5.8155956,-22.176168,-7.8276653,75.133514,1.1623673,0.9100026,2.1993966,-7.399874,12.382822,-7.0243697,25.496546,-49.156796,58.78529,13.899895,-1.387164,-6.249432,-17.124847,-23.21998,54.165714,58.51334,-3.0009217,2.1927907,0.3385975
29,3.815342426300049,-19.500871658325195,76.74349212646484,5.63753006059492,-0.3585085738324764,-97.61225850603977,-12.487067,1.5154103,28.967749,19.562515,-5.8792953,6.6796594,-7.2227974,-23.69174,-8.4124155,77.46053,1.9805992,-0.31947243,1.9846102,-7.3706837,12.390904,-7.5755453,25.599092,-49.147877,58.526752,13.652168,-1.3885204,-6.1823053,-16.786772,-23.11856,54.6662,58.889656,-3.1364062,2.304592,0.96079934
30,3.918748617172241,-20.2010555267334,76.84090423583984,5.638413762767146,-0.42303198582336804,-97.71395754225088,-11.616477,1.2510198,29.03414,19.163475,-6.272922,6.544088,-8.482093,-25.427917,-9.396336,79.5211,2.3589253,-1.5937803,1.7341561,-7.310719,12.373862,-8.152321,25.733315,-49.16011,58.25737,13.315196,-1.3890258,-6.0722804,-16.462107,-23.02309,55.148342,59.23218,-3.2183597,2.3702333,1.5711432
31,4.01775598526001,-20.884279251098633,76.93833923339844,5.606340618834527,-0.4884162834285569,-97.77078652860638,-10.757946,1.0074053,29.045097,18.753124,-6.6449594,6.400779,-9.600918,-27.15423,-10.519895,81.316475,2.2354758,-2.8716369,1.440563,-7.2212224,12.350395,-8.72677,25.89748,-49.160618,57.968933,12.957635,-1.4002072,-5.925729,-16.14684,-22.933016,55.595272,59.550613,-3.2797163,2.3990424,2.1221256
32,4.104110240936279,-21.560321807861328,77.02831268310547,5.54476644726483,-0.573477747623217,-97.78678144011047,-9.895143,0.7866512,29.003885,18.351587,-7.0160017,6.250431,-10.625741,-28.602512,-11.509757,82.83716,1.5759351,-4.0838943,1.1092091,-7.1012325,12.336106,-9.278713,26.087381,-49.125267,57.6594,12.647979,-1.4332147,-5.7489843,-15.833429,-22.849768,55.98183,59.855274,-3.3542414,2.3990142,2.566622
33,4.183441638946533,-22.238710403442383,77.11221313476562,5.435627300397999,-0.6726418829137806,-97.76086285178435,-9.0493,0.61866796,28.903938,17.99624,-7.4057713,6.087359,-11.567577,-29.658535,-12.339117,84.04751,0.1146823,-5.2180843,0.7370996,-6.9322343,12.321222,-9.811562,26.301273,-49.062134,57.336376,12.386377,-1.4993935,-5.5354557,-15.520624,-22.77527,56.31632,60.148617,-3.448481,2.356936,2.900704
34,4.26267671585083,-22.91044807434082,77.19560241699219,5.274649131507681,-0.772252943498088,-97.6993504196679,-8.237645,0.51578677,28.75188,17.694351,-7.8122497,5.9100184,-12.429263,-30.39168,-13.117684,84.956245,-2.0155435,-6.226938,0.33124164,-6.7118154,12.297494,-10.331762,26.538523,-48.975132,56.999638,12.148718,-1.5903513,-5.2844973,-15.212609,-22.709953,56.60964,60.42353,-3.5414457,2.274116,3.1462765
35,4.341383934020996,-23.589038848876953,77.27649688720703,5.091146534293815,-0.87887823748656,-97.61632902082934,-7.431674,0.4438416,28.572617,17.407505,-8.216713,5.72671,-13.269179,-30.839703,-13.783197,85.615265,-4.233469,-7.022896,-0.09105449,-6.468256,12.28197,-10.841385,26.79667,-48.85889,56.648705,11.939665,-1.6877224,-5.0105343,-14.904047,-22.653378,56.8309,60.6743,-3.6388829,2.1799586,3.2954206
36,4.4135308265686035,-24.270748138427734,77.35677337646484,4.913926215160283,-1.002204732914198,-97.52264746505773,-6.5929494,0.35973012,28.387854,17.078676,-8.595302,5.546869,-14.136172,-31.083414,-14.296897,86.08323,-5.9642787,-7.558539,-0.5137919,-6.2330055,12.293126,-11.338773,27.071293,-48.70141,56.28175,11.7719345,-1.7728245,-4.727961,-14.590439,-22.605812,56.950123,60.896896,-3.7443945,2.1037092,3.340256
37,4.478869915008545,-24.940773010253906,77.43467712402344,4.7483014291187295,-1.1540134630405903,-97.41135528739599,-5.705945,0.25269806,28.193865,16.697628,-8.939657,5.3747044,-15.035763,-31.131433,-14.648504,86.36039,-7.0539594,-7.785956,-0.94390094,-6.012397,12.343982,-11.8304825,27.359621,-48.502575,55.90595,11.658043,-1.8439697,-4.4316134,-14.271542,-22.567959,56.96186,61.0877,-3.873964,2.0541341,3.2548845
38,4.5473504066467285,-25.60914421081543,77.5076904296875,4.5825103015020066,-1.3275406547296482,-97.27861668229633,-4.786608,0.13890888,27.982279,16.283043,-9.259723,5.2054973,-15.948973,-30.974257,-14.876158,86.42141,-7.8005347,-7.7666206,-1.3861136,-5.7947574,12.423171,-12.316771,27.660192,-48.267605,55.52461,11.59073,-1.9097067,-4.116432,-13.946088,-22.540497,56.877842,61.24756,-4.0233636,2.0160317,3.051323
39,4.614891052246094,-26.279354095458984,77.57363891601562,4.421376320006294,-1.5050393473818842,-97.14005442608541,-3.851123,0.019984374,27.765787,15.837553,-9.558685,5.035074,-16.876867,-30.674057,-15.024196,86.28891,-8.318654,-7.6291227,-1.8224466,-5.5836864,12.512661,-12.794371,27.970541,-48.00254,55.135246,11.541821,-1.9669354,-3.7966266,-13.60965,-22.523216,56.698685,61.37794,-4.15947,1.9823208,2.7788193
40,4.676570892333984,-26.944578170776367,77.63411712646484,4.266850688062105,-1.6685217050175412,-97.01151342408876,-2.918155,-0.10019096,27.556654,15.369186,-9.842391,4.8584666,-17.81915,-30.284668,-15.134996,85.98223,-8.72083,-7.4981947,-2.233177,-5.3813777,12.5939455,-13.258223,28.28721,-47.710197,54.73549,11.488187,-2.01282,-3.4864182,-13.264595,-22.51627,56.43501,61.484978,-4.237532,1.9449635,2.4866016
41,4.730114936828613,-27.613962173461914,77.68913269042969,4.118906541573927,-1.820331499686717,-96.89500706496965,-1.9838331,-0.21983325,27.35247,14.875605,-10.110873,4.6732397,-18.788958,-29.795933,-15.190891,85.51165,-8.975295,-7.429624,-2.6169894,-5.185379,12.6681795,-13.708345,28.607712,-47.385693,54.327644,11.440832,-2.0444953,-3.1801584,-12.903196,-22.519094,56.058506,61.566372,-4.2574286,1.9028311,2.168863
42,4.782732009887695,-28.279191970825195,77.73572540283203,3.974545003696309,-1.968293286956028,-96.78267691268388,-1.0408597,-0.34109905,27.14836,14.354324,-10.361629,4.4816895,-19.778461,-29.189253,-15.180805,84.86316,-9.04381,-7.35252,-2.98145,-4.995504,12.743096,-14.148531,28.93043,-47.028854,53.91642,11.40908,-2.0640926,-2.8730917,-12.525651,-22.531504,55.573654,61.618507,-4.2370315,1.8593185,1.8057047
43,4.82772159576416,-28.943098068237305,77.77340698242188,3.8414652287140947,-2.101941800093135,-96.67535836796792,-0.100572884,-0.46735668,26.952536,13.807129,-10.593276,4.2861376,-20.756308,-28.513432,-15.149199,84.02368,-9.031556,-7.1954417,-3.3246658,-4.815113,12.808432,-14.58059,29.253443,-46.65301,53.504105,11.358661,-2.0770352,-2.5807452,-12.136806,-22.553757,55.0245,61.642616,-4.181152,1.8132311,1.4254937
44,4.873986721038818,-29.606590270996094,77.80523681640625,3.718173545262838,-2.2112246956395922,-96.57349494475143,0.8184668,-0.5987936,26.773184,13.250887,-10.812309,4.088848,-21.690462,-27.818766,-15.142278,82.97852,-9.045435,-6.889475,-3.645943,-4.6466146,12.853895,-15.012425,29.575264,-46.278824,53.097084,11.24676,-2.0893688,-2.318339,-11.743965,-22.585682,54.459347,61.641335,-4.0909615,1.7635326,1.0562575
45,4.91583776473999,-30.268203735351562,77.82225036621094,3.6084301783279873,-2.2957196693396065,-96.47834275413159,1.7202183,-0.7345708,26.613773,12.6777315,-11.014349,3.8868213,-22.578392,-27.087116,-15.151519,81.711205,-9.111407,-6.376334,-3.9447312,-4.4880724,12.8762045,-15.439121,29.894238,-45.896175,52.696926,11.073028,-2.0998192,-2.0903497,-11.343999,-22.626759,53.869564,61.612034,-3.971905,1.710383,0.690071
46,4.950617790222168,-30.940738677978516,77.83497619628906,3.5061395357656937,-2.360529031205298,-96.38826099646225,2.608026,-0.8733298,26.468342,12.091138,-11.200215,3.679396,-23.42885,-26.308062,-15.16004,80.22884,-9.176966,-5.711574,-4.2228007,-4.337335,12.8806925,-15.860983,30.209423,-45.50059,52.303402,10.854934,-2.106639,-1.8882307,-10.935428,-22.675922,53.23915,61.554596,-3.8188255,1.6536385,0.3171551
47,4.9763665199279785,-31.597400665283203,77.83787536621094,3.4178521888470907,-2.4026902804895465,-96.29984855676848,3.4806628,-1.0230993,26.330473,11.4833765,-11.370071,3.4738116,-24.233053,-25.53391,-15.199626,78.55511,-9.227464,-4.994791,-4.483451,-4.196955,12.868259,-16.2819,30.519924,-45.105953,51.91472,10.591464,-2.1147492,-1.7081244,-10.523266,-22.733038,52.59378,61.478603,-3.6322668,1.5916728,-0.036614783
48,5.004942417144775,-32.25828552246094,77.83170318603516,3.3456876524643584,-2.419203388396685,-96.21042590962075,4.3411674,-1.1936789,26.193594,10.836695,-11.517318,3.2778587,-24.982813,-24.812294,-15.302058,76.71103,-9.244975,-4.322474,-4.729102,-4.0688562,12.839848,-16.701513,30.824013,-44.720665,51.525898,10.287779,-2.1290045,-1.5463872,-10.120811,-22.79815,51.972355,61.397614,-3.3976169,1.522632,-0.34554482
49,5.033202648162842,-32.924072265625,77.8156967163086,3.2924695824120764,-2.407369709691765,-96.12064906260123,5.1900215,-1.3909348,26.058054,10.143041,-11.638636,3.1036303,-25.68372,-24.14341,-15.464686,74.68855,-9.227126,-3.6895206,-4.961171,-3.954387,12.791813,-17.121586,31.121044,-44.34512,51.136272,9.904224,-2.1503654,-1.4064852,-9.726504,-22.871067,51.36538,61.309483,-3.0884647,1.4412965,-0.6075519
50,5.059823036193848,-33.596290588378906,77.79320526123047,3.2547464013970075,-2.3688878760216707,-96.03097967725678,6.024179,-1.6060218,25.925283,9.41503,-11.738694,2.9444134,-26.335033,-23.501768,-15.6740675,72.47578,-9.180796,-3.0530703,-5.1784463,-3.8492446,12.723889,-17.541006,31.410614,-43.974133,50.749256,9.453086,-2.1765254,-1.2888576,-9.335121,-22.951351,50.759228,61.209885,-2.7191312,1.3497833,-0.8343249
51,5.06898307800293,-34.260963439941406,77.76106262207031,3.223100663307703,-2.306564514094004,-95.93833089040281,6.836555,-1.8253806,25.79032,8.677109,-11.83089,2.7793152,-26.923199,-22.894913,-15.945934,70.09094,-9.102271,-2.451091,-5.3812513,-3.747252,12.641054,-17.95728,31.691345,-43.608322,50.367794,9.015426,-2.2073267,-1.1849768,-8.954103,-23.038237,50.184925,61.110046,-2.340512,1.2581874,-1.0213273
52,5.079532623291016,-34.920387268066406,77.72014617919922,3.1926169092904946,-2.2228393342262414,-95.83988310628375,7.621747,-2.036203,25.649418,7.9482803,-11.924934,2.5865276,-27.436152,-22.32714,-16.294876,67.55089,-8.985848,-1.9168907,-5.571752,-3.6430318,12.547478,-18.36296,31.960913,-43.242363,49.99282,8.67668,-2.2424095,-1.0865272,-8.588754,-23.13004,49.66921,61.021774,-2.0108485,1.1773334,-1.1641777
53,5.093831539154053,-35.58632278442383,77.6705093383789,3.156995070813919,-2.1147876550947444,-95.73499622738656,8.343698,-2.2180977,25.504265,7.304433,-12.060839,2.3532324,-27.871534,-21.803328,-16.74361,64.84471,-8.818609,-1.450317,-5.7502007,-3.5324907,12.44241,-18.761858,32.21773,-42.87294,49.630978,8.469291,-2.2863185,-0.99767864,-8.2472315,-23.22563,49.214317,60.950172,-1.7112064,1.1030978,-1.2483226
54,5.095538139343262,-36.24925994873047,77.61309051513672,3.1223063274351333,-1.981175683069517,-95.62471561190154,8.786385,-2.2679832,25.364864,7.2497263,-12.502056,2.0867953,-28.235119,-21.309408,-17.279339,61.962906,-8.603595,-1.0287935,-5.9165564,-3.4189181,12.322364,-19.150093,32.460716,-42.49491,49.278202,8.352908,-2.3371968,-0.920663,-7.9273963,-23.324528,48.809677,60.893593,-1.4214631,1.0327213,-1.2808053
55,5.088962078094482,-36.916969299316406,77.55000305175781,3.09352759407464,-1.8282033141185718,-95.50928253710899,9.208332,-2.316825,25.222567,7.194609,-12.939207,1.8081257,-28.528673,-20.821878,-17.862162,58.921635,-8.359889,-0.6532974,-6.072722,-3.307273,12.188844,-19.52429,32.689323,-42.11777,48.929165,8.284775,-2.3858812,-0.8435499,-7.6222944,-23.424303,48.468666,60.852467,-1.190141,0.979078,-1.2906898
56,5.082430839538574,-37.58067321777344,77.47590637207031,3.0759488542446305,-1.6623231651493586,-95.38872028954174,9.616189,-2.3698761,25.076538,7.1428633,-13.373834,1.5328702,-28.753664,-20.322535,-18.450506,55.73647,-8.109214,-0.32731706,-6.220105,-3.204944,12.0431385,-19.873466,32.90227,-41.74178,48.57371,8.2323475,-2.4229734,-0.75458246,-7.3290486,-23.521147,48.208748,60.83195,-1.0619429,0.95440257,-1.307313
57,5.064872741699219,-38.24544143676758,77.3893051147461,3.0700878366507744,-1.4834016352130248,-95.26264371395295,10.008603,-2.4259608,24.925753,7.0963073,-13.809907,1.2610408,-28.899385,-19.817074,-19.064117,52.381157,-7.8494163,-0.08598106,-6.360021,-3.1118426,11.882514,-20.18869,33.097874,-41.355804,48.202152,8.215999,-2.4417932,-0.65734226,-7.053688,-23.611525,48.05251,60.839806,-1.0702547,0.9725877,-1.3482759
58,5.044060707092285,-38.91596984863281,77.29658508300781,3.075426909067715,-1.2892537224984468,-95.13153642590525,10.3835535,-2.484981,24.771494,7.0539265,-14.246467,0.985792,-28.967226,-19.305592,-19.713388,48.84802,-7.5688457,0.08806987,-6.4932923,-3.0272346,11.70601,-20.480103,33.276546,-40.964626,47.826267,8.2406845,-2.4487228,-0.555717,-6.8007936,-23.693676,47.986538,60.87982,-1.1860633,1.0234303,-1.3952872
59,5.015958309173584,-39.585636138916016,77.19501495361328,3.0930129827641712,-1.0834632266334008,-94.99575619915713,10.745201,-2.5496483,24.615698,7.0148025,-14.677951,0.71317863,-28.97676,-18.765617,-20.344076,45.179165,-7.269175,0.2639095,-6.6174207,-2.9543068,11.519506,-20.746431,33.437977,-40.5723,47.45376,8.273557,-2.4536664,-0.43867663,-6.566079,-23.766119,47.979385,60.948254,-1.3494087,1.0826799,-1.4237113
60,4.982165813446045,-40.25484085083008,77.08228302001953,3.1286775908457467,-0.8706821147212042,-94.85512190543261,11.098845,-2.6273413,24.458565,6.980744,-15.09624,0.44762886,-28.94413,-18.183842,-20.898193,41.407413,-6.947922,0.50652224,-6.7294617,-2.9014404,11.329133,-20.994097,33.58205,-40.19081,47.097267,8.275225,-2.4664958,-0.29494768,-6.34938,-23.828766,48.0051,61.04413,-1.4942801,1.1258923,-1.4088511
61,4.9412522315979,-40.9233283996582,76.95726013183594,3.1948217187647963,-0.6515707538406789,-94.70961072283579,11.446842,-2.7333927,24.299871,6.9474506,-15.507096,0.1963452,-28.852255,-17.557081,-21.37018,37.454952,-6.576446,0.8355669,-6.8271623,-2.88298,11.129533,-21.211746,33.70672,-39.808846,46.753296,8.255429,-2.489805,-0.11441181,-6.1385217,-23.881369,48.056347,61.167877,-1.6268538,1.1387621,-1.3370016
62,4.898190975189209,-41.60348892211914,76.8267822265625,3.2884358969904572,-0.42760711359550996,-94.55470734547922,11.790611,-2.8643591,24.13442,6.9163704,-15.912753,-0.045222238,-28.677214,-16.899435,-21.788692,33.2883,-6.144784,1.2087325,-6.915381,-2.895853,10.922113,-21.40983,33.811554,-39.434006,46.42419,8.221926,-2.5185404,0.09476092,-5.944602,-23.924938,48.1562,61.325436,-1.763707,1.1364073,-1.2238753
63,4.8481245040893555,-42.28201675415039,76.69459533691406,3.397242057823905,-0.2065132648360511,-94.38183524244097,12.132765,-3.0020988,23.953789,6.8934355,-16.298796,-0.285672,-28.41797,-16.227295,-22.14978,28.995556,-5.6713533,1.5983618,-7.004522,-2.925087,10.723481,-21.589802,33.896236,-39.067974,46.105587,8.168803,-2.5505495,0.31503573,-5.769369,-23.959206,48.281326,61.49952,-1.8988398,1.1395177,-1.0881995
64,4.792596817016602,-42.95695495605469,76.5584945678711,3.510737501103812,0.0025234765982711394,-94.18074428689276,12.477227,-3.1321058,23.747557,6.8848953,-16.652098,-0.53245914,-28.07319,-15.556564,-22.451939,24.667366,-5.1730657,1.9822085,-7.1051755,-2.9589832,10.551268,-21.753695,33.960392,-38.71386,45.79348,8.090801,-2.5839982,0.52891123,-5.614853,-23.983873,48.408096,61.673107,-2.024679,1.1687644,-0.9484372
65,4.736266613006592,-43.63178253173828,76.41754150390625,3.6363561872340973,0.19620767152201302,-93.93854527752922,12.824169,-3.264788,23.503916,6.892934,-16.9756,-0.78425235,-27.614677,-14.870913,-22.657162,20.181627,-4.640581,2.349803,-7.20313,-3.0100496,10.409447,-21.954088,33.98619,-38.421368,45.522892,7.966583,-2.617675,0.73826313,-5.4651504,-23.993769,48.507668,61.84106,-2.1483061,1.2345898,-0.8083429
66,4.676568984985352,-44.32044219970703,76.27489471435547,3.8057857312277186,0.35618495219336954,-93.63389375558133,13.1941805,-3.437265,23.19736,6.91146,-17.274199,-1.0310104,-26.991667,-14.210455,-22.793026,15.464032,-4.030602,2.7208257,-7.36359,-3.1065981,10.307163,-22.110363,34.000763,-38.100666,45.237553,7.8296494,-2.65349,0.9430187,-5.3524356,-23.99914,48.648273,62.017685,-2.2538795,1.3257927,-0.65772474
67,4.609491348266602,-44.99972915649414,76.12403869628906,4.043505862853037,0.45275639985449184,-93.24557611893083,13.622687,-3.6735547,22.798319,6.934526,-17.54106,-1.2676283,-26.16701,-13.65225,-22.966646,10.656264,-3.3029397,3.131578,-7.5898423,-3.2804487,10.255875,-22.2496,34.004448,-37.808876,44.96423,7.665403,-2.6930146,1.1406851,-5.2431517,-23.997412,48.788055,62.185844,-2.3502991,1.4274739,-0.4942406
68,4.532125949859619,-45.686988830566406,75.97134399414062,4.345200825309697,0.47907955032442273,-92.78384592143478,14.1216545,-3.9637647,22.310623,6.960303,-17.769905,-1.4954665,-25.641739,-13.421872,-23.164127,7.0333433,-3.0082777,3.6273608,-7.8749022,-3.5271401,10.25311,-22.361,33.99989,-37.554226,44.705307,7.4809103,-2.7383518,1.3281718,-5.1299624,-23.988693,48.916138,62.343456,-2.435422,1.5247426,-0.3163997
69,4.451382160186768,-46.38174057006836,75.81011962890625,4.6824447392509585,0.4536970139993235,-92.26904702658418,14.672094,-4.2707214,21.760107,6.99257,-17.956533,-1.7208608,-26.454113,-13.90483,-23.26186,6.829238,-4.353939,4.2472024,-8.173829,-3.8240798,10.291199,-22.475454,33.991005,-37.37736,44.46462,7.255748,-2.7879393,1.5076971,-4.993864,-23.977108,49.003757,62.469288,-2.5069604,1.6215553,-0.11277497
70,4.363645076751709,-47.081398010253906,75.64537811279297,5.027286269353344,0.40343426454653264,-91.73018892507443,15.2488985,-4.5662093,21.179485,7.0256443,-18.104052,-1.9500858,-27.14184,-14.388047,-23.529377,6.627116,-5.570107,4.9622364,-8.5097885,-4.1239963,10.35124,-22.537127,33.972862,-37.186462,44.21989,7.014881,-2.8436775,1.6774741,-4.8923354,-23.953653,49.119225,62.610073,-2.558836,1.7229986,0.110098526
71,4.267277717590332,-47.78696060180664,75.48821258544922,5.317043134310485,0.3800192092099539,-91.25642117765527,15.808031,-4.7843647,20.65826,7.070014,-18.224897,-2.203617,-27.756943,-14.742609,-23.749819,6.5363493,-6.598108,5.7120953,-8.78756,-4.355553,10.39904,-22.54827,33.93629,-37.000744,43.982296,6.766211,-2.9061677,1.849314,-4.82988,-23.912888,49.255756,62.783573,-2.597697,1.8125259,0.32787356
72,4.178757667541504,-48.4940299987793,75.3448486328125,5.536322866376878,0.3796346638186487,-90.87172347082017,16.353468,-4.9221225,20.213251,7.116874,-18.315268,-2.4790297,-28.203379,-14.919336,-23.743969,6.49345,-7.3016963,6.4303255,-8.956819,-4.5090947,10.448442,-22.51113,33.89411,-36.852737,43.7372,6.5156536,-2.9743025,2.0268571,-4.7671304,-23.882364,49.36846,62.94562,-2.641148,1.8764719,0.5218457
73,4.092910289764404,-49.192298889160156,75.20329284667969,5.774038738481634,0.37848614521361307,-90.54197351933645,16.908318,-5.086045,19.79226,7.1578298,-18.382635,-2.759496,-28.414352,-15.027805,-23.417389,6.4965386,-7.657276,7.2834053,-9.09414,-4.663194,10.487678,-22.402573,33.8295,-36.700157,43.5018,6.244216,-3.0570238,2.2137303,-4.729664,-23.85132,49.510635,63.13597,-2.688917,1.9066863,0.6853228
74,4.008810043334961,-49.88572692871094,75.06124877929688,6.012923085458312,0.37838528314500286,-90.2612451107841,17.468727,-5.2508965,19.39864,7.1980004,-18.423218,-3.0479755,-28.397871,-15.058227,-22.893105,6.4796534,-7.6987085,8.232871,-9.197536,-4.801418,10.519315,-22.239239,33.728886,-36.54934,43.291454,5.959769,-3.1533275,2.407223,-4.7211843,-23.817844,49.685146,63.35692,-2.7261767,1.91156,0.8302103
75,3.939810037612915,-50.578922271728516,74.92540740966797,6.1789040170307015,0.40856681162557573,-90.05314001460277,18.00588,-5.3327384,19.079758,7.2399755,-18.415724,-3.352065,-28.251371,-14.946819,-22.259624,6.440057,-7.4428873,8.920251,-9.203918,-4.865891,10.557082,-22.032434,33.646305,-36.437016,43.05966,5.6984587,-3.245921,2.5865066,-4.7148495,-23.800825,49.835762,63.543877,-2.7501123,1.9072955,0.9619606
76,3.870476722717285,-51.28829574584961,74.80488586425781,6.179173778909805,0.5152697127179555,-89.96083586654721,18.476927,-5.2291336,18.909199,7.2903633,-18.34448,-3.6857603,-28.164778,-14.626301,-21.572678,6.532684,-6.975552,8.980402,-9.1264105,-4.7352567,10.566377,-21.750963,33.521873,-36.269756,42.854885,5.5615096,-3.3270936,2.7321422,-4.7761307,-23.784994,50.042126,63.751255,-2.7305658,1.910806,1.0789255
77,3.804264545440674,-52.00046157836914,74.72493743896484,5.945516056422732,0.7266449010033998,-90.03680080401732,18.858414,-4.8727155,18.954327,7.3590264,-18.226873,-4.0705757,-28.071545,-13.9692955,-20.803755,6.603511,-6.1484528,8.138484,-8.902343,-4.3416967,10.55487,-21.394646,33.367493,-36.047638,42.65438,5.591405,-3.395349,2.840629,-4.92345,-23.77465,50.291046,63.98045,-2.6284957,1.920403,1.1895145
78,3.7299184799194336,-52.68644714355469,74.69818115234375,5.573474275732272,1.0017348593470217,-90.22356354017236,19.18576,-4.3730497,19.137062,7.4399376,-18.063366,-4.4839163,-27.95804,-13.130534,-19.92252,6.754407,-5.0159497,6.665884,-8.627304,-3.7477942,10.492582,-20.996147,33.033913,-35.730213,42.600765,5.8036776,-3.4629567,2.9228816,-5.1639547,-23.764717,50.648006,64.28491,-2.446799,1.9349041,1.2857689
79,3.6476385593414307,-53.39789962768555,74.68524169921875,5.1085651655781055,1.2788014923626645,-90.43302384221522,19.512764,-3.7602243,19.362158,7.5390925,-17.829363,-4.90621,-27.764181,-12.206204,-19.10352,6.85523,-3.6327615,4.973363,-8.272458,-3.0731993,10.441466,-20.613369,32.687073,-35.51487,42.598957,6.027238,-3.5224047,2.9827359,-5.3726287,-23.76572,50.95636,64.54218,-2.2857902,1.9496417,1.3661791
80,3.5433883666992188,-54.122798919677734,74.68672180175781,4.660468499335783,1.4928195476193282,-90.54639360614411,19.896585,-3.1369073,19.49521,7.651064,-17.494577,-5.3023047,-27.505198,-11.395405,-18.483276,6.938743,-2.1484578,3.4817567,-7.9850364,-2.4364073,10.405258,-20.19769,32.326725,-35.356293,42.656998,6.2278576,-3.580674,3.0144324,-5.542248,-23.769339,51.268116,64.762085,-2.194238,1.9651909,1.4238573
81,3.425041913986206,-54.85889434814453,74.6993179321289,4.2241670534284514,1.6396886895806153,-90.52132503140606,20.064365,-2.3843398,19.511604,8.394703,-17.404999,-5.681469,-27.877556,-10.931977,-17.957182,8.497853,-1.260649,2.1900804,-7.8042097,-1.8341855,10.381549,-19.751913,31.957626,-35.263016,42.773537,6.4011555,-3.6366534,3.0088215,-5.6586766,-23.765572,51.58443,64.94562,-2.2159941,1.9841399,1.4533775
82,3.3053760528564453,-55.63638687133789,74.6919937133789,3.753906862035921,1.7463571374900893,-90.40349039769396,19.696379,-1.3523306,19.45904,10.438779,-17.91596,-6.060837,-28.566505,-10.635242,-17.558382,10.869122,-0.60201085,0.9030977,-7.695052,-1.2126318,10.36937,-19.262754,31.578976,-35.211388,42.933315,6.581275,-3.6881657,2.967827,-5.760105,-23.750832,51.92427,65.11574,-2.296188,2.005883,1.4592477
83,3.1725354194641113,-56.42133331298828,74.68201446533203,3.2730646496457076,1.8119059520149654,-90.2274793717227,19.35807,-0.28722054,19.331636,12.506468,-18.309494,-6.41588,-29.012423,-10.353809,-17.407415,12.892357,0.19847736,-0.25273457,-7.6364813,-0.59082156,10.373402,-18.728365,31.19037,-35.193253,43.15353,6.7429085,-3.7395296,2.9080281,-5.8609076,-23.724323,52.267647,65.28153,-2.3993528,2.022331,1.4491591
84,3.0303640365600586,-57.20948028564453,74.68446350097656,2.806614078583579,1.8365669653979828,-90.03037086832983,19.021507,0.7817605,19.156425,14.652495,-18.570168,-6.7318397,-29.265047,-10.12942,-17.480627,14.732949,0.8113738,-1.1409568,-7.603857,0.01072979,10.395849,-18.169653,30.793367,-35.22212,43.4664,6.8395557,-3.7950475,2.8467934,-5.973905,-23.688747,52.5958,65.444626,-2.4871175,2.0294213,1.4310213
85,2.879392623901367,-58.0090217590332,74.6867446899414,2.340631078792443,1.8289968942469808,-89.800170757433,18.689123,1.8706118,18.927092,16.861292,-18.720675,-7.035443,-29.324593,-9.986569,-17.85299,16.432194,1.2190932,-1.6313456,-7.6051064,0.6089941,10.423144,-17.564484,30.384764,-35.284927,43.85873,6.8417354,-3.8605042,2.7947338,-6.0909066,-23.646587,52.91067,65.6023,-2.5543408,2.0202336,1.3931758
86,2.724668502807617,-58.81106948852539,74.69669342041016,1.8530204303667006,1.7989843209122733,-89.5350402061629,18.349747,3.0040874,18.646147,19.135506,-18.773012,-7.3304515,-29.2125,-9.889944,-18.47966,17.979809,1.5319941,-1.835619,-7.639301,1.2267861,10.450124,-16.922262,29.96422,-35.390186,44.32931,6.768952,-3.9321125,2.7414694,-6.201548,-23.59842,53.20762,65.74814,-2.6334743,2.0000203,1.3359997
87,2.564729690551758,-59.6113395690918,74.71595764160156,1.3611038856555158,1.7463835295885788,-89.28684500306454,17.964682,4.1574345,18.351995,21.537453,-18.677774,-7.5634017,-28.980938,-9.774867,-19.156303,19.394577,1.6502358,-1.9685547,-7.6593685,1.8424684,10.492009,-16.265848,29.533152,-35.54435,44.89037,6.697773,-3.9986043,2.6722927,-6.33923,-23.54663,53.502636,65.89384,-2.6876874,1.9792948,1.2855818
88,2.4112050533294678,-60.40961837768555,74.74297332763672,0.8853332359843356,1.6673045119158474,-89.10339025518911,17.504179,5.3023314,18.07898,24.118618,-18.378439,-7.6816316,-28.67484,-9.575309,-19.686453,20.676126,1.4833989,-2.237037,-7.6279316,2.4321563,10.5636215,-15.611423,29.09525,-35.74644,45.55105,6.705297,-4.0489016,2.5720172,-6.509735,-23.492336,53.765793,66.03078,-2.7308393,1.9703165,1.2684032
89,2.2615816593170166,-61.2080078125,74.77680969238281,0.42708733982095864,1.5577449932531597,-89.02251971459964,16.992216,6.41626,17.849869,26.864695,-17.858109,-7.6411557,-28.326563,-9.252749,-19.984118,21.861395,0.9093232,-2.7259643,-7.5163403,2.99875,10.670348,-14.948814,28.65032,-35.99193,46.333,6.80568,-4.1046987,2.4649172,-6.7306757,-23.439135,54.004574,66.167625,-2.7448642,1.976675,1.3042307
90,2.112175226211548,-61.99657440185547,74.83737182617188,-0.021593604215945906,1.4213979763994515,-89.01444362132024,16.438065,7.5141325,17.649443,29.747532,-17.13885,-7.487774,-27.926113,-8.83501,-20.153059,22.959435,0.0016105918,-3.3078363,-7.348601,3.5524375,10.798714,-14.269892,28.198452,-36.279774,47.222214,6.960391,-4.1639166,2.3500443,-6.9821677,-23.388336,54.21255,66.29519,-2.74821,1.9924479,1.3750345
91,1.9551299810409546,-62.778472900390625,74.91512298583984,-0.4529676404084818,1.2642083040495988,-89.02440769385211,15.816342,8.6128,17.453049,32.74085,-16.195602,-7.300156,-27.429596,-8.355476,-20.282974,23.875517,-1.0095695,-3.8682938,-7.1612043,4.076289,10.939134,-13.607997,27.747507,-36.630272,48.18128,7.1561856,-4.1798587,2.1750772,-7.249564,-23.338018,54.398033,66.403336,-2.7427287,2.0133557,1.4501048
92,1.7827913761138916,-63.555294036865234,75.00823974609375,-0.8597393311291786,1.0930877578906868,-88.99808447490105,15.084389,9.735957,17.229073,35.856274,-15.024243,-7.1528635,-26.79646,-7.8652964,-20.466227,24.539509,-1.9156967,-4.2936406,-6.9879875,4.55069,11.08516,-12.990498,27.309902,-37.05899,49.16677,7.3836546,-4.1058917,1.8869746,-7.5309277,-23.283695,54.591816,66.48999,-2.706138,2.0343244,1.4983388
93,1.6181105375289917,-64.31935119628906,75.11293029785156,-1.238390052951618,0.8935908989853634,-88.93610350292735,14.2407255,10.895912,16.973413,39.135868,-13.5135565,-7.1382904,-25.982811,-7.3698344,-20.710373,24.912043,-2.6963158,-4.5357847,-6.8305693,4.9622808,11.252875,-12.40666,26.896671,-37.56644,50.190422,7.584783,-3.9293077,1.4836344,-7.834108,-23.218876,54.822426,66.56865,-2.601432,2.0524945,1.5092068
94,1.435040831565857,-65.09228515625,75.23663330078125,-1.5886002726496355,0.6674650140434448,-88.86609116023217,13.297563,12.07039,16.69359,42.571434,-11.707907,-7.192562,-25.020065,-6.860938,-20.958862,25.048088,-3.4592645,-4.655403,-6.674786,5.315861,11.440705,-11.830098,26.513157,-38.133354,51.254192,7.785564,-3.6756942,0.98804015,-8.150577,-23.139215,55.04888,66.63539,-2.475724,2.0713935,1.4997201
95,1.241645097732544,-65.87017059326172,75.37354278564453,-1.9091539322601676,0.44617474261323087,-88.77334009120938,12.229946,13.240638,16.3753,46.104954,-9.836297,-7.143659,-23.980774,-6.3687115,-21.215378,25.019215,-4.19022,-4.7034206,-6.5238748,5.6201406,11.62029,-11.283015,26.164307,-38.76518,52.308765,8.088238,-3.3574362,0.38479856,-8.490488,-23.04614,55.266598,66.68191,-2.3540316,2.0931396,1.4796214
96,1.0416682958602905,-66.64529418945312,75.51908874511719,-2.2020335908269186,0.26107575548257106,-88.64295594294308,11.014489,14.403488,16.0143,49.681213,-8.125936,-6.8064604,-22.938343,-5.9114347,-21.491737,24.89019,-4.87203,-4.737823,-6.38355,5.8853593,11.76357,-10.787152,25.853977,-39.465244,53.30448,8.596115,-2.9894187,-0.34351036,-8.854485,-22.945501,55.45328,66.69226,-2.2810802,2.1203887,1.4592781
97,0.8404947519302368,-67.4018783569336,75.66728210449219,-2.4704996843804654,0.11767966747373791,-88.45014688812488,9.592212,15.59698,15.549159,53.41929,-6.6484694,-6.0105367,-21.88418,-5.479273,-21.823112,24.634666,-5.500902,-4.776981,-6.268065,6.1074452,11.866854,-10.354823,25.587286,-40.254414,54.2495,9.371876,-2.547866,-1.2256668,-9.237676,-22.839697,55.599033,66.65157,-2.270428,2.1596818,1.4485633
98,0.643758237361908,-68.1523666381836,75.81736755371094,-2.709873487715959,-0.00044551645096693233,-88.21094527797781,7.9883113,16.833504,15.009838,57.310215,-5.2828045,-4.8590016,-20.789595,-5.05685,-22.197134,24.228052,-6.082482,-4.79248,-6.168001,6.280502,11.946652,-9.968733,25.366734,-41.123325,55.15848,10.35154,-2.0448344,-2.250377,-9.634009,-22.729156,55.7058,66.56185,-2.3072557,2.208434,1.4398233
99,0.45981794595718384,-68.88274383544922,75.961669921875,-2.9207964194477936,-0.09557949231161517,-87.97173653879412,6.303239,18.090631,14.531461,61.126892,-3.9788816,-3.5681543,-19.698265,-4.6481204,-22.559586,23.738512,-6.615367,-4.7782736,-6.0509653,6.416292,12.007137,-9.611463,25.18925,-42.032574,55.99186,11.448209,-1.548987,-3.374668,-10.06404,-22.62187,55.80854,66.44225,-2.351206,2.2540867,1.4176593
100,0.2832040786743164,-69.60260009765625,76.0961685180664,-3.1031278507628404,-0.17038511305201243,-87.77602603047751,4.631879,19.356262,14.24079,64.66852,-2.7028966,-2.361796,-18.65596,-4.257416,-22.861425,23.240652,-7.10072,-4.728263,-5.892766,6.5351105,12.052774,-9.264231,25.04794,-42.936592,56.709717,12.575762,-1.1249384,-4.5526094,-10.528208,-22.529644,55.909798,66.29535,-2.3996584,2.2855573,1.3670048
101,0.12399477511644363,-70.3109359741211,76.23136901855469,-3.25406726366364,-0.22280819798287058,-87.63177432749745,2.9515553,20.698383,14.207146,67.98839,-1.295674,-1.2159587,-17.669346,-3.888461,-23.096834,22.733969,-7.5285544,-4.6324153,-5.683246,6.640544,12.088458,-8.946227,24.93767,-43.84763,57.305214,13.793334,-0.77986455,-5.8476515,-11.040984,-22.464487,56.02493,66.110916,-2.4485714,2.3053522,1.2921717
102,-0.019594749435782433,-71.00883483886719,76.3604736328125,-3.3786626821390984,-0.2554609965284631,-87.52051639023635,1.2357608,22.150896,14.357518,71.18678,0.148837,0.0058072223,-16.707432,-3.5274327,-23.29388,22.172533,-7.896307,-4.5021667,-5.434548,6.7303605,12.114315,-8.66434,24.856533,-44.78004,57.80137,15.122023,-0.4935204,-7.259504,-11.587418,-22.431782,56.13948,65.87468,-2.5095701,2.317434,1.1993685
103,-0.15571703016757965,-71.69998168945312,76.4884262084961,-3.4770669361504276,-0.27739530430418746,-87.44965605598055,-0.41825423,23.595175,14.60797,74.122925,1.3001225,1.1998049,-15.765831,-3.1725676,-23.440489,21.575953,-8.222026,-4.359837,-5.146249,6.799382,12.125966,-8.391077,24.80189,-45.701717,58.20579,16.40867,-0.27550948,-8.64176,-12.142836,-22.432545,56.251755,65.58644,-2.5555222,2.316405,1.0765704
104,-0.27902525663375854,-72.38574981689453,76.60762023925781,-3.544435863486056,-0.2940026997865619,-87.42336460077797,-1.9270774,24.857504,14.863711,76.65216,1.8406414,2.206162,-14.851991,-2.8381212,-23.522625,20.985481,-8.534041,-4.2237935,-4.8291407,6.8348274,12.117376,-8.088652,24.77446,-46.565414,58.518208,17.505508,-0.12206844,-9.846575,-12.702924,-22.463236,56.387352,65.266426,-2.5406365,2.2931685,0.9112899
105,-0.3833657503128052,-73.06682586669922,76.7214126586914,-3.5607321543689796,-0.29083002699158067,-87.44847051567442,-3.2520452,25.871605,15.177749,78.72202,1.5590576,2.9043088,-14.002322,-2.5518339,-23.525265,20.439405,-8.84602,-4.0945373,-4.4664702,6.8246603,12.065487,-7.767073,24.76468,-47.409523,58.73767,18.398552,-0.02443463,-10.873852,-13.245781,-22.527706,56.519905,64.89767,-2.4727128,2.2434576,0.69028217
106,-0.48908916115760803,-73.74626159667969,76.83460998535156,-3.5297632086947934,-0.2667626235044939,-87.51686613833006,-4.450645,26.682074,15.571981,80.42665,0.6745996,3.344331,-13.213544,-2.317169,-23.461,19.931252,-9.153032,-3.9610953,-4.076484,6.771592,11.980619,-7.4318027,24.774218,-48.223904,58.857964,19.161945,0.025005717,-11.787165,-13.79493,-22.623764,56.66998,64.48427,-2.3601835,2.171858,0.42378882
107,-0.5870922803878784,-74.43195343017578,76.94698333740234,-3.4679063198109272,-0.24560287224880015,-87.60717056145019,-5.6017756,27.254032,15.901989,81.8333,-0.46854243,3.6008158,-12.43619,-2.1167147,-23.35777,19.433527,-9.450901,-3.8232,-3.6689963,6.682175,11.892563,-7.0908656,24.800936,-48.972466,58.912796,19.755325,0.039459188,-12.530294,-14.342625,-22.74797,56.817806,64.037994,-2.2207768,2.0842986,0.13327155
108,-0.6925449371337891,-75.11112213134766,77.05677795410156,-3.392823613185502,-0.2523496313062992,-87.7006350657754,-6.7894297,27.565111,16.024227,83.00971,-1.5277642,3.7622707,-11.620833,-1.9272767,-23.242338,18.915854,-9.732747,-3.6817284,-3.2573926,6.567249,11.83264,-6.7461233,24.843857,-49.610416,58.93328,20.140318,0.032571137,-13.046539,-14.880842,-22.894037,56.940563,63.57248,-2.0813508,1.9872974,-0.16009703
109,-0.7943657040596008,-75.79708862304688,77.168212890625,-3.30357713188242,-0.29596924235791966,-87.79251186215846,-8.043661,27.537464,15.860021,83.937256,-2.5071614,3.8320522,-10.754224,-1.7495373,-23.114876,18.373276,-9.996414,-3.5360672,-2.843226,6.4210453,11.808758,-6.3993483,24.904436,-50.135338,58.916573,20.274511,0.017064238,-13.310197,-15.403435,-23.055576,57.02864,63.08781,-1.9441199,1.8766823,-0.4647566
110,-0.8942774534225464,-76.46662902832031,77.2679443359375,-3.1946819918837086,-0.3621864098768177,-87.89199042982219,-9.321003,27.20283,15.512612,84.58893,-3.548949,3.767241,-9.861007,-1.5920372,-22.966112,17.818754,-10.2448635,-3.385413,-2.4214504,6.243083,11.805161,-6.0484934,24.9832,-50.569668,58.849194,20.187637,-0.010875255,-13.354487,-15.928219,-23.230515,57.109722,62.592377,-1.7829524,1.7497615,-0.7876181
111,-0.9897526502609253,-77.14105987548828,77.36746978759766,-3.080113626793566,-0.44211279352918564,-88.00131043462075,-10.596808,26.709644,15.1060505,85.02375,-4.5205164,3.5928395,-8.950065,-1.4432307,-22.807943,17.252148,-10.480817,-3.231112,-1.9999081,6.053275,11.816305,-5.6793203,25.077047,-50.89192,58.743004,19.957346,-0.06435924,-13.211722,-16.444717,-23.417236,57.15764,62.089436,-1.6487136,1.6174409,-1.1055254
112,-1.0797911882400513,-77.81608581542969,77.46509552001953,-2.9722401713921807,-0.5260553070567834,-88.12277535825451,-11.848674,26.205698,14.759264,85.29813,-5.290229,3.3318796,-8.030828,-1.2924598,-22.650408,16.671505,-10.705371,-3.0750387,-1.582016,5.8699517,11.836556,-5.2855854,25.181253,-51.089638,58.614796,19.656193,-0.15761033,-12.913764,-16.968323,-23.61613,57.18783,61.595577,-1.5428256,1.4897815,-1.3952231
113,-1.166159987449646,-78.4893798828125,77.54961395263672,-2.8712601822417065,-0.6169854131520293,-88.26211384206336,-13.070435,25.706413,14.492471,85.41373,-5.7940645,2.9453058,-7.0979543,-1.1368088,-22.49251,16.070637,-10.91724,-2.9227147,-1.1651093,5.6952353,11.866096,-4.859285,25.291817,-51.144596,58.464893,19.26898,-0.29777554,-12.425924,-17.487852,-23.82762,57.18433,61.106346,-1.50837,1.3621305,-1.656847
114,-1.2488051652908325,-79.16400146484375,77.63158416748047,-2.7717540582958855,-0.7185240378986976,-88.416603316278,-14.271157,25.146801,14.247478,85.34231,-6.1141562,2.4378119,-6.148699,-0.98137146,-22.329851,15.452573,-11.116115,-2.7724242,-0.7470883,5.5218296,11.907113,-4.4064255,25.40739,-51.069458,58.289684,18.770588,-0.48136312,-11.745918,-18.007523,-24.05202,57.157146,60.621964,-1.5176384,1.231749,-1.9007334
115,-1.3290880918502808,-79.82830810546875,77.70269775390625,-2.6752850087101017,-0.8212550799831901,-88.57533948747003,-15.452987,24.5498,14.021524,85.093185,-6.335584,1.8935262,-5.194562,-0.8286148,-22.167557,14.82535,-11.305045,-2.614727,-0.33951068,5.352503,11.953853,-3.9349968,25.526705,-50.888977,58.09772,18.220655,-0.70505345,-10.95484,-18.518627,-24.28681,57.090504,60.13672,-1.5464178,1.114033,-2.1196606
116,-1.4026433229446411,-80.50003814697266,77.7655258178711,-2.5852257592340093,-0.9155242136255605,-88.72779760345689,-16.617712,23.93752,13.811659,84.67503,-6.541064,1.3971769,-4.2480693,-0.6813539,-22.010458,14.198344,-11.486753,-2.4398491,0.050915577,5.188678,12.001427,-3.457155,25.648415,-50.631657,57.899845,17.679054,-0.96283156,-10.132515,-19.04224,-24.529528,57.010277,59.664963,-1.5219102,1.0228982,-2.3060448
117,-1.4688315391540527,-81.16747283935547,77.82106018066406,-2.500959118949435,-1.003575723913713,-88.87320001040942,-17.771492,23.30187,13.607911,84.09376,-6.7318153,0.97272027,-3.301021,-0.5388585,-21.860117,13.5591545,-11.655411,-2.2358837,0.42083174,5.030203,12.049954,-2.9648917,25.770775,-50.279858,57.695656,17.166576,-1.2764012,-9.256772,-19.563742,-24.777397,56.884052,59.199673,-1.4601141,0.963033,-2.453969
118,-1.5328192710876465,-81.84044647216797,77.87028503417969,-2.4209225048713616,-1.0889413652260143,-89.01707524467086,-18.907957,22.63669,13.4141,83.34107,-6.870239,0.57545584,-2.3513422,-0.4012514,-21.713198,12.909791,-11.812804,-2.0109742,0.7762862,4.874847,12.100871,-2.4551113,25.892506,-49.82732,57.482098,16.65312,-1.6433685,-8.300337,-20.0856,-25.030048,56.718697,58.745647,-1.3792553,0.9262055,-2.5687373
119,-1.590704321861267,-82.51187896728516,77.90892791748047,-2.3456558287912874,-1.1645340075064585,-89.15786340717595,-20.010319,21.96803,13.246718,82.403725,-6.9790635,0.18780619,-1.4132218,-0.2679711,-21.568886,12.263231,-11.965754,-1.7853321,1.114849,4.7229877,12.148549,-1.9415008,26.012396,-49.314358,57.26444,16.116043,-2.0190606,-7.334721,-20.593546,-25.28492,56.51393,58.297916,-1.3075231,0.90845096,-2.660135
120,-1.6519954204559326,-83.17694854736328,77.9358901977539,-2.2767474830087835,-1.2232929221409181,-89.29401785127024,-21.062613,21.322184,13.122221,81.26746,-7.082116,-0.20720729,-0.5102479,-0.14241993,-21.425932,11.653627,-12.127244,-1.5787517,1.442389,4.5738263,12.189375,-1.4453218,26.12899,-48.787395,57.0515,15.532533,-2.3580406,-6.4304037,-21.123764,-25.54067,56.33629,57.88178,-1.1942893,0.90406084,-2.7378888
121,-1.7063971757888794,-83.84048461914062,77.9566421508789,-2.2146167380094495,-1.264149849466734,-89.42168903563164,-22.075745,20.674887,13.013004,79.92348,-7.183291,-0.63148326,0.35980794,-0.022809992,-21.28519,11.076056,-12.295009,-1.4012201,1.7509385,4.42682,12.220001,-0.9626291,26.24065,-48.242535,56.844875,14.882985,-2.6628141,-5.575891,-21.645529,-25.794176,56.142456,57.483955,-1.0967146,0.9209422,-2.7959423
122,-1.7577693462371826,-84.50531768798828,77.97038269042969,-2.159520763463975,-1.290747437354294,-89.54320908958786,-23.049269,20.024647,12.919618,78.37738,-7.2718577,-1.067875,1.2022387,0.09018994,-21.146471,10.526385,-12.46764,-1.2404158,2.0440176,4.2813606,12.243073,-0.49110824,26.346207,-47.66703,56.645477,14.179516,-2.9542038,-4.7433367,-22.167889,-26.044868,55.935463,57.10999,-0.9957125,0.95825255,-2.8321593
123,-1.801450490951538,-85.17237091064453,77.97288513183594,-2.1104108364569525,-1.302376619870491,-89.6658339793217,-23.95333,19.42954,12.898787,76.63816,-7.345821,-1.4784642,2.0145607,0.19694975,-21.007572,10.005441,-12.647391,-1.0829061,2.3254724,4.1396008,12.257844,-0.030553939,26.44304,-47.06661,56.45336,13.455903,-3.2123394,-3.978658,-22.678871,-26.291426,55.706615,56.753143,-0.90056765,1.0006907,-2.8626447
124,-1.8445093631744385,-85.8387222290039,77.96897888183594,-2.063156929254046,-1.2979535527080834,-89.79682154568881,-24.760092,18.941925,13.008858,74.71378,-7.40186,-1.8294827,2.7888927,0.29448465,-20.866575,9.52448,-12.841581,-0.91436154,2.6015341,4.001918,12.263435,0.41284224,26.527563,-46.45375,56.2741,12.74109,-3.4153752,-3.3265634,-23.185574,-26.533895,55.47068,56.419907,-0.7949967,1.0321981,-2.9031882
125,-1.8780807256698608,-86.5081787109375,77.9550552368164,-2.0158227426834947,-1.2781212822759296,-89.9376690570311,-25.458878,18.562395,13.277198,72.58807,-7.442185,-2.1385152,3.518707,0.37309337,-20.723518,9.097807,-13.057928,-0.7326213,2.876423,3.862724,12.262167,0.83409756,26.596258,-45.820793,56.10702,11.983691,-3.5516078,-2.7903438,-23.71133,-26.772957,55.254536,56.12579,-0.63628316,1.0508636,-2.9524164
126,-1.9129222631454468,-87.16915130615234,77.9348373413086,-1.9681621731459127,-1.2424642771037369,-90.08427977613256,-26.064953,18.254156,13.67224,70.25787,-7.4645886,-2.4248276,4.205489,0.4341008,-20.58026,8.722467,-13.293467,-0.54333824,3.1386678,3.7234259,12.249774,1.2419062,26.646343,-45.158806,55.95352,11.186822,-3.6325898,-2.3475823,-24.200546,-27.00668,54.987396,55.83885,-0.51182145,1.0653896,-3.003972
127,-1.9372565746307373,-87.83562469482422,77.90675354003906,-1.9290217895905146,-1.1876316658432946,-90.23518728960539,-26.589891,18.009127,14.16505,67.747116,-7.457528,-2.660491,4.8610897,0.49457455,-20.437122,8.367584,-13.531681,-0.34398377,3.3936868,3.5935502,12.224481,1.6227549,26.677538,-44.505753,55.830135,10.454047,-3.6680424,-2.0018804,-24.687477,-27.235313,54.716896,55.57461,-0.3846733,1.0724252,-3.0655456
128,-1.9579277038574219,-88.49905395507812,77.86749267578125,-1.9089884193601823,-1.1103031177448435,-90.38897983921063,-27.046242,17.82136,14.72629,65.07998,-7.4107857,-2.816017,5.493882,0.56957614,-20.294512,8.008138,-13.758667,-0.13209556,3.6317189,3.483711,12.178359,1.9777405,26.688818,-43.88603,55.74958,9.889556,-3.6667237,-1.7582916,-25.11353,-27.456396,54.37803,55.29665,-0.3537869,1.0704765,-3.1451948
129,-1.9706940650939941,-89.15876007080078,77.82398223876953,-1.904676361950812,-1.002140815047813,-90.54904126804591,-27.435198,17.713634,15.400689,62.247173,-7.3195114,-2.8568473,6.0994577,0.65751237,-20.150146,7.630352,-13.968376,0.10147019,3.8897421,3.3857467,12.1191635,2.2685342,26.68311,-43.32292,55.722065,9.5366,-3.6118474,-1.6358781,-25.708141,-27.675472,54.23687,55.139545,-0.10753287,1.0450144,-3.248432
130,-1.9798051118850708,-89.82676696777344,77.77485656738281,-1.9105754549848148,-0.8672831023606096,-90.71455960007376,-27.749252,17.662968,16.191774,59.23723,-7.190481,-2.8211393,6.600791,0.7225641,-20.006258,7.417561,-14.256579,0.35473993,4.118674,3.3014784,12.032002,2.547742,26.654589,-42.759335,55.728203,9.337596,-3.502314,-1.6284876,-26.177715,-27.883247,53.94507,54.933792,-0.05242594,1.005992,-3.3709996
131,-1.9922908544540405,-90.48442077636719,77.71593475341797,-1.9392092915407826,-0.7199982271153293,-90.87839580088631,-27.989344,17.603683,17.005424,56.065067,-7.02903,-2.78008,6.998404,0.76850957,-19.866594,7.411157,-14.642036,0.6106506,4.335285,3.2399657,11.93222,2.7920399,26.605957,-42.245422,55.78406,9.236043,-3.367834,-1.6902403,-26.624653,-28.082888,53.63354,54.740726,-0.02542644,0.9716174,-3.5020063
132,-1.9825553894042969,-91.15372467041016,77.64807891845703,-1.9997834077283356,-0.5750849553412161,-91.03323297350993,-28.157751,17.483086,17.740444,52.74374,-6.8411574,-2.7958868,7.4042096,0.84307986,-19.73356,7.402572,-15.011903,0.8499593,4.528006,3.2152982,11.829562,3.0062351,26.538845,-41.80143,55.89288,9.178879,-3.2390654,-1.7775031,-27.042356,-28.272802,53.307083,54.554436,-0.026037227,0.962607,-3.6313958
133,-1.9683589935302734,-91.8243408203125,77.56877136230469,-2.0970204290877743,-0.434470626399229,-91.17800473954671,-28.242373,17.308586,18.392506,49.230423,-6.617052,-2.8571408,7.8136687,0.9496452,-19.607124,7.404996,-15.373435,1.0646734,4.69661,3.2331629,11.724707,3.1866255,26.45427,-41.43021,56.06281,9.157455,-3.123845,-1.893402,-27.432314,-28.451641,52.962288,54.37864,-0.079412945,0.9933485,-3.7531183
134,-1.9499050378799438,-92.49385070800781,77.47734069824219,-2.2258095604932495,-0.291769062836239,-91.31705689852386,-28.242777,17.104414,19.005066,45.51984,-6.3523726,-2.936116,8.221202,1.0831971,-19.48468,7.412366,-15.724847,1.2650809,4.8459854,3.2867424,11.6130295,3.3341627,26.352602,-41.11831,56.288013,9.20076,-3.005811,-2.0566025,-27.79981,-28.619184,52.600506,54.217506,-0.17689149,1.0500598,-3.873468
135,-1.9242002964019775,-93.16944122314453,77.37786865234375,-2.3808161215621926,-0.1504280384473247,-91.45346230856832,-28.175718,16.854519,19.546679,41.67315,-6.0484166,-3.0593872,8.6344385,1.2393646,-19.363546,7.4180317,-16.060349,1.4602517,4.9766374,3.371033,11.49729,3.452777,26.23538,-40.873276,56.55503,9.302519,-2.8803465,-2.2466412,-28.140316,-28.774622,52.229584,54.06377,-0.2683574,1.1107932,-4.001259
136,-1.893526315689087,-93.84848022460938,77.2711181640625,-2.558777564213822,-0.014489952748908954,-91.59136635996374,-28.055925,16.548906,19.985264,37.747837,-5.704687,-3.2494369,9.059241,1.413071,-19.240282,7.4212956,-16.377987,1.6591645,5.0909204,3.4807231,11.380219,3.5501614,26.104399,-40.698742,56.84833,9.461437,-2.7425427,-2.443133,-28.449007,-28.917103,51.856647,53.91043,-0.30387506,1.1535535,-4.1454372
137,-1.8520042896270752,-94.53326416015625,77.15425109863281,-2.778099539127651,0.11250143824507701,-91.73241744168521,-27.867748,16.197525,20.282375,33.66001,-5.284318,-3.5211108,9.504006,1.628294,-19.112753,7.4126587,-16.676577,1.8578293,5.18832,3.6365364,11.260288,3.6317716,25.960314,-40.605995,57.17455,9.684331,-2.589806,-2.6350367,-28.723696,-29.045599,51.474846,53.757324,-0.27358985,1.1758399,-4.313412
138,-1.8041523694992065,-95.22169494628906,77.03071594238281,-3.0401563872100095,0.22861022856386864,-91.88063009797438,-27.583384,15.821738,20.464989,29.366623,-4.779086,-3.8456328,9.958751,1.8826898,-18.976286,7.4150996,-16.968046,2.0521758,5.2742076,3.8403935,11.139995,3.6929674,25.803564,-40.59056,57.53745,9.968521,-2.4257414,-2.835756,-28.968384,-29.159817,51.083454,53.609245,-0.20303604,1.1879581,-4.498537
139,-1.7501777410507202,-95.91621398925781,76.90151977539062,-3.3179880484717352,0.3307036916015125,-92.04426850817075,-27.200804,15.43341,20.598747,24.990292,-4.2310166,-4.1813354,10.432264,2.1471655,-18.822145,7.412421,-17.235964,2.2499948,5.3595233,4.0615673,11.029668,3.729272,25.636011,-40.629505,57.913895,10.29974,-2.2542205,-3.061654,-29.188847,-29.260447,50.701244,53.46664,-0.09553216,1.1870698,-4.6884074
140,-1.7022075653076172,-96.61351013183594,76.76586151123047,-3.5843946714752457,0.41363435325459585,-92.23455745070298,-26.71355,15.041314,20.75459,20.647057,-3.6829333,-4.4934077,10.922941,2.3900514,-18.639078,7.41496,-17.478243,2.4587948,5.4569616,4.2717175,10.942486,3.7363725,25.460827,-40.700233,58.278263,10.661321,-2.079478,-3.3293548,-29.388933,-29.347631,50.345802,53.326622,0.046156768,1.1706401,-4.8707895
141,-1.646193504333496,-97.31665802001953,76.62434387207031,-3.8502023745137737,0.4709242881852491,-92.46220599922556,-26.107937,14.649633,20.924482,16.25737,-3.1499329,-4.735706,11.436184,2.6210082,-18.416855,7.423834,-17.698809,2.6815205,5.5749784,4.4806795,10.8860655,3.7162302,25.279694,-40.79472,58.62869,11.059268,-1.9007927,-3.6578128,-29.573397,-29.4218,50.015785,53.189026,0.2313323,1.1355616,-5.038517
142,-1.5866328477859497,-98.02094268798828,76.47657012939453,-4.1501810704587765,0.48638578653177234,-92.74387443944258,-25.348145,14.302433,21.089592,11.747534,-2.5858924,-4.940532,11.990786,2.8853247,-18.135315,7.4319334,-17.897388,2.9075432,5.727746,4.7304807,10.865907,3.6801233,25.092997,-40.91989,58.96793,11.502108,-1.7172924,-4.034638,-29.740347,-29.483858,49.70713,53.0557,0.45878485,1.0837919,-5.1975317
143,-1.5247650146484375,-98.72427368164062,76.33018493652344,-4.4893275995998785,0.4526193481286148,-93.08355332106444,-24.350498,13.998492,21.323122,7.099744,-1.850997,-5.197755,12.592255,3.1841886,-17.78554,7.440351,-18.066725,3.1278117,5.9205885,5.023284,10.8829,3.6309476,24.90314,-41.08209,59.283226,11.969054,-1.5330508,-4.4287,-29.88514,-29.534533,49.434906,52.92826,0.70992345,1.020133,-5.3558445
144,-1.452831506729126,-99.4343490600586,76.18368530273438,-4.8371879476799755,0.3854331643768761,-93.45507001415828,-25.111465,14.462914,21.183565,6.8292193,-3.1931076,-5.615032,13.22304,3.4798558,-17.391626,7.4552298,-18.201422,3.3410263,6.130727,5.324255,10.923777,3.5716283,24.713867,-41.28237,59.561287,12.4450655,-1.3515654,-4.808612,-30.00274,-29.573217,49.21195,52.807953,0.9655335,0.94926804,-5.523892
145,-1.3775207996368408,-100.1402587890625,76.0382308959961,-5.195274190395914,0.2875546717943601,-93.86118854392477,-25.723577,14.9344845,21.202995,6.672602,-4.435903,-6.358018,13.882112,3.7709954,-16.954626,7.474144,-18.305185,3.539418,6.352034,5.635168,10.983869,3.5125232,24.526648,-41.52612,59.79021,12.955342,-1.1611075,-5.171129,-30.101618,-29.599787,49.054268,52.698357,1.2485231,0.8614754,-5.7128854
146,-1.301081895828247,-100.85587310791016,75.89127349853516,-5.550554244082745,0.1734229632031581,-94.28352365603665,-26.17628,15.372305,21.346193,6.504767,-5.544346,-7.3297734,14.556251,4.04371,-16.494488,7.49757,-18.38004,3.7325227,6.5660233,5.9388,11.058466,3.4579642,24.355844,-41.803074,59.961727,13.4991045,-0.96426183,-5.5334277,-30.181911,-29.611113,48.949734,52.593246,1.5602301,0.75736886,-5.916839
147,-1.2214622497558594,-101.58242797851562,75.75041961669922,-5.793565136106,0.1148761497470269,-94.61703385711843,-26.577784,15.639642,21.48399,6.509652,-6.417646,-8.186008,15.179591,4.174879,-16.124063,7.536711,-18.421146,3.9614296,6.6915655,6.1053457,11.111954,3.3651342,24.203444,-42.107952,60.109745,14.018116,-0.7859844,-5.8896604,-30.222967,-29.604223,48.85926,52.480225,1.8455986,0.65655154,-6.1250544
148,-1.155826210975647,-102.29756927490234,75.62178802490234,-5.893232304190828,0.11866751530146129,-94.8335463776803,-26.785416,15.668032,21.542513,6.4860725,-6.7592573,-8.602962,15.740376,4.1429543,-15.869471,7.590889,-18.410975,4.2376375,6.7009506,6.0963984,11.156193,3.2490182,24.100515,-42.401524,60.202957,14.459933,-0.6481912,-6.2391863,-30.220781,-29.582767,48.773632,52.344704,2.0585842,0.58060026,-6.3182454
149,-1.1001112461090088,-103.00403594970703,75.51829528808594,-5.846092654285145,0.21144791937132315,-94.89811046041838,-26.77412,15.430276,21.422413,6.4806905,-6.4259653,-8.464231,16.210629,3.9541342,-15.761895,7.6600833,-18.35495,4.572615,6.6205244,5.9076653,11.141811,2.985246,23.954826,-42.792492,60.401703,14.789885,-0.552494,-6.587799,-30.143993,-29.523973,48.63354,52.231068,2.1614127,0.5340288,-6.4990177
150,-1.0392333269119263,-103.68994140625,75.45259857177734,-5.669226379595152,0.3668860094046505,-94.850899343043,-26.543663,14.965222,21.211117,6.459312,-5.544487,-7.9537487,16.615269,3.62398,-15.767658,7.747588,-18.260439,4.9531775,6.4226,5.559307,11.111958,2.6869793,23.833635,-43.18118,60.56847,15.0631485,-0.48635304,-6.941957,-30.041906,-29.434753,48.51581,52.116936,2.2044446,0.508011,-6.6743793
151,-0.9750121235847473,-104.36075592041016,75.42491912841797,-5.338519613575728,0.5813551666956734,-94.71860193711794,-26.306532,14.322705,21.017607,6.6045256,-4.4831614,-7.177999,16.542458,2.9844644,-15.905076,8.793013,-18.606716,5.3782334,6.1389437,5.0326643,11.058797,2.3675213,23.74651,-43.576073,60.70029,15.269322,-0.4563598,-7.2582564,-29.895634,-29.319283,48.40006,52.000145,2.1957963,0.49491292,-6.8345404
152,-0.9100847244262695,-105.03942108154297,75.3966293334961,-4.941007375635624,0.7813725002789697,-94.61289152574403,-26.025017,13.652782,21.001328,6.700356,-3.401242,-6.2702923,16.153507,2.1507163,-16.04626,10.589794,-19.263887,5.8049254,5.8769937,4.4400973,11.005628,2.053482,23.674164,-43.982635,60.80816,15.400946,-0.46778303,-7.491805,-29.70297,-29.16815,48.287636,51.912903,2.143396,0.48686898,-6.9594946
153,-0.8407061696052551,-105.74443054199219,75.3676986694336,-4.441451281147519,0.9701107963736854,-94.538264588428,-25.722626,12.940034,21.24382,6.785694,-2.3652833,-5.1187806,15.771199,1.1767323,-16.17843,12.431058,-19.876554,6.2429967,5.6350956,3.7468162,10.960579,1.748207,23.620022,-44.397556,60.887615,15.4344425,-0.5402036,-7.6261883,-29.460434,-28.995855,48.17895,51.82651,2.0389013,0.48931846,-7.0447445
154,-0.7642915844917297,-106.46220397949219,75.3536148071289,-3.8245654358856442,1.1586647301452708,-94.47484623614992,-25.356934,12.150311,21.679249,6.884743,-1.2646953,-3.6940973,15.3572445,0.03953815,-16.307579,14.375647,-20.47632,6.702213,5.40225,2.930561,10.918725,1.4334046,23.582378,-44.83048,60.946423,15.377636,-0.66371244,-7.686133,-29.166924,-28.803566,48.07131,51.73954,1.8803222,0.50451887,-7.0972276
155,-0.6702226996421814,-107.18042755126953,75.3503646850586,-3.163644646094501,1.3185449674765937,-94.4591077659695,-25.571087,11.62823,22.07732,8.441382,-0.87349844,-2.2529783,14.946914,-1.1738014,-16.37041,16.383646,-21.005041,7.148967,5.2103376,2.074919,10.885835,1.1286446,23.557129,-45.25813,60.969837,15.28751,-0.80065435,-7.692419,-28.823301,-28.594046,47.98214,51.67431,1.7001612,0.5228315,-7.118676
156,-0.5623384118080139,-107.9314956665039,75.3373031616211,-2.531269005462991,1.428522518808653,-94.51782556372227,-26.056921,11.329759,22.408329,10.759769,-0.8233608,-1.0509307,14.567198,-2.3742208,-16.319073,18.415735,-21.405117,7.550499,5.0800185,1.261545,10.864159,0.8525866,23.5388,-45.65526,60.944744,15.222014,-0.91354096,-7.6652393,-28.433336,-28.370684,47.93186,51.654953,1.5313905,0.5342827,-7.1117196
157,-0.4540916085243225,-108.70178985595703,75.31259155273438,-1.92677630473855,1.486424737194922,-94.67881672569956,-26.27564,11.0318165,22.76099,12.620393,-0.34298575,-0.17285453,14.243357,-3.5555584,-16.126184,20.422472,-21.695631,7.9194145,5.0307207,0.49279088,10.848338,0.6192617,23.521486,-46.017017,60.85624,15.203981,-0.9881152,-7.60376,-27.993284,-28.136404,47.927498,51.6757,1.3608783,0.5422578,-7.06527
158,-0.33231621980667114,-109.47492980957031,75.29597473144531,-1.3159802613637812,1.5084173153069298,-94.91564398889162,-26.315994,10.728242,23.166063,14.217901,0.42760062,0.5242408,13.95378,-4.7532635,-15.83002,22.424742,-21.890312,8.270043,5.0412765,-0.26944968,10.838421,0.41254017,23.502575,-46.353996,60.7219,15.204308,-1.0461437,-7.498656,-27.501007,-27.891779,47.958637,51.725292,1.1791372,0.5500472,-6.9823055
159,-0.2047356218099594,-110.24465942382812,75.29023742675781,-0.715770071051013,1.50712548220583,-95.16605359383581,-26.25732,10.433977,23.599579,15.693148,1.1796283,1.1255836,13.641536,-5.948821,-15.490388,24.506178,-21.932714,8.574222,5.062964,-1.0121033,10.837659,0.20020008,23.48346,-46.67449,60.58197,15.189824,-1.1044947,-7.3563156,-26.96507,-27.63608,48.020416,51.821804,1.0243564,0.54754376,-6.8871555
160,-0.06586731970310211,-111.01179504394531,75.29548645019531,-0.14498256061835518,1.4931564584681356,-95.37012726883013,-26.164843,10.158801,24.039434,17.155914,1.6178477,1.7102461,13.255653,-7.121573,-15.162786,26.741415,-21.762558,8.803233,5.049168,-1.720484,10.847698,-0.04454998,23.467936,-46.981956,60.470924,15.131972,-1.1797656,-7.1838894,-26.395004,-27.367353,48.10859,51.9835,0.93502927,0.52489465,-6.8043146
161,0.07267708331346512,-111.7817611694336,75.31172943115234,0.4073515981750128,1.4839646960614246,-95.51096923227823,-26.078798,9.89575,24.505182,18.657707,1.6686667,2.247537,12.790801,-8.273817,-14.8606825,29.130503,-21.391184,8.967405,4.991203,-2.4177015,10.850033,-0.32838383,23.461086,-47.27585,60.4007,15.008522,-1.2850549,-6.966687,-25.77617,-27.081469,48.216263,52.210037,0.95699024,0.4631536,-6.7619023
162,0.20944781601428986,-112.55838775634766,75.33573913574219,0.9488482753866582,1.4729284472374855,-95.61471578553922,-25.970705,9.616292,24.98764,20.129696,1.4942383,2.6992388,12.270054,-9.414149,-14.560245,31.63378,-20.838724,9.080557,4.900919,-3.1058803,10.84035,-0.6277268,23.463615,-47.548122,60.344288,14.840851,-1.4090652,-6.7080426,-25.06414,-26.774878,48.298252,52.466637,0.99735785,0.37369964,-6.739889
163,0.33850520849227905,-113.32540893554688,75.36337280273438,1.4535615661918124,1.433041000624739,-95.68854119224156,-25.80321,9.308143,25.42079,21.510525,1.1485914,3.1384208,11.680516,-10.531512,-14.257734,34.278076,-20.052532,9.1202755,4.790297,-3.7442117,10.854444,-0.9551084,23.474781,-47.820145,60.291912,14.65822,-1.5311875,-6.4387317,-24.42876,-26.456608,48.51136,52.849808,1.1514261,0.28879023,-6.6921916
164,0.47373074293136597,-114.1002426147461,75.40463256835938,1.8943929472149938,1.3359938375415847,-95.74133346386348,-25.531282,8.974373,25.738903,22.743393,0.67913234,3.6462348,11.011535,-11.611867,-13.948822,37.088154,-18.97598,9.067379,4.637522,-4.279474,10.912859,-1.2899456,23.487507,-48.08288,60.22332,14.489315,-1.6321216,-6.192499,-23.776463,-26.129087,48.737526,53.286903,1.1809908,0.24536738,-6.571098
165,0.6231851577758789,-114.87157440185547,75.45219421386719,2.252751933223374,1.1583944477117492,-95.74368107584809,-25.151295,8.620621,25.859491,23.860355,0.02096722,4.309472,10.288748,-12.637653,-13.674857,40.08695,-17.48738,8.968758,4.425583,-4.686069,11.038113,-1.6401047,23.49574,-48.358414,60.150032,14.33566,-1.708433,-5.957029,-23.105534,-25.797611,48.975586,53.801,1.0939107,0.24174687,-6.3790307
166,0.7868263721466064,-115.63484954833984,75.52001953125,2.5445920744283543,0.92081723425544,-95.70052864761098,-24.689056,8.253239,25.826591,24.893122,-0.8381395,5.06654,9.510688,-13.610311,-13.430201,43.247417,-15.642813,8.835208,4.1668134,-4.993341,11.209438,-2.0145924,23.497093,-48.64708,60.08669,14.180363,-1.770435,-5.7209053,-22.422047,-25.46643,49.245827,54.393467,0.95931613,0.26216966,-6.1366563
167,0.9560303092002869,-116.38861846923828,75.59626770019531,2.7967711104315143,0.6613692199914517,-95.67300237318678,-24.132639,7.8813734,25.767248,25.77573,-1.7698398,5.7792706,8.625615,-14.553637,-13.140197,46.516907,-13.647334,8.585095,3.9089677,-5.2367425,11.393364,-2.409055,23.491407,-48.91756,60.020653,14.036819,-1.8169748,-5.5175767,-21.759312,-25.141628,49.57694,55.035973,0.78192586,0.320275,-5.8233967
168,1.126991868019104,-117.1458969116211,75.68241882324219,3.0390310362223065,0.4188405052328722,-95.72144633547212,-23.470812,7.511721,25.814701,26.440939,-2.6443942,6.3100686,7.5763016,-15.502715,-12.730566,49.85169,-11.707702,8.117455,3.6962976,-5.451178,11.5570135,-2.815358,23.48053,-49.133423,59.933487,13.92045,-1.8469522,-5.381164,-21.131552,-24.82784,49.97347,55.686478,0.53675973,0.43012804,-5.417824
169,1.3120014667510986,-117.90554809570312,75.77760314941406,3.2754230501711823,0.1946129209378833,-95.86885391134862,-22.670847,7.140221,26.012827,26.844639,-3.4572628,6.603823,6.295574,-16.479631,-12.102556,53.36085,-9.83991,7.3159013,3.545246,-5.6299577,11.70153,-3.2282443,23.46348,-49.27702,59.80909,13.840417,-1.8542707,-5.337229,-20.553602,-24.532206,50.467167,56.36739,0.22523314,0.6026514,-4.909989
170,1.5052891969680786,-118.66075134277344,75.8797607421875,3.4909237855344806,-0.027801385944196823,-96.07907621046365,-21.752218,6.772532,26.284147,27.043505,-4.2745347,6.7361455,4.8219237,-17.470465,-11.331045,57.026733,-7.938958,6.2405796,3.425582,-5.756441,11.842122,-3.6514816,23.439983,-49.366615,59.65887,13.788102,-1.8413873,-5.36222,-20.000689,-24.25752,51.0347,57.079086,-0.15555449,0.82594484,-4.311253
171,1.6890426874160767,-119.40628051757812,75.97859191894531,3.6983628446908323,-0.23682145509182695,-96.3243062863416,-20.776907,6.412402,26.59484,27.107325,-5.0628757,6.7696853,3.246601,-18.495693,-10.588965,60.646175,-6.0504684,5.0299582,3.3202808,-5.8625073,11.97089,-4.0993032,23.416908,-49.429604,59.50792,13.747998,-1.8191284,-5.416455,-19.47519,-24.002903,51.653908,57.77482,-0.5711942,1.0785172,-3.6324399
172,1.871071219444275,-120.13664245605469,76.07009887695312,3.9009531487807325,-0.4221870900883291,-96.57473807743186,-19.809652,6.061894,26.90945,27.107748,-5.7908797,6.7723093,1.6665648,-19.58271,-10.047459,64.021736,-4.2341337,3.8106225,3.2100854,-5.9757185,12.080604,-4.582875,23.406202,-49.492504,59.37415,13.7034445,-1.7982324,-5.4609327,-18.976934,-23.763178,52.29569,58.40454,-0.9957286,1.3401033,-2.884593
173,2.0478289127349854,-120.86312866210938,76.1632080078125,4.116408892655673,-0.5836807012511883,-96.84504987216063,-18.839907,5.6982546,27.256247,27.021484,-6.441674,6.753968,0.043886084,-20.786482,-9.682301,67.19698,-2.3711588,2.5015504,3.1083722,-6.115443,12.177997,-5.10257,23.417315,-49.55368,59.24013,13.664377,-1.7695613,-5.50216,-18.524899,-23.53471,52.979607,58.968483,-1.4221226,1.6272024,-2.027615
174,2.2071878910064697,-121.58306884765625,76.26510620117188,4.3440263358183575,-0.7282456064096697,-97.13958969426666,-17.840067,5.3068924,27.647556,26.812744,-7.027977,6.6878443,-1.6586229,-22.138275,-9.427836,70.26933,-0.5013872,1.0070707,3.0152473,-6.270492,12.268188,-5.647651,23.454433,-49.60126,59.089165,13.633373,-1.7307558,-5.556522,-18.117613,-23.315914,53.714302,59.49082,-1.8649431,1.9410374,-1.068689
175,2.3541266918182373,-122.28484344482422,76.36516571044922,4.555910734885155,-0.8577358921581175,-97.40908569273381,-16.846846,4.9040494,28.018785,26.52691,-7.558759,6.589437,-3.3326397,-23.615738,-9.387647,73.13809,1.0668118,-0.54726946,2.8880658,-6.4188046,12.341372,-6.2109594,23.521791,-49.64582,58.937782,13.584552,-1.7027708,-5.6001363,-17.73118,-23.104311,54.458523,59.96265,-2.3258436,2.239461,-0.09069606
176,2.488450050354004,-122.97673034667969,76.45803833007812,4.716124760471067,-0.9727546686212073,-97.61296707485198,-15.889111,4.5244274,28.307528,26.215427,-8.053465,6.468252,-4.849941,-25.157068,-9.651391,75.68643,2.0323954,-1.9900327,2.6963563,-6.5300927,12.386685,-6.7893033,23.623224,-49.70421,58.80479,13.488777,-1.7064513,-5.608772,-17.348276,-22.89881,55.18034,60.37781,-2.790453,2.4816349,0.822688
177,2.6127257347106934,-123.66263580322266,76.55553436279297,4.806817101108004,-1.0618853320466477,-97.73981875960128,-14.9910965,4.1979256,28.50001,25.900917,-8.518907,6.3103127,-6.140679,-26.835918,-10.389363,77.91341,2.256293,-3.2345417,2.4324841,-6.590431,12.391985,-7.3906145,23.763557,-49.7873,58.694286,13.319969,-1.7544156,-5.5816975,-16.969044,-22.697235,55.891975,60.72538,-3.2662683,2.6610336,1.6858864
178,2.7238197326660156,-124.34976959228516,76.65462493896484,4.842915041808503,-1.13053421500853,-97.8122868341171,-14.132508,3.9121974,28.628294,25.566298,-8.953031,6.115605,-7.2433853,-28.628563,-11.502645,79.891846,1.891716,-4.3452787,2.11442,-6.6116815,12.368375,-8.013016,23.945099,-49.88789,58.589767,13.096756,-1.8331243,-5.530595,-16.604612,-22.497501,56.603268,61.011433,-3.7558842,2.7984445,2.5308337
179,2.8233284950256348,-125.02882385253906,76.75453186035156,4.835205400858647,-1.200731234294954,-97.84155988084281,-13.285215,3.652204,28.69561,25.213388,-9.361713,5.911984,-8.217709,-30.279621,-12.675329,81.61621,1.1004477,-5.3348455,1.7516855,-6.5981603,12.335869,-8.63506,24.165127,-49.988186,58.479713,12.866233,-1.9240544,-5.449513,-16.252003,-22.300701,57.276695,61.25448,-4.236922,2.895992,3.2994711
180,2.9214441776275635,-125.71351623535156,76.85346984863281,4.802183019858366,-1.290567647865082,-97.84188080182629,-12.426109,3.4040544,28.707516,24.847109,-9.751412,5.7268066,-9.169706,-31.527615,-13.577572,83.07055,0.06825361,-6.2148566,1.3573151,-6.555162,12.312114,-9.236906,24.417114,-50.07036,58.356697,12.676898,-2.0088558,-5.331972,-15.896016,-22.110352,57.85862,61.464535,-4.702071,2.9574366,3.9333844
181,3.0128977298736572,-126.38507843017578,76.95372772216797,4.730198489347541,-1.3992897806354452,-97.81203887600925,-11.567983,3.1870806,28.650764,24.490946,-10.1329365,5.568976,-10.144413,-32.241463,-14.132371,84.22092,-1.3440888,-6.9910088,0.9292378,-6.468359,12.292845,-9.826168,24.697254,-50.150875,58.23035,12.519753,-2.0904994,-5.1679983,-15.536897,-21.931366,58.35442,61.63838,-5.1774607,2.9749298,4.4349003
182,3.0985682010650635,-127.05713653564453,77.05583190917969,4.6135131486099965,-1.5137211398619925,-97.7516065576063,-10.725365,3.014224,28.532272,24.148678,-10.506189,5.4211125,-11.11742,-32.533577,-14.50212,85.081,-3.138527,-7.613912,0.47025785,-6.336258,12.269198,-10.4126005,25.003809,-50.233646,58.106533,12.378961,-2.1765933,-4.963163,-15.173821,-21.765528,58.77836,61.763252,-5.6620235,2.9525552,4.8284163
183,3.1909313201904297,-127.73493194580078,77.15798950195312,4.4817562286991945,-1.6358820768087687,-97.67447260243563,-9.869128,2.8502052,28.38681,23.77463,-10.850736,5.2712774,-12.106065,-32.52997,-14.721087,85.69727,-4.915532,-8.044035,-0.0002570665,-6.188741,12.251815,-10.990757,25.332855,-50.29561,57.98165,12.279023,-2.255717,-4.7334776,-14.807049,-21.614456,59.113503,61.848904,-6.0846486,2.9120176,5.088579
184,3.2772459983825684,-128.4029541015625,77.25892639160156,4.363949015395507,-1.7682466670445303,-97.59350036011848,-8.971208,2.659876,28.246906,23.326275,-11.147734,5.1082954,-13.118752,-32.375416,-14.833606,86.12418,-6.2859178,-8.254499,-0.4640275,-6.055191,12.251068,-11.549336,25.678797,-50.30406,57.85021,12.254334,-2.3158343,-4.494937,-14.430342,-21.479366,59.333923,61.90161,-6.38308,2.8761182,5.1902566
185,3.361103057861328,-129.06979370117188,77.35884857177734,4.2627259952055985,-1.9198065710696657,-97.50486077935166,-8.016228,2.4363878,28.109337,22.789804,-11.387032,4.925779,-14.157712,-32.057327,-14.823246,86.35515,-7.1235285,-8.18369,-0.92647,-5.938384,12.274153,-12.0952215,26.039263,-50.2681,57.727425,12.340038,-2.3524137,-4.2378364,-14.04213,-21.36108,59.432903,61.91999,-6.525063,2.8564937,5.091729
186,3.447932004928589,-129.73056030273438,77.4526596069336,4.166538533714043,-2.0874578439935223,-97.40316767503838,-7.019355,2.1944494,27.96004,22.186625,-11.579793,4.731606,-15.21519,-31.535645,-14.690384,86.36971,-7.645185,-7.8783803,-1.3935626,-5.8270597,12.314705,-12.631514,26.412954,-50.19646,57.615627,12.513838,-2.3715494,-3.9579237,-13.6426935,-21.260883,59.42084,61.899097,-6.551524,2.8408668,4.8180676
187,3.522149085998535,-130.40158081054688,77.54640197753906,4.081464201418734,-2.2562018799145394,-97.2996255678222,-5.9956846,1.9321227,27.81362,21.520216,-11.735517,4.5358396,-16.277966,-30.90572,-14.50625,86.19489,-7.9778595,-7.4715557,-1.8488374,-5.7252054,12.362209,-13.157301,26.796358,-50.0784,57.50133,12.699333,-2.3781316,-3.678919,-13.2313175,-21.179697,59.303497,61.83806,-6.5034857,2.8153121,4.44449
188,3.5944912433624268,-131.06886291503906,77.63838195800781,4.012488764835804,-2.4107023908417546,-97.2054470153694,-4.960162,1.6465153,27.684381,20.791868,-11.86205,4.3485694,-17.33453,-30.259789,-14.338496,85.85797,-8.245421,-7.0948462,-2.2764256,-5.636532,12.404797,-13.664523,27.184093,-49.891922,57.369114,12.830969,-2.3774512,-3.4247146,-12.80694,-21.119217,59.083954,61.739048,-6.426885,2.7660892,4.0464134
189,3.6730310916900635,-131.7269744873047,77.71961975097656,3.9633960204636836,-2.5526633331259307,-97.12176300472161,-3.903823,1.3280598,27.575867,19.987194,-11.955905,4.1779532,-18.396584,-29.60016,-14.1725445,85.368286,-8.420482,-6.786435,-2.674169,-5.563456,12.44423,-14.154739,27.572157,-49.626358,57.22293,12.894901,-2.3684509,-3.1973426,-12.365641,-21.080877,58.740437,61.59153,-6.3394246,2.6909776,3.616875
190,3.7480103969573975,-132.38299560546875,77.79212951660156,3.9310571850537332,-2.688644294382936,-97.04314174130818,-2.8207138,0.9799526,27.47859,19.104664,-12.01154,4.0165715,-19.460491,-28.884302,-13.981229,84.70775,-8.457889,-6.4744887,-3.0489542,-5.5023894,12.484728,-14.633826,27.958967,-49.29527,57.07557,12.926063,-2.3497791,-2.985273,-11.906456,-21.065466,58.275547,61.39371,-6.2165747,2.596076,3.1250093
191,3.816488742828369,-133.04005432128906,77.8642807006836,3.90674411715568,-2.810418552133761,-96.97082174979127,-1.7338226,0.6222623,27.386663,18.175856,-12.039762,3.8508365,-20.495035,-28.145494,-13.813768,83.86635,-8.454582,-6.1290984,-3.398861,-5.4453864,12.518133,-15.102802,28.342907,-48.91619,56.92637,12.926956,-2.3270159,-2.7915566,-11.434606,-21.072695,57.735928,61.160183,-6.0339375,2.4804442,2.610415
192,3.8828368186950684,-133.69357299804688,77.92525482177734,3.8810740630016016,-2.909749535865091,-96.90557245013628,-0.6679468,0.27515256,27.295149,17.23574,-12.05255,3.667503,-21.469501,-27.413881,-13.718406,82.82998,-8.50585,-5.7201085,-3.7246659,-5.3844795,12.535833,-15.566689,28.723314,-48.512962,56.77723,12.891635,-2.3061814,-2.6188588,-10.957201,-21.10111,57.17042,60.90975,-5.7677565,2.3423748,2.1125257
193,3.9383609294891357,-134.3483123779297,77.97738647460938,3.8494248460944025,-2.987235305116705,-96.85200106015958,0.3805438,-0.053659692,27.206797,16.278187,-12.048137,3.458523,-22.377724,-26.673712,-13.6978,81.58234,-8.651816,-5.2114806,-4.023882,-5.3125343,12.5366745,-16.022661,29.099466,-48.077957,56.631424,12.819226,-2.286737,-2.4723241,-10.473961,-21.149563,56.569324,60.645855,-5.3783073,2.161844,1.6210552
194,3.994818687438965,-135.00167846679688,78.01844787597656,3.8147997235924858,-3.046300815425624,-96.80715440509827,1.4211985,-0.37449452,27.12227,15.289687,-12.022344,3.2325237,-23.231136,-25.919653,-13.730475,80.12908,-8.836897,-4.6313796,-4.2984486,-5.2334924,12.524172,-16.466461,29.470516,-47.598392,56.487602,12.716529,-2.266434,-2.3489015,-9.980272,-21.217234,55.912212,60.35991,-4.8928313,1.9440229,1.1231588
195,4.047762870788574,-135.65480041503906,78.05059051513672,3.7845170278967197,-3.0824888285187977,-96.76116282448557,2.442418,-0.69514406,27.0338,14.285296,-11.979789,3.0014722,-24.030874,-25.190943,-13.82982,78.495995,-9.010509,-4.046142,-4.55559,-5.154157,12.497268,-16.90691,29.836214,-47.098347,56.344482,12.580889,-2.2486143,-2.238877,-9.485931,-21.302118,55.245625,60.057713,-4.3709297,1.7257044,0.65411586
196,4.094364643096924,-136.30313110351562,78.06951904296875,3.762488180421333,-3.090812142306671,-96.70417553001734,3.4328165,-1.0230478,26.93348,13.276291,-11.925181,2.77766,-24.77919,-24.527576,-14.006957,76.708305,-9.121096,-3.5181725,-4.8023524,-5.081774,12.453786,-17.3406,30.195154,-46.584236,56.193348,12.428084,-2.236127,-2.132966,-9.005222,-21.401375,54.62138,59.751038,-3.8675423,1.5450886,0.24782969
197,4.131808280944824,-136.95184326171875,78.07982635498047,3.7503015442819008,-3.067109690218577,-96.632917937413,4.380653,-1.3562101,26.818703,12.278532,-11.863526,2.5665946,-25.47925,-23.938374,-14.277108,74.76269,-9.158808,-3.0403993,-5.042349,-5.0170302,12.389263,-17.76927,30.546896,-46.05032,56.03742,12.261307,-2.2271318,-2.03523,-8.537289,-21.511713,54.035854,59.435307,-3.3686419,1.4141254,-0.08892705
198,4.170448303222656,-137.6044464111328,78.07785034179688,3.742820081434689,-3.0138791667265195,-96.55225858329528,5.2967553,-1.6903505,26.693087,11.274356,-11.789112,2.3616574,-26.127874,-23.393858,-14.631338,72.64468,-9.147219,-2.581042,-5.2729483,-4.9534335,12.304321,-18.195711,30.891848,-45.49775,55.882862,12.069311,-2.221149,-1.9482279,-8.08241,-21.631563,53.474457,59.11632,-2.8481917,1.3123755,-0.37443605
199,4.203668117523193,-138.2586669921875,78.07174682617188,3.7379029242774684,-2.9365158175505446,-96.46540940432632,6.183679,-2.017935,26.559729,10.276222,-11.712886,2.1557202,-26.717335,-22.87343,-15.046704,70.36224,-9.086183,-2.1672893,-5.492435,-4.8879232,12.204081,-18.604725,31.228415,-44.92484,55.71684,11.862878,-2.2227356,-1.8607955,-7.644642,-21.75901,52.956753,58.811977,-2.3590028,1.2314838,-0.6128661
200,4.235295295715332,-138.90127563476562,78.05455017089844,3.7297441732625316,-2.8404163488708245,-96.37515278506848,7.0557756,-2.3374867,26.421162,9.267836,-11.633688,1.9413984,-27.240437,-22.356205,-15.498552,67.92232,-8.97565,-1.8251106,-5.7017307,-4.8158107,12.09359,-18.992727,31.555086,-44.344727,55.53503,11.635119,-2.2371693,-1.7615026,-7.2273974,-21.890684,52.501812,58.539856,-1.957184,1.163614,-0.80857426
201,4.258650779724121,-139.55015563964844,78.02566528320312,3.717209038618764,-2.725018686844044,-96.28447307926051,7.9228063,-2.6499324,26.281372,8.225606,-11.539957,1.7147866,-27.697386,-21.839941,-15.990622,65.32081,-8.805121,-1.5896131,-5.9001193,-4.7343936,11.972416,-19.362017,31.870512,-43.754875,55.34329,11.3664,-2.272267,-1.6493545,-6.8387375,-22.025047,52.119766,58.309437,-1.638796,1.1063074,-0.96258247
202,4.275618553161621,-140.20082092285156,77.98904418945312,3.7017772096305652,-2.587307206882797,-96.1906753830548,8.704113,-2.9181547,26.141268,7.3299093,-11.522747,1.4783834,-28.09102,-21.327965,-16.532507,62.553204,-8.57834,-1.4331337,-6.088339,-4.6456456,11.836678,-19.707182,32.173367,-43.14079,55.139797,11.074823,-2.3232567,-1.5299875,-6.475355,-22.16055,51.798374,58.113377,-1.3815298,1.0649236,-1.0733368
203,4.286301612854004,-140.85523986816406,77.94295501708984,3.688077627099106,-2.4290370699078774,-96.08798794031753,9.118687,-3.0045843,26.00886,7.247627,-11.931729,1.2303786,-28.417757,-20.812597,-17.106691,59.623383,-8.316684,-1.2900167,-6.270199,-4.5548816,11.68604,-20.032537,32.463665,-42.523438,54.922207,10.786685,-2.3767397,-1.4010539,-6.133718,-22.294794,51.53385,57.95638,-1.2055,1.0432308,-1.142038
204,4.290746688842773,-141.51185607910156,77.88272094726562,3.685423913668172,-2.2526339709949394,-95.97115570307848,9.512416,-3.095913,25.863567,7.1674633,-12.341341,0.98336387,-28.67212,-20.287441,-17.693804,56.52796,-8.039749,-1.0953311,-6.447393,-4.4699454,11.520244,-20.337454,32.74077,-41.917343,54.68425,10.5363865,-2.4187949,-1.2602414,-5.8142247,-22.425312,51.32586,57.846817,-1.1252629,1.0442545,-1.1698407
205,4.289229393005371,-142.1636199951172,77.80863189697266,3.6938080666504503,-2.058894535439119,-95.83746584140074,9.883358,-3.1942832,25.702267,7.0956798,-12.75776,0.7361399,-28.841728,-19.751469,-18.302053,53.22956,-7.7364244,-0.8324736,-6.620207,-4.393331,11.338308,-20.616074,33.002575,-41.308178,54.417038,10.3457365,-2.442171,-1.1140951,-5.5150595,-22.54966,51.173496,57.78486,-1.1875848,1.0808097,-1.140043
206,4.285411834716797,-142.82156372070312,77.72631072998047,3.712042469861454,-1.8477376386266995,-95.69047162372787,10.23365,-3.2991023,25.529554,7.0257745,-13.1758175,0.48618042,-28.928732,-19.203161,-18.934185,49.725292,-7.394315,-0.53301287,-6.7873306,-4.324179,11.140514,-20.875566,33.248535,-40.698933,54.130558,10.188431,-2.455382,-0.96116275,-5.242897,-22.666676,51.082413,57.77363,-1.3652902,1.1468986,-1.0580852
207,4.274625301361084,-143.48452758789062,77.63396453857422,3.7456910102297063,-1.6202679058888165,-95.53342039337213,10.564648,-3.4106412,25.350803,6.9612412,-13.592772,0.23590574,-28.954475,-18.638737,-19.562595,46.069195,-7.027905,-0.20666996,-6.948077,-4.2649465,10.928735,-21.115923,33.47909,-40.105675,53.834713,10.050508,-2.4679825,-0.7873122,-4.9906354,-22.774559,51.038994,57.8123,-1.5873307,1.2183043,-0.95763814
208,4.253033638000488,-144.14031982421875,77.5309829711914,3.7915792188239585,-1.3786176798846232,-95.36922429191299,10.87938,-3.528394,25.170502,6.8996253,-14.003736,-0.012238325,-28.93818,-18.055922,-20.161823,42.31081,-6.649861,0.13450964,-7.099062,-4.2178564,10.7052765,-21.318457,33.692673,-39.52197,53.52564,9.942797,-2.4892657,-0.57887,-4.7545223,-22.87196,51.032875,57.902733,-1.7758968,1.2707458,-0.8724523
209,4.22926139831543,-144.80111694335938,77.41278076171875,3.866763106405629,-1.1219936329538278,-95.1954463117141,11.177578,-3.6682477,24.988657,6.8411274,-14.40921,-0.25320807,-28.864613,-17.462044,-20.735931,38.386032,-6.237553,0.4961623,-7.24589,-4.198167,10.463371,-21.518085,33.89233,-38.990654,53.230316,9.835582,-2.5206492,-0.32547343,-4.5380797,-22.958538,51.08418,58.05782,-1.9084412,1.2945155,-0.8205947
210,4.194451808929443,-145.4630889892578,77.28410339355469,3.9674984730186504,-0.8533212947057821,-95.00778230505385,11.4606695,-3.828071,24.79903,6.78752,-14.812325,-0.49068275,-28.71147,-16.854357,-21.298088,34.25286,-5.772808,0.88015515,-7.3878593,-4.20471,10.206079,-21.68213,34.074932,-38.46455,52.91956,9.771825,-2.5567603,-0.037369028,-4.336157,-23.032484,51.183876,58.268852,-2.0307577,1.3038046,-0.7808323
211,4.156686305999756,-146.12863159179688,77.14682006835938,4.079380182020013,-0.5815060890603684,-94.80619777294102,11.735634,-3.989447,24.59817,6.7444906,-15.209401,-0.7288046,-28.484455,-16.226772,-21.83061,29.987593,-5.272728,1.2701647,-7.5275493,-4.2195907,9.951681,-21.821114,34.240536,-37.959766,52.599903,9.707873,-2.599574,0.2705427,-4.1562753,-23.094027,51.303593,58.52568,-2.1556463,1.3099613,-0.7297864
212,4.114918231964111,-146.78961181640625,77.00334930419922,4.186586643151934,-0.31660318599034776,-94.5882460521026,12.012651,-4.1383,24.379122,6.7110896,-15.592636,-0.97148734,-28.184168,-15.576139,-22.318459,25.660416,-4.7495527,1.6513139,-7.6657095,-4.227535,9.720579,-21.949928,34.38915,-37.497986,52.278797,9.598432,-2.6514041,0.58331656,-4.0038342,-23.143812,51.416084,58.812557,-2.288989,1.3245015,-0.643583
213,4.07107400894165,-147.4540252685547,76.8570327758789,4.300056214743951,-0.06032325651116375,-94.34513198007284,12.293438,-4.284242,24.131243,6.6847506,-15.967628,-1.2138779,-27.786142,-14.885563,-22.733004,21.151817,-4.1864405,2.0073843,-7.810645,-4.233649,9.51705,-22.084555,34.520966,-37.094173,51.961365,9.425775,-2.712299,0.90460813,-3.87832,-23.183218,51.515682,59.131424,-2.442112,1.3441693,-0.51685697
214,4.029051780700684,-148.126708984375,76.70124816894531,4.448676434387859,0.1688641881363118,-94.05077324889108,12.596891,-4.463198,23.827444,6.663454,-16.335878,-1.4497921,-27.232925,-14.1999855,-23.104464,16.381613,-3.5382304,2.3543758,-7.9847727,-4.2765794,9.34477,-22.203194,34.634502,-36.723686,51.635757,9.231203,-2.7817104,1.2378162,-3.7696226,-23.212646,51.611343,59.48257,-2.6092405,1.3652804,-0.36114717
215,3.9721429347991943,-148.79208374023438,76.54657745361328,4.66366860025853,0.3339915142316072,-93.67385065738488,12.956269,-4.70258,23.432346,6.655647,-16.68756,-1.6793351,-26.473236,-13.59978,-23.515013,11.470394,-2.7768953,2.7383246,-8.203671,-4.394016,9.220521,-22.341991,34.70869,-36.430256,51.352062,9.001482,-2.8624775,1.5706187,-3.6585984,-23.226957,51.68049,59.851475,-2.7806854,1.3981189,-0.17870776
216,3.9124085903167725,-149.46449279785156,76.3846435546875,4.95144396382289,0.41721047748345375,-93.20778168330894,13.390074,-5.0050635,22.936258,6.662996,-17.009054,-1.9072024,-25.70532,-13.206532,-23.99654,7.039932,-2.131829,3.2138383,-8.502488,-4.596566,9.158431,-22.445164,34.780903,-36.16797,51.066353,8.738084,-2.9554577,1.884476,-3.5611975,-23.232908,51.748325,60.222233,-2.9362533,1.4536104,0.028233312
217,3.849517822265625,-150.14256286621094,76.21085357666016,5.286028389270106,0.43932249307752635,-92.66806179907175,13.875065,-5.333095,22.359364,6.688889,-17.301058,-2.143327,-26.629313,-13.723811,-24.253017,6.819771,-3.625016,3.792457,-8.84288,-4.8611593,9.143748,-22.53235,34.840332,-35.961594,50.78803,8.412658,-3.067414,2.1876235,-3.4539766,-23.226585,51.77232,60.58723,-3.101066,1.539145,0.27346805
218,3.7727527618408203,-150.8264923095703,76.04134368896484,5.633996300553447,0.43048099298564785,-92.09190390171625,14.384188,-5.654016,21.740927,6.729168,-17.56759,-2.390353,-27.433336,-14.253574,-24.653105,6.5829773,-5.0406046,4.4497766,-9.207001,-5.1463366,9.162334,-22.613361,34.905594,-35.818367,50.511486,8.001596,-3.1954477,2.4842424,-3.3680027,-23.205103,51.78674,60.96847,-3.2651875,1.6464094,0.5523566
219,3.6896276473999023,-151.52345275878906,75.87002563476562,5.917005959438196,0.4484861255217006,-91.5882138633476,14.869725,-5.8796883,21.195364,6.796861,-17.815617,-2.6675134,-28.169098,-14.636131,-25.02064,6.464205,-6.2848907,5.1974335,-9.475245,-5.3540854,9.179721,-22.666157,34.934357,-35.70963,50.24327,7.6164765,-3.3268583,2.773008,-3.293762,-23.185411,51.78269,61.35178,-3.4154234,1.7614026,0.83630866
220,3.606461763381958,-152.21990966796875,75.71006774902344,6.156334910644738,0.4680676473503669,-91.15915278805518,15.364535,-6.0537186,20.714663,6.8645654,-18.020979,-2.9551816,-28.733183,-14.890288,-25.20975,6.4641957,-7.199211,6.0500803,-9.679397,-5.502602,9.212691,-22.656794,34.948856,-35.601555,49.96664,7.3130574,-3.447425,3.033234,-3.2576916,-23.164948,51.803787,61.746716,-3.5284512,1.8724282,1.0971878
221,3.5272066593170166,-152.90525817871094,75.55131530761719,6.427712777453984,0.45477595954670513,-90.76158377629547,15.902001,-6.2638335,20.245838,6.923333,-18.187992,-3.240467,-28.987991,-15.093814,-25.219118,6.4515195,-7.66885,7.2846165,-9.854106,-5.6754427,9.27384,-22.590996,34.948746,-35.5051,49.68305,7.1150036,-3.555016,3.2649956,-3.2433271,-23.149212,51.84347,62.14133,-3.5938506,1.9822198,1.3305349
222,3.460576295852661,-153.57237243652344,75.39773559570312,6.716252279782502,0.420251130244935,-90.39572126248204,16.468458,-6.4892225,19.794214,6.97877,-18.31788,-3.529852,-28.976492,-15.238396,-25.121284,6.391536,-7.7785,8.786796,-9.996813,-5.859167,9.358946,-22.480967,34.93794,-35.43058,49.395252,6.9782524,-3.6564875,3.4732175,-3.2470026,-23.139137,51.88933,62.532135,-3.629497,2.0969954,1.5502008
223,3.3992748260498047,-154.2509307861328,75.2457504272461,6.948096796601086,0.41501502209117397,-90.11240034598526,17.016916,-6.651247,19.422607,7.033298,-18.39759,-3.83091,-28.844437,-15.2495985,-24.863615,6.352801,-7.6250505,9.9808,-10.062999,-5.9717283,9.438942,-22.319878,34.913628,-35.364265,49.105038,6.877715,-3.74637,3.649355,-3.2803304,-23.131744,51.955906,62.919243,-3.6432214,2.2093005,1.7556854
224,3.3488593101501465,-154.9456787109375,75.09974670410156,7.043958783610046,0.485501599260716,-89.96171807389477,17.507395,-6.666085,19.195517,7.085548,-18.412773,-4.153506,-28.706354,-15.040565,-24.388304,6.3508296,-7.2615194,10.291574,-10.05664,-5.9071884,9.466725,-22.016232,34.848644,-35.205517,48.805775,6.848863,-3.8282678,3.7932007,-3.408218,-23.123705,52.129658,63.368046,-3.6106222,2.3056345,1.9532318
225,3.288703441619873,-155.64715576171875,74.99038696289062,6.892815319014135,0.7101016404800251,-90.07713771155899,17.874668,-6.4213448,19.266062,7.1542974,-18.391975,-4.5306954,-28.659185,-14.429648,-23.523466,6.5126405,-6.700905,9.28487,-9.792193,-5.563279,9.432726,-21.61914,34.758575,-35.014217,48.474846,6.8724623,-3.892447,3.9027367,-3.5817344,-23.124516,52.33107,63.819008,-3.5584216,2.390853,2.1431103
226,3.2314493656158447,-156.34681701660156,74.91084289550781,6.59993679300187,1.0132751153248634,-90.36143058783794,18.185556,-6.0353103,19.52008,7.2326875,-18.330154,-4.937811,-28.545132,-13.562281,-22.3643,6.6813116,-5.8274226,7.3842254,-9.394018,-5.042067,9.359483,-21.127705,34.61889,-34.771755,48.14504,6.96272,-3.9455814,3.9790192,-3.8217125,-23.136963,52.60984,64.299484,-3.4571002,2.4677715,2.3257604
227,3.1589694023132324,-157.03138732910156,74.89796447753906,6.243626376377845,1.3193676049863439,-90.66487054522555,18.500368,-5.575531,19.801756,7.314723,-18.192268,-5.349447,-28.3847,-12.647879,-21.191725,6.8596807,-4.731191,5.240232,-8.9956455,-4.4283714,9.263225,-20.598843,34.34962,-34.49607,47.930004,7.130134,-3.9978623,4.025788,-4.084828,-23.170843,52.947433,64.77348,-3.3359323,2.540505,2.4863796
228,3.072033166885376,-157.7439727783203,74.89134979248047,5.865912120522594,1.5530408980229256,-90.85460632380524,18.875792,-5.0614796,19.978779,7.4104347,-17.953573,-5.7509646,-28.145403,-11.821893,-20.309721,6.9603424,-3.4985564,3.4817817,-8.643529,-3.827502,9.217836,-20.120382,34.06294,-34.3529,47.8077,7.2554917,-4.0465655,4.037792,-4.2941284,-23.20939,53.21374,65.15534,-3.257411,2.6032948,2.611218
229,2.971318244934082,-158.47824096679688,74.8885269165039,5.469029954323282,1.701047645903229,-90.87618593150543,19.321556,-4.485235,20.00888,7.517283,-17.627869,-6.1417847,-27.859888,-11.121818,-19.757877,7.016627,-2.117255,2.1728597,-8.421201,-3.2375062,9.234973,-19.650892,33.760067,-34.279266,47.756786,7.3706293,-4.0935936,4.003443,-4.485472,-23.243065,53.470318,65.46747,-3.2059577,2.6591916,2.6924899
230,2.85939359664917,-159.20480346679688,74.91920471191406,5.016688696754255,1.7999958109037084,-90.80204467559572,19.80713,-3.816394,19.967709,7.643321,-17.227507,-6.5340023,-28.406027,-10.777018,-19.248465,9.013124,-1.6089631,1.0052727,-8.274527,-2.6097262,9.2944975,-19.14897,33.43965,-34.235786,47.746902,7.5026226,-4.136212,3.925368,-4.675499,-23.267033,53.72347,65.736206,-3.1780815,2.7073767,2.7389426
231,2.7504799365997314,-159.97279357910156,74.92475891113281,4.546265433836933,1.8559752449427975,-90.66769065695638,20.090628,-3.0131779,19.883104,8.3228445,-16.994743,-6.922253,-28.817406,-10.476306,-18.989195,10.891196,-1.0274239,0.03164814,-8.177269,-1.974374,9.375414,-18.614388,33.10156,-34.232727,47.800797,7.622233,-4.175038,3.8195333,-4.867806,-23.281069,53.96919,65.97123,-3.1592543,2.7455997,2.759418
232,2.6286070346832275,-160.76434326171875,74.91903686523438,4.101314740292337,1.871969023989751,-90.50312276459307,19.658127,-1.9419333,19.769007,10.70596,-17.492207,-7.302381,-29.047735,-10.259063,-18.982798,12.633106,-0.5021015,-0.6811045,-8.1050415,-1.3706026,9.4538555,-18.024977,32.742443,-34.260403,47.925335,7.7232513,-4.210368,3.7015078,-5.0489078,-23.28789,54.18131,66.17041,-3.1543255,2.7722173,2.7635074
233,2.4933760166168213,-161.5606231689453,74.92740631103516,3.6707537019501624,1.8549558557802193,-90.27094293632598,19.273338,-0.8726892,19.54479,13.056308,-17.846346,-7.6861796,-29.084557,-10.171474,-19.350021,14.27495,0.000111376954,-0.99496937,-8.09226,-0.78244203,9.507866,-17.397615,32.36218,-34.35684,48.144573,7.758474,-4.248869,3.5861583,-5.1973014,-23.289333,54.346813,66.31944,-3.18999,2.7857218,2.7483594
234,2.349844455718994,-162.35333251953125,74.9417953491211,3.216859875355835,1.8147670639335856,-89.96980137843072,18.880121,0.25078225,19.224186,15.473632,-18.111975,-8.077645,-28.932642,-10.15997,-20.04676,15.7612,0.5512816,-1.0019236,-8.134344,-0.17332155,9.546412,-16.73015,31.958178,-34.509148,48.44359,7.7562685,-4.287687,3.4622128,-5.3212414,-23.28699,54.476673,66.42051,-3.2571836,2.7889042,2.7112215
235,2.1908373832702637,-163.15676879882812,74.9615249633789,2.752313376260572,1.7519064971384293,-89.67795107514843,18.445364,1.4011557,18.872173,18.019035,-18.235136,-8.438185,-28.677042,-10.149532,-20.80782,17.16603,0.9597136,-0.95958626,-8.164743,0.44511625,9.593547,-16.028118,31.52796,-34.68132,48.812164,7.7656164,-4.3139906,3.3061702,-5.4530826,-23.2842,54.581127,66.49898,-3.3147292,2.7800465,2.6610904
236,2.0468029975891113,-163.9501953125,74.98595428466797,2.2968535832911487,1.6620799245539395,-89.47104457343914,17.954681,2.5411475,18.550344,20.725737,-18.145472,-8.72849,-28.394398,-10.059513,-21.375837,18.535202,1.0430195,-1.107694,-8.124982,1.0551007,9.674461,-15.323714,31.073332,-34.8632,49.26049,7.804675,-4.3155446,3.0950267,-5.62697,-23.2868,54.67034,66.58126,-3.3263113,2.7583613,2.6068206
237,1.9048389196395874,-164.7449188232422,75.01649475097656,1.8596627985201326,1.5428553447569473,-89.39162337309854,17.44774,3.6345227,18.290594,23.547306,-17.815744,-8.957326,-28.139832,-9.858782,-21.652939,19.933657,0.68662286,-1.5095506,-7.985405,1.6571258,9.793475,-14.595367,30.590097,-35.03791,49.785534,7.8567023,-4.3046207,2.8344927,-5.852701,-23.301523,54.73934,66.66593,-3.2757075,2.7206876,2.5448298
238,1.7690132856369019,-165.5290985107422,75.05731201171875,1.4360623748466708,1.3957224393724923,-89.39692349820295,16.936243,4.692638,18.060112,26.445097,-17.268057,-9.144274,-27.873867,-9.566334,-21.777588,21.310959,0.023285378,-2.020696,-7.7787695,2.2543879,9.93296,-13.832484,30.07602,-35.211475,50.381184,7.924342,-4.282836,2.5332031,-6.1104345,-23.3319,54.786915,66.73477,-3.1831622,2.6697462,2.4728549
239,1.6231632232666016,-166.30230712890625,75.11909484863281,1.0241981475256619,1.2209973465928028,-89.43285962449565,16.359695,5.7514477,17.820456,29.477692,-16.502731,-9.267426,-27.529552,-9.188621,-21.84932,22.540817,-0.7618209,-2.57012,-7.5419784,2.8336682,10.087818,-13.07867,29.541117,-35.4052,51.044964,8.052882,-4.2228594,2.1722507,-6.379392,-23.374163,54.807564,66.78001,-3.0864177,2.6107805,2.4022553
