unveil-humanoid-operators/unveil-humanoid-operators.github.io/feature-analysis-animation/data/feature_matrix_instances/weight_root_translate_peak_vel_walking_A266_walk_arc_cw_loop_R_001__A266.csv
Frame,root_translateX,root_translateY,root_translateZ,root_rotateX,root_rotateY,root_rotateZ,left_hip_pitch_joint_dof,left_hip_roll_joint_dof,left_hip_yaw_joint_dof,left_knee_joint_dof,left_ankle_pitch_joint_dof,left_ankle_roll_joint_dof,right_hip_pitch_joint_dof,right_hip_roll_joint_dof,right_hip_yaw_joint_dof,right_knee_joint_dof,right_ankle_pitch_joint_dof,right_ankle_roll_joint_dof,waist_yaw_joint_dof,waist_roll_joint_dof,waist_pitch_joint_dof,left_shoulder_pitch_joint_dof,left_shoulder_roll_joint_dof,left_shoulder_yaw_joint_dof,left_elbow_joint_dof,left_wrist_roll_joint_dof,left_wrist_pitch_joint_dof,left_wrist_yaw_joint_dof,right_shoulder_pitch_joint_dof,right_shoulder_roll_joint_dof,right_shoulder_yaw_joint_dof,right_elbow_joint_dof,right_wrist_roll_joint_dof,right_wrist_pitch_joint_dof,right_wrist_yaw_joint_dof
0,-0.42880186438560486,-1.4576871395111084,76.31250762939453,-3.2677180448854095,1.1525213910600616,80.218674360701,-25.96116,12.666793,14.374209,6.393591,-4.725356,-14.599088,8.7617,7.855374,-4.5546494,10.838891,-19.40699,-1.9150159,4.3906584,1.9205405,5.575074,6.211812,28.86904,-37.95891,50.225967,24.883354,8.691458,-6.795892,-6.87829,-28.43046,43.928402,45.174152,-15.301629,3.1982784,-2.8821054
1,-0.45832544565200806,-0.8214717507362366,76.2168960571289,-3.176820051466809,1.238347789801295,80.10157804993504,-25.659277,12.2633915,14.313044,6.4874935,-3.8643713,-14.288948,9.07953,7.597762,-4.478796,11.181297,-19.886839,-1.6606203,4.254858,1.8272629,5.4392,6.334367,28.96888,-38.09333,50.36336,24.914722,8.628931,-6.785172,-6.5062532,-28.488737,43.881847,44.91284,-15.485326,3.2287958,-2.8506074
2,-0.4946746826171875,-0.177027627825737,76.12162017822266,-3.0760965709111185,1.3204105708591978,79.9896662427841,-25.338753,11.856582,14.297122,6.5506573,-2.9870515,-14.04347,9.407314,7.331297,-4.410531,11.51466,-20.381073,-1.4038093,4.1528797,1.7159559,5.3008795,6.4239964,29.090143,-38.301098,50.51771,24.916119,8.565798,-6.7722006,-6.11221,-28.527359,43.792496,44.658516,-15.688126,3.2596138,-2.8218474
3,-0.53714919090271,0.4856516718864441,76.02513122558594,-2.9285433098211184,1.413994201951526,79.88423775409127,-25.025463,11.381094,14.218253,6.60966,-2.1075382,-13.656585,9.665217,6.99843,-4.359687,11.969764,-20.903175,-1.1350098,4.0679593,1.5405333,5.1531963,6.5191245,29.255127,-38.507275,50.62802,24.918377,8.511066,-6.765274,-5.701072,-28.540491,43.67164,44.41556,-15.880787,3.2825775,-2.7902787
4,-0.5740864872932434,1.1525994539260864,75.93991088867188,-2.70663985266394,1.5283540308864931,79.775895774971,-24.740488,10.791848,13.969746,6.694689,-1.2370917,-12.930084,9.805193,6.559379,-4.320586,12.623677,-21.444126,-0.8476874,3.9309165,1.305789,4.9736047,6.6103487,29.332413,-38.602493,50.788143,24.971874,8.469029,-6.7542334,-5.342899,-28.523592,43.629387,44.24675,-16.011826,3.2938364,-2.7535996
5,-0.6122905015945435,1.816142201423645,75.88861846923828,-2.3670712953098536,1.6711169616399024,79.66874873684914,-24.484377,9.997609,13.419251,6.7946677,-0.3995267,-11.668459,9.80227,5.962429,-4.3013244,13.519904,-22.036077,-0.54393303,3.8027802,0.94164366,4.7667255,6.6819487,29.413292,-38.6528,50.93102,25.064161,8.452476,-6.759573,-4.9604974,-28.478176,43.567326,44.09006,-16.09951,3.287574,-2.705427
6,-0.6625193357467651,2.488708019256592,75.8449478149414,-1.952289901253951,1.8235893738039195,79.54841957571018,-24.291975,9.08549,12.654853,7.0217047,0.37544212,-10.039877,9.7227,5.263063,-4.2766457,14.561374,-22.647581,-0.22925673,3.6752763,0.49711388,4.5480447,6.7563996,29.48381,-38.641205,51.06167,25.19614,8.453113,-6.776188,-4.5900526,-28.405922,43.522938,43.96583,-16.14707,3.2688174,-2.6488986
7,-0.7190710306167603,3.1625308990478516,75.81101989746094,-1.5333700379584685,1.9599507544324415,79.38713680419852,-25.397001,8.482849,11.749238,10.0816,-0.27647695,-8.383358,9.613762,4.545166,-4.203562,15.693887,-23.209614,0.103744164,3.5710118,0.05757477,4.3293777,6.846325,29.529444,-38.56972,51.186077,25.329199,8.45704,-6.77991,-4.22419,-28.323303,43.503075,43.87888,-16.157358,3.2425857,-2.588384
8,-0.781345546245575,3.8342888355255127,75.78544616699219,-1.1709208286506065,2.0631777701484455,79.16754032501096,-26.126688,7.9803877,11.229851,12.429782,-0.44144788,-7.019111,9.493881,3.8798046,-4.052826,16.905085,-23.669209,0.4623368,3.4987733,-0.3204705,4.112942,6.989304,29.566835,-38.425793,51.28102,25.428537,8.450826,-6.750364,-3.8927593,-28.193247,43.525208,43.893703,-16.134935,3.2109952,-2.5325112
9,-0.8569859266281128,4.5178303718566895,75.7602310180664,-0.8599130430305291,2.142502007019244,78.88142240624607,-26.546757,7.650439,11.177398,14.178079,-0.048821677,-5.99772,9.372051,3.254907,-3.8124168,18.158003,-24.035717,0.86673546,3.4694479,-0.62559664,3.883629,7.1753526,29.568386,-38.21766,51.360397,25.50846,8.43731,-6.6845145,-3.5540695,-28.067356,43.580643,43.95274,-16.063036,3.175012,-2.4723885
10,-0.9273555278778076,5.219283580780029,75.72554016113281,-0.5615501604630165,2.21203354707898,78.54764257454812,-26.780483,7.4314885,11.42874,15.569043,0.69519323,-5.1372023,9.221243,2.6288714,-3.507114,19.483696,-24.336817,1.3098167,3.4706335,-0.9019354,3.6392596,7.3920817,29.535078,-37.947075,51.42924,25.585102,8.421399,-6.5921717,-3.2098837,-27.949745,43.66458,44.045105,-15.939615,3.1336164,-2.4069216
11,-1.000938057899475,5.929898738861084,75.68962860107422,-0.27860728191607453,2.26721480212696,78.19548938627857,-26.91545,7.298213,11.841929,16.84071,1.3848779,-4.4077587,9.003578,2.0189395,-3.1718867,20.96213,-24.54657,1.7624106,3.4823105,-1.1560378,3.4049685,7.609539,29.47503,-37.636536,51.51088,25.605047,8.391078,-6.4645023,-2.853458,-27.837713,43.74967,44.163292,-15.805909,3.0915039,-2.3485703
12,-1.0773659944534302,6.6459150314331055,75.66439819335938,-0.01927576465242496,2.300296727642437,77.84972638289811,-27.021418,7.2206297,12.269261,18.195898,1.6371121,-3.7935982,8.688392,1.4488257,-2.8361576,22.666513,-24.63416,2.1937218,3.4894557,-1.3901199,3.20662,7.807616,29.4016,-37.30144,51.618904,25.52221,8.333872,-6.293139,-2.4702988,-27.724518,43.79867,44.299545,-15.714783,3.0530443,-2.30992
13,-1.1455293893814087,7.35263729095459,75.64795684814453,0.2116736491844528,2.3177425123806406,77.51307025694437,-27.139446,7.2074075,12.69749,19.733322,1.2916642,-3.3458016,8.281132,0.93399835,-2.4990149,24.594221,-24.63214,2.599749,3.4937549,-1.6052365,3.0390375,7.9885335,29.325678,-36.927025,51.752556,25.270695,8.23014,-6.0532556,-2.05111,-27.603456,43.802288,44.45552,-15.665704,3.0172634,-2.3088794
14,-1.2078917026519775,8.061185836791992,75.63690185546875,0.42278805557696725,2.3238405148846684,77.17672689143339,-27.230534,7.2613025,13.181748,21.338428,0.5686425,-3.0582457,7.792478,0.45596194,-2.1475902,26.709803,-24.543192,2.9953446,3.4987793,-1.8074747,2.890844,8.167635,29.252226,-36.508453,51.892044,24.892334,8.090478,-5.75923,-1.6049558,-27.472086,43.775917,44.636078,-15.639476,2.9820306,-2.3346407
15,-1.2584542036056519,8.757487297058105,75.6313705444336,0.6239483353467697,2.305614164033807,76.84542764622383,-27.239162,7.336148,13.679059,22.881914,-0.3352726,-2.8393,7.2040143,-0.007204491,-1.7897847,29.03361,-24.285145,3.3801765,3.4962058,-2.005195,2.78084,8.341951,29.185719,-36.07801,52.02232,24.500843,7.9491735,-5.46164,-1.1551722,-27.331064,43.727047,44.844677,-15.64958,2.9494958,-2.3569467
16,-1.291561245918274,9.441398620605469,75.6304702758789,0.8248447892659732,2.249477448167068,76.5223845140103,-27.106985,7.380228,14.150808,24.225569,-1.2185254,-2.59784,6.5075984,-0.47229156,-1.431965,31.569796,-23.770802,3.759921,3.480025,-2.205457,2.7281363,8.507529,29.129194,-35.669624,52.129345,24.209513,7.8423443,-5.210107,-0.706354,-27.182089,43.647713,45.07035,-15.724416,2.9221873,-2.344867
17,-1.3199836015701294,10.119609832763672,75.64104461669922,1.019057003911458,2.1447118654495223,76.20959154000607,-26.828915,7.388111,14.581198,25.373363,-2.0889618,-2.3177316,5.698069,-0.9202561,-1.0927439,34.375866,-22.965574,4.1160626,3.453676,-2.4025168,2.751227,8.663366,29.082937,-35.279476,52.21245,24.043728,7.7772894,-4.9944882,-0.22818705,-27.023079,43.500256,45.305492,-15.901214,2.889609,-2.309106
18,-1.3570404052734375,10.801647186279297,75.66638946533203,1.20606906175027,2.002076099199839,75.90568606988448,-26.440006,7.369387,14.995153,26.391088,-3.0318284,-2.0460076,4.7925835,-1.3373778,-0.7641503,37.409992,-21.91077,4.471421,3.421591,-2.5974073,2.8348045,8.812977,29.047554,-34.893326,52.273167,23.94797,7.7369466,-4.7959933,0.2698863,-26.853453,43.29972,45.55758,-16.151024,2.853851,-2.2599604
19,-1.3913458585739136,11.487875938415527,75.7061996459961,1.4034038240319906,1.8396194712319816,75.6085362678933,-25.936462,7.2971883,15.415918,27.217604,-3.962955,-1.7857047,3.8131227,-1.7443563,-0.40863934,40.53814,-20.638794,4.896702,3.3718798,-2.805989,2.9480329,8.943275,29.02518,-34.541176,52.315174,23.89226,7.7204075,-4.6503897,0.75310045,-26.677671,43.094128,45.814064,-16.437246,2.8365753,-2.1654944
20,-1.4280387163162231,12.162086486816406,75.76296997070312,1.6281900192788048,1.6754967452279301,75.31664264499288,-25.313805,7.149762,15.863945,27.792557,-4.797911,-1.5396365,2.7769527,-2.1622162,0.016210588,43.637554,-19.18599,5.457871,3.2950854,-3.043402,3.0595517,9.049213,29.018375,-34.248077,52.336113,23.855085,7.726972,-4.5936775,1.1861596,-26.5039,42.932545,46.062637,-16.718199,2.8591669,-1.9932042
21,-1.467613697052002,12.83248519897461,75.830322265625,1.9023260802510957,1.5024130557217483,75.02316405902036,-24.523008,6.901077,16.36404,28.04684,-5.5163603,-1.3002682,1.6599443,-2.5833626,0.60208404,46.75176,-17.45037,6.187758,3.192428,-3.3301868,3.1774933,9.137966,29.025076,-34.001404,52.326916,23.82706,7.77123,-4.6433616,1.5618337,-26.338243,42.81716,46.302086,-16.998886,2.9424675,-1.7099859
22,-1.5038939714431763,13.496628761291504,75.9031982421875,2.2101571909947637,1.3155868604704148,74.73060895078902,-23.59023,6.569802,16.894102,28.040302,-6.1676593,-1.0664,0.46482307,-2.9676816,1.3134143,49.92742,-15.460778,7.0802507,3.0671895,-3.6508946,3.3118756,9.217288,29.043903,-33.787144,52.285976,23.826992,7.8486023,-4.777653,1.910084,-26.182283,42.717907,46.52642,-17.305065,3.0691805,-1.3399789
23,-1.5403153896331787,14.149620056152344,75.9820556640625,2.508057397585109,1.1366810850607658,74.45399858606649,-22.620934,6.2108984,17.39936,27.905134,-6.7723,-0.8533688,-0.7592786,-3.3055577,2.0017424,53.06014,-13.452417,8.1104,2.9120798,-3.962628,3.4384236,9.255489,29.08177,-33.65312,52.239815,23.851196,7.9293823,-4.9735565,2.2175977,-26.039183,42.667137,46.734257,-17.585154,3.2036073,-0.9372824
24,-1.5786173343658447,14.798212051391602,76.0654067993164,2.7563440206746006,0.9868481636954466,74.20838395306376,-21.716072,5.878622,17.831467,27.77029,-7.3502,-0.67769265,-1.982778,-3.624765,2.5139682,56.0744,-11.663733,9.210942,2.7200422,-4.2277107,3.5321321,9.233657,29.149637,-33.638275,52.20397,23.903942,7.9834166,-5.208589,2.4863012,-25.911512,42.68255,46.915905,-17.803886,3.3109639,-0.5560943
25,-1.6166709661483765,15.437820434570312,76.14547729492188,2.9550661833467267,0.8686234515826443,73.99836744632836,-20.88156,5.5725455,18.185602,27.636816,-7.898004,-0.543986,-3.2386699,-3.9480531,2.8721917,59.035427,-10.057684,10.474996,2.4868655,-4.4483447,3.5890217,9.151432,29.256325,-33.76414,52.16681,24.023176,8.007361,-5.5360847,2.7043052,-25.802319,42.791374,47.0735,-17.92559,3.3875942,-0.18640189
26,-1.6350826025009155,16.058244705200195,76.22361755371094,3.122661504882698,0.7715538185687213,73.81734889380442,-20.070704,5.272462,18.485058,27.449326,-8.408893,-0.44448343,-4.5511875,-4.2777762,3.1418388,61.99927,-8.550503,11.863464,2.215284,-4.6438513,3.62383,9.010035,29.403805,-34.01685,52.12401,24.180677,8.014347,-5.949785,2.8752086,-25.71235,42.97665,47.20549,-17.975697,3.4510124,0.19266444
27,-1.6476867198944092,16.66588020324707,76.29718780517578,3.252118862882785,0.6973901371471515,73.66300743843246,-19.30073,5.0005956,18.730997,27.24888,-8.896653,-0.3774268,-5.880243,-4.6626644,3.2201138,64.86259,-7.2977467,13.072419,1.9155512,-4.8063655,3.6376073,8.829875,29.590574,-34.35227,52.073227,24.3164,8.001091,-6.3384323,3.0334864,-25.638496,43.181126,47.292786,-18.014898,3.499134,0.5430001
28,-1.6521612405776978,17.25448989868164,76.36481475830078,3.337867493207339,0.6477634080496646,73.53205559664863,-18.583664,4.77542,18.927752,27.06734,-9.371069,-0.34035623,-7.179066,-5.174411,2.9960165,67.502045,-6.4436836,13.790256,1.5978513,-4.9296665,3.6331856,8.612277,29.814249,-34.742348,52.02746,24.353603,7.9651065,-6.590198,3.2035236,-25.57551,43.35703,47.321922,-18.093931,3.5291064,0.8262195
29,-1.6443653106689453,17.835416793823242,76.43543243408203,3.3734916280492415,0.6270189214945525,73.43397096870797,-17.947107,4.6122494,19.064678,26.946026,-9.84471,-0.35330194,-8.434372,-5.8932705,2.384589,69.90841,-6.061849,13.892457,1.2514489,-5.0106626,3.6055555,8.337153,30.07796,-35.212227,52.00064,24.213196,7.8988957,-6.6612515,3.3864796,-25.519693,43.505177,47.28259,-18.242737,3.5413587,1.037722
30,-1.6332238912582397,18.41582489013672,76.5081787109375,3.369188352556874,0.6319851849002596,73.36806375487228,-17.370012,4.4925494,19.148775,26.848324,-10.3049135,-0.41015992,-9.661788,-6.8239913,1.4600164,72.139694,-6.0627127,13.52092,0.8764367,-5.059753,3.5568607,8.007378,30.382141,-35.77092,51.981125,23.953896,7.806246,-6.6169505,3.5664663,-25.469877,43.649048,47.18913,-18.424356,3.5367794,1.1956862
31,-1.6078330278396606,18.98736572265625,76.58240509033203,3.344747029495949,0.6527460133288048,73.31649364691337,-16.800037,4.385572,19.208138,26.704044,-10.731127,-0.46863025,-10.852835,-7.9150124,0.34870178,74.16278,-6.347076,12.781238,0.49339843,-5.090196,3.4990158,7.656247,30.717424,-36.366077,51.950954,23.703762,7.702507,-6.507673,3.7564318,-25.424742,43.760677,47.059475,-18.61236,3.5130625,1.2959214
32,-1.5629456043243408,19.55305290222168,76.67176818847656,3.318103830482701,0.6797240132197452,73.2607090331854,-16.187063,4.261531,19.269224,26.446081,-11.104823,-0.4865669,-12.006118,-9.096826,-0.82712466,75.943344,-6.81291,11.788775,0.12150864,-5.1121297,3.4439392,7.302611,31.06975,-36.954506,51.90772,23.580137,7.603628,-6.381944,3.9640865,-25.38365,43.81873,46.913303,-18.775444,3.468342,1.3341054
33,-1.5278176069259644,20.119443893432617,76.7643051147461,3.291855183216475,0.7166862681576224,73.20519992227938,-15.522244,4.10808,19.327168,26.045515,-11.415491,-0.4413756,-13.111084,-10.426917,-2.1299458,77.47559,-7.5966573,10.444392,-0.24549101,-5.1215262,3.380862,6.9557385,31.430883,-37.548122,51.859455,23.64605,7.5057416,-6.232514,4.1945124,-25.347614,43.818607,46.749714,-18.927523,3.3969057,1.297217
34,-1.4885802268981934,20.68975830078125,76.86734771728516,3.253635560355586,0.7654714463830081,73.157146988666,-14.833355,3.9471593,19.367825,25.549309,-11.678675,-0.3599461,-14.149009,-11.887679,-3.584784,78.77718,-8.72738,8.764308,-0.6167859,-5.1090584,3.3091364,6.5834594,31.798313,-38.17518,51.826397,23.817629,7.403649,-6.0378156,4.4404874,-25.317484,43.774685,46.56205,-19.077604,3.3021684,1.1912725
35,-1.4532649517059326,21.258913040161133,76.97005462646484,3.2001782813836686,0.8147371009901208,73.1010812266596,-14.122304,3.7984269,19.404453,24.996773,-11.908856,-0.2749651,-15.129451,-13.295111,-5.029388,79.84354,-9.914635,7.0286016,-0.9694258,-5.0761113,3.2487109,6.2022233,32.16584,-38.766163,51.785637,24.047865,7.312396,-5.824372,4.696282,-25.292627,43.688293,46.367172,-19.186657,3.1956356,1.0407269
36,-1.4095385074615479,21.820606231689453,77.08011627197266,3.1309343824380433,0.8536829843385226,73.02179075286173,-13.387155,3.6769443,19.453382,24.416626,-12.120091,-0.21932003,-16.081327,-14.488806,-6.318503,80.66896,-10.84114,5.4905014,-1.2872711,-5.0270677,3.220499,5.8137364,32.527397,-39.261868,51.72688,24.273037,7.2460012,-5.6190124,4.945179,-25.271547,43.573425,46.186325,-19.208351,3.0885813,0.8699602
37,-1.356614351272583,22.367841720581055,77.18627166748047,3.041994001755111,0.8815465131824494,72.916145785062,-12.628574,3.5905838,19.51413,23.809916,-12.30924,-0.21002866,-17.035484,-15.474532,-7.4713573,81.251854,-11.393653,4.1205444,-1.5697423,-4.957115,3.2257695,5.424274,32.880795,-39.646423,51.65047,24.51449,7.2093744,-5.4146185,5.1885514,-25.252348,43.42626,46.023094,-19.120817,2.9712095,0.6596083
38,-1.3006449937820435,22.914657592773438,77.29471588134766,2.9349808650098073,0.903654018092563,72.79162070437421,-11.846913,3.529903,19.581545,23.161205,-12.470745,-0.2288078,-17.982416,-16.322649,-8.567307,81.595695,-11.735701,2.8103526,-1.8282672,-4.865763,3.2538326,5.027911,33.226547,-39.951912,51.569504,24.789885,7.1947474,-5.2012815,5.430388,-25.234415,43.24617,45.870377,-18.953056,2.8412466,0.4053653
39,-1.2502623796463013,23.45696449279785,77.402099609375,2.821060086227511,0.9186495997544434,72.64782311824244,-11.040836,3.4809542,19.6653,22.476236,-12.609806,-0.2556842,-18.904074,-16.987076,-9.556073,81.692314,-11.944465,1.6796412,-2.0595691,-4.765911,3.3044147,4.634201,33.562595,-40.168427,51.473637,25.05455,7.196784,-5.001169,5.659245,-25.217705,43.049732,45.735176,-18.731556,2.7206585,0.15407753
40,-1.1890023946762085,23.97968292236328,77.50699615478516,2.7109048377282465,0.9252548323921564,72.48437311060161,-10.210298,3.4305744,19.77507,21.7641,-12.733845,-0.27034423,-19.786438,-17.418089,-10.380463,81.53309,-12.092312,0.8523929,-2.2635741,-4.669521,3.3762329,4.257614,33.886166,-40.28,51.351345,25.2663,7.2095914,-4.8364906,5.867713,-25.20191,42.85092,45.62106,-18.489252,2.6324131,-0.04768893
41,-1.1369932889938354,24.51661491394043,77.60751342773438,2.6077026185966337,0.9147915642544655,72.29256345695558,-9.336121,3.3720765,19.921362,21.010252,-12.837928,-0.2583493,-20.630844,-17.586338,-11.008262,81.096664,-12.166892,0.39836666,-2.4339132,-4.5795007,3.4794652,3.9041069,34.193985,-40.265556,51.19979,25.434761,7.2409306,-4.7170796,6.0553794,-25.187176,42.642185,45.52751,-18.214117,2.5877564,-0.19364247
42,-1.074784278869629,25.04839324951172,77.70445251464844,2.507150624922406,0.8908462150790891,72.0751472632353,-8.426085,3.311595,20.097235,20.217052,-12.921655,-0.23574336,-21.455128,-17.526575,-11.474192,80.389755,-12.1268,0.23817004,-2.5738044,-4.490121,3.6103516,3.567012,34.485634,-40.136005,51.02845,25.576975,7.290412,-4.6296377,6.223085,-25.173347,42.42284,45.45429,-17.89296,2.5730042,-0.30694416
43,-1.0037158727645874,25.571123123168945,77.7923583984375,2.4073048661709624,0.8704557002313024,71.84864054208089,-7.513364,3.2524648,20.286543,19.40546,-12.992314,-0.22571242,-22.269018,-17.28261,-11.816428,79.4459,-11.998282,0.27444714,-2.697769,-4.4003606,3.7463636,3.2381675,34.76343,-39.926888,50.845142,25.659416,7.3387356,-4.561442,6.370811,-25.159359,42.211926,45.405426,-17.56383,2.5741153,-0.3853088
44,-0.9296713471412659,26.089786529541016,77.87208557128906,2.306563137264725,0.870878875132313,71.62960899350969,-6.6345325,3.2005131,20.472971,18.604675,-13.060969,-0.2488682,-23.078838,-16.89878,-12.074123,78.29623,-11.811552,0.40953663,-2.8206136,-4.309147,3.8643637,2.914447,35.031116,-39.67021,50.65302,25.651012,7.367222,-4.499994,6.508334,-25.141844,42.020622,45.378098,-17.274395,2.57744,-0.42603078
45,-0.8472844958305359,26.606220245361328,77.9431381225586,2.1992541264504943,0.896306716282307,71.42197094361515,-5.7929196,3.1624258,20.653316,17.81302,-13.125389,-0.30899122,-23.898512,-16.32795,-12.206347,76.923935,-11.568504,0.6566065,-2.94259,-4.2124987,3.9611762,2.5912702,35.29116,-39.3624,50.454315,25.532751,7.3696423,-4.4541554,6.6273203,-25.117596,41.85091,45.382984,-17.003263,2.5860717,-0.4154759
46,-0.7627960443496704,27.118741989135742,78.00613403320312,2.0890545537758696,0.9370396009861771,71.21775451774535,-4.971472,3.1324115,20.836243,17.022467,-13.181878,-0.39235485,-24.715061,-15.577996,-12.203168,75.31569,-11.259579,1.0468671,-3.0574877,-4.1146245,4.0480905,2.2740915,35.54408,-38.98939,50.244797,25.324944,7.356295,-4.4269276,6.7291436,-25.084969,41.693207,45.41857,-16.741917,2.6055558,-0.35984433
47,-0.6663773655891418,27.6269474029541,78.05801391601562,1.9864999927713434,0.9901611925509738,71.0155353216314,-4.1656914,3.0951407,21.023394,16.229082,-13.234981,-0.49215084,-25.495926,-14.770181,-12.15249,73.511375,-10.898324,1.5122014,-3.1677182,-4.0255384,4.1249547,1.9659415,35.79083,-38.576515,50.022396,25.048878,7.3332596,-4.3972435,6.815475,-25.044384,41.558277,45.47916,-16.534775,2.6251538,-0.2864033
48,-0.55914705991745,28.13304328918457,78.098388671875,1.9012530568564878,1.0534679634996327,70.81336525341119,-3.3856113,3.04203,21.215126,15.459554,-13.295669,-0.60261965,-26.21102,-14.017263,-12.145245,71.549,-10.493303,1.9899213,-3.2729392,-3.9550674,4.19233,1.6596797,36.031868,-38.157433,49.791668,24.720928,7.30616,-4.3435516,6.871779,-25.000206,41.4688,45.571888,-16.41053,2.6331708,-0.22301377
49,-0.45340025424957275,28.637516021728516,78.12874603271484,1.8323645734367484,1.1286594521833737,70.60765797289919,-2.6299617,2.9743633,21.414213,14.705656,-13.3616295,-0.73074317,-26.864153,-13.30268,-12.168956,69.41185,-10.017152,2.5006633,-3.3678951,-3.9010649,4.248237,1.3532164,36.266315,-37.727547,49.550785,24.305359,7.272738,-4.2566795,6.9035587,-24.955181,41.426502,45.69598,-16.405624,2.621462,-0.18163408
50,-0.3476542532444,29.142045974731445,78.14427947998047,1.7742122902902997,1.2164794731818158,70.40090191980693,-1.8980085,2.897989,21.618547,13.965675,-13.431595,-0.8750677,-27.462336,-12.580594,-12.185659,67.08136,-9.4748,3.0642045,-3.4545536,-3.857737,4.29315,1.0487982,36.493492,-37.274742,49.299927,23.805975,7.230677,-4.14944,6.9189,-24.909348,41.418682,45.84427,-16.49608,2.5978124,-0.14558573
51,-0.22693653404712677,29.639196395874023,78.15076446533203,1.730006550603599,1.3138194651201631,70.20022983146987,-1.1875702,2.8073654,21.822369,13.245176,-13.5068245,-1.0190262,-27.985476,-11.913638,-12.254528,64.59497,-8.91774,3.618285,-3.5426297,-3.828711,4.3299127,0.7504218,36.714138,-36.817547,49.04247,23.302107,7.1857343,-4.0332265,6.9153147,-24.863508,41.438553,46.006485,-16.62798,2.5750387,-0.09893609
52,-0.10432052612304688,30.135177612304688,78.14952850341797,1.7020308191657394,1.4176859626903109,70.01254559536788,-0.49937367,2.6986213,22.019857,12.555944,-13.592303,-1.1474214,-28.416088,-11.359533,-12.438189,61.989372,-8.395388,4.1034966,-3.639987,-3.8169482,4.361365,0.46119013,36.92932,-36.377007,48.781593,22.872742,7.1440477,-3.9189198,6.8894215,-24.818644,41.479984,46.17272,-16.744677,2.5658624,-0.02564263
53,0.017078213393688202,30.62421989440918,78.13531494140625,1.6878280936155647,1.527275619563485,69.84253496098728,0.16009511,2.5762594,22.207138,11.909855,-13.689192,-1.254173,-28.743681,-10.923792,-12.764727,59.248615,-7.925238,4.520609,-3.7504072,-3.8215218,4.390251,0.17756088,37.13931,-35.953976,48.5167,22.52895,7.11076,-3.8042662,6.84386,-24.774633,41.54518,46.33774,-16.838749,2.575051,0.09294247
54,0.1454215794801712,31.12783432006836,78.11405944824219,1.686047048651236,1.644650719286909,69.68559502482995,0.7948436,2.4414105,22.387651,11.29347,-13.795406,-1.3496051,-28.977772,-10.565062,-13.2035885,56.35318,-7.472166,4.902888,-3.8689706,-3.8400836,4.413924,-0.10152806,37.34381,-35.54008,48.246994,22.231405,7.081361,-3.684947,6.784973,-24.731258,41.630863,46.50394,-16.943327,2.595233,0.24374217
55,0.2841382920742035,31.630170822143555,78.080078125,1.7019078552934155,1.7708773620201854,69.53565528599817,1.4153587,2.2861314,22.566147,10.687708,-13.9044485,-1.4437386,-29.130577,-10.269034,-13.730499,53.328003,-7.0044246,5.242788,-3.9896252,-3.8749099,4.427965,-0.37115857,37.542633,-35.143047,47.974445,21.982246,7.049072,-3.5691404,6.7120633,-24.688944,41.7257,46.67103,-17.057028,2.6211798,0.39532864
56,0.428808331489563,32.13452911376953,78.03447723388672,1.7398735617491865,1.9072198044585904,69.38633986584875,2.0383663,2.0999339,22.747456,10.0589695,-14.0077505,-1.5449356,-29.218185,-10.023032,-14.320767,50.20657,-6.4919558,5.5311337,-4.1084824,-3.9273171,4.426733,-0.62688893,37.735043,-34.771362,47.703518,21.781963,7.0070367,-3.4652622,6.6487484,-24.64761,41.798042,46.82336,-17.204617,2.6479537,0.5168135
57,0.5825778245925903,32.64042663574219,77.977294921875,1.802054581705304,2.058014471018097,69.23946462491512,2.664111,1.8771282,22.930105,9.395289,-14.10061,-1.6567025,-29.229158,-9.844962,-15.014255,46.9531,-5.9177475,5.747591,-4.2254834,-3.9962964,4.406203,-0.870072,37.919765,-34.426723,47.43088,21.652363,6.948706,-3.3834016,6.6023145,-24.60686,41.83462,46.96011,-17.412325,2.6753173,0.6054388
58,0.7325636744499207,33.14975357055664,77.91365051269531,1.8855867171524863,2.2211361678646027,69.09858710923065,3.287401,1.6230363,23.110605,8.709914,-14.186189,-1.7726471,-29.155375,-9.716408,-15.8162365,43.550903,-5.29304,5.9138184,-4.3412657,-4.081235,4.370693,-1.1069127,38.096306,-34.1089,47.15894,21.584925,6.8796616,-3.316159,6.556983,-24.567633,41.855675,47.091084,-17.656145,2.7053769,0.6758914
59,0.8864096403121948,33.65354919433594,77.8380126953125,1.9864465989759592,2.3875639874752457,68.96106135029164,3.9208605,1.3435559,23.289322,7.998737,-14.261052,-1.8936769,-29.01159,-9.579271,-16.647367,40.046535,-4.6270027,6.0759916,-4.455498,-4.182772,4.3267817,-1.3373091,38.264874,-33.821445,46.89818,21.535873,6.81085,-3.2455049,6.5158763,-24.530695,41.868767,47.204483,-17.898481,2.7371788,0.72423726
60,1.0518274307250977,34.16622543334961,77.74762725830078,2.1026756598375576,2.547837470194964,68.8252482618093,4.465218,1.093394,23.4632,7.5172606,-14.458458,-2.0221722,-28.81312,-9.390012,-17.422426,36.4887,-3.9301367,6.271792,-4.5681205,-4.30272,4.2811284,-1.5578163,38.426197,-33.566067,46.656147,21.462645,6.7530074,-3.1535358,6.4915924,-24.495626,41.873184,47.280685,-18.110472,2.770059,0.7466674
61,1.2320313453674316,34.67338943481445,77.64820098876953,2.248381065663745,2.702465402583809,68.69467869509998,4.827074,0.9006811,23.630873,7.4808865,-14.894617,-2.1583693,-28.54418,-9.161264,-18.126669,32.81278,-3.1778247,6.5067368,-4.6817064,-4.4577026,4.2319627,-1.7730912,38.58192,-33.345604,46.43635,21.344315,6.706751,-3.0244462,6.4701138,-24.463722,41.88929,47.326553,-18.273941,2.8076208,0.72760844
62,1.4196302890777588,35.18805694580078,77.5377197265625,2.426731558241965,2.8510023585228548,68.5758560110519,5.1991324,0.6735749,23.791656,7.4431973,-15.334276,-2.2983859,-28.18519,-8.921048,-18.801151,28.984943,-2.3578606,6.756893,-4.803696,-4.6483107,4.179745,-1.9777416,38.73278,-33.154217,46.229843,21.2084,6.6669593,-2.872144,6.4623675,-24.434608,41.90137,47.339355,-18.42025,2.8495624,0.67431086
63,1.6085432767868042,35.70962905883789,77.41606903076172,2.621556901522745,2.9809664383476293,68.47229199964194,5.594341,0.42878786,23.935635,7.405135,-15.772123,-2.4435065,-27.748169,-8.663291,-19.439728,25.108517,-1.5028611,7.009714,-4.9354286,-4.8571305,4.1397243,-2.1728106,38.87828,-32.995934,46.03638,21.078426,6.6354547,-2.722439,6.461996,-24.408243,41.90149,47.32543,-18.53324,2.888276,0.6156719
64,1.806201457977295,36.22871017456055,77.28731536865234,2.817537243663633,3.0796495880721544,68.38742772008621,6.027012,0.18242256,24.05268,7.366442,-16.202578,-2.5945954,-27.250801,-8.385661,-20.036684,21.300392,-0.6514861,7.2530766,-5.0768375,-5.0635157,4.1248384,-2.3750896,39.001606,-32.88429,45.876297,20.978937,6.6145034,-2.5990074,6.467287,-24.386934,41.878506,47.289055,-18.59904,2.9164326,0.58066905
65,2.00541090965271,36.7519645690918,77.15106964111328,3.022285327109641,3.1404006698829687,68.32683579639288,6.502846,-0.07541603,24.132048,7.3242984,-16.626684,-2.7483926,-26.69608,-8.0850315,-20.540483,17.5287,0.2280108,7.4988437,-5.2343664,-5.27586,4.1426916,-2.5851247,39.10172,-32.818237,45.748318,20.92899,6.609898,-2.5138643,6.4797454,-24.370111,41.8209,47.227734,-18.601091,2.9302783,0.574308
66,2.215977191925049,37.27751541137695,77.00528717041016,3.25716009283317,3.16061164745037,68.30185490087666,7.023696,-0.36802414,24.16601,7.2788033,-17.047262,-2.9021626,-26.063263,-7.8026986,-20.971497,13.749632,1.1405456,7.7434864,-5.420167,-5.519611,4.1931047,-2.7921205,39.192696,-32.790154,45.63762,20.910267,6.6188736,-2.4539683,6.499438,-24.355507,41.738132,47.13903,-18.550312,2.9343698,0.5822154
67,2.4404075145721436,37.811668395996094,76.85787200927734,3.5142631077326927,3.1423737253685364,68.31354403572475,7.588016,-0.68352157,24.158443,7.230893,-17.455969,-3.0596406,-25.340479,-7.5659385,-21.437256,10.046544,2.0246055,7.9575415,-5.6374264,-5.784558,4.2674084,-2.9890604,39.273483,-32.796837,45.547485,20.896626,6.6302037,-2.4036613,6.5178137,-24.34398,41.65575,47.035366,-18.473806,2.933871,0.60338145
68,2.667175054550171,38.349365234375,76.70877838134766,3.7692376811685624,3.0990865550901576,68.3472422182996,8.181701,-0.9895016,24.12997,7.189754,-17.849548,-3.2274985,-24.69907,-7.424324,-22.02254,6.878236,2.6237361,8.119859,-5.8613043,-6.0561433,4.358231,-3.157154,39.385136,-32.841953,45.43891,20.84862,6.63519,-2.3520708,6.543394,-24.332409,41.57274,46.910145,-18.41355,2.9323356,0.6387953
69,2.902292490005493,38.894004821777344,76.56060791015625,3.99904925728922,3.0396506412417863,68.38775473371692,8.797004,-1.2582928,24.100046,7.154754,-18.231052,-3.4117968,-25.265432,-7.7998376,-22.602451,6.769363,1.5651902,8.282082,-6.101341,-6.2951207,4.45108,-3.3083246,39.47378,-32.915085,45.367367,20.759583,6.627782,-2.2776573,6.543579,-24.329004,41.533672,46.78725,-18.34937,2.9332445,0.6913237
70,3.1391427516937256,39.449398040771484,76.41139221191406,4.197323906352782,2.973037549142897,68.42274706351071,9.424986,-1.4832295,24.077353,7.127099,-18.603367,-3.611797,-25.734932,-8.133821,-23.298595,6.6957517,0.46909145,8.433014,-6.344486,-6.49312,4.5406475,-3.4477017,39.530273,-33.01312,45.33647,20.653486,6.613962,-2.1906614,6.5267067,-24.33258,41.518257,46.663067,-18.278961,2.9335895,0.7599516
71,3.3790245056152344,40.0057373046875,76.2630615234375,4.3636847240406675,2.9155817994483897,68.43838096222275,10.049403,-1.6627393,24.070623,7.1082106,-18.954222,-3.8246188,-26.10156,-8.419181,-24.087307,6.6531186,-0.584486,8.502592,-6.551779,-6.658109,4.6132207,-3.5748653,39.587234,-33.154217,45.31175,20.548067,6.599221,-2.1157656,6.5157757,-24.344336,41.507473,46.5291,-18.2087,2.930457,0.83229935
72,3.625260353088379,40.56304168701172,76.12390899658203,4.489951481548024,2.8834393291502827,68.41726520322956,10.651825,-1.7856516,24.093063,7.10832,-19.276735,-4.0494356,-26.349455,-8.634481,-24.945839,6.6199117,-1.5018339,8.415855,-6.7353725,-6.7652917,4.649266,-3.6420505,39.609127,-33.25829,45.28132,20.5159,6.5855646,-2.073825,6.4716725,-24.355362,41.532124,46.43912,-18.153234,2.9218438,0.8936959
73,3.883692979812622,41.131778717041016,75.98802947998047,4.606540667027831,2.876309927865237,68.36433707670447,11.235143,-1.8913655,24.142813,7.1220865,-19.575642,-4.279879,-26.47206,-8.814914,-25.92279,6.6211824,-2.329819,8.200541,-6.868799,-6.856412,4.637999,-3.6894135,39.62308,-33.40812,45.260563,20.523386,6.5720143,-2.0695717,6.436264,-24.376823,41.585022,46.359165,-18.087906,2.90641,0.940608
74,4.147223949432373,41.7008056640625,75.85359954833984,4.701608980800926,2.8895694271962644,68.27831393878962,11.804473,-1.9680728,24.224876,7.147705,-19.853128,-4.5196857,-26.47194,-8.936307,-27.008005,6.6398473,-3.0900927,7.8809376,-6.973814,-6.912696,4.601076,-3.675933,39.62062,-33.531963,45.21988,20.590097,6.5568547,-2.0963361,6.379744,-24.395718,41.65696,46.303574,-18.037388,2.884179,0.98420227
75,4.410458564758301,42.27570343017578,75.7254867553711,4.741530703031827,2.9279243102152157,68.14677101921919,12.354783,-1.9773728,24.348257,7.1874895,-20.095596,-4.7746277,-26.383324,-8.954533,-28.070213,6.684652,-3.706968,7.3765426,-7.022423,-6.909494,4.5190105,-3.6747074,39.588367,-33.71016,45.23089,20.667114,6.546684,-2.1371844,6.3361344,-24.435915,41.76163,46.244892,-17.980703,2.8648064,1.0145758
76,4.677856922149658,42.86122512817383,75.59967803955078,4.685738940023807,2.99235187278054,67.95391437935697,12.884177,-1.8709872,24.526468,7.2451158,-20.288496,-5.052858,-26.23177,-8.817401,-28.980963,6.750098,-4.100333,6.599883,-7.0124936,-6.800415,4.4315715,-3.6148505,39.53646,-33.820484,45.199596,20.812359,6.5494747,-2.2000818,6.264947,-24.473024,41.846695,46.21446,-17.98993,2.8467197,1.0413518
77,4.952211856842041,43.45210647583008,75.49295806884766,4.497833530627656,3.0919917301006485,67.66968344460294,13.388661,-1.6095743,24.79521,7.3226395,-20.441439,-5.3679166,-25.98404,-8.464669,-29.709372,6.827394,-4.259959,5.4142056,-6.909563,-6.5616136,4.3375254,-3.493623,39.492104,-33.873814,45.10907,21.03116,6.571558,-2.2924905,6.161344,-24.495852,41.92023,46.217506,-18.077442,2.8289888,1.0609541
78,5.233990669250488,44.040252685546875,75.42050170898438,4.211605466199214,3.2160746638497506,67.31376787847235,13.878528,-1.2358614,25.137663,7.4164963,-20.556643,-5.7115207,-25.647682,-7.961973,-30.312141,6.9583464,-4.261177,3.8889277,-6.7687187,-6.1836095,4.197056,-3.3738,39.308437,-33.902416,45.12639,21.330267,6.6044116,-2.3911774,6.028957,-24.567507,42.069283,46.249096,-18.179495,2.819965,1.065179
79,5.52418851852417,44.62666320800781,75.36833190917969,3.8575866645572052,3.3393745120540257,66.9327133499763,14.374255,-0.78325486,25.502226,7.527035,-20.614586,-6.0671945,-25.261837,-7.373186,-30.817461,7.0913973,-4.0809207,2.2375257,-6.5861125,-5.7231216,4.0585933,-3.2547774,39.070038,-33.9201,45.168552,21.658903,6.6401505,-2.4985857,5.906396,-24.644638,42.172935,46.285553,-18.324137,2.813601,1.0678316
80,5.827399730682373,45.22566223144531,75.31715393066406,3.485459954984394,3.4382661069641944,66.58168739392069,14.892205,-0.30473977,25.826086,7.650808,-20.591736,-6.412963,-24.885431,-6.7916102,-31.257597,7.2153063,-3.707249,0.6843395,-6.4125013,-5.2380633,3.925488,-3.1394515,38.796448,-33.94562,45.236034,21.95682,6.671511,-2.6005902,5.815938,-24.717768,42.218132,46.315376,-18.481697,2.81396,1.0678042
81,6.144174098968506,45.8289680480957,75.2762680053711,3.075974256852184,3.5117255255110016,66.27712672778453,15.43141,0.23247969,26.094519,7.7912354,-20.503527,-6.7555127,-24.58685,-6.2418456,-31.653488,7.458742,-3.1361015,-0.81035316,-6.2618628,-4.716742,3.803447,-3.0210445,38.516716,-33.98147,45.298416,22.228556,6.7021623,-2.7094057,5.7530823,-24.775639,42.197113,46.336655,-18.700697,2.826012,1.0852983
82,6.47644567489624,46.447017669677734,75.23841857910156,2.6176778618191356,3.563814646326216,66.006930411224,15.987717,0.84280443,26.324825,7.9517136,-20.358318,-7.099752,-25.210405,-6.2756286,-31.91115,10.029929,-3.5428782,-2.3125296,-6.128669,-4.1460404,3.6909678,-2.8832376,38.23097,-34.01363,45.348194,22.493967,6.7347713,-2.8294272,5.70908,-24.817036,42.125065,46.358536,-18.978655,2.84687,1.1122342
83,6.813149929046631,47.07011795043945,75.19522857666016,2.1690106476347375,3.587852146839389,65.77221752640787,16.104088,1.687191,26.495235,9.21945,-20.686022,-7.4275026,-25.708504,-6.2970605,-32.148346,12.371097,-3.6957648,-3.6870072,-6.0198216,-3.5848258,3.5891652,-2.7133174,37.938587,-34.02719,45.39354,22.713564,6.760847,-2.939609,5.672085,-24.845352,42.02555,46.40018,-19.197021,2.8657787,1.107577
84,7.173314571380615,47.701576232910156,75.13987731933594,1.787261412543011,3.5817060798302394,65.56862045210687,15.889186,2.6366656,26.589132,11.334677,-21.31257,-7.711033,-26.119343,-6.382124,-32.33378,14.591436,-3.7621956,-4.772357,-5.9400167,-3.0884426,3.494342,-2.4915106,37.63773,-34.000965,45.439293,22.849768,6.77175,-3.0186849,5.6623178,-24.86399,41.89719,46.454044,-19.268547,2.872927,1.0311681
85,7.545294761657715,48.344905853271484,75.07750701904297,1.4746667363636035,3.556699894386908,65.40998328407204,15.725651,3.4907782,26.602518,13.37436,-21.79603,-7.964439,-26.48817,-6.5561175,-32.45208,16.754454,-3.6446583,-5.443904,-5.8996162,-2.6527753,3.3849072,-2.2112641,37.32607,-33.93316,45.4842,22.874668,6.761249,-3.0621555,5.6694946,-24.879353,41.75857,46.52936,-19.105883,2.8602536,0.85642684
86,7.915196418762207,48.99398422241211,75.01203918457031,1.1976782650750155,3.517361573147157,65.29009973396809,15.564055,4.3172584,26.543144,15.440459,-22.190817,-8.189381,-26.83047,-6.783176,-32.511055,18.879868,-3.3374853,-5.8122277,-5.8939376,-2.2446754,3.2641356,-1.8804111,37.002403,-33.82847,45.52573,22.815094,6.735283,-3.0806885,5.708142,-24.893208,41.590458,46.607975,-18.796413,2.8341653,0.61099553
87,8.298724174499512,49.6336784362793,74.96086120605469,0.9517783767737994,3.4544403685054275,65.16955884581594,15.349372,5.1413317,26.44589,17.65684,-22.46787,-8.335122,-27.101358,-7.0072203,-32.512825,20.911507,-3.0997312,-6.0651574,-5.888025,-1.8694707,3.166688,-1.5128226,36.668243,-33.688725,45.567585,22.715666,6.704459,-3.0746806,5.744269,-24.9054,41.40662,46.708008,-18.417322,2.8047585,0.3338669
88,8.684822082519531,50.26405334472656,74.91535949707031,0.7273877673174467,3.3586617451585234,65.01224474975808,15.036794,5.987006,26.343168,20.1269,-22.586554,-8.354238,-27.254326,-7.167986,-32.468037,22.789927,-3.1903176,-6.3886304,-5.8559036,-1.5275128,3.1259282,-1.1187699,36.326553,-33.5106,45.61196,22.619867,6.6792397,-3.0450552,5.765226,-24.912422,41.202263,46.833008,-18.074133,2.783617,0.06418656
89,9.0691556930542,50.8911018371582,74.87001037597656,0.5299604842005009,3.2324956458397778,64.79966569289937,14.6298685,6.8336186,26.263601,22.863703,-22.561043,-8.207766,-27.318954,-7.2582726,-32.349136,24.576462,-3.75989,-6.836899,-5.7869244,-1.2256461,3.1471162,-0.67562807,35.97533,-33.259514,45.647377,22.51703,6.6611137,-2.9619756,5.7770014,-24.908339,40.95528,46.99063,-17.7746,2.7656257,-0.21380548
90,9.452508926391602,51.51978302001953,74.83692169189453,0.35238398528159165,3.084145662822649,64.54955440192472,14.158534,7.678519,26.190948,25.782467,-22.388716,-7.9340453,-27.31932,-7.2846518,-32.157673,26.282892,-4.643661,-7.3035216,-5.6904016,-0.952002,3.2106872,-0.18775077,35.61402,-32.948383,45.67357,22.39235,6.645081,-2.8346512,5.74739,-24.893757,40.702103,47.20479,-17.437988,2.74629,-0.5135755
91,9.846494674682617,52.139984130859375,74.81584167480469,0.1654069837539199,2.9125918184384223,64.28266501239236,13.616134,8.570907,26.086535,28.844324,-21.999216,-7.6056004,-27.200235,-7.212796,-31.952826,27.782423,-5.6340013,-7.7357044,-5.584232,-0.6760614,3.3080673,0.3058546,35.24923,-32.635746,45.708427,22.28106,6.631955,-2.7234826,5.7107635,-24.869997,40.43939,47.42752,-17.146112,2.7418444,-0.78987354
92,10.231904983520508,52.754085540771484,74.80413055419922,-0.05972766564598511,2.71644361688974,64.01992942451307,12.994079,9.557338,25.908596,32.010475,-21.324322,-7.2964687,-26.90976,-7.0199337,-31.7964,28.963139,-6.5272818,-8.082313,-5.4768367,-0.36962008,3.4342968,0.75685954,34.892296,-32.39261,45.771397,22.214203,6.622851,-2.6884542,5.661649,-24.84167,40.196075,47.636528,-16.93153,2.7684202,-0.99811596
93,10.622434616088867,53.360565185546875,74.7994613647461,-0.3318717529084597,2.483032114008257,63.754081564408494,12.290229,10.656211,25.667877,35.327957,-20.279562,-7.0001435,-26.41101,-6.6878514,-31.697014,29.783787,-7.31473,-8.329263,-5.358185,-0.024395201,3.6046765,1.1854295,34.548897,-32.2068,45.847607,22.205372,6.615864,-2.7392101,5.616133,-24.809837,39.94779,47.82502,-16.814922,2.8407223,-1.1270251
94,11.016216278076172,53.96302795410156,74.80646514892578,-0.63236121577665,2.217676687636429,63.47616203809355,11.513016,11.82465,25.381065,38.77769,-18.909796,-6.699291,-25.749512,-6.2386084,-31.619137,30.328056,-8.099442,-8.506948,-5.222734,0.34034905,3.817228,1.6037526,34.219936,-32.056107,45.930412,22.230173,6.6114435,-2.8461952,5.564734,-24.774103,39.695858,48.00456,-16.763853,2.9474654,-1.1998119
95,11.417481422424316,54.5511589050293,74.83224487304688,-0.9463975104685504,1.9450145309613511,63.20467507371732,10.664211,13.015153,25.009417,42.23553,-17.347668,-6.4456472,-24.982073,-5.7105546,-31.55913,30.644701,-8.840066,-8.630941,-5.0860276,0.7083815,4.03636,1.9866929,33.91102,-31.972357,46.02854,22.284237,6.6139283,-3.0113957,5.495604,-24.737925,39.479713,48.16602,-16.764236,3.0659404,-1.2228585
96,11.823378562927246,55.12833023071289,74.87306213378906,-1.2586482598319242,1.6897106652803962,62.95748355720118,9.733498,14.18757,24.50903,45.60641,-15.741784,-6.281663,-24.166752,-5.1456428,-31.512524,30.788055,-9.4978075,-8.715209,-4.962869,1.0624287,4.229329,2.2982175,33.62972,-31.996775,46.15785,22.353262,6.6271048,-3.2367342,5.400396,-24.706348,39.335537,48.29439,-16.803408,3.173209,-1.2024417
97,12.239081382751465,55.70197296142578,74.93156433105469,-1.5886899223870243,1.445213342068874,62.744516029840675,8.681812,15.364548,23.789253,48.95261,-14.009277,-6.2661486,-23.262737,-4.514627,-31.497587,30.696173,-10.0507965,-8.751181,-4.8584356,1.4190562,4.3985677,2.546149,33.383408,-32.141422,46.311817,22.455738,6.6556225,-3.5556076,5.2894464,-24.681662,39.26236,48.375065,-16.921593,3.2778687,-1.1115481
98,12.654942512512207,56.262142181396484,75.000732421875,-1.9318865563832561,1.2025355966106608,62.55349776225446,7.5071836,16.53881,22.883358,52.317604,-12.12334,-6.364585,-22.262012,-3.8199313,-31.502245,30.377996,-10.531386,-8.735735,-4.7614036,1.7733307,4.5593543,2.7535625,33.173725,-32.37905,46.474728,22.594769,6.695283,-3.9572854,5.1689415,-24.663881,39.240376,48.412148,-17.111803,3.3866653,-0.9554895
99,13.06309986114502,56.8100700378418,75.07498931884766,-2.239539805688014,0.9822213508702875,62.367635734725994,6.260185,17.645155,21.941818,55.58697,-10.320253,-6.460166,-21.253094,-3.1392605,-31.480537,29.957338,-10.960225,-8.689061,-4.6608553,2.0783262,4.698462,2.9112256,32.997448,-32.689808,46.645943,22.73633,6.73756,-4.3778453,5.024765,-24.6558,39.278748,48.420628,-17.288889,3.4742146,-0.78906673
100,13.466079711914062,57.34434127807617,75.15763854980469,-2.4659356915087507,0.8044099613118944,62.16955683558816,4.995469,18.646914,21.128967,58.663185,-8.844334,-6.4183726,-20.33164,-2.5549443,-31.392378,29.580189,-11.370818,-8.631023,-4.540279,2.291148,4.7988253,3.0504253,32.845688,-33.022034,46.79492,22.882002,6.773812,-4.753061,4.85007,-24.661474,39.38125,48.414715,-17.369478,3.5159037,-0.66714007
101,13.860373497009277,57.871891021728516,75.24771118164062,-2.603501213675629,0.6777406018905633,61.96145314613042,3.7136045,19.622076,20.530888,61.607014,-7.7146907,-6.1330214,-19.51838,-2.0842748,-31.2395,29.272015,-11.766203,-8.561425,-4.4070582,2.4032185,4.8550305,3.1508224,32.71504,-33.39409,46.938698,23.02422,6.803529,-5.0832357,4.630569,-24.68592,39.5792,48.39248,-17.298475,3.4977787,-0.6000827
102,14.248018264770508,58.39008712768555,75.341552734375,-2.6782224662499123,0.5898370521296532,61.74865519974418,2.3900635,20.59921,20.05413,64.47271,-6.8331456,-5.6646914,-18.763147,-1.6870372,-31.043354,28.965921,-12.134072,-8.470449,-4.2660584,2.4409995,4.8784256,3.2044666,32.60454,-33.82069,47.08774,23.166536,6.8301177,-5.3963137,4.376414,-24.730232,39.861458,48.34275,-17.130589,3.435958,-0.55949825
103,14.622499465942383,58.91060256958008,75.437255859375,-2.696478208220466,0.5303096198329649,61.51843127031562,1.0476962,21.466759,19.602163,67.14768,-6.271223,-5.1421824,-18.053465,-1.3547351,-30.798544,28.662094,-12.480015,-8.363988,-4.100364,2.4151478,4.8781376,3.2649055,32.515213,-34.240982,47.197117,23.3269,6.852776,-5.6707015,4.1080956,-24.788698,40.174664,48.274624,-16.943388,3.3514893,-0.54285663
104,14.983696937561035,59.43272018432617,75.53363800048828,-2.662082258451919,0.4898131337001055,61.26050208507041,-0.29767615,22.08676,19.076822,69.52133,-6.0968833,-4.7229953,-17.383255,-1.0847515,-30.500013,28.373018,-12.815835,-8.248211,-3.9003034,2.3386052,4.862463,3.3323927,32.43412,-34.633286,47.273537,23.488064,6.8704042,-5.881324,3.8460426,-24.859638,40.46866,48.19636,-16.816002,3.265877,-0.5485176
105,15.335270881652832,59.95174789428711,75.63845825195312,-2.5483036786866187,0.47881427233540236,60.966142481904804,-1.642815,22.33847,18.444878,71.55051,-6.5092626,-4.477984,-16.779305,-0.9100848,-30.128433,28.12947,-13.15296,-8.124525,-3.6576817,2.189734,4.8219543,3.3481145,32.3447,-35.044975,47.36619,23.637978,6.881863,-6.017994,3.592097,-24.95526,40.742016,48.103928,-16.764341,3.1729898,-0.5808248
106,15.678019523620605,60.47170639038086,75.75232696533203,-2.3612871136558997,0.49924934062067855,60.64396434613582,-2.9956033,22.305283,17.772655,73.31304,-7.4144244,-4.335662,-16.238989,-0.8253852,-29.695362,27.923292,-13.48647,-7.9892745,-3.3712761,1.9666482,4.751162,3.4029741,32.256477,-35.411423,47.40053,23.854208,6.888808,-6.097007,3.3443184,-25.065533,41.006603,47.999187,-16.752169,3.064762,-0.6387442
107,16.016624450683594,60.97867965698242,75.87153625488281,-2.1442121537251464,0.5291795607581158,60.30579160300134,-4.3468184,22.13528,17.121904,74.85171,-8.4227495,-4.247132,-15.708873,-0.77608615,-29.23312,27.699787,-13.799189,-7.840789,-3.0655892,1.7151291,4.6774974,3.4563637,32.16848,-35.751984,47.419994,24.039022,6.892691,-6.1222525,3.0983791,-25.190718,41.265995,47.881924,-16.764729,2.9621973,-0.7138025
108,16.346176147460938,61.488746643066406,75.9952163696289,-1.9405213902515779,0.5462099759218448,59.963501450199026,-5.689722,21.98118,16.547108,76.20235,-9.141907,-4.160601,-15.134413,-0.707639,-28.773277,27.40334,-14.073713,-7.67794,-2.7568378,1.4810946,4.6250343,3.4942474,32.078884,-36.065998,47.445545,24.12041,6.8952746,-6.098305,2.8592672,-25.330421,41.512196,47.74806,-16.790821,2.8860273,-0.7966993
109,16.669193267822266,62.00659942626953,76.12103271484375,-1.7490378486108764,0.5466013188377945,59.61448320943161,-7.0323887,21.854786,16.055023,77.36288,-9.459267,-4.057447,-14.507873,-0.6197903,-28.31177,27.028172,-14.308575,-7.49738,-2.434014,1.2645304,4.591348,3.5441492,31.984552,-36.33417,47.456127,24.102734,6.8971972,-6.010534,2.6272116,-25.486574,41.755924,47.605354,-16.822788,2.8389661,-0.89964634
110,16.991697311401367,62.520442962646484,76.24754333496094,-1.5514517454591936,0.5415848605069398,59.25447118358815,-8.374205,21.689741,15.621415,78.31443,-9.5824585,-3.966718,-13.855375,-0.53678334,-27.836555,26.601145,-14.5126295,-7.3017707,-2.0930943,1.0465798,4.56484,3.6178925,31.884048,-36.550022,47.440945,24.031384,6.897411,-5.8616652,2.406773,-25.659946,41.992306,47.45015,-16.873583,2.8110893,-1.0224804
111,17.30159568786621,63.0289192199707,76.37220764160156,-1.3651506317585183,0.5308470886957805,58.89227072702373,-9.698536,21.524462,15.247652,79.06568,-9.60036,-3.9068346,-13.17245,-0.44044262,-27.365503,26.112932,-14.682145,-7.0988526,-1.7532003,0.8446949,4.5536976,3.6946673,31.778366,-36.72072,47.420734,23.912794,6.8951955,-5.682214,2.192326,-25.847786,42.2041,47.273415,-16.9404,2.8039486,-1.1374811
112,17.619173049926758,63.533538818359375,76.49474334716797,-1.2069630480298577,0.513749154323575,58.53645119623792,-10.986748,21.396397,14.934357,79.62202,-9.6012335,-3.8949409,-12.45466,-0.3130964,-26.915987,25.555622,-14.814236,-6.8960767,-1.4316545,0.6756227,4.5647,3.7614553,31.6694,-36.848225,47.410713,23.760502,6.8902893,-5.503019,1.9845216,-26.044231,42.36735,47.065044,-17.026285,2.8189268,-1.2168899
113,17.93484878540039,64.03472900390625,76.60828399658203,-1.0885740732292084,0.48768943146428195,58.189131601704084,-12.23967,21.335617,14.688422,79.98826,-9.579042,-3.944738,-11.689313,-0.137915,-26.493792,24.905357,-14.897629,-6.692997,-1.1271542,0.5511359,4.5999794,3.8460956,31.55764,-36.903385,47.387905,23.587564,6.886165,-5.3139005,1.788071,-26.244696,42.459293,46.822227,-17.169025,2.8696911,-1.2462416
114,18.241214752197266,64.5252914428711,76.71632385253906,-0.9979740614687858,0.4531610038793381,57.84542653693498,-13.465265,21.318815,14.505678,80.159325,-9.496357,-4.042095,-10.879132,0.072481215,-26.087515,24.167673,-14.9371,-6.4874787,-0.8304753,0.45879647,4.653614,3.9577491,31.443762,-36.886147,47.343792,23.393698,6.881477,-5.104963,1.6001409,-26.44836,42.497105,46.556416,-17.355955,2.9507225,-1.2429254
115,18.54932403564453,65.00501251220703,76.82658386230469,-0.9176100030641394,0.41452874680491664,57.503956909158696,-14.656423,21.303505,14.370244,80.126205,-9.395143,-4.162067,-10.048842,0.28975135,-25.688662,23.390257,-14.95153,-6.283333,-0.5455251,0.3793799,4.719953,4.060185,31.329805,-36.837696,47.309856,23.178558,6.86954,-4.9074006,1.4085851,-26.654184,42.516045,46.279236,-17.51241,3.034551,-1.2267799
116,18.84708023071289,65.49250030517578,76.93603515625,-0.8309378674755351,0.376204677816155,57.16294008347572,-15.806067,21.248074,14.266551,79.88319,-9.318652,-4.2803507,-9.224072,0.48636666,-25.289495,22.621447,-14.961717,-6.0843477,-0.26835525,0.29375747,4.789471,4.158451,31.216213,-36.767418,47.287445,22.981161,6.8441334,-4.7528033,1.2054417,-26.861412,42.546535,46.005707,-17.562975,3.0935981,-1.2180187
117,19.145519256591797,65.98042297363281,77.03726959228516,-0.7308470496500448,0.3341731272730041,56.82351172255732,-16.906769,21.148527,14.203949,79.421104,-9.283871,-4.3831286,-8.399973,0.6545726,-24.890928,21.862726,-14.966832,-5.892965,0.0038594052,0.19468369,4.8634315,4.2793756,31.102245,-36.647285,47.25381,22.835495,6.800744,-4.6569653,0.9947709,-27.068144,42.585037,45.730927,-17.477226,3.1229737,-1.209213
118,19.454132080078125,66.4524154663086,77.13497924804688,-0.6271706311424026,0.2877501550516755,56.48604133455099,-17.96158,21.026842,14.186872,78.74411,-9.26623,-4.486005,-7.5677824,0.8090112,-24.496038,21.094673,-14.959386,-5.706806,0.2649439,0.09291378,4.947165,4.3968754,30.988829,-36.49399,47.22742,22.69796,6.743831,-4.600549,0.77001065,-27.273533,42.626263,45.455738,-17.295172,3.1366353,-1.19468
119,19.754396438598633,66.92929077148438,77.22398376464844,-0.5275162425141126,0.246469118894202,56.14855013678405,-18.975542,20.877384,14.194476,77.860306,-9.245522,-4.6081467,-6.739694,0.9567922,-24.101763,20.32059,-14.944177,-5.521426,0.51624364,-0.0035802592,5.029957,4.5241566,30.87563,-36.31561,47.205856,22.57099,6.681683,-4.563678,0.53602135,-27.476776,42.674473,45.190704,-17.061285,3.1351771,-1.1957374
120,20.043432235717773,67.40919494628906,77.30684661865234,-0.43863148681580605,0.21996750138913682,55.808839773268915,-19.952524,20.694382,14.206358,76.77682,-9.201151,-4.7683034,-5.9280996,1.1048393,-23.705418,19.544218,-14.926859,-5.332482,0.7575873,-0.08688865,5.1037183,4.6543517,30.762333,-36.134995,47.200596,22.440302,6.6222034,-4.5261264,0.2784866,-27.677155,42.75213,44.955547,-16.800116,3.1190417,-1.2343659
121,20.331323623657227,67.8874740600586,77.37915802001953,-0.36043178126791764,0.20950759186296736,55.46073876507405,-20.894928,20.467152,14.217192,75.48278,-9.145718,-4.9831266,-5.1378565,1.253423,-23.296818,18.766819,-14.903658,-5.141067,0.9911671,-0.15790707,5.167822,4.7843895,30.647104,-35.94883,47.218258,22.289125,6.562569,-4.4813437,-0.008156754,-27.874393,42.866043,44.755604,-16.489117,3.082408,-1.3379436
122,20.619674682617188,68.3608169555664,77.4436264038086,-0.2900376996397055,0.21015949647731363,55.10693949194414,-21.795979,20.203936,14.237532,73.97552,-9.085205,-5.237345,-4.361495,1.3994612,-22.880356,17.985952,-14.873513,-4.9489903,1.2171838,-0.21950427,5.2251167,4.9241433,30.5287,-35.743244,47.24817,22.135788,6.500272,-4.4404583,-0.3142128,-28.067343,43.002876,44.580036,-16.125996,3.026343,-1.4874673
123,20.905040740966797,68.83599090576172,77.49693298339844,-0.2295285621641968,0.22238358399140998,54.759059741464405,-22.64679,19.926743,14.272701,72.27514,-8.989479,-5.5008144,-3.5932846,1.5434226,-22.474379,17.201218,-14.846056,-4.7529855,1.4272276,-0.26978788,5.274114,5.054987,30.409359,-35.548855,47.301197,21.989367,6.4436045,-4.4091954,-0.63498664,-28.255325,43.154816,44.428425,-15.771801,2.9617908,-1.6352851
124,21.193416595458984,69.31537628173828,77.54080200195312,-0.18108509828422958,0.24644020687074883,54.42846501837353,-23.440317,19.653078,14.327085,70.4016,-8.828067,-5.7472587,-2.8294296,1.6852683,-22.097317,16.414734,-14.831497,-4.5500135,1.6178856,-0.30714577,5.310617,5.1837606,30.292116,-35.378387,47.367603,21.881739,6.4011936,-4.39356,-0.9523295,-28.436964,43.301826,44.294098,-15.49601,2.9005435,-1.733431
125,21.488035202026367,69.80148315429688,77.57295227050781,-0.14275364877758034,0.2845167066646869,54.116375492012025,-24.181873,19.373411,14.396875,68.350655,-8.595684,-5.975256,-2.0677722,1.8232169,-21.755888,15.6183195,-14.834753,-4.340124,1.7905605,-0.3350067,5.3308673,5.3131256,30.179195,-35.22994,47.44618,21.823069,6.375049,-4.3983364,-1.2712461,-28.61299,43.44449,44.179375,-15.30701,2.8401709,-1.7524356
126,21.777101516723633,70.28695678710938,77.59880065917969,-0.11395965899327982,0.3357290936767108,53.817187841459486,-24.870228,19.080053,14.482268,66.11275,-8.308787,-6.1983385,-1.3116964,1.9576961,-21.439568,14.814705,-14.850325,-4.125166,1.9463859,-0.3546189,5.3378983,5.436932,30.07129,-35.10088,47.541664,21.792171,6.360802,-4.419501,-1.5893521,-28.783457,43.5828,44.08019,-15.180218,2.7768626,-1.7233797
127,22.06842803955078,70.76438903808594,77.61216735839844,-0.096087920017665,0.3963583638225448,53.53209774494909,-25.4853,18.788527,14.598521,63.690918,-7.9647636,-6.4135275,-0.5659373,2.0894585,-21.141378,14.023961,-14.873939,-3.9036942,2.086596,-0.36329013,5.3370204,5.560755,29.969854,-34.994827,47.64315,21.78725,6.35782,-4.449731,-1.9027587,-28.94633,43.717503,43.999073,-15.106159,2.7202795,-1.6897116
128,22.34311866760254,71.2531967163086,77.61370086669922,-0.090519741854483,0.4626521791035731,53.26223540148182,-26.008099,18.511818,14.761491,61.087883,-7.5616074,-6.6196156,0.16552372,2.2194037,-20.853497,13.263528,-14.900016,-3.6738877,2.2094076,-0.3593517,5.3345847,5.67248,29.877134,-34.92839,47.753975,21.790478,6.3653016,-4.4817424,-2.2074609,-29.098381,43.848137,43.93864,-15.080425,2.6796734,-1.6951542
129,22.632322311401367,71.7400131225586,77.60790252685547,-0.09519934582159453,0.5325445133018332,53.01131602743537,-26.434368,18.253996,14.993048,58.29587,-7.0980873,-6.7971663,0.8822024,2.3438432,-20.577768,12.540635,-14.923241,-3.4273472,2.3117807,-0.34734705,5.3326306,5.771406,29.795544,-34.90674,47.876045,21.808132,6.391358,-4.514244,-2.4976876,-29.236223,43.974674,43.900875,-15.132365,2.6566186,-1.7600427
130,22.922821044921875,72.23301696777344,77.59219360351562,-0.10942691425514807,0.6085594622878873,52.777142273593675,-26.77136,17.99618,15.283402,55.3078,-6.572518,-6.959851,1.5870982,2.4641297,-20.316916,11.841314,-14.946015,-3.1669247,2.3974013,-0.32867602,5.326936,5.869087,29.72584,-34.91742,48.001423,21.8502,6.4336786,-4.551252,-2.7825723,-29.358196,44.100365,43.889908,-15.249192,2.6464067,-1.8585396
131,23.211429595947266,72.73076629638672,77.56688690185547,-0.1356019211992157,0.6941016573625146,52.552781751286865,-27.0156,17.717495,15.600166,52.11684,-5.978637,-7.155048,2.2785106,2.5862012,-20.066002,11.157316,-14.978842,-2.90597,2.4710522,-0.29729235,5.314081,5.959618,29.667164,-34.958183,48.12937,21.89346,6.4762206,-4.593051,-3.0686953,-29.464735,44.218956,43.9065,-15.381093,2.6488996,-1.9649571
132,23.50099754333496,73.22955322265625,77.52593994140625,-0.17859061732097492,0.7922489120554509,52.33060077552875,-27.164223,17.403528,15.906512,48.71504,-5.3058987,-7.4266353,2.950657,2.7161891,-19.820297,10.492208,-15.032037,-2.6579466,2.5371315,-0.24374132,5.287382,6.056054,29.616207,-35.01297,48.247334,21.928719,6.502419,-4.6399913,-3.3190234,-29.55543,44.28731,43.92269,-15.519111,2.6644442,-2.0525947
133,23.786102294921875,73.73320770263672,77.47853088378906,-0.24007738829383596,0.9088259328019364,52.10725149329594,-27.194618,17.053846,16.225058,45.0115,-4.516436,-7.7839684,3.6037416,2.859774,-19.579708,9.827475,-15.099899,-2.4204445,2.6010678,-0.16473831,5.242971,6.151213,29.571405,-35.08866,48.35916,21.940815,6.5037594,-4.6926985,-3.5475817,-29.632044,44.309177,43.949097,-15.654535,2.6985273,-2.1105902
134,24.072731018066406,74.24604034423828,77.41944885253906,-0.3190379951737271,1.0390301344654356,51.88512645219446,-27.102444,16.670279,16.563662,41.00788,-3.6117017,-8.205604,4.2423573,3.0145802,-19.344648,9.165622,-15.176915,-2.187815,2.6538217,-0.069656216,5.1850753,6.259484,29.547956,-35.17648,48.452763,21.940866,6.4905186,-4.7531295,-3.7744596,-29.671837,44.30417,44.012665,-15.805676,2.7480695,-2.1557293
135,24.3579158782959,74.75835418701172,77.34793853759766,-0.41658528370968967,1.1695256967960297,51.664402326248975,-26.910826,16.251207,16.86143,36.827805,-2.640254,-8.684207,4.877835,3.1802855,-19.109943,8.51813,-15.268054,-1.9689027,2.7135963,0.055590615,5.123447,6.345098,29.511553,-35.301537,48.565796,21.948135,6.4745593,-4.8134327,-3.9574533,-29.726593,44.2612,44.056526,-15.937788,2.8039696,-2.197226
136,24.647096633911133,75.28012084960938,77.26201629638672,-0.5344647128375567,1.285850833464302,51.444948746145904,-26.641392,15.801088,17.058332,32.594078,-1.6504825,-9.209989,5.5213923,3.356241,-18.869413,7.9002943,-15.380516,-1.7728739,2.767364,0.20548356,5.070193,6.4398084,29.478954,-35.431007,48.669277,21.98966,6.467976,-4.875687,-4.112792,-29.770918,44.20189,44.098755,-16.032133,2.8534305,-2.2496805
137,24.93370819091797,75.8072509765625,77.16349029541016,-0.6967677311390755,1.3785051234892798,51.22209944319827,-26.23703,15.336122,17.14301,28.15368,-0.5342954,-9.8953905,6.091705,3.5384755,-18.618612,7.516521,-15.631222,-1.6188612,2.82169,0.40780336,5.033151,6.548062,29.44911,-35.57141,48.758392,22.087992,6.477494,-4.9376116,-4.246253,-29.807531,44.128536,44.144745,-16.0697,2.8985481,-2.320452
138,25.21898651123047,76.3462142944336,77.05216979980469,-0.91108213397581,1.4453461931024219,50.98354703250237,-25.65459,14.870288,17.1489,23.412773,0.73970723,-10.70608,6.5347004,3.718184,-18.35357,7.4890723,-16.082535,-1.4973748,2.8872488,0.67102283,5.0151167,6.659531,29.421284,-35.730503,48.841705,22.218637,6.495691,-5.000781,-4.3553123,-29.838226,44.035236,44.191753,-16.069613,2.9438736,-2.4007452
139,25.506019592285156,76.88843536376953,76.92683410644531,-1.1583374514993958,1.4815530550565774,50.71444971208713,-24.944338,14.422181,17.088163,18.610842,1.9891859,-11.412202,7.0118775,3.9312837,-18.059355,7.464676,-16.529497,-1.3786106,2.9672098,0.9700689,5.0193396,6.793983,29.403652,-35.87137,48.903767,22.355494,6.512864,-5.0706363,-4.457165,-29.855999,43.95061,44.25044,-16.039925,2.980899,-2.480957
140,25.79503059387207,77.43571472167969,76.80171966552734,-1.4132422467941952,1.4882082040793723,50.40691159290916,-24.2099,14.014691,16.970385,14.092536,2.985767,-11.783077,7.5197597,4.148015,-17.736319,7.446636,-16.954655,-1.2284949,3.079252,1.2754359,5.045063,6.927162,29.392078,-35.99696,48.963837,22.459448,6.5199175,-5.149209,-4.565593,-29.86788,43.893772,44.32601,-15.97121,3.0010128,-2.5498197
141,26.083105087280273,77.98013305664062,76.67078399658203,-1.6503002612153992,1.4810645300309448,50.07552879875093,-23.543419,13.634411,16.69996,9.97459,3.6009097,-11.575162,8.039944,4.337283,-17.40278,7.437999,-17.351887,-1.0328947,3.2458034,1.563757,5.0720043,6.9963536,29.369883,-36.17809,49.07597,22.48183,6.5145335,-5.2301865,-4.618439,-29.887377,43.80107,44.38105,-15.876843,2.995866,-2.6084275
142,26.381610870361328,78.52959442138672,76.53768157958984,-1.869851482438939,1.467193286642369,49.73560682701865,-23.155216,13.329945,16.245342,6.651208,3.6703248,-10.967491,8.566155,4.497469,-17.067934,7.437622,-17.730516,-0.8074733,3.3931632,1.8352698,5.105884,7.08768,29.354256,-36.31673,49.170593,22.478796,6.498959,-5.320163,-4.678799,-29.899164,43.73987,44.442654,-15.742206,2.9726684,-2.6634207
143,26.683208465576172,79.0835189819336,76.40058135986328,-2.0704348118318054,1.4466969232261218,49.39424372641452,-24.104708,13.391537,15.537474,6.514208,2.0528483,-10.357501,9.098173,4.62482,-16.73393,7.4477572,-18.099401,-0.55977416,3.545731,2.0853825,5.13749,7.171,29.3404,-36.45098,49.272587,22.48258,6.479498,-5.415702,-4.716966,-29.906982,43.684788,44.50801,-15.59831,2.9454746,-2.7070658
144,26.985267639160156,79.64463806152344,76.26123046875,-2.2702552919267394,1.4084962708528392,49.044097423307996,-24.867388,13.429489,15.111157,6.43211,0.5286087,-10.137669,9.650607,4.7409096,-16.38826,7.4658866,-18.46709,-0.30204397,3.7108424,2.3286796,5.174366,7.24272,29.330343,-36.577736,49.38396,22.529686,6.4603148,-5.517906,-4.748524,-29.911264,43.657307,44.590443,-15.45628,2.928852,-2.7316895
145,27.28058624267578,80.21102905273438,76.11131286621094,-2.492248129967693,1.34604875344889,48.67063374464681,-25.41566,13.497918,15.117253,6.394144,-1.0364358,-10.477139,10.228319,4.8706646,-16.01676,7.492172,-18.839073,-0.03362973,3.8919415,2.5908508,5.2175274,7.3271766,29.323357,-36.683556,49.488964,22.655172,6.443989,-5.635063,-4.746191,-29.91202,43.64376,44.674107,-15.34546,2.9278746,-2.7318892
146,27.58344078063965,80.7796859741211,75.9549789428711,-2.711598744420447,1.27566273152009,48.29288429745087,-25.797277,13.568557,15.4251,6.3826466,-2.6428704,-11.132547,10.814016,4.985816,-15.642659,7.527722,-19.210173,0.25295192,4.096922,2.8448358,5.2520933,7.379448,29.316977,-36.81408,49.621925,22.814146,6.4276805,-5.7607827,-4.738067,-29.910482,43.658333,44.78413,-15.207226,2.933605,-2.7149088
147,27.894794464111328,81.34733581542969,75.79570007324219,-2.897644522763586,1.2091577747585676,47.944354472955084,-26.045746,13.585828,15.795889,6.3951716,-3.970172,-11.89314,11.400812,5.054226,-15.298473,7.56938,-19.571173,0.55205524,4.2775245,3.0609398,5.271941,7.4214005,29.309969,-36.935036,49.766846,22.977728,6.408869,-5.881148,-4.68171,-29.901505,43.658253,44.881054,-15.110427,2.943468,-2.687664
148,28.2105712890625,81.92236328125,75.63943481445312,-3.0048065153708152,1.1644624605841523,47.664216565250555,-26.173265,13.455117,15.987235,6.3876743,-4.6676445,-12.551013,11.974697,5.025274,-15.0241,7.6169367,-19.913355,0.86128646,4.3664627,3.192894,5.282121,7.488246,29.309032,-36.972527,49.889557,23.130373,6.381626,-5.987004,-4.580636,-29.893541,43.64209,44.935562,-15.0862665,2.9537296,-2.6546962
149,28.52819061279297,82.49547576904297,75.48432159423828,-3.057829318739027,1.1255637740666367,47.45422579954828,-26.153088,13.193844,15.957683,6.4180512,-4.5576735,-13.334769,12.556322,4.9301333,-14.8208065,7.6683803,-20.259205,1.1730947,4.419434,3.2613087,5.277774,7.514013,29.312302,-37.020844,50.042877,23.23224,6.3485074,-6.0749483,-4.407739,-29.873613,43.572838,44.9676,-15.141999,2.962474,-2.614911
150,28.857337951660156,83.07575988769531,75.33009338378906,-3.051330409296218,1.0984064836861638,47.306852704337366,-25.96672,12.789007,15.825828,6.427887,-3.828103,-14.269284,13.136442,4.760666,-14.685341,7.7267866,-20.60489,1.4955245,4.4330916,3.2600663,5.263768,7.514851,29.324429,-37.057755,50.206688,23.317013,6.3095183,-6.154083,-4.1792626,-29.838223,43.45502,44.981464,-15.268042,2.9701993,-2.5625575
151,29.1842098236084,83.65743255615234,75.20598602294922,-2.9535830642861365,1.1090080962445932,47.222239833880735,-25.732347,12.220764,15.540942,6.445733,-2.807004,-14.865469,13.680782,4.4799533,-14.623276,7.795535,-20.905647,1.8364284,4.36949,3.1626759,5.2153225,7.525268,29.337873,-37.053432,50.366985,23.38538,6.2685704,-6.209905,-3.9195073,-29.804115,43.345314,44.973175,-15.4100685,2.9803908,-2.5132449
152,29.508102416992188,84.23536682128906,75.1251449584961,-2.728544281841668,1.169131390121522,47.19348507682443,-25.540167,11.474373,15.075263,6.481614,-1.8045194,-14.632113,14.16971,4.0443215,-14.633306,7.882409,-21.115799,2.2048357,4.278608,2.909925,5.13019,7.500147,29.370003,-37.046547,50.538116,23.44275,6.230654,-6.2360744,-3.602504,-29.726133,43.149,44.956387,-15.592366,2.9867153,-2.46812
153,29.839765548706055,84.82292175292969,75.06262969970703,-2.3182614324863766,1.3058097993342426,47.24737149025211,-25.451162,10.44846,14.241886,6.579679,-0.8530231,-13.062084,14.243048,3.2946775,-14.779115,8.723377,-21.635538,2.6146555,4.0989156,2.442708,4.9771914,7.478076,29.428852,-37.011944,50.70333,23.480125,6.1993876,-6.2229924,-3.3150423,-29.572529,42.977325,44.99705,-15.756209,2.9993045,-2.4448235
154,30.17011070251465,85.41325378417969,75.01593017578125,-1.7359349725421425,1.4909023358634073,47.362875479460236,-25.375324,9.172896,13.155643,6.695787,0.25309336,-10.550473,13.840491,2.2143314,-15.021617,10.524611,-22.58915,3.0640185,3.8232665,1.7904267,4.7799416,7.477232,29.489508,-36.912193,50.86577,23.509304,6.169892,-6.1781282,-3.0236592,-29.383606,42.83204,45.04504,-15.936492,3.0190272,-2.434373
155,30.498249053955078,86.0162124633789,74.98983764648438,-1.132910683037389,1.6578349678209163,47.436161672774624,-25.406557,7.983736,12.1790285,7.179197,1.2810411,-7.9613414,13.442244,1.0907903,-15.188817,12.359392,-23.445704,3.518616,3.568731,1.1162614,4.5762367,7.5031176,29.546236,-36.776566,51.02178,23.52391,6.142164,-6.107712,-2.7243974,-29.172958,42.7025,45.123127,-16.0986,3.0297222,-2.4263754
156,30.824453353881836,86.63644409179688,74.96159362792969,-0.6491130105699107,1.7568659927442434,47.38564964778848,-26.695465,7.4060984,11.523715,10.621254,0.7549918,-6.1379933,13.126628,0.09972679,-15.169487,14.137591,-24.117764,3.9509504,3.4165158,0.57201236,4.3988657,7.567419,29.592312,-36.62138,51.164284,23.515388,6.1152368,-6.0173416,-2.4443452,-28.96472,42.61833,45.2638,-16.178246,3.0165186,-2.4140074
157,31.148921966552734,87.27777862548828,74.91844177246094,-0.2994991118762472,1.795255353134117,47.190264092738,-27.335472,7.154067,11.645559,12.959134,0.8528772,-5.330761,12.886727,-0.74066097,-14.935686,15.852472,-24.63399,4.360694,3.3770156,0.17617235,4.231737,7.6857424,29.61969,-36.436283,51.289303,23.482168,6.0877724,-5.905509,-2.1480696,-28.770012,42.558205,45.441174,-16.184978,2.9647913,-2.3907614
158,31.47071647644043,87.93832397460938,74.8628158569336,-0.00463226957223253,1.806146953187167,46.90566535721754,-27.679062,7.154043,12.246514,14.883145,1.2202451,-5.032096,12.651628,-1.5308586,-14.562673,17.591742,-25.048748,4.7615457,3.4057634,-0.15564485,4.0606337,7.8320246,29.625784,-36.227245,51.412975,23.428013,6.0600705,-5.7684216,-1.8479046,-28.59362,42.529938,45.646767,-16.115965,2.8865001,-2.3612034
159,31.791242599487305,88.60331726074219,74.81361389160156,0.25883256804564403,1.7931097213913971,46.58761807094389,-27.87585,7.2823343,12.99787,16.655384,1.553003,-4.941772,12.372136,-2.29598,-14.122541,19.447458,-25.334179,5.149586,3.4589355,-0.45024082,3.903502,7.979105,29.615316,-36.01253,51.54929,23.355438,6.032628,-5.610396,-1.5209355,-28.431961,42.50232,45.857784,-16.0215,2.8084369,-2.3350894
160,32.126712799072266,89.27095031738281,74.7796401977539,0.505413841863762,1.753380888520938,46.28361089508453,-28.035898,7.395533,13.587265,18.448956,1.5865986,-4.7990656,12.017561,-3.0478392,-13.677823,21.490696,-25.452036,5.5197673,3.4980433,-0.7259072,3.7804856,8.107418,29.5978,-35.806454,51.705177,23.267006,6.0059605,-5.4368267,-1.1079302,-28.274393,42.411095,46.029552,-15.991355,2.757184,-2.3218496
161,32.46097946166992,89.93760681152344,74.7575912475586,0.7339081396742118,1.6875700696134937,45.99866624321265,-28.19778,7.448698,13.9410515,20.318354,1.2497392,-4.6494627,11.623216,-3.7686348,-13.242458,23.676092,-25.405266,5.917135,3.5435483,-0.9869104,3.7017963,8.193808,29.584755,-35.630074,51.8905,23.119047,5.9746127,-5.2219253,-0.70907915,-28.117294,42.336475,46.246693,-15.882112,2.7369244,-2.3550832
162,32.80112838745117,90.59375762939453,74.74170684814453,0.9412309992340174,1.5995479216187756,45.714605222221486,-28.308693,7.4905887,14.219926,22.166607,0.69024926,-4.6173873,11.192571,-4.4574795,-12.787394,25.980381,-25.209932,6.3301306,3.5880291,-1.228533,3.645922,8.277871,29.577255,-35.452896,52.083317,22.92739,5.9392905,-4.974445,-0.218284,-27.952366,42.193813,46.43618,-15.811264,2.7351272,-2.4188914
163,33.143802642822266,91.2455062866211,74.7310791015625,1.1372479920580612,1.488235798644229,45.437852040520035,-28.32115,7.5075107,14.476457,23.890598,-0.013459594,-4.579301,10.655483,-5.1442723,-12.30253,28.498339,-24.83565,6.6726756,3.621536,-1.4617546,3.6196249,8.351829,29.577211,-35.2834,52.26737,22.768154,5.9128623,-4.745919,0.26733965,-27.783337,42.053455,46.637737,-15.7723675,2.747655,-2.4555576
164,33.49506378173828,91.89210510253906,74.73238372802734,1.3344343878361802,1.3530297697186062,45.17250615681286,-28.1881,7.492723,14.763339,25.393406,-0.7822492,-4.4054976,9.955576,-5.853582,-11.777489,31.294853,-24.239285,6.8664308,3.623059,-1.6972158,3.6255064,8.422557,29.583538,-35.11524,52.4216,22.720205,5.9085064,-4.588837,0.71914726,-27.61486,41.93392,46.839565,-15.828867,2.7719688,-2.4059668
165,33.836238861083984,92.5311050415039,74.7468032836914,1.5275943636518905,1.186010459845577,44.92246653735614,-27.905708,7.4464784,15.078952,26.689297,-1.6686347,-4.0136747,9.070671,-6.5699883,-11.214009,34.45171,-23.389479,6.845477,3.5839741,-1.9290934,3.6723125,8.50272,29.592712,-34.92769,52.54191,22.84296,5.9379716,-4.514686,1.1688766,-27.447392,41.802017,47.0226,-16.040195,2.8084886,-2.2540805
166,34.1715087890625,93.16461944580078,74.77369689941406,1.7159757111569591,0.9920304944164883,44.684470456377824,-27.50281,7.3563395,15.40029,27.819172,-2.6878545,-3.488758,8.05331,-7.2689686,-10.626672,37.867023,-22.28792,6.6977425,3.516901,-2.1574404,3.75422,8.58421,29.604662,-34.7291,52.639297,23.083416,5.991795,-4.4962783,1.6089673,-27.282091,41.670395,47.203407,-16.346539,2.8573186,-2.0315907
167,34.50899124145508,93.80621337890625,74.82086181640625,1.9177021301960429,0.7896093685166808,44.453160537262605,-26.977196,7.2066345,15.744963,28.72079,-3.706577,-2.948133,6.948016,-7.9644995,-10.017661,41.35425,-20.952072,6.5703726,3.4236522,-2.3988283,3.8483567,8.651056,29.622341,-34.55141,52.713596,23.348948,6.0512533,-4.5283103,2.0290008,-27.121174,41.56105,47.368347,-16.711191,2.9162138,-1.7492694
168,34.84162521362305,94.43370819091797,74.88301849365234,2.1495823361691446,0.5969885015531171,44.22433451012958,-26.328398,6.988869,16.130177,29.339127,-4.5986605,-2.5095847,5.7862415,-8.679429,-9.376619,44.75645,-19.41783,6.5919933,3.3098702,-2.6700976,3.9325483,8.692486,29.65123,-34.422573,52.75836,23.554735,6.09783,-4.605377,2.3927343,-26.971298,41.517487,47.524963,-17.070362,2.9826984,-1.4182193
169,35.172943115234375,95.05684661865234,74.96214294433594,2.432741503212095,0.40797644351265044,43.99115725084374,-25.501184,6.681603,16.588037,29.593258,-5.337524,-2.2053783,4.5433645,-9.433186,-8.62045,48.0988,-17.539492,6.875063,3.1763644,-2.9890687,4.0091066,8.722037,29.69176,-34.34052,52.758327,23.690023,6.1327634,-4.7474613,2.6930149,-26.838633,41.561707,47.675255,-17.428373,3.0661454,-1.0149041
170,35.49380111694336,95.6834716796875,75.05355834960938,2.7483766470038375,0.2175482170724735,43.759369692920366,-24.522907,6.298874,17.092619,29.546322,-5.99533,-1.9695662,3.2039316,-10.187127,-7.7627187,51.459198,-15.360538,7.33742,3.0183277,-3.3377635,4.086391,8.74302,29.743233,-34.290962,52.717224,23.79697,6.163507,-4.950611,2.9478447,-26.72526,41.670113,47.812504,-17.808262,3.1632717,-0.5413874
171,35.81074905395508,96.2991714477539,75.1491928100586,3.0576633828847233,0.04493070449863814,43.54379522167304,-23.511892,5.889368,17.579891,29.354929,-6.594248,-1.7751328,1.7980051,-10.909309,-6.9379926,54.795288,-13.216788,7.779369,2.8317595,-3.6829352,4.152882,8.727266,29.811632,-34.287548,52.65732,23.86414,6.181088,-5.1736817,3.1734414,-26.628983,41.806385,47.91612,-18.185793,3.2536802,-0.046905555
172,36.11737060546875,96.90174865722656,75.24513244628906,3.3260911911315225,-0.09154223005134965,43.35948188136604,-22.585089,5.5015984,17.99138,29.178337,-7.1569576,-1.5962439,0.3508632,-11.608851,-6.296596,58.07902,-11.443888,7.9680657,2.6158762,-3.996941,4.1975374,8.65528,29.90717,-34.3393,52.5915,23.887121,6.176874,-5.37596,3.3877773,-26.544107,41.930553,47.96631,-18.53737,3.3178039,0.4187276
173,36.438194274902344,97.48521423339844,75.34115600585938,3.5567947538025937,-0.1864598357890541,43.21679840913682,-21.75244,5.1301613,18.317423,29.017918,-7.673045,-1.4318118,-1.1858634,-12.3437,-5.8579826,61.422947,-10.044466,7.770672,2.3639128,-4.2908244,4.2135825,8.524039,30.040247,-34.453026,52.51158,23.856588,6.141462,-5.5780134,3.5853536,-26.466814,42.043724,47.96068,-18.874487,3.3505957,0.8855482
174,36.76011657714844,98.04792785644531,75.4355697631836,3.768043480666626,-0.2506133382696271,43.10726183726397,-20.954916,4.755005,18.589827,28.800373,-8.135508,-1.2939389,-2.816781,-13.142917,-5.554877,64.826645,-8.875523,7.2818165,2.0796847,-4.580496,4.2089014,8.351441,30.21408,-34.62099,52.40069,23.77844,6.0822816,-5.793093,3.763998,-26.395206,42.15693,47.90723,-19.208397,3.3622315,1.3652706
175,37.075626373291016,98.5953369140625,75.53036499023438,3.9413048533673307,-0.29081677044697085,43.021102796752565,-20.198479,4.407502,18.809414,28.562708,-8.567858,-1.1778198,-4.435198,-13.984699,-5.4251347,68.06725,-8.048459,6.5946436,1.773982,-4.8402495,4.1956606,8.140041,30.426155,-34.838654,52.26641,23.663439,6.0162225,-5.9695935,3.9281363,-26.327702,42.259563,47.81543,-19.500963,3.3575354,1.7801722
176,37.39336395263672,99.12178802490234,75.6195068359375,4.057794775005826,-0.3139836758440205,42.94941958413546,-19.492657,4.120188,18.976194,28.3479,-8.995314,-1.0786457,-5.93475,-14.835066,-5.5055857,70.92878,-7.680077,5.8221483,1.4574684,-5.0420556,4.1854153,7.8947883,30.66971,-35.098682,52.118057,23.527775,5.9596806,-6.0550222,4.0946116,-26.262087,42.33021,47.687683,-19.72496,3.3425825,2.052932
177,37.70508575439453,99.63028717041016,75.70915222167969,4.10617708242709,-0.31596770571976723,42.89259575722519,-18.855568,3.912105,19.083986,28.181118,-9.42664,-1.0012561,-7.270771,-15.722815,-5.863287,73.36896,-7.9880896,4.9511094,1.1302214,-5.1727395,4.1792817,7.6015987,30.941776,-35.418888,51.9566,23.353012,5.917979,-6.0229497,4.259622,-26.197994,42.37016,47.5179,-19.881405,3.3193521,2.151153
178,38.02081298828125,100.1252670288086,75.80397033691406,4.097659621134568,-0.29583699228184585,42.854480748324036,-18.27844,3.768186,19.136036,28.043638,-9.8529,-0.9477103,-8.496767,-16.658068,-6.4510536,75.51384,-8.869793,3.9428935,0.7886981,-5.24728,4.172012,7.260927,31.241064,-35.7984,51.78113,23.140806,5.881476,-5.9048886,4.4195046,-26.135376,42.385666,47.30791,-19.984783,3.2861772,2.1200109
179,38.349029541015625,100.61299896240234,75.90478515625,4.045799740969184,-0.26462294455746815,42.829295716580795,-17.720379,3.668178,19.149288,27.894222,-10.26358,-0.9089898,-9.654427,-17.553267,-7.1406245,77.390175,-9.945286,2.8939276,0.43901837,-5.2785816,4.1663713,6.894169,31.561195,-36.20427,51.60274,22.93383,5.8442984,-5.734713,4.5823803,-26.073181,42.370514,47.078594,-20.021496,3.243306,1.9976432
180,38.67603302001953,101.09284973144531,76.00955200195312,3.9657209809555662,-0.23340665177980463,42.81182435290069,-17.143108,3.589789,19.140347,27.696018,-10.651121,-0.87561333,-10.793738,-18.333586,-7.8186727,79.02363,-10.824947,1.8839428,0.0859117,-5.2799344,4.1638236,6.5277534,31.893103,-36.597668,51.431652,22.780014,5.800961,-5.5456696,4.759727,-26.009079,42.31679,46.849262,-19.981253,3.190863,1.8222342
181,39.00930404663086,101.56995391845703,76.12205505371094,3.8435661366720097,-0.200310990341262,42.81058267469801,-16.555317,3.5452802,19.093779,27.4596,-11.021287,-0.84524775,-11.924704,-19.006536,-8.53466,80.41542,-11.439643,0.8500101,-0.28327057,-5.233652,4.1569433,6.162068,32.23219,-36.987114,51.28225,22.679771,5.7401066,-5.314255,4.957033,-25.941586,42.217915,46.62097,-19.847878,3.1245308,1.566397
182,39.34368133544922,102.04547882080078,76.23932647705078,3.6767796567481774,-0.16089060387084717,42.82481527886677,-15.971845,3.5432103,19.00778,27.199835,-11.376818,-0.82431847,-13.020004,-19.596869,-9.336805,81.553535,-11.9806595,-0.21546935,-0.6668201,-5.1375914,4.147274,5.7827783,32.577015,-37.386982,51.151703,22.614254,5.668101,-5.0323944,5.167625,-25.87066,42.079525,46.387856,-19.633791,3.044676,1.2222997
183,39.67855453491211,102.51712799072266,76.36012268066406,3.4994715525650353,-0.12282797729027142,42.83554103429688,-15.363898,3.5521016,18.919964,26.883612,-11.703205,-0.81543684,-14.0843315,-20.065052,-10.117842,82.43958,-12.433868,-1.1609522,-1.0403703,-5.0304904,4.149019,5.3896084,32.923286,-37.76953,51.03191,22.597048,5.6065545,-4.755723,5.375603,-25.797,41.919212,46.165012,-19.365555,2.9584472,0.85713893
184,40.01952362060547,102.97559356689453,76.4799575805664,3.346234834653744,-0.09358482629556786,42.82345907249373,-14.701001,3.5386999,18.867699,26.475222,-11.984475,-0.82024354,-15.127207,-20.370272,-10.768886,83.07148,-12.779954,-1.8352901,-1.3831867,-4.950714,4.1746793,4.988084,33.26558,-38.09982,50.912178,22.64476,5.577239,-4.5398736,5.5712647,-25.720345,41.750412,45.96161,-19.077726,2.8742652,0.5382621
185,40.35654067993164,103.42937469482422,76.60018157958984,3.227283091347493,-0.07581983757915459,42.783460328986855,-13.966664,3.4902642,18.86154,25.951063,-12.2122135,-0.8363131,-16.15634,-20.507328,-11.276228,83.43805,-12.983069,-2.167267,-1.6940926,-4.9096184,4.227358,4.582099,33.60097,-38.367237,50.796906,22.795654,5.5927067,-4.3939342,5.752051,-25.6408,41.570522,45.78357,-18.741266,2.7825575,0.26285273
186,40.69456100463867,103.87846374511719,76.72286224365234,3.1243192334098215,-0.06526348349520582,42.72557539159679,-13.178695,3.4242938,18.881645,25.332376,-12.395206,-0.8629318,-17.172705,-20.494768,-11.698248,83.540794,-13.053154,-2.2449553,-1.9846582,-4.8856335,4.299237,4.168228,33.929047,-38.588745,50.69342,23.030434,5.639407,-4.289743,5.91989,-25.55834,41.378662,45.626488,-18.347872,2.6826196,0.0020903742
187,41.03522491455078,104.31885528564453,76.84564208984375,3.0280064074195696,-0.059135292061772676,42.6533302503598,-12.360382,3.3531947,18.918936,24.657965,-12.546781,-0.90368265,-18.180702,-20.325289,-12.02984,83.40143,-13.037779,-2.1561425,-2.253352,-4.8689904,4.3842077,3.7420514,34.248928,-38.76936,50.59628,23.28252,5.6994596,-4.227011,6.0752883,-25.473383,41.185978,45.488014,-17.97068,2.5973034,-0.21662235
188,41.375999450683594,104.751953125,76.96583557128906,2.9292501176203705,-0.054896796176337886,42.57034820305221,-11.535309,3.2894728,18.965092,23.96657,-12.679447,-0.9623373,-19.183165,-19.992348,-12.265272,83.04164,-12.986364,-1.9894426,-2.498108,-4.8498225,4.476695,3.3047562,34.559616,-38.908924,50.495663,23.489906,5.754901,-4.2052464,6.2100997,-25.386686,41.010963,45.37093,-17.672665,2.5503423,-0.366657
189,41.71004867553711,105.1899185180664,77.08480072021484,2.8241483184214977,-0.05800136519788407,42.47439912104797,-10.697166,3.2377572,19.016869,23.257753,-12.791667,-1.0465332,-20.188593,-19.447231,-12.36472,82.45171,-12.910669,-1.7390856,-2.7166936,-4.8252344,4.5826163,2.8537304,34.860332,-38.999897,50.396564,23.658642,5.802807,-4.2478113,6.3252506,-25.29826,40.850178,45.27428,-17.477112,2.5587337,-0.43292356
190,42.046504974365234,105.60870361328125,77.19602966308594,2.71901618126244,-0.06844711998115827,42.36510849870741,-9.836293,3.1887712,19.079538,22.513166,-12.876956,-1.1513216,-21.190351,-18.716013,-12.341249,81.62234,-12.788308,-1.3707775,-2.911366,-4.8015313,4.702838,2.389748,35.151005,-39.043625,50.302696,23.815485,5.851663,-4.3470364,6.4213543,-25.207928,40.698986,45.19871,-17.344831,2.6074853,-0.43295994
191,42.382606506347656,106.01990509033203,77.29917907714844,2.6207157504533454,-0.074996174296348,42.2485107425638,-8.966858,3.1330924,19.157627,21.735895,-12.943163,-1.2621393,-22.167294,-17.90285,-12.268569,80.57564,-12.618276,-0.93109334,-3.0885048,-4.782931,4.8235316,1.9179826,35.43175,-39.054638,50.20453,23.92609,5.9005938,-4.4555287,6.500913,-25.116713,40.56555,45.143387,-17.259434,2.672409,-0.38864574
192,42.72036361694336,106.43352508544922,77.39789581298828,2.534869729645403,-0.06595687143485678,42.130540138171256,-8.102117,3.0617745,19.255156,20.925022,-12.996187,-1.3651631,-23.100786,-17.107971,-12.220264,79.33628,-12.395188,-0.46417862,-3.2530165,-4.773073,4.9307685,1.4418303,35.702812,-39.04872,50.093506,23.956121,5.949072,-4.5256767,6.5558968,-25.028212,40.465397,45.115803,-17.194555,2.7289212,-0.32210633
193,43.053428649902344,106.84585571289062,77.48893737792969,2.4592311009635117,-0.03975434726059789,42.01211440562986,-7.2375636,2.9752927,19.376926,20.064995,-13.032758,-1.4611405,-23.995106,-16.308008,-12.178178,77.88925,-12.101441,0.055162255,-3.4037192,-4.7689233,5.0240884,0.95379007,35.963867,-39.02905,49.971954,23.868431,6.001653,-4.5494523,6.59287,-24.944206,40.396343,45.110847,-17.145725,2.7771723,-0.2327123
194,43.39785385131836,107.25044250488281,77.57076263427734,2.3914394943372317,-0.00215691120354908,41.89072547262067,-6.3679433,2.8765345,19.518383,19.159142,-13.050108,-1.5570223,-24.851427,-15.4692545,-12.112263,76.22568,-11.748489,0.6344585,-3.538059,-4.768403,5.1101017,0.4559627,36.214413,-38.986282,49.842133,23.692293,6.057303,-4.550455,6.615032,-24.864763,40.351185,45.124382,-17.12513,2.828092,-0.110489264
195,43.74248504638672,107.64727783203125,77.6392593383789,2.335998366665377,0.047720254650921556,41.76656635180944,-5.5060534,2.7622895,19.669937,18.234356,-13.054319,-1.6482757,-25.64874,-14.669589,-12.081931,74.37383,-11.368246,1.2066151,-3.6619565,-4.7758656,5.185,-0.037657034,36.45452,-38.920574,49.698673,23.487707,6.1068025,-4.528341,6.617718,-24.791752,40.331856,45.157635,-17.142002,2.8736262,0.03677319
196,44.08572006225586,108.04319763183594,77.69855499267578,2.296838774430413,0.11133486778243831,41.63960518691411,-4.6649823,2.6305387,19.822046,17.31778,-13.051599,-1.7294378,-26.368189,-13.981823,-12.149254,72.36099,-10.98889,1.7072871,-3.7824168,-4.7948484,5.245725,-0.5188495,36.684082,-38.83616,49.540466,23.309067,6.1409483,-4.483343,6.600703,-24.727272,40.33735,45.206493,-17.209448,2.905671,0.20139864
197,44.43970489501953,108.44308471679688,77.75367736816406,2.2720964977194624,0.19102228054854428,41.508733504570905,-3.852708,2.4870746,19.971033,16.421562,-13.041352,-1.7967738,-27.010252,-13.396234,-12.318904,70.1705,-10.606117,2.160235,-3.8979764,-4.824209,5.288898,-0.9843832,36.90355,-38.730602,49.36855,23.17363,6.151486,-4.4085045,6.561554,-24.67357,40.373825,45.274864,-17.35887,2.9180224,0.40353623
198,44.78252410888672,108.8267822265625,77.7915267944336,2.2592912645817576,0.2857902538943693,41.374422721945244,-3.0607872,2.3321092,20.121758,15.529395,-13.021233,-1.8526759,-27.580065,-12.875838,-12.565395,67.78894,-10.203893,2.5882986,-4.007115,-4.8607764,5.3169966,-1.4382262,37.11315,-38.601406,49.18286,23.050638,6.144989,-4.3062005,6.507736,-24.631062,40.435036,45.35614,-17.579344,2.9159317,0.640189
199,45.13643264770508,109.2106704711914,77.82152557373047,2.260635468049413,0.3926973513263131,41.2381370237919,-2.2807055,2.158622,20.276653,14.631696,-12.996772,-1.9015393,-28.071217,-12.444002,-12.907082,65.25308,-9.793335,2.9349673,-4.11182,-4.904296,5.3344655,-1.8786618,37.312176,-38.450874,48.97612,22.930141,6.1349,-4.1903796,6.4379907,-24.600132,40.51404,45.445026,-17.801987,2.9084468,0.868968
200,45.49186706542969,109.59770965576172,77.83769226074219,2.278310473744092,0.5092210673506168,41.10140633197276,-1.5142378,1.9635267,20.436836,13.740908,-12.985197,-1.9483207,-28.478289,-12.122543,-13.365891,62.60057,-9.386272,3.1437566,-4.21484,-4.953423,5.3437967,-2.2957258,37.499367,-38.27525,48.73696,22.807308,6.134584,-4.0746536,6.3678775,-24.579853,40.589725,45.525536,-17.975,2.905683,1.0480105
201,45.85051727294922,109.98040771484375,77.83882141113281,2.3071595079491525,0.6365722633729226,40.965782925903625,-0.7622342,1.7499273,20.60335,12.852317,-12.986113,-1.9862174,-28.795809,-11.920002,-13.977213,59.826355,-9.001525,3.1722417,-4.316725,-5.0008025,5.347914,-2.6965857,37.673393,-38.07405,48.461132,22.676395,6.151131,-3.9560935,6.2934456,-24.57085,40.661366,45.598133,-18.078661,2.9088807,1.1694877
202,46.21145248413086,110.36595153808594,77.83137512207031,2.345515688390475,0.7763530297182851,40.82985445767454,-0.027903,1.5222455,20.77404,11.968864,-12.995586,-2.016999,-29.025997,-11.801607,-14.731221,56.91081,-8.626189,3.07327,-4.414844,-5.04616,5.343658,-3.0812914,37.833973,-37.847584,48.154892,22.543577,6.176221,-3.8293014,6.2113338,-24.573626,40.736748,45.66823,-18.143381,2.9136758,1.2548916
203,46.57481384277344,110.75240325927734,77.8128890991211,2.4001474013284576,0.9262004666733159,40.69147454492241,0.70136553,1.2727126,20.948477,11.075335,-13.003055,-2.0543573,-29.173075,-11.72386,-15.578524,53.861465,-8.222808,2.9337683,-4.5088997,-5.100328,5.3260646,-3.443794,37.981544,-37.60397,47.83214,22.412176,6.2000437,-3.7045574,6.129147,-24.58746,40.813957,45.7344,-18.187574,2.9215498,1.305591
204,46.9398307800293,111.13417053222656,77.78130340576172,2.4771736667976723,1.0836949696381846,40.548475979279004,1.444194,0.9912738,21.12511,10.14303,-12.99389,-2.1140754,-29.244331,-11.651024,-16.46686,50.687653,-7.750771,2.8345942,-4.597074,-5.173247,5.290889,-3.7796836,38.116783,-37.3531,47.506233,22.285255,6.213179,-3.5923958,6.0478997,-24.61021,40.896454,45.79793,-18.220722,2.9337974,1.3229947
205,47.318119049072266,111.51629638671875,77.73604583740234,2.5788907341955585,1.2517682746525551,40.401276706898166,2.2049093,0.6725266,21.304409,9.154584,-12.953891,-2.2051148,-29.225422,-11.602509,-17.42686,47.349068,-7.17904,2.7616692,-4.6791353,-5.267769,5.2340264,-4.086613,38.239845,-37.090347,47.173885,22.16976,6.208507,-3.4968975,5.961753,-24.641432,40.99733,45.867508,-18.234055,2.9517581,1.2892444
206,47.69624328613281,111.8936538696289,77.6782455444336,2.6996148324112417,1.4308915278953993,40.252251662127314,2.9784288,0.32267106,21.484913,8.116309,-12.88904,-2.3195226,-29.11423,-11.567848,-18.478785,43.838783,-6.527664,2.6933005,-4.759318,-5.3764987,5.1586976,-4.3691893,38.350548,-36.813473,46.83203,22.059866,6.1929073,-3.4123733,5.8760433,-24.68019,41.10762,45.936764,-18.231813,2.9746523,1.209687
207,48.08723449707031,112.27723693847656,77.60831451416016,2.8363001266451033,1.6143152967519248,40.10441845501542,3.5962942,0.017183691,21.659687,7.4303446,-13.012043,-2.4493222,-28.931103,-11.484299,-19.547174,40.200817,-5.8273115,2.685985,-4.837961,-5.4973893,5.070332,-4.624065,38.449974,-36.53208,46.486317,21.948673,6.1771073,-3.3340158,5.798032,-24.724318,41.204212,45.997993,-18.231419,2.9995978,1.1200358
208,48.4884033203125,112.66148376464844,77.52415466308594,2.988528768369998,1.7943117026082571,39.96160792206678,3.9502563,-0.19285299,21.824474,7.3662615,-13.466011,-2.585026,-28.694435,-11.308598,-20.548552,36.476322,-5.1060734,2.785215,-4.9166265,-5.63157,4.976048,-4.8556337,38.539448,-36.261284,46.146976,21.824635,6.172044,-3.2573183,5.735705,-24.77088,41.262676,46.04323,-18.25193,3.0239935,1.0558373
209,48.89093780517578,113.03504943847656,77.42113494873047,3.175122672726199,1.9716581015798769,39.8324394654293,4.309806,-0.43956023,21.974186,7.3072605,-13.93109,-2.7259157,-28.389305,-11.065154,-21.451193,32.588882,-4.3284254,2.987421,-5.0000606,-5.7999177,4.870315,-5.0595126,38.620506,-35.996616,45.808533,21.686039,6.1826806,-3.1845784,5.7048244,-24.816801,41.261856,46.064953,-18.310316,3.048908,1.0271169
210,49.3184700012207,113.41303253173828,77.30752563476562,3.398389508790561,2.1440161100669584,39.720302936599985,4.680005,-0.72775394,22.10719,7.2442007,-14.399882,-2.8745456,-27.98834,-10.785661,-22.296656,28.497833,-3.4702854,3.261407,-5.091668,-6.004863,4.75681,-5.2404976,38.693764,-35.737885,45.46934,21.535961,6.202828,-3.1175637,5.6925077,-24.860886,41.22197,46.072422,-18.387617,3.0751379,1.0144796
211,49.74660110473633,113.79232788085938,77.18113708496094,3.6383185740340873,2.2955665176906885,39.62389820359015,5.076488,-1.0368737,22.223494,7.1797247,-14.867337,-3.017202,-27.49232,-10.458549,-23.104805,24.305851,-2.580449,3.6033819,-5.1911497,-6.2250376,4.6518636,-5.413445,38.751617,-35.507633,45.153214,21.376547,6.225674,-3.0494306,5.687786,-24.89917,41.1576,46.079197,-18.478102,3.0993953,1.0099123
212,50.1793098449707,114.17314910888672,77.04450988769531,3.8786220709582864,2.4079764407854674,39.54384659056525,5.517083,-1.3511544,22.320032,7.115442,-15.327273,-3.1402733,-26.905514,-10.0800085,-23.89581,20.129675,-1.7139158,4.010201,-5.2985964,-6.443894,4.573658,-5.597647,38.786858,-35.333546,44.88664,21.20752,6.244648,-2.9729826,5.668018,-24.927238,41.095184,46.106236,-18.560522,3.1185026,1.0045508
213,50.61502456665039,114.55839538574219,76.8977279663086,4.134622668477448,2.4679336783064967,39.48920525833808,6.018871,-1.6914684,22.383942,7.043378,-15.780885,-3.2347612,-26.216642,-9.655617,-24.658834,15.908311,-0.8614073,4.481715,-5.435442,-6.67666,4.53814,-5.763145,38.81542,-35.18427,44.636208,21.021675,6.258782,-2.888723,5.6377144,-24.955921,41.03121,46.136177,-18.658024,3.130353,1.00616
214,51.06400680541992,114.94229125976562,76.74391174316406,4.436254521208527,2.467999400534579,39.48250567784193,6.5878825,-2.090836,22.392588,6.9620795,-16.229416,-3.3059916,-25.395906,-9.244727,-25.393211,11.580617,0.011103552,5.0072303,-5.6263747,-6.953363,4.555453,-5.8836265,38.856495,-35.030533,44.36286,20.82557,6.2711043,-2.8047645,5.608893,-25.00563,40.958652,46.13711,-18.765676,3.1379035,1.019797
215,51.51594924926758,115.32999420166016,76.5798568725586,4.771891333784601,2.4132944069015783,39.52602640169013,7.2128243,-2.5298283,22.344753,6.883764,-16.66762,-3.3638277,-24.340918,-8.827857,-26.1544,7.0311136,1.0068436,5.5758576,-5.8571672,-7.2719884,4.574515,-6.0382214,38.862545,-34.983955,44.18992,20.614035,6.2836475,-2.7096465,5.564159,-25.015274,40.924774,46.197193,-18.82801,3.147148,1.0153768
216,51.97478485107422,115.71288299560547,76.4142837524414,5.105904677651929,2.326879167735579,39.597693551896,7.863248,-2.957325,22.265093,6.8259163,-17.093575,-3.4218574,-24.992025,-9.354224,-26.664394,6.876241,-0.25075328,6.2165694,-6.1173935,-7.578895,4.6588635,-6.1588964,38.882175,-34.90358,43.988857,20.470709,6.282794,-2.634799,5.5077853,-25.051258,40.850452,46.220512,-18.869564,3.1505272,1.0068619
217,52.43865203857422,116.10081481933594,76.25137329101562,5.4244798463523285,2.217777373467464,39.68589724553755,8.524492,-3.3569982,22.169252,6.7983003,-17.50692,-3.4708438,-25.495245,-9.860542,-27.205145,6.7532144,-1.5330896,7.023996,-6.395735,-7.867086,4.756355,-6.2488036,38.905724,-34.86796,43.791283,20.363373,6.2847157,-2.5550556,5.4576855,-25.100914,40.804317,46.213192,-18.818687,3.169151,0.9652853
218,52.905799865722656,116.48385620117188,76.08820343017578,5.721862304852629,2.096691306748409,39.77461884998225,9.191778,-3.7238872,22.070585,6.791633,-17.910236,-3.5113263,-25.893646,-10.325283,-27.765806,6.665531,-2.8340971,7.9617085,-6.6755595,-8.130894,4.86094,-6.3361273,38.929695,-34.88256,43.626083,20.26918,6.2785482,-2.4722047,5.4036813,-25.168274,40.774914,46.191574,-18.696096,3.1875682,0.90341115
219,53.386539459228516,116.86390686035156,75.93061065673828,5.956529614621491,1.9912339729351562,39.820174823142565,9.84008,-4.0000114,22.008493,6.8205795,-18.30988,-3.5743675,-26.152819,-10.674275,-28.404247,6.5531497,-3.9733124,8.800426,-6.9201136,-8.327879,4.944474,-6.3961525,38.93726,-34.916374,43.489304,20.212208,6.271379,-2.3973389,5.311501,-25.210186,40.7669,46.22662,-18.566776,3.1999772,0.83350706
220,53.866432189941406,117.24925994873047,75.78213500976562,6.1220034574238325,1.9280397318567652,39.79352946253764,10.456706,-4.1781697,22.010511,6.869243,-18.702446,-3.6829154,-26.28937,-10.901837,-29.151127,6.4765353,-4.828817,9.319542,-7.0994654,-8.455783,4.9842854,-6.4051404,38.936752,-34.944992,43.355392,20.201279,6.269326,-2.345496,5.217477,-25.229542,40.76288,46.28012,-18.494486,3.2086349,0.7730377
221,54.35376739501953,117.63347625732422,75.63878631591797,6.228787102041246,1.907623840294238,39.68369042995959,11.044544,-4.273098,22.094084,6.93975,-19.10711,-3.8448746,-26.263365,-11.005467,-30.093235,6.4444156,-5.351802,9.526148,-7.1970177,-8.513362,4.980878,-6.368516,38.927208,-34.988445,43.226562,20.22913,6.2720447,-2.3151093,5.1186843,-25.2643,40.766376,46.354576,-18.478622,3.1993213,0.7284139
222,54.85942459106445,118.01347351074219,75.49380493164062,6.286142718572741,1.919463876578665,39.50169552471694,11.613244,-4.305628,22.252953,7.0221076,-19.512636,-4.0447006,-26.10052,-10.992092,-31.167353,6.4700646,-5.637137,9.516882,-7.228931,-8.528049,4.9509225,-6.2890215,38.920868,-35.020443,43.106327,20.308163,6.2731204,-2.3082173,5.0275025,-25.276829,40.76987,46.430153,-18.510979,3.1871145,0.68501496
223,55.36164474487305,118.39247131347656,75.35929107666016,6.261095387885411,1.9622614221962444,39.253942024092794,12.150698,-4.236981,22.477907,7.1399465,-19.896843,-4.277065,-25.850939,-10.82594,-32.20095,6.5171094,-5.741068,9.197827,-7.187725,-8.41798,4.885555,-6.214209,38.83517,-35.125896,43.04813,20.395224,6.285443,-2.2935996,4.958501,-25.384274,40.787247,46.464928,-18.52223,3.172034,0.66099155
224,55.87156295776367,118.77952575683594,75.23339080810547,6.135526655978773,2.0284655246104215,38.931715228012,12.684057,-4.0558605,22.77065,7.247292,-20.202253,-4.534967,-25.600588,-10.501212,-32.992935,6.627334,-5.757806,8.478868,-7.085271,-8.216624,4.8286505,-6.090564,38.758682,-35.179264,42.968258,20.530512,6.2949333,-2.3140292,4.855228,-25.452202,40.797535,46.52262,-18.565004,3.1679778,0.6426572
225,56.38779830932617,119.160888671875,75.13495635986328,5.854232051299795,2.125086105089157,38.50199733998112,13.202547,-3.693901,23.171741,7.3652487,-20.446392,-4.8301578,-25.301966,-9.920829,-33.493946,6.737616,-5.684642,7.197685,-6.8880544,-7.8527493,4.7771044,-5.940083,38.654156,-35.214027,42.896236,20.715935,6.311005,-2.3602588,4.713871,-25.52156,40.82085,46.59432,-18.626749,3.179562,0.64933026
226,56.89544677734375,119.53642272949219,75.0737075805664,5.441231179628489,2.244467658916663,37.9758367614457,13.712355,-3.1806517,23.675407,7.4996495,-20.645676,-5.163599,-24.94707,-9.135953,-33.793144,6.899941,-5.5196667,5.4384856,-6.6063766,-7.336843,4.720803,-5.783862,38.4796,-35.243782,42.877697,20.958267,6.3305674,-2.4248567,4.5431433,-25.611984,40.86524,46.676697,-18.697674,3.2020447,0.67576295
227,57.42719650268555,119.91753387451172,75.02793884277344,4.965125360198026,2.3562283912415087,37.42460642423196,14.236943,-2.5962934,24.20231,7.646828,-20.769331,-5.5175004,-24.573572,-8.273592,-33.95798,7.083114,-5.2261977,3.48318,-6.298495,-6.751135,4.6609898,-5.6239166,38.26453,-35.290962,42.90804,21.204422,6.345496,-2.4987342,4.3861094,-25.700598,40.894566,46.754425,-18.771034,3.2274888,0.68983215
228,57.97488784790039,120.28814697265625,74.99626159667969,4.483039247234109,2.437728893923085,36.917810936097766,14.789447,-2.0019526,24.673841,7.808306,-20.793856,-5.875405,-24.21113,-7.4343524,-34.078,7.225586,-4.7470613,1.6143955,-6.0228395,-6.164275,4.6001077,-5.4530096,38.045856,-35.369957,42.969032,21.40193,6.34803,-2.5731866,4.261463,-25.771109,40.897778,46.82039,-18.810347,3.2478633,0.65893453
229,58.538108825683594,120.65438079833984,74.9682846069336,3.989643449604158,2.485667011252817,36.47982860578567,15.373835,-1.3801165,25.065477,7.9849005,-20.739096,-6.245077,-23.892653,-6.632105,-34.156338,7.34125,-4.005185,-0.25256002,-5.8010693,-5.5691304,4.534983,-5.279695,37.8242,-35.498177,43.06402,21.542564,6.3348904,-2.6598008,4.1819186,-25.823727,40.86596,46.85961,-18.819143,3.26318,0.57161415
230,59.11827850341797,121.0317611694336,74.93692779541016,3.459096732967142,2.5065051854365477,36.091725168678764,15.514782,-0.46625066,25.404388,9.279194,-21.187025,-6.635464,-24.183468,-6.2472467,-34.125614,8.974229,-3.8358016,-2.197624,-5.6187096,-4.9420304,4.473694,-5.088615,37.611946,-35.658756,43.170784,21.645832,6.311538,-2.7627327,4.1222463,-25.856724,40.81358,46.88939,-18.804987,3.2760797,0.44591698
231,59.72047424316406,121.41128540039062,74.89004516601562,2.947483888915777,2.4985048416987956,35.7596073432846,15.209602,0.6717331,25.655363,11.680207,-22.074936,-7.011521,-24.803303,-6.177936,-34.084137,11.519277,-4.0750294,-3.953391,-5.4871135,-4.339329,4.418911,-4.8643885,37.405586,-35.81868,43.291668,21.714853,6.2818513,-2.8563378,4.0877266,-25.8711,40.738758,46.91929,-18.770308,3.2852929,0.29579276
232,60.3360710144043,121.79305267333984,74.83851623535156,2.507661314758226,2.465217124788915,35.48049101106711,14.933081,1.7201353,25.806934,14.037472,-22.742525,-7.3315434,-25.264019,-6.1660542,-34.114754,13.83398,-4.2870603,-5.2646427,-5.4070053,-3.8146195,4.369131,-4.5953054,37.198555,-35.947906,43.43322,21.753483,6.2496104,-2.9137292,4.0672126,-25.869772,40.652542,46.972633,-18.702217,3.2890406,0.13460751
233,60.96856689453125,122.16383361816406,74.78479766845703,2.14268364391517,2.422000551145328,35.270115500706325,14.659253,2.6784863,25.849977,16.380072,-23.239555,-7.609777,-25.610813,-6.2699046,-34.230892,16.047504,-4.524796,-5.9515123,-5.394751,-3.3661342,4.3022504,-4.278914,36.984985,-36.048214,43.605095,21.740461,6.21124,-2.915548,4.066297,-25.854792,40.555653,47.052753,-18.589533,3.2844453,-0.03822646
234,61.59560012817383,122.52607727050781,74.73930358886719,1.8160760762244392,2.3745494002875036,35.11258626680134,14.364056,3.6046882,25.801428,18.757,-23.605131,-7.8540196,-25.884325,-6.4614744,-34.387592,18.20396,-4.7441564,-6.2078295,-5.4323616,-2.9562514,4.217794,-3.9232717,36.762806,-36.132565,43.80568,21.683498,6.166249,-2.878715,4.0788255,-25.827383,40.451813,47.154743,-18.431023,3.2728097,-0.22863182
235,62.22270202636719,122.88868713378906,74.7046890258789,1.5182296447517452,2.3133056936226915,34.95409494588736,14.00514,4.5272784,25.700722,21.266846,-23.804476,-8.024084,-26.076054,-6.6737237,-34.513664,20.255426,-5.003709,-6.3161016,-5.472781,-2.5801992,4.14425,-3.5331795,36.530632,-36.183228,44.02817,21.626802,6.1226506,-2.8307853,4.1079297,-25.78801,40.32814,47.26496,-18.267233,3.2589846,-0.43113744
236,62.84608840942383,123.24835205078125,74.67923736572266,1.2427883293018673,2.2247539688549103,34.74814101241402,13.557069,5.4623632,25.58091,23.978725,-23.78959,-8.083316,-26.16731,-6.819028,-34.54991,22.111729,-5.3432093,-6.538606,-5.473085,-2.2369096,4.1147633,-3.1151311,36.28906,-36.184387,44.262794,21.61526,6.08881,-2.7997036,4.1175017,-25.739664,40.205647,47.396523,-18.096552,3.2477646,-0.6409739
237,63.467071533203125,123.60734558105469,74.65884399414062,1.0038934854290735,2.110733319789831,34.47152013044477,13.012062,6.3829713,25.475424,26.936102,-23.566309,-7.958801,-26.188368,-6.8720837,-34.45777,23.77948,-5.768793,-6.9062743,-5.4217257,-1.9383687,4.1318836,-2.6354241,36.03537,-36.098034,44.50046,21.651016,6.0614977,-2.7621148,4.143547,-25.679361,40.044235,47.53552,-17.937124,3.2316124,-0.89335734
238,64.0938949584961,123.95416259765625,74.64202880859375,0.7964406838974651,1.9795570546417975,34.14893399000427,12.39547,7.2813926,25.36724,30.060802,-23.137472,-7.7009125,-26.148209,-6.849036,-34.279434,25.284754,-6.2463393,-7.2745934,-5.3375096,-1.6768728,4.1789703,-2.1094325,35.76902,-35.947155,44.7515,21.711098,6.038413,-2.7129076,4.1612053,-25.608189,39.87237,47.700054,-17.755621,3.210484,-1.1795377
239,64.70849609375,124.28609466552734,74.6369857788086,0.5887215327886565,1.8249727862546608,33.8087149561414,11.72972,8.196058,25.209301,33.25199,-22.449432,-7.4605684,-25.994495,-6.724005,-34.079247,26.561455,-6.75744,-7.6379576,-5.238271,-1.4231524,4.253083,-1.5775634,35.49535,-35.777927,45.015415,21.815212,6.0285287,-2.7079904,4.168601,-25.530079,39.70943,47.86183,-17.604582,3.202937,-1.4252367
240,65.33785247802734,124.6272201538086,74.64801788330078,0.3507660882192533,1.6401586349985828,33.4788736842498,11.028352,9.164775,24.947205,36.426823,-21.457632,-7.3872666,-25.678818,-6.487976,-33.9174,27.566336,-7.2956924,-7.996663,-5.1400065,-1.1499453,4.3544445,-1.0875872,35.223602,-35.64272,45.29418,21.97776,6.0404673,-2.8038318,4.159249,-25.451149,39.578465,47.99135,-17.528149,3.228134,-1.5560807
241,65.9549560546875,124.9673843383789,74.66847229003906,0.07045548544410848,1.4097341717380885,33.153190572044835,10.296077,10.199625,24.567913,39.60494,-20.04556,-7.549877,-25.154358,-6.115937,-33.79621,28.254177,-7.896896,-8.369543,-5.035669,-0.8459357,4.4999776,-0.6380163,34.95833,-35.542805,45.58547,22.221563,6.078198,-3.0275288,4.1366897,-25.375963,39.472664,48.079803,-17.550169,3.3035305,-1.5334742
