unveil-humanoid-operators/unveil-humanoid-operators.github.io/feature-analysis-animation/data/feature_matrix_instances/weight_ankle_peak_vel_gesture_A259_no_speak_002__A259.csv
Frame,root_translateX,root_translateY,root_translateZ,root_rotateX,root_rotateY,root_rotateZ,left_hip_pitch_joint_dof,left_hip_roll_joint_dof,left_hip_yaw_joint_dof,left_knee_joint_dof,left_ankle_pitch_joint_dof,left_ankle_roll_joint_dof,right_hip_pitch_joint_dof,right_hip_roll_joint_dof,right_hip_yaw_joint_dof,right_knee_joint_dof,right_ankle_pitch_joint_dof,right_ankle_roll_joint_dof,waist_yaw_joint_dof,waist_roll_joint_dof,waist_pitch_joint_dof,left_shoulder_pitch_joint_dof,left_shoulder_roll_joint_dof,left_shoulder_yaw_joint_dof,left_elbow_joint_dof,left_wrist_roll_joint_dof,left_wrist_pitch_joint_dof,left_wrist_yaw_joint_dof,right_shoulder_pitch_joint_dof,right_shoulder_roll_joint_dof,right_shoulder_yaw_joint_dof,right_elbow_joint_dof,right_wrist_roll_joint_dof,right_wrist_pitch_joint_dof,right_wrist_yaw_joint_dof
0,-0.05953817814588547,1.6651581525802612,78.74612426757812,0.1143658880514838,2.7353014504417845,-93.16695464491455,-0.22001001,5.8848405,23.693815,6.808334,-7.708431,-4.4289684,-3.6082125,-4.1875544,-10.4712,6.9662967,-6.33955,3.573645,-1.2044228,-1.6997869,3.8673687,4.4240847,28.693241,-32.81562,51.923428,10.531005,-0.6851213,-3.905616,-3.2193806,-26.049511,49.9459,55.024155,0.81104034,-2.1082923,0.6425436
1,-0.05758936330676079,1.6690969467163086,78.74504852294922,0.11312744886851842,2.7348299267603977,-93.16275082201426,-0.2248539,5.8849845,23.685005,6.8081675,-7.708114,-4.420309,-3.603789,-4.186562,-10.485684,6.9514203,-6.326507,3.5773783,-1.1885036,-1.6666577,3.877733,4.2234764,28.782818,-32.76623,51.507957,10.206969,-0.82522094,-3.9841197,-3.355369,-26.108946,49.93834,54.90419,1.1235563,-2.0292604,0.8373834
2,-0.057436712086200714,1.6728907823562622,78.7452163696289,0.11196662769043031,2.7343836113103688,-93.15873828094908,-0.22972019,5.88532,23.67595,6.808324,-7.7085357,-4.4112806,-3.5994387,-4.1856146,-10.500328,6.9372873,-6.313706,3.5812333,-1.1750046,-1.6440821,3.8961155,4.064714,28.912388,-32.703777,51.06112,9.898332,-0.9532678,-4.0713925,-3.4744973,-26.172836,49.920803,54.773823,1.4260712,-1.9508317,1.028717
3,-0.05769959092140198,1.6783167123794556,78.74612426757812,0.11110313250607162,2.734071943280815,-93.15423531839562,-0.23549218,5.8853073,23.667244,6.8086133,-7.7077093,-4.40311,-3.5956964,-4.1850915,-10.514436,6.9233685,-6.301458,3.584703,-1.1610919,-1.6264372,3.9200904,3.9043326,29.075605,-32.63543,50.537197,9.544097,-1.0994632,-4.162827,-3.6189795,-26.243444,49.9172,54.61337,1.7494143,-1.8678981,1.2280701
4,-0.055691029876470566,1.6853967905044556,78.74838256835938,0.111150984941609,2.733899682921417,-93.1483527950361,-0.24370088,5.884266,23.659634,6.8086514,-7.7027597,-4.397028,-3.5939915,-4.185949,-10.527109,6.909983,-6.2895756,3.5873523,-1.1474581,-1.6092923,3.9476655,3.7128086,29.276129,-32.55984,49.874126,9.085022,-1.2936962,-4.2567124,-3.8139274,-26.327118,49.937786,54.38439,2.1078537,-1.7743884,1.4474087
5,-0.05413560941815376,1.694739580154419,78.74909973144531,0.112871462126399,2.7336193946523775,-93.14099003140744,-0.25403646,5.881191,23.654346,6.8090296,-7.6936893,-4.3939996,-3.592932,-4.188826,-10.538099,6.894483,-6.2777886,3.5892355,-1.1346142,-1.592073,3.9786422,3.4890482,29.518856,-32.479744,49.066956,8.494332,-1.5626954,-4.3606944,-4.0551486,-26.429356,49.982437,54.083065,2.4995508,-1.6623458,1.7129166
6,-0.054997287690639496,1.7051713466644287,78.75105285644531,0.11584093596659635,2.733336962470419,-93.13254391377183,-0.26564622,5.876423,23.650698,6.807694,-7.680118,-4.39317,-3.5939066,-4.193556,-10.547802,6.8807635,-6.2677584,3.5906222,-1.1207352,-1.5765073,4.015263,3.248244,29.802805,-32.395115,48.140236,7.807127,-1.8833653,-4.4762454,-4.335514,-26.551884,50.052643,53.72372,2.9269753,-1.5357009,2.0107992
7,-0.05705782771110535,1.7211217880249023,78.74793243408203,0.11856585756307897,2.733549023301108,-93.12298718122,-0.2795428,5.8721237,23.646263,6.8069205,-7.6649556,-4.3929358,-3.5963006,-4.197914,-10.5566435,6.866543,-6.2565084,3.5909996,-1.1086981,-1.5614537,4.0558987,2.9902914,30.124517,-32.297794,47.07478,7.0542097,-2.2108555,-4.593571,-4.64325,-26.696169,50.127823,53.274124,3.3694205,-1.4062159,2.2936232
8,-0.05335049331188202,1.7343921661376953,78.74931335449219,0.12034244906305241,2.7348419138640723,-93.11227828702881,-0.29636523,5.8693914,23.638659,6.8063,-7.6491985,-4.391547,-3.597728,-4.2002487,-10.565037,6.8450327,-6.238537,3.5901825,-1.0944657,-1.5462015,4.102906,2.7082207,30.480183,-32.18543,45.85181,6.267256,-2.5006196,-4.700695,-5.007733,-26.86424,50.228027,52.728027,3.8573418,-1.2868922,2.5140824
9,-0.05433190241456032,1.7500760555267334,78.75009155273438,0.12014558629636979,2.7371665852363587,-93.0998906861127,-0.3160249,5.868884,23.626387,6.805947,-7.632982,-4.3883557,-3.6033046,-4.2005334,-10.57229,6.8280745,-6.2195187,3.5873156,-1.0837013,-1.5273426,4.1506352,2.4061644,30.867088,-32.05199,44.46873,5.4398026,-2.7476158,-4.803655,-5.3974814,-27.058687,50.330795,52.058662,4.3381166,-1.1839024,2.6709113
10,-0.054093025624752045,1.7682597637176514,78.75226593017578,0.11883788760247059,2.7402725135159742,-93.08600695106166,-0.33866236,5.869804,23.610739,6.8066573,-7.6161265,-4.384323,-3.613762,-4.2001657,-10.578282,6.817049,-6.2008963,3.5829437,-1.0729694,-1.5048192,4.199573,2.0839052,31.285133,-31.904482,42.936375,4.560638,-2.9726224,-4.905842,-5.819396,-27.28149,50.44756,51.281715,4.8322744,-1.0896459,2.7863746
11,-0.057974621653556824,1.7904781103134155,78.75211334228516,0.11717950430402603,2.744452893561689,-93.07181730979731,-0.36298022,5.871336,23.594675,6.8061275,-7.598259,-4.3802176,-3.6312618,-4.1997914,-10.583794,6.8160033,-6.185946,3.5782292,-1.061981,-1.4818069,4.2517295,1.7417499,31.732763,-31.744375,41.255295,3.6533566,-3.1704738,-4.990807,-6.2782183,-27.531633,50.568558,50.405228,5.3734283,-0.996248,2.8483157
12,-0.05625539273023605,1.8042651414871216,78.75506591796875,0.11647898981067456,2.7501282448561515,-93.05876385429644,-0.3898513,5.873249,23.580526,6.805899,-7.5805063,-4.3767886,-3.6507602,-4.1991053,-10.590049,6.813903,-6.1702967,3.5743506,-1.0509079,-1.4614828,4.308016,1.3807156,32.207623,-31.572407,39.42622,2.7418914,-3.3366382,-5.0416374,-6.7670207,-27.804983,50.673527,49.42954,5.985117,-0.89605707,2.8441699
13,-0.05709536001086235,1.8232421875,78.75739288330078,0.11648196273263339,2.7575462344542934,-93.04672258476775,-0.41806844,5.875467,23.568548,6.8041515,-7.563243,-4.374096,-3.6729174,-4.1975026,-10.596942,6.8116837,-6.1545067,3.572191,-1.0371519,-1.4439722,4.365892,0.99926996,32.71086,-31.392548,37.431488,1.9017835,-3.454039,-5.041973,-7.292433,-28.098751,50.766884,48.362072,6.6813664,-0.78328866,2.757658
14,-0.05634945258498192,1.8429018259048462,78.76067352294922,0.11697154376440277,2.766406811462453,-93.03510398516889,-0.4490037,5.8787513,23.557417,6.8025236,-7.546165,-4.3718476,-3.698142,-4.1952486,-10.604029,6.809451,-6.1374674,3.5709789,-1.0211718,-1.4276855,4.42284,0.6010854,33.24357,-31.203875,35.2738,1.0969775,-3.530622,-5.0037174,-7.8531113,-28.412165,50.855686,47.202034,7.44534,-0.66517717,2.5996966
15,-0.0647786483168602,1.864375114440918,78.76118469238281,0.1178337142117582,2.7762337203326304,-93.02457762727066,-0.48113215,5.8816867,23.548067,6.8005667,-7.528503,-4.3700604,-3.724834,-4.1929727,-10.611947,6.8066187,-6.119904,3.5692244,-1.0061007,-1.413487,4.480607,0.18937728,33.80171,-31.003002,32.987457,0.18304236,-3.5995095,-4.9523454,-8.445123,-28.744686,50.935654,45.950268,8.266586,-0.5538608,2.3981738
16,-0.07329871505498886,1.8881123065948486,78.76126098632812,0.11927314568259055,2.7867587843341197,-93.01611030113472,-0.5141986,5.883249,23.541218,6.7982526,-7.5088553,-4.368839,-3.7533865,-4.1918864,-10.621179,6.8035197,-6.101117,3.5656095,-0.99319774,-1.4019916,4.541665,-0.23786458,34.37764,-30.78901,30.611824,-0.9853181,-3.6937926,-4.913726,-9.07406,-29.095903,51.009785,44.613163,9.144846,-0.46088433,2.181362
17,-0.0772414579987526,1.9137157201766968,78.76018524169922,0.12168077133046354,2.798052456342129,-93.01114650557723,-0.5476894,5.882406,23.540154,6.794678,-7.485531,-4.368874,-3.784592,-4.192989,-10.632885,6.8009057,-6.082045,3.5589135,-0.97874427,-1.3917838,4.60286,-0.685922,34.96735,-30.56632,28.14443,-2.4667974,-3.8415325,-4.9001975,-9.748059,-29.466715,51.091045,43.193523,10.104165,-0.3844359,1.9425743
18,-0.08280576765537262,1.9415398836135864,78.76042938232422,0.1253602637849801,2.810301944634318,-93.00896351600288,-0.58212525,5.8799424,23.543333,6.79134,-7.4608493,-4.3699055,-3.818139,-4.195453,-10.646469,6.798524,-6.06244,3.5501103,-0.9633486,-1.381769,4.661362,-1.1537075,35.569897,-30.335392,25.57314,-4.1779428,-4.017695,-4.897725,-10.46117,-29.857422,51.176605,41.688095,11.1377735,-0.32126877,1.6720295
19,-0.08028421550989151,1.9656829833984375,78.76543426513672,0.12807598001264242,2.8228066695248426,-93.00637793910458,-0.6174657,5.8779044,23.54468,6.7874703,-7.4354544,-4.3705363,-3.8523598,-4.197502,-10.65979,6.7960773,-6.0420647,3.5412354,-0.9536474,-1.371629,4.720366,-1.6365255,36.18084,-30.090073,22.923012,-6.051441,-4.175821,-4.8906507,-11.202662,-30.265667,51.24875,40.097763,12.203785,-0.27947545,1.3935459
20,-0.07934996485710144,1.9885673522949219,78.76631164550781,0.12858004933574052,2.8350025629806304,-93.00036236427127,-0.6541719,5.87839,23.537762,6.7846785,-7.412069,-4.3693542,-3.8856757,-4.19756,-10.670656,6.7937756,-6.0208144,3.5342295,-0.9563757,-1.3609178,4.7831397,-2.133679,36.793255,-29.825905,20.223248,-8.020286,-4.271283,-4.8591485,-11.962567,-30.687496,51.289165,38.42509,13.259751,-0.2661804,1.1311554
21,-0.07844887673854828,2.016547203063965,78.76644897460938,0.12548098278809605,2.847616030946837,-92.98836086652197,-0.69305706,5.8823547,23.517406,6.7814474,-7.3903418,-4.36575,-3.91787,-4.193991,-10.676942,6.7905164,-5.9980183,3.529682,-0.97542644,-1.3470604,4.844946,-2.6454437,37.40285,-29.549667,17.46316,-10.130499,-4.2885017,-4.7885327,-12.738516,-31.121239,51.292927,36.662395,14.302057,-0.29005522,0.89260465
22,-0.08116437494754791,2.030926465988159,78.76850128173828,0.1200271790178867,2.8606905006718555,-92.97262991555968,-0.7343527,5.888855,23.48797,6.778628,-7.3695245,-4.360473,-3.9500744,-4.1882815,-10.68028,6.7873163,-5.9743066,3.5265813,-1.0049556,-1.330312,4.903399,-3.1772542,38.008507,-29.265587,14.639511,-12.3973875,-4.255378,-4.68491,-13.538913,-31.56679,51.272602,34.817017,15.353593,-0.3443055,0.6658684
23,-0.08152057230472565,2.0523765087127686,78.77167510986328,0.1140080535772531,2.872244422393964,-92.95689054317081,-0.7743022,5.895726,23.458145,6.776365,-7.349997,-4.3544106,-3.980878,-4.1821556,-10.684451,6.784129,-5.9498706,3.5241978,-1.0389152,-1.3139865,4.9643545,-3.7340317,38.60749,-28.963285,11.792687,-14.708015,-4.1934056,-4.558073,-14.361377,-32.02113,51.230873,32.907974,16.40493,-0.41186956,0.44432124
24,-0.08275890350341797,2.0827884674072266,78.77571868896484,0.10917059937887569,2.880392396961248,-92.94494640191144,-0.80881923,5.900921,23.436626,6.772901,-7.3301716,-4.3483586,-4.0082116,-4.1772203,-10.693425,6.780897,-5.9255676,3.5218196,-1.0719957,-1.3019242,5.0338173,-4.3233223,39.195873,-28.633057,8.966694,-16.949783,-4.1235256,-4.419719,-15.20969,-32.479626,51.1742,30.96005,17.448643,-0.47588027,0.22059259
25,-0.0842067152261734,2.110496997833252,78.77950286865234,0.10543027998937002,2.884112605833607,-92.93693961100891,-0.8375405,5.904812,23.42515,6.771191,-7.313067,-4.3423944,-4.0312524,-4.1736174,-10.712251,6.777906,-5.901335,3.5190916,-1.1053308,-1.2929778,5.1125784,-4.954423,39.770218,-28.272371,6.1626067,-19.14205,-4.039831,-4.276542,-16.093605,-32.93823,51.110256,28.978462,18.480528,-0.5358762,-0.008885121
26,-0.08067701756954193,2.1301357746124268,78.78231048583984,0.10219338643974213,2.8845267503262653,-92.9310476041286,-0.8618566,5.9077864,23.419334,6.769028,-7.2968698,-4.3360786,-4.050758,-4.170663,-10.737463,6.774808,-5.876949,3.5164587,-1.1425897,-1.285882,5.195524,-5.624236,40.32896,-27.888758,3.365733,-21.329502,-3.9374788,-4.1173925,-17.01338,-33.394554,51.038307,26.956814,19.50654,-0.59850967,-0.24058692
27,-0.08153082430362701,2.15889048576355,78.7841567993164,0.10026436009743378,2.8830743946337125,-92.92833688620614,-0.8830901,5.9097075,23.418116,6.766981,-7.2802753,-4.3296103,-4.068927,-4.168807,-10.760273,6.771931,-5.852647,3.5144339,-1.1812974,-1.2831953,5.280553,-6.3254313,40.87012,-27.488213,0.59814334,-23.436192,-3.8392231,-3.931411,-17.955442,-33.84542,50.948963,24.90735,20.53418,-0.6641784,-0.47066623
28,-0.08084738254547119,2.1857919692993164,78.78256225585938,0.09986724303187228,2.8810643220125183,-92.92961349910483,-0.901623,5.9102054,23.420843,6.76377,-7.261366,-4.3230987,-4.087321,-4.1678624,-10.771896,6.768571,-5.828412,3.5133579,-1.2179602,-1.2872449,5.3670263,-7.054196,41.39121,-27.078682,-2.1158872,-25.38567,-3.7682302,-3.7098782,-18.912977,-34.286907,50.834892,22.847977,21.574306,-0.732823,-0.69538456
29,-0.07747592777013779,2.2135066986083984,78.78595733642578,0.10243584266051844,2.8785525154361613,-92.93589503580732,-0.9186477,5.908418,23.428108,6.761347,-7.239388,-4.3162856,-4.1068068,-4.169353,-10.767888,6.76591,-5.805165,3.5140543,-1.2522635,-1.3008758,5.4549975,-7.8192806,41.888954,-26.664505,-4.7740407,-27.127037,-3.728957,-3.4443526,-19.887863,-34.71561,50.690052,20.773758,22.593637,-0.80409926,-0.9107424
30,-0.07457926124334335,2.2358312606811523,78.78485107421875,0.10721037513579965,2.8750299429951127,-92.94658728158973,-0.9330031,5.9049225,23.440092,6.7588396,-7.215304,-4.3092694,-4.126212,-4.1725755,-10.753688,6.7630415,-5.7819886,3.516068,-1.2857788,-1.3218954,5.542809,-8.629658,42.36076,-26.24879,-7.378365,-28.711481,-3.7129533,-3.1434133,-20.883362,-35.13004,50.5198,18.684502,23.597805,-0.8785365,-1.1198786
31,-0.07769697159528732,2.2588491439819336,78.7861557006836,0.11244878178663552,2.870556830212018,-92.95969455993205,-0.9448168,5.901322,23.454706,6.756066,-7.191395,-4.3025317,-4.144947,-4.1756673,-10.735026,6.760567,-5.7592354,3.5180237,-1.3169578,-1.3455201,5.628501,-9.480602,42.80542,-25.83749,-9.914107,-30.213964,-3.7234604,-2.825735,-21.896532,-35.528378,50.333515,16.604263,24.657877,-0.9579898,-1.3304318
32,-0.07829537242650986,2.282742738723755,78.791015625,0.11618973358870942,2.8653034712123837,-92.97327958922068,-0.9543285,5.899241,23.469582,6.7530785,-7.170502,-4.2966223,-4.1617274,-4.1768208,-10.71777,6.7576165,-5.7366853,3.518541,-1.3440973,-1.3668491,5.7108173,-10.366489,43.22247,-25.435387,-12.3675165,-31.709028,-3.7631993,-2.5101426,-22.922325,-35.90772,50.138798,14.555279,25.844635,-1.0452288,-1.5502714
33,-0.07771632820367813,2.306584358215332,78.79408264160156,0.11766377789926358,2.8598419660394354,-92.98694600832162,-0.96269846,5.9002285,23.48401,6.7511363,-7.1541824,-4.291648,-4.177562,-4.174738,-10.702891,6.7550526,-5.7143836,3.5173032,-1.3676283,-1.3850801,5.788715,-11.293211,43.611282,-25.044228,-14.744544,-33.20246,-3.8371391,-2.186131,-23.965324,-36.26551,49.941658,12.5325575,27.244848,-1.1393567,-1.7896879
34,-0.07585642486810684,2.324753522872925,78.79544830322266,0.11801183704441515,2.8538814568074495,-93.00168453257999,-0.9696184,5.90291,23.499336,6.750015,-7.140833,-4.2873716,-4.192413,-4.17083,-10.687493,6.752598,-5.6924534,3.5150554,-1.3889643,-1.402596,5.8635244,-12.269059,43.969723,-24.666677,-17.043116,-34.65879,-3.9446056,-1.8515003,-25.030647,-36.598953,49.739105,10.532742,28.799618,-1.2424135,-2.042501
35,-0.07582951337099075,2.3461527824401855,78.79920959472656,0.11811338472593023,2.84642044774156,-93.01772973507556,-0.97329944,5.9058967,23.51604,6.7485623,-7.1284885,-4.283788,-4.2051024,-4.166367,-10.671534,6.749809,-5.6705675,3.5118887,-1.4074007,-1.4191358,5.9340315,-13.2843,44.296406,-24.307465,-19.247442,-36.08928,-4.074917,-1.5349197,-26.11186,-36.905716,49.525814,8.582831,30.357494,-1.3609225,-2.2907486
36,-0.07606953382492065,2.3654611110687256,78.79839324951172,0.11884356723674759,2.836604924380951,-93.03572252378525,-0.97263294,5.908046,23.534636,6.746342,-7.1152344,-4.2810283,-4.214474,-4.1625233,-10.654974,6.7471886,-5.6497197,3.5078988,-1.4232863,-1.4349649,5.99943,-14.330852,44.59014,-23.970999,-21.33842,-37.50554,-4.2165375,-1.2647983,-27.200762,-37.184338,49.295444,6.707781,31.765818,-1.4992139,-2.5156453
37,-0.07434797286987305,2.3826653957366943,78.80201721191406,0.12089394609241948,2.823134238202824,-93.05503759516628,-0.966635,5.9085646,23.55511,6.7454724,-7.101479,-4.2791266,-4.219148,-4.160607,-10.639307,6.7453394,-5.630206,3.502572,-1.4360262,-1.4510968,6.062277,-15.413358,44.848305,-23.655773,-23.315075,-38.965027,-4.3683376,-1.0695648,-28.302902,-37.432426,49.042492,4.9176135,32.984554,-1.665871,-2.7110512
38,-0.0743071511387825,2.400745153427124,78.8015365600586,0.12366621821941884,2.8068267775280127,-93.07564155101852,-0.9553864,5.9080606,23.577337,6.743703,-7.087047,-4.2780313,-4.219704,-4.1593246,-10.624154,6.7431006,-5.6112227,3.495982,-1.4452723,-1.4666073,6.121372,-16.541744,45.06914,-23.366953,-25.180927,-40.442974,-4.5332346,-0.9286363,-29.42213,-37.64764,48.771664,3.2026243,34.094822,-1.8550007,-2.8862987
39,-0.07336457818746567,2.4206557273864746,78.80397033691406,0.1261444840132993,2.7899803027174994,-93.09885392108244,-0.9430866,5.908449,23.601357,6.742652,-7.0736246,-4.2776394,-4.2199535,-4.1574473,-10.606263,6.74121,-5.592603,3.4893377,-1.4491365,-1.4791772,6.171743,-17.714037,45.254566,-23.118616,-26.92701,-41.82725,-4.705438,-0.79655147,-30.556068,-37.829372,48.49479,1.5666506,35.127415,-2.0475273,-3.04634
40,-0.07315381616353989,2.4354145526885986,78.80457305908203,0.1278371972931861,2.774692965942735,-93.12577270158755,-0.9314038,5.910288,23.62784,6.7405386,-7.0622673,-4.277767,-4.2224493,-4.1537004,-10.582451,6.739035,-5.5745945,3.4839854,-1.4490833,-1.4879106,6.2064757,-18.92521,45.40866,-22.92196,-28.544363,-43.00562,-4.880445,-0.6271462,-31.69561,-37.980526,48.22319,0.004994414,36.110912,-2.2245626,-3.1958575
41,-0.06878992170095444,2.4522812366485596,78.80591583251953,0.1279109439242525,2.7621605033827104,-93.15821016011124,-0.92280364,5.915259,23.656729,6.7386246,-7.0547605,-4.2789783,-4.229914,-4.146986,-10.550153,6.736629,-5.556205,3.4800484,-1.4414643,-1.4909601,6.227704,-20.182987,45.53406,-22.776682,-30.033962,-43.89284,-5.055082,-0.40590614,-32.84871,-38.101456,47.951275,-1.4811338,36.9963,-2.3684335,-3.3158257
42,-0.06725730746984482,2.468489408493042,78.80697631835938,0.1268935946156544,2.750973285162604,-93.19508591866092,-0.9153051,5.922363,23.687824,6.735992,-7.049091,-4.2812386,-4.2396703,-4.138061,-10.511713,6.733844,-5.5379524,3.4768465,-1.4281056,-1.4903911,6.238099,-21.486122,45.63078,-22.67736,-31.402124,-44.56749,-5.2312155,-0.15770923,-34.016026,-38.1922,47.67534,-2.8927786,37.78619,-2.4922738,-3.4107797
43,-0.06604030728340149,2.483696937561035,78.80746459960938,0.12595433792991326,2.7398127486827786,-93.23339515721288,-0.9062799,5.9295444,23.721115,6.7331924,-7.044414,-4.2832475,-4.249628,-4.1289606,-10.471013,6.731728,-5.5203495,3.4745176,-1.4137456,-1.4892716,6.237002,-22.81679,45.699154,-22.62633,-32.65133,-45.163242,-5.4124684,0.10441469,-35.183685,-38.255054,47.406868,-4.2346997,38.59158,-2.6246588,-3.5218952
44,-0.06532122194766998,2.4974868297576904,78.8082275390625,0.12629323860493546,2.7275316890182206,-93.27047114265709,-0.8945059,5.934904,23.756285,6.7315364,-7.039129,-4.2837276,-4.256478,-4.1215644,-10.432059,6.7295103,-5.5030117,3.4731283,-1.3909509,-1.4889052,6.231599,-24.158667,45.7397,-22.628565,-33.800022,-45.814323,-5.603219,0.3666067,-36.345844,-38.286137,47.15073,-5.4970717,39.52014,-2.7962465,-3.6917598
45,-0.0641227439045906,2.5092296600341797,78.80787658691406,0.12885069511005326,2.7134348312884606,-93.30616640149996,-0.8784075,5.9375525,23.79579,6.7304316,-7.031156,-4.2819347,-4.259169,-4.116619,-10.395097,6.7271986,-5.4850945,3.4730535,-1.3691,-1.4910103,6.2162232,-25.499018,45.752377,-22.674593,-34.841084,-46.54302,-5.8069577,0.631849,-37.50068,-38.287437,46.91968,-6.684711,40.604404,-3.0205102,-3.9432037
46,-0.063717320561409,2.519841432571411,78.80902099609375,0.13269134550931916,2.6982832126455905,-93.34178449465111,-0.8586447,5.9382024,23.839148,6.728561,-7.0212936,-4.2785916,-4.259653,-4.1130767,-10.35819,6.724932,-5.4668074,3.4741192,-1.3426508,-1.495888,6.195451,-26.862577,45.736786,-22.772465,-35.76638,-47.283463,-6.0215583,0.9061499,-38.65261,-38.257378,46.69941,-7.798438,41.78299,-3.2826278,-4.248187
47,-0.06400731950998306,2.5301826000213623,78.80970764160156,0.1363426752662606,2.683036158590821,-93.37657209967453,-0.8389444,5.939235,23.880997,6.728712,-7.0136046,-4.275097,-4.25923,-4.109617,-10.322385,6.723688,-5.4505734,3.475541,-1.31111,-1.4990029,6.1699877,-28.226557,45.6939,-22.91298,-36.605083,-48.03252,-6.2390246,1.1745582,-39.80026,-38.19375,46.48675,-8.837163,43.02828,-3.5710294,-4.5691814
48,-0.0626191720366478,2.540315866470337,78.81494903564453,0.13853043311551896,2.6683887029588034,-93.40968382548178,-0.8198455,5.9417014,23.91631,6.7272954,-7.0087624,-4.2728567,-4.2578416,-4.1047034,-10.288761,6.7210217,-5.4367385,3.4765444,-1.2826847,-1.4998631,6.1351776,-29.575766,45.62756,-23.091248,-37.37038,-48.788105,-6.4531593,1.4245849,-40.944603,-38.101116,46.280376,-9.808668,44.32621,-3.871246,-4.866229
49,-0.06179395690560341,2.549515962600708,78.81781768798828,0.13901099467087172,2.6542655782619975,-93.44066509704997,-0.8028616,5.946383,23.94204,6.7266607,-7.0094333,-4.272265,-4.2563457,-4.098199,-10.258414,6.719276,-5.428513,3.4773417,-1.2565839,-1.4989744,6.097907,-30.912512,45.538918,-23.30497,-38.059746,-49.571026,-6.6606975,1.6450437,-42.081013,-37.980762,46.071854,-10.714341,45.72844,-4.1921597,-5.128409
50,-0.06124623864889145,2.557030200958252,78.81331634521484,0.1382411795159975,2.640249004236899,-93.4699597625745,-0.78628874,5.9523335,23.96132,6.724584,-7.0123863,-4.2726417,-4.2538776,-4.0904555,-10.230622,6.71754,-5.4241076,3.478217,-1.226525,-1.496422,6.0552773,-32.201797,45.431297,-23.543377,-38.702152,-50.36851,-6.8639956,1.8448399,-43.208153,-37.834393,45.862846,-11.551689,47.22618,-4.5368605,-5.3739996
51,-0.0632995143532753,2.566169500350952,78.81480407714844,0.13672138200148967,2.6272199694377973,-93.49843018851513,-0.7707144,5.9593067,23.97864,6.724125,-7.0179334,-4.273425,-4.251708,-4.0819674,-10.203267,6.716201,-5.4201407,3.478383,-1.1997677,-1.4916788,6.008179,-33.482178,45.306404,-23.811825,-39.278645,-51.15247,-7.068366,2.0437906,-44.3329,-37.663452,45.660797,-12.337316,48.705418,-4.8826404,-5.6126137
52,-0.061956506222486496,2.5716030597686768,78.81639862060547,0.13384104954956405,2.615839665347078,-93.52678059098999,-0.7561541,5.9676685,23.998388,6.7226224,-7.020926,-4.2743306,-4.2504334,-4.07207,-10.174413,6.714206,-5.4123116,3.4769192,-1.1797158,-1.4838226,5.9538026,-34.78985,45.165768,-24.116394,-39.770027,-51.897907,-7.278569,2.2612174,-45.45999,-37.47033,45.472874,-13.084603,50.051384,-5.2052627,-5.856158
53,-0.06115300953388214,2.5779550075531006,78.81853485107422,0.12902727079146456,2.6061709333554486,-93.55522179824224,-0.7430076,5.978494,24.02106,6.7223573,-7.0224395,-4.274841,-4.2508097,-4.0596604,-10.1419735,6.7125816,-5.3986826,3.4724963,-1.155212,-1.4688767,5.887705,-36.0464,45.01642,-24.44124,-40.251453,-52.58696,-7.5015078,2.5144231,-46.58367,-37.257313,45.287945,-13.791519,51.232677,-5.489936,-6.1167784
54,-0.0604398250579834,2.5833911895751953,78.81978607177734,0.1224090929646951,2.597940195277776,-93.58331635651342,-0.7308257,5.991406,24.04474,6.7220635,-7.0230274,-4.275336,-4.252072,-4.04508,-10.107516,6.710907,-5.381514,3.465917,-1.1328745,-1.4493152,5.816529,-37.27364,44.861416,-24.78326,-40.697514,-53.244713,-7.7337666,2.789742,-47.706165,-37.025833,45.107086,-14.457913,52.311184,-5.75129,-6.387789
55,-0.060117945075035095,2.5870847702026367,78.821044921875,0.11615744433497116,2.591207073326511,-93.6109807472407,-0.71944004,6.0035434,24.069328,6.7212296,-7.023207,-4.2763705,-4.254294,-4.031286,-10.074527,6.709305,-5.3644633,3.4597511,-1.1144305,-1.4306918,5.740814,-38.46434,44.700466,-25.13206,-41.108944,-53.850086,-7.95826,3.0579548,-48.820873,-36.778606,44.93572,-15.089485,53.310608,-6.0094995,-6.6504197
56,-0.06109408661723137,2.590149164199829,78.82125091552734,0.11237991191008728,2.5860285053908623,-93.63798918034911,-0.7087571,6.012383,24.095062,6.720182,-7.024128,-4.2785363,-4.257195,-4.02053,-10.046564,6.7074566,-5.3514075,3.4564056,-1.0949128,-1.4160484,5.6572857,-39.506695,44.533863,-25.460955,-41.575596,-54.33747,-8.15582,3.2894251,-49.91694,-36.52029,44.777233,-15.686215,54.253735,-6.2839866,-6.884967
57,-0.06117726489901543,2.5929791927337646,78.82240295410156,0.11215085656627723,2.58306801230816,-93.66545805835122,-0.6996377,6.016642,24.123215,6.7186317,-7.025881,-4.2826524,-4.2623153,-4.0142136,-10.025971,6.705824,-5.343543,3.4573498,-1.0920604,-1.4075392,5.576641,-40.677208,44.356846,-25.808197,-41.86038,-54.82785,-8.322275,3.4726052,-51.005844,-36.251278,44.642326,-16.256998,55.127422,-6.580758,-7.0949225
58,-0.05885092541575432,2.596916675567627,78.82134246826172,0.11395062615158404,2.582034972597306,-93.69323907490828,-0.69102806,6.0179315,24.153404,6.716056,-7.028203,-4.288235,-4.2688956,-4.010664,-10.010423,6.704496,-5.3392563,3.461007,-1.0860119,-1.4021599,5.489513,-41.763645,44.16877,-26.153229,-42.144417,-55.234356,-8.463969,3.625151,-52.075077,-35.97446,44.51475,-16.795258,55.92445,-6.8859596,-7.2873583
59,-0.059219032526016235,2.597451686859131,78.8210220336914,0.11675140188288792,2.5818027842276305,-93.718691585051,-0.683605,6.017727,24.182661,6.7144465,-7.0304985,-4.2936263,-4.2752023,-4.0085144,-9.996282,6.703148,-5.336576,3.4653451,-1.0815378,-1.3971703,5.398011,-42.761093,43.97237,-26.485922,-42.441723,-55.544746,-8.584427,3.7610357,-53.12561,-35.69303,44.39636,-17.312263,56.685474,-7.1960015,-7.4519434
60,-0.05996085703372955,2.597808599472046,78.82208251953125,0.11935354155166307,2.5813930124418,-93.73959606331066,-0.67694265,6.0178537,24.207996,6.712992,-7.0301614,-4.297295,-4.2801857,-4.006824,-9.97988,6.702298,-5.333599,3.46836,-1.0840361,-1.391583,5.3045607,-43.766304,43.77097,-26.808388,-42.681232,-55.79954,-8.687824,3.8935068,-54.15825,-35.41007,44.288704,-17.81741,57.450848,-7.507251,-7.577978
61,-0.05976138636469841,2.5995092391967773,78.82488250732422,0.12178256680187577,2.5808893488694666,-93.75518273562803,-0.6700682,6.0172005,24.230293,6.7108636,-7.0262117,-4.298236,-4.2836123,-4.0051894,-9.957595,6.701008,-5.329233,3.4694989,-1.0904429,-1.3852683,5.208129,-44.70839,43.567345,-27.11218,-42.922535,-55.930943,-8.756079,4.021926,-55.16942,-35.12914,44.188583,-18.313091,58.25395,-7.824273,-7.642109
62,-0.06339088082313538,2.598263740539551,78.82443237304688,0.12470737960589727,2.5807861671767944,-93.76686708122381,-0.66462654,6.016165,24.250362,6.7100096,-7.0200586,-4.297515,-4.2868304,-4.004701,-9.932153,6.7002783,-5.324803,3.469994,-1.1014291,-1.378877,5.1101875,-45.614902,43.364124,-27.399794,-43.139896,-55.970318,-8.79278,4.14087,-56.159782,-34.852848,44.096916,-18.799892,59.06701,-8.14572,-7.6570044
63,-0.06273901462554932,2.596031665802002,78.82823181152344,0.12707175512102736,2.580349569634301,-93.77475560343412,-0.6594353,6.015199,24.26615,6.708721,-7.013691,-4.296386,-4.2876563,-4.004152,-9.909796,6.6991477,-5.321169,3.4698827,-1.1175375,-1.3728095,5.013293,-46.485256,43.161446,-27.672174,-43.341152,-55.975822,-8.835615,4.258536,-57.122776,-34.582527,44.007736,-19.2886,59.837944,-8.45856,-7.6651983
64,-0.06411990523338318,2.59415602684021,78.8294448852539,0.12781852725539905,2.578956239571438,-93.77936497911718,-0.65353847,6.015767,24.275272,6.7077436,-7.011108,-4.2961893,-4.285774,-4.0027385,-9.89661,6.6984596,-5.318874,3.4694097,-1.1403724,-1.3672231,4.9192924,-47.29882,42.957535,-27.929928,-43.54603,-55.99263,-8.921904,4.3844395,-58.055664,-34.319397,43.919697,-19.788052,60.51396,-8.75072,-7.709607
65,-0.0648726224899292,2.591475486755371,78.82699584960938,0.12572568883488586,2.575911609073862,-93.78046204752232,-0.6466611,6.019014,24.275578,6.707086,-7.014099,-4.2973776,-4.2798934,-3.999354,-9.895133,6.6980095,-5.317785,3.4685147,-1.1717055,-1.3604637,4.830003,-48.04172,42.749676,-28.175581,-43.762646,-56.03227,-9.076621,4.51438,-58.95966,-34.064426,43.82754,-20.302786,61.026974,-9.001599,-7.817035
66,-0.06604687869548798,2.5881166458129883,78.82709503173828,0.12172934658201928,2.5717215139163065,-93.77789941661615,-0.63946915,6.0241075,24.268852,6.706715,-7.0204334,-4.2992463,-4.2709002,-3.9949985,-9.901749,6.6979284,-5.3179092,3.467178,-1.2110573,-1.3524517,4.7417855,-48.736988,42.538208,-28.408113,-43.968956,-56.075314,-9.27361,4.645996,-59.82003,-33.820568,43.732407,-20.841127,61.415672,-9.223499,-7.961105
67,-0.06653076410293579,2.5840673446655273,78.82823944091797,0.11747712105374034,2.5675477795654285,-93.7720218548068,-0.63245124,6.02895,24.258429,6.706267,-7.0270505,-4.3012037,-4.2600636,-3.99091,-9.913602,6.696901,-5.318879,3.465479,-1.232696,-1.3496598,4.665324,-49.42331,42.322186,-28.639812,-44.161537,-56.10923,-9.479042,4.787856,-60.745438,-33.57783,43.640266,-21.297901,61.855206,-9.457822,-8.106597
68,-0.06819264590740204,2.5785205364227295,78.83087158203125,0.11554200435931136,2.564160727002594,-93.7632834309173,-0.62614536,6.030999,24.247835,6.7060757,-7.0312037,-4.302714,-4.2491255,-3.9895866,-9.927473,6.697042,-5.3227715,3.463631,-1.2740657,-1.3459705,4.5738144,-50.07281,42.10795,-28.837713,-44.323757,-56.111168,-9.654086,4.945246,-61.512344,-33.349796,43.558037,-21.848988,62.35341,-9.736265,-8.214486
69,-0.0699809193611145,2.5716607570648193,78.83216857910156,0.1163445851175693,2.5622633643997097,-93.75114878431158,-0.6212696,6.0296216,24.238014,6.7052145,-7.0305963,-4.303554,-4.2384276,-3.9917135,-9.944054,6.6968184,-5.3291597,3.4615865,-1.314543,-1.3461308,4.4804807,-50.703735,41.89937,-29.012787,-44.465446,-56.084698,-9.796573,5.129759,-62.222862,-33.13754,43.489643,-22.41138,63.056564,-10.098752,-8.2718935
70,-0.07428204268217087,2.563998222351074,78.83394622802734,0.11888709318029701,2.561332551860606,-93.73575080806498,-0.6180894,6.0261106,24.22703,6.705767,-7.028452,-4.303963,-4.2271056,-3.9961612,-9.964469,6.6971016,-5.3383603,3.4593315,-1.3441359,-1.352398,4.3933206,-51.328712,41.69682,-29.173782,-44.58905,-56.045143,-9.924637,5.3355794,-62.941124,-32.9344,43.430016,-22.934464,63.912148,-10.5177145,-8.297101
71,-0.0780925303697586,2.55798602104187,78.83354187011719,0.12167335466202248,2.5603642762640177,-93.71783391418832,-0.61456645,6.021956,24.214127,6.705353,-7.0250797,-4.304486,-4.21499,-4.001164,-9.986705,6.697559,-5.3486514,3.456837,-1.3798981,-1.360308,4.303938,-51.91735,41.50148,-29.308235,-44.701702,-55.974293,-10.033254,5.543978,-63.586975,-32.74386,43.369713,-23.493046,64.741455,-10.929842,-8.302376
72,-0.07982992380857468,2.5505967140197754,78.83423614501953,0.1234579158007579,2.5587035540107106,-93.6985580404555,-0.6106456,6.019069,24.19821,6.7048635,-7.022261,-4.3055363,-4.2012997,-4.005094,-10.008653,6.6977115,-5.3587427,3.4541886,-1.4121294,-1.371147,4.2217736,-52.45116,41.31089,-29.423473,-44.833893,-55.845993,-10.120323,5.738224,-64.212006,-32.562977,43.29681,-24.046474,65.42953,-11.277551,-8.304145
73,-0.08217575401067734,2.542677402496338,78.83502960205078,0.12406952343644762,2.556023233364427,-93.67749093356028,-0.6066778,6.0180645,24.17822,6.7047477,-7.019297,-4.307144,-4.185827,-4.007514,-10.029443,6.6980224,-5.368892,3.4510477,-1.4409572,-1.3859161,4.146384,-52.937733,41.122776,-29.511879,-44.972195,-55.635548,-10.17847,5.9177566,-64.79192,-32.38997,43.200535,-24.614134,65.92334,-11.539744,-8.305442
74,-0.08593500405550003,2.53379225730896,78.83634948730469,0.12406187411480805,2.5526987056582944,-93.65426810834776,-0.60208774,6.0175276,24.15499,6.7037306,-7.0155416,-4.309094,-4.16909,-4.009411,-10.050311,6.6983066,-5.3791466,3.4475298,-1.4686835,-1.4042547,4.07171,-53.405807,40.93913,-29.571709,-45.089973,-55.379784,-10.209501,6.089668,-65.309715,-32.227352,43.089767,-25.205921,66.29072,-11.748449,-8.301004
75,-0.09013435989618301,2.5238518714904785,78.83299255371094,0.12338263341705766,2.5491139650199566,-93.63011791885887,-0.5973722,6.017879,24.130135,6.7027407,-7.0126553,-4.311571,-4.150784,-4.0106063,-10.072391,6.698189,-5.3899274,3.4441662,-1.500247,-1.4217174,3.998375,-53.81106,40.760128,-29.62149,-45.23001,-55.10051,-10.22698,6.2493467,-65.79615,-32.076694,42.98062,-25.803453,66.58048,-11.925647,-8.295673
76,-0.0949314683675766,2.5149619579315186,78.83515167236328,0.1215770557697355,2.5456649656930646,-93.60642777371466,-0.59238696,6.0197425,24.105473,6.7035785,-7.0140324,-4.314742,-4.132907,-4.0109243,-10.096865,6.6993356,-5.4014144,3.4414217,-1.5293574,-1.4363222,3.9221916,-54.212933,40.591286,-29.670576,-45.360638,-54.904186,-10.241456,6.3896894,-66.280014,-31.939165,42.88294,-26.37867,66.841896,-12.0927725,-8.293616
77,-0.09756528586149216,2.5044846534729004,78.83163452148438,0.11773272699501953,2.5424506733597485,-93.58294264651441,-0.5865692,6.023464,24.079733,6.704622,-7.020405,-4.3189735,-4.113399,-4.0095916,-10.126318,6.6992555,-5.4133086,3.4394066,-1.5633237,-1.4456522,3.843213,-54.56798,40.43511,-29.715136,-45.50993,-54.72806,-10.235774,6.5295944,-66.770546,-31.816526,42.802162,-26.928442,67.08839,-12.25321,-8.287304
78,-0.10133916139602661,2.4935758113861084,78.83370971679688,0.11252080210540398,2.539220024685343,-93.55902819687051,-0.57977957,6.028702,24.05269,6.704428,-7.0294757,-4.3241386,-4.093243,-4.007105,-10.159296,6.699456,-5.425887,3.4378443,-1.6058104,-1.4503772,3.7617705,-54.86368,40.29302,-29.747877,-45.681877,-54.550137,-10.210882,6.665684,-67.24052,-31.711365,42.73296,-27.479784,67.28949,-12.3954525,-8.27833
79,-0.10523048788309097,2.48188853263855,78.83525848388672,0.10752359903144615,2.535987244957624,-93.53574232240138,-0.5725271,6.033769,24.027155,6.7053404,-7.039438,-4.3293757,-4.07289,-4.0046806,-10.1912365,6.699636,-5.438286,3.4368386,-1.6430458,-1.4558334,3.6836498,-55.15062,40.16566,-29.78408,-45.855526,-54.488346,-10.20968,6.7602353,-67.69828,-31.620527,42.6681,-28.019697,67.44175,-12.521337,-8.282781
80,-0.1099093034863472,2.4700441360473633,78.83546447753906,0.10446756441760581,2.532796293457766,-93.51414833743377,-0.5646261,6.0371294,24.006018,6.70564,-7.045358,-4.3339868,-4.0537047,-4.0032425,-10.217601,6.700429,-5.4499207,3.436353,-1.6803905,-1.4625729,3.6114495,-55.396786,40.048172,-29.844213,-46.053352,-54.593758,-10.276756,6.7777934,-68.11806,-31.5416,42.60887,-28.57438,67.524895,-12.630057,-8.316975
81,-0.11328963190317154,2.459103584289551,78.83798217773438,0.10450213643176591,2.5294693226279557,-93.49413925078711,-0.5558524,6.037242,23.9912,6.7060404,-7.0460644,-4.337635,-4.0351996,-4.004096,-10.236154,6.700364,-5.4589725,3.437871,-1.7185205,-1.4724658,3.5443115,-55.60477,39.934788,-29.94016,-46.275513,-55.067417,-10.47705,6.634815,-68.48843,-31.473875,42.554214,-29.153685,67.496506,-12.706212,-8.402624
82,-0.11923706531524658,2.44844388961792,78.83757019042969,0.10668225092307103,2.526030084558033,-93.47512217170718,-0.54608077,6.035099,23.980734,6.706119,-7.0434885,-4.3406997,-4.017442,-4.0064096,-10.249653,6.7008615,-5.467245,3.4408994,-1.7562809,-1.4841508,3.4831178,-55.753307,39.819656,-30.071915,-46.533844,-55.782345,-10.767885,6.3729753,-68.832085,-31.415138,42.503933,-29.737692,67.38172,-12.755283,-8.525399
83,-0.12603811919689178,2.436511993408203,78.8392105102539,0.10905368571089954,2.522734323019072,-93.45795216630509,-0.5361543,6.0332766,23.971848,6.7061663,-7.040104,-4.343729,-3.9999886,-4.008156,-10.260982,6.700953,-5.4753613,3.4426515,-1.78368,-1.4968357,3.4229586,-55.90941,39.705944,-30.21849,-46.77372,-56.41658,-11.0293865,6.1436563,-69.156075,-31.364098,42.45749,-30.30718,67.25621,-12.806217,-8.647298
84,-0.13070541620254517,2.4245684146881104,78.84016418457031,0.109587186354476,2.519745798747613,-93.44312320626568,-0.52657366,6.0341682,23.961584,6.7066927,-7.0386615,-4.347194,-3.983767,-4.0075803,-10.272865,6.7015996,-5.484712,3.4402616,-1.8024697,-1.5069783,3.3590763,-56.095764,39.602043,-30.355143,-46.968502,-56.616535,-11.148878,6.104707,-69.44397,-31.322922,42.416153,-30.87079,67.18624,-12.887655,-8.730025
85,-0.13726767897605896,2.4130935668945312,78.84019470214844,0.10739460593464809,2.5177420020517745,-93.43083808182216,-0.5182835,6.0386744,23.947828,6.707435,-7.039377,-4.3516164,-3.9685497,-4.003601,-10.286522,6.701942,-5.4966836,3.430113,-1.8113132,-1.5136237,3.2979047,-56.277676,39.512466,-30.49234,-47.147335,-56.209354,-11.095798,6.3327713,-69.736404,-31.287169,42.387173,-31.4025,67.25378,-13.036095,-8.743409
86,-0.1419617086648941,2.4016549587249756,78.8392333984375,0.10395372251295076,2.516375157709433,-93.420716308863,-0.5103587,6.045145,23.932665,6.707321,-7.040333,-4.356641,-3.9548514,-3.9974704,-10.3002825,6.7027354,-5.510193,3.414701,-1.8166125,-1.517376,3.234876,-56.465145,39.44211,-30.622738,-47.30226,-55.431747,-10.926597,6.73086,-70.00334,-31.257614,42.37051,-31.925997,67.39185,-13.224776,-8.713767
87,-0.14536650478839874,2.3915891647338867,78.8387680053711,0.1001011447847764,2.514524475319454,-93.41265272510049,-0.5022912,6.052697,23.919144,6.709443,-7.0436077,-4.361202,-3.9411623,-3.9906497,-10.312688,6.7040486,-5.523623,3.400346,-1.8219723,-1.5196557,3.177025,-56.61975,39.391125,-30.742178,-47.476048,-54.407703,-10.671126,7.2042303,-70.245636,-31.233078,42.356064,-32.442608,67.49183,-13.397786,-8.689889
88,-0.15133146941661835,2.380392551422119,78.83926391601562,0.09699828244281015,2.5111119417346215,-93.4065352180645,-0.49166116,6.059608,23.910526,6.7106357,-7.0470686,-4.3643446,-3.926022,-3.9844744,-10.322398,6.704481,-5.5337944,3.3934221,-1.8275448,-1.5196873,3.1306586,-56.72954,39.367718,-30.827044,-47.694244,-53.298515,-10.359828,7.6565657,-70.463264,-31.217613,42.33744,-32.949085,67.444534,-13.500625,-8.721873
89,-0.15644778311252594,2.369987726211548,78.83785247802734,0.09531137517643248,2.5053898740991674,-93.40264389779485,-0.4780224,6.0655403,23.908709,6.712104,-7.051643,-4.3646464,-3.9083958,-3.979583,-10.328592,6.7034407,-5.5382485,3.4000273,-1.8249097,-1.5276092,3.0888698,-56.856983,39.34963,-30.900513,-47.8849,-51.84501,-9.890054,8.162047,-70.629944,-31.199062,42.296394,-33.45031,67.15438,-13.492285,-8.836099
90,-0.16043339669704437,2.3603827953338623,78.83809661865234,0.09405836832169562,2.4980754543895944,-93.40087968904822,-0.46102378,6.070528,23.911781,6.712068,-7.0571213,-4.3629284,-3.8898637,-3.97536,-10.332146,6.7025356,-5.539366,3.4153116,-1.8156996,-1.5371656,3.0508747,-56.980812,39.339394,-30.956945,-48.067955,-50.07015,-9.269522,8.723176,-70.75835,-31.17858,42.244186,-33.940228,66.70266,-13.410348,-9.001447
91,-0.1668224334716797,2.3506662845611572,78.83773803710938,0.09281904543577817,2.4900119079140053,-93.4006180732632,-0.44420493,6.0766973,23.916496,6.714918,-7.064235,-4.3618727,-3.871211,-3.9704745,-10.334158,6.702421,-5.541434,3.429115,-1.8085294,-1.5463307,3.0167422,-57.06038,39.333786,-31.015057,-48.296062,-48.532234,-8.722522,9.166506,-70.88433,-31.154997,42.197475,-34.39303,66.234985,-13.306594,-9.177678
92,-0.17173077166080475,2.3400237560272217,78.83902740478516,0.09040501169145734,2.482145935615915,-93.40163320663906,-0.42684236,6.0843887,23.92016,6.7164173,-7.0699067,-4.364088,-3.8530755,-3.963725,-10.335767,6.7022605,-5.5470753,3.4313986,-1.8030467,-1.5523049,2.9827921,-57.125523,39.33202,-31.069351,-48.574486,-47.85211,-8.4859495,9.336779,-71.03249,-31.134302,42.17044,-34.7826,65.89339,-13.235582,-9.327012
93,-0.17960084974765778,2.330204963684082,78.83873748779297,0.08583989503561623,2.474624189979226,-93.40359845384663,-0.40977988,6.095328,23.921146,6.717687,-7.0739307,-4.371536,-3.8360906,-3.9536607,-10.3377905,6.702936,-5.5592117,3.41372,-1.8099188,-1.5497527,2.950962,-57.10711,39.33014,-31.12096,-48.975758,-48.379925,-8.728042,9.114427,-71.209175,-31.123917,42.16948,-35.11453,65.74025,-13.210442,-9.442254
94,-0.18572735786437988,2.321058988571167,78.83931732177734,0.08008835015845991,2.4669881496069923,-93.40670017645276,-0.3928235,6.1081624,23.92141,6.7195654,-7.077451,-4.382332,-3.8195772,-3.941618,-10.339476,6.7047048,-5.5761557,3.383341,-1.8201956,-1.55176,2.9206376,-57.07963,39.324326,-31.210339,-49.420692,-49.73237,-9.301733,8.621632,-71.416145,-31.10998,42.18376,-35.373024,65.691216,-13.2106495,-9.545111
95,-0.19241823256015778,2.312565326690674,78.83900451660156,0.07450171288020788,2.4591386988096313,-93.41116026343374,-0.3754156,6.1210876,23.922369,6.7211475,-7.0811477,-4.393528,-3.8032053,-3.9294443,-10.339499,6.705857,-5.5923204,3.3536952,-1.8236217,-1.550848,2.8892052,-57.051903,39.316826,-31.286516,-49.870747,-51.357616,-9.927344,8.029066,-71.61179,-31.099468,42.204163,-35.597523,65.66714,-13.213587,-9.63438
96,-0.19736111164093018,2.304328680038452,78.84078216552734,0.07080178704948428,2.4510643161852346,-93.4170486886924,-0.35761693,6.1312404,23.92563,6.722994,-7.0866766,-4.401906,-3.787419,-3.919363,-10.336547,6.7070417,-5.6036215,3.3381126,-1.8190253,-1.5493494,2.8584125,-57.045624,39.30854,-31.363432,-50.26619,-52.634983,-10.371085,7.556908,-71.77506,-31.088802,42.229485,-35.811317,65.58597,-13.210121,-9.713411
97,-0.2027861326932907,2.295762300491333,78.84102630615234,0.06969162290480409,2.4426547905345113,-93.42476118885959,-0.3387981,6.1374207,23.931501,6.7231774,-7.094157,-4.406112,-3.7723744,-3.9128811,-10.329048,6.706549,-5.605464,3.3458505,-1.8046398,-1.5465834,2.8286054,-57.058887,39.30415,-31.42579,-50.604256,-53.44913,-10.586811,7.2485986,-71.88809,-31.081228,42.252365,-36.022156,65.42324,-13.19535,-9.771395
98,-0.20638832449913025,2.2878966331481934,78.84038543701172,0.07003758311523853,2.433877935389174,-93.43408624789582,-0.31903687,6.14116,23.939203,6.723042,-7.1037817,-4.407984,-3.7573338,-3.908015,-10.318263,6.7048965,-5.6018405,3.367766,-1.7862271,-1.544296,2.8013256,-57.076942,39.300354,-31.49967,-50.91153,-54.079994,-10.709151,7.00724,-71.97466,-31.071491,42.280544,-36.212128,65.22221,-13.180972,-9.812776
99,-0.20877665281295776,2.2791218757629395,78.83662414550781,0.07104683472661147,2.4251158054908526,-93.44417980164123,-0.30051008,6.1446886,23.948233,6.724225,-7.1129045,-4.409405,-3.7434237,-3.9036937,-10.306596,6.704661,-5.598686,3.390073,-1.7647507,-1.5471026,2.773614,-57.122326,39.295242,-31.592266,-51.17367,-54.57777,-10.764895,6.8355217,-72.050316,-31.053703,42.313564,-36.382355,65.00648,-13.161572,-9.85504
100,-0.2124302089214325,2.2727630138397217,78.83694458007812,0.07185441865615029,2.416735288338317,-93.45416218687846,-0.2815795,6.1483893,23.95857,6.7236185,-7.1178026,-4.412095,-3.729786,-3.8991144,-10.296399,6.704207,-5.599417,3.399091,-1.7485697,-1.5456301,2.7502003,-57.13756,39.29206,-31.678371,-51.43495,-54.963314,-10.769263,6.7239046,-72.121346,-31.039059,42.355694,-36.563023,64.8026,-13.130626,-9.914655
101,-0.21618418395519257,2.265854835510254,78.83760833740234,0.07208986023157053,2.408586172908384,-93.46439328535804,-0.263804,6.1537333,23.971582,6.72499,-7.1182985,-4.416838,-3.7172666,-3.8934581,-10.288005,6.7055826,-5.607622,3.3857224,-1.7318947,-1.547394,2.7294667,-57.16935,39.289135,-31.780548,-51.660522,-55.22086,-10.707937,6.712368,-72.20342,-31.018269,42.409817,-36.739826,64.60137,-13.084939,-10.0051155
102,-0.22094424068927765,2.259514570236206,78.83857727050781,0.07233731499031017,2.4006027349667916,-93.47523330146267,-0.24633111,6.1593423,23.987036,6.725594,-7.114328,-4.422589,-3.704708,-3.8874412,-10.280217,6.7063966,-5.619198,3.3591743,-1.7156394,-1.546593,2.7105281,-57.1977,39.289627,-31.87034,-51.865784,-55.354015,-10.569048,6.7834873,-72.26877,-31.003702,42.47127,-36.9288,64.393196,-13.022822,-10.112622
103,-0.22612488269805908,2.2537550926208496,78.84025573730469,0.0727832797771058,2.3929876051535883,-93.48533442296316,-0.22984156,6.164792,24.001507,6.726103,-7.1099176,-4.4284387,-3.6930907,-3.8818579,-10.273378,6.7074647,-5.630975,3.3327951,-1.7064133,-1.5452251,2.6982076,-57.194168,39.289963,-31.986057,-52.073853,-55.3775,-10.423492,6.8828483,-72.342125,-30.986387,42.544407,-37.1063,64.20799,-12.9686575,-10.223098
104,-0.23162509500980377,2.250291109085083,78.84136199951172,0.07308805640150633,2.3859230775011127,-93.49369405302825,-0.21470416,6.1692743,24.01189,6.726666,-7.108838,-4.4334273,-3.6820714,-3.877094,-10.267851,6.708691,-5.6400995,3.3199034,-1.6975971,-1.5456572,2.6835012,-57.22589,39.290096,-32.0928,-52.239666,-55.446327,-10.317483,6.9419403,-72.40343,-30.965145,42.61412,-37.266743,64.069,-12.929793,-10.317712
105,-0.2358599305152893,2.245835304260254,78.84092712402344,0.07391180842531894,2.3795630322817973,-93.49961183581782,-0.20166771,6.172576,24.01605,6.726857,-7.1124005,-4.437357,-3.6715586,-3.8736746,-10.264035,6.7086496,-5.6436296,3.3290246,-1.6962805,-1.543607,2.6701355,-57.248104,39.28886,-32.196712,-52.396595,-55.552605,-10.280678,6.9352894,-72.454,-30.94276,42.684464,-37.416256,64.00143,-12.912717,-10.390184
106,-0.2410077303647995,2.241499423980713,78.84054565429688,0.07452100698609805,2.373778319541927,-93.50390524870082,-0.1900256,6.175289,24.016117,6.7270083,-7.118806,-4.440724,-3.6607537,-3.8708494,-10.261733,6.7075567,-5.64466,3.3513396,-1.7009759,-1.5406706,2.6562467,-57.27571,39.284946,-32.303356,-52.529545,-55.65903,-10.28003,6.901162,-72.49394,-30.914808,42.758053,-37.553467,63.982826,-12.909217,-10.450622
107,-0.24391670525074005,2.2379820346832275,78.83885955810547,0.07537609011416589,2.3683423472762812,-93.50731930665262,-0.17950864,6.1772714,24.015265,6.7269225,-7.1250405,-4.4436183,-3.6512277,-3.8688421,-10.260009,6.7067113,-5.644635,3.374449,-1.7038157,-1.5366086,2.644621,-57.30797,39.280975,-32.39907,-52.64418,-55.73823,-10.272036,6.8639483,-72.53044,-30.891005,42.830868,-37.678265,63.979477,-12.915131,-10.506033
108,-0.24555884301662445,2.2340805530548096,78.8391342163086,0.07604656863011554,2.3630560755069565,-93.51072251388386,-0.16937143,6.17947,24.016464,6.72659,-7.128306,-4.446321,-3.6422358,-3.8664525,-10.258297,6.70584,-5.645744,3.3857026,-1.7105538,-1.5299555,2.6347132,-57.3126,39.275066,-32.49995,-52.759266,-55.711864,-10.221216,6.8542295,-72.565445,-30.86491,42.909744,-37.791706,63.947002,-12.925278,-10.564607
109,-0.2480989545583725,2.231502056121826,78.83927917480469,0.07630119777118356,2.357852806543947,-93.51443861750344,-0.1596815,6.181991,24.021317,6.7259774,-7.1266756,-4.448677,-3.634982,-3.8638365,-10.256395,6.706315,-5.648905,3.377866,-1.7138412,-1.5222954,2.6243095,-57.32742,39.27017,-32.58346,-52.84856,-55.594215,-10.101617,6.883113,-72.59048,-30.841211,42.987297,-37.89466,63.871307,-12.939072,-10.62304
110,-0.25084200501441956,2.228616952896118,78.83900451660156,0.07615607390544754,2.3528922040184272,-93.51799891453004,-0.15143977,6.1853285,24.027811,6.7273126,-7.1233935,-4.450737,-3.6288884,-3.8608274,-10.254811,6.7076225,-5.6530256,3.3588355,-1.7128342,-1.514103,2.6156378,-57.35252,39.26823,-32.65054,-52.916748,-55.414806,-9.938021,6.932774,-72.606766,-30.82453,43.06042,-37.988415,63.7785,-12.958685,-10.6788225
111,-0.25142204761505127,2.225588083267212,78.83963012695312,0.07648667023172304,2.3480762669937687,-93.5210855236414,-0.14355329,6.187566,24.034222,6.7274523,-7.1190734,-4.4526486,-3.6230426,-3.858658,-10.253194,6.7087173,-5.6576276,3.3392978,-1.7160438,-1.5047177,2.6060236,-57.37563,39.266838,-32.719715,-52.96765,-55.201977,-9.766525,6.989435,-72.622055,-30.803715,43.14401,-38.07088,63.677387,-12.9846945,-10.741465
112,-0.25392356514930725,2.224552631378174,78.84049224853516,0.07794611930440293,2.343559161152035,-93.52372834872696,-0.13584334,6.1878743,24.038488,6.727137,-7.117175,-4.454578,-3.6169422,-3.8581705,-10.251285,6.708951,-5.6622577,3.3297517,-1.7232604,-1.4942132,2.5993776,-57.37541,39.266796,-32.78794,-53.02414,-54.998287,-9.612275,7.0307274,-72.6419,-30.785532,43.229553,-38.14774,63.591743,-13.009516,-10.815259
113,-0.2556860148906708,2.2225699424743652,78.8394775390625,0.08168829832095623,2.3392593279494647,-93.52596254724254,-0.12832548,6.1850157,24.040327,6.7268143,-7.1195416,-4.4566627,-3.610679,-3.8608701,-10.24849,6.7088203,-5.6677904,3.3366754,-1.7335715,-1.4848112,2.593941,-57.369602,39.268494,-32.85794,-53.075752,-54.972313,-9.535659,6.998466,-72.66535,-30.770203,43.323406,-38.221176,63.51921,-13.036304,-10.905085
114,-0.25875332951545715,2.2231311798095703,78.8391342163086,0.08698602799412687,2.3352001998135483,-93.52773994427915,-0.12141991,6.1798778,24.040585,6.7264843,-7.124015,-4.4587684,-3.60446,-3.8657467,-10.245199,6.708598,-5.674313,3.3532257,-1.7492876,-1.4736551,2.5906975,-57.343098,39.27163,-32.933952,-53.130795,-55.030724,-9.506939,6.9230275,-72.69471,-30.754862,43.429733,-38.287083,63.450657,-13.069574,-11.008017
115,-0.2603870630264282,2.223266839981079,78.83999633789062,0.09198116003395655,2.3313499253860086,-93.52895833606662,-0.114921905,6.1746793,24.039799,6.725804,-7.128639,-4.460781,-3.5986242,-3.8706527,-10.2422695,6.708601,-5.6806097,3.3701036,-1.7628422,-1.4643843,2.585567,-57.34374,39.27659,-32.991795,-53.149586,-54.934986,-9.411494,6.9135356,-72.71431,-30.744118,43.525616,-38.35049,63.39426,-13.096343,-11.114808
116,-0.2604689598083496,2.2221269607543945,78.83954620361328,0.0946009952724048,2.327761870370375,-93.52921492453271,-0.10986188,6.1725836,24.037962,6.7253294,-7.130646,-4.462658,-3.5934691,-3.8726778,-10.240993,6.708265,-5.6846633,3.378079,-1.7758486,-1.4517016,2.5812974,-57.347816,39.283787,-33.040066,-53.143723,-54.3621,-9.147148,7.086069,-72.74252,-30.732674,43.61569,-38.394276,63.355907,-13.120674,-11.224362
117,-0.2612457275390625,2.2218427658081055,78.8404769897461,0.09377473870452382,2.3243395674874563,-93.5278210554154,-0.106132306,6.174285,24.034678,6.724791,-7.1289697,-4.464101,-3.5887506,-3.8708532,-10.242283,6.7082415,-5.686528,3.3730319,-1.7898374,-1.4403595,2.5742464,-57.359886,39.28995,-33.066017,-53.095634,-53.074642,-8.600895,7.5096655,-72.74622,-30.727312,43.675713,-38.44857,63.34779,-13.1224,-11.334463
118,-0.26228225231170654,2.22334361076355,78.83855438232422,0.0910060562137369,2.3210916409451725,-93.52480887586505,-0.1041826,6.178788,24.029663,6.7253046,-7.125287,-4.4652247,-3.5850658,-3.8667321,-10.245483,6.709217,-5.687045,3.360399,-1.8024367,-1.4262263,2.566283,-57.37786,39.297592,-33.084774,-53.0179,-51.28096,-7.852553,8.100224,-72.75673,-30.723312,43.73582,-38.48383,63.36002,-13.12472,-11.4547615
119,-0.26293495297431946,2.2223732471466064,78.84061431884766,0.08739985867199539,2.318149295321797,-93.52228702757358,-0.10169125,6.1835628,24.024961,6.7236953,-7.1207027,-4.46661,-3.5810707,-3.8617682,-10.248537,6.7082906,-5.686174,3.3454082,-1.8183491,-1.4086052,2.5593255,-57.358627,39.30428,-33.102673,-52.960552,-49.363102,-7.046476,8.714888,-72.7626,-30.7217,43.78642,-38.518784,63.37602,-13.120673,-11.566446
120,-0.2638806998729706,2.2220983505249023,78.84174346923828,0.0842050599261221,2.315533388249678,-93.52182506814707,-0.10010906,6.1880407,24.02168,6.7245636,-7.1198745,-4.468871,-3.5790286,-3.8576462,-10.249351,6.7089763,-5.686441,3.333123,-1.8304193,-1.3888177,2.5494108,-57.366283,39.313953,-33.11006,-52.897797,-47.786663,-6.353943,9.240753,-72.767075,-30.722637,43.839108,-38.545948,63.37058,-13.122922,-11.660201
121,-0.26404038071632385,2.221684217453003,78.840087890625,0.08148197298564976,2.313554247064486,-93.52408881848399,-0.09760554,6.191629,24.020601,6.7233076,-7.120994,-4.472984,-3.5779355,-3.8541753,-10.247323,6.7093024,-5.6878586,3.3233082,-1.8453424,-1.3647637,2.5449374,-57.324764,39.321625,-33.130863,-52.887695,-46.573437,-5.8290267,9.668586,-72.78142,-30.725273,43.88613,-38.563522,63.340515,-13.125804,-11.727202
122,-0.2622036635875702,2.2221100330352783,78.84089660644531,0.07858200010629288,2.3121031923916804,-93.52821215204077,-0.09506326,6.195187,24.020527,6.721959,-7.124115,-4.4783616,-3.5781407,-3.8507593,-10.243599,6.7091374,-5.6888223,3.3137364,-1.8617942,-1.3357038,2.539382,-57.27789,39.329556,-33.150883,-52.886063,-45.54829,-5.3877707,10.066717,-72.79134,-30.730457,43.935516,-38.577908,63.287197,-13.133693,-11.780053
123,-0.26169469952583313,2.2233731746673584,78.8409652709961,0.07625942371322017,2.310676563011304,-93.53314486875271,-0.0934911,6.198373,24.021381,6.7224445,-7.129181,-4.4832196,-3.5789642,-3.8480835,-10.238827,6.709996,-5.690717,3.306727,-1.8740205,-1.3077003,2.5340302,-57.244644,39.337135,-33.16543,-52.88376,-44.65148,-4.9892683,10.432406,-72.808914,-30.73709,43.977924,-38.58098,63.239468,-13.142301,-11.819482
124,-0.2605682611465454,2.2249486446380615,78.84021759033203,0.07565330380008953,2.308853879378997,-93.53802417604999,-0.090933375,6.1990194,24.023195,6.7214904,-7.1340876,-4.485653,-3.5787632,-3.8473642,-10.233647,6.709707,-5.6919804,3.30462,-1.8881624,-1.2794636,2.5282407,-57.201805,39.34946,-33.17408,-52.895912,-43.790184,-4.59758,10.766354,-72.82677,-30.750807,44.02454,-38.590332,63.21054,-13.156015,-11.852881
125,-0.2595664858818054,2.2271807193756104,78.84068298339844,0.0769453558780154,2.3063291789195053,-93.5428165329532,-0.088041596,6.197131,24.025513,6.7206426,-7.1408834,-4.4843974,-3.5779002,-3.8490918,-10.22779,6.709447,-5.693743,3.3094215,-1.9049567,-1.2549233,2.5188468,-57.163506,39.36077,-33.17608,-52.909252,-42.971954,-4.209395,11.07203,-72.83949,-30.766592,44.064503,-38.604206,63.214798,-13.169815,-11.876581
126,-0.256649374961853,2.228355884552002,78.84049224853516,0.07953294788048539,2.3034214334466023,-93.54803761996904,-0.08448432,6.1932454,24.028593,6.71971,-7.1498833,-4.480725,-3.5769124,-3.8526046,-10.221091,6.709826,-5.6963153,3.3194394,-1.9179883,-1.2301055,2.5102112,-57.13342,39.3778,-33.16352,-52.931145,-42.242275,-3.8460312,11.352234,-72.86003,-30.793217,44.1051,-38.61466,63.243053,-13.192269,-11.892974
127,-0.2561362385749817,2.230797529220581,78.837890625,0.08318625760487647,2.3005422354623435,-93.55321810153876,-0.08092132,6.188128,24.032972,6.7182536,-7.1568274,-4.476535,-3.5757918,-3.8571608,-10.21429,6.7096376,-5.6977687,3.3313735,-1.9298913,-1.2091119,2.5000749,-57.114056,39.392902,-33.150486,-52.949448,-41.565453,-3.4962,11.594034,-72.87524,-30.818344,44.135387,-38.62939,63.272026,-13.207585,-11.897617
128,-0.25438693165779114,2.2334277629852295,78.8375244140625,0.08746642681181299,2.2980770515644133,-93.55793171339883,-0.07776629,6.1823077,24.039152,6.7169604,-7.1590633,-4.4737754,-3.5752614,-3.86223,-10.208068,6.7087245,-5.696247,3.3420563,-1.9416165,-1.1864669,2.4964983,-57.051575,39.422073,-33.13119,-53.015102,-40.889423,-3.1501732,11.785092,-72.86783,-30.86965,44.16026,-38.688305,63.28031,-13.215557,-11.894672
129,-0.2534029185771942,2.2358205318450928,78.83798217773438,0.09345560908093963,2.295960793302907,-93.56192008091378,-0.07457683,6.1747503,24.048601,6.7162676,-7.154137,-4.4731584,-3.5754995,-3.8688157,-10.202716,6.7077656,-5.6905394,3.352759,-1.9457357,-1.1726702,2.4905818,-57.024185,39.442497,-33.114407,-53.05766,-40.24567,-2.7992792,11.909254,-72.85571,-30.905928,44.164948,-38.73978,63.267876,-13.199841,-11.869935
130,-0.25343385338783264,2.238262176513672,78.83843231201172,0.10100490307661453,2.2940327845633632,-93.56546671096008,-0.07186614,6.1658936,24.06072,6.7163396,-7.144109,-4.47365,-3.576975,-3.8769825,-10.197828,6.70791,-5.6822615,3.3645046,-1.9528378,-1.1598542,2.4828603,-56.98321,39.4609,-33.09558,-53.10926,-39.615852,-2.4524186,11.977628,-72.82433,-30.94001,44.163406,-38.81326,63.236134,-13.168464,-11.829611
131,-0.2528545558452606,2.2403178215026855,78.84056091308594,0.10777806289203225,2.2925651597734213,-93.56888413858763,-0.06903155,6.157583,24.072441,6.7152414,-7.133172,-4.4743786,-3.5786755,-3.8840077,-10.193148,6.7075415,-5.673834,3.3735683,-1.9581667,-1.1460897,2.480414,-56.91889,39.485622,-33.082424,-53.19341,-39.004898,-2.124354,12.019741,-72.79255,-30.98666,44.158604,-38.90229,63.194008,-13.138526,-11.791506
132,-0.2518177628517151,2.242875099182129,78.84098815917969,0.11125686363635957,2.291670523738451,-93.57245894518124,-0.06786688,6.1530294,24.080593,6.7137194,-7.125765,-4.474669,-3.5809526,-3.8877008,-10.188367,6.7067,-5.667802,3.3761883,-1.9649948,-1.1289107,2.4765005,-56.865513,39.515903,-33.071026,-53.28158,-38.456036,-1.8264785,12.063799,-72.74573,-31.043608,44.15915,-39.023605,63.12914,-13.118772,-11.774679
133,-0.25000715255737305,2.244778871536255,78.84168243408203,0.11010931438509963,2.2913607980416835,-93.57613071868408,-0.06821144,6.1540422,24.083702,6.7125444,-7.1249976,-4.4739037,-3.5840883,-3.8859992,-10.183183,6.706776,-5.666665,3.3684256,-1.9673945,-1.106656,2.4703705,-56.848473,39.544384,-33.06181,-53.35475,-37.987865,-1.5618284,12.112706,-72.71662,-31.092037,44.16849,-39.13674,63.036728,-13.113886,-11.789177
134,-0.24894550442695618,2.2473373413085938,78.8397216796875,0.10545211287789794,2.2916437367140365,-93.57996928765712,-0.07027309,6.1590543,24.083641,6.7118187,-7.127679,-4.4727044,-3.5884027,-3.8808267,-10.177754,6.7074533,-5.668166,3.3532734,-1.9755805,-1.0773973,2.4666014,-56.79661,39.57856,-33.063362,-53.463657,-37.534824,-1.3259705,12.155419,-72.68486,-31.145678,44.186943,-39.276283,62.917194,-13.118232,-11.823854
135,-0.24796323478221893,2.2510056495666504,78.84141540527344,0.10041911915290037,2.2923866923359597,-93.58377169040318,-0.07350645,6.1649303,24.082312,6.7114177,-7.1314397,-4.4718375,-3.5926468,-3.8746953,-10.172823,6.7073627,-5.6701016,3.3373387,-1.9813749,-1.048505,2.4578912,-56.778107,39.601826,-33.06765,-53.54975,-37.148296,-1.110612,12.192217,-72.66776,-31.177855,44.21063,-39.393177,62.795937,-13.122177,-11.863378
136,-0.24673759937286377,2.253462553024292,78.84127807617188,0.09720657548624546,2.2936440896908192,-93.58744570209153,-0.07733743,6.168928,24.0811,6.7115746,-7.134537,-4.4721155,-3.598219,-3.870765,-10.168919,6.708633,-5.6714654,3.3272963,-1.9924128,-1.0213742,2.4554012,-56.71638,39.63897,-33.078995,-53.67857,-36.77626,-0.91640955,12.2306185,-72.64135,-31.227139,44.23705,-39.534393,62.6978,-13.126725,-11.895905
137,-0.24593862891197205,2.255838632583618,78.8420639038086,0.09639985124984224,2.2954627412821265,-93.59061259160124,-0.08178334,6.17025,24.078962,6.711099,-7.136105,-4.4744716,-3.6034262,-3.8692443,-10.1675625,6.708408,-5.6709375,3.3246794,-2.0020735,-1.0010096,2.451936,-56.676914,39.679333,-33.092167,-53.799816,-36.479805,-0.7432515,12.27099,-72.60539,-31.279488,44.26152,-39.6835,62.629417,-13.12735,-11.914206
138,-0.24671438336372375,2.2586605548858643,78.84241485595703,0.09668589032721701,2.2977448773902394,-93.59325008767149,-0.08635654,6.1703253,24.075539,6.7105937,-7.138144,-4.4781747,-3.6091278,-3.8686352,-10.167946,6.708246,-5.6699724,3.3259246,-2.0090277,-0.98439234,2.4483666,-56.651463,39.717564,-33.112774,-53.920322,-36.24277,-0.5921301,12.31159,-72.57689,-31.327799,44.2874,-39.825493,62.58123,-13.127408,-11.92686
139,-0.24523772299289703,2.2622413635253906,78.84290313720703,0.09801963623007766,2.3003807658309006,-93.59645121843222,-0.09125367,6.1692414,24.07405,6.709512,-7.1386085,-4.481817,-3.6148677,-3.8692183,-10.167552,6.707583,-5.668034,3.330373,-2.0225,-0.96539533,2.4409685,-56.60276,39.73614,-33.1458,-54.040676,-36.003017,-0.45276538,12.345315,-72.55708,-31.351578,44.32162,-39.949867,62.537216,-13.120935,-11.938609
140,-0.24583423137664795,2.2664005756378174,78.84088897705078,0.10047465142869537,2.3030747216498826,-93.60073176069209,-0.09592888,6.1667504,24.07734,6.709632,-7.138141,-4.483757,-3.6217759,-3.8711572,-10.163774,6.7073336,-5.6641984,3.3372602,-2.030727,-0.95155275,2.4371426,-56.57099,39.76116,-33.1694,-54.149353,-35.79638,-0.32421708,12.374817,-72.54485,-31.38382,44.349598,-40.071934,62.49995,-13.115526,-11.958136
141,-0.2430901825428009,2.2684788703918457,78.84150695800781,0.10523452071614049,2.305836605694205,-93.60698141055721,-0.099163234,6.1612463,24.088902,6.7081537,-7.133446,-4.4833784,-3.6294005,-3.8756006,-10.154291,6.707155,-5.6573324,3.3486676,-2.0393558,-0.94162977,2.4319499,-56.550907,39.78506,-33.17481,-54.237522,-35.617844,-0.20276567,12.388757,-72.524536,-31.415693,44.37103,-40.20045,62.45927,-13.105518,-11.987661
142,-0.241380512714386,2.2706308364868164,78.84285736083984,0.11172507914530543,2.308771900695463,-93.61447665543199,-0.101636946,6.1532865,24.106348,6.706288,-7.1263113,-4.481558,-3.6372604,-3.8817902,-10.141067,6.705123,-5.6469245,3.3641508,-2.0497153,-0.93309426,2.4305766,-56.50139,39.806202,-33.183372,-54.34194,-35.430428,-0.09305644,12.393202,-72.51609,-31.445503,44.39276,-40.325108,62.425842,-13.09436,-12.0240555
143,-0.24200040102005005,2.2746872901916504,78.84165954589844,0.11830051046150866,2.3118587419686274,-93.62209524213291,-0.103828855,6.1454034,24.124054,6.703441,-7.118761,-4.4791293,-3.645927,-3.888298,-10.127814,6.704187,-5.637046,3.3795455,-2.0574832,-0.92626023,2.429904,-56.46901,39.832176,-33.178967,-54.433926,-35.287083,0.0074178427,12.399272,-72.50113,-31.483734,44.407673,-40.453964,62.397667,-13.079928,-12.060382
144,-0.24148079752922058,2.27862286567688,78.84288787841797,0.12287133412970151,2.3150657628730995,-93.62890814965381,-0.10813585,6.140548,24.136261,6.7034416,-7.115586,-4.476916,-3.6542633,-3.892858,-10.11853,6.703863,-5.6303525,3.3904095,-2.0682158,-0.916406,2.427076,-56.435223,39.84017,-33.189075,-54.511845,-35.144054,0.10326707,12.416466,-72.502075,-31.496841,44.420185,-40.549717,62.375908,-13.054297,-12.086732
145,-0.24078558385372162,2.281562328338623,78.84394836425781,0.12520494361470172,2.318963074844652,-93.63431125729001,-0.11327871,6.138457,24.140491,6.702731,-7.1171904,-4.4743104,-3.661937,-3.8953283,-10.115949,6.703952,-5.628366,3.3956854,-2.0756063,-0.9016656,2.422284,-56.41194,39.852097,-33.189194,-54.58904,-35.04866,0.19380084,12.455286,-72.49519,-31.516857,44.430687,-40.647762,62.358837,-13.02033,-12.109109
146,-0.24052581191062927,2.285311222076416,78.84414672851562,0.12611208097120982,2.3232476231244745,-93.63864531832752,-0.11882657,6.137875,24.140024,6.7000856,-7.1204596,-4.4711924,-3.6691859,-3.8964417,-10.117615,6.703124,-5.628084,3.397651,-2.0820155,-0.8850125,2.420609,-56.382893,39.860874,-33.193623,-54.670082,-34.96786,0.27694947,12.505691,-72.504555,-31.532383,44.434147,-40.72676,62.35671,-12.976919,-12.125501
147,-0.2413095384836197,2.288515567779541,78.841552734375,0.12617790762664158,2.327206590099865,-93.64346556586484,-0.12540531,6.1392937,24.138481,6.700703,-7.125727,-4.4688563,-3.6763496,-3.8964617,-10.11878,6.7033544,-5.6291203,3.3970833,-2.088905,-0.86882275,2.4196227,-56.354538,39.870697,-33.19505,-54.746513,-34.902786,0.352879,12.56029,-72.50314,-31.551443,44.43173,-40.80747,62.35342,-12.934618,-12.135904
148,-0.2421073615550995,2.291959285736084,78.83917236328125,0.12590144878278461,2.3301177942358886,-93.64959847475667,-0.12969947,6.1407495,24.14016,6.6998644,-7.1274366,-4.468462,-3.6832836,-3.8951392,-10.115008,6.703194,-5.6282125,3.3946712,-2.093408,-0.85552067,2.4171581,-56.354275,39.8739,-33.192394,-54.788334,-34.858143,0.41958466,12.608117,-72.50845,-31.55897,44.428043,-40.85414,62.345627,-12.905249,-12.13598
149,-0.24171359837055206,2.2948474884033203,78.83855438232422,0.12483637284863192,2.3314010948293578,-93.65839633171542,-0.13080926,6.143434,24.14635,6.6987348,-7.125634,-4.471583,-3.6900198,-3.8915222,-10.102992,6.7028575,-5.6247926,3.3885162,-2.097508,-0.84349144,2.4188278,-56.331123,39.879303,-33.180824,-54.84441,-34.806976,0.4806319,12.647597,-72.49666,-31.574535,44.414417,-40.900806,62.331886,-12.889004,-12.12193
150,-0.24080052971839905,2.2965452671051025,78.84239196777344,0.12279546107390676,2.331796546080919,-93.66856816777458,-0.131474,6.147855,24.154476,6.6994267,-7.1224585,-4.4771266,-3.6969192,-3.8858168,-10.086121,6.7032385,-5.6209865,3.3788726,-2.0979757,-0.8329759,2.4214091,-56.33026,39.880585,-33.169987,-54.875023,-34.77511,0.5275167,12.68681,-72.49956,-31.581047,44.40084,-40.907215,62.31743,-12.889321,-12.096963
151,-0.24091742932796478,2.299593687057495,78.84326171875,0.12104004356236084,2.3316889527343183,-93.67904810709254,-0.13097587,6.151798,24.16376,6.6993327,-7.1181936,-4.482551,-3.7035046,-3.880262,-10.068675,6.7035866,-5.6160107,3.369881,-2.0993543,-0.82344097,2.4262016,-56.30964,39.88067,-33.154644,-54.91352,-34.731537,0.5755105,12.718737,-72.497086,-31.589539,44.379272,-40.914406,62.303616,-12.888241,-12.068501
152,-0.24146351218223572,2.3023111820220947,78.84272003173828,0.1204274988311497,2.331720130584914,-93.68866422534865,-0.13064429,6.1539564,24.172918,6.698764,-7.1140285,-4.485269,-3.7090366,-3.8766837,-10.055229,6.7028995,-5.6096606,3.3655946,-2.0985606,-0.81662416,2.42783,-56.322037,39.87988,-33.13443,-54.91969,-34.706745,0.62698203,12.750951,-72.493256,-31.594667,44.35946,-40.917328,62.281193,-12.887735,-12.052483
153,-0.24251390993595123,2.3055357933044434,78.84477233886719,0.1221356345177896,2.3321248519547217,-93.69689889859316,-0.13167836,6.15351,24.181955,6.698482,-7.110214,-4.4836683,-3.714111,-3.8765867,-10.047542,6.702398,-5.601068,3.369952,-2.0976558,-0.81029254,2.4323409,-56.31554,39.877728,-33.11882,-54.929825,-34.64381,0.68708235,12.779933,-72.5052,-31.59881,44.339264,-40.907463,62.25636,-12.886822,-12.047881
154,-0.24309805035591125,2.3080809116363525,78.8445816040039,0.12531327243357485,2.33255135387469,-93.7047217285315,-0.13266687,6.1513166,24.191563,6.6985292,-7.106833,-4.479457,-3.7185113,-3.8784244,-10.04297,6.701654,-5.5904036,3.3798273,-2.0992546,-0.8047443,2.4354086,-56.31072,39.875916,-33.105507,-54.92596,-34.567474,0.74987775,12.808784,-72.511566,-31.600428,44.32278,-40.899094,62.21937,-12.889011,-12.051159
155,-0.24241581559181213,2.3127031326293945,78.84416961669922,0.128662215709697,2.3328517032180915,-93.71167616953136,-0.13366751,6.1487517,24.200966,6.698203,-7.103065,-4.474879,-3.7226985,-3.8807907,-10.039635,6.701193,-5.581058,3.3886895,-2.0980442,-0.8009762,2.440088,-56.30735,39.87084,-33.082146,-54.920223,-34.504196,0.8149182,12.831207,-72.520485,-31.602905,44.29572,-40.888927,62.18957,-12.884466,-12.059367
156,-0.24172863364219666,2.3144028186798096,78.84400177001953,0.13120735763617977,2.332799391252137,-93.71782097171078,-0.13428615,6.147223,24.209846,6.69832,-7.0996723,-4.472241,-3.7265193,-3.8819075,-10.0354185,6.701125,-5.5764837,3.3899179,-2.0985644,-0.7975708,2.4420228,-56.31668,39.86354,-33.05662,-54.906273,-34.474007,0.8739605,12.854367,-72.51331,-31.605988,44.27551,-40.8975,62.159534,-12.874922,-12.077739
157,-0.2420790046453476,2.317936420440674,78.84400939941406,0.1322687636745338,2.3320375776067155,-93.72253121429608,-0.13417473,6.1474843,24.218786,6.6984906,-7.09618,-4.472167,-3.729066,-3.880964,-10.029959,6.701377,-5.579974,3.3783073,-2.1007755,-0.79463035,2.4465024,-56.321434,39.859837,-33.045845,-54.905754,-34.461536,0.91718847,12.889428,-72.511536,-31.606993,44.268757,-40.914944,62.135696,-12.867425,-12.121174
158,-0.24428600072860718,2.3209095001220703,78.84178924560547,0.13247915648651318,2.330732716633015,-93.7261283758662,-0.13303338,6.1485214,24.227745,6.698124,-7.0925713,-4.473409,-3.7312856,-3.8789427,-10.024265,6.7022038,-5.5885277,3.3585176,-2.1044745,-0.791589,2.4533942,-56.32217,39.85609,-33.035538,-54.90992,-34.46591,0.9546116,12.925565,-72.50739,-31.607534,44.264336,-40.943726,62.11737,-12.854745,-12.18096
159,-0.2445526421070099,2.324345588684082,78.84241485595703,0.13280575909842038,2.3297036816943826,-93.72928801347398,-0.13195634,6.149287,24.235544,6.6977205,-7.0891714,-4.4754353,-3.733329,-3.8768575,-10.018649,6.7027884,-5.597635,3.3387518,-2.109628,-0.788091,2.4581513,-56.31905,39.8496,-33.02115,-54.91826,-34.476845,0.99098045,12.958862,-72.49764,-31.608397,44.26322,-40.97739,62.09826,-12.840673,-12.236004
160,-0.24628493189811707,2.3259716033935547,78.8450927734375,0.13424161256721673,2.329824225988027,-93.73270006791692,-0.13357373,6.1497707,24.240932,6.6992273,-7.08594,-4.477772,-3.736993,-3.8764007,-10.013276,6.7039795,-5.6029787,3.3273535,-2.1107984,-0.78574735,2.4610813,-56.316505,39.841545,-33.007004,-54.932133,-34.48148,1.0283264,12.98877,-72.501564,-31.609133,44.263466,-40.992924,62.08234,-12.833229,-12.26655
161,-0.24813172221183777,2.327049970626831,78.84351348876953,0.13780010835352838,2.331901161812213,-93.73641113003018,-0.13651045,6.1478953,24.242987,6.698238,-7.0794683,-4.4812455,-3.7421713,-3.8784351,-10.008199,6.7039413,-5.6020846,3.3279557,-2.112014,-0.78316116,2.458628,-56.303284,39.825397,-32.99333,-54.957726,-34.469437,1.0704889,13.013762,-72.505424,-31.610697,44.2687,-41.000824,62.065166,-12.832053,-12.265827
162,-0.2480037808418274,2.329360246658325,78.84368896484375,0.14258746692777818,2.3352733023319434,-93.73996616660266,-0.14092006,6.144509,24.242401,6.6976905,-7.072395,-4.485707,-3.7486043,-3.8822157,-10.003304,6.7033887,-5.5978265,3.3356993,-2.109956,-0.7862927,2.4540575,-56.30148,39.81084,-32.98454,-54.983273,-34.463463,1.1114993,13.040092,-72.51774,-31.611965,44.27156,-40.99624,62.053795,-12.835342,-12.244853
163,-0.2498626410961151,2.331873893737793,78.84525299072266,0.14682697106377296,2.3383798424027784,-93.74376388257537,-0.1446711,6.1417885,24.24125,6.6958756,-7.0658946,-4.489518,-3.754498,-3.8851893,-9.998767,6.7024736,-5.5918407,3.3457966,-2.1158805,-0.79101175,2.4525871,-56.27664,39.806293,-32.986816,-55.027515,-34.425846,1.1466753,13.066033,-72.52938,-31.612312,44.27231,-40.996883,62.037,-12.839047,-12.209368
164,-0.2523779273033142,2.3326971530914307,78.84607696533203,0.14835631412263364,2.3400718028026066,-93.74826056944113,-0.14812496,6.142433,24.241682,6.696666,-7.0645556,-4.490868,-3.7591352,-3.8851967,-9.994697,6.7020288,-5.5859466,3.3535154,-2.1168416,-0.79333335,2.4502842,-56.257412,39.802876,-32.986782,-55.066372,-34.38383,1.1789371,13.085802,-72.54707,-31.612505,44.272327,-40.983826,62.011967,-12.842016,-12.163907
165,-0.2520253658294678,2.3370091915130615,78.84471893310547,0.14556678973980222,2.339072437310062,-93.75361047788485,-0.14768867,6.1470175,24.244362,6.6965914,-7.0701666,-4.4874444,-3.7612133,-3.8802269,-9.991614,6.7018423,-5.5791793,3.3587978,-2.110534,-0.78582823,2.4438124,-56.244984,39.78881,-32.964687,-55.089203,-34.038696,1.3720306,13.16625,-72.56236,-31.61311,44.273785,-40.957047,61.971848,-12.843336,-12.09988
166,-0.2513134777545929,2.339137077331543,78.84523010253906,0.1401700498241416,2.336439765351743,-93.7595120372926,-0.14618966,6.1547313,24.2481,6.697061,-7.0801015,-4.480823,-3.761134,-3.8720489,-9.989371,6.701065,-5.5709667,3.3638382,-2.1097636,-0.77343065,2.4380662,-56.203087,39.77308,-32.94508,-55.123512,-33.44949,1.6698387,13.287467,-72.5709,-31.614273,44.278263,-40.93454,61.917286,-12.843802,-12.018187
167,-0.25209811329841614,2.3404481410980225,78.84488677978516,0.13435342959752408,2.3334954666587415,-93.7654801970191,-0.14396358,6.1626463,24.252218,6.6976776,-7.090728,-4.475008,-3.7609866,-3.8635886,-9.987057,6.700821,-5.563796,3.367073,-2.1092467,-0.7651907,2.4351022,-56.193314,39.76441,-32.935738,-55.13853,-33.280712,1.746981,13.308486,-72.58669,-31.614922,44.2792,-40.90871,61.8586,-12.84316,-11.939644
168,-0.25339066982269287,2.3425962924957275,78.84282684326172,0.13081181245283297,2.331475241206194,-93.77060393203321,-0.14240941,6.16837,24.25588,6.697627,-7.0964355,-4.474012,-3.761009,-3.8574162,-9.983946,6.70002,-5.559647,3.3669944,-2.1193979,-0.75464225,2.4397266,-56.164074,39.758625,-32.95073,-55.167946,-34.099953,1.2855868,13.07818,-72.61091,-31.614752,44.285732,-40.89785,61.797302,-12.8370075,-11.884871
169,-0.255551278591156,2.3437082767486572,78.84221649169922,0.13094709094685666,2.3307704813641386,-93.77507721854245,-0.14111227,6.1702228,24.259846,6.697022,-7.095686,-4.4809313,-3.7626498,-3.8550713,-9.979019,6.6997795,-5.560177,3.3610034,-2.14522,-0.7454957,2.451912,-56.18259,39.742435,-33.03009,-55.1552,-36.767464,-0.15127966,12.3572035,-72.639626,-31.61201,44.307217,-40.911564,61.71711,-12.82953,-11.868908
170,-0.2575901448726654,2.3455536365509033,78.84139251708984,0.13302339605233016,2.3306817387327197,-93.77906613660446,-0.14020163,6.1703954,24.264078,6.6966095,-7.091325,-4.4930677,-3.7651753,-3.8547456,-9.97304,6.7012644,-5.5652533,3.350571,-2.1782675,-0.7422593,2.4674094,-56.204716,39.715397,-33.184513,-55.140533,-40.72996,-2.217052,11.180772,-72.67147,-31.604912,44.32542,-40.935356,61.62813,-12.814818,-11.873561
171,-0.2620289921760559,2.346648931503296,78.8410873413086,0.13570705078120768,2.3303543842534804,-93.78225988681395,-0.13947058,6.1700525,24.267326,6.696473,-7.0861387,-4.5053773,-3.7666972,-3.8549628,-9.967493,6.701716,-5.5703936,3.340504,-2.2000453,-0.7427993,2.4737144,-56.2356,39.676826,-33.34317,-55.124203,-44.581047,-4.0999126,9.919723,-72.68868,-31.595476,44.337353,-40.9576,61.53905,-12.794645,-11.88458
172,-0.26249760389328003,2.348576307296753,78.8421401977539,0.13746615161694956,2.329233900568438,-93.78438969092416,-0.13841718,6.1707892,24.268312,6.696756,-7.083838,-4.5128946,-3.7668111,-3.854255,-9.964004,6.7019606,-5.573844,3.3356633,-2.2034492,-0.7447363,2.4711983,-56.260387,39.641544,-33.439243,-55.11843,-46.830807,-5.112557,9.130334,-72.69754,-31.588175,44.346928,-40.967747,61.46539,-12.77701,-11.890396
173,-0.26513078808784485,2.3505520820617676,78.84292602539062,0.1378137651710784,2.326658655956566,-93.78455326720649,-0.1368012,6.172548,24.26536,6.6964755,-7.0850234,-4.5130568,-3.7644014,-3.8526103,-9.96329,6.701295,-5.574055,3.3396277,-2.193996,-0.75245786,2.4621775,-56.27303,39.627773,-33.446056,-55.124344,-46.636436,-4.939712,9.195647,-72.681816,-31.586512,44.351025,-40.98649,61.40929,-12.763864,-11.887217
174,-0.2658478021621704,2.3513498306274414,78.84337615966797,0.13773541990029411,2.323307549589295,-93.78369630564545,-0.13459884,6.174834,24.260054,6.696275,-7.0885644,-4.5089064,-3.7606878,-3.8504488,-9.964119,6.7009325,-5.5733304,3.3489552,-2.1717153,-0.76703167,2.444442,-56.31459,39.617752,-33.40255,-55.104744,-44.94468,-4.0244017,9.787146,-72.64204,-31.587755,44.35088,-41.011013,61.360485,-12.752505,-11.882328
175,-0.26840052008628845,2.352083206176758,78.84087371826172,0.13715560678621708,2.3200412223719207,-93.78238558278576,-0.13335206,6.1777477,24.254335,6.6967554,-7.092175,-4.5039496,-3.7570837,-3.847876,-9.966079,6.7004952,-5.572061,3.3582635,-2.1482103,-0.7817807,2.4251835,-56.338562,39.614964,-33.34585,-55.103046,-42.86238,-2.9035587,10.47855,-72.596725,-31.590826,44.350098,-41.038322,61.31407,-12.7404995,-11.879346
176,-0.27106553316116333,2.353098154067993,78.83989715576172,0.13621235688925232,2.3181099737392192,-93.78168552880126,-0.13275881,6.180939,24.251068,6.69731,-7.0941043,-4.501525,-3.7553484,-3.8447616,-9.968423,6.700435,-5.5715976,3.362097,-2.1307874,-0.7850301,2.4109955,-56.32282,39.615166,-33.286083,-55.13709,-41.50763,-2.1504726,10.895535,-72.56931,-31.597212,44.357025,-41.059963,61.26667,-12.7258835,-11.881614
177,-0.2731013000011444,2.3538951873779297,78.8418960571289,0.13480832665523212,2.3179140143785415,-93.78198453562567,-0.13299812,6.1846,24.251656,6.6971397,-7.0925684,-4.503004,-3.756259,-3.8410096,-9.971927,6.7006984,-5.5716124,3.3576336,-2.1254563,-0.7884858,2.4008362,-56.315163,39.61693,-33.267426,-55.16986,-41.260437,-2.0093968,10.959484,-72.549995,-31.6012,44.36119,-41.082607,61.20426,-12.7058325,-11.894471
178,-0.27561482787132263,2.3563945293426514,78.84101867675781,0.13277512932428354,2.3188725737695974,-93.78286622944357,-0.13456963,6.1890187,24.254467,6.697824,-7.089712,-4.5064154,-3.758375,-3.8365521,-9.976604,6.7007837,-5.571833,3.3483195,-2.1224499,-0.790898,2.3949938,-56.30067,39.61782,-33.265484,-55.21336,-41.488968,-2.1483808,10.870886,-72.54879,-31.603004,44.361504,-41.092525,61.141308,-12.68304,-11.91455
179,-0.2780042290687561,2.358321189880371,78.84085845947266,0.1310262226172984,2.3203156136454264,-93.78372732282655,-0.13630776,6.193065,24.257399,6.6974688,-7.085432,-4.5102143,-3.7614174,-3.8322349,-9.980598,6.7011776,-5.5722904,3.3377733,-2.124865,-0.7920967,2.3891873,-56.271225,39.62026,-33.267845,-55.260975,-41.78767,-2.330182,10.752838,-72.537926,-31.607088,44.362328,-41.11201,61.080227,-12.657496,-11.930932
180,-0.2813261151313782,2.359332799911499,78.8423080444336,0.1301628508871429,2.321587257180337,-93.78444985060258,-0.13894789,6.196572,24.258278,6.6988487,-7.082378,-4.512967,-3.7639718,-3.8288624,-9.982175,6.70121,-5.5727115,3.3298497,-2.120448,-0.7976275,2.3813295,-56.26888,39.622093,-33.264812,-55.276375,-41.78564,-2.3207145,10.734205,-72.5249,-31.609533,44.3591,-41.123775,61.03814,-12.633889,-11.935513
181,-0.2829078137874603,2.360743761062622,78.84386444091797,0.13116130026587136,2.322608007712606,-93.78451599373966,-0.14201793,6.1981444,24.25541,6.6983857,-7.077535,-4.5137854,-3.7664957,-3.8272347,-9.980085,6.7014704,-5.572904,3.3266404,-2.1138434,-0.8055073,2.3746395,-56.246384,39.624897,-33.260357,-55.289314,-41.32797,-2.0387368,10.848336,-72.506874,-31.612818,44.35071,-41.13234,61.029198,-12.610301,-11.918886
182,-0.28515538573265076,2.362030267715454,78.84061431884766,0.1334587359206491,2.323852987288572,-93.78438669255988,-0.14582202,6.1985517,24.250326,6.6974306,-7.0715427,-4.51367,-3.7684906,-3.826633,-9.975587,6.699906,-5.5721016,3.325777,-2.1057675,-0.81415445,2.3676858,-56.20688,39.628654,-33.25671,-55.30232,-40.638195,-1.6134195,11.023607,-72.48666,-31.616817,44.34005,-41.137802,61.042686,-12.586,-11.888146
183,-0.28908300399780273,2.361934185028076,78.84015655517578,0.1352986657241453,2.3250449779632296,-93.78437789257728,-0.14998606,6.1994314,24.245651,6.6983304,-7.0677633,-4.513661,-3.771947,-3.826038,-9.970302,6.701257,-5.5730095,3.324313,-2.0932631,-0.8245293,2.3601735,-56.185535,39.634,-33.24472,-55.29887,-39.84791,-1.1255791,11.225882,-72.46448,-31.621717,44.3239,-41.13979,61.058685,-12.56198,-11.855332
184,-0.2907651960849762,2.3638439178466797,78.84036254882812,0.13556493675642506,2.326043544542268,-93.78476848312796,-0.15222813,6.201629,24.244383,6.6977506,-7.065405,-4.514806,-3.7739573,-3.8236725,-9.9661875,6.7007804,-5.573841,3.3193192,-2.0825338,-0.8334717,2.3511336,-56.173706,39.640186,-33.2248,-55.28907,-39.04464,-0.6560414,11.424601,-72.4314,-31.62716,44.30958,-41.15297,61.049286,-12.537001,-11.83237
185,-0.29270845651626587,2.36493182182312,78.84065246582031,0.13323655584470392,2.3265341775042048,-93.78588828223815,-0.15267983,6.2065864,24.24823,6.697325,-7.0667133,-4.517735,-3.7754927,-3.8187087,-9.96324,6.7014785,-5.576682,3.307703,-2.0701768,-0.84053123,2.3443987,-56.175716,39.64398,-33.20473,-55.27018,-38.182602,-0.20288402,11.626944,-72.40785,-31.63011,44.299713,-41.158405,61.01028,-12.51503,-11.824997
186,-0.29334235191345215,2.36672306060791,78.84246063232422,0.12889754552893054,2.327041026952198,-93.78725201560204,-0.1518933,6.213266,24.255302,6.697398,-7.071373,-4.521719,-3.77696,-3.8118298,-9.960803,6.7021794,-5.5803075,3.291754,-2.0575633,-0.84254336,2.3331296,-56.154488,39.651737,-33.155876,-55.26855,-37.238247,0.28083503,11.831501,-72.36337,-31.635899,44.283962,-41.179638,60.951847,-12.484241,-11.820884
187,-0.2957615256309509,2.3667848110198975,78.84223175048828,0.12469951213903852,2.327610300369012,-93.78896079329968,-0.15051386,6.219414,24.262957,6.6966515,-7.0760336,-4.525957,-3.7783277,-3.8051314,-9.959,6.702424,-5.583672,3.2767878,-2.0467567,-0.84228295,2.3266432,-56.126877,39.66255,-33.108402,-55.276134,-36.30186,0.7462613,12.030338,-72.332954,-31.642626,44.27639,-41.19586,60.891113,-12.460429,-11.821667
188,-0.29799985885620117,2.367196559906006,78.84119415283203,0.12233117735738999,2.328599031880165,-93.79058901273001,-0.15049486,6.223766,24.26814,6.696003,-7.078565,-4.529725,-3.7801876,-3.8005626,-9.958296,6.702666,-5.586127,3.268161,-2.033467,-0.84716594,2.318706,-56.128197,39.670467,-33.07475,-55.26777,-35.503414,1.1558608,12.210694,-72.30826,-31.646755,44.270496,-41.20506,60.83948,-12.442022,-11.822141
189,-0.2992726266384125,2.3694374561309814,78.8420181274414,0.12254427409030554,2.330326084067784,-93.792478618617,-0.1520426,6.2251554,24.269938,6.695876,-7.0792065,-4.5328135,-3.7828722,-3.7988918,-9.959266,6.7021723,-5.587354,3.268359,-2.024059,-0.85032076,2.313556,-56.09938,39.680695,-33.039253,-55.29143,-34.849037,1.4976956,12.361215,-72.28976,-31.65166,44.267227,-41.21966,60.806816,-12.428138,-11.8178625
190,-0.30187708139419556,2.370089292526245,78.8443374633789,0.12432235642719593,2.332478948122317,-93.79482932229375,-0.15378995,6.2245984,24.270046,6.694864,-7.0783453,-4.5356297,-3.7866075,-3.7989998,-9.961442,6.702364,-5.5882607,3.2742107,-2.0113993,-0.858984,2.3094258,-56.09902,39.686287,-33.022396,-55.299614,-34.297256,1.7877021,12.502282,-72.28486,-31.653881,44.264843,-41.222923,60.78437,-12.4217005,-11.814264
191,-0.3042324185371399,2.3706777095794678,78.8403549194336,0.12676378085449805,2.334911735192287,-93.79665903218797,-0.1567317,6.223209,24.26924,6.69486,-7.0768657,-4.538229,-3.7899873,-3.799984,-9.963921,6.701206,-5.587626,3.2824674,-2.0002167,-0.8655522,2.3069506,-56.082043,39.703323,-32.98705,-55.328598,-33.823708,2.0479705,12.630196,-72.28146,-31.659616,44.263878,-41.23047,60.76486,-12.414493,-11.809897
192,-0.30542516708374023,2.372586488723755,78.84154510498047,0.1291705168008992,2.3371924735617027,-93.79730489138979,-0.15923937,6.221667,24.268484,6.69379,-7.0740037,-4.540692,-3.7935326,-3.8010743,-9.965591,6.700617,-5.5858545,3.2898998,-1.991059,-0.8738402,2.3057575,-56.064617,39.714542,-32.967674,-55.35542,-33.373116,2.2914634,12.756363,-72.27844,-31.662594,44.26409,-41.2386,60.73678,-12.405094,-11.807529
193,-0.30573490262031555,2.373547077178955,78.84000396728516,0.1318564368009454,2.3392133290403274,-93.79636472737405,-0.16290323,6.219925,24.26814,6.694366,-7.0697303,-4.542957,-3.7971132,-3.8028507,-9.965717,6.701159,-5.5824423,3.296962,-1.9846631,-0.8821951,2.3067842,-56.042427,39.728058,-32.944164,-55.386795,-32.96692,2.5191085,12.88167,-72.274216,-31.665424,44.267628,-41.25262,60.701344,-12.392208,-11.808158
194,-0.3067225515842438,2.376297950744629,78.83943939208984,0.13526813495481074,2.341116732220892,-93.79420148758841,-0.1669855,6.2174377,24.267641,6.6949296,-7.0635877,-4.544993,-3.800116,-3.8053265,-9.965031,6.700558,-5.5764904,3.304938,-1.9802036,-0.89105964,2.3098865,-56.018597,39.74191,-32.921467,-55.42097,-32.614403,2.7228146,13.004582,-72.2717,-31.667343,44.27371,-41.267345,60.662266,-12.378198,-11.811045
195,-0.3088981509208679,2.375967502593994,78.83765411376953,0.13810849566459796,2.343226901154359,-93.79160007972942,-0.17100441,6.2153378,24.26673,6.6942034,-7.0570407,-4.5469823,-3.8030765,-3.8073497,-9.964656,6.699916,-5.5708466,3.3119044,-1.9767658,-0.8996015,2.3122432,-55.990097,39.750553,-32.90672,-55.455383,-32.285496,2.9105213,13.11748,-72.26719,-31.667934,44.278625,-41.28486,60.61557,-12.3609495,-11.81246
196,-0.31133079528808594,2.375661849975586,78.83907318115234,0.13940332418980103,2.3456673077112464,-93.78900083178074,-0.17602856,6.2150426,24.264805,6.6950645,-7.0541263,-4.549082,-3.8059187,-3.8082862,-9.965767,6.699391,-5.567912,3.3160598,-1.9723222,-0.9073241,2.311241,-55.979443,39.757362,-32.88607,-55.474823,-31.989336,3.0894241,13.212243,-72.258224,-31.668123,44.2802,-41.30325,60.55718,-12.340167,-11.809456
197,-0.3114563524723053,2.3760883808135986,78.8390884399414,0.13846898140308034,2.34888221890875,-93.78693035766118,-0.18076774,6.2170677,24.26249,6.6951566,-7.0551677,-4.551962,-3.808687,-3.8070118,-9.968757,6.6993217,-5.569708,3.3155172,-1.9708639,-0.9100633,2.3099163,-55.947536,39.767025,-32.860733,-55.510365,-31.689976,3.2602632,13.282123,-72.2523,-31.667545,44.27931,-41.321156,60.483337,-12.312321,-11.800271
198,-0.3116481602191925,2.37724232673645,78.83941650390625,0.13599772422799003,2.352495910152158,-93.78471221335904,-0.18577766,6.220726,24.259474,6.6947684,-7.058284,-4.5553136,-3.8111413,-3.8044407,-9.973134,6.6990366,-5.573991,3.3117507,-1.9649425,-0.91429514,2.304489,-55.95048,39.772495,-32.834568,-55.51928,-31.437046,3.4186757,13.336896,-72.24242,-31.666767,44.271996,-41.33962,60.395126,-12.279765,-11.7881155
199,-0.31266719102859497,2.377289056777954,78.84081268310547,0.13311231396077192,2.356122238287897,-93.78207286702775,-0.19118388,6.2248263,24.255331,6.695796,-7.063555,-4.5578403,-3.8135223,-3.8015242,-9.978218,6.6993756,-5.579122,3.307722,-1.9628778,-0.9152735,2.30041,-55.9254,39.779057,-32.805153,-55.548744,-31.190176,3.5674188,13.377607,-72.23265,-31.665255,44.26368,-41.35796,60.308266,-12.2459345,-11.771435
200,-0.31436026096343994,2.3753652572631836,78.83753967285156,0.13048754595456716,2.3590763100708037,-93.77836500930685,-0.1958437,6.2279234,24.249674,6.69513,-7.066814,-4.558356,-3.8153007,-3.7992806,-9.983278,6.6994286,-5.582228,3.3063502,-1.9597604,-0.91774416,2.2967522,-55.911366,39.78322,-32.781384,-55.567413,-30.97452,3.7032216,13.41877,-72.22267,-31.663929,44.257042,-41.36991,60.232117,-12.223372,-11.755245
201,-0.3141274154186249,2.3765599727630615,78.83876037597656,0.12864466315786346,2.3611322579509015,-93.77316255243294,-0.2006874,6.230051,24.241005,6.6963153,-7.0708413,-4.5553546,-3.8161507,-3.7978663,-9.988591,6.6992993,-5.58241,3.3103223,-1.9592141,-0.9185735,2.296189,-55.88182,39.78998,-32.74735,-55.59839,-30.78373,3.8293722,13.453378,-72.21672,-31.660995,44.251717,-41.373337,60.169174,-12.213363,-11.735849
202,-0.31367233395576477,2.376455545425415,78.83763885498047,0.12680670301426258,2.3624942997971323,-93.76654911628417,-0.20420541,6.231134,24.23003,6.6956625,-7.0744376,-4.5498767,-3.8155448,-3.7966158,-9.994582,6.698634,-5.5812325,3.317406,-1.9620922,-0.9170814,2.2977722,-55.83275,39.79773,-32.716244,-55.64261,-30.603067,3.9437377,13.48306,-72.21532,-31.656351,44.25234,-41.37193,60.111137,-12.213921,-11.715436
203,-0.31340116262435913,2.375393867492676,78.83678436279297,0.12498661520747266,2.3638154156550777,-93.76016714559366,-0.20796971,6.232409,24.219574,6.6963105,-7.0780487,-4.544498,-3.8154998,-3.7954974,-10.000114,6.6991057,-5.5803947,3.3231757,-1.9609619,-0.9206372,2.299072,-55.815643,39.8004,-32.702766,-55.661743,-30.456102,4.042061,13.51708,-72.211266,-31.653992,44.249477,-41.36596,60.064796,-12.219452,-11.696742
204,-0.31484314799308777,2.37387752532959,78.83711242675781,0.12339142623867468,2.3659169053076794,-93.75510018066251,-0.21173911,6.233526,24.212582,6.6967454,-7.080009,-4.5416775,-3.8162494,-3.794521,-10.004491,6.6986427,-5.579618,3.3233213,-1.9619045,-0.92052394,2.2975433,-55.77803,39.803963,-32.684013,-55.693832,-30.329262,4.130326,13.548488,-72.19887,-31.650433,44.248726,-41.364086,60.035187,-12.215816,-11.678441
205,-0.3120824992656708,2.372584342956543,78.8396987915039,0.12133484527952987,2.3692220560637853,-93.7525842843315,-0.2149037,6.2351317,24.211287,6.6967897,-7.07971,-4.543295,-3.8188503,-3.7929657,-10.006608,6.6991067,-5.580678,3.313634,-1.964294,-0.91704327,2.296308,-55.725662,39.80983,-32.67152,-55.734562,-30.22733,4.19866,13.585133,-72.18799,-31.64438,44.25298,-41.357426,60.035107,-12.206597,-11.662452
206,-0.3132660686969757,2.3712451457977295,78.83966827392578,0.11892333562018553,2.3726804514030135,-93.75141514018274,-0.21731043,6.2371216,24.213284,6.6966166,-7.0775285,-4.5475926,-3.8217587,-3.7910798,-10.00747,6.699259,-5.5819845,3.297512,-1.9629228,-0.9168177,2.2982712,-55.70869,39.81093,-32.672546,-55.746685,-30.173162,4.243507,13.624558,-72.17753,-31.642902,44.254498,-41.349136,60.05792,-12.196774,-11.650971
207,-0.3126024603843689,2.370007038116455,78.83796691894531,0.11701220173233898,2.3769997915489522,-93.75007072708848,-0.22000282,6.238173,24.215837,6.696084,-7.075377,-4.5517974,-3.825693,-3.789739,-10.008448,6.700056,-5.5843177,3.2815566,-1.9616675,-0.9140699,2.291143,-55.659145,39.813198,-32.675415,-55.786087,-30.110573,4.293399,13.668378,-72.152725,-31.640167,44.257824,-41.343094,60.082355,-12.1820755,-11.636859
208,-0.3131716251373291,2.3680641651153564,78.8373794555664,0.11621945738454235,2.379939836100225,-93.74722499000688,-0.2224958,6.2381997,24.215704,6.6962695,-7.074628,-4.553328,-3.8272507,-3.790071,-10.011081,6.7003946,-5.5871005,3.2724743,-1.9643162,-0.9133414,2.2894788,-55.61571,39.815582,-32.68086,-55.81028,-30.034058,4.342088,13.702373,-72.13625,-31.63764,44.26367,-41.34294,60.088333,-12.167791,-11.631347
209,-0.31296584010124207,2.365921974182129,78.83883666992188,0.11706552179400524,2.381777399548679,-93.74176431879081,-0.22498207,6.2363143,24.211681,6.6967626,-7.0760536,-4.5505843,-3.8266435,-3.7925482,-10.016613,6.7008176,-5.591799,3.2732773,-1.9660786,-0.9136827,2.2866123,-55.579517,39.82211,-32.67917,-55.828133,-29.950594,4.3990664,13.729342,-72.13102,-31.63237,44.27831,-41.33595,60.068253,-12.155662,-11.638309
210,-0.31375038623809814,2.3627209663391113,78.84040832519531,0.11944591227059144,2.382510791375393,-93.73462440132995,-0.22619018,6.2323494,24.205574,6.696064,-7.0781484,-4.545158,-3.8238072,-3.7969413,-10.023853,6.6999407,-5.596901,3.2800992,-1.9708388,-0.91525275,2.2853794,-55.549004,39.827015,-32.677204,-55.835354,-29.860783,4.459478,13.749499,-72.12505,-31.629803,44.29545,-41.33989,60.033596,-12.140921,-11.653484
211,-0.3139033615589142,2.3605096340179443,78.83705139160156,0.12172069464340902,2.3830197309503527,-93.7273463974043,-0.22809055,6.228609,24.198824,6.6968017,-7.081266,-4.5395055,-3.8210762,-3.8015213,-10.031155,6.7005644,-5.6025643,3.2888873,-1.9739901,-0.9177997,2.2839851,-55.532673,39.832577,-32.672184,-55.82863,-29.783619,4.5173907,13.766594,-72.11853,-31.628206,44.312138,-41.341885,59.99309,-12.126619,-11.66719
212,-0.3135877847671509,2.3596510887145996,78.83470916748047,0.12263284701819806,2.3839453535219666,-93.72071490623773,-0.22997475,6.226163,24.19228,6.6971908,-7.083671,-4.5359044,-3.819244,-3.8046598,-10.037433,6.701109,-5.606136,3.2956893,-1.9764766,-0.91726226,2.2850223,-55.493843,39.836292,-32.672356,-55.839756,-29.693764,4.5680623,13.783457,-72.11428,-31.627422,44.324512,-41.336994,59.95612,-12.114745,-11.669989
213,-0.3120190501213074,2.3581321239471436,78.83515167236328,0.12168954356170389,2.3852191402151908,-93.71548040575884,-0.23138982,6.225346,24.186707,6.697287,-7.086026,-4.535036,-3.8177967,-3.8055148,-10.0413265,6.7003536,-5.605606,3.3005583,-1.9755869,-0.9167479,2.2859724,-55.479572,39.838028,-32.671497,-55.827465,-29.633009,4.605778,13.80284,-72.10482,-31.627121,44.328506,-41.326836,59.925316,-12.10533,-11.661079
214,-0.3116935193538666,2.3566389083862305,78.83517456054688,0.11949299692524126,2.3869321380378645,-93.71035847661058,-0.23337832,6.2257953,24.180758,6.697861,-7.088727,-4.5356836,-3.8170817,-3.8050568,-10.044429,6.7000837,-5.6034074,3.3052323,-1.976785,-0.9132558,2.283503,-55.44231,39.84182,-32.669827,-55.830765,-29.564411,4.6405044,13.823266,-72.07969,-31.626581,44.332256,-41.32144,59.88704,-12.096769,-11.643376
215,-0.30997273325920105,2.3559160232543945,78.83539581298828,0.11712732559523381,2.38853103110516,-93.70587352834303,-0.23456462,6.226313,24.175459,6.6973243,-7.090225,-4.537191,-3.8162456,-3.8042884,-10.047276,6.6995654,-5.6010394,3.308238,-1.9765264,-0.9112317,2.2826061,-55.424538,39.84831,-32.664402,-55.818222,-29.51567,4.6687927,13.840221,-72.05652,-31.625868,44.331036,-41.310837,59.848328,-12.088913,-11.61747
216,-0.30841439962387085,2.3536369800567627,78.83534240722656,0.11557257278339182,2.3904665308281787,-93.70158445297218,-0.23653454,6.2265854,24.170456,6.698404,-7.091681,-4.539012,-3.816095,-3.8044882,-10.051571,6.6998415,-5.6007285,3.308181,-1.9765732,-0.91077214,2.2806473,-55.39638,39.857166,-32.65637,-55.817245,-29.462778,4.6996517,13.848151,-72.02994,-31.625393,44.32795,-41.30043,59.801937,-12.077715,-11.580128
217,-0.30714040994644165,2.352097511291504,78.8375244140625,0.11490159390572206,2.3918376977957747,-93.69767345242087,-0.23744462,6.2263203,24.166079,6.6981344,-7.0901384,-4.5418105,-3.8145652,-3.805155,-10.058617,6.6996546,-5.6036067,3.3021443,-1.9760689,-0.9096173,2.281826,-55.378643,39.86094,-32.65344,-55.810432,-29.400774,4.731487,13.847882,-72.007576,-31.625286,44.32784,-41.28586,59.741714,-12.067497,-11.527742
218,-0.30540263652801514,2.3494069576263428,78.84085083007812,0.11439945776800724,2.393531434005881,-93.69405827794256,-0.23825358,6.2259984,24.162058,6.6976075,-7.0873556,-4.545672,-3.8141632,-3.806098,-10.067354,6.700428,-5.608312,3.2917612,-1.9776756,-0.9084689,2.2804615,-55.340477,39.87601,-32.638935,-55.822178,-29.337088,4.7638083,13.837863,-71.97387,-31.62506,44.325893,-41.274284,59.66859,-12.054431,-11.458038
219,-0.30448687076568604,2.3474156856536865,78.83953094482422,0.1144581297846455,2.395235643994734,-93.69093912364802,-0.23939951,6.2252045,24.15882,6.6983385,-7.085226,-4.5489945,-3.813644,-3.8074477,-10.075287,6.7013984,-5.613463,3.2821643,-1.9742872,-0.90924156,2.279295,-55.337246,39.883366,-32.62997,-55.80857,-29.295387,4.793264,13.826724,-71.951,-31.624987,44.325836,-41.25328,59.598446,-12.046072,-11.3924885
220,-0.30585619807243347,2.345287799835205,78.83716583251953,0.11498880162711907,2.397604111889288,-93.68779540625043,-0.2404485,6.2230616,24.156355,6.698163,-7.0841537,-4.5501304,-3.81329,-3.8097265,-10.080242,6.7016797,-5.616535,3.2786322,-1.9739263,-0.91084284,2.2765737,-55.324135,39.889854,-32.618805,-55.802635,-29.266502,4.819104,13.813127,-71.93257,-31.625225,44.327244,-41.23783,59.541897,-12.040353,-11.341698
221,-0.3036852777004242,2.3416080474853516,78.83939361572266,0.11620769834448166,2.4009113110388514,-93.68516366102594,-0.24170698,6.219169,24.15557,6.6980386,-7.0854764,-4.548003,-3.8143787,-3.8131266,-10.080027,6.7013154,-5.6157517,3.2842264,-1.9786835,-0.91078585,2.2742758,-55.28469,39.906,-32.599796,-55.818783,-29.247463,4.8400054,13.794845,-71.930786,-31.626762,44.339275,-41.22632,59.502964,-12.041978,-11.315355
222,-0.3029792904853821,2.3397178649902344,78.83805084228516,0.11798903115563741,2.40469770808951,-93.6825055277857,-0.2430112,6.2140727,24.155756,6.697598,-7.0877676,-4.54359,-3.8156264,-3.8170898,-10.076948,6.7010636,-5.6135845,3.2955132,-1.9866562,-0.9082516,2.2733605,-55.22631,39.927246,-32.57636,-55.853718,-29.235994,4.856141,13.774266,-71.94428,-31.62954,44.361095,-41.214455,59.47451,-12.051707,-11.306091
223,-0.302731454372406,2.3362643718719482,78.83647918701172,0.1199968782603318,2.408883184678781,-93.68039780746417,-0.24452342,6.208819,24.15657,6.696598,-7.090063,-4.538996,-3.8174057,-3.8213477,-10.072906,6.700496,-5.6110396,3.308116,-1.9910276,-0.9110663,2.2692266,-55.200253,39.939438,-32.5641,-55.860962,-29.242771,4.869035,13.756328,-71.95444,-31.63182,44.375523,-41.20321,59.45505,-12.06001,-11.299679
224,-0.29959598183631897,2.3319129943847656,78.8369140625,0.12135462263924186,2.4128365409514325,-93.67847800275953,-0.24654321,6.2046304,24.15702,6.6961045,-7.0919642,-4.5361385,-3.819057,-3.8250868,-10.070932,6.70007,-5.610183,3.3176646,-1.9957235,-0.9153043,2.2685432,-55.183968,39.941,-32.56418,-55.861595,-29.240995,4.8798423,13.747656,-71.960365,-31.632275,44.378635,-41.195942,59.444214,-12.062196,-11.288497
225,-0.29907912015914917,2.330601453781128,78.83483123779297,0.12259548350798535,2.417489931071287,-93.67669593951007,-0.25057212,6.201684,24.156803,6.6963196,-7.0934763,-4.536296,-3.8223054,-3.828728,-10.071775,6.7002535,-5.6117706,3.324351,-1.9962915,-0.91115475,2.2662387,-55.147736,39.95404,-32.548714,-55.88629,-29.245382,4.886334,13.74961,-71.97943,-31.635635,44.397427,-41.171055,59.442593,-12.076914,-11.269306
226,-0.29741567373275757,2.3291261196136475,78.83563232421875,0.12343178271891922,2.4219631068608902,-93.67554053705616,-0.25486946,6.1994104,24.156683,6.696199,-7.0943727,-4.538192,-3.8256085,-3.8322508,-10.073777,6.7003365,-5.614486,3.3300655,-1.9991645,-0.91276604,2.2669387,-55.13346,39.96064,-32.547276,-55.891552,-29.248985,4.8895655,13.758104,-71.99152,-31.637316,44.4016,-41.15446,59.45154,-12.0842,-11.244452
227,-0.2958683967590332,2.3272836208343506,78.8338851928711,0.12393873454160806,2.426864738206735,-93.67438721543364,-0.25967285,6.1977506,24.156458,6.6960816,-7.0948977,-4.5399137,-3.8287895,-3.835019,-10.07656,6.7002673,-5.6180153,3.332879,-2.0016096,-0.9100458,2.267371,-55.118763,39.975075,-32.532124,-55.90549,-29.272161,4.889349,13.775448,-72.003296,-31.640963,44.40983,-41.139618,59.464622,-12.093085,-11.223701
228,-0.29433056712150574,2.3250229358673096,78.83536529541016,0.12396166269556408,2.432129910244774,-93.6730895329508,-0.2643437,6.196558,24.156704,6.6963296,-7.0952883,-4.539577,-3.8326464,-3.8369513,-10.07906,6.7004704,-5.6206956,3.3310623,-2.006893,-0.9066625,2.270337,-55.078514,39.994766,-32.51934,-55.942036,-29.278328,4.889493,13.793259,-72.013336,-31.644743,44.41446,-41.132828,59.47838,-12.09082,-11.213417
229,-0.2942971885204315,2.3234593868255615,78.8362808227539,0.12289203884614013,2.4384034390792473,-93.67184826883499,-0.26884127,6.1957994,24.15843,6.6958175,-7.093734,-4.5357785,-3.836514,-3.8374212,-10.081356,6.7006526,-5.6231937,3.320108,-2.013342,-0.90344507,2.269578,-55.044086,40.01132,-32.510944,-55.970833,-29.291098,4.8894434,13.815335,-72.006935,-31.647055,44.41425,-41.142185,59.49109,-12.069963,-11.219107
230,-0.2910877466201782,2.319694995880127,78.83784484863281,0.12136477166245986,2.4454091179693833,-93.67049088197285,-0.27412724,6.1956773,24.161022,6.6971116,-7.092202,-4.5297766,-3.8418288,-3.8371475,-10.083769,6.7016687,-5.62523,3.3023822,-2.0166059,-0.8995235,2.268197,-55.012383,40.025368,-32.50313,-56.001614,-29.311462,4.8893933,13.841442,-72.00036,-31.647516,44.40943,-41.15062,59.509556,-12.037133,-11.236127
231,-0.28917449712753296,2.3149073123931885,78.83890533447266,0.11960215278730407,2.4520591621543204,-93.6691630741251,-0.27886292,6.19577,24.162764,6.6977267,-7.091347,-4.523814,-3.8458807,-3.8362916,-10.085976,6.7019253,-5.6273847,3.2860916,-2.020407,-0.89653826,2.2636824,-55.000404,40.034412,-32.492493,-56.01167,-29.344011,4.8897696,13.866498,-71.98271,-31.647474,44.40501,-41.165382,59.51923,-12.004472,-11.254293
232,-0.28747817873954773,2.3107192516326904,78.83966827392578,0.11794530451020112,2.4573565430398943,-93.66809470055243,-0.28194323,6.1957135,24.161766,6.6974163,-7.0935745,-4.5199933,-3.8488998,-3.835647,-10.087664,6.7021246,-5.6294727,3.2795825,-2.0231347,-0.8947166,2.2645893,-54.978752,40.037785,-32.48984,-56.025097,-29.349455,4.8902774,13.886604,-71.98042,-31.647133,44.402107,-41.163998,59.52089,-11.988638,-11.264675
233,-0.2862817347049713,2.3080992698669434,78.8371353149414,0.1160614679514187,2.460751580209487,-93.66740865561118,-0.28439733,6.1963496,24.155731,6.697582,-7.101662,-4.519467,-3.8501146,-3.8349025,-10.088425,6.7016664,-5.6319327,3.2874465,-2.0263891,-0.8965356,2.266792,-54.96958,40.039196,-32.48642,-56.01895,-29.347456,4.891113,13.898402,-71.977776,-31.646982,44.40027,-41.155937,59.503662,-11.993273,-11.260894
234,-0.28339433670043945,2.305126667022705,78.8371353149414,0.11388167869459616,2.463056602819953,-93.66652676256402,-0.28551573,6.1972704,24.146097,6.697122,-7.1138945,-4.5207834,-3.8500412,-3.8338504,-10.089062,6.700708,-5.6345673,3.304488,-2.0287654,-0.8998493,2.2691514,-54.9611,40.040043,-32.4805,-56.008945,-29.340216,4.892216,13.905845,-71.97566,-31.646894,44.397617,-41.139816,59.474026,-12.010134,-11.249069
235,-0.282183974981308,2.302602767944336,78.83401489257812,0.11221027068388367,2.4647494708242514,-93.6655956812248,-0.28662723,6.1980104,24.136591,6.697882,-7.126055,-4.5226846,-3.8498662,-3.833587,-10.089486,6.7007093,-5.637041,3.3242114,-2.0322669,-0.903257,2.2744024,-54.939903,40.040592,-32.468933,-56.006866,-29.324364,4.8950114,13.908654,-71.97817,-31.646734,44.39424,-41.11606,59.4417,-12.032329,-11.23196
236,-0.28086981177330017,2.2994582653045654,78.832763671875,0.11206627751284302,2.467046357968921,-93.66552549818324,-0.2871455,6.1964674,24.132977,6.6970487,-7.1321206,-4.5236754,-3.8502731,-3.8350348,-10.088509,6.7001667,-5.6373005,3.3401065,-2.0391545,-0.90220094,2.2775912,-54.906807,40.0422,-32.440365,-56.013367,-29.317577,4.900453,13.911844,-71.98065,-31.646294,44.398514,-41.10214,59.41599,-12.044825,-11.226326
