unveil-humanoid-operators/unveil-humanoid-operators.github.io/feature-analysis-animation/data/feature_matrix_instances/weight_root_translate_peak_vel_walking_A063_walk_ff_stop_360_003__A063.csv
Frame,root_translateX,root_translateY,root_translateZ,root_rotateX,root_rotateY,root_rotateZ,left_hip_pitch_joint_dof,left_hip_roll_joint_dof,left_hip_yaw_joint_dof,left_knee_joint_dof,left_ankle_pitch_joint_dof,left_ankle_roll_joint_dof,right_hip_pitch_joint_dof,right_hip_roll_joint_dof,right_hip_yaw_joint_dof,right_knee_joint_dof,right_ankle_pitch_joint_dof,right_ankle_roll_joint_dof,waist_yaw_joint_dof,waist_roll_joint_dof,waist_pitch_joint_dof,left_shoulder_pitch_joint_dof,left_shoulder_roll_joint_dof,left_shoulder_yaw_joint_dof,left_elbow_joint_dof,left_wrist_roll_joint_dof,left_wrist_pitch_joint_dof,left_wrist_yaw_joint_dof,right_shoulder_pitch_joint_dof,right_shoulder_roll_joint_dof,right_shoulder_yaw_joint_dof,right_elbow_joint_dof,right_wrist_roll_joint_dof,right_wrist_pitch_joint_dof,right_wrist_yaw_joint_dof
0,0.12693221867084503,2.1263463497161865,74.19049072265625,-1.8466601225443853,-5.603083977311362,-87.7638482438982,-27.212559,8.363361,7.4354186,17.342455,-5.5354395,-1.2085887,-1.1149402,-1.9333836,-7.4923644,38.09106,-31.318775,3.2078125,0.427242,3.210196,17.283857,-11.171972,14.075926,-39.444164,67.52757,-6.734915,-1.6539606,12.066181,-20.97064,-13.720729,26.066406,60.962753,-6.726026,-8.096351,2.8719695
1,0.09863899648189545,2.856963872909546,74.48381042480469,-1.5596166801459705,-5.642733535331942,-87.52194233313799,-27.552837,7.761229,6.2726936,20.273678,-6.0782356,-1.292992,-1.3380748,-2.318954,-7.623552,37.31339,-30.367111,3.1127982,0.06555379,2.8496633,17.25269,-11.177277,14.058522,-40.162148,67.73416,-6.0417747,-1.5549753,12.119539,-19.874031,-13.631005,25.34291,60.376484,-6.6091557,-8.129244,2.5722847
2,0.0920615941286087,3.5646705627441406,74.77810668945312,-1.2946243007367984,-5.694209029272709,-87.2835635572975,-27.866983,7.1253886,5.0824347,23.144726,-6.584543,-1.409077,-1.5545723,-2.672508,-7.7618103,36.5367,-29.411158,3.0165315,-0.25192237,2.505971,17.21207,-11.242551,13.993662,-40.98416,68.04464,-5.3301506,-1.4604759,12.1709,-18.78491,-13.490947,24.553036,59.818943,-6.5228786,-8.166436,2.260205
3,0.0960363820195198,4.264377593994141,75.07627868652344,-1.0335891441232656,-5.756035825141269,-87.06879474761902,-28.096495,6.4826245,4.0088973,25.962646,-7.0809584,-1.5648481,-1.7514946,-3.0111742,-7.881221,35.739956,-28.457737,2.911349,-0.5425792,2.173323,17.15701,-11.3112955,13.88967,-41.72524,68.36714,-4.686445,-1.3647665,12.242247,-17.710857,-13.322405,23.780474,59.32271,-6.4278817,-8.204034,1.963904
4,0.10892713069915771,4.939970970153809,75.3711166381836,-0.7658796456113415,-5.827058190109973,-86.89852414307273,-28.190683,5.8762717,3.1901827,28.745853,-7.5954413,-1.75853,-1.9156489,-3.3508995,-7.9549017,34.903713,-27.51446,2.7897105,-0.7904834,1.8453823,17.079185,-11.353036,13.7504425,-42.246128,68.631516,-4.211514,-1.2617407,12.358659,-16.638405,-13.148364,23.065208,58.91285,-6.2973166,-8.239662,1.713582
5,0.12643232941627502,5.623074054718018,75.65823364257812,-0.47591151477348526,-5.912857789002274,-86.77630775706082,-28.130072,5.3279786,2.6805446,31.511616,-8.137396,-2.0076187,-2.0310478,-3.7090964,-7.9764113,34.010605,-26.579163,2.6476886,-0.99394345,1.5138539,16.985209,-11.357695,13.5769205,-42.501858,68.820526,-3.9161937,-1.1409601,12.5297785,-15.538424,-12.983801,22.397121,58.57225,-6.102093,-8.283455,1.5124556
6,0.15431293845176697,6.302864074707031,75.93883514404297,-0.1709992750497272,-6.008728233200486,-86.68950538427875,-27.958029,4.836029,2.3883357,34.268997,-8.701576,-2.286918,-2.1147714,-4.0799623,-7.960586,33.082363,-25.65284,2.491397,-1.1650296,1.1838185,16.880043,-11.341201,13.373085,-42.565834,68.96035,-3.7520177,-1.0085027,12.740904,-14.413798,-12.833498,21.763927,58.2723,-5.8582788,-8.332135,1.3485512
7,0.1841401904821396,6.977116107940674,76.20093536376953,0.13032128144938457,-6.100726392067991,-86.63623012455199,-27.71305,4.4139752,2.231833,37.013092,-9.289804,-2.52864,-2.200919,-4.4413652,-7.9116645,32.15419,-24.745985,2.3281453,-1.3029299,0.8704225,16.753508,-11.314794,13.145806,-42.47886,69.04877,-3.729313,-0.88271195,12.981413,-13.297179,-12.704111,21.196276,58.023056,-5.6083517,-8.362969,1.2289132
8,0.2126873880624771,7.655759811401367,76.4451904296875,0.4063307377402544,-6.174862882764414,-86.61482322064286,-27.429132,4.0666203,2.1324768,39.72942,-9.900118,-2.6718476,-2.3235528,-4.767694,-7.8338943,31.260365,-23.868736,2.1648803,-1.4092394,0.59050137,16.596718,-11.286534,12.905122,-42.279354,69.07933,-3.8587403,-0.7824355,13.240083,-12.2221365,-12.602321,20.731047,57.835224,-5.39196,-8.353013,1.1603348
9,0.24761007726192474,8.324516296386719,76.67109680175781,0.6601153187258338,-6.226762399348693,-86.62727566082415,-27.11203,3.8118284,2.1189888,42.435238,-10.546578,-2.6708314,-2.473628,-5.0558558,-7.7289195,30.373543,-23.016117,2.0059943,-1.479791,0.3414546,16.405626,-11.244687,12.657621,-41.92219,69.02623,-4.2652597,-0.7293803,13.516206,-11.182866,-12.53491,20.37843,57.702324,-5.20493,-8.282714,1.1585541
10,0.28745007514953613,8.989455223083496,76.87770080566406,0.8978424994823592,-6.263458797733661,-86.6734970442097,-26.7428,3.649299,2.2101347,45.12944,-11.224189,-2.5621815,-2.6396546,-5.315346,-7.5948286,29.48689,-22.185244,1.8471178,-1.5173649,0.11752765,16.188648,-11.184383,12.407057,-41.403828,68.886826,-4.903412,-0.7101207,13.814081,-10.161672,-12.504995,20.120514,57.615765,-5.029007,-8.167974,1.2158865
11,0.326747864484787,9.65807056427002,77.06207275390625,1.1109462698148513,-6.288867864886684,-86.7487126241383,-26.314732,3.5454035,2.3177443,47.759785,-11.897574,-2.4157095,-2.8441582,-5.537506,-7.431121,28.649555,-21.381582,1.6814948,-1.5326735,-0.06864008,15.955449,-11.121028,12.159273,-40.824566,68.68732,-5.5259914,-0.6886026,14.131037,-9.174706,-12.512694,19.948769,57.585266,-4.8858466,-8.039899,1.3039604
12,0.3843832015991211,10.320717811584473,77.22755432128906,1.2876837053900594,-6.30612368458193,-86.84748728066057,-25.82527,3.460512,2.357587,50.280754,-12.533977,-2.3071084,-3.1114004,-5.7158833,-7.2379622,27.914267,-20.610775,1.5022781,-1.5340924,-0.20588225,15.715136,-11.070556,11.92064,-40.287502,68.45447,-5.88689,-0.6260124,14.464668,-8.237996,-12.556773,19.851303,57.62089,-4.7980175,-7.9297132,1.394767
13,0.44608381390571594,10.980862617492676,77.36910247802734,1.4249545624033657,-6.3142762674381885,-86.97686322504589,-25.277954,3.3915918,2.3226178,52.70472,-13.137945,-2.2484734,-3.4428468,-5.8444858,-7.0056024,27.279993,-19.870136,1.3065543,-1.5130093,-0.28847504,15.465095,-11.027006,11.693638,-39.791492,68.1736,-5.887484,-0.48005545,14.822766,-7.354702,-12.64027,19.834557,57.72988,-4.784955,-7.8468103,1.4926106
14,0.5124185681343079,11.642784118652344,77.4849624633789,1.5283569969319972,-6.311489298648994,-87.13638756322939,-24.674086,3.3515937,2.2559912,55.05243,-13.723415,-2.2057004,-3.8265903,-5.9289284,-6.737466,26.722542,-19.156036,1.0979756,-1.467025,-0.32503527,15.20253,-10.982711,11.47934,-39.29468,67.83188,-5.673226,-0.27846688,15.2024975,-6.5148396,-12.7657,19.898775,57.904346,-4.8305464,-7.7745104,1.6091479
15,0.5780185461044312,12.30837345123291,77.57476806640625,1.607689672937019,-6.301156057433406,-87.30992388428915,-24.007723,3.3214133,2.1520774,57.28782,-14.274693,-2.1830025,-4.2591343,-5.980566,-6.453449,26.244663,-18.473717,0.8791839,-1.4133416,-0.32635087,14.93593,-10.94735,11.282138,-38.8362,67.45567,-5.360168,-0.08455289,15.586665,-5.714217,-12.927637,20.022333,58.130753,-4.9055157,-7.7052264,1.727298
16,0.6529098153114319,12.970268249511719,77.64732360839844,1.6667871782405774,-6.286143987226229,-87.48097085470634,-23.27449,3.283276,2.0045009,59.377728,-14.772518,-2.1838963,-4.7384543,-6.0124125,-6.1724896,25.853367,-17.830622,0.6527194,-1.3669895,-0.30514345,14.673781,-10.933017,11.107608,-38.460373,67.07822,-5.0664043,0.032315206,15.958849,-4.951011,-13.116065,20.182207,58.39896,-4.9811707,-7.631458,1.829427
17,0.7331698536872864,13.62889289855957,77.6990737915039,1.7072531016672814,-6.26931164656934,-87.65149314321344,-22.467556,3.2262223,1.7980461,61.324066,-15.208891,-2.2345488,-5.265964,-6.023623,-5.8875575,25.558886,-17.233967,0.40817833,-1.3249531,-0.26143345,14.417096,-10.937678,10.960412,-38.17614,66.69305,-4.784076,0.0778538,16.352707,-4.22853,-13.3253355,20.383303,58.71799,-5.0591326,-7.5498986,1.9053279
18,0.8088746070861816,14.290125846862793,77.73246765136719,1.7253988236146822,-6.248674450936706,-87.8277995931375,-21.592632,3.1598518,1.5431397,63.146183,-15.596207,-2.3262222,-5.8407526,-6.0108004,-5.5922227,25.353878,-16.677282,0.14757745,-1.281842,-0.19422868,14.160835,-10.95313,10.842567,-37.964157,66.284996,-4.466114,0.08147064,16.764347,-3.5533497,-13.55568,20.635267,59.09835,-5.1531506,-7.465389,1.9650227
19,0.8899151086807251,14.95964527130127,77.74527740478516,1.7280763348637782,-6.219804025360237,-88.00084933150333,-20.664581,3.0990515,1.2700629,64.83167,-15.945607,-2.408973,-6.454839,-5.9834104,-5.305811,25.212278,-16.143408,-0.10729142,-1.2484303,-0.11232858,13.904745,-10.976167,10.754276,-37.817535,65.86173,-4.1605153,0.01360499,17.122772,-2.9228587,-13.801814,20.9193,59.52616,-5.2550306,-7.3823547,2.02184
20,0.9695538282394409,15.632055282592773,77.7400131225586,1.7208850958446877,-6.178624188314181,-88.16169712691504,-19.69979,3.0601673,1.0075773,66.369675,-16.268356,-2.4319417,-7.100215,-5.951533,-5.047011,25.10733,-15.614725,-0.3344935,-1.2341994,-0.025920922,13.647318,-11.008303,10.694807,-37.736427,65.43749,-3.92107,-0.15670063,17.357729,-2.3376315,-14.056973,21.215193,59.993332,-5.3577886,-7.305441,2.0884042
21,1.0563669204711914,16.30483627319336,77.72203063964844,1.7026024142085772,-6.121998084369672,-88.30621554408025,-18.704744,3.0462205,0.75276047,67.76811,-16.54916,-2.3787951,-7.783713,-5.9154572,-4.8165107,25.044304,-15.078912,-0.54081315,-1.240413,0.0656095,13.384048,-11.052801,10.665968,-37.726543,65.01755,-3.75663,-0.49462488,17.436487,-1.8006377,-14.317565,21.53339,60.505535,-5.45258,-7.2435627,2.1602533
22,1.142366647720337,16.981815338134766,77.68489837646484,1.6705176674018631,-6.053221079975308,-88.43970890498342,-17.67198,3.049574,0.4934703,69.031525,-16.787382,-2.2772062,-8.505694,-5.8734016,-4.6045403,25.03212,-14.5464525,-0.73292714,-1.2628202,0.1644677,13.116372,-11.107037,10.668655,-37.78565,64.59315,-3.6405413,-0.96478945,17.40165,-1.3164635,-14.583096,21.881105,61.071674,-5.546436,-7.1918993,2.2322145
23,1.225386619567871,17.659832000732422,77.63501739501953,1.6277297279231204,-5.97782016349905,-88.5668536387368,-16.596987,3.0715709,0.24306032,70.140465,-17.014801,-2.141183,-9.247455,-5.831011,-4.4140086,25.04837,-14.033268,-0.8888189,-1.302172,0.26471716,12.8526945,-11.168134,10.698125,-37.903248,64.166466,-3.575076,-1.453554,17.29522,-0.8841966,-14.849437,22.232521,61.68308,-5.656718,-7.133929,2.3163018
24,1.306850790977478,18.334918975830078,77.57611083984375,1.5831553458555623,-5.901820557361494,-88.69253922022078,-15.476012,3.1139092,0.014051049,71.077065,-17.263855,-1.9843299,-9.989643,-5.793482,-4.247642,25.069006,-13.555021,-0.98697233,-1.3568516,0.36111844,12.599848,-11.232385,10.745991,-38.06676,63.73503,-3.5565944,-1.8401071,17.159763,-0.5009832,-15.110248,22.559443,62.332596,-5.8011904,-7.0535445,2.4242775
25,1.3943346738815308,19.001140594482422,77.50773620605469,1.530095708199271,-5.827610260183071,-88.81862327657167,-14.300576,3.2058668,-0.17712632,71.85582,-17.567968,-1.7833742,-10.731046,-5.75965,-4.113668,25.101892,-13.118461,-1.0247927,-1.4244095,0.45857337,12.358138,-11.305763,10.805085,-38.28193,63.304955,-3.608781,-2.0999146,16.988708,-0.17174204,-15.362198,22.867872,63.038982,-5.980012,-6.950361,2.562209
26,1.4923268556594849,19.679346084594727,77.4239501953125,1.4669433660612874,-5.752123291715167,-88.94232190928027,-13.077451,3.3388224,-0.34350836,72.48247,-17.902287,-1.5395803,-11.481043,-5.727704,-4.0070605,25.156492,-12.71515,-1.0127776,-1.5041783,0.55834377,12.122036,-11.3944025,10.873157,-38.554398,62.885082,-3.7251303,-2.292415,16.765781,0.102248825,-15.605504,23.167105,63.80552,-6.1865554,-6.8321166,2.721837
27,1.585864782333374,20.361385345458984,77.3273696899414,1.4036972560838,-5.6730933820661615,-89.06015938012801,-11.827518,3.4564672,-0.5165243,72.927734,-18.212059,-1.3031021,-12.23735,-5.7013307,-3.9109976,25.214033,-12.340268,-0.949521,-1.5989652,0.6500301,11.891466,-11.498601,10.94822,-38.872158,62.48986,-3.8585389,-2.43468,16.519268,0.3310046,-15.837322,23.433899,64.59821,-6.4284663,-6.6948633,2.894171
28,1.6857719421386719,21.043046951293945,77.2215576171875,1.3506416221250719,-5.587958257114578,-89.16866348307832,-10.57073,3.5009081,-0.726953,73.161095,-18.441023,-1.1238133,-12.997988,-5.684436,-3.808552,25.256294,-11.988859,-0.8334475,-1.7112566,0.7215491,11.665173,-11.619846,11.028756,-39.225536,62.135765,-3.9631321,-2.5435069,16.278252,0.5232329,-16.054554,23.644506,65.38666,-6.714738,-6.534601,3.0693715
29,1.7898293733596802,21.725862503051758,77.1095962524414,1.31062697196376,-5.4958858941794535,-89.26665748682684,-9.30638,3.4639215,-0.9807765,73.19384,-18.584148,-1.0003133,-13.764486,-5.6780615,-3.6947079,25.282324,-11.674547,-0.63531584,-1.8417572,0.7705479,11.441202,-11.757451,11.112659,-39.61526,61.8284,-4.0402994,-2.6224127,16.043451,0.67440766,-16.255558,23.800362,66.18836,-7.0716076,-6.3472958,3.2720544
30,1.8921769857406616,22.41942024230957,76.99051666259766,1.2780805382936007,-5.398496892650115,-89.35552772001282,-8.027102,3.3740523,-1.264123,73.037674,-18.66782,-0.91022855,-14.537017,-5.6806793,-3.5782263,25.300547,-11.395715,-0.36519673,-1.9887928,0.8035634,11.219762,-11.913616,11.198961,-40.04841,61.563087,-4.111531,-2.6631186,15.802514,0.78309405,-16.43964,23.910738,67.01254,-7.487263,-6.136686,3.4988422
31,1.989808440208435,23.116134643554688,76.86964416503906,1.248773538575023,-5.2959347124169005,-89.43583579518842,-6.743528,3.2280483,-1.5774915,72.6676,-18.68461,-0.8710698,-15.31426,-5.691355,-3.4630487,25.310186,-11.125616,-0.080838814,-2.1512063,0.82132673,11.00302,-12.089562,11.288153,-40.518147,61.33608,-4.153715,-2.6647537,15.564484,0.8627557,-16.605255,23.96338,67.81679,-7.9131236,-5.9100156,3.6976614
32,2.0992205142974854,23.808242797851562,76.74693298339844,1.223000631685575,-5.188670979384645,-89.5081523443421,-5.4655085,3.0224748,-1.9209117,72.05793,-18.628006,-0.89940244,-16.093348,-5.709641,-3.352981,25.307547,-10.835373,0.15986697,-2.3274891,0.8241759,10.793442,-12.286643,11.381873,-41.017937,61.14293,-4.1445885,-2.6266327,15.338191,0.9253064,-16.750298,23.944946,68.56316,-8.301268,-5.6763506,3.8157203
33,2.2088022232055664,24.511947631835938,76.62008666992188,1.204455999862308,-5.07262704808768,-89.58328250862374,-4.186316,2.7103229,-2.3314934,71.19359,-18.488815,-1.029041,-16.884886,-5.7344213,-3.240435,25.30442,-10.525402,0.34435758,-2.511884,0.80804944,10.582435,-12.503113,11.481303,-41.560215,60.988934,-4.0620656,-2.5302348,15.131846,0.9689235,-16.873121,23.861532,69.2641,-8.6474,-5.426731,3.835794
34,2.313333749771118,25.2157039642334,76.49000549316406,1.19384986919265,-4.948797533956544,-89.65732799659625,-2.9024165,2.3120365,-2.8015828,70.09413,-18.276894,-1.2358595,-17.685398,-5.7659616,-3.1265965,25.29584,-10.206476,0.5019634,-2.7070498,0.7735411,10.371192,-12.737653,11.586543,-42.14486,60.872753,-3.9233716,-2.3824193,14.938352,0.98849684,-16.97289,23.716364,69.93596,-8.974625,-5.160467,3.7866392
35,2.416778326034546,25.92960548400879,76.35643768310547,1.1799889408516484,-4.8244154241254735,-89.7088925002503,-1.6296133,1.9239324,-3.2618942,68.78318,-18.011213,-1.4505184,-18.474691,-5.80476,-3.0279756,25.257328,-9.867517,0.6372724,-2.9246175,0.72717136,10.176066,-12.992864,11.69786,-42.74629,60.77967,-3.765921,-2.2205696,14.743989,0.9943001,-17.050156,23.49557,70.533226,-9.272888,-4.8886704,3.684819
36,2.523399591445923,26.643348693847656,76.2195053100586,1.1543008639189007,-4.706754720246596,-89.71677039547737,-0.38649362,1.6386348,-3.6393812,67.28542,-17.709831,-1.6071352,-19.230331,-5.852169,-2.9612634,25.161232,-9.495973,0.75482386,-3.1766522,0.6754387,10.013721,-13.2727785,11.816063,-43.341278,60.695065,-3.629976,-2.0820365,14.534984,0.99781996,-17.106363,23.184738,71.008415,-9.533,-4.6226892,3.547162
37,2.630074977874756,27.37165641784668,76.0752944946289,1.1140162711649733,-4.608575016303327,-89.67169150297286,0.83382213,1.4632252,-3.9266465,65.60215,-17.291204,-1.7093123,-19.927904,-5.9078126,-2.9378438,24.99385,-9.075615,0.85135233,-3.4738567,0.61795557,9.895443,-13.576199,11.9421015,-43.929836,60.61997,-3.517166,-1.9684643,14.294505,1.0034614,-17.140667,22.755184,71.35273,-9.773655,-4.3441014,3.356476
38,2.743985652923584,28.11353302001953,75.92426300048828,1.0652043687100659,-4.52220636166331,-89.58636206246615,2.0362005,1.3514647,-4.1566606,63.724953,-16.776838,-1.7856714,-20.58599,-5.9721875,-2.9462843,24.772373,-8.617589,0.92557114,-3.8067772,0.5514401,9.810061,-13.902285,12.076141,-44.52465,60.558525,-3.4113054,-1.8627688,14.034264,1.0077987,-17.151833,22.221743,71.58748,-9.992716,-4.0534577,3.1112533
39,2.8604013919830322,28.861125946044922,75.77180480957031,1.0123014163003177,-4.424131275640396,-89.4724450151263,3.1970499,1.3104289,-4.3120604,61.661167,-16.336935,-1.811777,-21.246138,-6.0476685,-2.9691763,24.51552,-8.149832,0.98510456,-4.158778,0.4757096,9.740131,-14.251932,12.217289,-45.112293,60.499943,-3.3165135,-1.7732476,13.782992,1.004394,-17.145378,21.63933,71.71573,-10.147639,-3.7918468,2.8495646
40,2.9879558086395264,29.63182258605957,75.61270904541016,0.9595699694127795,-4.290554663782312,-89.34153232551202,4.2947416,1.3445765,-4.3744054,59.41228,-16.139294,-1.7654166,-21.950308,-6.1371164,-2.9888763,24.242188,-7.7008758,1.0378226,-4.5157986,0.39323583,9.669724,-14.625343,12.36451,-45.676598,60.431774,-3.2376306,-1.7082944,13.569675,0.98954827,-17.129751,21.063204,71.734924,-10.198048,-3.600709,2.6100442
41,3.113513946533203,30.410507202148438,75.4455337524414,0.9020785937694068,-4.109276618245097,-89.19145014522996,5.352059,1.4756166,-4.3158655,56.881466,-16.122206,-1.563369,-22.716742,-6.2371044,-3.0024812,23.96111,-7.2670503,1.07821,-4.8835115,0.30933854,9.585607,-15.018631,12.517607,-46.21533,60.350845,-3.1763992,-1.6795356,13.403303,0.96677685,-17.11045,20.500933,71.63501,-10.117379,-3.4923537,2.3802254
42,3.25282621383667,31.209728240966797,75.26355743408203,0.8437648283546562,-3.8952994953033517,-89.01801566674504,6.3748875,1.6764677,-4.1463304,54.099384,-16.23867,-1.2573056,-23.52067,-6.3487806,-3.017441,23.661976,-6.8380876,1.1049657,-5.2685738,0.22148772,9.500981,-15.432417,12.676922,-46.73312,60.26127,-3.1295624,-1.679321,13.26762,0.93892056,-17.088478,19.927599,71.41473,-9.931965,-3.4454103,2.1479433
43,3.3852498531341553,32.030128479003906,75.06720733642578,0.7943009715897,-3.6663968851980986,-88.82859008152963,7.3156505,1.8815151,-3.9091096,51.251152,-16.66384,-1.0275081,-24.33898,-6.4822736,-3.0321095,23.335426,-6.431526,1.1329627,-5.6588554,0.12146805,9.439841,-15.872782,12.841914,-47.223087,60.16074,-3.0929337,-1.6866909,13.154099,0.9020133,-17.065046,19.351326,71.08253,-9.67833,-3.4499855,1.9524112
44,3.522824764251709,32.86827087402344,74.86119079589844,0.76481165537319,-3.4399349982363057,-88.6312702293018,8.133323,2.0357618,-3.6503458,48.49533,-17.557405,-1.0479534,-25.145878,-6.647372,-3.0446484,22.966148,-6.0629025,1.1768771,-6.043112,0.0010758741,9.425053,-16.343975,13.0116415,-47.67487,60.0469,-3.0601637,-1.6811079,13.053458,0.85097504,-17.04144,18.781622,70.64876,-9.39316,-3.496035,1.8330178
45,3.6647956371307373,33.734493255615234,74.6402816772461,0.7375982755481545,-3.2107446417675596,-88.42911775150394,8.88997,2.1723926,-3.3587909,45.660816,-19.131805,-1.4629726,-25.954594,-6.8262815,-3.0567164,22.560606,-5.711876,1.2271297,-6.4219995,-0.11885749,9.455636,-16.850876,13.185221,-48.081833,59.905933,-3.022921,-1.6440079,12.964697,0.78018236,-17.02391,18.22205,70.08984,-9.069353,-3.5760255,1.8197776
46,3.814342975616455,34.597721099853516,74.42705535888672,0.7092527185729556,-2.9720613493042785,-88.21599928623836,9.598031,2.314639,-2.9986613,42.679695,-21.206734,-2.160437,-26.767635,-7.020098,-3.071066,22.114779,-5.375298,1.2802565,-6.8023267,-0.23842621,9.521419,-17.389593,13.362186,-48.44894,59.742897,-2.9858673,-1.5907264,12.891995,0.696809,-17.014656,17.667553,69.4049,-8.69267,-3.6961827,1.8873451
47,3.958460807800293,35.47873306274414,74.21204376220703,0.716271722382948,-2.739155271207017,-87.98481091223003,10.13425,2.4039533,-2.593442,39.88161,-23.359955,-2.9156168,-27.542961,-7.2659316,-3.08935,21.596975,-5.091522,1.36024,-7.1825743,-0.3955621,9.629787,-17.954454,13.54245,-48.78816,59.586422,-2.9661133,-1.5511874,12.834632,0.61030936,-17.004974,17.116627,68.64386,-8.286866,-3.866222,1.9907204
48,4.111808776855469,36.37538146972656,73.99613952636719,0.7958176288947925,-2.5286272191642487,-87.72927818214022,10.363511,2.3740642,-2.1943507,37.641644,-25.204191,-3.4885626,-28.239359,-7.601722,-3.110644,20.976711,-4.8992376,1.4913058,-7.560007,-0.63265216,9.787429,-18.539392,13.726108,-49.11012,59.466904,-2.9788294,-1.5551372,12.792191,0.52574944,-16.97869,16.567305,67.86298,-7.8778358,-4.096554,2.0830925
49,4.257204532623291,37.28227615356445,73.78939056396484,0.9857762840902211,-2.337256532124873,-87.4489507445666,10.1902275,2.182578,-1.7823681,36.128605,-26.709366,-3.786467,-28.896494,-8.06831,-3.1051645,20.29963,-4.830751,1.6899871,-7.933924,-0.9974445,9.999189,-19.166945,13.914689,-49.413643,59.389385,-3.0256424,-1.6194742,12.772278,0.41912606,-16.931374,16.03302,67.05519,-7.4401016,-4.4048038,2.1878624
50,4.396555423736572,38.197566986083984,73.59546661376953,1.2592148635259781,-2.161834802168923,-87.14690450351522,9.697779,1.8749744,-1.354404,35.149082,-28.081419,-3.9359014,-29.518354,-8.638685,-3.081044,19.565521,-4.858552,1.9390714,-8.304598,-1.4602375,10.259233,-19.830904,14.10858,-49.69199,59.340004,-3.0964775,-1.7250975,12.772481,0.29302186,-16.86242,15.50925,66.20329,-6.973256,-4.7792807,2.3176608
51,4.5338873863220215,39.124813079833984,73.41724395751953,1.553589420914255,-2.0208312201117296,-86.8227569171487,9.009214,1.5105789,-1.0041224,34.56541,-29.311499,-4.0073047,-30.008568,-9.250627,-3.0936651,18.672432,-4.928483,2.213551,-8.667997,-1.9546323,10.557392,-20.490986,14.306285,-49.962196,59.329548,-3.201384,-1.8481716,12.777533,0.17865005,-16.759998,14.974101,65.36956,-6.5338697,-5.192388,2.4054618
52,4.652876853942871,40.04179382324219,73.2607192993164,1.811869431356368,-1.9317401641562812,-86.47532237031629,8.247616,1.1479099,-0.8255352,34.236675,-30.385727,-4.0688934,-30.270403,-9.840707,-3.2023015,17.516596,-4.9839234,2.4909375,-9.021167,-2.4176931,10.883342,-21.10822,14.504546,-50.24271,59.373055,-3.3507757,-1.9650661,12.771956,0.10583042,-16.604229,14.401853,64.61427,-6.184425,-5.613298,2.3816428
53,4.7609734535217285,40.95949172973633,73.11631774902344,2.034214125651442,-1.9006187030190664,-86.08497199043562,7.3534856,0.7750886,-0.9002398,34.276516,-31.300333,-4.113635,-30.259508,-10.404362,-3.4095697,15.996102,-5.0520306,2.734515,-9.37388,-2.8617465,11.250345,-21.701061,14.703648,-50.54719,59.49022,-3.565428,-2.087147,12.7638855,0.06742609,-16.370586,13.772943,63.955757,-5.930676,-6.0780253,2.206316
54,4.844517230987549,41.86091995239258,72.99183654785156,2.2553119164707645,-1.9229299492134657,-85.65562428106983,6.2918434,0.35685274,-1.1636207,34.721462,-32.07042,-4.103127,-30.02101,-10.977816,-3.6939034,14.174063,-5.137839,2.973273,-9.723765,-3.3320148,11.658588,-22.283823,14.903187,-50.868107,59.678326,-3.832772,-2.2208035,12.7570095,0.035782844,-16.055046,13.103814,63.380997,-5.7502737,-6.5891023,1.9166075
55,4.915807247161865,42.72605895996094,72.88558197021484,2.4701918093410784,-1.9987543618168342,-85.22107817721323,5.2231755,-0.08237747,-1.4913404,35.30793,-32.703854,-4.0609446,-29.580503,-11.553258,-4.0839643,12.169566,-5.1400294,3.2873971,-10.052694,-3.8074238,12.079852,-22.81255,15.097009,-51.192467,59.918625,-4.1169424,-2.3351922,12.730731,0.0143757565,-15.674353,12.427338,62.896927,-5.657753,-7.066795,1.5594108
56,4.981987953186035,43.54909896850586,72.79833984375,2.672117228723641,-2.12545059859546,-84.81674177194014,4.303263,-0.5079151,-1.7607507,35.773983,-33.209232,-4.009833,-28.965242,-12.114336,-4.609242,10.097447,-4.951354,3.7572498,-10.341718,-4.2558703,12.486797,-23.24219,15.27474,-51.501194,60.191864,-4.3781576,-2.3997798,12.664999,0.016570112,-15.2570505,11.775914,62.497765,-5.662888,-7.4302063,1.1846972
57,5.055432319641113,44.33200454711914,72.72731018066406,2.863963822399697,-2.3456309580764936,-84.41677050106598,3.6085825,-0.9242269,-1.9760872,36.074017,-33.592796,-3.954433,-27.939497,-12.67413,-5.3903136,7.5481057,-4.392748,4.5021343,-10.612839,-4.6730566,12.904064,-23.556389,15.42942,-51.803368,60.496136,-4.613365,-2.4018388,12.548881,0.0861664,-14.811247,11.112665,62.15892,-5.80206,-7.6439323,0.76735204
58,5.133951663970947,45.08872604370117,72.67306518554688,3.0566015497723322,-2.6475368908099237,-84.01101298466705,3.0471256,-1.3550007,-2.1928217,36.336063,-33.845398,-3.8833568,-27.666811,-13.3274975,-6.132041,6.8872485,-4.7627134,5.4571486,-10.868135,-5.076611,13.337342,-23.7827,15.557889,-52.101574,60.84688,-4.8373566,-2.3597085,12.3954735,0.21014471,-14.334826,10.433011,61.878334,-6.053967,-7.7529874,0.29626182
59,5.215641975402832,45.84024429321289,72.653564453125,3.228456774745664,-2.934675231305962,-83.66899847129466,2.5087457,-1.7631918,-2.3604434,36.561855,-33.95726,-3.7960696,-27.587225,-13.938501,-6.823129,6.7835636,-5.2178073,6.415363,-11.052213,-5.4374595,13.727077,-23.945621,15.655423,-52.36994,61.251568,-5.0455523,-2.290322,12.222279,0.324421,-13.849193,9.818047,61.676388,-6.3407564,-7.7979465,-0.15518104
60,5.306298732757568,46.61271667480469,72.6753921508789,3.3488670832764376,-3.106110994969267,-83.46447699271818,1.8765376,-2.0939605,-2.426291,36.757725,-33.922737,-3.6937683,-27.535929,-14.381147,-7.385706,6.728904,-5.368802,7.1461005,-11.1102495,-5.7055864,14.015449,-24.06595,15.716386,-52.570732,61.71186,-5.227612,-2.210674,12.046812,0.36991644,-13.3931265,9.354079,61.567867,-6.57994,-7.8211946,-0.51100814
61,5.405279159545898,47.37918472290039,72.74078369140625,3.4154728190833237,-3.105398370277676,-83.42862686384035,1.0802869,-2.3477752,-2.3686182,36.93699,-33.712147,-3.5598369,-27.565155,-14.639577,-7.8400307,6.719985,-5.1401563,7.5921073,-11.020856,-5.845335,14.167998,-24.157997,15.734205,-52.705437,62.23166,-5.3955584,-2.1268306,11.855662,0.34518486,-12.993623,9.056117,61.537495,-6.7256985,-7.8107324,-0.75184846
62,5.513607978820801,48.118446350097656,72.84767150878906,3.430462090327197,-2.9883135143544695,-83.52399706773141,0.18703027,-2.5348077,-2.2139854,37.09598,-33.343002,-3.39826,-27.62065,-14.752236,-8.243447,6.7434783,-4.6142244,7.858675,-10.815845,-5.86332,14.220724,-24.206854,15.705279,-52.77889,62.80507,-5.546532,-2.0300725,11.645904,0.28956005,-12.652502,8.884772,61.56867,-6.8202653,-7.7527723,-0.9101168
63,5.619311332702637,48.8476676940918,72.98651885986328,3.3802803815914944,-2.827296185377876,-83.7182756636633,-0.7099487,-2.619344,-1.9879975,37.214466,-32.8695,-3.240796,-27.623135,-14.705017,-8.521317,6.8001695,-3.92782,7.9584274,-10.525071,-5.777096,14.224161,-24.19085,15.631801,-52.76851,63.41661,-5.6600575,-1.91583,11.449818,0.20940433,-12.368339,8.844737,61.672085,-6.915567,-7.687725,-0.9876783
64,5.7208170890808105,49.57199478149414,73.14974975585938,3.250451269496741,-2.6995947056196257,-83.97512594693036,-1.5145819,-2.569395,-1.7224435,37.27283,-32.348076,-3.1216347,-27.485426,-14.4901705,-8.598925,6.881355,-3.2098293,7.9119515,-10.184648,-5.6103883,14.231838,-24.079659,15.521148,-52.642536,64.04254,-5.707618,-1.7793204,11.299204,0.108197585,-12.136949,8.945299,61.86024,-7.0620975,-7.6557426,-0.9870099
65,5.807013034820557,50.28239059448242,73.3399658203125,3.0337970008457193,-2.6168804158248733,-84.31333523487659,-2.2191718,-2.3622377,-1.4045054,37.288883,-31.773256,-3.0530381,-27.545351,-14.1153145,-8.309758,7.722575,-2.8549798,7.651161,-9.783152,-5.3600163,14.249207,-23.862246,15.378674,-52.387863,64.694305,-5.6630826,-1.6214547,11.183403,-0.029677264,-11.961698,9.239385,62.176064,-7.2484455,-7.6859508,-0.87753063
66,5.885321617126465,50.976192474365234,73.55091094970703,2.7631348744454076,-2.561000895765394,-84.72503466961209,-2.8450246,-2.0513558,-1.0416149,37.254047,-31.114655,-3.0111594,-28.594433,-13.709105,-7.5390763,10.917633,-3.6388645,7.2199016,-9.330388,-5.0468154,14.25823,-23.545586,15.2078495,-52.015408,65.365486,-5.542986,-1.4432322,11.089605,-0.1991359,-11.84236,9.71196,62.60163,-7.45319,-7.751362,-0.66790545
67,5.950318813323975,51.651126861572266,73.77679443359375,2.4849929076664834,-2.5632421999264112,-85.13520966949463,-3.3451338,-1.7144845,-0.6943803,37.11783,-30.39407,-2.9794295,-29.471489,-13.2141285,-6.7075214,14.098822,-4.3330035,6.8055606,-8.890104,-4.7256126,14.281233,-23.139198,15.017664,-51.556026,66.01253,-5.409876,-1.242922,11.046517,-0.3666356,-11.763834,10.265281,63.058388,-7.7162104,-7.808177,-0.42064354
68,6.000213623046875,52.31240463256836,74.00824737548828,2.226425865804196,-2.6411306928762968,-85.48131311778661,-3.6897008,-1.4040173,-0.41301444,36.8371,-29.637804,-2.945939,-30.107021,-12.726507,-5.9572206,17.147482,-4.9119987,6.567993,-8.51071,-4.4351325,14.335585,-22.648281,14.81858,-51.03019,66.5898,-5.311097,-1.0170491,11.084368,-0.5038656,-11.706794,10.796116,63.47168,-8.082856,-7.8126397,-0.20087479
69,6.035101413726807,52.95272445678711,74.24907684326172,1.974783420775545,-2.820875829374901,-85.77031250794249,-3.8274422,-1.104678,-0.19247866,36.378857,-28.849854,-2.91052,-30.480831,-12.23816,-5.263009,20.111635,-5.400981,6.5675745,-8.184465,-4.174264,14.444653,-22.051693,14.615171,-50.408745,67.087395,-5.238599,-0.74155796,11.243864,-0.6158717,-11.662904,11.321388,63.85099,-8.654936,-7.7455835,0.0009178408
70,6.065870761871338,53.58401107788086,74.4960708618164,1.716454476326224,-3.0843477250704017,-86.02879233024207,-3.7926037,-0.79420197,-0.0082369475,35.778217,-28.020084,-2.8801064,-30.671064,-11.705795,-4.560706,23.116638,-5.858102,6.7136784,-7.8914943,-3.9251785,14.594799,-21.352873,14.409786,-49.691284,67.52067,-5.174331,-0.4247499,11.498062,-0.71997535,-11.631529,11.880944,64.23235,-9.38234,-7.6342864,0.20881
71,6.090117454528809,54.19308090209961,74.74419403076172,1.463556855993604,-3.3690391956778236,-86.23532509434717,-3.7013066,-0.49211243,0.12550291,35.10506,-27.159786,-2.8570583,-30.744633,-11.176787,-3.9301717,26.11386,-6.2884917,6.9134836,-7.6476026,-3.6855097,14.740715,-20.601627,14.211389,-48.95834,67.88718,-5.165687,-0.11230047,11.777634,-0.80732477,-11.606681,12.401064,64.58128,-10.085435,-7.502751,0.37824115
72,6.101057052612305,54.794288635253906,74.99571228027344,1.2202285512025801,-3.6114816145517326,-86.36913158608114,-3.6686497,-0.21800576,0.19325054,34.425774,-26.27834,-2.8435073,-30.776731,-10.712644,-3.444395,29.070086,-6.693834,7.0650625,-7.462203,-3.4550898,14.837677,-19.849943,14.032342,-48.302097,68.18709,-5.265858,0.14724815,12.013722,-0.8649309,-11.576497,12.799917,64.86016,-10.587877,-7.373283,0.4634703
73,6.104039669036865,55.401123046875,75.24849700927734,0.9817878103813973,-3.7930025221284245,-86.4252285698938,-3.718286,0.036061935,0.18693623,33.739773,-25.363384,-2.8434613,-30.78753,-10.341558,-3.1211054,32.001343,-7.0585537,7.139649,-7.336363,-3.2307527,14.871779,-19.087038,13.882328,-47.715797,68.40131,-5.528719,0.3529511,12.223824,-0.89494187,-11.531176,13.057037,65.06984,-10.851255,-7.2367635,0.42886823
74,6.0919036865234375,56.007659912109375,75.4926986694336,0.7395050293513168,-3.9434035039806363,-86.41827266617314,-3.7957826,0.28223342,0.11782592,33.01797,-24.414898,-2.856031,-30.748608,-10.049272,-2.9090726,34.93853,-7.394633,7.1703725,-7.2595277,-3.0149236,14.866227,-18.288145,13.76501,-47.15997,68.52815,-5.911152,0.5254357,12.433518,-0.9078167,-11.470268,13.210876,65.232086,-10.971504,-7.0848064,0.30338198
75,6.074390888214111,56.6174430847168,75.72319793701172,0.5071533012797619,-4.07240754137037,-86.35662243809978,-3.9009655,0.50497496,-0.0028590043,32.288006,-23.462942,-2.8743246,-30.660875,-9.836399,-2.7754946,37.86531,-7.7445292,7.147745,-7.2217097,-2.8178966,14.829819,-17.48578,13.684617,-46.69163,68.58983,-6.3320284,0.6582128,12.58709,-0.90294725,-11.39882,13.269663,65.34209,-10.970657,-6.9403915,0.1366905
76,6.055672645568848,57.218711853027344,75.93930053710938,0.29840728173877445,-4.190001783467915,-86.24844534394303,-4.0323067,0.68914527,-0.16364737,31.576107,-22.536957,-2.8915436,-30.525822,-9.69407,-2.6917021,40.764893,-8.150893,7.069195,-7.208005,-2.647276,14.77327,-16.712769,13.644743,-46.371815,68.60709,-6.7084465,0.74611557,12.628105,-0.8722522,-11.325937,13.233815,65.38655,-10.87263,-6.827187,-0.01902804
77,6.0251569747924805,57.82487869262695,76.13870239257812,0.11161173541187562,-4.291266838679847,-86.08359424171829,-4.194932,0.83186686,-0.37434492,30.877462,-21.635317,-2.9048543,-30.356863,-9.648188,-2.6841028,43.673096,-8.646175,6.904696,-7.2262554,-2.502691,14.690896,-15.972521,13.645714,-46.2182,68.580055,-7.063081,0.7782218,12.520931,-0.80995774,-11.2486,13.067916,65.35836,-10.634191,-6.7542906,-0.16359769
78,5.984133720397949,58.42618179321289,76.32183074951172,-0.058570513373811646,-4.3719448962969985,-85.8629955586764,-4.3873053,0.94273704,-0.6366508,30.178724,-20.74383,-2.918753,-30.150927,-9.702004,-2.7505815,46.59156,-9.204273,6.6578393,-7.273878,-2.376261,14.5813465,-15.247734,13.690773,-46.202534,68.493164,-7.426774,0.7638871,12.301465,-0.7137954,-11.16962,12.7764635,65.25572,-10.259627,-6.70948,-0.31777328
79,5.946828842163086,59.01966094970703,76.48738861083984,-0.2119561044262535,-4.442960613685675,-85.61154537957823,-4.601466,1.0252901,-0.92635053,29.50236,-19.877655,-2.9371176,-29.88485,-9.799678,-2.8249426,49.451992,-9.780453,6.3859463,-7.3336234,-2.2734742,14.455888,-14.542906,13.778362,-46.302395,68.37049,-7.7234254,0.7219118,12.021201,-0.6019487,-11.094018,12.4374,65.1004,-9.8436985,-6.6829195,-0.468146
80,5.904552936553955,59.616607666015625,76.62871551513672,-0.34674717415600137,-4.515699402781732,-85.35454280145244,-4.8264036,1.0842528,-1.2189894,28.864758,-19.048618,-2.9643662,-29.538897,-9.879018,-2.8445969,52.190533,-10.330882,6.1506834,-7.387638,-2.1979804,14.325288,-13.859421,13.904849,-46.490215,68.229225,-7.870928,0.6746354,11.732721,-0.49067378,-11.030918,12.129804,64.91179,-9.479443,-6.66426,-0.6004023
81,5.848211288452148,60.20264434814453,76.75322723388672,-0.46246912761584585,-4.590407613360938,-85.08942427312137,-5.0564375,1.1175659,-1.5173298,28.256128,-18.25563,-3.0037851,-29.113369,-9.935731,-2.8044405,54.821484,-10.860572,5.9641504,-7.441169,-2.150082,14.186037,-13.198088,14.070522,-46.79498,68.0681,-7.833154,0.62046134,11.421985,-0.3705202,-10.985528,11.856108,64.669685,-9.177295,-6.6478825,-0.70830023
82,5.789056777954102,60.79111862182617,76.85640716552734,-0.5590148759709768,-4.661710337653342,-84.80659590086591,-5.2989917,1.125895,-1.831697,27.67313,-17.494183,-3.0527575,-28.619482,-9.99416,-2.735648,57.375664,-11.393438,5.7977195,-7.501108,-2.1246846,14.034383,-12.556839,14.276267,-47.215645,67.87925,-7.656571,0.5488461,11.0705595,-0.23523293,-10.95871,11.582843,64.36886,-8.89027,-6.639901,-0.79864526
83,5.732779026031494,61.38483428955078,76.93858337402344,-0.6453239697160438,-4.731678272009222,-84.51963634202163,-5.562506,1.1196434,-2.149475,27.138672,-16.767088,-3.1065812,-28.053165,-10.02886,-2.6364553,59.810078,-11.901793,5.6548653,-7.5559597,-2.1123471,13.881753,-11.934684,14.517057,-47.683266,67.66975,-7.388328,0.46594432,10.724312,-0.10408583,-10.950042,11.33706,64.04857,-8.624585,-6.6471376,-0.87566304
84,5.669703483581543,61.969791412353516,77.00921630859375,-0.7254073886497298,-4.802360747778646,-84.24192594646978,-5.8573523,1.1078184,-2.4580433,26.67856,-16.082943,-3.1603782,-27.410698,-10.013401,-2.5053618,62.080357,-12.359808,5.5403805,-7.5973516,-2.105267,13.738041,-11.329317,14.784416,-48.120815,67.45005,-7.0689707,0.37859812,10.429317,-0.00056769786,-10.961538,11.149603,63.753036,-8.386427,-6.6761193,-0.9449675
85,5.604920387268066,62.55794906616211,77.05860137939453,-0.8042043552692196,-4.877180374725366,-83.97283082140312,-6.1857,1.0946134,-2.75933,26.30512,-15.445328,-3.2202032,-26.687061,-9.93979,-2.3471642,64.19216,-12.763642,5.4535522,-7.629304,-2.0989587,13.603761,-10.741536,15.073745,-48.526997,67.22234,-6.65241,0.2789474,10.18031,0.07171001,-10.995714,11.035365,63.48521,-8.182659,-6.7355986,-1.007629
86,5.534771919250488,63.14054870605469,77.09385681152344,-0.8786249821216423,-4.953991871819925,-83.7068134236498,-6.5424423,1.07448,-3.0581133,26.002533,-14.849635,-3.2863894,-25.887663,-9.817682,-2.1636782,66.1687,-13.128029,5.3955784,-7.6559935,-2.09709,13.473186,-10.174465,15.383475,-48.933823,66.98786,-6.1333756,0.16540049,9.959585,0.12288243,-11.0538225,10.979076,63.226517,-8.00663,-6.819473,-1.060675
87,5.470025539398193,63.72886276245117,77.11245727539062,-0.9417284289786607,-5.027169201154175,-83.45030419222614,-6.9278545,1.0417262,-3.3455853,25.757948,-14.289397,-3.345305,-25.026003,-9.645139,-1.9496375,67.99129,-13.453046,5.374283,-7.669048,-2.10135,13.347288,-9.631509,15.707771,-49.320045,66.75669,-5.6202793,0.055601854,9.79341,0.15268072,-11.133175,10.965783,62.98529,-7.8437395,-6.911956,-1.102916
88,5.394063949584961,64.32193756103516,77.11634826660156,-0.9875020056681529,-5.091016445504517,-83.20975485614433,-7.342048,0.991415,-3.6128113,25.557867,-13.757732,-3.3832653,-24.115477,-9.42077,-1.6997933,69.64031,-13.739336,5.3973174,-7.6611214,-2.1140356,13.226449,-9.116897,16.03817,-49.66172,66.54321,-5.219202,-0.03204322,9.70789,0.15844485,-11.228955,10.982672,62.773323,-7.6786304,-6.9980683,-1.1340641
89,5.318106651306152,64.90957641601562,77.10826110839844,-1.0148281527591863,-5.142822742737263,-82.98691536926123,-7.790795,0.9223967,-3.8580556,25.409664,-13.258916,-3.3929212,-23.156979,-9.131615,-1.404632,71.1128,-13.9735985,5.477276,-7.631206,-2.1373243,13.108239,-8.632969,16.367903,-49.961956,66.35535,-4.9514265,-0.09512524,9.742515,0.13755275,-11.340868,11.035214,62.59013,-7.5053897,-7.078731,-1.1530635
90,5.237912178039551,65.49186706542969,77.0910415649414,-1.0273386091029844,-5.186577058976297,-82.77853320277603,-8.271527,0.8375421,-4.085098,25.315516,-12.793522,-3.3826468,-22.14599,-8.780164,-1.0716242,72.421684,-14.161173,5.607512,-7.58143,-2.1693664,12.991875,-8.183145,16.693436,-50.23453,66.19683,-4.7634315,-0.14202273,9.872619,0.09095982,-11.470016,11.126568,62.43341,-7.3327403,-7.1604457,-1.1611271
91,5.15880012512207,66.09767150878906,77.0608139038086,-1.0238853841713433,-5.22553177875868,-82.58333592824793,-8.774127,0.73711705,-4.293015,25.260593,-12.353712,-3.3625922,-21.087645,-8.387998,-0.7188755,73.57207,-14.330368,5.7686377,-7.5085316,-2.207388,12.880064,-7.7718377,17.010843,-50.46569,66.07386,-4.6446495,-0.1702379,10.027257,0.02420447,-11.6114855,11.238311,62.308853,-7.169459,-7.2346597,-1.1616654
92,5.082233428955078,66.71058654785156,77.01919555664062,-1.0030829510453767,-5.2632706535128015,-82.40000247932161,-9.286844,0.62172997,-4.4810452,25.22502,-11.928159,-3.343051,-19.987198,-7.9802737,-0.3639743,74.566216,-14.507237,5.9373,-7.4092736,-2.2503371,12.774818,-7.4046683,17.31644,-50.644875,65.99506,-4.5874043,-0.17787223,10.135674,-0.058689665,-11.757709,11.352162,62.2249,-7.0250926,-7.2928505,-1.1591759
93,5.000140190124512,67.30851745605469,76.96504211425781,-0.9545819056934866,-5.302270521876882,-82.22623361938754,-9.80879,0.47961515,-4.6492925,25.210262,-11.514315,-3.3161833,-18.841894,-7.5514736,0.017449478,75.41234,-14.707611,6.1195936,-7.281169,-2.3091335,12.677003,-7.0882463,17.607222,-50.770973,65.96889,-4.6153073,-0.16015126,10.183567,-0.15967172,-11.903963,11.459137,62.18841,-6.895625,-7.3321548,-1.1604984
94,4.915684700012207,67.91498565673828,76.90524291992188,-0.8827925460986618,-5.340579491106634,-82.06362978731791,-10.344717,0.31436858,-4.7973795,25.22298,-11.117045,-3.2801676,-17.6508,-7.095341,0.4264787,76.10778,-14.914571,6.321196,-7.125115,-2.3834407,12.584216,-6.820849,17.881124,-50.85176,65.99673,-4.723825,-0.12007301,10.207466,-0.28151923,-12.050796,11.569086,62.197495,-6.7796946,-7.357359,-1.1631498
95,4.828610897064209,68.52094268798828,76.83412170410156,-0.8055877906969813,-5.374508809162026,-81.9159424469367,-10.893817,0.15081434,-4.924689,25.256618,-10.739398,-3.2545416,-16.426424,-6.636065,0.813125,76.64421,-15.1066065,6.5173316,-6.943222,-2.454235,12.494107,-6.594266,18.1364,-50.88907,66.074066,-4.86388,-0.06728262,10.213108,-0.42101198,-12.197394,11.692572,62.24605,-6.6901627,-7.371449,-1.157196
96,4.740490913391113,69.11865234375,76.75553131103516,-0.739453135719909,-5.400512830162401,-81.78773350833568,-11.453755,0.013155841,-5.030832,25.301548,-10.383063,-3.2587483,-15.181788,-6.198079,1.1295222,77.01183,-15.26055,6.683067,-6.737712,-2.5038888,12.403659,-6.4020205,18.372036,-50.8871,66.198166,-4.989033,-0.011474521,10.20613,-0.57624406,-12.343585,11.840997,62.32958,-6.6399493,-7.3774424,-1.133269
97,4.649076461791992,69.72459411621094,76.6683578491211,-0.6880809267615418,-5.419634316684467,-81.68117933090302,-12.023866,-0.09361337,-5.117291,25.363228,-10.057948,-3.3127031,-13.914028,-5.7714787,1.3816614,77.21386,-15.356602,6.810067,-6.504385,-2.5288591,12.312085,-6.240598,18.586435,-50.840073,66.37858,-5.08006,0.04423229,10.180389,-0.7447506,-12.487837,12.014927,62.458347,-6.6519365,-7.382428,-1.0863137
98,4.553905963897705,70.32461547851562,76.58013916015625,-0.6427405351821968,-5.432906505645838,-81.59399750084546,-12.605752,-0.1820672,-5.184113,25.444286,-9.760414,-3.40124,-12.622025,-5.3509436,1.5943567,77.255196,-15.409941,6.9098206,-6.243785,-2.5399754,12.219799,-6.1152987,18.778755,-50.74979,66.61698,-5.165692,0.105138205,10.135577,-0.9290092,-12.630526,12.209576,62.63223,-6.713464,-7.3827996,-1.0226017
99,4.459724426269531,70.92615509033203,76.48815155029297,-0.6013209226281045,-5.436465938462565,-81.52323924866396,-13.2017765,-0.2537243,-5.228899,25.53169,-9.471534,-3.4909878,-11.322905,-4.9668517,1.7486104,77.12811,-15.44938,6.9876175,-5.964588,-2.538143,12.126384,-6.026797,18.949162,-50.623425,66.8912,-5.2616663,0.17423716,10.0856285,-1.1314715,-12.771982,12.429164,62.827312,-6.781469,-7.3651547,-0.9486347
100,4.357669353485107,71.53652954101562,76.39268493652344,-0.5609819707091964,-5.426245037827385,-81.46624557408803,-13.815212,-0.309885,-5.248925,25.615095,-9.173691,-3.5483546,-10.033914,-4.6482706,1.8239844,76.82453,-15.503551,7.048881,-5.675457,-2.5249205,12.031207,-5.9761515,19.098948,-50.469223,67.17999,-5.3856707,0.2544788,10.0446615,-1.3566263,-12.914587,12.67839,63.02203,-6.8124695,-7.316197,-0.871189
101,4.252490520477295,72.15037536621094,76.29566192626953,-0.5258794548708078,-5.393771167536757,-81.42420367690231,-14.462691,-0.34609622,-5.2367916,25.709002,-8.87144,-3.5592287,-8.7605295,-4.4087043,1.8018695,76.34198,-15.581367,7.0958548,-5.3742566,-2.4954438,11.92642,-5.967125,19.229008,-50.288082,67.48841,-5.555879,0.3475199,10.007545,-1.6051967,-13.058339,12.957537,63.215412,-6.785976,-7.2136374,-0.7981646
102,4.143670082092285,72.76818084716797,76.19692993164062,-0.4931936966583921,-5.343464416486543,-81.39822976143276,-15.137944,-0.36216724,-5.1960373,25.814669,-8.572013,-3.5429986,-7.494491,-4.227414,1.6985695,75.68559,-15.667186,7.126598,-5.057474,-2.4505415,11.814663,-5.9966316,19.3395,-50.07488,67.822556,-5.7575946,0.45173487,9.969937,-1.8742352,-13.202374,13.265206,63.41579,-6.7275414,-7.07044,-0.7237661
103,4.034903049468994,73.4034194946289,76.0904312133789,-0.4618672554813881,-5.290384885542369,-81.38523594834739,-15.808839,-0.36654714,-5.13988,25.897484,-8.25859,-3.515637,-6.232261,-4.0835567,1.5440234,74.85851,-15.751976,7.1390758,-4.7325416,-2.3988073,11.711617,-6.0561705,19.431263,-49.831177,68.16106,-5.9618263,0.5647685,9.94681,-2.163774,-13.348674,13.601101,63.617786,-6.665253,-6.928009,-0.6335789
104,3.9255876541137695,74.03001403808594,75.99090576171875,-0.42830820067598485,-5.24989854170703,-81.38233053418021,-16.445148,-0.3678002,-5.0817823,25.92681,-7.9168096,-3.4931216,-4.970502,-3.956453,1.3684071,73.86525,-15.8282385,7.1312385,-4.40699,-2.3476152,11.633512,-6.136582,19.505276,-49.556408,68.4832,-6.137165,0.6823437,9.952503,-2.47038,-13.500343,13.966222,63.80731,-6.6257677,-6.823805,-0.5119666
105,3.8142285346984863,74.65837860107422,75.89153289794922,-0.392001550008124,-5.22967452106656,-81.38606863402076,-17.037544,-0.368247,-5.025292,25.900442,-7.53563,-3.475909,-3.6970634,-3.8416567,1.1714013,72.704926,-15.910899,7.082721,-4.082018,-2.2961206,11.586405,-6.238516,19.562317,-49.251137,68.79108,-6.2848907,0.81398493,9.991818,-2.792228,-13.660346,14.370376,63.986984,-6.621098,-6.772866,-0.34152564
106,3.699249029159546,75.30167388916016,75.78248596191406,-0.3565121019482045,-5.220252866068269,-81.39771401805973,-17.605545,-0.36414376,-4.963731,25.83589,-7.1255684,-3.456345,-2.4176252,-3.7461643,0.9378275,71.37847,-16.000181,7.003676,-3.7554457,-2.239644,11.56153,-6.3646803,19.602848,-48.914482,69.091774,-6.4187365,0.9570929,10.056551,-3.1306555,-13.828829,14.811628,64.15905,-6.6333976,-6.7530894,-0.13398334
107,3.588770627975464,75.95088958740234,75.67039489746094,-0.31756199560822923,-5.211447251176052,-81.42464775055277,-18.15621,-0.35383773,-4.8937173,25.727797,-6.7059593,-3.437807,-1.1528041,-3.6660872,0.67779154,69.888504,-16.067163,6.9351883,-3.4260428,-2.1773148,11.552524,-6.5063787,19.628143,-48.54299,69.36187,-6.5241346,1.0981308,10.142279,-3.4855444,-14.0022955,15.268395,64.31179,-6.6488585,-6.7485323,0.08243978
108,3.4767415523529053,76.609130859375,75.55510711669922,-0.2729473066144289,-5.193083876934964,-81.47281070733047,-18.695786,-0.33514753,-4.8118644,25.566296,-6.292021,-3.4242647,0.076005794,-3.6007082,0.39926806,68.23658,-16.08014,6.916687,-3.092983,-2.1114492,11.552228,-6.65712,19.640762,-48.138294,69.58002,-6.590453,1.2235514,10.24455,-3.860166,-14.177859,15.72087,64.43841,-6.6524305,-6.7436337,0.27846843
109,3.3604283332824707,77.26885986328125,75.43579864501953,-0.2200755786086098,-5.16331767893191,-81.54318625225619,-19.22473,-0.31032786,-4.7227917,25.35162,-5.8841577,-3.4157927,1.2683194,-3.5270517,0.1284134,66.410645,-15.925011,7.0156064,-2.7549558,-2.04194,11.557076,-6.8129816,19.642298,-47.69182,69.74036,-6.5937023,1.3381612,10.368634,-4.2507796,-14.353061,16.1637,64.53604,-6.643606,-6.734804,0.4524685
110,3.235665798187256,77.94222259521484,75.31263732910156,-0.16349780670509548,-5.127361359619043,-81.63257489290463,-19.739107,-0.27876267,-4.6262555,25.086048,-5.474134,-3.4108143,2.4357271,-3.4531093,-0.14846076,64.41301,-15.653476,7.19018,-2.4126635,-1.9689759,11.57096,-6.9776564,19.634039,-47.208168,69.853745,-6.5491157,1.4467196,10.514557,-4.6591396,-14.528044,16.607904,64.611404,-6.6299257,-6.730238,0.6171408
111,3.1080005168914795,78.62004852294922,75.19047546386719,-0.10274363148251707,-5.0856108351689375,-81.74196015642303,-20.241535,-0.23433363,-4.5145845,24.771723,-5.0710235,-3.4115653,3.5757184,-3.4199882,-0.4808302,62.266994,-15.488437,7.3218617,-2.0672073,-1.8927798,11.599829,-7.1519985,19.618053,-46.698288,69.918495,-6.494425,1.5356514,10.669481,-5.0919485,-14.701839,17.054457,64.66638,-6.609058,-6.7315454,0.7661671
112,2.9767181873321533,79.31804656982422,75.06340789794922,-0.04056618184814031,-5.038591986223233,-81.87163800545149,-20.736311,-0.17050856,-4.3800554,24.413483,-4.6848392,-3.4203696,4.685102,-3.4656944,-0.9212897,59.997166,-15.652881,7.2940817,-1.7196429,-1.8138543,11.649329,-7.3392496,19.597284,-46.179287,69.93441,-6.4732094,1.5914229,10.8210745,-5.5563354,-14.873561,17.504272,64.70396,-6.579194,-6.7403946,0.8929293
113,2.8401894569396973,80.02533721923828,74.9341812133789,0.029618185229921244,-4.980750326428644,-82.01588658506965,-21.230797,-0.09665028,-4.2225494,24.011213,-4.3154078,-3.4339616,5.7746835,-3.617663,-1.5112708,57.57177,-16.203217,7.0256624,-1.374169,-1.7380979,11.712532,-7.5365505,19.573914,-45.64017,69.896324,-6.4978824,1.6108817,10.969993,-6.050944,-15.041591,17.958588,64.723366,-6.5457706,-6.7607203,0.99317837
114,2.702608346939087,80.74091339111328,74.80052947998047,0.10551594678378419,-4.91399093489059,-82.17634769732648,-21.72099,-0.010409689,-4.0459323,23.564806,-3.9595065,-3.452821,6.847711,-3.836758,-2.2165804,54.989883,-17.025675,6.603876,-1.0291114,-1.6626467,11.789756,-7.741297,19.54923,-45.076267,69.80263,-6.544452,1.6014583,11.121445,-6.574055,-15.20516,18.417723,64.724655,-6.5073266,-6.790342,1.0711386
115,2.5535027980804443,81.4859848022461,74.65177154541016,0.17280174713371516,-4.850504470373134,-82.3656054034745,-22.190357,0.11163262,-3.8516037,23.074009,-3.62045,-3.4856205,7.8872366,-4.059258,-2.9715266,52.322536,-18.086514,6.167876,-0.675833,-1.5737395,11.897516,-7.9575686,19.52459,-44.513813,69.65889,-6.600475,1.5644586,11.269589,-7.131173,-15.365256,18.878622,64.71059,-6.4541783,-6.822224,1.1331414
116,2.402033567428589,82.23684692382812,74.50070190429688,0.21817366797627882,-4.802165235792755,-82.59591951315453,-22.623785,0.29177183,-3.6395378,22.540627,-3.3026965,-3.540243,8.87708,-4.231753,-3.712193,49.6275,-19.344496,5.8499765,-0.30396506,-1.4575949,12.051892,-8.189177,19.500576,-43.977913,69.469864,-6.651129,1.501437,11.408411,-7.7259483,-15.523537,19.336697,64.681946,-6.3753824,-6.849293,1.1860315
117,2.2506773471832275,83.0066909790039,74.34052276611328,0.26109345842260073,-4.7747289617094095,-82.86790417753133,-23.010782,0.5091594,-3.4022627,21.95486,-2.975624,-3.621414,9.891401,-4.3849635,-4.455671,46.735786,-20.917946,5.7003503,0.095619746,-1.3319604,12.255783,-8.445187,19.478355,-43.48947,69.23395,-6.7084236,1.4072654,11.530518,-8.3496475,-15.6789,19.778723,64.625786,-6.272607,-6.8602967,1.2199891
118,2.0953609943389893,83.78913116455078,74.1825942993164,0.3032832033021541,-4.760714169108231,-83.17639363867318,-23.360348,0.76101744,-3.1424656,21.317345,-2.6466901,-3.7242782,10.917123,-4.534003,-5.226589,43.659115,-22.77426,5.6419177,0.51758784,-1.1956404,12.4998255,-8.7224655,19.458225,-43.03434,68.94947,-6.7768135,1.28313,11.640781,-9.001429,-15.830935,20.208506,64.54475,-6.1509757,-6.8621707,1.2355616
119,1.9290891885757446,84.57005310058594,74.03932189941406,0.2994471337252532,-4.752089714512157,-83.52521299822385,-23.681072,1.0940142,-2.87264,20.63509,-2.3718195,-3.8419335,11.805338,-4.614788,-5.970363,40.721012,-24.641306,5.614689,0.94936156,-1.0082603,12.781105,-9.004921,19.438093,-42.57976,68.621,-6.8262954,1.1399083,11.751701,-9.698327,-15.982703,20.649935,64.46132,-6.0027843,-6.874737,1.2558206
120,1.7626020908355713,85.36310577392578,73.91081237792969,0.209786326511742,-4.741674083940641,-83.9186348637839,-23.981073,1.5552511,-2.6060202,19.912876,-2.204877,-3.967751,12.398454,-4.56611,-6.626863,38.262547,-26.257828,5.561039,1.3762611,-0.72947615,13.095881,-9.275365,19.414513,-42.089607,68.25298,-6.825055,0.9886358,11.876081,-10.458517,-16.139683,21.127558,64.39838,-5.8215337,-6.91769,1.3041363
121,1.603737711906433,86.18048858642578,73.7768783569336,0.003844861061597192,-4.7410163719457765,-84.36073788158562,-24.270823,2.1733859,-2.3787253,19.181704,-2.155671,-4.1391306,12.648928,-4.368988,-7.2275147,36.38462,-27.590332,5.4750657,1.7991669,-0.3284551,13.466223,-9.556409,19.389584,-41.573586,67.84335,-6.7650666,0.83518016,12.007305,-11.300533,-16.303513,21.645956,64.348045,-5.583141,-6.997573,1.385547
122,1.434160590171814,87.01715087890625,73.66032409667969,-0.2865581399982442,-4.751661086941493,-84.84863155807881,-24.540895,2.9176338,-2.171615,18.426167,-2.1947496,-4.3460875,12.639746,-4.0652795,-7.7885942,34.902096,-28.768162,5.3875294,2.2221627,0.1676954,13.884626,-9.845825,19.364546,-41.04081,67.388245,-6.660806,0.6727779,12.141777,-12.209427,-16.472088,22.192642,64.29812,-5.29781,-7.102891,1.4895213
123,1.2534101009368896,87.87371826171875,73.56192779541016,-0.6180308675726316,-4.751875143370163,-85.37506444067677,-24.775547,3.7454212,-1.9152706,17.59444,-2.32264,-4.511627,12.4010105,-3.6887848,-8.223862,33.75084,-29.789429,5.288405,2.6343336,0.71328324,14.305002,-10.094064,19.331366,-40.460262,66.89521,-6.5203896,0.49332038,12.297592,-13.154304,-16.644716,22.772629,64.26472,-5.0047493,-7.2262483,1.6163427
124,1.081308126449585,88.73951721191406,73.48506164550781,-0.9502417897841335,-4.719087423966834,-85.93297321348456,-24.956839,4.6129413,-1.5398124,16.633146,-2.5394876,-4.560419,11.963188,-3.2746863,-8.445022,32.86743,-30.650787,5.161637,3.0242684,1.2630605,14.682556,-10.255668,19.275787,-39.802425,66.37712,-6.3539476,0.28926894,12.493295,-14.104276,-16.821035,23.392918,64.26465,-4.743679,-7.3602457,1.766198
125,0.9226003885269165,89.60006713867188,73.42291259765625,-1.2950385590364717,-4.628178089159905,-86.54810121195669,-25.092073,5.5384674,-1.0625454,15.487243,-2.8870177,-4.4838986,11.2272005,-2.806789,-8.381247,32.360832,-31.34009,4.9734454,3.4034326,1.836949,15.007166,-10.340151,19.183004,-39.045937,65.8458,-6.1570797,0.03417864,12.742203,-15.093216,-17.007006,24.088745,64.321686,-4.5142274,-7.5209823,1.9478142
126,0.787618100643158,90.45567321777344,73.36956024169922,-1.671277094584979,-4.500765727573012,-87.21501666885099,-25.184048,6.5344186,-0.5088681,14.202712,-3.3518085,-4.322786,10.211832,-2.2735085,-8.099062,32.235836,-31.86952,4.73346,3.772265,2.4536748,15.3027525,-10.376761,19.047464,-38.21449,65.30874,-5.928359,-0.25949433,13.033094,-16.12346,-17.202238,24.849169,64.4192,-4.2967014,-7.705738,2.159508
127,0.6831945776939392,91.3044204711914,73.32928466796875,-2.0406011571209572,-4.382406019359214,-87.87936499769003,-25.202436,7.543344,0.1809521,12.866783,-3.852362,-4.078771,9.1211815,-1.7210871,-7.712126,32.272446,-32.269188,4.4889045,4.107473,3.0616636,15.578118,-10.348674,18.86771,-37.33635,64.77675,-5.6672287,-0.5477017,13.345619,-17.11369,-17.3928,25.606983,64.513626,-4.1023307,-7.8800898,2.384019
128,0.5790066719055176,92.12541198730469,73.30282592773438,-2.3611760977489915,-4.314439421132049,-88.48537779968925,-25.128702,8.501336,1.0674742,11.586938,-4.311989,-3.7544596,8.151103,-1.2071018,-7.3292913,32.255234,-32.571907,4.287791,4.383921,3.60103,15.8392315,-10.238293,18.645601,-36.441574,64.26068,-5.374497,-0.7857168,13.659587,-17.987328,-17.560612,26.29187,64.57382,-3.9482665,-8.010286,2.6011577
129,0.4878968596458435,92.92594909667969,73.28624725341797,-2.6188610835601587,-4.329489694859636,-89.03452024874069,-24.884132,9.401366,2.1977327,10.258129,-4.7564645,-3.2545395,7.363417,-0.7490696,-6.9220724,32.151245,-32.80508,4.1592317,4.60216,4.0540605,16.09574,-10.004886,18.375988,-35.501827,63.743835,-5.0303235,-0.95485485,13.992672,-18.732378,-17.698055,26.912243,64.61727,-3.851242,-8.086057,2.805061
130,0.3933776617050171,93.70137023925781,73.28292846679688,-2.8311125384384654,-4.393055248757543,-89.54762254259181,-24.505615,10.253862,3.5333703,8.876744,-5.220786,-2.6209023,6.639928,-0.32867965,-6.450142,32.076916,-32.94905,4.071873,4.7689347,4.443206,16.339054,-9.677657,18.054808,-34.51219,63.23278,-4.639023,-1.080178,14.348578,-19.39241,-17.80527,27.495277,64.66732,-3.804141,-8.12708,3.0029902
131,0.2937116324901581,94.43597412109375,73.29298400878906,-3.007872733892668,-4.446008522077206,-89.9986769558745,-24.12776,11.030881,5.008928,7.655383,-5.621689,-2.0540974,5.9071393,0.05004764,-6.001585,32.03693,-32.962875,3.984407,4.871194,4.769546,16.547846,-9.34462,17.692553,-33.5525,62.774475,-4.2535396,-1.183437,14.686419,-19.980186,-17.87872,28.00262,64.70964,-3.7813346,-8.144732,3.1927826
132,0.18675556778907776,95.16409301757812,73.33675384521484,-3.1625357374666954,-4.432830067886699,-90.36529960789836,-23.963894,11.734049,6.538868,6.974427,-5.957434,-1.743714,5.0993743,0.3938703,-5.6648426,32.027023,-32.801327,3.8567421,4.90348,5.0382586,16.703173,-9.0814295,17.30954,-32.70024,62.405216,-3.9209006,-1.2866089,14.964946,-20.506159,-17.914482,28.385538,64.72737,-3.7621567,-8.150386,3.3728914
133,0.0778610110282898,95.91093444824219,73.42613220214844,-3.3292773074235993,-4.319909693092668,-90.654998469385,-24.108017,12.451739,8.299244,6.968761,-6.1905313,-1.8359464,4.155044,0.7523958,-5.4670534,32.08347,-32.408443,3.6656423,4.870398,5.270708,16.79072,-8.869469,16.918352,-31.915356,62.083992,-3.6515307,-1.3872991,15.164676,-20.99203,-17.912384,28.636574,64.71246,-3.7384987,-8.137398,3.5688572
134,-0.03362036496400833,96.65680694580078,73.55736541748047,-3.4920810266899327,-4.142310652805295,-90.87598606017177,-24.216019,13.139172,10.311183,6.976628,-6.087331,-2.1825728,3.126371,1.1104882,-5.365694,32.192738,-31.822754,3.438228,4.7729445,5.4527364,16.826473,-8.664953,16.52312,-31.17249,61.788216,-3.42096,-1.4761628,15.308794,-21.43109,-17.8746,28.775904,64.6783,-3.724857,-8.103445,3.7721424
135,-0.1476169377565384,97.40397644042969,73.72293853759766,-3.5909323124405566,-3.947850649755115,-91.00828145162369,-24.247034,13.661524,12.170375,7.005286,-5.790318,-2.5216646,2.121716,1.3813958,-5.3422604,32.269444,-31.137424,3.20673,4.6045504,5.540494,16.837458,-8.506452,16.136688,-30.582317,61.58267,-3.2329104,-1.5652862,15.421299,-21.78563,-17.799582,28.793013,64.634476,-3.7322872,-8.066098,3.9301956
136,-0.2675730586051941,98.14508819580078,73.90936279296875,-3.569283102299408,-3.7862349990968793,-91.03319886582877,-24.347254,13.936745,13.426232,7.4402866,-5.6533074,-2.6020124,1.2498801,1.4843019,-5.37065,32.229893,-30.446396,3.0025835,4.3654227,5.494512,16.850996,-8.433286,15.776318,-30.261227,61.530823,-3.0936525,-1.6662431,15.526284,-22.01532,-17.685843,28.674988,64.588844,-3.7701335,-8.043326,3.9911978
137,-0.3885418474674225,98.88306427001953,74.11673736572266,-3.394440441147557,-3.659132115713558,-90.92506974057841,-24.82653,13.986525,13.878351,8.932904,-6.0401154,-2.2816958,0.51328945,1.3787255,-5.4551234,32.07899,-29.763548,2.8370228,4.0400276,5.2722363,16.872023,-8.455932,15.457023,-30.267836,61.65457,-3.0752194,-1.8048187,15.625845,-22.105986,-17.527771,28.3911,64.53777,-3.85389,-8.045576,3.9449556
138,-0.5065340399742126,99.59484100341797,74.34120178222656,-3.115884578839471,-3.552818529623236,-90.70854299782066,-25.403913,13.828213,13.821827,10.846122,-6.541022,-1.7290647,-0.12785551,1.1381302,-5.596697,31.846117,-29.040497,2.6853716,3.6457536,4.916264,16.891024,-8.539341,15.182296,-30.53502,61.901524,-3.156154,-1.9663309,15.705998,-22.081354,-17.326088,27.95504,64.477486,-3.9729354,-8.062,3.8192537
139,-0.6180009841918945,100.27652740478516,74.58097076416016,-2.804163156879163,-3.494030269915883,-90.44151997901415,-25.956041,13.530876,13.399441,12.944554,-7.04839,-1.1663139,-0.6279807,0.850874,-5.763698,31.482899,-28.275932,2.5292864,3.2295575,4.516303,16.916834,-8.653795,14.947892,-30.98299,62.22287,-3.196088,-2.1010141,15.767904,-21.94951,-17.0897,27.41061,64.4036,-4.1113453,-8.077061,3.620084
140,-0.7219517827033997,100.91825866699219,74.8326416015625,-2.51895324154887,-3.50211636694644,-90.17581883596684,-26.382763,13.157832,12.745176,15.03586,-7.4843903,-0.81240207,-0.95245796,0.58806527,-5.9308195,30.952394,-27.47456,2.355422,2.8324075,4.152173,16.956234,-8.775738,14.74494,-31.53326,62.574974,-3.054648,-2.1593938,15.813368,-21.714243,-16.832825,26.800974,64.307236,-4.252458,-8.075028,3.353533
141,-0.8204091191291809,101.55409240722656,75.08621978759766,-2.263522060657816,-3.5986980007909626,-89.89818808909105,-26.661552,12.674753,11.770004,17.129963,-7.8413095,-0.74511373,-1.0493659,0.347449,-6.1128926,30.21097,-26.632423,2.1558113,2.4439952,3.8292403,17.024437,-8.9227295,14.570536,-32.24747,62.987263,-2.6530783,-2.0993865,15.824957,-21.346363,-16.559052,26.099033,64.1661,-4.4194994,-8.043101,2.989089
142,-0.9079510569572449,102.18209838867188,75.33628845214844,-2.004567628158406,-3.7669819734149215,-89.58892234040364,-26.848705,12.041502,10.450147,19.329306,-8.173085,-0.8547145,-0.95659375,0.09686606,-6.3230014,29.29515,-25.753172,1.9447206,2.0522861,3.5086737,17.1147,-9.102374,14.422482,-33.144253,63.47207,-2.0807822,-1.9574167,15.805914,-20.847784,-16.267344,25.291477,63.9765,-4.6093593,-7.991048,2.5366468
143,-0.9853633046150208,102.80160522460938,75.59536743164062,-1.7487311187315253,-3.961184514782083,-89.28411743971152,-26.977467,11.320646,9.013116,21.604774,-8.498093,-1.0647222,-0.78305584,-0.15387335,-6.5328927,28.294594,-24.854252,1.7414519,1.6844608,3.1951883,17.198483,-9.279579,14.291275,-34.07385,63.963367,-1.4454621,-1.8017577,15.790735,-20.271204,-15.968466,24.448227,63.76014,-4.7658267,-7.9370737,2.061334
144,-1.0519241094589233,103.41155242919922,75.8466796875,-1.500499943557712,-4.135626928566735,-89.0203472578948,-27.086342,10.589333,7.679714,23.93026,-8.836865,-1.2893505,-0.6389097,-0.39618462,-6.710724,27.304462,-23.955145,1.5624068,1.3608111,2.8995087,17.248137,-9.4191885,14.16511,-34.874935,64.3958,-0.8488689,-1.7004523,15.816457,-19.665565,-15.677469,23.642431,63.53656,-4.8369155,-7.900325,1.6281039
145,-1.111886978149414,104.0171890258789,76.08705139160156,-1.258310872032207,-4.286934558187717,-88.79352214084133,-27.190767,9.835356,6.4091625,26.326036,-9.184172,-1.5300462,-0.51373726,-0.63791573,-6.8577228,26.30113,-23.038464,1.4113508,1.0752345,2.6275299,17.260912,-9.523934,14.037945,-35.54212,64.78104,-0.22742757,-1.6858643,15.893354,-19.016916,-15.401244,22.87482,63.29779,-4.792334,-7.8868675,1.222428
146,-1.1548856496810913,104.61141204833984,76.31993103027344,-1.0198085992375743,-4.43439343864795,-88.58688406960312,-27.272995,9.033329,5.114405,28.817642,-9.542925,-1.8224498,-0.36868718,-0.8858143,-6.987074,25.260881,-22.104176,1.2802546,0.81643784,2.3769462,17.250175,-9.616409,13.908926,-36.145267,65.1518,0.44576913,-1.7166986,16.003569,-18.302132,-15.138579,22.115225,63.02882,-4.6625476,-7.8867636,0.82117814
147,-1.1870845556259155,105.20443725585938,76.53821563720703,-0.7862447606937057,-4.567289491820762,-88.41870592121775,-27.316944,8.252908,3.9423342,31.355433,-9.930402,-2.1181777,-0.25462756,-1.1288986,-7.0813274,24.24797,-21.184797,1.1652976,0.5955971,2.146738,17.21186,-9.69057,13.775165,-36.63233,65.476875,1.015986,-1.7510266,16.142897,-17.560902,-14.897201,21.40188,62.748775,-4.47956,-7.895363,0.47504517
148,-1.2103073596954346,105.79590606689453,76.73979187011719,-0.5598978248268425,-4.67496717019139,-88.30901139674415,-27.306473,7.566729,3.0393653,33.87897,-10.356494,-2.3671875,-0.22400226,-1.3583139,-7.121764,23.332233,-20.311295,1.0625628,0.4205336,1.9363146,17.143696,-9.736284,13.63368,-36.94368,65.72051,1.3311195,-1.7477319,16.30588,-16.831697,-14.6869545,20.778885,62.47489,-4.272861,-7.9082265,0.2349605
149,-1.2228655815124512,106.38317108154297,76.91969299316406,-0.3303883403580389,-4.746231685550476,-88.26117631566363,-27.253874,6.989218,2.455397,36.384884,-10.818654,-2.5492902,-0.29340416,-1.5855234,-7.0983324,22.51967,-19.481565,0.9725507,0.29087815,1.7405345,17.037369,-9.753143,13.480946,-37.049408,65.87191,1.2867031,-1.6932819,16.505844,-16.10991,-14.516663,20.252573,62.198547,-4.004046,-7.9292355,0.12583141
150,-1.2353136539459229,106.96612548828125,77.08273315429688,-0.10169184280922551,-4.788648641394377,-88.26518653698695,-27.16701,6.497912,2.1007302,38.89822,-11.310307,-2.6827776,-0.43080544,-1.8122466,-7.019792,21.770723,-18.677654,0.8957863,0.2014647,1.5654057,16.8974,-9.747058,13.316104,-36.981586,65.95198,0.9887677,-1.612737,16.741552,-15.372969,-14.389,19.801128,61.90948,-3.6725516,-7.958151,0.11795542
151,-1.2352325916290283,107.54570770263672,77.2263412475586,0.11161640345468708,-4.82016164230997,-88.32163921710003,-27.025137,6.108551,1.9123971,41.397663,-11.832491,-2.774769,-0.6192101,-2.014535,-6.894601,21.093359,-17.912024,0.8276319,0.1543124,1.4257756,16.740486,-9.720506,13.142536,-36.785236,65.97429,0.5892508,-1.523282,16.985334,-14.636123,-14.303155,19.43682,61.625774,-3.353124,-7.983315,0.179402
152,-1.2311890125274658,108.12194061279297,77.35057830810547,0.2917082107934042,-4.858684575266508,-88.43125360782948,-26.805744,5.832273,1.8299198,43.86095,-12.386598,-2.835287,-0.84063655,-2.169065,-6.7318397,20.494879,-17.196774,0.7639173,0.1485842,1.3331472,16.582436,-9.6712,12.966774,-36.500694,65.94883,0.24216594,-1.4404498,17.208588,-13.915874,-14.257262,19.173115,61.363037,-3.1251082,-7.9886274,0.27748623
153,-1.2201861143112183,108.69261169433594,77.4538345336914,0.4396582721082409,-4.9119389521867545,-88.60717785868628,-26.49597,5.6926165,1.8859648,46.301094,-12.992675,-2.8563175,-1.0920148,-2.2731957,-6.517126,19.987219,-16.540146,0.6849753,0.19596636,1.2885748,16.427671,-9.582782,12.791997,-36.08749,65.855736,-0.04207135,-1.3555243,17.404287,-13.213629,-14.253431,19.028975,61.1237,-3.0053272,-7.9690332,0.41888642
154,-1.2104783058166504,109.25655364990234,77.53598022460938,0.5623378727581875,-4.969290847030667,-88.84493337849288,-26.106516,5.680162,2.0939202,48.718025,-13.64101,-2.831479,-1.3786392,-2.3391557,-6.250447,19.557459,-15.9308,0.59916586,0.29052454,1.2840261,16.26794,-9.456408,12.619602,-35.539318,65.68998,-0.33612028,-1.2640874,17.586878,-12.523653,-14.293444,18.99504,60.902657,-2.9528813,-7.932494,0.6154465
155,-1.1947282552719116,109.81318664550781,77.59933471679688,0.6600640084856838,-5.021403157281171,-89.11912457217522,-25.652742,5.751083,2.3669248,51.074963,-14.290934,-2.7794151,-1.6969503,-2.3665626,-5.9625072,19.178923,-15.353977,0.54442954,0.40820673,1.3176177,16.101654,-9.316035,12.454215,-34.94904,65.48129,-0.6094498,-1.1863943,17.758648,-11.852312,-14.371738,19.038822,60.70741,-2.9604273,-7.8877087,0.8423738
156,-1.1796003580093384,110.3724136352539,77.64376831054688,0.7258028519881364,-5.059268499038594,-89.40359950324425,-25.150702,5.8582015,2.6207638,53.333443,-14.900232,-2.7174277,-2.0442376,-2.3564105,-5.683517,18.826094,-14.795177,0.5589335,0.527825,1.3845143,15.925942,-9.188349,12.30245,-34.415573,65.26291,-0.83496624,-1.1424346,17.921988,-11.208039,-14.480446,19.126263,60.549644,-3.0210423,-7.843647,1.0742186
157,-1.1612012386322021,110.93080139160156,77.66754150390625,0.7583465574847332,-5.085222557690253,-89.70277527178206,-24.595139,6.0161686,2.8676286,55.50397,-15.477438,-2.6658008,-2.413981,-2.302501,-5.409391,18.490688,-14.251597,0.65295684,0.66047776,1.48931,15.74218,-9.073144,12.16814,-33.945683,65.026405,-0.998075,-1.1374087,18.078758,-10.587854,-14.617468,19.263206,60.420498,-3.1575494,-7.796575,1.3274978
158,-1.1375335454940796,111.49124908447266,77.67516326904297,0.759793695633439,-5.103377196203236,-90.0262509587018,-23.976847,6.236985,3.143276,57.596264,-16.038712,-2.6100664,-2.8077958,-2.208977,-5.1271267,18.184937,-13.729807,0.80670923,0.8134947,1.6283573,15.550717,-8.956976,12.052423,-33.497482,64.757,-1.1190059,-1.1597934,18.226807,-9.992343,-14.783945,19.461094,60.32267,-3.3674734,-7.7450056,1.6075732
159,-1.1152557134628296,112.05294036865234,77.6695556640625,0.7424631616098467,-5.1073719176131664,-90.35592398268784,-23.315746,6.467916,3.3987699,59.589455,-16.55514,-2.5199294,-3.227974,-2.0922859,-4.853501,17.90282,-13.224846,1.0136071,0.96083647,1.7864286,15.349278,-8.844173,11.9571905,-33.09265,64.47389,-1.2165091,-1.2042735,18.361698,-9.42936,-14.971574,19.690779,60.277367,-3.6067982,-7.7005053,1.872966
160,-1.0939668416976929,112.60651397705078,77.65142059326172,0.7166749856491539,-5.091011029486583,-90.67380918086724,-22.63215,6.6555543,3.5851152,61.460457,-16.998755,-2.3658624,-3.6790056,-1.9690006,-4.605319,17.641623,-12.733481,1.2670709,1.0791136,1.9469539,15.13446,-8.74339,11.884943,-32.76211,64.20185,-1.3167216,-1.2656486,18.48021,-8.9068985,-15.166938,19.918982,60.309624,-3.8340158,-7.6742406,2.0810118
161,-1.0709737539291382,113.15219116210938,77.62337493896484,0.6806224967811596,-5.049139941186214,-90.98402180996426,-21.938553,6.794747,3.6867836,63.223587,-17.358591,-2.120721,-4.1673894,-1.8360307,-4.3839355,17.400238,-12.253777,1.5841581,1.1703553,2.1103292,14.898802,-8.653111,11.838389,-32.51082,63.93776,-1.4320968,-1.3504777,18.586378,-8.433259,-15.364185,20.16056,60.43209,-4.03994,-7.679141,2.2183397
162,-1.0482237339019775,113.70588684082031,77.58235168457031,0.6295321952239853,-4.987405296654522,-91.29273019789142,-21.222883,6.906913,3.7324276,64.88486,-17.649467,-1.8090062,-4.6894784,-1.6887052,-4.1813374,17.181818,-11.790018,1.9631747,1.2435533,2.2805312,14.645884,-8.568177,11.818714,-32.323765,63.67162,-1.5478586,-1.4585965,18.680319,-8.007502,-15.561785,20.425735,60.637474,-4.2487836,-7.705854,2.3064733
163,-1.0202540159225464,114.26615905761719,77.5321044921875,0.5737277416166848,-4.914251215261101,-91.58474409201095,-20.473316,6.980936,3.7375996,66.41158,-17.881838,-1.4784971,-5.2355056,-1.5408674,-3.9998636,16.992266,-11.349661,2.3691237,1.2865853,2.4447448,14.387781,-8.492578,11.825199,-32.19881,63.41899,-1.6448411,-1.5744619,18.753183,-7.627078,-15.752893,20.674799,60.925037,-4.46761,-7.732002,2.3548496
164,-0.9882976412773132,114.83043670654297,77.47440338134766,0.5220859520869192,-4.837675137521863,-91.84521759897387,-19.676735,7.007171,3.7170455,67.7696,-18.066765,-1.1755939,-5.7947025,-1.406743,-3.8418946,16.83468,-10.937771,2.7668,1.2897913,2.5902336,14.136188,-8.431086,11.854867,-32.134327,63.197105,-1.7017902,-1.6822711,18.796661,-7.285251,-15.926136,20.863987,61.292755,-4.7047997,-7.735607,2.372728
165,-0.960054337978363,115.39356994628906,77.4123764038086,0.47057174606218577,-4.756766630986803,-92.0673715946753,-18.834269,6.9956117,3.667504,68.96511,-18.207973,-0.89565694,-6.3685303,-1.284799,-3.7155497,16.711758,-10.558208,3.1601112,1.2486362,2.7185397,13.88852,-8.388697,11.906688,-32.140697,63.015423,-1.6981493,-1.7868853,18.817432,-6.9903855,-16.074308,21.006212,61.76658,-4.96521,-7.7209206,2.350598
166,-0.931009829044342,115.95740509033203,77.34585571289062,0.4176323067350914,-4.668024048093575,-92.25994641469676,-17.954508,6.9501925,3.5811393,70.01512,-18.299898,-0.619061,-6.9623556,-1.1693522,-3.6175642,16.622194,-10.208683,3.5639179,1.1691573,2.8338737,13.638904,-8.364034,11.9805,-32.214188,62.871143,-1.6485428,-1.8959404,18.818102,-6.745766,-16.195885,21.116175,62.346184,-5.2451987,-7.6960363,2.285851
167,-0.899383544921875,116.51948547363281,77.2720718383789,0.36876150387881074,-4.57588697874381,-92.43142702637036,-17.038136,6.8534746,3.4647446,70.904205,-18.341022,-0.36948505,-7.576364,-1.0673734,-3.533444,16.573313,-9.886859,3.9585383,1.058143,2.9277391,13.391582,-8.35475,12.075124,-32.339455,62.75937,-1.591348,-1.9911373,18.78473,-6.5375776,-16.289585,21.151613,62.993156,-5.542787,-7.6447315,2.1987524
168,-0.869997501373291,117.0862808227539,77.19490814208984,0.3334747620984779,-4.484352084250192,-92.59011089559168,-16.08623,6.6861506,3.325015,71.61741,-18.331154,-0.17164244,-8.206807,-0.98523617,-3.4482021,16.564257,-9.590956,4.3238506,0.9243951,2.9926748,13.151237,-8.361706,12.188333,-32.504242,62.67988,-1.5661585,-2.0568197,18.70318,-6.3501964,-16.353697,21.067463,63.670044,-5.8560953,-7.5537963,2.1099343
169,-0.8336143493652344,117.64471435546875,77.1158218383789,0.3163357905225834,-4.390795327549941,-92.73773625789265,-15.103258,6.4450164,3.1622,72.163155,-18.25305,-0.0018786129,-8.869687,-0.92557895,-3.357696,16.625643,-9.329401,4.651512,0.768644,3.0256224,12.915124,-8.386692,12.317968,-32.711514,62.639046,-1.5822318,-2.0861433,18.566174,-6.181813,-16.384424,20.832775,64.39112,-6.2120595,-7.4171195,2.0400012
170,-0.7955945730209351,118.21178436279297,77.03581237792969,0.3086251973332169,-4.293792595818608,-92.86988064992119,-14.089637,6.1405926,2.970987,72.547676,-18.112686,0.14253426,-9.557785,-0.8827584,-3.2703145,16.739574,-9.097765,4.9526978,0.5890031,3.0322626,12.68047,-8.432694,12.463332,-32.970406,62.640427,-1.6206044,-2.0888581,18.382914,-6.0384693,-16.380894,20.475025,65.17073,-6.603523,-7.243621,1.9735504
171,-0.7534298300743103,118.78087615966797,76.95169067382812,0.3074993747932964,-4.198874515251201,-92.98665009682846,-13.040045,5.774302,2.7504141,72.75395,-17.943872,0.20605505,-10.2498045,-0.8518611,-3.190587,16.86982,-8.877448,5.235504,0.38860548,3.0176523,12.452341,-8.496454,12.623671,-33.26727,62.672718,-1.6693995,-2.0731733,18.16379,-5.912152,-16.347446,20.039062,65.95927,-6.9759994,-7.036199,1.8779259
172,-0.7173869609832764,119.33771514892578,76.86982727050781,0.30638641463469385,-4.111968221616884,-93.08792028827618,-11.948402,5.346256,2.4995818,72.76308,-17.77964,0.13348871,-10.920547,-0.8284188,-3.1229322,16.97183,-8.647441,5.507956,0.1691795,2.9867196,12.236349,-8.574178,12.798559,-33.587273,62.723953,-1.7169019,-2.0474331,17.918974,-5.795535,-16.29319,19.571388,66.706665,-7.2740426,-6.7971764,1.720026
173,-0.6689327955245972,119.9148178100586,76.78101348876953,0.3029449157720335,-4.037725785934529,-93.16564935922821,-10.798862,4.8461766,2.1994712,72.57082,-17.649178,-0.12761496,-11.561465,-0.8104698,-3.0762234,17.042393,-8.40322,5.759188,-0.07994826,2.9448636,12.039342,-8.6644945,12.98831,-33.933495,62.79128,-1.7573986,-2.0052443,17.635244,-5.688894,-16.22097,19.061562,67.41413,-7.4978833,-6.5058837,1.4783286
174,-0.6248893737792969,120.47689819335938,76.69313049316406,0.2992246105725816,-3.9717429170340135,-93.22256556946314,-9.598424,4.278559,1.8533258,72.187065,-17.530361,-0.5330478,-12.185897,-0.8004026,-3.0457904,17.099888,-8.15344,5.9881854,-0.3571311,2.8902583,11.856934,-8.768416,13.192693,-34.309414,62.878193,-1.7966552,-1.9451387,17.311922,-5.5912685,-16.130087,18.492462,68.09564,-7.671329,-6.1662703,1.1760024
175,-0.5813878178596497,121.04553985595703,76.60303497314453,0.30247285975545946,-3.9054897850325707,-93.27473830773424,-8.378705,3.6664748,1.4923887,71.61892,-17.380623,-0.9930831,-12.802911,-0.799565,-3.015676,17.136131,-7.898969,6.217722,-0.6425827,2.817992,11.67953,-8.887397,13.410219,-34.703983,62.981678,-1.8436515,-1.8833162,16.978199,-5.49902,-16.026941,17.90613,68.72842,-7.766584,-5.824254,0.84544617
176,-0.5298557281494141,121.6192398071289,76.5079116821289,0.31870452344238387,-3.83077213835763,-93.33836265842767,-7.171372,3.0316255,1.1476636,70.87413,-17.156902,-1.4189082,-13.42196,-0.80954117,-2.969701,17.144667,-7.6420236,6.471064,-0.9189091,2.724658,11.497961,-9.019461,13.638853,-35.101685,63.09296,-1.9049006,-1.8332244,16.662518,-5.4058666,-15.922256,17.346148,69.28491,-7.7574315,-5.525152,0.5191043
177,-0.4774784743785858,122.206787109375,76.40777587890625,0.35117267286662895,-3.7470374566738474,-93.41620751991981,-5.9742436,2.337441,0.7903585,69.9507,-16.824682,-1.8397143,-14.037305,-0.8341014,-2.9015486,17.115438,-7.388918,6.7606173,-1.1858135,2.6079037,11.3101015,-9.164482,13.8771515,-35.505264,63.218266,-1.9952742,-1.8085366,16.360577,-5.307709,-15.821274,16.808157,69.76297,-7.59462,-5.271743,0.1723648
178,-0.41877293586730957,122.78777313232422,76.30697631835938,0.39580672424657554,-3.658158865135117,-93.49992258851886,-4.7726436,1.587937,0.41004276,68.8453,-16.415615,-2.2829216,-14.646472,-0.87113154,-2.820452,17.054216,-7.136647,7.07179,-1.4523344,2.4723787,11.121359,-9.323848,14.1243725,-35.919456,63.357502,-2.1063025,-1.7976071,16.060963,-5.205458,-15.725368,16.275084,70.1703,-7.3053317,-5.0448475,-0.20113397
179,-0.3627897799015045,123.3751449584961,76.20294952392578,0.44848231084819784,-3.562557292402759,-93.58787228337064,-3.5826602,0.86286116,0.067631625,67.56291,-15.981526,-2.6581228,-15.25982,-0.91593003,-2.7333448,16.970156,-6.8687015,7.388108,-1.7166401,2.3251657,10.936769,-9.499478,14.378767,-36.330387,63.49899,-2.210802,-1.7838476,15.780703,-5.097484,-15.638149,15.771739,70.48811,-6.9765167,-4.855935,-0.5396634
180,-0.29366394877433777,123.96536254882812,76.09439849853516,0.5030406415230365,-3.458446056157071,-93.67847372331076,-2.421877,0.23983835,-0.171547,66.10818,-15.571936,-2.8761249,-15.887916,-0.96362203,-2.6472142,16.874544,-6.5702286,7.6930184,-1.978508,2.1744726,10.761542,-9.690855,14.638542,-36.72159,63.626167,-2.2806404,-1.7479522,15.537324,-4.983108,-15.56371,15.325401,70.69805,-6.6950846,-4.714828,-0.7803442
181,-0.22753795981407166,124.5693588256836,75.98152923583984,0.5676198154395811,-3.345315528850477,-93.78031860640192,-1.302914,-0.306721,-0.30981103,64.502174,-15.074326,-2.9157321,-16.533155,-1.0198901,-2.55435,16.769196,-6.235769,7.989522,-2.2370138,2.0147493,10.592717,-9.895324,14.902507,-37.09735,63.74258,-2.2955291,-1.6745198,15.333272,-4.8643,-15.505756,14.943004,70.79891,-6.4673615,-4.6284995,-0.89892274
182,-0.153189554810524,125.18236541748047,75.86161804199219,0.6399576673688425,-3.224206699679569,-93.89104907697916,-0.21388923,-0.80630434,-0.37185708,62.7368,-14.504232,-2.8251014,-17.189442,-1.0857432,-2.4533427,16.649199,-5.874737,8.284257,-2.4933457,1.8451118,10.429461,-10.114247,15.17007,-37.46285,63.85387,-2.2743797,-1.5772936,15.159918,-4.740557,-15.465123,14.612307,70.79805,-6.251133,-4.5891666,-0.92993927
183,-0.07841566950082779,125.8046875,75.73182678222656,0.7092118334006899,-3.096062586940489,-93.99296275632238,0.86436135,-1.1932901,-0.32070863,60.770725,-14.102184,-2.6224983,-17.854885,-1.1511934,-2.3600764,16.509941,-5.4899454,8.566601,-2.7511525,1.6781543,10.280387,-10.3523035,15.440506,-37.7997,63.949665,-2.2454782,-1.483175,15.017741,-4.6074586,-15.440161,14.327607,70.68865,-6.0658484,-4.582864,-0.89898497
184,0.0021351869218051434,126.43273162841797,75.59537506103516,0.7579899649552502,-2.9618615433803877,-94.0682081557407,1.9514855,-1.408547,-0.11868203,58.560535,-14.109899,-2.3315554,-18.530382,-1.2055397,-2.291657,16.353926,-5.087915,8.825451,-3.0152712,1.5266025,10.154105,-10.61252,15.713209,-38.08704,64.01919,-2.2350876,-1.4190062,14.906762,-4.463191,-15.427738,14.08725,70.46648,-5.9275727,-4.596079,-0.83201325
185,0.082030288875103,127.07996368408203,75.440673828125,0.7776615875365605,-2.8105009936374525,-94.11923239292676,3.0940619,-1.4029157,0.31782642,55.96521,-14.619533,-1.8945484,-19.2321,-1.2348013,-2.2520115,16.184008,-4.6558976,9.054135,-3.2841113,1.3997395,10.034804,-10.889104,15.987937,-38.315952,64.06321,-2.2479916,-1.399193,14.832381,-4.3051777,-15.427716,13.904492,70.122635,-5.853703,-4.6323495,-0.7239862
186,0.1690487563610077,127.73922729492188,75.2769546508789,0.7791737529539515,-2.6458686695060587,-94.15354570162133,4.2815604,-1.2586981,0.9525761,53.03511,-15.497565,-1.3555001,-19.956078,-1.2516506,-2.2308044,16.004835,-4.198985,9.260022,-3.5569668,1.2848523,9.924391,-11.180379,16.26472,-38.49509,64.08592,-2.2680771,-1.4069438,14.792562,-4.136632,-15.440282,13.776281,69.66361,-5.8318777,-4.6962442,-0.56524336
187,0.2559727430343628,128.40708923339844,75.10357666015625,0.7841277778252298,-2.4910327605283396,-94.15973668557149,5.4446497,-1.1015828,1.639453,50.010372,-16.633245,-0.8835273,-20.668676,-1.2843701,-2.2250605,15.807128,-3.7415957,9.453191,-3.8395655,1.1616023,9.856199,-11.502113,16.544886,-38.64141,64.0878,-2.3012135,-1.422491,14.777506,-3.9665008,-15.463289,13.678697,69.11189,-5.8315773,-4.7765718,-0.3758558
188,0.34648367762565613,129.10891723632812,74.91722869873047,0.8075186526788228,-2.3684795464542763,-94.12521883259548,6.506214,-1.0252166,2.2285914,47.129753,-17.90978,-0.6209947,-21.3385,-1.3582991,-2.23426,15.58591,-3.3111186,9.643045,-4.137713,1.0133843,9.863584,-11.8681345,16.829645,-38.769722,64.06613,-2.3505654,-1.4259026,14.776806,-3.8015862,-15.491169,13.584866,68.48814,-5.8247657,-4.8622494,-0.17555217
189,0.4351467788219452,129.81842041015625,74.7286605834961,0.83298892468975,-2.2865324097977786,-94.05180598289878,7.517287,-1.0048295,2.7015655,44.28676,-19.410725,-0.64754045,-21.95516,-1.4574311,-2.2644894,15.334979,-2.8772814,9.83697,-4.449603,0.84857553,9.9561405,-12.279567,17.119122,-38.86269,64.010826,-2.4155881,-1.4021679,14.797563,-3.644523,-15.526539,13.506105,67.774055,-5.8223686,-4.9379487,0.058382627
190,0.5173633694648743,130.5426788330078,74.5409164428711,0.8588159556054019,-2.2315228112507515,-93.94314938668607,8.5008,-0.99275553,3.1389918,41.379025,-21.134954,-0.87457126,-22.535227,-1.5739189,-2.3167267,15.055799,-2.4371164,10.0276,-4.774509,0.6732577,10.11437,-12.728517,17.41316,-38.91975,63.92505,-2.4950335,-1.3650204,14.841797,-3.4903824,-15.570602,13.450674,66.965935,-5.833699,-5.0139213,0.32736412
191,0.6075098514556885,131.27471923828125,74.35882568359375,0.9092455058393782,-2.1929478072991038,-93.78892100895871,9.325068,-1.0245761,3.5327368,38.674137,-22.846233,-1.1656703,-23.080616,-1.7430177,-2.3840024,14.737886,-2.0480602,10.202254,-5.118049,0.46542987,10.32538,-13.221037,17.713211,-38.98686,63.83183,-2.5944247,-1.3377193,14.892499,-3.338285,-15.613589,13.386366,66.111626,-5.8289313,-5.116193,0.57785326
192,0.6981999278068542,132.03366088867188,74.17987823486328,1.013877938125646,-2.161366389460778,-93.58020140031095,9.848755,-1.1373755,3.8646066,36.472195,-24.331285,-1.3757104,-23.601057,-2.0010278,-2.4572945,14.387298,-1.775825,10.348553,-5.4818087,0.19863883,10.575932,-13.7639885,18.020712,-39.110928,63.754745,-2.7164733,-1.3425351,14.93294,-3.190151,-15.640188,13.275057,65.266685,-5.782589,-5.273592,0.7540342
193,0.7891360521316528,132.8067169189453,74.00787353515625,1.197675257034466,-2.1372258501329173,-93.31109739213665,9.986631,-1.3442651,4.1442924,34.925632,-25.574883,-1.4431415,-24.132044,-2.376566,-2.531353,14.063742,-1.6686383,10.446036,-5.868051,-0.156361,10.877121,-14.38425,18.33754,-39.307377,63.702705,-2.8737621,-1.3964963,14.971506,-3.0639448,-15.645637,13.116144,64.423294,-5.6673474,-5.504289,0.8507012
194,0.8662591576576233,133.5880126953125,73.84933471679688,1.4363032218456413,-2.126564721128342,-92.98896344906433,9.81915,-1.6165384,4.374156,33.879936,-26.697033,-1.4383576,-24.658709,-2.8438315,-2.6097255,13.747729,-1.6822228,10.507297,-6.270228,-0.58351445,11.2293625,-15.071701,18.663113,-39.55392,63.661102,-3.0612068,-1.4827442,15.012609,-2.9549332,-15.629395,12.923355,63.564716,-5.506694,-5.790236,0.89299655
195,0.9487180113792419,134.3946533203125,73.70077514648438,1.7009225338208023,-2.1294117091480302,-92.62531070238977,9.447354,-1.9283476,4.5153866,33.194244,-27.69987,-1.4070047,-25.111538,-3.3582187,-2.6964705,13.32171,-1.7411058,10.570121,-6.677621,-1.045412,11.603599,-15.783844,18.994343,-39.845497,63.63226,-3.26047,-1.5784624,15.03434,-2.835243,-15.581455,12.683747,62.73452,-5.3494086,-6.1018744,0.86841285
196,1.0213457345962524,135.20407104492188,73.56654357910156,1.9601304093580652,-2.1457600493677647,-92.2304545245195,8.974505,-2.2543385,4.528286,32.719765,-28.579042,-1.3882039,-25.409176,-3.874924,-2.7992017,12.645356,-1.7579739,10.673081,-7.079639,-1.5051429,11.971059,-16.482615,19.326637,-40.182587,63.62445,-3.4566534,-1.6609056,15.015328,-2.6787436,-15.4850235,12.3834095,61.97914,-5.2445693,-6.4094543,0.7627824
197,1.0827696323394775,136.01258850097656,73.44232940673828,2.214660363350644,-2.1674458301385537,-91.790537570941,8.332474,-2.591275,4.36375,32.558228,-29.331652,-1.3744736,-25.551178,-4.3951025,-2.9264107,11.687337,-1.7328246,10.782117,-7.4782677,-1.9698975,12.334718,-17.18981,19.659212,-40.57628,63.66253,-3.6575751,-1.7381052,14.954265,-2.4874568,-15.3208275,11.990203,61.30945,-5.1958346,-6.7421455,0.54376626
198,1.1354559659957886,136.80999755859375,73.32621002197266,2.482585150347444,-2.2009868430632262,-91.30477999599414,7.4939117,-2.9549081,4.054922,32.757584,-29.969267,-1.3371655,-25.556772,-4.941221,-3.074879,10.489945,-1.688288,10.895368,-7.8759847,-2.4661748,12.705238,-17.921795,19.991793,-41.031242,63.74532,-3.8708591,-1.817417,14.861568,-2.2828636,-15.08577,11.520197,60.714806,-5.185543,-7.103276,0.22330685
199,1.1695506572723389,137.58074951171875,73.2236557006836,2.763162251299356,-2.268022042422571,-90.80056392304843,6.6263075,-3.3471322,3.682174,33.07995,-30.503893,-1.2890218,-25.375547,-5.501494,-3.239694,9.025876,-1.5703897,11.100476,-8.267789,-2.9835708,13.067773,-18.624088,20.318542,-41.521965,63.837902,-4.066028,-1.8746407,14.733636,-2.067719,-14.793855,11.03271,60.21025,-5.22949,-7.426658,-0.14626826
200,1.20237398147583,138.33340454101562,73.13494873046875,3.048369530282975,-2.389750548540287,-90.3054985369831,5.895539,-3.765048,3.3235672,33.288044,-30.947605,-1.2431179,-24.928156,-6.0629983,-3.4217167,7.206154,-1.2910959,11.484126,-8.651,-3.5063038,13.407849,-19.241467,20.63137,-42.018948,63.90713,-4.2120013,-1.8864787,14.567425,-1.8349239,-14.469839,10.588092,59.79581,-5.3401194,-7.6414742,-0.509941
201,1.238470196723938,139.0630645751953,73.0472183227539,3.361159882807496,-2.6019344414319496,-89.79647496189614,5.3728204,-4.234183,2.9593458,33.321327,-31.304018,-1.2088991,-25.079657,-6.709809,-3.4978628,6.9099216,-1.9424291,12.144715,-9.054304,-4.051189,13.735789,-19.756973,20.927513,-42.52767,63.950012,-4.2824965,-1.8288449,14.3383255,-1.5545766,-14.120495,10.173202,59.46217,-5.5403943,-7.7053375,-0.8866348
202,1.2711033821105957,139.76116943359375,72.96190643310547,3.6987549736023753,-2.885496574412349,-89.26707993097443,4.9632726,-4.750777,2.5582316,33.304543,-31.566185,-1.1756455,-25.229654,-7.407712,-3.539393,6.814086,-2.8032746,13.017728,-9.471962,-4.618881,14.055925,-20.201408,21.207142,-43.059307,63.984417,-4.301492,-1.7212999,14.056028,-1.2321655,-13.743208,9.765062,59.20041,-5.812617,-7.661252,-1.2910404
203,1.3184260129928589,140.4392547607422,72.8888168334961,4.018554968755118,-3.1731261413044245,-88.7732239512911,4.577313,-5.2548485,2.182289,33.280087,-31.730711,-1.1291188,-25.330263,-8.0782,-3.60664,6.7328463,-3.5658426,13.926307,-9.847295,-5.1598563,14.345471,-20.588438,21.46449,-43.581787,64.00766,-4.3032146,-1.6056122,13.76941,-0.91368717,-13.358992,9.411869,59.014988,-6.1035905,-7.570408,-1.6615243
204,1.3711552619934082,141.0884552001953,72.83971405029297,4.279481820695035,-3.394882552655697,-88.37212138543717,4.123525,-5.6856203,1.8962928,33.286327,-31.791288,-1.056769,-25.428679,-8.648206,-3.7465224,6.68531,-4.037998,14.68596,-10.1267185,-5.6133833,14.5838375,-20.932716,21.690783,-44.059277,64.01592,-4.325934,-1.5240672,13.527019,-0.63973343,-13.002078,9.16665,58.903248,-6.3564577,-7.4951453,-1.9333545
205,1.4294469356536865,141.73219299316406,72.82682037353516,4.462295883467012,-3.534243848162199,-88.07852926305053,3.5721173,-6.019986,1.7186856,33.357937,-31.75658,-0.9513012,-25.549644,-9.061929,-4.007578,6.6613083,-4.149617,15.000033,-10.296301,-5.945156,14.7707815,-21.244293,21.879866,-44.501705,64.00237,-4.3861117,-1.4855928,13.331897,-0.4012364,-12.697314,9.043111,58.83936,-6.5426335,-7.4318347,-2.0881286
206,1.4869699478149414,142.38218688964844,72.84927368164062,4.5864424085590585,-3.6215482688427634,-87.86548815039848,2.9670649,-6.286853,1.618475,33.468292,-31.628244,-0.8225457,-25.662539,-9.359681,-4.3546023,6.649601,-4.011677,15.000033,-10.391799,-6.1552224,14.917752,-21.516094,22.007631,-44.900204,63.97907,-4.4558244,-1.4715712,13.162146,-0.16344255,-12.47949,9.023665,58.80507,-6.6770678,-7.3543973,-2.146177
207,1.55000901222229,143.04588317871094,72.91527557373047,4.626509720063406,-3.657112298467113,-87.74203773730558,2.3086185,-6.4441915,1.5938166,33.61248,-31.41912,-0.69759715,-25.709862,-9.540476,-4.72753,6.6283917,-3.6797647,15.000033,-10.386734,-6.2621036,15.028231,-21.736212,22.116077,-45.24704,63.947437,-4.5223985,-1.4738709,13.029483,0.039128065,-12.265587,9.077903,58.866753,-6.816769,-7.2945375,-2.132738
208,1.6242974996566772,143.71095275878906,73.0059814453125,4.577844327298638,-3.650838927088747,-87.71837835006176,1.6084329,-6.469449,1.6433712,33.785706,-31.14464,-0.6051096,-25.673414,-9.593622,-5.0341644,6.663329,-3.2520068,15.000033,-10.302053,-6.2320356,15.109518,-21.877056,22.164614,-45.454067,63.926044,-4.5474806,-1.4962451,12.943018,0.20589446,-12.132415,9.230903,59.02632,-6.957577,-7.280767,-2.0363503
209,1.7101737260818481,144.37034606933594,73.12162780761719,4.421680253521073,-3.577926246130365,-87.81630503890165,0.80442274,-6.333175,1.7825161,34.05358,-30.790102,-0.55486083,-25.568104,-9.499916,-5.260769,6.776418,-2.7214818,15.000033,-10.096477,-6.052507,15.150231,-21.952366,22.169828,-45.54406,63.917732,-4.5329328,-1.5569136,12.904629,0.32841563,-12.055722,9.476285,59.308933,-7.0812197,-7.352073,-1.8330555
210,1.7862634658813477,145.01324462890625,73.27122497558594,4.1707016685039,-3.448324709731684,-88.0190483876296,-0.07890575,-6.0592384,1.9940248,34.391808,-30.351099,-0.52746946,-25.406109,-9.268851,-5.4384193,6.957649,-2.0569034,15.000033,-9.774297,-5.744098,15.15671,-21.965994,22.147835,-45.548252,63.902447,-4.491709,-1.6487181,12.907588,0.4169865,-12.0173435,9.793188,59.696354,-7.1970844,-7.4835596,-1.531175
211,1.8363776206970215,145.6370391845703,73.43575286865234,3.8336723553935075,-3.334971569161096,-88.29300404992341,-0.91543794,-5.648657,2.23395,34.729538,-29.900255,-0.529699,-25.925358,-8.908302,-5.4461865,8.848357,-2.1893623,14.49618,-9.462771,-5.368,15.126606,-21.875982,22.0481,-45.38199,63.965813,-4.407685,-1.7332569,12.95844,0.4151204,-11.975809,10.294739,60.25596,-7.339597,-7.6025977,-1.2273762
212,1.8825563192367554,146.240966796875,73.61260986328125,3.48430369422886,-3.304567823537274,-88.57006597539892,-1.5480505,-5.2070646,2.4476957,34.88602,-29.440012,-0.5375237,-27.114183,-8.545399,-5.2906055,12.515185,-3.2152128,13.866354,-9.11878,-4.973168,15.155182,-21.691648,21.913486,-45.138145,63.972313,-4.306818,-1.7552304,13.045042,0.45578384,-11.969945,10.751668,60.813557,-7.6272974,-7.6549435,-0.9244171
213,1.91378915309906,146.81365966796875,73.80449676513672,3.1468211916681774,-3.397983692087,-88.84438021998064,-1.8813775,-4.7727346,2.638868,34.762047,-28.945917,-0.54574275,-27.893927,-8.143344,-5.1177077,15.817338,-3.984674,13.485142,-8.797474,-4.5993915,15.2486,-21.377007,21.732195,-44.75804,63.950157,-4.1631994,-1.6877823,13.192923,0.4935487,-11.983017,11.26094,61.439804,-8.119127,-7.6189303,-0.6389511
214,1.9455913305282593,147.38014221191406,73.99652862548828,2.8100090448627233,-3.585228493281441,-89.12936468428838,-1.9937925,-4.3301067,2.8244665,34.443005,-28.40792,-0.55657434,-28.461441,-7.693604,-4.906164,19.11587,-4.6708646,13.224157,-8.479253,-4.232463,15.38956,-20.94704,21.510693,-44.249794,63.90268,-3.9763157,-1.5599964,13.393748,0.5205515,-12.011106,11.827139,62.145668,-8.760953,-7.531892,-0.34699112
215,1.9782332181930542,147.92681884765625,74.20272827148438,2.4992032196713074,-3.8088857706666537,-89.38519261391276,-1.9951897,-3.9197023,2.9792037,33.99446,-27.831612,-0.55801034,-28.885612,-7.2458887,-4.662015,22.348156,-5.3022237,13.034082,-8.191563,-3.892297,15.53431,-20.449335,21.256916,-43.67299,63.834194,-3.808283,-1.4152868,13.603984,0.54912746,-12.046271,12.385937,62.87097,-9.428443,-7.406459,-0.0704866
216,1.9982596635818481,148.4646453857422,74.41462707519531,2.2315304821971855,-4.005117643149348,-89.57784563270536,-2.0039918,-3.5726297,3.0796785,33.486534,-27.22464,-0.5379807,-29.235353,-6.849412,-4.389097,25.441385,-5.9029264,12.8571415,-7.9500804,-3.593965,15.636436,-19.928131,20.982103,-43.087826,63.7436,-3.7159505,-1.2966013,13.781488,0.5937812,-12.078194,12.863116,63.55474,-10.002378,-7.2547226,0.16797875
217,2.0074093341827393,148.99000549316406,74.62709045410156,2.0011663180383326,-4.1556833456268185,-89.71302625285125,-2.0358884,-3.2812145,3.132156,32.907448,-26.57249,-0.4986803,-29.537537,-6.498551,-4.0453157,28.415546,-6.4814997,12.678435,-7.7442284,-3.3346407,15.68522,-19.364243,20.68885,-42.45362,63.60741,-3.7169645,-1.2052695,13.933458,0.64608896,-12.099433,13.252859,64.2052,-10.48696,-7.057567,0.36557984
218,2.009946823120117,149.51507568359375,74.8397445678711,1.7882473659570124,-4.285401696804465,-89.81251735451914,-2.0484114,-3.0166082,3.1520712,32.2421,-25.883244,-0.44833514,-29.770927,-6.162957,-3.6381078,31.323713,-7.0386972,12.517546,-7.561462,-3.0979037,15.700816,-18.743393,20.377432,-41.75964,63.427387,-3.782405,-1.1212343,14.07703,0.696356,-12.109725,13.587994,64.85206,-10.937787,-6.8150764,0.531842
219,2.011259078979492,150.0384979248047,75.05226135253906,1.5868078799995886,-4.3939305688785515,-89.8675745994465,-2.0708125,-2.776592,3.1284068,31.548168,-25.195873,-0.38318864,-29.935478,-5.8604436,-3.2416668,34.146175,-7.5868926,12.363364,-7.409949,-2.8782115,15.682816,-18.113617,20.057934,-41.107517,63.23841,-3.8934236,-1.0558622,14.1841545,0.7558994,-12.110829,13.851363,65.46682,-11.310115,-6.5665717,0.66145015
220,2.003854751586914,150.54983520507812,75.26079559326172,1.3946479090779704,-4.4814794965629,-89.86998239786824,-2.1313398,-2.5598898,3.0497692,30.88389,-24.54904,-0.29916644,-30.03487,-5.610922,-2.9289272,36.870113,-8.143173,12.205099,-7.2933245,-2.671851,15.632272,-17.516777,19.744417,-40.593735,63.06944,-4.022351,-1.019795,14.226915,0.8399755,-12.103534,14.02061,66.01721,-11.559835,-6.351711,0.7488371
221,1.9864943027496338,151.0653076171875,75.4600601196289,1.1995631875349924,-4.537465049327629,-89.8152019609348,-2.2445111,-2.3561223,2.9014015,30.253088,-23.95109,-0.18347219,-30.080738,-5.4226046,-2.7308815,39.504196,-8.715293,12.038121,-7.2112503,-2.4695652,15.541398,-16.945667,19.447857,-40.23709,62.90425,-4.2233205,-1.0227072,14.195006,0.95104444,-12.085486,14.080824,66.507706,-11.647229,-6.179477,0.78333324
222,1.967867136001587,151.57302856445312,75.64997863769531,1.0043888964415109,-4.561919668331674,-89.71153341826023,-2.3984528,-2.163652,2.6947963,29.633268,-23.38452,-0.043242775,-30.079803,-5.289528,-2.598039,42.071938,-9.30408,11.860644,-7.1577277,-2.2733877,15.412406,-16.373188,19.171423,-39.985054,62.720634,-4.4883256,-1.0551331,14.103444,1.0827539,-12.054422,14.04487,66.94567,-11.605825,-6.0259495,0.7703076
223,1.9341448545455933,152.06204223632812,75.8293228149414,0.8209740173460608,-4.571628216374123,-89.56682075155813,-2.578102,-1.9942337,2.4549308,29.034353,-22.843473,0.09622734,-30.01787,-5.207108,-2.4891014,44.56062,-9.903332,11.669858,-7.131323,-2.096654,15.261246,-15.81911,18.919348,-39.84443,62.546852,-4.71468,-1.0994432,13.962418,1.2289273,-12.015012,13.930312,67.32176,-11.504358,-5.8917985,0.72602874
224,1.9024271965026855,152.5557861328125,75.98987579345703,0.6611979796485988,-4.583810048263362,-89.38862027690737,-2.7685459,-1.8591609,2.205948,28.467579,-22.322575,0.21006963,-29.880194,-5.1635976,-2.3654323,46.953506,-10.503895,11.468287,-7.1295,-1.950584,15.105057,-15.306107,18.695385,-39.827168,62.41067,-4.8038206,-1.1383371,13.782503,1.3884519,-11.973783,13.754314,67.618965,-11.409419,-5.776269,0.6686477
225,1.8657203912734985,153.04112243652344,76.13972473144531,0.5291828302493629,-4.598024719455595,-89.17248369086664,-2.9670131,-1.7610103,1.9466648,27.931087,-21.82822,0.2996628,-29.67125,-5.156418,-2.2192535,49.26131,-11.114435,11.253718,-7.161046,-1.8358619,14.9422455,-14.833995,18.503986,-39.95154,62.30975,-4.707346,-1.1655575,13.536767,1.5679327,-11.932573,13.496724,67.82438,-11.33062,-5.6813903,0.59096354
226,1.8302102088928223,153.5258026123047,76.27291870117188,0.415383738536457,-4.60594267133931,-88.91724532119146,-3.1803992,-1.6908525,1.6659983,27.419264,-21.359812,0.37557867,-29.398218,-5.1847086,-2.0723748,51.491566,-11.737905,11.029018,-7.2234464,-1.7444205,14.766552,-14.390571,18.347698,-40.211056,62.22746,-4.4916306,-1.1910592,13.229091,1.7676897,-11.890302,13.157044,67.946175,-11.23372,-5.6070414,0.4886587
227,1.780018925666809,154.0001983642578,76.39532470703125,0.31647221131096986,-4.613380680167038,-88.6353443052188,-3.410591,-1.6431134,1.3730055,26.943314,-20.904106,0.4270621,-29.053276,-5.2368875,-1.9323497,53.626335,-12.356741,10.80651,-7.2991495,-1.6755276,14.589121,-13.968114,18.222393,-40.55202,62.16586,-4.2016144,-1.2249198,12.916468,1.9775078,-11.84951,12.780582,67.99726,-11.122314,-5.549403,0.3847571
228,1.7358849048614502,154.48240661621094,76.49978637695312,0.23095276762520262,-4.625955536642857,-88.33935484016932,-3.6582465,-1.6122608,1.0767096,26.511982,-20.444918,0.4432252,-28.626501,-5.302673,-1.8065115,55.644005,-12.955596,10.597772,-7.37303,-1.6268257,14.420417,-13.564502,18.121395,-40.926342,62.133053,-3.8900704,-1.2770158,12.656101,2.1863117,-11.816502,12.416094,67.99163,-10.998161,-5.5043697,0.30240297
229,1.6907587051391602,154.9486541748047,76.5946273803711,0.15092260118487502,-4.645288368830019,-88.02036423084147,-3.9200985,-1.5954434,0.7697294,26.120918,-19.987753,0.4089492,-28.112535,-5.380636,-1.6969374,57.54678,-13.535411,10.414108,-7.453984,-1.5949465,14.259735,-13.180378,18.042152,-41.341022,62.139034,-3.510679,-1.3688413,12.450619,2.4039402,-11.795697,12.053672,67.91166,-10.858828,-5.470167,0.2501312
230,1.634900450706482,155.41880798339844,76.67267608642578,0.08169799238199063,-4.66814424947064,-87.67616669494939,-4.196744,-1.5940845,0.4495049,25.767439,-19.53659,0.33372685,-27.518751,-5.4733152,-1.6016376,59.34665,-14.104537,10.247355,-7.546965,-1.5785228,14.102362,-12.8181505,17.984167,-41.8137,62.18061,-3.0551324,-1.489644,12.274333,2.6342475,-11.787536,11.677319,67.75466,-10.702341,-5.449205,0.21623954
231,1.5787968635559082,155.89024353027344,76.73511505126953,0.025059050598384855,-4.693237735485409,-87.32875867031201,-4.491431,-1.6098517,0.1326068,25.456936,-19.079498,0.24330458,-26.85842,-5.5794024,-1.5200661,61.043858,-14.658372,10.078397,-7.631666,-1.5785943,13.952657,-12.476102,17.941969,-42.30547,62.244663,-2.626689,-1.5991746,12.141916,2.8563755,-11.793268,11.325491,67.556564,-10.532856,-5.443177,0.1926099
232,1.5255261659622192,156.3535919189453,76.77986907958984,-0.012221152854808298,-4.719273892636068,-87.00029652968152,-4.807036,-1.6453402,-0.16370237,25.19248,-18.602213,0.16345206,-26.144695,-5.6984015,-1.4508636,62.636547,-15.19134,9.887644,-7.691005,-1.5959967,13.814645,-12.147235,17.907106,-42.76603,62.316772,-2.3190649,-1.6564454,12.067143,3.0476878,-11.815165,11.041357,67.35493,-10.352532,-5.4540935,0.17103982
233,1.477968692779541,156.82269287109375,76.81044006347656,-0.030463100793065998,-4.746075099850333,-86.69400199178409,-5.152796,-1.7032633,-0.43613935,24.990332,-18.095234,0.104607664,-25.379898,-5.836724,-1.3978581,64.13659,-15.700304,9.667235,-7.7242928,-1.6320736,13.688378,-11.835822,17.874622,-43.200367,62.396713,-2.1618512,-1.6430914,12.081066,3.207098,-11.856221,10.842003,67.14321,-10.144106,-5.4887033,0.14957641
234,1.4191734790802002,157.28997802734375,76.83383178710938,-0.032428693778851346,-4.774563897508714,-86.3991298198924,-5.5242753,-1.7824329,-0.6926762,24.843405,-17.567907,0.05148075,-24.558397,-5.9924645,-1.3603748,65.5426,-16.189217,9.428208,-7.7408485,-1.6841676,13.571192,-11.546327,17.84321,-43.627243,62.49788,-2.1020505,-1.5833993,12.167157,3.3445077,-11.918049,10.705075,66.90781,-9.910567,-5.5438695,0.13296959
235,1.3601658344268799,157.7513885498047,76.84538269042969,-0.01780329804481226,-4.804689902530402,-86.11663462033532,-5.90416,-1.8783544,-0.93267775,24.719328,-17.033176,-0.008692887,-23.682594,-6.1530175,-1.329904,66.83484,-16.66411,9.1790285,-7.739165,-1.7458178,13.463013,-11.272267,17.809324,-44.017662,62.625134,-2.110769,-1.4999517,12.267568,3.4559898,-11.9983425,10.613385,66.67118,-9.685916,-5.604734,0.123672105
236,1.3019455671310425,158.20770263671875,76.84858703613281,0.007661938718348591,-4.836161750981251,-85.84752598586415,-6.2807403,-1.9867368,-1.156008,24.598429,-16.511929,-0.08849255,-22.755768,-6.30461,-1.2972984,67.99557,-17.132235,8.929414,-7.7190433,-1.8104556,13.363565,-11.008746,17.769045,-44.343613,62.78557,-2.161038,-1.4158306,12.324498,3.532739,-12.092255,10.55192,66.46543,-9.50351,-5.6613054,0.12252793
237,1.2492276430130005,158.66680908203125,76.84373474121094,0.05077684752354375,-4.872709826981266,-85.58999171924255,-6.6413856,-2.1160858,-1.3654698,24.459045,-15.98759,-0.19724046,-21.772165,-6.455833,-1.2613423,69.03239,-17.60556,8.674257,-7.6803093,-1.8854194,13.277644,-10.7577915,17.718681,-44.596367,62.983894,-2.2600222,-1.3259951,12.331654,3.5732546,-12.198144,10.519665,66.28894,-9.379003,-5.709578,0.13533615
238,1.1923145055770874,159.1318817138672,76.82766723632812,0.11213811837551821,-4.913609674504412,-85.3444129394399,-6.996644,-2.2651122,-1.5603017,24.31943,-15.458014,-0.32644272,-20.733713,-6.6084604,-1.2269015,69.95247,-18.076733,8.411469,-7.6224914,-1.9714565,13.202892,-10.524886,17.656866,-44.79388,63.222404,-2.4183512,-1.2222273,12.317578,3.5801048,-12.317127,10.523013,66.13185,-9.293071,-5.7561765,0.15856662
