unveil-humanoid-operators/unveil-humanoid-operators.github.io/feature-analysis-animation/data/feature_matrix_instances/weight_ankle_peak_vel_gesture_A260_don_t_know_with_hands_001__A260.csv
Frame,root_translateX,root_translateY,root_translateZ,root_rotateX,root_rotateY,root_rotateZ,left_hip_pitch_joint_dof,left_hip_roll_joint_dof,left_hip_yaw_joint_dof,left_knee_joint_dof,left_ankle_pitch_joint_dof,left_ankle_roll_joint_dof,right_hip_pitch_joint_dof,right_hip_roll_joint_dof,right_hip_yaw_joint_dof,right_knee_joint_dof,right_ankle_pitch_joint_dof,right_ankle_roll_joint_dof,waist_yaw_joint_dof,waist_roll_joint_dof,waist_pitch_joint_dof,left_shoulder_pitch_joint_dof,left_shoulder_roll_joint_dof,left_shoulder_yaw_joint_dof,left_elbow_joint_dof,left_wrist_roll_joint_dof,left_wrist_pitch_joint_dof,left_wrist_yaw_joint_dof,right_shoulder_pitch_joint_dof,right_shoulder_roll_joint_dof,right_shoulder_yaw_joint_dof,right_elbow_joint_dof,right_wrist_roll_joint_dof,right_wrist_pitch_joint_dof,right_wrist_yaw_joint_dof
0,0.059027474373579025,2.065739393234253,77.65406799316406,-0.1203660551451716,2.176441098437076,-91.64071388332492,0.1604198,8.336986,17.271152,14.932377,-16.210821,-6.977241,-2.0080988,-6.6659837,-12.271432,15.043254,-14.937997,5.4630976,-2.4695492,1.3535968,4.170042,0.8027976,20.892502,-48.589703,53.824554,7.399807,-3.5846188,7.7951093,-4.2852597,-18.359173,46.243156,58.224354,0.36602676,-0.9637561,-3.3241715
1,0.06111045181751251,2.063778877258301,77.6545181274414,-0.11323251817051662,2.171879167140685,-91.65569861881471,0.17016311,8.329767,17.289862,14.937114,-16.214817,-6.970317,-2.0348022,-6.6782985,-12.236879,15.102039,-14.963158,5.4550543,-2.456986,1.3481436,4.2094784,0.8371606,20.918404,-48.575893,53.813583,7.2026596,-3.6127815,7.764667,-4.291692,-18.368237,46.310802,58.26595,0.48493743,-0.98409337,-3.2863328
2,0.06253260374069214,2.0617692470550537,77.65369415283203,-0.10665559816198085,2.167414787618372,-91.67019695580612,0.17981061,8.322994,17.307995,14.942056,-16.218908,-6.9635434,-2.059498,-6.6897397,-12.201848,15.15699,-14.987012,5.4467144,-2.4336684,1.3429927,4.2457857,0.85370857,20.926697,-48.573147,53.821033,7.025341,-3.6332426,7.7322783,-4.2926774,-18.371126,46.353916,58.310593,0.58632976,-1.0019346,-3.246099
3,0.06506891548633575,2.0619359016418457,77.65336608886719,-0.09916801250398088,2.1627842187524275,-91.68587629161797,0.19048823,8.315077,17.327206,14.944624,-16.221514,-6.9564953,-2.086553,-6.7025943,-12.167903,15.216105,-15.0117445,5.439053,-2.434012,1.3392749,4.2827125,0.8945745,20.94348,-48.546856,53.82414,6.812151,-3.6704123,7.705435,-4.31068,-18.376207,46.450783,58.368553,0.72204536,-1.0251136,-3.2116795
4,0.06808629631996155,2.0622479915618896,77.653076171875,-0.089589135460515,2.157125275133449,-91.70468030210242,0.20566426,8.304099,17.348843,14.939682,-16.219807,-6.9486537,-2.1186614,-6.7188387,-12.136607,15.28521,-15.038462,5.4330707,-2.4390671,1.3332539,4.335049,0.94479364,20.969067,-48.497288,53.848503,6.523057,-3.7499208,7.687031,-4.343613,-18.382406,46.575657,58.44686,0.88912153,-1.063428,-3.179778
5,0.07180852442979813,2.0631942749023438,77.65274810791016,-0.07740445388586208,2.1504819153134096,-91.72979794314368,0.22746976,8.289175,17.376114,14.924814,-16.213472,-6.9398336,-2.1588619,-6.739455,-12.107915,15.369907,-15.069068,5.4291325,-2.434656,1.3221663,4.4012966,0.9920717,20.996277,-48.45021,53.912098,6.1793694,-3.8770099,7.6813498,-4.3885903,-18.388985,46.73878,58.54335,1.0648434,-1.1124653,-3.1544518
6,0.07573123276233673,2.064784526824951,77.65126037597656,-0.06321416197865401,2.14311354492507,-91.75930889287203,0.2545227,8.271396,17.407257,14.901549,-16.202839,-6.930412,-2.204518,-6.7633815,-12.081161,15.4648075,-15.101756,5.426793,-2.424176,1.3080686,4.4767466,1.036516,21.021355,-48.404636,54.007534,5.7938066,-4.0385942,7.684739,-4.439528,-18.395922,46.92645,58.65413,1.2445276,-1.1695462,-3.1338344
7,0.07767580449581146,2.068197250366211,77.6515884399414,-0.047956761557629665,2.135053688749791,-91.78783512221425,0.28144836,8.2518425,17.436747,14.876667,-16.190008,-6.920426,-2.2513795,-6.7888756,-12.056716,15.562429,-15.134532,5.425389,-2.4356866,1.295262,4.5628138,1.1026738,21.061363,-48.31486,54.106976,5.2978377,-4.2333884,7.6907635,-4.5072827,-18.405579,47.143635,58.789627,1.5013622,-1.2466403,-3.1130035
8,0.07841505110263824,2.0722973346710205,77.65360260009766,-0.032404802317277756,2.1262174535984424,-91.8100337842646,0.30206287,8.2321615,17.45885,14.859222,-16.178263,-6.909998,-2.2957313,-6.8145494,-12.034852,15.656763,-15.165758,5.4243197,-2.4427903,1.284621,4.6571183,1.159814,21.107065,-48.206192,54.234917,4.608214,-4.4604025,7.696343,-4.5719676,-18.41536,47.31971,58.95774,1.8822275,-1.3572054,-3.0835197
9,0.08206752687692642,2.0764381885528564,77.65564727783203,-0.018066336203233842,2.1147891976142117,-91.82213978626113,0.3127608,8.214981,17.467602,14.857468,-16.17206,-6.900856,-2.3362033,-6.839197,-12.018401,15.75049,-15.1981945,5.4239507,-2.4643116,1.2761639,4.767803,1.2211478,21.172924,-48.07206,54.379753,3.7066803,-4.7225776,7.712779,-4.6492305,-18.426352,47.510677,59.167618,2.3835373,-1.4988768,-3.0658138
10,0.08536632359027863,2.0800797939300537,77.65550231933594,-0.004063794033500901,2.1012882405535698,-91.82762595426993,0.3174579,8.198751,17.467495,14.86464,-16.168676,-6.892396,-2.3744824,-6.863777,-12.006393,15.844746,-15.231436,5.424367,-2.4879115,1.2683493,4.89106,1.2785269,21.249458,-47.926754,54.551453,2.6315033,-5.0194197,7.736551,-4.732564,-18.436356,47.708626,59.41458,2.979941,-1.6669322,-3.0554242
11,0.07879216223955154,2.102550983428955,77.65240478515625,0.012360575371182897,2.0897734188111814,-91.83276240757645,0.32286733,8.178112,17.468815,14.863638,-16.157675,-6.8810816,-2.4137034,-6.8910513,-11.992816,15.934766,-15.260477,5.4248886,-2.5147305,1.2621707,5.0139437,1.3463229,21.337849,-47.730774,54.724464,1.3996384,-5.3427672,7.735245,-4.8077135,-18.445816,47.837395,59.683147,3.709149,-1.8680458,-3.0097227
12,0.07773058116436005,2.109179973602295,77.65435028076172,0.03413129553505771,2.0841832882549287,-91.84353501663885,0.33548746,8.147608,17.481958,14.839133,-16.130554,-6.863212,-2.4583492,-6.923816,-11.971746,16.01891,-15.282413,5.4246893,-2.5394022,1.2586744,5.124625,1.4323493,21.440271,-47.452106,54.87412,0.024698233,-5.683369,7.676713,-4.857372,-18.455767,47.811237,59.95128,4.6074953,-2.1073482,-2.884713
13,0.08057357370853424,2.1069111824035645,77.65853881835938,0.06461275551683528,2.0826156298456198,-91.86239733762376,0.36442122,8.101102,17.513266,14.779875,-16.079987,-6.835993,-2.5080225,-6.9674363,-11.938922,16.101229,-15.298598,5.423946,-2.5583823,1.2569656,5.226378,1.5307182,21.558443,-47.105602,55.00031,-1.5588678,-6.0339146,7.545638,-4.8900857,-18.46732,47.6236,60.23166,5.663684,-2.3839562,-2.638648
14,0.09531742334365845,2.1146039962768555,77.6634521484375,0.10149086301822863,2.0839861838858766,-91.88577596207274,0.4039728,8.043039,17.556047,14.696365,-16.012592,-6.802039,-2.5605438,-7.0185084,-11.898543,16.18043,-15.309535,5.4229407,-2.5729227,1.2570138,5.324559,1.6365628,21.692616,-46.703102,55.110844,-3.339157,-6.3963995,7.3577976,-4.9127192,-18.480066,47.31136,60.524944,6.8666477,-2.6902316,-2.302003
15,0.10077507793903351,2.123002052307129,77.6736831665039,0.13827838482882987,2.0933818798769366,-91.91092627881434,0.43767986,7.983936,17.600851,14.604883,-15.938421,-6.7657485,-2.6181092,-7.0679045,-11.856786,16.247849,-15.311565,5.4212885,-2.585059,1.2598672,5.41114,1.7605919,21.842627,-46.202534,55.189316,-5.182137,-6.7748713,7.128566,-4.911631,-18.493292,46.85397,60.794056,8.254309,-3.0216198,-1.9380746
16,0.10216803103685379,2.1299052238464355,77.687255859375,0.16884334321197736,2.1159184284155117,-91.93518412549115,0.44919991,7.9345303,17.638145,14.521914,-15.867842,-6.73159,-2.6837592,-7.1065946,-11.819823,16.296295,-15.301578,5.418641,-2.596813,1.2668128,5.4790096,1.9127026,22.008877,-45.56167,55.217842,-6.955122,-7.1753464,6.8738375,-4.8736553,-18.506815,46.22982,61.000027,9.865459,-3.375867,-1.609393
17,0.1055881530046463,2.135915994644165,77.7020034790039,0.1906791420330648,2.156247941667372,-91.95676236008894,0.42966032,7.897629,17.662941,14.450962,-15.802405,-6.6994295,-2.7605886,-7.131976,-11.790876,16.32173,-15.27723,5.4151826,-2.6101382,1.279543,5.52362,2.106213,22.191807,-44.7358,55.17997,-8.599948,-7.6095424,6.5649853,-4.7916374,-18.51873,45.39133,61.125847,11.7236395,-3.7429986,-1.3067653
18,0.10570701211690903,2.1568422317504883,77.71125030517578,0.2078008263396093,2.2105674591143076,-91.9774919299912,0.38932928,7.867514,17.681164,14.384016,-15.737491,-6.6673217,-2.846369,-7.148888,-11.76616,16.328896,-15.240662,5.410971,-2.6239839,1.2966365,5.5517597,2.330785,22.391163,-43.75359,55.081802,-10.196643,-8.067587,6.2022996,-4.6821933,-18.52711,44.36239,61.19242,13.805235,-4.123925,-1.0008878
19,0.10534457117319107,2.173717737197876,77.72376251220703,0.22176708717806365,2.2711003663020626,-91.99994949944411,0.34064308,7.8420095,17.699976,14.317366,-15.6715145,-6.636989,-2.9350002,-7.15981,-11.741243,16.322426,-15.195365,5.4055805,-2.6361215,1.3153495,5.5729966,2.5597754,22.60581,-42.688065,54.94105,-11.823141,-8.526889,5.846345,-4.562251,-18.531494,43.226727,61.213127,16.079325,-4.536901,-0.7222945
20,0.10506211221218109,2.1854374408721924,77.736083984375,0.23442709704932432,2.3301336491512097,-92.02662109509532,0.29593468,7.818973,17.726513,14.247437,-15.603063,-6.61019,-3.0205474,-7.1670547,-11.711828,16.307615,-15.145281,5.3985257,-2.6448355,1.3326827,5.5955963,2.769679,22.834166,-41.61208,54.78002,-13.554085,-8.968133,5.5578823,-4.4458284,-18.533815,42.069935,61.204716,18.51717,-5.0043855,-0.49944332
21,0.1044912114739418,2.1987996101379395,77.74972534179688,0.24581183298550086,2.388635450568713,-92.05982623979482,0.25420165,7.7993183,17.764866,14.17461,-15.529958,-6.5878606,-3.1047928,-7.1696315,-11.675153,16.282518,-15.087124,5.387045,-2.6483433,1.3487917,5.618297,2.9642057,23.075317,-40.521935,54.5891,-15.405152,-9.388405,5.380731,-4.319008,-18.536665,40.88457,61.14115,21.138357,-5.5419607,-0.33810875
22,0.10582142323255539,2.2199788093566895,77.76093292236328,0.2551618300041626,2.4496414019012307,-92.09760154181237,0.21005653,7.783573,17.810379,14.100827,-15.453946,-6.5688934,-3.1899126,-7.1670427,-11.63401,16.245832,-15.020513,5.3723464,-2.6474035,1.3650529,5.637564,3.1542432,23.328373,-39.386665,54.36414,-17.33712,-9.8023815,5.2720795,-4.176588,-18.540459,39.63362,61.020157,23.951773,-6.138816,-0.21266474
23,0.10238216817378998,2.247377634048462,77.76876068115234,0.26290137677959935,2.5087928622518,-92.1364556732791,0.17062932,7.769514,17.857714,14.022013,-15.377256,-6.552072,-3.2684903,-7.1612287,-11.592837,16.198805,-14.950564,5.359716,-2.6447644,1.3810141,5.657109,3.326998,23.592161,-38.23969,54.139675,-19.343119,-10.2167,5.162669,-4.041766,-18.544163,38.357864,60.89616,26.913887,-6.7802134,-0.10415709
24,0.10319086909294128,2.2638988494873047,77.77859497070312,0.26984287714639854,2.5615027955455436,-92.172671740834,0.1427949,7.754086,17.901993,13.934165,-15.302553,-6.5360813,-3.3328195,-7.1546636,-11.555934,16.141962,-14.881851,5.354602,-2.643716,1.3963035,5.680185,3.4683268,23.864302,-37.115265,53.952705,-21.418097,-10.633519,4.982975,-3.93924,-18.544281,37.09948,60.826637,29.9839,-7.4508786,0.0044726166
25,0.10390764474868774,2.277961254119873,77.78680419921875,0.275730867766109,2.606641589779698,-92.20575200988745,0.1338547,7.735526,17.943218,13.82592,-15.227861,-6.521085,-3.3770278,-7.147054,-11.52549,16.068382,-14.814087,5.362476,-2.6457846,1.41241,5.7030683,3.573386,24.14426,-36.03338,53.823673,-23.540003,-11.056782,4.702375,-3.8672554,-18.537327,35.862633,60.830235,33.27407,-8.186066,0.15143757
26,0.10405698418617249,2.2912001609802246,77.7981185913086,0.2805604180925853,2.646507116908023,-92.23735621367493,0.13819417,7.7157264,17.98362,13.702716,-15.152526,-6.507605,-3.4058416,-7.1373158,-11.498893,15.978951,-14.744672,5.379097,-2.6488557,1.429004,5.724332,3.64918,24.4317,-34.974403,53.735714,-25.721119,-11.479251,4.3599153,-3.8166912,-18.521639,34.62777,60.882275,36.772507,-8.980678,0.33096978
27,0.10673811286687851,2.306837320327759,77.80718994140625,0.28450756089535845,2.682136985655725,-92.2677308528944,0.1456273,7.696803,18.02123,13.582118,-15.079315,-6.494952,-3.429054,-7.126802,-11.473228,15.888395,-14.676175,5.3953533,-2.652059,1.4423968,5.7490606,3.7001114,24.723322,-33.910778,53.672276,-28.006992,-11.884756,3.9906573,-3.8051643,-18.497396,33.40606,60.980663,40.251072,-9.764811,0.48148295
28,0.10756590962409973,2.3256492614746094,77.817138671875,0.28827564385874155,2.7146262946441873,-92.29717704445677,0.14428069,7.68167,18.053808,13.485257,-15.012531,-6.4825,-3.4564795,-7.1167192,-11.445544,15.811646,-14.611294,5.402207,-2.656246,1.4488267,5.782159,3.7303038,25.013311,-32.81361,53.618423,-30.443445,-12.259338,3.630366,-3.8505573,-18.466496,32.211315,61.124146,43.477512,-10.477714,0.52743024
29,0.10717237740755081,2.345595359802246,77.82815551757812,0.29248267368650516,2.7440113102317643,-92.32539521593453,0.1311295,7.670139,18.07913,13.416208,-14.950467,-6.4696617,-3.4908495,-7.107825,-11.414103,15.75251,-14.549932,5.395908,-2.6630967,1.4472297,5.826103,3.731779,25.297327,-31.675632,53.585068,-33.107807,-12.590671,3.2613652,-3.9572666,-18.429245,31.040855,61.31979,46.390186,-11.131357,0.41560715
30,0.10735654830932617,2.3658688068389893,77.83990478515625,0.29676580140824477,2.769776237822883,-92.35232286275627,0.1118933,7.6611342,18.098768,13.366148,-14.893069,-6.4568386,-3.5270183,-7.0994806,-11.380822,15.703711,-14.491342,5.381716,-2.6733134,1.4405724,5.8762693,3.7027376,25.574463,-30.512468,53.584415,-35.955288,-12.885651,2.874232,-4.113717,-18.386307,29.891737,61.5679,49.112236,-11.766201,0.18673028
31,0.10725816339254379,2.3890316486358643,77.8452377319336,0.29960941784374934,2.7920396143549637,-92.37857630444047,0.09092287,7.655382,18.116718,13.327537,-14.841466,-6.445071,-3.5618422,-7.0902815,-11.348265,15.660085,-14.43538,5.3642745,-2.6853123,1.4306833,5.9261513,3.6569002,25.84355,-29.327322,53.600975,-38.845207,-13.166338,2.5172825,-4.311977,-18.342735,28.77857,61.853554,51.6889,-12.365644,-0.10349184
32,0.10807305574417114,2.411834239959717,77.85242462158203,0.3002000924075137,2.810869636904858,-92.4047222497871,0.07296234,7.653173,18.137083,13.292535,-14.796892,-6.43517,-3.593303,-7.0796313,-11.318773,15.620361,-14.384213,5.3481236,-2.6984386,1.4202635,5.9700766,3.6083512,26.103498,-28.12202,53.6178,-41.63819,-13.46127,2.23777,-4.542253,-18.306353,27.716223,62.157288,54.16463,-12.90628,-0.4002282
33,0.10724944621324539,2.4374427795410156,77.85665130615234,0.29627441723170245,2.8279679861926095,-92.42974630097186,0.05483012,7.656826,18.159296,13.263357,-14.761635,-6.4284787,-3.6207762,-7.0654097,-11.295348,15.579809,-14.335937,5.3309298,-2.7136633,1.4129666,6.0081215,3.5615299,26.352036,-26.877613,53.631683,-44.34534,-13.790354,2.038502,-4.8074155,-18.283823,26.699198,62.478184,56.56597,-13.370712,-0.73789936
34,0.10840760916471481,2.455166816711426,77.86666107177734,0.2893031390950383,2.8426893466843257,-92.45373582960408,0.035733443,7.66527,18.181982,13.242399,-14.734114,-6.424076,-3.6466682,-7.0490446,-11.27571,15.543943,-14.291944,5.3114185,-2.731061,1.4080249,6.042862,3.5066848,26.58879,-25.599636,53.65364,-47.02728,-14.143352,1.8953699,-5.1029663,-18.279282,25.722702,62.816685,58.86614,-13.779494,-1.13914
35,0.10728148370981216,2.4777235984802246,77.87216186523438,0.2820645943255991,2.851882693587872,-92.47906891258663,0.022745188,7.674324,18.206768,13.224218,-14.711534,-6.419806,-3.6672,-7.033124,-11.255472,15.510855,-14.251219,5.295863,-2.747026,1.4020816,6.0734076,3.4391432,26.816149,-24.32712,53.683704,-49.616272,-14.508259,1.8164537,-5.404103,-18.295996,24.80118,63.150826,61.028152,-14.157437,-1.529589
36,0.11377871036529541,2.4930527210235596,77.87653350830078,0.27740867201207764,2.852233836588296,-92.50797972748974,0.022074308,7.679885,18.235205,13.20545,-14.692197,-6.413438,-3.679618,-7.020262,-11.22987,15.481142,-14.214168,5.290602,-2.757408,1.3914844,6.09921,3.3537917,27.038397,-23.099771,53.72044,-52.043243,-14.873496,1.8120598,-5.688477,-18.336895,23.948238,63.460815,63.014477,-14.522756,-1.8334111
37,0.11470932513475418,2.5037643909454346,77.88108825683594,0.2768782689344579,2.8402826667271817,-92.54087048413207,0.039283957,7.6793766,18.267294,13.181925,-14.675903,-6.4038844,-3.68088,-7.012499,-11.197604,15.456087,-14.182603,5.3022633,-2.7575119,1.3724504,6.123516,3.2468665,27.257982,-21.918003,53.760498,-54.30471,-15.262943,1.925398,-5.954538,-18.406893,23.175379,63.74366,64.80383,-14.875812,-2.0297544
38,0.12225253880023956,2.5217926502227783,77.88023376464844,0.27855542609314793,2.8187357810925526,-92.57674019086888,0.06870332,7.6759043,18.302364,13.159125,-14.664957,-6.3924747,-3.67364,-7.0079246,-11.161074,15.435762,-14.1564045,5.325849,-2.7492118,1.3486845,6.1466837,3.1226344,27.4751,-20.76493,53.801243,-56.433083,-15.684113,2.1378114,-6.2066097,-18.5079,22.470108,64.00174,66.42217,-15.200307,-2.1641145
39,0.1286759227514267,2.5395524501800537,77.87967681884766,0.2806357036823992,2.7934239725012997,-92.61537675698291,0.10455209,7.6720147,18.340977,13.136293,-14.654725,-6.3807316,-3.6625009,-7.0037274,-11.121658,15.41673,-14.130807,5.3501005,-2.7376199,1.3267775,6.1639075,2.9877384,27.691994,-19.655766,53.842842,-58.41292,-16.096092,2.3706243,-6.43507,-18.635721,21.810675,64.22752,67.90154,-15.486676,-2.2587526
40,0.13062365353107452,2.5559141635894775,77.88213348388672,0.28085968960804547,2.7703465636382703,-92.65697353042495,0.13800201,7.6711035,18.383526,13.119422,-14.6438465,-6.3700643,-3.654381,-6.997317,-11.080388,15.400378,-14.10365,5.3636546,-2.7264655,1.3119061,6.169763,2.8485124,27.912273,-18.607296,53.88645,-60.228783,-16.452007,2.5484653,-6.6331286,-18.782887,21.173235,64.4182,69.270935,-15.727627,-2.3353071
41,0.1368948519229889,2.569169759750366,77.889404296875,0.2787851980767526,2.751955023734064,-92.70173848736988,0.16880824,7.6736803,18.431389,13.104628,-14.628393,-6.3620377,-3.651412,-6.988105,-11.03755,15.386315,-14.072926,5.361212,-2.715263,1.3038907,6.158338,2.7070687,28.139347,-17.61795,53.92924,-61.866127,-16.736328,2.6694126,-6.795255,-18.945545,20.553167,64.56996,70.50885,-15.906389,-2.3862002
42,0.14218884706497192,2.5808186531066895,77.89317321777344,0.2755874950417283,2.7347224269384527,-92.7494946336553,0.19932726,7.678225,18.483936,13.094107,-14.61224,-6.3554153,-3.6510026,-6.9775805,-10.992394,15.376843,-14.041861,5.349537,-2.702068,1.2980598,6.133741,2.563204,28.375244,-16.681005,53.968723,-63.33802,-16.972576,2.7734783,-6.9292665,-19.123743,19.96109,64.690414,71.60791,-16.031012,-2.4079006
43,0.14690682291984558,2.5925047397613525,77.89811706542969,0.271893583301948,2.715752804346776,-92.79990349457154,0.232542,7.68381,18.538898,13.086121,-14.596742,-6.347794,-3.6479287,-6.9661083,-10.945129,15.366301,-14.009714,5.3355985,-2.688236,1.2942241,6.105858,2.421276,28.621248,-15.8051405,54.004955,-64.66845,-17.168037,2.8484833,-7.046,-19.313,19.396032,64.79279,72.61907,-16.132784,-2.4282253
44,0.15272586047649384,2.6020114421844482,77.9046401977539,0.2685887383795645,2.6920843238341994,-92.85256241551599,0.27176538,7.689207,18.594494,13.077798,-14.58242,-6.336686,-3.6365385,-6.953702,-10.89592,15.347754,-13.974691,5.3262606,-2.674481,1.2910659,6.0834036,2.2838447,28.878069,-15.001022,54.04045,-65.881584,-17.329668,2.8817122,-7.1594543,-19.50683,18.856771,64.89515,73.592224,-16.244768,-2.4732203
45,0.15730604529380798,2.611144781112671,77.91210174560547,0.2668041643601742,2.6624805251952846,-92.90889200682956,0.31766737,7.69366,18.652151,13.072246,-14.571009,-6.318553,-3.615295,-6.941252,-10.84327,15.319849,-13.936203,5.322953,-2.6588182,1.287452,6.066895,2.1515207,29.146694,-14.268195,54.07469,-66.9668,-17.448294,2.8599527,-7.2707367,-19.699873,18.343885,65.00502,74.54127,-16.37955,-2.542885
46,0.16519080102443695,2.6218228340148926,77.91806030273438,0.2657922457500529,2.62861596068982,-92.96859809834575,0.3683067,7.6977754,18.712309,13.069685,-14.561573,-6.2956657,-3.5879862,-6.9287243,-10.787422,15.287551,-13.896017,5.3221474,-2.6427836,1.2818863,6.0512867,2.0263846,29.42832,-13.600537,54.105804,-67.91683,-17.522041,2.7963655,-7.379893,-19.891668,17.858862,65.12102,75.43768,-16.520771,-2.6255572
47,0.1705881506204605,2.631251335144043,77.92523956298828,0.2639613841628874,2.5920169054604445,-93.02870898487205,0.42311916,7.702915,18.771183,13.065836,-14.552976,-6.2742767,-3.5546048,-6.914355,-10.7316885,15.249633,-13.854035,5.323328,-2.6310534,1.2753332,6.0385013,1.9121236,29.721996,-13.00109,54.132626,-68.76118,-17.56851,2.7154691,-7.488918,-20.080208,17.400444,65.23797,76.2709,-16.657532,-2.7278714
48,0.17639853060245514,2.6361804008483887,77.93418884277344,0.25982049687540326,2.5540278503074028,-93.08598728252366,0.4802459,7.710201,18.824856,13.05836,-14.545336,-6.26057,-3.5176203,-6.8975325,-10.678957,15.210645,-13.814089,5.3261123,-2.6281118,1.2677097,6.030023,1.8102658,30.025753,-12.474216,54.15726,-69.5288,-17.606403,2.6417532,-7.6027217,-20.264023,16.967783,65.354225,77.029045,-16.779922,-2.857185
49,0.18063165247440338,2.644479751586914,77.9410400390625,0.2532153403993417,2.5129589676254565,-93.13858149033764,0.54185027,7.719144,18.869505,13.045609,-14.538177,-6.257872,-3.4728994,-6.8778505,-10.63057,15.167229,-13.775251,5.3321896,-2.6386867,1.2595875,6.0266438,1.7231565,30.34163,-12.034632,54.17546,-70.21318,-17.638779,2.580895,-7.7243886,-20.442997,16.566347,65.47408,77.70049,-16.884918,-3.026014
50,0.1841089278459549,2.6529219150543213,77.94567108154297,0.2450169343648279,2.4686566743586487,-93.18831550655732,0.60921025,7.728939,18.908302,13.02682,-14.530366,-6.262306,-3.4204175,-6.8559823,-10.584815,15.117976,-13.736164,5.341239,-2.6585155,1.2503397,6.0279455,1.6506115,30.669857,-11.675392,54.18609,-70.80358,-17.656563,2.5207183,-7.848664,-20.616293,16.193775,65.59542,78.294075,-16.97873,-3.2277408
51,0.18798647820949554,2.6595892906188965,77.94427490234375,0.23474837754612177,2.425249816761271,-93.2383952501298,0.67512226,7.7417407,18.94746,13.009241,-14.525544,-6.269318,-3.369694,-6.831925,-10.539916,15.071368,-13.698921,5.349567,-2.6803174,1.2386053,6.0316644,1.5889745,31.004013,-11.367782,54.200226,-71.32354,-17.661522,2.4571495,-7.9736915,-20.783302,15.838825,65.713234,78.82765,-17.065254,-3.4402966
52,0.19370225071907043,2.6619873046875,77.94602966308594,0.22183655492738039,2.3867192815571094,-93.29187438047025,0.7334584,7.759646,18.993238,12.99943,-14.527134,-6.2743726,-3.3297572,-6.805393,-10.494153,15.035173,-13.665194,5.353464,-2.697157,1.225108,6.0353236,1.5333259,31.333424,-11.08289,54.230785,-71.79495,-17.656271,2.3856156,-8.095079,-20.941994,15.490562,65.82068,79.319405,-17.147701,-3.6418054
53,0.19542711973190308,2.669548511505127,77.94590759277344,0.20378256791446178,2.3539000806421577,-93.34958985703216,0.78133935,7.7873135,19.047998,13.002809,-14.53925,-6.277256,-3.3019142,-6.773715,-10.449462,15.011702,-13.6349535,5.3498845,-2.7093866,1.2138823,6.036863,1.480784,31.652802,-10.820675,54.290302,-72.19275,-17.641685,2.2950618,-8.214747,-21.092775,15.149828,65.92298,79.76761,-17.232464,-3.8320122
54,0.2017585039138794,2.6761322021484375,77.94615173339844,0.18168290381333693,2.324644805819558,-93.40970834593506,0.8242909,7.8216615,19.108492,13.0112705,-14.557376,-6.279957,-3.2824543,-6.7377696,-10.405963,14.997862,-13.607664,5.3414683,-2.7211924,1.2057828,6.0374923,1.4321352,31.962408,-10.593792,54.373337,-72.51376,-17.618706,2.1910105,-8.336753,-21.236675,14.822606,66.027466,80.16503,-17.31633,-4.0187874
55,0.20727308094501495,2.6851813793182373,77.94689178466797,0.16033431937711615,2.2987815399795983,-93.47207468606227,0.8622953,7.8555155,19.17139,13.022893,-14.577415,-6.281565,-3.2692022,-6.70288,-10.359431,14.987063,-13.582382,5.333199,-2.7319345,1.1955634,6.038336,1.386924,32.259716,-10.390851,54.468346,-72.810265,-17.589605,2.0941348,-8.460684,-21.37378,14.508927,66.1245,80.52082,-17.38844,-4.1995616
56,0.2094966173171997,2.691906213760376,77.9484634399414,0.1450050070391253,2.276071597601515,-93.53610360137631,0.89891803,7.880642,19.233883,13.028627,-14.591804,-6.281003,-3.2601824,-6.673829,-10.305803,14.972095,-13.557348,5.3300247,-2.7426867,1.1780999,6.040211,1.3461456,32.54158,-10.19885,54.564068,-73.13434,-17.557741,2.025585,-8.5908985,-21.504751,14.211013,66.211044,80.844444,-17.438623,-4.370271
57,0.21304108202457428,2.6999471187591553,77.9503173828125,0.13768491221490745,2.257033416303996,-93.60134063700394,0.93348885,7.8941655,19.294222,13.027005,-14.598161,-6.2769375,-3.2537193,-6.652222,-10.243521,14.946989,-13.531408,5.3347354,-2.7562692,1.1509206,6.0430875,1.3133289,32.80626,-10.013275,54.65949,-73.51316,-17.524155,1.9942365,-8.730637,-21.63105,13.930413,66.28269,81.13173,-17.454218,-4.5333714
58,0.21871067583560944,2.707732677459717,77.95075225830078,0.13542305408999258,2.2416334852450346,-93.66820104048868,0.9645536,7.900798,19.354332,13.023501,-14.601619,-6.2702494,-3.2514899,-6.6353254,-10.17492,14.916859,-13.505412,5.344159,-2.7721412,1.1181883,6.046881,1.2883905,33.053432,-9.83968,54.759117,-73.91348,-17.48807,1.988017,-8.876111,-21.752813,13.666602,66.341255,81.38048,-17.443443,-4.6904078
59,0.2239411175251007,2.7172720432281494,77.95523071289062,0.1358758398143099,2.2287542770704825,-93.73750134344682,0.994926,7.903254,19.416603,13.015465,-14.601815,-6.263304,-3.255684,-6.621733,-10.10172,14.891194,-13.481339,5.3545303,-2.786731,1.0839819,6.0517,1.2651005,33.28315,-9.680752,54.86204,-74.29693,-17.449474,1.9956572,-9.02526,-21.869703,13.4190445,66.39665,81.60173,-17.428186,-4.835231
60,0.23251157999038696,2.728264808654785,77.95738220214844,0.13647210811985638,2.2172221891863355,-93.81005215937702,1.0272887,7.9042864,19.483547,13.001807,-14.599815,-6.2584844,-3.2690594,-6.610136,-10.025691,14.879996,-13.460765,5.362021,-2.7966695,1.052219,6.0577826,1.2381063,33.49545,-9.539024,54.966755,-74.62538,-17.408287,2.0055542,-9.17565,-21.980625,13.187299,66.45804,81.80668,-17.430447,-4.9622874
61,0.24100284278392792,2.7402536869049072,77.95990753173828,0.1382599723960872,2.2063279767255652,-93.88664129610484,1.0628847,7.902548,19.556004,12.981852,-14.594681,-6.257365,-3.2942686,-6.602416,-9.945421,14.890283,-13.446473,5.364722,-2.8013868,1.022685,6.0667562,1.2062721,33.690025,-9.42007,55.07454,-74.88604,-17.3649,2.0216358,-9.329615,-22.08391,12.9682865,66.52946,81.99657,-17.460516,-5.0665364
62,0.250375360250473,2.7530934810638428,77.96049499511719,0.1420564967789946,2.1967893129230105,-93.96651875053765,1.1005042,7.897021,19.632607,12.956304,-14.58649,-6.2583237,-3.3300567,-6.5989156,-9.860436,14.91715,-13.437742,5.365013,-2.8021944,0.99324787,6.0777335,1.1711067,33.867035,-9.322313,55.18674,-75.10059,-17.319626,2.047198,-9.488014,-22.179543,12.762944,66.606285,82.16571,-17.505302,-5.152227
63,0.2555373013019562,2.7673351764678955,77.95930480957031,0.1449906730718147,2.1897905804868265,-94.04884903248178,1.1368171,7.8920765,19.712515,12.927846,-14.577419,-6.2591195,-3.3708367,-6.5946712,-9.7744,14.946992,-13.428009,5.3655095,-2.7989361,0.9657171,6.0876527,1.1339478,34.026913,-9.2348995,55.299744,-75.281166,-17.271807,2.071383,-9.644863,-22.268604,12.575993,66.684265,82.31451,-17.551813,-5.2262955
64,0.2669585645198822,2.7789306640625,77.95877838134766,0.14434054697043563,2.1865007409299646,-94.13264495846394,1.167904,7.8918247,19.794802,12.900977,-14.570555,-6.2574525,-3.4122653,-6.585068,-9.690797,14.968581,-13.411813,5.368844,-2.79235,0.9415726,6.0934615,1.0973585,34.170124,-9.146024,55.408154,-75.43989,-17.220678,2.0832422,-9.795308,-22.353064,12.413173,66.759285,82.4434,-17.586626,-5.296111
65,0.2779148519039154,2.7891845703125,77.95732879638672,0.137627525415303,2.1878484012581865,-94.21937404244566,1.1931423,7.8997674,19.882034,12.875313,-14.567692,-6.251955,-3.4558163,-6.5670595,-9.611031,14.982238,-13.387905,5.3776064,-2.782128,0.92244637,6.0939255,1.0648714,34.29635,-9.051716,55.5108,-75.57301,-17.16245,2.0801244,-9.938907,-22.435308,12.282312,66.83039,82.5433,-17.604322,-5.3599615
66,0.2838290333747864,2.796704053878784,77.96105194091797,0.12713017547030972,2.1929894923717885,-94.30900414109169,1.214245,7.912872,19.973757,12.849502,-14.567022,-6.2441845,-3.502524,-6.5436993,-9.5331,14.992481,-13.359103,5.38981,-2.7690988,0.90783155,6.0915213,1.0367444,34.405186,-8.956147,55.60738,-75.67586,-17.098442,2.0679555,-10.076976,-22.514936,12.178886,66.89721,82.61721,-17.611654,-5.415716
67,0.2943328320980072,2.8079147338867188,77.96240234375,0.11631497900394527,2.2004262248861015,-94.39821294906646,1.2321635,7.925854,20.064865,12.823813,-14.565364,-6.2359805,-3.549685,-6.519712,-9.455292,14.99756,-13.327309,5.401057,-2.7553446,0.89494944,6.0884094,1.009876,34.497757,-8.860746,55.69672,-75.7603,-17.03542,2.0473838,-10.212161,-22.590927,12.092226,66.961754,82.68585,-17.614885,-5.4683657
68,0.3062177002429962,2.8244917392730713,77.96543884277344,0.1091088431649218,2.208649936612062,-94.48352322041337,1.2483226,7.933324,20.150528,12.797506,-14.559147,-6.2292805,-3.595834,-6.500355,-9.375652,14.998236,-13.295727,5.407197,-2.7426357,0.8810267,6.0871954,0.98095536,34.576122,-8.767326,55.77684,-75.838554,-16.979921,2.0190496,-10.344428,-22.660688,12.010254,67.02365,82.76941,-17.620085,-5.5231476
69,0.31913429498672485,2.841975688934326,77.96729278564453,0.10722385142309401,2.218437053050461,-94.56545158368469,1.2614515,7.9331174,20.229542,12.771489,-14.546354,-6.2255645,-3.6413345,-6.487155,-9.290494,14.991566,-13.263857,5.404701,-2.7297587,0.86346745,6.08797,0.9510998,34.64076,-8.672116,55.84385,-75.91262,-16.931456,1.9759352,-10.47558,-22.722054,11.926183,67.08459,82.88428,-17.630438,-5.5821004
70,0.3298235833644867,2.8554558753967285,77.97093963623047,0.10846891745991323,2.230153985821888,-94.6453690173839,1.2717689,7.928066,20.304525,12.745135,-14.528959,-6.2234373,-3.687099,-6.4774127,-9.201874,14.978894,-13.230768,5.3966537,-2.7171612,0.8439803,6.0854144,0.91252464,34.684444,-8.581154,55.914234,-75.97474,-16.891735,1.9200555,-10.614461,-22.76724,11.850431,67.16003,83.01334,-17.647736,-5.6416616
71,0.3399280607700348,2.8666319847106934,77.97441101074219,0.11023466362638797,2.24197936058404,-94.72133339491512,1.2809725,7.921535,20.375853,12.718576,-14.510676,-6.2206783,-3.7300541,-6.469203,-9.116694,14.962655,-13.196911,5.388414,-2.7056396,0.82314533,6.0903316,0.8866049,34.72934,-8.488187,55.956528,-76.03041,-16.851313,1.8664263,-10.737343,-22.817696,11.784706,67.21136,83.135506,-17.655888,-5.7006273
72,0.3500189781188965,2.8776297569274902,77.97723388671875,0.11043240334901022,2.2517580465755516,-94.79132100902949,1.2910464,7.9164977,20.443811,12.6924515,-14.495675,-6.214782,-3.76863,-6.460828,-9.041756,14.948705,-13.164578,5.385322,-2.6976507,0.8036762,6.0926247,0.84654856,34.761845,-8.416851,56.01276,-76.07574,-16.823267,1.8297504,-10.861741,-22.858562,11.744903,67.2712,83.220146,-17.66222,-5.755545
73,0.359005331993103,2.89035964012146,77.9781494140625,0.10790670848537606,2.257658635064484,-94.85529171219486,1.3055478,7.913753,20.51018,12.663941,-14.4845495,-6.2044516,-3.7991052,-6.4515424,-8.979038,14.935061,-13.13281,5.390305,-2.6921248,0.7846853,6.095526,0.7960805,34.786304,-8.365878,56.07391,-76.115585,-16.810923,1.8191617,-10.980159,-22.893696,11.741138,67.330635,83.25281,-17.66339,-5.8117857
74,0.3705180287361145,2.9030590057373047,77.9806137084961,0.10421287468571161,2.2613419169498656,-94.91427884017156,1.32207,7.9117584,20.574352,12.634521,-14.475651,-6.191145,-3.8233912,-6.4423375,-8.924833,14.919557,-13.100918,5.399978,-2.6892915,0.7665095,6.1060486,0.7557939,34.811924,-8.318491,56.11081,-76.15215,-16.803202,1.824931,-11.079704,-22.937998,11.763518,67.36424,83.25566,-17.651398,-5.869944
75,0.38224688172340393,2.9137063026428223,77.9839096069336,0.10028819861639106,2.2655722261281213,-94.96747949622518,1.335563,7.9095206,20.632532,12.606091,-14.466898,-6.17696,-3.847092,-6.4343605,-8.877547,14.905446,-13.069925,5.4104886,-2.6867878,0.74711764,6.1104712,0.69155085,34.82321,-8.298079,56.17488,-76.17132,-16.803293,1.8341955,-11.186769,-22.960716,11.786781,67.41701,83.237335,-17.644888,-5.9165144
76,0.3947792053222656,2.92445969581604,77.98627471923828,0.09710933188903632,2.27356454562929,-95.01428923460341,1.3392963,7.9068637,20.680845,12.583849,-14.458265,-6.1639786,-3.8752067,-6.428355,-8.835818,14.893728,-13.03998,5.4178634,-2.6964073,0.73109484,6.1179028,0.64734155,34.836494,-8.276177,56.221165,-76.17204,-16.788141,1.8340167,-11.296041,-22.991858,11.802796,67.4582,83.23553,-17.629093,-5.943053
77,0.40699779987335205,2.9351348876953125,77.98928833007812,0.09477582631477405,2.2875528042075763,-95.05394195966599,1.3288803,7.903738,20.716402,12.569636,-14.448811,-6.1513553,-3.9099364,-6.424403,-8.801433,14.883089,-13.009159,5.420053,-2.7142727,0.7159078,6.1215577,0.5990098,34.84362,-8.270579,56.282486,-76.13957,-16.759354,1.8173512,-11.417521,-23.008793,11.794284,67.51162,83.24582,-17.611753,-5.937349
78,0.41586101055145264,2.9491586685180664,77.9935531616211,0.09280252234468875,2.305505816716287,-95.08703251298265,1.3087674,7.9002266,20.741714,12.560296,-14.438898,-6.138413,-3.948599,-6.4222593,-8.774361,14.873716,-12.978049,5.4195395,-2.7338254,0.7037832,6.1287565,0.55033904,34.854477,-8.282157,56.339684,-76.08899,-16.715164,1.7915372,-11.528367,-23.037003,11.768133,67.54601,83.26508,-17.580084,-5.908593
79,0.4258347153663635,2.9609386920928955,77.99491119384766,0.09142728537691715,2.3236457718140917,-95.1147449970159,1.2863895,7.895817,20.7619,12.552396,-14.428919,-6.1275525,-3.9862912,-6.4215703,-8.750731,14.864909,-12.948656,5.419057,-2.7523918,0.6915863,6.1367106,0.49605644,34.861637,-8.306242,56.39644,-76.02934,-16.670267,1.7671876,-11.629358,-23.06154,11.729334,67.56715,83.27669,-17.549929,-5.8748994
80,0.43545016646385193,2.972062587738037,77.9976577758789,0.09058150812231337,2.338278445553249,-95.13869941639942,1.2702793,7.889642,20.781828,12.539554,-14.41788,-6.121197,-4.0183964,-6.421884,-8.726638,14.856501,-12.923228,5.4213576,-2.7724822,0.6775213,6.144795,0.444873,34.863655,-8.328281,56.44207,-75.97323,-16.634453,1.7546849,-11.729622,-23.078104,11.69276,67.58554,83.27255,-17.531622,-5.850992
81,0.4446142911911011,2.98354172706604,78.00100708007812,0.09066912872875853,2.347114436602903,-95.1584717532062,1.2646465,7.881179,20.802618,12.518739,-14.405476,-6.1238832,-4.0410457,-6.423265,-8.699439,14.847123,-12.902811,5.4273295,-2.7916765,0.6612261,6.1559935,0.39594862,34.861332,-8.3453045,56.473007,-75.925476,-16.607748,1.7603797,-11.819271,-23.091251,11.653826,67.58603,83.2494,-17.526022,-5.843682
82,0.45307809114456177,2.9978182315826416,77.99937438964844,0.09144758426386561,2.3526645353073965,-95.17368872966473,1.2651653,7.870645,20.821968,12.492174,-14.39149,-6.133002,-4.058498,-6.425755,-8.671486,14.838595,-12.886626,5.435436,-2.8197289,0.64177275,6.167562,0.36188644,34.858345,-8.351844,56.48667,-75.87943,-16.58438,1.7777388,-11.901328,-23.096592,11.625151,67.57038,83.21862,-17.531067,-5.8451815
83,0.46294498443603516,3.009464740753174,77.9975814819336,0.09250986270715446,2.3579852977004805,-95.18526317184674,1.263297,7.8600907,20.83864,12.469955,-14.379232,-6.1403165,-4.0744686,-6.4294577,-8.647297,14.830138,-12.8717985,5.4448953,-2.823095,0.63091266,6.185222,0.28616032,34.83855,-8.394557,56.514877,-75.82773,-16.570124,1.7955006,-11.959309,-23.116495,11.553202,67.533905,83.16526,-17.53117,-5.8462763
84,0.47039106488227844,3.0167882442474365,77.99796295166016,0.09402472993761998,2.3668968941616364,-95.19403883276415,1.2523049,7.8501177,20.85189,12.456523,-14.368403,-6.1375074,-4.0933747,-6.4347124,-8.630962,14.820483,-12.854623,5.4549017,-2.835974,0.62293935,6.1962895,0.22214025,34.81455,-8.442293,56.53384,-75.7725,-16.562078,1.804548,-12.019513,-23.136457,11.50697,67.50327,83.11703,-17.534271,-5.8445773
85,0.4782317578792572,3.0246617794036865,78.00122833251953,0.09653299958131159,2.381881073692612,-95.19915325496359,1.2266256,7.8407655,20.861004,12.45726,-14.359828,-6.118624,-4.118695,-6.4430323,-8.627365,14.811419,-12.834957,5.46706,-2.8615017,0.61346817,6.2046266,0.18456718,34.79598,-8.487064,56.52081,-75.71377,-16.558283,1.8054882,-12.091728,-23.149666,11.480503,67.48514,83.067696,-17.53743,-5.8325667
86,0.4885755479335785,3.0351812839508057,78.0023193359375,0.09984458417371274,2.4004934505179434,-95.20023688259286,1.1912467,7.8314962,20.866413,12.467703,-14.352913,-6.089247,-4.1475253,-6.4535823,-8.633115,14.803087,-12.814648,5.481088,-2.8913326,0.60403997,6.2114887,0.15805452,34.77838,-8.5377245,56.487675,-75.65295,-16.55956,1.8025146,-12.163113,-23.159805,11.461339,67.46707,83.01396,-17.541546,-5.8148665
87,0.49761277437210083,3.04569411277771,78.00382995605469,0.10279469783987145,2.418841254621493,-95.20013293362788,1.1543403,7.823271,20.869766,12.481546,-14.347778,-6.058841,-4.176043,-6.463993,-8.639405,14.795857,-12.795271,5.4935775,-2.9168808,0.5969391,6.216936,0.12032425,34.75674,-8.601704,56.46363,-75.58764,-16.56356,1.7911062,-12.228023,-23.1708,11.444468,67.447334,82.956604,-17.548264,-5.8015027
88,0.5057641863822937,3.0568630695343018,78.00700378417969,0.10394020745321268,2.4329806225697537,-95.201231286667,1.125457,7.816732,20.872585,12.489743,-14.343472,-6.0368323,-4.198839,-6.47094,-8.637909,14.7869835,-12.776811,5.5008836,-2.935676,0.593107,6.223922,0.070799395,34.73135,-8.67108,56.456192,-75.51446,-16.565285,1.767887,-12.286194,-23.18396,11.430938,67.42511,82.898,-17.55851,-5.802425
89,0.5147615075111389,3.0651557445526123,78.0068359375,0.1023648422801996,2.4405390548506447,-95.20309309758514,1.1076814,7.813052,20.873583,12.490699,-14.340856,-6.0268483,-4.213302,-6.472624,-8.624209,14.776738,-12.7604475,5.500058,-2.9545097,0.5896569,6.2383204,0.030983154,34.712776,-8.72911,56.44603,-75.42452,-16.556839,1.7279882,-12.340541,-23.194086,11.427839,67.39468,82.83997,-17.575394,-5.8242025
90,0.5221603512763977,3.0748934745788574,78.00850677490234,0.09909740566158055,2.4440492812745984,-95.20485526752866,1.0963173,7.8114657,20.872454,12.488207,-14.339925,-6.023562,-4.2228627,-6.471162,-8.603521,14.766375,-12.745731,5.493764,-2.9734275,0.585922,6.257862,-3.916603e-06,34.69977,-8.780719,56.429546,-75.32178,-16.542427,1.6749723,-12.391398,-23.20159,11.432678,67.35776,82.78029,-17.5975,-5.860264
91,0.5289813876152039,3.0812861919403076,78.00994110107422,0.09567776173088662,2.447011472427431,-95.20800876419837,1.0869642,7.809773,20.872293,12.484483,-14.339112,-6.0225983,-4.232011,-6.469305,-8.581634,14.7568245,-12.731907,5.486558,-2.9806678,0.5862222,6.2722745,-0.06150942,34.6777,-8.854252,56.44538,-75.22723,-16.532131,1.6166376,-12.432791,-23.213839,11.435632,67.325356,82.71939,-17.61796,-5.9001484
92,0.5347880721092224,3.090334892272949,78.0124740600586,0.0943463196115135,2.4530099690612754,-95.21404433272667,1.0759311,7.805547,20.876238,12.480318,-14.336263,-6.019705,-4.24612,-6.4705057,-8.564206,14.750677,-12.719248,5.483085,-2.9846213,0.585215,6.2847857,-0.12117391,34.652996,-8.919481,56.45835,-75.15335,-16.526281,1.5641598,-12.473182,-23.227509,11.43463,67.30198,82.65077,-17.62998,-5.9333553
93,0.5414373278617859,3.099724054336548,78.01329040527344,0.09645245036363981,2.4640297227455714,-95.22395308585703,1.0607563,7.797359,20.885998,12.477339,-14.331302,-6.0136714,-4.269773,-6.477183,-8.553483,14.751908,-12.7088585,5.4847136,-2.9916012,0.57608557,6.2964525,-0.15832621,34.636772,-8.9588175,56.444965,-75.11061,-16.519327,1.5175492,-12.520459,-23.235537,11.43515,67.29383,82.562325,-17.629883,-5.957651
94,0.5507686734199524,3.1073384284973145,78.01275634765625,0.10029164781259076,2.477802476349305,-95.23678842456366,1.0450816,7.7864304,20.899834,12.472338,-14.324173,-6.006777,-4.298903,-6.486916,-8.546152,14.75782,-12.700162,5.4888577,-2.9953089,0.5642289,6.3055363,-0.19597767,34.620975,-8.991736,56.430904,-75.08915,-16.51357,1.4714496,-12.566835,-23.241568,11.435124,67.29591,82.46027,-17.622164,-5.9787154
95,0.5556889772415161,3.1132285594940186,78.01419830322266,0.10464125663054673,2.491596649700821,-95.25089853330147,1.0299798,7.7753015,20.914955,12.468008,-14.3171215,-6.000074,-4.3275394,-6.4968505,-8.539428,14.763173,-12.69145,5.494659,-2.9961493,0.55282325,6.3124986,-0.23890762,34.60217,-9.0258665,56.42759,-75.075935,-16.513327,1.4306587,-12.614647,-23.24758,11.435644,67.30813,82.36975,-17.61345,-5.995738
96,0.5629398226737976,3.119098424911499,78.01298522949219,0.10797114009785323,2.502824799994289,-95.26503016648618,1.0197061,7.7653203,20.92913,12.460217,-14.309383,-5.9944925,-4.3500648,-6.503877,-8.530484,14.7630625,-12.680859,5.5010962,-2.997629,0.54289323,6.321393,-0.27602214,34.58574,-9.057495,56.428715,-75.059425,-16.518692,1.3999405,-12.663001,-23.252214,11.438791,67.323235,82.31711,-17.609116,-6.0088434
97,0.5676615238189697,3.1208651065826416,78.01638793945312,0.11038046424595638,2.5100522538949512,-95.27891517623374,1.0164777,7.756191,20.941582,12.446493,-14.298864,-5.990934,-4.3631787,-6.5077987,-8.518427,14.753664,-12.666491,5.5092344,-2.997071,0.5356525,6.3313227,-0.3168581,34.567196,-9.095278,56.44745,-75.03933,-16.535568,1.3795111,-12.713127,-23.256643,11.443625,67.34675,82.32249,-17.61013,-6.0156407
98,0.5731193423271179,3.124011993408203,78.01528930664062,0.11287639531897581,2.515031570753417,-95.29340232789454,1.0173184,7.74753,20.953665,12.4309,-14.287874,-5.9886518,-4.3717003,-6.5099955,-8.504683,14.740799,-12.651057,5.519167,-2.9963925,0.5276912,6.3443103,-0.34922707,34.553978,-9.127798,56.465923,-75.02179,-16.557867,1.3672452,-12.762752,-23.258568,11.448708,67.37354,82.36685,-17.612352,-6.017204
99,0.5780690312385559,3.1272177696228027,78.01720428466797,0.11403860588115652,2.5194416256875836,-95.30791919111945,1.0199231,7.7403755,20.966042,12.413827,-14.2772045,-5.9863105,-4.377599,-6.510322,-8.49028,14.724667,-12.634568,5.5285707,-2.996027,0.52005994,6.356846,-0.3779585,34.544212,-9.158043,56.48654,-75.00351,-16.580437,1.3641808,-12.812128,-23.259703,11.456782,67.401405,82.42024,-17.618242,-6.017103
100,0.5866184830665588,3.129758596420288,78.01924133300781,0.11297194138096055,2.525136762242167,-95.3220302126085,1.0186305,7.737344,20.979063,12.404069,-14.272336,-5.9826326,-4.383824,-6.508299,-8.47619,14.708304,-12.619144,5.535006,-2.998172,0.5135771,6.3715606,-0.39336258,34.54084,-9.17515,56.49293,-74.97868,-16.594074,1.3708203,-12.848966,-23.260271,11.464056,67.40932,82.44943,-17.627697,-6.02017
101,0.5922161340713501,3.1333179473876953,78.01903533935547,0.10835086688523675,2.5327843318148133,-95.3357170739833,1.0121332,7.7402835,20.99309,12.402578,-14.274911,-5.9763694,-4.3912024,-6.5026116,-8.461885,14.691576,-12.605276,5.537503,-2.996967,0.51505214,6.3721128,-0.44099978,34.53097,-9.219245,56.541775,-74.9589,-16.604752,1.3896748,-12.894867,-23.26218,11.487786,67.436584,82.46258,-17.646893,-6.0236397
102,0.5971723794937134,3.131817579269409,78.01856994628906,0.10102032832510419,2.5416145196101088,-95.34928575511651,1.0021204,7.747951,21.007677,12.407867,-14.283739,-5.9685473,-4.3987265,-6.4939246,-8.447087,14.673776,-12.592103,5.5374274,-2.9974666,0.5181201,6.3780117,-0.4677738,34.526592,-9.244883,56.566963,-74.93074,-16.609114,1.4229695,-12.923399,-23.264143,11.507357,67.43629,82.45971,-17.671963,-6.0296755
103,0.6005006432533264,3.133523464202881,78.017822265625,0.09313812445918641,2.5501196774918293,-95.36224912419918,0.9926609,7.756411,21.022675,12.4139385,-14.292997,-5.9611692,-4.4050946,-6.4847083,-8.433148,14.656033,-12.579337,5.5361147,-2.999466,0.52262795,6.380849,-0.49888042,34.523884,-9.2722845,56.602524,-74.90098,-16.609085,1.4572273,-12.955048,-23.267088,11.531134,67.44183,82.44624,-17.694988,-6.036359
104,0.6056540608406067,3.1360104084014893,78.01719665527344,0.08726665708639349,2.556946087431798,-95.37409472739581,0.98637307,7.761996,21.03734,12.418311,-14.299416,-5.9561286,-4.409557,-6.478124,-8.421192,14.640013,-12.566972,5.5349965,-3.0041978,0.5255248,6.3863435,-0.5201905,34.523815,-9.291797,56.62882,-74.863365,-16.604744,1.4849461,-12.986364,-23.270084,11.548111,67.44648,82.413246,-17.70822,-6.045191
105,0.6107730269432068,3.134730815887451,78.01923370361328,0.08387748471098098,2.5606197884479776,-95.38441955363957,0.9848625,7.7642045,21.052494,12.421121,-14.301234,-5.954826,-4.4108944,-6.474659,-8.412139,14.626895,-12.554952,5.5328712,-3.0109181,0.5284616,6.3901486,-0.54817396,34.526466,-9.321048,56.66713,-74.82556,-16.59222,1.5038794,-13.026467,-23.275537,11.569555,67.466934,82.35776,-17.704355,-6.0576344
106,0.6137667894363403,3.135497570037842,78.0208969116211,0.08172713345034756,2.5622934259995263,-95.39354047944505,0.98586315,7.7650805,21.067717,12.425154,-14.301746,-5.9559045,-4.409459,-6.4728856,-8.405284,14.614478,-12.542765,5.5294814,-3.0184348,0.5304948,6.396553,-0.5703423,34.532978,-9.348177,56.700054,-74.78137,-16.573143,1.5203098,-13.063957,-23.282907,11.585592,67.485054,82.27619,-17.689823,-6.0735774
107,0.6188766360282898,3.1350667476654053,78.02713775634766,0.08020777868682437,2.56417584875949,-95.40209664151833,0.98799163,7.764528,21.08239,12.426392,-14.300832,-5.957431,-4.4084344,-6.472015,-8.399006,14.603822,-12.531577,5.5276494,-3.0261886,0.5323495,6.4025493,-0.5905611,34.542023,-9.370168,56.730637,-74.733826,-16.552607,1.530643,-13.09899,-23.290451,11.594924,67.50005,82.19551,-17.672785,-6.0881
108,0.6213690042495728,3.133275270462036,78.02653503417969,0.07897977416733687,2.568333700352662,-95.41065669736777,0.98796535,7.7632327,21.094793,12.4259405,-14.301185,-5.9574766,-4.409822,-6.4714594,-8.392081,14.5935335,-12.521596,5.53019,-3.0317485,0.5336789,6.4057384,-0.60908943,34.55697,-9.387537,56.755035,-74.68626,-16.535357,1.5331801,-13.128255,-23.300386,11.593118,67.50691,82.14063,-17.660982,-6.096647
109,0.6244087219238281,3.1307318210601807,78.02696990966797,0.07814106145092883,2.5760814072014337,-95.41880857683762,0.98439294,7.7610016,21.104012,12.422448,-14.302442,-5.9550586,-4.41483,-6.47145,-8.384238,14.5829315,-12.512125,5.540049,-3.0353062,0.53347105,6.407356,-0.62170166,34.579544,-9.394408,56.766685,-74.63513,-16.521849,1.5240637,-13.148194,-23.31202,11.575538,67.4987,82.12629,-17.658861,-6.0951295
110,0.628742516040802,3.1266391277313232,78.02603912353516,0.0774579972479814,2.586004379282652,-95.42650293370677,0.9783217,7.757978,21.110657,12.418005,-14.304795,-5.951331,-4.421783,-6.471785,-8.376365,14.572402,-12.503152,5.554851,-3.0433185,0.5354855,6.403378,-0.631993,34.59646,-9.390539,56.781143,-74.5749,-16.515335,1.505452,-13.177677,-23.318432,11.55543,67.50105,82.13571,-17.666002,-6.086235
111,0.6330621242523193,3.1223766803741455,78.02243041992188,0.0773066224349179,2.5962528685884463,-95.43455787930212,0.9730447,7.754375,21.117094,12.411906,-14.307597,-5.9477444,-4.429262,-6.4725823,-8.368018,14.562709,-12.495724,5.570022,-3.050022,0.5354971,6.400093,-0.636108,34.61867,-9.379064,56.784786,-74.51584,-16.509897,1.4850514,-13.201497,-23.324928,11.525852,67.49427,82.144035,-17.672737,-6.078335
112,0.6379333138465881,3.1205389499664307,78.02147674560547,0.07660564516292162,2.604988202682889,-95.44388285732131,0.9712693,7.751458,21.125212,12.404754,-14.310334,-5.945842,-4.435179,-6.472681,-8.359377,14.553766,-12.490829,5.580663,-3.0555966,0.5352896,6.3979015,-0.6380547,34.642197,-9.362116,56.784122,-74.46193,-16.506634,1.4692417,-13.222971,-23.330004,11.490499,67.48474,82.126434,-17.673344,-6.078537
113,0.6431059241294861,3.1165542602539062,78.02081298828125,0.0758001596339385,2.6111973729236655,-95.45515783961353,0.9742113,7.749068,21.135807,12.397039,-14.313899,-5.9467525,-4.43902,-6.472619,-8.349825,14.546753,-12.490815,5.585408,-3.0601943,0.53523886,6.396758,-0.6394123,34.66509,-9.33824,56.780544,-74.412834,-16.506144,1.4579955,-13.2440815,-23.333239,11.442878,67.474594,82.07246,-17.662073,-6.0908303
114,0.6443570852279663,3.1130549907684326,78.02037811279297,0.0751109378312896,2.616058851024897,-95.46782273201548,0.98105216,7.74682,21.147724,12.386801,-14.317207,-5.9495096,-4.4412613,-6.47246,-8.33963,14.539883,-12.493671,5.5868316,-3.061521,0.5324386,6.3991604,-0.6346291,34.696068,-9.305419,56.763264,-74.367645,-16.505116,1.4488428,-13.256426,-23.335258,11.3764,67.45244,81.99419,-17.641668,-6.110767
115,0.6486894488334656,3.1080267429351807,78.0170669555664,0.0738461230176336,2.620990533678436,-95.480762324628,0.98698777,7.7454767,21.159714,12.379438,-14.322214,-5.952138,-4.443677,-6.4716506,-8.329657,14.533872,-12.496857,5.586223,-3.0632632,0.53197193,6.3970375,-0.63568795,34.72012,-9.274961,56.756943,-74.326096,-16.510159,1.4427712,-13.273376,-23.336306,11.321453,67.438995,81.90963,-17.626661,-6.1318965
116,0.6511861085891724,3.1029889583587646,78.01618957519531,0.0716642064123797,2.6275993391493637,-95.49305658089169,0.98937774,7.7462683,21.17072,12.375867,-14.328148,-5.953062,-4.449132,-6.4695506,-8.320754,14.531683,-12.498683,5.5847774,-3.059535,0.5245348,6.4016337,-0.6196029,34.765602,-9.240816,56.722218,-74.29565,-16.508877,1.4435005,-13.2684555,-23.33832,11.273511,67.39737,81.827805,-17.621408,-6.148837
117,0.6554268598556519,3.0945563316345215,78.01844787597656,0.06739898388051352,2.6373100091668937,-95.50415271239305,0.98413074,7.7506986,21.179678,12.380526,-14.337034,-5.9504986,-4.4574223,-6.4646535,-8.314995,14.529205,-12.495111,5.581878,-3.055682,0.5253165,6.3963885,-0.6195919,34.79128,-9.219103,56.71416,-74.26619,-16.520914,1.4530592,-13.268785,-23.341606,11.266975,67.368225,81.757744,-17.64348,-6.1591415
118,0.6564658284187317,3.0874075889587402,78.02174377441406,0.06175322316075075,2.6490650994302265,-95.51476984377669,0.974516,7.757501,21.187433,12.389651,-14.347385,-5.945863,-4.4684553,-6.4580317,-8.311194,14.528648,-12.489287,5.577225,-3.0500302,0.5263049,6.3917575,-0.61224437,34.82154,-9.194682,56.69561,-74.24242,-16.534319,1.4701638,-13.258923,-23.348053,11.279478,67.32555,81.690956,-17.678627,-6.166673
119,0.658377468585968,3.081331253051758,78.01931762695312,0.05607277869825477,2.6600526523773635,-95.5251761162443,0.965263,7.7647305,21.195276,12.400747,-14.358737,-5.941779,-4.4791484,-6.451582,-8.305968,14.53018,-12.484358,5.572506,-3.0451412,0.52769536,6.3873224,-0.60137224,34.85175,-9.171073,56.677517,-74.22641,-16.547602,1.4874471,-13.24804,-23.356268,11.300016,67.284744,81.624,-17.714039,-6.1726017
120,0.6596912741661072,3.0765621662139893,78.0204849243164,0.05234254247566267,2.667478530265907,-95.53571472356663,0.961867,7.769686,21.20453,12.410023,-14.369907,-5.940862,-4.4877977,-6.447587,-8.295791,14.536945,-12.485226,5.569631,-3.0425537,0.52845144,6.3843694,-0.5881523,34.88041,-9.150503,56.665466,-74.22041,-16.55769,1.4975505,-13.240926,-23.364508,11.315473,67.25566,81.554344,-17.735634,-6.178399
121,0.6633910536766052,3.0660617351531982,78.01998138427734,0.05092062641084484,2.6702732623450607,-95.54689817767385,0.9668954,7.771183,21.215866,12.414952,-14.379834,-5.944996,-4.4921575,-6.446507,-8.276598,14.546776,-12.491861,5.5685964,-3.0417447,0.527278,6.3837824,-0.5724175,34.909515,-9.132075,56.659622,-74.23606,-16.5638,1.4969087,-13.235156,-23.372204,11.322176,67.2361,81.47505,-17.738365,-6.184369
122,0.6657018065452576,3.056737184524536,78.01608276367188,0.05109444194434206,2.67000309567691,-95.55838587007158,0.97642523,7.7710223,21.228405,12.419394,-14.390088,-5.9524355,-4.495628,-6.447515,-8.251086,14.562584,-12.50355,5.568639,-3.0410993,0.5250242,6.3833175,-0.55929875,34.936,-9.118718,56.66435,-74.26718,-16.569359,1.4901683,-13.231335,-23.379107,11.326475,67.226654,81.388275,-17.731537,-6.1897926
123,0.6670599579811096,3.051154613494873,78.01213836669922,0.05198773425639476,2.667918835745281,-95.56922657809908,0.9882185,7.7700977,21.241325,12.424169,-14.400941,-5.960175,-4.4970455,-6.449704,-8.226784,14.579642,-12.517672,5.5701203,-3.0414186,0.5195178,6.3871155,-0.53424954,34.973972,-9.106126,56.6572,-74.29836,-16.566336,1.481886,-13.2238035,-23.387218,11.325839,67.21624,81.30888,-17.716028,-6.1941013
124,0.6682276129722595,3.045088529586792,78.00995635986328,0.05294691757491616,2.6651675984233973,-95.5786873589534,1.0012207,7.768737,21.254002,12.427337,-14.411208,-5.965141,-4.4957957,-6.4520974,-8.211141,14.593929,-12.531438,5.5734053,-3.0427954,0.5141869,6.390759,-0.5073831,35.013107,-9.102522,56.651546,-74.3054,-16.558487,1.4767965,-13.221097,-23.392921,11.321495,67.21951,81.24708,-17.700104,-6.1962175
125,0.6714007258415222,3.0355544090270996,78.0120849609375,0.05408122543727195,2.6615877147492633,-95.58642153342902,1.014173,7.7674146,21.266941,12.431564,-14.422933,-5.966352,-4.4914093,-6.455302,-8.208248,14.6044855,-12.545289,5.5804744,-3.048942,0.5131706,6.3921485,-0.48114657,35.043,-9.112719,56.657623,-74.27317,-16.548111,1.4747028,-13.234554,-23.395996,11.317245,67.25271,81.2106,-17.684649,-6.193604
126,0.67496258020401,3.0264246463775635,78.0101547241211,0.05571823397525181,2.6568094011091303,-95.59314233178772,1.0289606,7.7653255,21.280594,12.435074,-14.43538,-5.9654193,-4.4847374,-6.4596667,-8.213391,14.61448,-12.561126,5.590414,-3.056588,0.51120895,6.394964,-0.4497055,35.078205,-9.133217,56.662495,-74.22031,-16.530197,1.4737198,-13.252202,-23.397797,11.308322,67.299095,81.19281,-17.664396,-6.187474
127,0.6746355891227722,3.0180561542510986,78.00582885742188,0.05717127169272569,2.651337415361111,-95.59871109612847,1.0434382,7.7637415,21.292583,12.440248,-14.447632,-5.9635587,-4.476368,-6.4636574,-8.220806,14.623453,-12.575824,5.5996103,-3.0616665,0.5056024,6.398746,-0.4163767,35.122005,-9.15676,56.662025,-74.163765,-16.507402,1.4752691,-13.264663,-23.397938,11.293869,67.343575,81.18033,-17.6439,-6.182953
128,0.6745914816856384,3.008397102355957,78.0023422241211,0.057237642350465516,2.645745108654702,-95.60327158545131,1.0553908,7.7644963,21.300903,12.450943,-14.460221,-5.961985,-4.467453,-6.465815,-8.224802,14.632943,-12.58749,5.604439,-3.0657625,0.5023624,6.4001875,-0.38780183,35.156357,-9.171861,56.664455,-74.112434,-16.490263,1.4812264,-13.273813,-23.39788,11.283083,67.38382,81.15953,-17.63059,-6.1855726
129,0.6737995147705078,2.9963183403015137,78.00305938720703,0.05548796729454576,2.6402447336008397,-95.60622494606203,1.0627258,7.768487,21.302738,12.470577,-14.472873,-5.9598804,-4.4590816,-6.4655266,-8.223962,14.645031,-12.594742,5.60216,-3.0646088,0.49527368,6.40241,-0.35843387,35.198788,-9.1765175,56.655403,-74.074554,-16.469622,1.4939321,-13.26701,-23.397823,11.266725,67.40345,81.130486,-17.623966,-6.1998634
130,0.6762205362319946,2.9843969345092773,78.00321197509766,0.05228894330435672,2.6344500106019235,-95.6076927130521,1.0677114,7.7746468,21.29995,12.495102,-14.484675,-5.9570827,-4.4494486,-6.463245,-8.221531,14.6568165,-12.597993,5.595327,-3.0638285,0.49261233,6.4022827,-0.333314,35.22842,-9.174232,56.651768,-74.0346,-16.452648,1.511609,-13.259469,-23.398642,11.253568,67.423584,81.098976,-17.624065,-6.222314
131,0.6755571365356445,2.9754769802093506,78.00462341308594,0.04881573994302499,2.628321644582933,-95.60909856092172,1.0721699,7.7819047,21.297148,12.522269,-14.498344,-5.955357,-4.43926,-6.4605412,-8.217857,14.668841,-12.60197,5.5880966,-3.0631332,0.49332565,6.3979983,-0.3181153,35.24607,-9.171493,56.66058,-73.99486,-16.445482,1.5299203,-13.256201,-23.400728,11.247841,67.450294,81.06136,-17.62758,-6.244951
132,0.6771146655082703,2.967395544052124,78.00591278076172,0.04618149776354189,2.6217592886838963,-95.61197857910653,1.0818952,7.7867575,21.2992,12.541133,-14.512128,-5.9564,-4.425796,-6.458731,-8.213538,14.67498,-12.607821,5.5846796,-3.0600197,0.49081567,6.3970447,-0.2941058,35.269722,-9.164842,56.651222,-73.965836,-16.443588,1.5457661,-13.244588,-23.405504,11.245489,67.462204,81.01632,-17.624823,-6.260513
133,0.678355872631073,2.95632004737854,78.00142669677734,0.04466807696369952,2.614518684851161,-95.61742998000861,1.0986794,7.7889814,21.309532,12.55049,-14.527748,-5.9625597,-4.4100285,-6.458281,-8.2073145,14.677108,-12.618867,5.5871882,-3.0558789,0.48592657,6.395231,-0.26940542,35.295628,-9.155828,56.6371,-73.94967,-16.45655,1.5577348,-13.233375,-23.413052,11.255502,67.47182,80.95616,-17.61603,-6.2641234
134,0.6787559986114502,2.94608211517334,77.99983978271484,0.043974205400531804,2.606717463130629,-95.62460309522933,1.1203961,7.7894053,21.324923,12.553156,-14.543905,-5.9722557,-4.3910456,-6.4585366,-8.199426,14.674101,-12.631764,5.5930963,-3.0514295,0.47876465,6.3935714,-0.2395681,35.324238,-9.141043,56.61334,-73.94418,-16.478916,1.5684171,-13.22103,-23.424294,11.2762,67.47615,80.88611,-17.603296,-6.261088
135,0.6825537085533142,2.935015916824341,77.99734497070312,0.04329585981468208,2.598957357548659,-95.63124907953143,1.1416804,7.790032,21.339643,12.555999,-14.561025,-5.9815116,-4.371656,-6.4587245,-8.192429,14.670051,-12.645514,5.59947,-3.0466497,0.47380662,6.390386,-0.21705164,35.344913,-9.128321,56.597454,-73.93529,-16.5059,1.5763747,-13.210803,-23.434254,11.297505,67.48324,80.81518,-17.591623,-6.25719
136,0.6833942532539368,2.9234583377838135,77.9934310913086,0.041588625230498506,2.591893539876113,-95.63524835697659,1.1589175,7.7918735,21.348396,12.562307,-14.577247,-5.986374,-4.352152,-6.4579134,-8.189131,14.664675,-12.657003,5.6034126,-3.045618,0.47013634,6.389524,-0.18864933,35.36866,-9.111638,56.57529,-73.9169,-16.52224,1.5807891,-13.20289,-23.446604,11.315495,67.487175,80.76061,-17.579416,-6.258555
137,0.6832301020622253,2.9121711254119873,77.99156951904297,0.03888676356365116,2.5853840750089003,-95.63501917321459,1.1706378,7.79525,21.348202,12.574081,-14.592724,-5.9840274,-4.3329687,-6.45634,-8.191337,14.659318,-12.666544,5.6031857,-3.0473902,0.46819413,6.390836,-0.16113147,35.392548,-9.097866,56.55453,-73.88509,-16.528463,1.579153,-13.197142,-23.458918,11.324783,67.48996,80.725266,-17.567451,-6.266316
138,0.6845409274101257,2.9004065990448,77.99240112304688,0.03539511363193909,2.579193664609884,-95.63201689219369,1.1782137,7.799897,21.342287,12.590611,-14.608916,-5.977225,-4.3132143,-6.4539986,-8.197284,14.652794,-12.675463,5.6005692,-3.0497608,0.46694025,6.3929577,-0.13740848,35.41611,-9.088478,56.53671,-73.84547,-16.5301,1.5729346,-13.192653,-23.470999,11.328798,67.49217,80.701675,-17.555527,-6.2772303
139,0.6857197880744934,2.892672538757324,77.99341583251953,0.031637376345075546,2.573765903229447,-95.62872085226849,1.1842945,7.804928,21.334871,12.607077,-14.624105,-5.9700584,-4.2945676,-6.4512386,-8.203968,14.646428,-12.682925,5.5982895,-3.0506566,0.46822208,6.390516,-0.13126506,35.42957,-9.084342,56.54105,-73.79582,-16.531006,1.5654858,-13.195264,-23.477827,11.328769,67.50675,80.67902,-17.550041,-6.290947
140,0.6882623434066772,2.8832712173461914,77.99190521240234,0.027828570649558876,2.5695586438645823,-95.62757427962389,1.1913416,7.809381,21.33023,12.619151,-14.63741,-5.9667044,-4.278853,-6.448643,-8.208181,14.641786,-12.689007,5.5990105,-3.0473964,0.46826574,6.3904705,-0.11771916,35.44775,-9.069332,56.530075,-73.74353,-16.522131,1.5639424,-13.1869545,-23.486626,11.320861,67.50444,80.65419,-17.547012,-6.3089447
141,0.6880788207054138,2.8718647956848145,77.99105834960938,0.02389156260915989,2.5669610879472087,-95.62917407343826,1.198804,7.8138676,21.328707,12.627311,-14.649268,-5.968583,-4.2669325,-6.4457774,-8.209218,14.640358,-12.693682,5.604547,-3.0392072,0.46841007,6.3859553,-0.11564558,35.462887,-9.045388,56.53139,-73.67666,-16.503134,1.5666956,-13.18074,-23.493313,11.304815,67.50818,80.62291,-17.555058,-6.3316913
142,0.6903915405273438,2.8631138801574707,77.98709106445312,0.01973243280294247,2.5656540041283438,-95.63238557418426,1.2066476,7.818028,21.328588,12.631735,-14.659088,-5.9733467,-4.2570086,-6.4426394,-8.2087555,14.639678,-12.696484,5.6131387,-3.0278769,0.46929064,6.3801107,-0.11762977,35.47627,-9.012826,56.534943,-73.59788,-16.47495,1.572333,-13.1723995,-23.497818,11.2802515,67.51005,80.58932,-17.569983,-6.3589845
143,0.6914997100830078,2.855325937271118,77.98755645751953,0.015745445732544303,2.5651308515731968,-95.63652733809809,1.2131591,7.822197,21.329624,12.636724,-14.668908,-5.9795284,-4.24989,-6.43981,-8.207171,14.641336,-12.69925,5.6218443,-3.015945,0.4699551,6.372687,-0.12566073,35.486423,-8.98181,56.545593,-73.52287,-16.448565,1.5802964,-13.167666,-23.500452,11.258227,67.514305,80.55469,-17.585846,-6.387447
144,0.6933026313781738,2.8481435775756836,77.98446655273438,0.012631036217932271,2.5648763955039966,-95.64090641812302,1.219348,7.825368,21.331808,12.6418,-14.678151,-5.9856486,-4.244225,-6.4376388,-8.205106,14.643182,-12.70183,5.6276984,-3.0065343,0.46777114,6.369919,-0.12850015,35.498154,-8.951959,56.54818,-73.46622,-16.430485,1.5901507,-13.166244,-23.503748,11.243391,67.51129,80.516975,-17.592665,-6.4137063
145,0.695068359375,2.8431172370910645,77.98268127441406,0.010781099560854622,2.564851076528295,-95.64558621116117,1.2240602,7.827797,21.335733,12.649358,-14.687779,-5.9924073,-4.2413707,-6.436481,-8.202651,14.646766,-12.703975,5.6294837,-2.9982603,0.46373934,6.3694205,-0.13362308,35.507328,-8.933005,56.550003,-73.43679,-16.427074,1.6058576,-13.166589,-23.507065,11.2422905,67.500656,80.47643,-17.587414,-6.441783
146,0.6946879625320435,2.836726427078247,77.98455047607422,0.00970704696163906,2.565396841603299,-95.65085891848805,1.22842,7.8293138,21.341408,12.656655,-14.696678,-6.0002165,-4.2408433,-6.435952,-8.199559,14.651608,-12.705431,5.6288943,-2.9938126,0.4559385,6.374332,-0.12623937,35.5248,-8.907246,56.53474,-73.426735,-16.426224,1.6250075,-13.168096,-23.514608,11.2516,67.47739,80.43578,-17.570568,-6.4712806
147,0.697648286819458,2.830820322036743,77.98580169677734,0.00901882872896954,2.566309372078071,-95.65647590771067,1.2320908,7.8304443,21.347378,12.663533,-14.704949,-6.0071874,-4.2415357,-6.435777,-8.195622,14.656805,-12.707784,5.627442,-2.9890628,0.44889382,6.378384,-0.12721857,35.539368,-8.89219,56.529953,-73.42596,-16.431316,1.6424416,-13.173287,-23.521412,11.264444,67.45739,80.398224,-17.55353,-6.494997
148,0.6983428001403809,2.8255419731140137,77.98603057861328,0.008529878954826285,2.5672680337982197,-95.66174562795534,1.2348726,7.8312025,21.352112,12.670071,-14.713212,-6.01126,-4.2420955,-6.4361463,-8.19057,14.66113,-12.71216,5.626736,-2.9868586,0.44298628,6.3836675,-0.12109503,35.556416,-8.880559,56.52039,-73.42695,-16.43662,1.6540207,-13.18204,-23.52937,11.277414,67.44003,80.370636,-17.542036,-6.506239
149,0.69959557056427,2.821732521057129,77.98310089111328,0.008999435306748092,2.5680939343985414,-95.6670081196195,1.2372457,7.8307166,21.354523,12.674915,-14.720632,-6.0108824,-4.2425766,-6.437822,-8.183432,14.665394,-12.721194,5.627014,-2.9859164,0.43963072,6.388526,-0.1182632,35.572247,-8.87987,56.52102,-73.426895,-16.444197,1.6554937,-13.197626,-23.535908,11.288363,67.43265,80.35483,-17.540693,-6.497475
150,0.7009171843528748,2.8167483806610107,77.98080444335938,0.010038120953921611,2.568921351884956,-95.67228173107257,1.2390543,7.829174,21.355627,12.678877,-14.727657,-6.007423,-4.2431183,-6.4402275,-8.174732,14.668691,-12.732541,5.6275134,-2.9862893,0.4376344,6.3938155,-0.11421608,35.587727,-8.88785,56.523643,-73.43082,-16.455486,1.6515454,-13.217533,-23.541409,11.299998,67.42951,80.34783,-17.545477,-6.474363
151,0.7015994191169739,2.8125085830688477,77.97891998291016,0.010790979704966962,2.570323612967997,-95.67746107905792,1.2403874,7.8280306,21.35757,12.6816025,-14.733871,-6.003449,-4.2442775,-6.442329,-8.1660795,14.671555,-12.743617,5.6282196,-2.9860191,0.43527433,6.3993535,-0.111844145,35.60619,-8.900197,56.52668,-73.43937,-16.466784,1.6451306,-13.235254,-23.546436,11.309303,67.42467,80.34406,-17.550203,-6.449376
152,0.7044339776039124,2.807936906814575,77.97911834716797,0.009849644386867064,2.5728662986344566,-95.68221514660044,1.2408063,7.829131,21.362246,12.684809,-14.740784,-6.0015297,-4.244655,-6.441716,-8.159541,14.670687,-12.749879,5.6289763,-2.9846323,0.43179408,6.403766,-0.11329661,35.625965,-8.910023,56.529682,-73.44879,-16.47796,1.6397274,-13.250234,-23.550386,11.313443,67.418625,80.334015,-17.551403,-6.4344597
153,0.7037302851676941,2.8041062355041504,77.97606658935547,0.0068349397806280595,2.5769834557991302,-95.68666981453207,1.2395009,7.8332524,21.372015,12.690338,-14.750063,-6.0029883,-4.245722,-6.4382,-8.155337,14.668023,-12.750743,5.630454,-2.9836013,0.42928803,6.4065776,-0.11892925,35.64038,-8.913567,56.534462,-73.45909,-16.493422,1.635612,-13.262164,-23.55168,11.313805,67.411415,80.31377,-17.547592,-6.434266
154,0.7026088237762451,2.799842119216919,77.97657775878906,0.002239887671754674,2.5822202113340467,-95.69071132787836,1.2381783,7.8391595,21.385427,12.694379,-14.759199,-6.0063076,-4.2461605,-6.432322,-8.152771,14.661899,-12.747531,5.63243,-2.9843147,0.42939743,6.4071956,-0.12803479,35.646774,-8.913668,56.54365,-73.46862,-16.514744,1.6316504,-13.275097,-23.551819,11.313575,67.40656,80.287315,-17.54263,-6.4423795
155,0.7063813805580139,2.795668840408325,77.97533416748047,-0.002831366638852609,2.588016491184989,-95.69463400436452,1.2355431,7.8458133,21.39811,12.698678,-14.767828,-6.0094566,-4.2471337,-6.4256287,-8.151121,14.655043,-12.742836,5.633914,-2.9845564,0.4278939,6.4082885,-0.13678405,35.658413,-8.913036,56.54855,-73.47841,-16.530518,1.6279529,-13.288399,-23.551027,11.31081,67.40308,80.26335,-17.535942,-6.4527493
156,0.7054535150527954,2.792614221572876,77.9731216430664,-0.007508985500312521,2.593846411001055,-95.69814203801998,1.2309207,7.8520174,21.406034,12.704126,-14.775266,-6.010394,-4.2483444,-6.4195294,-8.150004,14.647171,-12.737926,5.633874,-2.9848125,0.42730606,6.408906,-0.14398128,35.669704,-8.91136,56.550655,-73.47731,-16.539669,1.6261064,-13.302972,-23.549545,11.305785,67.403114,80.24437,-17.532478,-6.4617076
157,0.7056897282600403,2.7889347076416016,77.97412872314453,-0.011744556467785787,2.6002376196199757,-95.70105097944413,1.2219003,7.8583345,21.40641,12.712271,-14.781662,-6.00757,-4.2510924,-6.4139867,-8.149509,14.639436,-12.733867,5.631259,-2.9864461,0.43045732,6.407403,-0.14836597,35.67503,-8.910247,56.549698,-73.46226,-16.54182,1.6285074,-13.317273,-23.548777,11.30079,67.405594,80.23686,-17.53397,-6.4714227
158,0.7079049348831177,2.7873921394348145,77.97667694091797,-0.016088645274929463,2.6069302173152673,-95.70345098733023,1.2106075,7.864918,21.40208,12.721193,-14.786898,-6.002463,-4.2542567,-6.408428,-8.149871,14.630608,-12.729153,5.626851,-2.985567,0.4317472,6.4088326,-0.15002789,35.689274,-8.907663,56.53773,-73.440735,-16.532269,1.63308,-13.340085,-23.546183,11.284983,67.418304,80.23294,-17.534147,-6.479473
159,0.7070631980895996,2.786545515060425,77.98057556152344,-0.019844950346277337,2.613204629783452,-95.70601124520253,1.1998178,7.870717,21.397184,12.729428,-14.7909565,-5.997476,-4.257187,-6.4033313,-8.1504135,14.621803,-12.724454,5.622589,-2.9848535,0.4334485,6.409065,-0.15309705,35.699394,-8.904817,56.528393,-73.41334,-16.521217,1.6374174,-13.357658,-23.54441,11.272173,67.42681,80.229355,-17.537495,-6.486852
160,0.7079669237136841,2.7865915298461914,77.97785186767578,-0.022684876144542936,2.6178479988375627,-95.709018424918,1.1917422,7.8753314,21.39545,12.737884,-14.795056,-5.995133,-4.2595897,-6.3998904,-8.150512,14.615761,-12.720872,5.6204767,-2.9811585,0.43045628,6.4118323,-0.15957475,35.71456,-8.899542,56.521187,-73.38564,-16.50692,1.636949,-13.370014,-23.541502,11.257496,67.4306,80.216705,-17.540499,-6.4873137
161,0.7084513902664185,2.7854394912719727,77.97904968261719,-0.02413089701581233,2.6197628572980474,-95.71278368665656,1.188019,7.878442,21.398623,12.747585,-14.799523,-5.9967976,-4.26007,-6.3984733,-8.15054,14.612762,-12.718907,5.6220593,-2.9764204,0.42794797,6.4126897,-0.17432763,35.71992,-8.89463,56.529057,-73.35297,-16.494886,1.629803,-13.378077,-23.54064,11.2523365,67.43402,80.196,-17.546482,-6.4791174
162,0.7098648548126221,2.7879464626312256,77.97821044921875,-0.024415351005258473,2.6194055882389606,-95.71703145141782,1.1885602,7.8797965,21.404676,12.755392,-14.802426,-6.00095,-4.2585807,-6.3986244,-8.150642,14.610952,-12.717241,5.62595,-2.9685237,0.41985846,6.4196043,-0.1989463,35.72935,-8.883289,56.54343,-73.314285,-16.473955,1.6155881,-13.385331,-23.53921,11.242149,67.43531,80.16591,-17.551,-6.4623175
163,0.7100057601928711,2.7855751514434814,77.97588348388672,-0.024711009793583795,2.619326122138016,-95.7214541907612,1.1890882,7.8809485,21.411045,12.762544,-14.805345,-6.0056524,-4.257847,-6.3989644,-8.149967,14.609519,-12.715617,5.6296253,-2.9608982,0.4101465,6.427052,-0.21545184,35.742825,-8.868924,56.54797,-73.27818,-16.454062,1.6026548,-13.387014,-23.53729,11.232655,67.42946,80.13218,-17.556168,-6.445326
164,0.7117369771003723,2.7830264568328857,77.97537231445312,-0.025799847770822597,2.621605029327017,-95.72551153118202,1.1867996,7.88271,21.415705,12.767182,-14.808421,-6.0089455,-4.2606263,-6.397878,-8.147694,14.609149,-12.714481,5.630427,-2.956807,0.4049923,6.4302397,-0.23024699,35.75102,-8.858554,56.554047,-73.24903,-16.443737,1.5947951,-13.3944845,-23.536695,11.229542,67.43017,80.09871,-17.562223,-6.4335866
165,0.710762619972229,2.7822201251983643,77.97712707519531,-0.028453803429193934,2.6272238869708393,-95.7293042789435,1.1807504,7.8861213,21.417501,12.768436,-14.812328,-6.01049,-4.2676163,-6.3940263,-8.142878,14.608191,-12.712664,5.6259394,-2.9556465,0.4042073,6.4306393,-0.2400366,35.75711,-8.850225,56.554245,-73.23075,-16.443108,1.5946138,-13.403957,-23.53672,11.229806,67.43129,80.06048,-17.568773,-6.4301686
166,0.7113320827484131,2.782559394836426,77.97612762451172,-0.03210850122179946,2.6348576258665055,-95.73304149076901,1.1727192,7.8901086,21.417683,12.76669,-14.816407,-6.0112433,-4.2776427,-6.388858,-8.136106,14.60779,-12.7110405,5.6182094,-2.9594505,0.4029626,6.4318104,-0.23548783,35.769947,-8.8337345,56.53879,-73.22099,-16.444744,1.5984356,-13.417461,-23.537489,11.235919,67.43122,80.01898,-17.574333,-6.431065
167,0.7138440012931824,2.7818026542663574,77.9769515991211,-0.03544230445233374,2.6433180266196565,-95.73646784503262,1.1634045,7.8939085,21.41782,12.765018,-14.820123,-6.011388,-4.2887444,-6.38375,-8.129187,14.6072445,-12.70918,5.6111374,-2.963283,0.4041509,6.4309764,-0.23374389,35.778755,-8.8226385,56.527527,-73.212,-16.452423,1.6041082,-13.429697,-23.538294,11.241326,67.431885,79.98146,-17.5798,-6.4324174
168,0.7136962413787842,2.781294345855713,77.9752426147461,-0.03743161759118814,2.6513688248808416,-95.73933174312383,1.1543454,7.895997,21.419554,12.7645855,-14.822246,-6.0110345,-4.298062,-6.3807635,-8.123921,14.603993,-12.70581,5.608855,-2.9698806,0.40325174,6.431211,-0.22654136,35.790894,-8.809046,56.513527,-73.1991,-16.459448,1.607691,-13.443957,-23.539429,11.245952,67.43334,79.95804,-17.582275,-6.4293346
169,0.7129100561141968,2.7823071479797363,77.97404479980469,-0.03643647641783184,2.6593932940761005,-95.74056818668134,1.1446455,7.8943434,21.423239,12.766113,-14.821619,-6.0095935,-4.305707,-6.3819013,-8.121473,14.597406,-12.700695,5.6145453,-2.9760466,0.40249175,6.4289536,-0.22815171,35.79568,-8.8067045,56.512756,-73.178116,-16.475489,1.6092178,-13.452052,-23.540056,11.245074,67.43183,79.95427,-17.586937,-6.4197154
170,0.7139520049095154,2.7806942462921143,77.9763412475586,-0.03395921792814367,2.668312175891968,-95.7404752392456,1.1334876,7.890655,21.428028,12.768608,-14.819092,-6.0072837,-4.312981,-6.385302,-8.121016,14.587779,-12.694036,5.6252074,-2.9834464,0.39850974,6.4297256,-0.2223021,35.8099,-8.802316,56.501003,-73.156395,-16.489542,1.6093785,-13.467538,-23.541142,11.2385435,67.4366,79.967354,-17.584654,-6.400241
171,0.7179074287414551,2.7827045917510986,77.97509765625,-0.03173249030034898,2.675948991631348,-95.74141632467347,1.123675,7.88773,21.43353,12.772309,-14.81707,-6.005134,-4.319024,-6.3881946,-8.120053,14.578729,-12.687257,5.636064,-2.9886987,0.39457172,6.4296207,-0.22076556,35.823814,-8.802184,56.49621,-73.13385,-16.503395,1.6098149,-13.476541,-23.541643,11.229143,67.43681,79.97938,-17.58192,-6.3852286
172,0.7182138562202454,2.7844247817993164,77.97362518310547,-0.0321336781816442,2.6807479179325595,-95.74538015430319,1.1183873,7.8885093,21.43948,12.774436,-14.815893,-6.00426,-4.323053,-6.387087,-8.116666,14.572179,-12.68066,5.6421847,-2.9895782,0.3930094,6.4308453,-0.22043332,35.837337,-8.800719,56.493298,-73.111755,-16.509752,1.6130867,-13.482073,-23.541348,11.217523,67.435776,79.976875,-17.57487,-6.380801
173,0.7152103185653687,2.783430814743042,77.97449493408203,-0.03689994632677007,2.681105904859096,-95.75403439905037,1.1204054,7.8949375,21.44626,12.774391,-14.816447,-6.0053306,-4.3238435,-6.380119,-8.109494,14.569943,-12.674694,5.641438,-2.9864655,0.39572015,6.434629,-0.21824975,35.848705,-8.795007,56.490417,-73.08934,-16.506308,1.6202347,-13.486089,-23.540432,11.204956,67.43617,79.95119,-17.559319,-6.392071
174,0.7181866765022278,2.786198616027832,77.97692108154297,-0.044126935956254956,2.67838158293917,-95.76584702697109,1.1265961,7.905344,21.453657,12.774924,-14.81874,-6.0075836,-4.322185,-6.3691993,-8.100017,14.570488,-12.668734,5.6366944,-2.9814112,0.40112168,6.4397254,-0.2147978,35.86006,-8.785451,56.489403,-73.06559,-16.495697,1.6295079,-13.49118,-23.53865,11.191298,67.44058,79.91175,-17.537066,-6.4131613
175,0.7199316024780273,2.7848098278045654,77.97571563720703,-0.05192855495345997,2.6751748596867047,-95.77849925297437,1.1342623,7.9160275,21.461308,12.773439,-14.820545,-6.0101523,-4.320494,-6.35764,-8.089994,14.571205,-12.662952,5.630694,-2.9752083,0.40231177,6.448814,-0.19917764,35.880913,-8.766851,56.472366,-73.044014,-16.478008,1.6402122,-13.490823,-23.533335,11.173423,67.43514,79.86897,-17.515757,-6.4372787
176,0.7200402021408081,2.7841131687164307,77.97770690917969,-0.05811317420550305,2.674149325922474,-95.78944356899923,1.137282,7.924819,21.468307,12.77496,-14.823678,-6.0121846,-4.320053,-6.3478127,-8.081579,14.567539,-12.656308,5.626158,-2.969675,0.40620837,6.4518123,-0.19671245,35.89177,-8.75388,56.474827,-73.02262,-16.465685,1.6488823,-13.493811,-23.529306,11.162948,67.4339,79.83865,-17.506014,-6.4575653
177,0.7229086756706238,2.7868096828460693,77.97964477539062,-0.06159025860770623,2.67660273567816,-95.79775216016061,1.1349759,7.9300184,21.473536,12.776481,-14.8263235,-6.0133324,-4.321576,-6.3408628,-8.075378,14.556331,-12.647511,5.6236115,-2.96438,0.40825585,6.452106,-0.1955193,35.900826,-8.740198,56.478046,-73.0018,-16.455751,1.6580871,-13.49394,-23.525085,11.153754,67.42468,79.82406,-17.513327,-6.473204
178,0.7230240106582642,2.7869672775268555,77.97842407226562,-0.06387096255475462,2.6810189355464487,-95.80489488580807,1.128487,7.9337816,21.477657,12.780308,-14.829952,-6.014132,-4.3249025,-6.3353357,-8.070198,14.542149,-12.638184,5.621623,-2.958841,0.40925175,6.4513464,-0.19492705,35.90866,-8.722622,56.48255,-72.97952,-16.445978,1.6673081,-13.490061,-23.52086,11.1434355,67.40729,79.8167,-17.531464,-6.487711
179,0.7221525311470032,2.786989212036133,77.97834014892578,-0.06571244801151986,2.6855258270446343,-95.81195494076245,1.1216216,7.937201,21.483185,12.784984,-14.83419,-6.0149026,-4.3283644,-6.3302803,-8.065477,14.527642,-12.629434,5.6202497,-2.9524896,0.41059706,6.4497833,-0.19659433,35.915108,-8.7067175,56.490475,-72.96056,-16.437119,1.6749172,-13.486114,-23.516838,11.135964,67.3901,79.81136,-17.550888,-6.5004525
180,0.7228963971138,2.7899796962738037,77.97976684570312,-0.06803910665749278,2.688421675055227,-95.82038306674079,1.1182191,7.9413853,21.492544,12.788382,-14.837851,-6.0159607,-4.331395,-6.3251214,-8.060358,14.517761,-12.622779,5.6194725,-2.9439814,0.4138521,6.447492,-0.1993626,35.919247,-8.697493,56.500225,-72.94902,-16.431131,1.67993,-13.48468,-23.513882,11.132879,67.38077,79.80146,-17.561865,-6.5106826
181,0.7242176532745361,2.7925734519958496,77.97725677490234,-0.07161920391336081,2.6886082293782607,-95.83145294776139,1.1196895,7.9479003,21.509579,12.793059,-14.843192,-6.0176225,-4.3336806,-6.319081,-8.054786,14.514848,-12.619809,5.6190324,-2.9341002,0.41628325,6.4511976,-0.19831663,35.92456,-8.682017,56.503735,-72.94225,-16.423944,1.6827016,-13.475802,-23.510128,11.13062,67.36089,79.77618,-17.561317,-6.5219145
182,0.7253745198249817,2.794391393661499,77.9769287109375,-0.07536522296460013,2.687475726433347,-95.8442317041549,1.1240077,7.9551177,21.531866,12.798063,-14.849469,-6.0195475,-4.3357773,-6.312995,-8.048974,14.51601,-12.619092,5.6189985,-2.9244876,0.4171108,6.4558287,-0.19031924,35.93298,-8.66333,56.501953,-72.94337,-16.417082,1.6836516,-13.470295,-23.504316,11.134308,67.34626,79.74565,-17.554152,-6.530251
183,0.7235068082809448,2.792430877685547,77.97473907470703,-0.07854470366684761,2.686038163296083,-95.85621789060856,1.1282668,7.9616804,21.552788,12.802994,-14.854921,-6.021414,-4.338068,-6.307744,-8.043216,14.518905,-12.619348,5.6199703,-2.9176702,0.41796377,6.460248,-0.17646144,35.941723,-8.644208,56.495823,-72.94552,-16.410713,1.6809394,-13.470172,-23.498201,11.142666,67.337555,79.717064,-17.545727,-6.5369716
184,0.7225700616836548,2.7925844192504883,77.97288513183594,-0.08076628879971703,2.685459567254453,-95.86509251102483,1.1298889,7.9661064,21.566288,12.806358,-14.857881,-6.02296,-4.340055,-6.304026,-8.037529,14.518498,-12.617747,5.6223397,-2.9099529,0.4213424,6.462754,-0.17298545,35.94583,-8.635924,56.499664,-72.9408,-16.407063,1.6713843,-13.468638,-23.49496,11.146207,67.330475,79.69689,-17.540316,-6.5418086
185,0.7264031767845154,2.7965333461761475,77.97364044189453,-0.08134271105241497,2.6864998297760145,-95.86950499508573,1.126695,7.96744,21.56857,12.809288,-14.858226,-6.0240374,-4.3420057,-6.302188,-8.031599,14.513463,-12.612921,5.628142,-2.9075842,0.42439842,6.4652147,-0.164542,35.9502,-8.62662,56.49921,-72.92472,-16.403652,1.651545,-13.467994,-23.490885,11.14798,67.32382,79.68962,-17.541065,-6.5441375
186,0.727681577205658,2.7975339889526367,77.97237396240234,-0.08077250923320364,2.6884690595694103,-95.87112560396818,1.1215373,7.966315,21.563984,12.809548,-14.855442,-6.0248766,-4.3443885,-6.302095,-8.025347,14.506652,-12.606774,5.6365395,-2.9076097,0.42755094,6.467376,-0.15507731,35.95381,-8.619458,56.498074,-72.90199,-16.40141,1.6238034,-13.469106,-23.487097,11.148352,67.31998,79.69014,-17.544811,-6.5437307
187,0.7268114686012268,2.8019917011260986,77.97358703613281,-0.07961345568038251,2.6901602831336464,-95.87152254324704,1.1159624,7.9641147,21.557058,12.809864,-14.852282,-6.025371,-4.3469033,-6.303063,-8.0196905,14.500723,-12.601539,5.6436534,-2.9104695,0.42963094,6.4708066,-0.13937026,35.95866,-8.609523,56.490112,-72.87727,-16.398834,1.5950054,-13.472354,-23.481306,11.147347,67.31621,79.68989,-17.548744,-6.543776
188,0.7265417575836182,2.802159547805786,77.97575378417969,-0.07819084852837814,2.6904044751432727,-95.87232162315797,1.1119131,7.962147,21.552607,12.811251,-14.850493,-6.025432,-4.348499,-6.304409,-8.015539,14.496618,-12.598613,5.6457047,-2.9131029,0.43126792,6.4752636,-0.124793634,35.96409,-8.600848,56.48246,-72.856316,-16.396181,1.5712068,-13.476511,-23.474018,11.144764,67.31079,79.68254,-17.549736,-6.547305
189,0.7275965809822083,2.8037474155426025,77.97583770751953,-0.07662844321586221,2.688476625752877,-95.87405652270274,1.1114697,7.9598413,21.55165,12.8121605,-14.85037,-6.0250196,-4.350107,-6.306682,-8.013502,14.498145,-12.600729,5.638817,-2.9159338,0.43340644,6.4814944,-0.10591835,35.96873,-8.592585,56.467205,-72.83852,-16.394066,1.5571797,-13.482815,-23.466833,11.139064,67.30238,79.66342,-17.545855,-6.557897
190,0.7280455231666565,2.8069663047790527,77.97657775878906,-0.0751055176346417,2.6851605613751097,-95.87578493139952,1.111743,7.957812,21.551779,12.8150835,-14.852138,-6.0242186,-4.35105,-6.309246,-8.013086,14.501797,-12.605515,5.625844,-2.9191446,0.4369021,6.487595,-0.091857396,35.97134,-8.588492,56.456573,-72.82248,-16.392895,1.547088,-13.489634,-23.462162,11.133099,67.29134,79.639984,-17.538475,-6.5734634
191,0.7280938625335693,2.81072735786438,77.97748565673828,-0.07305355593950885,2.681483779113456,-95.87712349923743,1.1131248,7.954946,21.552399,12.816401,-14.852628,-6.023049,-4.3510675,-6.312643,-8.013186,14.504481,-12.609883,5.6135273,-2.9220097,0.43743476,6.4964004,-0.07163635,35.976463,-8.580831,56.438,-72.80838,-16.390785,1.5371953,-13.496775,-23.452188,11.121064,67.28018,79.6103,-17.531355,-6.586718
192,0.7303928136825562,2.814765453338623,77.97661590576172,-0.07017281284604743,2.6783059224880175,-95.87762553859278,1.1137506,7.951209,21.552826,12.817984,-14.851999,-6.0214367,-4.3511243,-6.316813,-8.01279,14.506173,-12.612592,5.608565,-2.9242506,0.4385596,6.505405,-0.05221434,35.980556,-8.575594,56.421288,-72.801254,-16.3866,1.522928,-13.503207,-23.443113,11.111387,67.27218,79.58387,-17.52573,-6.5916715
193,0.7306947708129883,2.8178067207336426,77.97795867919922,-0.06574384148305555,2.675477159072226,-95.8769171714988,1.1150515,7.9454956,21.553572,12.81768,-14.848245,-6.0187345,-4.348357,-6.32241,-8.01126,14.501457,-12.610899,5.6148086,-2.9262645,0.43473455,6.5136037,-0.03879746,35.98668,-8.5727625,56.416183,-72.810425,-16.379559,1.4962091,-13.510915,-23.42861,11.103895,67.27251,79.56277,-17.525314,-6.5841656
194,0.7313535213470459,2.822821617126465,77.97571563720703,-0.06000650702731123,2.6726246576234765,-95.87542337116395,1.1164842,7.9382215,21.554611,12.817298,-14.842892,-6.015136,-4.3440633,-6.3296056,-8.009156,14.4939575,-12.607458,5.628167,-2.9279196,0.43133372,6.521184,-0.028499506,35.991173,-8.573765,56.41724,-72.83229,-16.370586,1.4623089,-13.52159,-23.415136,11.099351,67.28085,79.54591,-17.52605,-6.5679255
195,0.731220543384552,2.825791835784912,77.97551727294922,-0.05524091512448915,2.6705006068388455,-95.87336882448227,1.1171647,7.9317,21.55511,12.815947,-14.837187,-6.0121465,-4.3407116,-6.3357215,-8.00788,14.486742,-12.603022,5.6426554,-2.929067,0.42973167,6.527845,-0.022379028,35.994553,-8.578669,56.422836,-72.84859,-16.361109,1.4313484,-13.531079,-23.401802,11.097724,67.28951,79.52978,-17.525688,-6.5493546
196,0.7350373268127441,2.826673984527588,77.97603607177734,-0.05332563059156899,2.6698269313446255,-95.87098181217235,1.1148431,7.9284406,21.554052,12.815165,-14.832728,-6.0113387,-4.3401976,-6.3387613,-8.008818,14.481657,-12.597862,5.652551,-2.9300199,0.43250078,6.533543,-0.01673146,35.996567,-8.585603,56.426373,-72.84087,-16.352385,1.4143738,-13.538438,-23.392775,11.099732,67.29287,79.51025,-17.521732,-6.534859
197,0.7353286147117615,2.8314311504364014,77.97283172607422,-0.05596381357709681,2.671669033069711,-95.86838617962802,1.1095659,7.930027,21.551685,12.811079,-14.828722,-6.0145817,-4.343241,-6.336217,-8.012917,14.477642,-12.59043,5.6565413,-2.9317043,0.4388544,6.5336576,-0.01624571,36.000336,-8.602578,56.43815,-72.79938,-16.344013,1.4169155,-13.554616,-23.377403,11.111497,67.30828,79.48417,-17.515553,-6.523384
198,0.7360519766807556,2.8345000743865967,77.97498321533203,-0.0620490460738017,2.6754322748853183,-95.86555973987359,1.1006136,7.9355583,21.548117,12.808291,-14.826699,-6.02058,-4.3494143,-6.329737,-8.019232,14.47535,-12.581662,5.6576114,-2.9328063,0.4526904,6.538196,-0.008354034,36.00196,-8.614659,56.436836,-72.73022,-16.33367,1.4329783,-13.560433,-23.372278,11.122304,67.30488,79.45307,-17.501078,-6.5145173
199,0.7376053929328918,2.837843179702759,77.97456359863281,-0.06809431922093512,2.6791237254550624,-95.86207000872733,1.091209,7.940857,21.543114,12.805705,-14.824549,-6.0260057,-4.3569303,-6.3238387,-8.026325,14.476218,-12.574402,5.656415,-2.93437,0.46466005,6.5356617,-0.010859319,36.004772,-8.636752,56.448376,-72.66162,-16.325817,1.4530523,-13.574639,-23.362797,11.14289,67.31594,79.42758,-17.489956,-6.5067058
200,0.7378139495849609,2.8423032760620117,77.97745513916016,-0.07092516839724287,2.6808172681947116,-95.85741799489278,1.0826464,7.942998,21.536058,12.806342,-14.822071,-6.0275354,-4.362405,-6.322126,-8.033169,14.478474,-12.569509,5.653458,-2.9341927,0.4722043,6.535463,-0.016257064,36.006863,-8.651098,56.454018,-72.60411,-16.321009,1.4687139,-13.583833,-23.350521,11.153625,67.319786,79.40426,-17.482048,-6.5007377
201,0.7391194701194763,2.8466031551361084,77.9754638671875,-0.06895223766953684,2.6794777586339475,-95.85106644196648,1.074763,7.9403353,21.524912,12.813352,-14.819273,-6.023375,-4.3670735,-6.3273253,-8.039808,14.487261,-12.570023,5.6465516,-2.9324408,0.4744359,6.5395207,-0.023227947,36.00674,-8.651884,56.44979,-72.56017,-16.3197,1.4787261,-13.588092,-23.34043,11.151457,67.31434,79.38479,-17.476452,-6.497885
202,0.7412248849868774,2.852264642715454,77.97554016113281,-0.06406188454871684,2.6763214547308936,-95.84356464476588,1.0667293,7.934999,21.510687,12.824992,-14.8167095,-6.015611,-4.3713355,-6.3366876,-8.046828,14.500714,-12.574138,5.6362166,-2.9298584,0.47341132,6.545682,-0.032262087,36.00471,-8.644682,56.439728,-72.52185,-16.32123,1.487736,-13.588448,-23.330267,11.141847,67.302155,79.36772,-17.472548,-6.4980016
203,0.7402278780937195,2.8574111461639404,77.9753646850586,-0.05835747024476246,2.6728462790807406,-95.83557932199423,1.0594356,7.928642,21.497253,12.835743,-14.813858,-6.006657,-4.3740005,-6.346731,-8.053314,14.511436,-12.577842,5.6269813,-2.9263828,0.47197527,6.551861,-0.041430283,36.001736,-8.634315,56.425804,-72.488884,-16.325123,1.49422,-13.587266,-23.321901,11.130388,67.28706,79.352776,-17.470139,-6.4976497
204,0.7422311902046204,2.862032413482666,77.97966766357422,-0.05444900596273195,2.6706037263512794,-95.82786068883209,1.052511,7.9241195,21.48832,12.843267,-14.812497,-5.999071,-4.376434,-6.353957,-8.058192,14.517961,-12.580398,5.6232367,-2.9221117,0.47298485,6.5566583,-0.04821819,35.99879,-8.626438,56.408455,-72.46214,-16.330507,1.4970334,-13.583852,-23.315567,11.123059,67.2688,79.34126,-17.468603,-6.494175
205,0.7458603978157043,2.8668570518493652,77.98139953613281,-0.052391382087048494,2.6703343268095856,-95.82064825526217,1.0462787,7.921483,21.486961,12.844745,-14.812415,-5.992307,-4.3770075,-6.3569455,-8.059525,14.514061,-12.579317,5.6284876,-2.9162107,0.47670886,6.559011,-0.053520463,35.99669,-8.6219845,56.388165,-72.444405,-16.339643,1.4943733,-13.578627,-23.311644,11.120274,67.247795,79.3327,-17.468288,-6.4860516
206,0.743632972240448,2.8713715076446533,77.98165893554688,-0.051115976433846785,2.671189773349587,-95.81371755103605,1.0414448,7.9193435,21.490738,12.841088,-14.8125515,-5.985434,-4.376872,-6.3579903,-8.058234,14.505146,-12.577214,5.639618,-2.9094622,0.48046407,6.560136,-0.057607934,35.993507,-8.615457,56.36446,-72.43122,-16.35311,1.4877573,-13.569282,-23.30638,11.118015,67.22101,79.32392,-17.471937,-6.47559
207,0.7418699264526367,2.875124216079712,77.97998046875,-0.050583695089277854,2.6719739995475655,-95.8064212536675,1.0361047,7.9181643,21.494339,12.838584,-14.813994,-5.98026,-4.375459,-6.3580785,-8.058376,14.494045,-12.574019,5.6510777,-2.9030282,0.4857283,6.5607796,-0.059903976,35.989872,-8.610388,56.33925,-72.42188,-16.36514,1.4791039,-13.560783,-23.300869,11.1184,67.19599,79.31912,-17.475826,-6.463214
208,0.7430326342582703,2.878934621810913,77.9790267944336,-0.0505116661815805,2.6716636345216487,-95.79862181793736,1.0322915,7.9167156,21.493479,12.83505,-14.813601,-5.9785485,-4.374298,-6.3589797,-8.063684,14.488272,-12.572096,5.6574345,-2.8970404,0.49166965,6.5623527,-0.061617855,35.987904,-8.608668,56.31534,-72.41167,-16.370653,1.4701921,-13.556432,-23.29816,11.1196165,67.17777,79.31794,-17.47837,-6.4496193
209,0.7440138459205627,2.882408380508423,77.98037719726562,-0.05156115712471796,2.669796342343145,-95.78984445818487,1.0299989,7.9156613,21.486256,12.831493,-14.811687,-5.9824576,-4.3734603,-6.3604836,-8.0777445,14.489803,-12.571538,5.6554084,-2.8951852,0.4980239,6.564398,-0.056891896,35.981804,-8.602047,56.289577,-72.39444,-16.371647,1.461462,-13.552436,-23.290648,11.1249075,67.16383,79.32042,-17.487919,-6.434555
210,0.7457019090652466,2.885251760482788,77.97844696044922,-0.0537413758628375,2.66692784193791,-95.78059329405721,1.0284481,7.915319,21.475388,12.828456,-14.809586,-5.9905024,-4.3721905,-6.3619,-8.097646,14.49483,-12.571191,5.6484995,-2.8953955,0.50588125,6.5666933,-0.05043735,35.9741,-8.595357,56.26423,-72.37762,-16.367872,1.4507583,-13.555637,-23.28197,11.134783,67.1598,79.32877,-17.499126,-6.4166017
211,0.7464208006858826,2.889096260070801,77.97999572753906,-0.05546067841129828,2.663742522805508,-95.77085228513327,1.0262998,7.9146624,21.462498,12.827233,-14.807784,-5.998984,-4.370578,-6.3641496,-8.117649,14.500394,-12.571224,5.641475,-2.8946545,0.5140989,6.5702367,-0.04308983,35.969727,-8.593553,56.239075,-72.36042,-16.359713,1.4412241,-13.5581875,-23.277275,11.1416445,67.1556,79.33585,-17.505209,-6.399421
212,0.747312068939209,2.8927109241485596,77.97760009765625,-0.05511616003516565,2.66079564406226,-95.76094758493826,1.0239991,7.911792,21.449682,12.825168,-14.804364,-6.0041504,-4.370123,-6.368249,-8.131737,14.5067215,-12.573298,5.639012,-2.8983698,0.5209797,6.5731883,-0.030635614,35.96271,-8.593192,56.21842,-72.336494,-16.353767,1.4371462,-13.565438,-23.269663,11.150497,67.15385,79.33159,-17.507904,-6.3892074
213,0.7500839233398438,2.8944573402404785,77.97879791259766,-0.05135795264202825,2.658420600968796,-95.75077605044832,1.020363,7.9056115,21.437002,12.824098,-14.800172,-6.0054755,-4.3698773,-6.3755054,-8.136399,14.510886,-12.577443,5.644873,-2.9038312,0.5255048,6.577238,-0.014955586,35.957436,-8.6010685,56.201565,-72.30492,-16.346302,1.4410269,-13.571942,-23.263111,11.152108,67.14723,79.3056,-17.499514,-6.389875
214,0.7499334812164307,2.899883985519409,77.97383117675781,-0.045495030702716495,2.6561789702969327,-95.74028984607625,1.0159767,7.8972015,21.423334,12.823752,-14.795078,-6.0047264,-4.369909,-6.3849597,-8.135506,14.514368,-12.583184,5.655705,-2.9122908,0.5288954,6.584453,0.0033360994,35.95499,-8.610752,56.187363,-72.2673,-16.334106,1.4482565,-13.576328,-23.259335,11.150286,67.133156,79.267715,-17.481333,-6.397753
215,0.7491044998168945,2.905365467071533,77.9718017578125,-0.03916793339236233,2.65380101490271,-95.72958995264109,1.0104569,7.8890405,21.409555,12.825612,-14.790704,-6.001943,-4.3710566,-6.3948097,-8.134015,14.520671,-12.58997,5.665631,-2.9169955,0.5312462,6.5896173,0.023553772,35.952374,-8.627899,56.172543,-72.23049,-16.327297,1.4599904,-13.579086,-23.254639,11.145697,67.12102,79.2297,-17.466019,-6.4063845
216,0.7477754950523376,2.9099795818328857,77.97180938720703,-0.03465024604963822,2.6506062690137626,-95.71891676129451,1.0050317,7.8832564,21.396208,12.829441,-14.787734,-5.9969783,-4.3730545,-6.4029346,-8.137066,14.530752,-12.595791,5.668786,-2.9123635,0.53273696,6.592015,0.018778533,35.946297,-8.657138,56.18136,-72.20047,-16.32783,1.4674731,-13.572544,-23.244038,11.1413765,67.10768,79.211914,-17.462229,-6.407963
217,0.7468360662460327,2.9142205715179443,77.973388671875,-0.032891730411995425,2.6463615506690377,-95.7082042822788,0.9981675,7.8821235,21.383121,12.839141,-14.788515,-5.988042,-4.378103,-6.4081454,-8.146965,14.550006,-12.601531,5.6601586,-2.907161,0.53477186,6.5992517,0.017443854,35.942596,-8.67123,56.183655,-72.17346,-16.333088,1.4706464,-13.559155,-23.239233,11.152053,67.08197,79.23334,-17.47039,-6.398827
218,0.748614490032196,2.918860912322998,77.9777603149414,-0.0328342996215603,2.6412822771593176,-95.69752081175731,0.9906482,7.8836756,21.370369,12.852436,-14.791431,-5.9757533,-4.3848615,-6.411566,-8.160642,14.5750265,-12.607286,5.6440187,-2.8995016,0.53751063,6.6087065,0.016007671,35.937645,-8.681676,56.18409,-72.14789,-16.34375,1.4732364,-13.539809,-23.234655,11.170905,67.04896,79.27853,-17.487497,-6.3837137
219,0.7487130761146545,2.92250394821167,77.97964477539062,-0.032616366094036724,2.636050693413024,-95.68654775737568,0.9835228,7.884958,21.357712,12.864692,-14.793683,-5.963814,-4.390947,-6.4152393,-8.175454,14.599331,-12.612752,5.6284394,-2.8983128,0.5415823,6.60909,0.0075826035,35.925873,-8.691705,56.206413,-72.12993,-16.35977,1.4723122,-13.533981,-23.226963,11.207825,67.036674,79.3314,-17.509062,-6.3683076
220,0.7495313882827759,2.92712664604187,77.98039245605469,-0.030880805045612886,2.630744946493283,-95.67591212250072,0.9776236,7.8832397,21.345629,12.875167,-14.794908,-5.955896,-4.394045,-6.4208198,-8.188195,14.617504,-12.618214,5.621466,-2.8943276,0.543464,6.6155896,0.010657587,35.9165,-8.690591,56.209015,-72.12226,-16.369305,1.4683222,-13.521024,-23.221899,11.22215,67.011505,79.35597,-17.514786,-6.3584795
221,0.7536049485206604,2.932910442352295,77.97834014892578,-0.02668495922865487,2.6255476744103254,-95.66517713256235,0.9741579,7.876662,21.33329,12.879923,-14.7927475,-5.953927,-4.3922477,-6.429512,-8.199023,14.625931,-12.62329,5.6278725,-2.892703,0.5431961,6.6184263,0.016549448,35.905937,-8.681261,56.213844,-72.13791,-16.376118,1.4581453,-13.517083,-23.216719,11.222224,66.997734,79.34518,-17.502813,-6.358126
222,0.7545522451400757,2.93552303314209,77.97621154785156,-0.021075188103690783,2.6202175433098396,-95.65465191327735,0.9717705,7.8675485,21.321104,12.8830385,-14.789537,-5.95562,-4.3881555,-6.4401937,-8.208924,14.63015,-12.629005,5.642459,-2.893384,0.5430242,6.6209946,0.02785645,35.88535,-8.658292,56.216793,-72.1633,-16.385729,1.4446688,-13.518568,-23.207808,11.21025,66.98944,79.307396,-17.482832,-6.3639865
223,0.7523484230041504,2.938398838043213,77.97647094726562,-0.014966694671001968,2.6148782919404847,-95.6440676044998,0.9705079,7.8573613,21.310001,12.883837,-14.785397,-5.958474,-4.3832345,-6.4511924,-8.217551,14.632286,-12.63458,5.6584473,-2.892041,0.5417547,6.6238146,0.038217105,35.868504,-8.639151,56.218624,-72.18729,-16.39051,1.429285,-13.516932,-23.200907,11.1949835,66.97856,79.26673,-17.459154,-6.36857
224,0.7522879838943481,2.9438250064849854,77.9741439819336,-0.009400136858663307,2.609699858375854,-95.63346776861995,0.96834433,7.8490763,21.300371,12.886339,-14.782504,-5.9599295,-4.3788347,-6.460719,-8.224595,14.634074,-12.639474,5.668855,-2.8913245,0.5424566,6.627667,0.048614807,35.84776,-8.62498,56.22047,-72.18129,-16.39283,1.4158984,-13.517328,-23.192997,11.186215,66.970375,79.23517,-17.4447,-6.365348
225,0.7519683837890625,2.94748854637146,77.97516632080078,-0.004613204271871184,2.604577684993896,-95.62224278429613,0.96682936,7.8423476,21.293573,12.8878975,-14.780141,-5.959124,-4.375673,-6.468712,-8.229302,14.637531,-12.644998,5.6719933,-2.8917956,0.5451967,6.630976,0.05469494,35.825237,-8.62348,56.228416,-72.13635,-16.388796,1.4054288,-13.522234,-23.18533,11.192251,66.97005,79.22393,-17.440395,-6.3475666
226,0.7501057386398315,2.951761245727539,77.97586059570312,-7.845590959122866e-06,2.599821933460849,-95.61112393454928,0.96474504,7.836985,21.289062,12.890069,-14.7785635,-5.9576044,-4.3735175,-6.47562,-8.231623,14.641142,-12.65097,5.6713557,-2.8886993,0.5429626,6.6424356,0.062864766,35.82407,-8.626165,56.223934,-72.07975,-16.369444,1.3927791,-13.521018,-23.184898,11.194253,66.95556,79.22208,-17.433475,-6.3224006
227,0.7501407265663147,2.956620693206787,77.97374725341797,0.004682753775062383,2.5947803802810734,-95.59979632573567,0.9633654,7.831422,21.284193,12.891463,-14.776674,-5.955929,-4.371874,-6.482674,-8.233893,14.646288,-12.657178,5.668466,-2.8845096,0.54166716,6.647925,0.08061359,35.815887,-8.635605,56.21128,-72.00335,-16.353037,1.385593,-13.509993,-23.181875,11.203684,66.93918,79.225266,-17.435398,-6.2943516
228,0.7489737868309021,2.9613332748413086,77.97159576416016,0.007935568489973096,2.590701301500073,-95.59100714045181,0.9600667,7.8283696,21.278368,12.89562,-14.77581,-5.9553437,-4.372575,-6.487718,-8.236455,14.653772,-12.663052,5.664099,-2.8808124,0.5433785,6.6522055,0.088959016,35.805275,-8.645941,56.21071,-71.94074,-16.345541,1.3723744,-13.509322,-23.177511,11.211256,66.93095,79.216385,-17.442787,-6.2792463
229,0.7482070922851562,2.9648451805114746,77.97144317626953,0.010073123460031757,2.5875275401187268,-95.58577555791051,0.955395,7.8273163,21.270754,12.90149,-14.7748785,-5.957244,-4.3767405,-6.4910607,-8.239195,14.665556,-12.668374,5.6562953,-2.8753817,0.5467218,6.658328,0.10347632,35.795643,-8.65237,56.20077,-71.89838,-16.345304,1.3503357,-13.507233,-23.172783,11.211719,66.91633,79.1992,-17.458582,-6.2792897
230,0.7495030760765076,2.967061758041382,77.97303009033203,0.010932782722657788,2.5853663751500773,-95.58306508399049,0.9494476,7.82855,21.262083,12.90872,-14.774274,-5.9607773,-4.3840485,-6.4926524,-8.241791,14.680972,-12.6737385,5.6452045,-2.868351,0.55257106,6.6595306,0.1132375,35.781315,-8.663351,56.199913,-71.8598,-16.356697,1.3235134,-13.511368,-23.164715,11.209851,66.912,79.17274,-17.487425,-6.2891965
231,0.7479763031005859,2.9718427658081055,77.9727554321289,0.011654978014279853,2.5830738563664783,-95.58024101240211,0.9420938,7.8306303,21.253056,12.919212,-14.775271,-5.9630785,-4.391297,-6.4938846,-8.245101,14.696709,-12.679202,5.635404,-2.8608968,0.5572355,6.664147,0.12606116,35.771603,-8.672432,56.189518,-71.81896,-16.3653,1.3010406,-13.510558,-23.158384,11.207153,66.897255,79.1392,-17.510366,-6.3027472
232,0.7463388442993164,2.977961778640747,77.96971893310547,0.012713029738315253,2.5799367832861235,-95.57486487721975,0.93461967,7.8322024,21.244343,12.930819,-14.777095,-5.9613714,-4.395712,-6.4956884,-8.250158,14.70911,-12.684508,5.631523,-2.8527353,0.560149,6.668476,0.13077116,35.757275,-8.6858225,56.18287,-71.7559,-16.375483,1.2961538,-13.506728,-23.14846,11.204952,66.87973,79.08635,-17.523304,-6.3159204
233,0.7427842617034912,2.982273578643799,77.97100830078125,0.014805504434119128,2.57533517476197,-95.56586546401547,0.9263709,7.833196,21.236109,12.946591,-14.78224,-5.951536,-4.3947787,-6.4983525,-8.257427,14.714521,-12.68886,5.6378984,-2.8452728,0.5594963,6.676972,0.13794912,35.747185,-8.696164,56.163734,-71.68269,-16.380924,1.3121513,-13.493571,-23.141188,11.2055,66.84699,79.01887,-17.514534,-6.3281116
234,0.7431564331054688,2.9864187240600586,77.97167205810547,0.017111818288541362,2.569864259812924,-95.55470896345355,0.9170487,7.8343487,21.228178,12.96601,-14.789723,-5.9361744,-4.3917356,-6.501369,-8.266202,14.71822,-12.693882,5.6510124,-2.8380654,0.5563057,6.6878743,0.14367297,35.7408,-8.70509,56.139774,-71.60165,-16.384428,1.3419359,-13.477154,-23.136488,11.207781,66.807365,78.93778,-17.492044,-6.3413997
235,0.7424914836883545,2.992767572402954,77.9702377319336,0.019497023621439843,2.564500102936274,-95.54261708207225,0.9073065,7.835525,21.220028,12.98576,-14.796899,-5.9226036,-4.3882194,-6.5046005,-8.276111,14.721123,-12.698375,5.663702,-2.8292286,0.55315727,6.696207,0.13918978,35.726753,-8.7229,56.12439,-71.49083,-16.390404,1.3827701,-13.457555,-23.126387,11.2093725,66.76618,78.84021,-17.469694,-6.355297
236,0.7389342784881592,2.999084234237671,77.96823120117188,0.021502622344690525,2.5602722685170187,-95.53079155185867,0.8983887,7.836094,21.21163,13.00023,-14.799666,-5.9180164,-4.387771,-6.5078535,-8.286589,14.727678,-12.7030735,5.6686335,-2.8208184,0.5508113,6.705754,0.1359697,35.712322,-8.742433,56.104107,-71.33453,-16.39106,1.4285775,-13.436489,-23.115414,11.212112,66.71859,78.7324,-17.45014,-6.3676243
237,0.7373815774917603,3.005918264389038,77.96993255615234,0.02359682937703009,2.558020036303794,-95.51932366653718,0.8886063,7.8359885,21.202475,13.011162,-14.797225,-5.92723,-4.394048,-6.51207,-8.297855,14.74395,-12.7098,5.6612754,-2.813429,0.5491004,6.7168365,0.13864782,35.70073,-8.762725,56.075634,-71.15446,-16.383759,1.4767343,-13.412741,-23.105684,11.216192,66.66313,78.62746,-17.436724,-6.37979
238,0.7348181009292603,3.01179838180542,77.9717788696289,0.025690055218148312,2.556977670582245,-95.50749901727823,0.8786418,7.8353457,21.192951,13.019014,-14.790846,-5.94542,-4.4036927,-6.516711,-8.310229,14.764385,-12.716874,5.646286,-2.8066902,0.5474745,6.729078,0.143689,35.689526,-8.784594,56.0422,-70.95111,-16.370998,1.5302769,-13.386971,-23.095392,11.221393,66.60157,78.51929,-17.425545,-6.391961
239,0.7316762804985046,3.0168449878692627,77.96907806396484,0.027254734055423203,2.555922895109001,-95.49588520213297,0.86983967,7.834809,21.183607,13.02415,-14.78377,-5.965445,-4.41359,-6.5208645,-8.322511,14.785699,-12.72442,5.6305547,-2.7975516,0.54556334,6.7387404,0.13575187,35.672886,-8.816155,56.017532,-70.67458,-16.359247,1.5942277,-13.359712,-23.079073,11.224885,66.53848,78.379486,-17.415665,-6.4012384
