unveil-humanoid-operators/unveil-humanoid-operators.github.io/feature-analysis-animation/data/feature_matrix_instances/weight_ankle_peak_vel_gesture_A099_show_bicep_R_002__A099.csv
Frame,root_translateX,root_translateY,root_translateZ,root_rotateX,root_rotateY,root_rotateZ,left_hip_pitch_joint_dof,left_hip_roll_joint_dof,left_hip_yaw_joint_dof,left_knee_joint_dof,left_ankle_pitch_joint_dof,left_ankle_roll_joint_dof,right_hip_pitch_joint_dof,right_hip_roll_joint_dof,right_hip_yaw_joint_dof,right_knee_joint_dof,right_ankle_pitch_joint_dof,right_ankle_roll_joint_dof,waist_yaw_joint_dof,waist_roll_joint_dof,waist_pitch_joint_dof,left_shoulder_pitch_joint_dof,left_shoulder_roll_joint_dof,left_shoulder_yaw_joint_dof,left_elbow_joint_dof,left_wrist_roll_joint_dof,left_wrist_pitch_joint_dof,left_wrist_yaw_joint_dof,right_shoulder_pitch_joint_dof,right_shoulder_roll_joint_dof,right_shoulder_yaw_joint_dof,right_elbow_joint_dof,right_wrist_roll_joint_dof,right_wrist_pitch_joint_dof,right_wrist_yaw_joint_dof
0,-0.32725343108177185,2.0754857063293457,78.47498321533203,0.41722560985379065,0.5258087517910758,-83.87504569201941,-0.89929384,5.591301,6.904577,7.6059704,-7.945647,-5.891906,2.0050297,-7.6503663,-12.880391,8.330748,-9.1163845,6.2991962,-5.922956,-1.6405067,7.4077735,-3.2787104,12.751211,-39.138283,61.27157,-0.16744888,5.2572627,4.8980107,-5.554356,-11.294289,39.092747,62.11319,11.713101,5.3974195,-5.505143
1,-0.33341652154922485,2.079474925994873,78.47603607177734,0.41990983089817036,0.5294783502693495,-83.86542247578143,-0.908109,5.5910444,6.8920727,7.603721,-7.9336705,-5.897474,2.0017412,-7.6488614,-12.885534,8.326166,-9.115536,6.297311,-5.960207,-1.6613773,7.4127083,-3.2618787,12.776701,-39.120975,61.250557,-0.15538833,5.2593307,4.888779,-5.4569554,-11.283415,38.89616,62.13207,11.8723345,5.218987,-5.211184
2,-0.3396688997745514,2.0851681232452393,78.47498321533203,0.4232522571638461,0.5329771026796616,-83.85624646781834,-0.9162474,5.589933,6.879587,7.600699,-7.9209094,-5.9032555,1.998164,-7.6480594,-12.889738,8.322768,-9.115899,6.295977,-5.9917626,-1.6824646,7.4156094,-3.2531323,12.795435,-39.111958,61.242847,-0.14451338,5.2604375,4.8805714,-5.3627067,-11.271624,38.700405,62.148285,12.015348,5.0529017,-4.903602
3,-0.3453727960586548,2.089076280593872,78.47648620605469,0.42527003903765537,0.5368923413911904,-83.84622858475848,-0.9257103,5.590425,6.8671517,7.5988584,-7.909339,-5.9086103,1.995312,-7.6455903,-12.895841,8.316899,-9.114081,6.2935343,-6.0148096,-1.7030816,7.419356,-3.2497194,12.814073,-39.11012,61.236755,-0.1356815,5.2619915,4.8729324,-5.2544165,-11.256263,38.479813,62.17146,12.188155,4.864159,-4.6212983
4,-0.3535008430480957,2.0909883975982666,78.47821807861328,0.4246839507187646,0.5419983550236319,-83.83462224578736,-0.9381961,5.594237,6.855017,7.5985055,-7.8999524,-5.9129243,1.9906799,-7.6403403,-12.906224,8.313325,-9.111414,6.2885013,-6.032417,-1.7215626,7.4236145,-3.2495036,12.833717,-39.10963,61.22879,-0.13018632,5.2642,4.866723,-5.114581,-11.234991,38.219784,62.21147,12.440894,4.618454,-4.404444
5,-0.35997292399406433,2.091979742050171,78.48008728027344,0.41934077612917975,0.5481050666625096,-83.82009548915518,-0.9551948,5.6036654,6.843283,7.601953,-7.894934,-5.9148474,1.985612,-7.62991,-12.924522,8.309409,-9.104683,6.2792387,-6.0419497,-1.7371042,7.4278193,-3.2524633,12.856206,-39.114986,61.218388,-0.12809584,5.2675605,4.861367,-4.9403367,-11.2033,37.914932,62.280483,12.810605,4.2810426,-4.2636895
6,-0.36683428287506104,2.095688581466675,78.48011779785156,0.41118332484127906,0.5549888987081864,-83.80348028592363,-0.9742609,5.6167226,6.8319397,7.6065173,-7.892503,-5.9150457,1.9805701,-7.6160283,-12.948457,8.304624,-9.0949955,6.2670603,-6.051762,-1.750525,7.430283,-3.254565,12.879964,-39.118423,61.20608,-0.12778173,5.2714663,4.8568926,-4.7439766,-11.159593,37.5851,62.373886,13.264798,3.8786166,-4.177416
7,-0.37533774971961975,2.0993196964263916,78.48226165771484,0.40235696560691403,0.5632916733230964,-83.78700447658237,-0.99623317,5.630813,6.8204317,7.6130643,-7.8906627,-5.9160433,1.97406,-7.6013284,-12.971949,8.299651,-9.085115,6.2544374,-6.0742173,-1.7603425,7.431172,-3.2512767,12.897896,-39.09997,61.19151,-0.12516223,5.275108,4.854058,-4.5327864,-11.116012,37.25166,62.476803,13.756615,3.4683294,-4.1350102
8,-0.3834158182144165,2.102386236190796,78.48278045654297,0.3962810582030209,0.573367396262301,-83.77285001774189,-1.0171207,5.6421204,6.8087587,7.614112,-7.883398,-5.9203963,1.9646355,-7.589058,-12.988674,8.295228,-9.077887,6.243934,-6.07231,-1.7793231,7.4304214,-3.2594311,12.920159,-39.100914,61.18061,-0.13348605,5.2802234,4.854746,-4.309983,-11.046906,36.861183,62.59771,14.209162,3.1033683,-4.124971
9,-0.3938151001930237,2.1061384677886963,78.48297119140625,0.39393537006559765,0.5862941973489564,-83.76249731887197,-1.0373696,5.649738,6.7974725,7.6086426,-7.8685937,-5.930813,1.9528205,-7.5794606,-12.994608,8.287004,-9.072182,6.236453,-6.078813,-1.7989206,7.4279985,-3.263384,12.938635,-39.080772,61.16365,-0.14099914,5.2876515,4.857784,-4.0724487,-10.970136,36.437874,62.714657,14.619258,2.8023548,-4.172807
10,-0.4036751091480255,2.111130475997925,78.48392486572266,0.39373366854427105,0.6014510926912362,-83.75457228739545,-1.0578325,5.65542,6.786524,7.599419,-7.8494897,-5.9453278,1.9381305,-7.5713205,-12.993733,8.278275,-9.068399,6.2305527,-6.080521,-1.8204998,7.4237757,-3.2710736,12.954643,-39.057785,61.14738,-0.15219729,5.2969694,4.8634996,-3.8178556,-10.881518,35.97038,62.838036,15.011462,2.5334265,-4.2747025
11,-0.41093453764915466,2.1186134815216064,78.482421875,0.3939093699455561,0.6173042272033825,-83.74670530448402,-1.0794945,5.6608486,6.77431,7.591137,-7.830414,-5.9590883,1.9216977,-7.5638022,-12.992562,8.271926,-9.066614,6.2252884,-6.0844135,-1.8410465,7.4191294,-3.2769191,12.966222,-39.021385,61.130394,-0.16566667,5.303346,4.871552,-3.5559125,-10.79553,35.516815,62.96879,15.413583,2.282757,-4.38213
12,-0.42215678095817566,2.1210501194000244,78.48540496826172,0.39327206401653186,0.6319753615786331,-83.73628855026561,-1.1012908,5.667373,6.7592936,7.586295,-7.8154373,-5.9672546,1.908915,-7.5548615,-12.9986315,8.263026,-9.063058,6.2194195,-6.076451,-1.868536,7.410695,-3.2871416,12.976708,-38.99091,61.12484,-0.19017954,5.3028817,4.883548,-3.3076668,-10.693758,35.102566,63.144646,15.837958,2.0329578,-4.447138
13,-0.4326402246952057,2.1253011226654053,78.48551940917969,0.391148869220403,0.645026694053021,-83.72174613580059,-1.1276331,5.675917,6.7385173,7.5943203,-7.8104095,-5.965435,1.898687,-7.5451107,-13.015658,8.255066,-9.058974,6.2136855,-6.070119,-1.8994437,7.4000416,-3.2935166,12.984687,-38.942635,61.12488,-0.23062368,5.287449,4.899506,-3.0725172,-10.592657,34.77242,63.354782,16.323067,1.7804621,-4.4583774
14,-0.44292542338371277,2.124579906463623,78.48609161376953,0.388054180699503,0.6574260404857358,-83.704575496729,-1.155203,5.68527,6.713947,7.607168,-7.8100657,-5.9571753,1.889739,-7.534693,-13.039263,8.24853,-9.055913,6.2082753,-6.0637918,-1.9311495,7.388976,-3.297032,12.990119,-38.8795,61.12596,-0.28209049,5.2616982,4.9187,-2.8379953,-10.499605,34.496185,63.581703,16.850449,1.5350602,-4.440075
15,-0.4517373740673065,2.1246707439422607,78.48458099365234,0.38485627531014094,0.6697776637146068,-83.68766774821508,-1.1829531,5.6953955,6.6900554,7.6205106,-7.809971,-5.9498205,1.8813915,-7.5236015,-13.06342,8.24114,-9.051977,6.2017736,-6.0605555,-1.9617448,7.3774123,-3.2964785,12.993565,-38.81059,61.125072,-0.32601812,5.239087,4.938752,-2.6030679,-10.413536,34.241146,63.82304,17.366507,1.303545,-4.398721
16,-0.46365585923194885,2.1237690448760986,78.48648071289062,0.38137387260936007,0.6826396774809437,-83.67355602523547,-1.2074344,5.706437,6.67162,7.627469,-7.805404,-5.95054,1.8715618,-7.5115113,-13.082142,8.235186,-9.048199,6.1926537,-6.063669,-1.9900653,7.3647985,-3.2911146,12.995757,-38.744606,61.121094,-0.3432502,5.2329593,4.9574285,-2.3704484,-10.326073,33.975044,64.08219,17.817991,1.0919178,-4.342032
17,-0.4758370518684387,2.1212351322174072,78.48927307128906,0.37818993736368406,0.6968778785282337,-83.66319157928405,-1.2281036,5.7178082,6.661479,7.6251135,-7.7927637,-5.9636674,1.8582878,-7.499158,-13.093446,8.232557,-9.044809,6.1790357,-6.072395,-2.0193057,7.347679,-3.2811894,12.99675,-38.682472,61.11614,-0.31909156,5.254104,4.977487,-2.1484616,-10.224427,33.693016,64.37695,18.16363,0.902129,-4.2625823
18,-0.4887317717075348,2.1209890842437744,78.48880004882812,0.3747573518127133,0.7121149936628066,-83.65493971903099,-1.2477093,5.7303796,6.6563487,7.618734,-7.7759504,-5.9845705,1.8433164,-7.485655,-13.100815,8.231248,-9.041105,6.1621575,-6.096542,-2.0393198,7.333612,-3.2579002,12.996107,-38.604427,61.094414,-0.2625581,5.292582,4.997455,-1.9151824,-10.152417,33.428394,64.65929,18.450308,0.73612136,-4.1583858
19,-0.49948650598526,2.123522996902466,78.48957824707031,0.370738924475183,0.7264700763035083,-83.64826259904783,-1.2644998,5.743638,6.652581,7.6103473,-7.7597375,-6.007016,1.8286078,-7.4714456,-13.105574,8.230812,-9.038332,6.145438,-6.1112485,-2.0647573,7.315701,-3.2415423,12.993834,-38.548462,61.086025,-0.20599876,5.3325796,5.0145946,-1.6936699,-10.058118,33.138863,64.983986,18.722902,0.58060855,-4.0519857
20,-0.510820209980011,2.1237709522247314,78.49032592773438,0.36494473712268527,0.7384221203231437,-83.64224537621114,-1.2785963,5.7588277,6.64588,7.6038203,-7.7498918,-6.024853,1.818293,-7.4549675,-13.109656,8.226996,-9.035961,6.13214,-6.1315656,-2.08867,7.297942,-3.2222025,12.990882,-38.501865,61.0816,-0.1699654,5.3571877,5.022635,-1.4747317,-9.969115,32.84301,65.321304,19.054728,0.43420273,-3.963649
21,-0.5202909708023071,2.123802661895752,78.48988342285156,0.35600832125970583,0.7471983269769302,-83.63742252530976,-1.2921762,5.7779117,6.6337757,7.606613,-7.753568,-6.0364075,1.8141675,-7.4340434,-13.111569,8.217887,-9.034548,6.1236854,-6.1534615,-2.1069546,7.2833323,-3.2022362,12.987908,-38.473015,61.08008,-0.16381659,5.3607783,5.018396,-1.249748,-9.895529,32.5431,65.6567,19.486816,0.3030802,-3.9066482
22,-0.5314403772354126,2.125511407852173,78.48873138427734,0.3447992747470935,0.753736095052829,-83.63393927572129,-1.3033942,5.799812,6.6189775,7.611746,-7.764263,-6.044979,1.8144717,-7.4099226,-13.11113,8.204204,-9.03279,6.118151,-6.170656,-2.1230454,7.270124,-3.1845875,12.98396,-38.464966,61.084415,-0.17451504,5.3528447,5.0057664,-1.023434,-9.823618,32.227726,66.008995,19.971607,0.18205746,-3.8659952
23,-0.5386559367179871,2.1217262744903564,78.48563385009766,0.3338580399931779,0.7593445294889015,-83.63066693728285,-1.3141488,5.821069,6.6047344,7.6191645,-7.776889,-6.0518284,1.8154895,-7.3866844,-13.111622,8.191229,-9.03171,6.113897,-6.2123623,-2.1343699,7.2589993,-3.1493664,12.9816065,-38.436386,61.07371,-0.18634337,5.338406,4.9869165,-0.7932117,-9.785064,31.92712,66.34485,20.467041,0.07241863,-3.8218846
24,-0.5483881235122681,2.1229543685913086,78.48438262939453,0.32574658769146647,0.7647753586569959,-83.62643290275544,-1.3242341,5.8383594,6.5943213,7.6241,-7.78295,-6.058444,1.8160533,-7.3679304,-13.116797,8.179162,-9.029096,6.109146,-6.2368298,-2.1550062,7.247213,-3.125381,12.978915,-38.430996,61.072968,-0.20216383,5.3239536,4.9678464,-0.5656008,-9.74747,31.566914,66.69029,20.889065,-0.03704567,-3.7516673
25,-0.5559810996055603,2.12082576751709,78.48555755615234,0.3221760093065094,0.769448595758866,-83.62224840167421,-1.3326563,5.8501267,6.5912833,7.6262035,-7.7799187,-6.064643,1.8136615,-7.355646,-13.128454,8.174378,-9.027509,6.103322,-6.2723513,-2.1825466,7.234857,-3.094611,12.977237,-38.41677,61.06768,-0.2170304,5.308414,4.9440813,-0.3460382,-9.722732,31.197884,67.04113,21.235561,-0.1499317,-3.6454031
26,-0.5647405385971069,2.119170665740967,78.48616027832031,0.32104150741556664,0.7729136648349402,-83.6181673910421,-1.3389493,5.8587666,6.5928454,7.626606,-7.7719607,-6.0699773,1.8119645,-7.3469577,-13.1446905,8.16993,-9.024531,6.097365,-6.279225,-2.2170851,7.2262793,-3.0817988,12.975636,-38.44106,61.072544,-0.24305737,5.2901936,4.915737,-0.119270265,-9.70147,30.763823,67.393196,21.516962,-0.26232696,-3.5131276
27,-0.5764126181602478,2.119518518447876,78.48931121826172,0.3210356854100187,0.7774636396594646,-83.61218405230848,-1.3470045,5.8649955,6.593413,7.6268544,-7.7627,-6.0748515,1.8087605,-7.3408027,-13.162131,8.16716,-9.021877,6.0919304,-6.320281,-2.2541945,7.211396,-3.0465102,12.975459,-38.43049,61.067837,-0.26031792,5.2712507,4.8911595,0.09678874,-9.700794,30.334799,67.7456,21.784748,-0.36490154,-3.3782706
28,-0.5838024616241455,2.119590997695923,78.4918212890625,0.3204336939538206,0.7851057515955256,-83.60200039493327,-1.3569465,5.869837,6.5872984,7.622519,-7.7533298,-6.079735,1.8050249,-7.3350353,-13.1781845,8.161754,-9.018995,6.08759,-6.400114,-2.296133,7.182373,-2.9840248,12.976318,-38.380806,61.058643,-0.2642717,5.254724,4.881684,0.29866895,-9.715962,29.897942,68.10322,22.060476,-0.4508566,-3.261128
29,-0.591127872467041,2.1183838844299316,78.49220275878906,0.3190330703443329,0.7963149949924941,-83.58514573368426,-1.3697668,5.8728123,6.5708566,7.6134686,-7.7451863,-6.08507,1.8009279,-7.330157,-13.191383,8.154448,-9.01769,6.084539,-6.43726,-2.3371432,7.1578226,-2.9444616,12.977443,-38.37809,61.05631,-0.26604104,5.2426186,4.894674,0.5531137,-9.766505,29.312277,68.38079,22.28861,-0.5015735,-3.1550984
30,-0.596225380897522,2.119236469268799,78.4913101196289,0.3176852929613299,0.8104755580746998,-83.56292589427326,-1.3856407,5.8736525,6.547491,7.6017585,-7.737156,-6.0904217,1.7954673,-7.326611,-13.203888,8.147579,-9.018206,6.082465,-6.493413,-2.3734844,7.127267,-2.8884962,12.976408,-38.361244,61.044697,-0.26060838,5.231911,4.9246626,0.83047575,-9.859314,28.69055,68.60851,22.505125,-0.5262597,-3.0575678
31,-0.598827600479126,2.11752986907959,78.48800659179688,0.3158655729155386,0.8261930502182453,-83.54100952222724,-1.4031037,5.8740244,6.523389,7.590027,-7.729518,-6.095225,1.7888803,-7.3235273,-13.216131,8.138747,-9.01628,6.081207,-6.571725,-2.4107828,7.092379,-2.819887,12.973832,-38.31882,61.03166,-0.24916825,5.222385,4.955004,1.0949396,-9.983003,28.062544,68.84358,22.7341,-0.5496933,-2.9646785
32,-0.5983580946922302,2.1160123348236084,78.48699951171875,0.31369201118869444,0.8422287872919283,-83.52426626950545,-1.4189001,5.8743773,6.5050673,7.5757704,-7.719306,-6.098773,1.7803392,-7.320388,-13.229159,8.128321,-9.009056,6.0807247,-6.652115,-2.4495704,7.0586863,-2.7531056,12.970364,-38.272934,61.02429,-0.24572116,5.214066,4.9707227,1.3377545,-10.14504,27.433891,69.1111,22.998055,-0.59377044,-2.8690193
33,-0.5984572768211365,2.116101026535034,78.48686218261719,0.30958816774770104,0.8577563554679941,-83.51441374746341,-1.4339215,5.876411,6.4929767,7.5641685,-7.7094526,-6.101044,1.7679584,-7.3160825,-13.244883,8.12004,-8.995908,6.0828037,-6.7332964,-2.487643,7.0284314,-2.6856875,12.965817,-38.21813,61.019363,-0.25415596,5.2061563,4.966864,1.5625312,-10.350502,26.812704,69.408516,23.312866,-0.67799044,-2.7703638
34,-0.5988318920135498,2.1167852878570557,78.48969268798828,0.30441158345554886,0.8735400138643554,-83.50854669251501,-1.4489747,5.879522,6.4839597,7.5540147,-7.6999645,-6.1023397,1.7552465,-7.3106065,-13.262636,8.107794,-8.976015,6.0868936,-6.81842,-2.5235174,7.000631,-2.616292,12.960113,-38.155407,61.014656,-0.27094805,5.198859,4.951717,1.7799698,-10.600481,26.184996,69.717705,23.661404,-0.7865478,-2.6695993
35,-0.5924860239028931,2.1157827377319336,78.4930419921875,0.2998296911897962,0.891095959727693,-83.50556816074837,-1.4646676,5.8809147,6.479203,7.542037,-7.688855,-6.102453,1.7371497,-7.3074203,-13.277483,8.100517,-8.957909,6.089328,-6.905718,-2.5596368,6.9732914,-2.5492127,12.953167,-38.09482,61.012917,-0.28587326,5.194033,4.9298244,1.9886336,-10.897189,25.541159,70.03703,24.022888,-0.8831972,-2.5645342
36,-0.5887266993522644,2.1203081607818604,78.49505615234375,0.29774002103626673,0.9118061112966137,-83.50450592417747,-1.4825644,5.878799,6.4794054,7.5274615,-7.675392,-6.101215,1.7126818,-7.308561,-13.285003,8.098232,-8.945518,6.0864472,-6.993192,-2.5977762,6.945234,-2.4899588,12.9451885,-38.04807,61.017773,-0.2907821,5.1933937,4.9057503,2.1849866,-11.244019,24.871273,70.37193,24.377174,-0.93595046,-2.451737
37,-0.5812170505523682,2.124647855758667,78.49613189697266,0.29963741742255745,0.938340107839079,-83.50286541039286,-1.5059489,5.8706656,6.48335,7.508879,-7.6569524,-6.0977445,1.676973,-7.317159,-13.284986,8.106656,-8.943838,6.073183,-7.082925,-2.6382244,6.914144,-2.4400065,12.936036,-38.022366,61.02982,-0.2847224,5.1978683,4.8749604,2.3732433,-11.643284,24.155766,70.720634,24.715355,-0.9226665,-2.3257256
38,-0.5747554302215576,2.126779317855835,78.49996948242188,0.3039687504676179,0.9691728927498671,-83.50185756314963,-1.5336032,5.8586087,6.490993,7.487923,-7.6348047,-6.092478,1.6327739,-7.330827,-13.279555,8.122675,-8.949108,6.0528865,-7.1736364,-2.6787019,6.8817353,-2.3975084,12.925299,-38.012386,61.04734,-0.27272055,5.2063026,4.836919,2.5595737,-12.095433,23.402859,71.07748,25.04877,-0.8648588,-2.1895962
39,-0.567807674407959,2.1223387718200684,78.50367736816406,0.30853758516714963,0.9995480356531736,-83.5062013146116,-1.5594993,5.8465543,6.5050955,7.4681234,-7.6154165,-6.086947,1.5870295,-7.3452168,-13.267457,8.139851,-8.954564,6.0344043,-7.2597694,-2.7177455,6.853105,-2.3607585,12.912529,-38.008232,61.06826,-0.2533962,5.2174435,4.8020034,2.743226,-12.599871,22.647001,71.43986,25.388092,-0.7941284,-2.0533197
40,-0.5567024946212769,2.1257388591766357,78.50189971923828,0.31117146187784084,1.0246809498118756,-83.52075506791375,-1.574873,5.838598,6.5286407,7.4461436,-7.6010847,-6.0827646,1.5481794,-7.3554544,-13.247534,8.14985,-8.952868,6.02673,-7.3368635,-2.7548327,6.8324776,-2.328229,12.897734,-37.998768,61.091625,-0.22538395,5.2302337,4.780892,2.9199655,-13.156787,21.924068,71.80856,25.744022,-0.74268746,-1.9272189
41,-0.5513633489608765,2.1291840076446533,78.50157928466797,0.3102570486014945,1.0428777688249247,-83.54712746887377,-1.5780962,5.837555,6.563748,7.4240274,-7.595168,-6.081564,1.5193499,-7.359058,-13.219473,8.14923,-8.940363,6.0350304,-7.40432,-2.7899525,6.822159,-2.3009167,12.881333,-37.98314,61.118504,-0.18166618,5.2454224,4.781988,3.0849543,-13.766874,21.265348,72.191315,26.114979,-0.7198801,-1.8226613
42,-0.5445420742034912,2.1351070404052734,78.50093841552734,0.30739112315053807,1.0568097157020282,-83.58241381477683,-1.5727195,5.840368,6.6085067,7.401206,-7.594977,-6.0819583,1.496406,-7.3588343,-13.183816,8.141977,-8.921456,6.05365,-7.4671345,-2.8237908,6.819111,-2.2774522,12.863709,-37.963417,61.14821,-0.12453685,5.2633743,4.797691,3.240792,-14.430145,20.64693,72.58689,26.497046,-0.7084406,-1.7312338
43,-0.5331651568412781,2.1375691890716553,78.5000991821289,0.3044554300951075,1.0683164652995065,-83.62531760229385,-1.5625824,5.843987,6.659036,7.379081,-7.5975547,-6.0815144,1.4748493,-7.358128,-13.141336,8.133286,-8.900812,6.0749946,-7.52726,-2.8559937,6.820202,-2.2536876,12.844676,-37.93542,61.17699,-0.06758639,5.281885,4.814271,3.3938158,-15.144933,20.022346,72.98324,26.90129,-0.700842,-1.6325665
44,-0.5198296308517456,2.1364028453826904,78.5002212524414,0.30372325954630386,1.0793022806181105,-83.67406411148939,-1.5499607,5.8444986,6.7117977,7.356447,-7.5993295,-6.0774655,1.4486219,-7.3606734,-13.092118,8.131981,-8.885861,6.091631,-7.586467,-2.8855956,6.8219376,-2.2259998,12.823535,-37.895676,61.20123,-0.024865462,5.298888,4.818037,3.554727,-15.907015,19.33988,73.36496,27.33405,-0.68846446,-1.5063686
45,-0.5073971748352051,2.1329092979431152,78.50126647949219,0.30582688263857594,1.0888609826335567,-83.73005755280992,-1.5358264,5.8415556,6.7652664,7.338133,-7.601803,-6.067894,1.4184996,-7.367036,-13.034025,8.137953,-8.878122,6.100743,-7.6402645,-2.914385,6.8234506,-2.1936548,12.799195,-37.842632,61.224445,-0.00097335473,5.312728,4.802041,3.729604,-16.715631,18.608759,73.732956,27.78494,-0.6723069,-1.3529811
46,-0.49067679047584534,2.1295485496520996,78.50135803222656,0.3099722488390003,1.0965267710124318,-83.79361938175731,-1.5170397,5.836055,6.821965,7.3192363,-7.6044025,-6.054527,1.3852185,-7.376388,-12.967105,8.150602,-8.875588,6.1067295,-7.6883507,-2.9425752,6.8258815,-2.159815,12.771297,-37.77987,61.24896,0.011199123,5.3249197,4.7749186,3.914087,-17.570166,17.84678,74.09393,28.254988,-0.6549953,-1.1810398
47,-0.4741527736186981,2.132545232772827,78.50179290771484,0.314623101279914,1.1045462410119442,-83.86141981980539,-1.4969287,5.8297377,6.8826294,7.299422,-7.607039,-6.0407343,1.3502471,-7.3862805,-12.897375,8.162828,-8.871858,6.1123676,-7.7377768,-2.968057,6.8293147,-2.1268492,12.74068,-37.712036,61.27162,0.016882962,5.337804,4.746535,4.1016655,-18.467278,17.012268,74.44756,28.765985,-0.6319125,-0.9834333
48,-0.45837917923927307,2.1349117755889893,78.5035171508789,0.318652592320245,1.1151754921919304,-83.9301099780725,-1.4773341,5.8236613,6.948379,7.274816,-7.607485,-6.029791,1.3130761,-7.3952847,-12.829961,8.171828,-8.863131,6.120556,-7.7932096,-2.9894874,6.833865,-2.098023,12.708826,-37.646915,61.289738,0.01981259,5.353924,4.726794,4.2868114,-19.402239,16.062395,74.79421,29.3404,-0.5979835,-0.7530281
49,-0.4427180290222168,2.1346120834350586,78.50533294677734,0.3217200742848189,1.129988153774536,-83.99780109338897,-1.4591608,5.817633,7.019482,7.2419176,-7.603677,-6.0244555,1.2728164,-7.403407,-12.770026,8.175532,-8.846651,6.1322412,-7.8581896,-3.0067556,6.838167,-2.0715778,12.676447,-37.584557,61.301067,0.020021914,5.377461,4.717257,4.472078,-20.37073,14.954073,75.14636,30.005867,-0.5514429,-0.47104535
50,-0.4261631965637207,2.136766195297241,78.50733184814453,0.32452542885398705,1.1474193243836042,-84.06639259090626,-1.4395626,5.810905,7.0955906,7.200584,-7.596102,-6.022314,1.231364,-7.410988,-12.713512,8.173027,-8.8235,6.145854,-7.9266014,-3.0213885,6.842037,-2.047665,12.643539,-37.52542,61.308186,0.014475913,5.406089,4.7130013,4.6633058,-21.370682,13.717201,75.502914,30.744097,-0.49302053,-0.1467553
51,-0.4090413451194763,2.1377265453338623,78.50862884521484,0.32699285417679447,1.1650709374185966,-84.1390028164447,-1.4194324,5.804666,7.1760917,7.1595945,-7.5889134,-6.019008,1.1890363,-7.4179997,-12.652291,8.169726,-8.798858,6.1603956,-7.992259,-3.035009,6.8462715,-2.0287924,12.610859,-37.472504,61.31453,0.005359994,5.432494,4.7142806,4.8616605,-22.401705,12.413158,75.84253,31.500042,-0.42211524,0.18414254
52,-0.3907991945743561,2.1429431438446045,78.50768280029297,0.3295991764505933,1.1805768218268606,-84.21863337341894,-1.3969734,5.799501,7.2608023,7.122986,-7.584226,-6.0100317,1.1466775,-7.424412,-12.577928,8.168949,-8.776049,6.175086,-8.049755,-3.0494287,6.8518224,-2.01595,12.5795555,-37.42726,61.321163,-0.00401169,5.4494104,4.721274,5.0648417,-23.46422,11.107572,76.1448,32.22206,-0.33978316,0.48613906
53,-0.3728325664997101,2.1456212997436523,78.50727844238281,0.3321234153424682,1.193434360148283,-84.30830958440826,-1.3739469,5.7960835,7.3514595,7.096608,-7.5851493,-5.992009,1.1033953,-7.430191,-12.484159,8.172715,-8.756679,6.1919103,-8.098235,-3.065956,6.859744,-2.0084624,12.550832,-37.38746,61.329052,-0.021510413,5.4499974,4.7358837,5.2657137,-24.560335,9.82198,76.422905,32.91592,-0.2433198,0.745973
54,-0.35554826259613037,2.147073268890381,78.50914001464844,0.334781302972143,1.204800057682183,-84.40569874496316,-1.3479141,5.7936177,7.4477687,7.0707407,-7.586278,-5.9680743,1.061548,-7.4349575,-12.37711,8.173715,-8.735979,6.210499,-8.144946,-3.0838792,6.8675237,-2.0017998,12.525196,-37.348156,61.33429,-0.044894908,5.4398847,4.7569695,5.468605,-25.689074,8.523192,76.67775,33.60337,-0.1293004,0.9813691
55,-0.33537718653678894,2.148129940032959,78.50916290283203,0.3370093454750841,1.2149685855343806,-84.50550966107927,-1.3206525,5.7918725,7.545698,7.047687,-7.5892215,-5.9435687,1.018343,-7.4393325,-12.266174,8.180001,-8.717962,6.226737,-8.193816,-3.102327,6.8737764,-1.9945133,12.502975,-37.30905,61.33437,-0.05594041,5.4303327,4.7804008,5.6787252,-26.845938,7.1934934,76.89741,34.25733,-0.014098857,1.2120897
56,-0.31461191177368164,2.1502652168273926,78.51177978515625,0.3396096802310287,1.224068269396459,-84.60265641439541,-1.2909998,5.7897406,7.641486,7.0229554,-7.5918,-5.923913,0.97624165,-7.4437346,-12.161402,8.188248,-8.700399,6.236367,-8.2468815,-3.121938,6.8774495,-1.9870955,12.484561,-37.27139,61.32737,-0.036264747,5.432663,4.8022547,5.88673,-28.024685,5.8377395,77.082146,34.871906,0.08703396,1.4561433
57,-0.2967599630355835,2.1481852531433105,78.51566314697266,0.3422636761814174,1.2305085280446557,-84.69684392038538,-1.2542677,5.787664,7.7352552,6.9911666,-7.5910344,-5.9119387,0.9350653,-7.4476514,-12.064663,8.204701,-8.68632,6.234816,-8.305268,-3.147132,6.8742595,-1.9774773,12.471007,-37.238766,61.315464,0.04148907,5.4570856,4.8240857,6.120066,-29.22277,4.4550004,77.205086,35.385696,0.16481833,1.7185425
58,-0.2787843942642212,2.15024471282959,78.51834869384766,0.34451350764473176,1.234729714797525,-84.79041146839641,-1.214652,5.786333,7.8283925,6.961094,-7.591785,-5.904308,0.8957521,-7.4507394,-11.9711895,8.224066,-8.673092,6.2254295,-8.362908,-3.1788194,6.8677187,-1.970066,12.46322,-37.21416,61.300938,0.15929316,5.4952936,4.847673,6.3554363,-30.44211,3.0693443,77.297195,35.8488,0.22652383,1.988669
59,-0.2612905204296112,2.145596981048584,78.51972198486328,0.347396190772761,1.239986567416904,-84.8819823785284,-1.174753,5.7837224,7.9200673,6.927073,-7.5905476,-5.89718,0.85552835,-7.454706,-11.8800335,8.243155,-8.660004,6.216041,-8.429758,-3.2118945,6.857719,-1.9599756,12.460826,-37.17986,61.279785,0.27047092,5.5309463,4.868181,6.570977,-31.679197,1.6258922,77.38361,36.315784,0.28669065,2.2630632
60,-0.24447885155677795,2.140123128890991,78.52165985107422,0.3509436511067665,1.2494620567460277,-84.97011941975097,-1.1403866,5.778475,8.009023,6.88942,-7.586343,-5.8867316,0.8148141,-7.4603863,-11.790726,8.252975,-8.643496,6.214443,-8.513338,-3.2418754,6.842594,-1.9417106,12.462304,-37.11917,61.24978,0.3302246,5.547626,4.880876,6.7564006,-32.927597,0.057899863,77.48185,36.833324,0.36032718,2.537516
61,-0.2259257733821869,2.1427409648895264,78.52384185791016,0.3553084294058287,1.2657499686420197,-85.05437608352582,-1.124601,5.7712255,8.093504,6.8676977,-7.589191,-5.871333,0.7705043,-7.468576,-11.703162,8.251564,-8.622716,6.2236996,-8.617487,-3.269046,6.817684,-1.9141115,12.466641,-37.023556,61.215015,0.30811143,5.532755,4.880711,6.9249144,-34.182274,-1.6856043,77.58324,37.42647,0.4544666,2.8182023
62,-0.20797815918922424,2.1464035511016846,78.52433013916016,0.3607058746859568,1.2865592567592234,-85.13546828021279,-1.1261169,5.763041,8.1741495,6.8666763,-7.601633,-5.8532014,0.72169125,-7.4792576,-11.6172905,8.247293,-8.601264,6.239239,-8.731899,-3.297806,6.7840457,-1.884308,12.473796,-36.908974,61.18062,0.23374435,5.497911,4.871999,7.0791287,-35.443233,-3.5634987,77.68979,38.064228,0.56004477,3.1027799
63,-0.18529832363128662,2.146735429763794,78.52455139160156,0.3662231008859327,1.3075861425990538,-85.21386595833306,-1.1282022,5.753959,8.253122,6.8651385,-7.614414,-5.8344126,0.67739165,-7.490173,-11.5335655,8.235022,-8.576575,6.257704,-8.851206,-3.329207,6.7441325,-1.8552678,12.483602,-36.792023,61.149128,0.14970513,5.462905,4.8637676,7.216993,-36.71117,-5.5059404,77.81161,38.70496,0.6673601,3.374684
64,-0.16475452482700348,2.150308132171631,78.523193359375,0.3714875879587995,1.3246844499989892,-85.29032897415651,-1.1248637,5.7446995,8.331945,6.863822,-7.629122,-5.816868,0.63808316,-7.501418,-11.451077,8.227037,-8.5552225,6.275514,-8.970538,-3.3658297,6.700477,-1.8302108,12.49627,-36.687523,61.122894,0.09960609,5.4475665,4.8652644,7.3399043,-37.989693,-7.4397516,77.95243,39.311768,0.76550937,3.617341
65,-0.14421917498111725,2.1487770080566406,78.52413940429688,0.37645576971052847,1.335067554106915,-85.36547377718884,-1.1110859,5.7357054,8.412532,6.862064,-7.6479316,-5.800505,0.6093987,-7.5122943,-11.368196,8.219404,-8.535711,6.292426,-9.099979,-3.4079874,6.6526594,-1.8013248,12.5125265,-36.58786,61.09609,0.10170786,5.462566,4.8821707,7.424292,-39.28318,-9.380122,78.13416,39.879807,0.85185754,3.8365116
66,-0.12468267232179642,2.1406288146972656,78.52751922607422,0.3813630658071109,1.3415672997619794,-85.43887164794101,-1.0920719,5.7262077,8.493634,6.8612113,-7.670021,-5.7844434,0.58699596,-7.52378,-11.28545,8.212808,-8.518333,6.310094,-9.242439,-3.4552221,6.597484,-1.7666154,12.532635,-36.485504,61.0689,0.1305672,5.4956603,4.9084253,7.4684896,-40.593857,-11.345141,78.35486,40.427547,0.93138534,4.0369816
67,-0.1053837388753891,2.1396658420562744,78.52971649169922,0.3860661216443649,1.3481485918044076,-85.50898208603627,-1.0731668,5.716535,8.571643,6.8592625,-7.6906543,-5.769605,0.566074,-7.5349064,-11.207214,8.205478,-8.5002365,6.327843,-9.382685,-3.5076284,6.5359855,-1.7386637,12.55635,-36.39269,61.05173,0.16620873,5.5318384,4.9357715,7.5031,-41.92326,-13.266877,78.58269,40.953667,1.0027802,4.2015877
68,-0.08587771654129028,2.1408958435058594,78.53185272216797,0.3899225173760064,1.3587800087108928,-85.57445451161985,-1.0622156,5.7075825,8.642725,6.8580017,-7.7059402,-5.7570963,0.54250675,-7.5448623,-11.13786,8.194197,-8.477871,6.3450637,-9.509842,-3.5660477,6.469008,-1.7290251,12.583758,-36.318783,61.055153,0.18737786,5.5561547,4.956457,7.5509224,-43.274487,-15.071264,78.79031,41.45716,1.0642098,4.313386
69,-0.06597892194986343,2.141029119491577,78.53601837158203,0.3925522235135851,1.3748952849738656,-85.63461592869727,-1.0601022,5.699554,8.705428,6.855805,-7.713848,-5.7473507,0.5156478,-7.552512,-11.080064,8.1769495,-8.448721,6.3618608,-9.622297,-3.6309505,6.396416,-1.7424175,12.615577,-36.26868,61.085083,0.17886682,5.562021,4.965429,7.6117835,-44.65479,-16.731339,78.97522,41.921463,1.1146513,4.3629847
70,-0.04523314908146858,2.14178204536438,78.53785705566406,0.3939975496051648,1.394209340015078,-85.69051473126885,-1.0638534,5.6921964,8.761914,6.8536763,-7.7169104,-5.7398357,0.4878313,-7.558755,-11.030971,8.155071,-8.414723,6.37849,-9.731386,-3.7009506,6.317221,-1.767131,12.652126,-36.230015,61.131126,0.1567875,5.558222,4.9674773,7.663558,-46.069096,-18.277508,79.15712,42.354576,1.1538867,4.362002
71,-0.026758072897791862,2.1386542320251465,78.54092407226562,0.39538369580663485,1.415268732250878,-85.74234561896206,-1.0708101,5.685024,8.813918,6.8506017,-7.717472,-5.733732,0.45990798,-7.564396,-10.987087,8.130425,-8.379401,6.3943863,-9.842705,-3.7742696,6.232136,-1.7939028,12.693035,-36.190308,61.181335,0.14436404,5.552726,4.9701014,7.7047157,-47.515926,-19.724045,79.33379,42.797157,1.1806254,4.324882
72,-0.009046661667525768,2.134921073913574,78.54399108886719,0.3979641755169797,1.4365952581104053,-85.79047626099572,-1.0796247,5.676917,8.863252,6.8483834,-7.719252,-5.728296,0.43123135,-7.5713625,-10.944708,8.108363,-8.347973,6.408945,-9.961482,-3.8514457,6.1412926,-1.8140887,12.737841,-36.136402,61.22542,0.16668469,5.553431,4.9809732,7.734956,-48.99131,-21.084755,79.50204,43.28983,1.1925817,4.264637
73,0.006762446835637093,2.1348280906677246,78.54438781738281,0.40293354536258813,1.4591632596019075,-85.83544225567918,-1.0901399,5.666497,8.911767,6.8454404,-7.721817,-5.724131,0.4028512,-7.580745,-10.902787,8.082767,-8.31754,6.423418,-10.088709,-3.934723,6.0426006,-1.8278179,12.786636,-36.066223,61.26483,0.24714419,5.5657153,5.00123,7.7477555,-50.493332,-22.3865,79.6557,43.85043,1.1856925,4.172015
74,0.02040081098675728,2.138071060180664,78.54584503173828,0.4096436305781648,1.4833652781662057,-85.87683391935859,-1.1039078,5.654521,8.958071,6.84269,-7.7241454,-5.7213817,0.37252745,-7.592065,-10.863106,8.058377,-8.289869,6.437736,-10.217925,-4.0238676,5.9387064,-1.8417668,12.839589,-35.989216,61.30385,0.36742488,5.58427,5.027358,7.754227,-52.021927,-23.622572,79.78903,44.452423,1.1606729,4.0437303
75,0.03146151080727577,2.138155460357666,78.54972076416016,0.41488039278096145,1.5066443181531315,-85.91386689081071,-1.1181947,5.644496,8.998936,6.839922,-7.72632,-5.7186546,0.34548303,-7.6010814,-10.82744,8.031623,-8.262052,6.4489665,-10.344848,-4.1150117,5.8369904,-1.8586434,12.896983,-35.909946,61.340076,0.4867001,5.601137,5.0602,7.779527,-53.576317,-24.747911,79.90014,45.079033,1.1221498,3.9018629
76,0.04058527573943138,2.140449285507202,78.5501480102539,0.4166622517319786,1.526473405532151,-85.94568959058101,-1.130667,5.639292,9.031301,6.837609,-7.72891,-5.714404,0.32307118,-7.6050696,-10.796944,8.007304,-8.23594,6.4544086,-10.467469,-4.2053347,5.7445536,-1.8784605,12.959472,-35.829426,61.36881,0.56607354,5.608109,5.10061,7.842813,-55.156746,-25.71059,79.99016,45.71575,1.0749136,3.76913
77,0.05158371105790138,2.1380114555358887,78.55007934570312,0.41297356587152206,1.5431606829582623,-85.97063441161366,-1.142375,5.641326,9.050638,6.8354197,-7.7321296,-5.707351,0.3056868,-7.601615,-10.773437,7.9844456,-8.2108755,6.451518,-10.579882,-4.29351,5.6662354,-1.9045967,13.027827,-35.747814,61.38553,0.5933616,5.5997105,5.155964,7.9664187,-56.76648,-26.463657,80.04448,46.386177,1.0231434,3.6489775
78,0.059348057955503464,2.137460470199585,78.55299377441406,0.405399219816073,1.5577194780552999,-85.98965833584158,-1.154317,5.648308,9.059833,6.8344893,-7.7368913,-5.6985345,0.29147235,-7.593183,-10.755505,7.9647183,-8.188623,6.4424553,-10.690502,-4.381045,5.59675,-1.9319202,13.102915,-35.658997,61.390617,0.5904194,5.581328,5.223335,8.113093,-58.409077,-27.025702,80.076485,47.093548,0.9624684,3.5318017
79,0.059214264154434204,2.1390013694763184,78.55767059326172,0.39709231507761344,1.5688082266594414,-86.00569710797635,-1.1626782,5.6570563,9.066925,6.8322783,-7.7397027,-5.6902213,0.28106505,-7.5830107,-10.740462,7.9464126,-8.167046,6.431073,-10.816279,-4.469348,5.5284033,-1.9477824,13.18528,-35.556423,61.38539,0.569559,5.56115,5.2878065,8.216404,-60.083504,-27.455791,80.1254,47.7848,0.88619906,3.4213684
80,0.06376473605632782,2.1449711322784424,78.56098175048828,0.39084481094645845,1.574959930522435,-86.02190675349883,-1.1663663,5.664754,9.079737,6.8313074,-7.73964,-5.6846743,0.2755935,-7.5741987,-10.725325,7.929954,-8.1468115,6.4212923,-10.970915,-4.5591173,5.4545474,-1.9422278,13.27506,-35.43744,61.372948,0.542034,5.547312,5.334492,8.218222,-61.783375,-27.81578,80.22384,48.407166,0.7880861,3.3207557
81,0.06683172285556793,2.147798538208008,78.56509399414062,0.38756982377918425,1.5733244058823561,-86.0362690481836,-1.1608237,5.669849,9.099813,6.829353,-7.7352757,-5.6829724,0.28052825,-7.5682564,-10.713391,7.912906,-8.126793,6.412999,-11.147906,-4.6518555,5.382761,-1.9191145,13.372304,-35.29984,61.348682,0.5036011,5.542043,5.357334,8.152994,-63.50263,-28.108236,80.3536,48.926105,0.6686391,3.2363675
82,0.06764942407608032,2.1494133472442627,78.57095336914062,0.3855186048341072,1.5655699546736799,-86.04800899933281,-1.1496205,5.674375,9.123095,6.8280535,-7.727822,-5.6838403,0.2917139,-7.5634685,-10.704539,7.8996034,-8.109001,6.4044724,-11.337036,-4.7467895,5.316908,-1.8857177,13.477054,-35.15049,61.31282,0.45113158,5.5410423,5.3652215,8.047017,-65.23782,-28.31554,80.489586,49.375256,0.5312659,3.1646233
83,0.06706614047288895,2.151956796646118,78.57475280761719,0.3844435982192773,1.5569609125040713,-86.06220281838918,-1.1370425,5.67956,9.1493,6.8259854,-7.7183714,-5.6856985,0.3019613,-7.5578227,-10.691949,7.887054,-8.091277,6.397267,-11.546042,-4.8425665,5.243709,-1.840115,13.589419,-35.003155,61.27893,0.3939152,5.542699,5.3657675,7.825654,-66.98547,-28.465706,80.65234,49.800022,0.3730064,3.0924892
84,0.06459476053714752,2.1546390056610107,78.57801055908203,0.3831322463567844,1.5528330077675876,-86.08354035549252,-1.1287168,5.6875534,9.177896,6.823996,-7.708679,-5.6872005,0.306966,-7.548001,-10.669624,7.866548,-8.06872,6.392662,-11.779653,-4.935687,5.150844,-1.7810808,13.708864,-34.874916,61.260086,0.340764,5.545305,5.366493,7.4208064,-68.74041,-28.591465,80.85712,50.24361,0.19129339,3.006671
85,0.06078873947262764,2.1564249992370605,78.5794677734375,0.3831394556318841,1.55522967716263,-86.11227718881172,-1.1268762,5.696433,9.207678,6.822239,-7.6985335,-5.687379,0.30213335,-7.535416,-10.634226,7.8399205,-8.042275,6.3946543,-12.041976,-5.0275087,5.0331078,-1.7102947,13.835516,-34.77766,61.263905,0.28308862,5.547178,5.370216,6.8034115,-70.49988,-28.71552,81.101166,50.73212,-0.018597549,2.8971806
86,0.05642707273364067,2.1597440242767334,78.58092498779297,0.38423058447626335,1.5611385721003403,-86.14613278635692,-1.1289654,5.7059793,9.239153,6.8205466,-7.6868296,-5.687179,0.2938625,-7.5204,-10.589817,7.805065,-8.01143,6.4012814,-12.323304,-5.117726,4.900403,-1.631532,13.968899,-34.70589,61.28237,0.21912478,5.5496306,5.372635,6.0179834,-72.26167,-28.818161,81.36233,51.233368,-0.25428858,2.772749
87,0.04978809878230095,2.165008544921875,78.58306121826172,0.38372488142963207,1.5681787520687192,-86.1866124407855,-1.1307868,5.7199645,9.275014,6.8183575,-7.6758013,-5.6879535,0.2808634,-7.501317,-10.539902,7.771977,-7.9800854,6.4052305,-12.608479,-5.201478,4.7625833,-1.5480893,14.106953,-34.649483,61.306755,0.16816781,5.555544,5.3700786,5.1018972,-74.02064,-28.857264,81.626945,51.71009,-0.5082257,2.647091
88,0.04031689092516899,2.17313551902771,78.58949279785156,0.379131098275909,1.5739053093444375,-86.23518036289917,-1.1300337,5.7417893,9.31779,6.81723,-7.66806,-5.6910768,0.26494402,-7.4759583,-10.488312,7.74489,-7.949475,6.3990693,-12.883902,-5.275368,4.628908,-1.4629716,14.247067,-34.595924,61.329674,0.15063031,5.567721,5.3592343,4.0841274,-75.77059,-28.786015,81.884476,52.123573,-0.7728322,2.533765
89,0.026721790432929993,2.181772232055664,78.59068298339844,0.3685081008850633,1.5783894877124836,-86.29346783335994,-1.1262137,5.774391,9.368859,6.8167667,-7.6648335,-5.697009,0.2462762,-7.442143,-10.43565,7.723803,-7.918392,6.3778834,-13.146978,-5.3386583,4.5013747,-1.380829,14.389162,-34.549965,61.35426,0.19021116,5.5912137,5.333764,2.9626265,-77.51003,-28.575668,82.136505,52.45411,-1.0441527,2.436508
90,0.009708438068628311,2.1889116764068604,78.59468841552734,0.35343408905143525,1.5826593987548765,-86.36030873114703,-1.1200353,5.815063,9.426767,6.8152556,-7.6637764,-5.7049956,0.2218971,-7.4017153,-10.379762,7.71094,-7.8888073,6.346486,-13.405516,-5.393065,4.3751388,-1.2988291,14.533217,-34.514156,61.383953,0.27080646,5.6228137,5.2973614,1.6874706,-79.237274,-28.219978,82.385635,52.725204,-1.3273872,2.347245
91,-0.004552103113383055,2.1925318241119385,78.59742736816406,0.3373741416729063,1.5858635305411188,-86.4328641933681,-1.1121726,5.8594413,9.489457,6.8152857,-7.664283,-5.714532,0.19737597,-7.3579645,-10.321293,7.6978693,-7.8586617,6.3125944,-13.659678,-5.440921,4.249716,-1.2133268,14.676691,-34.475735,61.415615,0.3511156,5.6535416,5.262719,0.22901215,-80.9426,-27.713593,82.61476,52.968323,-1.629269,2.2601671
92,-0.01759767346084118,2.201911687850952,78.60208892822266,0.32372050972251354,1.5871405143657322,-86.50847516377505,-1.1005601,5.9025187,9.555301,6.8150826,-7.6641636,-5.7249684,0.17579898,-7.314825,-10.260498,7.680561,-7.8281794,6.283859,-13.909191,-5.487661,4.124362,-1.1226681,14.815793,-34.42145,61.450882,0.39164817,5.674052,5.243797,-1.4341406,-82.60687,-27.05826,82.80022,53.214066,-1.9591672,2.1676629
93,-0.031118083745241165,2.211273193359375,78.6037368774414,0.31381716019107014,1.5850176228022936,-86.58709701018239,-1.0825347,5.9428325,9.624583,6.81379,-7.6628947,-5.736495,0.15844294,-7.2738786,-10.198692,7.660311,-7.799312,6.263249,-14.153015,-5.5431576,3.9992416,-1.0343596,14.949363,-34.35566,61.504642,0.36942458,5.67903,5.2533793,-3.29976,-84.204025,-26.265917,82.922264,53.462723,-2.3348918,2.0559542
94,-0.04871980473399162,2.214951753616333,78.60578155517578,0.3059116981467603,1.580369795904064,-86.67008453229181,-1.060418,5.982882,9.698027,6.8134565,-7.662152,-5.7493234,0.14305411,-7.2328806,-10.135341,7.6388326,-7.7712293,6.2463017,-14.390382,-5.6167407,3.8751643,-0.95858604,15.080174,-34.283714,61.589165,0.3110963,5.67421,5.286049,-5.331899,-85.70048,-25.354746,82.95665,53.699192,-2.7582316,1.9219569
95,-0.0689612329006195,2.2209837436676025,78.60932159423828,0.29838679860846357,1.5760095779015173,-86.75626704954263,-1.0381665,6.024332,9.774422,6.8132386,-7.66067,-5.7631726,0.12634899,-7.190465,-10.067328,7.616944,-7.7430496,6.2295623,-14.625449,-5.719663,3.750192,-0.8983647,15.213412,-34.190083,61.70587,0.25130177,5.667185,5.3297205,-7.486016,-87.057625,-24.35325,82.866684,53.92711,-3.2192638,1.7698858
96,-0.08973485231399536,2.229649782180786,78.612060546875,0.2896305425585091,1.5746129254016297,-86.8447168106906,-1.019315,6.0684624,9.852625,6.81198,-7.6574697,-5.77772,0.107186876,-7.1450706,-9.9919815,7.5906153,-7.710765,6.209525,-14.864974,-5.859928,3.6224039,-0.8498649,15.355402,-34.055027,61.84785,0.22658314,5.6660504,5.3711486,-9.715573,-88.240776,-23.293941,82.62342,54.150425,-3.7060554,1.6065859
97,-0.11092220991849899,2.24001407623291,78.61795043945312,0.2793977529509944,1.5775568107642355,-86.93747270235784,-1.0056428,6.116679,9.934127,6.8103704,-7.652032,-5.7927566,0.07726115,-7.09665,-9.904712,7.5720773,-7.679292,6.184809,-15.117914,-6.0415225,3.488866,-0.80577767,15.513365,-33.86433,62.011086,0.25778678,5.6721215,5.4008703,-12.009772,-89.234955,-22.212158,82.20877,54.36571,-4.2210994,1.4202148
98,-0.13324445486068726,2.24997878074646,78.62193298339844,0.26831926261834577,1.5831291096903561,-87.03423757973718,-0.99485064,6.1677756,10.018945,6.809516,-7.6459637,-5.808453,0.04327881,-7.0449557,-9.808782,7.5523105,-7.6454725,6.1573195,-15.388444,-6.262322,3.3511891,-0.7575289,15.692677,-33.620853,62.18575,0.32257235,5.6821756,5.427431,-14.354315,-90.050835,-21.13023,81.64011,54.565327,-4.773206,1.214349
99,-0.15652410686016083,2.259631395339966,78.6248779296875,0.2572373074617657,1.5896127116138647,-87.13063167000256,-0.9857404,6.2195826,10.103824,6.8081794,-7.639098,-5.825203,0.008882394,-6.992431,-9.710626,7.530663,-7.6106567,6.1289506,-15.675973,-6.5136933,3.2124128,-0.6967444,15.894674,-33.33468,62.35205,0.38750148,5.6965623,5.46207,-16.705559,-90.716194,-20.051548,80.94215,54.749126,-5.3450127,1.0145786
100,-0.18113453686237335,2.2679688930511475,78.6294937133789,0.24630600701539018,1.5952659911442528,-87.22262862892981,-0.97627187,6.2699304,10.185567,6.806168,-7.6332917,-5.8432813,-0.022401365,-6.9406767,-9.616745,7.5075574,-7.577624,6.101435,-15.975929,-6.7852592,3.0766277,-0.61924744,16.116869,-33.019016,62.494602,0.41957772,5.7153845,5.516253,-19.02907,-91.264084,-18.96781,80.14818,54.920277,-5.9197917,0.8500628
101,-0.20456227660179138,2.2770090103149414,78.6325912475586,0.23552867524864698,1.5997814894467322,-87.31120938457128,-0.9658819,6.3186235,10.266063,6.80394,-7.6299706,-5.863723,-0.052022208,-6.889438,-9.524199,7.485046,-7.5483437,6.073784,-16.279987,-7.068625,2.945461,-0.52621394,16.354858,-32.679153,62.60973,0.40169543,5.7413144,5.598108,-21.315607,-91.72435,-17.866049,79.28235,55.055546,-6.4867826,0.7468
102,-0.23003169894218445,2.2884228229522705,78.63407135009766,0.22469652045186445,1.60401037727384,-87.39794550013217,-0.9567134,6.3674326,10.345809,6.80314,-7.628496,-5.886102,-0.07981227,-6.8375907,-9.43131,7.45952,-7.5195,6.045577,-16.587067,-7.3534956,2.8180504,-0.41513145,16.603193,-32.312496,62.695354,0.35300082,5.772851,5.6955476,-23.60831,-92.11835,-16.733694,78.3538,55.163906,-7.042007,0.69570243
103,-0.2508782148361206,2.298495292663574,78.63497161865234,0.21420944560806554,1.6080891632039702,-87.47918293927236,-0.94786704,6.4142785,10.420595,6.8012605,-7.626399,-5.908154,-0.10418158,-6.787338,-9.345684,7.431795,-7.4902873,6.0195336,-16.90258,-7.6295004,2.6931076,-0.28013495,16.85558,-31.921011,62.744606,0.29655126,5.804164,5.790496,-25.959303,-92.45848,-15.555376,77.3708,55.295044,-7.581203,0.6719566
104,-0.27509793639183044,2.3064842224121094,78.6363754272461,0.20456017594688233,1.6121939874726223,-87.551161136439,-0.94156194,6.459059,10.48541,6.799844,-7.622104,-5.9277544,-0.12587884,-6.740412,-9.274991,7.405422,-7.460302,5.9983244,-17.233595,-7.889063,2.5687892,-0.11588145,17.105854,-31.504625,62.753056,0.25641185,5.8297963,5.865715,-28.420794,-92.753494,-14.314287,76.33602,55.498844,-8.102954,0.6498285
105,-0.29911208152770996,2.3144140243530273,78.63764190673828,0.1952254438253502,1.6159541580928367,-87.6133810927032,-0.93707407,6.502125,10.53899,6.798948,-7.615756,-5.943792,-0.14081927,-6.69653,-9.223699,7.3751483,-7.4250503,5.9848413,-17.579165,-8.128539,2.445219,0.07806047,17.348505,-31.055056,62.723003,0.24256073,5.848446,5.909668,-31.002657,-93.01067,-12.991342,75.261314,55.78912,-8.60202,0.6227709
106,-0.3229607045650482,2.3243486881256104,78.63751983642578,0.18639732655773045,1.6194107505074822,-87.66765687428543,-0.9337463,6.543509,10.583923,6.797447,-7.607242,-5.957562,-0.15000421,-6.655067,-9.186954,7.339785,-7.385032,5.9770045,-17.933458,-8.34702,2.3226,0.29470393,17.579527,-30.578688,62.661396,0.24025045,5.862635,5.9333215,-33.708492,-93.23562,-11.568084,74.15292,56.142704,-9.077188,0.60878915
107,-0.34521037340164185,2.333693265914917,78.6399154663086,0.17864593691172345,1.6233400591933176,-87.71392094270075,-0.9329325,6.58181,10.62131,6.796104,-7.5975776,-5.970533,-0.15903312,-6.616963,-9.158489,7.3084064,-7.3490477,5.9698744,-18.29389,-8.5380335,2.2014184,0.53201246,17.794664,-30.094778,62.565186,0.2404881,5.8723445,5.9522276,-36.578888,-93.42947,-10.030647,73.010994,56.55605,-9.534742,0.6231934
108,-0.36598825454711914,2.340832233428955,78.6426773071289,0.17234233472459684,1.6283685264971115,-87.7525102491953,-0.935746,6.615914,10.652231,6.795216,-7.587212,-5.9841814,-0.17008151,-6.5824995,-9.1325865,7.282572,-7.3217354,5.9583993,-18.658709,-8.695921,2.081427,0.78581816,17.990097,-29.624783,62.434696,0.23157662,5.877334,5.982355,-39.65171,-93.592514,-8.366845,71.82827,57.02492,-9.978906,0.6769016
109,-0.3876645267009735,2.3478901386260986,78.6457290649414,0.16895816658091303,1.6352094137048738,-87.78337832510068,-0.9422394,6.6438127,10.676958,6.7936664,-7.5751867,-5.9992437,-0.18414964,-6.5527034,-9.1062565,7.26134,-7.305024,5.9403214,-19.026682,-8.817816,1.9630334,1.0569994,18.16179,-29.169436,62.265053,0.20879413,5.877249,6.0350876,-42.95704,-93.72594,-6.567119,70.61761,57.54704,-10.413307,0.7760887
110,-0.40747398138046265,2.3561513423919678,78.64604949951172,0.167634550175947,1.6433887269972196,-87.80641283081606,-0.95263493,6.6670465,10.694829,6.7924485,-7.561722,-6.01489,-0.19988672,-6.527011,-9.083102,7.244595,-7.2966623,5.9186068,-19.393717,-8.903967,1.847023,1.3393445,18.307026,-28.726322,62.065304,0.17671065,5.871858,6.099345,-46.48223,-93.83229,-4.6225886,69.38479,58.12994,-10.832429,0.9152437
111,-0.4260631203651428,2.364516019821167,78.64800262451172,0.1662340633108329,1.6517393038631385,-87.82166538565295,-0.9654122,6.6882153,10.7058525,6.791572,-7.548152,-6.0300207,-0.21461064,-6.503408,-9.067269,7.2304387,-7.2913914,5.8961654,-19.751038,-8.953456,1.7349646,1.6227893,18.423607,-28.307098,61.849865,0.14577189,5.8619885,6.156552,-50.189655,-93.912674,-2.531764,68.11704,58.7873,-11.22754,1.090075
112,-0.4458529055118561,2.3692424297332764,78.6494140625,0.1621265764041894,1.6592209460664535,-87.82901666349572,-0.97904164,6.7104325,10.709954,6.7912116,-7.536221,-6.0437393,-0.22661169,-6.4795485,-9.062821,7.219128,-7.285451,5.8759584,-20.090248,-8.966487,1.6281315,1.8938651,18.510427,-27.927252,61.63643,0.122233845,5.848193,6.188716,-54.032635,-93.96837,-0.30304202,66.798904,59.531673,-11.590265,1.2954501
113,-0.465535968542099,2.3747031688690186,78.65007781982422,0.15368557766607546,1.666762055394811,-87.82784672145709,-0.99557805,6.7358627,10.706876,6.7912254,-7.5260253,-6.056088,-0.23397042,-6.453568,-9.072817,7.205663,-7.2745805,5.857938,-20.407127,-8.941685,1.5259988,2.1466362,18.566858,-27.595594,61.430637,0.10422554,5.827188,6.1864386,-57.99251,-94.00043,2.0432982,65.4338,60.40439,-11.917783,1.5354282
114,-0.4816506505012512,2.383561134338379,78.64997100830078,0.1426851263208664,1.6745548237032473,-87.81834255004252,-1.0146048,6.7623563,10.69679,6.7916746,-7.5173492,-6.067457,-0.23957819,-6.427238,-9.094291,7.195296,-7.2642107,5.840744,-20.699799,-8.88151,1.4302032,2.3801737,18.59261,-27.30934,61.229748,0.0896856,5.799815,6.161702,-62.058254,-94.010376,4.482724,64.02554,61.39001,-12.2130995,1.8097292
115,-0.49699684977531433,2.3889620304107666,78.65027618408203,0.13187210871790042,1.6804398175488742,-87.80197982980486,-1.0330942,6.7866344,10.680043,6.791836,-7.507725,-6.077457,-0.24236915,-6.403186,-9.1229515,7.188165,-7.255711,5.825483,-20.963247,-8.791381,1.345884,2.5895267,18.588064,-27.066408,61.037697,0.08488789,5.772765,6.1286125,-66.18453,-93.99992,6.9902472,62.558083,62.413822,-12.476481,2.1049676
116,-0.5127719640731812,2.3953211307525635,78.6512222290039,0.1237742466632983,1.6823252948319025,-87.7798489754847,-1.0484434,6.8059096,10.656789,6.793057,-7.496261,-6.0857306,-0.24167177,-6.384589,-9.154382,7.185624,-7.2513204,5.813317,-21.193844,-8.678278,1.277597,2.7714405,18.55422,-26.861721,60.857494,0.09791478,5.752923,6.10141,-70.3241,-93.9713,9.53794,61.011658,63.3998,-12.709565,2.4063482
117,-0.5289238691329956,2.4019508361816406,78.6529769897461,0.11918073082718121,1.6795597749685942,-87.75278865569399,-1.0586164,6.8192697,10.627053,6.7932825,-7.4807463,-6.0918503,-0.23654376,-6.371431,-9.187988,7.1870475,-7.251101,5.805138,-21.388714,-8.543446,1.2277383,2.9230454,18.491959,-26.70123,60.686718,0.14027217,5.746434,6.085037,-74.44451,-93.925644,12.088817,59.383247,64.32252,-12.912824,2.7062175
118,-0.5393692255020142,2.4055120944976807,78.65111541748047,0.11700088929202665,1.6733510982648692,-87.71986107670281,-1.0657388,6.828288,10.590684,6.79354,-7.4627495,-6.0960927,-0.22753382,-6.362699,-9.225903,7.191719,-7.253688,5.800175,-21.548616,-8.38889,1.1938308,3.0425851,18.403229,-26.586676,60.528675,0.20543596,5.7482495,6.07309,-78.51409,-93.86536,14.604221,57.669968,65.22297,-13.086644,3.0073204
119,-0.551212728023529,2.4091341495513916,78.6508560180664,0.11594648688126923,1.6641207307954176,-87.68021038699926,-1.0721735,6.8337708,10.547836,6.795457,-7.444787,-6.0992846,-0.21491283,-6.357677,-9.268268,7.200088,-7.2598743,5.796707,-21.674898,-8.219343,1.1748294,3.130301,18.290749,-26.508108,60.392086,0.2719641,5.748343,6.0618305,-82.48074,-93.79368,17.050087,55.85559,66.12874,-13.231876,3.311721
120,-0.5638613104820251,2.415142774581909,78.65172576904297,0.1158308286492031,1.6523044665904634,-87.63296866280379,-1.078194,6.8357687,10.498981,6.796955,-7.4271927,-6.101979,-0.19967417,-6.356559,-9.314872,7.213403,-7.27073,5.7932253,-21.770546,-8.040644,1.1685541,3.1865804,18.158241,-26.455986,60.285923,0.31641886,5.7366676,6.0474615,-86.29765,-93.71382,19.396494,53.92039,67.06599,-13.348619,3.6217833
121,-0.5734177827835083,2.4237420558929443,78.65116119384766,0.11690846249096282,1.6366371488313183,-87.57685921877281,-1.0827374,6.833631,10.4438715,6.798006,-7.4107103,-6.103559,-0.17944524,-6.3596826,-9.365658,7.230877,-7.2859683,5.7899013,-21.838179,-7.8549066,1.1751919,3.214846,18.007551,-26.426321,60.211487,0.32652766,5.7040515,6.0305004,-89.93258,-93.627655,21.609234,51.846333,68.077415,-13.431528,3.9441524
122,-0.5827151536941528,2.4299635887145996,78.65093231201172,0.11931435577696381,1.6172750448533038,-87.51288474957673,-1.0866594,6.827701,10.382332,6.7997947,-7.3942695,-6.104021,-0.15442921,-6.367051,-9.420676,7.25099,-7.304095,5.7874274,-21.8804,-7.663707,1.1942005,3.2162454,17.840897,-26.421638,60.163677,0.31515813,5.658178,6.0133505,-93.3612,-93.53798,23.65532,49.631252,69.13413,-13.481953,4.268426
123,-0.5948171019554138,2.434504508972168,78.65032196044922,0.12201854359545276,1.5969051974810633,-87.44268992238253,-1.0907354,6.8193216,10.315011,6.801255,-7.3779693,-6.104772,-0.12792654,-6.3768606,-9.480494,7.27525,-7.3269467,5.7846565,-21.900862,-7.4715314,1.2223651,3.1946683,17.662971,-26.434267,60.13585,0.30430526,5.614819,5.9946427,-96.55774,-93.449524,25.516367,47.275646,70.15625,-13.510161,4.5724106
124,-0.6023037433624268,2.4373090267181396,78.6492919921875,0.12355981245195659,1.578114293034326,-87.36826250202532,-1.0973787,6.8105693,10.242355,6.803008,-7.361843,-6.1074715,-0.10017528,-6.3863783,-9.54614,7.2961283,-7.350182,5.780471,-21.903257,-7.2816114,1.256874,3.1530914,17.480118,-26.459936,60.120148,0.31130156,5.5895767,5.9723344,-99.508995,-93.366196,27.185944,44.780266,71.06443,-13.52693,4.835146
125,-0.6092023849487305,2.4419972896575928,78.64696502685547,0.12290651929751605,1.5607959491879388,-87.29007932320705,-1.1052263,6.8027678,10.163875,6.8041472,-7.345853,-6.1145554,-0.06936243,-6.3935666,-9.6181345,7.311121,-7.3739843,5.772659,-21.905855,-7.1770573,1.2913408,3.168746,17.428747,-26.493706,60.019,0.31492034,5.598471,5.9368052,-101.02542,-93.3434,27.454733,41.928677,71.82488,-13.537122,5.029867
126,-0.6170434951782227,2.4467010498046875,78.64752197265625,0.12156212311808696,1.5444203858350627,-87.2071489545305,-1.1139356,6.794305,10.079784,6.804101,-7.3297377,-6.1244254,-0.039395355,-6.4013014,-9.695281,7.3300085,-7.4028335,5.7626033,-21.892857,-7.0842996,1.3050137,3.1939151,17.397602,-26.530056,59.91937,0.3399729,5.6245074,5.877143,-102.22142,-93.329506,27.513939,38.918205,72.534996,-13.566495,5.1756945
127,-0.6227359771728516,2.452002763748169,78.64544677734375,0.12067722064422326,1.5286010273679569,-87.11908847248753,-1.1257858,6.7834044,9.990818,6.805563,-7.313697,-6.1329956,-0.007176374,-6.411094,-9.777933,7.3455315,-7.430917,5.7538605,-21.891628,-6.980146,1.3530195,3.2213485,17.360224,-26.553547,59.788097,0.36683342,5.6585097,5.8275785,-103.41882,-93.315765,27.554554,35.801743,73.10939,-13.544804,5.3100266
128,-0.6290162205696106,2.4562480449676514,78.64382934570312,0.12239596300168977,1.5145456382774434,-87.0255487482087,-1.1414634,6.76765,9.898411,6.806054,-7.29565,-6.136314,0.023332305,-6.4254274,-9.865379,7.3622923,-7.458743,5.749741,-21.910175,-6.8682365,1.426946,3.2439635,17.303331,-26.555206,59.64641,0.39895827,5.692686,5.7978516,-104.65473,-93.30002,27.631119,32.626183,73.516266,-13.467445,5.4659004
129,-0.6349311470985413,2.463507890701294,78.64168548583984,0.128651342582266,1.5045299019273874,-86.92398437011404,-1.1662015,6.744711,9.800636,6.8068724,-7.274508,-6.1316786,0.052559797,-6.44649,-9.960289,7.373454,-7.4821796,5.752483,-21.935482,-6.7583723,1.4885103,3.2464747,17.226639,-26.552832,59.54269,0.4504428,5.729932,5.775157,-105.83938,-93.28309,27.74245,29.28762,73.830055,-13.373041,5.6188855
130,-0.6404098272323608,2.466315507888794,78.64215087890625,0.1375592792591024,1.4977752369611725,-86.81540650155769,-1.197941,6.71629,9.697555,6.8082457,-7.251696,-6.1214848,0.0811466,-6.472311,-10.062122,7.380459,-7.5030646,5.759988,-21.954426,-6.601147,1.5404161,3.1382785,17.00181,-26.549967,59.602364,0.5454843,5.7631617,5.7796073,-107.319435,-93.24826,28.229858,25.822554,74.052666,-13.255575,5.7549887
131,-0.6440445780754089,2.4740498065948486,78.64138793945312,0.14637972906882193,1.4919481092614695,-86.70543964013747,-1.2305223,6.6869507,9.593695,6.8094225,-7.2291307,-6.110186,0.10962357,-6.4989495,-10.16528,7.3875613,-7.523688,5.7688656,-21.937965,-6.426034,1.5723882,2.9606695,16.702099,-26.601456,59.767376,0.6221454,5.7887526,5.8076253,-108.931725,-93.21632,28.950151,22.464842,74.06931,-13.130121,5.939495
132,-0.6456741690635681,2.4765310287475586,78.64018249511719,0.15312239471037362,1.483752514635857,-86.60003960536842,-1.256852,6.6604295,9.493715,6.8103666,-7.2097073,-6.10205,0.14108086,-6.5233965,-10.264319,7.395342,-7.5445385,5.775628,-21.918653,-6.280158,1.6145383,2.8341813,16.462816,-26.632374,59.85817,0.6711597,5.80499,5.8287807,-110.39108,-93.20066,29.565332,19.432083,73.77938,-12.997604,6.24751
133,-0.6494607925415039,2.479912519454956,78.64093017578125,0.15655658234845998,1.4707687568229544,-86.50012524399602,-1.2734964,6.6382813,9.398418,6.81057,-7.1927743,-6.098006,0.17781082,-6.5436316,-10.357877,7.404718,-7.565549,5.778821,-21.903366,-6.1606407,1.6715816,2.75263,16.27195,-26.629017,59.8851,0.6915236,5.803601,5.84487,-111.734505,-93.19837,30.081308,16.633568,72.906586,-12.843865,6.8047447
134,-0.6502484679222107,2.4826114177703857,78.63987731933594,0.1579332118107731,1.4550237459774351,-86.40294144253349,-1.2852255,6.6186633,9.305317,6.811798,-7.178188,-6.0959163,0.21823345,-6.561775,-10.448668,7.414251,-7.5861354,5.7804885,-21.886951,-6.055989,1.7388479,2.6895332,16.101824,-26.60622,59.883797,0.69334614,5.7896295,5.8613806,-113.02612,-93.20402,30.576736,13.997921,71.59068,-12.68169,7.550474
135,-0.6468150019645691,2.483938455581665,78.63670349121094,0.15874179461848972,1.4405526830286026,-86.30814828366591,-1.2952796,6.5993257,9.214611,6.8117146,-7.1662736,-6.0952444,0.25983888,-6.579362,-10.538174,7.4207006,-7.6060314,5.782153,-21.86444,-5.9773912,1.8032273,2.6483436,15.958285,-26.570251,59.858612,0.6890079,5.774752,5.8794208,-114.18828,-93.21087,31.029654,11.806108,70.344406,-12.5569515,8.274892
136,-0.6458402872085571,2.481193780899048,78.63465881347656,0.15999559977537206,1.431328437032624,-86.21552694606571,-1.308951,6.579065,9.126078,6.8125186,-7.1592684,-6.0956864,0.2999638,-6.597829,-10.6278,7.4213085,-7.6255736,5.7853336,-21.83291,-5.940226,1.8490534,2.634964,15.851898,-26.526281,59.813698,0.6902965,5.7709255,5.900336,-115.105576,-93.21319,31.378597,10.341914,69.675575,-12.49996,8.761544
137,-0.6464628577232361,2.4751317501068115,78.63137817382812,0.1626670788107941,1.4261397944667977,-86.12447811060507,-1.3220191,6.5570726,9.039223,6.811406,-7.159904,-6.098522,0.3432846,-6.6175075,-10.719791,7.411838,-7.645915,5.789973,-21.789589,-5.9662943,1.8662711,2.6567109,15.795137,-26.47331,59.754406,0.70305955,5.7856,5.9373326,-115.67881,-93.212166,31.552084,9.787697,69.65753,-12.500556,8.967179
138,-0.6420583724975586,2.465914249420166,78.62798309326172,0.1653574119161386,1.423723576273598,-86.03533565365365,-1.3349613,6.5346003,8.954131,6.8104634,-7.1670895,-6.103431,0.38917542,-6.637506,-10.812779,7.3956437,-7.6672277,5.7954364,-21.730598,-6.0382347,1.8590753,2.6885412,15.7589655,-26.419277,59.708637,0.72015244,5.8098707,5.990364,-116.03995,-93.20977,31.656403,9.9683,70.03655,-12.547234,9.000035
139,-0.6358898282051086,2.4556427001953125,78.62512969970703,0.16828608386366317,1.42809058068199,-85.9500221235908,-1.353667,6.5116467,8.87302,6.808694,-7.173515,-6.10764,0.4278827,-6.657727,-10.901886,7.376906,-7.684392,5.802278,-21.653324,-6.1332574,1.8295822,2.7178364,15.74161,-26.390139,59.674084,0.71825796,5.833775,6.03237,-116.22558,-93.20738,31.694672,10.606609,70.81181,-12.651297,8.866425
140,-0.6306968927383423,2.443906784057617,78.62499237060547,0.17005853822975012,1.4420145867620466,-85.86880543467767,-1.3829023,6.48896,8.796062,6.8070073,-7.173981,-6.108246,0.45587093,-6.67624,-10.9846525,7.3511972,-7.688717,5.8111906,-21.581284,-6.2162933,1.804751,2.7518675,15.722053,-26.35749,59.61713,0.70532185,5.847946,6.044758,-116.374535,-93.20256,31.743158,11.442118,72.01538,-12.83154,8.590198
141,-0.6233417987823486,2.4337244033813477,78.62572479248047,0.17076233960636591,1.4708050696875434,-85.79220077793225,-1.4283732,6.4662595,8.723814,6.804939,-7.166445,-6.105428,0.46672323,-6.6934204,-11.059455,7.3205547,-7.6795554,5.8246527,-21.503147,-6.2997894,1.7681056,2.7796488,15.700831,-26.32823,59.556263,0.6676773,5.8520794,6.015482,-116.41266,-93.19364,31.809252,12.719765,73.95968,-13.136605,8.0443945
142,-0.6144737005233765,2.424787759780884,78.62699890136719,0.1708691339830828,1.5115240622937367,-85.71930868102615,-1.4851991,6.443257,8.655722,6.801706,-7.1542296,-6.1003885,0.46623126,-6.7095003,-11.128417,7.281685,-7.658334,5.841546,-21.415503,-6.390662,1.7128407,2.8016608,15.678552,-26.30504,59.50393,0.61220485,5.849898,5.9574466,-116.32884,-93.18003,31.894543,14.477644,76.53653,-13.574491,7.275805
143,-0.6052402853965759,2.4159834384918213,78.63164520263672,0.17066207185300383,1.5556563973969526,-85.65125425751475,-1.5470628,6.4201636,8.592191,6.7989264,-7.137881,-6.0920553,0.45564649,-6.7258477,-11.191729,7.2485385,-7.634265,5.856955,-21.329552,-6.461805,1.6522475,2.8273003,15.655609,-26.299866,59.44724,0.5534859,5.8377786,5.878851,-116.2444,-93.16214,31.98477,16.128975,79.11549,-14.081419,6.5512443
144,-0.5923877954483032,2.4124677181243896,78.63722229003906,0.17031328657093406,1.5908671922493234,-85.58993111176231,-1.6013421,6.397503,8.535046,6.797561,-7.119888,-6.0793977,0.44151467,-6.743209,-11.248645,7.2325287,-7.615203,5.8660665,-21.206295,-6.4548407,1.6383262,2.851127,15.642923,-26.325235,59.336502,0.5318219,5.8074656,5.756913,-116.32914,-93.1508,32.009293,17.006441,80.8639,-14.448167,6.068493
145,-0.5794334411621094,2.4137015342712402,78.6428451538086,0.16753868885491413,1.6253185706494964,-85.53826650497584,-1.6576445,6.3779144,8.4858885,6.795957,-7.095751,-6.0601344,0.4107053,-6.759469,-11.296728,7.237385,-7.59753,5.864843,-21.164143,-6.4476237,1.612163,2.8944385,15.6297035,-26.378918,59.23003,0.46763986,5.7682004,5.667274,-116.52536,-93.13788,32.020374,17.114351,82.08596,-14.871097,5.9897184
146,-0.5666487216949463,2.4204163551330566,78.6503677368164,0.1635133565378458,1.6603519325275513,-85.49277229030864,-1.7174861,6.3592267,8.44202,6.7952743,-7.066586,-6.0350957,0.36683485,-6.775862,-11.338655,7.2556396,-7.578261,5.8571634,-21.13448,-6.3821397,1.6098475,2.9518676,15.61569,-26.469807,59.0766,0.3783816,5.7094736,5.5667033,-116.85565,-93.12378,32.01065,16.645227,82.84436,-15.267359,6.133603
147,-0.553636372089386,2.429431200027466,78.65605926513672,0.16014217538942782,1.6939033552444953,-85.44681771083066,-1.7783594,6.3391037,8.397276,6.795837,-7.036562,-6.008467,0.32031497,-6.7942,-11.38178,7.28019,-7.564217,5.848661,-21.110859,-6.2090225,1.6995912,3.058272,15.586841,-26.68379,58.776016,0.21844207,5.6509595,5.510975,-117.476845,-93.09763,31.991266,15.716192,83.17922,-15.480596,6.3990517
148,-0.5395917296409607,2.4436097145080566,78.66035461425781,0.16274392766424464,1.704798774496869,-85.39873079341295,-1.8127183,6.31392,8.351727,6.796187,-7.0127497,-5.9858074,0.30048227,-6.8182755,-11.427988,7.3067765,-7.5656567,5.8447623,-21.048431,-6.0808597,1.7708199,3.118413,15.557234,-26.909605,58.59341,0.19420768,5.6141267,5.457801,-118.08809,-93.07442,31.965061,14.705991,83.141914,-15.544889,6.714961
149,-0.5298811793327332,2.4596457481384277,78.66224670410156,0.17426111967788568,1.69198300821891,-85.34298370165642,-1.823432,6.279511,8.299499,6.797179,-6.9921246,-5.9664016,0.30730143,-6.8519363,-11.483728,7.3379307,-7.588048,5.8453264,-20.98342,-5.960768,1.8656976,3.162442,15.5264635,-27.153185,58.463017,0.3317966,5.597072,5.410646,-118.80208,-93.05526,31.917746,13.42219,82.6079,-15.403527,7.1732597
150,-0.5214396715164185,2.47068190574646,78.66203308105469,0.19036531125676548,1.6627108179244838,-85.28359617786438,-1.8177884,6.2397866,8.243995,6.798886,-6.9734364,-5.94787,0.33278978,-6.8909645,-11.544833,7.3694954,-7.622678,5.8484817,-20.73062,-5.736133,1.9191763,2.861779,15.196384,-27.905518,58.807125,0.33934343,5.577949,5.5358334,-120.0665,-93.00478,32.310783,11.816878,81.43888,-14.982465,7.7522497
151,-0.5125278830528259,2.4785141944885254,78.6550521850586,0.20785867710896996,1.6246839280751253,-85.22505371195615,-1.7992312,6.199626,8.190201,6.8002357,-6.961807,-5.9328637,0.371171,-6.9313345,-11.605226,7.400158,-7.6627955,5.8560123,-20.611158,-5.5549917,2.042329,2.7136238,14.949004,-28.21658,58.9786,0.6297203,5.569743,5.554494,-121.236305,-93.007965,32.626007,10.234738,80.38423,-14.621481,8.331342
152,-0.5031638145446777,2.4749155044555664,78.64835357666016,0.22047943973631232,1.5894170297518375,-85.17229623975561,-1.7752831,6.1659555,8.143485,6.801329,-6.96343,-5.9234247,0.41836992,-6.965306,-11.659078,7.4170394,-7.696214,5.870219,-20.508688,-5.4148507,2.1451077,2.6506171,14.755868,-28.424839,59.090744,0.8733009,5.577191,5.5736146,-122.14865,-93.01536,32.878998,9.067388,79.7209,-14.374562,8.72272
153,-0.4924542307853699,2.463743209838867,78.6402359008789,0.2254985517461213,1.5528330139252178,-85.12574924815905,-1.7388245,6.143284,8.105022,6.8027377,-6.985793,-5.923646,0.48209852,-6.9898853,-11.7053175,7.4196086,-7.724272,5.89448,-20.426107,-5.3210325,2.2188156,2.6771233,14.601319,-28.500732,59.163162,1.0893419,5.609132,5.5998406,-122.78009,-93.01638,33.097347,8.426024,79.57971,-14.276177,8.858884
154,-0.4841565191745758,2.4515349864959717,78.6341781616211,0.2268220973695604,1.5115863219780659,-85.08303168631521,-1.6890792,6.1267314,8.07229,6.8040466,-7.023803,-5.931156,0.56130403,-7.009465,-11.746753,7.413435,-7.7519903,5.9266553,-20.367792,-5.27566,2.280833,2.8178928,14.534038,-28.479174,59.138283,1.2947005,5.6663275,5.623596,-123.123085,-93.015755,33.17124,8.104251,79.72186,-14.249381,8.837922
155,-0.4721623957157135,2.4378457069396973,78.62852478027344,0.22723601491775355,1.4777839841299996,-85.04524788976866,-1.6438777,6.1106615,8.044268,6.805558,-7.06455,-5.9382253,0.63485026,-7.0282764,-11.783374,7.403141,-7.7755184,5.96076,-20.313423,-5.2506843,2.3179746,2.9902933,14.48821,-28.424484,59.10699,1.4322338,5.723534,5.65247,-123.30849,-93.01519,33.215347,8.031549,80.027794,-14.267704,8.736486
156,-0.4556208848953247,2.423711061477661,78.62602996826172,0.2301084552951297,1.463105129607958,-85.01375063391856,-1.6196882,6.08956,8.020002,6.806071,-7.094669,-5.9374747,0.682372,-7.050696,-11.815039,7.3925586,-7.7907577,5.990835,-20.267136,-5.228499,2.332967,3.1619322,14.445752,-28.356388,59.0839,1.4574163,5.7589235,5.6812963,-123.408646,-93.01397,33.258423,8.130145,80.38396,-14.301356,8.631668
157,-0.436495840549469,2.408682107925415,78.6245346069336,0.23646988729826263,1.4748048294253153,-84.99360338247409,-1.622947,6.061461,8.003789,6.8059525,-7.1122203,-5.925875,0.6931882,-7.078507,-11.838287,7.3820767,-7.7947335,6.0162416,-20.215628,-5.214448,2.3129327,3.3295498,14.412079,-28.290016,59.073204,1.2854356,5.7624536,5.720799,-123.385445,-93.01278,33.29629,8.490922,80.821075,-14.357098,8.515226
158,-0.41322195529937744,2.3951005935668945,78.62350463867188,0.2440341159265055,1.5057004090342576,-84.98233592789153,-1.6446515,6.0296726,7.994459,6.805208,-7.1234074,-5.9078097,0.67959213,-7.108724,-11.854449,7.3701067,-7.7906237,6.039799,-20.167725,-5.2061687,2.2617784,3.5103557,14.380608,-28.19306,59.07341,0.9858115,5.746534,5.7737575,-123.25393,-93.01135,33.35047,9.114004,81.388535,-14.448783,8.357471
159,-0.3866637945175171,2.379700183868408,78.62522888183594,0.25264816592251843,1.544259228402809,-84.9705448579214,-1.6764008,5.9954805,7.9838514,6.8041615,-7.128998,-5.887136,0.6550608,-7.1408877,-11.8697815,7.35976,-7.783341,6.06105,-20.13343,-5.1994486,2.2022374,3.6886158,14.347568,-28.084892,59.082043,0.67087984,5.724098,5.812625,-123.0814,-93.00866,33.413586,9.8034115,81.96889,-14.547383,8.198314
160,-0.36495572328567505,2.3720319271087646,78.62741088867188,0.2612179629154484,1.5795578298290769,-84.94792228967563,-1.7108743,5.96022,7.963143,6.803619,-7.129654,-5.8674874,0.6355803,-7.1735697,-11.891283,7.3493156,-7.7759695,6.0793605,-20.116854,-5.1865067,2.162634,3.837738,14.324219,-28.015726,59.100792,0.43757036,5.7071323,5.8164268,-122.93866,-93.006256,33.460403,10.349447,82.436,-14.609525,8.077442
161,-0.34036386013031006,2.3644886016845703,78.628173828125,0.2704185435737295,1.6119844732241684,-84.91133481830349,-1.7499875,5.92301,7.9283423,6.802311,-7.12213,-5.849269,0.6158968,-7.208442,-11.919028,7.3492885,-7.772012,6.093045,-20.129284,-5.168357,2.124313,3.9791245,14.301264,-27.963734,59.12846,0.32385948,5.699934,5.7685337,-122.79492,-93.00313,33.5085,10.746235,82.8298,-14.665481,8.013277
162,-0.3191060423851013,2.3573694229125977,78.62972259521484,0.27982704090389704,1.6460456858188934,-84.86640199019861,-1.7960674,5.884147,7.884554,6.7999163,-7.106882,-5.8307915,0.593203,-7.2445455,-11.950048,7.352479,-7.766956,6.102877,-20.159346,-5.1459866,2.0878215,4.1042175,14.279237,-27.933657,59.169666,0.26025802,5.69536,5.6866355,-122.643265,-92.99954,33.55792,11.080466,83.18191,-14.708279,7.9775066
163,-0.3028169870376587,2.3531858921051025,78.63543701171875,0.2891729659837839,1.6755455158111778,-84.81965494908282,-1.8397062,5.84598,7.8405437,6.7990847,-7.0914474,-5.8123856,0.5754902,-7.279848,-11.982372,7.354206,-7.7619634,6.1119514,-20.190159,-5.1120944,2.0942154,4.1921873,14.26816,-27.931614,59.210953,0.24619173,5.6910377,5.5969796,-122.54708,-92.99776,33.585117,11.302081,83.37952,-14.700487,7.94809
164,-0.28450608253479004,2.3514840602874756,78.63685607910156,0.29979845037115793,1.7041393317888878,-84.76782702046235,-1.8833812,5.8071065,7.7948337,6.797995,-7.078124,-5.7934523,0.56063366,-7.31595,-12.023769,7.3544254,-7.761401,6.124091,-20.246489,-5.084312,2.0787468,4.2919154,14.257884,-27.94266,59.272514,0.30007264,5.691836,5.5245805,-122.449646,-92.99605,33.61265,11.45121,83.43664,-14.694072,7.969136
165,-0.2686641812324524,2.3531596660614014,78.63724517822266,0.31136700148401936,1.7302969988364367,-84.71014039172994,-1.9258823,5.7677035,7.748722,6.796505,-7.0678425,-5.773217,0.55152804,-7.3520947,-12.077628,7.350353,-7.7656097,6.140306,-20.32608,-5.0506687,2.0628557,4.395149,14.248573,-27.974127,59.345467,0.47031987,5.695911,5.4726877,-122.38939,-92.99433,33.635014,11.452717,83.214874,-14.665506,8.041761
166,-0.2559792399406433,2.351433515548706,78.63680267333984,0.3241240695047652,1.7578232277874561,-84.6393186845931,-1.9751506,5.7260847,7.6932077,6.796117,-7.057367,-5.7515206,0.54431725,-7.390208,-12.148264,7.3448596,-7.7743325,6.159298,-20.395102,-4.996462,2.032329,4.521284,14.232408,-28.073938,59.410526,0.7579802,5.7021475,5.434752,-122.36812,-92.990654,33.66321,11.306957,82.69654,-14.582306,8.141543
167,-0.24121204018592834,2.35109806060791,78.63396453857422,0.3361881887253503,1.7804032261558411,-84.57631710472938,-2.016206,5.6876535,7.6460967,6.796073,-7.0502605,-5.7314878,0.5444087,-7.424874,-12.211802,7.3315997,-7.78035,6.1788397,-20.342087,-4.9025006,1.9503077,4.474909,14.092873,-28.463314,59.720856,0.9017657,5.706482,5.4863057,-122.54741,-92.986084,33.96061,11.139285,82.088715,-14.480951,8.232562
168,-0.22927692532539368,2.3476970195770264,78.63264465332031,0.3485882113380618,1.7946154621352894,-84.52332024310992,-2.042845,5.6513033,7.606382,6.795095,-7.045951,-5.714736,0.54823506,-7.458929,-12.2619915,7.3275514,-7.7910213,6.197916,-20.354197,-4.833378,1.9428293,4.487225,14.015917,-28.62415,59.91302,1.0843831,5.7090597,5.4994307,-122.76577,-92.98622,34.221924,11.046264,81.703835,-14.403333,8.306023
169,-0.21791106462478638,2.3436942100524902,78.63201904296875,0.36118110795069486,1.8002052588916795,-84.4813228337875,-2.0550058,5.617515,7.574054,6.7952447,-7.0458565,-5.702406,0.55873674,-7.491662,-12.295898,7.3278046,-7.803956,6.2164917,-20.366291,-4.787479,1.9444709,4.549945,13.989027,-28.732702,60.04725,1.1953105,5.711999,5.5223646,-122.85518,-92.98567,34.367947,11.029005,81.53674,-14.356478,8.352342
170,-0.2045290470123291,2.336362838745117,78.63067626953125,0.3741734577000768,1.799004794848383,-84.44653962783644,-2.0557272,5.5854406,7.5470223,6.7942634,-7.047772,-5.693109,0.5762502,-7.523119,-12.319845,7.3283,-7.8184404,6.235256,-20.363796,-4.7473383,1.9500462,4.6174836,13.97005,-28.835516,60.18209,1.2662845,5.7143073,5.562406,-122.96586,-92.98623,34.547447,11.050443,81.48196,-14.325912,8.386728
171,-0.19229868054389954,2.3288018703460693,78.62918853759766,0.38667061387754414,1.7955146599984029,-84.41938532851239,-2.0512116,5.5557675,7.526424,6.794938,-7.0530286,-5.6853104,0.5926376,-7.553372,-12.336397,7.3338776,-7.8347807,6.2536125,-20.36102,-4.7147465,1.9578166,4.6982675,13.96619,-28.907032,60.302467,1.306689,5.7194147,5.602042,-123.006294,-92.98574,34.659214,11.106883,81.49672,-14.306563,8.404299
172,-0.17941999435424805,2.3214633464813232,78.62626647949219,0.3973834773823486,1.7937003045159892,-84.4005079976139,-2.0453844,5.5298176,7.513613,6.7949004,-7.059329,-5.6774764,0.60828847,-7.5797567,-12.349148,7.3336573,-7.8460455,6.270978,-20.365324,-4.6843357,1.9768203,4.7718577,13.966872,-28.924473,60.416584,1.327755,5.7296295,5.6235123,-122.97426,-92.98556,34.678955,11.196386,81.5396,-14.285944,8.398171
173,-0.16534548997879028,2.310595750808716,78.62434387207031,0.40681168939605217,1.7952626864817962,-84.39146836701015,-2.0393817,5.5065603,7.510345,6.795015,-7.067375,-5.669021,0.6175551,-7.60443,-12.358582,7.3354564,-7.8558636,6.287709,-20.34941,-4.646005,1.9969592,4.837185,13.967673,-28.933514,60.52749,1.2890254,5.7472167,5.6301312,-122.93467,-92.9854,34.690533,11.346102,81.60851,-14.268832,8.359132
174,-0.15388761460781097,2.298388719558716,78.62628936767578,0.41549583553714486,1.7962819459684782,-84.39021377192658,-2.0293584,5.4855723,7.5141726,6.795262,-7.0775166,-5.660764,0.62743306,-7.6272497,-12.364722,7.3352003,-7.863345,6.3042083,-20.31805,-4.61287,2.0026243,4.9062047,13.96895,-28.939226,60.647827,1.1968359,5.769942,5.634685,-122.87231,-92.98493,34.704243,11.567919,81.73323,-14.262005,8.297202
175,-0.14007870852947235,2.288461446762085,78.62493896484375,0.42240819902219573,1.7990041097303788,-84.39517974436787,-2.0192385,5.4684825,7.5232873,6.7954435,-7.0887814,-5.6534014,0.6333773,-7.646569,-12.364961,7.3366446,-7.8704486,6.319179,-20.278364,-4.581254,1.9982812,4.972527,13.970796,-28.94047,60.774994,1.0898132,5.795624,5.6394796,-122.79321,-92.98416,34.719616,11.811674,81.87944,-14.268362,8.229077
176,-0.12778158485889435,2.2785825729370117,78.62337493896484,0.4268806417623522,1.805051280160737,-84.40387816651376,-2.012808,5.4562893,7.5348687,6.79579,-7.100486,-5.647339,0.63520145,-7.6603794,-12.357925,7.3356996,-7.87496,6.3317327,-20.23803,-4.550627,1.9854592,5.033188,13.973418,-28.938063,60.907574,1.0108532,5.821084,5.6487503,-122.70366,-92.98315,34.736153,12.030717,82.01242,-14.28512,8.173654
177,-0.11702370643615723,2.2668402194976807,78.62186431884766,0.4275083586065276,1.8170190771398962,-84.41737937874434,-2.012001,5.450869,7.550009,6.796008,-7.1137185,-5.642457,0.62873715,-7.666704,-12.339208,7.333641,-7.8764124,6.3418026,-20.195023,-4.517406,1.9647268,5.0876346,13.976806,-28.932486,61.04399,0.9793769,5.8460474,5.6625075,-122.60504,-92.98206,34.75362,12.222549,82.129166,-14.313196,8.129198
178,-0.10972654819488525,2.256253719329834,78.62107849121094,0.42495673681083745,1.8338303018666915,-84.43672787181058,-2.0157988,5.451304,7.5697136,6.7968554,-7.1282363,-5.6385627,0.6165634,-7.666664,-12.310771,7.3282094,-7.874112,6.349797,-20.14471,-4.4815674,1.9367645,5.136754,13.981025,-28.922653,61.1835,0.9746907,5.8716054,5.677747,-122.497604,-92.98104,34.77195,12.406,82.24166,-14.350635,8.085554
179,-0.101011723279953,2.2467870712280273,78.62057495117188,0.42137726880644794,1.8509161044116644,-84.45798827144704,-2.019011,5.454485,7.5903606,6.796686,-7.142304,-5.6362724,0.60307735,-7.6637015,-12.281551,7.323497,-7.8717403,6.3553114,-20.092218,-4.447337,1.9038827,5.1799784,13.986089,-28.908077,61.32647,0.97620773,5.8961506,5.6948943,-122.38739,-92.980156,34.79044,12.56387,82.337746,-14.389048,8.051111
180,-0.09876483678817749,2.234193801879883,78.6199722290039,0.4196760765613931,1.8645598663727625,-84.47897221326932,-2.0193691,5.457601,7.609958,6.7974896,-7.1551943,-5.636304,0.59242195,-7.6613007,-12.258618,7.320983,-7.8715773,6.357788,-20.041561,-4.429663,1.8451439,5.226964,13.997739,-28.87698,61.486595,0.9743741,5.916627,5.7089453,-122.24512,-92.9786,34.81723,12.699151,82.418365,-14.442385,8.038077
181,-0.09464284777641296,2.222151041030884,78.61778259277344,0.4205513816476018,1.8697472734413851,-84.49488350419225,-2.0118728,5.4583483,7.623311,6.798306,-7.1656594,-5.6391053,0.59049,-7.6617727,-12.250075,7.3237443,-7.87553,6.3567395,-19.998158,-4.4056983,1.814592,5.2608604,14.011267,-28.842709,61.629776,0.9389055,5.9302254,5.7238545,-122.153786,-92.97742,34.83479,12.755975,82.45754,-14.456782,8.040543
182,-0.09387078136205673,2.2124950885772705,78.61963653564453,0.422489735814055,1.8694454591942533,-84.50977198111076,-1.9985199,5.459494,7.6344395,6.7988276,-7.1747446,-5.6443563,0.5923227,-7.6625137,-12.248442,7.3322425,-7.8830624,6.3524284,-19.95887,-4.382738,1.7965734,5.284895,14.031555,-28.800581,61.76721,0.88365006,5.939554,5.741914,-122.08826,-92.97653,34.847664,12.760215,82.46991,-14.446647,8.054975
183,-0.09729530662298203,2.2016806602478027,78.62092590332031,0.4256898372765933,1.8665747972772382,-84.52106247940779,-1.9834999,5.4597793,7.6420994,6.799434,-7.1830664,-5.65024,0.59802157,-7.663827,-12.251512,7.340626,-7.892947,6.3470817,-19.951271,-4.37414,1.8049521,5.368398,14.1100025,-28.688602,61.79245,0.85912025,5.9523516,5.737527,-122.057495,-92.97394,34.852802,12.749998,82.45989,-14.429238,8.0736885
184,-0.1006467267870903,2.191964626312256,78.61903381347656,0.4297952307148309,1.864753978825539,-84.52629325740928,-1.9713613,5.4586315,7.6451864,6.799675,-7.190576,-5.6550756,0.6044951,-7.666394,-12.257056,7.348605,-7.9073753,6.3430114,-19.946463,-4.3828187,1.8205369,5.5130486,14.273826,-28.590101,61.70231,0.8246839,5.973375,5.7261133,-122.00498,-92.973045,34.81457,12.742229,82.3824,-14.398293,8.07904
185,-0.10345785319805145,2.180835723876953,78.61683654785156,0.4356653414081572,1.8650395690079626,-84.52449322134294,-1.9636251,5.4543943,7.6433263,6.800109,-7.1979704,-5.6579223,0.61333704,-7.6708117,-12.265355,7.3513994,-7.927174,6.340169,-19.937246,-4.3901076,1.8234565,5.6225867,14.403712,-28.49645,61.653812,0.8153099,5.9962473,5.7310996,-121.91664,-92.97943,34.74512,12.708962,82.20715,-14.355324,8.063092
186,-0.10904351621866226,2.1706483364105225,78.61629486083984,0.4431313505293379,1.8657657244457364,-84.51718578078281,-1.9580181,5.4480867,7.6372986,6.7998867,-7.204104,-5.6599326,0.6239284,-7.676824,-12.277178,7.3526216,-7.952013,6.3376083,-19.931986,-4.3977003,1.8216501,5.711314,14.512895,-28.392193,61.625206,0.82700706,6.0196724,5.746254,-121.80937,-92.988686,34.650597,12.646271,81.95649,-14.299969,8.034714
187,-0.11341041326522827,2.1608643531799316,78.61376953125,0.4498949200434846,1.8666358389453537,-84.5054254101303,-1.9538579,5.4422503,7.6271634,6.8001485,-7.209878,-5.6615496,0.63640964,-7.681879,-12.291558,7.3524556,-7.976181,6.3364415,-19.930853,-4.405672,1.8163463,5.7848024,14.610097,-28.286394,61.609226,0.8511511,6.0390363,5.762188,-121.676605,-92.99892,34.53732,12.577382,81.6925,-14.245591,8.001128
188,-0.11637622117996216,2.1469383239746094,78.61080169677734,0.4532413024942747,1.8673406570380338,-84.49060303162281,-1.9500734,5.440013,7.6129804,6.8001585,-7.214793,-5.663377,0.6521613,-7.682555,-12.30726,7.347287,-7.991623,6.3377542,-19.93414,-4.413995,1.8075457,5.843987,14.701796,-28.191015,61.605324,0.8760331,6.0493255,5.7707915,-121.5119,-93.009285,34.412174,12.522309,81.47714,-14.205778,7.972373
189,-0.11821908503770828,2.13208270072937,78.61028289794922,0.451836398058707,1.8671074173061748,-84.47259419073337,-1.9463005,5.4427614,7.5940967,6.8009596,-7.2190914,-5.664823,0.67012453,-7.6776743,-12.322939,7.341419,-7.996888,6.343879,-19.941938,-4.422232,1.7974737,5.892355,14.7921505,-28.109041,61.607666,0.9027926,6.045789,5.7661033,-121.32237,-93.01977,34.27979,12.488379,81.33815,-14.184091,7.957591
190,-0.12438628077507019,2.119260787963867,78.61151885986328,0.4473847035883346,1.8662850090783367,-84.45101082443486,-1.9427136,5.448751,7.5707083,6.80133,-7.2221947,-5.665847,0.6913412,-7.668822,-12.33955,7.331647,-7.993933,6.353564,-19.954285,-4.4315314,1.7861738,5.9333186,14.883405,-28.034025,61.610256,0.93548316,6.032691,5.7524276,-121.11788,-93.03053,34.143784,12.466236,81.239044,-14.173316,7.9479046
191,-0.1306465119123459,2.109102964401245,78.61062622070312,0.4421924972706804,1.8663583197809948,-84.4260746617664,-1.9405034,5.455187,7.544344,6.8017154,-7.2250924,-5.6676087,0.7140977,-7.658999,-12.359312,7.3193483,-7.9898705,6.3624635,-19.97026,-4.4438467,1.7714368,5.96745,14.976181,-27.963514,61.611874,0.96782786,6.018522,5.736499,-120.89327,-93.040924,34.00729,12.452655,81.14647,-14.172089,7.93155
192,-0.13772916793823242,2.102092742919922,78.6101303100586,0.43869877228318144,1.8688107159759748,-84.39810518038672,-1.9416863,5.4597573,7.516412,6.8019943,-7.2277894,-5.671292,0.7329702,-7.6520605,-12.383701,7.3123736,-7.9943295,6.3662543,-19.989141,-4.4615526,1.7506123,5.9947667,15.070156,-27.893862,61.612804,0.9952674,6.011922,5.7255707,-120.64311,-93.05012,33.87318,12.44229,81.02593,-14.178298,7.892743
193,-0.14380542933940887,2.088904619216919,78.60839080810547,0.4377905053664182,1.8752392623348233,-84.3662059887926,-1.9477148,5.461365,7.487382,6.802515,-7.2309504,-5.677677,0.7495985,-7.64798,-12.415337,7.3047223,-8.007369,6.3620105,-20.011196,-4.484443,1.7218614,6.0146565,15.164928,-27.821297,61.612694,1.0273862,6.0181446,5.720396,-120.369675,-93.05767,33.743027,12.43861,80.83971,-14.198682,7.8145614
194,-0.14973488450050354,2.073617935180664,78.60794830322266,0.4381015717117413,1.8844899641800752,-84.330427938372,-1.9569727,5.4613447,7.456552,6.8017297,-7.2333245,-5.6860394,0.76400936,-7.645732,-12.452431,7.298174,-8.025895,6.3527484,-20.036625,-4.511623,1.6870027,6.0271344,15.260631,-27.74879,61.61154,1.0630033,6.031553,5.7174783,-120.077385,-93.06366,33.617924,12.443603,80.61574,-14.231871,7.7104225
195,-0.1573532372713089,2.0592989921569824,78.6063461303711,0.4387680701237494,1.89372501148434,-84.29298412063845,-1.9664848,5.4606338,7.4235215,6.801451,-7.236149,-5.695,0.7799003,-7.6441245,-12.491531,7.290925,-8.04591,6.3425784,-20.064404,-4.543062,1.6490422,6.033694,15.357323,-27.682396,61.610107,1.082204,6.044357,5.717569,-119.76426,-93.06844,33.499596,12.449597,80.418015,-14.263363,7.6071887
196,-0.16520477831363678,2.0455822944641113,78.6043472290039,0.4393642495341093,1.900141685372659,-84.2557088667849,-1.972235,5.459839,7.3879905,6.801578,-7.240077,-5.703246,0.7987445,-7.6428394,-12.529201,7.2856183,-8.065268,6.3356996,-20.09351,-4.579292,1.6108681,6.0362015,15.454919,-27.628014,61.608788,1.0649378,6.0487947,5.7214184,-119.42786,-93.07246,33.389793,12.449197,80.31091,-14.279394,7.5327215
197,-0.17209498584270477,2.027881383895874,78.60405731201172,0.43976666434619116,1.9034964218521355,-84.21783650874119,-1.9736793,5.4587765,7.3476224,6.801515,-7.2447495,-5.7096205,0.82410026,-7.6413174,-12.564916,7.276884,-8.080721,6.3329425,-20.124989,-4.6213417,1.5698152,6.0341015,15.554344,-27.594599,61.612225,0.9839146,6.0377674,5.729576,-119.05358,-93.07587,33.291306,12.447546,80.34223,-14.27377,7.496151
198,-0.1791464388370514,2.0136775970458984,78.60260772705078,0.44034832016321546,1.9051431343888565,-84.17879271428778,-1.9730014,5.4572105,7.30327,6.8019257,-7.250343,-5.7151165,0.8522051,-7.6404276,-12.600172,7.269894,-8.097098,6.332177,-20.158546,-4.668727,1.5256894,6.027229,15.655667,-27.576786,61.617825,0.85723233,6.017104,5.7412443,-118.64908,-93.07876,33.204315,12.446682,80.46753,-14.255178,7.481578
199,-0.18498176336288452,1.9997040033340454,78.60136413574219,0.4409995363787581,1.904554528370258,-84.14073931984254,-1.9686376,5.455566,7.259798,6.8012013,-7.2558923,-5.721541,0.88216734,-7.6395345,-12.635485,7.263591,-8.113023,6.3331795,-20.190964,-4.7186246,1.4850106,6.015694,15.757305,-27.560217,61.61728,0.73192,5.9981065,5.7555842,-118.24508,-93.08104,33.12599,12.435312,80.61329,-14.231406,7.481512
200,-0.1904219686985016,1.983161211013794,78.59921264648438,0.44157619827875155,1.9011591846175981,-84.10610500773866,-1.9614341,5.454073,7.221832,6.801798,-7.2622623,-5.7307286,0.91451395,-7.6382985,-12.671172,7.2542677,-8.125941,6.335748,-20.219097,-4.7675567,1.4545989,5.9988313,15.85637,-27.530472,61.60285,0.6549695,5.992009,5.771582,-117.870346,-93.08249,33.05233,12.40367,80.706825,-14.210943,7.4893556
201,-0.196556955575943,1.9718036651611328,78.59703063964844,0.4423346144097349,1.8936654293383797,-84.07397762915144,-1.9488695,5.4526157,7.189942,6.801493,-7.26795,-5.7460446,0.95031565,-7.636882,-12.7103615,7.2437406,-8.1370735,6.341723,-20.244797,-4.816017,1.4366529,5.9762783,15.950876,-27.478165,61.572384,0.65424055,6.0087204,5.793168,-117.52285,-93.08286,32.983547,12.345643,80.73141,-14.194173,7.509723
202,-0.2017328441143036,1.9571419954299927,78.59585571289062,0.4433878492440022,1.8827526796009264,-84.04372782764821,-1.9319526,5.4508977,7.1619024,6.801239,-7.273847,-5.765502,0.98923707,-7.6354055,-12.751755,7.231928,-8.146503,6.3506017,-20.268637,-4.864237,1.4267076,5.9448447,16.037537,-27.412115,61.535973,0.70129895,6.0396028,5.820378,-117.19353,-93.08192,32.92548,12.267711,80.72511,-14.17744,7.5451813
203,-0.20790588855743408,1.9432053565979004,78.59507751464844,0.44385995502415176,1.8712005050699054,-84.01759294726709,-1.9138287,5.4498353,7.1381917,6.800596,-7.279821,-5.7828326,1.0276997,-7.6332345,-12.789486,7.2186823,-8.153976,6.3587418,-20.271511,-4.893844,1.4134473,5.846172,16.056448,-27.374487,61.58321,0.7523178,6.063791,5.863748,-116.95357,-93.08104,32.945015,12.174268,80.69076,-14.157245,7.5767026
204,-0.21075768768787384,1.9290586709976196,78.59770965576172,0.44437615184882634,1.8613458939895073,-83.99763947948314,-1.8969507,5.449179,7.1195493,6.800845,-7.287645,-5.791693,1.0581696,-7.63203,-12.817039,7.2136807,-8.16481,6.3624144,-20.26808,-4.9132137,1.409804,5.7539334,16.068102,-27.346628,61.6092,0.7728408,6.071585,5.9024515,-116.770386,-93.07986,32.96472,12.073069,80.64189,-14.13128,7.591326
205,-0.2130669802427292,1.9152175188064575,78.5960922241211,0.44384318032210407,1.855597020168196,-83.98567976606144,-1.884321,5.450099,7.106594,6.802116,-7.2975097,-5.788359,1.0785514,-7.6306586,-12.832018,7.2144537,-8.177016,6.358498,-20.258793,-4.9226136,1.415568,5.675345,16.075808,-27.329535,61.60973,0.7521723,6.0532055,5.9335637,-116.64524,-93.07864,32.980507,11.964295,80.58543,-14.102504,7.5923634
206,-0.2141902893781662,1.9032843112945557,78.59419250488281,0.44308036256846445,1.8485510329364325,-83.97802535804296,-1.8694073,5.451591,7.096721,6.802972,-7.3086605,-5.776775,1.0963628,-7.6295624,-12.840107,7.2202053,-8.191207,6.349895,-20.241016,-4.9346533,1.4128333,5.577807,16.084257,-27.312777,61.63151,0.71576977,6.018776,5.943334,-116.51824,-93.07693,32.99675,11.844232,80.51159,-14.095097,7.5742073
207,-0.2132893055677414,1.8958529233932495,78.59072875976562,0.44262721328405696,1.8418277809400105,-83.97504105742058,-1.854411,5.452912,7.091851,6.8037367,-7.319764,-5.762837,1.1112868,-7.629023,-12.8416395,7.227343,-8.205409,6.3410788,-20.214148,-4.9467764,1.4078276,5.471686,16.093588,-27.29827,61.658054,0.6732214,5.9779167,5.9444976,-116.41117,-93.074715,33.010147,11.73023,80.42381,-14.09682,7.5469522
208,-0.212936669588089,1.8844422101974487,78.59013366699219,0.44365365988131655,1.8354071393818487,-83.97551908701871,-1.8390262,5.453237,7.0925293,6.805119,-7.3306203,-5.7521157,1.1246787,-7.629316,-12.838321,7.233167,-8.218832,6.336663,-20.177717,-4.95903,1.4029552,5.363667,16.103397,-27.285137,61.67748,0.637534,5.9447494,5.9499493,-116.33507,-93.072174,33.018925,11.638669,80.323555,-14.098086,7.5187826
209,-0.2140180468559265,1.8745206594467163,78.59081268310547,0.4469848193636951,1.8292963885280902,-83.98073261482845,-1.8224682,5.4516506,7.1011605,6.8062177,-7.340847,-5.745344,1.1372156,-7.631029,-12.827477,7.2349167,-8.230052,6.3399305,-20.130737,-4.9720817,1.400561,5.257026,16.113293,-27.272457,61.68362,0.6105873,5.9237566,5.968499,-116.29769,-93.06937,33.021843,11.568921,80.21327,-14.092135,7.4926863
210,-0.21285641193389893,1.8659800291061401,78.5880355834961,0.45209712194462337,1.8234455783122527,-83.99087888014172,-1.8042983,5.448825,7.1169915,6.806641,-7.350857,-5.73975,1.1476856,-7.6337433,-12.809031,7.235832,-8.2407875,6.347697,-20.07489,-4.9846387,1.4030892,5.1528873,16.123045,-27.259645,61.67379,0.58700794,5.90962,5.995877,-116.29999,-93.066315,33.018646,11.514282,80.09204,-14.079683,7.468438
211,-0.21297799050807953,1.8570106029510498,78.58789825439453,0.45724012278563736,1.8174541264528215,-84.00317859493894,-1.7865279,5.446151,7.135125,6.807312,-7.359708,-5.7358785,1.1569372,-7.6367555,-12.789041,7.237606,-8.251302,6.355102,-20.01414,-4.995268,1.4101353,5.0525103,16.13233,-27.245012,61.64615,0.56935203,5.9016128,6.0227427,-116.3369,-93.06321,33.010017,11.482698,79.95571,-14.065548,7.4384503
212,-0.2147413045167923,1.8502672910690308,78.58710479736328,0.4612799526443787,1.8106428351715829,-84.01473083386662,-1.768075,5.4447274,7.150515,6.8073635,-7.36714,-5.7342124,1.166079,-7.639245,-12.773952,7.2423635,-8.262369,6.357298,-19.952925,-5.003418,1.4202231,4.9567614,16.141006,-27.226105,61.600857,0.5615888,5.899543,6.039368,-116.400444,-93.0603,32.99719,11.481929,79.80116,-14.05708,7.3993483
213,-0.21686425805091858,1.8402106761932373,78.58912658691406,0.46331498704654905,1.801375900331834,-84.0254135882544,-1.747949,5.4457335,7.162403,6.807396,-7.372352,-5.736246,1.1765027,-7.6406746,-12.766547,7.252829,-8.276134,6.3508186,-19.889524,-5.008915,1.4326289,4.8652477,16.148882,-27.200224,61.537106,0.5760947,5.906074,6.0396004,-116.48793,-93.05784,32.980705,11.513329,79.62628,-14.061474,7.3469524
214,-0.21906369924545288,1.8298327922821045,78.59130859375,0.4642816804311358,1.790239965259359,-84.0362194129196,-1.726768,5.448168,7.172927,6.8083296,-7.3765135,-5.741267,1.1864787,-7.642124,-12.763228,7.2693205,-8.292596,6.3390956,-19.822893,-5.01276,1.447264,4.778387,16.155779,-27.165762,61.455677,0.611519,5.920734,6.0277433,-116.60069,-93.05596,32.96048,11.57188,79.433464,-14.076197,7.283723
215,-0.21722114086151123,1.8233377933502197,78.5907974243164,0.4649337629815311,1.7776731713427538,-84.04751589456517,-1.7040907,5.450952,7.183102,6.8081713,-7.37978,-5.7466307,1.1968513,-7.643034,-12.759587,7.2874155,-8.309029,6.3270597,-19.766094,-5.01335,1.5114014,4.6777716,16.167158,-27.085579,61.333652,0.66576403,5.942917,6.0015635,-116.80101,-93.05329,32.924393,11.653549,79.20186,-14.064333,7.201972
216,-0.21655836701393127,1.8190072774887085,78.5894546508789,0.4656433668145236,1.772622461575915,-84.05288363661698,-1.6920683,5.452194,7.186971,6.808873,-7.3828645,-5.7493105,1.2025573,-7.6437445,-12.758038,7.298284,-8.32011,6.3199716,-19.728638,-5.0119324,1.548204,4.615845,16.175905,-27.001913,61.19835,0.69520706,5.9571843,5.983026,-116.98201,-93.05178,32.88962,11.776065,78.994934,-14.0664425,7.1354766
217,-0.2184331864118576,1.8130518198013306,78.58983612060547,0.4667877734217745,1.7736621177550815,-84.05481451694465,-1.688144,5.4516873,7.186837,6.809108,-7.386022,-5.747724,1.2033302,-7.64414,-12.7534485,7.303746,-8.326367,6.3198633,-19.713215,-5.0053773,1.6010427,4.573141,16.184925,-26.884642,61.028748,0.7044128,5.970595,5.9632077,-117.21309,-93.050705,32.84064,11.927637,78.80778,-14.050109,7.079724
218,-0.2203793078660965,1.8079558610916138,78.58728790283203,0.4681811778795288,1.7797345958470685,-84.0539360041793,-1.6907799,5.449667,7.183365,6.809116,-7.389034,-5.743596,1.1998038,-7.644425,-12.747694,7.305562,-8.32897,6.323707,-19.707556,-4.9960375,1.649768,4.5467052,16.191273,-26.755442,60.844025,0.69784826,5.9835334,5.9414153,-117.45652,-93.05065,32.77887,12.110112,78.63005,-14.034918,7.029761
219,-0.22086066007614136,1.8033246994018555,78.58666229248047,0.46904297004805845,1.788851956760734,-84.04901201274207,-1.6982967,5.447854,7.1756206,6.809037,-7.3912497,-5.739583,1.1956831,-7.6438017,-12.7462845,7.3030233,-8.328958,6.3289776,-19.714672,-4.9863334,1.6940854,4.530927,16.192566,-26.615274,60.650658,0.68965614,5.9901857,5.924626,-117.67435,-93.05256,32.69774,12.326313,78.419556,-14.025776,6.9702077
220,-0.21933990716934204,1.7994499206542969,78.58616638183594,0.46895302934114874,1.7994373433805613,-84.03836887376391,-1.7086331,5.446746,7.162981,6.809016,-7.393022,-5.738214,1.1939274,-7.6424723,-12.7544155,7.2967916,-8.328285,6.3331966,-19.74737,-4.9827933,1.7266042,4.515965,16.175997,-26.454437,60.47348,0.6991455,5.9833093,5.9248137,-117.6918,-93.06056,32.45824,12.553201,78.13092,-14.027331,6.885964
221,-0.22154459357261658,1.793168306350708,78.58642578125,0.4672843019208652,1.8112680527969054,-84.0212148891198,-1.7225254,5.447498,7.1442175,6.8092422,-7.393133,-5.7408004,1.1936047,-7.6401978,-12.77537,7.2910666,-8.329185,6.335728,-19.763332,-4.9801345,1.7293912,4.475982,16.142477,-26.369272,60.33909,0.678557,5.9558268,5.965034,-117.64383,-93.08189,32.23138,12.829939,77.64378,-14.049441,6.7524595
222,-0.22459489107131958,1.787376046180725,78.5845718383789,0.4647079633882467,1.824810461635821,-83.99844686528009,-1.7394891,5.4488306,7.1202607,6.809169,-7.39232,-5.745688,1.1957808,-7.6368966,-12.805864,7.2798586,-8.327446,6.337892,-19.788609,-4.9764633,1.7246246,4.434871,16.097332,-26.28884,60.2092,0.6585498,5.9126987,6.026543,-117.57644,-93.10972,32.01539,13.150087,77.02739,-14.082953,6.584077
223,-0.22631196677684784,1.781820297241211,78.58576202392578,0.4617558537122386,1.8406607186802366,-83.97144143572088,-1.7597983,5.4502754,7.092666,6.809049,-7.3917036,-5.751368,1.1964922,-7.6336145,-12.840807,7.2695093,-8.32787,6.340036,-19.820648,-4.972637,1.7122374,4.395571,16.04471,-26.21138,60.082882,0.6398832,5.8689613,6.082934,-117.4815,-93.13927,31.809896,13.498259,76.48833,-14.1189575,6.4239297
224,-0.2295585572719574,1.7729265689849854,78.58617401123047,0.4592257409482192,1.8593505526887133,-83.94144049541838,-1.7839543,5.4505963,7.0630903,6.808848,-7.3918242,-5.756288,1.1975745,-7.6307526,-12.875898,7.253647,-8.328163,6.3424306,-19.85584,-4.969858,1.6919425,4.361093,15.986989,-26.134657,59.959686,0.6256809,5.83968,6.108192,-117.34859,-93.16728,31.612833,13.858516,76.23359,-14.150474,6.316857
225,-0.2333160936832428,1.7652908563613892,78.58536529541016,0.4573454080253844,1.8822831732990783,-83.9075582220456,-1.813331,5.449973,7.0306635,6.808541,-7.3945084,-5.7593894,1.1947945,-7.628701,-12.91032,7.23754,-8.332751,6.3456316,-19.89495,-4.9703074,1.6603557,4.332732,15.925714,-26.052443,59.838497,0.61728585,5.8343415,6.0850587,-117.16611,-93.19292,31.424114,14.2438965,76.40897,-14.176884,6.2892404
226,-0.23746822774410248,1.7579998970031738,78.58326721191406,0.455639894613398,1.908744051382081,-83.86933592462114,-1.8475403,5.4486036,6.9949903,6.808431,-7.398778,-5.76172,1.1921357,-7.6267476,-12.946524,7.2157,-8.337908,6.3493137,-19.940039,-4.9733763,1.619014,4.312372,15.861647,-25.965788,59.715324,0.6138964,5.843351,6.0301023,-116.9404,-93.21716,31.242086,14.6584215,76.87442,-14.202484,6.313532
227,-0.24086543917655945,1.7494598627090454,78.57984924316406,0.45425882149905245,1.9360757856334765,-83.82952145240158,-1.8828833,5.4465003,6.958281,6.8082643,-7.4022207,-5.7648673,1.1885682,-7.625583,-12.983905,7.195271,-8.343845,6.352514,-19.989332,-4.976753,1.5745851,4.29725,15.79628,-25.889269,59.592552,0.60917294,5.852785,5.9692125,-116.68938,-93.23976,31.062767,15.06767,77.40655,-14.226881,6.3531227
228,-0.24248892068862915,1.7405914068222046,78.5787353515625,0.45323089137610595,1.9616601693798332,-83.79039519738673,-1.9152733,5.443607,6.922909,6.807238,-7.402441,-5.770454,1.1855645,-7.6254992,-13.021956,7.1783347,-8.348125,6.354343,-20.04122,-4.97729,1.5337976,4.2858753,15.730975,-25.836857,59.470974,0.5972138,5.8489594,5.92796,-116.42939,-93.26053,30.88113,15.43928,77.78204,-14.250688,6.3706307
229,-0.24390088021755219,1.7327877283096313,78.57807159423828,0.45301945549969214,1.9854476439474313,-83.75155302691398,-1.9451697,5.439446,6.8890796,6.806878,-7.3980184,-5.780879,1.1831189,-7.6273556,-13.062068,7.165519,-8.349259,6.354156,-20.097109,-4.974952,1.4975711,4.2800226,15.666851,-25.812483,59.347523,0.56873065,5.8241167,5.914063,-116.15839,-93.27946,30.694906,15.76886,77.94937,-14.279001,6.3528047
230,-0.24697303771972656,1.7235822677612305,78.57730865478516,0.45314909431220546,2.008574399957321,-83.71215587110665,-1.973474,5.434366,6.8557405,6.8053703,-7.3896127,-5.7946377,1.1803609,-7.6304703,-13.103961,7.156797,-8.3494005,6.3524036,-20.157255,-4.971249,1.462832,4.28043,15.604184,-25.809345,59.221664,0.5283984,5.7868986,5.913416,-115.86631,-93.296844,30.503431,16.071861,78.02477,-14.30969,6.3205953
231,-0.24793697893619537,1.7156232595443726,78.57557678222656,0.4535850835710335,2.030331435451051,-83.6738896609685,-2.0002005,5.4285035,6.8231597,6.8045015,-7.3818974,-5.8074265,1.1794327,-7.6339474,-13.144879,7.1467495,-8.348319,6.350521,-20.218504,-4.967368,1.4297397,4.285027,15.542822,-25.822592,59.098003,0.4940034,5.748465,5.9187613,-115.55868,-93.31301,30.304705,16.345133,78.03657,-14.333223,6.287409
232,-0.24544891715049744,1.705895185470581,78.57686614990234,0.45373467306117415,2.0499359333710827,-83.63866716034973,-2.0243452,5.422816,6.791513,6.803525,-7.378085,-5.815082,1.1789759,-7.63717,-13.1813345,7.1382565,-8.35021,6.3496966,-20.277756,-4.964404,1.3984911,4.2903657,15.482699,-25.848516,58.982758,0.48228076,5.7196364,5.923363,-115.24243,-93.328224,30.097944,16.584293,78.01318,-14.3396635,6.2671676
233,-0.2454243153333664,1.6965456008911133,78.57827758789062,0.45286752407651276,2.0673856341571235,-83.60503074437507,-2.0473459,5.4173384,6.7579303,6.803574,-7.3806524,-5.8158197,1.1808438,-7.63918,-13.214439,7.1271887,-8.353972,6.349881,-20.33651,-4.9619007,1.369562,4.2979164,15.423474,-25.88616,58.87353,0.5102755,5.704856,5.9285226,-114.91809,-93.342674,29.88231,16.78661,77.92872,-14.319929,6.265259
234,-0.24487073719501495,1.6865369081497192,78.57989501953125,0.4519316337708107,2.0830300125139884,-83.57259409698774,-2.0690365,5.411556,6.7233057,6.8033667,-7.3862915,-5.8121195,1.1830686,-7.6413345,-13.245106,7.1185384,-8.360973,6.3505273,-20.395845,-4.9598393,1.3424047,4.3079824,15.365233,-25.938087,58.769268,0.5642809,5.697703,5.9369555,-114.58142,-93.356186,29.657461,16.9544,77.779045,-14.281255,6.27359
235,-0.2418421506881714,1.6807451248168945,78.57862854003906,0.45129513039350916,2.0966073388697968,-83.54522232301963,-2.0869532,5.405642,6.6934175,6.8040237,-7.3941445,-5.806029,1.1858642,-7.643781,-13.270591,7.110625,-8.368298,6.352229,-20.451149,-4.9588914,1.3167661,4.3180437,15.308109,-26.00318,58.675606,0.6174864,5.693139,5.9436717,-114.232765,-93.36864,29.42372,17.092325,77.62529,-14.238571,6.2862153
236,-0.2406230866909027,1.6741392612457275,78.57682800292969,0.4525504960685861,2.1078762597164182,-83.52655468775988,-2.0982428,5.398557,6.6743307,6.8039837,-7.400803,-5.799615,1.1890494,-7.6484385,-13.288263,7.103968,-8.374239,6.355679,-20.497965,-4.9611125,1.2920202,4.325261,15.252426,-26.08092,58.598637,0.6426927,5.6860566,5.943643,-113.87398,-93.379845,29.18299,17.204678,77.52852,-14.206421,6.297224
237,-0.23771357536315918,1.6650543212890625,78.57587432861328,0.4566548322843091,2.116617198284547,-83.51762861487664,-2.102109,5.389735,6.6683574,6.8042054,-7.4061837,-5.7919955,1.1909933,-7.6565666,-13.296153,7.1020885,-8.380491,6.3615446,-20.534822,-4.9673023,1.2673911,4.3284583,15.19871,-26.174738,58.53978,0.6214078,5.673026,5.929482,-113.49996,-93.38945,28.937183,17.291267,77.52811,-14.190149,6.3044515
238,-0.23574931919574738,1.6530861854553223,78.57534790039062,0.4627522070950188,2.122946465268933,-83.51654386740793,-2.1002297,5.379481,6.6720834,6.80497,-7.4113407,-5.7825475,1.1928382,-7.667159,-13.296264,7.1025863,-8.386414,6.3692055,-20.564198,-4.9765334,1.2435557,4.329367,15.147006,-26.284153,58.495457,0.57128817,5.6575136,5.9058065,-113.113754,-93.39763,28.686977,17.350746,77.58389,-14.181535,6.311357
239,-0.23014287650585175,1.6447527408599854,78.5741195678711,0.46891817860135004,2.1273500501601714,-83.52237097326235,-2.0933518,5.3698916,6.6826625,6.8050027,-7.4172683,-5.7737274,1.1947471,-7.6778255,-13.290929,7.1041512,-8.391594,6.3778195,-20.587107,-4.9864182,1.2221835,4.3306856,15.096434,-26.400923,58.463337,0.5219314,5.644487,5.885129,-112.72966,-93.40486,28.432512,17.386702,77.63755,-14.1749935,6.319546
240,-0.22177109122276306,1.633596420288086,78.57318878173828,0.4734911436178282,2.130219791232932,-83.53441900409459,-2.0826492,5.3629208,6.697228,6.805228,-7.42667,-5.7679853,1.1964813,-7.6862855,-13.282837,7.106657,-8.396234,6.3861938,-20.604307,-4.993856,1.205191,4.3331723,15.045673,-26.518932,58.44241,0.5001317,5.6388984,5.8802366,-112.36122,-93.41146,28.173637,17.403433,77.6313,-14.165455,6.3302803
241,-0.21777546405792236,1.622368335723877,78.57328033447266,0.4754325800461341,2.1315288070189005,-83.55503484675147,-2.067694,5.359932,6.716898,6.805769,-7.4404917,-5.7671566,1.1990173,-7.6911836,-13.272443,7.1062717,-8.397054,6.394511,-20.614506,-4.997289,1.193288,4.336949,14.994001,-26.643766,58.43348,0.5241672,5.6436653,5.903423,-112.01335,-93.417175,27.912056,17.396875,77.53674,-14.153835,6.345569
