unveil-humanoid-operators/unveil-humanoid-operators.github.io/feature-analysis-animation/data/feature_matrix_instances/weight_root_translate_peak_vel_walking_A161_lift_crate_walk_ff_start_315_003__A161.csv
Frame,root_translateX,root_translateY,root_translateZ,root_rotateX,root_rotateY,root_rotateZ,left_hip_pitch_joint_dof,left_hip_roll_joint_dof,left_hip_yaw_joint_dof,left_knee_joint_dof,left_ankle_pitch_joint_dof,left_ankle_roll_joint_dof,right_hip_pitch_joint_dof,right_hip_roll_joint_dof,right_hip_yaw_joint_dof,right_knee_joint_dof,right_ankle_pitch_joint_dof,right_ankle_roll_joint_dof,waist_yaw_joint_dof,waist_roll_joint_dof,waist_pitch_joint_dof,left_shoulder_pitch_joint_dof,left_shoulder_roll_joint_dof,left_shoulder_yaw_joint_dof,left_elbow_joint_dof,left_wrist_roll_joint_dof,left_wrist_pitch_joint_dof,left_wrist_yaw_joint_dof,right_shoulder_pitch_joint_dof,right_shoulder_roll_joint_dof,right_shoulder_yaw_joint_dof,right_elbow_joint_dof,right_wrist_roll_joint_dof,right_wrist_pitch_joint_dof,right_wrist_yaw_joint_dof
0,-2.8117334842681885,0.1989513337612152,77.45176696777344,0.8413499557106309,-7.086232044663999,-3.0270312460467226,13.967684,8.573851,13.045441,7.0262837,-12.854129,-9.874519,9.836157,-12.198044,-6.507565,8.913004,-11.230608,13.94078,-0.78879637,-0.65242404,4.7865663,-17.704927,19.023438,-10.61956,68.9536,-18.970226,14.026914,3.375772,-21.789679,-14.391708,12.726414,65.10414,18.98713,12.324369,4.506458
1,-2.806380033493042,0.21467278897762299,77.44859313964844,0.8440509821225709,-7.10987626117786,-3.060074224289022,14.010783,8.556956,13.079494,7.0256767,-12.875027,-9.871326,9.852892,-12.212852,-6.4759445,8.91585,-11.229732,13.957008,-0.7690226,-0.6850885,4.7948637,-17.672998,19.030508,-10.620401,68.937614,-18.971752,14.016644,3.4179227,-21.807564,-14.38608,12.744637,65.137794,18.943512,12.288258,4.53975
2,-2.797757148742676,0.2294500172138214,77.44561004638672,0.8466031636223478,-7.133614529159777,-3.093406841470892,14.053256,8.540561,13.113782,7.026092,-12.896214,-9.868854,9.8701,-12.22787,-6.4440813,8.918148,-11.2288,13.973918,-0.7481856,-0.71704954,4.802082,-17.64915,19.034262,-10.621986,68.933556,-18.971664,14.002985,3.461353,-21.8225,-14.381498,12.763714,65.17349,18.898676,12.243615,4.577741
3,-2.7959747314453125,0.2503180503845215,77.44300079345703,0.8492647472117414,-7.156922183137297,-3.1265537080885983,14.0959635,8.523792,13.148011,7.0258937,-12.917087,-9.865231,9.886901,-12.242366,-6.4123564,8.920593,-11.227525,13.98943,-0.7301093,-0.7468321,4.807257,-17.62068,19.03679,-10.620661,68.92514,-18.972382,13.992575,3.503249,-21.84082,-14.375579,12.787239,65.205605,18.859772,12.215947,4.6040745
4,-2.792556047439575,0.26952171325683594,77.44062805175781,0.8522403680120916,-7.178790496602582,-3.1592385325450976,14.137275,8.5069685,13.1819,7.02611,-12.936778,-9.858667,9.90118,-12.257309,-6.3803973,8.926455,-11.227286,14.001872,-0.7070908,-0.7748879,4.8121815,-17.599613,19.036947,-10.618409,68.91668,-18.969809,13.99053,3.538222,-21.84662,-14.372706,12.799473,65.20368,18.82643,12.233564,4.6052446
5,-2.786299705505371,0.28677913546562195,77.43878936767578,0.8553132252045749,-7.1992985356292705,-3.1916890796017743,14.178603,8.48997,13.215975,7.0250545,-12.954107,-9.848449,9.914591,-12.272181,-6.3489633,8.933573,-11.22621,14.009786,-0.6835394,-0.800483,4.8134294,-17.578485,19.036226,-10.611214,68.90427,-18.965685,14.003131,3.5619645,-21.845316,-14.369665,12.809677,65.1633,18.806892,12.320087,4.5669055
6,-2.779534339904785,0.30451154708862305,77.43790435791016,0.8587294012733491,-7.218491623452312,-3.223865766715034,14.2186165,8.472975,13.25007,7.0256476,-12.971247,-9.835616,9.926342,-12.286584,-6.317876,8.94335,-11.225449,14.014469,-0.67064047,-0.8217116,4.8123093,-17.539656,19.033495,-10.582402,68.87403,-18.953045,14.026194,3.5790799,-21.840801,-14.361258,12.827886,65.0943,18.796356,12.455543,4.496271
7,-2.7729439735412598,0.3239370584487915,77.43647766113281,0.8625702578020582,-7.236966207663703,-3.255463173325375,14.257555,8.455456,13.283131,7.0256352,-12.987591,-9.821018,9.935041,-12.302604,-6.285615,8.957326,-11.227131,14.018018,-0.64809364,-0.8441677,4.811529,-17.516516,19.031635,-10.566854,68.85145,-18.944506,14.049008,3.5950072,-21.832678,-14.357593,12.833175,65.01977,18.788694,12.599534,4.422272
8,-2.7644236087799072,0.3367873430252075,77.43356323242188,0.8670032647996946,-7.254393339427039,-3.2859562402118914,14.293192,8.437006,13.313689,7.027105,-13.005583,-9.805441,9.939833,-12.320064,-6.2513537,8.975316,-11.232753,14.022154,-0.6317395,-0.86362714,4.812325,-17.482916,19.0284,-10.545113,68.814064,-18.932934,14.060791,3.620675,-21.826298,-14.353133,12.840738,64.95912,18.776697,12.711915,4.3603683
9,-2.7569000720977783,0.3531208634376526,77.43162536621094,0.871920930307334,-7.271213368248596,-3.315475520615643,14.32675,8.4172735,13.341638,7.0272098,-13.024496,-9.787771,9.93901,-12.338859,-6.212821,8.999907,-11.244708,14.026092,-0.6106014,-0.88326836,4.814919,-17.465208,19.025593,-10.5366535,68.78644,-18.9304,14.056548,3.6568434,-21.826653,-14.35107,12.842336,64.92852,18.762548,12.780768,4.3209047
10,-2.749297857284546,0.36990591883659363,77.4295654296875,0.877829355910668,-7.287068393396881,-3.344565159931744,14.357413,8.396333,13.367631,7.028187,-13.04478,-9.767906,9.932519,-12.359592,-6.170653,9.03074,-11.261405,14.029294,-0.59034795,-0.9006469,4.820409,-17.435057,19.022558,-10.527896,68.73643,-18.929937,14.044841,3.7048087,-21.824211,-14.349919,12.841274,64.90083,18.74544,12.830872,4.286503
11,-2.7442843914031982,0.38916879892349243,77.42668914794922,0.8823813452458666,-7.301198155824682,-3.36989550153673,14.385496,8.376568,13.389904,7.0280013,-13.063391,-9.748774,9.930546,-12.378324,-6.133718,9.051139,-11.273226,14.033631,-0.57315254,-0.9170189,4.820822,-17.425205,19.021246,-10.525187,68.710014,-18.927282,14.027921,3.745008,-21.825294,-14.349723,12.840812,64.890495,18.731817,12.860897,4.2626543
12,-2.7403512001037598,0.41016387939453125,77.42378997802734,0.8906673556298242,-7.316412516461116,-3.398837954917141,14.416597,8.352741,13.416764,7.0290217,-13.082108,-9.73216,9.924402,-12.401867,-6.095082,9.084241,-11.290485,14.042614,-0.5562074,-0.93079436,4.826109,-17.37719,19.011553,-10.514887,68.63785,-18.912947,14.008874,3.7975512,-21.819416,-14.349859,12.844089,64.86006,18.71979,12.89552,4.2305155
13,-2.733208179473877,0.42897820472717285,77.42157745361328,0.8969194349649616,-7.3305691224914815,-3.423132760582447,14.447451,8.331005,13.440575,7.028798,-13.0968485,-9.720046,9.932072,-12.422345,-6.068763,9.0938425,-11.293651,14.055667,-0.5425819,-0.946259,4.8254967,-17.355059,19.007359,-10.515288,68.594765,-18.88572,13.988319,3.8374472,-21.812798,-14.350985,12.854052,64.834984,18.721731,12.9192295,4.2035046
14,-2.7270264625549316,0.44501566886901855,77.41949462890625,0.9037167342765464,-7.344259200996003,-3.4458180986941698,14.477806,8.308947,13.46362,7.0290866,-13.109728,-9.710608,9.944584,-12.442126,-6.048042,9.097009,-11.292731,14.071874,-0.53101724,-0.9619632,4.8235993,-17.340096,19.004108,-10.520133,68.55726,-18.849106,13.964208,3.874225,-21.804739,-14.353049,12.868229,64.80941,18.730373,12.9341,4.180256
15,-2.716625213623047,0.4611765444278717,77.41822814941406,0.9103164072373306,-7.355341234398076,-3.4665040483793175,14.504831,8.286982,13.484971,7.0290956,-13.121761,-9.702204,9.95623,-12.463107,-6.0305114,9.0974045,-11.290179,14.091066,-0.5230855,-0.97603726,4.8195176,-17.332298,19.002977,-10.525863,68.52799,-18.814217,13.941506,3.900777,-21.800093,-14.354482,12.879148,64.79127,18.736567,12.939224,4.1633368
16,-2.7084603309631348,0.4776633679866791,77.4173583984375,0.9183502623798698,-7.367325793263614,-3.488651160128947,14.532891,8.26319,13.507874,7.0280347,-13.135208,-9.692778,9.967986,-12.4845705,-6.0110354,9.097266,-11.288658,14.112898,-0.5180901,-0.9852065,4.8119907,-17.299355,19.000963,-10.544294,68.48113,-18.804148,13.919794,3.9238956,-21.778017,-14.361962,12.917409,64.75831,18.76605,12.937004,4.1375647
17,-2.705580472946167,0.4972890019416809,77.41458892822266,0.9262364979560471,-7.375682418215116,-3.510436836206772,14.554294,8.239781,13.529956,7.0284524,-13.151028,-9.682481,9.972067,-12.507003,-5.9901466,9.101439,-11.290877,14.1393385,-0.51328385,-0.99209195,4.809933,-17.294195,19.001343,-10.556396,68.46214,-18.80272,13.903356,3.916574,-21.775824,-14.365779,12.9320545,64.74803,18.770647,12.921824,4.126236
18,-2.697805404663086,0.5124647617340088,77.412841796875,0.9350014791850388,-7.382060416516168,-3.5329639855251607,14.57305,8.215243,13.552733,7.027923,-13.167328,-9.671946,9.971507,-12.530778,-5.9679656,9.108402,-11.295342,14.169914,-0.50815845,-0.9959441,4.802611,-17.288965,19.00407,-10.584218,68.44893,-18.826069,13.888779,3.8946185,-21.770306,-14.372638,12.958078,64.74179,18.786312,12.894629,4.1158237
19,-2.6894736289978027,0.5279399156570435,77.41039276123047,0.943454371940016,-7.3874106872468115,-3.5525223796605925,14.589618,8.190993,13.572669,7.027319,-13.183051,-9.660808,9.972833,-12.554351,-5.9493055,9.111571,-11.298215,14.200344,-0.5055333,-0.99899256,4.7955704,-17.289965,19.008263,-10.615854,68.44358,-18.854237,13.877129,3.8696704,-21.765347,-14.379321,12.97926,64.739586,18.800463,12.862002,4.111044
20,-2.68487548828125,0.5453190207481384,77.40824127197266,0.951726364639489,-7.392520600512222,-3.566517792770764,14.604946,8.166695,13.587327,7.027533,-13.197758,-9.648344,9.979152,-12.578451,-5.9370894,9.109118,-11.297968,14.226549,-0.50754803,-1.0035622,4.788615,-17.292393,19.014297,-10.647789,68.440445,-18.87616,13.868298,3.858716,-21.755848,-14.38655,12.990341,64.73528,18.810898,12.82958,4.1094346
21,-2.6763761043548584,0.5599368214607239,77.40640258789062,0.9589836152130743,-7.395742985941271,-3.5730091385827696,14.6169195,8.143212,13.594954,7.0280685,-13.20994,-9.634177,9.991624,-12.601209,-5.9339137,9.097532,-11.2927,14.246683,-0.52541417,-1.0059025,4.7827134,-17.291359,19.015509,-10.65528,68.43582,-18.875546,13.864125,3.864841,-21.753578,-14.38754,12.989982,64.73745,18.809422,12.798013,4.1145024
22,-2.667433023452759,0.5750702023506165,77.40521240234375,0.9667869587469632,-7.400724346210372,-3.571813058856899,14.629532,8.118361,13.595269,7.0283794,-13.220884,-9.618262,10.0151825,-12.624805,-5.9404035,9.074058,-11.281881,14.263735,-0.53045094,-1.0168477,4.7743526,-17.296625,19.027542,-10.709263,68.43386,-18.896961,13.86383,3.8844252,-21.725521,-14.393069,12.962188,64.73293,18.805601,12.752595,4.1309066
23,-2.659050703048706,0.5912569761276245,77.40402221679688,0.973615702573335,-7.404566223852298,-3.569494540870533,14.641215,8.094832,13.594437,7.027482,-13.230095,-9.602019,10.037201,-12.64786,-5.9476023,9.053026,-11.2719345,14.278775,-0.5437602,-1.0252659,4.768983,-17.303066,19.03623,-10.742761,68.435005,-18.902763,13.864785,3.907969,-21.708298,-14.394196,12.934465,64.732025,18.797892,12.715586,4.1435213
24,-2.6520156860351562,0.6070957183837891,77.40386962890625,0.9800895907256112,-7.40966353793061,-3.569473196682317,14.653335,8.072898,13.595317,7.028542,-13.240318,-9.586363,10.057888,-12.669472,-5.951831,9.034922,-11.262468,14.293596,-0.5605454,-1.031417,4.7660127,-17.305529,19.041595,-10.761015,68.4369,-18.896404,13.8634615,3.932185,-21.702118,-14.393694,12.923681,64.734024,18.800877,12.690983,4.1433086
25,-2.645721197128296,0.6236563324928284,77.40406799316406,0.9860521116821271,-7.418170286973459,-3.57198144156542,14.670386,8.052505,13.598151,7.028472,-13.250254,-9.570912,10.078492,-12.689224,-5.952812,9.023388,-11.255836,14.308757,-0.56680757,-1.039497,4.768925,-17.315258,19.04629,-10.787438,68.44475,-18.886911,13.860089,3.9598968,-21.691505,-14.392605,12.915927,64.722466,18.815613,12.684017,4.1266546
26,-2.638369083404541,0.6366347670555115,77.40248107910156,0.9910447132676031,-7.428704856641691,-3.574839634943027,14.688768,8.034147,13.600769,7.029303,-13.260162,-9.555446,10.100883,-12.708559,-5.9530272,9.013131,-11.249713,14.32329,-0.56792855,-1.0487756,4.774256,-17.331158,19.051424,-10.819453,68.46059,-18.87284,13.855401,3.9922924,-21.680136,-14.390912,12.911905,64.70566,18.84056,12.6889715,4.098044
27,-2.6321189403533936,0.6529123783111572,77.40193176269531,0.996033378019556,-7.437660712793135,-3.579799688789566,14.706175,8.015941,13.605475,7.0297704,-13.269982,-9.540602,10.118982,-12.726438,-5.9504294,9.005455,-11.24357,14.336652,-0.5721707,-1.05579,4.7810087,-17.340775,19.053026,-10.834641,68.47089,-18.85277,13.850882,4.0221767,-21.67616,-14.390335,12.913958,64.691986,18.863981,12.699343,4.0692244
28,-2.6229071617126465,0.6631123423576355,77.40033721923828,1.0009795417372536,-7.441896202300782,-3.5876434635449312,14.719009,7.997282,13.613547,7.0298724,-13.279598,-9.527162,10.128955,-12.744816,-5.9435067,8.999891,-11.237089,14.348105,-0.5712252,-1.0653535,4.7801843,-17.354061,19.055195,-10.856934,68.48494,-18.848255,13.847547,4.045894,-21.669008,-14.389613,12.920875,64.68295,18.887442,12.707867,4.04666
29,-2.615827798843384,0.6781367659568787,77.39949798583984,1.0053962720438714,-7.43921548925144,-3.599941419261735,14.725194,7.9782486,13.626498,7.0295324,-13.288981,-9.515706,10.126571,-12.761904,-5.9301286,8.9972,-11.229038,14.35543,-0.5676992,-1.0760336,4.7744055,-17.359253,19.055946,-10.863183,68.48737,-18.849457,13.846829,4.0565786,-21.666592,-14.389531,12.925784,64.684715,18.89704,12.709783,4.039921
30,-2.6125121116638184,0.6943219304084778,77.3982925415039,1.0104972189213446,-7.4321481318722,-3.617476889559168,14.72759,7.958033,13.644962,7.0299687,-13.2992525,-9.505629,10.113885,-12.778867,-5.909714,8.999947,-11.221482,14.359753,-0.55875367,-1.0910239,4.7598653,-17.368345,19.058826,-10.875713,68.49655,-18.867292,13.847413,4.0613227,-21.661146,-14.390007,12.94877,64.69055,18.917208,12.709815,4.036428
31,-2.607889175415039,0.7108436226844788,77.39851379394531,1.0155653675570535,-7.422419555896947,-3.634775857675688,14.727301,7.9378166,13.663441,7.029104,-13.3084755,-9.495984,10.099311,-12.7963505,-5.889445,9.000103,-11.212909,14.365323,-0.55348814,-1.1032634,4.7444983,-17.370865,19.06003,-10.878842,68.49886,-18.885504,13.848353,4.0633454,-21.659163,-14.390864,12.970263,64.69857,18.93239,12.715163,4.03538
32,-2.5996155738830566,0.7250194549560547,77.3985366821289,1.020817350894322,-7.4136793616366905,-3.6486276424639024,14.726737,7.9179997,13.678576,7.0293355,-13.3183,-9.486078,10.091629,-12.814087,-5.8746,8.991977,-11.202877,14.37645,-0.55122787,-1.1125191,4.734938,-17.369997,19.060282,-10.879977,68.492805,-18.891537,13.849641,4.0684524,-21.659645,-14.391262,12.978407,64.703255,18.933792,12.731071,4.0333266
33,-2.5958869457244873,0.7424931526184082,77.39820861816406,1.0282960022745433,-7.40408130063743,-3.6594220667421933,14.724438,7.8963165,13.690547,7.0290112,-13.327304,-9.47542,10.089546,-12.833492,-5.865189,8.974296,-11.191979,14.396925,-0.56072384,-1.1156443,4.720509,-17.353994,19.061172,-10.888739,68.47435,-18.90071,13.852468,4.081557,-21.665672,-14.392519,12.999211,64.70742,18.93597,12.772383,4.0227547
34,-2.5925955772399902,0.7581967711448669,77.39675903320312,1.0362666755023764,-7.394658561824852,-3.6668930447102057,14.721708,7.874328,13.699551,7.0285854,-13.336449,-9.464869,10.093046,-12.853948,-5.8607426,8.949062,-11.180192,14.423387,-0.57260114,-1.1165059,4.7086873,-17.332548,19.062302,-10.902031,68.44636,-18.90677,13.855551,4.0969234,-21.671589,-14.393756,13.011466,64.70837,18.928303,12.827239,4.0109954
35,-2.580740213394165,0.7685396671295166,77.39585876464844,1.044158262393377,-7.384485742608105,-3.674691020804261,14.717228,7.853104,13.708697,7.0294704,-13.346061,-9.453899,10.097286,-12.873767,-5.856632,8.91997,-11.166494,14.450066,-0.5792505,-1.116691,4.69655,-17.308903,19.064537,-10.925135,68.41398,-18.91639,13.859665,4.115616,-21.674217,-14.395943,13.018138,64.706856,18.919462,12.881223,3.9998426
36,-2.575479030609131,0.7803311347961426,77.3955078125,1.050539429926832,-7.37339519270925,-3.6857442002055034,14.712391,7.833863,13.720914,7.029142,-13.354235,-9.442449,10.097581,-12.890718,-5.848952,8.892308,-11.150518,14.4711275,-0.5782329,-1.1173829,4.68946,-17.297998,19.066002,-10.942269,68.39231,-18.918877,13.864273,4.133665,-21.675028,-14.397994,13.019382,64.70187,18.91248,12.918556,3.9926474
37,-2.571310043334961,0.7925283908843994,77.39521026611328,1.0543391645750861,-7.361789629156018,-3.701629522525334,14.707756,7.8178496,13.737818,7.028862,-13.362705,-9.430209,10.095318,-12.904709,-5.8364987,8.861835,-11.130399,14.483743,-0.5675275,-1.1161276,4.6873107,-17.289768,19.066637,-10.955093,68.36814,-18.917622,13.872088,4.1573253,-21.67329,-14.40076,13.0211525,64.69283,18.91501,12.932002,3.9849968
38,-2.565516710281372,0.8065131306648254,77.39512634277344,1.0571789777569278,-7.349320812692822,-3.7206390282917887,14.701984,7.8035264,13.757722,7.029356,-13.371152,-9.417241,10.083826,-12.916968,-5.8195806,8.844261,-11.112741,14.491326,-0.55187654,-1.1129388,4.689121,-17.285507,19.066095,-10.96197,68.34522,-18.910328,13.881436,4.183854,-21.672007,-14.405153,13.024292,64.681175,18.922897,12.93112,3.9772224
39,-2.5644075870513916,0.8204400539398193,77.39630889892578,1.0593334754570611,-7.335655794758158,-3.7404618018756426,14.695059,7.7904243,13.777971,7.029423,-13.378712,-9.404161,10.072836,-12.927554,-5.802044,8.821362,-11.091483,14.497731,-0.5353371,-1.1079284,4.690517,-17.280136,19.064184,-10.967847,68.32439,-18.905277,13.889751,4.2085295,-21.67091,-14.411502,13.030983,64.67136,18.934004,12.9245405,3.9755933
40,-2.5596530437469482,0.8336344957351685,77.3968276977539,1.0621452198128967,-7.320539612191317,-3.7588232238057397,14.685963,7.776793,13.795775,7.0292015,-13.384917,-9.391608,10.064798,-12.938316,-5.7859216,8.79093,-11.06775,14.506676,-0.5230088,-1.1037111,4.688236,-17.274246,19.06158,-10.973005,68.31367,-18.904694,13.893241,4.224295,-21.672401,-14.418412,13.039105,64.6696,18.939463,12.920515,3.9869802
41,-2.554788827896118,0.8428407907485962,77.39835357666016,1.065850321487835,-7.302615745461969,-3.7765269192971083,14.672997,7.762758,13.81142,7.0299196,-13.38964,-9.379205,10.060965,-12.948612,-5.770523,8.746322,-11.037846,14.520187,-0.5156071,-1.1013085,4.6785536,-17.265434,19.05955,-10.981154,68.3163,-18.914307,13.888901,4.2276616,-21.679773,-14.423899,13.050516,64.68313,18.941214,12.920768,4.0192413
42,-2.549863815307617,0.8549923300743103,77.3995132446289,1.0705840104047983,-7.282277495115523,-3.794548835989847,14.658077,7.7476907,13.826269,7.0296497,-13.39288,-9.366772,10.0560055,-12.958333,-5.75427,8.698227,-11.006609,14.535794,-0.5105381,-1.0998237,4.663011,-17.256433,19.057064,-10.993383,68.331375,-18.932259,13.878887,4.2228336,-21.68962,-14.431403,13.066622,64.70597,18.94126,12.921396,4.0663443
43,-2.5448877811431885,0.8672255873680115,77.40034484863281,1.0743019240141969,-7.262444883806188,-3.8096078224611887,14.642484,7.7342157,13.838314,7.030012,-13.396057,-9.355144,10.057661,-12.96715,-5.741955,8.64045,-10.971195,14.550993,-0.5070284,-1.0974573,4.64702,-17.248837,19.054699,-11.006942,68.35102,-18.953852,13.868517,4.215013,-21.706327,-14.438432,13.08484,64.74018,18.941769,12.919276,4.1160603
44,-2.543083667755127,0.878061056137085,77.40049743652344,1.076833641345479,-7.244952672047956,-3.8193372895169935,14.628275,7.722418,13.846259,7.029314,-13.398843,-9.344858,10.063192,-12.974193,-5.7358193,8.583733,-10.937105,14.5632515,-0.50303775,-1.0961989,4.6377907,-17.244513,19.052748,-11.015668,68.36425,-18.967537,13.863893,4.2104216,-21.715899,-14.443908,13.098045,64.762314,18.937088,12.914565,4.1528335
45,-2.538698434829712,0.8867514133453369,77.40129852294922,1.0772283439686492,-7.231619715229789,-3.821643351596547,14.61621,7.71373,13.848442,7.030331,-13.403987,-9.3361845,10.077183,-12.979898,-5.7385545,8.52591,-10.903797,14.571263,-0.49684212,-1.0936874,4.6368423,-17.244183,19.050547,-11.021325,68.368614,-18.97572,13.868346,4.209233,-21.725237,-14.449012,13.111212,64.778984,18.928076,12.913562,4.1530547
46,-2.533690929412842,0.8955548405647278,77.40179443359375,1.0752745655678029,-7.221372164336145,-3.8179006253342234,14.606378,7.708041,13.845663,7.030212,-13.408945,-9.328746,10.101072,-12.983059,-5.749041,8.459669,-10.867319,14.576624,-0.49284092,-1.0870706,4.640581,-17.245539,19.046595,-11.023331,68.369606,-18.982117,13.877921,4.208689,-21.737888,-14.45576,13.13213,64.796425,18.920406,12.914629,4.130708
47,-2.53098726272583,0.9047081470489502,77.40319061279297,1.0735772898202196,-7.211290983925057,-3.811890604110301,14.595811,7.702269,13.841181,7.03066,-13.413974,-9.322433,10.124549,-12.986091,-5.7619433,8.396355,-10.832847,14.580856,-0.49034908,-1.0835109,4.645826,-17.246645,19.043772,-11.021294,68.369156,-18.982435,13.887399,4.2107215,-21.745934,-14.459875,13.144724,64.81113,18.911205,12.902892,4.129954
48,-2.528506278991699,0.9114805459976196,77.40374755859375,1.0720842959923376,-7.199570226382534,-3.806189731401723,14.583356,7.6956267,13.837255,7.0307717,-13.417527,-9.317116,10.145878,-12.99016,-5.7743845,8.332361,-10.797693,14.585591,-0.49503437,-1.0809141,4.646198,-17.244314,19.04061,-11.019089,68.373985,-18.98318,13.8899555,4.2178063,-21.752642,-14.46518,13.156389,64.83309,18.917202,12.863071,4.1943517
49,-2.52553129196167,0.92059326171875,77.40470123291016,1.0713435702476148,-7.185602288071043,-3.8013046752792867,14.568791,7.687426,13.834802,7.030276,-13.419164,-9.313355,10.1620655,-12.995495,-5.7858024,8.2715025,-10.763898,14.590414,-0.5105071,-1.0807413,4.637266,-17.237616,19.037512,-11.016743,68.389114,-18.97949,13.882536,4.234237,-21.756348,-14.474661,13.163988,64.871704,18.948027,12.765153,4.388437
50,-2.524714469909668,0.9296475052833557,77.4054183959961,1.069945363200762,-7.170756557873208,-3.7956202479587433,14.552472,7.679196,13.832045,7.030814,-13.420493,-9.31119,10.179211,-12.999807,-5.798794,8.207138,-10.728685,14.594435,-0.53346276,-1.0836008,4.6238728,-17.227037,19.03667,-11.014672,68.40822,-18.972656,13.869402,4.2568364,-21.756546,-14.48207,13.1658325,64.91988,18.996069,12.626398,4.6706543
51,-2.521514415740967,0.9361738562583923,77.40654754638672,1.069223665999951,-7.155656549516771,-3.7892985567232533,14.535546,7.6706614,13.828585,7.0308456,-13.420952,-9.309254,10.196932,-13.003689,-5.8125854,8.140694,-10.692196,14.599373,-0.5535433,-1.0818583,4.615227,-17.2129,19.036184,-11.012039,68.41803,-18.969933,13.855639,4.275976,-21.756792,-14.503158,13.166669,64.95801,19.045988,12.502431,4.935255
52,-2.519007444381714,0.9446983933448792,77.40755462646484,1.0705047626593256,-7.13960970778987,-3.783617570673917,14.517641,7.6606784,13.824438,7.0304036,-13.421761,-9.306087,10.20759,-13.01154,-5.8231406,8.086351,-10.662085,14.606976,-0.5632608,-1.0854146,4.609384,-17.207642,19.036167,-11.012747,68.42989,-18.977995,13.844232,4.290466,-21.751486,-14.507777,13.16686,64.96818,19.073751,12.446444,5.0543785
53,-2.5175940990448,0.9512104988098145,77.40809631347656,1.0723025391308878,-7.124265175388033,-3.7764860763599084,14.499164,7.6517897,13.816553,7.0303583,-13.423164,-9.301739,10.223591,-13.017096,-5.835123,8.024975,-10.6290655,14.617962,-0.55825996,-1.0829386,4.6135025,-17.20797,19.03592,-11.019427,68.43401,-19.009886,13.836117,4.291376,-21.74882,-14.515748,13.171307,64.94393,19.074944,12.4961405,4.9667234
54,-2.5172665119171143,0.9570234417915344,77.40776824951172,1.0763569582867045,-7.108047879308784,-3.769948293717357,14.47891,7.641259,13.807658,7.0308557,-13.425048,-9.296508,10.233622,-13.026173,-5.844355,7.973301,-10.601168,14.631888,-0.5440701,-1.0806671,4.622597,-17.211283,19.035517,-11.025469,68.43376,-19.053965,13.8293085,4.2846103,-21.748196,-14.517971,13.175604,64.8973,19.05661,12.61444,4.7426
55,-2.5138587951660156,0.9620739221572876,77.40843200683594,1.079711487816651,-7.092126590501389,-3.762472414254818,14.458929,7.63188,13.798387,7.030769,-13.426442,-9.290983,10.247807,-13.034214,-5.8551826,7.914669,-10.569809,14.646022,-0.52622414,-1.0787257,4.631479,-17.221748,19.03392,-11.039277,68.43795,-19.101774,13.823299,4.27974,-21.735666,-14.5192585,13.185406,64.83276,19.041328,12.74615,4.4842052
56,-2.51012921333313,0.9679701924324036,77.40917205810547,1.0838540244376618,-7.075219638411171,-3.7560860832673133,14.437827,7.62137,13.792558,7.0305176,-13.426949,-9.284904,10.253401,-13.043803,-5.8640637,7.868782,-10.543847,14.658302,-0.51039064,-1.0803668,4.632949,-17.233744,19.029736,-11.0541115,68.44676,-19.131763,13.818145,4.2830496,-21.72424,-14.51855,13.194404,64.79188,19.034317,12.825629,4.309014
57,-2.5091805458068848,0.9737220406532288,77.40975952148438,1.0879315726878587,-7.056965436550191,-3.751067919164475,14.415599,7.6105943,13.792345,7.029884,-13.425902,-9.278177,10.25524,-13.053551,-5.8722334,7.8249154,-10.517844,14.668633,-0.5012866,-1.0844872,4.6316514,-17.24001,19.026571,-11.058458,68.446434,-19.131283,13.816805,4.295725,-21.718445,-14.517939,13.199646,64.777275,19.034443,12.834806,4.2502303
58,-2.5075995922088623,0.9826105237007141,77.41082763671875,1.0922772219113166,-7.037821438538052,-3.7468430895819247,14.392364,7.5994577,13.795681,7.029417,-13.4241295,-9.270839,10.2513,-13.065084,-5.8790317,7.788615,-10.494861,14.678197,-0.4947647,-1.0898777,4.627777,-17.245174,19.022377,-11.058985,68.44246,-19.113514,13.818248,4.3143063,-21.712536,-14.518265,13.207189,64.77317,19.040462,12.807254,4.2463236
59,-2.5061051845550537,0.9932984709739685,77.41240692138672,1.096926728583881,-7.018921025132506,-3.742542561835092,14.36861,7.5876737,13.798666,7.0296626,-13.42241,-9.263403,10.2449045,-13.076469,-5.885623,7.7578983,-10.474617,14.686064,-0.48883,-1.0962758,4.624227,-17.246492,19.018654,-11.055203,68.43314,-19.087914,13.8194065,4.3342123,-21.706,-14.51938,13.211029,64.77279,19.04779,12.765035,4.271766
60,-2.5100021362304688,0.998019814491272,77.41338348388672,1.1010685321867735,-7.002184809908003,-3.7366397836412215,14.347662,7.5758557,13.796789,7.028749,-13.42109,-9.256362,10.241425,-13.087831,-5.8937116,7.728159,-10.455558,14.691902,-0.48487762,-1.1023272,4.620793,-17.245888,19.014837,-11.048429,68.426636,-19.065983,13.815538,4.352011,-21.699753,-14.520965,13.212581,64.77306,19.055807,12.72879,4.2975283
61,-2.5104875564575195,1.0033165216445923,77.41323852539062,1.104812105053273,-6.98918408695306,-3.7279463327343674,14.329731,7.5637355,13.78636,7.028552,-13.42122,-9.249088,10.243594,-13.098981,-5.9047837,7.69961,-10.438588,14.694692,-0.48316264,-1.1088318,4.61913,-17.241112,19.010904,-11.037145,68.421,-19.045527,13.802988,4.369161,-21.692917,-14.522636,13.209612,64.77301,19.068419,12.700238,4.329367
62,-2.5102994441986084,1.0090066194534302,77.41407775878906,1.1084997739798357,-6.978430023126894,-3.7176944867139894,14.313564,7.5507054,13.770828,7.029804,-13.42322,-9.241457,10.247956,-13.111265,-5.9172544,7.6729665,-10.422956,14.6952505,-0.48448056,-1.1135304,4.6198955,-17.230337,19.001684,-11.011478,68.41187,-19.015104,13.784836,4.387451,-21.68783,-14.527082,13.199701,64.77522,19.080122,12.670169,4.3784432
63,-2.5083394050598145,1.0136516094207764,77.4142074584961,1.1114398011216386,-6.967654460068097,-3.707595317880871,14.297827,7.5385222,13.755772,7.029921,-13.424261,-9.234979,10.255657,-13.121975,-5.930169,7.639287,-10.403491,14.694566,-0.48395836,-1.1163771,4.6199236,-17.222445,18.991556,-10.987858,68.4065,-18.989603,13.767125,4.402705,-21.682682,-14.532189,13.189595,64.77773,19.089657,12.642068,4.4247837
64,-2.5059375762939453,1.0238909721374512,77.41447448730469,1.1140131017132604,-6.953932923277634,-3.6999225080886857,14.279871,7.528077,13.747319,7.0295672,-13.424199,-9.230746,10.246381,-13.130894,-5.937592,7.631961,-10.396615,14.693913,-0.47842613,-1.1218662,4.6148863,-17.220613,18.987865,-10.979179,68.406944,-18.98311,13.757454,4.4103594,-21.678638,-14.534137,13.186176,64.78132,19.094053,12.619713,4.446831
65,-2.503753185272217,1.0312321186065674,77.41510772705078,1.113905131413617,-6.934570432125686,-3.6953298511603236,14.256744,7.5223823,13.748571,7.0294275,-13.422321,-9.230534,10.224351,-13.137559,-5.9395785,7.6330867,-10.391316,14.692188,-0.46986827,-1.1215271,4.6070514,-17.222649,18.982021,-10.964155,68.40903,-18.982922,13.759131,4.40482,-21.675798,-14.537336,13.183978,64.780975,19.077833,12.605651,4.437957
66,-2.502645254135132,1.0372084379196167,77.41648864746094,1.112049586472878,-6.91412246301013,-3.6921200690202443,14.233632,7.519359,13.755246,7.0282073,-13.419171,-9.2332,10.198862,-13.139522,-5.9397616,7.636735,-10.386143,14.68903,-0.45840284,-1.120705,4.5976167,-17.226068,18.979124,-10.957161,68.412125,-18.99802,13.767354,4.391468,-21.674898,-14.539023,13.185014,64.780914,19.053139,12.598233,4.408968
67,-2.5075554847717285,1.0421143770217896,77.4181137084961,1.1108213216126728,-6.890561523651684,-3.690574476636808,14.207647,7.516224,13.764261,7.0273943,-13.416168,-9.235886,10.17543,-13.141937,-5.9392304,7.62799,-10.373927,14.687302,-0.45062876,-1.1114805,4.585276,-17.234852,18.96635,-10.935178,68.423134,-19.004982,13.777629,4.375877,-21.677263,-14.546623,13.199066,64.78001,19.028267,12.593053,4.3697476
68,-2.5068109035491943,1.047749400138855,77.4194107055664,1.1115723402088131,-6.875413237806495,-3.6852933144995563,14.1893425,7.5106387,13.766237,7.027375,-13.414996,-9.235634,10.159821,-13.148506,-5.942756,7.6279607,-10.369845,14.690235,-0.43875605,-1.1137936,4.5803123,-17.238308,18.964073,-10.932971,68.423676,-19.014452,13.783843,4.3738985,-21.678848,-14.548288,13.205189,64.78123,19.012226,12.586212,4.3415403
69,-2.5056192874908447,1.0551129579544067,77.41915893554688,1.116078790502944,-6.86624714294414,-3.677381278212257,14.177339,7.5002937,13.761593,7.026809,-13.415646,-9.230542,10.153132,-13.159783,-5.950149,7.628104,-10.369189,14.700526,-0.4284295,-1.1200581,4.5809765,-17.24179,18.960892,-10.934217,68.421135,-19.015312,13.784693,4.3881235,-21.68212,-14.55139,13.217229,64.78337,19.00158,12.577391,4.3226347
70,-2.503537178039551,1.0601993799209595,77.41888427734375,1.1229475409685739,-6.861566509719715,-3.66653979794284,14.169426,7.4869976,13.751903,7.0262384,-13.417602,-9.222341,10.157016,-13.174937,-5.962016,7.6207995,-10.367017,14.7160635,-0.42714655,-1.1237414,4.580314,-17.242357,18.954014,-10.941596,68.42085,-19.022787,13.781491,4.4179177,-21.695713,-14.559374,13.260773,64.79801,19.016064,12.565545,4.302522
71,-2.4999043941497803,1.0628937482833862,77.41836547851562,1.1298932060816538,-6.859395698083146,-3.6549625201556757,14.163708,7.4737515,13.739863,7.0271735,-13.420836,-9.213671,10.166002,-13.18973,-5.975523,7.6104097,-10.3644285,14.731954,-0.4249885,-1.1271175,4.5824785,-17.238325,18.946411,-10.946495,68.41525,-19.023073,13.77804,4.4473543,-21.707172,-14.569295,13.300809,64.8093,19.040224,12.555461,4.2865286
72,-2.497025489807129,1.0660501718521118,77.4175796508789,1.1357674432410034,-6.856240057203114,-3.644283693341738,14.158091,7.4616284,13.727787,7.027389,-13.423392,-9.206767,10.165964,-13.203227,-5.9864016,7.6162505,-10.370504,14.743354,-0.41692203,-1.135448,4.5869064,-17.239212,18.944206,-10.949502,68.41153,-19.015385,13.778657,4.4665437,-21.712955,-14.572643,13.314181,64.81426,19.068052,12.546737,4.2736764
73,-2.4944674968719482,1.068787932395935,77.41607666015625,1.1394842039415698,-6.851465074904121,-3.6351289012847356,14.151593,7.451843,13.715388,7.0276384,-13.425548,-9.202518,10.168093,-13.212803,-5.997013,7.611912,-10.370854,14.747906,-0.41465807,-1.1337892,4.584515,-17.239056,18.936674,-10.946323,68.418045,-19.009775,13.783625,4.4721265,-21.721535,-14.582502,13.341575,64.82668,19.14783,12.531303,4.2588387
74,-2.490591526031494,1.072453498840332,77.4159927368164,1.142383010924088,-6.84677975187452,-3.6266321835337147,14.145899,7.442855,13.701766,7.0275435,-13.427589,-9.19965,10.166112,-13.221438,-6.006356,7.616173,-10.3765,14.748563,-0.40812057,-1.13597,4.5843296,-17.2405,18.933691,-10.941064,68.42442,-18.997044,13.792238,4.4684896,-21.725677,-14.585433,13.345919,64.83593,19.241327,12.512214,4.2463684
75,-2.4873218536376953,1.077242136001587,77.41586303710938,1.1448847143834988,-6.842022006250299,-3.617372572324041,14.139953,7.434698,13.68763,7.0277996,-13.429303,-9.197115,10.166441,-13.2295065,-6.016794,7.6166277,-10.380034,14.74878,-0.4023038,-1.1370839,4.5832973,-17.244251,18.927933,-10.932678,68.43417,-18.97921,13.800949,4.464213,-21.732237,-14.5896845,13.351646,64.84538,19.333479,12.503057,4.2360463
76,-2.4859848022460938,1.08029305934906,77.41600036621094,1.1475515633364117,-6.837444975874303,-3.605860644753422,14.134006,7.427183,13.673766,7.027199,-13.429601,-9.1940565,10.171359,-13.237765,-6.0297656,7.610416,-10.3795,14.7520895,-0.39578718,-1.1423814,4.581261,-17.248089,18.925352,-10.930691,68.44186,-18.961327,13.806277,4.4672422,-21.73992,-14.591495,13.3588915,64.85009,19.393124,12.518625,4.228464
77,-2.483461380004883,1.081005334854126,77.41708374023438,1.1509678357648316,-6.832395609957209,-3.5914016717776973,14.126175,7.4201565,13.660775,7.027034,-13.428841,-9.188739,10.179421,-13.245439,-6.045754,7.598782,-10.374647,14.76089,-0.38991514,-1.150873,4.5767617,-17.25202,18.921944,-10.935197,68.44743,-18.942541,13.807551,4.4835143,-21.751232,-14.594693,13.379718,64.84807,19.412933,12.573583,4.2243533
78,-2.4779012203216553,1.0822324752807617,77.41678619384766,1.155077038591374,-6.826770190704337,-3.574827874150387,14.117283,7.4135747,13.648243,7.0268197,-13.426977,-9.18212,10.185935,-13.253873,-6.0629673,7.5918984,-10.371534,14.772887,-0.3843269,-1.1623938,4.56897,-17.25665,18.919537,-10.94675,68.45414,-18.924898,13.805893,4.5073514,-21.766857,-14.598366,13.408782,64.84472,19.409723,12.656325,4.223064
79,-2.4730167388916016,1.0844403505325317,77.4168701171875,1.1586504530163155,-6.8219681511472015,-3.5575056049411353,14.108911,7.4075727,13.634901,7.0269523,-13.425023,-9.177286,10.191613,-13.262077,-6.0804563,7.589519,-10.371199,14.784448,-0.37768096,-1.1753105,4.5630336,-17.259708,18.91856,-10.9560585,68.45562,-18.904003,13.803569,4.53029,-21.777945,-14.600768,13.428178,64.83542,19.387842,12.742324,4.2239327
80,-2.4696907997131348,1.0853761434555054,77.4159927368164,1.160794724255687,-6.8185516463222005,-3.5402821232446002,14.103292,7.4013343,13.619486,7.027676,-13.425006,-9.177127,10.195335,-13.269383,-6.097544,7.5953383,-10.376913,14.792196,-0.37897813,-1.1799754,4.55168,-17.257017,18.915333,-10.966539,68.45921,-18.899548,13.799931,4.546942,-21.784595,-14.607979,13.460584,64.830345,19.386942,12.807691,4.219998
81,-2.465820074081421,1.0864657163619995,77.41468048095703,1.1606203450033075,-6.817635771553517,-3.525825550248056,14.103025,7.3953376,13.603722,7.027425,-13.425874,-9.1847925,10.209418,-13.273609,-6.114342,7.5848403,-10.376483,14.793354,-0.37802833,-1.1822506,4.547141,-17.254145,18.9147,-10.96515,68.4569,-18.893301,13.79716,4.5482802,-21.781902,-14.608635,13.458819,64.82484,19.372223,12.839442,4.218166
82,-2.4588799476623535,1.0921710729599,77.41304016113281,1.1584029224514207,-6.820465810948765,-3.507649953736155,14.107204,7.3894463,13.582188,7.027406,-13.428066,-9.197491,10.223257,-13.27712,-6.134243,7.5877705,-10.385929,14.790767,-0.38213173,-1.1816574,4.546692,-17.24,18.911993,-10.952153,68.44124,-18.882019,13.793454,4.543669,-21.759367,-14.609791,13.432882,64.796036,19.337685,12.867436,4.2168946
83,-2.452247142791748,1.095048427581787,77.41275787353516,1.1560187085289606,-6.822694972849236,-3.490647010131162,14.111455,7.3838134,13.561544,7.0265007,-13.429631,-9.211246,10.242068,-13.279539,-6.1543713,7.578157,-10.388505,14.787725,-0.38129944,-1.1817656,4.5471883,-17.231808,18.908998,-10.940721,68.427704,-18.870438,13.790218,4.538118,-21.736786,-14.609862,13.399519,64.772835,19.303888,12.881534,4.215342
84,-2.450058937072754,1.0942802429199219,77.41172790527344,1.1547287574386749,-6.823030748663265,-3.4721788855634723,14.1115465,7.3787193,13.5402355,7.0272207,-13.43129,-9.221266,10.2543955,-13.283479,-6.17471,7.578332,-10.394937,14.787654,-0.37741214,-1.1863344,4.5449886,-17.229357,18.905996,-10.939124,68.41818,-18.86035,13.787693,4.540654,-21.720278,-14.60961,13.373718,64.75858,19.281034,12.89225,4.21046
85,-2.4432201385498047,1.0932574272155762,77.4121322631836,1.1544031039598512,-6.820952242919133,-3.4524358454155863,14.108186,7.375035,13.519277,7.026809,-13.430934,-9.227856,10.265355,-13.287766,-6.1958976,7.5759807,-10.398219,14.791766,-0.37592953,-1.1934689,4.5409207,-17.229168,18.905472,-10.942433,68.40857,-18.849804,13.786471,4.5523353,-21.718206,-14.609607,13.373349,64.75916,19.28345,12.9013605,4.1972027
86,-2.437307596206665,1.0927249193191528,77.41217041015625,1.1544439588350683,-6.8180623935187,-3.4280214269007283,14.1015415,7.372,13.494083,7.026522,-13.429117,-9.232539,10.271258,-13.293441,-6.220438,7.5858927,-10.407615,14.798601,-0.3738223,-1.2049056,4.535577,-17.226427,18.904953,-10.955024,68.390526,-18.838665,13.787736,4.575479,-21.715378,-14.609883,13.381019,64.76059,19.30177,12.908517,4.174207
87,-2.4335997104644775,1.0937285423278809,77.4109115600586,1.1554762289721259,-6.813559129630043,-3.4069140387704815,14.093552,7.3688493,13.472558,7.026815,-13.428409,-9.23394,10.286106,-13.298652,-6.2444615,7.5699725,-10.401731,14.806088,-0.3713222,-1.2164003,4.5290284,-17.226603,18.904903,-10.962421,68.37924,-18.828476,13.787608,4.594149,-21.71495,-14.610281,13.387054,64.76413,19.312473,12.908158,4.159546
88,-2.428450584411621,1.0944020748138428,77.41019439697266,1.15715785028713,-6.809258725459207,-3.3840047187536757,14.084494,7.364306,13.448948,7.02678,-13.428307,-9.229578,10.2910385,-13.306345,-6.269352,7.575792,-10.407195,14.8133545,-0.37230763,-1.2282395,4.515498,-17.221907,18.90476,-10.978906,68.3719,-18.836554,13.788409,4.6121283,-21.705078,-14.610815,13.398068,64.762695,19.322945,12.89654,4.1558414
89,-2.4251468181610107,1.0966248512268066,77.40977478027344,1.1608352324598799,-6.804912694349315,-3.3653081323639333,14.075363,7.357752,13.428826,7.026714,-13.430369,-9.215614,10.302105,-13.317539,-6.2931724,7.564449,-10.402573,14.819496,-0.3721109,-1.2412777,4.501706,-17.220707,18.903927,-10.982889,68.379456,-18.849741,13.785786,4.614801,-21.675821,-14.610653,13.382148,64.73782,19.292627,12.869949,4.182873
90,-2.4187848567962646,1.0983344316482544,77.40997314453125,1.1664112269135605,-6.800663146076348,-3.3481266937890917,14.064809,7.349715,13.409695,7.0286827,-13.43481,-9.194081,10.302775,-13.333145,-6.3143735,7.5730076,-10.407815,14.825512,-0.37741247,-1.2537612,4.487673,-17.216717,18.903,-10.97505,68.39216,-18.867947,13.782078,4.6086445,-21.646563,-14.609659,13.35894,64.70996,19.241932,12.83066,4.2302656
91,-2.4151899814605713,1.1022783517837524,77.41008758544922,1.17232156524907,-6.794354706747697,-3.3325377140110763,14.052646,7.3403025,13.392887,7.029072,-13.438352,-9.172975,10.301838,-13.347929,-6.3344817,7.5766525,-10.408577,14.832334,-0.3710666,-1.2714146,4.4781566,-17.22153,18.900862,-10.964005,68.40453,-18.873165,13.780209,4.6019173,-21.60317,-14.607264,13.305919,64.664986,19.172,12.7918825,4.2811036
92,-2.41532039642334,1.1059755086898804,77.41136932373047,1.176906560296,-6.7841435792835645,-3.3186706120239307,14.037005,7.330349,13.379501,7.029784,-13.440278,-9.160293,10.301661,-13.362333,-6.352526,7.567108,-10.400204,14.84128,-0.36616236,-1.2853392,4.4633665,-17.224354,18.899212,-10.960284,68.41086,-18.88127,13.781607,4.602512,-21.586428,-14.605937,13.284099,64.65178,19.140644,12.762201,4.3114963
93,-2.413418769836426,1.1099146604537964,77.41184997558594,1.1806291145284795,-6.768503692499914,-3.307783045942728,14.017726,7.318758,13.372317,7.0293655,-13.439483,-9.160672,10.28184,-13.375577,-6.3630857,7.581541,-10.401374,14.854144,-0.3526008,-1.300694,4.449708,-17.234373,18.897676,-10.962424,68.40703,-18.87652,13.789966,4.614751,-21.579996,-14.60584,13.277038,64.647865,19.140984,12.74714,4.315214
94,-2.4138476848602295,1.117205023765564,77.4117431640625,1.1833417653946277,-6.749227362195241,-3.2990513131461427,13.995391,7.3064017,13.369526,7.028481,-13.436753,-9.169102,10.271158,-13.38575,-6.3737416,7.5646176,-10.3833,14.869774,-0.33556575,-1.3156238,4.4348655,-17.24568,18.896832,-10.967262,68.39581,-18.86741,13.802777,4.634033,-21.586153,-14.606572,13.281762,64.65779,19.1635,12.739712,4.3025074
95,-2.4092013835906982,1.1208412647247314,77.41307830810547,1.1852730329503032,-6.729765246746656,-3.291319755918914,13.973499,7.294108,13.367636,7.026507,-13.433142,-9.179038,10.255134,-13.396313,-6.381635,7.5568943,-10.369372,14.884701,-0.31914064,-1.3291023,4.4208655,-17.254204,18.89634,-10.971147,68.38303,-18.85663,13.812424,4.6510444,-21.593506,-14.607359,13.288423,64.66891,19.18714,12.73792,4.2868795
96,-2.413168430328369,1.130814790725708,77.41288757324219,1.1887809058398537,-6.705193779696164,-3.2829518366782087,13.944188,7.280375,13.362563,7.0258064,-13.430195,-9.182869,10.227286,-13.409874,-6.3883634,7.561345,-10.361718,14.895581,-0.30739698,-1.3393366,4.3938127,-17.265022,18.892052,-10.981933,68.38233,-18.85551,13.820311,4.664152,-21.613594,-14.612933,13.320422,64.7009,19.23036,12.735457,4.2711987
97,-2.4129014015197754,1.1409803628921509,77.41409301757812,1.1912507121187002,-6.683149246302053,-3.27198928268738,13.9159565,7.2689524,13.351298,7.0263367,-13.429015,-9.18166,10.200501,-13.422319,-6.3964825,7.5721507,-10.360142,14.898113,-0.30149204,-1.3476673,4.3693523,-17.265953,18.889221,-10.981169,68.38196,-18.84826,13.815627,4.6641655,-21.622433,-14.615776,13.332488,64.72174,19.245369,12.738824,4.2684264
98,-2.411255359649658,1.1489851474761963,77.41453552246094,1.1930421589238744,-6.661769745019569,-3.260100912076493,13.888338,7.2586474,13.337133,7.025921,-13.427872,-9.178294,10.184261,-13.433122,-6.407073,7.562963,-10.349021,14.895315,-0.29550096,-1.3575629,4.347174,-17.265171,18.887453,-10.978607,68.38055,-18.838198,13.805883,4.6592135,-21.624424,-14.617302,13.335958,64.735374,19.25033,12.747393,4.2683854
99,-2.4086146354675293,1.1525484323501587,77.41551208496094,1.19756015071379,-6.636610973996551,-3.2501094370067602,13.855566,7.244835,13.323901,7.025916,-13.426358,-9.169549,10.108718,-13.453994,-6.403276,7.6654816,-10.394911,14.8941555,-0.2904941,-1.3680592,4.317982,-17.261452,18.884932,-10.972357,68.38406,-18.825684,13.793822,4.6475115,-21.629436,-14.618911,13.339757,64.75539,19.249882,12.756229,4.271136
100,-2.4101145267486572,1.1631598472595215,77.41598510742188,1.2080786588646657,-6.606664244963953,-3.2498117479032333,13.818902,7.222793,13.321201,7.0258555,-13.424905,-9.152559,10.03082,-13.482249,-6.3919706,7.751847,-10.426838,14.901519,-0.28226015,-1.379776,4.2870374,-17.252687,18.878595,-10.955207,68.38392,-18.81081,13.785483,4.633278,-21.638449,-14.621831,13.349779,64.77405,19.24391,12.760134,4.2727194
101,-2.4127743244171143,1.1775413751602173,77.41744232177734,1.2231293472338374,-6.572958158277507,-3.2585329182738185,13.778279,7.1946383,13.328607,7.026206,-13.423189,-9.124292,9.950521,-13.516446,-6.37462,7.825177,-10.44607,14.920575,-0.26984733,-1.3933419,4.253849,-17.240955,18.87181,-10.93451,68.38259,-18.800308,13.78613,4.6113524,-21.648993,-14.624199,13.36339,64.79127,19.227177,12.754469,4.272022
102,-2.4153263568878174,1.1937212944030762,77.41857147216797,1.2422790014084668,-6.535706679422718,-3.2743567814812238,13.734223,7.1611085,13.34343,7.026169,-13.421002,-9.086934,9.863717,-13.556882,-6.3510375,7.895523,-10.459005,14.9473,-0.2495623,-1.4128774,4.217716,-17.233131,18.86739,-10.917617,68.386536,-18.79472,13.791988,4.582074,-21.653074,-14.62538,13.372455,64.801575,19.19924,12.743246,4.271027
103,-2.4169042110443115,1.210589051246643,77.42188262939453,1.26218229423085,-6.498801890991601,-3.293700646285533,13.691125,7.1250577,13.362199,7.0261674,-13.419344,-9.046989,9.780334,-13.599516,-6.324949,7.9554787,-10.463957,14.976568,-0.23590837,-1.4277929,4.182962,-17.21508,18.85757,-10.882825,68.38544,-18.779922,13.793606,4.55646,-21.66687,-14.627698,13.395565,64.81673,19.176626,12.733089,4.2688046
104,-2.4216060638427734,1.228879451751709,77.4239501953125,1.2795218127437122,-6.466967382505321,-3.3125785581339415,13.653871,7.08957,13.380798,7.0263853,-13.418732,-9.0109,9.710089,-13.6387415,-6.3001976,7.998834,-10.45941,15.000033,-0.22643265,-1.4373438,4.1526675,-17.19317,18.843897,-10.845917,68.38455,-18.760073,13.781713,4.545699,-21.687685,-14.631743,13.428005,64.83707,19.169687,12.730766,4.266015
105,-2.4213333129882812,1.2508714199066162,77.42681121826172,1.2926400623374048,-6.443917479740453,-3.327927974783013,13.627136,7.0565057,13.3964205,7.0257435,-13.419377,-8.980071,9.663121,-13.671863,-6.279692,8.01658,-10.441423,15.000033,-0.21166798,-1.4500521,4.132091,-17.172556,18.835175,-10.821703,68.38311,-18.73502,13.751883,4.557375,-21.703522,-14.63493,13.4518585,64.8507,19.175726,12.742705,4.2630596
106,-2.4262475967407227,1.2740687131881714,77.42881774902344,1.304079121436768,-6.426097360330581,-3.3425129999476293,13.605681,7.0233626,13.411562,7.0269585,-13.42206,-8.950896,9.62875,-13.703381,-6.26138,8.019967,-10.414347,15.000033,-0.20781817,-1.4560579,4.1158714,-17.14039,18.82149,-10.78183,68.37794,-18.696943,13.70795,4.58489,-21.730297,-14.64114,13.495701,64.869865,19.199314,12.763831,4.256524
107,-2.4333951473236084,1.2985467910766602,77.43074798583984,1.3153232748208614,-6.408107694327075,-3.361657993392575,13.585331,6.9884906,13.431725,7.0263367,-13.423862,-8.92337,9.593546,-13.736108,-6.2380195,8.018302,-10.382985,15.000033,-0.20383507,-1.458091,4.1008897,-17.10571,18.804703,-10.738573,68.37084,-18.659655,13.661054,4.613479,-21.76314,-14.650366,13.546094,64.89379,19.23246,12.783752,4.253805
108,-2.4422035217285156,1.3247671127319336,77.43254852294922,1.3282805113474425,-6.383907327595772,-3.3904566697107565,13.559631,6.9498706,13.461953,7.025899,-13.4252,-8.89719,9.540955,-13.77054,-6.2021594,8.024996,-10.353176,15.000033,-0.20323834,-1.4470371,4.082287,-17.064928,18.777714,-10.683179,68.35876,-18.628391,13.619883,4.6285963,-21.810211,-14.667846,13.610867,64.931145,19.274843,12.792613,4.2594085
109,-2.4488651752471924,1.3529250621795654,77.43417358398438,1.3437692145513944,-6.350431638918182,-3.4330209476309252,13.52598,6.9058924,13.505259,7.024428,-13.424813,-8.875554,9.4648285,-13.807497,-6.149208,8.041847,-10.325976,15.000033,-0.18358201,-1.4373364,4.059318,-17.040632,18.753803,-10.646126,68.35442,-18.619576,13.591006,4.6208353,-21.855492,-14.688334,13.662192,64.972565,19.326288,12.783698,4.2807436
110,-2.461416721343994,1.3854552507400513,77.43517303466797,1.3604663898795015,-6.311525814017758,-3.485927726513939,13.487224,6.8586526,13.558551,7.0238223,-13.424423,-8.8576355,9.373103,-13.846802,-6.083237,8.064048,-10.298937,15.000033,-0.15438443,-1.4264287,4.034918,-17.02096,18.73308,-10.61565,68.34933,-18.623562,13.568643,4.598538,-21.902964,-14.710657,13.70837,65.018,19.386658,12.763754,4.313302
111,-2.4752931594848633,1.4197351932525635,77.43653869628906,1.3753269476765486,-6.270650845166421,-3.5452718339279334,13.447547,6.8137097,13.6201725,7.022632,-13.423231,-8.8382845,9.279358,-13.881785,-6.009969,8.078149,-10.265241,15.000033,-0.12245872,-1.4109664,4.010862,-17.00073,18.713812,-10.588622,68.3417,-18.633099,13.546391,4.5746593,-21.951147,-14.735042,13.752684,65.06074,19.439707,12.742851,4.3487906
112,-2.488990068435669,1.4573041200637817,77.43970489501953,1.390868065247498,-6.232215448192251,-3.6024587892591957,13.409297,6.7692137,13.683094,7.022062,-13.422179,-8.810266,9.1909275,-13.918524,-5.938213,8.088185,-10.227674,15.000033,-0.09815724,-1.3952429,3.989629,-16.975466,18.695644,-10.5617,68.32972,-18.638958,13.517963,4.561517,-21.994616,-14.757777,13.790858,65.09077,19.463886,12.731027,4.3788943
113,-2.4979233741760254,1.4985147714614868,77.44397735595703,1.4083809386151454,-6.197386008103039,-3.6549757388427917,13.372847,6.7251005,13.746566,7.0218935,-13.420033,-8.768331,9.109777,-13.959259,-5.8693643,8.096599,-10.188448,15.000033,-0.08022479,-1.3867803,3.9710906,-16.948202,18.683836,-10.543694,68.31618,-18.645107,13.479719,4.5632806,-22.03272,-14.770995,13.813468,65.111725,19.435951,12.72297,4.4000196
114,-2.5135529041290283,1.5388118028640747,77.44794464111328,1.4273304846481252,-6.164069070875283,-3.7066435119836485,13.336913,6.6801567,13.812952,7.0212264,-13.416538,-8.717537,9.033312,-14.001689,-5.800444,8.098491,-10.144132,15.000033,-0.07423277,-1.3737764,3.9546452,-16.909798,18.669977,-10.517535,68.29403,-18.647709,13.4343195,4.5732474,-22.07546,-14.783539,13.842011,65.1297,19.381758,12.717325,4.4157
115,-2.5281386375427246,1.5741791725158691,77.45210266113281,1.4458822984964186,-6.13180102557256,-3.7592109206381448,13.30175,6.6339726,13.881545,7.0206003,-13.412641,-8.666416,8.958924,-14.043893,-5.731202,8.09644,-10.095859,15.000033,-0.06152083,-1.3729423,3.9386187,-16.891787,18.667292,-10.5123625,68.28989,-18.654766,13.390633,4.586459,-22.097082,-14.785528,13.84786,65.123825,19.318314,12.722982,4.428998
116,-2.5443015098571777,1.60715651512146,77.45553588867188,1.462489110924889,-6.096572602907354,-3.8179268625851686,13.264956,6.5865393,13.955049,7.020203,-13.4099865,-8.623082,8.875295,-14.084324,-5.6565156,8.09905,-10.046922,15.000033,-0.066284254,-1.3552912,3.9185472,-16.840237,18.655537,-10.479038,68.25987,-18.648813,13.352222,4.6031837,-22.149088,-14.792338,13.872633,65.136826,19.28119,12.751868,4.448242
117,-2.5605475902557373,1.6470839977264404,77.45954132080078,1.4738594935245597,-6.061120719236011,-3.8806119768281038,13.230828,6.540818,14.031416,7.018819,-13.408843,-8.592323,8.794646,-14.118802,-5.582875,8.089518,-9.989307,15.000033,-0.06371969,-1.3428264,3.896115,-16.810045,18.651594,-10.463521,68.25254,-18.636818,13.325305,4.6206083,-22.178827,-14.794607,13.877939,65.11528,19.280197,12.828458,4.4738917
118,-2.576385498046875,1.6920989751815796,77.463134765625,1.4820126231239394,-6.024726119192805,-3.9467705867806866,13.196358,6.4963536,14.111182,7.0189066,-13.409454,-8.568647,8.713617,-14.150413,-5.508428,8.073506,-9.925665,15.000033,-0.06735809,-1.3253195,3.872872,-16.772724,18.647644,-10.441061,68.24095,-18.612436,13.304836,4.6410613,-22.211672,-14.797112,13.881487,65.08303,19.300732,12.9403715,4.5049677
119,-2.5900864601135254,1.73379385471344,77.466064453125,1.4906129334217073,-5.9882373761537675,-4.016594881140045,13.162553,6.4497137,14.193313,7.0181866,-13.410781,-8.544415,8.626336,-14.182744,-5.4286246,8.06495,-9.863364,15.000033,-0.078907095,-1.3030299,3.8515584,-16.725756,18.641752,-10.404796,68.21813,-18.58657,13.286578,4.662018,-22.247984,-14.801556,13.890476,65.05048,19.322239,13.041268,4.5325975
120,-2.607661008834839,1.7816162109375,77.46832275390625,1.502801080048028,-5.951762850655602,-4.090126553850014,13.127024,6.398502,14.276641,7.0176196,-13.412183,-8.5120945,8.526313,-14.2212,-5.3386827,8.076507,-9.808469,15.000033,-0.08704571,-1.284344,3.8299425,-16.690893,18.635807,-10.374527,68.20262,-18.580345,13.265074,4.680856,-22.269894,-14.805604,13.898139,65.01761,19.323423,13.08469,4.5463476
121,-2.628972291946411,1.8331855535507202,77.4713134765625,1.5196954419221536,-5.915590428500859,-4.1673480337946325,13.089567,6.342691,14.360433,7.017009,-13.414043,-8.468546,8.412297,-14.2663,-5.2365294,8.111638,-9.762351,15.000033,-0.08143832,-1.274467,3.8073957,-16.680677,18.634315,-10.366195,68.20287,-18.611782,13.2398815,4.6968427,-22.273655,-14.805874,13.897167,64.984474,19.291468,13.059998,4.5159197
122,-2.6501059532165527,1.8843716382980347,77.47372436523438,1.541317970875449,-5.8759015147803995,-4.250587239547279,13.047473,6.2812934,14.447702,7.017096,-13.417066,-8.417735,8.271516,-14.319947,-5.119057,8.185457,-9.732118,15.000033,-0.072361454,-1.2665976,3.7835832,-16.668808,18.631556,-10.350766,68.19469,-18.656736,13.213537,4.711777,-22.266607,-14.804336,13.892315,64.94547,19.234749,12.992563,4.4560075
123,-2.670924663543701,1.9369337558746338,77.47714233398438,1.5637038475663063,-5.839017150636005,-4.335572010110568,13.007619,6.2171874,14.53519,7.0169396,-13.419998,-8.364239,8.135679,-14.374935,-4.9997616,8.251284,-9.696092,15.000033,-0.06894446,-1.2611014,3.7609313,-16.661251,18.62802,-10.338458,68.19146,-18.703098,13.185081,4.727938,-22.257036,-14.799919,13.8880005,64.91839,19.177067,12.884778,4.4228206
124,-2.6936111450195312,1.9873470067977905,77.4780044555664,1.5859663654162854,-5.8064626898954135,-4.421395043400073,12.972896,6.1498165,14.623032,7.016748,-13.422728,-8.311987,8.01285,-14.43069,-4.883613,8.297646,-9.649622,15.000033,-0.07597513,-1.2587693,3.73793,-16.656221,18.627129,-10.339379,68.196686,-18.74223,13.154466,4.745656,-22.250212,-14.797893,13.89032,64.91619,19.146687,12.740363,4.4757733
125,-2.7198638916015625,2.0465915203094482,77.48005676269531,1.6074387894098652,-5.778121239021925,-4.505813920870189,12.942987,6.0780673,14.70882,7.016348,-13.424448,-8.263949,7.908493,-14.487367,-4.7750154,8.314947,-9.5885315,15.000033,-0.10113336,-1.2586175,3.713133,-16.64847,18.62875,-10.357145,68.20931,-18.774096,13.117456,4.768168,-22.245705,-14.799431,13.902707,64.95529,19.155994,12.519314,4.679367
126,-2.74468731880188,2.1057419776916504,77.481689453125,1.6292168915172651,-5.753096307215439,-4.590205365882807,12.916707,6.0021734,14.793639,7.0158553,-13.425557,-8.21734,7.815872,-14.545597,-4.6697297,8.313594,-9.517302,15.000033,-0.13683513,-1.2607118,3.687914,-16.640217,18.634794,-10.390686,68.22578,-18.806274,13.076258,4.7923303,-22.2359,-14.809603,13.921734,65.01745,19.193985,12.234687,4.9875965
127,-2.7675275802612305,2.1671698093414307,77.48410034179688,1.6513910180571878,-5.731838661144246,-4.678925210593721,12.895457,5.9246917,14.882383,7.014454,-13.427193,-8.167803,7.7261815,-14.60628,-4.5603533,8.309537,-9.443369,15.000033,-0.1729181,-1.264986,3.6669965,-16.635347,18.641722,-10.426915,68.241936,-18.83108,13.039163,4.8137727,-22.221935,-14.822412,13.9444275,65.069374,19.244144,11.967974,5.290202
128,-2.78881573677063,2.2327334880828857,77.4852066040039,1.6745981511483274,-5.714478842294869,-4.776047174268424,12.878766,5.847833,14.979307,7.015403,-13.432695,-8.110831,7.632174,-14.666299,-4.4407954,8.315669,-9.372741,15.000033,-0.19774999,-1.2716444,3.6503513,-16.638481,18.651909,-10.465515,68.25803,-18.850166,13.013464,4.828231,-22.206478,-14.841425,13.976389,65.084656,19.296942,11.799108,5.476052
129,-2.814774751663208,2.296271800994873,77.4879150390625,1.7002563956852508,-5.702690360162567,-4.8830436857995245,12.870084,5.770797,15.085824,7.015564,-13.441807,-8.040226,7.53342,-14.727776,-4.308902,8.336616,-9.308072,15.000033,-0.20978941,-1.2822443,3.6422255,-16.645098,18.667486,-10.496635,68.26433,-18.854197,13.006593,4.831247,-22.18519,-14.869057,14.023736,65.03743,19.349829,11.776144,5.4922028
130,-2.844261884689331,2.358124256134033,77.48991394042969,1.7276362150945477,-5.695858995023502,-4.9975540526921,12.867884,5.692997,15.199281,7.016344,-13.454242,-7.9600077,7.43282,-14.790753,-4.1680913,8.366219,-9.24622,15.000033,-0.2201927,-1.2969437,3.635979,-16.659828,18.678743,-10.514052,68.27938,-18.836216,13.009343,4.831343,-22.184643,-14.884769,14.079964,64.985306,19.39614,11.84246,5.4008546
131,-2.866034507751465,2.420501708984375,77.49047088623047,1.7544766397008902,-5.691137760862031,-5.118314350356399,12.868177,5.615381,15.318718,7.017275,-13.467222,-7.8810663,7.3306665,-14.852587,-4.020531,8.395844,-9.182585,15.000033,-0.23095633,-1.3129609,3.6295307,-16.676437,18.68721,-10.528918,68.29638,-18.81679,13.014373,4.8310275,-22.185953,-14.89297,14.143261,64.925705,19.447874,11.933885,5.2725573
132,-2.8959319591522217,2.493642568588257,77.49320983886719,1.7776576895471026,-5.6852620016882085,-5.243906868640829,12.868182,5.538988,15.443288,7.017631,-13.478868,-7.8142066,7.2264953,-14.911369,-3.8682241,8.418072,-9.1132,15.000033,-0.25346592,-1.3229382,3.6219723,-16.681341,18.701227,-10.544184,68.303246,-18.819855,13.014346,4.8274198,-22.188995,-14.904081,14.228451,64.87336,19.523985,11.984932,5.1827693
133,-2.9187300205230713,2.5584890842437744,77.49449920654297,1.7939562608733903,-5.677646779914101,-5.374067097336522,12.866832,5.46723,15.573391,7.0166802,-13.487203,-7.7687907,7.120057,-14.961576,-3.7133298,8.431032,-9.035951,15.000033,-0.2719661,-1.3258427,3.6161768,-16.697672,18.713037,-10.57513,68.317375,-18.847616,13.005704,4.81827,-22.183998,-14.915177,14.3014765,64.829056,19.606106,11.972364,5.1531014
134,-2.955409049987793,2.626742124557495,77.49407958984375,1.8054636574091885,-5.669668064114475,-5.509421893882918,12.866359,5.3984065,15.709472,7.0148892,-13.494226,-7.736844,7.0110216,-15.005861,-3.55419,8.439604,-8.953521,15.000033,-0.28644285,-1.3235689,3.6132839,-16.722784,18.722565,-10.613601,68.33557,-18.887701,12.9930105,4.8043547,-22.173958,-14.926449,14.365919,64.78424,19.69107,11.933469,5.1447663
135,-2.9935405254364014,2.7062137126922607,77.49331665039062,1.818730464233754,-5.662487249494392,-5.650488385417743,12.867022,5.3261976,15.850389,7.012661,-13.501027,-7.7033134,6.9000473,-15.052653,-3.387148,8.445739,-8.869941,15.000033,-0.3034127,-1.3239906,3.6060205,-16.741795,18.736868,-10.6633415,68.34947,-18.945452,12.979448,4.794079,-22.152006,-14.947119,14.451904,64.72459,19.804514,11.893939,5.14248
136,-3.027770757675171,2.7841286659240723,77.49325561523438,1.839786012568935,-5.656958532597162,-5.797763623330582,12.869175,5.244461,15.995055,7.0121026,-13.510558,-7.653036,6.7862735,-15.107992,-3.2084498,8.455292,-8.791329,15.000033,-0.32087287,-1.3385179,3.5980537,-16.74973,18.751978,-10.696854,68.351585,-18.983665,12.966568,4.800127,-22.126055,-14.973027,14.532962,64.65069,19.918913,11.878389,5.1354246
137,-3.058865547180176,2.856013298034668,77.49405670166016,1.8716677673161315,-5.655085589397923,-5.947362941426977,12.875124,5.1499553,16.138636,7.0119953,-13.522489,-7.579049,6.6728654,-15.174343,-3.019673,8.4708185,-8.722234,15.000033,-0.34679642,-1.3744643,3.5833373,-16.745567,18.764603,-10.711602,68.34963,-18.998173,12.952405,4.833744,-22.096497,-14.9963455,14.611659,64.56843,20.0406,11.885366,5.118877
138,-3.0941498279571533,2.927462100982666,77.49210357666016,1.9105028601546992,-5.65563561982307,-6.100277664494324,12.883861,5.0468774,16.283218,7.0122523,-13.536054,-7.4904,6.55814,-15.247706,-2.8217897,8.490258,-8.658944,15.000033,-0.3842839,-1.4225568,3.564699,-16.722887,18.778152,-10.707854,68.33425,-18.999472,12.937699,4.885383,-22.064743,-15.0214205,14.70171,64.47709,20.17753,11.904759,5.0993004
139,-3.128931760787964,3.0124969482421875,77.49109649658203,1.9530642227002482,-5.655542617848888,-6.264502505325296,12.893484,4.9379983,16.438257,7.0121703,-13.551268,-7.3959045,6.438155,-15.324949,-2.611061,8.505885,-8.592184,15.000033,-0.41714135,-1.4748378,3.5433683,-16.699001,18.7886,-10.699887,68.31859,-18.997143,12.922572,4.9420457,-22.043394,-15.042075,14.793594,64.391304,20.310581,11.943096,5.074712
140,-3.164210081100464,3.0998284816741943,77.48820495605469,1.996504607463374,-5.651755307993819,-6.448111001106671,12.902041,4.826205,16.613634,7.0120068,-13.569099,-7.304455,6.3065906,-15.4024105,-2.383093,8.514393,-8.514859,15.000033,-0.42883015,-1.5226481,3.5226083,-16.686518,18.79449,-10.702488,68.30782,-19.002346,12.908234,4.9898214,-22.03953,-15.058128,14.883882,64.315445,20.428213,12.008468,5.043765
141,-3.203824996948242,3.1895670890808105,77.48563385009766,2.039539623958906,-5.6439496087238386,-6.653589444194573,12.909718,4.712826,16.812407,7.0108905,-13.589363,-7.2196546,6.1661024,-15.479595,-2.1377172,8.508032,-8.422304,15.000033,-0.42203853,-1.5576757,3.5062046,-16.671427,18.799002,-10.70945,68.28074,-19.020449,12.900773,5.0178967,-22.06069,-15.078639,14.988798,64.23641,20.53809,12.145028,5.0022683
142,-3.2535862922668457,3.2838258743286133,77.48107147216797,2.0838943113075423,-5.633548733082196,-6.8765449300416,12.917465,4.5962644,17.029596,7.0093813,-13.612482,-7.1353745,6.018839,-15.558967,-1.8767619,8.490419,-8.319196,15.000033,-0.40593573,-1.5830203,3.492526,-16.647411,18.802515,-10.712105,68.23572,-19.04489,12.898198,5.0339303,-22.09747,-15.111153,15.1133585,64.14745,20.650087,12.336752,4.952991
143,-3.296565294265747,3.387587070465088,77.47591400146484,2.130576121646888,-5.619934739745418,-7.114436863155779,12.922482,4.475201,17.2613,7.0082583,-13.636211,-7.049691,5.8587193,-15.638603,-1.5999473,8.472831,-8.210326,15.000033,-0.37943396,-1.6019667,3.4844427,-16.61865,18.802351,-10.711111,68.18006,-19.068573,12.892731,5.0504956,-22.131083,-15.156816,15.242519,64.055244,20.756563,12.501145,4.9085336
144,-3.33601450920105,3.4847936630249023,77.47412109375,2.1806059517315446,-5.602442356527337,-7.364523182691872,12.9237,4.3478417,17.50446,7.00548,-13.657963,-6.957051,5.6812263,-15.720836,-1.3068151,8.4628,-8.098383,15.000033,-0.34293106,-1.6244411,3.4771643,-16.594492,18.79703,-10.71271,68.13438,-19.086864,12.8750515,5.083393,-22.153109,-15.20127,15.362638,63.98472,20.849056,12.555382,4.875083
145,-3.380176067352295,3.585369110107422,77.47128295898438,2.2360971315391764,-5.580093952226744,-7.631564911701334,12.918804,4.2113576,17.763031,7.003971,-13.678526,-6.8547673,5.477994,-15.804138,-0.99083704,8.470295,-7.987067,15.000033,-0.2982983,-1.6481843,3.4708598,-16.564924,18.783983,-10.708206,68.0919,-19.091944,12.838456,5.1433735,-22.15779,-15.248371,15.492417,63.94394,20.938576,12.434523,4.8548417
146,-3.4258272647857666,3.690772771835327,77.46697998046875,2.2959903991108708,-5.55338733639926,-7.915075405587041,12.915637,4.0651693,18.037264,6.990417,-13.692296,-6.7456727,5.2550836,-15.890601,-0.65435594,8.485524,-7.8719153,15.000033,-0.24196741,-1.6773965,3.4639497,-16.537151,18.767412,-10.706567,68.056984,-19.090567,12.7882805,5.2221265,-22.157646,-15.286731,15.622437,63.93444,21.018404,12.194336,4.8417153
147,-3.4825849533081055,3.803086757659912,77.46286010742188,2.3560707978973,-5.524061374874439,-8.204809758629407,12.897909,3.9212992,18.31767,6.9992843,-13.7172165,-6.6343637,5.021204,-15.975782,-0.30947313,8.504716,-7.7547016,15.000033,-0.19269136,-1.6883752,3.4598572,-16.499931,18.732569,-10.684918,68.0178,-19.086468,12.735322,5.3004484,-22.15879,-15.34705,15.761953,63.923115,21.09021,11.943374,4.836997
148,-3.550569772720337,3.9237327575683594,77.45836639404297,2.413581336601095,-5.494245918223853,-8.490422066031652,12.881553,3.7795465,18.596478,6.9964414,-13.734498,-6.52497,4.7916703,-16.056965,0.029738389,8.512483,-7.630787,15.000033,-0.1436821,-1.7069845,3.4556937,-16.477863,18.705194,-10.676669,67.993095,-19.101675,12.692941,5.3607025,-22.170643,-15.38855,15.845227,63.90981,21.111788,11.780474,4.837588
149,-3.604520797729492,4.033149719238281,77.45576477050781,2.4666520010819775,-5.46616947392913,-8.769415877114007,12.863739,3.6442106,18.872066,6.993229,-13.751221,-6.4195604,4.5710235,-16.13486,0.3603037,8.508028,-7.5011473,15.000033,-0.107778646,-1.7247556,3.4538674,-16.457151,18.68388,-10.661134,67.970345,-19.139618,12.667139,5.3920965,-22.204878,-15.419739,15.881724,63.89188,21.076698,11.743327,4.847634
150,-3.660273551940918,4.140059471130371,77.45330047607422,2.517227926097164,-5.438068792351117,-9.047043233445551,12.842793,3.51214,19.148502,6.9904165,-13.767299,-6.3155327,4.352403,-16.209291,0.6885677,8.496095,-7.3663955,15.000033,-0.08041816,-1.7462358,3.4531622,-16.436457,18.672672,-10.643218,67.949005,-19.196476,12.651413,5.4048295,-22.254887,-15.435365,15.881986,63.878174,20.996122,11.772858,4.865953
151,-3.73032546043396,4.257041931152344,77.45067596435547,2.5683042674161607,-5.4062819656734185,-9.32548721653542,12.815357,3.3799827,19.426151,6.985495,-13.779532,-6.210329,4.127149,-16.283043,1.0189501,8.480831,-7.226533,15.000033,-0.060694654,-1.7709134,3.451037,-16.41515,18.667242,-10.627571,67.93104,-19.258236,12.637741,5.4116907,-22.309418,-15.443079,15.8696995,63.86207,20.903046,11.831108,4.882275
152,-3.8008642196655273,4.371929168701172,77.44647979736328,2.6223041432422867,-5.366575481445438,-9.606613889675385,12.776222,3.244612,19.70497,6.981597,-13.789024,-6.101275,3.886805,-16.357248,1.3550445,8.467496,-7.082998,15.000033,-0.044867914,-1.7987263,3.4484262,-16.39178,18.663706,-10.61626,67.9133,-19.306955,12.618717,5.4238286,-22.363045,-15.448381,15.855011,63.84293,20.8208,11.880019,4.890818
153,-3.8762192726135254,4.490092754364014,77.44364929199219,2.682155374035017,-5.320920942071263,-9.891313482406312,12.726496,3.1023118,19.984386,6.9769497,-13.792684,-5.984108,3.631601,-16.43735,1.7004646,8.457144,-6.9368653,15.000033,-0.031727284,-1.8298622,3.4477305,-16.369404,18.661242,-10.612819,67.89992,-19.330086,12.589811,5.442936,-22.410353,-15.452346,15.838462,63.814556,20.757933,11.9198675,4.8838053
154,-3.9475717544555664,4.602293968200684,77.4415283203125,2.746934745419145,-5.269023095398875,-10.17990746082901,12.667755,2.9540544,20.266405,6.9705434,-13.791876,-5.8612065,3.3585672,-16.52,2.055327,8.456988,-6.7922225,15.000033,-0.014358138,-1.8622785,3.45122,-16.339434,18.659302,-10.619221,67.87347,-19.33843,12.557401,5.465044,-22.467272,-15.456156,15.798193,63.79159,20.689217,11.968409,4.873812
155,-4.020882606506348,4.7144012451171875,77.43965148925781,2.8093328330100173,-5.208760747616987,-10.468558557424267,12.595286,2.8108287,20.549118,6.96575,-13.788253,-5.741057,3.078824,-16.597761,2.4083662,8.44337,-6.6348624,15.000033,0.00239562,-1.9002924,3.4482195,-16.324272,18.66046,-10.639561,67.86699,-19.359083,12.524883,5.489062,-22.506746,-15.456886,15.753283,63.75135,20.625116,12.011705,4.862536
156,-4.096881866455078,4.827692985534668,77.4396743774414,2.8645526645552724,-5.136023685268391,-10.756274026844347,12.506864,2.6794481,20.833769,6.95845,-13.780371,-5.6316395,2.7919445,-16.662306,2.7534907,8.410244,-6.4593797,15.000033,0.0074761813,-1.939662,3.433631,-16.309776,18.66397,-10.655297,67.86794,-19.409378,12.498981,5.5148935,-22.540325,-15.454827,15.723806,63.70582,20.565231,12.03592,4.860958
157,-4.184686660766602,4.9394612312316895,77.43856048583984,2.912419234434109,-5.046525334962588,-11.046802849526127,12.396231,2.5610614,21.12528,6.952169,-13.769751,-5.5351114,2.493758,-16.71301,3.093139,8.351956,-6.259831,15.000033,0.011151892,-1.9881017,3.4040024,-16.301353,18.676786,-10.674253,67.87785,-19.504974,12.484118,5.543528,-22.564863,-15.446874,15.696713,63.653915,20.505445,12.032137,4.8837404
158,-4.27081298828125,5.0438666343688965,77.44094848632812,2.955150818596239,-4.943443854004579,-11.339716769563017,12.267379,2.4517736,21.421999,6.945121,-13.754892,-5.4471188,2.1862702,-16.75456,3.4294326,8.271817,-6.0397534,15.000033,-0.00063302036,-2.036512,3.3628795,-16.286108,18.693169,-10.678173,67.888985,-19.62635,12.47582,5.573449,-22.590187,-15.436426,15.693031,63.59918,20.456068,12.009404,4.9197474
159,-4.362912178039551,5.152411937713623,77.44367980957031,2.9914752630042813,-4.834570163101818,-11.625744715619412,12.128274,2.3536227,21.71311,6.9375086,-13.736574,-5.3663907,1.8787085,-16.785471,3.7540202,8.180308,-5.8105726,15.000033,-0.032152925,-2.0907812,3.320031,-16.25489,18.72593,-10.679406,67.88459,-19.760492,12.472059,5.6004086,-22.620289,-15.413209,15.695578,63.545685,20.40314,11.980592,4.9485793
160,-4.447935581207275,5.252252578735352,77.4466323852539,3.0197697200054185,-4.727365017316363,-11.895909674878459,11.985948,2.2697942,21.988142,6.930182,-13.715341,-5.2919054,1.5814183,-16.80691,4.0587306,8.084601,-5.581328,15.000033,-0.08420661,-2.152644,3.2808206,-16.216944,18.776316,-10.691498,67.87389,-19.88985,12.466256,5.621592,-22.655117,-15.373037,15.692304,63.49684,20.33805,11.959204,4.947556
161,-4.537300109863281,5.344422817230225,77.45001220703125,3.0363209511318283,-4.622137355576632,-12.149227683177175,11.841391,2.2046573,22.246561,6.921741,-13.69132,-5.2246733,1.2962005,-16.811152,4.3465834,7.978994,-5.339152,15.000033,-0.14512743,-2.2042387,3.2470737,-16.187336,18.815395,-10.717622,67.86716,-19.991201,12.45738,5.651474,-22.681614,-15.338497,15.6771345,63.441586,20.265541,11.948426,4.9031773
162,-4.638317584991455,5.435572624206543,77.45626831054688,3.043400469123008,-4.515176919623731,-12.389909852550675,11.689666,2.1561491,22.493313,6.914301,-13.664602,-5.1649723,1.0187166,-16.801933,4.6199293,7.859389,-5.0821753,15.000033,-0.22513679,-2.2721052,3.2145514,-16.14824,18.885584,-10.755285,67.84691,-20.088537,12.45274,5.680879,-22.71527,-15.271537,15.651258,63.39679,20.180687,11.937628,4.827517
163,-4.732745170593262,5.525942325592041,77.46604919433594,3.0472454656710433,-4.409403048433956,-12.61768456445044,11.53406,2.1160467,22.726267,6.9090877,-13.635292,-5.109971,0.7624386,-16.79272,4.866222,7.713994,-4.8267965,15.000033,-0.31990877,-2.3452806,3.180906,-16.108582,18.962246,-10.810416,67.83456,-20.207752,12.441448,5.696947,-22.750135,-15.198108,15.621236,63.352993,20.082535,11.932514,4.745243
164,-4.825028419494629,5.601897716522217,77.47530364990234,3.0568692166326046,-4.306731771911448,-12.83224834443578,11.378583,2.073174,22.943624,6.903878,-13.601071,-5.0569787,0.5024179,-16.797647,5.0847116,7.606081,-4.6282682,15.000033,-0.42413148,-2.4337094,3.1441529,-16.075401,19.050255,-10.903,67.844086,-20.38743,12.416917,5.6817756,-22.781013,-15.120113,15.5800295,63.303577,19.963419,11.936572,4.680912
165,-4.922551155090332,5.665225028991699,77.4839859008789,3.081363437814811,-4.1982093250064665,-13.034476684948107,11.210132,2.0185835,23.144943,6.9040484,-13.562506,-5.004007,0.19314922,-16.80827,5.3266015,7.5973153,-4.521749,15.000033,-0.5378002,-2.5502253,3.0958915,-16.052694,19.154572,-11.045684,67.87941,-20.640516,12.377483,5.6356907,-22.801876,-15.03768,15.513512,63.241272,19.814358,11.948585,4.644036
166,-5.022718906402588,5.728383541107178,77.49102020263672,3.1119534759436336,-4.086077490651013,-13.224050701331647,11.033862,1.9610443,23.331215,6.9039207,-13.517966,-4.953075,-0.1074224,-16.825338,5.5660563,7.573607,-4.4355154,15.000033,-0.6610825,-2.6859987,3.0415525,-16.036535,19.275316,-11.229965,67.93067,-20.94854,12.327929,5.565197,-22.811497,-14.949337,15.423886,63.164753,19.640182,11.967719,4.622026
167,-5.120278358459473,5.7963457107543945,77.49638366699219,3.135903707106307,-3.987838765376077,-13.399374403708004,10.87146,1.9130309,23.502829,6.9032545,-13.471995,-4.9063582,-0.41445208,-16.856497,5.728521,7.6326966,-4.4233003,15.000033,-0.7925788,-2.823619,2.9958627,-16.018559,19.408054,-11.432551,67.990486,-21.293789,12.270807,5.461736,-22.822517,-14.858849,15.341343,63.08711,19.459408,11.998173,4.6039305
168,-5.209999084472656,5.861971855163574,77.50039672851562,3.1397726784173092,-3.921136187294429,-13.559203475506193,10.745724,1.8876896,23.660297,6.898478,-13.426966,-4.8663015,-0.70338506,-16.914633,5.7280316,7.7896905,-4.4947805,15.000033,-0.9304288,-2.9425445,2.9749238,-15.990039,19.545467,-11.63113,68.0511,-21.65983,12.208559,5.3173547,-22.846014,-14.771907,15.29757,63.019276,19.293,12.04405,4.579592
169,-5.302420139312744,5.928933143615723,77.50640869140625,3.1193462082529515,-3.8936294876815594,-13.695854518142717,10.663448,1.8882707,23.797157,6.8904753,-13.38532,-4.834153,-1.0279475,-16.980156,5.632955,8.159008,-4.700055,15.000033,-1.0814651,-3.0363512,2.9871998,-15.954605,19.686642,-11.833474,68.12053,-22.06991,12.140374,5.101422,-22.883236,-14.693698,15.309453,62.96212,19.144083,12.114916,4.5493445
170,-5.3887619972229,5.995969295501709,77.51800537109375,3.0833614725190293,-3.894964493718569,-13.812398042227258,10.611683,1.906657,23.914993,6.8801923,-13.344514,-4.808315,-1.3545322,-17.057825,5.450465,8.642101,-4.990454,15.000033,-1.2437696,-3.11494,3.0229826,-15.91622,19.831837,-12.046906,68.20057,-22.523623,12.066305,4.8276987,-22.927036,-14.624659,15.358238,62.90764,19.002987,12.206622,4.518286
171,-5.470986843109131,6.0518083572387695,77.5382308959961,3.0390571415258947,-3.9162293894143145,-13.922930465893861,10.587291,1.9356112,24.02625,6.8649054,-13.303423,-4.7864923,-1.6326565,-17.194454,5.0345373,9.149768,-5.3426266,15.000033,-1.4013382,-3.1832001,3.0716162,-15.868602,19.973059,-12.245559,68.27626,-22.964777,11.989109,4.555829,-22.975964,-14.562282,15.42145,62.85476,18.87397,12.302018,4.4826856
172,-5.544715404510498,6.0992512702941895,77.55872344970703,2.9906242101428044,-3.9500405850793068,-14.040821743160402,10.584263,1.9737549,24.141987,6.849985,-13.264134,-4.7669234,-1.7729686,-17.431042,4.2250853,9.525103,-5.699857,15.000033,-1.539918,-3.2415166,3.1228242,-15.806274,20.098911,-12.403365,68.33588,-23.337782,11.908767,4.347217,-23.033237,-14.50373,15.481096,62.807587,18.76413,12.383872,4.4375095
173,-5.61956787109375,6.1463093757629395,77.57147979736328,2.938193621785541,-4.00020565484723,-14.167105264080433,10.610503,2.020142,24.262928,6.8293166,-13.223222,-4.751711,-1.7122935,-17.809235,2.8235822,9.690488,-6.062902,15.000033,-1.6566133,-3.288184,3.1792579,-15.731874,20.197609,-12.516641,68.39149,-23.627705,11.81504,4.2173977,-23.09992,-14.448779,15.53057,62.768,18.677917,12.446649,4.3715606
174,-5.6967453956604,6.1888227462768555,77.58466339111328,2.8729421158403405,-4.070346431186,-14.300680417559875,10.666034,2.0879896,24.38898,6.810358,-13.184892,-4.744534,-1.5002527,-18.269482,0.9675699,9.746132,-6.4600983,14.911883,-1.7514248,-3.3157983,3.2449098,-15.652609,20.27201,-12.602173,68.452545,-23.864994,11.708405,4.13622,-23.174519,-14.397025,15.579022,62.736614,18.61057,12.49946,4.2893057
175,-5.7616190910339355,6.218568801879883,77.6058349609375,2.7949697838002403,-4.151784822413239,-14.44519716445086,10.735063,2.1793687,24.523384,6.8086386,-13.158631,-4.7410836,-1.2365994,-18.743708,-0.9964887,9.831488,-6.892213,14.769997,-1.8162285,-3.3145971,3.310525,-15.577647,20.31268,-12.659851,68.51334,-24.051294,11.602029,4.0995445,-23.247917,-14.362532,15.62851,62.708775,18.55163,12.548093,4.2111287
176,-5.820250988006592,6.244939804077148,77.62632751464844,2.7104184200189794,-4.233224624372226,-14.603094007420424,10.811798,2.2850955,24.668816,6.8072505,-13.135635,-4.737167,-1.1264728,-19.176418,-2.6862838,10.270005,-7.460377,14.5363,-1.8536855,-3.2973237,3.3625278,-15.500944,20.341335,-12.689786,68.55158,-24.197203,11.514314,4.0977793,-23.321907,-14.334338,15.681309,62.691364,18.485771,12.596148,4.1560707
177,-5.876967430114746,6.266334533691406,77.65675354003906,2.5872716030772405,-4.318618441443044,-14.775441240969583,10.900403,2.4422371,24.824835,6.8107376,-13.119406,-4.7301955,-1.0250773,-19.54108,-4.177524,10.780486,-8.007942,14.128371,-1.8619504,-3.2316916,3.4083147,-15.415246,20.356945,-12.678759,68.55222,-24.289295,11.449948,4.1571016,-23.383165,-14.312766,15.727048,62.663868,18.393955,12.6435795,4.132821
178,-5.935153007507324,6.287075519561768,77.6851806640625,2.441171240557614,-4.410486609886735,-14.95775281819968,11.0031805,2.6308458,24.987877,6.814897,-13.10673,-4.7207384,-0.92289,-19.892443,-5.6040382,11.37256,-8.576657,13.620277,-1.8548769,-3.1332886,3.4480038,-15.304416,20.36205,-12.619409,68.51097,-24.327444,11.401866,4.2713456,-23.454964,-14.292687,15.781141,62.64988,18.29264,12.686434,4.129367
179,-5.978495121002197,6.301074504852295,77.71305847167969,2.2997088797019454,-4.50641817713506,-15.146168967424375,11.116461,2.8187304,25.157402,6.8188343,-13.096651,-4.7175813,-0.810032,-20.215916,-6.8106833,11.975167,-9.126405,13.127228,-1.8264269,-3.0301936,3.4799783,-15.201642,20.35769,-12.550698,68.462585,-24.343365,11.364844,4.385533,-23.532112,-14.280303,15.84405,62.654545,18.206936,12.72929,4.136766
180,-6.023680210113525,6.311275959014893,77.736572265625,2.189034863231444,-4.603837260151066,-15.336831260659462,11.23699,2.9748256,25.332743,6.8184834,-13.085273,-4.729582,-0.68428296,-20.494368,-7.6413794,12.524174,-9.614474,12.763878,-1.778468,-2.9514163,3.501827,-15.125319,20.351105,-12.502225,68.428246,-24.368473,11.335178,4.444583,-23.623692,-14.275471,15.926764,62.696236,18.165491,12.7749605,4.145342
181,-6.067110061645508,6.312855243682861,77.75466918945312,2.1092737811398887,-4.701676855794621,-15.530949046118524,11.365572,3.0987723,25.517628,6.8140497,-13.071902,-4.7634296,-0.53379935,-20.708023,-8.023387,12.97022,-10.002542,12.5717535,-1.7527592,-2.8780632,3.505171,-15.021221,20.33885,-12.418711,68.37139,-24.386755,11.311478,4.427964,-23.787186,-14.276986,16.115633,62.829834,18.20998,12.8225355,4.1449337
182,-6.1125946044921875,6.309211254119873,77.7608642578125,2.0483475532348856,-4.801452995125802,-15.730119304925694,11.503921,3.204574,25.711226,6.8073378,-13.058699,-4.8129616,-0.37639096,-20.86489,-8.049164,13.370099,-10.32267,12.483784,-1.6902455,-2.8222508,3.500019,-14.947942,20.329298,-12.363658,68.32232,-24.403988,11.29784,4.3657904,-23.951418,-14.29027,16.30945,62.986465,18.290155,12.873631,4.152377
183,-6.154799461364746,6.2948479652404785,77.76515197753906,2.009711713414067,-4.904161307567936,-15.929640328123662,11.649228,3.2883892,25.905287,6.7982697,-13.046028,-4.868223,-0.22079884,-20.988527,-7.8224463,13.757275,-10.615391,12.452883,-1.6149478,-2.7843432,3.491718,-14.8913,20.322563,-12.320673,68.27549,-24.433275,11.295296,4.2795424,-24.113007,-14.310336,16.501204,63.15293,18.392508,12.925772,4.165474
184,-6.1970319747924805,6.275814056396484,77.76494598388672,1.9973482772064561,-5.010841391064387,-16.124658247416665,11.798293,3.3459723,26.091139,6.7888937,-13.036257,-4.9190245,-0.075175226,-21.10361,-7.446742,14.166,-10.921591,12.432715,-1.5507797,-2.7636337,3.4866688,-14.837897,20.317244,-12.272304,68.22524,-24.486551,11.304787,4.1901903,-24.262848,-14.335595,16.686983,63.30734,18.50662,12.97706,4.1817875
185,-6.239683628082275,6.252528667449951,77.75749206542969,2.014618835894806,-5.1246795912164425,-16.317327973890404,11.955366,3.374158,26.270498,6.7778206,-13.029804,-4.964853,0.054240692,-21.202486,-6.872521,14.607629,-11.251242,12.417571,-1.4831237,-2.7710686,3.487382,-14.808728,20.315533,-12.2348385,68.18734,-24.591597,11.331873,4.087868,-24.399063,-14.359381,16.83776,63.45645,18.627668,13.034073,4.2087154
186,-6.281640529632568,6.223097801208496,77.74507904052734,2.062975075877422,-5.245053219594309,-16.51036027343678,12.107528,3.3778014,26.44672,6.797473,-13.043411,-5.010092,0.17327742,-21.277292,-6.069808,15.067516,-11.58536,12.432047,-1.4102508,-2.806606,3.4904573,-14.795239,20.317944,-12.205586,68.15332,-24.733253,11.374596,3.967352,-24.532566,-14.381437,16.972399,63.613934,18.764511,13.094769,4.242727
187,-6.319568157196045,6.185975074768066,77.72848510742188,2.1335350140764513,-5.3649049281766406,-16.69755271319591,12.252742,3.3613496,26.613167,6.8322463,-13.066668,-5.0526857,0.29737318,-21.346098,-5.1758676,15.527615,-11.915615,12.471385,-1.3466398,-2.8607378,3.490988,-14.786247,20.324684,-12.17634,68.121216,-24.863823,11.421361,3.855666,-24.647907,-14.403313,17.102829,63.755093,18.900364,13.144489,4.271372
188,-6.362842559814453,6.145171642303467,77.70772552490234,2.214021122398789,-5.477793726505319,-16.871649651690113,12.388995,3.3339653,26.762234,6.865348,-13.088137,-5.090785,0.43379316,-21.424105,-4.326439,15.98398,-12.240671,12.5307045,-1.2733536,-2.936328,3.4837906,-14.814693,20.328814,-12.176718,68.12555,-24.932507,11.457288,3.7867134,-24.711922,-14.410839,17.169016,63.855164,18.978666,13.167225,4.2848163
189,-6.404007911682129,6.096960067749023,77.68187713623047,2.311351498991023,-5.5808785255048265,-17.031591643994073,12.512647,3.2876158,26.891382,6.8970227,-13.107006,-5.1214747,0.58629394,-21.523254,-3.5200615,16.429644,-12.562384,12.624208,-1.2325585,-3.02135,3.4603772,-14.838343,20.337162,-12.17508,68.141525,-24.929808,11.481532,3.7716575,-24.752588,-14.420692,17.277899,63.934616,19.053331,13.147347,4.2736526
190,-6.4427971839904785,6.043172836303711,77.6519775390625,2.4269061174993243,-5.677802471209966,-17.180567566013895,12.629588,3.2217844,27.004406,6.925361,-13.123441,-5.1466107,0.75196964,-21.629972,-2.6991808,16.86587,-12.880395,12.748945,-1.2205658,-3.119438,3.4291039,-14.847149,20.352747,-12.15859,68.14909,-24.873526,11.502109,3.7916257,-24.766365,-14.430044,17.408361,63.984886,19.11976,13.09818,4.246146
191,-6.479435920715332,5.981250286102295,77.61727905273438,2.555674325207405,-5.7706578603310845,-17.322010209823627,12.743322,3.1444275,27.106369,6.950046,-13.138435,-5.170531,0.92460704,-21.747885,-1.9044302,17.296408,-13.186185,12.875014,-1.1972233,-3.2353044,3.3950543,-14.885621,20.363138,-12.161013,68.181305,-24.787498,11.516958,3.8257442,-24.742361,-14.431436,17.470657,63.997044,19.138683,13.044488,4.2110157
192,-6.5141706466674805,5.916372299194336,77.58289337158203,2.6924383009729485,-5.860804388055892,-17.45870126345315,12.855005,3.0633893,27.201788,6.973342,-13.1540165,-5.197404,1.0993795,-21.879484,-1.1774262,17.719694,-13.467904,12.972339,-1.1989583,-3.353354,3.350626,-14.911017,20.380514,-12.160118,68.21115,-24.72302,11.530855,3.8389883,-24.689543,-14.428109,17.53228,63.957737,19.16533,13.010338,4.1575804
193,-6.549086570739746,5.844997882843018,77.54708862304688,2.8351248640581295,-5.950268658543518,-17.589197636084144,12.966834,2.9818664,27.288343,6.994818,-13.170292,-5.2272453,1.2734182,-22.034222,-0.5465524,18.162748,-13.73935,13.014854,-1.2132963,-3.4760666,3.3035576,-14.9318,20.4045,-12.159922,68.238846,-24.672579,11.5388775,3.8321974,-24.600065,-14.417399,17.54112,63.84982,19.161015,13.003946,4.0850334
194,-6.58744478225708,5.769991397857666,77.50646209716797,2.98773649335919,-6.037684622173092,-17.7126317947218,13.077114,2.8943408,27.364513,7.0162597,-13.186866,-5.2580457,1.4493748,-22.210617,0.017551277,18.614681,-13.998831,13.024617,-1.2365828,-3.6078458,3.2509568,-14.958857,20.431225,-12.1677065,68.2762,-24.623207,11.54065,3.818522,-24.472301,-14.400543,17.507769,63.682938,19.132198,13.011841,3.9943068
195,-6.6201934814453125,5.68074893951416,77.46870422363281,3.1518008931312855,-6.1198482857333465,-17.833482147717,13.183569,2.7977157,27.437176,7.0326447,-13.202246,-5.29151,1.6291974,-22.390543,0.5602322,19.022045,-14.214097,13.042727,-1.26089,-3.755234,3.1928265,-14.991915,20.468603,-12.187498,68.31491,-24.580736,11.548379,3.7917907,-24.321314,-14.37389,17.44293,63.490852,19.091728,13.0272255,3.9043915
196,-6.653778076171875,5.587839126586914,77.42843627929688,3.329927557074137,-6.193910752853005,-17.956575435893456,13.284582,2.6875384,27.513552,7.0440936,-13.214413,-5.32911,1.8163973,-22.557379,1.1267263,19.330997,-14.352993,13.110839,-1.2865039,-3.909634,3.126682,-15.029156,20.503054,-12.203269,68.35524,-24.538818,11.569069,3.7469435,-24.173523,-14.348472,17.384224,63.316296,19.068232,13.044404,3.8320143
197,-6.682373523712158,5.4887847900390625,77.38396453857422,3.5194204578629167,-6.262985432637484,-18.079109255614238,13.384573,2.566449,27.593765,7.0493784,-13.222321,-5.3717256,2.0133033,-22.701824,1.7315823,19.54807,-14.425876,13.211792,-1.3134346,-4.080754,3.0557058,-15.066678,20.555498,-12.229881,68.39181,-24.51676,11.60385,3.6635096,-24.023996,-14.313141,17.320133,63.15657,19.056803,13.058411,3.788806
198,-6.7203545570373535,5.385972499847412,77.33727264404297,3.720292658478291,-6.327268112075457,-18.19971216690419,13.482707,2.4354057,27.67474,7.0497994,-13.226934,-5.4183493,2.216081,-22.837181,2.3512874,19.698877,-14.444586,13.332858,-1.3494681,-4.2561,2.9793437,-15.101394,20.610174,-12.253871,68.42668,-24.50407,11.646607,3.5517092,-23.867044,-14.278495,17.258402,62.99335,19.057327,13.074964,3.7623522
199,-6.758345603942871,5.278606414794922,77.28449249267578,3.938376688158933,-6.3790688236519,-18.325939684324382,13.567987,2.2882645,27.75807,7.0492663,-13.2308855,-5.4680257,2.4208553,-22.971807,2.970945,19.754908,-14.383105,13.521589,-1.3836273,-4.4456506,2.8957865,-15.137515,20.667408,-12.267661,68.449455,-24.477427,11.706927,3.4441853,-23.711546,-14.242609,17.193832,62.83969,19.066065,13.0989065,3.739096
200,-6.7940263748168945,5.166497230529785,77.2322998046875,4.17985466225542,-6.410434202802211,-18.465188328302794,13.632786,2.1171381,27.845705,7.0456243,-13.234176,-5.519765,2.6191125,-23.117882,3.5788536,19.695902,-14.215925,13.825757,-1.4079182,-4.6505337,2.8015523,-15.179479,20.713705,-12.254703,68.455215,-24.407461,11.79182,3.3761673,-23.568268,-14.210292,17.131014,62.710735,19.08382,13.135612,3.7045727
201,-6.8323283195495605,5.04536247253418,77.177001953125,4.4560845685647505,-6.411526483276619,-18.616603335356245,13.662458,1.9092817,27.93269,7.043356,-13.239681,-5.5684376,2.8079016,-23.271967,4.22936,19.49776,-13.859447,14.289733,-1.419758,-4.882858,2.687226,-15.235356,20.745579,-12.208235,68.44086,-24.278837,11.918563,3.3671076,-23.437145,-14.180997,17.06104,62.603436,19.108635,13.203843,3.6490233
202,-6.877388000488281,4.921436786651611,77.11968231201172,4.760292732015785,-6.388612809006109,-18.77688028683299,13.667662,1.6718329,28.019882,7.039691,-13.2455845,-5.6162024,2.9883592,-23.430813,4.914848,19.185825,-13.356885,14.87781,-1.4255338,-5.1418467,2.5571275,-15.297885,20.77491,-12.134813,68.40783,-24.10795,12.078912,3.3941424,-23.31946,-14.144047,16.98285,62.519962,19.137163,13.293673,3.5815413
203,-6.919803619384766,4.779254913330078,77.0652084350586,5.010664322425903,-6.368211061413125,-18.987444309286168,13.6902895,1.5208316,28.155891,7.046949,-13.253061,-5.6994286,3.1948454,-23.453491,5.559921,18.741455,-12.834641,15.000033,-1.3856909,-5.339312,2.4443862,-15.360699,20.7919,-12.053194,68.368744,-23.92065,12.2376795,3.4333005,-23.20495,-14.113455,16.916908,62.456203,19.180407,13.369974,3.514759
204,-6.981668472290039,4.645770072937012,76.98095703125,5.243609265129469,-6.358896902582996,-19.216762165740036,13.736962,1.3970451,28.31444,7.0507665,-13.255109,-5.8036437,3.411864,-23.487047,6.01475,18.241877,-12.48075,15.000033,-1.3368679,-5.5109572,2.3541064,-15.413773,20.805534,-11.978923,68.33053,-23.743933,12.365068,3.4555802,-23.100355,-14.083868,16.87174,62.427483,19.23465,13.397808,3.4651694
205,-7.041447639465332,4.50576114654541,76.90471649169922,5.469106870383602,-6.357729310071209,-19.466626799457362,13.805706,1.2883024,28.498894,7.047866,-13.250633,-5.934734,3.6558774,-23.575912,6.1856084,17.616507,-12.337066,15.000033,-1.2734165,-5.66455,2.2819216,-15.46234,20.81382,-11.917603,68.3015,-23.581324,12.451206,3.4460032,-22.994547,-14.0621195,16.851433,62.430733,19.303123,13.353214,3.4431846
206,-7.087369918823242,4.353950023651123,76.85089874267578,5.6931420896182505,-6.356680861729219,-19.736150012482728,13.884539,1.1875068,28.70504,7.0402575,-13.240684,-6.0865173,3.9199615,-23.696917,6.157431,16.86297,-12.308556,15.000033,-1.1986489,-5.8051877,2.2220693,-15.498585,20.817533,-11.852984,68.26244,-23.41624,12.514979,3.4204178,-22.898636,-14.047442,16.846888,62.46935,19.378006,13.259903,3.4420235
207,-7.133858680725098,4.201252460479736,76.80290222167969,5.907722165890385,-6.361895568594654,-20.01741873767304,13.978786,1.0992639,28.924828,7.025978,-13.22388,-6.2425876,4.164251,-23.813143,6.0734267,16.130257,-12.3575535,15.000033,-1.1108953,-5.927263,2.1801324,-15.536089,20.816786,-11.812023,68.22687,-23.265593,12.563177,3.4022532,-22.807114,-14.042854,16.85682,62.527264,19.476162,13.155712,3.4443076
208,-7.177918434143066,4.052249908447266,76.75411987304688,6.103445036458654,-6.381647861086399,-20.300677088470128,14.094142,1.0298239,29.14806,7.0044394,-13.199399,-6.3866105,4.345977,-23.891254,6.073462,15.579358,-12.456053,15.000033,-1.0453469,-6.013682,2.1641395,-15.550451,20.809513,-11.758337,68.17885,-23.118858,12.6039715,3.4116025,-22.745707,-14.041537,16.91019,62.609398,19.60739,13.076894,3.4303691
209,-7.230896472930908,3.9081718921661377,76.70161437988281,6.285481699155539,-6.418742245845372,-20.590263018384775,14.236611,0.9709151,29.37837,6.9700346,-13.16576,-6.5131183,4.427507,-23.93596,6.1932955,15.300307,-12.650247,15.000033,-0.99449575,-6.062077,2.1742928,-15.540932,20.791273,-11.720177,68.12075,-22.996777,12.635635,3.468096,-22.729116,-14.050644,17.025532,62.741753,19.800213,13.029563,3.3964162
210,-7.282896518707275,3.76574444770813,76.65616607666016,6.455295358704005,-6.469556706015462,-20.888867251948895,14.402594,0.92355657,29.61894,6.9248466,-13.124596,-6.63149,4.4382157,-23.96044,6.3567357,15.198512,-12.941891,15.000033,-0.93927443,-6.0826683,2.2096372,-15.529112,20.76491,-11.70911,68.0662,-22.896606,12.655518,3.555998,-22.731264,-14.070984,17.17265,62.903328,20.033842,12.99589,3.353758
211,-7.330810070037842,3.618189811706543,76.62983703613281,6.5949709930885305,-6.5329571023907835,-21.181912542923904,14.58658,0.90935713,29.85593,6.868982,-13.072598,-6.7476344,4.433842,-23.943642,6.533153,15.165851,-13.242989,15.000033,-0.89231265,-6.0628924,2.2659032,-15.509068,20.731104,-11.700885,68.00636,-22.799229,12.667822,3.6491594,-22.738827,-14.100233,17.324919,63.064,20.272486,12.974544,3.3050597
212,-7.37939977645874,3.467273235321045,76.61715698242188,6.688966560200506,-6.608732570892449,-21.455749611756517,14.779709,0.9500211,30.077147,6.814607,-13.008943,-6.867059,4.471491,-23.869236,6.694679,15.092217,-13.465218,15.000033,-0.86783487,-5.9739394,2.3387208,-15.477425,20.664503,-11.661935,67.941025,-22.681055,12.672272,3.7257962,-22.736874,-14.15806,17.476427,63.187424,20.49245,12.966821,3.251504
213,-7.4295854568481445,3.316770076751709,76.60981750488281,6.727966804103151,-6.707977825485404,-21.71180192263854,14.994197,1.0557009,30.281273,6.7624655,-12.936318,-6.9897685,4.5812035,-23.725407,6.8414183,14.940563,-13.57753,15.000033,-0.8504287,-5.822573,2.4421618,-15.44444,20.57816,-11.596954,67.866516,-22.538652,12.676077,3.7662883,-22.707712,-14.233187,17.588284,63.25638,20.668802,12.9759245,3.18239
214,-7.485030651092529,3.1637656688690186,76.60595703125,6.721038753826404,-6.828281615249606,-21.955766790840574,15.230857,1.2141473,30.474823,6.7074423,-12.854108,-7.113138,4.725016,-23.522055,6.987368,14.778722,-13.633172,15.000033,-0.84594774,-5.617249,2.5727305,-15.400206,20.480848,-11.512299,67.778694,-22.383297,12.67701,3.7863438,-22.66987,-14.317836,17.684328,63.297745,20.821962,12.999802,3.099181
215,-7.541536331176758,3.007690668106079,76.60981750488281,6.681214960436841,-6.94902009021462,-22.179795535497558,15.458411,1.4155211,30.655727,6.6586003,-12.762725,-7.2394633,4.8671184,-23.277353,7.1220903,14.634442,-13.659664,15.000033,-0.85727787,-5.3724704,2.7067535,-15.356737,20.375067,-11.4403515,67.700134,-22.229294,12.666335,3.8138075,-22.635595,-14.410981,17.769554,63.32932,20.963003,13.029432,3.0294447
216,-7.605175018310547,2.855471611022949,76.62200927734375,6.6201181164084515,-7.048974500507207,-22.375785179774322,15.651946,1.6470846,30.82165,6.6104956,-12.65564,-7.3709526,4.971692,-23.007727,7.233748,14.534878,-13.68474,15.000033,-0.8840268,-5.104165,2.8200533,-15.330127,20.266308,-11.421267,67.65519,-22.0948,12.63596,3.8763793,-22.613989,-14.509971,17.844698,63.36705,21.103867,13.055428,3.0017354
217,-7.681637763977051,2.6980957984924316,76.64305877685547,6.533321721233072,-7.125429997830312,-22.54190561363599,15.809261,1.9131294,30.972328,6.562915,-12.530728,-7.5046744,5.033346,-22.709291,7.3186054,14.484961,-13.702395,15.000033,-0.93243355,-4.8070216,2.907876,-15.316395,20.156178,-11.473217,67.6458,-21.979425,12.574289,3.9966145,-22.610455,-14.614843,17.915096,63.423336,21.244297,13.073001,3.0317857
218,-7.750802993774414,2.5326056480407715,76.67138671875,6.417207180405736,-7.188862495206831,-22.68241668222732,15.94551,2.2160895,31.108904,6.5138216,-12.391001,-7.64074,5.0694494,-22.37622,7.383241,14.469757,-13.701766,15.000033,-0.999849,-4.4770527,2.9832368,-15.31039,20.043613,-11.574857,67.659966,-21.87667,12.489305,4.1544356,-22.617268,-14.725237,17.976385,63.48521,21.378525,13.0879545,3.102057
219,-7.819530487060547,2.360724687576294,76.6987533569336,6.284262949332714,-7.237119396971406,-22.798064632138832,16.056662,2.5431867,31.230045,6.4595466,-12.235392,-7.785097,5.0805774,-22.020458,7.429182,14.481899,-13.699214,15.000033,-1.0751556,-4.134686,3.047146,-15.3226795,19.931889,-11.700822,67.699615,-21.791887,12.402374,4.313178,-22.62895,-14.83855,18.01577,63.536255,21.506207,13.107452,3.1904478
220,-7.898656368255615,2.180665969848633,76.7279281616211,6.147618036817687,-7.268075052511927,-22.889967048378697,16.137642,2.88243,31.334557,6.40516,-12.071021,-7.9437375,5.066284,-21.657537,7.4593816,14.517111,-13.713147,15.000033,-1.1474512,-3.8012204,3.1005037,-15.363644,19.827091,-11.827325,67.76549,-21.732965,12.335191,4.435536,-22.639088,-14.949625,18.018015,63.558964,21.624512,13.138249,3.275112
221,-7.9901957511901855,1.9934842586517334,76.76008605957031,6.00550405973364,-7.271347965180043,-22.95847022417477,16.180979,3.2354517,31.425148,6.341536,-11.892157,-8.121798,5.0093017,-21.281082,7.4790697,14.587038,-13.749529,15.000033,-1.2176238,-3.478575,3.1348302,-15.438392,19.733232,-11.953746,67.86233,-21.702827,12.300383,4.517975,-22.653837,-15.055133,17.96893,63.551792,21.739077,13.193347,3.3595269
222,-8.082501411437988,1.8044044971466064,76.79252624511719,5.859168683945038,-7.253188100639434,-23.005415862371322,16.167686,3.618101,31.500479,6.3388314,-11.73552,-8.315099,4.915528,-20.893639,7.4884586,14.696167,-13.80223,15.000033,-1.2895062,-3.165448,3.154899,-15.537132,19.651037,-12.089457,67.98418,-21.697292,12.284393,4.5770807,-22.674948,-15.153422,17.880236,63.523865,21.849106,13.264907,3.4519005
223,-8.183213233947754,1.6002545356750488,76.82377624511719,5.709048805527037,-7.230813563213734,-23.02745214526777,16.13991,4.0119133,31.553003,6.3414435,-11.575492,-8.515922,4.8240547,-20.504097,7.471682,14.814007,-13.863523,15.000033,-1.3656956,-2.8620236,3.1747057,-15.6446905,19.582224,-12.224813,68.115814,-21.71511,12.27062,4.6064143,-22.695265,-15.24283,17.777536,63.480698,21.939522,13.327917,3.5367882
224,-8.284090995788574,1.394111156463623,76.85340118408203,5.561755542935105,-7.223638974078233,-23.023234388097407,16.118355,4.4052696,31.57581,6.347233,-11.412535,-8.716312,4.7725797,-20.122984,7.416224,14.912544,-13.9265995,15.000033,-1.4616989,-2.5799065,3.2089682,-15.728474,19.541246,-12.333735,68.22864,-21.75289,12.244044,4.597067,-22.726402,-15.304105,17.70127,63.44623,21.997662,13.354734,3.5958529
225,-8.396157264709473,1.1813503503799438,76.8810043334961,5.417367134434723,-7.238367718141743,-22.988896889765524,16.109692,4.7964487,31.564556,6.355496,-11.246973,-8.915976,4.774001,-19.754354,7.313686,14.986414,-13.992084,15.000033,-1.5528287,-2.3128474,3.2657316,-15.823689,19.507639,-12.441989,68.35203,-21.818409,12.197823,4.530038,-22.735962,-15.369504,17.632254,63.394184,22.014668,13.337618,3.6335046
226,-8.496650695800781,0.96976637840271,76.90758514404297,5.273288357919989,-7.264032919832338,-22.926168641372424,16.101582,5.190892,31.52321,6.3658466,-11.076698,-9.118786,4.8066635,-19.390669,7.1723514,15.048528,-14.061873,15.000033,-1.6675583,-2.0628982,3.3335204,-15.901911,19.497732,-12.519516,68.46612,-21.903358,12.143404,4.412238,-22.76231,-15.408074,17.584562,63.354446,22.000813,13.287093,3.6515632
227,-8.596919059753418,0.7469591498374939,76.9319839477539,5.129392239287746,-7.292808907262333,-22.84230529872685,16.087759,5.587774,31.459183,6.3796263,-10.904,-9.321994,4.8554454,-19.031221,7.007208,15.100383,-14.132765,15.000033,-1.7910851,-1.8236504,3.4065218,-15.967897,19.501251,-12.587999,68.56945,-22.005974,12.081126,4.2898965,-22.789644,-15.431909,17.548147,63.30609,21.96704,13.220846,3.6479146
228,-8.697114944458008,0.5285811424255371,76.9561996459961,4.985951030306495,-7.317171509679944,-22.744839145550646,16.061712,5.9861264,31.380066,6.394249,-10.727798,-9.522934,4.904844,-18.67237,6.832718,15.145131,-14.202138,15.000033,-1.9113739,-1.5908216,3.4808578,-16.020407,19.513412,-12.660816,68.65185,-22.120417,12.012715,4.207306,-22.799105,-15.449209,17.514656,63.22069,21.925882,13.157325,3.6209068
229,-8.808347702026367,0.30197614431381226,76.97866821289062,4.843978014108799,-7.334954060011734,-22.63732101409942,16.021658,6.384329,31.289,6.4104185,-10.548895,-9.72073,4.954503,-18.31475,6.6540594,15.178535,-14.268042,15.000033,-2.0189714,-1.3656081,3.5600238,-16.063055,19.54046,-12.758241,68.70945,-22.26653,11.938449,4.1743755,-22.78231,-15.465074,17.476646,63.081745,21.870178,13.096844,3.5614445
230,-8.916038513183594,0.07890056818723679,77.00175476074219,4.703033957671811,-7.350338453053922,-22.51534437917339,15.9693365,6.7837415,31.182287,6.428891,-10.366361,-9.915387,5.0121617,-17.960209,6.46324,15.201085,-14.33275,15.000033,-2.1346252,-1.1411154,3.6421046,-16.087275,19.56969,-12.844546,68.74911,-22.428823,11.854948,4.1706123,-22.767906,-15.470094,17.457968,62.92526,21.799156,13.029757,3.4700916
231,-9.030951499938965,-0.15406984090805054,77.02108001708984,4.560286250022064,-7.364013175253044,-22.37354026323349,15.905987,7.186583,31.055286,6.446169,-10.178116,-10.111168,5.0770755,-17.604557,6.252131,15.219819,-14.399396,15.000033,-2.2414527,-0.93725854,3.728031,-16.100307,19.630669,-12.945758,68.761345,-22.598503,11.770301,4.1807957,-22.718262,-15.468015,17.42098,62.72201,21.723469,12.965856,3.3750062
232,-9.145310401916504,-0.389659583568573,77.04063415527344,4.412500903122637,-7.377030372236864,-22.20727418315596,15.829774,7.5981154,30.903292,6.468182,-9.986946,-10.31155,5.146879,-17.24745,6.014897,15.243047,-14.471039,15.000033,-2.3644223,-0.72817886,3.804708,-16.09331,19.676315,-13.003291,68.76447,-22.71961,11.67749,4.205708,-22.667892,-15.458841,17.398169,62.525017,21.664568,12.907954,3.2922297
233,-9.262979507446289,-0.6290432810783386,77.05670928955078,4.258167269351267,-7.388477147798538,-22.01074357314802,15.740665,8.01986,30.721523,6.489297,-9.788956,-10.521755,5.222283,-16.886372,5.7465816,15.271841,-14.549662,15.000033,-2.4951386,-0.5371669,3.8767145,-16.061344,19.745823,-13.041119,68.73907,-22.797558,11.575157,4.2431107,-22.58388,-15.436156,17.360332,62.29253,21.622723,12.858527,3.2308538
234,-9.374436378479004,-0.8699014782905579,77.07730102539062,4.09846879937969,-7.397867366008308,-21.788098545827882,15.6384735,8.450011,30.513882,6.5115952,-9.586144,-10.738482,5.30465,-16.521202,5.4515023,15.300941,-14.632781,15.000033,-2.631927,-0.33747715,3.938971,-16.023756,19.790066,-13.053273,68.71981,-22.834864,11.455927,4.30594,-22.481104,-15.415857,17.330189,62.04308,21.597448,12.813885,3.175233
235,-9.486832618713379,-1.1188271045684814,77.09553527832031,3.936618245627737,-7.406694105874003,-21.548349690414042,15.526809,8.883713,30.288397,6.533834,-9.378596,-10.95348,5.391808,-16.157473,5.136867,15.329697,-14.716873,15.000033,-2.7671106,-0.14434828,3.9984403,-15.977411,19.83936,-13.052663,68.68641,-22.855976,11.344091,4.372944,-22.37024,-15.389828,17.293623,61.792397,21.570717,12.777801,3.1259894
236,-9.605902671813965,-1.3719282150268555,77.11429595947266,3.775316023026551,-7.4164956206098465,-21.30080763667537,15.409796,9.316338,30.05323,6.555283,-9.166763,-11.158314,5.482236,-15.796053,4.8087974,15.355465,-14.79695,15.000033,-2.896069,0.05080761,4.0555596,-15.930986,19.882763,-13.040078,68.64501,-22.874968,11.256531,4.431523,-22.268986,-15.363982,17.256239,61.56713,21.533447,12.754764,3.0800962
237,-9.728300094604492,-1.619326114654541,77.13318634033203,3.614164100636452,-7.425450694947503,-21.045070287394946,15.285592,9.748854,29.807264,6.576398,-8.951065,-11.352032,5.575128,-15.43753,4.463471,15.374934,-14.870318,15.000033,-3.0229492,0.23833229,4.110308,-15.867533,19.939795,-13.007448,68.57086,-22.889542,11.201148,4.4832325,-22.177166,-15.325671,17.209837,61.367218,21.47279,12.748094,3.041249
238,-9.846578598022461,-1.8782248497009277,77.14935302734375,3.451484121902059,-7.4333790411176235,-20.776930506637612,15.153375,10.183582,29.547356,6.5979753,-8.731783,-11.538946,5.670767,-15.079561,4.099242,15.389463,-14.939445,15.000033,-3.1474905,0.42727685,4.1590896,-15.796949,19.990753,-12.955316,68.48397,-22.890505,11.164342,4.5369835,-22.087711,-15.28599,17.16189,61.1843,21.401205,12.755049,3.0082242
239,-9.96320915222168,-2.1333558559417725,77.16770935058594,3.281748233339465,-7.44544979001784,-20.50403314469916,15.019824,10.629124,29.281153,6.6209664,-8.50782,-11.722679,5.7735977,-14.700126,3.7369897,15.396021,-15.002066,14.911002,-3.2560132,0.6312874,4.210322,-15.743381,20.023296,-12.905762,68.41173,-22.894453,11.141602,4.5790057,-22.002344,-15.257614,17.116426,61.018135,21.334972,12.770132,2.9751642
240,-10.091679573059082,-2.3922789096832275,77.18243408203125,3.098912505949321,-7.467084095735563,-20.23473769129732,14.892602,11.093826,29.017447,6.6475005,-8.27982,-11.906722,5.889557,-14.280955,3.394735,15.386633,-15.053564,14.686574,-3.3447914,0.85431945,4.274709,-15.710756,20.04692,-12.86985,68.359406,-22.918102,11.13226,4.5916996,-21.939445,-15.237443,17.082714,60.883785,21.287178,12.785354,2.9356472
