unveil-humanoid-operators/unveil-humanoid-operators.github.io/feature-analysis-animation/data/feature_matrix_instances/weight_root_translate_peak_vel_walking_turning_A174.csv
Frame,root_translateX,root_translateY,root_translateZ,root_rotateX,root_rotateY,root_rotateZ,left_hip_pitch_joint_dof,left_hip_roll_joint_dof,left_hip_yaw_joint_dof,left_knee_joint_dof,left_ankle_pitch_joint_dof,left_ankle_roll_joint_dof,right_hip_pitch_joint_dof,right_hip_roll_joint_dof,right_hip_yaw_joint_dof,right_knee_joint_dof,right_ankle_pitch_joint_dof,right_ankle_roll_joint_dof,waist_yaw_joint_dof,waist_roll_joint_dof,waist_pitch_joint_dof,left_shoulder_pitch_joint_dof,left_shoulder_roll_joint_dof,left_shoulder_yaw_joint_dof,left_elbow_joint_dof,left_wrist_roll_joint_dof,left_wrist_pitch_joint_dof,left_wrist_yaw_joint_dof,right_shoulder_pitch_joint_dof,right_shoulder_roll_joint_dof,right_shoulder_yaw_joint_dof,right_elbow_joint_dof,right_wrist_roll_joint_dof,right_wrist_pitch_joint_dof,right_wrist_yaw_joint_dof
0,2.2124505043029785,0.19012752175331116,78.39628601074219,0.24813043884856603,-1.1518404668229902,-175.2909262113364,5.02969,2.9560254,14.597228,6.620323,-6.483537,-9.4432335,6.219269,-8.088533,-25.68022,13.166243,-16.578678,3.144588,-4.302148,-1.698512,9.281469,-14.589287,9.658662,-58.5037,63.668343,16.63068,-1.6486517,3.042769,-7.148129,-13.446168,47.720554,52.88434,-7.318949,3.423494,-7.474892
1,2.225433111190796,0.18124818801879883,78.3915023803711,0.2692575808991756,-1.1153002571336452,-175.3403950638704,4.9901295,2.9331954,14.67384,6.618595,-6.4678574,-9.438995,6.0532937,-8.160499,-25.606197,13.391357,-16.664196,3.1263127,-4.3135486,-1.716817,9.270961,-14.596042,9.64124,-58.50138,63.704727,16.607565,-1.6455861,3.0556915,-7.1544313,-13.466353,47.70886,52.86976,-7.2944045,3.4221914,-7.5073996
2,2.2364087104797363,0.17055776715278625,78.38897705078125,0.2907775409078519,-1.0802329471339158,-175.38395908220454,4.950741,2.9090958,14.74433,6.617249,-6.451039,-9.432425,5.8924875,-8.233472,-25.538157,13.61375,-16.749487,3.1096587,-4.323636,-1.736968,9.261796,-14.606976,9.621887,-58.50172,63.744923,16.578793,-1.643667,3.0706837,-7.15322,-13.49574,47.69994,52.844376,-7.2689176,3.4209476,-7.5405354
3,2.2523882389068604,0.16365082561969757,78.38655090332031,0.31111704166175047,-1.042201435420887,-175.43924767038047,4.9106555,2.888214,14.826894,6.6147623,-6.4357257,-9.43067,5.7217345,-8.303755,-25.457691,13.840234,-16.834923,3.088928,-4.3343124,-1.7543569,9.252863,-14.612404,9.6080675,-58.49709,63.777393,16.561909,-1.6406806,3.0811949,-7.1564364,-13.523052,47.68326,52.818356,-7.24493,3.4218016,-7.571383
4,2.268381118774414,0.156116783618927,78.38487243652344,0.3287619606317891,-0.9972757149637975,-175.52384912035438,4.867533,2.8754072,14.939382,6.611785,-6.424885,-9.440933,5.527179,-8.367745,-25.347172,14.076121,-16.920237,3.0585997,-4.347715,-1.7700598,9.241699,-14.60724,9.60253,-58.48121,63.80485,16.57298,-1.6368812,3.0818062,-7.169269,-13.538115,47.651505,52.792053,-7.2225046,3.430738,-7.5998263
5,2.2861969470977783,0.14682026207447052,78.3832015991211,0.3437496863488981,-0.9480005034566131,-175.64103259072883,4.8238683,2.8704774,15.084856,6.610398,-6.422182,-9.466311,5.309565,-8.425271,-25.202091,14.322082,-17.005983,3.0173557,-4.3449674,-1.7791362,9.243667,-14.608888,9.59293,-58.453888,63.83531,16.646307,-1.6312367,3.0671637,-7.1630616,-13.577925,47.561836,52.707077,-7.222981,3.4575257,-7.608081
6,2.3061184883117676,0.13893046975135803,78.38058471679688,0.3567972165983916,-0.8949892785628158,-175.78162230046172,4.7797813,2.8712463,15.254151,6.60787,-6.423162,-9.502816,5.0723987,-8.478655,-25.031597,14.580428,-17.09317,2.9681046,-4.342945,-1.78579,9.245263,-14.600833,9.5893,-58.41909,63.85965,16.75392,-1.6226296,3.045047,-7.162981,-13.611586,47.456512,52.61913,-7.226747,3.4952822,-7.6100783
7,2.3313610553741455,0.13682341575622559,78.37715911865234,0.3664721676925918,-0.8324773480806903,-175.94558419962345,4.729631,2.8804362,15.447537,6.6048265,-6.4260964,-9.54642,4.815915,-8.522888,-24.839489,14.837647,-17.176758,2.9118032,-4.343383,-1.7892017,9.242306,-14.587654,9.590453,-58.37664,63.883377,16.85768,-1.6174653,3.014764,-7.1718645,-13.637097,47.34417,52.533924,-7.226608,3.5289395,-7.6175756
8,2.3552439212799072,0.13209107518196106,78.37437438964844,0.37145634186131826,-0.7546705429512905,-176.1332560400285,4.667516,2.9006155,15.666084,6.601399,-6.428124,-9.592333,4.532751,-8.55648,-24.627958,15.097862,-17.2555,2.8493266,-4.3434553,-1.7892399,9.231002,-14.57468,9.595938,-58.33322,63.910587,16.916256,-1.621604,2.9760835,-7.1874547,-13.662085,47.228214,52.449627,-7.2164874,3.5442517,-7.6423087
9,2.381247043609619,0.1273919939994812,78.37163543701172,0.3668959095776253,-0.6635840871480082,-176.33697249424407,4.5951977,2.9373183,15.903838,6.5988426,-6.4280906,-9.640084,4.238219,-8.570538,-24.405447,15.339662,-17.322283,2.779685,-4.345939,-1.780822,9.210037,-14.561582,9.608512,-58.29592,63.93858,16.882223,-1.6431518,2.932883,-7.2054605,-13.69277,47.11912,52.36574,-7.1923013,3.5389495,-7.6966743
10,2.4044744968414307,0.12622256577014923,78.37242126464844,0.35495107523396047,-0.5611638267182161,-176.55927827559898,4.5156307,2.9866686,16.162962,6.5954432,-6.427344,-9.690701,3.9288669,-8.569276,-24.167892,15.572374,-17.381247,2.7030275,-4.3602757,-1.7664815,9.176255,-14.542913,9.62072,-58.253815,63.975433,16.788225,-1.6769003,2.8860357,-7.2383738,-13.71146,47.03015,52.300865,-7.150251,3.5202029,-7.7755704
11,2.4294447898864746,0.1267601102590561,78.37214660644531,0.34389563122358,-0.4415757745966044,-176.81496659446884,4.4207373,3.0414286,16.45279,6.5922046,-6.427522,-9.748682,3.5735056,-8.567711,-23.900421,15.836008,-17.444414,2.6218727,-4.3632836,-1.7521381,9.145549,-14.521732,9.656153,-58.204697,63.98889,16.718018,-1.7076328,2.8224056,-7.266888,-13.7493515,46.905525,52.20147,-7.11055,3.4875355,-7.848002
12,2.4591245651245117,0.1259206235408783,78.3695297241211,0.3410854736573702,-0.2985481599615609,-177.1189323508702,4.3040175,3.0938587,16.783035,6.586353,-6.4282413,-9.818253,3.1394684,-8.580166,-23.587624,16.172033,-17.524185,2.5386589,-4.3640723,-1.7457131,9.110338,-14.492558,9.705204,-58.132374,63.99109,16.744951,-1.7206392,2.7382803,-7.3105755,-13.785376,46.757847,52.090614,-7.063761,3.4401777,-7.900236
13,2.4991514682769775,0.12296617776155472,78.3674087524414,0.3434920278561075,-0.12020970045793865,-177.47055546679061,4.150344,3.1461692,17.150879,6.5791764,-6.4311786,-9.90609,2.6160507,-8.601192,-23.222605,16.572285,-17.616903,2.448533,-4.3645763,-1.7405581,9.057706,-14.460633,9.743654,-58.02391,64.00762,16.94022,-1.7107939,2.6100297,-7.378599,-13.80485,46.574184,51.99226,-7.023111,3.36024,-7.9220586
14,2.547268867492676,0.12843403220176697,78.36536407470703,0.34772199494983,0.08629339712861771,-177.86323100928274,3.9674096,3.2021067,17.552776,6.572922,-6.436688,-10.00831,2.022753,-8.623588,-22.814888,17.018068,-17.716608,2.3523867,-4.3603277,-1.7358007,8.994693,-14.424974,9.786699,-57.894054,64.02149,17.244408,-1.6864794,2.4476397,-7.45987,-13.820708,46.355167,51.89066,-6.9870787,3.254141,-7.923982
15,2.592529058456421,0.1406220942735672,78.36292266845703,0.36194456587599944,0.2994788047669256,-178.30306033529405,3.783945,3.2548532,17.997335,6.563962,-6.442077,-10.1131315,1.3708447,-8.659993,-22.372759,17.538815,-17.83445,2.261564,-4.343533,-1.7471719,8.942591,-14.393443,9.83813,-57.75936,64.03579,17.54937,-1.6569471,2.2970784,-7.55114,-13.833258,46.114796,51.77096,-6.9358954,3.1553454,-7.919171
16,2.652827262878418,0.15505024790763855,78.35719299316406,0.39431296982567765,0.49768700618752343,-178.7958652153372,3.6258967,3.2983127,18.492949,6.5549946,-6.4476223,-10.208757,0.6731297,-8.721792,-21.904682,18.159294,-17.979254,2.1872914,-4.3018923,-1.7926669,8.928529,-14.362256,9.939261,-57.64364,64.01051,17.743647,-1.6282048,2.2013397,-7.6456885,-13.8448515,45.85634,51.607758,-6.8546276,3.0970874,-7.9185877
17,2.719613790512085,0.17246979475021362,78.34434509277344,0.4508002513780709,0.6853487215611026,-179.3572887774744,3.4923282,3.3269963,19.056517,6.543818,-6.450086,-10.290351,-0.11553548,-8.800939,-21.306082,18.927513,-18.173113,2.1101375,-4.231762,-1.8788947,8.944423,-14.341947,10.053189,-57.53135,63.986942,17.791597,-1.5969669,2.2022042,-7.765002,-13.841539,45.614563,51.42372,-6.7113843,3.1003387,-7.9277787
18,2.8024048805236816,0.20451819896697998,78.32860565185547,0.525113632250437,0.8706475875645886,-179.9791581758641,3.3709729,3.3462532,19.6784,6.5323353,-6.450958,-10.364872,-0.98318166,-8.88833,-20.608404,19.809338,-18.40059,2.033177,-4.137,-1.9961255,8.982762,-14.328986,10.18199,-57.41967,63.96023,17.754564,-1.5608424,2.2656796,-7.9058495,-13.821543,45.36977,51.22482,-6.526959,3.1428854,-7.939141
19,2.8732993602752686,0.23667190968990326,78.31514739990234,0.6067065043692986,1.0396096453165098,179.368230681861,3.2758386,3.362903,20.32752,6.519414,-6.454152,-10.438098,-1.838864,-9.003443,-20.022873,20.722725,-18.624939,1.9995749,-4.0467925,-2.1323736,9.047634,-14.320158,10.327583,-57.322422,63.936428,17.669813,-1.5318091,2.3316796,-8.053237,-13.785615,45.10588,51.017494,-6.3388677,3.1939344,-7.957035
20,2.9423956871032715,0.2692279517650604,78.29969787597656,0.6860386457294713,1.1774348180147938,178.71433357556936,3.2190118,3.3846648,20.973167,6.5071244,-6.464847,-10.515955,-2.593483,-9.175184,-19.758873,21.59161,-18.813107,2.049332,-3.9895914,-2.2751927,9.143513,-14.3123045,10.491469,-57.253273,63.921265,17.576431,-1.5217584,2.34028,-8.190522,-13.735949,44.80584,50.803486,-6.183609,3.2226763,-7.9851317
21,3.011260986328125,0.30652475357055664,78.2830581665039,0.7648069058228252,1.2764745258879218,178.06079418447527,3.2111158,3.4083607,21.611885,6.4929314,-6.4861116,-10.601096,-3.2294006,-9.406114,-19.818335,22.3996,-18.949545,2.2428894,-3.9718962,-2.4267068,9.27698,-14.300912,10.67623,-57.203842,63.90912,17.476236,-1.540625,2.2620592,-8.316374,-13.673977,44.45807,50.584568,-6.0874276,3.2281942,-8.0197525
22,3.076568126678467,0.3470221161842346,78.26254272460938,0.8467264240932059,1.346127052966422,177.3937874568838,3.241078,3.4331377,22.25852,6.4804945,-6.5154843,-10.690551,-3.7954514,-9.692181,-20.105986,23.199007,-19.060041,2.5373416,-3.9779742,-2.5907242,9.444264,-14.288194,10.8833275,-57.17155,63.895557,17.35113,-1.5795374,2.13339,-8.438225,-13.600473,44.072914,50.35651,-6.0250216,3.2244804,-8.06005
23,3.1418840885162354,0.3941909074783325,78.24431610107422,0.9258905380552634,1.397996118973232,176.71954366667453,3.2966285,3.464611,22.909733,6.4665737,-6.5445094,-10.780973,-4.3011103,-10.057741,-20.683876,24.018862,-19.175283,2.8150554,-4.003067,-2.7585611,9.633399,-14.282571,11.11095,-57.180676,63.890522,17.20844,-1.621835,1.992382,-8.548679,-13.517627,43.665874,50.11114,-5.958138,3.203371,-8.114154
24,3.2276928424835205,0.4558722972869873,78.22373962402344,0.9970524380283683,1.4439183786950542,176.04425304442915,3.3640893,3.5080547,23.562536,6.4504075,-6.5664096,-10.868226,-4.7501755,-10.528038,-21.61505,24.881422,-19.32401,2.9589944,-4.0402293,-2.9217615,9.832894,-14.293714,11.354242,-57.25585,63.90647,17.056837,-1.6513281,1.8777577,-8.637103,-13.4277935,43.25109,49.83502,-5.8478613,3.156899,-8.189866
25,3.3127949237823486,0.5216934680938721,78.20516204833984,1.0608019281359913,1.4799374104671483,175.35436404487567,3.4471512,3.5659635,24.230843,6.436138,-6.5818353,-10.948234,-5.1268563,-11.133973,-23.004646,25.805647,-19.5141,2.923013,-4.0779843,-3.0831492,10.049908,-14.330493,11.609492,-57.418453,63.951603,16.883121,-1.6636735,1.8068453,-8.698567,-13.332527,42.818516,49.50362,-5.657357,3.0813138,-8.278735
26,3.390564441680908,0.5785289406776428,78.19215393066406,1.1209655354849855,1.5027399501392997,174.65127436693822,3.5522983,3.6322918,24.912071,6.4189506,-6.5925517,-11.023715,-5.414042,-11.859377,-24.790709,26.773113,-19.734745,2.7684913,-4.1199355,-3.2463658,10.286791,-14.389125,11.874503,-57.65204,64.02327,16.68883,-1.6677798,1.757127,-8.735937,-13.232919,42.363037,49.12597,-5.415822,2.9813929,-8.379327
27,3.4537415504455566,0.6437886357307434,78.1792984008789,1.1773925351518317,1.523772977562894,173.96336855462368,3.6605995,3.703478,25.578102,6.4002137,-6.598471,-11.100845,-5.6213827,-12.659545,-26.784042,27.761904,-19.98761,2.5441465,-4.184707,-3.4056733,10.523507,-14.461841,12.145927,-57.928265,64.1202,16.498707,-1.6677685,1.7074826,-8.751476,-13.131526,41.90719,48.743576,-5.185719,2.8614368,-8.51068
28,3.511821746826172,0.7076600193977356,78.16891479492188,1.2289650682994642,1.5546776310600374,173.31926867779364,3.7520928,3.7787344,26.20006,6.3830843,-6.6003246,-11.18625,-5.7625427,-13.4831085,-28.796274,28.73417,-20.26711,2.3031888,-4.2919374,-3.5541022,10.740117,-14.5399065,12.419731,-58.215263,64.24154,16.340302,-1.6675755,1.6368048,-8.747661,-13.031602,41.474915,48.39728,-5.029395,2.7260203,-8.691972
29,3.580373525619507,0.7789482474327087,78.15904235839844,1.2743453754978784,1.5964469174410563,172.73662771128775,3.821993,3.8574755,26.761436,6.365503,-6.59491,-11.281301,-5.799334,-14.358074,-30.951769,29.682095,-20.596792,2.023664,-4.45916,-3.6904602,10.933986,-14.626207,12.694182,-58.514343,64.39209,16.232399,-1.670447,1.519067,-8.721822,-12.934072,41.06417,48.09525,-4.986214,2.5688367,-8.929234
30,3.6351330280303955,0.8595963716506958,78.15027618408203,1.314793854176015,1.643395917634148,172.19679478496695,3.879548,3.940902,27.280334,6.34826,-6.5835,-11.3824415,-5.7235107,-15.29007,-33.29931,30.622974,-20.971886,1.6933421,-4.6722198,-3.8182993,11.115027,-14.725335,12.968179,-58.837147,64.57381,16.158295,-1.673752,1.3725598,-8.672412,-12.838891,40.665916,47.813526,-5.015382,2.3905342,-9.212143
31,3.6950294971466064,0.9520452618598938,78.13920593261719,1.352719745641332,1.6963260960288569,171.6738879851263,3.9314516,4.0277486,27.781254,6.330384,-6.570568,-11.488636,-5.6155095,-16.19807,-35.535755,31.555756,-21.334988,1.3827996,-4.9037986,-3.9381976,11.281696,-14.831675,13.238081,-59.172016,64.78286,16.08712,-1.672685,1.2426052,-8.605346,-12.74921,40.2942,47.54697,-5.057516,2.2062664,-9.535848
32,3.7222042083740234,1.0325678586959839,78.1312026977539,1.391434547033954,1.756189813538026,171.1420539627372,3.984824,4.115387,28.288338,6.3105965,-6.560299,-11.5985155,-5.5769715,-17.010584,-37.350384,32.480263,-21.625923,1.1633031,-5.12716,-4.0502706,11.433173,-14.940717,13.498747,-59.50642,65.01672,15.9881525,-1.6626923,1.174796,-8.523526,-12.669109,39.964424,47.28495,-5.052427,2.030775,-9.895298
33,3.764194965362549,1.120199203491211,78.12066650390625,1.4328922722296016,1.8289323698969844,170.6061526201916,4.0299234,4.2000895,28.796425,6.289616,-6.5515504,-11.710626,-5.6581697,-17.704165,-38.642666,33.39215,-21.812561,1.0795488,-5.346813,-4.15505,11.563053,-15.057537,13.745461,-59.85949,65.28941,15.841928,-1.6443992,1.2091966,-8.419468,-12.60174,39.681767,47.00834,-4.9659905,1.8765602,-10.28705
34,3.807466506958008,1.2090535163879395,78.11103820800781,1.4746636561529478,1.9118378038553951,170.07596509689787,4.066934,4.2845297,29.296497,6.267529,-6.5423913,-11.826185,-5.817908,-18.318647,-39.580276,34.284138,-21.923143,1.0929644,-5.5719237,-4.2510815,11.674207,-15.185673,13.97549,-60.231598,65.60377,15.668747,-1.6203165,1.3127084,-8.2902975,-12.548778,39.43691,46.722633,-4.8355474,1.7323912,-10.713984
35,3.8435556888580322,1.3080475330352783,78.09716796875,1.5149693032118572,1.9924695240143173,169.53287722896482,4.1124196,4.377338,29.807198,6.2576365,-6.545284,-11.947771,-6.0305333,-18.882431,-40.24961,35.156242,-21.991743,1.148558,-5.7837925,-4.3365545,11.779343,-15.31703,14.18728,-60.5801,65.940475,15.498455,-1.5883542,1.4212227,-8.147087,-12.512766,39.224075,46.458035,-4.7098794,1.5771577,-11.180695
36,3.869210958480835,1.41267991065979,78.08877563476562,1.5458133423612177,2.059524263277996,168.95980217268877,4.190304,4.489458,30.345928,6.2472324,-6.555583,-12.079222,-6.262008,-19.41526,-40.741917,36.000614,-22.048546,1.1843853,-5.966624,-4.4029675,11.890436,-15.44147,14.380727,-60.86065,66.27832,15.360668,-1.5460984,1.470489,-8.001361,-12.496362,39.0396,46.24387,-4.6374245,1.3905263,-11.691919
37,3.8798723220825195,1.5294466018676758,78.0779037475586,1.5669706819542124,2.102049728789775,168.35038190723836,4.318306,4.6214485,30.920084,6.230376,-6.5741,-12.223429,-6.522513,-19.901775,-40.98787,36.8257,-22.092842,1.1946354,-6.111898,-4.4501314,12.013425,-15.553856,14.555803,-61.06057,66.61989,15.265631,-1.4937806,1.4367192,-7.849218,-12.503734,38.893528,46.081482,-4.6463,1.1666902,-12.257118
38,3.9027252197265625,1.6502833366394043,78.06275939941406,1.5805366856420942,2.1290009710734417,167.71445387352313,4.482168,4.7681437,31.519669,6.209867,-6.600136,-12.37807,-6.830191,-20.3332,-40.96899,37.62729,-22.10963,1.209056,-6.230877,-4.479317,12.141488,-15.659005,14.712155,-61.20056,66.97649,15.198855,-1.4349058,1.35692,-7.684508,-12.536589,38.785812,45.952568,-4.7057962,0.91787654,-12.87125
39,3.914696455001831,1.775735855102539,78.0464859008789,1.5863114257806605,2.1576202556606536,167.05902342613354,4.657669,4.927901,32.136395,6.186681,-6.6261835,-12.538053,-7.160022,-20.74938,-40.850975,38.38777,-22.11243,1.2143979,-6.336331,-4.488752,12.267041,-15.76377,14.851323,-61.2938,67.330956,15.146328,-1.3631648,1.2563353,-7.517251,-12.591983,38.696827,45.86162,-4.7759347,0.6509246,-13.5175495
40,3.9405901432037354,1.9156687259674072,78.03502655029297,1.583817812971539,2.205097092170889,166.39139558324098,4.8208947,5.0996227,32.7618,6.163147,-6.6461244,-12.6984005,-7.4843802,-21.193619,-40.800365,39.092587,-22.116268,1.1948413,-6.449606,-4.478326,12.372007,-15.884272,14.928252,-61.34045,67.72614,15.102761,-1.2780492,1.1634743,-7.381695,-12.635646,38.618843,45.85845,-4.816254,0.37007922,-14.183303
41,3.9642398357391357,2.0625557899475098,78.02196502685547,1.573942925211035,2.2691131302946315,165.7037811075832,4.9752393,5.2817764,33.402733,6.138703,-6.6559167,-12.855001,-7.7985253,-21.682655,-40.82914,39.759884,-22.128893,1.1347468,-6.5429583,-4.44697,12.483526,-16.000792,15.048421,-61.36931,68.04116,15.0459585,-1.1613437,1.0689484,-7.2382855,-12.72577,38.52784,45.86611,-4.818254,0.063834354,-14.868807
42,3.9741814136505127,2.203552722930908,78.01219177246094,1.555976410523642,2.3425763252937766,164.99565736333366,5.1300273,5.475946,34.06081,6.1152854,-6.661568,-13.011442,-8.116885,-22.193378,-40.858795,40.391163,-22.142244,1.0424294,-6.639104,-4.3966646,12.588252,-16.114439,15.154921,-61.342308,68.350105,14.99683,-1.0229595,0.96601164,-7.1196027,-12.824477,38.46451,45.94282,-4.799416,-0.26773506,-15.585695
43,3.9754300117492676,2.3594231605529785,78.0071029663086,1.5290506302716957,2.434980549011394,164.28464417920176,5.272312,5.682339,34.719673,6.088328,-6.663688,-13.17384,-8.440584,-22.714775,-40.918064,40.95177,-22.149817,0.93801117,-6.740296,-4.328274,12.676612,-16.226408,15.249838,-61.278835,68.63389,14.961319,-0.88376504,0.8693105,-7.003258,-12.928715,38.38994,46.059666,-4.7760806,-0.5963287,-16.306667
44,3.9795498847961426,2.5235140323638916,78.00294494628906,1.491060194009932,2.5562266767988,163.5883578571116,5.387409,5.903045,35.363045,6.056174,-6.664003,-13.348366,-8.770176,-23.234291,-41.03657,41.40712,-22.14406,0.8428038,-6.8552375,-4.241955,12.737725,-16.333376,15.334888,-61.187473,68.873344,14.950609,-0.7648346,0.7936235,-6.8721814,-13.035316,38.273083,46.192844,-4.7611804,-0.89305425,-17.005093
45,3.9811928272247314,2.7060842514038086,77.99403381347656,1.4405737389887643,2.7162750765509256,162.9133868896576,5.4612255,6.1393633,35.98185,6.018981,-6.662825,-13.539032,-9.107138,-23.762156,-41.23789,41.760654,-22.131336,0.7490529,-6.985581,-4.136146,12.762392,-16.435183,15.410502,-61.062244,69.070885,14.974759,-0.6723337,0.74707246,-6.72028,-13.14181,38.10494,46.34319,-4.766709,-1.1540639,-17.682613
46,3.967942714691162,2.88606333732605,77.98870849609375,1.3780102766063622,2.9072593753212645,162.2493116704899,5.50552,6.3896847,36.58632,5.9746847,-6.6571264,-13.741742,-9.4506,-24.300436,-41.501637,42.027832,-22.113373,0.64995223,-7.126044,-4.0119915,12.758044,-16.531708,15.47688,-60.900524,69.23332,15.026832,-0.5947707,0.72001606,-6.5589266,-13.247675,37.90134,46.525383,-4.782862,-1.3933381,-18.35075
47,3.9630677700042725,3.0706307888031006,77.9866943359375,1.305117501768581,3.1124751695592376,161.5886246594307,5.543989,6.651446,37.189396,5.9211287,-6.645995,-13.950967,-9.798086,-24.825392,-41.791958,42.193287,-22.07641,0.56978625,-7.275522,-3.8730192,12.739676,-16.624517,15.536166,-60.724068,69.348526,15.083763,-0.52688074,0.70094454,-6.3941026,-13.351832,37.66893,46.731087,-4.789415,-1.6092396,-18.99735
48,3.9615631103515625,3.2714121341705322,77.98257446289062,1.2282118744913848,3.314195946869342,160.92289682177937,5.5910363,6.9260645,37.80364,5.8825874,-6.642529,-14.160709,-10.150553,-25.320255,-42.067677,42.24819,-22.008778,0.53398937,-7.430879,-3.7278414,12.7223,-16.715185,15.589848,-60.55374,69.40582,15.1241045,-0.4633757,0.678424,-6.232301,-13.44857,37.41337,46.95452,-4.7669654,-1.8007714,-19.610722
49,3.9438157081604004,3.4905896186828613,77.97745513916016,1.1415634292803967,3.5116164091249655,160.24968330930457,5.6505165,7.2198586,38.435608,5.8580933,-6.649249,-14.368019,-10.50233,-25.771273,-42.328983,42.165516,-21.905146,0.55833125,-7.590768,-3.569499,12.708929,-16.798447,15.646349,-60.38072,69.38474,15.147142,-0.40531036,0.63614225,-6.0693955,-13.544542,37.129326,47.19389,-4.7187595,-1.9728922,-20.196653
50,3.932410478591919,3.713031530380249,77.9723129272461,1.0434642424403189,3.712332915623115,159.57332993471792,5.7156096,7.530679,39.07725,5.8346977,-6.657672,-14.576755,-10.855952,-26.190239,-42.593998,41.96003,-21.772787,0.6269679,-7.76464,-3.400696,12.683183,-16.874783,15.687212,-60.19207,69.32035,15.164741,-0.35540092,0.58594966,-5.9283624,-13.606462,36.82785,47.496426,-4.6521673,-2.1265965,-20.763193
51,3.9214487075805664,3.9383373260498047,77.96361541748047,0.9458951415493462,3.91286022649956,158.89667359626787,5.7903137,7.8434653,39.720203,5.8101687,-6.662348,-14.791324,-11.221481,-26.594837,-42.8508,41.67448,-21.613762,0.71781456,-7.9474864,-3.231945,12.655113,-16.95211,15.727176,-60.02189,69.20872,15.165471,-0.3083586,0.5544308,-5.791365,-13.661892,36.508446,47.810497,-4.552244,-2.2508929,-21.288511
52,3.9056591987609863,4.169372081756592,77.95375061035156,0.8605681085635565,4.109871438436547,158.22230874920447,5.876973,8.141977,40.354473,5.7822647,-6.6581435,-15.000033,-11.609605,-27.00448,-43.087215,41.35433,-21.431126,0.8083211,-8.122668,-3.0709393,12.641278,-17.03894,15.794582,-59.91281,69.025635,15.138068,-0.257853,0.5667042,-5.623928,-13.752937,36.152103,48.0594,-4.407841,-2.3345945,-21.746023
53,3.885079860687256,4.418689727783203,77.93927764892578,0.7950947646425875,4.308334257321913,157.56090281895078,5.961816,8.39239,40.95729,5.729244,-6.635717,-15.000033,-12.029044,-27.434074,-43.296764,40.99669,-21.221153,0.89600176,-8.331955,-2.9288144,12.615782,-17.126665,15.849444,-59.85067,68.81934,15.073619,-0.20295806,0.6483951,-5.4764776,-13.825769,35.80267,48.327236,-4.205428,-2.365908,-22.12812
54,3.868340253829956,4.672489166259766,77.9234619140625,0.7556422027892256,4.525790086298542,156.93081302996973,6.0243864,8.609764,41.52321,5.669197,-6.6012344,-15.000033,-12.488026,-27.90243,-43.498848,40.601406,-20.990885,0.9947317,-8.592806,-2.807795,12.559966,-17.216545,15.890454,-59.823273,68.58621,14.978745,-0.14715509,0.77947706,-5.3473725,-13.88075,35.45105,48.61974,-3.954838,-2.35435,-22.448149
55,3.845776319503784,4.9303789138793945,77.90381622314453,0.7236862450941298,4.740105262321367,156.2964565622421,6.1000614,8.820414,42.090637,5.606205,-6.560143,-15.000033,-12.9635725,-28.371626,-43.688343,40.176132,-20.741968,1.0993286,-8.813174,-2.6910813,12.521677,-17.332785,15.95158,-59.866352,68.29863,14.866735,-0.09246102,0.923403,-5.173167,-13.969241,35.03944,48.838,-3.6713626,-2.3230448,-22.72866
56,3.8209192752838135,5.210652828216553,77.87591552734375,0.6905022794316346,4.940751157817129,155.6382854214224,6.2069807,9.034709,42.681255,5.5380173,-6.5129952,-15.000033,-13.445474,-28.823622,-43.870384,39.740852,-20.479046,1.2075373,-9.021547,-2.5787852,12.496422,-17.464977,16.007906,-59.90698,68.01534,14.774853,-0.046537347,1.0519271,-5.0140524,-14.05471,34.660088,49.04855,-3.3367698,-2.2970104,-23.021584
57,3.799830675125122,5.511231899261475,77.84829711914062,0.6531198245697319,5.127665699484038,154.94401455235214,6.3493376,9.254837,43.30856,5.461038,-6.460541,-15.000033,-13.939523,-29.247906,-44.035755,39.28465,-20.19495,1.3275846,-9.211058,-2.4732628,12.481855,-17.61785,16.04594,-59.942173,67.75624,14.713925,-0.008458898,1.166904,-4.891574,-14.11268,34.315502,49.278584,-2.9489386,-2.2786832,-23.34211
58,3.7838311195373535,5.80220890045166,77.81938934326172,0.615604082024237,5.3044347248158195,154.22507117660888,6.518221,9.477071,43.96035,5.381614,-6.404929,-15.000033,-14.449174,-29.653893,-44.183575,38.803135,-19.89068,1.4576395,-9.33365,-2.3686104,12.494388,-17.807348,16.100212,-60.0485,67.45918,14.650714,0.026941229,1.2782098,-4.7233324,-14.203012,33.913464,49.42667,-2.5260231,-2.255594,-23.652815
59,3.7683184146881104,6.111387252807617,77.786376953125,0.5819956041691879,5.468164404106808,153.50102569913903,6.713312,9.69608,44.616974,5.2983284,-6.3404703,-15.000033,-14.957231,-30.051977,-44.338528,38.315933,-19.577555,1.5806712,-9.482681,-2.2737913,12.506672,-18.000198,16.138271,-60.12673,67.18168,14.602896,0.051004615,1.3763311,-4.5960493,-14.268564,33.572353,49.614983,-2.0548446,-2.23685,-23.960005
60,3.756753444671631,6.4354143142700195,77.74771881103516,0.5569719319068582,5.616164604012668,152.79159448350916,6.931384,9.909454,45.2584,5.215647,-6.2635355,-15.000033,-15.448192,-30.454832,-44.52431,37.84857,-19.269348,1.6798815,-9.621134,-2.185862,12.531974,-18.214392,16.181034,-60.22792,66.898346,14.54716,0.061798442,1.4445057,-4.4427624,-14.349254,33.228275,49.773678,-1.5611478,-2.2286544,-24.237831
61,3.7437338829040527,6.773071765899658,77.70707702636719,0.5428603907101793,5.74561136639818,152.10123036759535,7.1732054,10.11489,45.881233,5.134274,-6.175149,-15.000033,-15.9163885,-30.870964,-44.7558,37.39702,-18.954176,1.7475681,-9.806785,-2.1124814,12.556911,-18.430803,16.208202,-60.29325,66.63861,14.504708,0.053231195,1.4710864,-4.338384,-14.402639,32.971546,49.991734,-0.9748272,-2.2232764,-24.523952
62,3.7237401008605957,7.129465103149414,77.6631088256836,0.5372340072313435,5.85888016931818,151.4195653157885,7.438599,10.315362,46.49624,5.054057,-6.077069,-15.000033,-16.37124,-31.291403,-45.01817,36.95277,-18.630539,1.7939421,-9.9678335,-2.044278,12.602085,-18.676085,16.24304,-60.3986,66.360504,14.457609,0.03174131,1.4639429,-4.203536,-14.479307,32.70391,50.16404,-0.32748547,-2.219223,-24.799965
63,3.7034053802490234,7.484396457672119,77.61603546142578,0.538035037845263,5.960358567156347,150.7438186440306,7.726476,10.51214,47.104984,4.972101,-5.9650273,-15.000033,-16.818172,-31.702475,-45.290535,36.52994,-18.325247,1.8288813,-10.160716,-1.986945,12.641374,-18.9184,16.26683,-60.464737,66.10877,14.414318,-0.000470455,1.4495044,-4.0936713,-14.535105,32.479797,50.37243,0.28334686,-2.238293,-25.026903
64,3.6878201961517334,7.869845390319824,77.5615234375,0.543055123163085,6.054534794511981,150.07139442684885,8.034961,10.707175,47.70944,4.8894367,-5.8376646,-15.000033,-17.26386,-32.09187,-45.55151,36.145943,-18.066639,1.8621178,-10.342138,-1.9360068,12.678211,-19.1688,16.290033,-60.525745,65.8761,14.354006,-0.036545966,1.4497948,-3.9476182,-14.597841,32.21462,50.5562,0.7306558,-2.2976,-25.141163
65,3.66707444190979,8.275405883789062,77.49884033203125,0.5516290745592065,6.135469670631261,149.39434306991134,8.376368,10.899217,48.3298,4.801875,-5.694637,-15.000033,-17.708092,-32.454556,-45.790955,35.79463,-17.865036,1.9008687,-10.529232,-1.8934981,12.712939,-19.41986,16.307434,-60.557438,65.676186,14.260291,-0.07593981,1.4783498,-3.783998,-14.655285,31.914427,50.754375,0.9479988,-2.4296825,-25.095201
66,3.6458842754364014,8.684420585632324,77.4344253540039,0.5656924504094462,6.202957509835431,148.716242552492,8.747515,11.087285,48.95938,4.711169,-5.537128,-15.000033,-18.148024,-32.798206,-46.02186,35.47045,-17.704557,1.9384437,-10.699764,-1.8561615,12.755144,-19.686401,16.3217,-60.59061,65.495125,14.139357,-0.12216422,1.519936,-3.5799289,-14.72751,31.564417,50.926292,1.0039251,-2.6128519,-24.923811
67,3.631002187728882,9.113147735595703,77.36832427978516,0.5863471869583574,6.269921662713322,148.0521075168437,9.125213,11.273664,49.559593,4.6169276,-5.3585663,-15.000033,-18.584225,-33.127674,-46.25846,35.187374,-17.572268,1.963503,-10.88912,-1.8270885,12.780571,-19.949408,16.327652,-60.592525,65.339645,14.039527,-0.1751173,1.5576982,-3.3762867,-14.787449,31.243465,51.092255,1.0165454,-2.7868652,-24.721588
68,3.6042280197143555,9.560449600219727,77.29913330078125,0.6147877410317967,6.349713459356327,147.41736849436245,9.4915085,11.453615,50.09288,4.501264,-5.144207,-15.000033,-19.017172,-33.447765,-46.51546,34.958584,-17.45496,1.9647254,-11.111617,-1.808475,12.768804,-20.196453,16.328646,-60.557377,65.20607,14.000732,-0.23519602,1.5748618,-3.1931038,-14.819904,31.001831,51.250576,1.0974665,-2.8916342,-24.578012
69,3.592381715774536,10.032438278198242,77.2197036743164,0.6485037224411845,6.4466693289439725,146.81183720121982,9.821442,11.654461,50.55766,4.4244404,-4.9364724,-15.000033,-19.450397,-33.758804,-46.805176,34.783707,-17.34933,1.9390647,-11.308373,-1.7886409,12.737659,-20.463614,16.325897,-60.53384,65.081245,14.049045,-0.30898273,1.5439752,-2.9573092,-14.86441,30.75438,51.292576,1.2677678,-2.8864765,-24.49978
70,3.583631992340088,10.520195960998535,77.13593292236328,0.6889627772350484,6.5536297364152984,146.22925222406855,10.1460905,11.850606,50.974926,4.326202,-4.7031555,-15.000033,-19.882788,-34.060055,-47.116966,34.657417,-17.26267,1.8927561,-11.523076,-1.7724833,12.679165,-20.725294,16.319475,-60.48327,64.9748,14.158198,-0.39540648,1.4849831,-2.7143447,-14.906153,30.556868,51.290222,1.4895847,-2.8135974,-24.453194
71,3.5726823806762695,11.01494026184082,77.04783630371094,0.7419607527395424,6.665867912469407,145.67246086421278,10.463686,12.044357,51.331444,4.2252097,-4.4274697,-15.000033,-20.307364,-34.35233,-47.430138,34.584873,-17.197153,1.8275666,-11.753933,-1.7700266,12.598493,-20.978683,16.311367,-60.41489,64.87775,14.27928,-0.4769366,1.4373939,-2.468858,-14.939421,30.403473,51.27299,1.6960088,-2.7250826,-24.420319
72,3.5572900772094727,11.536345481872559,76.95268249511719,0.8133821586831165,6.77888454636478,145.14477928217838,10.778784,12.229506,51.615566,4.1223254,-4.085369,-15.000033,-20.719316,-34.638123,-47.72246,34.575527,-17.15707,1.745572,-12.002688,-1.7919246,12.496455,-21.216036,16.304983,-60.342213,64.78083,14.357788,-0.53539044,1.4426769,-2.2282248,-14.957651,30.300943,51.275467,1.82823,-2.674003,-24.38528
73,3.550278425216675,12.084209442138672,76.86151123046875,0.9086911185575512,6.891810487492266,144.6543267740365,11.076789,12.414757,51.799484,4.052728,-3.691665,-15.000033,-21.119333,-34.93937,-48.004498,34.64766,-17.145367,1.6361998,-12.2631445,-1.8365726,12.382481,-21.45213,16.295565,-60.273678,64.68374,14.391361,-0.56846815,1.5186895,-1.9791322,-14.977672,30.223835,51.281998,1.8377553,-2.681064,-24.344973
74,3.5498783588409424,12.659049034118652,76.76590728759766,1.0345181985755925,7.0041561841569715,144.1939638185733,11.340914,12.619432,51.897507,4.086051,-3.297334,-15.000033,-21.515734,-35.26053,-48.2693,34.797935,-17.160763,1.5033147,-12.532741,-1.9166007,12.249601,-21.682816,16.287868,-60.21121,64.591225,14.39868,-0.58383954,1.6435272,-1.7208569,-14.989461,30.189827,51.28262,1.7738734,-2.7149909,-24.312012
75,3.5532102584838867,13.238022804260254,76.66109466552734,1.1790408503639627,7.116635394837116,143.74950305847963,11.617287,12.80943,51.96767,4.0964465,-2.8337767,-15.000033,-21.90264,-35.55493,-48.493027,34.989906,-17.19777,1.368034,-12.801687,-2.0118847,12.104202,-21.902634,16.271885,-60.122517,64.49673,14.394522,-0.5839005,1.7849075,-1.4449801,-15.008403,30.17207,51.25821,1.6788946,-2.75071,-24.263386
76,3.552039384841919,13.83198070526123,76.55193328857422,1.3431546969466612,7.22630181757737,143.3035303355526,11.916803,12.987433,52.061314,4.093564,-2.3047006,-15.000033,-22.283546,-35.79334,-48.6355,35.199375,-17.253656,1.2539504,-13.060419,-2.1266618,11.944072,-22.098866,16.244492,-59.997055,64.40078,14.377264,-0.5700162,1.9182432,-1.1524984,-15.031391,30.17611,51.20648,1.6155632,-2.7623217,-24.185228
77,3.5510926246643066,14.47169017791748,76.44121551513672,1.5318149246419681,7.327137370157004,142.86050422779417,12.242679,13.148468,52.19063,4.085185,-1.7164123,-15.000033,-22.643888,-35.986076,-48.717533,35.420338,-17.35356,1.1663448,-13.292737,-2.2730162,11.773292,-22.276644,16.224262,-59.862576,64.27872,14.318531,-0.52105,2.0164945,-0.8395379,-15.039818,30.171747,51.128498,1.5899194,-2.7255151,-24.070148
78,3.5658888816833496,15.123781204223633,76.3258285522461,1.7456098602770505,7.422336279589874,142.42667083225325,12.591043,13.28933,52.33005,4.058767,-1.061028,-15.000033,-22.986828,-36.14364,-48.748802,35.66402,-17.489569,1.0936909,-13.529031,-2.4445105,11.59175,-22.436018,16.196571,-59.67939,64.1527,14.246595,-0.44827735,2.098933,-0.5212569,-15.044298,30.187126,51.030693,1.5744298,-2.657996,-23.925547
79,3.580193281173706,15.802563667297363,76.20936584472656,1.9725703993894916,7.522063957423743,141.9849782808185,12.952788,13.433694,52.475033,4.0365353,-0.34629744,-15.000033,-23.347025,-36.234444,-48.67169,35.938847,-17.611322,1.0336503,-13.74609,-2.6326125,11.387119,-22.565777,16.162878,-59.473457,64.02681,14.174036,-0.38180274,2.2105818,-0.19779518,-15.041365,30.228876,50.939117,1.5598072,-2.6083024,-23.765411
80,3.6025137901306152,16.503894805908203,76.09017181396484,2.200801584856771,7.635226272506336,141.51746288114168,13.32007,13.6045685,52.61992,4.0388627,0.42172602,-15.000033,-23.761515,-36.229355,-48.425858,36.26036,-17.671267,0.98491055,-13.924151,-2.8286276,11.15271,-22.65344,16.130323,-59.25836,63.900684,14.122913,-0.35549262,2.3945024,0.12862459,-15.027937,30.29828,50.876053,1.529619,-2.6236877,-23.600555
81,3.6197402477264404,17.237380981445312,75.96692657470703,2.4233933661001092,7.771375333668205,141.02783335880278,13.685604,13.803955,52.78423,4.0427117,1.2481977,-15.000033,-24.214392,-36.09446,-48.0336,36.578354,-17.650892,1.0241364,-14.060464,-3.025867,10.880083,-22.699245,16.105198,-59.056435,63.77513,14.093509,-0.38355148,2.7003732,0.46649548,-15.005549,30.400457,50.84669,1.4595108,-2.7419386,-23.414057
82,3.6465346813201904,18.004898071289062,75.84343719482422,2.6469426481569642,7.922348959662657,140.52131791033622,14.052159,14.027663,52.96516,4.061042,2.1283095,-15.000033,-24.693813,-35.8523,-47.51516,36.906017,-17.579575,1.1286756,-14.195612,-3.2319365,10.567652,-22.693798,16.07708,-58.81285,63.66406,14.091612,-0.4503375,3.0924444,0.773343,-14.96068,30.572609,50.885998,1.372525,-2.932047,-23.211267
83,3.6823272705078125,18.795499801635742,75.7243881225586,2.874942439232094,8.070205780490948,139.98214526153265,14.443773,14.272501,53.125736,4.1111465,3.061904,-15.000033,-25.235893,-35.54694,-46.814426,37.34705,-17.477877,1.1484287,-14.284338,-3.4553902,10.244561,-22.647991,16.057144,-58.54605,63.528748,14.100262,-0.5283518,3.4833875,1.0798843,-14.89803,30.75245,50.93591,1.3000396,-3.1306229,-23.024162
84,3.7368581295013428,19.5960636138916,75.61771392822266,3.1097080199256415,8.196779638747271,139.39389447892546,14.8803005,14.543473,53.22802,4.2254076,4.0404816,-15.000033,-25.874731,-35.219414,-45.875977,38.002796,-17.361675,0.9335202,-14.337406,-3.7040298,9.927009,-22.54806,16.046553,-58.20202,63.353096,14.126564,-0.5956661,3.7854495,1.3503257,-14.80126,30.948746,51.01278,1.2874733,-3.277485,-22.891315
85,3.7762291431427,20.442272186279297,75.50497436523438,3.3561048371831568,8.321886145937862,138.78194205278155,15.337277,14.833041,53.264847,4.3729157,5.045134,-15.000033,-26.68079,-34.87968,-44.600777,38.967396,-17.150501,0.36327025,-14.35525,-3.9685993,9.5937,-22.39838,16.050255,-57.802822,63.102947,14.223127,-0.63202715,3.9337409,1.6313766,-14.681902,31.125256,51.070103,1.2906965,-3.3447957,-22.814417
86,3.8214192390441895,21.30647087097168,75.3851089477539,3.6076330643571843,8.445261788280998,138.1426927693838,15.808284,15.161842,53.264603,4.5701604,6.093973,-15.000033,-27.604607,-34.483757,-43.06095,40.152855,-16.848661,-0.4483541,-14.340143,-4.246736,9.246047,-22.197773,16.06807,-57.354668,62.794346,14.370811,-0.6543667,3.9885576,1.9151213,-14.543255,31.301857,51.123596,1.3061422,-3.3685799,-22.7762
87,3.8741660118103027,22.195758819580078,75.26947784423828,3.8463513167520396,8.515832780904594,137.4146723838898,16.370373,15.527442,53.212456,4.8302794,7.208707,-15.000033,-28.492836,-33.99671,-41.45593,41.395714,-16.611755,-1.3071533,-14.254499,-4.549598,8.952211,-21.942307,16.100637,-56.83309,62.462105,14.458055,-0.693247,4.050152,2.146212,-14.38906,31.505342,51.20953,1.4299417,-3.3819654,-22.777493
88,3.9311203956604004,23.100385665893555,75.16891479492188,4.037081227241434,8.485428565400305,136.54013674164204,17.084202,15.970978,53.097733,5.204655,8.419683,-15.000033,-29.181528,-33.382175,-39.99257,42.540085,-16.615253,-2.0337343,-14.062388,-4.868482,8.783579,-21.629032,16.149614,-56.213852,62.13808,14.372343,-0.77902424,4.21831,2.2722602,-14.226516,31.76074,51.358852,1.7588165,-3.4178517,-22.818079
89,3.994553804397583,24.02207374572754,75.07718658447266,4.107488964598461,8.368021564384746,135.51431046432324,17.138817,17.628105,52.627396,8.3404455,8.4251795,-15.000033,-29.62225,-32.59309,-38.788136,43.581326,-16.940548,-2.625037,-13.7690325,-5.1198626,8.747032,-21.252527,16.21637,-55.493523,61.81374,14.048909,-0.9165612,4.556976,2.2768884,-14.062931,32.110348,51.581177,2.4706926,-3.5066707,-22.958889
90,4.068418025970459,24.958890914916992,74.98451232910156,3.924253180893827,8.231444208228734,134.4270549882541,16.914886,19.971945,51.867325,12.448416,8.136704,-15.000033,-29.810738,-31.528387,-37.926174,44.5411,-17.493334,-3.196331,-13.454348,-5.1329083,8.7968445,-20.811928,16.296862,-54.67255,61.464493,13.559289,-1.0916692,4.996171,2.1840177,-13.907488,32.53119,51.85851,3.4646564,-3.6265676,-23.173923
91,4.153400421142578,25.89980125427246,74.88040924072266,3.4329958739468496,8.084141411472475,133.33589594638613,16.47959,22.823547,50.816963,17.024096,7.7233744,-15.000033,-29.687122,-30.133324,-37.460976,45.309914,-18.180052,-3.7366312,-13.151346,-4.8396993,8.938026,-20.323158,16.373465,-53.749683,61.10892,12.994461,-1.3056967,5.4363613,2.023161,-13.781974,32.930336,52.153973,4.4170427,-3.7268934,-23.333164
92,4.258300304412842,26.85001564025879,74.77933502197266,2.7344125466357103,7.884024192225462,132.243936424549,16.035547,25.762344,49.551483,21.43825,7.384463,-15.000033,-29.267977,-28.472332,-37.248753,45.818596,-18.9012,-4.2109504,-12.874219,-4.3563304,9.183246,-19.775755,16.449394,-52.682907,60.760075,12.460702,-1.5595505,5.778965,1.7885957,-13.676668,33.26218,52.473354,5.0118484,-3.7526548,-23.31948
93,4.371613502502441,27.79458236694336,74.67369079589844,1.824520254979279,7.576059537029764,131.08837426492155,15.670261,28.87408,48.165478,25.817337,7.124844,-15.000033,-28.515665,-26.464499,-37.237915,45.994026,-19.658997,-4.6065125,-12.561933,-3.7075593,9.587331,-19.1458,16.516823,-51.412544,60.424263,11.937113,-1.9040419,5.9947996,1.4867202,-13.59919,33.47787,52.810402,5.158566,-3.6788793,-23.022993
94,4.473110675811768,28.73775291442871,74.56448364257812,0.731408267463403,7.1689965273257235,129.8728862828632,15.344615,32.088882,46.538498,30.081846,6.989025,-15.000033,-27.485533,-24.147417,-37.386673,45.864536,-20.467447,-4.9329605,-12.196653,-2.9083529,10.132012,-18.457624,16.560564,-49.996307,60.107117,11.380357,-2.321233,6.1378345,1.1401355,-13.557655,33.597477,53.141174,5.0242977,-3.5365343,-22.531857
95,4.560482501983643,29.679065704345703,74.47063446044922,-0.3807454673750003,6.7302625097379005,128.70106170382746,14.876604,34.98154,44.421364,33.94228,6.9398227,-15.000033,-26.347637,-21.780819,-37.57565,45.539394,-21.253494,-5.1892877,-11.867778,-2.0790834,10.714889,-17.76794,16.583748,-48.562202,59.814484,10.859104,-2.7071705,6.23616,0.75661826,-13.545696,33.689465,53.452873,4.683854,-3.3541658,-22.028486
96,4.638286113739014,30.589176177978516,74.4020004272461,-1.317012123849462,6.342948727581631,127.67578015360135,14.148783,37.204067,42.116352,37.223385,6.8746448,-13.598041,-25.289194,-19.679522,-37.691635,45.16174,-21.949417,-5.369796,-11.581388,-1.3614162,11.23849,-17.18116,16.578638,-47.337852,59.574062,10.413369,-2.9562168,6.3250966,0.4020625,-13.557199,33.73026,53.683643,4.191793,-3.1581328,-21.686241
97,4.722914218902588,31.4599552154541,74.35382843017578,-1.7833310299569136,6.106981652711343,126.93030535555269,12.875953,38.425938,39.293568,40.078804,6.61515,-11.326461,-24.535166,-18.30181,-37.636658,45.033592,-22.664347,-5.4201646,-11.537986,-1.0228412,11.554998,-16.67679,16.549753,-46.251137,59.381565,10.097337,-3.0177698,6.376459,0.04598519,-13.586775,33.794075,53.833527,3.4375799,-2.9240391,-21.593838
98,4.7949981689453125,32.27891159057617,74.31432342529297,-1.9551098376403757,5.93923990763548,126.347444936693,11.153762,38.914005,35.80617,42.804153,6.186346,-9.221552,-23.917686,-17.360497,-37.496967,45.042355,-23.428915,-5.3639054,-11.5751095,-0.9433254,11.775293,-16.260946,16.493574,-45.32309,59.249866,9.84285,-2.9523597,6.391476,-0.28901815,-13.626638,33.78355,53.906143,2.4136355,-2.6483796,-21.635569
99,4.866237640380859,33.075340270996094,74.28905487060547,-2.0510895290681526,5.778406315900188,125.78132468848892,9.267992,38.921295,32.031395,45.39862,5.74711,-7.5646987,-23.294884,-16.503233,-37.320065,44.98337,-24.150667,-5.2629642,-11.561856,-0.925343,11.988739,-15.918423,16.41627,-44.542435,59.186836,9.639076,-2.8368998,6.434701,-0.6360755,-13.674313,33.745617,53.97173,1.4098792,-2.3825579,-21.71205
100,4.926630973815918,33.85834884643555,74.29193115234375,-2.0981375057534692,5.643385106187111,125.16980998244314,7.407385,38.53229,28.389324,47.787754,5.444709,-6.514353,-22.690317,-15.671033,-37.06916,44.81085,-24.781046,-5.145937,-11.494822,-0.9218713,12.168045,-15.632943,16.28282,-43.835518,59.23893,9.503089,-2.754841,6.57111,-1.0326036,-13.762531,33.782085,54.086906,0.7346667,-2.1777964,-21.732456
101,4.969574451446533,34.6234245300293,74.32036590576172,-2.084270737770152,5.551368269305758,124.52748481182968,5.552265,37.59666,24.69969,49.936474,5.332099,-6.3667936,-22.118055,-14.893361,-36.752975,44.532864,-25.32251,-5.0110908,-11.32619,-0.9446546,12.305344,-15.45237,16.119587,-43.33108,59.415558,9.399705,-2.7200737,6.857596,-1.4495227,-13.8816185,33.826763,54.23059,0.47739184,-2.076712,-21.692583
102,5.0068817138671875,35.37162399291992,74.36884307861328,-2.003250816991909,5.489752403866847,123.88001310814828,3.7150352,36.12159,20.926111,51.96367,5.256512,-6.978595,-21.55744,-14.190924,-36.392105,44.17169,-25.801449,-4.849066,-11.098492,-1.0025381,12.414747,-15.361304,15.926091,-42.98379,59.698997,9.346667,-2.692874,7.24557,-1.8878881,-14.0354,33.8845,54.383347,0.4791809,-2.0409648,-21.6379
103,5.0272016525268555,36.10807418823242,74.44274139404297,-1.8941659413722698,5.432770211283985,123.18080326997013,2.074993,34.511074,17.651072,53.96815,5.07795,-7.801672,-20.97986,-13.490512,-35.965252,43.701473,-26.202179,-4.675737,-10.788627,-1.0681318,12.512963,-15.295407,15.7044,-42.688747,60.036015,9.350241,-2.66286,7.6467805,-2.3478255,-14.220386,33.9754,54.560078,0.6241633,-2.0090394,-21.541134
104,5.041613578796387,36.84532165527344,74.5401382446289,-1.8011597106275083,5.355439759009812,122.3820642704451,0.7320092,33.220528,15.378133,55.997524,4.717059,-8.252286,-20.353281,-12.711432,-35.45005,43.08707,-26.502935,-4.505792,-10.375374,-1.1109346,12.615563,-15.185999,15.459359,-42.33804,60.36958,9.417648,-2.6193404,7.9722047,-2.8362367,-14.428748,34.123856,54.78466,0.7963485,-1.9199947,-21.375269
105,5.045414924621582,37.58021545410156,74.65975952148438,-1.7306455909708758,5.249559785125804,121.44389166339218,-0.28037834,32.453182,14.332557,58.047897,4.169881,-8.127994,-19.670553,-11.827201,-34.815002,42.307404,-26.689287,-4.3405867,-9.830321,-1.1299874,12.727323,-15.01256,15.192984,-41.887154,60.693302,9.587427,-2.5456965,8.20071,-3.3754077,-14.654926,34.358284,55.098305,1.0332212,-1.7653757,-21.132542
106,5.0438361167907715,38.30336380004883,74.7967529296875,-1.6666797231163542,5.130177300991053,120.39930787551518,-1.0593287,32.025185,14.156007,60.06376,3.482808,-7.7069693,-18.937582,-10.878604,-34.078884,41.376163,-26.770578,-4.1731644,-9.178478,-1.1342379,12.83886,-14.806438,14.908468,-41.39272,61.027073,9.842839,-2.451294,8.377808,-3.9637916,-14.896017,34.670773,55.486958,1.3746359,-1.5741755,-20.829117
107,5.032510757446289,39.033111572265625,74.94387817382812,-1.6177247331540452,5.006307257864243,119.30886253166253,-1.7238932,31.808718,14.450236,61.98949,2.6855638,-7.121986,-18.14368,-9.88821,-33.292374,40.307617,-26.758167,-4.0030675,-8.476269,-1.1103925,12.943441,-14.571055,14.614323,-40.894905,61.348106,10.115955,-2.364649,8.514179,-4.570473,-15.147406,35.024796,55.891983,1.7050042,-1.3425286,-20.474075
108,5.010268688201904,39.77912902832031,75.1081771850586,-1.5914765885074085,4.88668960078556,118.23403897639656,-2.3943865,31.64768,14.830621,63.768147,1.8188528,-6.522884,-17.280674,-8.879222,-32.506046,39.117306,-26.663637,-3.8287656,-7.7813396,-1.04698,13.034443,-14.307492,14.323682,-40.434406,61.62928,10.337587,-2.3141048,8.620905,-5.166317,-15.403556,35.383747,56.254677,1.9095588,-1.0678325,-20.075413
109,4.9817728996276855,40.50954055786133,75.27910614013672,-1.6063654219937609,4.759738450327057,117.14992054452168,-3.0278056,31.600695,15.380769,65.40393,0.8570902,-5.896867,-16.329802,-7.81506,-31.69608,37.772854,-26.46591,-3.6557224,-7.0773683,-0.9274565,13.11961,-13.998687,14.0470295,-40.012253,61.839718,10.497916,-2.3033962,8.6605215,-5.7691374,-15.662098,35.767265,56.597214,1.9664694,-0.7227951,-19.611149
110,4.944226264953613,41.25095748901367,75.4587173461914,-1.649477795277971,4.623881848577213,116.03777730313224,-3.5714839,31.709944,16.24195,66.911934,-0.21153867,-5.1861033,-15.295043,-6.7049694,-30.839811,36.274574,-26.163216,-3.4772034,-6.346297,-0.76796424,13.198496,-13.640274,13.788901,-39.60926,61.984966,10.629594,-2.318331,8.63947,-6.3894343,-15.92157,36.187897,56.940525,1.9318862,-0.31940427,-19.083881
111,4.902677059173584,41.98741149902344,75.64717864990234,-1.6825356666169295,4.503830474093141,114.96864706422858,-4.155203,31.779072,17.123234,68.257996,-1.307524,-4.4830856,-14.208124,-5.637535,-29.995481,34.685143,-25.796118,-3.275218,-5.642357,-0.6068637,13.25241,-13.254925,13.553506,-39.239296,62.09626,10.723843,-2.3605838,8.634746,-6.986749,-16.177855,36.590847,57.226284,1.8050599,0.08378851,-18.537552
112,4.861578941345215,42.73585510253906,75.83899688720703,-1.67059917244395,4.4256875175184325,114.01377497747147,-4.9232574,31.61324,17.737074,69.406975,-2.3407507,-3.8786354,-13.107179,-4.6960697,-29.226244,33.071815,-25.409973,-3.0352063,-5.0159574,-0.48160964,13.2644615,-12.867533,13.343682,-38.920216,62.208054,10.7716675,-2.4314773,8.723704,-7.5207577,-16.42699,36.915524,57.397224,1.586501,0.42849,-18.01686
113,4.822422504425049,43.49089813232422,76.03424072265625,-1.618884020293303,4.403677227802386,113.19043312922119,-5.9380794,31.175776,18.016102,70.3603,-3.3176093,-3.3807554,-11.991592,-3.877159,-28.553768,31.404432,-24.99736,-2.7588627,-4.481168,-0.38845816,13.223401,-12.4759865,13.161914,-38.665382,62.31788,10.73515,-2.554645,8.937026,-7.987741,-16.66711,37.152363,57.45328,1.2207253,0.7054692,-17.517975
114,4.7745680809021,44.23696517944336,76.22823333740234,-1.5428042544918785,4.422028368666116,112.46111553211706,-7.1206045,30.557304,18.12272,71.12876,-4.261776,-2.9495897,-10.847136,-3.1412683,-27.945763,29.659534,-24.540287,-2.452521,-4.0093064,-0.3149691,13.14161,-12.068837,13.009348,-38.46521,62.410275,10.630275,-2.721842,9.229575,-8.409324,-16.89893,37.326393,57.423985,0.72565573,0.94084835,-17.021612
115,4.715460300445557,44.96881103515625,76.412841796875,-1.4262944387395953,4.463054776354102,111.815012886193,-8.407547,29.761827,18.119057,71.68779,-5.1032057,-2.6016695,-9.695702,-2.5122442,-27.389124,27.916243,-24.069979,-2.1127102,-3.5859435,-0.28194496,13.039736,-11.658584,12.885271,-38.302242,62.50301,10.528498,-2.8865485,9.565432,-8.782656,-17.123428,37.428955,57.29631,0.21392307,1.1303984,-16.551025
116,4.657064914703369,45.69750213623047,76.58975982666016,-1.2532958251326236,4.509303111790013,111.24114524569752,-9.733327,28.79773,18.06713,72.013245,-5.7751822,-2.3517466,-8.56043,-2.0140805,-26.872395,26.256363,-23.62018,-1.7379974,-3.1957695,-0.3085699,12.938342,-11.259395,12.787147,-38.16119,62.616024,10.499372,-3.0011237,9.909602,-9.104399,-17.342876,37.45001,57.057518,-0.20219918,1.2724164,-16.130287
117,4.610100746154785,46.4077262878418,76.75547790527344,-0.9997275238799025,4.558854340588916,110.75955794181185,-11.103064,27.623266,17.964973,72.08938,-6.2283196,-2.1849282,-7.449916,-1.6888821,-26.405924,24.715559,-23.210812,-1.3153737,-2.8481033,-0.41775796,12.83801,-10.878884,12.712965,-38.05871,62.762646,10.582521,-3.0434046,10.258858,-9.355056,-17.559484,37.36029,56.680172,-0.5018779,1.3636727,-15.768883
118,4.526947975158691,47.171600341796875,76.92449188232422,-0.684330524228188,4.6201985839513275,110.36811893143245,-12.533526,26.25415,17.799118,71.92382,-6.5021772,-2.0995743,-6.354298,-1.5058653,-25.997932,23.251179,-22.827068,-0.8550642,-2.5444834,-0.5886888,12.731787,-10.510513,12.661563,-37.99694,62.933258,10.733837,-3.0408232,10.630342,-9.539583,-17.775436,37.170124,56.176582,-0.7406343,1.4081651,-15.454127
119,4.457697868347168,47.897064208984375,77.06854248046875,-0.3556758184017823,4.69151770698762,110.02242463171271,-13.983043,24.78834,17.60623,71.53388,-6.6711297,-2.129697,-5.270834,-1.3812442,-25.632378,21.829996,-22.450417,-0.3890032,-2.2594528,-0.77421075,12.6280775,-10.148113,12.632012,-37.93816,63.112316,10.895301,-3.019416,11.020109,-9.691245,-17.992023,36.93125,55.5924,-0.9209928,1.4166828,-15.176768
120,4.397796630859375,48.63756561279297,77.19432067871094,-0.061250044662038386,4.771050857013436,109.67782029888474,-15.412531,23.322891,17.418158,70.934685,-6.8104205,-2.307253,-4.1962347,-1.2327601,-25.290257,20.415413,-22.05716,0.054149196,-1.9705318,-0.92933524,12.535037,-9.782725,12.623546,-37.838593,63.285572,11.012593,-3.009102,11.424394,-9.847897,-18.208887,36.7011,54.976273,-1.043811,1.3994508,-14.927589
121,4.333226680755615,49.367977142333984,77.2999038696289,0.19436027367324654,4.862140433188015,109.34126574306939,-16.830978,21.859615,17.2247,70.115425,-6.9428697,-2.6728413,-3.1253235,-1.0511376,-24.99452,18.981552,-21.632969,0.4903638,-1.6841025,-1.0487195,12.449033,-9.415432,12.637574,-37.68987,63.452133,11.156828,-3.0033522,11.858538,-10.008246,-18.42373,36.474194,54.317158,-1.0919746,1.3498297,-14.703718
122,4.267475605010986,50.093685150146484,77.3983383178711,0.4333851691804964,4.963256218613386,109.02886707559288,-18.246721,20.361914,17.013391,69.065735,-7.0314565,-3.1933074,-2.0616693,-0.8729241,-24.744846,17.552189,-21.190475,0.9289152,-1.409858,-1.154412,12.36769,-9.046935,12.674989,-37.5097,63.616863,11.329291,-2.9911513,12.318742,-10.159869,-18.635302,36.231068,53.600986,-1.069267,1.2662982,-14.510567
123,4.207560062408447,50.82206726074219,77.47056579589844,0.6514498352461413,5.065606775035613,108.70887635538357,-19.625538,18.869625,16.805403,67.80358,-7.062588,-3.7889192,-1.008915,-0.68465537,-24.485783,16.147894,-20.743309,1.3332894,-1.1296754,-1.2434874,12.299573,-8.6660185,12.733905,-37.29447,63.768806,11.37134,-2.9942832,12.772583,-10.322329,-18.84356,36.008606,52.87032,-1.0079485,1.1669499,-14.35187
124,4.151392936706543,51.548885345458984,77.5196304321289,0.8415671435907072,5.160691029950107,108.35002468231399,-20.937387,17.423412,16.616941,66.350586,-7.0238,-4.380832,0.030949432,-0.47336638,-24.162355,14.787863,-20.303452,1.6669679,-0.82810396,-1.3115253,12.252905,-8.261671,12.811246,-37.037586,63.89847,11.125357,-3.037704,13.187355,-10.517712,-19.0482,35.846973,52.169437,-0.93982744,1.069421,-14.231569
125,4.089817047119141,52.28132629394531,77.55699920654297,0.9925011972222577,5.24627612717374,107.93904401265803,-22.19005,16.032242,16.427128,64.70508,-6.9229136,-4.956327,1.0494255,-0.2247717,-23.748184,13.485044,-19.86655,1.9100032,-0.4939044,-1.3491107,12.232001,-7.8281827,12.905149,-36.708042,64.004814,10.396362,-3.1726956,13.572015,-10.755938,-19.249859,35.765182,51.502342,-0.8432103,0.96959555,-14.166986
126,4.02189302444458,53.022117614746094,77.576171875,1.1095514599238683,5.32613973507135,107.49302015518147,-23.392866,14.687721,16.222319,62.853912,-6.768139,-5.547967,2.0520496,0.05203455,-23.275568,12.224827,-19.425795,2.087127,-0.13916138,-1.3581818,12.231146,-7.370001,13.015381,-36.314995,64.092476,9.321915,-3.377001,13.935084,-11.026761,-19.447636,35.74324,50.850006,-0.70999396,0.86091995,-14.150641
127,3.9405670166015625,53.74995422363281,77.57148742675781,1.206940909030403,5.401271645090146,107.02696436538311,-24.520782,13.400964,16.026257,60.80071,-6.542242,-6.1487365,3.0553815,0.33362392,-22.778185,10.989591,-18.995302,2.2283962,0.21779014,-1.3508769,12.242717,-6.894235,13.140523,-35.917248,64.16366,8.239724,-3.5619085,14.246761,-11.321051,-19.638222,35.759846,50.223007,-0.5944699,0.75725585,-14.149894
128,3.882572889328003,54.477691650390625,77.55430603027344,1.2988501532373464,5.47322344254566,106.55622043521942,-25.547573,12.178048,15.863872,58.543705,-6.223718,-6.755314,4.0740857,0.59730905,-22.290741,9.763449,-18.5854,2.3632865,0.5601085,-1.3391423,12.258883,-6.411815,13.277959,-35.57511,64.22442,7.4865685,-3.6335824,14.482422,-11.629991,-19.816692,35.792217,49.63306,-0.55034083,0.6724287,-14.132271
129,3.8111462593078613,55.220699310302734,77.5186996459961,1.3958179351076188,5.5422239212763245,106.09175514078265,-26.479435,10.969818,15.689389,56.046497,-5.7641807,-7.3972735,5.1297135,0.83630806,-21.82933,8.50082,-18.189451,2.5279922,0.879328,-1.3329511,12.2813015,-5.9301944,13.425258,-35.282787,64.27444,7.188322,-3.523481,14.629836,-11.957036,-19.979858,35.834072,49.085365,-0.60874623,0.6101166,-14.100654
130,3.725801467895508,55.97371292114258,77.47013092041016,1.487157710818516,5.607332784227337,105.62177897912322,-27.317081,9.793866,15.496894,53.306423,-5.185536,-8.0635395,5.9736376,0.9679985,-21.375822,7.75881,-18.086304,2.7022684,1.1892387,-1.3222713,12.311683,-5.447002,13.581207,-35.018356,64.31876,7.151562,-3.292305,14.706691,-12.306186,-20.12687,35.895645,48.577625,-0.73648494,0.5624133,-14.068866
131,3.6443095207214355,56.72287368774414,77.40245056152344,1.5523374747165228,5.667834530722635,105.12832438995108,-28.03516,8.747269,15.373978,50.379448,-4.569027,-8.695861,6.5463057,1.0005331,-20.911707,7.666309,-18.31648,2.8232684,1.505745,-1.2884406,12.342111,-4.9593143,13.74482,-34.81754,64.371635,7.235341,-3.0381997,14.735613,-12.669506,-20.257069,35.977882,48.1124,-0.892257,0.52576584,-14.020895
132,3.5518674850463867,57.4920539855957,77.31938171386719,1.5696535518076433,5.722317665981919,104.59510685024654,-28.612865,7.916259,15.412809,47.322567,-3.986713,-9.241442,7.129399,1.0767488,-20.413284,7.582353,-18.517817,2.8217041,1.8457456,-1.2122115,12.3651,-4.4676557,13.914662,-34.72084,64.45083,7.29607,-2.861409,14.740215,-13.035666,-20.370245,36.0778,47.68906,-1.0354787,0.4963766,-13.940176
133,3.45613956451416,58.27005386352539,77.21896362304688,1.530489616978227,5.774014528133844,104.01697287004498,-29.043827,7.3065414,15.631459,44.098576,-3.447643,-9.711781,7.716094,1.210562,-19.86835,7.508321,-18.67473,2.6466959,2.2150764,-1.079055,12.374962,-3.982506,14.090974,-34.76867,64.57781,7.3086596,-2.7951815,14.739278,-13.406029,-20.467623,36.192238,47.310944,-1.1602238,0.471815,-13.815425
134,3.349489450454712,59.05952453613281,77.10560607910156,1.4406888006794865,5.818840201721936,103.40325086152367,-29.333397,6.857172,15.985283,40.673466,-2.8969278,-10.139343,8.313636,1.3914241,-19.289795,7.4414396,-18.800884,2.342005,2.6071649,-0.89682895,12.378457,-3.5051687,14.27324,-34.93369,64.742584,7.3443074,-2.7846692,14.716606,-13.780934,-20.55004,36.319405,46.97404,-1.2876961,0.45420873,-13.657004
135,3.242915391921997,59.862579345703125,76.97103881835938,1.3099801429170972,5.8445231920558625,102.75961597364977,-29.483944,6.544872,16.478434,37.11242,-2.313055,-10.510328,8.942859,1.6067619,-18.695269,7.378378,-18.916668,1.9849002,3.0177333,-0.68059504,12.385168,-3.019172,14.459013,-35.150173,64.90926,7.4067173,-2.7925184,14.643534,-14.152542,-20.617353,36.462574,46.673138,-1.4162278,0.44717652,-13.481944
136,3.1428563594818115,60.68281555175781,76.82498168945312,1.1481410608722622,5.839242336519718,102.09040892924104,-29.499674,6.346379,17.11695,33.482697,-1.6770082,-10.810905,9.622264,1.8421751,-18.100513,7.3191886,-19.045395,1.6532402,3.4421163,-0.44612,12.404313,-2.5061462,14.644858,-35.349873,65.04155,7.5006137,-2.7819278,14.491569,-14.515278,-20.66859,36.626774,46.405952,-1.5446748,0.45407286,-13.30719
137,3.038224220275879,61.509620666503906,76.65474700927734,0.9511394398565571,5.791265705789,101.392537064087,-29.342287,6.2973466,18.03843,29.74952,-0.9757219,-10.994782,10.366167,2.104168,-17.518496,7.2636104,-19.20342,1.3416164,3.8818886,-0.19016281,12.445054,-1.9618644,14.829756,-35.531635,65.137314,7.6408043,-2.7542152,14.261835,-14.877948,-20.703041,36.82097,46.174137,-1.6728284,0.48733792,-13.128709
138,2.927201271057129,62.3524055480957,76.46612548828125,0.7106186495017661,5.703335404280631,100.65590211998455,-29.011253,6.3607087,19.212435,25.864475,-0.20088562,-11.109025,11.16775,2.4022188,-16.926197,7.2104297,-19.375254,1.0157422,4.3450503,0.10027673,12.503447,-1.3940123,15.013989,-35.7227,65.2136,7.8217745,-2.7260728,13.966761,-15.240876,-20.719671,37.04205,45.979477,-1.801581,0.5413173,-12.9399605
139,2.809891700744629,63.21869659423828,76.26238250732422,0.42592705000272185,5.584344940595484,99.87082319089345,-28.571535,6.439137,20.383732,21.888561,0.64961576,-11.265417,12.012633,2.729297,-16.282011,7.162656,-19.534761,0.7100779,4.8394294,0.42807707,12.569018,-0.8015872,15.195406,-35.898586,65.26377,8.016377,-2.683797,13.594715,-15.591776,-20.717985,37.28069,45.82674,-1.92843,0.5924745,-12.754836
140,2.6963694095611572,64.09418487548828,76.0362777709961,0.0889207426804322,5.443040651009179,99.02392876472037,-28.08939,6.4839597,21.284674,17.89996,1.5661277,-11.555064,12.889617,3.0851445,-15.540496,7.1169643,-19.657923,0.45955315,5.3770843,0.8062864,12.627938,-0.19134183,15.357995,-36.03367,65.29737,8.202286,-2.6142492,13.135934,-15.916792,-20.699785,37.527172,45.722324,-2.0516703,0.6174451,-12.587001
141,2.579324960708618,64.983642578125,75.78766632080078,-0.31813336160421035,5.265430837184508,98.08279872098709,-27.537941,6.534718,21.874973,13.823541,2.5458114,-11.995305,13.815625,3.4813268,-14.663649,7.0716763,-19.762945,0.27472913,5.979248,1.248128,12.687291,0.4724041,15.521534,-36.105442,65.27698,8.370769,-2.5090532,12.562906,-16.228134,-20.663,37.8046,45.681244,-2.1633742,0.5984547,-12.438618
142,2.4531805515289307,65.9023208618164,75.51970672607422,-0.8070371584787596,5.03784743811094,97.05482033976837,-26.8202,6.6352873,22.288168,9.513235,3.6618495,-12.528028,14.786568,3.9266644,-13.66954,7.069643,-19.878677,0.13460895,6.6407385,1.7700357,12.756089,1.1826596,15.6817465,-36.130737,65.21264,8.536958,-2.3777595,11.889775,-16.529306,-20.606098,38.112053,45.699467,-2.2674756,0.5518004,-12.303013
143,2.3311009407043457,66.83226776123047,75.24622344970703,-1.3272239387295495,4.791078409200568,95.9910562965262,-26.748968,7.0669975,22.436789,6.857522,4.008551,-13.116247,15.779534,4.3624387,-12.605138,7.0733213,-19.935188,0.036779635,7.33054,2.3233125,12.816206,1.8859351,15.819564,-36.143612,65.14848,8.709044,-2.2320392,11.164279,-16.78991,-20.535828,38.401684,45.739555,-2.3760917,0.50579673,-12.180574
144,2.1935641765594482,67.7847900390625,74.97587585449219,-1.811519585388433,4.565140295267076,94.96337123898888,-27.68822,7.887305,22.257502,6.6941743,3.2316325,-13.713298,16.750708,4.720899,-11.545121,7.0777574,-19.884315,-0.019561488,7.9822707,2.8362446,12.853666,2.5622668,15.954721,-36.16073,65.07742,8.8930235,-2.0818448,10.428659,-17.000967,-20.440708,38.640583,45.77901,-2.5008233,0.48728722,-12.074776
145,2.06333065032959,68.7527847290039,74.72483825683594,-2.2368811057185294,4.385646460865011,93.99088745068346,-28.605488,8.578292,21.73012,6.52636,2.676884,-14.344785,17.676577,4.9778376,-10.518462,7.07756,-19.730824,-0.024124421,8.604227,3.294297,12.856147,3.1430748,16.029524,-36.208508,65.0728,9.069011,-1.9223363,9.699522,-17.123314,-20.371618,38.79009,45.76315,-2.6616461,0.5104921,-11.979806
146,1.9301493167877197,69.72277069091797,74.47783660888672,-2.6544362871208302,4.236616336194013,93.04840103031758,-29.535221,9.224403,20.879019,6.445303,2.2394097,-15.000033,18.578318,5.193108,-9.498353,7.0708456,-19.495049,0.021072729,9.188123,3.7340305,12.8279505,3.7081487,16.099888,-36.2478,65.04929,9.238529,-1.7481549,8.945344,-17.206,-20.289738,38.90508,45.748844,-2.842208,0.5572717,-11.899426
147,1.7702457904815674,70.70157623291016,74.254638671875,-2.9542339189626152,4.127852067116258,92.23922174209915,-30.344564,9.620618,20.061071,6.320298,1.9265416,-15.000033,19.447283,5.2544565,-8.6001005,7.0700316,-19.162733,0.13808751,9.6441345,4.06111,12.778918,4.2381153,16.15819,-36.301037,65.04092,9.450631,-1.580736,8.165392,-17.217255,-20.20521,38.972225,45.715378,-3.013277,0.61360085,-11.837239
148,1.6091667413711548,71.6960220336914,74.06111907958984,-3.1544574493993975,4.045195284171452,91.56451874832966,-30.940315,9.894474,19.53793,6.2366524,1.6670299,-15.000033,20.287508,5.1995516,-7.8204093,7.089869,-18.71159,0.2987019,9.968888,4.2745957,12.710405,4.7464066,16.238197,-36.388973,65.044914,9.74153,-1.4405241,7.352927,-17.164858,-20.067444,38.99131,45.708893,-3.1502423,0.6628652,-11.801966
149,1.4547761678695679,72.71346282958984,73.88378143310547,-3.24543570653421,3.9955891786342574,91.01165798942603,-31.309917,10.066984,19.42503,6.211871,1.4291325,-15.000033,21.0981,5.0114617,-7.146377,7.110927,-18.150934,0.51524204,10.180095,4.3707113,12.630199,5.206306,16.31219,-36.51642,65.09885,10.170706,-1.3483355,6.4805264,-17.026453,-19.912903,38.940163,45.68112,-3.267643,0.7136833,-11.783148
150,1.2901287078857422,73.74381256103516,73.72386932373047,-3.246294797193796,3.983773173305526,90.56415175560882,-31.495773,10.134116,19.561226,6.218037,1.2573906,-15.000033,21.875538,4.7161894,-6.567698,7.1358657,-17.487804,0.7889563,10.298451,4.3651905,12.528599,5.6233544,16.38812,-36.686825,65.18779,10.691974,-1.2912174,5.5589976,-16.820036,-19.721432,38.817852,45.662395,-3.3788085,0.7685759,-11.781702
151,1.1201423406600952,74.7975845336914,73.59072875976562,-3.1669700598442585,4.012210373528454,90.22739202036288,-31.51429,10.074291,19.872095,6.2408047,1.2082225,-15.000033,22.617687,4.3422046,-6.0998497,7.1665936,-16.672731,1.091861,10.328388,4.2688265,12.385262,5.9903994,16.46082,-36.905724,65.31606,11.217764,-1.243351,4.648,-16.52717,-19.494942,38.63579,45.663223,-3.4448407,0.8110994,-11.806481
152,0.9510210752487183,75.87557220458984,73.47012329101562,-3.033765944575624,4.081733919524536,89.99877536908426,-31.409369,9.90005,20.267433,6.3230495,1.3101244,-15.000033,23.319365,3.9358988,-5.7429333,7.205714,-15.645304,1.3884275,10.248636,4.132177,12.197371,6.309101,16.49764,-37.12986,65.47437,11.682355,-1.177687,3.8068373,-16.086596,-19.344194,38.454456,45.573456,-3.3923478,0.8332105,-11.864169
153,0.7760244607925415,76.98075866699219,73.36831665039062,-2.801920074355224,4.188789063766396,89.90607880527988,-31.044151,9.530577,20.966042,6.352948,1.5719059,-15.000033,23.996489,3.4404647,-5.5253158,7.2580824,-14.435656,1.6965623,10.098049,3.896284,11.942716,6.554079,16.532385,-37.470215,65.70061,12.014111,-1.0862893,3.041193,-15.491031,-19.16722,38.181873,45.486553,-3.245566,0.8279366,-11.967577
154,0.605846643447876,78.10668182373047,73.2754898071289,-2.505596863469745,4.316082431964861,89.90661623504793,-30.492035,9.067637,21.919537,6.500443,1.8961138,-15.000033,24.212643,2.8348525,-5.4166007,8.270245,-13.555834,2.0116913,9.878804,3.5964022,11.646043,6.744508,16.557852,-37.87057,65.97835,12.2779455,-0.9834626,2.3191721,-14.76512,-18.992428,37.859722,45.380787,-3.0092826,0.79951453,-12.105229
155,0.42311781644821167,79.26243591308594,73.2165756225586,-2.0249704163512585,4.521946558453632,90.01544953393635,-29.87391,8.33977,22.765295,6.572289,2.4637895,-15.000033,23.738815,1.9903464,-5.4611144,10.559046,-13.104539,2.323997,9.600637,3.0966377,11.281647,6.859467,16.578194,-38.330956,66.28488,12.508888,-0.85748446,1.6571689,-13.943663,-18.793306,37.46791,45.29322,-2.7236657,0.7446571,-12.259328
156,0.23702630400657654,80.4169692993164,73.18572235107422,-1.4626949263027118,4.8100991242791595,90.15890140799524,-29.473736,7.439399,23.117477,6.74309,3.2848656,-14.00955,23.00089,1.0549642,-5.540433,13.148656,-12.487479,2.5932791,9.36108,2.475385,10.803351,6.8967576,16.600239,-38.858967,66.6128,12.730048,-0.6970986,1.0662465,-13.141441,-18.429543,36.9843,45.425774,-2.456996,0.6445513,-12.402838
157,0.0549350269138813,81.60228729248047,73.16690826416016,-0.6246008385946987,5.2832341934196485,90.40393897778223,-29.373032,6.0802445,22.777815,6.8345747,4.687221,-11.743543,21.797693,-0.18635723,-5.7077837,16.274538,-11.788369,2.7872033,8.925502,1.565115,10.192645,6.977233,16.598032,-39.208054,66.82945,13.066003,-0.4757728,0.5349131,-12.322707,-18.105322,36.629303,45.539284,-2.0879886,0.49819583,-12.541924
158,-0.15624257922172546,82.8074722290039,73.17786407470703,0.3942705295201318,5.879647294053355,90.67832868303965,-30.705992,4.980623,21.933832,9.7731495,5.089069,-8.706283,20.333685,-1.6357934,-5.8440833,19.630554,-10.878834,2.9228258,8.459023,0.46564972,9.461921,7.031042,16.57418,-39.523567,67.014824,13.4453,-0.206232,0.062419675,-11.416725,-17.808264,36.28193,45.627167,-1.6469852,0.31204268,-12.674974
159,-0.3693784177303314,84.00651550292969,73.20658874511719,1.4073480117047323,6.423300958068922,90.93225346607464,-32.32973,4.014757,21.127192,13.474208,5.190201,-5.720352,18.94208,-3.0788648,-5.9225,22.866198,-9.656527,3.114437,8.023445,-0.62018234,8.767302,7.0292344,16.53481,-39.82698,67.18859,13.79768,0.04831694,-0.33653548,-10.464717,-17.534231,35.951042,45.72876,-1.1728914,0.12508808,-12.79998
160,-0.5785163044929504,85.20822143554688,73.228271484375,2.2645007375743904,6.759195566625279,91.14961968141407,-33.370197,3.1769392,20.711227,16.508648,5.23018,-3.5467474,17.845263,-4.3463225,-5.986857,25.83327,-8.127684,3.472567,7.6408596,-1.5312973,8.262595,6.942659,16.489159,-40.1278,67.36544,14.054696,0.22529683,-0.6466373,-9.513205,-17.279942,35.65158,45.878376,-0.7020026,-0.023801785,-12.919023
161,-0.7634391784667969,86.39899444580078,73.25257110595703,2.9523292197079773,6.86708937345621,91.34966997996737,-33.8244,2.5735416,20.69699,19.061874,4.962659,-2.4370656,17.039743,-5.4197826,-6.0631084,28.62543,-6.309337,4.052255,7.2933617,-2.2632384,7.9684167,6.781296,16.444143,-40.403877,67.53414,14.188998,0.29341123,-0.85474277,-8.566896,-17.042387,35.39483,46.080193,-0.23490809,-0.12189543,-13.026203
162,-0.9464126825332642,87.5998764038086,73.28556060791016,3.5493526548741383,6.833456214304283,91.56903907704087,-33.937374,2.1356483,20.837952,21.415483,4.461555,-1.9179584,16.35948,-6.3888264,-6.168249,31.407507,-4.261111,4.7731786,6.9411345,-2.9010556,7.805866,6.5562387,16.401842,-40.65452,67.68285,14.238159,0.2930018,-0.97207415,-7.6104746,-16.817719,35.173733,46.321888,0.24486534,-0.19155112,-13.124573
163,-1.1247636079788208,88.8044204711914,73.3342514038086,4.089084371083499,6.683860311525446,91.83063158682563,-33.77474,1.7751204,21.008165,23.548248,3.75258,-1.6558611,15.721331,-7.3076515,-6.363007,34.2378,-2.104248,5.536078,6.564561,-3.4667253,7.769374,6.236485,16.364307,-40.92126,67.82737,14.232747,0.26860097,-1.0199031,-6.6567316,-16.600605,34.968258,46.60839,0.72534627,-0.24664602,-13.231785
164,-1.2865136861801147,90.00325012207031,73.39080047607422,4.597391302526533,6.439009904564847,92.15011224570858,-33.38188,1.3596853,21.099371,25.372765,2.8954668,-1.3450872,15.052811,-8.240723,-6.703702,37.167065,0.054012626,6.229782,6.151272,-3.9779499,7.8553567,5.7927346,16.332722,-41.248608,67.98419,14.202057,0.26473582,-1.0195664,-5.7178164,-16.387619,34.753628,46.94802,1.1926115,-0.30158475,-13.365667
165,-1.437537431716919,91.17327117919922,73.44992065429688,5.089454238798608,6.050057257394608,92.57052453955141,-32.716312,0.78835344,21.09274,26.86266,1.8264979,-0.94330907,14.407098,-9.28857,-7.3417325,40.277008,2.471809,6.9266286,5.679638,-4.4442186,8.113696,5.1984887,16.307932,-41.68086,68.17983,14.142651,0.2922542,-0.9831992,-4.7532015,-16.175833,34.453217,47.31601,1.6183392,-0.36222813,-13.5301695
166,-1.5805820226669312,92.30883026123047,73.5103988647461,5.559195729404272,5.525767015640586,93.07460051971142,-31.777822,0.11131019,21.035912,28.054716,0.5555323,-0.6196365,13.778888,-10.450206,-8.208106,43.584576,5.090764,7.5911736,5.163865,-4.8752165,8.526903,4.475829,16.288256,-42.193726,68.396324,14.039079,0.32800418,-0.89824,-3.7667036,-15.965426,34.092655,47.717144,2.0148447,-0.42108908,-13.716907
167,-1.716275691986084,93.42037963867188,73.59081268310547,5.997165165431457,4.971347746343928,93.58596759156127,-30.673496,-0.60334593,20.935371,28.938288,-0.73765516,-0.39308158,13.035551,-11.630377,-9.050092,46.987938,7.336073,7.9746537,4.6392226,-5.2797995,8.991545,3.6722562,16.269007,-42.716488,68.583046,13.909324,0.36487937,-0.7487146,-2.8431242,-15.760666,33.806694,48.208244,2.4310331,-0.47324878,-13.924761
168,-1.84135901927948,94.5067138671875,73.6895523071289,6.389246712838439,4.49438838752135,94.02915566276067,-29.514193,-1.2750502,20.804363,29.509756,-1.877782,-0.27805075,12.0457325,-12.694825,-9.626906,50.35504,8.6321535,7.8812585,4.1352487,-5.654277,9.403126,2.8339903,16.245333,-43.1722,68.693405,13.771542,0.3952507,-0.51776606,-2.0720406,-15.566905,33.73866,48.84932,2.918331,-0.5139713,-14.153804
169,-1.9495196342468262,95.57563018798828,73.79671478271484,6.730984292812562,4.116245856489431,94.39809209353632,-28.313082,-1.8978766,20.653204,29.747324,-2.847677,-0.30723527,10.743653,-13.549917,-9.835359,53.747307,8.634544,7.1889453,3.6420696,-5.9888825,9.746381,1.9594183,16.215399,-43.537617,68.71634,13.605001,0.42245346,-0.18295448,-1.4970074,-15.389301,33.949455,49.697968,3.5992086,-0.5723407,-14.451347
170,-2.0531506538391113,96.60564422607422,73.9145736694336,7.025996263656574,3.7852115636217833,94.73125790819627,-27.02556,-2.5116959,20.481987,29.667458,-3.7322853,-0.45763195,9.205279,-14.247613,-9.8124485,57.19952,7.69765,6.075668,3.1385033,-6.2800846,10.069818,1.0310713,16.17893,-43.8449,68.67874,13.410991,0.4474352,0.24097352,-1.069749,-15.229579,34.364376,50.712864,4.413449,-0.6434434,-14.803263
171,-2.1531903743743896,97.63542175292969,74.05752563476562,7.269217229067226,3.5005888343834664,95.01928380795628,-25.677675,-3.0960162,20.289774,29.334784,-4.517556,-0.6612728,7.507915,-14.836949,-9.678684,60.522938,6.3071446,4.8246117,2.6420345,-6.523851,10.365521,0.06860019,16.13439,-44.097183,68.59284,13.2450905,0.45984197,0.7162201,-0.7368078,-15.085685,34.916977,51.801414,5.1367626,-0.6678808,-15.117735
172,-2.2431983947753906,98.62919616699219,74.22510528564453,7.463949327907081,3.2611438842639613,95.254961363762,-24.295279,-3.6279068,20.073124,28.812971,-5.1850796,-0.85391617,5.7318954,-15.406016,-9.577359,63.52975,4.953005,3.6937482,2.1659544,-6.7224727,10.625824,-0.9082753,16.080076,-44.294743,68.471886,13.162606,0.4502835,1.2053454,-0.4512575,-14.953565,35.543526,52.878616,5.545657,-0.5815453,-15.304372
173,-2.3247179985046387,99.63370513916016,74.41704559326172,7.621657317272514,3.080465283230296,95.42161712042376,-22.866255,-4.1154,19.842562,28.056576,-5.7162676,-1.014825,3.8445458,-15.973564,-9.503769,66.20936,3.6878026,2.7268596,1.7257612,-6.886562,10.84673,-1.9112909,16.01495,-44.446617,68.31583,13.2064,0.4103659,1.7187557,-0.24356194,-14.831246,36.286327,53.98405,5.57887,-0.33259535,-15.317274
174,-2.403898239135742,100.61651611328125,74.62352752685547,7.735539453074947,2.9564984055583556,95.52767719843757,-21.381767,-4.5565634,19.598597,27.053055,-6.1267934,-1.1791025,1.8182728,-16.47051,-9.398683,68.64609,2.2842991,1.8106627,1.311348,-7.0072923,11.033062,-2.947757,15.93916,-44.546913,68.12275,13.33814,0.34889778,2.2706542,-0.12831776,-14.718489,37.158096,55.148514,5.3556166,0.035702094,-15.211533
175,-2.4725961685180664,101.60733795166016,74.85559844970703,7.7838226984113845,2.86420558346301,95.59970412496202,-19.86373,-4.918786,19.326403,25.905888,-6.447387,-1.3714571,-0.24702147,-16.884909,-9.345637,70.781,0.8232125,0.942107,0.9035498,-7.061234,11.192356,-3.9926782,15.853948,-44.57869,67.90263,13.488499,0.28159168,2.8291533,-0.032347668,-14.613097,38.04919,56.270687,4.921738,0.44618037,-15.046775
176,-2.5397424697875977,102.57811737060547,75.09939575195312,7.742785839910521,2.7784980898601934,95.66432603319035,-18.335974,-5.169065,19.013893,24.723076,-6.7113748,-1.6177353,-2.2486038,-17.215485,-9.431115,72.55171,-0.6150963,0.11644593,0.48787037,-7.0276847,11.332633,-5.0233436,15.761262,-44.530758,67.66691,13.587988,0.2230486,3.3615773,0.12225151,-14.513076,38.84474,57.247227,4.3218393,0.8215916,-14.883225
177,-2.584261178970337,103.56256103515625,75.35317993164062,7.591817551396832,2.7071281619500676,95.71978944688402,-16.816263,-5.272174,18.657475,23.52846,-6.923101,-1.9370742,-4.1812816,-17.474613,-9.728868,73.93309,-2.0375245,-0.70426124,0.06805907,-6.8844867,11.446581,-6.045836,15.66276,-44.401714,67.4271,13.61795,0.17949069,3.854171,0.35718882,-14.415653,39.520943,58.059303,3.416465,1.1749067,-14.718876
178,-2.630265235900879,104.55072021484375,75.6102523803711,7.346908279141981,2.659183687889604,95.75475218096803,-15.290876,-5.248487,18.272207,22.271923,-7.069551,-2.3137121,-6.083751,-17.656284,-10.19081,74.953835,-3.4713156,-1.4936616,-0.34624138,-6.6476502,11.535434,-7.0711985,15.5596075,-44.20215,67.17681,13.614285,0.14178707,4.325551,0.6349386,-14.320128,40.131927,58.75898,2.2294142,1.5333796,-14.522814
179,-2.665484666824341,105.52857971191406,75.86315155029297,7.0464983458406305,2.6117437139823005,95.78157599757857,-13.7364645,-5.150458,17.873367,20.947533,-7.156878,-2.7210903,-7.9238286,-17.732967,-10.721263,75.63435,-4.8641233,-2.1615005,-0.7609142,-6.3570604,11.619678,-8.085493,15.45351,-43.945114,66.902084,13.585462,0.10006009,4.7914715,0.94096243,-14.23083,40.681286,59.350822,1.0537914,1.8431102,-14.317162
180,-2.6961047649383545,106.4967269897461,76.10924530029297,6.73126665520506,2.5419581395192563,95.81297690506149,-12.130199,-5.030197,17.474407,19.552824,-7.1913104,-3.1317198,-9.673718,-17.685444,-11.225984,75.99533,-6.1604185,-2.6271348,-1.1803156,-6.053129,11.720331,-9.076485,15.346145,-43.64775,66.58702,13.538739,0.04470672,5.267422,1.2648864,-14.155471,41.16979,59.83109,0.18312663,2.0536842,-14.128934
181,-2.723418712615967,107.4661865234375,76.34624481201172,6.406481066446227,2.434248672751351,95.85406457668523,-10.444119,-4.8989983,17.061907,18.062326,-7.162305,-3.547433,-11.3169565,-17.503817,-11.698835,76.011024,-7.369696,-2.8302333,-1.6052532,-5.743952,11.853833,-10.049836,15.238003,-43.313187,66.24031,13.435882,-0.025824912,5.778133,1.6198605,-14.100141,41.590103,60.162495,-0.32855293,2.1618223,-13.956586
182,-2.7398505210876465,108.45153045654297,76.56880950927734,6.052504981121538,2.304378960190838,95.8987091761146,-8.700545,-4.728241,16.637686,16.490318,-7.0714216,-3.9808218,-12.872988,-17.210842,-12.195307,75.67579,-8.504503,-2.8310275,-2.03297,-5.4103475,12.007362,-11.011744,15.129028,-42.936245,65.86507,13.287155,-0.10741031,6.307645,2.0125132,-14.066999,41.942192,60.347115,-0.6288162,2.1933522,-13.791835
183,-2.76108455657959,109.43955993652344,76.78267669677734,5.674854069517293,2.1765925584765884,95.94317366372195,-6.936072,-4.5140376,16.234388,14.862691,-6.938184,-4.418856,-14.370417,-16.837034,-12.710265,75.04034,-9.513451,-2.733926,-2.463047,-5.0509176,12.158191,-11.953421,15.0205145,-42.525314,65.438446,13.167502,-0.20008765,6.8106203,2.4217846,-14.057996,42.237564,60.440742,-0.72613543,2.1432962,-13.652917
184,-2.7760581970214844,110.4300537109375,76.97395324707031,5.276679176541929,2.0750059026383196,95.98286735189066,-5.187306,-4.257292,15.884896,13.206635,-6.7835207,-4.84612,-15.837216,-16.408497,-13.235303,74.15692,-10.347353,-2.6409247,-2.8929784,-4.6633277,12.284687,-12.86322,14.918835,-42.089912,64.93095,13.149789,-0.3023606,7.2417297,2.828182,-14.073249,42.48496,60.49686,-0.63016653,2.0065002,-13.557269
185,-2.7962894439697266,111.42205047607422,77.14471435546875,4.849150035099101,1.999475503632794,96.01297859110635,-3.4352431,-3.9523845,15.598358,11.490346,-6.5944386,-5.243093,-17.278648,-15.916222,-13.774397,73.01976,-10.981259,-2.6069424,-3.3310256,-4.2362576,12.382509,-13.730981,14.818371,-41.616,64.34483,13.272582,-0.43234316,7.62454,3.2270286,-14.117789,42.70479,60.51401,-0.21845211,1.7333499,-13.547794
186,-2.815685510635376,112.42410278320312,77.29773712158203,4.399909883120958,1.9396116920988589,96.03800644463762,-1.6610197,-3.610366,15.360062,9.694238,-6.3579893,-5.619101,-18.679842,-15.361531,-14.326417,71.603714,-11.44706,-2.5714016,-3.7720938,-3.7788289,12.46511,-14.563709,14.725764,-41.107727,63.683205,13.4898615,-0.581977,7.971175,3.6346915,-14.191645,42.879818,60.459724,0.46997485,1.3422058,-13.597861
187,-2.83386492729187,113.4072265625,77.41472625732422,3.950295237403756,1.9040399548052889,96.06658113211685,0.10936769,-3.2601233,15.164095,7.8404,-6.0838842,-6.0019464,-20.037199,-14.781964,-14.871599,69.93206,-11.781669,-2.4571395,-4.2138314,-3.3165212,12.530821,-15.38172,14.642665,-40.577793,62.95002,13.753709,-0.7150083,8.222585,4.045875,-14.290339,42.99197,60.359592,1.1936858,0.9311786,-13.625013
188,-2.8414885997772217,114.39037322998047,77.50093078613281,3.5221124237823878,1.9014288523846539,96.10795127281169,1.3322245,-2.784273,15.025823,7.0861807,-6.3821807,-6.424712,-21.345034,-14.212367,-15.392698,68.02655,-12.02086,-2.189056,-4.6508503,-2.872368,12.576894,-16.20425,14.570606,-40.042336,62.144753,14.015434,-0.7928579,8.318284,4.455927,-14.404661,43.019596,60.24219,1.7116148,0.6006572,-13.552364
189,-2.8521487712860107,115.36615753173828,77.56007385253906,3.1011734677265625,1.944603351989698,96.150243189037,2.1918876,-2.2259765,14.936632,6.9974723,-7.033574,-6.916076,-22.61328,-13.631818,-15.889855,65.86288,-12.158869,-1.7233679,-5.074564,-2.4300125,12.591985,-17.024193,14.5089655,-39.46685,61.241653,14.289233,-0.78291917,8.148213,4.8627477,-14.528007,42.93913,60.10902,1.9375618,0.36858767,-13.336537
190,-2.8736109733581543,116.36798095703125,77.58988189697266,2.6856368704879006,2.024786329748645,96.19367473061666,3.0049026,-1.6660882,14.879843,6.9134946,-7.691245,-7.4454384,-23.835646,-13.039597,-16.365751,63.429485,-12.180593,-1.1135935,-5.4896417,-1.9878803,12.579517,-17.837301,14.458486,-38.859077,60.251232,14.589983,-0.71465826,7.775137,5.2664356,-14.657654,42.76757,59.954884,2.007559,0.18440686,-13.029465
191,-2.8966126441955566,117.33667755126953,77.59076690673828,2.3156512424494724,2.1178688546629676,96.2645498748243,3.795634,-1.1520901,14.829871,6.835619,-8.335406,-7.954239,-24.981544,-12.497981,-16.805922,60.766346,-12.106162,-0.43112412,-5.9097953,-1.5915066,12.559438,-18.661848,14.422246,-38.292313,59.224712,14.87722,-0.64376783,7.398317,5.6634455,-14.788254,42.54425,59.801178,2.01363,0.04622143,-12.700448
192,-2.9117722511291504,118.31391906738281,77.55780792236328,2.0292166838295413,2.1997179137392555,96.38878797777159,4.5886993,-0.7302447,14.761596,6.7642922,-8.946348,-8.387294,-26.022453,-12.064877,-17.19565,57.916737,-11.956729,0.25287014,-6.347738,-1.2851077,12.551345,-19.513107,14.403745,-37.842236,58.21079,15.106878,-0.6236491,7.217494,6.0478745,-14.912035,42.30813,59.672523,2.0463772,-0.047522776,-12.4182205
193,-2.9229679107666016,119.28428649902344,77.48625946044922,1.80993173977325,2.2750230033645438,96.56137281708769,5.371183,-0.39142317,14.674492,6.7092113,-9.530657,-8.728479,-26.974155,-11.724522,-17.535198,54.875225,-11.727494,0.9392577,-6.8016734,-1.0529307,12.553966,-20.395206,14.407469,-37.54801,57.20131,15.242777,-0.66625184,7.3190517,6.411036,-15.020835,42.063908,59.590317,2.1167777,-0.092375554,-12.193505
194,-2.926114320755005,120.26383972167969,77.3921127319336,1.6700927234076515,2.3438494592865204,96.76317970878189,6.1269035,-0.14123209,14.590238,6.7125115,-10.121349,-9.008062,-27.842005,-11.475041,-17.79825,51.62976,-11.415012,1.6582184,-7.257521,-0.91031766,12.561384,-21.292892,14.432884,-37.363914,56.172497,15.316555,-0.7426495,7.585386,6.746756,-15.102504,41.79492,59.55782,2.1794393,-0.09076059,-11.994156
195,-2.9320759773254395,121.25428009033203,77.27964782714844,1.609937350103711,2.389250663543541,97.01973830833884,6.898315,0.029198267,14.488054,6.729531,-10.67555,-9.247502,-28.57508,-11.328444,-18.00874,48.19867,-11.032484,2.37093,-7.7311616,-0.85671103,12.584047,-22.19262,14.475443,-37.239315,55.142284,15.378885,-0.8433656,7.9104576,7.0680437,-15.16537,41.505764,59.544464,2.2400992,-0.051784605,-11.8210535
196,-2.934401035308838,122.24296569824219,77.14325714111328,1.6293938522329776,2.3885086382165603,97.35209147004888,7.7238607,0.12718962,14.352467,6.741296,-11.167414,-9.463628,-29.137142,-11.30342,-18.181479,44.634834,-10.613617,3.0415058,-8.237704,-0.8961436,12.632443,-23.089905,14.520358,-37.121178,54.15059,15.482004,-0.9596635,8.190541,7.3755407,-15.200812,41.210625,59.543236,2.3081336,0.014240125,-11.677982
197,-2.9254891872406006,123.23655700683594,76.98869323730469,1.7408185387104405,2.3234365160705375,97.77896568452017,8.621965,0.12678407,14.177841,6.748338,-11.595446,-9.638177,-29.489119,-11.40954,-18.316608,40.85078,-10.162218,3.6759458,-8.793494,-1.043003,12.721326,-23.99777,14.560033,-37.002396,53.20011,15.668112,-1.0965524,8.409185,7.66761,-15.214859,40.92053,59.55273,2.4119253,0.12031127,-11.575417
198,-2.920459747314453,124.25155639648438,76.81812286376953,1.9333820190273716,2.2074040954883984,98.28837737067549,9.571257,0.03281119,13.967124,6.7528243,-11.967327,-9.768307,-29.647766,-11.639461,-18.414175,36.83637,-9.656976,4.2796326,-9.369467,-1.2837825,12.852385,-24.909756,14.6228485,-36.928837,52.235043,15.891549,-1.2547027,8.613629,7.9656267,-15.221037,40.582863,59.54288,2.5177062,0.26772812,-11.501863
199,-2.8993523120880127,125.27932739257812,76.63954162597656,2.182067841867453,2.06360656324445,98.85257529962229,10.548232,-0.1081315,13.721329,6.753378,-12.283029,-9.893572,-29.669107,-11.983523,-18.486805,32.768864,-9.093002,4.8249288,-9.984373,-1.5930558,12.9740305,-25.810429,14.669377,-36.849365,51.339993,16.104975,-1.424892,8.81337,8.24717,-15.210472,40.26712,59.54941,2.6149235,0.42688504,-11.448054
200,-2.8908629417419434,126.31486511230469,76.44769287109375,2.4620221037778913,1.9155512042892775,99.44366101613241,11.529833,-0.24699508,13.442659,6.750705,-12.544218,-10.056909,-29.618216,-12.422,-18.54873,28.834858,-8.467505,5.294636,-10.573346,-1.9430461,13.07607,-26.677692,14.728206,-36.801617,50.488586,16.229675,-1.5923699,9.004591,8.545916,-15.177361,39.88808,59.533478,2.6220157,0.568197,-11.385303
201,-2.8636980056762695,127.36237335205078,76.23809814453125,2.79518474621008,1.7550847487514574,100.07345574842114,12.528361,-0.39744356,13.146018,6.7434244,-12.755143,-10.270458,-29.49264,-12.965463,-18.585001,24.97354,-7.732623,5.697115,-11.1866045,-2.3527596,13.141238,-27.521946,14.763617,-36.730503,49.730324,16.257435,-1.7682023,9.185939,8.858625,-15.137565,39.504402,59.507706,2.5485432,0.69019645,-11.314269
202,-2.8300247192382812,128.4185791015625,76.01407623291016,3.1869824581041,1.5674260433440055,100.75689128226001,13.555489,-0.5832779,12.81867,6.7325253,-12.917706,-10.51598,-29.265398,-13.618421,-18.606133,21.127766,-6.905818,6.048189,-11.7949095,-2.8312879,13.195695,-28.363857,14.792336,-36.694973,49.032402,16.204086,-1.9533273,9.356154,9.195316,-15.072495,39.05396,59.467,2.392256,0.80478597,-11.239252
203,-2.7896769046783447,129.48382568359375,75.77734375,3.5876185499060744,1.3704380976755521,101.46931343008397,14.583544,-0.75948155,12.423967,6.7187357,-13.021171,-10.79448,-28.96729,-14.331645,-18.668818,17.473484,-6.0739856,6.353322,-12.433698,-3.3233058,13.222909,-29.161757,14.802828,-36.63803,48.42342,16.126091,-2.1315014,9.528932,9.516078,-15.011322,38.64209,59.41554,2.221185,0.91088456,-11.173341
204,-2.734222173690796,130.57362365722656,75.53408813476562,3.9449315989013125,1.1881782739525855,102.1776644313635,15.583743,-0.8703798,11.934277,6.7050095,-13.057156,-11.108906,-28.651375,-15.041835,-18.822239,14.218101,-5.331313,6.6211867,-13.028237,-3.7725332,13.227455,-29.925533,14.792847,-36.62592,47.91863,16.036945,-2.2829568,9.715927,9.803251,-14.9151,38.212814,59.37136,2.0301468,1.0012488,-11.118171
205,-2.6724627017974854,131.6688232421875,75.29450988769531,4.253260680707687,1.0421486561710191,102.88959030866944,16.527607,-0.8866752,11.324413,6.6920333,-13.050416,-11.484077,-28.334608,-15.738894,-19.070856,11.310564,-4.673535,6.8372335,-13.650082,-4.164361,13.185942,-30.636873,14.770211,-36.59361,47.528797,15.944564,-2.4027097,9.922293,10.045191,-14.835802,37.861996,59.30564,1.8681303,1.08465,-11.079923
206,-2.607726573944092,132.76739501953125,75.06228637695312,4.531068769040308,0.9229888577270523,103.60383810546406,17.429758,-0.81929535,10.63118,6.6813364,-12.99575,-11.916086,-27.973684,-16.398659,-19.403046,8.596968,-4.014093,7.015966,-14.215537,-4.5223327,13.111266,-31.357956,14.700316,-36.61964,47.282326,15.823862,-2.5001225,10.144086,10.256941,-14.700052,37.465115,59.261955,1.6686028,1.1546888,-11.050852
207,-2.5212528705596924,133.8998565673828,74.83934020996094,4.754117394439495,0.8227088085416375,104.26270510957282,18.320198,-0.6627961,9.934778,6.6665072,-12.834228,-12.365401,-28.005375,-17.097397,-19.692831,7.141575,-3.8599305,7.200064,-14.73617,-4.8209176,13.00431,-32.00568,14.583325,-36.606186,47.150772,15.73997,-2.584847,10.378201,10.409132,-14.548053,37.14071,59.2592,1.481136,1.2058624,-11.042373
208,-2.442904472351074,135.03399658203125,74.63407897949219,4.895671717144888,0.7374513837370668,104.80522848313268,19.223639,-0.41569322,9.319633,6.6484365,-12.512387,-12.791925,-28.428598,-17.781612,-19.9243,7.075628,-4.2264056,7.41423,-15.185566,-5.022727,12.892378,-32.49824,14.494253,-36.527534,47.02242,15.687495,-2.6645,10.615622,10.517901,-14.460201,36.93333,59.23948,1.3251455,1.2347999,-11.051007
209,-2.365032196044922,136.18194580078125,74.4565658569336,4.93872446624918,0.6704327649130448,105.22962080310761,20.136019,-0.04884996,8.777012,6.626385,-12.051799,-13.228037,-28.578344,-18.228416,-20.352509,7.0627,-4.4135,7.7210903,-15.494625,-5.116086,12.767409,-32.943214,14.303158,-36.432873,47.078808,15.711637,-2.7598572,10.878059,10.54562,-14.331232,36.79038,59.322678,1.1966848,1.2102418,-11.10522
210,-2.274746894836426,137.35842895507812,74.30132293701172,4.895759632733441,0.6349791232089045,105.54718775915941,21.03647,0.43511957,8.29631,6.5992637,-11.467712,-13.679394,-28.49798,-18.466032,-20.942528,7.09387,-4.4388933,8.073334,-15.705292,-5.1065526,12.626455,-33.305286,14.065657,-36.29694,47.24739,15.789661,-2.859075,11.159917,10.518984,-14.222737,36.734627,59.42996,1.1024406,1.1492825,-11.192284
211,-2.1714229583740234,138.56558227539062,74.1728744506836,4.792688423990763,0.6329246796711604,105.72254001644149,21.935455,0.97631466,7.9484506,6.5670323,-10.6971445,-14.063518,-28.250414,-18.48623,-21.548698,7.159691,-4.2837353,8.323929,-15.81676,-5.028281,12.4644575,-33.461082,13.76699,-35.987194,47.409237,16.036818,-2.9236083,11.429892,10.432248,-14.137869,36.759586,59.54974,0.99380475,1.0935633,-11.271181
212,-2.052144765853882,139.81800842285156,74.06761932373047,4.669580682208708,0.6437937098936819,105.69670524112937,22.83234,1.4951206,7.816974,6.620893,-9.731367,-14.291783,-27.89315,-18.288626,-21.989275,7.2544947,-3.9165156,8.3316965,-15.700561,-4.905418,12.251544,-33.678734,13.5069065,-35.91273,47.707767,15.960997,-2.9358037,11.687223,10.362261,-14.07331,36.778587,59.66179,0.83000714,1.0850489,-11.306263
213,-1.9333547353744507,141.089111328125,73.96817016601562,4.46489608728597,0.646942995599063,105.47242595843838,23.787088,2.06206,7.872802,6.717917,-8.598753,-14.395538,-28.421293,-18.248621,-22.021168,9.78594,-4.6453075,8.0983925,-15.482701,-4.724528,12.044378,-33.530704,13.223581,-35.543743,47.84724,16.113869,-2.839584,11.899987,10.209004,-14.022021,36.914867,59.808296,0.56697696,1.1454762,-11.27049
214,-1.8189622163772583,142.39254760742188,73.88080596923828,4.1862903344139575,0.63190665388977,105.1041155295086,24.785131,2.6950777,8.05837,6.8590064,-7.3090634,-14.387097,-28.88507,-18.042303,-22.013527,12.72802,-5.39823,7.697111,-15.200985,-4.487018,11.844915,-33.086212,12.88604,-34.916866,47.906315,16.481974,-2.6648524,12.078886,9.9792795,-13.985847,37.16771,59.98953,0.24215138,1.2487508,-11.190215
215,-1.6932716369628906,143.70057678222656,73.81819152832031,3.889926542187935,0.6397382838202631,104.68402491585455,24.847977,3.462875,8.309578,8.9226465,-6.7194853,-14.153868,-29.349707,-17.72476,-21.8885,15.759186,-5.9238944,7.098061,-14.824313,-4.2009454,11.588045,-32.73384,12.58965,-34.54988,48.09872,16.542456,-2.4853265,12.24099,9.774853,-13.963801,37.380074,60.140045,-0.083930165,1.3631865,-11.100027
216,-1.5610475540161133,145.01104736328125,73.7817611694336,3.5935386915333742,0.7420349761818545,104.3017702762352,24.114958,4.3271947,8.618876,12.334061,-6.38971,-13.589193,-29.925922,-17.328255,-21.588207,18.601519,-5.9901814,6.255136,-14.490396,-3.8910856,11.25818,-32.239445,12.306924,-34.15172,48.185955,16.67417,-2.3433373,12.354021,9.549008,-13.946072,37.5309,60.230038,-0.36186045,1.4552186,-11.028097
217,-1.4231153726577759,146.3466339111328,73.7521743774414,3.2816717915513265,1.0424003451719464,103.98690096654533,22.80368,5.266941,8.979721,16.393707,-5.863,-12.497162,-30.802069,-16.85587,-21.025568,21.321299,-5.263335,5.0464187,-14.207541,-3.510465,10.736997,-31.647772,12.042262,-33.809635,48.19031,16.795828,-2.2409067,12.385941,9.340429,-13.927912,37.57331,60.236862,-0.5930768,1.5187112,-10.97798
218,-1.2747254371643066,147.68630981445312,73.73421478271484,2.9092211233111946,1.500978816820138,103.71489048883879,21.112402,6.3457665,9.404169,20.810957,-5.0886874,-10.955698,-31.867546,-16.273088,-20.356785,23.998837,-3.9352403,3.5314527,-13.963101,-3.0304635,10.064194,-30.947025,11.793456,-33.507576,48.130634,16.899548,-2.1528673,12.352526,9.130341,-13.909462,37.549606,60.19238,-0.8042677,1.56961,-10.934691
219,-1.1322641372680664,149.0306854248047,73.71640014648438,2.450140798592263,1.9796297594059147,103.45583987681546,19.355385,7.6119757,9.974833,25.212713,-4.0189347,-9.268402,-32.8194,-15.556495,-19.822178,26.439323,-2.6107914,1.9075866,-13.735846,-2.461339,9.415976,-30.192791,11.559835,-33.241127,48.0662,16.973274,-2.1024923,12.325825,8.858806,-13.895208,37.511017,60.144295,-0.9664993,1.6089722,-10.90614
220,-0.984265923500061,150.33438110351562,73.7187271118164,1.8803193666288986,2.3397644996650415,103.17413390006769,17.770004,9.118486,10.75844,29.412254,-2.68105,-7.749463,-33.385094,-14.688887,-19.590605,28.51918,-1.9490398,0.3545544,-13.501967,-1.8136019,8.970335,-29.424303,11.33732,-32.98317,48.042973,17.028856,-2.1118941,12.3772335,8.463508,-13.891553,37.51153,60.136795,-1.050277,1.63832,-10.899779
221,-0.8474152684211731,151.61642456054688,73.73808288574219,1.1647190117739679,2.555501425763721,102.83684960500466,16.406057,10.973351,11.899672,33.489258,-0.95979136,-6.490912,-33.55609,-13.623189,-19.631165,30.335888,-2.305182,-1.2213867,-13.233494,-1.0497745,8.766015,-28.641083,11.130298,-32.729992,48.05234,17.060036,-2.211209,12.556291,7.9326496,-13.903664,37.552223,60.18205,-1.0047271,1.6365731,-10.919819
222,-0.6902763843536377,152.89576721191406,73.7806396484375,0.33531217221356735,2.687421756555442,102.4423074615459,15.15183,13.155715,13.347033,37.587494,1.0744294,-5.2652764,-33.476574,-12.389902,-19.774162,31.982906,-3.3375564,-2.8767922,-12.927973,-0.18687293,8.715275,-27.817987,10.941186,-32.48782,48.067936,17.070147,-2.38079,12.814685,7.297726,-13.931872,37.612106,60.249718,-0.8591668,1.6107204,-10.960923
223,-0.5261213779449463,154.15792846679688,73.84442138671875,-0.5326100160028793,2.7309841382274596,102.01026881561026,13.970649,15.500371,14.854993,41.65981,3.094598,-3.9491165,-33.12608,-11.07915,-19.954844,33.346455,-4.6599464,-4.365648,-12.60003,0.6880142,8.799623,-26.983204,10.772116,-32.276283,48.13059,17.048067,-2.5690825,13.0800495,6.56285,-13.974455,37.70601,60.327007,-0.70303446,1.6036395,-11.016107
224,-0.3750447630882263,155.37539672851562,73.92334747314453,-1.3554876034766734,2.684018101497908,101.56484589825463,12.800457,17.803156,16.170078,45.65876,4.770846,-2.4579027,-32.498787,-9.785837,-20.143965,34.309566,-5.8540998,-5.4501405,-12.265239,1.4850061,8.996126,-26.180069,10.603012,-32.107418,48.30958,16.990335,-2.7254753,13.282758,5.7374845,-14.033394,37.849022,60.400444,-0.6241089,1.6589842,-11.079313
225,-0.22918042540550232,156.56849670410156,74.01068115234375,-2.119305100549975,2.4937155839833807,101.06334621743267,11.681812,20.172855,17.4976,49.749195,6.104927,-0.6818217,-31.546473,-8.484498,-20.340473,34.83738,-6.8738785,-5.9925704,-11.900525,2.1755457,9.363305,-25.387815,10.438095,-31.930923,48.587646,16.886612,-2.840452,13.434841,4.783329,-14.105509,38.077225,60.500385,-0.6771882,1.8066767,-11.119233
226,-0.11127670109272003,157.7196044921875,74.10429382324219,-2.870867781488842,2.174260619590364,100.51026413446156,10.629795,22.700272,18.88488,53.96723,7.1832004,1.3176007,-30.298708,-7.1181846,-20.554749,34.98597,-7.8962636,-6.141766,-11.510284,2.822615,9.893164,-24.595121,10.27862,-31.746004,48.950035,16.750675,-2.9401736,13.56469,3.7086556,-14.188341,38.381126,60.62701,-0.80266976,2.0180314,-11.147567
227,-0.0005742810317315161,158.83697509765625,74.215087890625,-3.5707793921944604,1.833942878261032,100.00324517753995,9.474695,24.983904,19.802183,58.01315,7.8744044,3.2500663,-28.896551,-5.7826953,-20.773266,34.816715,-8.850842,-6.096203,-11.138358,3.417937,10.452648,-23.864044,10.128068,-31.675978,49.456192,16.58183,-3.0261157,13.627951,2.5995367,-14.275768,38.688545,60.717087,-0.9244472,2.2483613,-11.223032
228,0.11370664089918137,159.9424285888672,74.36114501953125,-4.1712675260165115,1.5912515788617285,99.64724711132433,7.944727,26.501791,19.66597,61.591602,8.109974,4.718999,-27.496199,-4.599739,-20.988062,34.41937,-9.682931,-6.049864,-10.828778,3.9377596,10.901453,-23.257895,9.987695,-31.85299,50.16766,16.37964,-3.0991766,13.5800295,1.5410614,-14.361521,38.914463,60.709854,-0.96894425,2.4522424,-11.406306
229,0.21727830171585083,161.01841735839844,74.53331756591797,-4.645709181175357,1.5020741026633213,99.48803237444159,5.736357,26.679848,17.846575,64.65616,7.781035,5.3593907,-26.148506,-3.6315687,-21.220142,33.79451,-10.392585,-6.0220213,-10.607747,4.3599143,11.198535,-22.820143,9.857699,-32.354927,51.150047,16.056015,-3.1959977,13.469256,0.5282156,-14.441907,39.034744,60.594326,-0.9168571,2.6393733,-11.749744
230,0.31136301159858704,162.0611114501953,74.7249984741211,-5.001662620606166,1.5049940955514167,99.47077472627917,3.04628,25.682669,14.850912,67.39911,7.00506,5.307627,-24.784815,-2.835311,-21.474483,32.93153,-11.019077,-5.9185133,-10.446557,4.674188,11.412054,-22.507399,9.740683,-33.105537,52.35653,15.637958,-3.3022583,13.299494,-0.4767981,-14.513147,39.08587,60.40882,-0.8096156,2.8252025,-12.210437
231,0.3800722360610962,163.07789611816406,74.9513168334961,-5.251382990337782,1.546191988705544,99.55066954324295,0.30429947,24.164095,11.76029,69.8679,6.0706453,4.939,-23.382383,-2.1736186,-21.728018,31.906906,-11.569026,-5.762861,-10.295905,4.8840165,11.56316,-22.26948,9.623286,-34.018143,53.6995,15.296783,-3.341036,12.964238,-1.4271013,-14.580754,39.058002,60.15494,-0.6666786,2.9732914,-12.706811
232,0.4574592709541321,164.11766052246094,75.21229553222656,-5.412970903885863,1.5760804230988328,99.68445359578917,-2.1843286,22.92423,9.52479,72.05739,5.2967043,4.6836457,-21.918882,-1.601379,-21.956362,30.782837,-12.040612,-5.580426,-10.1238985,4.9977784,11.671155,-22.041449,9.506597,-34.986805,55.073284,15.208548,-3.2368364,12.353795,-2.2896283,-14.643486,38.960163,59.844585,-0.5046714,3.047469,-13.158062
233,0.5491217970848083,165.1627197265625,75.48966217041016,-5.484792412485838,1.598932159613837,99.91177621718461,-4.477549,22.242659,8.285376,73.954346,4.8184133,4.669023,-20.37929,-1.1326569,-22.187744,29.543787,-12.42648,-5.381916,-9.949088,5.0110555,11.727071,-21.85426,9.38753,-36.09785,56.536644,15.4279995,-2.9684074,11.384245,-3.0383728,-14.701739,38.763012,59.463787,-0.3103817,3.0209963,-13.5699415
234,0.6292430758476257,166.2025909423828,75.76522064208984,-5.465938465433858,1.6360620604285552,100.2405730781518,-6.7141438,21.762587,7.5456614,75.54414,4.4504914,4.7138577,-18.76901,-0.7735453,-22.436975,28.156868,-12.729889,-5.1616836,-9.780228,4.9279046,11.726058,-21.728338,9.264705,-37.369293,58.120834,15.8642845,-2.5842447,10.1297245,-3.6951113,-14.757051,38.469154,59.012306,-0.082440875,2.9180756,-13.976395
235,0.6988072395324707,167.24314880371094,76.04608154296875,-5.375740336162388,1.6667485279758953,100.57512941957725,-8.814403,21.390024,7.2055497,76.80855,4.0494523,4.7968216,-17.11411,-0.47091696,-22.648169,26.668242,-12.958529,-4.9177027,-9.563571,4.771362,11.688816,-21.58758,9.138315,-38.59597,59.682995,16.474958,-2.1168323,8.717703,-4.295519,-14.815591,38.133835,58.51749,0.14500636,2.7802074,-14.338692
236,0.751781165599823,168.2660369873047,76.32386779785156,-5.232732433144851,1.6712911865092668,100.81973808463793,-10.694593,21.013298,7.1668916,77.73032,3.4763086,4.87684,-15.442485,-0.17675741,-22.76303,25.126528,-13.120446,-4.6409364,-9.255241,4.5651393,11.638645,-21.349125,9.013057,-39.56109,61.072582,17.218508,-1.5969858,7.2741094,-4.879534,-14.885072,37.82578,58.00438,0.34153733,2.6503825,-14.618388
237,0.792655348777771,169.29554748535156,76.59915161132812,-5.017003134040355,1.6460391622573949,100.96731180067066,-12.302914,20.686928,7.547977,78.27456,2.6590605,4.998532,-13.747018,0.08860818,-22.772661,23.52254,-13.20738,-4.300821,-8.850969,4.28772,11.574577,-20.978188,8.890892,-40.202736,62.242638,18.245432,-0.97115713,5.6966443,-5.4410768,-14.970109,37.562534,57.466263,0.5232202,2.5300913,-14.81802
238,0.8501129150390625,170.33399963378906,76.85908508300781,-4.724235913431605,1.6013381303539143,101.06249796166061,-13.68404,20.44132,8.34986,78.448135,1.687143,5.1520786,-12.017863,0.29844517,-22.706356,21.845125,-13.220699,-3.9054823,-8.38193,3.9346263,11.490564,-20.514988,8.776251,-40.629784,63.263325,19.53275,-0.26479608,3.9513397,-5.9677095,-15.071787,37.321793,56.890396,0.703012,2.401373,-14.953763
239,0.9063770174980164,171.3704376220703,77.11114501953125,-4.396992744477137,1.5403489235133332,101.08745121298551,-14.911058,20.123196,9.296544,78.30004,0.6686921,5.21141,-10.278212,0.49018762,-22.563007,20.130007,-13.180071,-3.499625,-7.8596425,3.5549693,11.403895,-19.9788,8.679027,-40.86548,64.150665,20.784525,0.39288005,2.2767863,-6.492017,-15.192396,37.11374,56.291332,0.84464324,2.2787843,-15.007996
240,0.9538683295249939,172.4154052734375,77.34422302246094,-4.08260646164049,1.466470495406285,101.02449206874785,-16.072325,19.596819,10.1086645,77.882126,-0.2848986,5.066412,-8.550918,0.7072339,-22.341185,18.41233,-13.101189,-3.1298764,-7.300578,3.2029097,11.331602,-19.387577,8.615123,-40.93413,64.911316,21.685446,0.9041198,0.921908,-7.050478,-15.334698,36.954918,55.686356,0.912494,2.177038,-14.963072
